unveil-humanoid-operators/unveil-humanoid-operators.github.io/feature-analysis-animation/data/feature_matrix_instances/gender_shoulder_mean_vel_jogging_A383_jog_ff_loop_180_R_002__A383.csv
Frame,root_translateX,root_translateY,root_translateZ,root_rotateX,root_rotateY,root_rotateZ,left_hip_pitch_joint_dof,left_hip_roll_joint_dof,left_hip_yaw_joint_dof,left_knee_joint_dof,left_ankle_pitch_joint_dof,left_ankle_roll_joint_dof,right_hip_pitch_joint_dof,right_hip_roll_joint_dof,right_hip_yaw_joint_dof,right_knee_joint_dof,right_ankle_pitch_joint_dof,right_ankle_roll_joint_dof,waist_yaw_joint_dof,waist_roll_joint_dof,waist_pitch_joint_dof,left_shoulder_pitch_joint_dof,left_shoulder_roll_joint_dof,left_shoulder_yaw_joint_dof,left_elbow_joint_dof,left_wrist_roll_joint_dof,left_wrist_pitch_joint_dof,left_wrist_yaw_joint_dof,right_shoulder_pitch_joint_dof,right_shoulder_roll_joint_dof,right_shoulder_yaw_joint_dof,right_elbow_joint_dof,right_wrist_roll_joint_dof,right_wrist_pitch_joint_dof,right_wrist_yaw_joint_dof
0,-0.1852102279663086,1.0170830488204956,81.2596664428711,-1.39259980921861,11.02318505050838,-87.00894804166433,-25.250635,-0.036779385,-9.619805,8.042983,17.269403,-13.477554,1.1767838,0.85356325,1.05098,42.38111,21.120834,14.838339,13.037479,2.54832,6.981053,38.101627,21.568537,-20.697004,-16.085413,18.873251,3.866089,21.470755,-12.682023,-25.932547,23.1426,-0.23969448,-7.4158545,-9.959754,-22.733236
1,-0.02294318564236164,-0.24990630149841309,80.9635009765625,-0.8795637605299338,10.667313924223883,-86.80314361695173,-25.54088,-0.9903462,-10.142091,12.0731325,13.200377,-11.607494,0.13202205,0.10243991,0.89446896,45.872513,18.901752,14.514638,12.416284,2.0987263,7.4442167,36.612423,21.641193,-21.012333,-15.337588,19.35085,4.006408,21.714434,-11.053565,-25.828085,23.376722,-0.5831935,-6.969229,-9.876356,-23.050982
2,0.10489312559366226,-1.5203320980072021,80.5843734741211,-0.47868800834335684,10.275418693971735,-86.63778130861125,-25.746923,-1.974325,-10.871066,16.047558,9.207432,-9.719056,-0.80321795,-0.5159322,0.7104163,49.2781,16.729824,14.162298,11.827321,1.7315098,7.8819976,35.191498,21.722095,-21.321335,-14.608076,19.880335,4.144915,21.996899,-9.53815,-25.61889,23.668303,-0.80089754,-6.5428433,-9.785608,-23.358013
3,0.21662314236164093,-2.843339443206787,80.11833190917969,-0.11965844346007809,9.844906895203941,-86.50993836796287,-25.821587,-2.9872086,-11.492779,19.868769,5.3773093,-7.944082,-1.7356077,-1.0592781,0.6148096,52.670654,14.56359,13.813522,11.221274,1.3911397,8.334893,33.767036,21.801031,-21.600721,-13.903981,20.28988,4.303986,22.216236,-8.091833,-25.345566,23.986937,-0.87942445,-6.1662436,-9.733911,-23.65446
4,0.30665138363838196,-4.182407379150391,79.58906555175781,0.2803386721387226,9.385793294992103,-86.4057315446957,-25.73428,-3.9850242,-11.695351,23.404264,1.7860707,-6.4222627,-2.7791703,-1.6112865,0.6930964,56.11498,12.366272,13.483268,10.558032,1.0027579,8.824233,32.242287,21.88096,-21.849024,-13.210094,20.40447,4.506497,22.280052,-6.6718054,-25.031391,24.280127,-0.7864586,-5.8782063,-9.769936,-23.933277
5,0.41402146220207214,-5.48128080368042,79.04120635986328,0.7919663466457116,8.869370234516124,-86.30738281675046,-25.498968,-4.921623,-11.2622385,26.709534,-1.6630208,-5.2190013,-3.9322248,-2.2207553,1.0105158,59.7272,10.026592,13.164632,9.830095,0.50284415,9.384676,30.590832,21.961447,-22.069098,-12.497042,20.200014,4.789258,22.065845,-5.249876,-24.69165,24.539331,-0.537979,-5.625174,-9.900039,-24.174543
6,0.5568686723709106,-6.730992317199707,78.48319244384766,1.3886956832496589,8.315454244047618,-86.21362839643675,-25.169062,-5.796601,-10.395353,29.848711,-5.0339713,-4.2432137,-5.1572256,-2.8512597,1.4991615,63.45997,7.5816607,12.869787,9.059355,-0.08874244,9.986591,28.844475,22.041168,-22.27168,-11.769928,19.763271,5.130442,21.658857,-3.8274322,-24.334654,24.777657,-0.17749602,-5.399131,-10.098998,-24.389734
7,0.6938456296920776,-7.969191551208496,77.89801788330078,2.01633146057434,7.808582428499188,-86.1321753961007,-24.789663,-6.625299,-9.403364,32.719482,-8.209515,-3.4013686,-6.5226116,-3.4806337,2.054555,67.13694,5.218016,12.640216,8.24699,-0.7309659,10.55277,26.996994,22.126627,-22.463192,-11.072625,19.080492,5.4641767,21.27938,-2.403456,-23.962639,24.97215,0.2843546,-5.30785,-10.367704,-24.619997
8,0.8225439786911011,-9.179555892944336,77.30229187011719,2.617419419378895,7.432540271428461,-86.06946637803287,-24.403421,-7.440933,-8.588088,35.223083,-11.058108,-2.6003797,-8.105388,-4.105571,2.5780232,70.58038,3.1266522,12.50512,7.3954763,-1.377113,11.007872,25.04489,22.230244,-22.652544,-10.455355,18.133299,5.7211337,21.147736,-0.96944404,-23.573895,25.092709,0.8325316,-5.461116,-10.706211,-24.907684
9,0.9620168209075928,-10.362502098083496,76.72895812988281,3.2385694989825415,7.223617138738427,-86.01500791187159,-24.062319,-8.299104,-7.943325,37.36562,-13.559105,-1.8017477,-10.003219,-4.821885,3.09652,73.86813,1.3969022,12.525348,6.4963293,-2.0680444,11.336157,22.954504,22.365704,-22.86788,-9.927966,16.690405,5.840662,21.360004,0.48004562,-23.156292,25.092682,1.5219359,-5.946628,-11.217151,-25.255638
10,1.082599401473999,-11.544150352478027,76.19678497314453,3.900130534110151,7.136959174776225,-85.96270402263052,-23.740078,-9.152383,-7.3284717,39.215466,-15.801211,-1.0582248,-12.16294,-5.622385,3.6623416,77.06064,-0.088330865,12.661494,5.555994,-2.8230035,11.567317,20.7422,22.536762,-23.101072,-9.478209,14.829368,5.8619905,21.787996,1.9504577,-22.705069,24.985249,2.3319163,-6.690778,-11.862302,-25.650589
11,1.1714106798171997,-12.71851921081543,75.72987365722656,4.50304547706378,7.133082686920336,-85.92591490236028,-23.357449,-9.901661,-6.827554,40.755745,-17.794111,-0.41074812,-14.446422,-6.367559,4.2135906,79.9567,-1.4428761,12.777328,4.5923285,-3.5520926,11.701759,18.477238,22.737864,-23.305428,-9.11948,12.995394,5.8654466,22.31397,3.4507835,-22.235683,24.834997,3.133914,-7.559087,-12.430574,-26.10832
12,1.2494349479675293,-13.88358211517334,75.34123992919922,4.946077758892109,7.171688432992681,-85.919208581131,-22.83117,-10.459648,-6.5171485,41.952896,-19.529333,0.10099475,-16.717543,-6.9204354,4.6770144,82.35428,-2.776041,12.735507,3.6184018,-4.157415,11.749159,16.22437,22.95756,-23.434858,-8.857854,11.635529,5.9447865,22.822706,4.99352,-21.77819,24.715237,3.7938092,-8.408517,-12.712101,-26.637423
13,1.3278238773345947,-15.095660209655762,75.04791259765625,5.184468316965026,7.283249366292577,-85.97623566312636,-22.18219,-10.777824,-6.399235,42.80476,-21.015429,0.44599214,-19.037983,-7.2589197,5.023813,84.23162,-4.117393,12.443436,2.644781,-4.590272,11.690064,13.954485,23.191914,-23.504799,-8.704616,10.872472,6.1934505,23.36362,6.5923615,-21.358498,24.664476,4.2826242,-9.344991,-12.536219,-27.33437
14,1.385085105895996,-16.316593170166016,74.8404769897461,5.2787136525648135,7.474951199655519,-86.07726724803025,-21.440315,-10.917413,-6.4145184,43.327473,-22.248884,0.6585566,-21.45481,-7.4586678,5.289441,85.68682,-5.4003615,11.988708,1.6554028,-4.8933396,11.538837,11.647538,23.438143,-23.532553,-8.654093,10.466734,6.543428,23.97084,8.253856,-20.98318,24.644304,4.646676,-10.375655,-12.0450115,-28.154005
15,1.412047028541565,-17.569908142089844,74.71797180175781,5.285804838206415,7.670397863381426,-86.15821782432283,-20.536657,-10.956648,-6.5480647,43.514984,-23.200388,0.79697275,-23.804502,-7.53455,5.4861474,86.69042,-6.5882177,11.507964,0.62425405,-5.1077695,11.358177,9.363437,23.685303,-23.479465,-8.664122,10.325011,6.8579674,24.505209,9.975002,-20.654352,24.613844,4.8734617,-11.216119,-11.510154,-28.893362
16,1.4310795068740845,-18.83368492126465,74.68347930908203,5.263295058109463,7.793902838065111,-86.15519186639418,-19.4028,-10.967412,-6.7917595,43.360416,-23.841396,0.91436195,-25.923306,-7.5152373,5.6293397,87.21485,-7.6447616,11.136125,-0.47911394,-5.2790604,11.207188,7.153139,23.9191,-23.306639,-8.678425,10.360175,6.998238,24.824572,11.752124,-20.369234,24.53609,4.9491706,-11.594851,-11.214558,-29.364313
17,1.4456114768981934,-20.12959098815918,74.73524475097656,5.228721419808714,7.802740358347949,-86.04472639868655,-17.967468,-10.968017,-7.1537447,42.81858,-24.191225,1.0177547,-27.762894,-7.402515,5.723293,87.23608,-8.598525,10.920125,-1.6801898,-5.4233456,11.120037,4.9798875,24.125935,-22.983694,-8.641749,10.630388,6.877614,24.840374,13.621465,-20.126045,24.372637,4.836774,-11.316482,-11.2976265,-29.436642
18,1.439823031425476,-21.428335189819336,74.8639907836914,5.151690007779052,7.744604686982726,-85.86262512356122,-16.28627,-10.905466,-7.6311836,41.911938,-24.260098,1.0760405,-29.408003,-7.201557,5.753054,86.77107,-9.4556265,10.781766,-2.956242,-5.51734,11.058567,2.795415,24.303911,-22.5536,-8.553033,11.161132,6.585568,24.64355,15.579159,-19.924047,24.152748,4.552106,-10.568639,-11.590649,-29.236818
19,1.4317013025283813,-22.75587272644043,75.07488250732422,5.01997206821682,7.680079740993607,-85.63405736279725,-14.484086,-10.745481,-8.200626,40.736485,-24.00525,1.0821297,-30.896141,-6.941365,5.7101793,85.85509,-10.146917,10.666943,-4.26469,-5.5535975,10.971399,0.63594,24.461727,-22.089098,-8.439127,11.816772,6.245825,24.362375,17.557005,-19.761232,23.935802,4.16404,-9.6650305,-11.919775,-28.969255
20,1.4178638458251953,-24.07879638671875,75.35696411132812,4.821273974965331,7.670073188654476,-85.3845024209119,-12.687636,-10.458791,-8.838108,39.39051,-23.385143,1.0317827,-32.261482,-6.646182,5.5835543,84.522156,-10.6038475,10.523918,-5.5631113,-5.5203815,10.809639,-1.4413372,24.614729,-21.656761,-8.349949,12.462956,5.985807,24.122126,19.485365,-19.635593,23.7797,3.7427027,-8.925043,-12.117888,-28.846674
21,1.3745765686035156,-25.451622009277344,75.72312927246094,4.549096775954586,7.728367915349079,-85.08144201205212,-10.903591,-10.053315,-9.620703,37.851982,-22.383625,0.94813716,-33.50282,-6.28547,5.3568416,82.741905,-10.807947,10.38876,-6.8810267,-5.4088016,10.56103,-3.444072,24.773472,-21.256962,-8.2925,13.151812,5.858398,23.921297,21.370314,-19.547361,23.690409,3.2723773,-8.362509,-12.123244,-28.947926
22,1.3101515769958496,-26.849512100219727,76.15721130371094,4.21410727637548,7.825157202233261,-84.72520138669363,-9.089742,-9.538623,-10.524108,36.104492,-21.034792,0.82494205,-34.594418,-5.868419,5.039102,80.501785,-10.800798,10.272869,-8.224655,-5.229099,10.259183,-5.389978,24.93943,-20.863821,-8.255881,13.921445,5.788386,23.705389,23.244425,-19.495668,23.63425,2.7239532,-7.832643,-12.033729,-29.154982
23,1.2229368686676025,-28.266319274902344,76.64690399169922,3.8290817929036076,7.95489776166832,-84.39158562828436,-7.29786,-8.898181,-11.374353,34.250412,-19.367527,0.61773705,-35.52887,-5.454812,4.6507196,77.857475,-10.60419,10.099536,-9.51628,-4.9931326,9.92509,-7.223776,25.114843,-20.499552,-8.275507,14.619051,5.7171836,23.517765,25.07143,-19.477362,23.60912,2.1529405,-7.420934,-11.926101,-29.391966
24,1.1251468658447266,-29.716447830200195,77.1873550415039,3.404376944769181,8.110634905434395,-84.15668154070623,-5.573549,-8.12417,-12.003982,32.386868,-17.40623,0.28448057,-36.295715,-5.0920515,4.203169,74.86122,-10.239673,9.799418,-10.6771755,-4.7146273,9.578285,-8.886966,25.304007,-20.18423,-8.387962,15.091758,5.5887194,23.402971,26.8123,-19.488642,23.61043,1.6190896,-7.2158475,-11.875074,-29.58067
25,1.0170661211013794,-31.191179275512695,77.76212310791016,2.9029703332930397,8.29885558323627,-84.04413712439053,-3.9003203,-7.16629,-12.391937,30.487732,-15.134327,-0.18928802,-36.88096,-4.7154155,3.648811,71.4671,-9.732834,9.36051,-11.680563,-4.3617983,9.223055,-10.374417,25.516312,-19.920303,-8.608584,15.23937,5.3997617,23.390245,28.465654,-19.53042,23.641338,1.1347954,-7.3038583,-11.901328,-29.727388
26,0.8918105363845825,-32.699745178222656,78.35746765136719,2.3359120430751177,8.517936375683416,-84.01558571863542,-2.2773983,-6.073516,-12.628231,28.55489,-12.562051,-0.7762074,-37.269478,-4.2942743,2.9815676,67.649734,-9.071286,8.843447,-12.567146,-3.9457514,8.854865,-11.703566,25.75583,-19.694706,-8.929415,15.160799,5.179155,23.450102,30.048737,-19.604574,23.696964,0.6701988,-7.6197476,-11.963028,-29.864689
27,0.761871874332428,-34.2064208984375,78.95751953125,1.7828890884615585,8.74736651704216,-84.05314996345369,-0.74832726,-4.9856005,-12.728335,26.690468,-9.737249,-1.4560287,-37.45094,-3.9165533,2.264707,63.48426,-8.216488,8.286784,-13.363875,-3.5402126,8.476441,-12.84452,26.015614,-19.495089,-9.355334,15.00316,4.919746,23.538866,31.548065,-19.70403,23.767853,0.22162019,-8.023396,-12.041705,-29.95465
28,0.6014942526817322,-35.73337173461914,79.55648040771484,1.322923106235469,8.967611192131006,-84.13706514182364,0.64574885,-4.0365458,-12.712909,24.996956,-6.6987705,-2.212362,-37.423214,-3.6685421,1.5615951,59.042057,-7.1278057,7.7285285,-14.096187,-3.2165055,8.085449,-13.775039,26.282515,-19.310371,-9.88115,14.916282,4.6151385,23.612476,32.94684,-19.817211,23.841879,-0.20785609,-8.377339,-12.119558,-29.958307
29,0.4463481307029724,-37.28348159790039,80.14105987548828,0.9502429642471034,9.186493395458427,-84.29073765420654,1.8823836,-3.2369974,-12.574837,23.475323,-3.2698019,-3.0091329,-37.159447,-3.5365772,0.8370381,54.179043,-5.7417054,7.0954704,-14.749426,-2.9734323,7.670534,-14.463567,26.546415,-19.120714,-10.518723,14.944279,4.2630706,23.661642,34.223938,-19.937344,23.913996,-0.5897113,-8.677801,-12.200484,-29.846176
30,0.31170013546943665,-38.85142517089844,80.71143341064453,0.6400250361405174,9.405024133307498,-84.5159082510344,3.0001652,-2.543797,-12.347081,22.07886,0.5059764,-3.8857536,-36.646164,-3.4399598,0.052280314,48.876976,-4.0955415,6.4279027,-15.311086,-2.788457,7.231644,-14.937898,26.807434,-18.934685,-11.258318,15.010855,3.8677907,23.707481,35.392048,-20.065567,23.983273,-0.9274507,-8.991844,-12.292015,-29.645662
31,0.19821810722351074,-40.426273345947266,81.2563247680664,0.4344976481358317,9.596751142444262,-84.75521598478556,4.0671244,-1.9960177,-12.1111355,20.795954,4.284303,-4.9391284,-35.92654,-3.3806403,-0.7265966,43.404823,-2.2824466,5.9137955,-15.814655,-2.691135,6.7836704,-15.266192,27.067371,-18.782825,-12.052439,15.083951,3.4299667,23.754366,36.486702,-20.200584,24.043737,-1.2690281,-9.287077,-12.382107,-29.401411
32,0.08020316809415817,-42.04221725463867,81.7713623046875,0.37075072952961957,9.737369052290566,-84.94819099001853,5.1651344,-1.6244957,-11.939451,19.583113,7.73775,-6.2540135,-35.063725,-3.3884885,-1.4157256,38.03739,-0.38512036,5.719076,-16.295704,-2.7047188,6.3419065,-15.519118,27.328032,-18.699183,-12.854742,15.131179,2.950367,23.806215,37.545002,-20.339005,24.088486,-1.6624557,-9.531511,-12.458207,-29.157864
33,-0.019737543538212776,-43.66482162475586,82.21919250488281,0.47265061724069657,9.814367675126956,-85.08844915533025,6.4445033,-1.4407089,-11.87289,18.130892,10.953212,-8.034939,-34.00427,-3.5191417,-1.989679,32.6114,1.7242302,5.925349,-16.759209,-2.853877,5.8990636,-15.69507,27.592644,-18.701122,-13.674356,15.16079,2.4353957,23.874813,38.595192,-20.48419,24.115612,-2.133814,-9.717377,-12.506504,-28.917343
34,-0.12224238365888596,-45.28070068359375,82.58218383789062,0.7241705392336261,9.835810385921643,-85.1899619948499,7.8903766,-1.43501,-11.912525,16.425226,14.108677,-10.195242,-32.719833,-3.7446818,-2.48169,26.980997,4.105579,6.433924,-17.201843,-3.1285748,5.4550014,-15.762379,27.861574,-18.764845,-14.531816,15.183597,1.8833268,23.9538,39.62111,-20.636707,24.123617,-2.6636925,-9.861885,-12.536583,-28.658817
35,-0.2062501162290573,-46.882484436035156,82.84639739990234,1.098483735870925,9.812528736413707,-85.21545040484702,9.328969,-1.5891995,-12.029014,14.859897,17.041462,-12.352749,-31.33565,-4.026243,-2.886763,21.48115,6.559658,7.1061277,-17.651838,-3.4943478,5.032557,-15.750468,28.130335,-18.867805,-15.396993,15.171517,1.2828095,24.019499,40.59085,-20.785248,24.105993,-3.2279441,-9.973288,-12.571679,-28.390892
36,-0.27970704436302185,-48.456993103027344,83.02845764160156,1.5568901242926776,9.76459499887774,-85.1313391404524,10.486021,-1.8781446,-12.140676,14.020595,19.51791,-14.100625,-30.01535,-4.3526893,-3.2074013,16.521658,8.833315,7.7809587,-18.130924,-3.9036477,4.6471376,-15.698211,28.390213,-18.994518,-16.226057,15.09721,0.62191486,24.047665,41.46527,-20.909817,24.058245,-3.790474,-10.0613575,-12.635168,-28.12212
37,-0.3354242146015167,-50.00481414794922,83.1368179321289,2.183649837065721,9.713348125744604,-84.93289269544609,11.293408,-2.338233,-11.923734,13.99555,21.593864,-15.000033,-28.932014,-4.8946652,-3.4243946,12.3685665,10.820588,8.487036,-18.634922,-4.4189153,4.249566,-15.652583,28.638819,-19.179134,-17.00835,14.885845,-0.14855324,24.05795,42.251476,-20.996286,23.96159,-4.3586655,-10.128168,-12.74996,-27.827993
38,-0.38319045305252075,-51.53583908081055,83.2135009765625,2.9263413515932273,9.658420338219825,-84.65152663417888,11.787957,-2.8805895,-11.3109665,14.670008,23.297676,-15.000033,-27.984964,-5.6123514,-3.5583868,8.741405,12.667815,9.247845,-19.137285,-4.996863,3.840263,-15.598044,28.87464,-19.429195,-17.74706,14.577759,-1.0078181,24.051167,42.950047,-21.038124,23.825182,-4.92208,-10.172342,-12.899017,-27.512476
39,-0.39921247959136963,-53.08977508544922,83.28986358642578,3.620548874412445,9.588794146298115,-84.34794234070036,11.971398,-3.3937032,-10.773294,16.080107,24.47686,-15.000033,-27.27747,-6.281441,-3.546412,5.962426,14.118522,9.899473,-19.586533,-5.5179677,3.4860616,-15.480388,29.086039,-19.687963,-18.423368,14.318196,-1.8623577,23.97821,43.502308,-21.02664,23.687292,-5.409436,-10.19956,-13.045934,-27.225758
40,-0.4187764525413513,-54.638153076171875,83.33911895751953,4.150291913432947,9.495836215943333,-84.08796023664793,11.896374,-3.8084261,-10.452277,18.131912,25.043821,-15.000033,-27.611359,-6.7688355,-3.1934767,5.8304725,14.143111,10.295648,-19.923485,-5.90173,3.2442288,-15.247976,29.25546,-19.899872,-19.018814,14.252191,-2.6186407,23.793816,43.8516,-20.95653,23.579517,-5.7519383,-10.216798,-13.153928,-27.016848
41,-0.44927307963371277,-56.14791488647461,83.3473129272461,4.487467288025025,9.387230919104189,-83.85268293305164,11.516359,-4.154016,-10.476789,20.959753,24.802382,-15.000033,-27.755472,-6.975615,-2.5548449,5.750811,13.975881,10.340091,-20.156944,-6.114991,3.1326158,-14.904496,29.369795,-20.047613,-19.512,14.458936,-3.3302305,23.445707,43.987183,-20.813614,23.491955,-5.9291873,-10.271483,-13.223401,-26.905672
42,-0.5039178133010864,-57.62744140625,83.3100814819336,4.680213205542224,9.273528931904725,-83.62977930401658,10.85136,-4.4612484,-10.763511,24.498295,23.880028,-15.000033,-27.730335,-6.9932456,-1.7068348,5.70931,13.697507,10.112897,-20.288776,-6.1936417,3.11865,-14.492292,29.42573,-20.174807,-19.89651,14.8487625,-4.0247335,22.97419,43.933594,-20.593122,23.408792,-5.9656086,-10.348612,-13.27063,-26.862936
43,-0.5738921165466309,-59.0998420715332,83.22843170166016,4.741327728066169,9.148511605770778,-83.48383958732508,10.0627775,-4.695937,-11.127163,28.3478,22.684664,-15.000033,-27.518654,-6.829943,-0.7862564,5.6984897,13.54601,9.753125,-20.260288,-6.1678123,3.1841323,-14.009973,29.42105,-20.313503,-20.18104,15.316214,-4.568949,22.473595,43.697914,-20.315014,23.350912,-5.873951,-10.358621,-13.2823105,-26.863882
44,-0.6432138681411743,-60.5626106262207,83.09385681152344,4.681421515247769,9.004274305755631,-83.47956050864057,9.298654,-4.805682,-11.360614,32.14562,21.605835,-15.000033,-27.09609,-6.489161,0.0695508,5.7025223,13.767595,9.406213,-20.02168,-6.060585,3.313059,-13.440522,29.35649,-20.483149,-20.386284,15.759308,-4.827181,22.033247,43.29235,-20.016653,23.343939,-5.6809053,-10.206737,-13.244167,-26.885849
45,-0.711836576461792,-62.01953125,82.91150665283203,4.49091554629183,8.835009061488513,-83.6330927798015,8.594574,-4.7683043,-11.366722,35.85942,20.664185,-14.886675,-26.436821,-5.927431,0.8818608,5.713045,14.786049,9.223962,-19.568295,-5.8649983,3.5185485,-12.743489,29.228134,-20.66389,-20.536478,16.216356,-4.705145,21.650206,42.705757,-19.72165,23.40628,-5.3831453,-9.785004,-13.130838,-26.926687
46,-0.7712329030036926,-63.46858596801758,82.67658233642578,4.178225905283943,8.63392655470184,-83.89915871369723,7.905087,-4.6716604,-11.355597,39.66143,19.681108,-14.913195,-25.548203,-5.1684365,1.7145203,5.739114,16.351744,9.119567,-18.945076,-5.5764995,3.8067245,-11.921874,29.035812,-20.841063,-20.626873,16.725838,-4.2955575,21.278591,41.954727,-19.437094,23.522345,-4.999136,-9.162706,-12.956286,-27.001572
47,-0.8355859518051147,-64.91673278808594,82.3849105834961,3.7861599418208804,8.390325770917995,-84.24872137930156,7.232062,-4.5234227,-11.29779,43.510006,18.740847,-15.000033,-25.387524,-4.2721243,2.5621622,7.758935,16.666986,8.867977,-18.183353,-5.22198,4.150764,-11.019746,28.791275,-21.035732,-20.634163,17.183851,-3.7394698,20.944363,41.092373,-19.179382,23.672783,-4.5913153,-8.509464,-12.764809,-27.113485
48,-0.8910326957702637,-66.36511993408203,82.01667022705078,3.3568775550472543,8.097892608952069,-84.65501406879477,6.569185,-4.305991,-11.138467,47.35877,17.932562,-15.000033,-25.422697,-3.3397276,3.2785237,10.599597,15.603676,8.228183,-17.31519,-4.82571,4.521275,-10.075207,28.512753,-21.26526,-20.541677,17.4824,-3.175799,20.679724,40.17052,-18.970713,23.839642,-4.224623,-7.9929113,-12.600139,-27.26349
49,-0.9495068192481995,-67.82666778564453,81.57518768310547,2.905406028057511,7.733906677432972,-85.13707579829126,5.972666,-4.087698,-10.9232855,51.208736,17.348618,-15.000033,-25.356586,-2.369626,3.9330883,13.776373,13.097967,6.9302044,-16.328804,-4.397343,4.91909,-9.056345,28.208647,-21.541922,-20.384262,17.541857,-2.5266366,20.497059,39.204067,-18.83323,24.027786,-3.9171808,-7.6454096,-12.442619,-27.45639
50,-1.0385279655456543,-69.26219177246094,81.11766815185547,2.443768910921988,7.293931581912072,-85.6837767339163,5.4563823,-3.8946316,-10.642811,55.054832,16.937366,-15.000033,-25.230368,-1.277478,4.5983195,17.374437,9.582509,5.1687226,-15.243793,-3.9493697,5.3538785,-7.937183,27.881283,-21.841068,-20.177603,17.43126,-1.7535701,20.383623,38.17459,-18.772547,24.257288,-3.6565108,-7.3726525,-12.278241,-27.69167
51,-1.090346336364746,-70.73054504394531,80.5643081665039,1.9645307178527478,6.822173624650011,-86.24507731664144,4.923785,-3.6336808,-10.27798,58.87833,16.550526,-15.000033,-24.99878,-0.07396687,5.135802,20.967272,5.706362,3.3685138,-14.116393,-3.469567,5.804679,-6.7654734,27.541739,-22.123562,-19.877312,17.263123,-1.0544057,20.337877,37.06861,-18.782057,24.52825,-3.4479337,-7.1542153,-12.159977,-27.95913
52,-1.1259689331054688,-72.2175064086914,79.95133972167969,1.426186167075258,6.376348583293523,-86.78537467316659,4.263266,-3.1579604,-9.811266,62.676792,16.023178,-15.000033,-24.647022,1.1668725,5.3630586,24.157831,2.0427368,1.950713,-12.988502,-2.9151497,6.2476053,-5.5851874,27.204435,-22.347942,-19.444366,17.147413,-0.6271362,20.356426,35.86414,-18.84626,24.838018,-3.2873178,-6.971601,-12.14159,-28.246744
53,-1.1737416982650757,-73.66722869873047,79.29318237304688,0.7648721925494761,5.944329450567941,-87.3371852166048,3.4921465,-2.2831554,-9.13029,66.545425,15.318929,-15.000033,-24.165653,2.3746822,5.1430287,26.947672,-1.5678538,1.0709757,-11.829448,-2.232029,6.692043,-4.423481,26.88571,-22.530525,-18.827091,16.98984,-0.6045909,20.480068,34.567245,-18.9522,25.193243,-3.184061,-6.876589,-12.292897,-28.55002
54,-1.2461469173431396,-75.05778503417969,78.6292953491211,-0.008993365468041062,5.516893573237825,-87.9141868029745,2.6574855,-1.0775703,-8.286506,70.47029,14.506923,-15.000033,-23.613934,3.5547287,4.6095614,29.590755,-5.4123864,0.48644796,-10.626067,-1.4274534,7.1296253,-3.242574,26.587677,-22.681591,-18.079094,16.766258,-0.8547527,20.700365,33.166927,-19.093758,25.597036,-3.1221244,-6.862404,-12.567155,-28.873892
55,-1.353844404220581,-76.4355239868164,77.9624252319336,-0.835467827219794,5.157864287628411,-88.46564765484729,1.6580017,0.23268294,-7.502597,74.33528,13.558521,-15.000033,-23.089727,4.705943,3.9616022,32.077755,-9.138696,0.022743525,-9.431657,-0.5496441,7.5144653,-1.9897832,26.29642,-22.750864,-17.309221,16.693865,-1.1774756,20.937609,31.615814,-19.265762,26.037687,-3.059683,-6.8233166,-12.844569,-29.22035
56,-1.481076717376709,-77.78821563720703,77.2935562133789,-1.6488868927598321,4.93030232093762,-88.94201623054197,0.3767442,1.4004058,-6.9953713,78.018684,12.451364,-15.000033,-22.67391,5.850551,3.3910644,34.364918,-12.367657,-0.50388795,-8.298171,0.34248096,7.8079185,-0.61370987,25.988605,-22.687443,-16.622105,16.990421,-1.3709543,21.112867,29.869928,-19.465155,26.50644,-2.9565256,-6.652377,-13.005795,-29.591831
57,-1.594456672668457,-79.10768127441406,76.65125274658203,-2.515716238571368,4.897765794006615,-89.35933715569635,-1.3044692,2.4851117,-6.8412514,81.62812,11.086445,-15.000033,-22.470856,7.0860634,2.84906,36.476875,-14.982221,-1.1937478,-7.2211165,1.3180362,7.9689846,0.90801096,25.63793,-22.4496,-15.986717,17.822441,-1.4237353,21.198397,27.8836,-19.69221,27.034554,-2.8060431,-6.2739215,-13.006763,-30.002527
58,-1.6684863567352295,-80.41785430908203,76.07351684570312,-3.4453806495397186,5.012542712569035,-89.73986625967076,-3.3020039,3.563849,-6.9264135,85.18995,9.503043,-15.000033,-22.398634,8.349608,2.260031,38.427204,-17.204725,-1.9354947,-6.1742744,2.3777227,8.020519,2.5311978,25.2352,-22.074715,-15.344499,19.042469,-1.430256,21.234402,25.693295,-19.943855,27.620937,-2.6323807,-5.7574863,-12.91704,-30.449446
59,-1.717685341835022,-81.69977569580078,75.5801010131836,-4.284878497775651,5.172394141381416,-90.04251195431294,-5.4569044,4.4121003,-7.1754336,88.46375,7.892885,-15.000033,-22.254404,9.460346,1.7580211,40.122112,-19.134144,-2.6055534,-5.1717515,3.3568933,8.036266,4.2053094,24.78861,-21.640287,-14.762203,20.393797,-1.3467796,21.242912,23.381618,-20.209808,28.205208,-2.4411669,-5.2155304,-12.7880945,-30.907715
60,-1.7443398237228394,-82.9325942993164,75.1895523071289,-4.884785084222427,5.275639684926367,-90.22351449643192,-7.621124,4.824086,-7.5098796,91.2084,6.454495,-15.000033,-21.83754,10.261663,1.4669546,41.450813,-20.845123,-3.0774648,-4.226663,4.095141,8.103404,5.8855114,24.319523,-21.232763,-14.315674,21.618801,-1.1267335,21.245323,21.02735,-20.478834,28.720524,-2.2284071,-4.765434,-12.669623,-31.34876
61,-1.7524082660675049,-84.17355346679688,74.91394805908203,-5.167086003276965,5.2943625021360345,-90.26920831369002,-9.817274,4.6569424,-7.955541,93.39643,5.2722135,-15.000033,-21.093777,10.684954,1.4535732,42.37833,-22.344414,-3.2747269,-3.3414345,4.5033326,8.286272,7.596291,23.837778,-20.85351,-14.038116,22.780872,-0.647051,21.233902,18.545504,-20.748663,29.207605,-1.9209028,-4.3614435,-12.557962,-31.803322
62,-1.7514599561691284,-85.44620513916016,74.73689270019531,-5.230132003474406,5.283201356078465,-90.20489696445726,-12.11696,4.0584784,-8.53458,95.14545,4.2478642,-15.000033,-20.12412,10.84564,1.605043,42.946194,-23.579361,-3.2880805,-2.5047555,4.6862726,8.548298,9.35788,23.345226,-20.475306,-13.894189,23.96956,0.030960748,21.194021,15.930085,-21.016829,29.681091,-1.5460093,-3.9694111,-12.432615,-32.27244
63,-1.7607053518295288,-86.71332550048828,74.6473617553711,-5.1865869514110905,5.263991310258309,-90.04116944648528,-14.459407,3.2691607,-9.171354,96.435425,3.3129222,-15.000033,-18.96111,10.862379,1.7805808,43.14567,-24.520954,-3.2379277,-1.7111923,4.771746,8.825033,11.119105,22.85781,-20.141806,-13.857777,24.968014,0.6780946,21.14889,13.370472,-21.271357,30.03531,-1.2310193,-3.7288823,-12.313852,-32.67961
64,-1.7630997896194458,-87.99039459228516,74.63497161865234,-5.149065343176707,5.259789403111079,-89.78836702747401,-16.784462,2.5327408,-9.803153,97.23955,2.395999,-15.000033,-17.641062,10.847708,1.8531511,42.973255,-25.141283,-3.2374084,-0.94737375,4.881741,9.041465,12.823598,22.400785,-19.900637,-13.902472,25.55539,1.0685277,21.137175,11.047465,-21.49865,30.157879,-1.0808327,-3.7824676,-12.220884,-32.943123
65,-1.7562495470046997,-89.28510284423828,74.69688415527344,-5.15921993587471,5.259951848731132,-89.40831565036399,-19.115839,1.896444,-10.471345,97.558075,1.4283922,-15.000033,-16.122046,10.823349,1.7514081,42.373516,-25.447285,-3.314803,-0.2347696,5.0529065,9.197422,14.508056,21.992012,-19.740038,-14.075279,25.533598,1.084667,21.201443,8.960432,-21.689926,29.987076,-1.0704595,-4.293724,-12.156954,-33.002384
66,-1.7561663389205933,-90.57878112792969,74.83875274658203,-5.156170542259828,5.255932714124866,-88.91101001716888,-21.466719,1.2343924,-11.191888,97.39202,0.47213402,-15.000033,-14.400584,10.734695,1.554729,41.36785,-25.449938,-3.40492,0.43421927,5.2117877,9.325831,16.199768,21.638653,-19.637764,-14.389881,25.060232,0.86914396,21.319593,7.00385,-21.847023,29.594866,-1.1235892,-5.149194,-12.114369,-32.907825
67,-1.7641210556030273,-91.87518310546875,75.05632781982422,-5.09666941679896,5.274244885811109,-88.37808145244715,-23.765013,0.5397203,-11.870832,96.71641,-0.3547229,-15.000033,-12.573443,10.574589,1.369641,40.06875,-25.126104,-3.4768386,1.1112205,5.31137,9.395763,17.834951,21.350662,-19.614243,-14.773297,24.449127,0.5874197,21.437542,5.196479,-21.977707,29.074266,-1.2642285,-6.076657,-12.094365,-32.74492
68,-1.7764774560928345,-93.19998931884766,75.3569564819336,-4.93398352977043,5.342085752288951,-87.88980712927092,-25.940426,-0.18276486,-12.409961,95.50645,-0.9375762,-15.000033,-10.743705,10.326547,1.3034194,38.597054,-24.456615,-3.5011969,1.8509086,5.3033934,9.378409,19.346045,21.139393,-19.694046,-15.151666,24.013176,0.4073133,21.506304,3.5748723,-22.093344,28.51091,-1.5363332,-6.8030686,-12.094192,-32.600807
69,-1.7763004302978516,-94.55164337158203,75.73017120361328,-4.645646627650649,5.4656036265381625,-87.45519142992455,-28.00561,-0.9755299,-12.770635,93.73476,-1.2842512,-15.000033,-8.906065,9.982312,1.4199518,36.92206,-23.437183,-3.483125,2.676111,5.166939,9.260324,20.710455,21.021994,-19.898968,-15.525124,23.823404,0.38399488,21.51561,2.1709914,-22.199982,27.86962,-1.9922886,-7.24514,-12.122647,-32.460777
70,-1.761256217956543,-95.91858673095703,76.16400909423828,-4.251511882592351,5.628968892682755,-87.03266761131975,-29.971592,-1.8093076,-12.971706,91.407104,-1.4558882,-15.000033,-7.0350003,9.537368,1.647518,35.02703,-22.091757,-3.4306242,3.5559132,4.9190855,9.065465,21.979109,21.00479,-20.200241,-15.941609,23.712353,0.42611665,21.494013,0.9643338,-22.299799,27.118553,-2.6105433,-7.5499926,-12.1776285,-32.29335
71,-1.7210826873779297,-97.31620025634766,76.6609115600586,-3.751464565471678,5.824554933146168,-86.6231271397854,-31.762684,-2.5746896,-12.975177,88.539795,-1.415945,-15.000033,-5.211862,8.96188,1.8934587,33.08094,-20.458714,-3.3202868,4.457011,4.5532856,8.826659,23.18904,21.075588,-20.545626,-16.391644,23.637545,0.4814039,21.451889,-0.08231191,-22.401056,26.350296,-3.3283463,-7.7904587,-12.235869,-32.161915
72,-1.6600373983383179,-98.72797393798828,77.20411682128906,-3.084941360180714,6.032909861833943,-86.21911269119005,-33.291298,-3.1701264,-12.633543,85.111664,-1.1075135,-14.92252,-3.5332491,8.157367,2.0741656,31.33802,-18.629177,-3.1156054,5.3296294,4.008421,8.596051,24.374538,21.207489,-20.880882,-16.860416,23.561844,0.49604866,21.395975,-1.0074356,-22.515888,25.664814,-4.080705,-8.039329,-12.273802,-32.130558
73,-1.5749579668045044,-100.18460845947266,77.785888671875,-2.279893838252884,6.26429777205059,-85.8150793324429,-34.582733,-3.3509254,-11.591989,81.0808,-0.5384472,-13.850497,-1.945908,7.1523986,2.1737266,29.679247,-16.519632,-2.8406062,6.1714377,3.331447,8.361605,25.51168,21.387245,-21.213991,-17.322933,23.495544,0.44515204,21.3219,-1.789354,-22.655216,25.073872,-4.8912106,-8.284559,-12.268779,-32.265675
74,-1.4831478595733643,-101.65731811523438,78.39240264892578,-1.3495552388251297,6.517553753095473,-85.41152477386171,-35.551033,-3.5020645,-10.202502,76.44925,0.22807978,-12.746195,-0.44858524,5.988212,2.2352273,28.088976,-14.146577,-2.5096862,6.9953322,2.5314028,8.119319,26.582811,21.611597,-21.563433,-17.78133,23.459177,0.35925332,21.223509,-2.4082482,-22.822462,24.530733,-5.795731,-8.495505,-12.236141,-32.519245
75,-1.3715894222259521,-103.14038848876953,79.00033569335938,-0.4109992232883031,6.789225753710469,-85.04238870957677,-36.171883,-3.5773754,-8.6424465,71.32414,1.1425736,-11.699702,0.89177823,4.808557,2.2618876,26.653336,-11.562074,-2.101861,7.8065987,1.7076591,7.8741345,27.631128,21.863058,-21.888924,-18.253353,23.433523,0.2639261,21.10453,-2.9060888,-23.01861,24.049501,-6.744604,-8.718247,-12.207973,-32.78215
76,-1.2263977527618408,-104.62651062011719,79.5988540649414,0.4189145883951026,7.080829941038716,-84.74406211963687,-36.449745,-3.526581,-7.104709,65.79725,2.1724494,-10.792341,2.015402,3.755143,2.2639747,25.447807,-8.803437,-1.5929718,8.604641,0.9593109,7.6233478,28.706501,22.113459,-22.14227,-18.757513,23.402822,0.18370481,20.966562,-3.3350232,-23.240435,23.654638,-7.6770186,-8.999757,-12.217109,-32.9468
77,-1.0753754377365112,-106.11775207519531,80.17745208740234,1.1737914741751638,7.432657459579776,-84.52147277804205,-36.358635,-3.3728528,-5.5055804,59.618492,3.4032433,-9.986196,2.8702915,2.787203,2.2411222,24.474878,-5.744751,-0.99281263,9.385776,0.24963881,7.339009,29.812016,22.338919,-22.314827,-19.269424,23.38881,0.116368085,20.809416,-3.6991198,-23.488796,23.356493,-8.582624,-9.376723,-12.277533,-33.000664
78,-0.946406364440918,-107.65090942382812,80.74101257324219,1.8900501222659836,7.832004944820288,-84.36023290031389,-35.859627,-3.2250082,-3.7769065,52.747887,4.8635106,-9.31991,3.5188317,1.8649782,2.2302115,23.687078,-2.4035766,-0.2925445,10.145429,-0.44705313,7.0287857,30.916504,22.532036,-22.426765,-19.770065,23.400969,0.04967769,20.628338,-3.9799404,-23.765333,23.147417,-9.484635,-9.817204,-12.369239,-32.996624
79,-0.8241603374481201,-109.19792938232422,81.27052307128906,2.454818250743932,8.204421491324414,-84.27425136341665,-35.002872,-3.1042843,-2.1622539,45.601433,6.455738,-8.942108,4.084636,1.133178,2.294732,23.054974,0.9796998,0.5590898,10.886342,-1.0160903,6.735635,32.02324,22.691795,-22.47229,-20.293455,23.405746,-0.006821743,20.41788,-4.1989045,-24.06339,23.025179,-10.366495,-10.264824,-12.477193,-32.925137
80,-0.7287091016769409,-110.76427459716797,81.7627944946289,2.734128463419808,8.475177086307044,-84.28380630939532,-33.881245,-2.9392204,-0.93714,38.606544,8.098014,-8.953879,4.7289248,0.7602192,2.4836185,22.449053,4.226799,1.6003509,11.615324,-1.3233327,6.4940596,33.141552,22.821154,-22.442694,-20.877172,23.36767,-0.042941406,20.173008,-4.3831954,-24.370401,22.990595,-11.206706,-10.664847,-12.585147,-32.77501
81,-0.6438409686088562,-112.34091186523438,82.20532989501953,2.6240816181171716,8.598814760281043,-84.42665832069804,-32.41864,-2.5721486,-0.26268342,31.567795,9.830267,-9.4374695,5.597851,0.8824835,2.8534904,21.63278,7.468761,2.9250984,12.363869,-1.2685858,6.3122387,34.31234,22.92699,-22.317875,-21.544708,23.272293,-0.053932652,19.869156,-4.53184,-24.681107,23.063673,-12.008108,-11.027213,-12.691947,-32.529015
82,-0.5685203671455383,-113.94519805908203,82.56806182861328,2.1595804866980943,8.603969041916752,-84.71445709109682,-30.5823,-1.9778235,0.0024963482,24.225845,11.786942,-10.315578,6.6571,1.4497739,3.4115982,20.598545,10.819991,4.493004,13.148693,-0.887793,6.1664586,35.53701,23.008865,-22.104591,-22.29393,23.138958,-0.04425307,19.517662,-4.636947,-24.995625,23.2363,-12.775303,-11.374307,-12.806179,-32.194836
83,-0.5070815086364746,-115.542236328125,82.83763885498047,1.433628208879291,8.52431470620684,-85.12658892348988,-28.578997,-1.2130183,0.045528255,17.010916,13.960868,-11.385628,7.791946,2.3219516,4.100903,19.566973,14.076319,6.120183,13.951912,-0.26828393,6.044702,36.759464,23.056955,-21.838514,-23.11307,22.984123,-0.017238274,19.167551,-4.7249656,-25.310402,23.469372,-13.478419,-11.6718445,-12.925458,-31.795677
84,-0.45827147364616394,-117.1131362915039,83.02301788330078,0.5969198165272455,8.417408702891876,-85.61326744040123,-26.69233,-0.38161728,0.06663812,10.503667,16.247879,-12.399083,8.804767,3.2915082,4.8060274,18.881989,16.974072,7.6148853,14.728627,0.44568115,5.9289517,37.904396,23.056482,-21.562069,-23.967434,22.82627,0.022567052,18.867086,-4.8226323,-25.616177,23.724457,-14.085135,-11.886101,-13.047283,-31.356798
85,-0.42526862025260925,-118.65611267089844,83.14981079101562,-0.2259791234156634,8.373925062666824,-86.11442561678813,-25.557907,0.4700425,0.18060088,5.7529483,18.272106,-13.122574,9.477066,4.218145,5.433146,18.824654,19.348427,8.989958,15.412164,1.1043249,5.766811,38.975903,22.99162,-21.247988,-24.874882,22.660196,0.07977921,18.582327,-4.9967356,-25.908684,24.034071,-14.565675,-11.999553,-13.185325,-30.886278
86,-0.37255188822746277,-120.16815948486328,83.23970794677734,-0.9960636435833061,8.392122806806528,-86.59602423891786,-26.514894,1.2908627,0.24299125,5.516665,18.409199,-13.64162,9.790774,5.078493,5.963241,19.411533,21.241333,10.3353405,15.970911,1.6741847,5.566084,39.964878,22.855831,-20.893381,-25.79849,22.482225,0.15267447,18.301748,-5.2323675,-26.179785,24.412937,-14.923909,-12.036255,-13.336856,-30.374666
87,-0.3197294771671295,-121.66375732421875,83.31765747070312,-1.6368097577290528,8.404484051500134,-87.01731607619764,-27.306948,1.922734,0.16081275,5.3427796,18.685884,-14.170103,9.788377,5.786518,6.3400884,20.702044,22.6271,11.5763035,16.379408,2.1268682,5.4063005,40.76643,22.655666,-20.577456,-26.600233,22.312693,0.22651888,18.107508,-5.443498,-26.411896,24.795685,-15.157514,-12.028762,-13.47568,-29.818132
88,-0.274147629737854,-123.18168640136719,83.37379455566406,-2.1378529788590535,8.34521309316718,-87.37857621957342,-27.801027,2.2907524,-0.15020305,5.3096914,18.74337,-14.933301,9.53808,6.3272924,6.55099,22.718079,23.48916,12.6379,16.658613,2.4942193,5.3482814,41.28305,22.411669,-20.376476,-27.159416,22.170107,0.2873026,18.082212,-5.535241,-26.584791,25.11128,-15.26619,-12.011293,-13.576298,-29.210024
89,-0.2066146582365036,-124.68689727783203,83.37448120117188,-2.520053276096263,8.140517897192352,-87.7324343751933,-27.813786,2.4264822,-0.3538692,5.3115478,18.366293,-15.000033,9.182251,6.7281346,6.6233077,25.306456,24.00204,13.489252,16.901304,2.801966,5.459893,41.57694,22.238369,-20.318563,-27.558952,22.021624,0.3257225,18.336304,-5.4556866,-26.648922,25.270273,-15.244288,-12.025645,-13.6756315,-28.445606
90,-0.11259225755929947,-126.17151641845703,83.3143081665039,-2.8531131330131005,7.845427579844613,-88.0724841873058,-27.474205,2.4730053,-0.66871166,5.3531723,17.780506,-15.000033,8.6965685,7.067072,6.533032,28.38458,24.18759,14.147352,17.04188,3.1083562,5.681135,41.70192,22.055525,-20.330135,-27.844206,21.873976,0.3435788,18.783215,-5.2754774,-26.670212,25.377878,-15.111548,-12.028673,-13.767024,-27.577847
91,-0.006852177437394857,-127.64383697509766,83.20153045654297,-3.070021069691634,7.538008165967934,-88.29660207631926,-26.902222,2.3619673,-1.2708265,5.376332,17.407804,-15.000033,8.077911,7.250453,6.2351723,31.72358,24.024408,14.651667,16.9845,3.3539908,5.942881,41.547768,21.790224,-20.416208,-27.891108,21.773165,0.37383014,19.263018,-5.0210757,-26.649172,25.487783,-14.863886,-11.976306,-13.777147,-26.771051
92,0.08316460996866226,-129.10650634765625,83.06645965576172,-3.150441619819069,7.297288825505785,-88.30344939299204,-26.251024,2.0690112,-2.3392632,5.387663,17.638105,-15.000033,7.3357105,7.2087502,5.6350517,35.057156,23.523682,14.993446,16.701561,3.4669633,6.1875024,41.155766,21.623014,-20.552917,-27.8142,21.67661,0.46155593,19.653355,-4.6091375,-26.599716,25.57165,-14.614244,-11.819404,-13.63285,-26.205345
93,0.16427160799503326,-130.5422821044922,82.91104125976562,-2.978125867937091,7.1616681444316015,-88.03502530200427,-25.514462,1.4082991,-4.0335255,5.298672,19.230986,-15.000033,6.4211397,6.770544,4.617965,38.442802,22.57065,15.000033,16.117828,3.3641074,6.397818,40.381805,21.436512,-20.792479,-27.438917,21.665201,0.6535621,19.932981,-4.0606904,-26.49385,25.645962,-14.305097,-11.591375,-13.221391,-25.906952
94,0.2222740352153778,-131.9670867919922,82.71695709228516,-2.606414602480759,7.051936985382915,-87.57197725177429,-24.624758,0.43301567,-6.245034,5.2075934,21.765152,-15.000033,5.406131,6.064142,3.428085,41.962276,21.213614,15.000033,15.311412,3.1005507,6.6131024,39.246197,21.22727,-21.140757,-26.760984,21.718452,0.91819245,20.17762,-3.4165733,-26.29404,25.696041,-13.860472,-11.310615,-12.619565,-25.77851
95,0.277702659368515,-133.38890075683594,82.44578552246094,-2.1440069045461456,6.94882350653953,-87.01460223775653,-23.649298,-0.66686934,-8.6739,5.261714,23.944445,-15.000033,4.3075056,5.231058,2.2433484,45.62028,19.554564,15.000033,14.360373,2.7349694,6.7994847,37.908493,21.005188,-21.517649,-25.918964,21.764118,1.17551,20.35257,-2.7959929,-25.945814,25.791086,-13.193546,-10.938984,-12.024078,-25.798145
96,0.325413316488266,-134.813720703125,82.09284210205078,-1.7110330175975281,6.78229561340179,-86.46267188135788,-22.49197,-1.6328199,-10.990487,5.383233,24.558279,-15.000033,3.2284584,4.438592,1.2215147,49.273186,17.80187,15.000033,13.369886,2.363291,7.0121856,36.575447,20.877193,-21.847826,-25.160877,21.690187,1.3405703,20.437666,-2.1574821,-25.57983,25.953424,-12.449556,-10.380363,-11.628741,-25.984756
97,0.4357544779777527,-136.20718383789062,81.72331237792969,-1.3128893815901201,6.49806070096161,-85.89874758978557,-22.215973,-2.6924844,-12.855622,8.122376,21.561182,-13.744627,2.2577264,3.7149005,0.37202695,52.920666,15.893578,15.000033,12.349164,2.0112004,7.281357,35.207844,20.835625,-22.16374,-24.42923,21.46276,1.3701936,20.387058,-1.4684948,-25.211868,26.201107,-11.65318,-9.484619,-11.466575,-26.415567
98,0.5574215054512024,-137.62911987304688,81.27546691894531,-0.7353149646567452,6.007895630986966,-85.3349194416929,-22.263325,-4.1363816,-14.001588,12.516086,16.274479,-10.560067,1.4655343,2.7457778,-0.3551232,56.702988,13.6824045,14.811175,11.307852,1.501092,7.7422333,33.76034,20.872536,-22.500647,-23.692226,21.128525,1.3182597,20.229475,-0.6893516,-24.84916,26.497997,-10.826643,-8.323749,-11.446926,-27.06535
99,0.5964027047157288,-139.1024169921875,80.7043228149414,-0.2133936772819317,5.4762455439540485,-84.823880497478,-22.175415,-5.6335135,-14.995276,16.911226,10.593862,-7.361165,0.6536724,1.8059027,-0.990413,60.42467,11.485111,14.542305,10.2830925,1.0204939,8.218591,32.24515,20.967793,-22.852003,-23.003843,20.751938,1.2495108,20.05088,0.1409136,-24.495678,26.77385,-9.94785,-7.1775336,-11.583479,-27.754187
100,0.6179472208023071,-140.57943725585938,80.0721664428711,0.29141577737347046,4.9820565178122616,-84.41595255296869,-21.95451,-7.0646677,-15.520721,20.805595,5.681441,-4.827367,-0.3281141,0.8870668,-1.4118274,64.08938,9.459185,14.367543,9.303953,0.53068984,8.673935,30.683168,21.092379,-23.204979,-22.42486,20.40112,1.2272347,19.936975,0.98354685,-24.154564,26.959951,-8.997571,-6.3260174,-11.87521,-28.300741
101,0.6829730868339539,-142.010986328125,79.4521713256836,0.8765904204217209,4.521626331972116,-84.08204664115863,-21.602436,-8.308708,-15.23433,24.07308,1.575738,-3.1786778,-1.5030743,-0.11628708,-1.5757422,67.82598,7.5776114,14.3409,8.338133,-0.05535209,9.123828,29.076622,21.220448,-23.559696,-21.961365,20.11974,1.2386532,19.889128,1.8064219,-23.826698,27.055485,-7.918204,-5.7322555,-12.415133,-28.63849
102,0.8030226230621338,-143.3742218017578,78.85617065429688,1.5508184816661736,4.078799727787114,-83.7892286668652,-21.170263,-9.3766,-14.341491,26.98936,-2.36873,-2.0319698,-2.817778,-1.1986498,-1.5363065,71.62646,5.74938,14.417226,7.3585596,-0.74670833,9.566212,27.395838,21.342281,-23.915028,-21.557386,19.87086,1.2568843,19.864939,2.6271522,-23.510529,27.10169,-6.7325745,-5.284085,-13.166431,-28.868279
103,0.9192350506782532,-144.7225341796875,78.24250793457031,2.228372139206665,3.727439471934098,-83.57138558254299,-20.758017,-10.282068,-13.252617,29.64249,-6.0533457,-1.1613649,-4.333853,-2.259188,-1.3589834,75.2955,4.0344515,14.559601,6.3924394,-1.468325,9.932854,25.613457,21.457073,-24.253786,-21.186892,19.600183,1.3228558,19.885649,3.4870002,-23.201078,27.088974,-5.54751,-5.1476755,-13.924865,-29.07163
104,1.0337090492248535,-146.05862426757812,77.64356994628906,2.8123763261159316,3.5397624729642403,-83.46306987044335,-20.442581,-11.073715,-12.375512,32.083363,-9.330407,-0.33188787,-6.124451,-3.2073503,-1.1034561,78.63722,2.5015883,14.7104645,5.469678,-2.126953,10.162703,23.703938,21.571785,-24.564415,-20.830824,19.251698,1.4783052,19.974638,4.4311385,-22.894062,27.00176,-4.469494,-5.4919777,-14.485755,-29.335077
105,1.1499499082565308,-147.3697967529297,77.09303283691406,3.3134780919403357,3.606171463306621,-83.49152299483812,-20.344337,-11.783477,-11.6974125,34.34162,-12.144816,0.5212553,-8.364598,-4.08371,-0.70669913,81.72548,1.2108189,14.913722,4.6030693,-2.7296536,10.192359,21.641167,21.690344,-24.8558,-20.509388,18.774746,1.7854918,20.15339,5.477474,-22.580984,26.79306,-3.471586,-6.6247873,-14.783759,-29.681631
106,1.2342867851257324,-148.6633758544922,76.60519409179688,3.776875967271146,3.8698022968279444,-83.62531852490028,-20.393965,-12.365483,-11.010038,36.39699,-14.59397,1.2794712,-10.987132,-4.983346,-0.20522834,84.63169,0.11756917,15.000033,3.7689567,-3.3111196,10.071516,19.45146,21.811827,-25.12852,-20.234787,18.208282,2.2041895,20.409634,6.601317,-22.258366,26.478958,-2.5122375,-8.370427,-14.922086,-30.06992
107,1.3004984855651855,-149.95521545410156,76.20869445800781,4.154277069111182,4.179128019150661,-83.81240172576699,-20.371647,-12.797404,-10.42322,38.193256,-16.715149,1.914634,-13.71206,-5.7758756,0.3460215,87.160736,-0.85884064,15.000033,2.9444387,-3.8146245,9.916167,17.185493,21.939152,-25.363937,-19.971954,17.629871,2.622525,20.713865,7.783013,-21.937256,26.139727,-1.6731739,-10.169359,-14.952926,-30.48593
108,1.3479130268096924,-151.24484252929688,75.9083480834961,4.397788676643372,4.379890707831406,-84.00389746760999,-20.053225,-13.069172,-10.047912,39.664394,-18.53082,2.3975837,-16.252867,-6.3170805,0.8954362,89.11512,-1.7999259,15.000033,2.1115043,-4.1872473,9.846566,14.887556,22.077522,-25.550615,-19.683342,17.118017,2.9292724,21.032228,9.011755,-21.637325,25.859652,-1.0489992,-11.45973,-14.9367285,-30.918257
109,1.3829280138015747,-152.5275115966797,75.69554901123047,4.466102742595534,4.419926458357056,-84.21815576900045,-19.369646,-13.145038,-9.914393,40.80653,-20.040777,2.6809323,-18.576836,-6.560148,1.4109318,90.46083,-2.7189891,14.92095,1.2880483,-4.388427,9.929481,12.477652,22.234715,-25.720642,-19.313074,16.640388,3.0904286,21.389732,10.305666,-21.376417,25.662594,-0.69559824,-12.15346,-14.855474,-31.429169
110,1.4014912843704224,-153.83255004882812,75.57311248779297,4.391018813183737,4.382445124849843,-84.4719567165776,-18.440022,-13.042218,-9.93977,41.64922,-21.23029,2.7945926,-20.830416,-6.7254605,1.758119,91.29512,-3.5637596,14.348719,0.479091,-4.458554,10.102584,9.95829,22.410772,-25.880148,-18.899218,16.170107,3.1655638,21.791544,11.679914,-21.159697,25.50455,-0.5745068,-12.520383,-14.693216,-32.00042
111,1.4201334714889526,-155.1719512939453,75.5254135131836,4.242427188220374,4.315507922158008,-84.7128561620394,-17.321083,-12.8447695,-10.06692,42.16934,-22.092308,2.8307786,-22.97823,-6.8030586,2.0223358,91.62219,-4.330511,13.67295,-0.3528867,-4.4667263,10.288998,7.485997,22.59756,-25.984716,-18.530087,15.796165,3.1857214,22.169071,13.116418,-20.983835,25.373297,-0.6344534,-12.539812,-14.522576,-32.506027
112,1.413122296333313,-156.5291290283203,75.55834197998047,4.087368770144682,4.268624382593165,-84.88953462606182,-16.074575,-12.624204,-10.249816,42.35119,-22.623825,2.8757408,-24.985,-6.882437,2.1933782,91.44426,-5.0149174,13.008014,-1.252081,-4.4799194,10.404932,5.2163916,22.784868,-25.98373,-18.28278,15.610644,3.1833255,22.45175,14.584632,-20.839731,25.263214,-0.8115422,-12.194691,-14.414881,-32.821766
113,1.4068260192871094,-157.91162109375,75.66617584228516,3.9499744750748866,4.231490199179825,-84.97611010425398,-14.671092,-12.405467,-10.499433,42.158157,-22.832172,2.9602973,-26.84731,-6.979419,2.2735498,90.75309,-5.6674633,12.367407,-2.250933,-4.5242586,10.443388,3.153895,22.966005,-25.842852,-18.153131,15.735459,3.1629858,22.585022,16.097366,-20.717613,25.182417,-1.1312366,-11.240633,-14.389075,-32.87493
114,1.3784823417663574,-159.29788208007812,75.8545913696289,3.792188857765363,4.185530486328582,-85.00391679242198,-13.101992,-12.136119,-10.827783,41.62271,-22.724157,3.0320594,-28.569094,-7.0498285,2.2593927,89.54645,-6.2823496,11.708106,-3.322407,-4.5609975,10.437158,1.2031937,23.14147,-25.607561,-18.07396,16.091972,3.1097507,22.615305,17.651352,-20.615461,25.136812,-1.5946301,-9.769597,-14.404883,-32.74451
115,1.3372702598571777,-160.6917266845703,76.1224136352539,3.58776476843341,4.169240575542977,-85.00670171698151,-11.458017,-11.772975,-11.201186,40.826656,-22.290886,3.0522053,-30.12823,-7.1021914,2.121082,87.8344,-6.763548,11.036137,-4.419992,-4.553375,10.362638,-0.6215135,23.314507,-25.3416,-18.0412,16.472488,3.02767,22.624487,19.197948,-20.53462,25.11255,-2.1071723,-8.269709,-14.443996,-32.534016
116,1.2883058786392212,-162.11146545410156,76.4642562866211,3.309773494867856,4.221133246537407,-85.0188018029322,-9.831973,-11.276938,-11.583909,39.854256,-21.524317,2.98356,-31.498375,-7.1410737,1.8252364,85.62304,-7.017569,10.363281,-5.4969807,-4.4609776,10.201101,-2.2911608,23.492306,-25.101458,-18.06327,16.670542,2.9218903,22.694538,20.69039,-20.478815,25.094393,-2.577759,-7.2297873,-14.495281,-32.34846
117,1.2378507852554321,-163.5629119873047,76.87986755371094,2.9332318373617343,4.3670748978158205,-85.02771725335455,-8.243646,-10.632717,-12.031252,38.694008,-20.416864,2.8317513,-32.68216,-7.1564045,1.2968137,82.87142,-7.0561786,9.6868,-6.56945,-4.2484574,9.933739,-3.7973578,23.683256,-24.887608,-18.153809,16.621866,2.7885942,22.877542,22.125813,-20.452394,25.080015,-2.999669,-6.779227,-14.55846,-32.224346
118,1.1748958826065063,-165.04129028320312,77.35027313232422,2.477181599151596,4.582112642482859,-85.02486584798291,-6.6614404,-9.865542,-12.534531,37.331097,-18.982311,2.6118422,-33.663723,-7.132931,0.55238897,79.57971,-6.9295435,9.021468,-7.648557,-3.9374318,9.584279,-5.143618,23.89113,-24.670004,-18.320301,16.439646,2.6267917,23.120872,23.531603,-20.455091,25.073788,-3.4228487,-6.6572175,-14.640187,-32.103416
119,1.0872128009796143,-166.5519256591797,77.87100982666016,1.9813777211710328,4.827591124904806,-85.05128725816965,-5.099685,-9.007165,-12.964717,35.84903,-17.243885,2.3040452,-34.394325,-7.0588655,-0.30516768,75.80448,-6.598045,8.407824,-8.680946,-3.5743594,9.198149,-6.3130383,24.11701,-24.452757,-18.564608,16.183907,2.4466248,23.34887,24.90405,-20.484034,25.06747,-3.8374796,-6.7684402,-14.745406,-31.94925
120,0.9977803826332092,-168.094970703125,78.42436981201172,1.4860508576713087,5.063957809735,-85.14689927813212,-3.5583105,-8.093354,-13.199391,34.317974,-15.217538,1.8898635,-34.83401,-6.920051,-1.1697387,71.596115,-6.0158324,7.8829684,-9.612646,-3.210268,8.817567,-7.2927046,24.359243,-24.242693,-18.88365,15.915323,2.259422,23.485786,26.239511,-20.534264,25.048983,-4.233916,-7.018387,-14.879078,-31.724737
121,0.8969330191612244,-169.6481475830078,78.99967956542969,0.9437217260321237,5.300672346523836,-85.3430166889537,-2.0178993,-7.0580454,-13.191212,32.70739,-12.884709,1.3820938,-34.948685,-6.6437597,-2.1112254,66.81176,-5.1495204,7.4401197,-10.417746,-2.8026721,8.439602,-8.06816,24.621014,-24.02867,-19.284588,15.597704,2.0751455,23.506468,27.529297,-20.604416,25.006472,-4.5919666,-7.4895334,-15.072779,-31.396008
122,0.7842214703559875,-171.2401580810547,79.58712005615234,0.3559264254976149,5.548156227026934,-85.61374315795229,-0.48758802,-5.93398,-13.020917,31.024517,-10.258136,0.7862183,-34.741695,-6.2139525,-3.1650107,61.438553,-4.018528,7.0936017,-11.126121,-2.3494172,8.049725,-8.64434,24.905674,-23.805029,-19.772415,15.216605,1.8865315,23.452257,28.777365,-20.695177,24.944721,-4.9222302,-8.1981,-15.317719,-30.993368
123,0.6759132742881775,-172.84634399414062,80.16759490966797,-0.16168233677800653,5.768582741580561,-85.91076691333899,1.003944,-4.902922,-12.769939,29.374405,-7.3848376,0.07084044,-34.24761,-5.7171845,-4.157479,55.707264,-2.6434953,6.90008,-11.770138,-1.965161,7.6659007,-9.047013,25.208391,-23.587748,-20.334455,14.862633,1.6798655,23.347443,29.999952,-20.804302,24.874437,-5.2594957,-8.9511,-15.555974,-30.572615
124,0.5530320405960083,-174.47384643554688,80.73738098144531,-0.49091761399528777,5.927380417395192,-86.18304797726091,2.4407802,-4.1423697,-12.528684,27.829342,-4.2935944,-0.79758,-33.520218,-5.27194,-4.9056726,49.845707,-1.0422708,6.893685,-12.382947,-1.7647905,7.300346,-9.308996,25.51774,-23.395273,-20.944891,14.628009,1.4406978,23.21634,31.213457,-20.926458,24.805346,-5.637739,-9.556078,-15.725845,-30.186924
125,0.42410898208618164,-176.10183715820312,81.28003692626953,-0.5878500036766627,5.993294667410272,-86.43672845879289,3.8883536,-3.7289398,-12.358232,26.279257,-0.74400604,-1.8445369,-32.464684,-4.914976,-5.35609,43.614502,0.94603187,7.103397,-12.962971,-1.8023806,6.961482,-9.399493,25.82417,-23.219076,-21.611866,14.573196,1.163922,23.030596,32.421593,-21.061687,24.736046,-6.0479198,-10.005989,-15.801295,-29.848759
126,0.30754223465919495,-177.75892639160156,81.79261779785156,-0.5015556912545645,5.9882990521459964,-86.68670261060491,5.3577924,-3.5905209,-12.255571,24.690943,3.213888,-3.0692258,-31.074368,-4.590619,-5.5815043,36.919582,3.321313,7.5083003,-13.500015,-2.025947,6.634618,-9.320977,26.125986,-23.050636,-22.333801,14.639747,0.8568838,22.787477,33.621124,-21.210382,24.656569,-6.4813466,-10.39063,-15.816775,-29.529417
127,0.22867169976234436,-179.4341278076172,82.25537872314453,-0.25863574645989923,5.960774283894471,-86.88945675135959,6.7646084,-3.6642067,-12.210692,23.214558,7.140276,-4.4642577,-29.565523,-4.3302217,-5.591508,30.252497,5.8101473,8.036181,-14.016932,-2.3858268,6.294548,-9.161019,26.422749,-22.916039,-23.072725,14.741959,0.5242887,22.550337,34.817993,-21.366566,24.558495,-6.9684668,-10.665001,-15.799023,-29.216393
128,0.16777458786964417,-181.1287384033203,82.64981079101562,0.09994663703636611,5.961616177706662,-86.99833490445674,8.031543,-3.8615775,-12.185699,21.982878,10.60946,-6.0075397,-28.171587,-4.187952,-5.4139423,24.143751,8.115213,8.592989,-14.537265,-2.8175719,5.9178944,-9.01249,26.71312,-22.846905,-23.78288,14.794667,0.17179911,22.38209,36.018036,-21.518417,24.4338,-7.537898,-10.7849865,-15.774605,-28.8971
129,0.11315465718507767,-182.81088256835938,82.95362091064453,0.6142918934951501,6.009722162862722,-86.98360458236283,9.233316,-4.1869392,-12.12979,20.79758,13.6224375,-7.86643,-26.96563,-4.282381,-4.9994626,18.653399,10.163606,9.187456,-15.081962,-3.3521364,5.461279,-8.903144,26.999043,-22.879341,-24.4657,14.782882,-0.1831111,22.31822,37.269547,-21.663979,24.27101,-8.238448,-10.670487,-15.730104,-28.54171
130,0.04727695882320404,-184.46490478515625,83.16822814941406,1.299345313164113,6.069248194340041,-86.8536230867354,10.410795,-4.6872263,-12.105161,19.610699,16.397175,-10.00512,-25.842728,-4.629274,-4.3672624,13.54414,12.093516,9.835474,-15.653705,-4.015954,4.9500065,-8.790867,27.279934,-22.992949,-25.13591,14.750303,-0.54758906,22.318209,38.565334,-21.801107,24.071514,-9.050677,-10.370718,-15.655602,-28.165613
131,-0.02007557637989521,-186.07359313964844,83.31246185302734,2.044139863687822,6.122983568636591,-86.6380917715219,11.39017,-5.2900352,-12.166031,18.847477,18.800385,-12.074708,-24.798864,-5.1036034,-3.6612127,8.941774,13.905337,10.430245,-16.227577,-4.7067256,4.457918,-8.668127,27.548151,-23.139225,-25.763315,14.701102,-0.95302224,22.330423,39.807816,-21.914717,23.847292,-9.8743925,-10.036197,-15.584572,-27.822622
132,-0.09003004431724548,-187.62762451171875,83.4072265625,2.7078997579996167,6.172328260436074,-86.39863917520007,11.951053,-5.8883276,-12.299645,19.001091,20.672905,-13.716765,-24.255127,-5.5499988,-2.9728587,5.85585,15.1343,10.851234,-16.744951,-5.294954,4.0515037,-8.531814,27.789974,-23.273571,-26.31142,14.641809,-1.4317899,22.303703,40.876892,-21.980003,23.619204,-10.582059,-9.81802,-15.553887,-27.565464
133,-0.15331190824508667,-189.14808654785156,83.46922302246094,3.255289845215262,6.272474685115883,-86.17046741176746,11.945098,-6.4433947,-12.368727,20.283205,21.994358,-14.796471,-24.947195,-5.9520507,-2.2512047,5.703638,15.081935,11.005719,-17.159536,-5.726937,3.7021985,-8.438746,27.998518,-23.417204,-26.748491,14.506341,-2.0552652,22.243977,41.753963,-21.967688,23.360388,-11.131701,-9.810106,-15.599963,-27.396448
134,-0.17274488508701324,-190.68321228027344,83.54568481445312,3.732546656216177,6.428656716269398,-85.96033103566067,11.4584875,-6.921907,-12.089671,22.454306,22.833876,-15.000033,-25.550224,-6.300637,-1.5308073,5.603336,15.218199,10.963975,-17.455637,-6.0488586,3.3764787,-8.402067,28.16856,-23.602804,-27.06924,14.317962,-2.7862113,22.170664,42.463425,-21.867012,23.074377,-11.542761,-9.920393,-15.697271,-27.288511
135,-0.2039201557636261,-192.21041870117188,83.59403991699219,4.085253833624402,6.577574418230331,-85.77548001651128,10.639274,-7.2938185,-11.797107,25.353725,23.142134,-15.000033,-25.962555,-6.5044403,-0.81820416,5.559863,15.471986,10.813609,-17.630665,-6.258388,3.1364725,-8.349836,28.286915,-23.800873,-27.269936,14.216139,-3.4950614,22.053743,42.95262,-21.690233,22.828588,-11.784481,-10.02002,-15.789892,-27.250078
136,-0.2510620653629303,-193.7152099609375,83.58929443359375,4.304541239550286,6.643420337427368,-85.64768884646436,9.729716,-7.5574493,-11.600577,28.62048,22.984726,-15.000033,-26.063286,-6.5154147,-0.061045546,5.5478177,15.7972,10.66995,-17.665134,-6.3961287,3.0458367,-8.197164,28.33732,-23.971607,-27.35821,14.34032,-4.0533066,21.865328,43.183224,-21.470171,22.685827,-11.849351,-9.976389,-15.820555,-27.29015
137,-0.29548919200897217,-195.19505310058594,83.53512573242188,4.391936652987528,6.590387211343686,-85.5536485724136,8.785215,-7.775325,-11.621149,32.268917,22.23401,-15.000033,-25.761833,-6.3298717,0.7915636,5.534254,16.284033,10.659821,-17.58069,-6.4764977,3.150732,-7.907304,28.304468,-24.07857,-27.333187,14.81286,-4.4804015,21.545425,43.16219,-21.227453,22.670973,-11.741717,-9.713185,-15.770289,-27.476923
138,-0.3543970286846161,-196.65890502929688,83.43989562988281,4.348306828074494,6.45737457154395,-85.48264771853691,7.734784,-7.975375,-11.838998,36.38629,20.947582,-15.000033,-25.117367,-5.980299,1.694491,5.5107374,16.940289,10.703479,-17.38716,-6.4706564,3.4150162,-7.525293,28.185638,-24.142954,-27.189672,15.533412,-4.8324375,21.124914,42.926823,-20.969982,22.743786,-11.493085,-9.30801,-15.67054,-27.787384
139,-0.41761937737464905,-198.10646057128906,83.28520965576172,4.17093426411277,6.280249846077654,-85.48441486195833,6.62406,-8.087096,-12.060977,40.74174,19.451231,-15.000033,-24.255234,-5.4725127,2.5640135,5.536769,17.572199,10.605825,-17.050798,-6.356453,3.7781246,-7.0812407,27.988312,-24.21053,-26.934433,16.308392,-5.033351,20.712214,42.490974,-20.719877,22.86586,-11.147324,-8.857338,-15.539631,-28.093544
140,-0.48770904541015625,-199.55316162109375,83.06195068359375,3.8697434742763464,6.088901575753571,-85.60672011451882,5.500869,-8.020432,-12.087853,45.09822,18.074213,-15.000033,-23.278429,-4.819885,3.322711,5.628775,18.018309,10.167184,-16.54607,-6.124253,4.179763,-6.5937567,27.727818,-24.319414,-26.587217,16.943838,-5.001554,20.412283,41.87234,-20.50787,23.004318,-10.7574215,-8.455658,-15.392714,-28.268835
141,-0.5445444583892822,-200.9861297607422,82.7789535522461,3.4084733253976673,5.883348070712964,-85.88544298355865,4.3798923,-7.7153563,-11.868551,49.45463,16.877155,-15.000033,-23.277945,-3.8515844,4.1063056,8.115856,17.3113,9.204047,-15.855587,-5.741286,4.627158,-6.02237,27.408997,-24.45852,-26.177143,17.424149,-4.6652207,20.259697,41.04875,-20.356514,23.182014,-10.328725,-8.030787,-15.178114,-28.243496
142,-0.5939727425575256,-202.43548583984375,82.42539978027344,2.844735000225854,5.6217263725846145,-86.26053232529183,3.2879734,-7.278828,-11.528163,53.89314,15.705756,-15.000033,-23.502851,-2.6427171,4.8705835,11.543969,16.224874,7.900487,-15.037286,-5.265355,5.147475,-5.34758,27.034159,-24.599594,-25.709627,17.839287,-4.0813904,20.19106,40.038998,-20.272655,23.415249,-9.867807,-7.558357,-14.902301,-28.102774
143,-0.6745405197143555,-203.8673858642578,82.03963470458984,2.2788685919618987,5.283717784741226,-86.66061778635779,2.263626,-6.7869773,-11.108775,58.28976,14.585306,-15.000033,-23.533672,-1.4005358,5.4744825,14.962475,14.70619,6.5499473,-14.1570425,-4.7777553,5.7169437,-4.6150584,26.62098,-24.7513,-25.1727,18.151896,-3.3580077,20.167725,38.913986,-20.260788,23.66589,-9.424944,-7.2034545,-14.668057,-27.949478
144,-0.7506591081619263,-205.3163299560547,81.58183288574219,1.7480548725607137,4.879911250114157,-87.04409643077673,1.2969673,-6.23965,-10.635614,62.55416,13.518293,-15.000033,-23.251995,-0.27276853,5.81472,17.997229,12.37395,5.396814,-13.250945,-4.2958965,6.3067455,-3.867386,26.192947,-24.92255,-24.56094,18.324244,-2.6034608,20.159489,37.730747,-20.323175,23.892141,-9.036799,-7.129175,-14.581483,-27.880928
145,-0.7913632392883301,-206.76739501953125,81.02276611328125,1.2360432780698478,4.369400346803855,-87.42943581017,0.45122078,-5.5534654,-10.023997,66.733604,12.538511,-15.000033,-22.583517,0.6955784,5.8885183,20.678738,8.613466,4.479707,-12.305137,-3.8034308,6.944805,-3.0950785,25.762512,-25.125036,-23.849691,18.31193,-1.8079618,20.190666,36.49698,-20.464563,24.083036,-8.697403,-7.455039,-14.72791,-27.850739
146,-0.8272191286087036,-208.23748779296875,80.39353942871094,0.6952443173335832,3.780775253881345,-87.84332235685471,-0.30941266,-4.6933055,-9.285635,70.87906,11.615661,-15.000033,-21.689087,1.6271544,5.7940645,23.286629,3.7132244,3.6486037,-11.303279,-3.2511566,7.623487,-2.267945,25.331192,-25.344412,-23.071169,18.139755,-0.925951,20.27839,35.16959,-20.685827,24.270596,-8.385662,-8.064356,-15.033555,-27.831038
147,-0.8936545848846436,-209.66868591308594,79.74964904785156,0.09469027991609082,3.2373053131340503,-88.26880122425312,-1.1713886,-3.7150557,-8.585884,74.93151,10.6493225,-15.000033,-20.819963,2.61146,5.569151,25.840275,-1.3651586,2.8576634,-10.265709,-2.5942967,8.258544,-1.3994261,24.90642,-25.549818,-22.298594,17.875963,-0.011992678,20.382898,33.72029,-20.980942,24.476578,-8.10783,-8.766894,-15.364351,-27.943462
148,-0.9905321598052979,-211.0760498046875,79.11583709716797,-0.5881877497448607,2.8574824247994943,-88.68708880435398,-2.322094,-2.696714,-8.088316,78.82871,9.539562,-15.000033,-20.196203,3.705318,5.22995,28.315905,-5.6472583,2.0703344,-9.215208,-1.8065237,8.767515,-0.49845585,24.499693,-25.707281,-21.608736,17.58845,0.8800538,20.462507,32.11908,-21.337404,24.72835,-7.8693995,-9.373454,-15.583711,-28.306503
149,-1.0728344917297363,-212.4736785888672,78.476806640625,-1.4511930559157185,2.6797420562908396,-89.11279300134709,-3.8409362,-1.5223321,-7.8591866,82.69839,8.180517,-15.000033,-19.923973,4.9788585,4.608286,30.778364,-8.923909,1.2274008,-8.1434765,-0.7977269,9.123725,0.41822484,24.12338,-25.822493,-20.99449,17.183718,1.8139163,20.54015,30.32475,-21.74604,25.07446,-7.676998,-9.852104,-15.675364,-29.039377
150,-1.123945951461792,-213.81866455078125,77.83283233642578,-2.4527345322636087,2.636898330881729,-89.55241101806475,-5.6150165,-0.20625755,-7.8115983,86.534836,6.6453624,-15.000033,-19.86488,6.330792,3.7504106,33.223877,-11.728451,0.36973628,-7.0500326,0.3779644,9.358816,1.3720047,23.781271,-25.899252,-20.439365,16.65713,2.7925568,20.634476,28.3436,-22.200106,25.507723,-7.513229,-10.296452,-15.700471,-30.048006
151,-1.1751151084899902,-215.1249237060547,77.2364501953125,-3.404403815262171,2.689778769178294,-89.97581415393672,-7.56403,0.9729633,-7.879128,90.07122,5.115087,-15.000033,-19.85855,7.567106,2.957792,35.502285,-14.179101,-0.39515406,-5.9580126,1.5209655,9.488108,2.4087703,23.469814,-25.9069,-20.012672,16.2136,3.672569,20.686388,26.223682,-22.689297,25.966167,-7.3493094,-10.705898,-15.64124,-31.126038
152,-1.2222832441329956,-216.40158081054688,76.7170639038086,-4.121020993782775,2.8008847799753895,-90.35250024753903,-9.6285925,1.7515372,-7.9953833,93.04212,3.7800157,-15.000033,-19.743021,8.531954,2.5163906,37.440212,-16.359701,-0.9554038,-4.881524,2.4346294,9.539723,3.5714211,23.181196,-25.823206,-19.774508,16.062254,4.3115044,20.627203,24.018196,-23.204826,26.380856,-7.1558256,-11.082149,-15.482926,-32.06642
153,-1.24765944480896,-217.66986083984375,76.3056640625,-4.544405117449041,3.0335638653570425,-90.69966421453178,-11.944574,2.0121853,-8.181384,95.44024,2.7102783,-15.000033,-19.571104,9.200766,2.525972,38.99919,-18.250957,-1.2413659,-3.7910058,3.0585504,9.479787,4.8794,22.907972,-25.633734,-19.755669,16.33916,4.634253,20.386757,21.661211,-23.745901,26.762505,-6.8763304,-11.420324,-15.163667,-32.86882
154,-1.2349296808242798,-218.9585723876953,76.00923156738281,-4.7824654454293265,3.3849720659634923,-91.02835749878493,-14.520922,1.920486,-8.463806,97.39157,1.8205314,-15.000033,-19.386765,9.669437,2.7872174,40.249584,-19.804289,-1.333676,-2.6781175,3.4941964,9.317996,6.305557,22.647741,-25.364693,-19.910072,16.908417,4.72615,20.011099,19.152433,-24.31089,27.144552,-6.5407453,-11.7191105,-14.712962,-33.623253
155,-1.1868945360183716,-220.2770233154297,75.82166290283203,-4.904069882817443,3.7195641136954194,-91.2983452077199,-17.109373,1.6507951,-8.789953,98.8353,1.0554118,-15.000033,-19.020334,9.9842005,3.1373932,41.18149,-21.049814,-1.3412827,-1.5840145,3.8010352,9.157466,7.817229,22.398586,-25.06344,-20.171726,17.572624,4.6875043,19.605207,16.647865,-24.889751,27.482834,-6.2455854,-11.991989,-14.255996,-34.25831
156,-1.1265876293182373,-221.6288604736328,75.72747039794922,-4.977305931439363,3.9016396409837157,-91.46845947204963,-19.45816,1.3809651,-9.110894,99.70871,0.3555996,-15.000033,-18.301817,10.187181,3.4243202,41.779858,-22.01425,-1.371593,-0.5459511,4.0472274,9.097925,9.369605,22.158861,-24.782286,-20.473448,18.1353,4.62364,19.274584,14.302027,-25.47064,27.720608,-6.0784526,-12.259483,-13.919143,-34.70198
157,-1.0548287630081177,-222.9713134765625,75.7129135131836,-5.003633962719599,3.8452106455937787,-91.51619259688611,-21.483553,1.1369121,-9.415847,99.97019,-0.30724704,-15.000033,-17.119385,10.256364,3.616235,42.03421,-22.715488,-1.4399803,0.42764658,4.241245,9.224307,10.981196,21.923203,-24.51938,-20.83641,18.58126,4.519454,19.045954,12.101107,-26.054363,27.818213,-6.027475,-12.544771,-13.755544,-34.880558
158,-0.9966263771057129,-224.32276916503906,75.77706146240234,-4.952179128123391,3.6381544142877487,-91.46715222430632,-23.322683,0.83666354,-9.725796,99.65579,-0.8932712,-15.000033,-15.582251,10.177066,3.7881622,41.95159,-23.135448,-1.4936393,1.3610119,4.3613834,9.470028,12.655685,21.688183,-24.261757,-21.27267,19.002918,4.334854,18.866066,9.976124,-26.644932,27.807003,-6.0441003,-12.837761,-13.695785,-34.85052
159,-0.9626983404159546,-225.6825408935547,75.91634368896484,-4.840752878149736,3.405635546007574,-91.35237833271903,-25.05516,0.49400178,-10.042046,98.82391,-1.3707267,-15.000033,-13.856795,9.995145,3.955978,41.54584,-23.247461,-1.5340843,2.266799,4.4269676,9.703402,14.326793,21.458183,-24.039557,-21.709536,19.368326,4.1412935,18.717537,7.995214,-27.233433,27.729765,-6.152803,-13.112317,-13.680648,-34.734875
160,-0.927436351776123,-227.05764770507812,76.12725830078125,-4.645833166209327,3.2707539358469697,-91.19504954034805,-26.761316,0.11426333,-10.3182335,97.5151,-1.6857435,-15.000033,-12.124495,9.705712,4.151291,40.879078,-23.053759,-1.5513427,3.1551573,4.406684,9.796743,15.926059,21.243628,-23.885439,-22.072107,19.646324,4.011181,18.583092,6.2339225,-27.801573,27.618359,-6.37798,-13.345055,-13.649718,-34.654938
161,-0.8895620703697205,-228.4566192626953,76.41372680664062,-4.3866759959824435,3.259201464836371,-90.99662478076789,-28.470863,-0.3216914,-10.572871,95.719505,-1.8838918,-15.000033,-10.379797,9.338011,4.3987975,39.87035,-22.543648,-1.5570625,4.036183,4.3007812,9.707307,17.460503,21.054136,-23.796427,-22.34855,19.786373,3.981053,18.465193,4.671794,-28.33997,27.47798,-6.6917014,-13.535038,-13.58353,-34.640488
162,-0.8386602401733398,-229.87646484375,76.76686096191406,-4.057422312200441,3.3052784766010714,-90.74444466238788,-30.13229,-0.71799403,-10.690689,93.40595,-1.9811416,-14.756821,-8.558173,8.86608,4.6741953,38.544968,-21.735151,-1.5417265,4.899695,4.1044745,9.512746,18.971731,20.893723,-23.746567,-22.587276,19.819368,4.008545,18.371384,3.273036,-28.848177,27.285576,-7.0739913,-13.69909,-13.51596,-34.62656
163,-0.757347583770752,-231.3192596435547,77.18599700927734,-3.6454693986174416,3.397282057765433,-90.44943792791067,-31.689713,-0.915269,-10.498483,90.59836,-1.9132669,-13.950538,-6.7378654,8.263474,4.922684,37.069492,-20.636332,-1.4772298,5.737793,3.8220165,9.260137,20.437399,20.767317,-23.735931,-22.801517,19.836912,4.0473123,18.290432,2.090234,-29.320675,27.02424,-7.55854,-13.84073,-13.464834,-34.59166
164,-0.6672261953353882,-232.7928466796875,77.6615219116211,-3.145627646556902,3.5243992147227194,-90.1234654332223,-33.03158,-1.0539814,-10.130779,87.32646,-1.6306409,-13.074213,-4.9952903,7.5224924,5.086087,35.60705,-19.250246,-1.349608,6.544482,3.459189,8.994755,21.82722,20.680733,-23.770227,-22.996124,19.929716,4.050909,18.211258,1.177434,-29.747911,26.674671,-8.178248,-13.963839,-13.4478655,-34.513905
165,-0.5656158924102783,-234.2904815673828,78.17871856689453,-2.5141773102897487,3.6866650040687365,-89.74552741365977,-34.133484,-1.1962608,-9.513386,83.53616,-1.1432394,-12.113756,-3.315289,6.5888114,5.1545053,34.151085,-17.562033,-1.1585184,7.3170943,2.979908,8.725334,23.116991,20.646976,-23.8713,-23.153862,20.115593,4.0049825,18.147322,0.5953583,-30.116516,26.181427,-8.969911,-14.078268,-13.487284,-34.378563
166,-0.45042914152145386,-235.81300354003906,78.7253646850586,-1.7661699631203744,3.8844901295682597,-89.31367921993308,-34.991333,-1.3835678,-8.655382,79.21593,-0.49654368,-11.102934,-1.6868588,5.496259,5.1518307,32.66417,-15.59013,-0.916709,8.059224,2.3859828,8.435644,24.33069,20.674414,-24.026344,-23.284214,20.346134,3.9361162,18.101818,0.3000159,-30.423048,25.558542,-9.901957,-14.182117,-13.568275,-34.19934
167,-0.3299393355846405,-237.35902404785156,79.28316497802734,-0.9824604471427806,4.109133807474038,-88.8684436983963,-35.574543,-1.5443021,-7.6410484,74.44239,0.32966748,-10.128264,-0.17647403,4.364535,5.0863,31.245955,-13.3763895,-0.6303829,8.769908,1.7437457,8.131144,25.511133,20.754766,-24.186544,-23.42136,20.613882,3.8579514,18.045128,0.1851162,-30.674572,24.899881,-10.907312,-14.25982,-13.652785,-34.00002
168,-0.17800945043563843,-238.90457153320312,79.84495544433594,-0.2450310420696667,4.355137413328606,-88.45206877541663,-35.868923,-1.6070738,-6.5635457,69.28192,1.3676853,-9.272034,1.1587712,3.3101602,4.9726157,29.987545,-10.956025,-0.3050698,9.443422,1.121608,7.811879,26.702116,20.866756,-24.29938,-23.599306,20.915682,3.7825077,17.944271,0.13920145,-30.886145,24.30942,-11.9158125,-14.295706,-13.700607,-33.804314
169,-0.010067827999591827,-240.48211669921875,80.3964614868164,0.49695474865910494,4.656540274730039,-88.04857364896934,-35.855938,-1.6012797,-5.304118,63.530262,2.7439916,-8.517591,2.2921367,2.2748916,4.7992525,28.881935,-8.255984,0.036249112,10.057431,0.47143382,7.45468,27.907482,20.990353,-24.355515,-23.794195,21.30991,3.6924222,17.802055,0.1787442,-31.06771,23.79903,-12.950205,-14.272005,-13.687165,-33.61651
170,0.1499778777360916,-242.06585693359375,80.93524932861328,1.2603302208241165,5.002020324394216,-87.64405579320344,-35.50275,-1.6325921,-3.841912,57.16704,4.427056,-7.886296,3.2625709,1.2346414,4.586209,27.90677,-5.290024,0.40791827,10.612181,-0.21220797,7.067823,29.102526,21.118414,-24.37342,-23.987747,21.785116,3.5850136,17.627592,0.34712735,-31.219912,23.325987,-14.039559,-14.199169,-13.635873,-33.427418
171,0.3094930350780487,-243.65673828125,81.44548034667969,1.9099115267823652,5.3243990030058175,-87.28797879836343,-34.825024,-1.7030578,-2.4477327,50.536903,6.230585,-7.484999,4.130114,0.35394025,4.3999233,27.091269,-2.2141528,0.8632523,11.139437,-0.79704493,6.6919847,30.289173,21.248486,-24.342888,-24.221758,22.234446,3.4942281,17.396872,0.5719495,-31.34741,22.913128,-15.119272,-14.106298,-13.582877,-33.24
172,0.4560541808605194,-245.26760864257812,81.92825317382812,2.30265198572574,5.560848516279867,-87.03623909271235,-33.884247,-1.7413509,-1.4206965,43.99187,7.980758,-7.3826923,4.9734073,-0.19421208,4.305387,26.407438,0.85160387,1.4526117,11.672712,-1.1444166,6.363038,31.476645,21.379017,-24.24926,-24.54573,22.549067,3.4540477,17.084421,0.7751192,-31.453184,22.591124,-16.11877,-14.019909,-13.564068,-33.058784
173,0.6106359958648682,-246.89109802246094,82.36564636230469,2.3367184892891917,5.674970364098055,-86.91241266118868,-32.614643,-1.5989918,-0.88061386,37.348457,9.714196,-7.601598,5.886193,-0.26635513,4.3541956,25.700249,4.0866675,2.1822073,12.231123,-1.1541182,6.0921774,32.70233,21.51224,-24.093864,-24.974888,22.719185,3.4923441,16.688822,0.9576501,-31.541672,22.387081,-17.051868,-13.924577,-13.583622,-32.893574
174,0.7417006492614746,-248.52764892578125,82.74873352050781,2.0846424850499643,5.703030464999904,-86.8985180187217,-31.0109,-1.2982537,-0.6875285,30.405962,11.5798,-8.10271,6.8525715,0.044896692,4.533837,24.93538,7.537092,3.0442233,12.806126,-0.89554405,5.854322,33.958427,21.646381,-23.878971,-25.492079,22.796656,3.585295,16.221333,1.156192,-31.615149,22.279343,-17.949486,-13.811916,-13.623579,-32.73858
175,0.8453525304794312,-250.17124938964844,83.06793212890625,1.6444929916298472,5.692197156922996,-86.99465745031692,-29.278435,-0.914983,-0.7713913,23.579601,13.519702,-8.80445,7.785231,0.5786016,4.8036513,24.26425,10.894914,4.0559063,13.396928,-0.46698204,5.624825,35.185085,21.77115,-23.595068,-26.095366,22.767054,3.6906195,15.674592,1.3415439,-31.673265,22.226395,-18.767658,-13.720825,-13.6870575,-32.572735
176,0.9324955940246582,-251.81346130371094,83.30209350585938,1.1199334204548408,5.691377170558621,-87.20033167874439,-27.664986,-0.49755695,-1.0620223,17.39926,15.405437,-9.58787,8.593538,1.1638551,5.1030107,23.84552,13.842052,5.2195306,14.000886,0.028795842,5.378128,36.311916,21.866776,-23.239334,-26.769058,22.618366,3.7669344,15.040701,1.4778471,-31.712074,22.18988,-19.455252,-13.691077,-13.777625,-32.37355
177,1.018328309059143,-253.43682861328125,83.46046447753906,0.5004902928647288,5.741803023569402,-87.54056580431312,-26.321571,0.05315874,-1.6689113,12.000116,17.15674,-10.401362,9.244941,1.8006377,5.443511,23.685776,16.283468,6.648161,14.64529,0.58797413,5.059012,37.34924,21.911926,-22.801373,-27.531012,22.354078,3.8176422,14.243815,1.5306256,-31.73497,22.185999,-20.003843,-13.703207,-13.913697,-32.117153
178,1.1182397603988647,-255.03392028808594,83.55369567871094,-0.23183744190828146,5.811945006160392,-88.00038493904496,-25.09422,0.79700655,-2.568573,7.034134,18.874125,-11.25231,9.750719,2.5345829,5.834245,23.794035,18.34887,8.304216,15.300916,1.2246826,4.698381,38.35858,21.929605,-22.260878,-28.420132,21.968927,3.8602772,13.307528,1.5135043,-31.753466,22.247726,-20.444513,-13.7385435,-14.08612,-31.830793
179,1.2236088514328003,-256.58782958984375,83.59783172607422,-0.9337234972735929,5.867108362725436,-88.4895053248909,-25.310738,1.4580444,-3.5198505,5.547899,18.990078,-12.072438,10.028693,3.2070732,6.1578093,24.398111,20.025736,9.957423,15.901475,1.834787,4.3758507,39.194702,21.911255,-21.700535,-29.277424,21.467709,3.8862817,12.38788,1.4951578,-31.749197,22.305113,-20.759832,-13.855613,-14.262443,-31.547832
180,1.334852933883667,-258.0931396484375,83.60899353027344,-1.4877829860831546,5.87475529800762,-88.91969258779578,-25.840517,1.8909235,-4.2800565,5.4134755,18.675575,-12.822699,10.031566,3.6906967,6.28829,25.650373,21.339315,11.367489,16.358953,2.3342688,4.1671224,39.729362,21.84031,-21.17666,-29.948288,20.85994,3.8807545,11.629337,1.5060924,-31.682524,22.313475,-20.898808,-14.1180105,-14.411759,-31.294945
181,1.4350520372390747,-259.59283447265625,83.62065124511719,-1.8857257005583772,5.848345655979238,-89.30539866890638,-26.048656,2.1638603,-4.7522216,5.331455,18.64225,-13.5288925,9.691836,3.9784954,6.175721,27.683878,22.36696,12.522855,16.71374,2.7210295,4.0715485,39.87609,21.703674,-20.732477,-30.362587,20.113386,3.8224533,11.036215,1.5658314,-31.515915,22.203672,-20.817188,-14.628033,-14.596143,-31.023554
182,1.5480561256408691,-261.08575439453125,83.5990982055664,-2.1413053801797495,5.803404145404319,-89.66277804777305,-26.00469,2.3293755,-5.0448656,5.302273,18.852118,-14.177262,9.041491,4.074484,5.8553305,30.407362,23.060925,13.525763,16.96223,2.9927566,4.0630674,39.720097,21.510391,-20.317633,-30.598034,19.238655,3.7248755,10.537558,1.6189569,-31.25113,22.035397,-20.511395,-15.330823,-14.813113,-30.7324
183,1.6790481805801392,-262.5680236816406,83.53229522705078,-2.2490001291962076,5.705650234020851,-89.92535603628556,-25.686337,2.351835,-5.2285705,5.279197,19.277386,-14.696361,8.236958,3.9479592,5.3411937,33.536804,23.317755,14.289074,17.040075,3.159984,4.159217,39.292427,21.287212,-19.947828,-30.648024,18.325594,3.635877,10.189804,1.673419,-30.897953,21.862965,-20.02276,-16.065699,-14.937263,-30.495106
184,1.8034563064575195,-264.0301818847656,83.42057800292969,-2.2748183423993296,5.565401260790299,-90.02646982663042,-25.154366,2.2493138,-5.455694,5.2747583,19.87078,-15.000033,7.3958025,3.6268141,4.5757084,36.76686,23.05777,14.667272,16.900305,3.282388,4.3177924,38.603218,21.078794,-19.647612,-30.496256,17.458422,3.6012063,10.055834,1.7628593,-30.473957,21.720125,-19.41899,-16.670431,-14.840455,-30.385311
185,1.950599193572998,-265.48162841796875,83.25048828125,-2.1619289767475176,5.358059994806025,-89.96673724031612,-24.345753,1.9254436,-5.559355,5.299753,20.951664,-15.000033,6.5197678,3.0578012,3.6330683,40.23028,22.05612,14.623356,16.558035,3.3201816,4.5898104,37.614952,20.920029,-19.4608,-30.11637,16.540545,3.5782952,10.264928,1.9449936,-29.986227,21.570621,-18.728615,-17.18764,-14.433658,-30.447502
186,2.0966780185699463,-266.90484619140625,83.01216888427734,-1.913361953035377,5.091517792523129,-89.7822544135304,-23.2598,1.4005915,-5.5996547,5.348945,22.43295,-15.000033,5.5881095,2.2571278,2.54885,43.98172,20.443653,14.234418,16.054758,3.2592046,4.974417,36.345833,20.822327,-19.369024,-29.555641,15.553048,3.5521343,10.755519,2.2246258,-29.43477,21.383015,-17.94859,-17.669273,-13.800218,-30.631197
187,2.227619171142578,-268.3327941894531,82.71085357666016,-1.60155931086479,4.797861678292988,-89.49482265728983,-22.022078,0.7772198,-5.8433146,5.4479785,23.632156,-15.000033,4.639324,1.3131711,1.3743544,47.80663,18.54587,13.646269,15.416141,3.127799,5.396871,34.89125,20.79313,-19.310701,-28.906612,14.696152,3.6156194,11.308167,2.557194,-28.832952,21.199717,-17.100986,-17.967947,-13.071383,-30.870947
188,2.341670274734497,-269.760009765625,82.33917236328125,-1.2557244563835337,4.496727888965692,-89.14008297034965,-22.064396,-0.048744384,-6.539574,8.4556465,22.388979,-15.000033,3.6905184,0.34202358,0.30203232,51.581364,16.630524,13.122994,14.675613,2.925052,5.8050714,33.358906,20.834707,-19.223227,-28.276829,14.170567,3.872106,11.703529,2.900785,-28.204699,21.06819,-16.212898,-17.937252,-12.379272,-31.108753
189,2.449492931365967,-271.1917724609375,81.90454864501953,-0.8162249816654285,4.1520669373637356,-88.68444585688081,-22.448654,-1.1135776,-7.409301,12.492691,19.452503,-13.227135,2.8041332,-0.72320235,-0.6657886,55.348198,14.607848,12.700276,13.805683,2.6103714,6.2287464,31.737305,20.950512,-19.111034,-27.658611,14.127517,4.4254127,11.87436,3.2679434,-27.56615,21.020832,-15.301525,-17.395855,-11.686547,-31.397715
190,2.6294894218444824,-272.5782470703125,81.46829986572266,-0.21609951466452199,3.6886023848554683,-88.15220278488503,-22.673311,-2.5330932,-8.432285,16.746391,15.705666,-10.49757,2.0341272,-1.9660122,-1.5168405,59.20743,12.335418,12.310993,12.826665,2.1395087,6.7639585,29.995274,21.139145,-19.015131,-27.024117,14.425823,5.200857,11.9371395,3.6961255,-26.925362,21.021362,-14.376793,-16.46261,-10.949654,-31.7597
191,2.751181125640869,-274.0202331542969,80.9185791015625,0.3535628842900041,3.1713025172464344,-87.6327303559563,-22.748915,-4.067919,-9.437259,20.971575,11.624337,-7.6984944,1.2864971,-3.1528263,-2.2307968,63.01996,10.087907,11.96587,11.821645,1.6768894,7.3175383,28.188036,21.390974,-18.924135,-26.426037,14.828545,6.0365887,11.94907,4.1800113,-26.292297,21.01575,-13.452819,-15.443679,-10.289083,-32.09178
192,2.8420112133026123,-275.50323486328125,80.27681732177734,0.8658165435834847,2.6454679016345466,-87.19158502467472,-22.535904,-5.460927,-10.005458,24.630558,7.694779,-5.5578046,0.46151766,-4.2357783,-2.739048,66.747116,8.063091,11.731792,10.843637,1.2400537,7.8621526,26.372133,21.691717,-18.81781,-25.914616,15.097845,6.7698,11.97299,4.707295,-25.67825,20.953661,-12.539659,-14.64767,-9.819175,-32.28079
193,2.932464838027954,-276.95526123046875,79.59758758544922,1.3636407823969694,2.068782907535266,-86.81746900817429,-21.960505,-6.5486665,-9.931265,27.668179,3.642791,-4.3138685,-0.40484864,-5.26094,-3.0224502,70.468765,6.299309,11.674814,9.871291,0.79245955,8.437479,24.558624,22.030165,-18.678707,-25.5086,15.225826,7.3752337,11.968492,5.259844,-25.090265,20.82847,-11.63316,-14.048518,-9.565823,-32.25529
194,3.067889451980591,-278.3605651855469,78.92374420166016,1.8908285504679572,1.45325579125779,-86.46765217843873,-21.174461,-7.449114,-9.461411,30.416872,-0.7788654,-3.5361803,-1.3040727,-6.2755847,-3.1369672,74.201294,4.6759715,11.759808,8.872193,0.2885233,9.032196,22.701117,22.403183,-18.524609,-25.159697,15.32463,7.9316983,11.91984,5.8501143,-24.529068,20.668524,-10.735258,-13.515696,-9.465141,-32.0866
195,3.21820330619812,-279.73779296875,78.24000549316406,2.4365461827225112,0.9304862697683443,-86.15281419540536,-20.387932,-8.250334,-8.815447,32.920444,-5.1223235,-2.9369495,-2.3955379,-7.257301,-3.1126564,77.82177,3.1488078,11.906495,7.8753257,-0.27342,9.546261,20.772814,22.809923,-18.383543,-24.824276,15.332421,8.433549,11.934325,6.515908,-23.993956,20.47391,-9.875876,-13.201743,-9.490754,-31.8685
196,3.351398229598999,-281.09051513671875,77.55573272705078,2.9839416400469716,0.6303189630335841,-85.88379097858032,-19.793478,-9.062637,-8.215245,35.193027,-8.904195,-2.2242773,-3.8458202,-8.188275,-2.9677832,81.204834,1.6807134,12.023543,6.9105463,-0.878415,9.882724,18.751,23.251303,-18.287237,-24.469763,15.185306,8.875652,12.121724,7.2998085,-23.4842,20.239424,-9.08871,-13.259213,-9.619691,-31.695375
197,3.485426425933838,-282.4224853515625,76.9039077758789,3.5863403884646465,0.6534521639355549,-85.67814070730255,-19.515373,-9.932206,-7.571179,37.22348,-12.028991,-1.2680349,-5.8496146,-9.121555,-2.5936382,84.45351,0.2570717,12.116177,5.992539,-1.5661323,9.964668,16.57689,23.737286,-18.26698,-24.075344,14.751618,9.222309,12.602688,8.211718,-22.99834,19.92772,-8.342036,-13.865576,-9.954004,-31.568115
198,3.5952813625335693,-283.7491760253906,76.32569122314453,4.240151726700623,0.9110052801990038,-85.51844791491234,-19.42248,-10.77042,-6.8074017,39.01109,-14.765022,-0.24653196,-8.285936,-10.045178,-1.9930055,87.5951,-1.0961834,12.224101,5.1028337,-2.3213644,9.858679,14.279354,24.267208,-18.310879,-23.674702,14.096277,9.482448,13.29603,9.239742,-22.534239,19.541058,-7.6415453,-14.892801,-10.473411,-31.450136
199,3.698103904724121,-285.0584716796875,75.82713317871094,4.8379680042717945,1.2471198461442141,-85.36500705198085,-19.317709,-11.512873,-6.1536493,40.567467,-17.144726,0.68719,-10.854689,-10.860262,-1.3541992,90.38606,-2.3450444,12.292541,4.211352,-3.0404472,9.687815,11.96781,24.817484,-18.374697,-23.303198,13.452749,9.72132,14.003804,10.376223,-22.091496,19.14977,-7.0611954,-16.036533,-10.969968,-31.376917
200,3.774442434310913,-286.3434753417969,75.42435455322266,5.271637905889077,1.5046030261423562,-85.18300970501295,-19.008167,-12.104863,-5.82746,41.90118,-19.178532,1.3861994,-13.258028,-11.494346,-0.8808345,92.58508,-3.4537587,12.258179,3.2817051,-3.6217315,9.576589,9.749439,25.351103,-18.402382,-22.979403,13.062997,10.012723,14.52108,11.597932,-21.671028,18.843899,-6.658458,-16.991327,-11.233037,-31.372963
201,3.838754177093506,-287.64642333984375,75.12704467773438,5.487799199344638,1.6586259746597938,-84.95539427686656,-18.48014,-12.518621,-5.9091353,43.053158,-20.840317,1.7859843,-15.478652,-11.919228,-0.6394912,94.14862,-4.370721,12.091374,2.2846682,-4.017417,9.553457,7.593669,25.842588,-18.366802,-22.671558,13.051879,10.413042,14.750701,12.895459,-21.278276,18.672167,-6.4351406,-17.8158,-11.132805,-31.492863
202,3.883657217025757,-288.97027587890625,74.9219741821289,5.5533352252278805,1.786452391005339,-84.70392001827508,-17.82009,-12.78636,-6.242256,44.00192,-22.125433,1.983029,-17.663233,-12.202932,-0.5278343,95.20082,-5.118269,11.8189335,1.2285286,-4.282349,9.555905,5.4557667,26.284254,-18.288445,-22.355314,13.285961,10.873087,14.802759,14.253806,-20.915756,18.607365,-6.334202,-18.62309,-10.801806,-31.701338
203,3.8932483196258545,-290.32806396484375,74.81898498535156,5.539833859407763,1.883490270117658,-84.45340731232325,-16.985651,-12.948575,-6.694335,44.661114,-23.066708,2.0721183,-19.756413,-12.423025,-0.50779516,95.75092,-5.7723217,11.4595375,0.13906877,-4.476077,9.570229,3.4097157,26.6692,-18.184923,-22.046865,13.620437,11.312121,14.782501,15.637769,-20.581528,18.624619,-6.3165555,-19.194658,-10.4250555,-31.8835
204,3.891791820526123,-291.68603515625,74.80461120605469,5.518151618354495,1.945097746033268,-84.22845542494927,-15.936258,-13.042818,-7.1417756,44.942715,-23.695751,2.146061,-21.7013,-12.653199,-0.5361858,95.80669,-6.410467,11.035647,-0.9586137,-4.6589813,9.580109,1.5305221,26.993298,-18.072529,-21.762352,13.908408,11.649841,14.798067,17.015694,-20.27036,18.696554,-6.348163,-19.316402,-10.190493,-31.931488
205,3.884819507598877,-293.05810546875,74.8749008178711,5.513420219274195,1.9381407870469887,-84.0208080345575,-14.614213,-13.083686,-7.575873,44.801567,-24.018156,2.215095,-23.47015,-12.933397,-0.62496024,95.35751,-7.0910683,10.531919,-2.076438,-4.8643265,9.610052,-0.18907353,27.25388,-17.937902,-21.471014,14.155196,11.846302,14.853537,18.407795,-19.973625,18.81842,-6.449875,-18.76171,-10.170267,-31.75907
206,3.87196946144104,-294.429931640625,75.02854919433594,5.483607209114037,1.8755428258144113,-83.82217425306104,-13.061468,-13.037359,-8.049567,44.299957,-24.023794,2.2333217,-25.086535,-13.208322,-0.8012942,94.39922,-7.7670364,9.954917,-3.2170548,-5.0586047,9.656509,-1.7992704,27.452393,-17.785627,-21.154005,14.427582,11.950432,14.898605,19.818295,-19.691128,19.001837,-6.6213493,-17.705477,-10.253101,-31.441124
207,3.8576319217681885,-295.8108215332031,75.25906372070312,5.399186206994864,1.8218870363924864,-83.65723819455135,-11.385306,-12.874284,-8.53708,43.507362,-23.717676,2.2087214,-26.56695,-13.405123,-1.0454993,92.94997,-8.359577,9.35766,-4.340243,-5.196429,9.663939,-3.2804048,27.59468,-17.655735,-20.856577,14.6672125,12.016582,14.962951,21.204475,-19.43231,19.237062,-6.8115716,-16.536175,-10.355512,-31.115198
208,3.8412857055664062,-297.21173095703125,75.57491302490234,5.231973180934894,1.8417731274204128,-83.55093415598608,-9.696957,-12.563248,-9.011429,42.497612,-23.10655,2.1469657,-27.924297,-13.453916,-1.3388277,91.02249,-8.790773,8.791243,-5.4052296,-5.226183,9.583933,-4.6022553,27.688671,-17.584774,-20.635443,14.814206,12.099692,15.077172,22.532478,-19.211933,19.509256,-6.9803624,-15.642068,-10.402758,-30.923458
209,3.8188118934631348,-298.6385498046875,75.96308898925781,4.971608258753791,1.9574886803134928,-83.51044852945284,-7.9984407,-12.098741,-9.504334,41.230804,-22.185537,2.0607848,-29.174963,-13.323051,-1.7013749,88.5892,-9.096012,8.270418,-6.4101796,-5.1269946,9.40585,-5.7395043,27.736149,-17.572796,-20.52838,14.857769,12.253132,15.27716,23.808008,-19.04467,19.820059,-7.1302557,-15.116881,-10.362054,-30.933615
210,3.7924137115478516,-300.0926818847656,76.41764068603516,4.634086245559256,2.1329811621183055,-83.52432268068871,-6.2543197,-11.494205,-10.006591,39.70184,-20.960304,1.9395202,-30.283243,-13.038326,-2.152341,85.641304,-9.308414,7.7811584,-7.3715873,-4.9197745,9.167369,-6.6974635,27.73747,-17.593952,-20.51647,14.826652,12.435197,15.539081,25.05889,-18.934769,20.166658,-7.297862,-14.753136,-10.280987,-31.062695
211,3.764286994934082,-301.57574462890625,76.92266845703125,4.231272391354578,2.3453635776616713,-83.59019006841363,-4.518157,-10.762711,-10.430728,38.03879,-19.451097,1.7558099,-31.19183,-12.629847,-2.6676607,82.22301,-9.341656,7.3264456,-8.276278,-4.614472,8.897264,-7.4822626,27.707249,-17.640326,-20.586485,14.715635,12.557313,15.805344,26.288643,-18.886694,20.522297,-7.501014,-14.488112,-10.210424,-31.228703
212,3.729642629623413,-303.0814514160156,77.47151184082031,3.7751503685594154,2.5714720977081655,-83.70555744896816,-2.8356178,-9.921095,-10.694657,36.36148,-17.673096,1.4853054,-31.847288,-12.124136,-3.222503,78.37053,-9.108972,6.907623,-9.103903,-4.228555,8.615486,-8.123726,27.654232,-17.722143,-20.698502,14.524123,12.531492,16.018549,27.48779,-18.877218,20.863174,-7.7305894,-14.267922,-10.200688,-31.349266
213,3.692888021469116,-304.61456298828125,78.05176544189453,3.219178234177305,2.8117069512569537,-83.89160457124115,-1.186483,-8.916546,-10.772942,34.64801,-15.610152,1.1269761,-32.22074,-11.430866,-3.8474615,74.001274,-8.628007,6.5065284,-9.83037,-3.7129695,8.333955,-8.605884,27.58268,-17.83543,-20.865755,14.195201,12.332175,16.174528,28.664646,-18.910074,21.186735,-8.005763,-14.079001,-10.26453,-31.411438
214,3.651118755340576,-306.155029296875,78.65116882324219,2.5760745728338543,3.0733060115193647,-84.14565565235162,0.43334454,-7.7842355,-10.7107,32.873985,-13.26572,0.69724876,-32.325207,-10.547629,-4.5448227,69.10183,-7.93156,6.1438503,-10.469072,-3.0831537,8.04609,-8.910231,27.499485,-17.972994,-21.11356,13.74648,12.006918,16.300285,29.820112,-18.988756,21.500383,-8.323694,-13.952165,-10.375314,-31.454782
215,3.5928969383239746,-307.7279968261719,79.26081085205078,1.94598871539478,3.3446287738747036,-84.42858132646907,1.9600266,-6.671961,-10.543793,31.153908,-10.678858,0.20164269,-32.183548,-9.630758,-5.251225,63.802578,-6.9430037,5.872689,-11.05785,-2.4468052,7.7443047,-9.054045,27.415731,-18.134207,-21.43718,13.287649,11.578903,16.38519,30.949669,-19.102446,21.792196,-8.666296,-13.894523,-10.524492,-31.475094
216,3.507640838623047,-309.3099365234375,79.86127471923828,1.4279098227550149,3.6166791108919236,-84.69895348251733,3.3341944,-5.717966,-10.316947,29.59824,-7.886394,-0.355603,-31.82849,-8.830659,-5.9099846,58.226437,-5.5816426,5.7472677,-11.632646,-1.9097987,7.4168534,-9.060377,27.340603,-18.322935,-21.825308,12.927833,11.072138,16.420929,32.047836,-19.23652,22.048475,-9.013374,-13.914281,-10.703598,-31.467537
217,3.41607666015625,-310.927490234375,80.44489288330078,1.0070671066063979,3.9030725088663543,-84.97094810672462,4.54389,-4.9183044,-10.050345,28.18711,-4.7502146,-0.8938393,-31.208485,-8.093264,-6.547725,52.122482,-3.673384,5.7300234,-12.1944895,-1.4625381,7.04864,-8.881851,27.279888,-18.52546,-22.302734,12.706208,10.486357,16.397919,33.099823,-19.382793,22.264095,-9.349269,-14.050281,-10.934013,-31.396107
218,3.3281970024108887,-312.5467834472656,81.00225067138672,0.6511372234549097,4.201017736517899,-85.25662214747251,5.6190853,-4.227831,-9.744061,26.896458,-1.3060843,-1.4442189,-30.30648,-7.323131,-7.1811504,45.456764,-1.2792885,5.8320713,-12.72589,-1.0710603,6.647763,-8.518351,27.237698,-18.741884,-22.873959,12.557844,9.812524,16.325289,34.10708,-19.539232,22.44635,-9.680621,-14.289524,-11.213031,-31.274677
219,3.2649788856506348,-314.1814270019531,81.52547454833984,0.43299932987494333,4.479875068423454,-85.50621515579823,6.6123624,-3.7122884,-9.43099,25.732668,2.1922908,-2.1779509,-29.220047,-6.624962,-7.734113,38.664677,1.3483605,6.1727924,-13.237042,-0.80486125,6.2328796,-8.069231,27.221172,-19.001305,-23.487038,12.435353,9.060523,16.222294,35.09182,-19.699541,22.594845,-10.021948,-14.564442,-11.4962635,-31.17209
220,3.209637403488159,-315.8392333984375,82.0045166015625,0.4255077159986711,4.710272277979582,-85.66550920903978,7.600105,-3.4377427,-9.154519,24.652613,5.517808,-3.2705684,-28.062435,-6.1362157,-8.126861,32.193066,3.964572,6.8565826,-13.741311,-0.73370177,5.820849,-7.6389422,27.237518,-19.338707,-24.091816,12.29085,8.240924,16.108278,36.078434,-19.852955,22.708601,-10.387823,-14.808814,-11.739355,-31.155582
221,3.1482954025268555,-317.5061340332031,82.4144287109375,0.7226381266228099,4.868511523531226,-85.70621196668874,8.73738,-3.496468,-8.92722,23.3805,8.77983,-4.9650054,-26.777292,-6.018335,-8.346184,25.916702,6.6932325,8.098967,-14.260459,-0.9580441,5.393112,-7.23923,27.2899,-19.781166,-24.674713,12.118257,7.306277,15.978537,37.095577,-19.981318,22.782265,-10.782393,-15.040665,-11.931604,-31.23409
222,3.0905652046203613,-319.16534423828125,82.73831176757812,1.2994242362468515,4.961363870815203,-85.6334376731421,10.011376,-3.8837426,-8.808767,21.905575,12.097479,-7.1313295,-25.308504,-6.190343,-8.4060955,19.572054,9.693435,9.796563,-14.803958,-1.4524066,4.949642,-6.823054,27.393497,-20.317814,-25.27406,11.928947,6.2714047,15.83687,38.16773,-20.113945,22.804937,-11.25076,-15.274489,-12.096065,-31.374096
223,3.031864643096924,-320.8022766113281,82.97254180908203,2.046798351185389,5.006438717867036,-85.44247330039526,11.235172,-4.4982896,-8.8748045,20.603971,15.253473,-9.371982,-23.813799,-6.5161066,-8.282232,13.517971,12.683256,11.533892,-15.383088,-2.106206,4.5211487,-6.4121156,27.538557,-20.895048,-25.876497,11.728344,5.2328672,15.674301,39.19755,-20.218359,22.804148,-11.720018,-15.481072,-12.236295,-31.577137
224,2.9766769409179688,-322.3995361328125,83.13768005371094,2.797980852122423,5.044908576701772,-85.16304718807723,12.1404085,-5.162681,-9.108548,19.984922,17.969538,-11.276086,-22.48515,-6.8514285,-7.9853716,8.19319,15.303977,12.850243,-15.957449,-2.7473226,4.1359177,-6.052505,27.717701,-21.49045,-26.457674,11.514766,4.289067,15.499449,40.11053,-20.277761,22.790493,-12.140533,-15.619946,-12.358382,-31.842703
225,2.92112135887146,-323.9653625488281,83.25013732910156,3.4355418517479044,5.160614597537635,-84.82682160940445,12.51576,-5.7152686,-9.331172,20.323555,20.20249,-12.82629,-22.443432,-7.2706337,-7.405208,5.764612,16.326338,13.480571,-16.481373,-3.2358053,3.754119,-5.811633,27.927387,-22.140802,-27.003914,11.206017,3.4206705,15.317976,40.892864,-20.270615,22.756622,-12.48961,-15.678299,-12.473479,-32.20852
226,2.8620238304138184,-325.4955139160156,83.32705688476562,3.978651981530253,5.344894367864633,-84.4638684143726,12.448754,-6.1820345,-9.493565,21.443363,22.020737,-14.216263,-23.40971,-7.760378,-6.583484,5.596981,16.137419,13.649779,-16.945614,-3.586495,3.3629138,-5.678088,28.12205,-22.833952,-27.480984,10.846685,2.585252,15.104498,41.535618,-20.206253,22.712301,-12.742671,-15.683184,-12.574618,-32.664707
227,2.826691150665283,-327.0256652832031,83.39555358886719,4.471087734816518,5.529864357559594,-84.15619541944557,12.122663,-6.604175,-9.470326,23.10005,23.358408,-15.000033,-24.24829,-8.17819,-5.645322,5.523861,15.960001,13.63665,-17.225807,-3.8997543,3.0293782,-5.602774,28.372395,-23.605465,-27.901394,10.568736,1.8616457,14.9205885,42.03188,-20.052893,22.633204,-12.894376,-15.639251,-12.654736,-33.11762
228,2.8065338134765625,-328.5558776855469,83.44082641601562,4.849029779675558,5.629699621158499,-83.90296197226886,11.6060095,-6.9840813,-9.49155,25.38932,23.960934,-15.000033,-24.775686,-8.425601,-4.7513313,5.5275292,15.869689,13.687482,-17.40415,-4.1370482,2.842689,-5.434226,28.599495,-24.283194,-28.256838,10.576067,1.3049644,14.709356,42.266754,-19.855429,22.595226,-12.858573,-15.571458,-12.688438,-33.50383
229,2.775780439376831,-330.0531311035156,83.44847869873047,5.11774952790015,5.601734951698657,-83.68529422603946,10.983948,-7.516228,-10.14188,28.284851,23.722593,-15.000033,-24.866772,-8.509619,-3.902726,5.5210567,15.898647,13.91155,-17.479078,-4.316556,2.8491876,-5.179993,28.794607,-24.87629,-28.54363,10.988218,0.94486016,14.444487,42.295845,-19.623768,22.572687,-12.678346,-15.493461,-12.670375,-33.84284
230,2.7301418781280518,-331.534912109375,83.39762878417969,5.281787675330427,5.495616963267531,-83.4923984198384,10.216509,-8.1932535,-11.257467,31.775381,22.788643,-15.000033,-24.61184,-8.467082,-3.0742397,5.5033298,16.017828,14.159332,-17.452156,-4.422055,2.9994638,-4.8932214,28.955841,-25.423538,-28.754623,11.691145,0.73915666,14.140085,42.146782,-19.361189,22.55381,-12.378611,-15.388977,-12.609756,-34.162952
231,2.675786256790161,-333.00030517578125,83.28604125976562,5.335579360705483,5.339771794416363,-83.37953626505531,9.388321,-8.871701,-12.404767,35.57129,21.530626,-15.000033,-24.104757,-8.284099,-2.302966,5.497899,16.271221,14.318721,-17.284616,-4.45933,3.2524533,-4.564499,29.080034,-25.93573,-28.862541,12.503544,0.6514466,13.86959,41.798954,-19.093906,22.560745,-11.967995,-15.216374,-12.511961,-34.39968
232,2.623021125793457,-334.45245361328125,83.13069915771484,5.268005041664614,5.158965597260882,-83.4019106583465,8.566061,-9.347626,-13.1478195,39.392536,20.303162,-15.000033,-23.41536,-7.9375777,-1.6284052,5.4839735,16.73071,14.275489,-16.946795,-4.424079,3.5727096,-4.1711507,29.165653,-26.41031,-28.848951,13.243372,0.6486242,13.704339,41.235516,-18.864914,22.62117,-11.466497,-14.929765,-12.380827,-34.492363
233,2.567058563232422,-335.8882141113281,82.92281341552734,5.07910543671038,4.95287431994599,-83.57802236402092,7.756288,-9.589287,-13.4221,43.255867,19.100637,-15.000033,-22.546213,-7.4069214,-1.0299611,5.4808273,17.809368,14.166128,-16.438429,-4.3138323,3.9670749,-3.6671715,29.207922,-26.82069,-28.72565,13.939523,0.74363863,13.670246,40.430515,-18.711103,22.7645,-10.869504,-14.430256,-12.179251,-34.412098
234,2.4996492862701416,-337.31280517578125,82.65434265136719,4.774111340983723,4.706815003866321,-83.86466580279493,6.929559,-9.684098,-13.4609,47.309772,17.738289,-15.000033,-21.48918,-6.718073,-0.4925914,5.5462503,19.3102,14.002204,-15.811766,-4.10823,4.4528756,-3.0377378,29.205675,-27.138605,-28.526014,14.664673,0.9474411,13.720814,39.422745,-18.664555,22.978561,-10.218316,-13.752913,-11.912767,-34.204426
235,2.433725357055664,-338.7381591796875,82.31360626220703,4.366377273254647,4.410388712465813,-84.22303042253282,6.1053457,-9.578464,-13.281939,51.436718,16.329649,-15.000033,-21.179388,-5.921944,0.03658001,7.5973344,19.402739,13.471547,-15.089007,-3.8239965,5.006546,-2.344423,29.176657,-27.406948,-28.231312,15.30194,1.230571,13.827033,38.26369,-18.680832,23.231188,-9.538468,-13.078592,-11.650597,-33.916443
236,2.379377841949463,-340.1797790527344,81.8999252319336,3.868720994037714,4.0631791446491485,-84.61441633999723,5.2870803,-9.21288,-12.905422,55.554497,14.963586,-15.000033,-21.26757,-5.037084,0.46440417,10.830688,17.70505,12.269618,-14.322139,-3.4516964,5.5993323,-1.6209655,29.113918,-27.625828,-27.842323,15.740242,1.5573668,13.9516735,37.021534,-18.78776,23.4955,-8.901607,-12.566793,-11.4618845,-33.59695
237,2.2574992179870605,-341.5807800292969,81.49067687988281,3.2495069544204873,3.6330823892935844,-85.06014881368061,4.536547,-8.482501,-12.249157,59.692085,13.678553,-15.000033,-21.273254,-3.9534242,0.8961373,14.37322,14.152223,9.932406,-13.482383,-2.9603508,6.2595973,-0.8676322,29.037756,-27.819923,-27.362122,15.881176,1.940721,14.134945,35.70586,-18.98398,23.75136,-8.315041,-12.276959,-11.376172,-33.170086
238,2.1531295776367188,-342.9930419921875,81.0014419555664,2.5367897541204765,3.120243515124472,-85.5580052607441,3.865233,-7.449768,-11.362805,63.85864,12.434385,-15.000033,-21.247452,-2.5834136,1.4634947,18.301056,9.304381,6.7617736,-12.57794,-2.378993,6.984181,-0.05645868,28.949564,-27.971285,-26.802954,15.803719,2.391364,14.382989,34.282856,-19.269417,24.031366,-7.753672,-12.113315,-11.352368,-32.639526
239,2.0972046852111816,-344.43975830078125,80.40312194824219,1.7876455449507218,2.5960054300875384,-86.05901757865031,3.1559691,-6.262694,-10.441543,67.988594,11.17864,-15.000033,-21.153208,-1.0129293,2.0125296,22.166954,4.240465,3.5942502,-11.656363,-1.7483749,7.703616,0.8134356,28.85194,-28.051771,-26.203094,15.647814,2.8724813,14.626018,32.768494,-19.631329,24.346613,-7.2458305,-12.005507,-11.364883,-32.15084
