unveil-humanoid-operators/unveil-humanoid-operators.github.io/feature-analysis-animation/data/feature_matrix_instances/gender_ankle_rom_walking_A180_walk_hands_on_back_stop_003__A180.csv
Frame,root_translateX,root_translateY,root_translateZ,root_rotateX,root_rotateY,root_rotateZ,left_hip_pitch_joint_dof,left_hip_roll_joint_dof,left_hip_yaw_joint_dof,left_knee_joint_dof,left_ankle_pitch_joint_dof,left_ankle_roll_joint_dof,right_hip_pitch_joint_dof,right_hip_roll_joint_dof,right_hip_yaw_joint_dof,right_knee_joint_dof,right_ankle_pitch_joint_dof,right_ankle_roll_joint_dof,waist_yaw_joint_dof,waist_roll_joint_dof,waist_pitch_joint_dof,left_shoulder_pitch_joint_dof,left_shoulder_roll_joint_dof,left_shoulder_yaw_joint_dof,left_elbow_joint_dof,left_wrist_roll_joint_dof,left_wrist_pitch_joint_dof,left_wrist_yaw_joint_dof,right_shoulder_pitch_joint_dof,right_shoulder_roll_joint_dof,right_shoulder_yaw_joint_dof,right_elbow_joint_dof,right_wrist_roll_joint_dof,right_wrist_pitch_joint_dof,right_wrist_yaw_joint_dof
0,0.41801393032073975,-1.7024173736572266,75.87138366699219,2.4022503752181725,3.222761852988334,90.52516856143573,-21.244366,-3.2169867,7.4409733,7.641535,7.1432514,3.1067348,6.6581373,-3.1136296,-2.8504646,42.69956,-13.243749,1.1906892,0.13951637,-3.8971264,7.3621554,11.972109,3.8068202,-95.80358,51.446976,13.593739,-2.9176393,-8.426483,16.535679,-4.425348,87.25983,44.25566,-27.162727,-10.477344,-11.302825
1,0.2882626950740814,-0.9712475538253784,75.98126220703125,2.6107738645531757,3.2376474315235995,90.72533178771795,-20.725563,-3.6476068,7.3721004,7.7961497,6.5664473,3.436696,5.6803045,-3.689886,-3.2045546,45.320248,-11.770238,1.6605501,0.08559037,-4.084511,7.2674994,12.0686035,3.7951248,-95.78399,51.310852,13.3219,-2.9487054,-8.573803,16.512262,-4.4472857,87.377335,44.162895,-26.972937,-10.51208,-11.240103
2,0.15242770314216614,-0.24516065418720245,76.09166717529297,2.8196453124479706,3.259239717986741,90.93118046437155,-20.223473,-4.089083,7.2947884,7.9627504,5.99106,3.7867029,4.713813,-4.2542243,-3.5219486,47.934185,-10.277809,2.1143527,-0.0063881977,-4.2813306,7.1586704,12.17188,3.7887309,-95.72967,51.16542,13.055445,-2.9839587,-8.722001,16.484568,-4.4897475,87.544106,44.049023,-26.757717,-10.5389805,-11.180367
3,0.03260129317641258,0.46263277530670166,76.19755554199219,3.0194012634990965,3.2633957283465542,91.12497951043343,-19.688124,-4.5181427,7.2168345,8.094638,5.426062,4.106713,3.7380035,-4.819147,-3.82917,50.55268,-8.814029,2.5706992,-0.07778346,-4.4674034,7.0727267,12.273126,3.792385,-95.67448,51.01474,12.794719,-3.007608,-8.8714485,16.457014,-4.531846,87.69376,43.938477,-26.56952,-10.570967,-11.124155
4,-0.08951986581087112,1.1688294410705566,76.3016586303711,3.2039746857579123,3.2261935038135507,91.28997587039905,-19.07076,-4.911451,7.1455073,8.148134,4.8773966,4.3471336,2.7297668,-5.4040084,-4.1523986,53.195305,-7.4293,3.0377812,-0.14816573,-4.6458755,7.03875,12.382549,3.810679,-95.5589,50.861187,12.561154,-3.0043654,-9.025174,16.419659,-4.608581,87.87245,43.80315,-26.42785,-10.607618,-11.086037
5,-0.184223935008049,1.8411974906921387,76.39173889160156,3.36833166212165,3.1456668661540648,91.4204057570798,-18.354836,-5.2538323,7.087132,8.099362,4.349063,4.475676,1.6286436,-5.9825835,-4.42817,55.972496,-6.0032005,3.5111556,-0.1785895,-4.8073435,7.068017,12.496963,3.8366144,-95.40332,50.710125,12.334968,-2.957061,-9.197866,16.374672,-4.6827593,88.044624,43.675396,-26.359934,-10.650641,-11.069079
6,-0.29914164543151855,2.527428388595581,76.48583221435547,3.517019361313789,3.033338024557694,91.52596972993233,-17.570807,-5.55977,7.0375414,7.983753,3.8305044,4.5261717,0.4620206,-6.5631137,-4.6671543,58.850533,-4.555103,3.9733884,-0.19227435,-4.9583273,7.142402,12.616905,3.870175,-95.20382,50.558464,12.119286,-2.878414,-9.384346,16.321922,-4.7600036,88.22728,43.54837,-26.341408,-10.697312,-11.068963
7,-0.4049162268638611,3.2216145992279053,76.57833862304688,3.6559967834240217,2.885899192439236,91.6136754961994,-16.715424,-5.8534408,6.9858007,7.7964563,3.3344994,4.546901,-0.6590312,-7.236733,-5.0078473,61.63915,-3.35187,4.400675,-0.20223396,-5.101404,7.2559776,12.738485,3.90697,-94.99405,50.421658,11.93703,-2.7984827,-9.549363,16.264927,-4.83515,88.409164,43.436516,-26.3489,-10.755492,-11.076191
8,-0.49852216243743896,3.8863611221313477,76.65666198730469,3.794873676116029,2.699409545851109,91.69131893121482,-15.78995,-6.1584086,6.919373,7.5421686,2.8703837,4.5840855,-1.6243718,-8.106711,-5.58988,64.15787,-2.660427,4.7674856,-0.22476622,-5.2423897,7.4026065,12.858881,3.9432235,-94.80397,50.314926,11.812275,-2.747805,-9.658486,16.207613,-4.9063063,88.58135,43.354504,-26.358711,-10.832907,-11.081646
9,-0.5967468023300171,4.543026924133301,76.7259292602539,3.9475480132632264,2.465110437829574,91.74823358223676,-14.768335,-6.485307,6.840261,7.197778,2.4438386,4.6413474,-2.351824,-9.294241,-6.5288963,66.35273,-2.6048388,5.1749563,-0.2492274,-5.3926396,7.5884056,12.983189,3.9706364,-94.63523,50.24818,11.762278,-2.742272,-9.702654,16.147177,-4.961155,88.74423,43.31869,-26.386152,-10.940375,-11.081419
10,-0.6970444917678833,5.2053327560424805,76.79330444335938,4.106636771882943,2.186436239695349,91.78595523078441,-13.652098,-6.8152676,6.747501,6.763477,2.0516424,4.690364,-2.8989842,-10.736846,-7.730914,68.335014,-3.0251868,5.59476,-0.28684217,-5.5510936,7.8139777,13.114081,3.9974618,-94.45593,50.206295,11.775699,-2.763477,-9.701841,16.08022,-5.0205116,88.919174,43.30224,-26.432516,-11.069033,-11.082344
11,-0.788288950920105,5.870138645172119,76.86074829101562,4.247358816682273,1.8785247135834862,91.82558860576793,-12.585955,-7.1095395,6.639809,6.5061007,1.5643702,4.7273397,-3.3529348,-12.255057,-9.017823,70.141174,-3.7605996,5.824838,-0.3216532,-5.6851573,8.069318,13.2347145,4.009891,-94.32798,50.20895,11.8095875,-2.7912362,-9.657883,16.022093,-5.0527716,89.050606,43.327446,-26.471823,-11.205524,-11.08528
12,-0.8821474313735962,6.532304763793945,76.932861328125,4.34497388865454,1.5573595907690958,91.88690555551847,-11.625515,-7.34539,6.511277,6.496167,0.95721865,4.7535486,-3.816379,-13.653461,-10.204735,71.79769,-4.6580696,5.671289,-0.39610267,-5.78134,8.3383045,13.339615,4.0173826,-94.23104,50.246605,11.844855,-2.805125,-9.580075,15.974671,-5.079899,89.162544,43.365166,-26.458307,-11.328965,-11.097602
13,-0.9799277186393738,7.1824140548706055,77.00090026855469,4.393150710158009,1.2119824126069987,91.97541960580621,-10.641953,-7.534399,6.3441286,6.485288,0.3565933,4.7708015,-4.2969203,-14.914585,-11.29692,73.31444,-5.8339543,4.983371,-0.5037826,-5.8284316,8.633576,13.422451,4.018529,-94.196465,50.329586,11.859567,-2.791935,-9.464065,15.93884,-5.1007857,89.23949,43.417988,-26.353586,-11.439611,-11.126288
14,-1.065996527671814,7.831169128417969,77.06486511230469,4.397695687912174,0.8398859986979504,92.07873990999384,-9.631102,-7.679381,6.146494,6.4738555,-0.23818462,4.777409,-4.7500854,-16.089537,-12.36344,74.66947,-7.335236,3.939652,-0.6245811,-5.8312807,8.959972,13.485243,4.0169,-94.216064,50.450645,11.875854,-2.7659886,-9.312203,15.912682,-5.104185,89.26472,43.500725,-26.196606,-11.549819,-11.1601925
15,-1.1473321914672852,8.474043846130371,77.12541198730469,4.368816546265695,0.47036674265645784,92.18943681491483,-8.632397,-7.7816377,5.931864,6.4740605,-0.82804054,4.7765574,-5.218936,-17.103422,-13.3189745,75.832466,-8.891782,2.8218303,-0.7718733,-5.808608,9.281789,13.540236,4.011932,-94.25366,50.594788,11.913725,-2.7440813,-9.124661,15.90098,-5.1049047,89.28112,43.589497,-26.041704,-11.647307,-11.195351
16,-1.2236433029174805,9.1200532913208,77.1837158203125,4.323180236957878,0.13178472384690387,92.30043700151087,-7.6868396,-7.852501,5.716483,6.5035553,-1.415814,4.7732615,-5.749277,-17.909372,-14.090875,76.7685,-10.214566,1.8913143,-0.9141987,-5.7726326,9.571452,13.588089,3.9982426,-94.314835,50.75792,11.987564,-2.7458158,-8.905403,15.918112,-5.1004486,89.252525,43.67884,-25.969019,-11.73004,-11.212935
17,-1.30445396900177,9.756328582763672,77.24282836914062,4.255682790066515,-0.1728971317015856,92.41462573512963,-6.784773,-7.889868,5.4967113,6.5331407,-1.9797665,4.7714367,-6.358458,-18.494534,-14.681748,77.46451,-11.187976,1.1811807,-1.0677338,-5.71941,9.82848,13.622069,3.9794524,-94.37859,50.940887,12.127575,-2.7854276,-8.6366825,15.962586,-5.090385,89.167046,43.775272,-26.032473,-11.802194,-11.194691
18,-1.378666877746582,10.385391235351562,77.29488372802734,4.162606033031327,-0.4572744074792378,92.53387974814284,-5.91028,-7.89451,5.2698526,6.562319,-2.5249655,4.7705164,-7.033995,-18.88707,-15.133543,77.93656,-11.963945,0.5580535,-1.2129655,-5.638553,10.068151,13.639317,3.9336855,-94.488716,51.172997,12.304554,-2.8499968,-8.317903,16.035038,-5.058328,89.00737,43.89513,-26.187344,-11.866506,-11.152486
19,-1.4341169595718384,11.01508617401123,77.34144592285156,4.056729466393886,-0.7174378171499396,92.65099934271021,-5.0676794,-7.875748,5.0438814,6.591917,-3.060997,4.7672453,-7.7735248,-19.107117,-15.449296,78.19588,-12.650911,0.019062422,-1.3861158,-5.5592594,10.284426,13.6598,3.9073725,-94.554146,51.376373,12.521669,-2.9164956,-8.015385,16.117336,-5.0373106,88.86225,43.99762,-26.345003,-11.914891,-11.1084385
20,-1.4912015199661255,11.63980484008789,77.38427734375,3.948652739289857,-0.9495382335564476,92.75961063368625,-4.2606487,-7.8414674,4.8259797,6.621961,-3.5973554,4.7572017,-8.573219,-19.172224,-15.629311,78.25186,-13.357329,-0.43637434,-1.5206008,-5.472292,10.482246,13.684004,3.8640077,-94.62801,51.568596,12.740701,-2.9664638,-7.7832265,16.214863,-4.9985995,88.6732,44.09368,-26.455797,-11.952745,-11.067756
21,-1.5355747938156128,12.25413990020752,77.4231948852539,3.839473847873252,-1.1470861647586192,92.85874820700796,-3.497775,-7.791028,4.6137667,6.652253,-4.133823,4.737108,-9.462189,-19.029028,-15.619,78.09949,-14.113476,-0.8065491,-1.6513509,-5.3919387,10.650806,13.721191,3.821425,-94.654396,51.726654,13.003801,-2.9964862,-7.6482267,16.324251,-4.9568396,88.48777,44.16569,-26.487885,-11.966847,-11.040799
22,-1.5787062644958496,12.872759819030762,77.45885467529297,3.7224580686598268,-1.3143183219291878,92.95218950796588,-2.773543,-7.721762,4.4050126,6.6824083,-4.666508,4.7101746,-10.431182,-18.690596,-15.44067,77.73539,-14.856952,-1.0972867,-1.7793751,-5.3106947,10.793553,13.764323,3.7875984,-94.65186,51.853672,13.307338,-3.0163152,-7.575402,16.448631,-4.9211016,88.291176,44.211002,-26.480566,-11.960626,-11.018328
23,-1.6274535655975342,13.496049880981445,77.49392700195312,3.6032694272500985,-1.4632762016742782,93.03955174430342,-2.072914,-7.6393723,4.2074323,6.712913,-5.1982045,4.6814184,-11.416609,-18.270535,-15.2095375,77.17118,-15.560228,-1.3182895,-1.902711,-5.229536,10.924089,13.812203,3.7645042,-94.627,51.942993,13.586588,-3.0257013,-7.539632,16.575583,-4.895343,88.09949,44.233894,-26.446665,-11.951116,-10.997113
24,-1.6594241857528687,14.093216896057129,77.52259063720703,3.4844935499044367,-1.605586242662713,93.12033385728715,-1.3807762,-7.549119,4.0285425,6.743064,-5.730947,4.655882,-12.355428,-17.883045,-15.039451,76.41606,-16.196106,-1.4740576,-2.003165,-5.142733,11.058208,13.861316,3.7350798,-94.6045,52.009678,13.774632,-3.025607,-7.515302,16.694445,-4.8610277,87.90225,44.261772,-26.40634,-11.958826,-10.970185
25,-1.6956915855407715,14.696044921875,77.54769134521484,3.3644925373898986,-1.7431331653827649,93.19564252982029,-0.6946957,-7.447677,3.872255,6.7732196,-6.2693357,4.625728,-13.242728,-17.504133,-14.916523,75.44577,-16.79143,-1.5037795,-2.1012423,-5.055237,11.194245,13.918899,3.7125678,-94.55071,52.02643,13.853215,-3.0081422,-7.5061,16.804007,-4.8346605,87.72608,44.2759,-26.316454,-11.990399,-10.946502
26,-1.7239410877227783,15.302959442138672,77.56641387939453,3.243154475357871,-1.8699676763934068,93.26541233870304,-0.021705596,-7.3355427,3.7340164,6.8024297,-6.8098583,4.5927825,-14.102651,-17.092642,-14.798543,74.25965,-17.349442,-1.426262,-2.192561,-4.96548,11.326422,13.98287,3.6970842,-94.47368,51.99976,13.856283,-2.975892,-7.521895,16.910671,-4.8171782,87.55701,44.271404,-26.185389,-12.035194,-10.924524
27,-1.753612995147705,15.906225204467773,77.57611846923828,3.1241256204717263,-1.9860532991658302,93.3274553109337,0.6387899,-7.2212324,3.6082692,6.8314257,-7.3464937,4.5742826,-14.922377,-16.72817,-14.754818,72.903786,-17.809376,-1.3571042,-2.2738566,-4.8772573,11.456082,14.046105,3.6862094,-94.39368,51.9528,13.809937,-2.9432523,-7.548916,17.006268,-4.806018,87.407425,44.260696,-26.086243,-12.079146,-10.893505
28,-1.770814299583435,16.499221801757812,77.58509826660156,3.009748114986682,-2.0906418328968797,93.3789766766873,1.2866433,-7.111274,3.48929,6.8606405,-7.872766,4.58559,-15.69158,-16.484055,-14.854569,71.42452,-18.110956,-1.4056723,-2.3457172,-4.7957454,11.582958,14.103134,3.6794548,-94.32892,51.906765,13.737834,-2.9238205,-7.572261,17.082281,-4.800491,87.29785,44.255978,-26.088799,-12.105928,-10.845286
29,-1.7897201776504517,17.09004020690918,77.58951568603516,2.8972021382034496,-2.1851934818448906,93.41706718038607,1.9220058,-7.000704,3.3763359,6.8908,-8.38541,4.6390514,-16.40425,-16.394375,-15.154394,69.81859,-18.203451,-1.6106445,-2.399379,-4.7162986,11.714289,14.148977,3.674692,-94.28206,51.868866,13.642799,-2.9279923,-7.5815873,17.134153,-4.7982407,87.22089,44.266285,-26.26048,-12.111328,-10.764898
30,-1.8111463785171509,17.69425392150879,77.59024810791016,2.785172029334737,-2.2687546812725694,93.44345571151912,2.5206418,-6.8827863,3.2742336,6.969797,-8.914738,4.720935,-17.065424,-16.399189,-15.613401,68.06489,-18.13513,-1.8973523,-2.4393551,-4.6385236,11.84287,14.191962,3.6722672,-94.25189,51.826706,13.504667,-2.9435956,-7.5802317,17.169443,-4.798294,87.184456,44.28321,-26.53838,-12.099384,-10.668673
31,-1.82742178440094,18.2936954498291,77.58543395996094,2.677849349825143,-2.338834955852253,93.46122466578007,3.0614011,-6.7607822,3.1850295,7.135844,-9.485221,4.807437,-17.683054,-16.431755,-16.153471,66.1868,-17.995758,-2.2105753,-2.4680865,-4.5622463,11.968608,14.225472,3.6695304,-94.221466,51.783127,13.351322,-2.9629781,-7.604961,17.187944,-4.8001647,87.15478,44.302982,-26.84267,-12.090771,-10.55849
32,-1.8317556381225586,18.88707160949707,77.5772476196289,2.579498564164135,-2.391864120259427,93.47361521476455,3.5941238,-6.644284,3.102244,7.2779655,-10.042836,4.8756523,-18.268192,-16.432747,-16.689983,64.207596,-17.872128,-2.4996023,-2.4935248,-4.4928184,12.080032,14.253811,3.6668954,-94.202835,51.73793,13.184546,-2.9715788,-7.6708665,17.19609,-4.8039994,87.145775,44.315315,-27.065657,-12.091843,-10.460212
33,-1.8318511247634888,19.470224380493164,77.55928039550781,2.4864547224987166,-2.4228613198318887,93.47978273842718,4.1141906,-6.531798,3.0257487,7.3946595,-10.58424,4.925452,-18.811396,-16.42325,-17.256233,62.108185,-17.814795,-2.778164,-2.517663,-4.428813,12.173391,14.276402,3.6635625,-94.19208,51.690155,12.997653,-2.965138,-7.8208084,17.191069,-4.811986,87.16303,44.3149,-27.170559,-12.107623,-10.37967
34,-1.835448145866394,20.065454483032227,77.53401947021484,2.3996066535954608,-2.4346426570923025,93.47793051276545,4.6230025,-6.420974,2.9563,7.4890304,-11.10987,4.9667416,-19.311079,-16.416828,-17.88012,59.88217,-17.768566,-3.0590189,-2.5284045,-4.3655667,12.252937,14.292103,3.66197,-94.19827,51.637634,12.7873535,-2.9499524,-8.031059,17.174559,-4.817265,87.19224,44.315372,-27.218142,-12.133764,-10.304614
35,-1.8401814699172974,20.670080184936523,77.50337982177734,2.3219047639938446,-2.435269255026107,93.47297519489504,5.123092,-6.3169656,2.8939,7.5754614,-11.63314,4.9920197,-19.791323,-16.355679,-18.463583,57.568726,-17.656174,-3.3006358,-2.5465627,-4.3154807,12.321085,14.305831,3.6594214,-94.21046,51.587746,12.56931,-2.9297037,-8.220244,17.147806,-4.828852,87.258354,44.30818,-27.235365,-12.155926,-10.238105
36,-1.8470886945724487,21.265323638916016,77.4619140625,2.2611150123093253,-2.43315782632386,93.46795771009316,5.6410522,-6.229519,2.8377366,7.6212997,-12.1425,4.9948525,-20.27586,-16.1928,-18.901127,55.204453,-17.39965,-3.4708285,-2.564315,-4.280714,12.383303,14.317477,3.6564353,-94.22879,51.54436,12.373269,-2.912329,-8.320335,17.120514,-4.8451767,87.32283,44.298294,-27.279173,-12.174746,-10.161532
37,-1.841945767402649,21.859375,77.41136932373047,2.2185381199468437,-2.4333803625079766,93.46463168953413,6.1844807,-6.1633787,2.7874095,7.6243086,-12.640622,4.967458,-20.773268,-15.933219,-19.158268,52.800343,-16.969835,-3.5999312,-2.579359,-4.264684,12.444824,14.326772,3.652656,-94.26117,51.511513,12.193874,-2.9013155,-8.27596,17.09032,-4.869243,87.38528,44.28154,-27.368998,-12.184105,-10.066138
38,-1.8330169916152954,22.459430694580078,77.35091400146484,2.193127554611756,-2.4305151953157025,93.46113001379824,6.74364,-6.11486,2.7432363,7.59128,-13.126586,4.9162793,-21.269705,-15.611621,-19.285305,50.337162,-16.412485,-3.7052686,-2.587218,-4.2612505,12.504053,14.329502,3.650672,-94.307884,51.483265,12.024167,-2.8940382,-8.140839,17.053679,-4.884564,87.44056,44.277416,-27.483164,-12.192032,-9.956847
39,-1.8351860046386719,23.05465316772461,77.28289031982422,2.1805310842037904,-2.41664041945585,93.45821781262198,7.303636,-6.080069,2.7048256,7.5348234,-13.601187,4.856467,-21.760689,-15.233585,-19.30005,47.81664,-15.756964,-3.7389824,-2.5940843,-4.2695546,12.548359,14.330834,3.6485686,-94.36925,51.458607,11.868684,-2.8840113,-7.990666,17.020401,-4.9042535,87.49958,44.265694,-27.58558,-12.199333,-9.856547
40,-1.8308192491531372,23.656400680541992,77.20523834228516,2.179540875571519,-2.385246958345816,93.45642740993567,7.8492446,-6.055496,2.6719098,7.46956,-14.066198,4.803197,-22.23858,-14.802462,-19.220858,45.23422,-15.029984,-3.6516829,-2.6021724,-4.283833,12.573889,14.3273115,3.6472402,-94.430855,51.43104,11.747451,-2.867305,-7.913443,16.99325,-4.9197726,87.54525,44.26069,-27.655645,-12.218249,-9.776888
41,-1.8120852708816528,24.256568908691406,77.1201171875,2.1897538700624692,-2.3303273717211357,93.4534224078224,8.3756,-6.0412908,2.6464345,7.39143,-14.519702,4.757462,-22.706915,-14.311572,-19.035732,42.561813,-14.18414,-3.4297419,-2.6076484,-4.303561,12.571945,14.319997,3.646151,-94.50789,51.396946,11.660952,-2.8375096,-7.942662,16.975977,-4.9381976,87.58549,44.25346,-27.677341,-12.249151,-9.733369
42,-1.8025447130203247,24.865041732788086,77.0269546508789,2.2138618724230343,-2.2578591093956684,93.45074971217416,8.893839,-6.041614,2.626515,7.291672,-14.959481,4.7131658,-23.158154,-13.77368,-18.732586,39.79837,-13.219838,-3.107569,-2.618078,-4.335068,12.552584,14.306344,3.6459267,-94.57825,51.358845,11.613457,-2.8000934,-8.037411,16.959753,-4.947629,87.619545,44.258144,-27.671976,-12.291053,-9.708964
43,-1.78508722782135,25.473800659179688,76.9271469116211,2.2513412408568896,-2.1774678431378724,93.45571802410088,9.395099,-6.0565934,2.606309,7.2134366,-15.4063835,4.6745033,-23.56929,-13.217635,-18.33291,36.97906,-12.235591,-2.7062871,-2.6265612,-4.3735275,12.5190325,14.293928,3.64614,-94.67174,51.326546,11.573529,-2.7605147,-8.133859,16.955729,-4.960618,87.642525,44.255634,-27.64562,-12.333317,-9.695665
44,-1.7855510711669922,26.090368270874023,76.81768035888672,2.304303740175023,-2.0997059917407785,93.47523098820974,9.857435,-6.0859756,2.5814536,7.22893,-15.8966255,4.6454268,-23.915646,-12.67065,-17.860744,34.13377,-11.3257265,-2.2463634,-2.6444774,-4.423364,12.485798,14.2833,3.646798,-94.754776,51.30804,11.542181,-2.7285786,-8.190102,16.960247,-4.9723506,87.64088,44.2446,-27.618196,-12.373331,-9.669282
45,-1.7781404256820679,26.70326805114746,76.70082092285156,2.380803080420044,-2.0289983398540823,93.51021185101581,10.331544,-6.142664,2.54349,7.2412186,-16.383188,4.632237,-24.185108,-12.134097,-17.303816,31.230698,-10.501859,-1.7059216,-2.6687431,-4.4912825,12.454389,14.273769,3.6480718,-94.84178,51.310883,11.524395,-2.7093947,-8.181442,16.980162,-4.985914,87.60675,44.216354,-27.596493,-12.407343,-9.630053
46,-1.7689741849899292,27.325239181518555,76.57801818847656,2.480643471349549,-1.9619688392419343,93.56099409029049,10.812301,-6.2267904,2.4927723,7.252637,-16.866959,4.632096,-24.375967,-11.609919,-16.654507,28.242731,-9.709696,-1.0905704,-2.7069776,-4.580937,12.4218445,14.265054,3.649553,-94.923065,51.32928,11.526609,-2.6980758,-8.140089,17.010893,-4.996473,87.55354,44.18116,-27.570751,-12.438527,-9.58613
47,-1.7310315370559692,27.944602966308594,76.45268249511719,2.5960835954666015,-1.897504409180382,93.6344358074048,11.299041,-6.3256907,2.426044,7.2616553,-17.337137,4.63681,-24.481173,-11.123373,-15.948852,25.209951,-8.943011,-0.4589619,-2.7621508,-4.6804132,12.388983,14.261515,3.651272,-94.99505,51.35131,11.522971,-2.6855435,-8.090631,17.046104,-5.004384,87.48815,44.14483,-27.53054,-12.471534,-9.534778
48,-1.7152111530303955,28.5827693939209,76.31843566894531,2.7160005499320965,-1.8341328928632263,93.73686050485689,11.789931,-6.4273343,2.3412144,7.2691207,-17.784657,4.63868,-24.499876,-10.696169,-15.223867,22.179981,-8.199879,0.13418555,-2.8371265,-4.778241,12.356814,14.266529,3.653374,-95.051865,51.364925,11.487917,-2.6629179,-8.058777,17.079885,-5.0101194,87.4169,44.11203,-27.466658,-12.510304,-9.472285
49,-1.6966333389282227,29.222566604614258,76.18496704101562,2.8479940791694336,-1.7733921580117575,93.87629843465749,12.286795,-6.5398593,2.2313607,7.2745266,-18.216818,4.640529,-24.43115,-10.335105,-14.457726,19.13022,-7.487517,0.70176935,-2.9316883,-4.8739834,12.32789,14.283512,3.6573937,-95.09895,51.364723,11.409865,-2.6266162,-8.047557,17.116962,-5.0159955,87.32413,44.080944,-27.370926,-12.557536,-9.394689
50,-1.6798357963562012,29.8615779876709,76.04484558105469,3.0022670921902845,-1.7215803623122714,94.05546302426305,12.797212,-6.6796365,2.0901866,7.276936,-18.635109,4.648684,-24.26673,-10.05084,-13.643922,16.042479,-6.803723,1.2640421,-3.0670178,-4.991519,12.303857,14.31346,3.6620758,-95.11722,51.35849,11.308629,-2.581725,-8.045707,17.156279,-5.0194616,87.234764,44.052578,-27.245314,-12.608166,-9.308148
51,-1.6632533073425293,30.50913429260254,75.9035873413086,3.180435799424654,-1.6832492174542253,94.27139145766083,13.324229,-6.8409047,1.917609,7.277274,-19.021124,4.6595874,-24.004581,-9.8578,-12.847307,12.979075,-6.126003,1.7834268,-3.2260602,-5.128046,12.288595,14.346012,3.669746,-95.13297,51.3507,11.191207,-2.532276,-8.05296,17.193531,-5.021643,87.137535,44.01978,-27.1138,-12.661397,-9.211776
52,-1.6315950155258179,31.16228485107422,75.7639389038086,3.373461270856357,-1.658103660415823,94.5143302394808,13.868672,-7.0096703,1.7208714,7.2737737,-19.355759,4.6670384,-23.642857,-9.749741,-12.1332035,9.986604,-5.4213753,2.2258465,-3.4073489,-5.283923,12.279434,14.375726,3.6780136,-95.144905,51.349415,11.069655,-2.4826334,-8.069652,17.219944,-5.021392,87.05747,43.98259,-26.990713,-12.712898,-9.11161
53,-1.5967365503311157,31.822385787963867,75.62786102294922,3.565512622529557,-1.6309978673710124,94.77749255786361,14.413396,-7.1669436,1.5169258,7.2685966,-19.642847,4.6682935,-23.198532,-9.689364,-11.463601,6.9964085,-4.648423,2.4948354,-3.6010733,-5.441125,12.265391,14.399117,3.6861176,-95.15813,51.360237,10.940172,-2.4334745,-8.1041155,17.232363,-5.019226,86.98561,43.9381,-26.872953,-12.766327,-9.000339
54,-1.5665212869644165,32.485435485839844,75.49655151367188,3.7502771730759354,-1.5980597043788953,95.05377866111408,14.952605,-7.305755,1.3121328,7.2645845,-19.891125,4.6627502,-24.013796,-9.913081,-10.595914,6.8452907,-5.3282714,2.6427138,-3.7937934,-5.5863423,12.245535,14.416859,3.695788,-95.175674,51.376102,10.797862,-2.3824756,-8.154493,17.235678,-5.014827,86.90641,43.88802,-26.757627,-12.823231,-8.876557
55,-1.5284311771392822,33.1536979675293,75.37320709228516,3.931638323456913,-1.572830926152904,95.3303814216602,15.504353,-7.427249,1.1005766,7.2600226,-20.091202,4.6464167,-24.69818,-10.137654,-9.866601,6.7230053,-5.9585958,2.8562994,-3.9800162,-5.726793,12.227588,14.432095,3.7060452,-95.191696,51.39027,10.651352,-2.3306253,-8.203323,17.230963,-5.008859,86.84201,43.839355,-26.65358,-12.876332,-8.756221
56,-1.4871102571487427,33.834041595458984,75.25293731689453,4.122016686335055,-1.5707324145867636,95.59769771256454,16.087505,-7.5402756,0.87315047,7.2542324,-20.234255,4.615388,-25.179602,-10.377057,-9.388541,6.647002,-6.5327845,3.3341784,-4.1511884,-5.872249,12.222858,14.443076,3.7143292,-95.204834,51.393597,10.509672,-2.277838,-8.236918,17.220549,-5.003527,86.801414,43.798,-26.577246,-12.920509,-8.653056
57,-1.4313923120498657,34.53104019165039,75.12725067138672,4.352029797896152,-1.6299176912172297,95.87866562956849,16.748209,-7.683753,0.6045894,7.245257,-20.327461,4.5710588,-25.40395,-10.703952,-9.3022175,6.645476,-7.177434,4.4078636,-4.322104,-6.0593514,12.263845,14.451557,3.7275496,-95.22444,51.38087,10.349245,-2.216942,-8.239674,17.207737,-4.994944,86.784836,43.765396,-26.517458,-12.956239,-8.5752945
58,-1.3695259094238281,35.232276916503906,75.00415802001953,4.618644501113234,-1.734517403550208,96.17611665564843,17.464525,-7.858491,0.29921,7.2321267,-20.368254,4.5173607,-25.390184,-11.103,-9.526364,6.6375422,-7.8090353,5.895787,-4.505675,-6.289143,12.333348,14.461789,3.746133,-95.24024,51.357117,10.17469,-2.1494887,-8.22212,17.191875,-4.983152,86.804016,43.73865,-26.468304,-12.983653,-8.518111
59,-1.3138318061828613,35.935401916503906,74.89672088623047,4.833843245901898,-1.8020756181477882,96.42412149378808,18.140219,-7.9647727,0.02918421,7.2210693,-20.342731,4.4421525,-25.257088,-11.402698,-9.824856,6.6242714,-8.197195,7.209662,-4.6477823,-6.4627986,12.364581,14.468548,3.7717578,-95.23851,51.315365,10.035811,-2.091503,-8.208431,17.16254,-4.967488,86.85188,43.723774,-26.45204,-13.000344,-8.466825
60,-1.2679121494293213,36.63364791870117,74.81840515136719,4.911641352256889,-1.7545730392921108,96.55994660816434,18.686773,-7.905967,-0.1336881,7.215587,-20.237194,4.3314767,-25.11656,-11.4327965,-9.945373,6.609998,-8.1356,7.7562623,-4.6779013,-6.4782104,12.30131,14.4623165,3.7867477,-95.22503,51.284058,9.9795,-2.063659,-8.22386,17.11291,-4.958653,86.889626,43.706005,-26.503471,-13.006515,-8.397971
61,-1.2153968811035156,37.338993072509766,74.78211975097656,4.806455178207785,-1.5588339456633782,96.53688145259319,19.073465,-7.6352954,-0.13983993,7.2188573,-20.071144,4.1603584,-24.941942,-11.108574,-9.850952,6.598766,-7.4958563,7.158479,-4.568446,-6.286271,12.113752,14.449727,3.8021202,-95.18144,51.23876,10.053075,-2.0755508,-8.2830105,17.033657,-4.9503865,86.953674,43.705116,-26.63397,-12.99746,-8.309172
62,-1.14040207862854,38.045528411865234,74.79674530029297,4.556648731374374,-1.258087257774508,96.38724201837434,19.35386,-7.199112,-0.01748578,7.2301006,-19.851421,3.932701,-24.717344,-10.510689,-9.663841,6.6329613,-6.431351,5.8097653,-4.3507953,-5.9371843,11.836913,14.432276,3.822092,-95.09894,51.18289,10.226084,-2.119,-8.374363,16.930037,-4.9415727,87.050385,43.714798,-26.827595,-12.975514,-8.208659
63,-1.0572924613952637,38.76618576049805,74.83810424804688,4.2344552468312955,-0.903257892047778,96.18871726083435,19.565304,-6.6813545,0.16099946,7.272756,-19.552816,3.690256,-24.521093,-9.766923,-9.370928,6.698643,-5.12816,4.2809873,-4.0838623,-5.5096207,11.514445,14.398898,3.8367412,-95.007706,51.128017,10.413706,-2.1701784,-8.469495,16.810831,-4.937441,87.13351,43.724697,-27.052229,-12.947416,-8.109351
64,-0.9913843274116516,39.50564193725586,74.86096954345703,3.891199234624451,-0.5490578268331298,96.04861086713099,19.713526,-6.137052,0.29915854,7.4217086,-19.164928,3.4813175,-24.40096,-9.008006,-8.992583,6.733993,-3.7604,3.1349866,-3.8774037,-5.0643997,11.19184,14.345733,3.8452609,-94.90899,51.075584,10.540985,-2.2042422,-8.542496,16.681377,-4.936568,87.1879,43.7297,-27.268442,-12.916703,-8.027162
65,-0.9120061993598938,40.22615432739258,74.90154266357422,3.4965196912444143,-0.16728433542725132,95.99055254999935,19.011702,-5.5118194,0.4540779,9.267822,-19.539658,3.2875357,-24.406261,-8.201921,-8.4887,6.716781,-2.2888124,2.4599688,-3.7737505,-4.5790567,10.850796,14.268015,3.8545039,-94.7476,51.005024,10.581841,-2.2056699,-8.610802,16.526394,-4.938097,87.2097,43.726326,-27.43087,-12.895503,-7.9302063
66,-0.8270933032035828,40.9435920715332,74.96951293945312,3.022931842382657,0.26434003041609705,95.97390152958272,18.050043,-4.778947,0.5833523,11.536636,-20.015394,3.0903382,-24.487387,-7.2982035,-7.8938475,6.661724,-0.6448379,1.9780049,-3.6898003,-4.0026374,10.47017,14.165882,3.856436,-94.599785,50.930912,10.557378,-2.1886768,-8.670225,16.361406,-4.9402976,87.165924,43.715702,-27.580181,-12.877931,-7.8219852
67,-0.7339058518409729,41.69806671142578,75.04035186767578,2.5170781066881642,0.7052200084263953,95.97958651238005,17.017517,-4.001543,0.67933446,13.929663,-20.403269,2.9167254,-24.568983,-6.3707848,-7.3013635,6.5893674,1.0085883,1.6777172,-3.6447263,-3.394186,10.077912,14.053612,3.8545218,-94.44804,50.865597,10.542071,-2.1783905,-8.700463,16.19025,-4.9438667,87.14207,43.71985,-27.779211,-12.841163,-7.7730904
68,-0.6517084836959839,42.475284576416016,75.09764099121094,2.0363480156510136,1.111291252618721,95.98548765020861,16.002228,-3.2547402,0.7531179,16.36347,-20.627039,2.7977517,-24.575104,-5.5015235,-6.786673,6.520644,2.5087097,1.5423974,-3.636147,-2.8196988,9.70134,13.945964,3.8451235,-94.31343,50.834564,10.590596,-2.1993117,-8.669708,16.026398,-4.9521866,87.21378,43.753532,-28.0888,-12.758074,-7.859555
69,-0.5664829015731812,43.258731842041016,75.14859771728516,1.597128926271484,1.4659397605647264,95.98930994632532,15.049646,-2.5639117,0.7895107,18.786705,-20.683565,2.7525408,-24.512217,-4.7007236,-6.290574,6.5163093,3.8384683,1.6296297,-3.6377547,-2.2865489,9.352817,13.834001,3.8303695,-94.24436,50.84939,10.710228,-2.2623508,-8.524607,15.875565,-4.9622207,87.38757,43.84036,-28.58672,-12.613566,-8.159072
70,-0.47693005204200745,44.033145904541016,75.20635986328125,1.1774772397395519,1.7936726730536194,95.99200333089298,14.114613,-1.8966824,0.7972541,21.227385,-20.591766,2.767563,-24.381887,-3.9268339,-5.775891,6.495083,5.1021047,1.9172665,-3.666079,-1.7776368,9.016643,13.717434,3.8062708,-94.19263,50.899696,10.88084,-2.3532248,-8.298628,15.725638,-4.9761753,87.651024,43.963737,-29.21226,-12.419542,-8.6122465
71,-0.3817709982395172,44.79936218261719,75.28131103515625,0.7783280091692152,2.110582970480507,95.97622837378314,13.155529,-1.2439544,0.82789695,23.708656,-20.308138,2.8239539,-24.190872,-3.1978722,-5.340689,6.4431863,6.2255545,2.2691123,-3.7112706,-1.3010685,8.676399,13.607723,3.766371,-94.148094,50.977345,11.072907,-2.4561014,-8.074647,15.584761,-4.997993,87.96848,44.077194,-29.83614,-12.192414,-9.087813
72,-0.27892446517944336,45.567237854003906,75.36043548583984,0.40102140152990645,2.4314487116673047,95.92686358608069,12.133319,-0.5953719,0.9299192,26.257053,-19.789513,2.8966768,-24.02333,-2.5384686,-5.0868316,6.501944,7.049019,2.553295,-3.7288122,-0.8529945,8.317389,13.509032,3.7320778,-94.14642,51.048676,11.247544,-2.5537636,-7.933692,15.469309,-5.017291,88.25219,44.141953,-30.343878,-11.958167,-9.4498
73,-0.17973601818084717,46.333221435546875,75.43826293945312,0.061311611266925976,2.7825345275117486,95.8404066655032,11.01908,0.025301758,1.1267273,28.88429,-19.000763,3.0003266,-23.892237,-1.992847,-5.1053,6.6378827,7.548594,2.8454027,-3.743071,-0.46104202,7.9085426,13.428822,3.6971564,-94.160835,51.12702,11.418458,-2.6462042,-7.9082804,15.372429,-5.0380325,88.548,44.136005,-30.707743,-11.701862,-9.670604
74,-0.08226608484983444,47.11445999145508,75.52178955078125,-0.24229317482401588,3.147628180931723,95.72207844539645,9.83991,0.6205448,1.393964,31.577827,-17.974363,3.1339686,-23.764235,-1.5355836,-5.3178296,6.8058047,7.8002105,3.1789262,-3.7564552,-0.11890045,7.4667616,13.361349,3.6588895,-94.19312,51.219143,11.596511,-2.7412736,-7.9511933,15.291375,-5.0629654,88.86958,44.084984,-30.991371,-11.420162,-9.819211
75,0.01786794885993004,47.91394805908203,75.61361694335938,-0.5435912231785224,3.476915359582052,95.57323170176399,8.647607,1.2376162,1.7039342,34.320103,-16.758268,3.2521,-23.645126,-1.0876465,-5.5819416,7.105968,7.803512,3.3636408,-3.757088,0.20914751,7.0473046,13.305521,3.6203988,-94.24457,51.299297,11.754497,-2.8359053,-8.027502,15.234895,-5.0925126,89.172264,44.010303,-31.193083,-11.150424,-9.917974
76,0.12380968779325485,48.710994720458984,75.71527099609375,-0.8743143381824573,3.718831429263391,95.39776170104855,7.4997635,1.9186293,2.021552,37.086994,-15.400099,3.3075755,-23.528866,-0.57231086,-5.754986,7.618942,7.5662885,3.2118902,-3.7285838,0.55884683,6.706999,13.258319,3.5975018,-94.323265,51.32889,11.865381,-2.925876,-8.102531,15.212991,-5.1157227,89.40109,43.943916,-31.3149,-10.930982,-9.988788
77,0.2232137769460678,49.498130798339844,75.82673645019531,-1.255544874042468,3.844841009472923,95.18786539724498,6.428768,2.6929355,2.3461041,39.88862,-13.851013,3.2725034,-23.428066,0.05531147,-5.793048,8.433581,7.009886,2.5548124,-3.6862075,0.94475275,6.4699287,13.231825,3.579485,-94.413574,51.31064,11.93617,-3.008797,-8.163686,15.227267,-5.1443424,89.58643,43.884632,-31.334164,-10.766415,-10.042838
78,0.32382550835609436,50.282310485839844,75.93865203857422,-1.6597136783777942,3.8826726424317477,94.95028936306927,5.407274,3.5154881,2.680517,42.724754,-12.101468,3.1642847,-23.323032,0.74832577,-5.771413,9.446559,6.181653,1.5347991,-3.6298013,1.3428032,6.3069167,13.221111,3.5688372,-94.52664,51.2553,11.974609,-3.0869148,-8.230735,15.274466,-5.181288,89.729256,43.815025,-31.26224,-10.639755,-10.065351
79,0.43463563919067383,51.08476257324219,76.04898071289062,-2.0473952865801692,3.8667521432089735,94.71073830181803,4.39698,4.322031,2.9949665,45.564396,-10.260364,3.0154922,-23.162407,1.4429548,-5.726592,10.458117,5.2725086,0.43104905,-3.5745957,1.7186112,6.1927667,13.214672,3.5689757,-94.64583,51.166008,11.969284,-3.1646075,-8.317943,15.34426,-5.211811,89.81376,43.743122,-31.127584,-10.54865,-10.052448
80,0.5308992862701416,51.87136459350586,76.1573486328125,-2.3852361275102907,3.835210351521564,94.49049232530284,3.3461783,5.0637174,3.2675855,48.39673,-8.445858,2.8759112,-22.8962,2.0715163,-5.6966977,11.273437,4.457115,-0.47747144,-3.5285378,2.0385997,6.0948877,13.203043,3.576866,-94.770424,51.056282,11.896892,-3.2447968,-8.432346,15.431217,-5.2464747,89.83293,43.6464,-30.951958,-10.482781,-10.0036335
81,0.6217882633209229,52.65354919433594,76.26582336425781,-2.6611215843344755,3.8030198189616193,94.27971400816861,2.2039614,5.7265787,3.474711,51.301277,-6.6373534,2.802097,-22.53172,2.615235,-5.683059,11.876383,3.7586644,-1.1473438,-3.4717026,2.295465,6.0004535,13.18041,3.6071963,-94.90686,50.8972,11.733504,-3.3298047,-8.596765,15.539411,-5.3172264,89.744446,43.4817,-30.720243,-10.458488,-9.893178
82,0.7129608392715454,53.4177131652832,76.35668182373047,-2.8953769088356722,3.7499160899543122,94.07039050008682,0.9977792,6.349132,3.6385832,54.277473,-4.797361,2.774286,-22.092651,3.1066735,-5.665239,12.372827,3.0785997,-1.7171589,-3.4266062,2.5001578,5.9284616,13.156989,3.644905,-95.02359,50.70465,11.505028,-3.4180145,-8.80342,15.663485,-5.3781533,89.596085,43.305992,-30.419195,-10.47259,-9.734411
83,0.8025072813034058,54.16767501831055,76.44349670410156,-3.1063911269585462,3.662741202967097,93.88305682974517,-0.21362472,6.980557,3.8092556,57.2111,-3.0278716,2.7432368,-21.56025,3.5568316,-5.6541576,12.763445,2.4038968,-2.1818082,-3.3829062,2.6834626,5.8920674,13.125713,3.7052908,-95.16516,50.487846,11.241561,-3.502806,-9.008979,15.803056,-5.4567986,89.39023,43.1086,-30.111471,-10.498047,-9.562223
84,0.884669303894043,54.90225601196289,76.52613067626953,-3.3135068944864443,3.5279137743018656,93.73849484750023,-1.371172,7.6719346,4.033694,59.992035,-1.4333166,2.6605477,-20.91345,3.9798255,-5.661559,13.04069,1.7278546,-2.5372806,-3.367318,2.8660815,5.9079633,13.087303,3.7707448,-95.32512,50.288937,10.987759,-3.581182,-9.175291,15.946569,-5.533815,89.17741,42.933655,-29.848307,-10.507824,-9.418777
85,0.9696729183197021,55.62552261352539,76.60523223876953,-3.526085881026903,3.340086711824516,93.65144734547823,-2.485844,8.489718,4.34428,62.669422,0.13057704,2.4700928,-20.136219,4.376364,-5.7081175,13.188089,1.0386031,-2.7470903,-3.392482,3.0597537,5.9860325,13.035571,3.8329718,-95.52671,50.105686,10.702935,-3.6451788,-9.2990265,16.099903,-5.605167,88.94042,42.78405,-29.615173,-10.507744,-9.301746
86,1.037250280380249,56.354026794433594,76.68122100830078,-3.734401877418444,3.1074623639641543,93.60662471384869,-3.5856164,9.41492,4.7076397,65.299515,1.6538969,2.2439284,-19.239449,4.746723,-5.7836576,13.20325,0.34914264,-2.8278003,-3.442064,3.253191,6.116247,12.971754,3.894376,-95.76402,49.928394,10.380691,-3.6994224,-9.398174,16.265776,-5.676366,88.66405,42.64499,-29.39356,-10.508249,-9.193507
87,1.1097561120986938,57.07746887207031,76.75091552734375,-3.9314779773050392,2.8369410434734674,93.58002270140769,-4.6327586,10.361705,5.0774164,67.77272,2.7939262,2.106905,-18.252522,5.102238,-5.853347,13.118932,-0.31743878,-2.8542202,-3.4938157,3.434686,6.2851996,12.908777,3.9461045,-95.994545,49.79533,10.116444,-3.7609215,-9.46526,16.431469,-5.7399645,88.393555,42.5337,-29.232248,-10.490938,-9.112672
88,1.1767688989639282,57.79520797729492,76.81499481201172,-4.108901068287379,2.535488290761529,93.54814133693131,-5.5875573,11.22906,5.412012,69.969,3.2096426,2.1575906,-17.20946,5.449256,-5.880702,12.9783945,-0.94270605,-2.898511,-3.5182564,3.5948343,6.4779983,12.858261,3.9865935,-96.186165,49.738132,10.00239,-3.846459,-9.491699,16.585487,-5.7963734,88.164925,42.455475,-29.181723,-10.437969,-9.076261
89,1.233695149421692,58.507965087890625,76.88441467285156,-4.272057772147769,2.1949926131815007,93.51893757615278,-6.4121304,11.996897,5.705208,71.851074,2.5767722,2.457844,-16.0844,5.7904773,-5.862256,12.763643,-1.5189065,-2.9685462,-3.5309515,3.7369752,6.698435,12.821989,4.00419,-96.32784,49.78389,10.060561,-3.970177,-9.48683,16.728085,-5.832528,87.99714,42.436287,-29.269865,-10.334877,-9.092025
90,1.2923628091812134,59.22023010253906,76.95869445800781,-4.423354065437887,1.816040878728041,93.50125205630737,-7.1371756,12.695687,5.974696,73.48285,1.1516713,2.9086144,-14.876581,6.1141753,-5.8138404,12.475536,-2.0644848,-3.025232,-3.5226321,3.8697703,6.9492855,12.789927,4.0070853,-96.46296,49.90623,10.234996,-4.1195483,-9.447937,16.869541,-5.865803,87.84322,42.448204,-29.471012,-10.195602,-9.145641
91,1.339324712753296,59.92250442504883,77.03251647949219,-4.542023930918872,1.4190750301158652,93.47915197429408,-7.8188567,13.287233,6.2192926,74.87371,-0.52185553,3.3620737,-13.633547,6.399593,-5.729285,12.149961,-2.5874999,-3.0697947,-3.502345,3.9665413,7.219437,12.773997,3.994889,-96.54358,50.08534,10.530614,-4.273819,-9.359124,16.991655,-5.8868127,87.73351,42.490196,-29.731422,-10.04076,-9.235656
92,1.385791301727295,60.61252212524414,77.1069107055664,-4.6107960823050815,1.0238535973257576,93.435607046794,-8.512436,13.752239,6.450004,76.03594,-1.8992758,3.6908252,-12.404493,6.631313,-5.605821,11.825191,-3.0964975,-3.1068568,-3.4533,4.0111647,7.4964805,12.779969,3.9759665,-96.55688,50.29311,10.941992,-4.410906,-9.200994,17.082855,-5.896849,87.66544,42.547356,-30.00506,-9.892667,-9.356544
93,1.4317203760147095,61.28141403198242,77.18240356445312,-4.621922131549354,0.6175789778228132,93.36662647590282,-9.212346,14.106273,6.7041054,76.96523,-2.8275204,3.8602972,-11.170953,6.8079805,-5.4409685,11.486276,-3.5863621,-3.141199,-3.3656569,3.9957616,7.7968526,12.804154,3.9406207,-96.510216,50.55808,11.533618,-4.5361114,-8.915211,17.13377,-5.900309,87.64513,42.616077,-30.322702,-9.745028,-9.524556
94,1.468334436416626,61.956382751464844,77.25919342041016,-4.587571576530123,0.19548156781901446,93.28080020497988,-9.89662,14.353864,6.9734783,77.65705,-3.5949333,3.9398634,-9.920677,6.9378996,-5.2412457,11.128374,-4.0564203,-3.1709259,-3.2636712,3.929203,8.122649,12.84936,3.8703034,-96.38898,50.901,12.291347,-4.654963,-8.530291,17.147612,-5.890539,87.69039,42.713825,-30.688927,-9.587992,-9.738973
95,1.5063549280166626,62.62733840942383,77.33463287353516,-4.518471975708412,-0.21106154117193535,93.17981016525859,-10.594099,14.469896,7.207806,78.121506,-4.3172107,3.9696195,-8.700209,7.025955,-5.017674,10.78002,-4.5180416,-3.1934252,-3.1423378,3.8319955,8.437636,12.920792,3.7860582,-96.19813,51.258583,13.078326,-4.746506,-8.155733,17.145002,-5.865987,87.760925,42.82753,-31.035921,-9.4431715,-9.960475
96,1.5421538352966309,63.290550231933594,77.40694427490234,-4.428136929684594,-0.5704141890355281,93.06546344603841,-11.3348255,14.426873,7.3558984,78.36917,-5.1111503,3.9892933,-7.556095,7.07713,-4.781119,10.470269,-4.9817986,-3.2059944,-3.0064049,3.721112,8.706517,13.025218,3.6979313,-95.93067,51.578224,13.7594595,-4.795429,-7.90231,17.144073,-5.830072,87.82694,42.94161,-31.294207,-9.332361,-10.151237
97,1.5670957565307617,63.94639587402344,77.47559356689453,-4.309748455055248,-0.8697927694275892,92.93482297541622,-12.14554,14.177233,7.387055,78.403076,-6.0404167,4.055605,-6.509978,7.08543,-4.531206,10.213506,-5.451872,-3.2042558,-2.8514817,3.5949068,8.914194,13.176335,3.6120336,-95.55215,51.845192,14.293963,-4.778809,-7.809606,17.143461,-5.784726,87.88971,43.055874,-31.453,-9.263771,-10.306073
98,1.589531660079956,64.59896850585938,77.54386901855469,-4.161847782919841,-1.127678006069908,92.78784231031521,-13.00358,13.750151,7.3371587,78.21555,-7.030067,4.135217,-5.5332923,7.0538807,-4.2663803,9.991565,-5.9220943,-3.1931179,-2.6764777,3.4473407,9.082167,13.36471,3.531496,-95.07707,52.07635,14.75495,-4.7136054,-7.8163443,17.13589,-5.7314153,87.96128,43.17513,-31.547115,-9.225485,-10.444162
99,1.6077730655670166,65.23815155029297,77.60445404052734,-3.998757029625469,-1.3596936444225773,92.63084914922146,-13.862153,13.232831,7.253349,77.79593,-7.98641,4.1270747,-4.5979605,6.99975,-3.9943306,9.786649,-6.3884187,-3.1827877,-2.4917426,3.2880838,9.229504,13.563913,3.458929,-94.57091,52.27074,15.180205,-4.6465,-7.8821898,17.130949,-5.672513,88.030136,43.28624,-31.575058,-9.209844,-10.564004
100,1.6334375143051147,65.88665771484375,77.66177368164062,-3.8364075795837334,-1.5811443544023487,92.47013759013467,-14.6750965,12.71502,7.1836085,77.133835,-8.817455,3.9310389,-3.6745737,6.9396443,-3.7216558,9.575907,-6.8437657,-3.182392,-2.3060172,3.1269126,9.37469,13.748313,3.3970032,-94.10242,52.428135,15.6060095,-4.623453,-7.966194,17.138214,-5.6109138,88.08288,43.375614,-31.535152,-9.209218,-10.663668
101,1.6594138145446777,66.5310287475586,77.7143783569336,-3.672937555191555,-1.791297227032972,92.30240294646207,-15.442616,12.171057,7.103394,76.2067,-9.514556,3.4757023,-2.773542,6.8710403,-3.4460204,9.377096,-7.2941847,-3.2005267,-2.1131017,2.9621422,9.515917,13.919561,3.349635,-93.67185,52.54186,16.062084,-4.6755977,-8.075105,17.16269,-5.5488377,88.11671,43.43239,-31.394518,-9.223373,-10.746183
102,1.6793572902679443,67.17906951904297,77.76335144042969,-3.5019656490050526,-1.984020301397971,92.1255344437539,-16.180756,11.581109,7.0018,75.022736,-10.124206,2.8381133,-1.9029431,6.788311,-3.1647398,9.192269,-7.739882,-3.2298386,-1.8990272,2.7948782,9.645163,14.086382,3.3268342,-93.2663,52.602333,16.516947,-4.7717237,-8.222266,17.202322,-5.501599,88.1226,43.44721,-31.168587,-9.256111,-10.80892
103,1.6899006366729736,67.80751037597656,77.8042221069336,-3.3339260932708843,-2.166126271235265,91.94813279071396,-16.867828,11.035954,6.9467697,73.61517,-10.633319,2.1335363,-1.0335196,6.701007,-2.8839207,8.980733,-8.167107,-3.254888,-1.7057103,2.6216946,9.774726,14.243526,3.3131635,-92.86695,52.630688,16.936438,-4.866834,-8.383736,17.242382,-5.442678,88.137405,43.463802,-30.913994,-9.30488,-10.849701
104,1.706711769104004,68.4419174194336,77.84105682373047,-3.177378116051412,-2.3440562273686067,91.7792887521203,-17.484798,10.616928,7.005782,72.01853,-11.026626,1.4694489,-0.1361677,6.617828,-2.6098032,8.700624,-8.561133,-3.2604437,-1.5086132,2.4634771,9.910123,14.372631,3.3131063,-92.556206,52.631752,17.254732,-4.9110427,-8.524927,17.288864,-5.4025936,88.10848,43.45834,-30.70874,-9.369401,-10.855164
105,1.724290132522583,69.0771484375,77.86949157714844,-3.026523761824377,-2.5246053905501675,91.61723539279666,-18.012522,10.315651,7.1922483,70.197105,-11.257115,0.79251206,0.8006339,6.5328307,-2.3349645,8.34426,-8.918788,-3.2372139,-1.3396603,2.301605,10.060668,14.480202,3.3238277,-92.287094,52.599712,17.478342,-4.8770537,-8.651836,17.33431,-5.353195,88.07225,43.46504,-30.560328,-9.462217,-10.817071
106,1.7293477058410645,69.71199035644531,77.89043426513672,-2.8800415592093054,-2.702189011678591,91.4588195707461,-18.463697,10.087088,7.4731007,68.14185,-11.343145,0.0637228,1.7621948,6.4428945,-2.0590036,7.928624,-9.247535,-3.1958015,-1.1695629,2.1430902,10.217472,14.567993,3.345109,-92.084206,52.536053,17.620588,-4.794,-8.772922,17.387726,-5.3087945,88.00084,43.46098,-30.440502,-9.580309,-10.739765
107,1.7367759943008423,70.34521484375,77.90179443359375,-2.746709125416774,-2.8651637219075012,91.31107115088588,-18.864664,9.949103,7.847573,65.92513,-11.36344,-0.59587,2.7174408,6.3594522,-1.8007138,7.4912143,-9.564431,-3.1500134,-1.0143108,1.9957641,10.370943,14.632601,3.3792005,-91.93373,52.45508,17.689388,-4.7037015,-8.88251,17.43755,-5.2636685,87.91978,43.455715,-30.333118,-9.695248,-10.649009
108,1.7440584897994995,70.97772979736328,77.89627075195312,-2.62268936596102,-3.001868144465741,91.17896114885919,-19.245722,9.9076395,8.325175,63.63004,-11.403942,-1.0654469,3.6222699,6.279095,-1.5761203,7.097322,-9.905295,-3.1114094,-0.88162,1.8565593,10.510302,14.670414,3.4064004,-91.83444,52.395107,17.687622,-4.6488647,-8.972046,17.474577,-5.235448,87.84542,43.434723,-30.224298,-9.777989,-10.568549
109,1.7602277994155884,71.5985107421875,77.87406921386719,-2.5064811568673235,-3.104883317369301,91.06272525923667,-19.59867,9.9890585,8.9623165,61.227207,-11.50796,-1.3107986,4.3051844,6.192573,-1.4096425,7.088443,-10.452035,-3.074278,-0.777799,1.7193387,10.629876,14.676536,3.4291449,-91.784386,52.357464,17.566608,-4.643255,-9.051374,17.493805,-5.214071,87.78293,43.40628,-30.114958,-9.81371,-10.492723
110,1.7693432569503784,72.22499084472656,77.84471130371094,-2.40967969996302,-3.181616668925364,90.96180323162847,-19.908447,10.168465,9.737576,58.683098,-11.621357,-1.4165083,4.9441047,6.1168003,-1.277149,7.1074085,-11.015491,-3.034297,-0.69206697,1.5980448,10.736051,14.6517935,3.4742362,-91.79133,52.3044,17.340807,-4.661758,-9.122916,17.501347,-5.173016,87.71255,43.396435,-30.014315,-9.822845,-10.412393
111,1.7742255926132202,72.8486099243164,77.80699920654297,-2.3354598877287804,-3.239570166455201,90.87622543099509,-20.195383,10.373555,10.552466,56.067482,-11.68235,-1.4297746,5.570801,6.0622516,-1.1658235,7.1067176,-11.566714,-3.000226,-0.6353125,1.4943849,10.832706,14.610432,3.501155,-91.82992,52.278275,17.11527,-4.6934905,-9.163049,17.49882,-5.148189,87.66217,43.37721,-29.90713,-9.821506,-10.351368
112,1.7666988372802734,73.47496032714844,77.75831604003906,-2.288337846515162,-3.2867074526198827,90.80534226772836,-20.482744,10.5421505,11.305253,53.45119,-11.631548,-1.3858035,6.1927977,6.0353765,-1.0643183,7.0929275,-12.106182,-2.9810915,-0.58978325,1.4166199,10.923712,14.55789,3.536741,-91.904335,52.25083,16.99027,-4.723511,-9.151286,17.492636,-5.114297,87.620605,43.379246,-29.788834,-9.832836,-10.331125
113,1.7634117603302002,74.09008026123047,77.69886016845703,-2.270685623007125,-3.3242431826922627,90.74939449934851,-20.778004,10.6974125,12.004337,50.850468,-11.478013,-1.234077,6.805841,6.041101,-0.9715757,7.0769315,-12.637062,-2.981112,-0.57336235,1.3621929,11.012863,14.492397,3.5615659,-91.996185,52.243164,17.028511,-4.756031,-9.05988,17.475473,-5.0894885,87.61381,43.392284,-29.64491,-9.865306,-10.37933
114,1.7561511993408203,74.72400665283203,77.63130950927734,-2.2791077589996473,-3.3479214545615608,90.7086261391247,-21.071833,10.859752,12.691864,48.232502,-11.2529745,-0.97304803,7.3878465,6.0724893,-0.89422727,7.095046,-13.180889,-2.993647,-0.5722129,1.3318619,11.095371,14.409149,3.5924547,-92.13002,52.23845,17.159739,-4.794211,-8.906201,17.45103,-5.055622,87.61859,43.42569,-29.4868,-9.908342,-10.476495
115,1.7522109746932983,75.34944152832031,77.54924774169922,-2.3062562584900794,-3.3572002037360704,90.6815086427948,-21.36894,10.976974,13.310301,45.602867,-10.92364,-0.69822896,7.951991,6.1201143,-0.82995015,7.1209474,-13.727233,-3.0116127,-0.5892659,1.3158593,11.16717,14.32237,3.624362,-92.284035,52.237793,17.307514,-4.829525,-8.742144,17.42368,-5.016564,87.63643,43.472347,-29.328537,-9.947305,-10.577574
116,1.7544927597045898,75.96588897705078,77.46165466308594,-2.3440116256458827,-3.3520923644216425,90.66602469078113,-21.672646,11.004313,13.798491,42.962994,-10.451752,-0.5005247,8.506948,6.1766677,-0.77607834,7.1400585,-14.271473,-3.0295737,-0.6437353,1.3020169,11.2280445,14.24747,3.6325088,-92.40643,52.26001,17.406431,-4.856956,-8.624923,17.392952,-5.005475,87.681404,43.49237,-29.18431,-9.9675255,-10.632799
117,1.744573712348938,76.59098815917969,77.36273193359375,-2.396171398566684,-3.333354458887543,90.66446539367061,-21.990019,10.942005,14.1315,40.30872,-9.7759905,-0.37392685,9.050804,6.24519,-0.73568374,7.1595407,-14.820649,-3.052203,-0.6883985,1.3090223,11.265676,14.18522,3.644997,-92.60622,52.28503,17.396458,-4.8643565,-8.549624,17.379536,-4.984831,87.72107,43.519615,-29.053375,-9.95952,-10.650003
118,1.7332438230514526,77.21694946289062,77.25724792480469,-2.4636042289152846,-3.301279575036416,90.67612653889441,-22.317932,10.824323,14.338404,37.641518,-8.933764,-0.26839316,9.584385,6.328924,-0.7076548,7.1772966,-15.371067,-3.0811782,-0.76133394,1.3268454,11.293499,14.127831,3.6516533,-92.804436,52.318985,17.354069,-4.86401,-8.507513,17.363293,-4.9696274,87.778824,43.546124,-28.932789,-9.937033,-10.63959
119,1.7181286811828613,77.84564208984375,77.14539337158203,-2.54028516200873,-3.25348524734884,90.69445926529195,-22.64193,10.657853,14.437713,34.959316,-8.027803,-0.2075652,10.103175,6.4207063,-0.6845061,7.1944776,-15.917764,-3.107521,-0.8426318,1.3504732,11.3076515,14.076503,3.6541622,-92.99415,52.35549,17.288513,-4.8593664,-8.481229,17.348272,-4.958058,87.83633,43.567627,-28.826487,-9.904449,-10.595644
120,1.6962047815322876,78.4896469116211,77.02313232421875,-2.619258015475925,-3.1878987036993403,90.71141171327034,-22.94219,10.447718,14.449755,32.249985,-7.154966,-0.2171501,10.605075,6.5147676,-0.6576148,7.21055,-16.455807,-3.1230032,-0.91700643,1.3742892,11.306776,14.030616,3.6539657,-93.15292,52.387085,17.213953,-4.855493,-8.4588175,17.336796,-4.949219,87.87626,43.580196,-28.740875,-9.868036,-10.510139
121,1.6802423000335693,79.11751556396484,76.89741516113281,-2.705451437831607,-3.0979810620386954,90.72822688444901,-23.226799,10.191586,14.366591,29.491959,-6.2925386,-0.3060048,11.081065,6.6204367,-0.62471807,7.224723,-16.9841,-3.123092,-0.9804705,1.4018066,11.2878,13.990537,3.6517305,-93.28476,52.412876,17.112785,-4.84836,-8.441099,17.328827,-4.9389033,87.88941,43.585205,-28.67256,-9.826095,-10.346008
122,1.6656616926193237,79.74808502197266,76.76068878173828,-2.8031406518356015,-2.9889324118651075,90.74441119614416,-23.488861,9.901891,14.178552,26.677866,-5.394416,-0.45391423,11.537222,6.7421517,-0.5869423,7.2369113,-17.504581,-3.1151776,-1.0521346,1.4326906,11.256488,13.957478,3.6489768,-93.37196,52.432087,16.99385,-4.8383856,-8.43819,17.318995,-4.9325843,87.90094,43.581264,-28.618382,-9.7765875,-10.118396
123,1.635406494140625,80.39497375488281,76.62308502197266,-2.906528759794269,-2.8777267352739417,90.75023471438939,-23.678862,9.598919,13.905475,23.801233,-4.5197315,-0.6465694,11.994614,6.8673444,-0.54108137,7.2485585,-18.01695,-3.1086903,-1.1096182,1.4709678,11.22054,13.930704,3.6455262,-93.43469,52.446217,16.888615,-4.8331895,-8.437685,17.312363,-4.9286075,87.90116,43.574654,-28.590557,-9.725169,-9.89828
124,1.6111465692520142,81.02971649169922,76.47906494140625,-3.009159104058588,-2.7822994288344285,90.73518602966303,-23.752705,9.301416,13.569106,20.867088,-3.7268665,-0.87273,12.475001,6.985242,-0.48302454,7.2600756,-18.519444,-3.1130683,-1.148087,1.5161375,11.190901,13.911683,3.6434908,-93.45975,52.45159,16.84194,-4.842055,-8.4335,17.30834,-4.9277787,87.89764,43.568142,-28.600107,-9.678369,-9.75448
125,1.5739753246307373,81.68408966064453,76.33055114746094,-3.117205298606174,-2.707369779728998,90.6949837784064,-23.67735,8.997065,13.173044,17.798834,-3.0207543,-1.1713784,12.985949,7.1008806,-0.40682143,7.2697053,-19.02345,-3.135341,-1.143613,1.5815883,11.167333,13.898943,3.6384406,-93.47722,52.45353,16.86056,-4.8753514,-8.4203825,17.313885,-4.9278307,87.86695,43.56459,-28.668085,-9.63674,-9.723032
126,1.5291416645050049,82.34822845458984,76.17567443847656,-3.2470597927089053,-2.652438274185006,90.62217841571984,-23.458168,8.70964,12.710465,14.58858,-2.358064,-1.5363557,13.523255,7.236631,-0.30050611,7.278959,-19.525139,-3.1729505,-1.0949734,1.6814535,11.154488,13.892733,3.6276414,-93.470345,52.452488,16.931196,-4.9270115,-8.408243,17.326616,-4.9306607,87.80672,43.561752,-28.788795,-9.600339,-9.755649
127,1.486164927482605,83.01512908935547,76.0181655883789,-3.405540834337953,-2.624920117093295,90.50608860905864,-23.112873,8.491131,12.193959,11.343215,-1.7216319,-1.8942623,14.095628,7.3981004,-0.15457103,7.2834177,-19.99619,-3.2192504,-1.0044231,1.8132896,11.160253,13.895658,3.6198921,-93.44294,52.441803,17.021544,-4.9730835,-8.385982,17.343004,-4.934026,87.759315,43.559288,-28.912756,-9.561907,-9.81816
128,1.4330120086669922,83.68719482421875,75.85918426513672,-3.586331868907847,-2.625685081359849,90.34699480173819,-22.64081,8.360146,11.641074,8.109406,-1.0660138,-2.1748261,14.702338,7.577363,0.027571604,7.284909,-20.412683,-3.264682,-0.8622449,1.9761715,11.193348,13.898161,3.604618,-93.4089,52.43336,17.105806,-4.9935603,-8.351917,17.358984,-4.9424105,87.706245,43.548676,-29.014761,-9.525761,-9.857089
129,1.3770753145217896,84.3604507446289,75.70003509521484,-3.77596389119385,-2.6506468826334375,90.1538759915611,-22.912403,8.457042,10.831545,6.671766,-1.3638701,-2.3172736,15.33877,7.759063,0.23034044,7.2853484,-20.777287,-3.3031929,-0.6784391,2.1440337,11.245449,13.908473,3.5955348,-93.378075,52.419773,17.160383,-4.9672084,-8.273048,17.37774,-4.9478865,87.673134,43.524647,-29.066692,-9.490331,-9.872163
130,1.3186458349227905,85.04588317871094,75.54232788085938,-3.9641929787301526,-2.691192172203695,89.93950340017958,-23.714548,8.666324,9.823289,6.5340853,-2.3754358,-2.377649,15.996485,7.9325514,0.4426513,7.2852187,-21.102564,-3.3369527,-0.46567684,2.316085,11.31495,13.918781,3.5728002,-93.32521,52.41452,17.220078,-4.9141583,-8.173807,17.393238,-4.962799,87.62245,43.484028,-29.108038,-9.464819,-9.869799
131,1.2573491334915161,85.73631286621094,75.39069366455078,-4.13728832607437,-2.7208586727593658,89.73368760587013,-24.458109,8.8292265,8.894287,6.519098,-3.380718,-2.4610975,16.654425,8.071326,0.63963056,7.2864823,-21.389357,-3.3577926,-0.25875923,2.472537,11.369796,13.926365,3.5487242,-93.2719,52.42089,17.282766,-4.865906,-8.088032,17.407887,-4.9788036,87.593025,43.44003,-29.137735,-9.429425,-9.872338
132,1.178574562072754,86.45475769042969,75.24881744384766,-4.290283965747427,-2.7432908970528165,89.53339697177444,-25.031696,8.959962,8.264816,6.5415754,-4.230364,-2.686808,17.306704,8.170993,0.83229846,7.2871265,-21.617537,-3.3731303,-0.055965967,2.618882,11.413169,13.924112,3.526016,-93.22109,52.4344,17.369087,-4.8543367,-8.065557,17.42151,-4.993926,87.58365,43.413933,-29.178535,-9.375852,-9.885766
133,1.1093873977661133,87.14958190917969,75.10835266113281,-4.456979421222246,-2.772850911921364,89.31130213576678,-25.381287,9.154147,8.068373,6.5572257,-4.944763,-3.225545,17.965359,8.270295,1.0408306,7.2861056,-21.791592,-3.3997033,0.16897708,2.7950215,11.45659,13.911599,3.5022597,-93.16958,52.459454,17.47576,-4.90251,-8.142409,17.436838,-5.0099063,87.604866,43.407433,-29.235285,-9.29038,-9.914786
134,1.0068596601486206,87.8714599609375,74.98091125488281,-4.633059165909896,-2.805376772835605,89.07573398613485,-25.548956,9.399424,8.165947,6.567578,-5.5448923,-3.9741051,18.627789,8.366861,1.2554715,7.282927,-21.913664,-3.4306903,0.40052673,2.98926,11.4976635,13.89459,3.4676507,-93.103516,52.503887,17.600672,-4.9897647,-8.286165,17.451223,-5.033348,87.66116,43.406086,-29.295916,-9.181151,-9.954309
135,0.9058266878128052,88.58245849609375,74.8720932006836,-4.773061449217396,-2.81100255703574,88.87868334353463,-25.581966,9.575658,8.351865,6.5716796,-5.8982496,-4.6263185,19.2647,8.409583,1.4409633,7.2785845,-21.966206,-3.4381921,0.61257887,3.154383,11.510071,13.867141,3.4498777,-93.06381,52.538113,17.7487,-5.079505,-8.438992,17.467508,-5.0450335,87.70137,43.421257,-29.365591,-9.074122,-9.99463
136,0.808870792388916,89.29045104980469,74.7858657836914,-4.821321200781051,-2.7613495551060603,88.77243879278357,-25.52559,9.550687,8.419838,6.5679264,-5.8882976,-4.8687954,19.844633,8.339627,1.5576369,7.2765903,-21.931238,-3.393915,0.7288857,3.2149286,11.475432,13.833541,3.4292333,-93.021614,52.579887,17.944027,-5.141037,-8.547473,17.47491,-5.057225,87.73819,43.437103,-29.435173,-8.989906,-10.029149
137,0.7080106735229492,90.0024642944336,74.7183837890625,-4.744586248660296,-2.664972358721217,88.80884948836153,-25.324238,9.260616,8.356754,6.5561686,-5.4142985,-4.52482,20.336302,8.134578,1.5536712,7.3687005,-21.869503,-3.2887619,0.7171941,3.137119,11.410685,13.788507,3.4167526,-93.01375,52.621918,18.214727,-5.154696,-8.590294,17.477104,-5.063064,87.75319,43.461884,-29.513006,-8.941299,-10.049329
138,0.6017280220985413,90.72447967529297,74.67669677734375,-4.555685651950336,-2.53163576326124,88.93640183129253,-24.975765,8.764309,8.278443,6.534537,-4.558606,-3.797901,20.783472,7.8049626,1.4686575,7.4761386,-21.7405,-3.1332989,0.62175643,2.938767,11.318936,13.734888,3.4044833,-93.02455,52.67392,18.54552,-5.1427293,-8.599137,17.47512,-5.066354,87.76141,43.490917,-29.597456,-8.913527,-10.060846
139,0.49535465240478516,91.42999267578125,74.66634368896484,-4.278292611129921,-2.35633944995888,89.08485036259763,-24.60142,8.1114855,8.137628,6.5068965,-3.4787838,-2.9491339,21.17306,7.3667326,1.3555044,7.6009765,-21.51724,-2.9396315,0.51079047,2.654471,11.179394,13.675383,3.3892632,-93.035034,52.730896,18.870531,-5.1288066,-8.593391,17.469612,-5.0665045,87.74767,43.52002,-29.680622,-8.8919525,-10.076779
140,0.3855828046798706,92.15119171142578,74.67488098144531,-3.939953297718087,-2.122801473668955,89.19120360250143,-24.343466,7.373765,7.874359,6.5103035,-2.3667023,-2.2187302,20.843851,6.8505297,1.1841241,9.102256,-21.892763,-2.7133904,0.43630028,2.3234367,10.963602,13.612532,3.3748033,-93.01247,52.77564,19.12815,-5.13613,-8.594323,17.457869,-5.0627055,87.704895,43.541733,-29.751606,-8.861387,-10.10907
141,0.24496731162071228,92.91493225097656,74.68473815917969,-3.5308916591260107,-1.79626394424933,89.22255805475825,-24.234127,6.5488634,7.446,6.504418,-1.1896954,-1.615161,20.186152,6.2223806,1.0544633,11.074381,-22.391422,-2.4348807,0.4271497,1.9384277,10.642023,13.540892,3.3568702,-92.920746,52.815212,19.285845,-5.192152,-8.64116,17.432007,-5.0540032,87.614876,43.559128,-29.816591,-8.820697,-10.156881
142,0.10500916093587875,93.68682098388672,74.72230529785156,-3.0305501246970574,-1.391908458766403,89.2109142248809,-24.19457,5.6097994,6.9138665,6.4755974,0.13397196,-1.0309947,19.376524,5.4673758,0.9680747,13.183286,-22.84515,-2.1046417,0.44434154,1.4719217,10.235169,13.465223,3.3276687,-92.76843,52.854713,19.386225,-5.274744,-8.712769,17.393261,-5.03464,87.50163,43.582306,-29.873825,-8.774099,-10.217299
143,-0.033913228660821915,94.44745635986328,74.78271484375,-2.488161648547697,-0.9682312626194364,89.18206632362804,-24.160942,4.6328526,6.3640203,6.430804,1.5029029,-0.517038,18.516842,4.6563177,0.9090465,15.3575325,-23.195925,-1.7730008,0.4779171,0.96180254,9.790874,13.394399,3.3023207,-92.614235,52.89124,19.4862,-5.3493385,-8.743393,17.357859,-5.0141063,87.377365,43.597507,-29.923573,-8.72937,-10.286226
144,-0.19085393846035004,95.21607208251953,74.85791778564453,-1.9584552011182563,-0.5863744863684267,89.16551857686869,-24.069674,3.693822,5.868459,6.3820543,2.815101,-0.11819259,17.710958,3.864473,0.85203296,17.522612,-23.384893,-1.4930992,0.5050625,0.4519232,9.367291,13.329863,3.2750962,-92.48481,52.941696,19.66169,-5.3865957,-8.67936,17.331787,-4.9877653,87.24012,43.61259,-29.977818,-8.702128,-10.348879
145,-0.3444756269454956,96.01504516601562,74.91651153564453,-1.4347036513991078,-0.26777374076656063,89.16885511002742,-23.900862,2.7682831,5.3609104,6.325615,4.1027308,0.20371309,16.998514,3.090518,0.80377436,19.660492,-23.420214,-1.2788072,0.52403826,-0.06327982,8.975707,13.273003,3.2509477,-92.37768,53.01088,19.977684,-5.388897,-8.483232,17.318792,-4.959238,87.08316,43.616226,-30.058748,-8.688076,-10.4052725
146,-0.49771642684936523,96.84007263183594,74.97244262695312,-0.8995793239931408,0.021681348054388008,89.18319663173497,-23.682875,1.8299382,4.821858,6.2587214,5.3962407,0.4666126,16.329296,2.3037555,0.7690156,21.78703,-23.317354,-1.1046456,0.54449284,-0.5957984,8.589201,13.218433,3.2159488,-92.28294,53.106354,20.38211,-5.3695846,-8.194598,17.312567,-4.908015,86.89181,43.632347,-30.160997,-8.686619,-10.457513
147,-0.6366075277328491,97.64844512939453,75.03907775878906,-0.386713982621765,0.30408926069056885,89.21252540510194,-23.430105,0.9562959,4.3796134,6.1924095,6.588861,0.59536034,15.64582,1.5414128,0.7127547,23.931494,-23.035364,-0.9673574,0.55276334,-1.1093075,8.197092,13.166048,3.186272,-92.23287,53.19574,20.75675,-5.30762,-7.863545,17.312983,-4.8560715,86.69799,43.6504,-30.23273,-8.704395,-10.508726
148,-0.7959147691726685,98.4585189819336,75.12028503417969,0.06531414550372641,0.6005608509164282,89.2603582107586,-23.164919,0.22417048,4.157553,6.1419377,7.57658,0.5109517,14.895723,0.8421395,0.6008392,26.11569,-22.535332,-0.8634677,0.5530996,-1.559906,7.7922006,13.111712,3.15269,-92.275116,53.274494,20.983465,-5.1869297,-7.5420346,17.319876,-4.7893357,86.499054,43.698864,-30.2345,-8.755189,-10.55641
149,-0.9458909034729004,99.25684356689453,75.20746612548828,0.4199202381675562,0.9385513938485704,89.3279930703569,-22.911688,-0.29262832,4.2601695,6.0991826,8.361927,0.0095757665,14.044224,0.25618285,0.4320392,28.351137,-21.809486,-0.8523835,0.5417937,-1.9125739,7.345897,13.048175,3.1215606,-92.440155,53.33843,21.038826,-4.9688873,-7.1975455,17.334238,-4.7265973,86.297386,43.772614,-30.166567,-8.843116,-10.611809
150,-1.1008137464523315,100.07584381103516,75.29495239257812,0.7024797959070292,1.30035034799046,89.41801920697978,-22.660389,-0.6557087,4.5840774,6.0656,8.987291,-0.8031438,13.117115,-0.24685217,0.2132755,30.637604,-20.885902,-0.9200761,0.514563,-2.1911695,6.869716,12.979452,3.093916,-92.697235,53.391758,20.981974,-4.675456,-6.8180666,17.355356,-4.6734905,86.089676,43.852863,-30.04838,-8.961401,-10.670596
151,-1.226251244544983,100.88008880615234,75.38133239746094,0.9666117823004755,1.6376804806921386,89.53366404532277,-22.37486,-0.9917402,4.9484715,6.0464673,9.422527,-1.5484573,12.156549,-0.751633,-0.072085045,32.98206,-19.772621,-0.95135707,0.4679001,-2.446612,6.4173594,12.920281,3.0675838,-92.992065,53.42645,20.821396,-4.3809896,-6.4847655,17.38,-4.622996,85.8834,43.92792,-29.860239,-9.103592,-10.709835
152,-1.3813273906707764,101.70175170898438,75.48135375976562,1.2628132812111352,1.9001508068778474,89.67489028213507,-22.016476,-1.4225024,5.176692,6.0481615,9.627349,-1.8521386,11.211111,-1.3386616,-0.4287488,35.384426,-18.477367,-0.8290595,0.36820266,-2.7382832,6.0436597,12.889894,3.0533698,-93.223816,53.417023,20.579235,-4.159872,-6.283114,17.398684,-4.5928907,85.731094,43.960037,-29.571968,-9.258784,-10.709497
153,-1.5166263580322266,102.50074005126953,75.59986877441406,1.6157342148691172,2.0680599662070636,89.85377729651523,-21.571632,-2.003578,5.205142,6.0782704,9.535115,-1.5047048,10.310441,-2.0427585,-0.8832105,37.842545,-16.90983,-0.48874024,0.24137472,-3.0789614,5.7657256,12.887854,3.0445995,-93.44104,53.370583,20.209337,-4.0318885,-6.2516146,17.4237,-4.562556,85.57226,43.958405,-29.110332,-9.450029,-10.651689
154,-1.6782472133636475,103.29979705810547,75.72879791259766,1.9906681101239563,2.1666343140185207,90.06143105041564,-21.064322,-2.666099,5.130686,6.1326575,9.192951,-0.74272215,9.428751,-2.8052583,-1.4032382,40.35726,-15.096831,0.0019024624,0.056019716,-3.4463768,5.554704,12.912657,3.0454166,-93.61222,53.285477,19.73532,-3.9578934,-6.3449345,17.445822,-4.546213,85.459564,43.924202,-28.499138,-9.669418,-10.554208
155,-1.8137024641036987,104.0869369506836,75.85398864746094,2.353724882859818,2.213614459134803,90.26630323159348,-20.578218,-3.3322783,5.021413,6.3446236,8.650132,0.13725752,8.53457,-3.5652406,-1.9049205,42.9303,-13.218,0.5582846,-0.12319634,-3.7987888,5.40079,12.952669,3.0533571,-93.774376,53.168106,19.212847,-3.9162014,-6.4993844,17.465525,-4.5368524,85.37462,43.874546,-27.911854,-9.878556,-10.432733
156,-1.9571082592010498,104.88459014892578,75.98716735839844,2.6759164063320893,2.2287327826883128,90.43940150420546,-20.236872,-3.9119139,4.9600277,6.938598,7.892435,0.83758634,7.587034,-4.2709937,-2.3169284,45.57715,-11.458498,1.0856833,-0.25843692,-4.102858,5.2931886,12.999499,3.0710382,-93.929146,53.01752,18.706936,-3.886907,-6.654538,17.477814,-4.533191,85.333046,43.82104,-27.51482,-10.037449,-10.308645
157,-2.1115877628326416,105.68095397949219,76.11461639404297,2.946549089170426,2.2083107456045203,90.58292623959666,-19.702703,-4.41343,4.9418325,7.223132,7.2751484,1.2939053,6.562928,-4.900619,-2.5971909,48.37613,-9.853019,1.523504,-0.36175737,-4.352165,5.238453,13.056295,3.0969827,-94.057625,52.822132,18.2058,-3.8813307,-6.8173046,17.477047,-4.538462,85.37057,43.76455,-27.408062,-10.12086,-10.165529
158,-2.239978075027466,106.42627716064453,76.2363052368164,3.183477127191566,2.145776156905104,90.70977700391866,-19.038857,-4.8685794,4.932097,7.3493395,6.669448,1.6609024,5.4799967,-5.490256,-2.7960155,51.31128,-8.314985,1.9245769,-0.44846374,-4.5654263,5.239654,13.12559,3.1290197,-94.16236,52.587334,17.684958,-3.9039583,-7.0129676,17.467293,-4.552873,85.471664,43.698498,-27.484087,-10.155707,-10.001078
159,-2.371736526489258,107.1722640991211,76.34960174560547,3.3984010608120583,2.0578524486989824,90.81022408771814,-18.297815,-5.283634,4.9316535,7.3758116,6.080543,1.9690424,4.3538585,-6.0855,-2.9893937,54.26742,-6.8496685,2.3495793,-0.5241401,-4.759164,5.2778172,13.201955,3.1993039,-94.22923,52.30415,17.205362,-3.9258559,-7.213177,17.449818,-4.594893,85.61889,43.603943,-27.585598,-10.1761055,-9.861307
160,-2.4884684085845947,107.89398193359375,76.45612335205078,3.602924773767902,1.9608293448211598,90.87444483935668,-17.52662,-5.6671414,4.9420576,7.3480835,5.5226817,2.2501047,3.2012625,-6.739548,-3.2491317,57.132645,-5.461713,2.8532827,-0.5866784,-4.9452453,5.338049,13.279852,3.2602444,-94.25109,52.049015,16.82748,-3.9258451,-7.3892355,17.420729,-4.6368065,85.77537,43.513374,-27.562574,-10.221607,-9.788465
161,-2.606327772140503,108.60527801513672,76.56243133544922,3.802274066681807,1.8685992125445796,90.8923379322878,-16.739775,-6.015307,4.9782877,7.261067,5.006083,2.5040078,1.9670696,-7.459266,-3.5414128,59.974125,-3.990254,3.5534008,-0.6361101,-5.13282,5.410482,13.358071,3.3388095,-94.20577,51.788055,16.58962,-3.8913758,-7.536462,17.375263,-4.6942625,85.960945,43.402885,-27.343874,-10.297789,-9.817964
162,-2.7221953868865967,109.31578826904297,76.66329956054688,3.9894985877831775,1.7694588668332951,90.87241040377596,-15.908556,-6.328919,5.0360994,7.088112,4.525609,2.7195506,0.6573662,-8.231212,-3.8402567,62.839546,-2.4907184,4.3603554,-0.6683934,-5.3117037,5.506776,13.438737,3.423208,-94.111176,51.5242,16.45019,-3.8387198,-7.6685886,17.31497,-4.7585216,86.175446,43.284622,-27.023064,-10.38775,-9.917904
163,-2.827396869659424,110.0076904296875,76.75489807128906,4.16360112824883,1.6408755100170562,90.83419692341705,-15.024172,-6.6268296,5.088835,6.858366,4.066378,2.9106898,-0.623712,-9.101107,-4.2373285,65.600815,-1.2956212,5.0171475,-0.6988071,-5.4775133,5.6382256,13.525401,3.5075781,-93.993614,51.2824,16.357313,-3.782609,-7.7851934,17.251766,-4.824752,86.39311,43.172344,-26.683992,-10.487832,-10.034592
164,-2.925503730773926,110.7018814086914,76.84117126464844,4.319544274580583,1.46065932612761,90.79188335446345,-14.05892,-6.9222116,5.109837,6.575338,3.6207561,3.0866296,-1.7514758,-10.121307,-4.832439,68.093864,-0.72875684,5.274429,-0.73632693,-5.62472,5.8158517,13.621568,3.5885615,-93.88017,51.084362,16.259071,-3.7372177,-7.886007,17.197844,-4.89017,86.587036,43.076965,-26.410498,-10.593406,-10.114359
165,-3.0344274044036865,111.39971160888672,76.92139434814453,4.466611088544822,1.213112301154564,90.74060060733916,-13.081655,-7.20751,5.1038747,6.4306617,3.0791445,3.2325077,-2.6477902,-11.399337,-5.740297,70.27568,-1.0154847,5.0555596,-0.77641326,-5.7591443,6.052515,13.736224,3.6635172,-93.76643,50.93511,16.139198,-3.7090306,-7.982345,17.15346,-4.952775,86.76209,43.00271,-26.215122,-10.70957,-10.147794
166,-3.1274478435516357,112.08366394042969,77.00096130371094,4.602034594065424,0.9125296993849109,90.67593603163525,-12.112393,-7.466075,5.081895,6.4339294,2.439318,3.339196,-3.3656762,-12.885238,-6.879871,72.22315,-1.9484328,4.5163913,-0.81640124,-5.8804045,6.33973,13.865591,3.730912,-93.64235,50.82777,16.026356,-3.6898813,-8.07059,17.112728,-5.0110097,86.92812,42.946445,-26.056423,-10.836434,-10.162094
167,-3.2169647216796875,112.76488494873047,77.07659912109375,4.711433000058781,0.5816703942939643,90.6139767826506,-11.10889,-7.6912,5.0313067,6.438249,1.7910864,3.4237473,-3.9903572,-14.383071,-8.062376,73.95672,-3.207195,3.7702005,-0.86859787,-5.9769826,6.6563053,13.992612,3.7890732,-93.52911,50.766743,15.934012,-3.6720285,-8.127184,17.080355,-5.062585,87.064,42.91105,-25.938196,-10.962046,-10.158752
168,-3.3118274211883545,113.44574737548828,77.15325164794922,4.7826637562408205,0.24377920575587503,90.56982667378091,-10.097413,-7.8750873,4.951574,6.435294,1.1503665,3.508375,-4.6261086,-15.6989155,-9.104137,75.49424,-4.458396,2.9183679,-0.93080413,-6.0347114,6.9819827,14.098578,3.8140974,-93.466064,50.780827,15.870691,-3.6486876,-8.126754,17.06284,-5.0839624,87.131165,42.918545,-25.868473,-11.076532,-10.137978
169,-3.3994619846343994,114.11991119384766,77.22749328613281,4.80579955639243,-0.10906823333941973,90.54501843187954,-9.07407,-8.01395,4.8390355,6.4356184,0.510428,3.5974557,-5.300325,-16.796606,-9.996496,76.8522,-5.7295203,1.8541156,-1.0347115,-6.052635,7.3215885,14.184939,3.8358653,-93.420006,50.84661,15.846304,-3.6172888,-8.061338,17.053804,-5.100564,87.15649,42.94669,-25.840733,-11.171403,-10.083987
170,-3.477407932281494,114.7783432006836,77.2933349609375,4.784128008542583,-0.4837154622431699,90.53037502286844,-8.028549,-8.105787,4.6973214,6.435406,-0.13199037,3.6796913,-5.9694877,-17.739376,-10.819936,78.01722,-7.1642933,0.5965435,-1.1569484,-6.030018,7.6817484,14.258915,3.8421032,-93.40547,50.9738,15.845941,-3.581304,-7.9408183,17.056149,-5.1037264,87.13607,43.003185,-25.854656,-11.253944,-10.003194
171,-3.5604028701782227,115.449951171875,77.35350799560547,4.739556493539759,-0.8564607127068427,90.52406237179483,-7.000773,-8.167883,4.54793,6.4576488,-0.7783558,3.760406,-6.6486907,-18.508425,-11.537492,78.959045,-8.5807,-0.59711903,-1.3022339,-5.994173,8.038863,14.322819,3.8446863,-93.40033,51.129555,15.8822,-3.5415761,-7.7841687,17.0717,-5.10355,87.10136,43.075138,-25.902775,-11.328746,-9.936264
172,-3.6338553428649902,116.11898040771484,77.41368103027344,4.6866176098144114,-1.2038910481853962,90.525631578536,-6.0144396,-8.211107,4.405082,6.4921803,-1.4113084,3.8447876,-7.3490243,-19.096317,-12.129728,79.64925,-9.790761,-1.4858841,-1.4263753,-5.9452662,8.382691,14.362733,3.8466642,-93.42913,51.292706,15.965904,-3.5013692,-7.614221,17.10663,-5.095374,86.99085,43.161907,-26.007402,-11.412507,-9.902953
173,-3.7082347869873047,116.7759780883789,77.46745300292969,4.622725601973284,-1.5203233177518263,90.5405971179242,-5.0720305,-8.235669,4.2703547,6.5261493,-2.0158424,3.943929,-8.0770445,-19.513166,-12.6238,80.07541,-10.709513,-2.0102696,-1.5560591,-5.8895516,8.695399,14.3849,3.8408623,-93.51259,51.48079,16.09386,-3.4455948,-7.387784,17.169155,-5.0706806,86.86204,43.282158,-26.16955,-11.501289,-9.952837
174,-3.774702548980713,117.42595672607422,77.51558685302734,4.540894576778396,-1.8184893809000797,90.56764499110213,-4.157923,-8.239837,4.13754,6.5596733,-2.599649,4.0542655,-8.831713,-19.765387,-13.035646,80.25236,-11.4347,-2.3066866,-1.7131385,-5.8282776,8.990719,14.392944,3.8284762,-93.60838,51.695305,16.273912,-3.3788357,-7.1148605,17.247677,-5.0416174,86.72679,43.426765,-26.381023,-11.590187,-10.056479
175,-3.827650785446167,118.06782531738281,77.56031799316406,4.451460252565685,-2.0989637072374445,90.59509330794972,-3.2672942,-8.228499,4.008257,6.593555,-3.1764464,4.1578155,-9.616015,-19.847475,-13.333419,80.19277,-12.050541,-2.4352448,-1.8481468,-5.7550144,9.272022,14.39456,3.7990057,-93.72386,51.92429,16.471512,-3.3231137,-6.8589616,17.342535,-4.984116,86.5503,43.59387,-26.60256,-11.6714945,-10.167756
176,-3.87296462059021,118.71614074707031,77.59928894042969,4.360361574778581,-2.3620489772399162,90.61166097505095,-2.3957498,-8.206039,3.8839357,6.6273417,-3.7584991,4.2352605,-10.431885,-19.75515,-13.482552,79.91008,-12.643937,-2.45485,-1.9726868,-5.683407,9.536359,14.4083,3.76419,-93.78384,52.12595,16.674652,-3.3009229,-6.6901827,17.441526,-4.922087,86.38091,43.743126,-26.774466,-11.729707,-10.249148
177,-3.9302773475646973,119.35955047607422,77.62750244140625,4.266409446745914,-2.611517634253934,90.60990870412724,-1.5358881,-8.170201,3.7664127,6.6610856,-4.351172,4.2793665,-11.2914095,-19.430765,-13.420912,79.39215,-13.25738,-2.3580728,-2.0726106,-5.6079965,9.78447,14.43549,3.7308936,-93.78429,52.291706,16.896235,-3.3336632,-6.646035,17.551626,-4.867463,86.2056,43.85468,-26.860811,-11.757094,-10.2900095
178,-3.9828040599823,120.00472259521484,77.6554183959961,4.1683310972219605,-2.8465976475367154,90.59818513071626,-0.69236344,-8.120518,3.654685,6.695682,-4.947193,4.300468,-12.184341,-18.903164,-13.189492,78.634995,-13.838861,-2.1313028,-2.156133,-5.5270524,10.0170765,14.4683275,3.698811,-93.74939,52.43438,17.140123,-3.4046428,-6.6834974,17.674664,-4.8191237,86.017555,43.940258,-26.8978,-11.761899,-10.311121
179,-4.019970417022705,120.64433288574219,77.67762756347656,4.06845144088799,-3.0599524820025295,90.58896017471552,0.12353613,-8.06113,3.5446484,6.728973,-5.539375,4.3056126,-13.081552,-18.294905,-12.904319,77.666374,-14.335646,-1.8207262,-2.2358084,-5.4474125,10.233826,14.506015,3.672675,-93.69007,52.544052,17.369328,-3.4782164,-6.7475824,17.799116,-4.7822423,85.83188,44.00002,-26.942553,-11.755743,-10.316786
180,-4.051925182342529,121.27947998046875,77.6950912475586,3.9699051312363154,-3.2438216404717655,90.59423476592897,0.89808434,-7.996745,3.4329596,6.760612,-6.120478,4.3040333,-13.957233,-17.72228,-12.680098,76.51176,-14.692851,-1.4658976,-2.3163114,-5.3728065,10.435052,14.546214,3.6470616,-93.625854,52.622776,17.545753,-3.5191073,-6.7834787,17.913567,-4.747133,85.650665,44.051483,-27.056204,-11.752199,-10.3098545
181,-4.08908748626709,121.9074935913086,77.70136260986328,3.86892328367589,-3.394906401987904,90.61930678528293,1.6263416,-7.9233265,3.3165028,6.7902937,-6.6901755,4.291043,-14.818291,-17.167875,-12.510961,75.15715,-14.865869,-1.0178082,-2.3993707,-5.300257,10.619883,14.589773,3.6174119,-93.55104,52.66747,17.664288,-3.5151398,-6.7773647,18.019205,-4.7047596,85.4699,44.103016,-27.277802,-11.747499,-10.287475
182,-4.108555793762207,122.53402709960938,77.70439910888672,3.7632254483913665,-3.517143119488514,90.6577493151329,2.3154058,-7.842229,3.1982634,6.8191166,-7.251692,4.267454,-15.669572,-16.58702,-12.347667,73.59257,-14.8967905,-0.47548375,-2.4938307,-5.232883,10.78433,14.64198,3.6053724,-93.449615,52.65801,17.743559,-3.483488,-6.756282,18.122253,-4.686183,85.31215,44.119617,-27.55935,-11.732043,-10.253984
183,-4.120447158813477,123.15470123291016,77.69844818115234,3.662995001031224,-3.6142999063226746,90.70290339553078,2.9726913,-7.7654243,3.0837781,6.846464,-7.8044095,4.2503843,-16.48668,-16.045752,-12.238847,71.846794,-14.854831,0.057810333,-2.5773344,-5.1668434,10.938145,14.690119,3.5891047,-93.35127,52.635216,17.785303,-3.442178,-6.736948,18.21223,-4.657791,85.14018,44.142223,-27.860743,-11.7300205,-10.20465
184,-4.136105060577393,123.7660140991211,77.68305206298828,3.5772995276260713,-3.6885934153961872,90.7484069028149,3.6029305,-7.7032356,2.9772887,6.8738494,-8.348844,4.2551613,-17.25053,-15.609037,-12.234852,69.952034,-14.808302,0.47869366,-2.6671333,-5.1161966,11.07217,14.742654,3.5815299,-93.26817,52.598885,17.777546,-3.3984323,-6.720242,18.285614,-4.6438985,85.0112,44.14948,-28.104225,-11.742603,-10.160832
185,-4.158317565917969,124.38436889648438,77.65962219238281,3.5063159465549245,-3.7373713286726513,90.7948395316988,4.2022386,-7.65417,2.8807693,6.899341,-8.883094,4.2891116,-17.963528,-15.293887,-12.360012,67.90102,-14.781633,0.7610123,-2.7559845,-5.076289,11.190861,14.793285,3.5754273,-93.20582,52.556015,17.711227,-3.3520343,-6.7057185,18.335503,-4.6336064,84.90067,44.155968,-28.307909,-11.786108,-10.122753
186,-4.180850505828857,125.0014877319336,77.63599395751953,3.4450491593179584,-3.7598297628722035,90.8444772431716,4.7685804,-7.612943,2.7908947,6.9244146,-9.408698,4.342129,-18.632767,-15.057027,-12.586594,65.67915,-14.73521,0.9666302,-2.8441398,-5.0442886,11.292865,14.844266,3.570847,-93.15679,52.50041,17.591003,-3.2984285,-6.6896405,18.36754,-4.6277213,84.80787,44.158173,-28.493605,-11.850862,-10.086363
187,-4.1873040199279785,125.61575317382812,77.60418701171875,3.395817326072264,-3.7622545255886095,90.893404383718,5.3119636,-7.5836277,2.7038796,6.949372,-9.926233,4.4026685,-19.247728,-14.871032,-12.886298,63.305832,-14.639026,1.1276512,-2.925795,-5.021345,11.379159,14.895395,3.5670195,-93.11987,52.440624,17.443632,-3.247468,-6.685713,18.388758,-4.625398,84.732925,44.152798,-28.627106,-11.92002,-10.037831
188,-4.185170650482178,126.22222900390625,77.56864166259766,3.361203904469035,-3.750877923695714,90.93749022235679,5.843994,-7.569966,2.615752,6.9725986,-10.435822,4.459032,-19.79782,-14.711031,-13.2290535,60.798927,-14.463391,1.2734514,-2.9972146,-5.010116,11.449273,14.948592,3.5647857,-93.09439,52.38473,17.294392,-3.2091923,-6.7060523,18.406343,-4.6260357,84.6844,44.140896,-28.671022,-11.97636,-9.967051
189,-4.196192741394043,126.84413146972656,77.52513122558594,3.3426070398281515,-3.7270272048710376,90.97764384453214,6.3672285,-7.574459,2.5200372,6.993984,-10.931157,4.5159087,-20.268837,-14.590577,-13.632979,58.129826,-14.210681,1.4079611,-3.050031,-5.0074706,11.508337,14.999352,3.5616398,-93.08022,52.336796,17.151073,-3.1913133,-6.7701707,18.41804,-4.6296854,84.64371,44.118893,-28.5914,-12.021933,-9.848037
190,-4.193715572357178,127.46098327636719,77.4751205444336,3.3386019635075774,-3.6868195702395283,91.01531312161109,6.8747663,-7.59329,2.4202335,7.0153255,-11.414944,4.5762267,-20.668905,-14.509189,-14.107982,55.29478,-13.893901,1.5216484,-3.092403,-5.0145745,11.551101,15.051906,3.5581126,-93.0814,52.291683,16.994503,-3.1851354,-6.8619013,18.422709,-4.6358013,84.62784,44.08947,-28.409266,-12.059772,-9.699637
191,-4.199090480804443,128.08169555664062,77.41878509521484,3.3483626311439854,-3.6303031851380068,91.04725842941802,7.366256,-7.6222873,2.327928,7.0344424,-11.898546,4.625869,-21.024124,-14.428267,-14.60727,52.355965,-13.4974165,1.6190239,-3.1258,-5.0309534,11.578218,15.103306,3.555099,-93.0877,52.24861,16.834656,-3.1838784,-6.9610376,18.422657,-4.64197,84.625565,44.059437,-28.20355,-12.092167,-9.550039
192,-4.193186283111572,128.68833923339844,77.34981536865234,3.3686927948324086,-3.55708596949806,91.07065602689796,7.838737,-7.6574783,2.2549505,7.0525036,-12.394151,4.6511335,-21.358824,-14.313152,-15.082698,49.368477,-13.006344,1.7008334,-3.1513503,-5.0551753,11.589124,15.151531,3.548502,-93.09643,52.211205,16.675694,-3.1800709,-7.043395,18.422192,-4.65762,84.6292,44.02013,-28.050299,-12.118823,-9.429341
193,-4.183187007904053,129.3035888671875,77.27281188964844,3.404046340193946,-3.4705225879091373,91.08318586289037,8.2953825,-7.700821,2.2068205,7.068645,-12.909219,4.643985,-21.670744,-14.171449,-15.534626,46.319843,-12.398479,1.7354475,-3.1694024,-5.088622,11.587572,15.195548,3.5443213,-93.10248,52.17186,16.523037,-3.1720874,-7.1035256,18.4184,-4.667911,84.64186,43.99348,-27.965559,-12.140547,-9.34971
194,-4.178298473358154,129.93002319335938,77.1861572265625,3.452148709623818,-3.3691817351858124,91.08766320780236,8.735318,-7.753279,2.176519,7.0846744,-13.436441,4.612737,-21.949068,-14.017353,-15.983791,43.1842,-11.687596,1.731145,-3.1829245,-5.1330214,11.570849,15.238664,3.53584,-93.10906,52.13949,16.370506,-3.1637146,-7.1512127,18.411716,-4.6895843,84.67408,43.956764,-27.90665,-12.154279,-9.295423
195,-4.164039134979248,130.55096435546875,77.090576171875,3.5111808577686467,-3.246584965301761,91.08881735918911,9.153336,-7.8129764,2.1566331,7.098906,-13.962499,4.569385,-22.207357,-13.834158,-16.408165,39.99947,-10.911081,1.7446465,-3.190141,-5.182903,11.534414,15.277138,3.5306966,-93.11452,52.103577,16.219921,-3.156755,-7.1995015,18.403198,-4.7029963,84.699394,43.928074,-27.876339,-12.169184,-9.248045
196,-4.152990341186523,131.17575073242188,76.98307037353516,3.5817045306360855,-3.096708299640867,91.0920226689087,9.544248,-7.8791018,2.1388168,7.111805,-14.476268,4.527027,-22.455173,-13.607593,-16.78489,36.795746,-10.102543,1.8310447,-3.1979876,-5.239267,11.470317,15.313297,3.5277243,-93.11433,52.066135,16.069996,-3.1523514,-7.256021,18.396696,-4.7112584,84.71318,43.89663,-27.867924,-12.186889,-9.193621
197,-4.140578746795654,131.80010986328125,76.87374877929688,3.668960214297541,-2.907958121889582,91.09375028355434,9.893953,-7.9614787,2.1275175,7.123527,-14.977631,4.4873924,-22.705332,-13.348017,-17.12248,33.548065,-9.202616,1.9985048,-3.215056,-5.3104715,11.367518,15.348807,3.5175185,-93.08955,52.03467,15.916347,-3.15905,-7.3292265,18.3922,-4.745848,84.73036,43.831,-27.886599,-12.206844,-9.137494
198,-4.1181488037109375,132.43421936035156,76.75955963134766,3.7733334206516567,-2.6889618429568714,91.09585986807014,10.211079,-8.061835,2.122208,7.1336455,-15.471484,4.446364,-22.935888,-13.065953,-17.42645,30.223783,-8.203019,2.2156065,-3.228106,-5.393344,11.2362385,15.379823,3.5095003,-93.05829,52.001804,15.76045,-3.1734571,-7.413555,18.38947,-4.78171,84.73169,43.758835,-27.9386,-12.230264,-9.081524
199,-4.088303089141846,133.0637969970703,76.6411361694336,3.8887316689887954,-2.4652716352781168,91.1124804275424,10.525781,-8.170629,2.106308,7.1432195,-15.955289,4.409374,-23.10203,-12.752706,-17.666822,26.83664,-7.2097826,2.4761128,-3.2533083,-5.4824343,11.097488,15.40842,3.5041664,-93.03159,51.964825,15.612729,-3.1789012,-7.493965,18.388191,-4.8196816,84.721855,43.67835,-28.002169,-12.255428,-9.013629
200,-4.063268184661865,133.7006378173828,76.519775390625,4.00577358053584,-2.2638068442264587,91.15926370518861,10.870819,-8.280672,2.061286,7.1513076,-16.425217,4.3821654,-23.156464,-12.40476,-17.814634,23.399458,-6.3266373,2.7719982,-3.3033376,-5.5741124,10.973747,15.435945,3.5032268,-93.0241,51.921402,15.484417,-3.1590345,-7.556084,18.38724,-4.8385653,84.69825,43.613415,-28.05865,-12.282214,-8.92179
201,-4.037914752960205,134.34957885742188,76.38933563232422,4.137783560639512,-2.0897846186213416,91.2468873979161,11.250984,-8.407238,1.9734865,7.159818,-16.891565,4.3729677,-23.06175,-12.03113,-17.914085,19.833172,-5.592591,3.1166763,-3.3892612,-5.6785283,10.868409,15.466792,3.5050082,-93.037834,51.867367,15.406444,-3.1002645,-7.604706,18.390623,-4.8615823,84.653915,43.535103,-28.126184,-12.310002,-8.7907295
202,-4.005172252655029,135.00897216796875,76.25348663330078,4.300365784990671,-1.9414648231254334,91.3812333126654,11.664488,-8.571263,1.8367398,7.1646914,-17.349789,4.3820944,-22.820768,-11.66917,-17.966387,16.120247,-4.9278755,3.502634,-3.5262113,-5.818318,10.77681,15.503836,3.507909,-93.056465,51.807655,15.365722,-3.0141084,-7.643621,18.396305,-4.872603,84.60831,43.461163,-28.20293,-12.337766,-8.635337
203,-3.9652063846588135,135.66253662109375,76.11543273925781,4.498335397741957,-1.8347542193724562,91.56973654527992,12.127801,-8.772556,1.644429,7.1659436,-17.778584,4.402921,-22.434,-11.350766,-17.88492,12.345528,-4.2593513,3.8939679,-3.7013302,-5.992123,10.716533,15.532846,3.5161967,-93.10278,51.75074,15.300821,-2.9230742,-7.6578712,18.40685,-4.8872824,84.53785,43.376736,-28.258026,-12.367816,-8.468773
204,-3.920409917831421,136.3328399658203,75.97239685058594,4.724034503955641,-1.7771156555910914,91.80719644403398,12.649121,-8.994204,1.4036914,7.1635704,-18.157915,4.424996,-21.899324,-11.07727,-17.58579,8.569649,-3.4888058,4.2576227,-3.9099715,-6.1927967,10.694607,15.544393,3.5316548,-93.17577,51.705296,15.152232,-2.8479228,-7.632672,18.420574,-4.901795,84.4582,43.287632,-28.249773,-12.395963,-8.31392
205,-3.873993158340454,137.0166473388672,75.82902526855469,4.953595308719867,-1.7600834343022251,92.08267938398089,13.221643,-9.210805,1.1350944,7.159949,-18.494534,4.4420676,-22.223503,-11.103297,-16.76404,6.873152,-3.7390318,4.530998,-4.16565,-6.4052753,10.702628,15.538586,3.5456865,-93.24711,51.681393,14.876363,-2.7953026,-7.546644,18.4279,-4.908496,84.387596,43.206528,-28.127243,-12.42773,-8.168091
206,-3.8252995014190674,137.6969757080078,75.68904876708984,5.176239192673853,-1.7685882608463286,92.38114232829292,13.829719,-9.40881,0.8501662,7.1552553,-18.797342,4.455837,-23.165766,-11.292455,-15.545455,6.689114,-4.757414,4.7375617,-4.4432297,-6.6102843,10.729275,15.517268,3.5592122,-93.329575,51.671543,14.51234,-2.7542067,-7.4140573,18.433022,-4.9108825,84.31001,43.127808,-27.926468,-12.462291,-8.021824
207,-3.7628517150878906,138.3836669921875,75.56185150146484,5.374986559069803,-1.7832465742373815,92.67256042175156,14.451889,-9.566469,0.56590986,7.1525726,-19.057503,4.458998,-23.9916,-11.410287,-14.267205,6.5753546,-5.695309,4.9941554,-4.6814427,-6.7773123,10.763742,15.477068,3.5818706,-93.45894,51.661316,14.1347065,-2.723462,-7.2747545,18.43854,-4.9104548,84.20895,43.060974,-27.725311,-12.4951315,-7.891274
208,-3.7089545726776123,139.0939178466797,75.44080352783203,5.533042319989683,-1.7986133279848435,92.93815742843286,15.0773535,-9.661219,0.28909606,7.1520834,-19.259115,4.445319,-24.633446,-11.456687,-13.145728,6.5869265,-6.489587,5.440036,-4.901547,-6.9000587,10.802148,15.430609,3.5973709,-93.56764,51.658134,13.848865,-2.7052739,-7.178673,18.428839,-4.9082828,84.16176,43.0254,-27.581213,-12.516756,-7.8012624
209,-3.6514992713928223,139.8056182861328,75.3214111328125,5.738431171001635,-1.8635054025400108,93.23645605831685,15.754426,-9.805095,-0.050387368,7.1471267,-19.39392,4.43599,-24.94697,-11.5718975,-12.253033,6.5865555,-7.1245103,6.392544,-5.1115503,-7.0625744,10.883065,15.370544,3.624429,-93.74505,51.6531,13.6645,-2.6954086,-7.1193924,18.425146,-4.9014935,84.13133,43.015663,-27.521578,-12.522762,-7.7817125
210,-3.589430093765259,140.51974487304688,75.19976806640625,5.972989826005518,-1.961529262337336,93.55265572936507,16.466467,-9.974412,-0.4273637,7.1407137,-19.470102,4.4246836,-25.005291,-11.720663,-11.4753895,6.579578,-7.6141543,7.701533,-5.346732,-7.2611394,10.989018,15.303437,3.6448781,-93.91333,51.661705,13.556815,-2.6976326,-7.086721,18.412735,-4.894125,84.15723,43.02939,-27.499882,-12.516839,-7.814793
211,-3.523549795150757,141.21405029296875,75.10160064697266,6.1547582190077375,-2.0303116642171766,93.82536100047048,17.147366,-10.0699,-0.76924616,7.134886,-19.47915,4.390261,-24.902712,-11.772685,-10.757053,6.5639777,-7.8055406,8.829489,-5.5363855,-7.4011207,11.067036,15.239515,3.6618447,-94.06315,51.67625,13.484076,-2.709079,-7.081427,18.39249,-4.8863406,84.197815,43.052498,-27.512743,-12.505534,-7.8408875
212,-3.4587268829345703,141.91407775878906,75.0372085571289,6.200532747583666,-2.0129697250550196,93.9965078065582,17.736061,-9.993638,-1.0020752,7.1325026,-19.413565,4.3119354,-24.729107,-11.587229,-10.031179,6.5458736,-7.5717893,9.237271,-5.6313457,-7.388773,11.069668,15.191766,3.6697242,-94.15068,51.69183,13.414082,-2.7265253,-7.1098313,18.360811,-4.882363,84.22952,43.075092,-27.554962,-12.494828,-7.801517
213,-3.3847336769104004,142.61782836914062,75.01421356201172,6.061935088613762,-1.8999147501115574,94.02111266890186,18.228485,-9.6951475,-1.0775777,7.139355,-19.305237,4.1677637,-24.431576,-11.073379,-9.271938,6.532691,-6.7426257,8.596544,-5.566775,-7.167977,10.993931,15.171908,3.68246,-94.22518,51.705284,13.316713,-2.7507195,-7.1696815,18.325773,-4.8756933,84.26291,43.099133,-27.643293,-12.475271,-7.668768
214,-3.3107492923736572,143.34617614746094,75.0234603881836,5.750288390193367,-1.7209662640531969,93.90564982009272,18.629276,-9.196559,-0.9920378,7.229894,-19.201939,3.9613528,-24.0306,-10.260423,-8.506324,6.597754,-5.4508553,7.2699575,-5.373028,-6.7596054,10.877206,15.163015,3.6920083,-94.23354,51.71798,13.240936,-2.7874522,-7.2773175,18.270088,-4.8715754,84.30562,43.136227,-27.78043,-12.455972,-7.4669304
215,-3.222430944442749,144.08676147460938,75.03993225097656,5.349066371180013,-1.4941435592526078,93.78010398951463,18.95658,-8.594564,-0.8711598,7.368657,-19.014896,3.7339408,-23.632324,-9.328017,-7.80084,6.6809344,-3.957653,5.7738247,-5.1662593,-6.256185,10.707832,15.158034,3.6943953,-94.20384,51.730698,13.176757,-2.8254373,-7.395311,18.20856,-4.8715672,84.32576,43.16356,-27.913677,-12.440616,-7.2582
216,-3.119795322418213,144.83322143554688,75.06810760498047,4.947676249562192,-1.217164332143781,93.74257413374596,19.001257,-7.988579,-0.7823472,7.950246,-18.887825,3.522103,-23.355442,-8.456368,-7.182396,6.7436767,-2.571372,4.586383,-5.0469866,-5.7581205,10.46307,15.147306,3.693812,-94.13202,51.731224,13.127794,-2.8550653,-7.494737,18.145683,-4.8733373,84.30205,43.16882,-27.98901,-12.435013,-7.102457
217,-3.0354743003845215,145.62939453125,75.08952331542969,4.529013052831063,-0.8426243985478191,93.81287496361533,18.122389,-7.3537064,-0.6672734,10.217363,-19.48053,3.2903755,-23.265406,-7.6340404,-6.6363645,6.7647195,-1.3418983,3.702609,-5.0270886,-5.24071,10.101135,15.130808,3.6901648,-94.000244,51.70901,13.095938,-2.865278,-7.5941367,18.080366,-4.876278,84.17917,43.13205,-27.9513,-12.454404,-6.9845657
218,-2.945190906524658,146.40380859375,75.14298248291016,4.046598177503842,-0.3741864921615654,93.94480451475464,17.088476,-6.6304255,-0.6025065,12.58459,-19.981653,3.0317283,-23.671251,-6.819098,-6.1304293,7.571489,-0.55176556,2.8946118,-5.053203,-4.6480117,9.637238,15.112045,3.6834586,-93.828125,51.67021,13.076332,-2.8634868,-7.699299,18.0141,-4.8797135,83.97333,43.068783,-27.84579,-12.491401,-6.882329
219,-2.827303409576416,147.14805603027344,75.23361206054688,3.543290450038478,0.12961566673971234,94.11096500680361,15.954105,-5.874186,-0.5767668,15.0675535,-20.367573,2.8121078,-24.025023,-6.017128,-5.7617555,8.199136,0.27310255,2.2777221,-5.09964,-4.0254703,9.128652,15.080224,3.6732037,-93.65913,51.63258,13.066994,-2.8701332,-7.7674103,17.950056,-4.883506,83.758415,43.011856,-27.773909,-12.5223465,-6.837502
220,-2.7168712615966797,147.91233825683594,75.32461547851562,3.0679909295075167,0.6063194429498072,94.2859658798209,14.795087,-5.1502438,-0.5772495,17.642103,-20.59426,2.6988907,-24.137093,-5.2866488,-5.553768,8.445503,1.2025399,1.9682224,-5.1461616,-3.4300513,8.631216,15.027228,3.6628022,-93.53791,51.61075,13.063584,-2.904509,-7.7529635,17.89012,-4.886939,83.620544,42.998257,-27.832706,-12.521605,-6.89715
221,-2.607309341430664,148.70211791992188,75.3939208984375,2.632749853776159,1.0498174786838226,94.48662185724032,13.623196,-4.4802356,-0.6368013,20.303883,-20.675234,2.7149365,-23.96167,-4.6500697,-5.503798,8.239344,2.3127975,2.0475352,-5.201257,-2.8742125,8.148903,14.935061,3.6456265,-93.46312,51.616474,13.050055,-2.9746058,-7.6180034,17.830881,-4.8928394,83.541824,43.048218,-28.06378,-12.506968,-7.0861435
222,-2.5027477741241455,149.51246643066406,75.45482635498047,2.2210687281850565,1.4915941849828938,94.71037438181379,12.41362,-3.8412995,-0.74169093,23.030172,-20.606195,2.822612,-23.546366,-4.0695744,-5.574075,7.588004,3.6039727,2.4273183,-5.265489,-2.3403463,7.648471,14.817703,3.631317,-93.425026,51.63242,13.023884,-3.0670965,-7.387161,17.774902,-4.897874,83.510994,43.139614,-28.398771,-12.476819,-7.3852997
223,-2.3923656940460205,150.30780029296875,75.53550720214844,1.8392179693716906,1.9193421729085667,94.90466445434038,11.182247,-3.2313013,-0.80407536,25.791695,-20.321108,2.9978647,-22.997484,-3.5323155,-5.714822,6.7387443,4.856317,2.9769523,-5.305286,-1.8356335,7.1604986,14.689004,3.6012402,-93.396805,51.67252,13.051016,-3.1825666,-7.148313,17.711344,-4.9087954,83.53958,43.23661,-28.817326,-12.403536,-7.727824
224,-2.273454189300537,151.0830535888672,75.6248550415039,1.4899337267761574,2.3202060436601952,95.01822552855458,9.940328,-2.6390698,-0.7367561,28.573547,-19.761156,3.2140255,-22.622026,-3.0480404,-5.8767786,6.3572545,5.622227,3.5715685,-5.293175,-1.3699937,6.707761,14.569365,3.5621486,-93.361595,51.72843,13.186783,-3.318608,-6.979532,17.633945,-4.924795,83.669044,43.30671,-29.284372,-12.253041,-8.059261
225,-2.1627652645111084,151.85659790039062,75.71170043945312,1.1939181614943672,2.7129938715980337,95.02999829516426,8.661209,-2.0879517,-0.49969897,31.392677,-18.880964,3.5032945,-22.388659,-2.6483958,-6.1134777,6.316596,5.9157305,4.339859,-5.224232,-0.9642038,6.272801,14.4526005,3.502526,-93.29676,51.819324,13.514867,-3.4889212,-6.895724,17.530994,-4.9539433,83.94507,43.341957,-29.872513,-11.990951,-8.397045
226,-2.054631233215332,152.63714599609375,75.79901123046875,0.9496311537942544,3.0951160092804506,94.96785799440917,7.3449564,-1.5751084,-0.13143249,34.261364,-17.721535,3.863778,-22.14504,-2.3191276,-6.4300528,6.291463,5.9650073,5.29858,-5.085766,-0.6116327,5.848782,14.324819,3.4557962,-93.249886,51.91145,13.973752,-3.6876054,-6.853964,17.416422,-4.981205,84.303635,43.36696,-30.577925,-11.644331,-8.753752
227,-1.9469503164291382,153.4229736328125,75.89768981933594,0.7181286783228594,3.4207697987983474,94.8554504020805,6.050246,-1.0414674,0.32650587,37.146305,-16.358189,4.2141943,-21.84588,-1.9832672,-6.7294474,6.2847204,5.8304596,6.1561894,-4.9580107,-0.29968017,5.4783516,14.223107,3.380636,-93.15061,52.025566,14.445523,-3.8926508,-6.8594246,17.294703,-5.033535,84.76662,43.355804,-31.22012,-11.263152,-9.079144
228,-1.8434146642684937,154.2146759033203,76.005126953125,0.46031948648378823,3.6440640296510933,94.71842915937941,4.835802,-0.42878762,0.8218649,40.016754,-14.866865,4.4831014,-21.43908,-1.5628246,-6.9123106,6.293645,5.579827,6.6215014,-4.811523,0.016286546,5.206513,14.158723,3.314469,-93.070076,52.107964,14.77717,-4.0758038,-6.9111843,17.192535,-5.090688,85.20437,43.313026,-31.658533,-10.914709,-9.310383
229,-1.7269253730773926,155.00645446777344,76.1125717163086,0.15002131877615377,3.7295582203574207,94.54808161371108,3.743945,0.3088785,1.3590462,42.884144,-13.201017,4.650434,-20.882782,-0.99925023,-6.923027,6.3231335,5.1844516,6.5080576,-4.6537466,0.35376006,5.062707,14.154033,3.2702508,-92.98431,52.14515,14.941758,-4.2363014,-7.018539,17.109755,-5.1431513,85.6491,43.240513,-31.81788,-10.59435,-9.430499
230,-1.604634165763855,155.79969787597656,76.2263412475586,-0.1869318691343417,3.7061259830773223,94.34088296396521,2.7368186,1.1331322,1.9450446,45.76263,-11.342722,4.759767,-20.212936,-0.3404718,-6.819665,6.374552,4.62908,6.004456,-4.4927263,0.6929269,5.0206604,14.193676,3.2408884,-92.87832,52.150543,15.013916,-4.386145,-7.179473,17.036522,-5.200605,86.137436,43.137135,-31.790117,-10.276962,-9.475141
231,-1.4817308187484741,156.57559204101562,76.33906555175781,-0.5170363705907796,3.6253872957128292,94.1293526967326,1.7449445,1.9766394,2.5271356,48.641365,-9.41944,4.839247,-19.48726,0.3304711,-6.671987,6.431693,4.0073752,5.3839073,-4.310381,1.0183259,5.038801,14.239478,3.2342746,-92.821594,52.11372,14.998678,-4.51635,-7.377816,16.980902,-5.2383733,86.56472,43.037178,-31.682436,-9.999746,-9.467088
232,-1.3632218837738037,157.36424255371094,76.45282745361328,-0.8041724441805769,3.541862450269579,93.94130801094654,0.6907347,2.7758667,3.0642788,51.519295,-7.5632772,4.9307766,-18.764189,0.92409724,-6.555322,6.4777393,3.405288,4.921391,-4.186947,1.2861086,5.07457,14.274258,3.239819,-92.75423,52.033894,14.9319315,-4.620335,-7.6046476,16.92737,-5.289475,86.96848,42.93217,-31.563877,-9.784591,-9.4439335
233,-1.2459722757339478,158.12498474121094,76.55428314208984,-1.0319282098430769,3.464440844148372,93.77428244859185,-0.488168,3.5028503,3.52337,54.505527,-5.7383466,5.1260414,-18.049564,1.4108981,-6.4849324,6.508267,2.823458,4.692225,-4.063118,1.4945496,5.1254067,14.281963,3.2593355,-92.75716,51.900517,14.771751,-4.692355,-7.868881,16.880056,-5.335125,87.261925,42.830914,-31.476686,-9.6535015,-9.386164
234,-1.130226492881775,158.8653564453125,76.64559173583984,-1.2204429891580708,3.3667552886028194,93.61478359320351,-1.746326,4.209198,3.941637,57.58256,-3.905628,5.401963,-17.313324,1.8379705,-6.4242043,6.529957,2.2220004,4.547675,-3.9469075,1.6562682,5.2112947,14.281769,3.2933443,-92.798515,51.71921,14.523587,-4.7366586,-8.173251,16.837177,-5.377484,87.493095,42.729156,-31.366526,-9.585439,-9.288517
235,-1.0172122716903687,159.59255981445312,76.731201171875,-1.3883335009818278,3.2527030531005714,93.47186214868479,-3.0029,4.952529,4.381486,60.571896,-2.2024236,5.6287045,-16.562353,2.2281055,-6.375051,6.5483985,1.6171975,4.4287305,-3.8457646,1.7917995,5.3211956,14.272695,3.3598957,-92.865074,51.495193,14.243498,-4.758016,-8.487767,16.813387,-5.4342985,87.66062,42.612362,-31.221579,-9.562008,-9.176578
236,-0.9122593402862549,160.30335998535156,76.80736541748047,-1.5571623037679627,3.125257491184848,93.35508932967919,-4.176623,5.7859282,4.8959975,63.30306,-0.77430177,5.6707444,-15.80386,2.6055005,-6.3390913,6.567966,1.0278189,4.2767334,-3.7499673,1.926839,5.445339,14.250142,3.4389231,-92.96625,51.277115,13.981325,-4.7645545,-8.781345,16.825382,-5.48677,87.7352,42.505604,-31.039257,-9.569894,-9.073526
237,-0.8074185848236084,160.9984588623047,76.8772964477539,-1.7407867823033227,2.9963507412995756,93.27670681535398,-5.2691092,6.7987027,5.5444846,65.790794,0.45538864,5.359896,-15.051407,2.9777946,-6.33312,6.587333,0.46587038,4.071345,-3.6807423,2.0739846,5.578608,14.214905,3.5024865,-93.093925,51.0827,13.727256,-4.7471066,-9.066191,16.878628,-5.5220876,87.70684,42.419155,-30.767746,-9.625652,-8.970689
238,-0.7024120688438416,161.68943786621094,76.94100189208984,-1.928891996293206,2.8594039560749214,93.22522758226738,-6.321144,7.954688,6.27472,68.144875,1.5110048,4.8319416,-14.29882,3.3398855,-6.350693,6.6064563,-0.078871354,3.8430223,-3.6071048,2.226743,5.7271624,14.161865,3.612576,-93.280426,50.84014,13.453665,-4.7016606,-9.349627,16.971825,-5.5739164,87.5591,42.313385,-30.433434,-9.730551,-8.855827
239,-0.6069011688232422,162.3858642578125,77.0008544921875,-2.100161529150584,2.6906399541779367,93.18176417469465,-7.3025255,9.095282,6.9767,70.308975,2.1794732,4.379202,-13.514523,3.6863685,-6.358215,6.6240053,-0.6216527,3.6134157,-3.5627291,2.3502073,5.904827,14.106957,3.6784742,-93.443886,50.670868,13.223142,-4.660819,-9.6018715,17.07594,-5.6011524,87.4039,42.25029,-30.11266,-9.842858,-8.767081
240,-0.5167558193206787,163.08706665039062,77.06330108642578,-2.2340326656742966,2.4674459860396696,93.12613248296344,-8.189486,10.050492,7.548928,72.213875,2.2461073,4.2663136,-12.668099,4.0084596,-6.3212104,6.639878,-1.1780353,3.4074266,-3.471632,2.4389977,6.116144,14.040417,3.7752678,-93.64728,50.528015,13.060118,-4.644582,-9.782118,17.195421,-5.63523,87.21294,42.197273,-29.915373,-9.926925,-8.725786
241,-0.42779529094696045,163.78419494628906,77.12670135498047,-2.321636714878507,2.168443300002595,93.06131180803109,-8.960092,10.733926,7.9469314,73.83264,1.4318044,4.6408095,-11.729318,4.290111,-6.228967,6.655523,-1.7673624,3.2561536,-3.3857589,2.4712214,6.379618,13.963348,3.8630626,-93.84454,50.462112,12.972497,-4.664742,-9.890537,17.32349,-5.6611094,87.04738,42.184685,-29.853348,-9.9778805,-8.751205
