unveil-humanoid-operators/unveil-humanoid-operators.github.io/feature-analysis-animation/data/feature_matrix_instances/gender_shoulder_rom_gesture_dancing_A186.csv
Frame,root_translateX,root_translateY,root_translateZ,root_rotateX,root_rotateY,root_rotateZ,left_hip_pitch_joint_dof,left_hip_roll_joint_dof,left_hip_yaw_joint_dof,left_knee_joint_dof,left_ankle_pitch_joint_dof,left_ankle_roll_joint_dof,right_hip_pitch_joint_dof,right_hip_roll_joint_dof,right_hip_yaw_joint_dof,right_knee_joint_dof,right_ankle_pitch_joint_dof,right_ankle_roll_joint_dof,waist_yaw_joint_dof,waist_roll_joint_dof,waist_pitch_joint_dof,left_shoulder_pitch_joint_dof,left_shoulder_roll_joint_dof,left_shoulder_yaw_joint_dof,left_elbow_joint_dof,left_wrist_roll_joint_dof,left_wrist_pitch_joint_dof,left_wrist_yaw_joint_dof,right_shoulder_pitch_joint_dof,right_shoulder_roll_joint_dof,right_shoulder_yaw_joint_dof,right_elbow_joint_dof,right_wrist_roll_joint_dof,right_wrist_pitch_joint_dof,right_wrist_yaw_joint_dof
0,0.03973730653524399,1.8451370000839233,77.52140808105469,0.0722695104886234,1.3845115884128734,-89.85507604131142,2.4985626,14.884241,17.429562,12.248028,-11.926202,-12.797241,-2.9464564,-11.634655,4.195205,9.647773,-8.953578,11.689816,-2.1667004,0.1531519,4.01252,-6.7127657,14.989061,-43.87894,64.68092,-1.299868,-2.7284126,6.3541727,-5.5596766,-13.692083,37.773895,58.78988,-6.160348,-2.3676956,-3.8956575
1,0.04868645966053009,1.8356101512908936,77.51286315917969,0.0633120300109832,1.3809001486473829,-89.9235939942994,2.4480395,14.924799,17.47409,12.453463,-12.051743,-12.786285,-3.0145755,-11.613473,4.285355,9.760526,-9.012181,11.699669,-2.1730442,0.19827543,4.0360646,-6.6716065,15.008283,-43.857483,64.631096,-1.3008102,-2.7282696,6.332709,-5.5277343,-13.694588,37.49545,58.64439,-6.3530354,-2.3639092,-3.8879023
2,0.058807048946619034,1.8260297775268555,77.50381469726562,0.05433359476306936,1.3777807355528395,-89.9880058008841,2.3966062,14.965222,17.514536,12.655708,-12.174756,-12.77542,-3.07799,-11.592233,4.371132,9.865398,-9.067225,11.709695,-2.1474764,0.23663262,4.0596795,-6.653128,15.027628,-43.879192,64.59407,-1.308071,-2.7287774,6.3130198,-5.479708,-13.698713,37.193195,58.501667,-6.5628743,-2.3712528,-3.8761015
3,0.0719987228512764,1.822845697402954,77.4946060180664,0.04534072406732429,1.373497503056568,-90.06048382917017,2.3470309,15.007081,17.562504,12.865069,-12.303509,-12.764101,-3.1486454,-11.56965,4.4647956,9.98261,-9.127785,11.719266,-2.150369,0.28379577,4.081839,-6.61745,15.036791,-43.861847,64.55551,-1.3159595,-2.7283213,6.291326,-5.4439073,-13.699368,36.891327,58.344162,-6.752418,-2.3578076,-3.86967
4,0.08636008948087692,1.8111284971237183,77.48384094238281,0.037066922663626475,1.3662969833802587,-90.15336029141463,2.3035858,15.051111,17.630377,13.089626,-12.445361,-12.751824,-3.2366521,-11.543758,4.5782647,10.12871,-9.200576,11.72778,-2.124762,0.33287108,4.1147294,-6.587343,15.046445,-43.85934,64.507,-1.3494365,-2.7206619,6.261076,-5.375813,-13.697504,36.440025,58.098003,-6.9450035,-2.2965868,-3.8625987
5,0.10150846838951111,1.8017839193344116,77.47095489501953,0.02842190439963696,1.355848305183686,-90.2676619256069,2.2629554,15.100328,17.717405,13.337817,-12.605243,-12.738591,-3.3423069,-11.514919,4.711286,10.304322,-9.287579,11.736253,-2.0937545,0.3895472,4.1549745,-6.5478954,15.054631,-43.847797,64.44451,-1.4119349,-2.7025084,6.22168,-5.2882,-13.690256,35.86472,57.773884,-7.1328707,-2.166821,-3.8643134
6,0.12312070280313492,1.7855767011642456,77.45838928222656,0.019343983842941507,1.3428287128214418,-90.39745253620906,2.2257981,15.153148,17.818789,13.600925,-12.777247,-12.724702,-3.458042,-11.482897,4.8578734,10.496841,-9.382673,11.744401,-2.0653877,0.45261794,4.1999,-6.499024,15.060525,-43.822193,64.37246,-1.4935831,-2.6770916,6.1755824,-5.192913,-13.676389,35.207256,57.398907,-7.315174,-1.987896,-3.8724217
7,0.14239685237407684,1.7790178060531616,77.44353485107422,0.011968422539852124,1.3277912250407566,-90.54488510252739,2.1946511,15.206358,17.937912,13.874924,-12.95895,-12.709987,-3.5952697,-11.448294,5.0244155,10.726363,-9.492383,11.750733,-2.0325031,0.51887953,4.2501335,-6.442742,15.0646715,-43.787697,64.28988,-1.5864301,-2.6511352,6.1250196,-5.0856113,-13.654805,34.45938,56.958214,-7.4791026,-1.7898045,-3.8756902
8,0.16293618083000183,1.7693406343460083,77.42655944824219,0.008650250246486059,1.3110966945213807,-90.7116721246079,2.1702344,15.25779,18.077839,14.160157,-13.149556,-12.693971,-3.7652714,-11.412087,5.217347,11.013792,-9.624357,11.753657,-2.0014403,0.5878928,4.305636,-6.3741403,15.067337,-43.735855,64.192726,-1.6813918,-2.6316667,6.072122,-4.968812,-13.62642,33.63014,56.440414,-7.607757,-1.6019684,-3.8643608
9,0.18682928383350372,1.7545714378356934,77.40798950195312,0.009109926790772768,1.2908746520595646,-90.8988720033127,2.1615446,15.305495,18.241816,14.443024,-13.345286,-12.676298,-3.964642,-11.373358,5.43822,11.356671,-9.776614,11.75322,-1.9717453,0.6610489,4.3697886,-6.2890787,15.068687,-43.6516,64.07507,-1.7827744,-2.6224844,6.012238,-4.844863,-13.594304,32.709724,55.840607,-7.722624,-1.4027314,-3.813945
10,0.21412484347820282,1.741895318031311,77.3860092163086,0.012724679125369197,1.2675250553218376,-91.10515190964135,2.1641796,15.351447,18.42707,14.730636,-13.547829,-12.657069,-4.189544,-11.331123,5.6834464,11.746989,-9.946636,11.750515,-1.9319693,0.73690116,4.4420323,-6.197856,15.069316,-43.557632,63.94304,-1.8992667,-2.6190271,5.9460945,-4.704945,-13.556571,31.684433,55.15953,-7.8283143,-1.186621,-3.7358844
11,0.24321037530899048,1.7266509532928467,77.3629379272461,0.020057091782750076,1.2450551857180077,-91.32959113565686,2.168371,15.396872,18.629976,15.033871,-13.762383,-12.637673,-4.447652,-11.2862625,5.951362,12.191463,-10.137975,11.745385,-1.90347,0.81612694,4.516801,-6.090746,15.06969,-43.450115,63.795986,-2.0049424,-2.6160328,5.883016,-4.5559564,-13.514668,30.602436,54.403965,-7.866706,-1.0052338,-3.6777446
12,0.2729243040084839,1.7132259607315063,77.3375244140625,0.03211251633370559,1.2273657741813981,-91.57089765331129,2.1649258,15.442683,18.846949,15.362553,-13.993189,-12.619207,-4.7465563,-11.240019,6.2403574,12.696907,-10.354648,11.737989,-1.8863652,0.8953097,4.588248,-5.97514,15.071342,-43.360565,63.643036,-2.089866,-2.6084416,5.8329473,-4.3925614,-13.46516,29.481178,53.57592,-7.7901435,-0.91118777,-3.6854336
13,0.30409374833106995,1.6948318481445312,77.30929565429688,0.04919061171993686,1.217596135091018,-91.83130746289682,2.1543648,15.486864,19.080387,15.710633,-14.237626,-12.600285,-5.0888557,-11.191053,6.5508103,13.260642,-10.594633,11.728976,-1.8850553,0.976182,4.65201,-5.839218,15.074075,-43.26782,63.476345,-2.1516669,-2.5958676,5.799093,-4.215398,-13.407081,28.31135,52.680317,-7.663548,-0.9264144,-3.7714846
14,0.33755242824554443,1.6791572570800781,77.27822875976562,0.07063357023218213,1.2129474436308023,-92.11043903315566,2.141709,15.529551,19.331047,16.073895,-14.493862,-12.580797,-5.4705477,-11.138875,6.883286,13.88137,-10.857409,11.719035,-1.8917948,1.0578974,4.711459,-5.687601,15.07822,-43.174515,63.29605,-2.1994216,-2.5797398,5.7760687,-4.024747,-13.3383665,27.078053,51.715946,-7.4913306,-1.0209414,-3.9108727
15,0.37280818819999695,1.6579817533493042,77.24197387695312,0.09632555226260092,1.208496536027209,-92.40383962045563,2.1223855,15.575807,19.592783,16.469473,-14.76939,-12.56388,-5.8857474,-11.0813055,7.234601,14.56288,-11.145771,11.707476,-1.9162229,1.1382746,4.7739286,-5.5318685,15.085742,-43.10498,63.113617,-2.2233996,-2.5615067,5.760396,-3.8307524,-13.258857,25.832594,50.68064,-7.114971,-1.1687783,-4.095196
16,0.40902799367904663,1.6365829706192017,77.20137786865234,0.1260570923248474,1.1993177043325094,-92.70674223173931,2.0934439,15.629634,19.859589,16.910686,-15.069936,-12.552598,-6.3314824,-11.015982,7.602211,15.313857,-11.46362,11.693604,-1.9566274,1.21277,4.846257,-5.3882074,15.100429,-43.097733,62.937996,-2.2174053,-2.538011,5.748759,-3.6379454,-13.164239,24.609005,49.571484,-6.3829556,-1.345805,-4.314176
17,0.44092294573783875,1.6184862852096558,77.15381622314453,0.16215038259394063,1.1850899428159827,-93.02030541003768,2.06008,15.687006,20.136042,17.389944,-15.3938265,-12.548493,-6.803006,-10.94729,7.988961,16.125578,-11.811785,11.682385,-2.0133455,1.2800221,4.926522,-5.253457,15.1244335,-43.16364,62.772488,-2.168583,-2.5064383,5.747629,-3.447061,-13.050933,23.409203,48.396034,-5.307471,-1.5480891,-4.5724025
18,0.4726961851119995,1.5941979885101318,77.1009292602539,0.2036613041416208,1.168217223266849,-93.34622843019612,2.0208406,15.748025,20.422888,17.906445,-15.739158,-12.549395,-7.3067646,-10.871485,8.395035,17.005219,-12.190511,11.673067,-2.0863972,1.3403267,5.0116615,-5.120268,15.158771,-43.284412,62.609917,-2.0860798,-2.46822,5.756313,-3.2592592,-12.918826,22.216173,47.157513,-3.9537714,-1.792261,-4.869385
19,0.5034692883491516,1.5755805969238281,77.03904724121094,0.246893434617233,1.147760568437488,-93.68091258193013,1.968531,15.821197,20.70997,18.471935,-16.110891,-12.553702,-7.8396983,-10.781682,8.811614,17.951216,-12.594937,11.657589,-2.1771085,1.3941439,5.1074314,-4.99161,15.205636,-43.44518,62.44066,-1.9905155,-2.4286118,5.760362,-3.0714676,-12.76543,21.037882,45.836876,-2.247643,-2.0867724,-5.1859155
20,0.529478132724762,1.5552594661712646,76.96791076660156,0.28720153389590053,1.1228743868367284,-94.02060626948423,1.8837833,15.920032,20.983881,19.124594,-16.519083,-12.559372,-8.404697,-10.672891,9.231501,18.9735,-13.024844,11.6273,-2.288006,1.4413328,5.219114,-4.8698325,15.2680025,-43.629128,62.253693,-1.9010725,-2.3927085,5.7451043,-2.884201,-12.587742,19.884539,44.418926,-0.111663185,-2.4409919,-5.5015864
21,0.5593576431274414,1.531714677810669,76.88833618164062,0.32718309365557213,1.0965346521704908,-94.37615533140725,1.7674985,16.040348,21.252636,19.864014,-16.964266,-12.5617,-9.004798,-10.543391,9.663526,20.063934,-13.480174,11.583659,-2.4150853,1.480794,5.342551,-4.745914,15.34768,-43.830048,62.041172,-1.8230133,-2.3641315,5.7025886,-2.6973445,-12.38445,18.746485,42.898495,2.485063,-2.8483222,-5.8268223
22,0.5821020007133484,1.5137845277786255,76.8005142211914,0.36776966732367616,1.0682613241039582,-94.7456090870813,1.6254493,16.178974,21.518671,20.679272,-17.443516,-12.563168,-9.642385,-10.396769,10.108914,21.231064,-13.9633,11.530356,-2.559881,1.5118115,5.476199,-4.61794,15.446134,-44.054733,61.804577,-1.7448235,-2.3373175,5.6418834,-2.5109115,-12.156021,17.623962,41.284977,5.4973545,-3.3145292,-6.1554685
23,0.5925310254096985,1.4961646795272827,76.70319366455078,0.4034782850683706,1.0315891657601008,-95.10629687598052,1.4611533,16.343472,21.763763,21.559353,-17.9506,-12.57216,-10.296692,-10.227273,10.542543,22.46436,-14.466748,11.461808,-2.7347822,1.5331786,5.6302695,-4.5014477,15.566444,-44.30899,61.55705,-1.6657195,-2.3106794,5.573518,-2.3221307,-11.900975,16.543219,39.581223,8.895788,-3.8649426,-6.438636
24,0.5956344604492188,1.481743574142456,76.59788513183594,0.4288218164485708,0.9800745503985271,-95.43544176762816,1.2774816,16.540998,21.969683,22.493982,-18.479776,-12.597021,-10.950509,-10.033054,10.94086,23.758936,-14.984326,11.371805,-2.9530547,1.5432057,5.8147836,-4.4119167,15.713206,-44.598423,61.309734,-1.5858525,-2.2818415,5.507907,-2.1303284,-11.615832,15.531881,37.79214,12.66263,-4.5207114,-6.624542
25,0.5918954014778137,1.468709945678711,76.47811889648438,0.4466149998507589,0.9089608861365194,-95.74535072782386,1.0875561,16.769367,22.153183,23.481302,-19.033472,-12.642056,-11.611419,-9.8091,11.343118,25.129374,-15.522536,11.255584,-3.2137678,1.5417067,6.0368347,-4.341789,15.889763,-44.915092,61.049564,-1.5089417,-2.2460496,5.4405313,-1.9319515,-11.292792,14.584907,35.901943,16.960447,-5.3006396,-6.6731114
26,0.578018069267273,1.4662885665893555,76.34945678710938,0.45919879550451675,0.8226851911190661,-96.04218771525453,0.8866959,17.024591,22.317171,24.524443,-19.6124,-12.702195,-12.283255,-9.558114,11.746341,26.57083,-16.08047,11.116722,-3.5125608,1.5247934,6.2891264,-4.284221,16.098177,-45.25763,60.772293,-1.4335021,-2.2056928,5.368003,-1.7326157,-10.929466,13.694753,33.919167,21.756796,-6.1771545,-6.587896
27,0.5618654489517212,1.459842324256897,76.20952606201172,0.4585963960807007,0.7284054198438501,-96.29360040960778,0.6504991,17.311543,22.422653,25.619762,-20.2076,-12.772813,-12.946284,-9.296816,12.066088,28.053247,-16.646025,10.959856,-3.8571665,1.4868875,6.561154,-4.2548556,16.34087,-45.642933,60.498917,-1.3518215,-2.1684637,5.302161,-1.5392796,-10.531714,12.884636,31.876263,26.752268,-7.0988173,-6.389273
28,0.5247442722320557,1.4493680000305176,76.06021118164062,0.43715559760123995,0.6333147066733471,-96.46757221919498,0.35708222,17.634167,22.43116,26.756994,-20.808851,-12.849107,-13.587158,-9.04535,12.220284,29.556774,-17.20719,10.787203,-4.2549963,1.4233017,6.843073,-4.2687626,16.619978,-46.087803,60.24862,-1.2557883,-2.1421885,5.2546754,-1.3568583,-10.1122675,12.178521,29.801685,31.656143,-8.021006,-6.1117916
29,0.4750438928604126,1.443037748336792,75.89830780029297,0.38943183729998554,0.5371429546206781,-96.57173655982186,-0.0015429818,18.003372,22.345577,27.962248,-21.425558,-12.9284,-14.197167,-8.814864,12.1774645,31.065102,-17.779102,10.582067,-4.709502,1.3427175,7.137632,-4.313273,16.936079,-46.59569,60.004883,-1.1355789,-2.1322198,5.246421,-1.1741438,-9.670073,11.584104,27.657606,36.648495,-8.963465,-5.7260623
30,0.4124864339828491,1.4340215921401978,75.72986602783203,0.32058304156620643,0.43692059905972097,-96.61768153298796,-0.4112622,18.41081,22.18169,29.22391,-22.056742,-13.014145,-14.788583,-8.603491,11.989243,32.59584,-18.364094,10.343345,-5.215923,1.2422357,7.4484773,-4.3858047,17.289429,-47.158928,59.76095,-0.9982627,-2.133095,5.264842,-0.99045485,-9.204436,11.0902405,25.438406,41.828785,-9.920905,-5.2096076
31,0.3216134011745453,1.4259761571884155,75.5536880493164,0.2376764488228739,0.33572572913526133,-96.57957583688014,-0.8736731,18.835184,21.916697,30.50099,-22.679874,-13.110716,-15.374694,-8.407872,11.696453,34.17295,-18.932638,10.095551,-5.768258,1.1049584,7.7693157,-4.515216,17.68062,-47.778736,59.544125,-0.8608451,-2.1364052,5.2705193,-0.81570584,-8.734083,10.690233,23.206158,46.776142,-10.828365,-4.6375012
32,0.217232346534729,1.438610315322876,75.36927795410156,0.14759178795054123,0.23681954853649012,-96.4313608113318,-1.3908987,19.254217,21.528013,31.7535,-23.273264,-13.222838,-15.9689665,-8.226254,11.33932,35.81992,-19.454199,9.863385,-6.359643,0.91835636,8.095268,-4.7288337,18.109104,-48.45511,59.376465,-0.73831487,-2.1340008,5.2233443,-0.65358967,-8.289335,10.377363,21.01311,51.05472,-11.639027,-4.1089754
33,0.09631570428609848,1.4454857110977173,75.18085479736328,0.04018095369670963,0.1414405270888353,-96.16704347704726,-1.974354,19.678782,21.00379,32.992134,-23.841183,-13.353924,-16.586006,-8.055285,10.899914,37.570587,-19.920664,9.630745,-7.001992,0.7006576,8.4346,-5.022779,18.573437,-49.191418,59.23745,-0.6215062,-2.1101775,5.1230702,-0.50109893,-7.8806763,10.168973,18.81667,54.617867,-12.378972,-3.6895318
34,-0.04587751626968384,1.4468727111816406,74.98677062988281,-0.08428121983691325,0.04840165560278493,-95.80035304442896,-2.6210265,20.109571,20.357586,34.22973,-24.391548,-13.502365,-17.21551,-7.906468,10.36996,39.406677,-20.35127,9.383914,-7.694481,0.45519227,8.787187,-5.3858232,19.071545,-49.988884,59.11516,-0.5072401,-2.0740728,4.9863644,-0.3502148,-7.5085783,10.063935,16.594625,57.686462,-13.0815325,-3.33909
35,-0.20526933670043945,1.4576363563537598,74.78958892822266,-0.2042062348215191,-0.04292532027148629,-95.33423781576748,-3.3123143,20.50983,19.604612,35.432053,-24.908611,-13.664707,-17.832186,-7.7953644,9.802104,41.27087,-20.754528,9.153968,-8.409106,0.15237871,9.136997,-5.835132,19.600363,-50.846462,59.042534,-0.4206435,-2.0552661,4.797503,-0.19028696,-7.192694,10.025316,14.42206,60.209644,-13.718382,-3.0170944
36,-0.3923080265522003,1.4670050144195557,74.58599090576172,-0.2965795715987445,-0.13353235317439077,-94.77220998702181,-4.03021,20.844872,18.760977,36.569008,-25.379152,-13.83703,-18.412659,-7.7316236,9.247548,43.10858,-21.13841,8.975968,-9.115745,-0.23160656,9.469708,-6.3891935,20.15484,-51.766483,59.048855,-0.38875598,-2.0829144,4.5406475,-0.008039281,-6.964283,10.015707,12.368211,62.131557,-14.252414,-2.6881413
37,-0.6024088859558105,1.4722548723220825,74.37582397460938,-0.3516375444237705,-0.22149088229901082,-94.10197805584755,-4.7828937,21.099339,17.815691,37.642017,-25.805279,-14.020356,-18.98166,-7.712509,8.73536,44.96199,-21.485195,8.871644,-9.827373,-0.6994565,9.786744,-7.0577683,20.733839,-52.77009,59.129723,-0.4489935,-2.1710713,4.165147,0.21556067,-6.8270807,10.006961,10.386321,63.26684,-14.683986,-2.393209
38,-0.8237200975418091,1.4643123149871826,74.16571044921875,-0.38159436047371237,-0.3072495770745679,-93.32616306959136,-5.575249,21.289906,16.766981,38.66698,-26.19423,-14.216927,-19.541716,-7.73736,8.23488,46.84358,-21.796812,8.815593,-10.549021,-1.2337376,10.093542,-7.835443,21.334183,-53.85845,59.267864,-0.58158857,-2.3013027,3.6936085,0.4708285,-6.778523,10.021365,8.454289,63.702732,-15.041116,-2.1566997
39,-1.0729540586471558,1.4634970426559448,73.95187377929688,-0.4025126645170078,-0.39587164486242044,-92.47022306772804,-6.383334,21.43221,15.645473,39.636078,-26.53925,-14.425096,-20.033642,-7.8087406,7.7043734,48.65035,-22.108294,8.77861,-11.241471,-1.818664,10.385595,-8.712725,21.942518,-54.99154,59.468678,-0.7173197,-2.4547968,3.2199113,0.7355988,-6.8485475,10.099875,6.6693087,63.792213,-15.318372,-1.9176856
40,-1.3311493396759033,1.4394477605819702,73.74144744873047,-0.43215824123085034,-0.49220039879838234,-91.55929828369915,-7.1838746,21.544035,14.480142,40.541267,-26.833761,-14.642769,-20.395569,-7.9261413,7.100495,50.275604,-22.45291,8.736033,-11.86832,-2.4283843,10.662144,-9.682781,22.538322,-56.1277,59.740982,-0.7893901,-2.6150181,2.8385463,0.99288446,-7.086393,10.288294,5.11972,63.898453,-15.505441,-1.6115674
41,-1.6011379957199097,1.4023782014846802,73.53937530517578,-0.4726290005935396,-0.592774752934825,-90.59314673327248,-7.976893,21.63156,13.271702,41.38261,-27.084797,-14.8747,-20.633015,-8.082142,6.4162135,51.727978,-22.817312,8.696716,-12.432114,-3.0414035,10.926997,-10.759142,23.10753,-57.26604,60.103477,-0.72636676,-2.798648,2.5597076,1.2568129,-7.508428,10.592043,3.796916,64.138794,-15.631304,-1.2313393
42,-1.8721773624420166,1.3556933403015137,73.3454818725586,-0.5143733569678132,-0.6959293615806634,-89.55962745662204,-8.775119,21.66528,12.001486,42.164192,-27.293839,-15.000033,-20.76715,-8.277015,5.672429,53.047073,-23.187065,8.675428,-12.951211,-3.6609542,11.184019,-11.948731,23.641376,-58.41797,60.554554,-0.57860816,-3.0097022,2.339358,1.5344024,-8.1148,10.989648,2.6528084,64.324814,-15.694321,-0.8124793
43,-2.1549336910247803,1.3059014081954956,73.16376495361328,-0.5195483334477304,-0.7998747917281861,-88.44985505808434,-9.570756,21.580208,10.685407,42.862656,-27.432018,-15.000033,-20.781399,-8.567882,4.8801928,54.20311,-23.611929,8.672746,-13.433019,-4.331732,11.41524,-13.236664,24.12439,-59.55845,61.07723,-0.4623304,-3.2135832,2.1902957,1.7955012,-8.940872,11.487729,1.7179021,64.36626,-15.635924,-0.35229614
44,-2.441196918487549,1.2445180416107178,72.99867248535156,-0.5250629435964315,-0.9211305655782395,-87.2873700699204,-10.343532,21.4431,9.340634,43.49818,-27.495586,-15.000033,-20.61654,-8.908803,4.019277,55.11487,-24.115932,8.667412,-13.855182,-5.0189657,11.637702,-14.601801,24.535944,-60.654255,61.651093,-0.4914522,-3.3755126,2.1245253,2.0086389,-10.041661,12.101358,1.016361,64.182076,-15.3989935,0.15043554
45,-2.7269320487976074,1.1582969427108765,72.8490219116211,-0.5524087412194355,-1.079976815849975,-86.05945639151645,-11.035788,21.281672,7.976015,44.011906,-27.542667,-15.000033,-20.215221,-9.279251,3.0538757,55.747597,-24.726028,8.664793,-14.213329,-5.6998234,11.864069,-16.071672,24.859877,-61.75907,62.343403,-0.75197434,-3.4960184,2.1645036,2.164632,-11.465384,12.862687,0.54161346,63.80778,-14.966284,0.6333531
46,-3.006709098815918,1.0660240650177002,72.71356201171875,-0.5999434085482327,-1.2655650840398398,-84.76751396586677,-11.668889,21.09439,6.5828447,44.42634,-27.562355,-15.000033,-19.60893,-9.668078,1.9908423,56.135345,-25.413336,8.676212,-14.513513,-6.359278,12.096914,-17.650223,25.084534,-62.852325,63.149925,-1.1599131,-3.5924282,2.2991185,2.2744617,-13.217527,13.762126,0.26441273,63.28947,-14.377586,1.1179135
47,-3.2834622859954834,0.9669141173362732,72.6002426147461,-0.6445894026990687,-1.4423827284463606,-83.4464304783371,-12.348572,20.853622,5.148345,44.87128,-27.44162,-15.000033,-18.888088,-10.072095,0.88085014,56.316746,-26.122799,8.696294,-14.761095,-6.997597,12.323123,-19.284376,25.199375,-63.799515,63.962032,-1.5871744,-3.6557522,2.4909818,2.3242078,-15.280602,14.759507,0.19226761,62.55438,-13.664819,1.7342839
48,-3.555722236633301,0.8697575926780701,72.5108413696289,-0.6619614951307476,-1.5761862354158016,-82.13120211428965,-13.178581,20.524729,3.6650026,45.47516,-27.066744,-15.000033,-18.144892,-10.493284,-0.22369948,56.332325,-26.800163,8.717627,-14.963838,-7.6219254,12.525725,-20.91272,25.197847,-64.456795,64.68156,-1.8944948,-3.6764884,2.7032228,2.298884,-17.624561,15.816168,0.34216198,61.520775,-12.865223,2.6163042
49,-3.822038412094116,0.7686746120452881,72.44783782958984,-0.6397797757346175,-1.6561417721221605,-80.78635154628093,-14.168009,20.07865,2.1320043,46.228203,-26.45631,-15.000033,-17.371128,-10.950096,-1.3369982,56.16517,-27.478765,8.753776,-15.141403,-8.261664,12.676588,-22.551464,25.079588,-64.809616,65.362946,-2.062768,-3.6487205,2.9296398,2.1588268,-20.249485,16.92695,0.76729697,60.163185,-11.998522,3.8718128
50,-4.083139419555664,0.6783778071403503,72.41547393798828,-0.5897433295001374,-1.70207690554048,-79.40788450222432,-15.260148,19.531332,0.56718093,47.077663,-25.656195,-15.000033,-16.529306,-11.431046,-2.4823518,55.803967,-28.17045,8.806213,-15.289605,-8.908466,12.786808,-24.22356,24.848139,-64.92282,66.06463,-2.166562,-3.5812883,3.1914177,1.888757,-23.155777,18.132835,1.4638193,58.514133,-11.073826,5.41958
51,-4.332372188568115,0.6193628311157227,72.41703033447266,-0.5170478382182553,-1.7267990244357014,-78.07737428517709,-16.454346,18.90815,-1.0015837,48.074932,-24.584183,-15.000033,-15.671153,-11.905294,-3.6195855,55.299057,-28.791664,8.847901,-15.375662,-9.526888,12.897813,-25.863434,24.503696,-64.73882,66.69769,-2.1629136,-3.483279,3.4916618,1.5273337,-26.304714,19.454048,2.3565965,56.55923,-10.111513,7.119239
52,-4.559303283691406,0.5595141053199768,72.45675659179688,-0.4288989634926101,-1.7421635356304424,-76.8755244858776,-17.753576,18.23083,-2.5482051,49.2718,-23.15596,-15.000033,-14.8511,-12.346976,-4.704639,54.703766,-29.261362,8.8510685,-15.366991,-10.092119,13.048641,-27.40502,24.045103,-64.19856,67.17428,-2.0022159,-3.3590739,3.8321555,1.1042228,-29.637148,20.909584,3.3832612,54.276943,-9.124449,8.838046
53,-4.7746171951293945,0.5311864018440247,72.53569030761719,-0.33437708267305777,-1.728671544637083,-75.78654697539156,-19.260136,17.457561,-4.179518,50.78051,-21.252876,-15.000033,-14.095795,-12.757477,-5.7830367,54.02816,-29.580885,8.785921,-15.252495,-10.609452,13.2169895,-28.928408,23.496735,-63.42883,67.48825,-1.8252232,-3.1887896,4.193849,0.574623,-33.124615,22.486124,4.646859,51.55305,-8.053082,10.796376
54,-4.970851898193359,0.5138550996780396,72.6575698852539,-0.2151809544614186,-1.6886223150787165,-74.7773803579955,-20.925426,16.564438,-5.8436694,52.53034,-18.940788,-15.000033,-13.376522,-13.162151,-6.854858,53.25082,-29.791426,8.676614,-15.054422,-11.122297,13.404611,-30.337479,22.832521,-62.087646,67.65923,-1.269591,-2.9560091,4.579023,-0.11675923,-36.759613,24.208538,6.1559544,48.403976,-6.960239,13.016757
55,-5.141888618469238,0.504001796245575,72.81902313232422,-0.0473386380327409,-1.6644211415889678,-73.90350586664135,-22.54108,15.634008,-7.2914314,54.296185,-16.418165,-15.000033,-12.665416,-13.563005,-7.8113556,52.37214,-29.862835,8.572458,-14.765808,-11.619248,13.611283,-31.753237,22.09886,-60.83169,67.80492,-0.9529884,-2.7543383,5.027699,-0.88583565,-40.51733,26.172289,7.7263837,45.0013,-6.0186443,15.036664
56,-5.279303073883057,0.5060503482818604,73.02149200439453,0.1879338308468679,-1.7000101874756939,-73.22200873387827,-23.921902,14.780601,-8.291656,55.870586,-13.88701,-15.000033,-11.935064,-13.961578,-8.544552,51.391754,-29.769346,8.51962,-14.368131,-12.113611,13.900451,-33.07791,21.291592,-59.604244,67.92612,-0.75960624,-2.633059,5.5767574,-1.7626109,-44.359478,28.45132,9.222026,41.567818,-5.313492,16.39651
57,-5.383841037750244,0.5213496088981628,73.26702117919922,0.5108619332871965,-1.817133261433428,-72.74289586427791,-25.06283,14.006251,-8.821753,57.229233,-11.289421,-15.000033,-11.171481,-14.380273,-9.036134,50.31675,-29.540909,8.514643,-13.826526,-12.629107,14.292231,-34.332794,20.415949,-58.47801,67.97693,-0.8706298,-2.625004,6.246913,-2.7053847,-48.271427,31.106606,10.571631,38.083614,-4.7493,16.794533
58,-5.450395584106445,0.5692082643508911,73.5550308227539,0.9017012601728686,-1.9885026134166188,-72.4366365144281,-26.076038,13.302534,-8.991819,58.478443,-8.553678,-15.000033,-10.396193,-14.816051,-9.343894,49.14799,-29.182047,8.533455,-13.14375,-13.161682,14.77334,-35.538124,19.473532,-57.374603,67.94897,-1.1765403,-2.6945715,7.014122,-3.802056,-52.246532,34.1316,11.867127,34.46642,-4.2215004,16.528894
59,-5.469924449920654,0.6091393232345581,73.8875503540039,1.3158894918270498,-2.180398016777223,-72.29997785588357,-26.967802,12.7842455,-8.809001,59.61547,-5.8629427,-15.000033,-9.632694,-15.218772,-9.478159,47.86733,-28.623833,8.587214,-12.3723755,-13.665719,15.305314,-36.715416,18.48312,-56.471317,67.97705,-1.6027524,-2.8199234,7.850381,-5.066687,-56.257366,37.447445,13.082259,30.763556,-3.7973144,16.007101
60,-5.463219165802002,0.6614651083946228,74.25816345214844,1.7074461667919563,-2.3599287356037513,-72.33066220317478,-27.737734,12.554127,-8.303161,60.638866,-3.4000158,-15.000033,-8.904286,-15.53365,-9.445206,46.454525,-27.796825,8.68597,-11.553021,-14.100669,15.849064,-37.883904,17.47195,-55.974644,68.18496,-2.0944374,-2.9757342,8.726176,-6.4885745,-60.26975,40.94126,14.2029085,27.000347,-3.594025,15.626335
61,-5.426558017730713,0.723677933216095,74.67527770996094,2.070524861920112,-2.524128750919236,-72.53344997057242,-28.42162,12.666926,-7.438699,61.614956,-1.0698266,-15.000033,-8.195843,-15.75494,-9.2422085,44.88021,-26.72558,8.825194,-10.668637,-14.46232,16.415459,-39.048607,16.450075,-56.027443,68.57006,-2.7289295,-3.18423,9.711771,-8.068917,-64.279045,44.691635,15.263799,23.085653,-3.7456841,15.366494
62,-5.367278099060059,0.7917609214782715,75.1364517211914,2.4201526037546497,-2.6852615790234147,-72.90811957406065,-29.007282,13.064462,-6.2618117,62.538296,1.1717564,-15.000033,-7.5010347,-15.902375,-8.863289,43.163918,-25.437325,8.997043,-9.676908,-14.7701845,17.033373,-40.19045,15.411794,-56.5282,69.04595,-3.514211,-3.4522183,10.788881,-9.840296,-68.284256,48.73795,16.251305,18.985468,-4.148447,14.999923
63,-5.281241416931152,0.8593233227729797,75.64371490478516,2.735985602174008,-2.8332214659293307,-73.44775201344243,-29.409407,13.677796,-4.911488,63.280006,3.094222,-15.000033,-6.8575683,-15.957382,-8.295648,41.360477,-23.867054,9.2064,-8.581778,-15.023953,17.689276,-41.28096,14.358899,-57.29118,69.60446,-4.2709317,-3.719349,11.795748,-11.815024,-72.25375,52.883385,17.093477,14.804863,-4.610634,14.623229
64,-5.171088218688965,0.9272474646568298,76.19636535644531,3.0065405118825215,-2.960017564379973,-74.14557647610656,-29.540932,14.408041,-3.5239537,63.712315,4.4484386,-15.000033,-6.304179,-15.908852,-7.5210958,39.529427,-21.950375,9.464878,-7.377,-15.231198,18.373486,-42.298435,13.298592,-58.143394,70.235634,-4.825941,-3.916341,12.573027,-13.934229,-76.146164,56.85657,17.720253,10.646857,-4.9548707,14.36876
65,-5.044954299926758,0.9881151914596558,76.79212951660156,3.229760531995264,-3.087698310714843,-75.00546668270225,-29.31402,15.2463045,-2.091079,63.800316,4.935518,-15.000033,-5.764524,-15.7483425,-6.518583,37.60039,-19.65338,9.765962,-5.998879,-15.395807,19.121187,-43.24945,12.229687,-59.173916,70.94565,-5.146121,-4.0227804,13.075897,-16.021889,-79.94555,60.581444,18.181154,6.355083,-5.1738443,14.348946
66,-4.901561260223389,1.0450130701065063,77.42505645751953,3.418578822177416,-3.2137225131778044,-76.03297127781083,-28.770811,16.21,-0.5393156,63.60515,4.765216,-15.000033,-5.24691,-15.492677,-5.277422,35.587826,-17.029165,10.115846,-4.410983,-15.523655,19.95008,-44.146862,11.140615,-60.48618,71.722824,-5.3253317,-4.063509,13.383611,-17.972322,-83.61987,64.01396,18.5556,1.8717195,-5.3711734,14.4546
67,-4.739541053771973,1.1108362674713135,78.08502197265625,3.5800180260440815,-3.291518428978759,-77.2225754757374,-28.033134,17.220098,1.0871216,63.15476,4.4274435,-15.000033,-4.915481,-15.167194,-3.7957797,33.673843,-14.137232,10.555976,-2.6615617,-15.656573,20.80537,-44.979626,10.028524,-61.93658,72.557365,-5.386202,-4.0270395,13.526347,-19.833824,-86.99781,66.937294,18.916452,-2.534323,-5.534915,14.52613
68,-4.5557098388671875,1.1884015798568726,78.77314758300781,3.719342908456653,-3.2738170836280838,-78.5685802348557,-27.231161,18.2066,2.735635,62.474937,4.4166226,-15.000033,-4.9254017,-14.785835,-2.0727038,32.019306,-11.021621,11.135735,-0.8264053,-15.892326,21.602184,-45.726475,8.902564,-63.385117,73.49102,-5.3539925,-3.9036155,13.535034,-21.800394,-89.70411,69.283356,19.488665,-6.581878,-5.6393657,14.424344
69,-4.3532586097717285,1.2712268829345703,79.47129821777344,3.8292612032773485,-3.1392879612714846,-80.10951423594373,-26.369736,19.220976,4.4695573,61.55556,4.8273106,-15.000033,-5.3531795,-14.288488,0.060758963,30.656155,-7.5095773,11.7305975,1.0508415,-16.315998,22.251373,-46.32508,7.7804766,-64.72069,74.59416,-5.2147813,-3.65548,13.366139,-24.20801,-91.41562,71.405495,20.562416,-10.161851,-5.6433396,14.174806
70,-4.136449813842773,1.3778162002563477,80.16222381591797,3.899514304849422,-2.9152509003774547,-81.8368991211808,-25.385836,20.271889,6.3046293,60.39709,5.404498,-15.000033,-6.0740747,-13.662952,2.5659974,29.477251,-3.630521,12.413501,2.8586938,-16.911093,22.728819,-46.732418,6.6869264,-65.945854,75.90381,-4.968536,-3.30972,13.031861,-27.551783,-92.24896,73.94797,22.085989,-13.320918,-5.562949,13.871714
71,-3.8950092792510986,1.5042206048965454,80.83466339111328,3.936073613552162,-2.630672589665856,-83.67079497288229,-24.325354,21.229284,8.093469,59.040283,6.119834,-15.000033,-6.934038,-12.99008,5.1542544,28.409533,0.2747543,13.530598,4.379078,-17.623692,23.03481,-46.949986,5.658266,-67.05717,77.405594,-4.660949,-2.9562023,12.650135,-32.402317,-92.52693,77.40417,23.706274,-15.991309,-5.4569335,13.501405
72,-3.637396812438965,1.6428735256195068,81.47383117675781,3.9163343107194675,-2.3164128284749994,-85.53280331491243,-23.257349,22.002588,9.648348,57.526173,6.947574,-15.000033,-7.7665076,-12.325755,7.4498143,27.333542,3.868011,15.000033,5.4269266,-18.385021,23.176647,-46.990547,4.736322,-68.08333,79.0731,-4.3398266,-2.679309,12.334642,-39.123592,-92.43337,82.0424,25.149,-18.153374,-5.393594,13.049076
73,-3.410627603530884,1.7808973789215088,82.07464599609375,3.404431651629594,-1.965841605779561,-87.49638071549187,-22.39843,23.073257,10.56814,56.004906,7.907429,-15.000033,-8.285828,-11.252911,8.619984,25.493526,7.5717025,15.000033,5.8984256,-18.747734,23.049,-46.811234,3.973546,-68.89311,80.88738,-3.9665413,-2.5048907,12.1278515,-47.911186,-91.997345,87.90062,26.280752,-19.665586,-5.4072976,12.465621
74,-3.180976629257202,1.9178701639175415,82.61675262451172,2.7536038198256567,-1.5927708804043814,-89.53401003553032,-21.56914,24.098396,11.200068,54.33136,9.03021,-15.000033,-8.686997,-10.191748,9.272399,23.271685,11.285556,15.000033,5.752654,-18.965652,22.678324,-46.392338,3.421508,-69.357925,82.7177,-3.5264013,-2.3936386,11.982446,-58.539246,-91.180084,94.821175,27.05651,-20.483643,-5.472868,11.835919
75,-2.9265105724334717,2.045318841934204,83.08882141113281,2.084097921067315,-1.2355377565584131,-91.56570971070866,-20.688856,24.979376,11.69356,52.50643,10.171139,-15.000033,-9.220697,-9.299066,9.523063,21.501043,14.425387,15.000033,5.068558,-19.021307,22.190458,-45.782784,3.1078603,-69.56479,84.34029,-3.1052978,-2.3251202,11.878837,-70.38918,-89.926796,102.4263,27.440985,-20.760859,-5.5655684,11.32034
76,-2.635666847229004,2.1645593643188477,83.51272583007812,1.4776164812329333,-0.9214827384801179,-93.52108217169116,-19.704094,25.663284,12.168511,50.546486,11.184487,-15.000033,-10.195105,-8.61697,9.514298,21.103968,16.429667,15.000033,4.026753,-18.91548,21.746716,-45.05868,3.0304391,-69.69645,85.58298,-2.778601,-2.2720141,11.785835,-82.267815,-88.214096,109.719376,27.451715,-20.743761,-5.659168,11.059124
77,-2.3002357482910156,2.2929508686065674,83.9083480834961,0.9437426256107218,-0.6758491098218886,-95.42220933382549,-18.527391,26.10312,12.657041,48.323505,12.095304,-15.000033,-11.737278,-8.092992,9.280965,22.434734,16.946562,15.000033,2.8760698,-18.92115,21.492235,-44.291073,3.1643734,-70.104256,86.64077,-2.5848148,-2.2095013,11.658302,-91.84242,-86.15361,114.14951,27.231888,-20.813457,-5.787505,11.163553
78,-1.9319696426391602,2.4267663955688477,84.25125122070312,0.4347314035493221,-0.4703330156801625,-97.30818802980441,-17.228785,26.347912,13.07973,45.866024,12.961756,-15.000033,-13.73087,-7.655454,8.818247,25.032967,16.358328,15.000033,1.6666139,-19.07295,21.313442,-43.420288,3.4699805,-70.84437,87.61673,-2.5142155,-2.1434352,11.494711,-99.094345,-83.95356,115.707306,26.890528,-20.950283,-5.9498577,11.45891
79,-1.542062520980835,2.544638156890869,84.52597045898438,-0.07616184561588565,-0.2526885906507491,-99.13011969196849,-15.988933,26.498238,13.386261,43.41103,13.692976,-15.000033,-16.085976,-7.312056,8.203947,28.540504,15.283044,15.000033,0.31615865,-19.07175,21.10707,-42.442207,3.9175231,-71.62424,88.27254,-2.4881718,-2.089694,11.328692,-105.72984,-81.681335,116.405525,26.390429,-20.927538,-6.083798,11.707391
80,-1.1494191884994507,2.656454086303711,84.72702026367188,-0.6200166408687718,0.0342207035626694,-100.83630183376566,-14.988303,26.665874,13.542707,41.193367,14.204927,-15.000033,-18.70132,-7.0641966,7.4972258,32.594204,14.3146305,15.000033,-1.1082182,-18.758291,20.845303,-41.419083,4.4835696,-72.31466,88.44463,-2.413546,-2.049996,11.170107,-112.04003,-79.36553,116.73287,25.832228,-20.742992,-6.1340485,11.662701
81,-0.7556316256523132,2.7564423084259033,84.8523941040039,-1.217178042120206,0.40979785207592856,-102.44931340636732,-14.245778,26.869352,13.52153,39.20098,14.400309,-15.000033,-21.668846,-6.9006176,6.705964,37.382423,13.542833,15.000033,-2.5444446,-18.150816,20.553778,-40.37144,5.142624,-72.969154,88.17198,-2.2831528,-2.0285647,11.011451,-118.1892,-77.04372,116.78553,25.278421,-20.459785,-6.049312,11.1192465
82,-0.34454646706581116,2.8492565155029297,84.89739990234375,-1.833393464188236,0.8306918592306219,-103.96785141006848,-13.673285,27.029099,13.354066,37.326744,14.349651,-15.000033,-24.932962,-6.849952,5.8775563,42.917496,12.693312,15.000033,-3.9588807,-17.284973,20.29925,-39.301838,5.872012,-73.69315,87.48391,-2.1351874,-2.0205247,10.841339,-124.156944,-74.78535,116.51194,24.760004,-20.134583,-5.8547597,10.214932
83,0.07180488109588623,2.923905372619629,84.85625457763672,-2.4439272082872496,1.2730139464485877,-105.31499732996927,-13.2942915,27.135036,13.099628,35.663162,14.219446,-15.000033,-28.217209,-6.9480476,5.0737185,48.62735,11.837024,15.000033,-5.2953873,-16.260979,20.077324,-38.262165,6.644389,-74.543175,86.44227,-1.9459136,-2.006058,10.650764,-129.77101,-72.64776,115.949295,24.27616,-19.592556,-5.6313252,9.226482
84,0.4733995199203491,2.9906842708587646,84.73001861572266,-3.0293827933252975,1.7225901212215053,-106.42551629683464,-13.129935,27.193317,12.814481,34.305717,14.1779175,-15.000033,-31.283918,-7.220062,4.305295,53.993652,11.036929,15.000033,-6.4983177,-15.1053915,19.88339,-37.308582,7.43196,-75.544876,85.06039,-1.6915963,-1.9677187,10.436901,-134.7561,-70.68658,115.01225,23.841166,-18.790815,-5.4613667,8.433004
85,0.8628911375999451,3.053690195083618,84.53109741210938,-3.56894568708343,2.217948258331997,-107.26775461824333,-13.274071,27.163876,12.443901,33.273922,14.506786,-15.000033,-34.189182,-7.6687,3.581366,59.06865,10.28476,15.000033,-7.597435,-13.881746,19.663717,-36.434925,8.213277,-76.698685,83.41177,-1.3795538,-1.904833,10.2359085,-139.01193,-68.92747,113.54068,23.467073,-17.634733,-5.390396,7.9473014
86,1.2357648611068726,3.093815565109253,84.26980590820312,-4.081690633089312,2.7604274286687125,-107.88581096580384,-13.679334,27.062237,11.975378,32.5125,15.040792,-15.000033,-37.02763,-8.253132,2.895624,64.093796,9.551943,15.000033,-8.666367,-12.679307,19.37042,-35.60788,8.976528,-77.99067,81.65564,-1.0287416,-1.8301595,10.037832,-142.48117,-67.359604,111.327805,23.196722,-16.353125,-5.38448,7.619994
87,1.5994952917099,3.115960121154785,83.9388427734375,-4.606631163065078,3.2860291287803123,-108.33484674641576,-14.160631,26.990765,11.529068,32.01374,15.271854,-15.000033,-39.641212,-8.956805,2.187036,68.85609,8.868007,15.000033,-9.757688,-11.556256,19.010113,-34.832664,9.719138,-79.38204,79.937454,-0.63680613,-1.7598118,9.781568,-145.06839,-65.956505,108.277374,23.011923,-15.337765,-5.408863,7.3602457
88,1.9538419246673584,3.119128942489624,83.54570770263672,-5.179313431585865,3.7299134284726567,-108.66566590256923,-14.535559,27.056536,11.231103,31.770199,14.689098,-15.000033,-41.871525,-9.783025,1.3868111,73.14104,8.257746,15.000033,-10.88419,-10.490852,18.643398,-34.13347,10.443878,-80.83211,78.29353,-0.18601029,-1.7068198,9.408994,-146.93826,-64.69556,104.593925,22.822113,-14.878592,-5.417291,7.06868
89,2.2887392044067383,3.113173246383667,83.10128784179688,-5.837315517134216,4.0640802928308855,-108.85833546948746,-14.745689,27.362143,11.194098,31.88562,13.006976,-15.000033,-43.676796,-10.789974,0.41735563,76.993805,7.695492,15.000033,-12.018487,-9.358175,18.347708,-33.509872,11.150733,-82.364136,76.604,0.37006313,-1.6406714,8.913958,-148.4013,-63.568695,100.63395,22.53436,-15.014877,-5.393739,6.7022862
90,2.6110219955444336,3.0765938758850098,82.59928894042969,-6.545378929337404,4.327425982513957,-108.89216001358737,-14.880256,27.850397,11.359848,32.329792,10.533645,-15.000033,-45.12572,-11.978282,-0.68635184,80.51935,7.1671004,15.000033,-13.137231,-8.11833,18.1284,-32.959442,11.838177,-83.97935,74.78104,1.0169433,-1.568966,8.3336,-149.64851,-62.579712,96.571175,22.1138,-15.496734,-5.3493056,6.3127465
91,2.9282658100128174,3.0150716304779053,82.03598022460938,-7.23117780993774,4.557616669345656,-108.81838995234023,-14.990014,28.386255,11.584486,32.896706,7.653685,-15.000033,-46.23535,-13.270181,-1.8301204,83.57813,6.7213798,15.000033,-14.206508,-6.8441505,17.945467,-32.531822,12.510205,-85.66568,72.86253,1.6603951,-1.5665019,7.667352,-150.72723,-61.738697,92.46159,21.548561,-16.132172,-5.270877,5.9244714
92,3.2360620498657227,2.927546262741089,81.45314025878906,-7.825427923540645,4.7989086912976076,-108.69182098093499,-15.146408,28.813885,11.681625,33.380142,4.762455,-15.000033,-47.052425,-14.583428,-2.9190114,86.02684,6.4190254,15.000033,-15.210665,-5.6237497,17.736614,-32.278854,13.174383,-87.39613,70.910545,2.2105339,-1.706832,6.916162,-151.64647,-61.058662,88.298775,20.830053,-16.747953,-5.1514287,5.5722513
93,3.540201187133789,2.8279049396514893,80.8609390258789,-8.298841337398294,5.069099287676899,-108.48729276827916,-15.342199,29.044056,11.555378,33.652565,1.8130205,-15.000033,-47.59011,-16.020145,-3.9617703,87.83687,6.2930803,15.000033,-16.164938,-4.4745994,17.489206,-32.23939,13.834934,-89.18882,68.91013,2.6549602,-2.0213678,6.041507,-152.4073,-60.55247,84.010124,19.937597,-17.348272,-4.9618692,5.3016186
94,3.8241817951202393,2.7259445190429688,80.27767181396484,-8.690039771498576,5.349743764893185,-108.1928351212817,-15.576189,29.16198,11.277042,33.86695,-1.3510504,-15.000033,-47.841137,-17.58831,-5.016431,89.09239,6.316404,15.000033,-17.062119,-3.3607807,17.227507,-32.400486,14.491446,-91.06535,66.83826,3.0334206,-2.46591,5.0604906,-153.03822,-60.232197,79.618126,18.840633,-17.99652,-4.716415,5.095495
95,4.08951997756958,2.630620241165161,79.705810546875,-9.03869749842404,5.63310828823771,-107.88765433424471,-15.938216,29.27015,10.89593,34.239147,-4.497217,-15.000033,-47.842255,-19.057322,-6.065596,89.809425,6.466076,15.000033,-17.848719,-2.279015,16.93792,-32.746887,15.141528,-92.993324,64.74487,3.3407645,-2.9951727,4.0558763,-153.56439,-60.112,75.24679,17.523323,-18.602581,-4.476775,4.8973966
96,4.311714172363281,2.527517318725586,79.14155578613281,-9.387744977363678,5.910438574551125,-107.65148267485542,-16.503954,29.483404,10.488004,34.973625,-7.396328,-15.000033,-47.633118,-20.192715,-7.0902905,89.9997,6.7158403,15.000033,-18.461082,-1.213208,16.615345,-33.274696,15.780253,-94.94243,62.67095,3.5723352,-3.56264,3.1092417,-153.99013,-60.20756,71.01664,15.975197,-19.068705,-4.3057227,4.651022
97,4.504243850708008,2.420637369155884,78.57913970947266,-9.785871237768369,6.2100002405028025,-107.51471316682304,-17.412823,29.876598,9.989564,36.237442,-10.004907,-15.000033,-47.237263,-20.86083,-8.085072,89.549835,7.1858454,15.000033,-18.837631,-0.099027395,16.263987,-34.069706,16.397366,-96.99145,60.616142,3.6873975,-4.2013597,2.1873198,-154.278,-60.52813,66.90597,14.18526,-19.325418,-4.2236238,4.354795
98,4.659779071807861,2.3154518604278564,78.02347564697266,-10.201672915261215,6.526080572183769,-107.43734611612635,-18.586536,30.375393,9.384248,37.883022,-12.448325,-15.000033,-46.644127,-21.203531,-9.0602,88.49298,7.846368,15.000033,-18.986559,1.0362744,15.894411,-35.15792,16.977804,-99.14191,58.56439,3.703091,-4.914111,1.2631737,-154.4159,-61.07546,62.83234,12.1560135,-19.406622,-4.2004733,4.046557
99,4.778607368469238,2.2197515964508057,77.49658966064453,-10.558922057314204,6.797637113004107,-107.3893710249809,-19.749823,30.880602,8.845297,39.616344,-14.74003,-15.000033,-45.841095,-21.395052,-10.016795,87.06201,8.441305,15.000033,-18.951744,2.0799568,15.521709,-36.44052,17.506563,-101.24205,56.53517,3.7095861,-5.6103725,0.42607716,-154.4242,-61.848896,58.81218,9.9045315,-19.362152,-4.2242203,3.7309544
100,4.854190349578857,2.1308906078338623,76.98632049560547,-10.781916934010184,6.9639744906034355,-107.33837547170472,-20.628513,31.303282,8.553181,41.16195,-16.899376,-15.000033,-44.810406,-21.608063,-10.96891,85.490234,8.720007,15.000033,-18.781723,2.9243972,15.164197,-37.801716,17.97356,-103.145226,54.553955,3.7994978,-6.2042727,-0.23667113,-154.31891,-62.83964,54.86726,7.4514747,-19.238909,-4.282526,3.411082
101,4.88383674621582,2.0357167720794678,76.49443054199219,-10.869251428231543,7.005471525531232,-107.25412897091924,-21.142845,31.664244,8.605704,42.44299,-18.964674,-15.000033,-43.471622,-21.840221,-11.957027,83.72078,8.517666,15.000033,-18.463161,3.5670376,14.841751,-39.286137,18.37011,-104.93167,52.63572,3.9974077,-6.6923714,-0.66983145,-154.0883,-64.02582,51.026203,4.7826295,-19.197397,-4.363312,3.1212356
102,4.868133544921875,1.944320797920227,76.02320098876953,-10.857961023729624,6.953755920108428,-107.1616327687697,-21.426065,32.006702,8.904097,43.604443,-20.914303,-15.000033,-41.857758,-21.998583,-12.967475,81.66519,8.002304,15.000033,-17.954248,4.0587325,14.549207,-40.940636,18.685848,-106.64704,50.777218,4.2643366,-7.1151824,-0.9414621,-153.71484,-65.37186,47.244545,1.9403299,-19.13488,-4.473496,2.8430502
103,4.817880153656006,1.843634009361267,75.57964324951172,-10.714789941605916,6.832998746436343,-107.10505706569332,-21.517857,32.25533,9.347911,44.6832,-22.659702,-15.000033,-40.127743,-22.143047,-13.939132,79.51343,7.4228435,15.000033,-17.274593,4.3638344,14.257895,-42.62811,18.918385,-108.10026,48.984528,4.589897,-7.4566135,-1.1516054,-153.20766,-66.832016,43.443592,-0.96277463,-18.709064,-4.6313314,2.4961066
104,4.733081817626953,1.7441743612289429,75.15833282470703,-10.385609581941262,6.677795184855187,-107.11845131930647,-21.477436,32.278183,9.8359785,45.715565,-24.109798,-14.782783,-38.45906,-22.369799,-14.799375,77.46893,7.0243034,15.000033,-16.453173,4.4321437,13.925221,-44.201607,19.077778,-109.111046,47.258976,4.9520373,-7.701749,-1.3970959,-152.58058,-68.34843,39.55043,-3.7996767,-17.586838,-4.860162,1.9991385
105,4.616339683532715,1.64312744140625,74.77085876464844,-9.966615469345475,6.465059453901523,-107.24667263786465,-21.24368,32.228043,10.345257,46.64617,-25.326374,-14.742739,-36.804237,-22.558723,-15.677863,75.462364,7.233208,15.000033,-15.429714,4.345198,13.572603,-45.598446,19.178381,-109.55987,45.558933,5.3323817,-7.8228807,-1.6565124,-151.8521,-69.87333,35.550426,-6.5794683,-16.075031,-5.061545,1.4173152
106,4.469083786010742,1.553102970123291,74.41098022460938,-9.452390595760532,6.188878242146149,-107.46262598858453,-20.813847,32.114323,10.930245,47.47792,-26.327908,-14.861164,-35.10546,-22.69931,-16.564009,73.42962,7.793745,15.000033,-14.211557,4.0984826,13.213577,-46.888443,19.231825,-109.57828,43.87827,5.730751,-7.8364353,-1.8913585,-151.03073,-71.354744,31.507128,-9.262911,-14.250255,-5.262883,0.7532611
107,4.291006088256836,1.4773544073104858,74.08375549316406,-8.82735189991022,5.829523480029607,-107.77654526820292,-20.281433,31.920311,11.532749,48.394302,-26.993744,-15.000033,-33.366146,-22.832912,-17.331425,71.50272,7.9402685,15.000033,-12.855539,3.6694472,12.899782,-48.12116,19.247562,-109.36787,42.253136,6.1448016,-7.7936964,-2.1700313,-150.14188,-72.71277,27.494833,-11.624377,-11.435416,-5.71097,-0.16357848
108,4.111391067504883,1.4082247018814087,73.7822494506836,-8.050417817206704,5.378482768586661,-108.1904009906453,-19.742794,31.589197,12.107056,49.562042,-27.19468,-15.000033,-31.606234,-23.05227,-17.859821,69.82031,6.9057193,15.000033,-11.441678,3.0211577,12.666085,-49.335625,19.233719,-109.12116,40.727352,6.5750666,-7.747923,-2.5591483,-149.23553,-73.85036,23.602833,-13.434312,-6.940164,-6.7082424,-1.4701992
109,3.9119019508361816,1.3488692045211792,73.52157592773438,-7.008171981104885,4.8187624964936395,-108.68892732768671,-19.073406,30.98395,12.781244,50.918587,-26.951078,-15.000033,-29.741674,-23.520334,-18.162302,68.45368,4.089271,15.000033,-9.995224,2.0533514,12.506954,-50.490955,19.201328,-108.794266,39.246975,7.04298,-7.6971884,-3.1336656,-148.36925,-74.691246,19.834013,-14.62557,0.13638987,-8.6501255,-3.1170342
110,3.687500476837158,1.3079712390899658,73.31230163574219,-5.895797490947506,4.216860921136185,-109.40033330215589,-18.35733,30.373081,13.548386,52.437653,-26.313517,-15.000033,-27.771797,-24.183619,-18.713558,67.235756,0.07008867,14.385459,-8.414636,0.9544606,12.395503,-51.54496,19.161594,-108.2822,37.816742,7.5492215,-7.6203775,-3.8323708,-147.58356,-75.20716,16.229755,-15.243156,9.1663265,-11.487731,-4.750413
111,3.4332971572875977,1.2896242141723633,73.14429473876953,-4.878734096393709,3.618522368077781,-110.33704606804734,-17.851162,29.984922,14.196644,54.262184,-25.175886,-15.000033,-25.880701,-24.833534,-19.538422,66.07282,-4.25295,12.787737,-6.751417,-0.08999716,12.357589,-52.55609,19.120718,-107.70087,36.527626,8.058297,-7.541498,-4.512361,-147.08827,-75.37022,13.144794,-15.177646,18.562143,-14.805559,-6.145495
112,3.174018383026123,1.2991087436676025,72.99771118164062,-3.9991214678190894,3.0186156457653417,-111.41797160239655,-17.72068,29.86521,14.531966,56.507874,-23.44001,-15.000033,-24.319853,-25.133116,-19.955359,64.92128,-7.987368,11.581432,-5.153423,-1.0440735,12.433612,-53.56507,19.075872,-107.17281,35.53746,8.529311,-7.482401,-5.0394125,-146.70305,-75.26338,10.484587,-14.50233,26.857983,-18.086052,-7.3275
113,2.9248046875,1.3297287225723267,72.88391876220703,-3.2543979574106108,2.431053875494588,-112.66308432250325,-18.08266,30.055645,14.497224,59.359367,-20.8291,-15.000033,-23.157059,-25.125204,-19.936275,63.768124,-11.051221,10.765957,-3.6751926,-1.9077477,12.583966,-54.55223,19.012873,-106.70937,34.973034,8.965632,-7.441828,-5.3837075,-146.06543,-74.82087,7.7640386,-13.381858,34.183296,-21.440218,-8.489248
114,2.6882262229919434,1.3836798667907715,72.81047821044922,-2.5587828864957456,1.845401775975569,-114.05528688090132,-18.783201,30.41513,14.24667,62.65968,-17.454329,-15.000033,-22.280466,-24.956985,-19.588146,62.652065,-13.872673,10.162717,-2.190629,-2.695813,12.796724,-55.558243,18.939447,-106.29418,34.641026,9.380556,-7.4072733,-5.6100855,-145.74406,-74.08992,5.6149464,-11.63061,41.291172,-25.10379,-9.588505
115,2.4878790378570557,1.4553574323654175,72.77056121826172,-1.912782772034457,1.2422337990956995,-115.52457881450313,-19.64461,30.83053,13.840176,66.04818,-13.781863,-15.000033,-21.592264,-24.689192,-19.010967,61.616745,-16.303963,9.681111,-0.8343127,-3.4238925,13.073598,-56.485535,18.85969,-105.83572,34.539516,9.760969,-7.3882623,-5.729044,-145.54291,-73.10885,3.9821281,-9.28441,47.614952,-28.55434,-10.484433
116,2.3036344051361084,1.536120057106018,72.75923156738281,-1.3274195395994386,0.5965941735707885,-117.01024768723576,-20.498959,31.190842,13.280471,69.18405,-10.279281,-15.000033,-20.992945,-24.363438,-18.29788,60.70996,-18.198378,9.217147,0.29770502,-4.081468,13.422198,-57.264244,18.783844,-105.254524,34.627472,10.0931425,-7.3941193,-5.748516,-145.38544,-71.92041,2.9504943,-6.358064,52.448174,-31.206614,-11.251626
117,2.1497178077697754,1.6143248081207275,72.76791381835938,-0.8523694525119685,-0.1105249651586472,-118.53592499119652,-21.503494,31.451254,12.233723,72.1639,-6.758959,-15.000033,-20.51788,-23.94348,-17.45367,60.04057,-19.439537,8.664331,1.2557307,-4.5878243,13.872226,-57.92084,18.716614,-104.50299,34.896057,10.387708,-7.4325185,-5.6124973,-145.31139,-70.52952,2.506124,-2.7776406,54.703064,-32.791443,-12.622448
118,2.032440423965454,1.676140308380127,72.80642700195312,-0.4461885582458949,-0.8612817031388607,-120.11667492879737,-22.696436,31.56861,10.752166,75.08839,-3.0272517,-15.000033,-20.200306,-23.46145,-16.44388,59.57525,-20.14401,8.055625,2.0862095,-4.9694915,14.407872,-58.50781,18.659569,-103.63825,35.3427,10.650855,-7.4943275,-5.3335323,-145.3286,-68.93753,2.5927007,1.3857565,54.94753,-33.590786,-14.659171
119,1.9675629138946533,1.730221152305603,72.88326263427734,-0.012292662266536783,-1.6338049709972038,-121.69827895809556,-23.727299,31.54499,9.391859,77.6705,0.4174645,-15.000033,-19.93336,-23.018867,-15.301616,59.146442,-20.51185,7.4920692,2.709984,-5.3569474,14.982661,-59.000065,18.620615,-102.740295,35.925743,10.86087,-7.564518,-5.0234766,-145.36041,-67.19811,3.2838533,5.920754,54.939056,-33.861706,-16.420599
120,1.9504209756851196,1.7675457000732422,72.99888610839844,0.5136687628439097,-2.4129428372159785,-123.24251009009119,-24.251265,31.522045,8.696989,79.67115,3.0147707,-15.000033,-19.601307,-22.676287,-14.062195,58.578083,-20.735416,7.082912,3.0746696,-5.8641763,15.562982,-59.375748,18.610426,-101.90241,36.59458,10.992321,-7.6285677,-4.797203,-145.37814,-65.40106,4.6942964,10.6750145,56.48221,-33.958107,-16.896917
121,1.9733002185821533,1.7928287982940674,73.15884399414062,1.1479792460850278,-3.231400423768637,-124.71557679029277,-24.151648,31.62109,8.787232,81.063095,4.4435067,-15.000033,-19.14486,-22.459917,-12.72425,57.870865,-20.844374,6.863693,3.1710217,-6.527695,16.182438,-59.665108,18.631794,-101.17338,37.308548,10.993601,-7.662938,-4.714973,-145.4674,-63.617416,6.905927,15.916606,60.74015,-33.886265,-15.428643
122,2.030196189880371,1.8057571649551392,73.36536407470703,1.832047772047414,-4.089524995467892,-126.1677343336128,-23.611454,31.837507,9.344657,82.00431,5.020484,-15.000033,-18.624846,-22.301443,-11.280581,57.09774,-20.737133,6.7552567,3.0936015,-7.276271,16.86828,-59.90053,18.6815,-100.52816,38.07638,10.888764,-7.6810102,-4.7103195,-145.65675,-61.877842,9.872443,21.615026,66.49038,-33.30926,-12.805563
123,2.1288344860076904,1.7936984300613403,73.62741088867188,2.5196479922993844,-4.925317408937177,-127.68620143347628,-22.714632,32.220097,10.340231,82.52767,5.138162,-14.838165,-18.083973,-22.11178,-9.763804,56.165684,-20.40182,6.6983004,2.930441,-8.074232,17.575,-60.05055,18.76278,-99.945526,38.932045,10.763227,-7.7241015,-4.7092133,-145.84244,-60.217125,13.525176,27.206903,71.94805,-32.236477,-10.161641
124,2.2625372409820557,1.7479311227798462,73.94901275634766,3.2347733198293223,-5.652045581258378,-129.30488731360816,-21.517773,32.93929,12.066193,82.65015,5.20196,-13.787699,-17.596577,-21.90836,-8.19163,55.002617,-19.834015,6.662733,2.7059639,-8.966973,18.23235,-60.07696,18.886099,-99.40443,39.91578,10.703928,-7.8337545,-4.637803,-145.9256,-58.68036,17.819523,32.17232,75.45677,-30.958332,-8.447411
125,2.42067813873291,1.6816155910491943,74.3292007446289,3.979918837488558,-6.28342351543801,-131.02096862046335,-19.972721,33.821754,14.375108,82.36779,5.205774,-12.472628,-17.074741,-21.705227,-6.613507,53.543564,-19.114851,6.6089997,2.3835196,-10.002887,18.835276,-59.958096,19.063547,-98.93954,41.055702,10.750993,-8.040243,-4.478434,-145.84651,-57.328213,23.004826,36.678047,76.6175,-29.572092,-7.7768865
126,2.59134840965271,1.616956114768982,74.76248168945312,4.712962931222729,-6.862327098962345,-132.83991560455732,-17.997171,34.809174,17.212242,81.69161,4.9320087,-11.033955,-16.485392,-21.444378,-5.0109844,51.832718,-18.21955,6.552113,1.9730091,-11.123954,19.415361,-59.710014,19.299868,-98.53997,42.314266,10.852276,-8.314121,-4.269391,-145.78145,-56.209076,29.128143,40.96581,76.378716,-28.065817,-7.566804
127,2.7777726650238037,1.5503511428833008,75.2519760131836,5.419643874734348,-7.340716330519103,-134.77795992827882,-15.779556,35.57407,20.21989,80.623634,4.5255527,-9.8196945,-15.998152,-21.083206,-3.3023562,50.00815,-17.013483,6.5440745,1.5128174,-12.279602,19.928717,-59.33666,19.596413,-98.12167,43.649147,10.953826,-8.607876,-4.0217724,-145.9158,-55.32219,35.799744,44.64353,75.25855,-26.663702,-7.5323567
128,2.9796786308288574,1.4681724309921265,75.79844665527344,6.072252096750912,-7.671599967417746,-136.85309659567088,-13.57956,35.853546,22.987576,79.15097,4.171466,-9.145585,-15.767833,-20.562935,-1.408592,48.198578,-15.358214,6.632632,1.0447383,-13.425512,20.338976,-58.84558,19.953667,-97.61165,45.0294,10.999268,-8.873223,-3.750472,-146.28033,-54.615623,42.513798,47.249516,73.73436,-25.550236,-7.432106
129,3.2219789028167725,1.3684635162353516,76.38615417480469,6.66868313828197,-7.857190095755169,-139.09390207284946,-11.417328,35.59542,25.457651,77.16232,3.927005,-9.081652,-15.797375,-19.864786,0.8109191,46.385098,-13.173027,6.7958646,0.57575935,-14.612577,20.660282,-58.236,20.377422,-97.025024,46.49096,10.958916,-9.089959,-3.4465137,-146.69695,-54.042027,49.46239,48.583286,71.7416,-24.825048,-7.1906905
130,3.502852201461792,1.265693187713623,76.99341583251953,7.2018955279422405,-7.921164815015827,-141.4816435463816,-9.250017,34.960384,27.764412,74.68492,3.718132,-9.445659,-15.984419,-19.02205,3.2929318,44.52085,-10.5596075,7.0352764,0.08006232,-15.829543,20.904905,-57.50185,20.872171,-96.3765,48.020878,10.868361,-9.285016,-3.1045256,-147.21587,-53.576405,56.845318,48.976,69.07844,-24.397345,-6.916961
131,3.8248021602630615,1.1500028371810913,77.6034927368164,7.635616422132849,-7.850123978256979,-143.96743223865917,-7.260531,34.086853,29.771807,71.91875,3.5350235,-10.140799,-16.333061,-18.045698,5.8250494,42.691544,-7.650687,7.4452095,-0.43520048,-16.954468,21.044985,-56.64844,21.434725,-95.61134,49.52853,10.772302,-9.480901,-2.7518845,-147.97392,-53.171364,63.961002,48.64996,65.98611,-24.11026,-6.6975937
132,4.182112216949463,1.0204646587371826,78.20025634765625,7.929387550595918,-7.636962034237418,-146.5005971023333,-5.5972834,33.120117,31.371317,69.05084,3.3733127,-11.073779,-16.843765,-16.936539,8.192805,40.940536,-4.5561852,8.121491,-0.98912764,-17.902905,21.038164,-55.67363,22.065216,-94.68681,50.9602,10.707511,-9.7003355,-2.423003,-148.94966,-52.779987,69.91901,47.740414,62.69424,-23.754597,-6.6077
133,4.568875789642334,0.8742316365242004,78.77362823486328,8.044568231734456,-7.2733935005228725,-149.10395173793466,-4.272369,32.086716,32.549675,66.014046,3.2109296,-12.261455,-17.554712,-15.460192,10.759463,39.134094,-0.9200926,9.240086,-1.6234406,-18.683434,20.839962,-54.56519,22.775349,-93.54639,52.407448,10.666031,-9.967101,-2.1258242,-150.05336,-52.373333,74.414795,46.017498,59.547855,-23.264967,-6.52743
134,4.96150016784668,0.7184314727783203,79.30707550048828,7.980679020749023,-6.790267118962959,-151.7948244023487,-3.1755662,31.008432,33.37079,62.747967,3.0309315,-13.691456,-18.389557,-13.697232,13.587064,37.22525,3.163148,10.815575,-2.3371096,-19.334589,20.480782,-53.306087,23.580614,-92.20011,53.86184,10.6563425,-10.261251,-1.846412,-151.1404,-51.93665,77.82302,43.42132,56.306614,-22.697569,-6.4661226
135,5.360845565795898,0.5484277606010437,79.78099822998047,7.9236730165165925,-6.1682705861338265,-154.39506667041684,-2.3264928,29.834845,34.007076,59.39684,2.8751264,-15.000033,-19.385717,-12.325347,15.9734535,35.487698,6.8949127,12.650648,-3.2465346,-19.991785,19.918682,-51.892387,24.487432,-90.71646,55.138912,10.715469,-10.541851,-1.5864466,-152.11768,-51.467148,80.25295,40.350548,52.33759,-21.986925,-6.651606
136,5.753662586212158,0.35541200637817383,80.18211364746094,7.860999790386082,-5.469565544814565,-156.90738331301796,-1.5596845,28.82814,34.878895,56.180046,2.7641728,-15.000033,-20.522566,-11.661731,17.06429,34.12614,9.640154,14.317237,-4.282811,-20.557198,19.235588,-50.396957,25.494097,-89.258766,56.082115,10.743774,-10.769234,-1.3567549,-152.93532,-50.979076,81.79984,37.212223,47.005375,-21.036022,-7.2795324
137,6.120382785797119,0.13660727441310883,80.51881408691406,7.758636276630437,-4.702296502610062,-159.42318923122477,-0.9433334,27.794914,35.53942,53.018948,2.775221,-15.000033,-21.860836,-11.91615,15.8834095,33.061737,11.189063,15.000033,-5.4226117,-20.999979,18.402824,-48.765553,26.606155,-87.750824,56.69944,10.726592,-10.938969,-1.1725781,-153.62144,-50.503956,82.23766,33.898415,39.382656,-19.60806,-8.455383
138,6.4772868156433105,-0.08387099206447601,80.82157135009766,7.412632720707238,-3.8667406373037827,-161.98818642612582,-0.5309741,26.969202,35.901157,49.94285,2.8456721,-15.000033,-23.301453,-12.6187725,12.82608,32.1053,12.088786,15.000033,-6.6569066,-21.143124,17.416689,-46.909958,27.834707,-86.04425,57.073063,10.787567,-11.070159,-1.0212386,-154.22499,-50.077858,81.6434,30.219748,30.107275,-17.657759,-9.866835
139,6.8312578201293945,-0.3192395865917206,81.06903076171875,7.001861263926972,-3.0090779320745695,-164.50037068906025,-0.3358854,26.137754,35.840893,47.032364,2.9039748,-15.000033,-24.876747,-13.439111,9.3750515,31.78245,12.587243,15.000033,-7.9957786,-21.148092,16.35196,-44.951145,29.177372,-84.34126,57.16364,10.887405,-11.16301,-0.8826653,-154.75714,-49.723,80.575806,26.506445,20.91045,-15.467982,-11.143336
140,7.177457332611084,-0.5719593167304993,81.24944305419922,6.555837704358694,-2.191238484776227,-166.85763124273961,-0.39259636,25.31373,35.182537,44.465973,2.8554013,-15.000033,-26.652975,-14.030162,6.681281,32.522068,12.943991,15.000033,-9.410486,-21.028288,15.33896,-43.069386,30.611694,-82.936455,56.935875,10.909883,-11.220285,-0.7387501,-155.23589,-49.444004,79.5805,23.107737,13.428177,-13.445985,-12.12413
141,7.513108730316162,-0.8453799486160278,81.35884094238281,6.084889967908332,-1.407932164591178,-169.08088462815115,-0.700418,24.476166,33.873135,42.268734,2.649675,-15.000033,-28.780073,-14.312867,5.025611,34.571762,13.130837,15.000033,-10.876214,-20.787079,14.40748,-41.221424,32.10706,-81.8045,56.415184,10.898157,-11.242145,-0.5752229,-155.64926,-49.24294,78.65795,20.045618,8.004318,-11.701369,-13.019125
142,7.824431896209717,-1.1526691913604736,81.4004898071289,5.583773825339161,-0.6516843549576911,-171.1976315801964,-1.2083526,23.609564,32.042297,40.364647,2.3435712,-15.000033,-31.181448,-14.523123,3.863504,37.663483,12.998247,15.000033,-12.403294,-20.429035,13.521144,-39.36329,33.642406,-80.85232,55.64441,10.860115,-11.231044,-0.40504083,-156.0195,-49.13029,77.57116,17.150442,3.708854,-10.055579,-13.950782
143,8.113073348999023,-1.469017505645752,81.36980438232422,5.042947473945232,0.029395245915524046,-173.11208850112527,-1.8867891,22.786837,29.822657,38.81144,2.0182047,-15.000033,-33.629406,-14.748377,3.0894845,41.40441,12.648469,15.000033,-13.992359,-19.958591,12.7224865,-37.591,35.20112,-80.16163,54.615616,10.789902,-11.191722,-0.23976545,-156.39348,-49.119434,76.49007,14.4898405,0.17113441,-8.531163,-14.77656
144,8.399625778198242,-1.7738620042800903,81.2608642578125,4.394167118798152,0.610851334267029,-174.75549982400625,-2.7500994,22.175793,27.335648,37.713825,1.7367219,-15.000033,-35.90369,-15.107155,2.26437,45.377502,12.223136,14.402809,-15.602415,-19.319115,12.061136,-36.018288,36.762985,-79.84225,53.32358,10.677827,-11.128797,-0.0891641,-156.81242,-49.22368,75.60555,12.148485,-2.9445155,-7.1769814,-15.331701
145,8.664510726928711,-2.070777654647827,81.07899475097656,3.640471428452465,1.0972367819109672,-176.06248196313308,-3.9345188,21.731014,24.387129,37.150276,1.6460056,-15.000033,-38.038403,-15.48726,1.6055536,49.724445,11.713997,13.472194,-17.2607,-18.509312,11.561874,-34.68115,38.31068,-80.082886,51.746815,10.494288,-11.026348,0.076526634,-157.28564,-49.454422,75.01249,10.198792,-5.5402875,-6.047109,-15.603662
146,8.914199829101562,-2.376222848892212,80.82067108154297,2.853559665295543,1.5069632355309863,-177.07516189061042,-5.385703,21.29702,21.014412,37.044052,1.6715564,-15.000033,-40.12601,-15.805308,1.3351365,54.579807,11.081446,12.621991,-18.949852,-17.593449,11.206571,-33.588596,39.705315,-80.84763,50.050022,10.252779,-10.8980665,0.25971696,-157.77745,-49.790302,74.621765,8.604511,-7.52586,-5.127507,-15.734185
147,9.14194393157959,-2.67216157913208,80.48374938964844,2.0325750390528015,1.8558278101511805,-177.90136539793116,-6.878952,20.950361,17.667341,37.275204,1.5437827,-15.000033,-42.034344,-16.258097,1.0372537,59.52282,10.41197,11.747659,-20.573269,-16.573723,10.977307,-32.75777,40.883137,-81.861145,48.36902,10.021229,-10.786183,0.40962,-158.25635,-50.194885,74.32175,7.291939,-9.22375,-4.380944,-15.7569685
148,9.343988418579102,-2.969834089279175,80.07146453857422,1.1794388115844479,2.1601275718667456,-178.63942024361018,-8.221655,20.803919,14.770515,37.722363,0.9935072,-15.000033,-43.632023,-17.148355,0.30595225,64.15089,9.76797,10.67132,-22.068995,-15.475726,10.861244,-32.193554,41.954975,-82.85855,46.68645,9.824829,-10.713805,0.47392973,-158.69621,-50.69569,73.96904,6.1342635,-10.94382,-3.7647374,-15.693793
149,9.529861450195312,-3.250338077545166,79.5928726196289,0.2502977249931664,2.4236736727477295,-179.24309088241924,-9.528167,20.979355,12.266681,38.49365,0.011606324,-15.000033,-44.864506,-18.755539,-1.1159594,68.53091,9.103331,9.186625,-23.478064,-14.2257395,10.865208,-31.845755,42.84957,-83.7777,45.024376,9.713421,-10.701955,0.40705106,-159.12436,-51.243607,73.637764,5.2032795,-12.825312,-3.285758,-15.554073
150,9.688921928405762,-3.506770372390747,79.08245086669922,-0.7351053231805891,2.6505120375942095,-179.66296452666717,-10.892167,21.379204,9.946871,39.580162,-1.2784535,-15.000033,-45.744873,-20.9524,-2.9622018,72.8384,8.359132,7.383626,-24.84908,-12.8715925,11.00801,-31.72618,43.70365,-84.80772,43.23873,9.628374,-10.719296,0.25680548,-159.52672,-51.91259,73.32901,4.480955,-14.678188,-2.9626677,-15.334382
151,9.829582214355469,-3.7757139205932617,78.50469207763672,-1.6815357526256827,2.8516612706062268,-179.99652680578365,-12.0886,21.851398,8.017807,40.697384,-2.957532,-15.000033,-46.269928,-23.42697,-4.8438544,76.84723,7.587949,5.5279746,-26.118988,-11.499358,11.237632,-31.824598,44.43595,-85.84455,41.512386,9.604983,-10.765956,0.08243904,-159.85933,-52.63012,72.89876,3.9043958,-16.327818,-2.775133,-15.04791
152,9.938408851623535,-4.063878059387207,77.8903579711914,-2.487867160896474,3.033286224625255,179.6446076282285,-12.873197,22.280508,6.723589,41.583435,-5.104395,-15.000033,-46.51438,-25.796768,-6.371745,80.32055,6.889487,3.920577,-27.16633,-10.253356,11.507635,-32.232033,45.168064,-86.93452,39.84366,9.587861,-10.82157,-0.035990264,-160.04834,-53.529987,72.14376,3.264734,-17.598593,-2.7090228,-14.66847
153,10.018912315368652,-4.381174564361572,77.25354766845703,-3.066889882221292,3.146248003041647,179.29839810857115,-13.036148,22.6165,6.2579284,42.164623,-7.994623,-15.000033,-46.53661,-28.15867,-7.4090548,83.318825,6.3298097,2.6111062,-28.039984,-9.202448,11.813799,-32.964127,45.858013,-87.95677,38.240852,9.666383,-10.891276,-0.12644252,-160.08594,-54.61796,70.970665,2.5563297,-18.388163,-2.805578,-14.1381035
154,10.075182914733887,-4.7063889503479,76.60546112060547,-3.4729858584832685,3.205558231746356,178.99808019178082,-12.759369,22.950768,6.4381595,42.597416,-11.489427,-15.000033,-46.329704,-30.594095,-8.17144,85.926346,5.88166,1.4937077,-28.784628,-8.30253,12.175803,-33.99139,46.507717,-88.91947,36.68335,9.836158,-10.976794,-0.21443935,-159.97089,-55.979668,69.39993,1.742827,-18.786951,-3.061911,-13.4691
155,10.100323677062988,-5.002077102661133,75.98820495605469,-3.8311891066428254,3.3149482181346994,178.6111513969736,-12.376328,23.390951,6.968254,42.968662,-15.048615,-15.000033,-45.943317,-32.638645,-8.797456,87.940025,5.54629,0.6747417,-29.331064,-7.4701843,12.572263,-35.20986,47.12573,-89.78879,35.30538,10.041585,-11.071668,-0.2552149,-159.65282,-57.7642,67.38309,0.60594577,-18.892971,-3.3934689,-12.771441
156,10.097365379333496,-5.238120079040527,75.41984558105469,-4.28460849161605,3.5745859500762562,177.99863326550658,-12.198936,24.071442,7.6040916,43.352913,-18.164007,-15.000033,-45.425194,-33.82571,-9.437864,89.16775,5.3080635,0.25049582,-29.582169,-6.5172195,12.941142,-36.48883,47.590675,-90.53741,34.29259,10.213486,-11.180134,-0.20608349,-159.16779,-59.709976,65.04609,-0.7170771,-18.855541,-3.707386,-12.2015705
157,10.070260047912598,-5.401311874389648,74.91775512695312,-4.934208499383327,4.0590709348029215,177.09152491973953,-12.297798,25.148634,8.424582,43.71418,-20.817541,-15.000033,-44.8249,-33.887608,-10.10742,89.47878,5.15636,0.2884271,-29.45972,-5.3077507,13.241001,-37.825512,47.86565,-91.11865,33.737305,10.335944,-11.309034,-0.011634801,-158.50548,-61.702286,62.35691,-2.1662874,-18.733313,-3.9517484,-11.796455
158,10.0286283493042,-5.486241340637207,74.5019760131836,-5.699750911775595,4.6902653555213005,175.9646662565201,-12.47188,26.525095,9.559866,44.025272,-23.264477,-15.000033,-44.15624,-33.11902,-10.715983,89.00736,5.0959296,0.7125051,-28.967825,-3.921917,13.460169,-39.291656,47.95409,-91.58406,33.538147,10.424736,-11.463157,0.2766729,-157.67677,-63.701996,59.35382,-3.6350772,-18.466951,-4.1733356,-11.512021
159,9.962973594665527,-5.516330718994141,74.1484375,-6.458810208573761,5.334952965457107,174.69514760778776,-12.613427,27.974152,10.857708,44.357384,-25.419655,-15.000033,-43.39326,-31.911053,-11.265113,87.963326,5.1201663,1.3839599,-28.18931,-2.5422835,13.614456,-40.843853,47.864025,-92.02292,33.569294,10.466783,-11.621467,0.55559444,-156.72638,-65.66774,56.16172,-5.01909,-18.031776,-4.4345098,-11.362549
160,9.866941452026367,-5.50327730178833,73.8302993774414,-7.084377535061009,5.871727541342061,173.3654783431832,-12.645352,29.26267,12.128331,44.78469,-27.180046,-15.000033,-42.493317,-30.642365,-11.782535,86.55914,5.228913,2.1711192,-27.205599,-1.334591,13.729632,-42.45979,47.61705,-92.55342,33.68279,10.441452,-11.76827,0.72576433,-155.70253,-67.55955,52.923965,-6.2298455,-17.402771,-4.8014326,-11.353205
161,9.769186973571777,-5.455175876617432,73.54029083251953,-7.566111774310748,6.281897401919926,171.9319663509365,-12.509223,30.380058,13.4011345,45.289764,-28.526514,-15.000033,-41.478226,-29.27265,-12.2559185,84.7266,5.758519,3.0658987,-25.970259,-0.30408135,13.822856,-44.129227,47.226383,-93.16145,33.885914,10.295544,-11.91682,0.7516993,-154.60924,-69.33653,49.66415,-7.2409196,-16.546814,-5.3347673,-11.5345125
162,9.678675651550293,-5.3606953620910645,73.28138732910156,-7.967643460866171,6.628221987650491,170.37491232507932,-12.262409,31.440992,14.737246,45.856663,-29.508797,-15.000033,-40.358913,-27.641705,-12.654873,82.3843,6.589039,4.1281867,-24.46911,0.6248729,13.86002,-45.85108,46.696526,-93.78958,34.21446,10.050768,-12.069664,0.69047123,-153.43182,-70.9586,46.312565,-8.056506,-15.517603,-5.9875016,-11.887861
163,9.59466552734375,-5.2053632736206055,73.05913543701172,-8.267897377336121,6.921470958259206,168.81695791629895,-12.024259,32.400223,15.970025,46.5491,-30.108438,-15.000033,-39.066452,-25.956018,-13.024711,79.742546,7.0455513,5.3104587,-22.849405,1.4161171,13.814505,-47.614635,46.042873,-94.48881,34.56139,9.805508,-12.194639,0.5865782,-152.19756,-72.398155,42.877132,-8.647475,-14.409233,-6.670171,-12.3049345
164,9.526413917541504,-4.999564170837402,72.8624496459961,-8.44205269055158,7.172977548473642,167.38258890869201,-11.917881,33.210026,16.930948,47.426174,-30.305288,-15.000033,-37.521645,-24.443378,-13.444219,77.000786,6.465471,6.5386987,-21.258896,2.0350678,13.67161,-49.414146,45.288334,-95.313515,34.811375,9.658354,-12.259767,0.48715857,-150.94098,-73.64155,39.37651,-8.988758,-13.30579,-7.2885756,-12.677283
165,9.472649574279785,-4.741278648376465,72.69615173339844,-8.446198758501023,7.388735065237002,166.10857159438015,-11.85252,33.797535,17.725222,48.37201,-30.16369,-15.000033,-35.513298,-23.150593,-14.022362,74.00695,4.4737563,7.915654,-19.728058,2.44862,13.42095,-51.267685,44.451794,-96.33467,34.907135,9.646972,-12.243667,0.38225374,-149.65662,-74.683105,35.790092,-9.121537,-12.378539,-7.7918096,-12.907726
166,9.418172836303711,-4.438605785369873,72.57566833496094,-8.298980090379308,7.567635279496064,164.93247652924387,-11.808687,34.204052,18.403196,49.396347,-29.673363,-15.000033,-33.132885,-21.996204,-14.740601,70.687164,1.526505,9.393222,-18.201632,2.658973,13.100897,-53.163414,43.54672,-97.49057,34.903107,9.7170925,-12.166213,0.25720754,-148.3331,-75.514336,32.11423,-9.051772,-11.536491,-8.239775,-13.066468
167,9.3540620803833,-4.083585739135742,72.4915771484375,-8.068867380547216,7.711669816694066,163.82878089063047,-12.019463,34.554306,18.718252,50.74193,-28.702738,-15.000033,-30.76005,-20.998877,-15.48675,67.37768,-1.7974397,10.70282,-16.705416,2.6952116,12.770033,-55.044067,42.59423,-98.63075,34.85049,9.832874,-12.058788,0.15246385,-147.01631,-76.12219,28.407654,-8.704876,-10.461786,-8.708303,-13.293028
168,9.301718711853027,-3.701456308364868,72.42550659179688,-7.823157910614114,7.823379270525156,162.77041856872768,-12.724482,34.96919,18.42092,52.65634,-27.115692,-15.000033,-28.785927,-20.153353,-16.105307,64.45681,-4.9611144,11.621419,-15.276325,2.6028702,12.477423,-56.842834,41.623623,-99.5973,34.795174,9.9582205,-11.952801,0.10956886,-145.78989,-76.4938,24.757328,-7.987552,-8.84047,-9.282025,-13.720313
169,9.267441749572754,-3.2866437435150146,72.38175201416016,-7.4994308874451,7.949288001032419,161.76198832853163,-14.002099,35.402847,17.553528,55.26124,-24.639168,-15.000033,-27.34853,-19.511251,-16.49232,62.00077,-8.132022,12.149609,-13.91232,2.349994,12.170378,-58.579926,40.663338,-100.404625,34.660618,10.118174,-11.839084,0.17604868,-144.68985,-76.59536,21.11458,-6.837019,-6.3986034,-10.023594,-14.325888
170,9.280784606933594,-2.8752012252807617,72.36543273925781,-7.065526674478984,8.086456113702285,160.82505746454902,-15.720622,35.7624,16.287682,58.377636,-21.402937,-15.000033,-26.241457,-19.065268,-16.73571,59.83955,-11.511602,12.442935,-12.645841,1.9109286,11.851045,-60.25583,39.738575,-101.104385,34.434204,10.324554,-11.704383,0.3198585,-143.73503,-76.41901,17.510086,-5.293923,-3.380465,-10.900591,-15.01907
171,9.350794792175293,-2.470505952835083,72.37367248535156,-6.628247359737347,8.159015848304453,159.9551509165301,-17.795633,36.02806,14.513688,61.745964,-17.835482,-15.000033,-25.333082,-18.708935,-16.926819,57.983322,-14.632327,12.519926,-11.551392,1.3710287,11.638794,-61.78774,38.87688,-101.60063,34.240402,10.525195,-11.574734,0.46606013,-142.989,-76.024475,14.173935,-3.4330075,-0.24246722,-11.859227,-15.842763
172,9.476972579956055,-2.075268268585205,72.4037094116211,-6.303762410196461,8.084980619109679,159.13834091034383,-20.147476,36.119507,12.0254545,65.09875,-14.334186,-15.000033,-24.484198,-18.315462,-17.146955,56.431396,-17.019032,12.391938,-10.661833,0.8480376,11.652466,-63.13211,38.10224,-101.81439,34.17951,10.668696,-11.477553,0.5403246,-142.51602,-75.5113,11.354799,-1.3290298,2.5855734,-12.841293,-16.875013
173,9.62519645690918,-1.696505069732666,72.44625091552734,-6.180066317742328,7.842545867736086,158.35952680538023,-23.055815,35.817566,8.155148,68.59641,-10.604149,-15.000033,-23.745022,-17.80775,-17.45703,55.303173,-18.470613,11.934402,-9.92055,0.45424202,11.964937,-64.3567,37.439262,-101.69895,34.18797,10.715911,-11.416286,0.5270948,-142.47205,-74.97697,9.100756,1.0310102,4.9687366,-13.854278,-18.32059
174,9.789704322814941,-1.343524694442749,72.51667785644531,-6.121158135448424,7.49500328507284,157.64760802440273,-26.36462,34.852676,3.2456064,72.261055,-6.4450517,-15.000033,-23.197866,-17.327911,-17.762732,54.59712,-19.296633,11.193634,-9.283719,0.07942161,12.482743,-65.54356,36.897903,-101.36438,34.1753,10.705962,-11.374525,0.46465242,-142.78572,-74.45241,7.3229227,3.6763735,7.185463,-14.946877,-20.10572
175,9.94693374633789,-1.0373589992523193,72.61964416503906,-5.954082480519545,7.06526801577065,157.03046202634377,-29.363241,33.33381,-1.4443218,75.668274,-2.485663,-15.000033,-22.71465,-17.022146,-17.936052,54.101925,-19.769878,10.417564,-8.79095,-0.443674,13.094826,-66.65436,36.46511,-100.94405,34.218414,10.705005,-11.3526535,0.36212835,-143.185,-73.92528,6.0506105,6.539589,9.435481,-16.105137,-21.897095
176,10.0628662109375,-0.7676134705543518,72.76713562011719,-5.5812188993135825,6.547130808990063,156.50077998157795,-31.525661,31.787725,-4.812843,78.438896,0.52581,-15.000033,-22.119507,-16.938103,-17.874617,53.566254,-20.140144,9.844643,-8.466958,-1.2134987,13.725457,-67.62532,36.10961,-100.54532,34.41896,10.774897,-11.353306,0.22993015,-143.49367,-73.35564,5.3862557,9.5710945,11.922125,-17.293978,-23.342056
177,10.167635917663574,-0.5442765951156616,72.95188903808594,-5.005356572284216,5.864839261082883,156.09410809761079,-32.845875,30.463243,-6.867941,80.49249,2.1966362,-15.000033,-21.30541,-17.078718,-17.572613,52.99107,-20.459297,9.528906,-8.335222,-2.2251294,14.437099,-68.44578,35.8009,-100.16672,34.838913,10.946188,-11.394945,0.045127485,-143.8112,-72.72045,5.4039545,12.847152,14.908284,-18.545788,-24.397453
178,10.249157905578613,-0.35622891783714294,73.1759033203125,-4.3329028245947,5.027005657799757,155.77061119903084,-33.67447,29.30663,-8.253003,82.07986,2.9302626,-15.000033,-20.35447,-17.354858,-17.11222,52.462425,-20.585878,9.323603,-8.337743,-3.3677824,15.263682,-69.14317,35.522358,-99.7441,35.44707,11.1801405,-11.47422,-0.18704687,-144.25223,-72.027466,6.066026,16.367687,18.228249,-19.84681,-25.21117
179,10.287158012390137,-0.20160096883773804,73.45437622070312,-3.6637067369127383,4.147047148132387,155.39458003196313,-34.203617,28.553026,-9.006929,83.325714,3.151405,-15.000033,-19.350515,-17.609959,-16.536928,51.82111,-20.467728,9.163121,-8.381196,-4.542321,16.09614,-69.68233,35.26394,-99.26659,36.21401,11.443745,-11.562457,-0.41445494,-144.68666,-71.285645,7.3327627,19.973085,21.439516,-21.058155,-25.725618
180,10.29318618774414,-0.07594820857048035,73.79252624511719,-3.08339165385245,3.3437309968094233,154.83688369903604,-34.604183,28.403524,-9.140461,84.336945,3.2902853,-15.000033,-18.387192,-17.695223,-15.878547,50.919857,-20.0561,8.984975,-8.393648,-5.6584983,16.820086,-70.017075,35.022274,-98.71964,37.11035,11.705696,-11.629459,-0.5839756,-144.98442,-70.50988,9.175642,23.510838,24.081684,-22.028996,-25.91635
181,10.275552749633789,0.0289740189909935,74.18212890625,-2.6395439094710373,2.6450454236050893,154.05657726530478,-34.966854,29.18285,-8.523225,85.22628,3.3139129,-15.000033,-17.441927,-17.518076,-15.168002,49.66855,-19.390226,8.752307,-8.357341,-6.6738214,17.390215,-70.109535,34.789864,-98.13404,38.18681,11.947792,-11.667134,-0.7024668,-145.08348,-69.71065,11.664015,27.100006,26.012693,-22.715792,-25.766254
182,10.243945121765137,0.1262916773557663,74.63050079345703,-2.2776244434859523,1.9752831291844533,153.09857427933275,-35.124874,30.743505,-7.1996484,85.91683,2.9913313,-15.000033,-16.478165,-17.155596,-14.346869,48.165302,-18.47808,8.502133,-8.2924385,-7.643327,17.885883,-69.984566,34.56039,-97.49531,39.449,12.193337,-11.691173,-0.79020697,-145.08255,-68.911865,14.811638,30.7577,27.464241,-23.169672,-25.340036
183,10.197230339050293,0.20571893453598022,75.13666534423828,-1.919104483621114,1.3097274288756207,151.9796972390647,-34.87333,32.53859,-5.3961444,86.23876,2.4846935,-15.000033,-15.572035,-16.73058,-13.322546,46.558495,-17.229649,8.281544,-8.203985,-8.633891,18.37161,-69.6979,34.34005,-96.73647,40.79416,12.463777,-11.705424,-0.8137418,-145.0757,-68.15271,18.491781,34.1883,28.541924,-23.39449,-24.743683
184,10.130121231079102,0.23245860636234283,75.71058654785156,-1.4902655112847636,0.6488195479241136,150.74841660560924,-34.121258,34.01917,-3.325662,86.01796,2.0244334,-14.871701,-14.808583,-16.379705,-12.044221,44.99999,-15.555875,8.133772,-8.125848,-9.713524,18.888674,-69.30806,34.14568,-95.80515,42.11502,12.7764,-11.712242,-0.7402328,-145.12141,-67.468895,22.540613,37.09351,29.36488,-23.399858,-24.065596
185,10.044639587402344,0.19345687329769135,76.3498764038086,-0.8820373288892107,-0.0039597973421769414,149.48580749498493,-32.8416,35.338493,-0.51554096,85.19347,1.6358458,-13.560757,-14.1394825,-16.2669,-10.491683,43.472935,-13.4494705,8.110233,-8.12912,-11.021902,19.427217,-68.79752,33.993137,-94.723465,43.402252,13.114649,-11.718313,-0.54061806,-145.11452,-66.87918,27.029125,39.45566,29.962532,-23.10319,-23.172598
186,9.941245079040527,0.11448191851377487,77.041259765625,-0.11429233826031572,-0.6166797007956302,148.19010426544497,-31.056168,36.259884,2.745996,83.86067,1.2293802,-12.326349,-13.578925,-16.348972,-8.702674,41.974808,-10.98995,8.186813,-8.226056,-12.551703,19.934431,-68.14909,33.88908,-93.52447,44.68379,13.4749775,-11.715744,-0.23671092,-145.0766,-66.39245,32.01371,41.413933,30.261858,-22.548883,-22.077957
187,9.817198753356934,-0.0006743588019162416,77.77689361572266,0.611705187109003,-1.1597235660198855,146.75604971847744,-28.976276,36.792835,6.027401,82.091354,0.90027803,-11.523835,-13.253334,-16.350975,-6.7360554,40.58951,-8.1515875,8.28747,-8.29896,-14.05153,20.42472,-67.42134,33.837234,-92.18331,45.91291,13.893878,-11.684935,0.12475533,-145.20299,-66.00318,37.258755,42.894176,30.255724,-21.932663,-21.065845
188,9.66900634765625,-0.16295108199119568,78.537841796875,1.2171244242863786,-1.567863436595443,145.15163252117335,-26.860014,36.959988,9.072018,79.933846,0.76741636,-11.317826,-13.343522,-16.170572,-4.6321793,39.463234,-4.9257364,8.386798,-8.324665,-15.405807,20.847694,-66.651505,33.844532,-90.67249,47.062492,14.423113,-11.607281,0.49554428,-145.61862,-65.69471,42.467083,43.812553,29.969522,-21.440657,-20.406845
189,9.51242733001709,-0.36755168437957764,79.30059814453125,1.6687240736236613,-1.8647034677899594,143.33693775540806,-24.698788,36.78028,11.834547,77.30732,0.8659122,-11.781266,-13.922991,-15.709282,-2.1985881,38.637154,-0.9561164,8.305391,-8.260245,-16.585323,21.26535,-65.910484,33.914845,-89.03025,48.12329,15.047575,-11.456584,0.8928564,-146.14536,-65.437035,47.476654,43.99341,29.314924,-21.11312,-20.1815
190,9.35431957244873,-0.6204320788383484,80.0440444946289,1.9927626540470216,-2.0759085293457087,141.3366520881957,-22.475384,36.295433,14.359454,74.20033,1.1387844,-12.771051,-14.840957,-15.0012665,0.52764326,38.001316,3.6741574,8.198396,-8.166885,-17.711802,21.627167,-65.08514,34.06273,-87.26961,49.160526,15.766743,-11.246915,1.325189,-146.88171,-65.22763,52.64885,43.63316,28.502064,-20.856678,-20.256075
191,9.181551933288574,-0.9027449488639832,80.75899505615234,2.2066451179986992,-2.147906855279571,139.22209561385327,-20.404041,35.590664,16.545544,70.762436,1.5571271,-14.124551,-15.937522,-14.152345,3.1939254,37.457153,8.292041,8.534627,-8.018225,-18.615042,21.934593,-64.19385,34.282127,-85.327446,50.010536,16.549116,-11.012374,1.7615446,-147.6086,-65.03625,57.386993,42.714397,27.134008,-20.630507,-20.500643
192,8.997298240661621,-1.2222044467926025,81.42122650146484,2.541426031785074,-1.9357041406010167,137.2200644182333,-18.704271,34.65033,18.728647,67.08628,2.1365664,-15.000033,-17.22264,-13.574754,5.5237737,37.025967,12.118716,9.803099,-8.178619,-19.619894,21.83577,-63.13461,34.590252,-83.26092,50.77548,17.322178,-10.797355,2.139144,-148.61261,-64.8739,61.89808,41.568287,25.617779,-20.395542,-20.843973
193,8.785687446594238,-1.5703039169311523,82.01512145996094,2.8046845685095323,-1.4890474044495814,135.17956430782655,-17.290493,33.704826,20.947626,63.1381,2.8613658,-15.000033,-18.503262,-12.973836,7.5564857,36.282032,15.124876,12.502802,-8.497773,-20.512999,21.41461,-61.9374,34.99771,-80.99768,51.426373,18.044146,-10.622769,2.4276738,-149.8024,-64.73444,66.04175,40.062546,23.709375,-20.172308,-21.318186
194,8.55054759979248,-1.8869150876998901,82.53804016113281,2.8537095732497004,-0.854644255038797,133.05073266105896,-16.17507,32.714584,22.764046,58.866577,3.7482522,-15.000033,-19.864878,-12.362587,8.861828,35.322918,17.595333,15.000033,-8.932814,-21.212807,20.727434,-60.613136,35.51501,-78.56351,51.97512,18.754425,-10.46385,2.6567545,-151.07022,-64.601746,69.84969,38.13247,21.434748,-19.941423,-21.95086
195,8.318811416625977,-2.1730432510375977,83.0140380859375,2.400855892832817,-0.06803835084241808,130.83136543568511,-15.483941,32.14279,23.908781,54.539734,4.7694526,-15.000033,-21.418367,-11.829533,8.33705,34.539516,19.62245,15.000033,-9.383926,-21.401657,19.872288,-59.150917,36.13763,-76.05261,52.359127,19.516308,-10.290091,2.8712432,-152.28377,-64.4509,73.15253,35.941303,18.989193,-19.60618,-22.592363
196,8.057967185974121,-2.47243595123291,83.42643737792969,2.059868266162491,0.8096192058707097,128.69346041960486,-14.946162,31.270031,24.70098,50.11529,5.9282074,-15.000033,-23.464302,-11.544274,7.7532964,35.03136,20.856627,15.000033,-9.963317,-21.604895,18.83185,-57.539944,36.85171,-73.54557,52.50739,20.380661,-10.072964,3.1111314,-153.33401,-64.266304,75.77684,33.667313,16.571156,-19.08366,-23.072592
197,7.736451148986816,-2.77948260307312,83.7551498413086,1.885696757213674,1.823574681723753,126.63650593544516,-14.51696,29.9573,25.249151,45.371124,7.381159,-15.000033,-26.232666,-11.511437,7.223359,37.242672,21.00587,15.000033,-10.744296,-21.851055,17.532005,-55.67659,37.646183,-70.85877,52.399773,21.439377,-9.784965,3.4263918,-154.22865,-64.060356,77.61506,31.282955,14.242467,-18.314737,-23.277971
198,7.363630771636963,-3.0844240188598633,83.99988555908203,1.769705671142579,2.9609767315478415,124.61007236156262,-14.169922,28.303587,25.49563,40.2274,9.122747,-15.000033,-29.574284,-11.655909,6.6289053,40.72534,20.246422,15.000033,-11.726576,-22.052883,15.983716,-53.57844,38.517723,-67.950485,52.058136,22.628555,-9.444769,3.7756011,-155.0298,-63.856434,78.79385,28.705109,11.907237,-17.36097,-23.279
199,6.960939407348633,-3.3523478507995605,84.15682983398438,1.6344216721696743,4.09038629707831,122.64523776594284,-13.863909,26.546574,25.253319,35.017197,10.919412,-15.000033,-33.101383,-11.933461,6.0127735,44.91837,19.096508,15.000033,-12.81039,-22.13012,14.380213,-51.38486,39.45437,-65.08367,51.475376,23.797606,-9.096632,4.065081,-155.746,-63.67039,79.509186,26.022717,9.537724,-16.33514,-23.188622
200,6.546388626098633,-3.603410005569458,84.22045135498047,1.4122550990272564,5.097492517637827,120.77741513906433,-13.597687,24.957901,24.394173,30.175644,12.501828,-15.000033,-36.434093,-12.3129,5.360358,49.25864,18.083883,15.000033,-13.877657,-22.01562,12.916217,-49.258663,40.4364,-62.58017,50.68192,24.778374,-8.794974,4.20526,-156.38443,-63.511944,79.95763,23.341328,7.106371,-15.34652,-23.130129
201,6.115992546081543,-3.816068172454834,84.2021713256836,1.0818184536575741,6.008010220587296,118.99310175226302,-13.430291,23.608698,22.825775,25.777645,13.789253,-15.000033,-39.594948,-12.806284,4.581217,53.820827,17.292109,15.000033,-14.908562,-21.666525,11.59814,-47.212894,41.44357,-60.5188,49.72611,25.555792,-8.567739,4.141157,-156.94936,-63.398426,80.123886,20.603613,4.550128,-14.382213,-23.128258
202,5.664428234100342,-3.998892068862915,84.10650634765625,0.6734203304373375,6.861598517526806,117.2964792920411,-13.331721,22.397327,20.717152,21.65836,14.928693,-15.000033,-42.705757,-13.430897,3.7421649,58.806347,16.454742,15.000033,-15.954756,-21.11833,10.36861,-45.18078,42.454624,-58.749638,48.631355,26.206875,-8.39318,3.9330468,-157.45479,-63.360374,79.94423,17.756027,1.910514,-13.404389,-23.109728
203,5.196529388427734,-4.163694381713867,83.93257141113281,0.21350540252189532,7.590822570571108,115.75423646775174,-13.260933,21.338486,18.345041,18.017914,15.935023,-15.000033,-45.568638,-14.159024,2.9893272,63.8568,15.590406,15.000033,-16.879358,-20.431942,9.298143,-43.496994,43.139526,-57.575478,47.748573,26.617188,-8.265002,3.6882124,-157.93106,-63.409813,79.68107,14.986621,-0.68486756,-12.48533,-23.07921
204,4.732028961181641,-4.306792259216309,83.70088958740234,-0.24854771894302757,8.138505914219204,114.42973804542854,-13.212642,20.416498,15.967386,15.091193,16.802244,-15.000033,-48.015034,-14.959859,2.4453022,68.62733,14.729232,15.000033,-17.769527,-19.693598,8.449859,-42.00454,43.705032,-56.72972,46.839428,26.890158,-8.152182,3.4799497,-158.38719,-63.522778,79.36034,12.422144,-3.104367,-11.689008,-23.033995
205,4.275432586669922,-4.430198669433594,83.41482543945312,-0.6306076876284106,8.513414494334944,113.39285940900189,-13.29326,19.500788,13.376618,12.932474,17.805445,-15.000033,-50.05977,-15.826674,2.216953,73.148125,13.873794,15.000033,-18.61237,-18.989119,7.7822685,-40.98024,44.02518,-56.553665,46.16325,26.820843,-8.12367,3.3044548,-158.88765,-63.636642,79.209435,10.250869,-5.3892326,-11.071558,-23.092848
206,3.8179707527160645,-4.533950328826904,83.07355499267578,-0.9710657503167195,8.77812549390829,112.59058233886711,-13.595694,18.618715,10.524806,11.6033535,18.763792,-15.000033,-51.79685,-16.760696,2.1440704,77.541985,13.038432,15.000033,-19.469002,-18.1341,7.2018414,-39.99356,44.175816,-56.608814,45.3716,26.687933,-8.05004,3.0978074,-159.34062,-63.714268,79.11525,8.240776,-7.5935903,-10.527084,-23.234638
207,3.383153200149536,-4.6205525398254395,82.6832046508789,-1.3853742382421896,8.972039225770095,111.8969578479823,-14.147217,17.984974,7.878912,11.365536,18.956556,-15.000033,-53.234505,-18.232574,1.4826636,81.61946,12.277967,13.943884,-20.235365,-17.112743,6.8077607,-39.10924,44.252533,-56.799915,44.418186,26.552094,-8.020277,2.9251275,-159.79231,-63.76535,78.93881,6.3890467,-9.563438,-10.045591,-23.358768
208,2.9610424041748047,-4.685379505157471,82.26393127441406,-1.8525715638771554,9.088148846195237,111.24717856911587,-14.821796,17.645714,5.950198,12.228756,17.768822,-15.000033,-54.331417,-19.986366,0.54773295,85.2568,11.578372,12.655171,-20.811707,-15.977132,6.606204,-38.419933,44.321735,-57.10983,43.392044,26.519688,-8.036057,2.7931778,-160.20888,-63.82382,78.58616,4.7102265,-11.205142,-9.584622,-23.416134
209,2.5723984241485596,-4.7437639236450195,81.87232208251953,-2.4318731554586965,9.086465051434962,110.67675753259468,-15.708515,17.815084,4.963574,14.651446,14.587375,-15.000033,-54.983437,-22.171482,-0.80744463,88.52471,10.942378,11.150526,-21.212286,-14.666965,6.653032,-37.896523,44.38202,-57.512722,42.23392,26.678549,-8.098822,2.7168503,-160.56749,-63.89262,77.986015,3.1836412,-12.493415,-9.098471,-23.382702
210,2.164645195007324,-4.774914264678955,81.30824279785156,-3.1249884967646397,8.944254622938383,110.20413107716448,-16.684437,18.49422,4.659098,18.232239,9.924391,-15.000033,-55.111145,-24.661394,-2.5071282,91.48955,10.3250065,9.501997,-21.506704,-13.171782,6.959842,-37.511814,44.43079,-58.016087,40.963696,26.955694,-8.204039,2.6817198,-160.8589,-63.972527,77.10792,1.7832012,-13.501497,-8.623331,-23.287085
211,1.7461018562316895,-4.7881035804748535,80.69389343261719,-3.867141719464808,8.711037677587642,109.72744551148077,-17.460007,19.483858,4.7788744,21.894781,4.823813,-15.000033,-54.786144,-26.98841,-4.2552643,93.97675,9.702505,8.064798,-21.648886,-11.575623,7.4557114,-37.31108,44.46763,-58.620377,39.651283,27.219112,-8.33957,2.6678216,-161.06929,-64.06498,75.94459,0.4803881,-14.265929,-8.2412815,-23.149635
212,1.310468077659607,-4.790092945098877,80.07093048095703,-4.514009861490434,8.484614092104444,109.17121099389782,-17.931019,20.401096,5.0175943,24.7954,0.3196123,-15.000033,-54.270355,-28.716473,-5.6427274,95.80387,9.10425,7.2220826,-21.627235,-10.017549,7.9871807,-37.36067,44.49387,-59.338646,38.375553,27.315096,-8.500055,2.647921,-161.18701,-64.16888,74.509125,-0.74570936,-14.818545,-8.029251,-23.002316
213,0.8633257150650024,-4.803858280181885,79.46270751953125,-4.921028373716974,8.276860115042389,108.56668854789613,-18.080402,20.948252,5.409104,26.765558,-3.4127634,-14.45503,-53.778313,-29.798105,-6.3456554,96.92917,8.597053,7.1669717,-22.30878,-9.465625,9.053958,-39.000515,44.669136,-61.39324,38.5818,26.251345,-8.408141,3.2414308,-160.00214,-65.56296,68.40115,-3.1019704,-15.085603,-8.408168,-20.72337
214,0.4473387598991394,-4.826384544372559,78.86297607421875,-5.197593727793866,8.07347357785727,107.91427299732618,-18.076036,21.38172,5.897741,28.4102,-6.917715,-14.362841,-53.240246,-30.412447,-6.6619964,97.45518,8.163497,7.648325,-22.06018,-8.685483,9.908532,-40.248985,44.802498,-62.891327,37.820236,25.759043,-8.553198,3.3036332,-159.04251,-67.61109,64.473656,-5.7830853,-14.798914,-8.672129,-19.907068
215,0.06696441769599915,-4.8382391929626465,78.27190399169922,-5.499549279697278,7.8843460935654965,107.17752706725287,-18.09714,21.915781,6.4118705,30.068775,-10.20434,-14.646464,-52.527493,-30.565615,-6.9768796,97.38707,7.756975,8.434129,-21.385414,-7.861337,10.740475,-41.79202,44.830772,-64.73391,37.043194,25.238117,-8.711078,3.3417354,-158.02272,-69.68844,60.745636,-8.216598,-14.2549,-9.008381,-19.354033
216,-0.2883312404155731,-4.830966472625732,77.69945526123047,-5.810306472381232,7.759434930278138,106.37205864265961,-18.244051,22.536478,6.9960623,31.85848,-13.173088,-14.753943,-51.674946,-30.366852,-7.4147334,96.77103,7.3415933,9.37283,-20.501978,-6.996046,11.453911,-43.581703,44.744076,-66.83965,36.39437,24.754316,-8.867539,3.3787746,-156.94508,-71.61049,57.187134,-10.275593,-13.617667,-9.394844,-19.050745
217,-0.6069595813751221,-4.792008399963379,77.17195129394531,-6.1500661625290975,7.745131476590952,105.47454160765858,-18.602375,23.284494,7.6516905,33.85792,-15.782818,-14.573315,-50.75093,-29.62592,-7.8704786,95.48028,6.8677683,10.620551,-19.420649,-6.0533423,11.975259,-45.394196,44.546345,-69.00714,35.81372,24.56121,-9.046387,3.4308577,-155.8399,-73.324844,53.8407,-11.925201,-12.942244,-9.864507,-19.017324
218,-0.8908795118331909,-4.714984893798828,76.69402313232422,-6.514514970857181,7.795465238612303,104.49470588284083,-19.072283,24.15251,8.358924,35.960724,-18.086142,-14.381649,-49.73245,-28.41703,-8.278583,93.53471,6.342837,12.1418085,-18.162798,-5.039166,12.35066,-47.3388,44.234642,-71.33006,35.310566,24.424894,-9.245494,3.492677,-154.70486,-74.78038,50.5872,-13.154815,-12.221742,-10.425128,-19.193617
219,-1.1246812343597412,-4.608841419219971,76.27980041503906,-6.865842381716129,7.826940559171202,103.48823339461812,-19.464033,25.060572,9.099417,37.972073,-20.097452,-14.229027,-48.51801,-27.19522,-8.839326,91.196014,5.8511176,13.5314665,-16.79874,-4.0237985,12.640222,-49.282356,43.806023,-73.649864,34.836964,24.2991,-9.418131,3.5515685,-153.55865,-75.955124,47.42784,-13.960082,-11.504718,-11.006315,-19.507769
220,-1.3161541223526,-4.475182056427002,75.92741394042969,-7.1751127146688525,7.7629487855383354,102.50010986928513,-19.602945,25.937803,9.864996,39.712868,-21.832872,-14.1710005,-47.007885,-26.33558,-9.784269,88.72439,5.509124,14.436863,-15.387327,-3.0633588,12.913038,-51.137463,43.268394,-75.845856,34.367313,24.11581,-9.51899,3.5925496,-152.41272,-76.84073,44.35599,-14.353812,-10.826318,-11.538293,-19.886683
221,-1.4719023704528809,-4.332921504974365,75.61495971679688,-7.445283948890011,7.597961199126757,101.52844431655761,-19.413223,26.78819,10.723517,41.074787,-23.309002,-14.211563,-45.153034,-25.891905,-11.305425,86.11746,5.4412956,14.814398,-13.918405,-2.1492734,13.186338,-52.92258,42.63585,-77.90047,33.92207,23.854012,-9.515362,3.6265776,-151.25203,-77.432945,41.358017,-14.358195,-10.259827,-12.032717,-20.314964
222,-1.5810225009918213,-4.165396690368652,75.34295654296875,-7.700344561596841,7.37153350784954,100.54478291314405,-18.997461,27.654524,11.675504,42.17952,-24.513006,-14.327478,-43.00562,-25.573437,-13.2581625,83.25661,5.5677977,14.885761,-12.370561,-1.2277987,13.457614,-54.666264,41.923294,-79.82874,33.4883,23.55987,-9.438443,3.6627293,-150.03453,-77.74062,38.377308,-14.056829,-9.831415,-12.518424,-20.798777
223,-1.6322864294052124,-3.9862077236175537,75.11813354492188,-7.931831210844011,7.078942663081386,99.55189494745545,-18.454027,28.524029,12.615442,43.192303,-25.412731,-14.534476,-40.616398,-25.206736,-15.381924,80.22441,5.707124,14.724879,-10.885024,-0.4154567,13.661592,-56.249554,41.159153,-81.63059,33.138554,23.252571,-9.343292,3.6637,-148.93878,-77.80068,35.4434,-13.312358,-9.280794,-12.968988,-21.294971
224,-1.6329516172409058,-3.789473056793213,74.9414291381836,-8.130905223803795,6.713484067114029,98.55373910674061,-17.88438,29.381065,13.43242,44.2815,-25.978624,-14.846123,-38.050728,-24.653751,-17.395418,77.10113,5.6790996,14.391385,-9.429654,0.36189526,13.90653,-57.71534,40.36994,-83.271614,32.73395,22.961,-9.27992,3.610796,-147.8441,-77.64817,32.4672,-12.357001,-8.61528,-13.338809,-21.775398
225,-1.591874599456787,-3.6033823490142822,74.80332946777344,-8.314812999381488,6.263726737682503,97.54739059140394,-17.177402,30.197495,14.210457,45.30212,-26.300179,-15.000033,-35.21179,-23.832405,-19.327139,73.767815,5.7434044,13.873077,-8.021029,1.0877756,14.199384,-59.071114,39.585217,-84.76936,32.26908,22.643547,-9.264058,3.4616625,-146.74,-77.29276,29.394213,-11.16997,-7.745937,-13.572535,-22.163248
226,-1.522998571395874,-3.4340128898620605,74.69794464111328,-8.375192926242136,5.77847670578095,96.58013176976378,-16.34944,30.822952,14.998307,46.18037,-26.335573,-15.000033,-32.205868,-22.912127,-21.178888,70.2691,5.870551,13.204487,-6.688879,1.6580243,14.49491,-60.367844,38.829838,-86.15382,31.75661,22.29975,-9.265677,3.236055,-145.57611,-76.74327,26.218544,-9.778128,-6.7333913,-13.707168,-22.492743
227,-1.4347163438796997,-3.255889892578125,74.6299057006836,-8.34513429204704,5.256966453212291,95.62307838176993,-15.656666,31.357052,15.587426,47.280315,-25.915537,-15.000033,-29.223246,-21.915586,-22.805382,66.8132,5.4932733,12.440803,-5.4371867,2.0617588,14.793609,-61.615932,38.126034,-87.46167,31.251072,22.004316,-9.270447,2.9852164,-144.43282,-76.05084,23.056879,-8.142877,-5.5412717,-13.861451,-22.897995
228,-1.3152860403060913,-3.0626676082611084,74.60916900634766,-8.168471814336458,4.73221270862802,94.6840112563513,-15.376259,31.767403,15.785224,48.917885,-24.841883,-15.000033,-26.509865,-20.981426,-23.98842,63.631603,4.050454,11.692172,-4.2882757,2.225455,15.074453,-62.836823,37.489693,-88.73314,30.783876,21.832764,-9.2646885,2.7629554,-143.41068,-75.29869,20.050797,-6.2199354,-4.1178813,-14.159049,-23.520193
229,-1.1571489572525024,-2.8737058639526367,74.61055755615234,-7.732939635422558,4.215922358506729,93.7712350525768,-15.523124,31.944372,15.646656,51.203747,-22.929646,-15.000033,-24.058376,-20.192167,-24.550556,60.706112,0.837589,11.060525,-3.204641,2.0520873,15.342064,-64.120255,36.934155,-90.05714,30.254639,21.8567,-9.2426815,2.556126,-142.57463,-74.58249,17.179535,-3.9015038,-2.4643621,-14.629832,-24.36868
230,-0.9737711548805237,-2.714360475540161,74.63066101074219,-7.093041046592053,3.6996487785963703,92.87541755971299,-15.968641,31.944561,15.296933,53.948338,-20.321209,-15.000033,-21.762644,-19.489948,-24.617691,57.899532,-3.635654,10.549401,-2.1310332,1.578894,15.638962,-65.498825,36.461105,-91.45101,29.63242,22.008854,-9.210872,2.3349602,-141.7794,-73.92668,14.387734,-1.2628044,-0.54071045,-15.224124,-25.389235
231,-0.773953914642334,-2.619081497192383,74.6646728515625,-6.441354454270754,3.185867354137206,91.98113588401625,-16.779202,31.952467,14.615991,57.003128,-17.293455,-15.000033,-19.711098,-18.825277,-24.446709,55.288097,-8.111739,10.096647,-1.0946102,0.9635836,15.982805,-66.86598,36.059505,-92.803024,29.065777,22.16212,-9.17651,2.1370132,-140.90642,-73.28515,11.812782,1.493679,1.7539427,-15.966828,-26.611305
232,-0.5754048228263855,-2.582470417022705,74.72029113769531,-5.9622407171449945,2.6742076802929557,91.07680989918389,-18.032772,32.09108,13.418953,60.2112,-14.09549,-15.000033,-17.990068,-18.14242,-24.305952,52.981125,-11.373203,9.591622,-0.14924966,0.40727082,16.375229,-68.08036,35.71401,-93.944046,28.711273,22.199257,-9.148182,2.011248,-139.99738,-72.57449,9.68422,4.199512,4.4923553,-16.895918,-28.049631
233,-0.3760155737400055,-2.577153444290161,74.80622863769531,-5.748014901338213,2.168209899899561,90.1640767203061,-20.035437,32.34322,11.288284,63.77933,-10.360769,-15.000033,-16.689531,-17.425667,-24.338593,51.117203,-13.079287,8.868823,0.69626766,0.06408205,16.836273,-69.10757,35.419468,-94.72876,28.608044,22.03876,-9.112987,2.0101657,-139.31688,-71.73771,8.16533,6.9132237,7.9576054,-18.213667,-30.008188
234,-0.20327523350715637,-2.5725767612457275,74.92765808105469,-5.651165269365024,1.675219281672249,89.26442045821098,-22.660347,32.436596,8.401255,67.64549,-6.0158253,-15.000033,-15.743145,-16.764437,-24.405378,49.640205,-13.933293,7.996068,1.4373425,-0.16579553,17.349173,-70.00541,35.178444,-95.21656,28.671692,21.772747,-9.072845,2.1076493,-139.00836,-70.77398,7.270516,9.809296,11.974146,-19.926144,-32.321163
235,-0.058152731508016586,-2.551145076751709,75.09701538085938,-5.524747853850111,1.1902709620877552,88.38875076065672,-25.312721,32.206554,5.455144,71.269775,-1.787293,-15.000033,-14.979285,-16.22692,-24.374197,48.351936,-14.277346,7.1606083,2.031816,-0.43572667,17.86373,-70.76193,34.987255,-95.53866,28.880768,21.549812,-9.058881,2.2374384,-138.9398,-69.69703,6.9795423,12.866615,15.947403,-21.687414,-34.322918
236,0.057354457676410675,-2.527958631515503,75.30306243896484,-5.257299376160752,0.6979902002972488,87.5303776495804,-27.403568,31.713875,3.144489,74.17443,1.5300946,-15.000033,-14.213552,-15.833986,-24.108778,47.030037,-14.418337,6.5525613,2.4486465,-0.8805628,18.335352,-71.35288,34.835922,-95.83628,29.228447,21.514454,-9.102357,2.330872,-138.93321,-68.527245,7.2474637,16.049532,19.319021,-23.03327,-35.417507
237,0.13311423361301422,-2.5087199211120605,75.54542541503906,-4.870052804578205,0.17080847500191454,86.71519506487712,-28.90199,30.949778,1.3301572,76.33517,3.5964303,-15.000033,-13.370238,-15.5774355,-23.61188,45.65868,-14.402274,6.165851,2.6857789,-1.4890225,18.786324,-71.79267,34.708237,-96.15301,29.735151,21.718199,-9.232473,2.333682,-138.9687,-67.26815,8.019062,19.469725,22.057922,-23.682165,-35.334312
238,0.16214323043823242,-2.4648423194885254,75.83736419677734,-4.425862725482745,-0.38254676315785496,85.92614807980992,-30.070162,29.991526,-0.2733541,78.01903,4.849865,-15.000033,-12.545278,-15.44398,-22.96276,44.351265,-14.073296,5.870052,2.781474,-2.191632,19.236885,-72.09449,34.594173,-96.424095,30.415565,22.078098,-9.426514,2.2946045,-139.06831,-65.92676,9.272243,23.091478,24.44233,-23.821384,-34.495876
239,0.13826459646224976,-2.402674674987793,76.18412780761719,-3.923706559804934,-0.9285222757232026,85.07483726866253,-30.851116,29.18994,-1.3013971,79.24047,5.608208,-15.000033,-11.802238,-15.390876,-22.126072,43.055332,-13.406614,5.682194,2.7776294,-3.0022893,19.642096,-72.224976,34.4958,-96.62971,31.254793,22.536776,-9.637015,2.2987926,-139.11664,-64.540794,11.036047,26.649506,26.389729,-23.677677,-33.388325
