unveil-humanoid-operators/unveil-humanoid-operators.github.io/feature-analysis-animation/data/feature_matrix_instances/gender_shoulder_mean_vel_jogging_A206_jog_ff_start_180_R_002__A206.csv
Frame,root_translateX,root_translateY,root_translateZ,root_rotateX,root_rotateY,root_rotateZ,left_hip_pitch_joint_dof,left_hip_roll_joint_dof,left_hip_yaw_joint_dof,left_knee_joint_dof,left_ankle_pitch_joint_dof,left_ankle_roll_joint_dof,right_hip_pitch_joint_dof,right_hip_roll_joint_dof,right_hip_yaw_joint_dof,right_knee_joint_dof,right_ankle_pitch_joint_dof,right_ankle_roll_joint_dof,waist_yaw_joint_dof,waist_roll_joint_dof,waist_pitch_joint_dof,left_shoulder_pitch_joint_dof,left_shoulder_roll_joint_dof,left_shoulder_yaw_joint_dof,left_elbow_joint_dof,left_wrist_roll_joint_dof,left_wrist_pitch_joint_dof,left_wrist_yaw_joint_dof,right_shoulder_pitch_joint_dof,right_shoulder_roll_joint_dof,right_shoulder_yaw_joint_dof,right_elbow_joint_dof,right_wrist_roll_joint_dof,right_wrist_pitch_joint_dof,right_wrist_yaw_joint_dof
0,0.03329603746533394,2.1656951904296875,78.83125305175781,-0.7732897224761817,-1.081779717419331,-86.93479318374791,2.5352118,3.8985822,0.20965561,6.931408,-7.4900117,-7.2926064,4.0993304,-1.5268037,-7.623285,6.9331207,-10.80857,4.729895,-2.6004162,0.6061111,10.023515,-1.4276569,14.875615,-38.13514,59.3193,21.035255,2.9063704,-0.59111166,-4.462892,-12.836956,40.001972,59.414993,-7.9225125,8.388746,-8.24003
1,0.0432833731174469,2.150562047958374,78.81542205810547,-0.7641933747655398,-1.0512217165703104,-86.95425000395005,2.502252,3.8848116,0.22928104,6.9451866,-7.4901056,-7.2509575,4.0652213,-1.5395745,-7.5988855,6.9332113,-10.813283,4.752327,-2.5834858,0.5954765,10.010046,-1.4150314,14.887278,-38.148903,59.307793,21.020296,2.9258702,-0.56898415,-4.4621506,-12.831564,40.083916,59.4482,-7.932723,8.3729515,-8.35256
2,0.05568675696849823,2.1376776695251465,78.80583190917969,-0.7556247180538533,-1.018952072498814,-86.9754473877966,2.467218,3.8707845,0.2502289,6.9585624,-7.488853,-7.2053256,4.027927,-1.5524652,-7.5723476,6.9329414,-10.816472,4.774676,-2.5739834,0.58456343,9.993051,-1.3985226,14.897279,-38.155205,59.298298,21.003147,2.9454055,-0.5438853,-4.4681935,-12.823549,40.18872,59.491558,-7.941128,8.356666,-8.478411
3,0.05844132974743843,2.130075693130493,78.80528259277344,-0.7480474729000967,-0.9900505194106053,-86.99303281120923,2.4384203,3.8574998,0.26850381,6.9682035,-7.4879274,-7.167622,3.9966226,-1.5650488,-7.5502386,6.9330153,-10.822062,4.7972393,-2.57262,0.57378924,9.978668,-1.3793015,14.906293,-38.152218,59.288116,20.994617,2.963179,-0.52357525,-4.4767146,-12.812127,40.281727,59.53248,-7.9408374,8.342051,-8.581464
4,0.06475231796503067,2.1231610774993896,78.80506134033203,-0.7423185740037337,-0.9696304731756397,-87.0011681439559,2.4262834,3.8463197,0.28005695,6.9646797,-7.4853363,-7.1498904,3.9812484,-1.5767167,-7.539395,6.933041,-10.833567,4.8203783,-2.5723011,0.5664561,9.973591,-1.3660586,14.911186,-38.14857,59.28049,21.002174,2.9777186,-0.51452535,-4.475886,-12.803704,40.31814,59.549397,-7.927229,8.331498,-8.624468
5,0.07418040931224823,2.1181223392486572,78.80754089355469,-0.7402760254540957,-0.9627791740766813,-86.99879648281924,2.441843,3.8384655,0.2864355,6.938839,-7.4807863,-7.165223,3.9889874,-1.5880492,-7.542534,6.9334965,-10.856205,4.850158,-2.5897143,0.5641741,9.978963,-1.3431783,14.913517,-38.13071,59.263245,21.03326,2.9917305,-0.5222272,-4.4725337,-12.798689,40.29692,59.54359,-7.874072,8.324595,-8.57717
6,0.07176599651575089,2.11422061920166,78.80509185791016,-0.7388584738224461,-0.9656404386911362,-86.98902501694936,2.476871,3.8329816,0.28910992,6.8974977,-7.4748125,-7.203912,4.013996,-1.5989745,-7.5556,6.9326925,-10.885915,4.884501,-2.61666,0.5635914,9.995394,-1.3157516,14.916355,-38.09751,59.237892,21.087725,3.0041792,-0.5442485,-4.4671855,-12.792484,40.22467,59.51956,-7.800914,8.320289,-8.46363
7,0.07270925492048264,2.100476026535034,78.81097412109375,-0.7395888937290442,-0.9696330955141078,-86.9716849990094,2.5128915,3.8276134,0.2830326,6.857472,-7.4691257,-7.243715,4.042921,-1.6088862,-7.575878,6.933064,-10.914595,4.9111514,-2.6300213,0.5623556,10.019141,-1.3022399,14.922837,-38.07514,59.215374,21.146906,3.0106308,-0.57049966,-4.455989,-12.781037,40.106163,59.48632,-7.749811,8.318913,-8.335109
8,0.08872736245393753,2.0647025108337402,78.82209777832031,-0.7424466180182249,-0.9653624718286687,-86.94669022808816,2.528155,3.8203924,0.26306754,6.8405085,-7.467437,-7.262269,4.0636106,-1.6166986,-7.6006026,6.933058,-10.932349,4.917933,-2.644968,0.56298333,10.029725,-1.29218,14.928479,-38.0741,59.20313,21.178514,3.009047,-0.58311623,-4.441914,-12.771744,40.032196,59.459675,-7.71626,8.324655,-8.255179
9,0.09782438725233078,2.035809278488159,78.830322265625,-0.7481234172904723,-0.9518715788034712,-86.90722393996401,2.5177543,3.8115878,0.2176297,6.855637,-7.471863,-7.254295,4.0763345,-1.6200995,-7.634831,6.9341555,-10.933715,4.89114,-2.6665325,0.5676837,10.02831,-1.2859075,14.932244,-38.089924,59.203453,21.186665,2.9916828,-0.5793744,-4.4227896,-12.765543,40.008533,59.43776,-7.716452,8.341492,-8.242546
10,0.10750150680541992,2.010066509246826,78.83321380615234,-0.7578359239311854,-0.9335187367887463,-86.8556349904616,2.4931529,3.8019507,0.15297835,6.890325,-7.480379,-7.231415,4.087213,-1.6201773,-7.6780577,6.9358172,-10.9250965,4.8407326,-2.694661,0.5754387,10.021947,-1.2835592,14.934472,-38.113182,59.21228,21.1838,2.9617863,-0.5675572,-4.4020796,-12.76184,40.00887,59.416004,-7.739672,8.366415,-8.264272
11,0.1142059713602066,1.9918955564498901,78.83414459228516,-0.7662373995549645,-0.9095727983994581,-86.80546546465179,2.456708,3.790053,0.09027917,6.9336414,-7.4893026,-7.196911,4.0892606,-1.6222891,-7.7193046,6.9374137,-10.914227,4.790218,-2.7146564,0.5810765,10.009197,-1.2871996,14.937481,-38.150604,59.224716,21.163237,2.933512,-0.55040395,-4.3798103,-12.756305,40.018837,59.39665,-7.7736597,8.392702,-8.298508
12,0.13297922909259796,1.9700231552124023,78.83040618896484,-0.7675010763660283,-0.8795858264863028,-86.77036156899393,2.414605,3.7742765,0.05110489,6.967978,-7.4919925,-7.154019,4.076673,-1.6321197,-7.747315,6.938389,-10.909604,4.763228,-2.7257686,0.58021116,9.995313,-1.2968515,14.940403,-38.18036,59.234245,21.132301,2.9177105,-0.5347094,-4.3688445,-12.749532,40.03031,59.384327,-7.811452,8.4126425,-8.319869
13,0.14575240015983582,1.9571367502212524,78.8191909790039,-0.7574651061667806,-0.839683324625621,-86.7575459607055,2.3571932,3.750934,0.047754586,7.000151,-7.4885516,-7.0886188,4.039382,-1.6556364,-7.7551603,6.938901,-10.911799,4.7683816,-2.7258093,0.5698099,9.984553,-1.3159368,14.941667,-38.189636,59.23631,21.088934,2.9202893,-0.5224891,-4.375248,-12.745329,40.04298,59.37531,-7.866985,8.427171,-8.319025
14,0.1610962301492691,1.950228214263916,78.80882263183594,-0.7408038248957294,-0.791357193318145,-86.75853928314359,2.2858806,3.7218027,0.06674455,7.033461,-7.480679,-7.003938,3.9834254,-1.6883525,-7.750042,6.939319,-10.91727,4.792231,-2.718395,0.55207276,9.970784,-1.3419574,14.94244,-38.19289,59.236576,21.026646,2.9346943,-0.50913286,-4.394702,-12.739901,40.06646,59.37523,-7.9345136,8.439242,-8.312442
15,0.17074529826641083,1.9469966888427734,78.80474853515625,-0.7227345355990498,-0.7424099112892334,-86.76308272327927,2.2176194,3.694254,0.08981139,7.059073,-7.4716167,-6.929527,3.9273,-1.720229,-7.7426696,6.9384065,-10.926938,4.8255906,-2.7097304,0.5344684,9.957717,-1.3683629,14.942701,-38.19088,59.235462,20.971563,2.95089,-0.49690473,-4.4163723,-12.735476,40.088356,59.37459,-7.996279,8.445123,-8.302851
16,0.1836976855993271,1.9392544031143188,78.80369567871094,-0.7139522911782518,-0.7005656022113145,-86.76103677571484,2.1762397,3.6750984,0.09921798,7.0545783,-7.4577928,-6.8946714,3.8863134,-1.7422129,-7.7434664,6.9388556,-10.942522,4.8593645,-2.7091525,0.52407324,9.944541,-1.385618,14.942896,-38.188793,59.23404,20.941755,2.9596105,-0.4860679,-4.4276967,-12.732537,40.10163,59.367188,-8.031641,8.441696,-8.296212
17,0.19037465751171112,1.9240299463272095,78.79959106445312,-0.7142947009569577,-0.667678836242824,-86.75210831088285,2.1701868,3.6682527,0.090433605,7.011162,-7.4412737,-6.923617,3.8684034,-1.7490132,-7.7542586,6.937172,-10.969663,4.9031296,-2.724143,0.52187324,9.928371,-1.3900074,14.943786,-38.185707,59.237457,20.944841,2.956015,-0.475733,-4.429286,-12.726161,40.113182,59.356316,-8.022711,8.419195,-8.295403
18,0.19669604301452637,1.9047824144363403,78.79397583007812,-0.7206278076851297,-0.6396545358497174,-86.74091563663625,2.1917343,3.6693003,0.073088944,6.930447,-7.417375,-6.9951825,3.8620608,-1.7470667,-7.7698827,6.9365807,-11.006838,4.957866,-2.7437367,0.5257343,9.910079,-1.3861234,14.945107,-38.18455,59.24122,20.970053,2.9463708,-0.4659429,-4.423605,-12.720968,40.114643,59.34321,-7.9884334,8.381401,-8.295711
19,0.19226829707622528,1.8888272047042847,78.79095458984375,-0.7301591629690755,-0.6153827231891893,-86.7245573530863,2.2147312,3.67289,0.04933874,6.8570065,-7.3982964,-7.070847,3.8627906,-1.7419311,-7.7903724,6.9361196,-11.0409565,5.0010567,-2.7629154,0.53117424,9.895501,-1.3820065,14.948564,-38.18387,59.241444,21.004354,2.9359956,-0.45901835,-4.4164443,-12.71127,40.108913,59.329655,-7.947289,8.347734,-8.296845
20,0.19852957129478455,1.8634308576583862,78.79879760742188,-0.7391143476250089,-0.5938540262475773,-86.70017634997028,2.2156048,3.6735318,0.02119954,6.8310943,-7.394612,-7.112017,3.8653874,-1.7397798,-7.8158755,6.9355545,-11.059269,5.0103116,-2.776839,0.53637654,9.891393,-1.3859804,14.953282,-38.18207,59.234463,21.03485,2.9301944,-0.45684263,-4.4182544,-12.700153,40.102165,59.319977,-7.910916,8.336437,-8.297548
21,0.21364282071590424,1.8378362655639648,78.81149291992188,-0.7493393153611617,-0.5791786688747675,-86.6599607053669,2.204944,3.671894,-0.016314782,6.8381734,-7.3933916,-7.104738,3.875413,-1.7396508,-7.8524785,6.9372234,-11.053881,4.959782,-2.7905395,0.54252243,9.905162,-1.395975,14.95906,-38.16953,59.212875,21.068426,2.9298668,-0.46171653,-4.431049,-12.68762,40.094822,59.31071,-7.871661,8.363129,-8.297221
22,0.22157332301139832,1.8144173622131348,78.82010650634766,-0.760664650134799,-0.5705656206185029,-86.60766374455864,2.1766436,3.669916,-0.06328306,6.8924575,-7.4085255,-7.070725,3.8934164,-1.7395643,-7.8980556,6.9396443,-11.032418,4.868128,-2.805307,0.5523558,9.931356,-1.4096574,14.9627495,-38.15011,59.182487,21.108467,2.93236,-0.47142375,-4.4472704,-12.679916,40.087383,59.29549,-7.82299,8.414777,-8.296294
23,0.23349180817604065,1.7979204654693604,78.82481384277344,-0.7697118577217759,-0.5590843269394771,-86.55792623642894,2.139893,3.6650493,-0.10685985,6.9557247,-7.426994,-7.025239,3.905265,-1.7423418,-7.940641,6.9422636,-11.009368,4.779317,-2.81942,0.5603406,9.957912,-1.4273221,14.967506,-38.12822,59.152206,21.141233,2.9365196,-0.4833738,-4.470118,-12.670546,40.087368,59.2869,-7.789482,8.466839,-8.296328
24,0.24728812277317047,1.7859210968017578,78.82743072509766,-0.7736274340060175,-0.5357882400354222,-86.52527197643047,2.1019418,3.654189,-0.13426521,6.9922733,-7.4363136,-6.9835663,3.8969483,-1.7516359,-7.968134,6.943434,-10.998549,4.7374372,-2.8233862,0.56526774,9.970124,-1.4524789,14.970464,-38.123547,59.1352,21.147377,2.943017,-0.49224028,-4.493824,-12.664818,40.100418,59.28894,-7.789546,8.49457,-8.298853
25,0.2630216181278229,1.775333285331726,78.81781768798828,-0.7686346371928807,-0.4935313013009552,-86.51797016762293,2.0568461,3.635087,-0.13740468,6.9955072,-7.4332347,-6.9439425,3.8554916,-1.7698921,-7.972416,6.9426208,-11.004097,4.7640414,-2.8144238,0.56405944,9.96026,-1.4907341,14.973239,-38.14256,59.139538,21.107168,2.9515636,-0.49910125,-4.523179,-12.658808,40.138844,59.314377,-7.8512387,8.48723,-8.306227
26,0.2813932001590729,1.7673979997634888,78.8017349243164,-0.7604396191280494,-0.4383340798016826,-86.52672996972403,2.0049734,3.609729,-0.12463274,6.9788265,-7.421666,-6.900195,3.7910984,-1.7950771,-7.9615693,6.941309,-11.019051,4.832423,-2.7962217,0.5595156,9.934151,-1.5369291,14.97522,-38.181812,59.157536,21.030027,2.9631736,-0.50380963,-4.557988,-12.651987,40.199768,59.359886,-7.9504867,8.4589815,-8.318889
27,0.30066409707069397,1.7637500762939453,78.7938232421875,-0.7491787252627792,-0.38239491718778956,-86.53979261118363,1.9565142,3.5824208,-0.10803433,6.9552255,-7.4106207,-6.860987,3.7253613,-1.8227785,-7.9476237,6.9393816,-11.03894,4.913937,-2.775719,0.55346245,9.907588,-1.5849519,14.976049,-38.2202,59.17735,20.958426,2.9758873,-0.5066075,-4.592102,-12.64672,40.25428,59.40222,-8.050813,8.423816,-8.330013
28,0.3115530014038086,1.7606556415557861,78.79182434082031,-0.739089361612557,-0.33693662076533326,-86.54546987887431,1.9252692,3.5573995,-0.09966567,6.927271,-7.402901,-6.8351126,3.6794322,-1.8485919,-7.942947,6.9380264,-11.060615,4.979844,-2.7663698,0.54805934,9.886842,-1.6183997,14.976267,-38.246098,59.186394,20.920694,2.9901009,-0.5030105,-4.623828,-12.6380825,40.297558,59.433838,-8.097353,8.395869,-8.339848
29,0.32242780923843384,1.7523860931396484,78.7911376953125,-0.7289634249273041,-0.3042849793672493,-86.54088006346925,1.9159452,3.5332465,-0.10306153,6.894872,-7.4035397,-6.8270497,3.659623,-1.8742659,-7.951839,6.9375606,-11.087689,5.0294027,-2.770567,0.5439573,9.879641,-1.6319456,14.976522,-38.242012,59.173374,20.951483,3.0089855,-0.49761543,-4.6473417,-12.632247,40.301598,59.43635,-8.077893,8.372432,-8.341995
30,0.33163803815841675,1.7361055612564087,78.79139709472656,-0.7164133817169565,-0.27848344174801776,-86.53235258882619,1.920845,3.508598,-0.111660495,6.855543,-7.4084463,-6.8314037,3.6538804,-1.9012518,-7.967312,6.9374247,-11.120272,5.075661,-2.782998,0.5387751,9.876204,-1.6317146,14.977132,-38.224762,59.149128,21.019623,3.0324092,-0.4887922,-4.6654487,-12.627113,40.288574,59.42384,-8.01267,8.348906,-8.341869
31,0.3426063656806946,1.7179250717163086,78.79296112060547,-0.7079768560288628,-0.2593136480346222,-86.52122633818291,1.9251784,3.487618,-0.12320708,6.8342066,-7.42184,-6.842047,3.657863,-1.9243655,-7.985177,6.9380417,-11.150887,5.1105976,-2.7979252,0.53581846,9.884215,-1.630731,14.978719,-38.19548,59.118637,21.097055,3.0493076,-0.47636393,-4.689267,-12.620592,40.265835,59.40959,-7.943916,8.331854,-8.337212
32,0.3454268276691437,1.6958285570144653,78.80137634277344,-0.7055842296476832,-0.2457433325696969,-86.50943951738287,1.9249521,3.4747145,-0.13449097,6.8330073,-7.4369416,-6.852778,3.6651626,-1.9384485,-8.000798,6.937938,-11.1693325,5.1263213,-2.8042257,0.53737694,9.90273,-1.6447649,14.981305,-38.17826,59.09553,21.134308,3.0510945,-0.45442507,-4.7142215,-12.614271,40.253746,59.394146,-7.894932,8.331262,-8.332513
33,0.3573465049266815,1.6749391555786133,78.81237030029297,-0.714645969063794,-0.24414992914400516,-86.49505324185996,1.9351287,3.4760497,-0.14572024,6.832844,-7.438943,-6.8714805,3.6822274,-1.9371384,-8.014434,6.9380226,-11.169502,5.110171,-2.7994003,0.5478107,9.942763,-1.6793969,14.984547,-38.17463,59.079937,21.11279,3.0264575,-0.4127832,-4.7473345,-12.609397,40.25336,59.382385,-7.8716407,8.356606,-8.324457
34,0.3731343746185303,1.6575466394424438,78.81766510009766,-0.7323389315566626,-0.2525840798495793,-86.47805019546813,1.9554313,3.4877667,-0.15794909,6.832727,-7.432644,-6.8983026,3.708881,-1.9248672,-8.027927,6.9390683,-11.157828,5.069871,-2.7874768,0.56427395,9.99877,-1.727536,14.988176,-38.179466,59.069206,21.05488,2.9834251,-0.35583565,-4.78258,-12.605977,40.25884,59.366615,-7.8560233,8.401822,-8.314126
35,0.38456016778945923,1.6439014673233032,78.81852722167969,-0.7486761499245647,-0.25867924595607417,-86.46216971163716,1.971949,3.4985828,-0.1689591,6.832931,-7.423068,-6.915672,3.7313888,-1.9131854,-8.039492,6.9399576,-11.144853,5.02824,-2.7720013,0.57962763,10.051009,-1.7775291,14.993779,-38.189404,59.05975,20.99365,2.9412668,-0.30492103,-4.816611,-12.6023035,40.26843,59.352974,-7.8563967,8.447451,-8.305619
36,0.3954336643218994,1.6288623809814453,78.81988525390625,-0.7569336135945185,-0.2504534249875812,-86.45140946809855,1.9718459,3.4971468,-0.17637128,6.832715,-7.4150844,-6.9060116,3.7359114,-1.913845,-8.047223,6.9395986,-11.140379,5.0080404,-2.7563257,0.5896613,10.081857,-1.8219044,14.999346,-38.201084,59.050587,20.958551,2.9192502,-0.28089857,-4.850281,-12.59932,40.284096,59.350346,-7.8728566,8.472801,-8.303428
37,0.4052891731262207,1.6166120767593384,78.81446075439453,-0.7531484706098666,-0.21934161244495193,-86.44884160200736,1.9393274,3.4773443,-0.17850542,6.842259,-7.412058,-6.850628,3.708889,-1.9332625,-8.048145,6.940625,-11.147046,5.016244,-2.7403169,0.5900393,10.078824,-1.8578564,15.004396,-38.21296,59.043186,20.962471,2.9253807,-0.29732704,-4.8792524,-12.596515,40.311974,59.36048,-7.927456,8.472489,-8.309028
38,0.4202747642993927,1.6001635789871216,78.80265045166016,-0.7409180477566671,-0.17365998469107025,-86.45150903254998,1.8770529,3.446002,-0.17749286,6.876797,-7.420544,-6.7634125,3.6619062,-1.9640195,-8.044198,6.941186,-11.158866,5.040371,-2.7269437,0.5854089,10.053516,-1.8874177,15.008991,-38.22447,59.036243,20.985464,2.9489055,-0.33969733,-4.9118443,-12.59345,40.357582,59.38687,-8.006363,8.456729,-8.321506
39,0.4393826127052307,1.5890141725540161,78.79574584960938,-0.7268429657702948,-0.12560175881868466,-86.45459900101885,1.8151935,3.412037,-0.17569472,6.906825,-7.4304934,-6.6761956,3.6136167,-1.9977944,-8.040498,6.94097,-11.176581,5.074337,-2.720348,0.578828,10.021247,-1.9079344,15.012875,-38.226997,59.028027,21.025805,2.9788766,-0.38928998,-4.943116,-12.58956,40.40652,59.414036,-8.078714,8.433442,-8.336812
40,0.46910256147384644,1.5833576917648315,78.79352569580078,-0.7156554309612227,-0.08776542922652734,-86.45328993950208,1.7794641,3.3833683,-0.17549562,6.9139743,-7.4382505,-6.620569,3.5830674,-2.0270038,-8.042094,6.9414473,-11.2024975,5.1118927,-2.708005,0.5748455,10.000151,-1.92731,15.013694,-38.228462,59.020412,21.07997,3.0052085,-0.4273865,-4.9603157,-12.588673,40.419003,59.418674,-8.122431,8.40906,-8.347068
41,0.4884559214115143,1.5725046396255493,78.7928695678711,-0.7085836579601018,-0.06307918457212548,-86.44693143820376,1.7785738,3.3612921,-0.17608337,6.892018,-7.4464655,-6.6080194,3.57641,-2.051452,-8.050396,6.942432,-11.242348,5.157125,-2.7069874,0.571764,9.987853,-1.9352053,15.014469,-38.218567,59.01032,21.156963,3.0330288,-0.45586467,-4.9752455,-12.587053,40.425064,59.41178,-8.093815,8.376494,-8.360947
42,0.5006942749023438,1.5540223121643066,78.79219055175781,-0.7023784334315796,-0.045751589920938925,-86.43784710332434,1.8011593,3.3415132,-0.17635025,6.8467674,-7.4535513,-6.6206584,3.5846586,-2.0746279,-8.062602,6.9427624,-11.293376,5.2114577,-2.709733,0.56870943,9.979511,-1.9310246,15.015009,-38.195713,58.994957,21.263908,3.0646813,-0.4835586,-4.981135,-12.584903,40.41128,59.391346,-8.032486,8.335746,-8.374229
43,0.5122177600860596,1.5318877696990967,78.78844451904297,-0.6984805256908392,-0.03174589155152657,-86.42581602984575,1.8114063,3.3251998,-0.18070246,6.8367558,-7.4807405,-6.64604,3.5982497,-2.0940235,-8.077809,6.9428034,-11.343157,5.264649,-2.714281,0.56659305,9.979058,-1.9269551,15.015581,-38.168854,58.978825,21.360435,3.0872083,-0.49851623,-4.986659,-12.582349,40.385475,59.363075,-7.9683475,8.302092,-8.383213
44,0.5108200311660767,1.5088577270507812,78.7913818359375,-0.6983375142392082,-0.017188218855849837,-86.41057249254435,1.8133488,3.3139951,-0.19127944,6.8354015,-7.503629,-6.671969,3.6085758,-2.1070745,-8.094964,6.9425297,-11.379681,5.306521,-2.7216814,0.5670533,9.985879,-1.9308031,15.016366,-38.151318,58.96635,21.40048,3.08854,-0.48643586,-4.99717,-12.580173,40.365364,59.33222,-7.925851,8.292121,-8.38617
45,0.5149659514427185,1.4855080842971802,78.79525756835938,-0.7040098740100533,-0.003557757523872208,-86.39139342097178,1.8116194,3.312145,-0.21036597,6.834034,-7.5146046,-6.7080374,3.6163306,-2.1089294,-8.114215,6.9417295,-11.396848,5.336618,-2.7356799,0.57194364,10.009039,-1.943993,15.018798,-38.138756,58.95543,21.361797,3.049492,-0.43044406,-5.020674,-12.576967,40.352154,59.297417,-7.9145555,8.31961,-8.377994
46,0.5262565016746521,1.4613409042358398,78.7973861694336,-0.7159386440203782,0.008239854154086911,-86.36855509508537,1.8099571,3.3178775,-0.2359449,6.8316746,-7.5186105,-6.756474,3.6242082,-2.102018,-8.136064,6.9410496,-11.401959,5.359634,-2.7565231,0.58067065,10.040927,-1.9596832,15.0215845,-38.13332,58.946365,21.26544,2.9827735,-0.3401757,-5.0491533,-12.574711,40.34849,59.256596,-7.912255,8.373571,-8.364084
47,0.5375928282737732,1.4415785074234009,78.79698181152344,-0.7271665458688056,0.021722798891153552,-86.3434970860735,1.804554,3.322233,-0.26360962,6.8302774,-7.519665,-6.7940874,3.629879,-2.0959187,-8.159503,6.9400344,-11.403405,5.372986,-2.7791727,0.58796316,10.073236,-1.977747,15.025299,-38.12924,58.936954,21.154724,2.920573,-0.24942537,-5.0781946,-12.572279,40.346085,59.217327,-7.920297,8.430366,-8.349563
48,0.5478458404541016,1.4250586032867432,78.79871368408203,-0.7321725718788263,0.04096265881863098,-86.31761761458347,1.7915622,3.3168023,-0.28898123,6.830936,-7.52092,-6.7977276,3.6285515,-2.0998964,-8.183586,6.9399843,-11.409053,5.37422,-2.7960956,0.58882034,10.092445,-1.9963952,15.02947,-38.12664,58.928165,21.070421,2.8960938,-0.18990614,-5.098827,-12.569413,40.34272,59.185383,-7.931995,8.4671755,-8.341455
49,0.5600847005844116,1.4085179567337036,78.79975891113281,-0.7277561109381291,0.06840870784137373,-86.2903820940655,1.7681774,3.2958474,-0.31040308,6.83273,-7.5200005,-6.744371,3.6164117,-2.11957,-8.208626,6.941346,-11.419797,5.352607,-2.803486,0.57876027,10.093578,-2.0195317,15.033435,-38.12662,58.922092,21.018507,2.9295852,-0.16929215,-5.1087465,-12.565969,40.336266,59.16666,-7.954689,8.476974,-8.343706
50,0.5746685862541199,1.3908522129058838,78.7990951538086,-0.7192415005504108,0.10138756720271261,-86.26153792715634,1.737267,3.2651665,-0.33013383,6.8349414,-7.515513,-6.651912,3.597122,-2.1491466,-8.23475,6.9436517,-11.431891,5.312799,-2.8068428,0.56297725,10.081436,-2.0429826,15.035083,-38.127926,58.91816,20.980385,2.999419,-0.16965674,-5.1113706,-12.5640335,40.332718,59.15638,-7.9853315,8.472715,-8.351952
51,0.5950909852981567,1.374934434890747,78.79449462890625,-0.710767477030811,0.1366430275412878,-86.23204496413223,1.7037712,3.2330692,-0.35071784,6.8383245,-7.5133305,-6.5587754,3.5759518,-2.180331,-8.261524,6.94608,-11.44593,5.2752504,-2.8019712,0.5439337,10.068819,-2.078006,15.039191,-38.13979,58.920933,20.950636,3.076935,-0.18906003,-5.1099668,-12.55639,40.312935,59.14791,-8.022417,8.459286,-8.360024
52,0.6179390549659729,1.3604506254196167,78.7917709350586,-0.7040049002220088,0.16909165446719793,-86.20387968374997,1.6761804,3.207186,-0.3732777,6.840229,-7.5175576,-6.502906,3.560383,-2.2052715,-8.287461,6.948714,-11.464191,5.260702,-2.8091927,0.534433,10.057215,-2.0969772,15.041228,-38.146507,58.917408,20.93496,3.132521,-0.22039498,-5.1101036,-12.551345,40.299114,59.138123,-8.04661,8.443526,-8.3623295
53,0.6331095695495605,1.345645785331726,78.78661346435547,-0.7048759380113584,0.1976196520420296,-86.17696892257217,1.6565202,3.1905894,-0.39996403,6.839768,-7.5303984,-6.5021515,3.5535605,-2.220801,-8.312806,6.9482803,-11.486309,5.278849,-2.826611,0.53681195,10.050497,-2.106289,15.044097,-38.156384,58.910378,20.931957,3.1614838,-0.27535355,-5.1125603,-12.5436125,40.276436,59.1286,-8.065133,8.418182,-8.354653
54,0.6449869275093079,1.3243106603622437,78.77932739257812,-0.7096766629398289,0.22436335273832186,-86.15113187159287,1.6411829,3.1789324,-0.42883813,6.8383865,-7.5497246,-6.533636,3.551007,-2.231087,-8.337565,6.947629,-11.512794,5.3171377,-2.851112,0.5478021,10.044917,-2.108279,15.046775,-38.166996,58.90036,20.942303,3.1781852,-0.35317096,-5.1160736,-12.53636,40.250458,59.12135,-8.07952,8.3817215,-8.340533
55,0.653533399105072,1.3029435873031616,78.77327728271484,-0.7142787747902908,0.25116023954264,-86.12602596755485,1.6278163,3.1686203,-0.4573743,6.8360577,-7.5713983,-6.5745807,3.5495253,-2.240322,-8.361866,6.9470162,-11.539928,5.3632603,-2.8720329,0.5574267,10.040785,-2.108437,15.050461,-38.178658,58.890064,20.962969,3.1825075,-0.43050706,-5.117203,-12.527815,40.2186,59.11075,-8.087843,8.351414,-8.325694
56,0.6622268557548523,1.2753387689590454,78.77471160888672,-0.7145056886018523,0.27984298528032725,-86.10139269174685,1.612811,3.1565278,-0.4831357,6.83525,-7.5924573,-6.602238,3.547099,-2.2521245,-8.385841,6.946542,-11.564941,5.4045887,-2.8929744,0.55941015,10.036834,-2.1039183,15.052655,-38.17927,58.879562,20.991852,3.173902,-0.48310426,-5.1156535,-12.523714,40.203735,59.088768,-8.074087,8.345056,-8.318001
57,0.6665948033332825,1.2489889860153198,78.7830581665039,-0.7092342176590836,0.3100099614904494,-86.07695261617003,1.5981197,3.1417372,-0.5056067,6.8344383,-7.6126213,-6.6135945,3.545188,-2.267286,-8.409658,6.945054,-11.584911,5.442387,-2.900568,0.5478478,10.03946,-2.1001391,15.056878,-38.170567,58.86588,21.038572,3.1398962,-0.5039387,-5.111546,-12.518179,40.18191,59.05296,-8.041917,8.375258,-8.3150015
58,0.6671193838119507,1.2162929773330688,78.78999328613281,-0.7004544578814771,0.3412977758795904,-86.05240964558217,1.5836784,3.126389,-0.52656364,6.8337893,-7.633283,-6.6198654,3.543134,-2.2840047,-8.433595,6.9457536,-11.6040945,5.4818077,-2.9057157,0.5272991,10.045659,-2.0912597,15.064555,-38.151657,58.847458,21.098833,3.0843308,-0.5046599,-5.105073,-12.510625,40.162926,59.00449,-7.9899063,8.431591,-8.316348
59,0.6794304847717285,1.1847397089004517,78.78992462158203,-0.691159594210873,0.373918822742016,-86.03000838445489,1.5682079,3.1102178,-0.54452085,6.8339605,-7.653629,-6.6193542,3.5394201,-2.3015857,-8.456017,6.9455767,-11.622943,5.516031,-2.9122636,0.5001759,10.05201,-2.068811,15.087998,-38.12368,58.811226,21.162827,3.0332875,-0.50142,-5.1101594,-12.491986,40.15503,58.97332,-7.9385552,8.487197,-8.321314
60,0.695464551448822,1.1485378742218018,78.78762817382812,-0.6849018096056191,0.40871854897114945,-86.01150510967213,1.549961,3.0935533,-0.5581574,6.833415,-7.6705494,-6.6105633,3.53072,-2.3194528,-8.475251,6.9447074,-11.643759,5.5383525,-2.9054973,0.47823045,10.047741,-2.0657272,15.099177,-38.115917,58.804443,21.211847,3.0107749,-0.50132215,-5.102706,-12.483343,40.15424,58.94621,-7.9013543,8.519422,-8.328972
61,0.711896538734436,1.123419165611267,78.78575134277344,-0.6842236043319047,0.4489561518313007,-85.99657769583206,1.5237269,3.0771813,-0.5673458,6.834137,-7.681978,-6.5894704,3.5105267,-2.3365827,-8.49183,6.946712,-11.667996,5.5363073,-2.8880727,0.46364406,10.028134,-2.0724745,15.106624,-38.12487,58.81177,21.249973,3.033035,-0.51395434,-5.0933466,-12.477203,40.16239,58.94334,-7.8919253,8.516751,-8.34074
62,0.7245746850967407,1.101784110069275,78.77945709228516,-0.6870449046258419,0.4929694422395305,-85.98468167683181,1.4928905,3.061024,-0.57263243,6.8347015,-7.689156,-6.5581403,3.4842937,-2.353146,-8.506229,6.947162,-11.692541,5.517035,-2.862102,0.45375293,10.001236,-2.0879927,15.108651,-38.136295,58.831833,21.28944,3.0819073,-0.5316864,-5.081984,-12.475394,40.171738,58.952393,-7.904011,8.494188,-8.35347
63,0.7429084777832031,1.0836782455444336,78.7732925415039,-0.6882732601953884,0.5351959149683706,-85.97679525786484,1.4639335,3.0425744,-0.5740581,6.8357887,-7.6977806,-6.523877,3.45783,-2.3725758,-8.516912,6.94974,-11.721017,5.5032105,-2.8211436,0.4372149,9.966942,-2.1137066,15.114708,-38.183662,58.867588,21.29651,3.140106,-0.54163074,-5.0626493,-12.466983,40.193855,58.970615,-7.9059734,8.462746,-8.373503
64,0.7780190110206604,1.0591704845428467,78.76465606689453,-0.6837931996672718,0.5669617033853763,-85.97391484176619,1.4493451,3.0198383,-0.5714697,6.8361306,-7.7146583,-6.493916,3.444453,-2.3970315,-8.522508,6.9509172,-11.754171,5.517491,-2.785264,0.4200231,9.958045,-2.1341214,15.116859,-38.206146,58.892723,21.30433,3.182549,-0.54142135,-5.0569453,-12.462565,40.20546,58.987225,-7.9155254,8.43199,-8.381356
65,0.7935474514961243,1.0359385013580322,78.7567138671875,-0.6697312117332924,0.5831063771522669,-85.97657847204523,1.4531828,2.9880939,-0.5643289,6.836945,-7.7400794,-6.463185,3.4482124,-2.4306607,-8.520179,6.9512153,-11.78781,5.567127,-2.746742,0.3952028,9.974308,-2.1559887,15.117875,-38.2269,58.914837,21.283293,3.2115455,-0.52318555,-5.062264,-12.458982,40.21716,59.00759,-7.916143,8.395799,-8.38124
66,0.8075939416885376,1.0150244235992432,78.75019073486328,-0.6496366808471388,0.5886333609550983,-85.98412219816716,1.4697157,2.9503386,-0.55308336,6.838341,-7.771493,-6.430257,3.46308,-2.4708004,-8.5116625,6.9514103,-11.823172,5.6396427,-2.7042935,0.36528322,10.007209,-2.179145,15.117906,-38.247887,58.936058,21.24188,3.2361977,-0.4925404,-5.0745606,-12.455278,40.229366,59.03296,-7.915346,8.351896,-8.375749
67,0.8253818154335022,0.9872477650642395,78.74630737304688,-0.6285933866913055,0.5930078238343812,-85.99602161563153,1.4904664,2.91348,-0.53832155,6.8386497,-7.809166,-6.4074016,3.4812057,-2.5111358,-8.501792,6.9510136,-11.868266,5.7283263,-2.6657639,0.33748657,10.047007,-2.194613,15.117313,-38.258083,58.950832,21.206724,3.2484457,-0.45720008,-5.0889626,-12.45292,40.237377,59.05315,-7.9194126,8.316485,-8.365861
68,0.835814893245697,0.9638441801071167,78.7488784790039,-0.612094883428856,0.6056885956199418,-86.01195785600963,1.5069854,2.885198,-0.52057225,6.837812,-7.854952,-6.407084,3.4942024,-2.5452456,-8.495336,6.950723,-11.932297,5.826385,-2.6349924,0.31800023,10.081552,-2.198333,15.115985,-38.258404,58.96069,21.194492,3.2407477,-0.42223468,-5.104468,-12.450295,40.241722,59.066498,-7.9242997,8.304798,-8.355907
69,0.8496187925338745,0.9289206266403198,78.75353240966797,-0.6042889746325837,0.6304012413002813,-86.03552614449036,1.5172123,2.8732402,-0.49640408,6.8361125,-7.910772,-6.4463077,3.4998178,-2.5655847,-8.49081,6.9499893,-12.017473,5.9359922,-2.6193752,0.31597078,10.109993,-2.1773899,15.114685,-38.23499,58.95764,21.230314,3.1936972,-0.38346434,-5.122239,-12.4482,40.237988,59.067535,-7.9380274,8.330063,-8.343744
70,0.8650714755058289,0.8925468921661377,78.75637817382812,-0.6015445520234753,0.6617468075708152,-86.06594188866974,1.5257286,2.8717294,-0.46640807,6.8336706,-7.9752936,-6.5138903,3.5019896,-2.5774682,-8.486436,6.9496703,-12.11949,6.0594325,-2.6264365,0.32482904,10.141186,-2.1308599,15.113015,-38.168194,58.937637,21.309492,3.1160085,-0.3427406,-5.151198,-12.443709,40.236847,59.061996,-7.9603734,8.3816,-8.327123
71,0.8633110523223877,0.8560575246810913,78.7564697265625,-0.5970526314433813,0.6954450704151004,-86.09503798872909,1.5317385,2.8674066,-0.43853706,6.832184,-8.045655,-6.5802827,3.5041904,-2.5938175,-8.487901,6.9489627,-12.236041,6.190446,-2.6258845,0.33053786,10.166914,-2.087814,15.112662,-38.12202,58.91887,21.373837,3.0460143,-0.3064712,-5.171666,-12.44134,40.229927,59.052036,-7.9779806,8.437162,-8.311505
72,0.8705422282218933,0.824376106262207,78.75484466552734,-0.5839412318957304,0.7266440992562112,-86.11540035743967,1.53666,2.8467505,-0.41996586,6.8308544,-8.118309,-6.61577,3.5094461,-2.6282656,-8.499831,6.9498963,-12.366464,6.3227515,-2.6388996,0.31729755,10.197472,-2.049415,15.113852,-38.051586,58.89391,21.421623,3.0143905,-0.29519224,-5.2048335,-12.436277,40.236774,59.05483,-7.9936686,8.474242,-8.293786
73,0.8824707269668579,0.798613965511322,78.75086975097656,-0.5634539834247969,0.7512709710953017,-86.12845201162665,1.5426134,2.8093011,-0.41074017,6.8317275,-8.192206,-6.607005,3.5189877,-2.6803036,-8.520316,6.9522734,-12.503036,6.4339795,-2.6170998,0.28240106,10.220303,-2.047841,15.114373,-38.037987,58.885918,21.401217,3.0521882,-0.31524348,-5.214505,-12.435047,40.232426,59.054947,-8.000813,8.489542,-8.272304
74,0.9026331901550293,0.7766277194023132,78.7467041015625,-0.5385100869480609,0.7723577524778494,-86.13702785177082,1.5494995,2.7613835,-0.40758926,6.83304,-8.268669,-6.571837,3.532062,-2.7437623,-8.547882,6.9554973,-12.649271,6.53432,-2.5867455,0.23353632,10.24542,-2.0619526,15.115616,-38.028366,58.87832,21.355991,3.1319602,-0.3622667,-5.2213936,-12.433079,40.21987,59.056744,-8.012448,8.49321,-8.243688
75,0.9218995571136475,0.7505133152008057,78.74038696289062,-0.5036808786574446,0.7979514624675264,-86.13571118419163,1.5506006,2.6984162,-0.4128874,6.83468,-8.351361,-6.527063,3.5450664,-2.8246505,-8.588114,6.9588237,-12.818403,6.6666546,-2.5616698,0.17287314,10.265109,-2.078007,15.116402,-38.030373,58.87643,21.293741,3.2147195,-0.40497774,-5.2281947,-12.432372,40.21346,59.064823,-8.011034,8.486946,-8.226498
76,0.9637718796730042,0.7214470505714417,78.73477935791016,-0.45300124738082054,0.835487356206085,-86.1189724942988,1.5390027,2.6154895,-0.42857453,6.8358912,-8.442286,-6.4899335,3.556166,-2.9290535,-8.646507,6.961328,-13.024502,6.873828,-2.554452,0.1006523,10.281463,-2.0901082,15.11721,-38.036453,58.88423,21.234358,3.259844,-0.4185557,-5.2410765,-12.432064,40.208694,59.07987,-7.994676,8.470959,-8.233609
77,0.9960891604423523,0.6902257204055786,78.72928619384766,-0.3800891112015972,0.8902644413557604,-86.08374991876948,1.510905,2.5025988,-0.4559232,6.833894,-8.542657,-6.46466,3.5627203,-3.0689573,-8.731973,6.9615097,-13.288214,7.208897,-2.5640967,0.01147273,10.295423,-2.1094036,15.1180935,-38.06231,58.91645,21.158476,3.250066,-0.38033718,-5.2700067,-12.432229,40.205765,59.10801,-7.9459615,8.432035,-8.2865095
78,1.0224134922027588,0.6559687852859497,78.72151184082031,-0.2892106242747635,0.9578318127518977,-86.03412866749011,1.4692882,2.3646095,-0.4926089,6.831337,-8.651279,-6.4431925,3.5649107,-3.237866,-8.839465,6.962326,-13.597266,7.63536,-2.590489,-0.09244214,10.297773,-2.1225207,15.117984,-38.09946,58.962433,21.06826,3.2095525,-0.3090168,-5.3014693,-12.434163,40.214947,59.14372,-7.870943,8.375739,-8.373342
79,1.0389046669006348,0.6160250306129456,78.71495819091797,-0.19466520498025364,1.0291288158605814,-85.97303497189088,1.4245507,2.220584,-0.53784627,6.829496,-8.766008,-6.424231,3.5690546,-3.4114149,-8.9563,6.9621334,-13.9100275,8.062096,-2.6343107,-0.19764665,10.303061,-2.1276658,15.117187,-38.126358,59.00137,20.995787,3.158306,-0.23883148,-5.3393264,-12.436942,40.22719,59.187527,-7.79915,8.325805,-8.454965
80,1.0603885650634766,0.5671125650405884,78.71544647216797,-0.10924220819945778,1.095571846162873,-85.90405294770702,1.3856475,2.0891192,-0.59056133,6.8288016,-8.883094,-6.406087,3.5786104,-3.5666063,-9.067978,6.963374,-14.187094,8.397752,-2.6860058,-0.2932404,10.317677,-2.12285,15.116828,-38.139717,59.016575,20.966028,3.1182883,-0.20170386,-5.3718987,-12.438681,40.228813,59.232025,-7.7587686,8.307437,-8.495319
81,1.0859822034835815,0.512681782245636,78.7269058227539,-0.035731372958457755,1.1490901598687944,-85.82393286699475,1.3637124,1.9762603,-0.65179074,6.8291445,-9.008127,-6.3986955,3.604434,-3.6961772,-9.172717,6.9658575,-14.41847,8.613976,-2.7483697,-0.373372,10.349447,-2.1078675,15.117033,-38.150745,59.001385,20.989943,3.0922463,-0.20680322,-5.4036703,-12.440508,40.21706,59.284653,-7.755557,8.334947,-8.47629
82,1.1047735214233398,0.45914486050605774,78.74507141113281,0.03282659845136435,1.196351390689974,-85.73309394607845,1.3511764,1.8711567,-0.7205164,6.8309073,-9.141343,-6.400244,3.6399608,-3.8130999,-9.275789,6.971206,-14.626903,8.760642,-2.8243911,-0.4497521,10.38745,-2.0829256,15.117378,-38.15425,58.971203,21.056496,3.0692763,-0.2386016,-5.424813,-12.441079,40.203735,59.33558,-7.7766585,8.394423,-8.423128
83,1.1168384552001953,0.40390539169311523,78.76360321044922,0.09872556583358767,1.2493865427250426,-85.63651599380927,1.3305584,1.7657583,-0.7965671,6.8329463,-9.269074,-6.3902416,3.6686409,-3.9248643,-9.376698,6.975827,-14.818148,8.863834,-2.8894596,-0.518034,10.436747,-2.0597203,15.12114,-38.15635,58.917892,21.133656,3.0532677,-0.28337193,-5.4594455,-12.441641,40.152355,59.400547,-7.8224,8.458137,-8.348356
84,1.1432344913482666,0.35592055320739746,78.78313446044922,0.1631819058755638,1.3206245674386068,-85.54327961902567,1.2848932,1.6543902,-0.8760202,6.8354964,-9.380894,-6.3471355,3.6704137,-4.0376987,-9.470964,6.9807625,-15.000061,8.949519,-2.9333692,-0.58934903,10.47095,-2.0526307,15.124993,-38.1667,58.876514,21.17075,3.0460773,-0.32630014,-5.48175,-12.44242,40.104736,59.460743,-7.8520994,8.505248,-8.290727
85,1.171062707901001,0.3281465172767639,78.79942321777344,0.2270994871810086,1.4107413721976103,-85.46218408403416,1.2099475,1.5356207,-0.953277,6.8385468,-9.47453,-6.2563195,3.6376834,-4.1536965,-9.549778,6.9868016,-15.170947,9.010791,-2.9384108,-0.6648208,10.495837,-2.0729685,15.128382,-38.192245,58.850784,21.150053,3.0551233,-0.36693946,-5.4987774,-12.44458,40.041878,59.522007,-7.870171,8.529119,-8.248209
86,1.2174540758132935,0.30719488859176636,78.81104278564453,0.290054617295899,1.5141356672622144,-85.38678689064962,1.1146444,1.4124249,-1.0311826,6.8421674,-9.556439,-6.1311255,3.5821276,-4.2694283,-9.617225,6.992743,-15.328274,9.038393,-2.916042,-0.74169964,10.514383,-2.1129138,15.129615,-38.23163,58.83532,21.09418,3.0769863,-0.4106874,-5.5107512,-12.449204,39.96664,59.58514,-7.881476,8.542328,-8.209437
87,1.2615368366241455,0.25700893998146057,78.81683349609375,0.3492261331572388,1.6332029895145574,-85.30010634710472,1.0007396,1.2879719,-1.1226879,6.845491,-9.6264105,-5.9913354,3.511525,-4.381682,-9.6915,6.999781,-15.479025,9.054948,-2.8838644,-0.8092951,10.522911,-2.1610057,15.127319,-38.28227,58.819557,21.028048,3.0992677,-0.45240647,-5.5126386,-12.458023,39.880844,59.64399,-7.8903103,8.548578,-8.177579
88,1.2948143482208252,0.19378335773944855,78.8202896118164,0.4009594092279459,1.770485003192311,-85.18553172931908,0.8700675,1.1664373,-1.2411405,6.8482666,-9.685426,-5.8569055,3.4355016,-4.485992,-9.790597,7.0051255,-15.627643,9.083042,-2.8887572,-0.8600979,10.513733,-2.1832197,15.124159,-38.30655,58.781887,20.983738,3.1083899,-0.48793915,-5.521941,-12.465115,39.832752,59.71321,-7.8831367,8.552783,-8.161015
89,1.3287171125411987,0.1246160939335823,78.82220458984375,0.4468526815141421,1.9312280858141162,-85.03220427685275,0.7161452,1.0476111,-1.3981014,6.8500667,-9.728269,-5.7315087,3.3518615,-4.5837855,-9.92536,7.0098658,-15.777271,9.132103,-2.8860261,-0.88890296,10.487893,-2.2249575,15.11289,-38.374866,58.75148,20.948639,3.1090474,-0.5199504,-5.500551,-12.487398,39.748615,59.763565,-7.9164157,8.554772,-8.150601
90,1.3656182289123535,0.03404860198497772,78.81681060791016,0.49164852321327135,2.112675939227378,-84.85112234383168,0.53912264,0.9280851,-1.5846422,6.8519444,-9.756753,-5.603617,3.2579534,-4.6803603,-10.083626,7.0133595,-15.923985,9.189088,-2.9371026,-0.910093,10.44061,-2.230209,15.107408,-38.403435,58.692463,20.928968,3.1041083,-0.5518828,-5.503786,-12.49791,39.724785,59.847466,-7.946621,8.554,-8.155711
91,1.3974342346191406,-0.03132269158959389,78.81558227539062,0.5368750200451421,2.3043926602399822,-84.65940213797563,0.35436642,0.8074198,-1.7832886,6.8530974,-9.781694,-5.4700294,3.1597254,-4.7766247,-10.249083,7.017332,-16.06538,9.243093,-2.9530816,-0.9183824,10.391324,-2.257342,15.08731,-38.460423,58.63873,20.913836,3.0839012,-0.5701939,-5.4656115,-12.535953,39.654182,59.878784,-7.945247,8.548023,-8.167178
92,1.4436179399490356,-0.11260729283094406,78.81427001953125,0.5803432346543115,2.4962478558368133,-84.47244780403064,0.17539191,0.6871683,-1.9782084,6.855443,-9.814993,-5.328649,3.0644665,-4.870205,-10.407378,7.0212874,-16.198671,9.282955,-2.958421,-0.9131957,10.351137,-2.2690284,15.055498,-38.475758,58.556915,20.930363,3.0349407,-0.56923634,-5.409293,-12.597763,39.568203,59.858643,-7.8479195,8.534961,-8.188021
93,1.4839277267456055,-0.2020217776298523,78.81562805175781,0.6199319570884376,2.696783898721868,-84.2865814277818,-0.007330205,0.56501967,-2.174964,6.8587174,-9.857485,-5.165253,2.963081,-4.9600706,-10.560102,7.0252275,-16.320955,9.314151,-2.95031,-0.8914613,10.314789,-2.26364,15.016498,-38.443817,58.44152,20.995813,2.9342985,-0.53470725,-5.3306065,-12.678854,39.457577,59.782654,-7.6559772,8.518516,-8.237876
94,1.5312962532043457,-0.3005944788455963,78.81859588623047,0.6543721592517102,2.9076480809495155,-84.09572443016327,-0.19752783,0.44432145,-2.3801084,6.863318,-9.904461,-4.985449,2.8556125,-5.0447717,-10.714025,7.028614,-16.433996,9.3397455,-2.9335585,-0.8537439,10.278239,-2.2436242,14.975109,-38.380505,58.296036,21.0963,2.795119,-0.47541717,-5.235585,-12.7716255,39.32833,59.66853,-7.3937273,8.497569,-8.310654
95,1.5845516920089722,-0.40073180198669434,78.81787872314453,0.6721730736971869,3.107834435015222,-83.91250862718859,-0.37926817,0.34359413,-2.5798326,6.889707,-9.968595,-4.8176613,2.7636275,-5.110247,-10.86284,7.032802,-16.544075,9.344718,-2.9026036,-0.7978017,10.258281,-2.210686,14.933351,-38.297997,58.12287,21.197567,2.6606503,-0.4173961,-5.1356454,-12.871595,39.186024,59.527847,-7.0444613,8.463255,-8.367992
96,1.6396090984344482,-0.5096355080604553,78.81221008300781,0.6656904559359638,3.2757349140784275,-83.7504939399784,-0.54158384,0.27636686,-2.758029,6.9710817,-10.0692625,-4.6902823,2.7079582,-5.147288,-10.998972,7.037862,-16.655075,9.314911,-2.850815,-0.72249854,10.273071,-2.1701133,14.889161,-38.210606,57.928123,21.26356,2.5735576,-0.3864345,-5.0345974,-12.983605,39.035004,59.360897,-6.5920577,8.407428,-8.370558
97,1.694948434829712,-0.6199589967727661,78.80142974853516,0.6286355724383585,3.401181865432344,-83.61868339429428,-0.639969,0.25575233,-2.9042406,7.039348,-10.168939,-4.627811,2.6986842,-5.1445794,-11.117119,7.0448623,-16.769823,9.224713,-2.7742624,-0.62707615,10.327601,-2.1080155,14.845919,-38.099834,57.69645,21.296364,2.5565772,-0.39450076,-4.9356303,-13.095691,38.860638,59.172104,-5.9599566,8.3218975,-8.286548
98,1.7513885498046875,-0.7248679399490356,78.78466033935547,0.5673484491847695,3.497452244920674,-83.50817072152782,-0.6938297,0.26984656,-3.0278018,7.1023507,-10.273563,-4.610253,2.722796,-5.1112037,-11.221975,7.0528994,-16.885475,9.088986,-2.6755562,-0.51207614,10.412117,-2.0298626,14.800152,-37.966873,57.433876,21.311932,2.5830185,-0.42574233,-4.8309407,-13.217509,38.664345,58.95203,-5.1802254,8.215135,-8.142196
99,1.8133156299591064,-0.8388994932174683,78.76405334472656,0.5035236339462761,3.5849245900152065,-83.40114999895894,-0.8070709,0.28294888,-3.1446576,7.324271,-10.465288,-4.6003175,2.7607963,-5.0759096,-11.324367,7.0616236,-17.001183,8.950713,-2.5721502,-0.39454624,10.51047,-1.9523191,14.755887,-37.848675,57.16157,21.292404,2.622309,-0.46709335,-4.7370872,-13.342209,38.481934,58.729298,-4.4034033,8.101326,-7.989978
100,1.8730906248092651,-0.9680656790733337,78.7403793334961,0.4585542864124902,3.683925851894624,-83.27936132517218,-1.1097051,0.258102,-3.2719915,7.926451,-10.858885,-4.560297,2.7934742,-5.0667295,-11.435835,7.0690856,-17.114218,8.852908,-2.4828012,-0.2949836,10.605265,-1.8888625,14.720298,-37.779686,56.899387,21.221006,2.6442783,-0.5052897,-4.6788626,-13.455177,38.350426,58.54607,-3.7826388,7.9919543,-7.884528
101,1.939851999282837,-1.0832334756851196,78.7160873413086,0.4381607532731625,3.8033611239941787,-83.13819124624523,-1.4168001,0.19714713,-3.41265,8.490934,-11.229096,-4.4744067,2.810787,-5.0927734,-11.557382,7.074628,-17.221655,8.806163,-2.4057057,-0.21453944,10.694596,-1.8465925,14.688466,-37.76579,56.647907,21.095306,2.6492999,-0.5313195,-4.6503553,-13.573396,38.27977,58.384624,-3.3457613,7.887322,-7.8294787
102,2.00286865234375,-1.2184432744979858,78.69163513183594,0.4306768321467967,3.931091488187051,-82.98717477276125,-1.7094835,0.11713175,-3.5582035,9.010719,-11.574449,-4.3649054,2.823282,-5.1385093,-11.684225,7.0806127,-17.325354,8.788086,-2.3315291,-0.14107212,10.788881,-1.8185508,14.657175,-37.790928,56.397434,20.923235,2.650661,-0.554042,-4.633689,-13.710735,38.24915,58.216396,-3.0143847,7.7820415,-7.7987266
103,2.0797300338745117,-1.3736268281936646,78.66238403320312,0.4310166698440159,4.056061415586362,-82.8298269787732,-1.9654949,0.027937884,-3.7062683,9.47216,-11.896758,-4.253559,2.8475504,-5.1937118,-11.816704,7.0851364,-17.430101,8.789526,-2.2747247,-0.084752835,10.88255,-1.7904288,14.643039,-37.84931,56.153847,20.706022,2.637706,-0.5876775,-4.6692295,-13.793963,38.255486,58.126587,-2.7872384,7.6740365,-7.8070354
104,2.157620429992676,-1.5280985832214355,78.63197326660156,0.4339646612052505,4.16751619863454,-82.67000552225919,-2.1624124,-0.06061772,-3.8545535,9.859911,-12.196719,-4.1619625,2.896312,-5.249642,-11.954993,7.0896115,-17.540648,8.802246,-2.2248173,-0.028620983,10.989021,-1.7766931,14.636468,-37.959126,55.929802,20.443596,2.5986404,-0.64445657,-4.698178,-13.887172,38.271408,58.032017,-2.6525958,7.570546,-7.8546805
105,2.2269508838653564,-1.6918973922729492,78.60149383544922,0.44261921194906384,4.253370540405726,-82.50845983307434,-2.2778077,-0.1516491,-4.0006337,10.161381,-12.472759,-4.0919676,2.9855483,-5.3110943,-12.100152,7.0944695,-17.667963,8.848812,-2.1681905,0.031697195,11.128099,-1.7791628,14.6452465,-38.14811,55.715134,20.128838,2.5144026,-0.73569304,-4.697474,-14.02219,38.295666,57.890835,-2.674209,7.4785385,-7.954887
106,2.291973352432251,-1.849851369857788,78.57039642333984,0.4582008137408864,4.322091343578233,-82.34337891605686,-2.329835,-0.24794978,-4.1464276,10.389184,-12.725908,-4.033542,3.1044095,-5.380854,-12.252008,7.0978436,-17.805037,8.925535,-2.132297,0.07815867,11.278594,-1.7825729,14.666949,-38.37591,55.518147,19.771868,2.3964455,-0.85320985,-4.7436895,-14.109629,38.362167,57.822273,-2.8374271,7.3899007,-8.109725
107,2.360165596008301,-2.013887882232666,78.54207611083984,0.4723782322994989,4.39482494177164,-82.1741136871276,-2.356287,-0.33950397,-4.295851,10.565785,-12.961205,-3.9896934,3.2248397,-5.4464664,-12.408468,7.1023784,-17.933865,8.984395,-2.0931945,0.12417487,11.431042,-1.7935886,14.718774,-38.654877,55.306908,19.36162,2.2819006,-0.98131895,-4.7596574,-14.222142,38.403946,57.714386,-3.013798,7.299453,-8.277975
108,2.4363043308258057,-2.20959210395813,78.51692199707031,0.4767560257608318,4.492087410846735,-81.99980857807695,-2.3945513,-0.4157506,-4.4532228,10.71292,-13.184029,-3.9638321,3.32111,-5.494751,-12.567151,7.1058617,-18.034184,8.9767275,-2.0814114,0.1677026,11.552445,-1.8078889,14.785122,-38.92665,55.098415,18.914076,2.2046897,-1.1034125,-4.77839,-14.311451,38.417496,57.62794,-3.0730968,7.194233,-8.432672
109,2.5078165531158447,-2.380709409713745,78.49543762207031,0.4604297290658921,4.61755217263633,-81.81311089704724,-2.450211,-0.4639903,-4.6288733,10.828223,-13.392682,-3.9659317,3.3878422,-5.5153465,-12.737336,7.1133614,-18.11269,8.871127,-2.098232,0.21825685,11.636489,-1.8321884,14.871796,-39.2127,54.89276,18.425632,2.1767876,-1.2115654,-4.789404,-14.384012,38.38705,57.535107,-3.002943,7.092618,-8.546681
110,2.5853896141052246,-2.5771422386169434,78.4760971069336,0.42983142688372367,4.760760637230376,-81.61652725420788,-2.503308,-0.49171886,-4.8177023,10.899808,-13.58395,-3.9912574,3.4397821,-5.515974,-12.916245,7.120603,-18.175037,8.698514,-2.1553435,0.27391693,11.687984,-1.8728259,14.947797,-39.49915,54.725307,17.905022,2.1769776,-1.3130645,-4.821984,-14.420857,38.35264,57.481163,-2.8598914,6.992295,-8.646442
111,2.651491165161133,-2.7745437622070312,78.45872497558594,0.4002165152139204,4.920977721653629,-81.42414347115518,-2.550397,-0.5161903,-5.0017524,10.930989,-13.758142,-4.021071,3.4748368,-5.5103054,-13.083037,7.127511,-18.210884,8.502165,-2.2029436,0.32039034,11.7239,-1.9224889,15.04464,-39.801594,54.554943,17.332767,2.1971729,-1.4173906,-4.8355036,-14.447157,38.269802,57.447884,-2.6426961,6.85292,-8.768161
112,2.714944362640381,-2.98028826713562,78.4339599609375,0.39443213729598403,5.097302754143668,-81.25056098925043,-2.5961082,-0.563138,-5.1605186,10.942503,-13.924074,-4.0365725,3.4901826,-5.522405,-13.215349,7.1340513,-18.208626,8.324655,-2.2228675,0.33192205,11.758011,-1.9544128,15.190362,-40.09006,54.33575,16.705555,2.227872,-1.5365838,-4.8264585,-14.467465,38.134403,57.456455,-2.3422782,6.6332455,-8.950856
113,2.778409719467163,-3.1961112022399902,78.40242004394531,0.4030015675158402,5.288962421338759,-81.09155548511659,-2.666311,-0.62288433,-5.3001037,10.993419,-14.111467,-4.0346637,3.4597716,-5.5518446,-13.309884,7.2003508,-18.215633,8.170067,-2.2514472,0.32645848,11.781744,-1.9779409,15.337716,-40.340424,54.13344,15.980312,2.2569788,-1.6459584,-4.827326,-14.471925,38.003075,57.563828,-1.912301,6.294749,-9.20014
114,2.8572402000427246,-3.427212953567505,78.36348724365234,0.4129534491960641,5.4959251176083965,-80.94139814859585,-2.75619,-0.68054587,-5.4293747,11.068859,-14.313859,-4.0262256,3.389966,-5.5863094,-13.377222,7.313164,-18.226267,8.011924,-2.2840722,0.31843737,11.7901945,-2.0115113,15.475718,-40.575943,53.96458,15.173488,2.2925427,-1.746129,-4.829835,-14.462662,37.858974,57.745277,-1.373698,5.866738,-9.494298
115,2.9233415126800537,-3.6555116176605225,78.31705474853516,0.4326555037497113,5.709122692769047,-80.80412126535393,-2.853303,-0.74656826,-5.542936,11.161762,-14.5314865,-4.0173182,3.3027256,-5.630501,-13.422442,7.4408956,-18.197945,7.8444085,-2.3106837,0.29661494,11.798396,-2.0478,15.609448,-40.758896,53.782017,14.40392,2.3504791,-1.8826929,-4.8156605,-14.44192,37.665504,57.95778,-0.8005558,5.410183,-9.839147
116,2.9823968410491943,-3.885765790939331,78.26307678222656,0.46501248384773897,5.915240098606541,-80.68036699159325,-2.9587786,-0.8257353,-5.6404295,11.302912,-14.784493,-4.0159783,3.207596,-5.6860332,-13.453876,7.593767,-18.106712,7.660486,-2.3274837,0.2534609,11.8280945,-2.0721264,15.757647,-40.850594,53.522488,13.787182,2.4478793,-2.1021864,-4.7710805,-14.405981,37.385544,58.162254,-0.2681909,4.9860535,-10.243009
117,3.0441999435424805,-4.115334510803223,78.2023696899414,0.5323970873634299,6.1304386526335,-80.56139170326588,-3.0773094,-0.94119275,-5.7245455,11.462689,-15.060874,-4.021879,2.7965794,-5.854713,-13.464454,8.416904,-18.329092,7.47996,-2.3418434,0.16719463,11.853567,-2.0821476,15.897546,-40.830547,53.2309,13.331257,2.5715551,-2.4025216,-4.681184,-14.355901,36.992485,58.358757,0.23701337,4.594547,-10.727599
118,3.0800726413726807,-4.346837043762207,78.13137817382812,0.636661031543388,6.35780780002435,-80.45293792499542,-3.2032712,-1.0942817,-5.7887015,11.6245575,-15.346891,-4.0298557,1.5792104,-6.2603745,-13.381153,10.9541025,-19.417006,7.297014,-2.3453865,0.037426516,11.870589,-2.0894468,16.02952,-40.728756,52.922394,12.979945,2.7187922,-2.76355,-4.5539517,-14.2900505,36.504837,58.56147,0.7404907,4.207223,-11.281799
119,3.1455416679382324,-4.597170829772949,78.04920959472656,0.7570688650416713,6.565843103557027,-80.3776466591538,-3.315288,-1.2640041,-5.8163867,11.821417,-15.657502,-4.038662,0.27860695,-6.7021484,-13.219625,13.671993,-20.480984,7.067067,-2.337985,-0.11032407,11.92296,-2.1106503,16.151953,-40.541622,52.541435,12.7750225,2.9185338,-3.2020316,-4.42957,-14.213605,36.000282,58.772156,1.2033807,3.8446429,-11.869437
120,3.220608711242676,-4.840926647186279,77.95450592041016,0.8752700216492805,6.723151939382556,-80.35819155733456,-3.4016688,-1.4327807,-5.7907453,12.105238,-16.011549,-4.046733,-1.1102986,-7.151943,-12.9248085,16.622099,-21.467367,6.7522936,-2.3223321,-0.25220513,12.055066,-2.15981,16.262472,-40.26195,52.030716,12.761102,3.1982405,-3.735737,-4.3469462,-14.135882,35.561893,58.988747,1.5927948,3.5290744,-12.454957
121,3.2957966327667236,-5.0932512283325195,77.8605728149414,0.988529168051947,6.815005096862294,-80.40788695515124,-3.4219847,-1.5915265,-5.702234,12.434117,-16.397587,-4.067317,-2.5763652,-7.6012316,-12.503313,19.833683,-22.346598,6.3594832,-2.3129668,-0.38091534,12.280401,-2.2199848,16.364016,-39.89806,51.378376,12.955746,3.572083,-4.358594,-4.31186,-14.059267,35.18428,59.20734,1.8825275,3.295788,-13.034968
122,3.3695924282073975,-5.3268537521362305,77.75618743896484,1.1150952996296253,6.860132822629139,-80.51182582930248,-3.393416,-1.7612612,-5.56083,12.795923,-16.808018,-4.094563,-4.1119194,-8.060287,-11.979695,23.255226,-23.139698,5.9123893,-2.3037229,-0.5177829,12.57507,-2.2881331,16.454977,-39.449406,50.61318,13.338285,4.0179048,-5.06807,-4.3002477,-13.986608,34.83465,59.42278,2.1006145,3.125604,-13.627472
123,3.425218105316162,-5.552608489990234,77.6432876586914,1.263611210347671,6.876568360828365,-80.64983254215979,-3.3811984,-1.9616772,-5.3814282,13.268628,-17.260908,-4.098978,-5.7073255,-8.512152,-11.333485,26.777433,-23.840881,5.402138,-2.2717109,-0.6788238,12.92844,-2.3926454,16.537596,-38.891876,49.72939,13.89455,4.506521,-5.889348,-4.307297,-13.921484,34.553154,59.635056,2.2862415,2.9584725,-14.229566
124,3.4869484901428223,-5.786675453186035,77.5184555053711,1.439750767499469,6.882396063636004,-80.8023386308976,-3.4568045,-2.2092237,-5.1794353,13.942522,-17.7808,-4.050623,-7.368044,-8.938638,-10.542301,30.322319,-24.45435,4.818303,-2.192088,-0.87047976,13.329317,-2.5759745,16.595396,-38.203884,48.74279,14.611977,5.006901,-6.845591,-4.3153934,-13.882802,34.380016,59.82733,2.4825945,2.734764,-14.836284
125,3.5550646781921387,-6.0190019607543945,77.37741088867188,1.6498765779109126,6.881409978167141,-80.96834812706102,-3.6442375,-2.5114722,-4.9574714,14.8485775,-18.372,-3.9331625,-9.149546,-9.313532,-9.518117,33.99816,-24.982403,4.0878825,-2.0440645,-1.0975447,13.78528,-2.8578095,16.616999,-37.32104,47.671303,15.556706,5.538207,-8.066223,-4.3175745,-13.884232,34.336605,59.98407,2.7282236,2.4224484,-15.496747
126,3.614603042602539,-6.229288578033447,77.21183776855469,1.8832715691042878,6.863929965084429,-81.15601816820637,-3.9097507,-2.847845,-4.7118506,15.949316,-19.031525,-3.76366,-11.024037,-9.619661,-8.314932,37.791664,-25.404432,3.256945,-1.8405116,-1.3424993,14.299131,-3.2234156,16.603998,-36.280033,46.521664,16.71972,6.0891633,-9.502561,-4.3110385,-13.925829,34.392876,60.104473,2.990692,2.058473,-16.194363
127,3.6833536624908447,-6.43624210357666,77.02967071533203,2.1167566931004003,6.827879226199464,-81.359746693895,-4.236808,-3.1885195,-4.448712,17.230247,-19.769741,-3.5632575,-12.8862705,-9.869192,-7.115874,41.4768,-25.719584,2.481781,-1.6414794,-1.5733889,14.853678,-3.6453319,16.55683,-35.164307,45.27725,17.983883,6.59006,-10.911275,-4.298289,-14.01901,34.55071,60.190655,3.2160752,1.6895638,-16.826454
128,3.751410961151123,-6.6332550048828125,76.83006286621094,2.3264173744039627,6.7711705304312,-81.57396351141216,-4.605594,-3.5028763,-4.1735663,18.670046,-20.593887,-3.352255,-14.642345,-10.09785,-6.0931563,44.85316,-25.950045,1.903065,-1.4290868,-1.760096,15.429958,-4.155829,16.478212,-34.163563,43.955982,19.191296,6.9941697,-12.033572,-4.245436,-14.157284,34.71418,60.238884,3.3247545,1.3615825,-17.289637
129,3.81074857711792,-6.818017482757568,76.60127258300781,2.509890932959942,6.688854250173833,-81.80258683121146,-5.0410776,-3.7950244,-3.8842437,20.329062,-21.52382,-3.1226742,-16.27901,-10.323431,-5.2538776,47.91253,-26.083374,1.6020174,-1.206526,-1.8945966,16.038313,-4.7631207,16.364109,-33.2791,42.565197,20.298239,7.321941,-12.827559,-4.155106,-14.344104,34.881493,60.247177,3.2961795,1.0820369,-17.552633
130,3.867542266845703,-7.041265964508057,76.36579132080078,2.6722640060337297,6.583510647306689,-82.04642757485287,-5.5460205,-4.0649004,-3.583001,22.199701,-22.552633,-2.8662202,-17.856737,-10.536652,-4.5158424,50.788197,-26.140013,1.4779755,-0.9616211,-1.9824698,16.68276,-5.4715157,16.212214,-32.45044,41.10971,21.376247,7.600714,-13.416025,-4.029245,-14.582643,35.069416,60.21177,3.167675,0.82973355,-17.67223
131,3.928821563720703,-7.2762370109558105,76.10316467285156,2.8001883220878168,6.463547605011394,-82.29620938101141,-6.0645204,-4.283365,-3.2822638,24.15564,-23.646053,-2.6098537,-19.394915,-10.747848,-3.9104009,53.498123,-26.199472,1.3885772,-0.7119156,-2.017655,17.335323,-6.26674,16.028582,-31.6992,39.569225,22.456717,7.8028035,-13.791429,-3.86789,-14.871332,35.28274,60.140408,2.969802,0.6090339,-17.679073
132,3.9782724380493164,-7.5264081954956055,75.81878662109375,2.8835254911646815,6.3371230416585975,-82.54257089656336,-6.542653,-4.428867,-2.9912581,26.078074,-24.76599,-2.383107,-20.912212,-10.969727,-3.4672172,56.054623,-26.33607,1.1931797,-0.4724419,-1.9994628,17.969444,-7.1300473,15.823719,-31.05055,37.915,23.570988,7.901073,-13.946004,-3.6682305,-15.205037,35.518974,60.039516,2.7278771,0.4237223,-17.603277
133,4.020274639129639,-7.762479782104492,75.51936340332031,2.8993583189984045,6.194108956318158,-82.78892853170359,-6.979542,-4.4822974,-2.7072341,27.99424,-25.93459,-2.2006838,-22.387909,-11.213716,-3.2424996,58.4518,-26.604185,0.83631164,-0.22773032,-1.9032507,18.593372,-8.067574,15.6014185,-30.546196,36.13815,24.846525,7.8774557,-13.829461,-3.4453018,-15.582522,35.82878,59.96347,2.4833279,0.27605167,-17.384264
134,4.07977294921875,-8.019025802612305,75.1970443725586,2.8598866170199315,6.033495266832301,-83.03800301752784,-7.3938584,-4.465231,-2.426243,29.94262,-27.155586,-2.0479515,-23.822258,-11.483654,-3.1998255,60.69705,-26.958036,0.39217144,0.020977952,-1.7398741,19.215996,-9.081286,15.360537,-30.159996,34.244045,26.223782,7.764667,-13.45875,-3.1969228,-16.003345,36.19337,59.89269,2.2093718,0.16183817,-17.028631
135,4.126221656799316,-8.279379844665527,74.86909484863281,2.8092206766899013,5.87706070998075,-83.28008800693623,-7.7597322,-4.4235926,-2.1537306,31.816671,-28.364609,-1.911915,-25.259144,-11.776808,-3.2315643,62.805233,-27.321833,-0.080297224,0.23692812,-1.5665165,19.811316,-10.14901,15.10787,-29.821802,32.222412,27.448553,7.6077085,-12.92801,-2.899502,-16.461712,36.514442,59.726852,1.8387831,0.0754647,-16.667728
136,4.16037130355835,-8.554143905639648,74.53343963623047,2.792856943554649,5.746850936673136,-83.50592960126791,-8.055325,-4.404319,-1.8937492,33.51539,-29.50007,-1.7787143,-26.743942,-12.086917,-3.2315872,64.7894,-27.616354,-0.5181205,0.38666937,-1.4456413,20.354471,-11.241706,14.857761,-29.46262,30.054897,28.267548,7.44286,-12.334838,-2.5295181,-16.949602,36.691036,59.36887,1.2989546,0.011757109,-16.43352
137,4.185956954956055,-8.857008934020996,74.19622802734375,2.8319279895106373,5.645735406834505,-83.73985497961091,-8.279188,-4.427475,-1.613288,35.037457,-30.560478,-1.6422808,-28.311436,-12.424088,-3.1674368,66.67799,-27.840313,-0.93757844,0.4891445,-1.4126716,20.846754,-12.337448,14.622311,-29.063444,27.686426,28.609522,7.2529297,-11.678336,-2.1205401,-17.462921,36.781433,58.87415,0.4506873,-0.007664119,-16.314915
138,4.212071895599365,-9.170555114746094,73.87007141113281,2.900859120895718,5.562946124729083,-83.97821289855439,-8.442316,-4.4719872,-1.3181046,36.43062,-31.573862,-1.5119505,-29.930609,-12.78868,-3.0956197,68.456764,-28.027222,-1.3583975,0.55167127,-1.4371648,21.299335,-13.435041,14.407162,-28.657694,25.117306,28.612116,7.0220327,-10.919744,-1.6745024,-17.998981,36.815258,58.272923,-0.62932557,0.012588633,-16.256725
139,4.227177143096924,-9.508062362670898,73.54530334472656,2.974754153016632,5.500679792126318,-84.16914787076742,-8.544964,-4.5219784,-1.0702648,37.67109,-32.52352,-1.3956574,-31.549547,-13.155329,-3.0461216,70.07325,-28.147675,-1.7189227,0.5303235,-1.4828345,21.702364,-14.545046,14.218994,-28.265692,22.413927,28.327883,6.782136,-10.100986,-1.1101911,-18.550459,36.642838,57.422382,-1.6850255,0.03271588,-16.324802
140,4.246336460113525,-9.880711555480957,73.2445068359375,3.028305285371406,5.460841807440823,-84.26085218980216,-8.58694,-4.56006,-0.93202996,38.734283,-33.39522,-1.3016242,-33.115303,-13.500775,-3.0509377,71.47303,-28.171535,-1.9570848,0.387209,-1.515146,22.046011,-15.684861,14.062552,-27.916428,19.645874,27.805695,6.5663085,-9.261579,-0.33574635,-19.109638,36.10198,56.17202,-2.4661248,0.014559342,-16.585794
141,4.257935523986816,-10.274538040161133,72.96247863769531,3.071487715319351,5.442461555559958,-84.22678758725914,-8.585754,-4.6035395,-0.9234303,39.645348,-34.203506,-1.2248746,-34.646347,-13.839397,-3.10544,72.67189,-28.086176,-2.0527997,0.10781442,-1.5518743,22.337456,-16.86958,13.937275,-27.621305,16.756023,26.951628,6.3814974,-8.400755,0.691472,-19.672651,35.09354,54.446255,-2.984367,0.011750025,-17.116217
142,4.258615493774414,-10.682506561279297,72.70731353759766,3.111872610984384,5.444626705182523,-84.0989260766186,-8.536633,-4.6545787,-1.0087093,40.40861,-34.951057,-1.1634442,-36.160107,-14.17979,-3.196438,73.68922,-27.90846,-2.03619,-0.27401066,-1.6068703,22.577877,-18.090662,13.840833,-27.381647,13.729843,25.76704,6.2002864,-7.499038,1.9512987,-20.238134,33.706844,52.315384,-3.3496249,0.026685555,-17.857344
143,4.253337383270264,-11.121052742004395,72.4907455444336,3.1215321584929985,5.469863915339906,-83.91245359844447,-8.406437,-4.6715317,-1.167502,40.968956,-35.6041,-1.1270996,-37.60371,-14.489663,-3.3426461,74.47942,-27.653034,-1.9172503,-0.734371,-1.640865,22.753366,-19.310114,13.769728,-27.196058,10.682797,24.460358,6.009287,-6.5665736,3.4372942,-20.79689,32.06856,49.841305,-3.4590225,-0.060655877,-18.674767
144,4.234132289886475,-11.592721939086914,72.3177261352539,3.072897957423558,5.520926326721523,-83.70263831701757,-8.161675,-4.610643,-1.3793552,41.27001,-36.127186,-1.1259487,-38.925175,-14.736962,-3.5651963,74.99749,-27.335835,-1.7088602,-1.2523662,-1.6109153,22.85011,-20.50422,13.724036,-27.06257,7.741728,23.229782,5.799897,-5.613998,5.1291366,-21.332016,30.306091,47.09641,-3.2106504,-0.37494782,-19.43497
145,4.215497016906738,-12.097394943237305,72.19393920898438,2.95690193392354,5.596291871520745,-83.44472262954304,-7.822157,-4.460916,-1.6696458,41.348057,-36.54236,-1.1771908,-40.117855,-14.939647,-3.8909702,75.22179,-26.97232,-1.3826007,-1.8977116,-1.5226152,22.880766,-21.580027,13.675639,-26.947771,4.792679,22.136547,5.6001787,-4.626921,7.0342793,-21.821283,28.339346,44.01165,-2.3855805,-1.0497258,-19.976273
146,4.196872711181641,-12.633964538574219,72.11896514892578,2.787141757035801,5.695796821219124,-83.13125409864581,-7.3976827,-4.239169,-2.0385551,41.219982,-36.860065,-1.2687908,-41.206837,-15.106101,-4.3028316,75.177345,-26.550684,-0.9436573,-2.6121502,-1.351327,22.817589,-22.806755,13.688415,-26.913008,1.9975787,20.872059,5.392341,-3.6119814,9.215646,-22.247362,26.095518,40.58365,-1.0982443,-1.9921539,-20.397999
147,4.1573333740234375,-13.237561225891113,72.11224365234375,2.578124633573952,5.824914357365862,-82.82465590872008,-6.839059,-3.9490283,-2.4247997,40.79189,-37.028595,-1.3704402,-42.194855,-15.195118,-4.7506757,74.894875,-26.049442,-0.4566931,-3.379245,-1.1562595,22.701843,-23.869205,13.710613,-26.896883,-0.77611697,19.784975,5.1395535,-2.582195,11.508244,-22.58969,23.907122,36.993916,0.24988121,-2.9948547,-20.960098
148,4.126633644104004,-13.905588150024414,72.16445922851562,2.340063114782251,5.9880272897620745,-82.58711002906007,-6.098801,-3.5922077,-2.7689807,39.974434,-36.998844,-1.4496669,-43.08265,-15.160602,-5.1855936,74.4017,-25.442501,0.015981365,-4.0816336,-0.9206086,22.499487,-24.925198,13.762316,-26.923878,-3.2470233,18.864931,4.7886415,-1.578606,13.812831,-22.841629,22.022375,33.469795,1.2485187,-3.8561735,-21.95886
149,4.085157871246338,-14.62370491027832,72.26551055908203,2.0781051154873764,6.1819710323214885,-82.4207007555504,-5.1492777,-3.170529,-3.064288,38.71781,-36.779385,-1.5115438,-43.86664,-14.998925,-5.592516,73.68876,-24.765123,0.4779551,-4.739786,-0.6656462,22.219973,-25.903189,13.83059,-26.98194,-5.4589014,18.25444,4.344695,-0.5959851,16.081087,-23.00623,20.549932,30.022518,1.7337712,-4.574462,-23.670431
150,4.049591064453125,-15.389982223510742,72.42205810546875,1.786346412830185,6.405626224542762,-82.29764520557474,-4.023364,-2.6824312,-3.3339448,37.080074,-36.389885,-1.5680327,-44.550034,-14.729893,-5.99163,72.741974,-24.013647,0.9572334,-5.3817472,-0.3799103,21.860697,-26.859348,13.926923,-27.07303,-7.432228,17.840858,3.8328152,0.3722593,18.35976,-23.08802,19.341028,26.56965,1.9262418,-5.2382264,-25.895082
151,4.021775245666504,-16.201507568359375,72.62110137939453,1.4617707327531522,6.665001773549532,-82.23596421029359,-2.7625735,-2.1222825,-3.550709,35.128246,-35.792965,-1.6200466,-45.138733,-14.353375,-6.397892,71.58368,-23.120596,1.421194,-5.9894547,-0.07113531,21.432379,-27.756432,14.055344,-27.193546,-9.1812725,17.540342,3.2494135,1.3125703,20.595034,-23.094242,18.33151,23.184988,1.9907198,-5.781351,-28.219353
152,3.9920058250427246,-17.057964324951172,72.85233306884766,1.1012044358611122,6.966269462423051,-82.25390826418689,-1.4092636,-1.4915134,-3.6916454,32.931107,-34.953606,-1.6601626,-45.64038,-13.862857,-6.8204765,70.23506,-22.010143,1.8425872,-6.545216,0.25659674,20.942205,-28.56916,14.221707,-27.33486,-10.70849,17.257399,2.586839,2.2075832,22.731699,-23.03137,17.45511,19.948456,2.1080542,-6.147676,-30.224855
153,3.951404333114624,-17.955537796020508,73.11801147460938,0.6853913328762954,7.321843426697974,-82.38043445965192,0.10844604,-0.7703275,-3.739329,30.322306,-33.855854,-1.6600302,-46.064762,-13.222637,-7.275451,68.67608,-20.635698,2.1917849,-7.023616,0.6217844,20.376406,-29.28645,14.430225,-27.494108,-11.992835,16.981804,1.786022,3.046186,24.789843,-22.903112,16.70324,16.829453,2.3368816,-6.239251,-31.883223
154,3.8983476161956787,-18.889179229736328,73.40554809570312,0.223351451986379,7.722319910340333,-82.6001268556236,1.782114,0.018011894,-3.6910303,27.334833,-32.522808,-1.6442397,-46.404205,-12.444943,-7.745778,66.8977,-19.042788,2.4942765,-7.434208,1.0220441,19.742035,-29.933962,14.683217,-27.6776,-13.041969,16.754702,0.8714594,3.8396153,26.796917,-22.717682,16.092646,13.780579,2.5905995,-6.1125093,-33.39179
155,3.845367193222046,-19.848440170288086,73.70735931396484,-0.24597480393810767,8.141008451914029,-82.86479582869468,3.4488387,0.8104621,-3.5581596,24.337183,-30.979206,-1.6795436,-46.638542,-11.595686,-8.195329,64.9393,-17.299646,2.8012547,-7.8212595,1.4190742,19.078787,-30.511597,14.977496,-27.887564,-13.925984,16.577185,-0.03733648,4.604569,28.700037,-22.489079,15.603985,10.866167,2.8311903,-5.9497085,-34.66822
156,3.7674050331115723,-20.825519561767578,74.02587890625,-0.6820944454273766,8.55245811829399,-83.12553032793853,4.948875,1.5523251,-3.3736138,21.689926,-29.249844,-1.8157442,-46.746952,-10.738122,-8.585252,62.841103,-15.47362,3.165781,-8.229374,1.775541,18.42366,-31.019756,15.306761,-28.125748,-14.708378,16.447412,-0.8217492,5.3582,30.442646,-22.233574,15.220922,8.159665,3.0139065,-5.9311566,-35.62644
157,3.6839020252227783,-21.828832626342773,74.35261535644531,-1.108471530813532,8.965192950944157,-83.40635324708784,6.279642,2.2790766,-3.1163054,19.396982,-27.261307,-2.0813515,-46.710888,-9.827201,-8.921267,60.53086,-13.421613,3.6409035,-8.662634,2.1169221,17.761925,-31.446709,15.670021,-28.378162,-15.3756485,16.364908,-1.460468,6.129447,32.002445,-21.96575,14.962237,5.706194,3.1572258,-6.146302,-36.17989
158,3.619910478591919,-22.83208465576172,74.67709350585938,-1.529673945112458,9.384127711120156,-83.72424233411606,7.5065084,2.9876971,-2.8019981,17.317413,-25.038153,-2.4274054,-46.541145,-8.843048,-9.198583,58.01016,-11.159746,4.188874,-9.098955,2.448236,17.080616,-31.796541,16.070374,-28.640404,-15.901571,16.32578,-2.0126836,6.900989,33.41665,-21.692438,14.828192,3.4558527,3.2760966,-6.482205,-36.394386
159,3.540645122528076,-23.86487579345703,75.0022964477539,-1.8758299945098384,9.780799080899222,-84.01705674811751,8.569636,3.587818,-2.5334554,15.5965805,-22.74876,-2.7792337,-46.259193,-7.8940024,-9.373557,55.430717,-8.993927,4.721881,-9.546073,2.701781,16.419071,-32.086185,16.502474,-28.934568,-16.340742,16.330605,-2.4801865,7.6223755,34.708878,-21.41644,14.778432,1.3516804,3.3157363,-6.8158693,-36.40941
160,3.4481472969055176,-24.897476196289062,75.3174057006836,-2.079822230059501,10.130305413430891,-84.21955751294199,9.419385,4.008063,-2.4081094,14.355814,-20.55603,-3.0707226,-45.888798,-7.097067,-9.421714,52.952187,-7.2327023,5.1456385,-10.006972,2.8180954,15.811735,-32.353825,16.957493,-29.285542,-16.728603,16.36598,-2.8652797,8.241191,35.90746,-21.135328,14.768474,-0.6632456,3.220947,-7.0248847,-36.365086
161,3.356180429458618,-25.931739807128906,75.61629486083984,-2.1124448530224473,10.438941385288066,-84.30033762110537,10.039222,4.233002,-2.4310293,13.608179,-18.420776,-3.339923,-45.4366,-6.4787974,-9.309934,50.56843,-5.9610643,5.4070644,-10.503302,2.769582,15.255094,-32.632,17.429958,-29.71754,-17.04035,16.462631,-3.1467035,8.749867,37.016808,-20.846428,14.801345,-2.6114647,2.9668365,-7.050325,-36.25315
162,3.2565410137176514,-26.981592178344727,75.9029769897461,-2.0197828653499665,10.720736118910207,-84.29251394618825,10.474179,4.322401,-2.565576,13.249201,-16.266317,-3.624228,-44.88789,-5.9897275,-9.084928,48.21479,-5.0157785,5.55417,-11.022285,2.6051164,14.723626,-32.924244,17.920506,-30.215414,-17.241318,16.594612,-3.3304288,9.172155,38.027893,-20.549324,14.891227,-4.4555817,2.5858042,-6.967863,-36.011425
163,3.1423020362854004,-28.04627799987793,76.17030334472656,-1.8522796855924826,10.965794893203647,-84.22454294545017,10.759442,4.3268247,-2.834889,13.237261,-14.19345,-3.8659616,-44.243404,-5.6305404,-8.856991,45.971153,-4.3294587,5.644569,-11.538239,2.3761346,14.22949,-33.152065,18.40942,-30.752771,-17.399084,16.739628,-3.4576058,9.509411,38.923527,-20.250782,15.023293,-6.1537833,2.102707,-6.8569517,-35.697517
164,3.0377416610717773,-29.11803436279297,76.41038513183594,-1.6610353763940615,11.1633933440507,-84.12654960027086,10.924151,4.293831,-3.2562108,13.549024,-12.307333,-4.0009656,-43.504524,-5.390126,-8.735614,43.912384,-3.8356688,5.7436447,-12.008885,2.14212,13.778251,-33.29316,18.876719,-31.29641,-17.531786,16.831738,-3.5724401,9.756716,39.708366,-19.95643,15.169454,-7.673385,1.5489062,-6.795987,-35.37196
165,2.930497646331787,-30.201339721679688,76.62965393066406,-1.4329812537956685,11.31391036818115,-83.95695550207942,10.965593,4.2094703,-3.872828,14.171923,-10.588261,-4.0191407,-42.653477,-5.31645,-8.780527,42.031277,-3.6186378,5.901654,-12.454304,1.8996239,13.364429,-33.386047,19.30928,-31.888601,-17.614065,16.85442,-3.6519508,9.929588,40.41699,-19.664495,15.315805,-9.021507,0.88716805,-6.803266,-35.0206
166,2.810760021209717,-31.286937713623047,76.8156509399414,-1.1653861356026278,11.427610383526364,-83.70967980486861,10.885125,4.061936,-4.652615,15.085679,-8.966788,-3.9881818,-41.699787,-5.379723,-8.953219,40.289566,-3.6731539,6.079826,-12.88693,1.6434926,12.981543,-33.44423,19.696762,-32.53572,-17.62174,16.85114,-3.685452,10.022678,41.04135,-19.374767,15.47075,-10.211167,0.117649294,-6.8402786,-34.620777
167,2.6944990158081055,-32.38478469848633,76.9658432006836,-0.9215432350977036,11.506663239990848,-83.47223570220798,10.730555,3.8997803,-5.494914,16.237068,-7.461229,-3.938913,-40.684433,-5.4484024,-9.205165,38.71764,-3.7995248,6.212009,-13.251089,1.4262184,12.636865,-33.407654,20.025362,-33.146,-17.5691,16.843246,-3.7357996,9.999099,41.522396,-19.097982,15.6414175,-11.219482,-0.66909003,-6.897324,-34.222595
168,2.5670413970947266,-33.491390228271484,77.08887481689453,-0.7617504444504144,11.552860250873724,-83.33504495900337,10.536174,3.7717059,-6.3010855,17.601025,-6.1086583,-3.8810973,-39.651035,-5.396089,-9.47452,37.35505,-3.8050098,6.226902,-13.485746,1.2960469,12.336977,-33.232838,20.286345,-33.62155,-17.462908,16.832405,-3.866537,9.819847,41.8088,-18.85422,15.831643,-12.030193,-1.3781744,-6.9617057,-33.877205
169,2.461942434310913,-34.604522705078125,77.17994689941406,-0.6947589856222733,11.573215764095256,-83.32399718918188,10.289669,3.6720219,-7.083307,19.20021,-4.97024,-3.7063105,-38.615295,-5.1995993,-9.747836,36.190044,-3.4374652,6.1911263,-13.584753,1.2606856,12.079018,-32.88044,20.464405,-33.945995,-17.312775,16.867525,-4.1214027,9.455544,41.898094,-18.660498,16.040234,-12.644194,-1.986541,-6.9918838,-33.543488
170,2.3540618419647217,-35.720279693603516,77.23509216308594,-0.6889642933943141,11.563473976693304,-83.39445139437768,10.000468,3.5716841,-7.8714595,21.00098,-3.9821432,-3.436386,-37.556526,-4.9208,-10.04607,35.21882,-2.8723135,6.1128163,-13.56623,1.2961344,11.855157,-32.429302,20.56238,-34.161797,-17.071333,16.89262,-4.460016,8.927526,41.83368,-18.519749,16.2575,-13.082916,-2.533205,-7.0051737,-33.216454
171,2.2420294284820557,-36.84652328491211,77.25316619873047,-0.7387126315565293,11.507704379172793,-83.53312055238624,9.714475,3.4837072,-8.60138,22.937595,-3.028613,-3.261615,-36.46387,-4.5684457,-10.3498535,34.496883,-2.5635169,5.8305593,-13.444294,1.3972077,11.682763,-31.874794,20.578297,-34.253063,-16.753939,16.866583,-4.816417,8.283378,41.616997,-18.461529,16.493248,-13.374976,-3.0109217,-7.073622,-33.000206
172,2.1470956802368164,-37.98004150390625,77.21957397460938,-0.8318574787240451,11.388875526740817,-83.72707338533561,9.468747,3.4138486,-9.215183,24.967722,-2.0146866,-3.3744469,-35.328518,-4.15499,-10.631593,34.083153,-2.9672267,5.185882,-13.272387,1.5051807,11.603925,-30.99704,20.527529,-34.237247,-16.53846,16.927965,-5.1133113,7.596198,41.12176,-18.441854,16.821123,-13.442616,-3.4542818,-7.2703,-32.99417
173,2.043832540512085,-39.11372375488281,77.15771484375,-0.9567669632259116,11.191568871342287,-84.01090654970929,9.300141,3.3286817,-9.721044,27.093357,-1.0142102,-3.7789752,-34.176403,-3.6735215,-10.858364,34.148403,-4.354902,3.8941228,-12.9450865,1.64026,11.559721,-30.199781,20.426775,-34.070145,-16.09542,16.745056,-5.3995304,6.799402,40.452347,-18.469719,17.188404,-13.294413,-3.7901824,-7.662949,-33.265263
174,1.9414523839950562,-40.25341796875,77.0525894165039,-1.1074083442779519,10.925219255183022,-84.38003934502134,9.154917,3.2190962,-10.149331,29.392601,-0.08557032,-4.37573,-33.01372,-3.1061325,-10.999749,34.622845,-6.4356875,2.1216803,-12.558332,1.7815381,11.607438,-29.032978,20.23631,-33.785786,-15.775508,16.704517,-5.6765656,5.9268155,39.537178,-18.57341,17.62835,-12.944581,-4.0435076,-8.196127,-33.7321
175,1.8338114023208618,-41.40700912475586,76.89482116699219,-1.2935882131990282,10.610711145733399,-84.76319378381979,8.913226,3.1383061,-10.482441,31.994339,0.8554804,-5.204138,-31.784792,-2.4471557,-11.049632,35.17712,-8.812977,0.39074892,-12.098474,1.9623371,11.706052,-27.860487,20.007587,-33.37349,-15.3592415,16.44597,-5.866647,4.996958,38.43851,-18.735165,18.120552,-12.462244,-4.306809,-8.746463,-34.353764
176,1.7361302375793457,-42.581886291503906,76.68378448486328,-1.5211964936553268,10.269810347308018,-85.0921425014588,8.449476,3.1330655,-10.703172,35.049618,1.8821448,-6.3029256,-30.432064,-1.7293217,-11.034289,35.488445,-11.107978,-0.7723308,-11.664272,2.1737645,11.87978,-26.52479,19.73762,-32.837406,-15.006062,16.05683,-5.872543,4.073374,37.082905,-18.949928,18.722183,-11.869353,-4.691203,-9.190368,-35.07653
177,1.631078839302063,-43.75757598876953,76.43165588378906,-1.7744965592229567,9.886371357583272,-85.35425089792112,7.7454753,3.2119505,-10.729748,38.67934,3.2785609,-7.881179,-28.796417,-0.9921435,-10.915168,35.30839,-13.354015,-1.0679039,-11.262749,2.3978183,12.128988,-25.041187,19.434963,-32.1575,-14.734044,15.385087,-5.5864797,3.091054,35.445644,-19.208616,19.444262,-11.129618,-5.296922,-9.48122,-35.95572
178,1.4983866214752197,-44.89875030517578,76.14934539794922,-2.045168795411819,9.455689329225473,-85.58722978447953,6.815692,3.3464007,-10.618137,42.89243,4.860486,-9.816994,-26.94811,-0.25280464,-10.704321,34.858494,-15.705322,-0.8173054,-10.865494,2.6277058,12.45319,-23.396542,19.10423,-31.3394,-14.538897,14.492602,-5.0745854,2.0569885,33.539104,-19.504902,20.274801,-10.23845,-6.044915,-9.681719,-36.997578
179,1.3485432863235474,-45.96658706665039,75.85066223144531,-2.3612510887889275,9.017603750638981,-85.79954985613283,5.63235,3.546471,-10.527394,47.58535,6.051852,-11.668457,-25.167898,0.48834053,-10.522431,34.520725,-17.973711,-0.4201786,-10.459695,2.9031281,12.843344,-21.64121,18.751179,-30.418158,-14.361336,13.578752,-4.5151587,1.1187797,31.418148,-19.834251,21.191452,-9.299993,-6.7617817,-9.835611,-38.076878
180,1.1754568815231323,-46.9934196472168,75.51862335205078,-2.7591658274102766,8.611621467212869,-85.9973976027244,4.202471,3.831785,-10.584018,52.597546,6.301818,-13.02007,-23.743153,1.2624032,-10.4718075,34.687748,-19.98628,-0.28584743,-10.029313,3.2748992,13.287057,-19.847973,18.386427,-29.42614,-14.123254,12.818235,-4.098227,0.41306478,29.142944,-20.19256,22.167469,-8.418865,-7.274409,-9.996284,-39.06813
181,1.0149186849594116,-48.00315856933594,75.14938354492188,-3.298457260413898,8.25052535670862,-86.15662987736219,2.512986,4.2678595,-10.816201,58.07496,5.218264,-13.711088,-22.8388,2.1253245,-10.627963,35.621628,-21.688192,-0.566939,-9.591804,3.8061116,13.784681,-18.01333,18.012653,-28.33891,-13.810177,12.310293,-3.849284,-0.090241715,26.694708,-20.572807,23.234295,-7.5670934,-7.544688,-10.21403,-39.969315
182,0.8778176307678223,-49.0004997253418,74.73998260498047,-3.947510373520389,7.912580962468533,-86.27952231082769,0.60629106,4.8250375,-11.14404,64.012314,3.179987,-13.991081,-22.268482,3.03772,-10.909346,37.071854,-23.195662,-1.0428848,-9.1565695,4.459418,14.344211,-16.093845,17.627457,-27.150091,-13.479406,11.932416,-3.6848156,-0.4452674,24.05127,-20.966429,24.392641,-6.7214007,-7.660915,-10.455973,-40.8364
183,0.75026935338974,-49.954734802246094,74.31495666503906,-4.609846196988851,7.584399781275347,-86.41071973768743,-1.4218311,5.3727927,-11.5228195,70.01156,0.8140823,-14.075638,-21.801779,3.9188826,-11.182014,38.664375,-24.595383,-1.571392,-8.694924,5.1376195,14.963047,-14.094033,17.23588,-25.919655,-13.159689,11.53231,-3.6343794,-0.55734885,21.265415,-21.367786,25.573837,-5.988439,-7.641286,-10.655865,-41.628677
184,0.6015978455543518,-50.92502975463867,73.90345764160156,-5.190117406345732,7.252525304673428,-86.59550500659596,-3.4910233,5.8000293,-11.898574,75.67667,-1.245431,-14.170828,-21.214193,4.7136803,-11.328131,40.01509,-25.950937,-1.9947073,-8.172885,5.7448378,15.637287,-12.01948,16.847612,-24.710186,-12.872159,10.961398,-3.7301197,-0.33022213,18.389442,-21.774155,26.71283,-5.4697495,-7.502434,-10.746704,-42.302883
185,0.47973698377609253,-51.86793899536133,73.50647735595703,-5.695466504817346,6.911158246227642,-86.8744713596623,-5.6038284,6.0922766,-12.297068,81.032524,-2.8677554,-14.324821,-20.498817,5.473546,-11.342921,41.06572,-27.242407,-2.2908945,-7.5587873,6.2785125,16.395237,-9.868358,16.46155,-23.510084,-12.554317,10.117596,-4.1067734,0.4249412,15.362209,-22.190025,27.851871,-5.152487,-7.172903,-10.673986,-42.83196
186,0.38498517870903015,-52.77730941772461,73.14142608642578,-6.162453562465183,6.568161576491888,-87.21030995664795,-7.780276,6.290669,-12.727986,86.25192,-4.372852,-14.439231,-19.76181,6.226101,-11.304137,41.99671,-28.43587,-2.53995,-6.8784,6.784238,17.224827,-7.633017,16.078289,-22.299301,-12.213376,9.109201,-4.7251287,1.5927624,12.193359,-22.60774,29.005316,-5.0210557,-6.6626287,-10.488692,-43.245975
187,0.30400538444519043,-53.67608642578125,72.8097152709961,-6.548960612565497,6.231572169590587,-87.53845867698817,-10.01051,6.406989,-13.111675,91.183815,-5.7921224,-14.476642,-18.963799,6.896627,-11.225635,42.786015,-29.558804,-2.728142,-6.175631,7.24139,18.061165,-5.3098373,15.717325,-21.128418,-11.976501,8.095797,-5.346066,2.8202553,9.029722,-23.00147,30.073553,-5.1415596,-6.11461,-10.279332,-43.584072
188,0.26461705565452576,-54.5944938659668,72.5010986328125,-6.816496250979327,5.9107173488452345,-87.79570376275456,-12.302163,6.4736524,-13.383208,95.66135,-7.1477213,-14.384725,-18.06195,7.405879,-11.119165,43.41223,-30.641565,-2.8412244,-5.488605,7.6221337,18.83931,-2.8982532,15.408526,-20.053848,-11.972598,7.2178993,-5.7105627,3.7700179,5.9991617,-23.343887,30.959347,-5.5379405,-5.6808214,-10.134417,-43.876907
189,0.22289897501468658,-55.50810241699219,72.21147155761719,-6.939884207375747,5.590130136053023,-87.95254137625408,-14.693899,6.494405,-13.5624485,99.68969,-8.407525,-14.130842,-17.025997,7.702551,-11.002375,43.894836,-31.723553,-2.8563616,-4.8408747,7.8970275,19.583307,-0.38095817,15.175423,-19.093319,-12.221188,6.389508,-5.6734533,4.4410653,3.065065,-23.625479,31.678026,-6.1700234,-5.418046,-10.062482,-44.189865
190,0.16639307141304016,-56.46870040893555,71.97570037841797,-6.950376904609977,5.272802398852219,-88.04816202281134,-17.19761,6.4845734,-13.653073,103.35283,-9.551837,-13.693509,-15.88218,7.8500967,-10.881569,44.22937,-32.776234,-2.7935014,-4.2074103,8.077634,20.312971,2.2521093,15.02517,-18.210337,-12.671189,5.5605927,-5.3897543,4.9990563,0.15302661,-23.845043,32.289074,-6.9892416,-5.2437277,-10.020893,-44.482162
191,0.12472238391637802,-57.44678497314453,71.77633666992188,-6.897118061901431,4.995844346831815,-88.12430979673348,-19.783064,6.4847116,-13.665776,106.58288,-10.614674,-13.130648,-14.667109,7.9349165,-10.743288,44.35983,-33.72892,-2.70422,-3.5542033,8.197031,20.956467,4.987447,14.958574,-17.375732,-13.343,4.9178734,-5.0332727,5.3598075,-2.6768486,-23.99133,32.768562,-7.982209,-5.105972,-10.021567,-44.62311
192,0.08610149472951889,-58.4827880859375,71.6186752319336,-6.828159306708126,4.795059787728002,-88.22276324975437,-22.422707,6.530675,-13.588252,109.30006,-11.624076,-12.486746,-13.418431,8.033328,-10.565452,44.233776,-34.51353,-2.6349506,-2.8400145,8.28907,21.438206,7.8057632,14.969981,-16.568232,-14.250909,4.6542916,-4.7742915,5.4340253,-5.3631716,-24.050112,33.078033,-9.127808,-4.9557576,-10.076911,-44.48047
193,0.038035113364458084,-59.499271392822266,71.50332641601562,-6.777530167341204,4.677965308148506,-88.33949974303546,-25.192759,6.6537333,-13.456212,111.514,-12.595013,-11.737406,-12.143822,8.176868,-10.354351,43.844646,-35.131157,-2.5848243,-2.070876,8.384906,21.738775,10.753391,15.05676,-15.769226,-15.475237,5.0436606,-4.6549845,5.1028666,-7.942276,-24.01092,33.202038,-10.418842,-4.7179465,-10.244084,-43.964123
194,-0.011885889805853367,-60.5400505065918,71.42491149902344,-6.71626343852915,4.622800747961778,-88.46075390815999,-28.093073,6.8256383,-13.272123,113.25089,-13.488035,-10.882308,-10.820083,8.314656,-10.112421,43.22031,-35.613205,-2.5325234,-1.2630472,8.456951,21.894173,13.833286,15.214242,-14.980358,-16.98409,5.9086,-4.58871,4.4454436,-10.466472,-23.871355,33.178196,-11.812173,-4.435726,-10.498408,-43.163303
195,-0.06480966508388519,-61.593902587890625,71.39298248291016,-6.596040435448545,4.621035260002395,-88.614121638797,-30.971827,7.002407,-12.960277,114.45359,-14.25342,-9.997284,-9.438602,8.394112,-9.805818,42.362865,-35.937004,-2.4919589,-0.38728574,8.452615,21.911663,16.954012,15.427628,-14.216255,-18.613426,6.769879,-4.5477386,3.6668491,-12.883792,-23.634172,33.03921,-13.24119,-4.250793,-10.732185,-42.21401
196,-0.0991431176662445,-62.674964904785156,71.42398071289062,-6.368216682329992,4.665143467020915,-88.82669126960131,-33.67313,7.150038,-12.437576,115.061554,-14.845038,-9.156151,-7.991477,8.359762,-9.403344,41.276073,-36.078075,-2.4769056,0.5855365,8.321715,21.800379,20.016146,15.679233,-13.494245,-20.190945,7.15345,-4.486767,2.9697833,-15.136308,-23.309504,32.813007,-14.648398,-4.309109,-10.841178,-41.25142
197,-0.11907294392585754,-63.79523849487305,71.50348663330078,-6.009659605065149,4.757900379245703,-89.14263332222653,-36.184597,7.32031,-11.612233,115.029106,-15.276766,-8.3508415,-6.485488,8.188621,-8.861667,39.962734,-36.08888,-2.512765,1.6956577,8.041346,21.554375,23.040836,15.962344,-12.815266,-21.731268,6.873492,-4.3777585,2.3404758,-17.23499,-22.899767,32.475677,-16.045965,-4.7301965,-10.782939,-40.27171
198,-0.13696330785751343,-64.96977996826172,71.64929962158203,-5.547800157938281,4.901887003879953,-89.53633465138483,-38.55598,7.5317483,-10.533211,114.39164,-15.575139,-7.559076,-4.9246573,7.8971324,-8.210423,38.43209,-35.96764,-2.5822031,2.9121277,7.638364,21.183914,26.070236,16.275023,-12.163096,-23.307144,6.2070875,-4.238209,1.6928502,-19.214052,-22.406631,32.03071,-17.447447,-5.4182796,-10.629582,-39.215637
199,-0.15171438455581665,-66.20668029785156,71.86341857910156,-5.009244977999803,5.089856756139718,-89.92850301016283,-40.72368,7.6945987,-9.325546,113.21892,-15.71865,-6.8335705,-3.301814,7.4884515,-7.5342183,36.696888,-35.61906,-2.6268933,4.152217,7.1395283,20.723152,29.028633,16.6071,-11.529638,-24.817434,5.3801184,-4.0885653,1.1191199,-21.046383,-21.84783,31.545732,-18.800196,-6.19431,-10.448451,-38.135765
200,-0.16633115708827972,-67.48690795898438,72.13102722167969,-4.421945494267337,5.314111688343605,-90.23880079805615,-42.634388,7.710472,-8.116712,111.577774,-15.682289,-6.2235284,-1.6104703,6.9737835,-6.9202414,34.764545,-34.939583,-2.586482,5.3301234,6.578246,20.202862,31.833187,16.942772,-10.90733,-26.157831,4.6216097,-3.957781,0.70794004,-22.698608,-21.254393,31.082317,-20.063728,-6.867173,-10.297763,-37.086376
201,-0.16791893541812897,-68.80233764648438,72.44892883300781,-3.7839141869937656,5.562342106563717,-90.45929757691233,-44.25138,7.5040708,-6.917779,109.441635,-15.449172,-5.790264,0.223483,6.3613772,-6.3530917,32.49634,-33.882244,-2.4387524,6.4299455,5.9698677,19.636467,34.47561,17.277088,-10.299405,-27.31139,4.0035496,-3.8562865,0.5131254,-24.120298,-20.642317,30.636898,-21.308664,-7.452318,-10.180056,-36.062878
202,-0.1621137112379074,-70.15509796142578,72.8155288696289,-3.0834958006953497,5.844094644648459,-90.62346764285708,-45.596886,7.135526,-5.662281,106.78131,-15.051135,-5.49786,2.1565545,5.647683,-5.8139405,29.940378,-32.507423,-2.207036,7.4816294,5.295462,19.012623,36.99576,17.610939,-9.702833,-28.330448,3.4059577,-3.7729886,0.47295284,-25.353752,-20.023186,30.177013,-22.54506,-8.005498,-10.065081,-35.043514
203,-0.1259458065032959,-71.53921508789062,73.20250701904297,-2.335064567863268,6.182190321440054,-90.71230406750045,-46.71504,6.6965637,-4.360432,103.66574,-14.528377,-5.248668,4.0207205,4.838391,-5.378356,27.382322,-30.874905,-1.9034415,8.488864,4.555122,18.332436,39.354057,17.939093,-9.118308,-29.208708,2.7744076,-3.708903,0.4982413,-26.370663,-19.40764,29.737528,-23.745777,-8.508044,-9.950222,-34.06946
204,-0.09273161739110947,-72.94969177246094,73.62042999267578,-1.5514202317641477,6.597265418535306,-90.70573563854792,-47.643646,6.2679887,-3.012645,100.156944,-13.918158,-4.9525633,5.650877,3.942347,-5.1092587,25.114935,-29.048622,-1.5526131,9.424767,3.7341142,17.58523,41.542038,18.244434,-8.520513,-29.944214,2.054164,-3.6632686,0.5013903,-27.277807,-18.837816,29.324965,-24.789637,-8.806376,-9.83281,-33.166767
205,-0.053516536951065063,-74.3873062133789,74.05217742919922,-0.6983358483565968,7.124710221019621,-90.55444389622383,-48.413464,5.829153,-1.5381403,96.22753,-13.179553,-4.5527506,7.024599,2.9250188,-5.039628,23.143795,-26.991526,-1.1589115,10.283095,2.8070211,16.748743,43.528397,18.529793,-7.925394,-30.530073,1.1297212,-3.634895,0.44802228,-27.93264,-18.32815,28.945606,-25.797558,-8.929786,-9.705034,-32.368668
206,-0.001620783586986363,-75.8368911743164,74.49728393554688,0.2195454407965848,7.73692141200538,-90.27367549195434,-48.964798,5.3028626,0.057299856,91.84161,-12.31677,-4.1378365,8.213292,1.8188838,-5.1127887,21.357504,-24.69868,-0.7269153,11.062658,1.787173,15.842596,45.335896,18.801414,-7.3263936,-30.981855,0.068806246,-3.624768,0.38576996,-28.333555,-17.888763,28.578766,-26.813951,-8.909554,-9.562508,-31.652788
207,0.05483371764421463,-77.28649139404297,74.95030975341797,1.1283251317213159,8.362183320340387,-89.94424975991933,-49.21236,4.6922617,1.643742,87.037285,-11.426713,-3.8161917,9.194341,0.71606594,-5.2548733,19.89242,-22.281275,-0.27155066,11.79634,0.7547738,14.941036,46.966747,19.04681,-6.710051,-31.30922,-0.8983765,-3.635682,0.34091273,-28.55214,-17.529009,28.247324,-27.780325,-8.820307,-9.401518,-30.988724
208,0.11849573254585266,-78.74671936035156,75.4085464477539,1.9527356819431554,8.933710852660674,-89.6543663175479,-49.09265,4.0184193,3.078764,81.84034,-10.593261,-3.6733294,9.96464,-0.3052024,-5.3884206,18.856895,-19.841867,0.19806227,12.509127,-0.21008049,14.109998,48.42509,19.236938,-6.06157,-31.513409,-1.5389587,-3.6720545,0.33681333,-28.716501,-17.264872,27.96829,-28.59088,-8.689095,-9.221356,-30.341919
209,0.19546258449554443,-80.21712493896484,75.86187744140625,2.7251304903265687,9.49419912696013,-89.40591163803873,-48.614613,3.294022,4.4098167,76.102356,-9.822409,-3.6992247,10.474026,-1.2960829,-5.535802,18.282299,-17.351099,0.69990253,13.212622,-1.1439782,13.331354,49.700016,19.353575,-5.3499675,-31.601412,-1.7267162,-3.7311425,0.30516765,-28.786238,-17.103155,27.753046,-29.267906,-8.565527,-9.02293,-29.707336
210,0.26866963505744934,-81.69988250732422,76.2974853515625,3.4709303682751553,10.060833428308973,-89.16320689953665,-47.801067,2.4828823,5.670704,69.816185,-9.047514,-3.8634806,10.769678,-2.286521,-5.697212,18.087967,-14.771347,1.2522359,13.878892,-2.068124,12.577731,50.787117,19.390738,-4.592946,-31.560421,-1.5943176,-3.8127513,0.2517812,-28.752022,-17.058285,27.587915,-29.834127,-8.38469,-8.8042555,-29.103048
211,0.34392115473747253,-83.18899536132812,76.70820617675781,4.092917833999363,10.534578849913869,-88.97725990211597,-46.633156,1.5957987,6.6733513,63.203773,-8.230113,-4.1843596,11.008512,-3.1591575,-5.76403,18.164509,-12.161997,1.8505347,14.528396,-2.8699222,11.915533,51.68017,19.368137,-3.8566866,-31.368626,-1.3036901,-3.9243047,0.30555668,-28.612106,-17.096071,27.505577,-30.309402,-8.177089,-8.559946,-28.541712
212,0.42350414395332336,-84.6880874633789,77.09770965576172,4.499248476217821,10.816009461177766,-88.89756203876279,-45.096725,0.67881423,7.2233806,56.477726,-7.33159,-4.6486297,11.340651,-3.7953904,-5.645865,18.394987,-9.574239,2.4781873,15.160285,-3.4394782,11.418595,52.38447,19.27123,-3.190401,-31.014484,-1.0080506,-4.072948,0.5800275,-28.38244,-17.220114,27.54224,-30.724535,-7.9286394,-8.285006,-28.039787
213,0.5011827945709229,-86.20671844482422,77.4581298828125,4.649964534673272,10.869844269955843,-88.96086418218998,-43.09321,-0.2672169,7.127967,49.37927,-6.2516494,-5.2511687,11.833515,-4.1460633,-5.3014092,18.69558,-6.976257,3.1327524,15.815362,-3.7210062,11.098151,52.874805,19.107548,-2.6250508,-30.444283,-0.6607995,-4.271332,1.213508,-28.109426,-17.415043,27.729454,-31.004734,-7.6106234,-7.9594793,-27.599583
214,0.5730701088905334,-87.74136352539062,77.78082275390625,4.577333610705731,10.748035909058641,-89.15265051063245,-40.61541,-1.1260893,6.494903,41.803772,-5.011468,-5.9245644,12.441536,-4.241458,-4.778726,19.053402,-4.307023,3.8423278,16.492168,-3.7625542,10.91501,53.17535,18.877638,-2.1124835,-29.699577,-0.20657253,-4.5063844,2.1030629,-27.766804,-17.677416,28.0485,-31.167498,-7.2415137,-7.591538,-27.2127
215,0.6251622438430786,-89.30632781982422,78.05587005615234,4.293596638908796,10.480249980415358,-89.44236874263596,-37.821274,-1.693114,5.6057463,34.253357,-3.7640824,-6.583376,13.114061,-4.08026,-4.1304493,19.511423,-1.5848776,4.6093664,17.14907,-3.5743535,10.829104,53.300983,18.589394,-1.6780957,-28.824066,0.21991464,-4.749577,3.0521605,-27.356934,-17.993967,28.443102,-31.235693,-6.861268,-7.218046,-26.8646
216,0.6674727201461792,-90.90522766113281,78.27837371826172,3.8167541896871806,10.098346458663626,-89.79229484360036,-34.920837,-1.8483366,4.78184,27.294834,-2.6810906,-7.199208,13.776116,-3.6777868,-3.4140854,20.156586,1.1560262,5.415467,17.743765,-3.172494,10.800283,53.26188,18.25743,-1.3515074,-27.858702,0.48012492,-4.979633,3.8653276,-26.86254,-18.341652,28.861553,-31.243526,-6.5311766,-6.8765626,-26.539436
217,0.6951881647109985,-92.49940490722656,78.43638610839844,3.047683642710854,9.545408790477035,-90.22983540740312,-31.870556,-1.4996608,4.0644407,20.915752,-1.815807,-7.8821163,14.469991,-2.920061,-2.5532043,21.00194,4.0845714,6.274622,18.296875,-2.4508944,10.825912,53.079144,17.882933,-1.1380886,-26.790817,0.47575295,-5.188059,4.5321884,-26.317726,-18.709118,29.313793,-31.148994,-6.2376437,-6.5718136,-26.198786
218,0.7243228554725647,-94.07693481445312,78.52342224121094,1.9796381354714496,8.815882391617526,-90.75318165708698,-28.645279,-0.6994429,3.3534303,14.913167,-1.0930101,-8.649083,15.201616,-1.8243846,-1.5436802,22.05102,7.1559553,7.1500006,18.818258,-1.396852,10.902353,52.7539,17.464207,-1.0226414,-25.613955,0.29617077,-5.3925667,5.1447206,-25.731077,-19.09228,29.826775,-30.930363,-5.966786,-6.285823,-25.857115
219,0.7553240060806274,-95.6550064086914,78.56588745117188,0.8431725776453534,8.048412972704142,-91.24684091266269,-25.478188,0.2805319,2.7720108,9.499178,-0.43901792,-9.360423,15.766813,-0.68789566,-0.60580415,23.477869,9.959935,7.9494653,19.210352,-0.2519124,10.990607,52.256966,17.01636,-0.9989971,-24.355942,0.07868323,-5.6138277,5.663866,-25.092525,-19.479536,30.354845,-30.615545,-5.7419853,-6.024859,-25.573606
220,0.7761960625648499,-97.20213317871094,78.5692367553711,-0.07495497791202287,7.403323858320448,-91.58548641248694,-23.518528,1.1075194,2.3885605,6.8431573,-0.80065095,-9.858217,15.945312,0.14999722,-0.0006848866,25.442793,12.071791,8.609175,19.366714,0.6750102,11.071761,51.537937,16.56903,-1.0613736,-23.026749,-0.04331534,-5.8696275,6.0556912,-24.385038,-19.85395,30.848763,-30.227697,-5.5957985,-5.796948,-25.407442
221,0.7912508249282837,-98.71810150146484,78.53628540039062,-0.7094928201978363,6.929205767915591,-91.7417123488975,-22.662165,1.6819403,2.2165668,6.765721,-2.070509,-10.181808,15.656748,0.6368224,0.16120206,28.065144,13.433344,9.140725,19.262634,1.3008211,11.139086,50.551876,16.13279,-1.2101771,-21.562952,-0.057797503,-6.169262,6.272506,-23.607267,-20.197506,31.293648,-29.75024,-5.5818,-5.600829,-25.392925
222,0.8243871927261353,-100.20819091796875,78.46558380126953,-1.1411304674081473,6.55841046521842,-91.75769994898688,-21.688845,2.0497847,2.2105894,6.749108,-3.0101328,-10.389332,14.988947,0.84717375,-0.01994943,31.287199,14.211686,9.559428,18.93543,1.7141677,11.218161,49.31613,15.707679,-1.4458622,-19.956566,-0.03891449,-6.5013657,6.352294,-22.789713,-20.50003,31.715288,-29.140812,-5.671589,-5.436226,-25.489822
223,0.8593795895576477,-101.67310333251953,78.3486328125,-1.3135438217360937,6.27342565007049,-91.63699696333212,-20.66447,2.1057436,2.2624269,6.773065,-3.5816233,-10.317915,14.00951,0.66194564,-0.4691518,34.944782,14.351229,9.827097,18.395447,1.871701,11.346745,47.871883,15.31544,-1.7666678,-18.30719,0.015538652,-6.848704,6.3937235,-21.948046,-20.758362,32.1112,-28.40447,-5.7690496,-5.312537,-25.646471
224,0.9135900735855103,-103.1080093383789,78.19261932373047,-1.1677880958142008,6.057754499566954,-91.38427747030507,-19.656357,1.7272958,2.2647078,6.8226337,-3.7528255,-9.794721,12.79994,-0.02647742,-1.0942543,38.859177,13.806552,9.921683,17.666758,1.7248179,11.55651,46.25101,14.993366,-2.177886,-16.709057,0.10453284,-7.1955833,6.4996347,-21.073696,-20.97741,32.4655,-27.563923,-5.7806783,-5.2393484,-25.810982
225,0.982496976852417,-104.4968032836914,78.0119400024414,-0.6123452940565461,5.928534370546813,-90.97022529346204,-18.66362,0.7606229,2.16429,6.9006844,-3.26045,-8.568179,11.385666,-1.3416847,-1.9452834,43.065258,12.3751335,9.797771,16.73351,1.1779233,11.841137,44.4279,14.768982,-2.7085686,-15.114506,0.2607619,-7.537423,6.6795573,-20.122847,-21.157944,32.756348,-26.638117,-5.6435857,-5.180947,-25.915207
226,1.0385442972183228,-105.90707397460938,77.75189208984375,0.272063522719809,5.861343959532404,-90.4289258240954,-18.206657,-0.65657413,2.0239828,8.209581,-2.8188329,-6.8044953,9.809631,-3.1729844,-2.9561675,47.572414,10.17586,9.494623,15.645449,0.3040969,12.172027,42.394295,14.644623,-3.3640127,-13.501565,0.4582657,-7.8812695,6.8957224,-19.079714,-21.300611,32.973866,-25.630253,-5.4194593,-5.1451807,-26.004467
227,1.1092090606689453,-107.31044006347656,77.43730163574219,1.283803885435848,5.787682715400145,-89.8510004128464,-18.884724,-2.224284,1.9559419,11.988207,-3.5854764,-4.9568753,8.156836,-5.252413,-3.8888733,52.172173,7.6481814,9.122804,14.5159,-0.6918651,12.544874,40.19461,14.616773,-4.1171184,-11.994925,0.6109128,-8.22856,7.1781945,-17.972683,-21.419813,33.118057,-24.532963,-5.2016153,-5.2080116,-26.196503
228,1.2175372838974,-108.65455627441406,77.10713958740234,2.264888889555715,5.663284256589748,-89.30677239486232,-19.32928,-3.7335508,1.9853871,15.292245,-4.5471916,-3.435367,6.4506803,-7.359718,-4.5588956,56.698635,5.2066245,8.790581,13.436515,-1.6501487,12.9685755,37.850227,14.678929,-4.9416637,-10.702885,0.6361065,-8.582149,7.553597,-16.818798,-21.537407,33.185284,-23.356457,-5.0877595,-5.447169,-26.613222
229,1.3468621969223022,-109.9848861694336,76.71730041503906,3.269488188136627,5.50250057078938,-88.76426273953555,-19.73986,-5.216805,2.080793,18.488106,-6.0591216,-2.2900505,4.661209,-9.590298,-4.9811015,61.224705,2.8334098,8.612973,12.387319,-2.6251435,13.4480915,35.33641,14.825259,-5.8872414,-9.614692,0.4018805,-8.980874,8.016704,-15.619259,-21.674767,33.181767,-22.091917,-5.0440536,-5.990735,-27.294863
230,1.4579426050186157,-111.29752349853516,76.27333068847656,4.36169488633375,5.327277991606071,-88.19448485935203,-20.24669,-6.7614117,2.2077792,21.881924,-8.006015,-1.3055701,2.7746894,-12.006443,-5.2304177,65.815895,0.34108767,8.513908,11.343355,-3.6856053,13.970674,32.616444,15.045555,-6.968816,-8.668855,-0.013788854,-9.4149475,8.554543,-14.328595,-21.84089,33.088947,-20.778334,-5.043983,-6.7638884,-28.179953
231,1.560390830039978,-112.60836029052734,75.78565216064453,5.4562222951524095,5.124722514281806,-87.65663263614249,-20.660564,-8.255637,2.3538995,25.162825,-10.125308,-0.46045476,0.77909577,-14.404637,-5.234723,70.32789,-2.1258101,8.321368,10.366529,-4.751691,14.536182,29.68939,15.324219,-8.104454,-7.8916965,-0.37542605,-9.812698,9.181749,-12.905575,-22.035473,32.87007,-19.487507,-5.1897006,-7.537139,-29.241093
232,1.6632728576660156,-113.90963745117188,75.28514862060547,6.466029330020361,4.883870594918668,-87.21145407759403,-20.77493,-9.607081,2.514144,27.975704,-12.12563,0.2601997,-1.3582505,-16.575853,-4.9207797,74.614,-4.4186387,7.861887,9.507388,-5.739652,15.1518345,26.569029,15.644282,-9.206998,-7.3177633,-0.4443449,-10.097234,9.915513,-11.32031,-22.251146,32.50158,-18.276928,-5.5749507,-8.075624,-30.451017
233,1.7679026126861572,-115.20364379882812,74.80780792236328,7.440646475218518,4.591491744782907,-86.8740363572654,-20.504496,-10.887569,2.7362323,30.18522,-13.955383,0.8378458,-3.7149882,-18.534082,-4.1577888,78.73967,-6.5407557,6.9998093,8.780344,-6.6922507,15.8615,23.233763,15.9999,-10.296361,-6.9776,-0.051056884,-10.192975,10.82207,-9.552021,-22.477377,31.991764,-17.085833,-6.3943233,-8.279369,-31.929165
234,1.8392969369888306,-116.4937515258789,74.34809875488281,8.417633861179723,4.264863556079282,-86.61019696638432,-19.981047,-12.13775,3.0028117,32.01167,-15.76738,1.2717934,-6.300815,-20.338648,-2.9961727,82.75415,-8.546343,5.8715963,8.151256,-7.6516623,16.647427,19.686825,16.375696,-11.413638,-6.8530188,0.6345035,-10.146916,11.872998,-7.6140904,-22.709791,31.355444,-15.898012,-7.5303993,-8.262318,-33.64721
235,1.8686070442199707,-117.76766967773438,73.91682434082031,9.2838348784724,3.9392820471515524,-86.41030849721031,-19.301558,-13.22659,3.2251568,33.59321,-17.553791,1.6001316,-9.041704,-21.862242,-1.6597947,86.47854,-10.35969,4.6994863,7.5845704,-8.511732,17.434835,15.98933,16.740835,-12.49414,-6.9057894,1.3553948,-10.068353,12.940483,-5.5281844,-22.944946,30.596138,-14.84004,-8.6062765,-8.125555,-35.35469
236,1.8820854425430298,-119.06651306152344,73.51554870605469,9.922660120000588,3.648774042090737,-86.26383665781715,-18.559067,-14.0255995,3.327162,35.0566,-19.300776,1.8626218,-11.849856,-23.011435,-0.40396616,89.73998,-11.914762,3.6885269,7.03009,-9.153482,18.150305,12.197115,17.067707,-13.462246,-7.079908,1.8709145,-10.078403,13.894647,-3.3394058,-23.17915,29.734205,-14.0226555,-9.251821,-7.998872,-36.80525
237,1.8858054876327515,-120.34119415283203,73.13536071777344,10.267393950986188,3.3792151681924834,-86.21040859624634,-17.753334,-14.451587,3.331607,36.474174,-21.060871,2.0468671,-14.737943,-23.75117,0.71461165,92.548706,-13.189387,2.8283474,6.5135,-9.488703,18.821001,8.210953,17.344273,-14.34243,-7.3275394,2.1078997,-10.250904,14.77258,-1.0645409,-23.405245,28.762896,-13.399369,-9.364694,-7.8729587,-37.920807
238,1.8794907331466675,-121.61402893066406,72.79751586914062,10.392992574160132,3.1213110083492386,-86.23920132127088,-16.833984,-14.608034,3.290085,37.751965,-22.815573,2.145634,-17.739527,-24.157629,1.7780318,94.99402,-14.221988,2.006137,6.0310917,-9.583531,19.467165,4.0204363,17.57457,-15.165149,-7.6464887,2.2145042,-10.513294,15.615349,1.3103604,-23.617495,27.698801,-12.906579,-9.142113,-7.7132998,-38.83531
