unveil-humanoid-operators/unveil-humanoid-operators.github.io/feature-analysis-animation/data/feature_matrix_instances/gender_shoulder_mean_vel_jogging_A071_jog_ff_loop_270_003__A071.csv
Frame,root_translateX,root_translateY,root_translateZ,root_rotateX,root_rotateY,root_rotateZ,left_hip_pitch_joint_dof,left_hip_roll_joint_dof,left_hip_yaw_joint_dof,left_knee_joint_dof,left_ankle_pitch_joint_dof,left_ankle_roll_joint_dof,right_hip_pitch_joint_dof,right_hip_roll_joint_dof,right_hip_yaw_joint_dof,right_knee_joint_dof,right_ankle_pitch_joint_dof,right_ankle_roll_joint_dof,waist_yaw_joint_dof,waist_roll_joint_dof,waist_pitch_joint_dof,left_shoulder_pitch_joint_dof,left_shoulder_roll_joint_dof,left_shoulder_yaw_joint_dof,left_elbow_joint_dof,left_wrist_roll_joint_dof,left_wrist_pitch_joint_dof,left_wrist_yaw_joint_dof,right_shoulder_pitch_joint_dof,right_shoulder_roll_joint_dof,right_shoulder_yaw_joint_dof,right_elbow_joint_dof,right_wrist_roll_joint_dof,right_wrist_pitch_joint_dof,right_wrist_yaw_joint_dof
0,1.7748843431472778,0.13337111473083496,79.7862548828125,3.2945170619721384,2.720813161798549,-176.70357240313112,-3.1242776,-9.085109,1.0125253,34.024258,-9.763484,-15.000033,-30.938847,-2.232555,-17.243006,49.624046,18.8079,9.225124,-8.525197,-1.090934,14.031109,-3.818314,24.983604,-20.978136,39.22308,-2.9334958,1.7575383,14.057661,-4.480499,-33.492916,19.722942,49.269035,-4.915749,4.262558,-23.315065
1,1.8600009679794312,1.1801321506500244,79.94426727294922,2.7733659519172216,2.550505444121212,-176.96759385098702,-2.83136,-10.032159,0.7842708,32.255394,-8.9238205,-15.000033,-30.008404,0.034410477,-15.960971,47.22393,20.453764,15.000033,-8.213177,-0.6738684,14.439924,-4.1363373,24.80338,-21.05291,38.00562,-2.8065357,1.1703649,13.720736,-5.065505,-33.449306,20.364866,49.682594,-4.746459,3.571866,-22.82188
2,1.9748733043670654,2.334303855895996,80.03429412841797,1.742238568325607,2.6287454887313486,-177.71105396363734,-3.122506,-10.312332,0.8498599,31.218443,-8.586977,-15.000033,-28.660072,1.4518787,-18.057795,44.127285,22.940498,15.000033,-7.464226,0.22726071,14.626709,-4.517939,24.528028,-21.110111,36.90938,-2.6381505,0.54624426,13.403754,-5.722955,-33.328896,21.073114,50.27187,-4.568292,2.8724432,-22.35206
3,2.0775458812713623,3.4877724647521973,80.05950164794922,0.7562780204828804,2.710176939265181,-178.4809504024716,-3.5058832,-10.511729,1.027243,30.32921,-8.222381,-15.000033,-27.457104,2.8594744,-19.945238,41.199894,25.22664,15.000033,-6.6958966,1.104306,14.751012,-4.9820952,24.172634,-21.184807,36.029945,-2.4418669,-0.034947135,13.0881195,-6.526888,-33.16088,21.884523,50.9317,-4.406972,2.1914341,-21.892939
4,2.201429605484009,4.602512359619141,80.01295471191406,-0.08364216974090485,2.703642751764603,-179.13447244314347,-3.8916166,-10.577977,1.3183734,29.644361,-7.697976,-15.000033,-26.53998,4.156316,-21.05634,38.908318,26.328878,15.000033,-5.9951267,1.8575032,14.936496,-5.5292006,23.816368,-21.338991,35.40082,-2.2566872,-0.4901162,12.749612,-7.48092,-32.983322,22.766403,51.48173,-4.2989817,1.5548756,-21.424368
5,2.3206145763397217,5.700700283050537,79.92157745361328,-0.7657800042671299,2.561693835165565,-179.61822622235027,-4.1431694,-10.551708,1.679437,28.940073,-6.7437253,-15.000033,-25.939583,5.4809027,-20.920582,37.3569,25.54726,15.000033,-5.4208026,2.4841044,15.253178,-6.1124506,23.48242,-21.555313,34.979256,-2.0746791,-0.79735285,12.377895,-8.623502,-32.8163,23.745548,51.89162,-4.2302017,0.9587467,-20.88173
6,2.4301199913024902,6.7922749519348145,79.79623413085938,-1.3476238625283856,2.3165119103256933,-179.96977708324633,-4.2944922,-10.439105,2.0814707,28.251326,-5.50592,-15.000033,-25.539164,6.817872,-19.879911,36.345886,23.335571,15.000033,-4.9502144,3.035982,15.6809435,-6.7056923,23.177652,-21.808525,34.681435,-1.8999017,-0.9966604,11.979552,-9.89646,-32.66154,24.789127,52.179665,-4.18389,0.39302444,-20.285635
7,2.5339155197143555,7.897195339202881,79.63552856445312,-1.9045115403400927,2.028129833602118,179.748607064533,-4.5959125,-10.035112,2.5909042,28.156612,-4.5581207,-15.000033,-25.268349,7.914695,-18.656544,35.803123,20.483831,15.000033,-4.5157557,3.5728755,16.17068,-7.3345203,22.918554,-22.112783,34.517715,-1.7695283,-1.1011363,11.555426,-11.242015,-32.51359,25.85725,52.320423,-4.1797714,-0.12688598,-19.753986
8,2.652549982070923,8.991203308105469,79.47905731201172,-2.5231770160883404,1.7504091409307923,179.46070296213546,-5.3021913,-9.114612,3.2615097,29.265432,-4.49974,-15.000033,-25.05868,8.569995,-17.971203,35.590405,17.841833,15.000033,-4.0346994,4.158393,16.673332,-8.022877,22.727114,-22.4842,34.49677,-1.72237,-1.1225419,11.106889,-12.602709,-32.365032,26.9091,52.294247,-4.243889,-0.5864011,-19.40587
9,2.824488878250122,10.13372802734375,79.28172302246094,-3.327457516758451,1.4648909961354601,179.08897054949705,-6.62764,-7.3249874,4.1362267,32.21944,-5.642482,-15.000033,-24.81983,8.838839,-18.083458,35.576725,15.631722,15.000033,-3.4298518,4.9074874,17.218782,-8.797049,22.623236,-22.960718,34.63557,-1.810056,-1.0480435,10.596714,-13.97782,-32.211205,27.9536,52.06522,-4.369832,-0.9883247,-19.31383
10,2.9887192249298096,11.268052101135254,79.01151275634766,-3.907045549256813,1.1979891256088206,178.789960948192,-8.138025,-5.361418,5.608147,35.916515,-7.339053,-11.784686,-24.929115,8.262798,-18.537254,36.53044,13.093944,15.000033,-2.859071,5.4506917,17.759882,-9.6194105,22.606197,-23.522257,34.896,-2.0062125,-0.87016547,10.03737,-15.399465,-32.057888,29.00717,51.65734,-4.5534344,-1.3396264,-19.397491
11,3.1624059677124023,12.35584545135498,78.64360046386719,-4.117421755768,0.998075606829132,178.68267198646143,-9.449707,-3.751701,7.5701866,39.31988,-9.389284,-4.8581324,-25.463299,6.7673707,-19.08823,38.474728,10.142097,15.000033,-2.4376588,5.6480546,18.242365,-10.432315,22.665794,-24.102383,35.219315,-2.2287405,-0.61374277,9.502587,-16.834225,-31.9057,30.025694,51.116947,-4.8281436,-1.6300297,-19.552742
12,3.329824686050415,13.458296775817871,78.20494079589844,-4.364057544219541,0.8053887276586438,178.69006086302144,-10.395855,-2.245473,8.920827,42.12663,-11.831908,0.32616842,-25.996653,5.133265,-19.665796,40.45963,7.1766458,15.000033,-2.0977163,5.845031,18.724133,-11.1866,22.792452,-24.639896,35.559044,-2.39447,-0.3074597,9.065011,-18.25035,-31.749483,30.966133,50.49599,-5.225322,-1.8490901,-19.678423
13,3.505373001098633,14.572027206420898,77.70175170898438,-4.674516682938048,0.5883163163437284,178.83187739937281,-10.875397,-0.8691068,9.612817,44.19643,-14.6757555,3.2350786,-26.530169,3.3890376,-20.240892,42.551018,4.042583,15.000033,-1.853351,6.058812,19.229126,-11.892856,22.98743,-25.147596,35.918415,-2.492499,0.05511014,8.716279,-19.680311,-31.593431,31.87857,49.814655,-5.787139,-1.9650921,-19.794737
14,3.701873540878296,15.681966781616211,77.14672088623047,-4.998922927904825,0.35158292269700364,179.09616528449388,-11.088414,0.4680855,9.896421,45.941628,-17.945652,4.8399305,-27.071718,1.3763477,-20.89315,44.855747,0.7402742,15.000033,-1.6950142,6.2493615,19.762016,-12.570461,23.252737,-25.651304,36.323322,-2.5618448,0.48247436,8.425611,-21.122618,-31.436893,32.769947,49.0407,-6.485558,-1.9913518,-19.939949
15,3.9207305908203125,16.7965087890625,76.54611206054688,-5.2543986421554685,0.15225806855259474,179.46222739806058,-11.241982,1.6611198,9.831408,47.43315,-21.265047,5.5852814,-27.600353,-0.9449566,-21.589417,47.2288,-2.4554875,15.000033,-1.6098385,6.3417826,20.27416,-13.182467,23.575012,-26.114023,36.764496,-2.5944753,0.9479644,8.232596,-22.499891,-31.265892,33.537266,48.1589,-7.2421465,-1.9878339,-20.041574
16,4.158931732177734,17.924442291259766,75.9179458618164,-5.361828620886994,0.04790122231458156,179.90388180532136,-11.5322075,2.594469,9.45295,48.730827,-24.262377,5.919512,-28.111849,-3.5947928,-22.285992,49.52598,-5.2677784,15.000033,-1.5774,6.26591,20.71089,-13.701459,23.93338,-26.50097,37.24889,-2.5816193,1.4243948,8.178092,-23.741373,-31.06335,34.078472,47.16889,-7.9814105,-2.0170906,-20.02996
17,4.409611701965332,19.065879821777344,75.27476501464844,-5.292761291557444,0.07155217765718444,-179.5495458481675,-12.023138,3.1995158,8.662232,49.798355,-26.931753,5.743057,-28.665346,-6.6996093,-23.070333,51.816605,-7.646123,15.000033,-1.6160758,5.984168,21.04765,-14.161972,24.319275,-26.806074,37.7976,-2.5074632,1.938455,8.301693,-24.885918,-30.823635,34.367577,46.103897,-8.714841,-2.1014893,-19.883116
18,4.650498390197754,20.2083797454834,74.65228271484375,-5.0790782294523975,0.17514394668203243,-178.8875857103133,-12.610526,3.5701954,7.5475206,50.648872,-29.435993,4.903827,-29.230244,-10.215664,-23.896477,54.13546,-9.749118,15.000033,-1.7333354,5.5276985,21.318277,-14.580317,24.731926,-27.056156,38.427025,-2.3819337,2.4924312,8.571981,-25.971857,-30.549904,34.470886,44.983063,-9.468764,-2.2093384,-19.641619
19,4.873897552490234,21.344369888305664,74.0743408203125,-4.740765666771491,0.30151968750057845,-178.17802168857875,-13.232687,3.8092487,6.374431,51.398125,-31.655151,3.7725625,-29.719275,-13.876955,-24.528381,56.290092,-11.597088,15.000033,-1.8829719,4.9387693,21.543776,-14.897603,25.159061,-27.25687,39.138035,-2.2300985,3.0223327,8.924767,-26.910229,-30.237932,34.40212,43.777634,-10.220163,-2.3235667,-19.33126
20,5.054216384887695,22.482261657714844,73.54786682128906,-4.4450257831412365,0.47382113867217457,-177.6369103090313,-13.956686,4.2452497,5.412041,52.26552,-33.528595,2.664833,-30.123404,-17.209238,-25.009706,57.968372,-13.10882,14.086105,-1.8755887,4.400631,21.662243,-15.060252,25.582829,-27.414118,39.940845,-2.0741804,3.4634836,9.298411,-27.61912,-29.882345,34.180122,42.46784,-10.936061,-2.4265008,-18.97822
21,5.177643299102783,23.6418514251709,73.06189727783203,-4.067732136324213,0.7133991037616516,-177.22618190472778,-14.754831,4.713804,4.7205133,53.170204,-34.977894,1.6794741,-30.566233,-20.344803,-25.173063,59.266922,-14.309288,12.523627,-1.7430997,3.782447,21.641403,-15.03616,25.991009,-27.505419,40.845608,-1.8765739,3.7717383,9.7246475,-28.033617,-29.4715,33.69782,40.99504,-11.639904,-2.5161085,-18.512936
22,5.239961624145508,24.81440544128418,72.62574005126953,-3.5303320327925483,0.9852521896043083,-176.82065291715173,-15.559742,5.03955,4.145185,53.994167,-36.033684,0.66858,-31.08337,-23.485619,-24.89971,60.34211,-15.234586,11.174062,-1.5985321,3.005035,21.528795,-14.87319,26.38071,-27.537025,41.86813,-1.6355103,3.9908745,10.22387,-28.228323,-29.008348,32.98491,39.410366,-12.3377905,-2.6047163,-17.947254
23,5.273504257202148,26.013547897338867,72.24517059326172,-2.979488479456943,1.1984314709980568,-176.42061202118614,-16.30114,5.373626,3.5805733,54.784267,-36.743267,-0.38725525,-31.529589,-26.388159,-24.264942,61.092175,-15.903017,10.021482,-1.4660298,2.2405035,21.426172,-14.629368,26.747646,-27.549847,43.01935,-1.4271383,4.186442,10.71747,-28.305258,-28.511873,32.256386,37.83553,-12.988238,-2.6913056,-17.42988
24,5.280619144439697,27.19872283935547,71.93079376220703,-2.565189522546066,1.2645411626096767,-176.02987833262048,-16.91388,5.8687477,2.9182324,55.58928,-37.147865,-1.508963,-31.735144,-28.811977,-23.36599,61.430805,-16.345451,9.055113,-1.3633001,1.6671863,21.436647,-14.358402,27.084858,-27.579128,44.306023,-1.3241644,4.4220905,11.125873,-28.368025,-28.007938,31.74222,36.38675,-13.534502,-2.76976,-17.110046
25,5.251272201538086,28.375879287719727,71.69336700439453,-2.3343509335089507,1.127891994170251,-175.63069523573813,-17.361664,6.57162,2.1240427,56.46884,-37.22045,-2.7049284,-31.574833,-30.666195,-22.178873,61.292133,-16.588627,8.383381,-1.3010862,1.3522246,21.621622,-14.063066,27.384762,-27.647675,45.7675,-1.3355647,4.6695375,11.441915,-28.367085,-27.500374,31.44207,35.025814,-13.948704,-2.835448,-17.062132
26,5.1921305656433105,29.55276870727539,71.52710723876953,-2.211945535876757,0.8488715376228336,-175.2302365776632,-17.680958,7.391483,1.2428247,57.378033,-36.960747,-3.970495,-31.14852,-32.098137,-20.69955,60.762863,-16.61227,7.9697657,-1.2582706,1.2060233,21.914896,-13.723686,27.642384,-27.732412,47.392918,-1.4223773,4.908874,11.704621,-28.259844,-26.986612,31.25895,33.698845,-14.258894,-2.8870542,-17.194609
27,5.139886379241943,30.747467041015625,71.41577911376953,-2.1641170939840677,0.514227037847764,-174.86977601303784,-17.913568,8.276177,0.28468072,58.192307,-36.446117,-5.305873,-30.60816,-33.226784,-19.064402,59.98573,-16.383158,7.5895786,-1.2046021,1.1757218,22.231384,-13.356929,27.855854,-27.797266,49.108086,-1.5857601,5.2151423,11.901667,-28.13632,-26.48448,31.263144,32.47672,-14.507181,-2.922016,-17.407864
28,5.090403079986572,31.96375274658203,71.34007263183594,-2.154553129229531,0.21106881960259247,-174.59144363507983,-18.110489,9.179789,-0.74003834,58.801056,-35.75739,-6.706555,-30.127045,-34.166065,-17.396456,59.108925,-15.874188,7.020344,-1.1158115,1.2098525,22.48911,-12.967148,28.024303,-27.794268,50.827164,-1.8232102,5.6633477,12.019687,-28.08648,-26.020773,31.527363,31.422625,-14.732022,-2.9381168,-17.60177
29,5.022090911865234,33.172672271728516,71.31356811523438,-2.2111509699020155,-0.06665166185665884,-174.40717439687413,-18.307787,10.115725,-1.9022355,59.251484,-34.874058,-8.2036295,-29.715921,-34.905487,-15.736933,58.173843,-15.036623,6.1203365,-0.9881504,1.3521765,22.701595,-12.578584,28.141966,-27.737833,52.593266,-2.2067122,6.317701,11.998775,-28.149792,-25.62326,32.132374,30.537094,-14.9006815,-2.9022205,-17.827377
30,4.967381954193115,34.3974723815918,71.32266998291016,-2.339690461922913,-0.3545497150251555,-174.29362408657835,-18.468021,11.091004,-3.1953948,59.573288,-33.772068,-9.793068,-29.2944,-35.40547,-14.03058,57.123802,-13.91592,5.0293655,-0.83437693,1.6198351,22.90461,-12.182435,28.204388,-27.643671,54.42525,-2.7085297,7.1247306,11.868078,-28.253212,-25.297499,33.0139,29.76333,-15.001962,-2.8256395,-18.109522
31,4.911584377288818,35.62409210205078,71.36622619628906,-2.470211083710361,-0.6103339807018041,-174.24103603137365,-18.542524,12.061634,-4.4902186,59.639282,-32.523026,-11.407137,-28.90851,-35.722946,-12.246589,55.949883,-12.622342,3.9507635,-0.65286887,1.9179237,23.049633,-11.734168,28.218184,-27.468567,56.201107,-3.1812778,7.980697,11.74585,-28.331116,-25.032064,34.030003,29.088156,-15.0958395,-2.7742202,-18.310017
32,4.820674896240234,36.85457229614258,71.44985961914062,-2.5327777426489804,-0.792183139387295,-174.24054445982358,-18.490562,12.992607,-5.6532893,59.330956,-31.193178,-12.9708,-28.60191,-35.90885,-10.341315,54.640533,-11.254218,3.092645,-0.4442174,2.1443172,23.088951,-11.176331,28.19958,-27.162058,57.787346,-3.4822643,8.780388,11.744554,-28.33079,-24.805973,35.046124,28.51076,-15.24306,-2.813923,-18.291851
33,4.723987579345703,38.11173629760742,71.56103515625,-2.512060390348598,-0.886915090650361,-174.31065908498562,-18.30489,13.882424,-6.6575775,58.608566,-29.793556,-14.492348,-28.400204,-35.91947,-8.211407,53.166943,-9.681446,2.4881918,-0.19595446,2.2679663,23.002325,-10.4612055,28.15524,-26.67335,59.126854,-3.540804,9.574941,11.936348,-28.261189,-24.60948,36.090176,28.06334,-15.47327,-2.9803255,-18.029306
34,4.605743885040283,39.368438720703125,71.71775817871094,-2.2197935460776366,-0.9083935092604173,-174.39496372164345,-17.967005,14.385018,-7.4025764,57.46418,-28.217829,-15.000033,-28.363405,-35.996895,-5.716733,51.56804,-7.887696,2.1107113,0.033722863,2.119335,22.81498,-9.615971,28.088825,-26.034206,60.28201,-3.448521,10.394648,12.240252,-28.159986,-24.438364,37.21858,27.750595,-15.749572,-3.2344148,-17.595797
35,4.473462104797363,40.629554748535156,71.91343688964844,-1.7986861623797183,-0.8764740738282291,-174.49252947577028,-17.514336,14.748802,-7.9714427,56.004,-26.492226,-15.000033,-28.339323,-36.0715,-3.1638012,49.86407,-6.1652803,1.9271377,0.24834602,1.8400934,22.561472,-8.683996,28.01568,-25.319454,61.288452,-3.3131378,11.103271,12.538041,-28.008007,-24.277328,38.33522,27.527798,-16.046083,-3.53077,-16.999573
36,4.327967166900635,41.930782318115234,72.13749694824219,-1.3752794000459185,-0.8065608362618799,-174.59417225621246,-16.984291,15.177685,-8.461961,54.31845,-24.634113,-15.000033,-28.206787,-36.106777,-0.83800584,48.087734,-4.8073897,1.9077429,0.44756684,1.5536842,22.270842,-7.7097282,27.959803,-24.609516,62.18141,-3.2422588,11.561743,12.71408,-27.785866,-24.107935,39.33818,27.353636,-16.33748,-3.8264072,-16.247076
37,4.161409854888916,43.268394470214844,72.38494110107422,-0.9374483709268114,-0.6958241045618508,-174.7056029066801,-16.331858,15.662133,-8.853146,52.343082,-22.663782,-15.000033,-27.893265,-36.154602,1.2173786,46.121216,-4.088814,2.1024728,0.6367474,1.2393905,21.93275,-6.652963,27.941051,-23.90683,62.91433,-3.261839,11.702084,12.77457,-27.483723,-23.917599,40.24965,27.222668,-16.657417,-4.1279197,-15.311501
38,3.9793152809143066,44.642066955566406,72.65019226074219,-0.48114590001896873,-0.5388382561099574,-174.83921939151642,-15.567701,16.186485,-9.147669,50.077324,-20.572678,-15.000033,-27.44709,-36.17155,3.101269,43.975677,-3.7839968,2.493918,0.8186762,0.8840021,21.539879,-5.480957,27.962543,-23.167189,63.458786,-3.3187106,11.611648,12.764809,-27.124372,-23.70152,41.11038,27.167665,-17.007738,-4.457303,-14.198542
39,3.796677350997925,46.05259704589844,72.92898559570312,-0.037484841830330656,-0.3418121175079145,-174.96823183114097,-14.7898855,16.768534,-9.392741,47.66045,-18.306202,-15.000033,-26.989958,-36.097485,4.841954,41.893604,-3.4302394,2.9804945,0.96799135,0.5222356,21.119362,-4.2607203,28.021759,-22.403791,63.89029,-3.3997803,11.382108,12.630815,-26.734306,-23.455893,41.84492,27.201477,-17.31587,-4.7895164,-12.962295
40,3.6153275966644287,47.49421310424805,73.21804809570312,0.3627567012381468,-0.11127627031730207,-175.06570147509015,-14.101571,17.424496,-9.643355,45.243908,-15.825536,-15.000033,-26.651627,-35.871506,6.4837847,40.13951,-2.578993,3.4583137,1.0686842,0.19248275,20.695604,-3.0783577,28.11262,-21.645727,64.30007,-3.496898,11.105461,12.320965,-26.328234,-23.180649,42.365356,27.329231,-17.513111,-5.0962,-11.654299
41,3.439702033996582,48.970733642578125,73.51679229736328,0.7282320145247274,0.17587364109057133,-175.1210484786195,-13.513782,18.165934,-9.862868,42.785355,-13.087367,-15.000033,-26.528378,-35.460014,8.139718,38.791615,-0.9783892,3.8055203,1.1210127,-0.105524,20.246122,-1.957778,28.23143,-20.883583,64.71708,-3.600878,10.74471,11.746531,-25.878014,-22.87478,42.61055,27.537895,-17.6638,-5.4158483,-10.184876
42,3.2737321853637695,50.47690963745117,73.81825256347656,1.067624205470681,0.5162673684503044,-175.14841469059806,-12.987472,18.980463,-10.039543,40.248734,-10.133661,-15.000033,-26.530998,-34.896812,9.768576,37.71798,1.0828162,4.1228495,1.1365353,-0.38396716,19.762804,-0.865233,28.378311,-20.115957,65.10517,-3.7250369,10.272295,10.961477,-25.380638,-22.53892,42.635197,27.82341,-17.774662,-5.7455335,-8.557986
43,3.109696626663208,52.0082893371582,74.1190185546875,1.3512709467241242,0.8636418272204089,-175.15793696177056,-12.559426,19.867752,-10.251985,37.79288,-7.029943,-15.000033,-26.503437,-34.210304,11.188089,36.85026,3.2471848,4.6437187,1.1193709,-0.6184737,19.294224,0.1933851,28.55233,-19.382269,65.46053,-3.8879416,9.793007,10.129342,-24.880733,-22.175858,42.51801,28.200012,-17.698023,-5.9883556,-6.966026
44,2.962639093399048,53.58143615722656,74.39584350585938,1.5508391761869942,1.1707088190672597,-175.15938389068427,-12.269416,20.828716,-10.58336,35.57941,-3.8414497,-15.000033,-26.293093,-33.4295,12.22405,36.11134,5.1531467,5.59305,1.0742451,-0.78573734,18.88939,1.2046126,28.75159,-18.725103,65.787056,-4.103623,9.409146,9.413786,-24.421797,-21.790493,42.335304,28.682364,-17.29368,-6.039539,-5.6015825
45,2.8210880756378174,55.18116760253906,74.65367126464844,1.6501699716152258,1.4349757288988383,-175.15023754300174,-12.145931,21.863373,-11.138977,33.5876,-0.33010283,-15.000033,-25.872335,-32.506977,12.862029,35.489796,6.9992714,7.147614,1.0030754,-0.8665631,18.560106,2.1531832,28.978018,-18.151121,66.09777,-4.4029207,9.147223,8.850588,-23.994835,-21.377882,42.06177,29.280634,-16.46773,-5.8177285,-4.492473
46,2.678157329559326,56.80321502685547,74.87975311279297,1.6657659818086004,1.6790767140464162,-175.12540191869226,-12.205978,22.96682,-11.8820715,31.81741,3.4294865,-15.000033,-25.32805,-31.417833,13.219819,35.00156,8.855881,9.1805525,0.90238065,-0.8745548,18.280731,3.043749,29.234222,-17.636646,66.392494,-4.765337,8.951968,8.356025,-23.585152,-20.934612,41.66952,29.985874,-15.325975,-5.383665,-3.5515604
47,2.5398902893066406,58.4594841003418,75.06062316894531,1.6213224989301136,1.8938354171995235,-175.09042973657753,-12.456353,24.12281,-12.678491,30.430971,6.9147506,-15.000033,-24.692417,-30.246183,13.2871475,34.610443,10.176989,11.407718,0.7673092,-0.8379531,18.043861,3.8989327,29.518051,-17.178337,66.64239,-5.1261816,8.808956,7.9151354,-23.233173,-20.475748,41.235195,30.785738,-14.019249,-4.8493056,-2.798519
48,2.392727851867676,60.18503189086914,75.16842651367188,1.5431312495758431,2.0678453776167123,-175.05225102959272,-12.863709,25.313988,-13.369665,29.5254,9.628791,-15.000033,-24.015083,-29.108448,13.009099,34.30494,10.4471855,13.486236,0.59429806,-0.78471804,17.844997,4.7416234,29.821867,-16.77151,66.81898,-5.417492,8.703135,7.513994,-22.969635,-20.029732,40.83441,31.65576,-12.691849,-4.3322673,-2.2464597
49,2.2539424896240234,61.944793701171875,75.22000122070312,1.3983946381590484,2.1966615110295105,-174.99982775117562,-13.458815,26.619251,-13.951877,29.055773,11.567076,-15.000033,-23.182476,-28.05382,12.035596,33.926613,9.315074,15.000033,0.38355544,-0.6856029,17.68407,5.5580926,30.151169,-16.43805,66.93141,-5.608073,8.650248,7.1425323,-22.766224,-19.614853,40.44817,32.577755,-11.28364,-3.845326,-1.9094748
50,2.1312291622161865,63.71257781982422,75.25869750976562,0.8245326858723365,2.3212706504078398,-175.06131774846165,-14.261912,28.487852,-14.581206,28.9058,12.975248,-15.000033,-22.216908,-26.67228,9.873056,33.425327,7.2572393,15.000033,0.26163483,-0.18476725,17.539145,6.338638,30.50195,-16.175016,66.98492,-5.7384977,8.6508665,6.8130927,-22.605291,-19.243841,40.04382,33.542393,-9.742875,-3.3432262,-1.779432
51,2.033132791519165,65.42828369140625,75.25908660888672,0.29029100829537036,2.402109766286736,-175.14609064109433,-15.058557,30.261106,-15.0770445,29.044315,13.795699,-15.000033,-21.440968,-25.278639,7.74203,33.23962,4.7632456,15.000033,0.123368554,0.27395663,17.454182,7.1080084,30.854889,-15.944031,66.96009,-5.8424664,8.663289,6.5412707,-22.512815,-18.93623,39.672356,34.521156,-8.221755,-2.8537385,-1.8267571
52,1.9706666469573975,67.04502868652344,75.21331024169922,0.06319216267804097,2.4297318014610343,-175.22696993942208,-15.632931,31.567108,-15.239066,29.41876,13.964315,-15.000033,-21.217844,-24.176043,6.1082907,33.857574,2.3079734,15.000033,-0.082026005,0.43343902,17.448067,7.884585,31.177032,-15.703745,66.84382,-5.952339,8.646107,6.3464704,-22.520758,-18.716423,39.392532,35.489635,-6.871319,-2.4045165,-2.0206175
53,1.9301917552947998,68.56295776367188,75.12579345703125,0.3328580577661201,2.395924229796583,-175.2506823034305,-15.959279,32.280216,-14.54068,30.087797,13.25616,-13.852905,-21.758587,-23.647022,5.086259,35.657043,-0.1508543,15.000033,-0.41399556,0.12909241,17.534317,8.66314,31.444796,-15.442994,66.64735,-6.079484,8.561553,6.244834,-22.682907,-18.615776,39.271027,36.42638,-5.656807,-1.9990978,-2.363127
54,1.9086086750030518,70.04644012451172,74.99320983886719,0.7826756130150531,2.292368321523491,-175.266335378544,-16.084566,32.70962,-13.594826,31.039557,11.748038,-12.7219305,-22.780376,-23.338923,4.3077717,38.316868,-2.8124704,15.000033,-0.81490004,-0.33053756,17.71084,9.423318,31.651396,-15.188588,66.38844,-6.1995673,8.438145,6.2283854,-22.951212,-18.648079,39.26726,37.323296,-4.5124784,-1.630616,-2.8622558
55,1.907444715499878,71.50535583496094,74.82540893554688,1.2958471544611943,2.139992511595936,-175.30540940885774,-16.058205,32.962875,-12.577026,32.24023,9.825738,-11.778379,-23.98747,-23.104156,3.656392,41.2945,-5.4515567,15.000033,-1.2350409,-0.83320796,17.945768,10.134768,31.794437,-14.97161,66.08546,-6.295755,8.331795,6.282731,-23.205523,-18.79776,39.2712,38.1815,-3.5446255,-1.3066803,-3.4976423
56,1.9384334087371826,72.94193267822266,74.62879180908203,1.7323957612958625,1.9716495607940003,-175.41725776475263,-15.953513,33.19887,-11.580411,33.664387,7.8755474,-10.976693,-25.091938,-22.775793,3.003661,44.051476,-7.8558407,15.000033,-1.6102098,-1.2421094,18.197536,10.770806,31.875761,-14.821508,65.75646,-6.351931,8.299026,6.393177,-23.333893,-19.028912,39.171066,39.020645,-2.8674798,-1.0313524,-4.248227
57,1.9699461460113525,74.3680191040039,74.4168930053711,1.8211686756378918,1.8380954020631401,-175.7308773495857,-15.798756,33.770775,-10.714021,35.286255,5.9604797,-10.4812,-26.047724,-22.065216,1.9248763,46.453163,-9.935441,13.775153,-1.8343104,-1.3098826,18.440369,11.341179,31.894573,-14.746979,65.398926,-6.391749,8.384843,6.6107397,-23.367512,-19.318123,38.97255,39.90947,-2.6176019,-0.87619925,-5.083291
58,2.0182785987854004,75.76158142089844,74.1828384399414,1.8638316431478443,1.6902732329671013,-176.12280020485017,-15.567758,34.30584,-9.859524,37.19949,3.8648033,-10.192793,-26.9933,-21.319593,0.7943931,48.830887,-11.870081,12.069813,-2.0328007,-1.3277079,18.708748,11.85595,31.85484,-14.7348175,65.01229,-6.4166074,8.548874,6.925794,-23.363642,-19.657846,38.72648,40.850616,-2.7082164,-0.8066185,-6.0191946
59,2.071242332458496,77.13177490234375,73.93975830078125,1.8899044424613751,1.5290979422856061,-176.5557884777236,-15.307496,34.785706,-8.953449,39.391838,1.6279024,-9.90961,-27.875055,-20.519882,-0.21885175,51.08159,-13.6474905,10.378329,-2.2125752,-1.3079008,18.972033,12.294734,31.761164,-14.775066,64.60936,-6.3779936,8.721713,7.2335014,-23.269493,-20.036545,38.397045,41.78567,-2.9111588,-0.6716653,-7.105462
60,2.1189866065979004,78.47721099853516,73.6899642944336,1.9251699968105325,1.3558004698748314,-176.9955106977732,-15.03795,35.198017,-7.9350495,41.812847,-0.7024052,-9.438959,-28.655125,-19.638777,-1.0062512,53.116825,-15.249129,8.897403,-2.3758922,-1.2623649,19.200802,12.632474,31.619549,-14.864072,64.20533,-6.2289805,8.834162,7.4283304,-23.024683,-20.441702,37.937645,42.652397,-2.9983444,-0.32738972,-8.392021
61,2.1638569831848145,79.78562927246094,73.4355239868164,1.9734403464361492,1.138489673663476,-177.46830401840103,-14.740282,35.56332,-6.8005786,44.592686,-3.216601,-8.6703415,-29.307446,-18.625914,-1.4746907,54.914833,-16.682152,7.709242,-2.5096436,-1.1857089,19.432308,12.876719,31.431873,-14.991945,63.81629,-5.909766,8.855365,7.42625,-22.632998,-20.862473,37.295574,43.488876,-2.941894,0.24681914,-10.009092
62,2.211121082305908,81.06116485595703,73.17915344238281,2.0235595552338483,0.8876732914824735,-177.98116738651782,-14.399423,35.88622,-5.6051235,47.711155,-5.9248857,-7.726119,-29.854923,-17.511946,-1.7164614,56.5287,-17.954346,6.695766,-2.6180134,-1.079319,19.66791,13.0392475,31.200565,-15.163127,63.42687,-5.4621754,8.826132,7.3026357,-22.134888,-21.293234,36.498352,44.324997,-2.8464677,0.9782439,-11.892723
63,2.267153024673462,82.3194580078125,72.95185852050781,2.0774750197280145,0.6654923651066942,-178.47109572055834,-14.010051,36.116425,-4.348779,50.84286,-8.620348,-6.768709,-30.339457,-16.386862,-1.9093573,57.975994,-19.02292,5.7510676,-2.7289739,-0.9657223,19.823088,13.106815,30.933123,-15.390673,63.0045,-4.9901824,8.7855425,7.1895165,-21.538977,-21.736155,35.636383,45.098988,-2.659563,1.8601385,-13.805072
64,2.328369140625,83.56316375732422,72.77995300292969,2.1343422723381886,0.5334293133766321,-178.87565271105169,-13.5705385,36.191704,-2.9987667,53.658928,-11.080093,-5.958039,-30.808662,-15.337269,-2.2273815,59.27132,-19.84832,4.77096,-2.8678837,-0.8638622,19.815094,13.068934,30.637491,-15.684816,62.511467,-4.5964913,8.775876,7.2158546,-20.828047,-22.197605,34.795185,45.72641,-2.3344367,2.883539,-15.510923
65,2.3572890758514404,84.7798843383789,72.66434478759766,2.191750696412627,0.5458144737560789,-179.1877152889919,-13.11318,36.134186,-1.4094212,56.114864,-13.270912,-5.218802,-31.314718,-14.377964,-2.7064314,60.40256,-20.395126,3.732749,-3.0164182,-0.7688564,19.570414,12.929785,30.306753,-16.035734,61.921406,-4.245104,8.838739,7.4136395,-19.94472,-22.685017,33.9954,46.145493,-1.8211296,4.1886454,-17.038649
66,2.341140031814575,85.98281860351562,72.61042022705078,2.2483772154967085,0.6560907502505424,-179.43786921920773,-12.620065,35.944187,0.38234285,58.35498,-15.286528,-4.50192,-31.823458,-13.469106,-3.2646544,61.3653,-20.68995,2.6885943,-3.167062,-0.6681431,19.154358,12.694804,29.935553,-16.437574,61.25834,-3.9018133,8.941278,7.712643,-18.89282,-23.197916,33.183964,46.39286,-1.1404939,5.7246313,-18.497301
67,2.277576446533203,87.16463470458984,72.60296630859375,2.303030580741569,0.7739131871152681,-179.62020015980653,-12.041727,35.518204,2.1514738,60.33513,-17.071602,-4.006467,-32.25594,-12.612918,-3.9000976,62.175556,-20.778788,1.6448395,-3.3590524,-0.56938905,18.689934,12.362674,29.540915,-16.906902,60.5451,-3.674127,9.02198,8.087026,-17.740477,-23.72964,32.33852,46.532635,-0.37549904,7.200235,-19.766245
68,2.208817481994629,88.3595962524414,72.62879180908203,2.354839513088537,0.8093858091763525,-179.72935302922912,-11.3476715,34.75386,3.6771646,62.00736,-18.569279,-3.9288502,-32.532543,-11.808581,-4.6066923,62.848927,-20.708288,0.6090472,-3.6304157,-0.48586917,18.29985,11.938533,29.152117,-17.459896,59.798897,-3.6707146,9.016344,8.50809,-16.560417,-24.268425,31.436186,46.633106,0.36756638,8.331629,-20.710735
69,2.177623748779297,89.55980682373047,72.6894302368164,2.4005790768452826,0.7162955045815399,-179.76156215780148,-10.506034,33.60644,4.928103,63.32919,-19.722641,-4.394269,-32.59645,-11.058449,-5.3983636,63.394993,-20.494373,-0.40815908,-3.9977555,-0.42516065,18.023232,11.4332,28.796227,-18.139513,58.982983,-4.0285854,8.893441,9.006271,-15.369904,-24.802904,30.471088,46.71233,1.152987,9.06094,-21.254944
70,2.1783833503723145,90.74684143066406,72.78656005859375,2.4400256665740963,0.5498326430876369,-179.72172003529678,-9.591393,32.12361,6.0176835,64.32488,-20.575993,-5.269927,-32.506416,-10.35956,-6.2745194,63.803947,-20.10947,-1.4149594,-4.429798,-0.38639873,17.793585,10.856959,28.47521,-18.923403,58.077095,-4.657844,8.688116,9.574249,-14.119612,-25.325937,29.444492,46.73149,1.9815134,9.542911,-21.474253
71,2.1685428619384766,91.92342376708984,72.93221282958984,2.4769435484420352,0.37264137374405454,-179.61675042851843,-8.74172,30.350758,6.928858,65.06113,-21.224789,-6.3706365,-32.354916,-9.705378,-7.211409,64.0661,-19.53714,-2.435164,-4.89913,-0.36776966,17.574644,10.213249,28.17557,-19.726862,57.12553,-5.325046,8.436247,10.12948,-12.793646,-25.828785,28.352962,46.67796,2.6485794,9.819029,-21.44996
72,2.1765172481536865,93.09688568115234,73.12584686279297,2.516511929439784,0.24701155188086404,-179.45167351889208,-8.074722,28.342365,7.6510186,65.5971,-21.750448,-7.5081224,-32.2279,-9.094458,-8.186992,64.162476,-18.75679,-3.4918566,-5.386745,-0.3652292,17.329102,9.508996,27.876371,-20.459755,56.171246,-5.796485,8.183844,10.596037,-11.385739,-26.30054,27.199524,46.54681,2.9527874,9.927336,-21.264303
73,2.1945345401763916,94.22904968261719,73.35477447509766,2.5709959371538296,0.1869388089850042,-179.20535507297984,-7.6152687,26.050522,8.153429,65.933304,-22.170176,-8.669454,-32.133118,-8.56072,-9.211201,64.09205,-17.7725,-4.6230993,-5.920115,-0.38736403,17.038607,8.7396145,27.553688,-21.059744,55.235596,-5.9691067,7.9173174,10.929913,-9.884037,-26.733002,25.945261,46.34793,2.6923745,9.7824545,-20.784313
74,2.2502543926239014,95.40559387207031,73.62979888916016,2.631825425451125,0.1597433608483218,-178.88237138630208,-7.3035054,23.483301,8.452582,66.032486,-22.450003,-9.942208,-32.024006,-8.099694,-10.302022,63.863052,-16.59355,-5.8103867,-6.5108867,-0.4236735,16.720839,7.8998256,27.204657,-21.579967,54.309135,-5.9772215,7.6232796,11.186262,-8.3128395,-27.11862,24.617956,46.0999,2.0290518,9.389504,-20.018745
75,2.333043098449707,96.57553100585938,73.9299545288086,2.6724049301143515,0.15725571385677223,-178.52675829098553,-7.110892,20.787052,8.608338,65.90826,-22.586342,-11.293811,-31.90533,-7.65539,-11.453305,63.475163,-15.208971,-6.9947186,-7.1144977,-0.44467944,16.393372,6.9988494,26.845484,-22.100382,53.38998,-5.942985,7.347014,11.437168,-6.7282004,-27.445204,23.321177,45.817135,1.3047539,8.924026,-19.263205
76,2.4415481090545654,97.77217864990234,74.25916290283203,2.6675784543180665,0.17199310984318592,-178.1822211221821,-7.001067,18.103832,8.679194,65.574905,-22.569906,-12.692606,-31.784609,-7.171465,-12.655862,62.92806,-13.6064005,-8.116882,-7.6872597,-0.42987812,16.074198,6.059506,26.502079,-22.69611,52.4615,-5.9893637,7.134143,11.7511425,-5.199092,-27.69818,22.165148,45.525803,0.85073483,8.575379,-18.805897
77,2.57959246635437,98.97560119628906,74.609130859375,2.6040892704148826,0.20874172377686626,-177.84263610182646,-6.9804907,15.427738,8.628274,65.04675,-22.398172,-14.107126,-31.663006,-6.643588,-13.960454,62.213062,-11.770568,-9.270266,-8.239842,-0.37856808,15.757912,5.0944285,26.19015,-23.382841,51.4973,-6.1558204,7.031864,12.191095,-3.7214618,-27.863123,21.150784,45.201756,0.7637316,8.386213,-18.76805
78,2.7127492427825928,100.17129516601562,74.98890686035156,2.5972570119691114,0.2866710593415036,-177.45369120676696,-7.0527525,12.580585,8.556967,64.2674,-22.042753,-15.000033,-31.593435,-6.229262,-15.295605,61.411148,-9.749946,-10.425361,-8.821927,-0.4023473,15.405257,4.108275,25.911448,-24.117414,50.49416,-6.3789444,7.0050697,12.702656,-2.2901924,-27.935495,20.241522,44.86515,0.8561667,8.260782,-18.982712
79,2.8838672637939453,101.36103820800781,75.3836441040039,2.777322599929456,0.410815839400329,-177.0008870637614,-7.163824,9.49162,8.644566,63.143982,-21.447111,-15.000033,-31.641533,-6.0604362,-16.485716,60.633663,-7.6107574,-11.349278,-9.438973,-0.61848813,14.99379,3.113902,25.669779,-24.886137,49.466858,-6.6269293,6.9754376,13.176417,-0.9713714,-27.921045,19.492249,44.60636,1.0275753,8.188207,-19.300352
80,3.04455304145813,102.55144500732422,75.79254913330078,2.961282182118955,0.5333665548441199,-176.58482599999155,-7.2206545,6.479821,8.780286,61.721607,-20.673414,-15.000033,-31.689302,-5.867546,-17.557652,59.748325,-5.3063755,-11.895604,-9.993391,-0.8572639,14.604728,2.126736,25.466919,-25.669897,48.42328,-6.86587,6.867014,13.502556,0.16404629,-27.834316,18.962076,44.517494,1.1793802,8.158243,-19.57009
81,3.2371010780334473,103.73979949951172,76.21601104736328,3.1755714242489086,0.6687111009367999,-176.18954478482962,-7.212191,3.4466782,8.925999,59.89019,-19.647377,-15.000033,-31.77801,-5.690167,-18.51777,58.767757,-2.76518,-12.18754,-10.501115,-1.1476713,14.220368,1.1301512,25.315853,-26.508942,47.34918,-7.1493945,6.673198,13.67753,1.1220236,-27.682924,18.702578,44.610256,1.3271515,8.238808,-19.82794
82,3.427963972091675,104.93833923339844,76.64197540283203,3.3838415927427405,0.8133057403680712,-175.81488853904582,-7.139427,0.41914162,9.024258,57.6845,-18.395887,-15.000033,-31.886765,-5.489265,-19.41236,57.66962,0.006243024,-12.273287,-10.966867,-1.4601659,13.849584,0.12941311,25.218441,-27.395008,46.22751,-7.4756074,6.4322286,13.748469,1.930907,-27.472818,18.675009,44.836685,1.5100636,8.411359,-20.12951
83,3.6573984622955322,106.11314392089844,77.06291961669922,3.528614023308606,0.9354214295068404,-175.50184188910137,-6.9895344,-2.3845203,9.13354,55.30344,-17.068716,-15.000033,-31.94369,-5.118905,-20.131353,56.40541,2.8808944,-11.794157,-11.350822,-1.7355131,13.541674,-0.84142107,25.153788,-28.23697,45.081303,-7.72389,6.1346507,13.684531,2.5619524,-27.22262,18.799913,45.19333,1.667517,8.538967,-20.353535
84,3.889406442642212,107.31434631347656,77.46630096435547,3.5690081284928983,1.0095752461042982,-175.28443076420405,-6.771061,-4.7706037,9.3384905,52.95589,-15.800064,-15.000033,-31.896183,-4.4287443,-20.516699,54.927017,5.731963,-10.359962,-11.621674,-1.9244089,13.33672,-1.7560558,25.089785,-28.941982,43.95229,-7.7703533,5.768672,13.458466,2.986564,-26.959543,19.000555,45.67531,1.7418392,8.486403,-20.37743
85,4.117364406585693,108.5084457397461,77.85202026367188,3.487613394532517,1.0434317981514731,-175.181098945418,-6.5129642,-6.7135653,9.6628,50.673714,-14.681332,-15.000033,-31.76122,-3.3125615,-20.48913,53.175583,8.568454,-7.9483776,-11.760062,-2.0046122,13.23964,-2.6357446,25.005177,-29.490765,42.8741,-7.53611,5.293424,12.995126,3.211016,-26.698765,19.274565,46.297592,1.6988658,8.242692,-20.141254
86,4.359527587890625,109.69587707519531,78.19071197509766,3.326716806150693,1.0514251323395567,-175.1630604250694,-6.206145,-8.346331,10.083337,48.35157,-13.59639,-15.000033,-31.566141,-1.8401135,-20.038536,51.165672,11.392757,-4.671427,-11.7924,-2.0119896,13.222529,-3.509191,24.89699,-29.933548,41.85227,-7.100911,4.719978,12.33934,3.2628105,-26.446537,19.65298,47.04123,1.5837934,7.873308,-19.718327
87,4.620258808135986,110.86854553222656,78.48099517822266,3.1442799814252154,1.0206428472582743,-175.19010996018855,-5.821293,-9.721295,10.632741,46.009228,-12.3706455,-15.000033,-31.273918,-0.11992955,-19.083763,48.964294,14.042212,-0.3157465,-11.758579,-1.9909321,13.272727,-4.3586187,24.762154,-30.28266,40.88588,-6.577544,4.114801,11.64361,3.1511753,-26.218464,20.103777,47.843678,1.4573587,7.3586516,-19.183508
88,4.864112854003906,112.0360107421875,78.72087097167969,2.9915193571483845,0.9376431284952598,-175.2204615895701,-5.3296547,-10.880503,11.334923,43.66609,-10.832856,-15.000033,-30.83406,1.7423464,-17.558216,46.6455,16.336391,5.3428836,-11.699491,-1.9754193,13.381642,-5.1658196,24.597418,-30.55207,39.969822,-6.0758133,3.549038,11.05646,2.8912323,-26.034307,20.591978,48.632122,1.382508,6.6804895,-18.60883
89,5.138402938842773,113.18352508544922,78.89822387695312,2.94742227595274,0.8111181310533754,-175.2147886241666,-4.6165705,-11.909875,12.42041,41.065086,-8.677686,-15.000033,-30.103743,3.839428,-15.164235,43.94761,18.313475,13.57029,-11.653698,-2.0220335,13.518317,-5.9146924,24.393564,-30.721437,39.0953,-5.5534024,3.0087671,10.597989,2.493408,-25.910599,21.108593,49.41031,1.3939208,5.751026,-17.94148
90,5.409148693084717,114.42829132080078,78.97547149658203,2.514840768272919,0.8417751626653924,-175.57468107885103,-4.295013,-12.038186,14.058053,39.10691,-6.530437,-15.000033,-28.647291,4.908807,-16.44048,40.361893,20.525076,15.000033,-11.236268,-1.6732892,13.6065035,-6.6187587,24.162443,-30.797424,38.270123,-4.9726415,2.4659889,10.192199,1.988233,-25.846128,21.663733,50.166264,1.4685979,4.612544,-17.162779
91,5.699373245239258,115.70873260498047,78.97905731201172,1.8484264072631285,0.9527833849835661,-176.20442561265088,-4.3795567,-11.543706,15.788676,37.91583,-4.6952806,-15.000033,-27.235088,5.9589367,-18.38935,36.787075,22.735373,15.000033,-10.528403,-1.0630245,13.685209,-7.317912,23.903938,-30.824085,37.528374,-4.4458795,1.9762492,9.8447895,1.353232,-25.827755,22.266918,50.86691,1.5704985,3.4369333,-16.396526
92,5.980213165283203,116.9439926147461,78.94596099853516,1.2294505551266612,0.8697785422953203,-176.77070523138934,-4.492272,-10.936281,16.87397,37.299232,-3.3542957,-15.000033,-26.28302,6.9674664,-19.339964,34.53589,23.793245,15.000033,-9.851895,-0.50357,13.971635,-8.043897,23.636671,-30.85743,36.86465,-4.0964622,1.5993383,9.562646,0.57828116,-25.856226,22.898613,51.45633,1.6482639,2.3933363,-15.762005
93,6.25607967376709,118.18305206298828,78.9039535522461,0.6040706526131043,0.45293127930493515,-177.24798516436778,-4.5983386,-10.147228,16.992657,37.491093,-2.5143394,-15.000033,-25.779285,8.093361,-18.706177,33.903618,23.00977,15.000033,-9.237901,0.048173513,14.633651,-8.78789,23.358545,-30.878908,36.254917,-3.9767554,1.3707098,9.360866,-0.3710766,-25.92802,23.546547,51.915157,1.6956413,1.4938734,-15.268868
94,6.52101993560791,119.40300750732422,78.88264465332031,-0.06060878883871251,-0.20855284211257433,-177.67391429061618,-4.753789,-9.10664,16.465729,38.417877,-2.0258217,-15.000033,-25.524895,9.311433,-17.026121,34.39605,20.823597,15.000033,-8.650815,0.6470053,15.5815935,-9.536517,23.067251,-30.870268,35.69563,-4.0157304,1.2551739,9.230045,-1.4872835,-26.041828,24.216597,52.272835,1.7294592,0.65766186,-14.859445
95,6.790187835693359,120.64122009277344,78.81903076171875,-0.770283551379817,-0.9501734659856633,-178.0423354277675,-4.970535,-7.8450155,15.657349,39.83747,-2.107121,-15.000033,-25.455168,10.342291,-15.265279,35.660755,17.993204,15.000033,-8.085344,1.3106076,16.621351,-10.303408,22.778824,-30.87843,35.216286,-4.14506,1.2060447,9.136524,-2.713515,-26.19519,24.930815,52.547127,1.7296228,-0.08575691,-14.5583515
96,7.074827194213867,121.89674377441406,78.66361999511719,-1.5340094109648201,-1.6291573465660625,-178.35619424032592,-5.180663,-6.352221,14.96062,41.44875,-3.010925,-15.000033,-25.501822,10.894312,-14.330336,37.323902,15.237301,15.000033,-7.524989,2.0461726,17.578316,-11.093768,22.52061,-30.952837,34.83267,-4.300176,1.1773344,9.045988,-3.9872777,-26.382929,25.709549,52.75143,1.6740417,-0.706904,-14.389687
97,7.393394947052002,123.13690185546875,78.42269134521484,-2.151093242370915,-2.140275743442189,-178.4876442299722,-5.3329625,-4.754802,14.787137,43.02285,-4.8777966,-13.394644,-25.928028,10.43136,-14.502215,39.834576,12.368358,15.000033,-7.0814834,2.6599903,18.323689,-11.910036,22.314669,-31.122835,34.537838,-4.5366645,1.1537641,8.943069,-5.3193445,-26.605762,26.597103,52.89342,1.5351486,-1.1963966,-14.366624
98,7.727365970611572,124.3223876953125,78.10246276855469,-2.477919011224713,-2.515582893572176,-178.3717408884219,-5.4380593,-3.273109,15.376032,44.511356,-7.5429797,-7.921687,-26.80737,8.883255,-15.192731,43.419918,9.025998,15.000033,-6.820664,3.0198748,18.90904,-12.725416,22.166407,-31.355328,34.291058,-4.8709188,1.1636094,8.84612,-6.7317834,-26.859735,27.573235,52.952347,1.3285261,-1.5701733,-14.473505
99,8.062689781188965,125.51472473144531,77.7180404663086,-2.7825360655139253,-2.8935246585799153,-178.17927933563078,-5.489563,-1.842821,15.78112,46.02237,-10.838011,-2.897423,-27.637764,6.9752865,-15.982724,47.162464,5.650166,15.000033,-6.6030235,3.3456492,19.495693,-13.50432,22.07749,-31.610008,34.063,-5.1796546,1.2263421,8.772344,-8.184089,-27.128641,28.563383,52.912388,1.0964156,-1.8367441,-14.691214
100,8.389113426208496,126.71515655517578,77.26570129394531,-3.0415465038950824,-3.2802610309230964,-177.9213192457385,-5.4591136,-0.58537793,16.012138,47.31709,-14.200266,0.88989353,-28.368732,4.979619,-16.494566,50.761036,2.4283292,15.000033,-6.4331346,3.6059902,20.086231,-14.215049,22.044897,-31.850622,33.833557,-5.339885,1.3611104,8.740826,-9.640261,-27.39736,29.491901,52.772827,0.8786166,-2.006045,-15.000616
101,8.720720291137695,127.91144561767578,76.75689697265625,-3.2812583491711647,-3.7107305972633453,-177.5929228587693,-5.2673407,0.6083198,16.215607,48.38019,-17.606129,3.132963,-29.034399,2.9641922,-16.717005,54.28448,-0.74030834,15.000033,-6.318712,3.8132036,20.705576,-14.861445,22.071014,-32.08154,33.573452,-5.3326354,1.5880933,8.771049,-11.163966,-27.671598,30.45444,52.588665,0.6839784,-2.0612762,-15.456625
102,9.048922538757324,129.0911865234375,76.20724487304688,-3.49745674773117,-4.171875882865612,-177.18394728048617,-4.9372673,1.8133594,16.408018,49.2908,-21.220531,4.2785587,-29.655106,0.78021055,-16.814117,57.859596,-3.9215965,15.000033,-6.264387,3.964722,21.345102,-15.452808,22.158691,-32.31617,33.300655,-5.2187138,1.8921723,8.846811,-12.756619,-27.950863,31.462524,52.350224,0.49367708,-2.002838,-16.048952
103,9.378390312194824,130.2654571533203,75.62377166748047,-3.626099737936774,-4.589949606275116,-176.71601417703113,-4.600404,2.9235046,16.507198,49.98629,-24.727644,4.728146,-30.230043,-1.5685289,-16.701376,61.30132,-6.861463,15.000033,-6.2439203,4.012914,21.943823,-15.978023,22.301067,-32.542553,33.082294,-4.9960895,2.23953,8.935277,-14.285082,-28.2092,32.30139,51.97291,0.29844058,-1.8679619,-16.663874
104,9.76063346862793,131.5078582763672,75.03701782226562,-3.6055546683362727,-4.890489774639857,-176.21870852328772,-4.3918996,3.7984788,16.402235,50.407932,-27.829208,4.905235,-30.780697,-4.0621796,-16.292961,64.428154,-9.304762,15.000033,-6.2140164,3.9131625,22.433582,-16.442053,22.484089,-32.762505,33.00601,-4.6647587,2.595507,9.005911,-15.612828,-28.412151,32.73891,51.38725,0.0775589,-1.6955845,-17.190834
105,10.116172790527344,132.7583465576172,74.49494171142578,-3.3929615579667396,-5.036570866479483,-175.6921284173468,-4.3393493,4.358799,16.06984,50.47623,-30.487766,4.8229594,-31.42437,-6.735763,-15.526675,67.281204,-11.137327,15.000033,-6.150476,3.6204782,22.780495,-16.886042,22.69908,-32.99548,33.112766,-4.200379,2.9830923,9.0461445,-16.745205,-28.541155,32.662678,50.62017,-0.14655374,-1.461171,-17.635147
106,10.429065704345703,133.95985412597656,74.00779724121094,-3.023327351587843,-5.076028771847439,-175.12841330787876,-4.371152,4.7102776,15.625657,50.254513,-32.822968,4.309477,-32.170845,-9.557168,-14.431433,69.92957,-12.508021,15.000033,-6.066037,3.1598034,23.014822,-17.31519,22.940994,-33.25335,33.383495,-3.6124582,3.4090633,9.074315,-17.753801,-28.600708,32.20332,49.736664,-0.38225976,-1.1581296,-18.046124
107,10.714832305908203,135.18521118164062,73.56165313720703,-2.5588147431718786,-5.060530805432459,-174.55179751112988,-4.474683,4.964583,15.122173,49.90428,-34.800632,3.5378144,-32.89034,-12.405411,-13.084298,72.24175,-13.547712,15.000033,-5.9748077,2.598314,23.162506,-17.67508,23.198683,-33.51478,33.81921,-2.947486,3.8140721,9.107687,-18.623447,-28.59747,31.513344,48.745193,-0.6873449,-0.853277,-18.381008
108,10.961374282836914,136.41229248046875,73.15644836425781,-2.1375291175187927,-5.015280058860929,-174.04072863487605,-4.68762,5.347447,14.609559,49.66071,-36.439117,2.6689763,-33.45005,-15.0872965,-11.650854,74.05282,-14.359115,14.99729,-5.836008,2.0886567,23.231972,-17.911514,23.457914,-33.753326,34.42139,-2.2484968,4.139059,9.165731,-19.327005,-28.537498,30.739431,47.64091,-1.1197956,-0.613126,-18.59733
109,11.156244277954102,137.65914916992188,72.79612731933594,-1.834468014079599,-4.881665335229263,-173.6570313112789,-5.102259,5.9927225,14.068451,49.630093,-37.799862,1.6972076,-33.86222,-17.715355,-10.593978,75.33605,-14.903541,13.578676,-5.6061816,1.6998754,23.159819,-17.983137,23.707972,-33.941483,35.18186,-1.4364985,4.3473973,9.261772,-19.821733,-28.413857,29.808924,46.3759,-1.7618254,-0.44387367,-18.628902
110,11.323676109313965,138.94029235839844,72.48772430419922,-1.477286193967581,-4.69715724134108,-173.2771917982479,-5.600374,6.5995917,13.455273,49.587456,-38.825527,0.62098193,-34.22462,-20.329187,-9.348753,76.24302,-15.202126,12.284123,-5.384515,1.2571908,22.978996,-17.933556,23.945858,-34.094494,36.119236,-0.51484,4.4783864,9.385562,-20.138288,-28.226242,28.682571,44.980568,-2.5607643,-0.31753132,-18.516903
111,11.453722953796387,140.2043914794922,72.25032806396484,-1.111620611989127,-4.535174929407871,-172.90584214805816,-6.1075797,7.2303414,12.81896,49.543137,-39.488735,-0.52481127,-34.45582,-22.830563,-8.009939,76.75767,-15.325016,11.081836,-5.169962,0.81225866,22.784657,-17.833792,24.17096,-34.24462,37.268078,0.34940454,4.5865693,9.5216875,-20.351604,-27.992645,27.559547,43.54833,-3.3696606,-0.2470933,-18.382616
112,11.568160057067871,141.4817657470703,72.08322143554688,-0.7850865403747505,-4.467657002128668,-172.54888937917545,-6.5524745,7.9472713,12.206513,49.505135,-39.75465,-1.7098013,-34.45347,-25.12571,-6.682443,76.86834,-15.347067,9.945017,-4.9633512,0.42245698,22.675207,-17.746681,24.385128,-34.414913,38.65216,0.99092954,4.724927,9.651705,-20.536043,-27.735,26.648027,42.15861,-4.0375032,-0.24001221,-18.348373
113,11.670026779174805,142.773193359375,71.9905776977539,-0.4963360470591156,-4.553955097329082,-172.22339664335635,-6.891512,8.767558,11.6257305,49.54495,-39.556896,-2.949296,-34.112755,-27.210102,-5.3756676,76.53322,-15.243784,8.930674,-4.7483153,0.09469308,22.723385,-17.691864,24.592962,-34.641747,40.328327,1.4126498,4.8551307,9.777149,-20.676914,-27.45549,25.95312,40.75817,-4.484088,-0.32280448,-18.462503
114,11.780960083007812,144.07960510253906,71.95851135253906,-0.22772132282222363,-4.740975692379348,-171.9230949337477,-7.163555,9.648507,11.03295,49.632725,-38.946415,-4.254776,-33.49275,-29.138008,-4.0749288,75.78645,-14.992309,8.036813,-4.5258617,-0.19039369,22.864048,-17.631245,24.795254,-34.898983,42.255486,1.6865808,4.966718,9.905827,-20.737026,-27.148594,25.38289,39.309166,-4.8002896,-0.48054978,-18.655807
115,11.871825218200684,145.43592834472656,71.9676284790039,-0.002908918435134504,-4.931264617195716,-171.61921552558854,-7.4261646,10.566079,10.398405,49.624126,-38.057064,-5.5904317,-32.72472,-30.897469,-2.8510706,74.74275,-14.681722,7.1487465,-4.3248086,-0.4140516,22.98968,-17.535248,24.988394,-35.11047,44.308163,1.7547462,5.152673,10.026006,-20.765306,-26.829433,25.009989,37.915974,-5.08458,-0.65628344,-18.873798
116,11.969881057739258,146.8030548095703,72.03092956542969,0.15195595660018868,-5.027206901465899,-171.28076989981412,-7.7409406,11.503218,9.692164,49.37019,-37.00763,-6.91173,-31.932655,-32.470673,-1.7733172,73.50554,-14.397971,6.15186,-4.1858516,-0.55414367,22.99276,-17.362247,25.16654,-35.187782,46.35647,1.5640453,5.5039043,10.124704,-20.815409,-26.52457,24.917091,36.68268,-5.4308085,-0.79229254,-19.062052
117,12.063977241516113,148.17825317382812,72.13789367675781,0.21475555098331142,-5.005161517539445,-170.8868168498301,-8.1606245,12.475444,8.862785,48.86899,-35.811985,-8.219389,-31.102842,-33.86021,-0.8867674,72.05575,-14.181147,4.93742,-4.134038,-0.5788173,22.857973,-17.129482,25.32189,-35.128204,48.460373,0.95288646,6.0794153,10.142489,-20.89722,-26.253769,25.172178,35.620075,-5.7953825,-0.8668268,-19.272837
118,12.14327621459961,149.56695556640625,72.26873779296875,0.20263375243696743,-4.914295847508562,-170.4581528330504,-8.64022,13.486687,7.9205585,48.184002,-34.411884,-9.533838,-30.160284,-35.067963,-0.16532889,70.37324,-13.996983,3.5948884,-4.1467824,-0.49900985,22.639389,-16.843252,25.452124,-34.963375,50.653873,0.0052498463,6.81808,10.112556,-20.973639,-26.02014,25.720158,34.663616,-6.143362,-0.9113442,-19.511564
119,12.213510513305664,150.9690704345703,72.42766571044922,0.15187433838950098,-4.766251699033192,-170.02783440337987,-9.103112,14.50736,6.9349008,47.271194,-32.820015,-10.832722,-29.141697,-36.062668,0.44265473,68.559395,-13.814647,2.307807,-4.1889453,-0.3587779,22.337955,-16.451347,25.563042,-34.6661,52.767303,-0.97567624,7.6278234,10.157527,-21.019129,-25.823772,26.448486,33.793816,-6.582497,-0.9483014,-19.653038
120,12.286994934082031,152.38766479492188,72.61268615722656,0.09882321670811997,-4.57371093367527,-169.62859761685402,-9.4769745,15.507361,5.9825544,46.091034,-31.043486,-12.091001,-28.083292,-36.82214,0.99582416,66.705444,-13.589812,1.254633,-4.2269955,-0.20596004,21.95507,-15.892119,25.667267,-34.203053,54.618744,-1.6891695,8.414117,10.389846,-21.016191,-25.663805,27.2487,32.99345,-7.2217765,-1.0020944,-19.572098
121,12.313514709472656,153.80743408203125,72.83861541748047,0.038402143784736886,-4.32246649404144,-169.26575804656272,-9.748546,16.481821,5.077733,44.584682,-29.088865,-13.307072,-26.93449,-37.3873,1.421532,64.74644,-13.427842,0.39801756,-4.2624693,-0.037552755,21.468794,-15.108045,25.765512,-33.511406,56.139694,-2.042913,9.247133,10.891735,-20.965103,-25.547316,28.172127,32.24043,-8.172762,-1.0095444,-19.253956
122,12.30341911315918,155.26864624023438,73.080810546875,-0.04331336236397221,-4.011157320828644,-168.9235969041669,-9.960077,17.445229,4.1787705,42.79079,-26.943092,-14.488745,-25.683546,-37.753334,1.7214127,62.669945,-13.310286,-0.33021286,-4.312467,0.16439669,20.888939,-14.128213,25.85565,-32.61868,57.412792,-2.210366,10.145714,11.579343,-20.885134,-25.477951,29.257458,31.551363,-9.34759,-0.989192,-18.757734
123,12.282103538513184,156.71334838867188,73.3528823852539,0.018939932247270242,-3.6539370767574297,-168.55350639868445,-10.123654,18.116928,3.2971349,40.744232,-24.531374,-15.000033,-24.490278,-38.025227,2.1777487,60.629475,-12.977462,-0.7628018,-4.404286,0.2371799,20.240555,-13.030403,25.952326,-31.640026,58.482788,-2.2895908,10.938497,12.30884,-20.767735,-25.43982,30.357079,30.945536,-10.559593,-1.0900649,-18.074636
124,12.262980461120605,158.16407775878906,73.62710571289062,0.1918256563348402,-3.2950891217490956,-168.1776759405956,-10.246657,18.61933,2.4545834,38.595146,-21.855953,-15.000033,-23.407433,-38.07302,2.9166489,58.773685,-12.186157,-0.8172187,-4.4948673,0.2076891,19.58904,-11.894525,26.081999,-30.699913,59.394447,-2.3783476,11.45349,12.939011,-20.602243,-25.412077,31.31604,30.4489,-11.625199,-1.4596164,-17.197556
125,12.232515335083008,159.65350341796875,73.9000473022461,0.3956760616653087,-2.9442367119311634,-167.81843664482597,-10.318337,19.130106,1.6619201,36.36087,-18.90879,-15.000033,-22.35923,-37.73409,3.9757943,57.07102,-10.801895,-0.35556027,-4.560237,0.14606525,18.939934,-10.684751,26.266243,-29.80974,60.08386,-2.444479,11.651265,13.494563,-20.381002,-25.386599,32.109554,30.073744,-12.558607,-2.2625375,-15.98145
126,12.181346893310547,161.16139221191406,74.17362213134766,0.6143806426253522,-2.5877933554982864,-167.47868091368323,-10.34724,19.656511,0.92041266,34.013416,-15.712524,-15.000033,-21.289036,-37.05456,5.263695,55.453907,-8.993461,0.5239451,-4.6071596,0.06500194,18.277374,-9.359447,26.50869,-28.911922,60.528976,-2.455514,11.625122,14.024288,-20.1147,-25.363182,32.807766,29.80757,-13.423577,-3.3889291,-14.485557
127,12.150166511535645,162.70220947265625,74.43831634521484,0.8267301895085754,-2.242723275369948,-167.17597894222774,-10.386278,20.240892,0.21073623,31.68999,-12.345924,-15.000033,-20.268963,-36.11866,6.669582,54.049408,-6.9814777,1.526164,-4.6202946,-0.02022738,17.645487,-7.992413,26.808039,-28.019428,60.844448,-2.4992008,11.400488,14.426597,-19.826761,-25.33324,33.405674,29.649502,-14.1144085,-4.5592566,-13.001813
128,12.12260913848877,164.28192138671875,74.68350982666016,1.0136480138279176,-1.925285399910887,-166.92679469839683,-10.493074,20.922016,-0.49080652,29.533655,-8.887688,-15.000033,-19.387793,-35.011044,8.067265,52.985443,-4.9642076,2.3511746,-4.577661,-0.09746664,17.085201,-6.6734395,27.158527,-27.154762,61.159744,-2.666561,11.000942,14.601178,-19.531052,-25.284227,33.888325,29.596779,-14.55276,-5.4826374,-11.812935
129,12.100412368774414,165.87669372558594,74.90939331054688,1.1943544939837714,-1.64117497966094,-166.72587613408584,-10.631489,21.647871,-1.2022551,27.4022,-5.0503016,-15.000033,-18.818735,-33.61337,9.663672,52.53154,-2.595306,2.6121626,-4.46964,-0.17840432,16.606583,-5.424791,27.558954,-26.310621,61.501793,-3.0497591,10.307918,14.500405,-19.211304,-25.199244,34.206253,29.6588,-14.671416,-6.111949,-10.921519
130,12.08781909942627,167.49615478515625,75.10285186767578,1.3642813492672672,-1.3800924051335193,-166.56546723088977,-10.823353,22.421728,-1.9150558,25.326244,-0.90265703,-15.000033,-18.438566,-31.896784,11.416715,52.51464,0.13555932,2.6329224,-4.3113766,-0.26306936,16.184568,-4.204786,28.010769,-25.477036,61.81702,-3.581566,9.352286,14.180218,-18.8732,-25.071926,34.384804,29.849451,-14.542413,-6.5793314,-10.1921835
131,12.095027923583984,169.1457977294922,75.26039123535156,1.475675651756779,-1.1311167261066561,-166.455452363867,-11.2368145,23.334862,-2.6547408,23.746664,2.900332,-15.000033,-17.954575,-30.103392,12.879049,52.42709,2.4870026,3.1201737,-4.121309,-0.32735124,15.8037195,-3.0117986,28.510086,-24.669601,62.116947,-4.1139164,8.380569,13.701193,-18.552477,-24.909504,34.516323,30.164392,-14.318719,-6.8621926,-9.7008295
132,12.101898193359375,170.83055114746094,75.37284851074219,1.488399292377287,-0.8808964857887388,-166.40576337030848,-11.992511,24.467232,-3.4369311,23.000244,5.7721896,-15.000033,-17.133593,-28.50466,13.662237,51.789562,3.661621,4.6867824,-3.9161522,-0.34929827,15.445814,-1.8506792,29.048056,-23.906204,62.417385,-4.493071,7.635724,13.132235,-18.283577,-24.728287,34.6931,30.593277,-14.145645,-6.9416695,-9.5265465
133,12.122804641723633,172.57484436035156,75.40997314453125,1.347121233807188,-0.5999144138630285,-166.42937094079383,-13.257089,25.906902,-4.40122,23.201834,7.6011376,-15.000033,-15.830386,-27.210693,13.517594,50.202957,3.3222122,7.9416356,-3.6675596,-0.2749624,15.088016,-0.755852,29.62771,-23.21149,62.74907,-4.6954823,7.172378,12.434953,-18.052105,-24.533842,34.92644,31.135853,-14.035258,-6.7382274,-9.814206
134,12.130765914916992,174.3544464111328,75.35276794433594,1.0777954763193147,-0.3033552119719375,-166.52715356395584,-14.892719,27.574495,-5.5523977,24.06451,8.751965,-15.000033,-14.27079,-26.106161,12.634324,47.968544,1.9584519,12.263323,-3.3701906,-0.11772128,14.745637,0.28278187,30.25093,-22.56441,63.0979,-4.7959676,6.8609796,11.59672,-17.843288,-24.327549,35.17136,31.788818,-13.915413,-6.2880898,-10.480233
135,12.143561363220215,176.14356994628906,75.2658462524414,0.6334674684681539,-0.04317962787278851,-166.72544359896577,-16.536715,29.469963,-6.7171493,25.252428,9.357268,-15.000033,-12.815075,-25.07915,10.861391,45.697063,0.025517365,15.000033,-3.042105,0.16073352,14.462904,1.3237933,30.8973,-21.918793,63.412144,-4.783703,6.6685705,10.730249,-17.686035,-24.127747,35.43269,32.53212,-13.804436,-5.7467947,-11.261729
136,12.164880752563477,177.8914031982422,75.16445922851562,0.06628452366506848,0.18554205352733008,-166.9939659388098,-17.904818,31.546925,-7.2485414,26.416262,9.53998,-13.77434,-11.758937,-23.935713,8.620593,43.955036,-2.040237,15.000033,-2.7438047,0.53732276,14.229277,2.4049718,31.528397,-21.23376,63.664543,-4.6429534,6.5566545,9.951282,-17.602636,-23.962837,35.712467,33.336857,-13.727316,-5.268949,-11.900291
137,12.202113151550293,179.53604125976562,74.99362182617188,-0.12812113995498298,0.26489041943083347,-167.23159491943755,-18.72409,33.218964,-7.1809344,27.642653,9.0203,-12.53696,-11.0975275,-22.923141,7.173872,43.14094,-4.665977,15.000033,-2.5670595,0.5394857,14.111815,3.510754,32.131943,-20.501133,63.887768,-4.287677,6.520855,9.194095,-17.598482,-23.863394,36.059635,34.167927,-13.706607,-4.8611493,-12.339453
138,12.267175674438477,181.1494598388672,74.79510498046875,-0.12175656575700529,0.2348084699453528,-167.479509036586,-19.204924,34.730667,-6.8134594,29.072906,7.7966485,-11.615925,-10.713898,-22.037128,6.0193186,42.922455,-7.9430213,15.000033,-2.4521444,0.3343118,14.095361,4.609219,32.705242,-19.751,64.103294,-3.74513,6.5711646,8.431568,-17.642506,-23.839785,36.452007,35.01721,-13.717067,-4.449742,-12.712962
139,12.35232162475586,182.74510192871094,74.57374572753906,0.015645239491904914,0.14026055057420708,-167.77134716428554,-19.482893,36.072872,-6.3386517,30.795568,6.161939,-10.89216,-10.610558,-21.267805,5.0226293,43.173943,-11.425535,15.000033,-2.3661423,-0.0068393196,14.163805,5.7059736,33.23381,-19.025179,64.298164,-3.1690366,6.6945505,7.8264365,-17.680817,-23.876316,36.778553,35.895477,-13.712227,-4.059459,-13.038075
140,12.4606351852417,184.31268310546875,74.32058715820312,0.19828500517882097,0.02613238998477709,-168.14522572181295,-19.675573,37.231915,-5.934355,32.872093,4.4316435,-10.232619,-10.748755,-20.574427,4.064255,43.728752,-14.646821,15.000033,-2.2727134,-0.39777225,14.29523,6.796649,33.6984,-18.371382,64.47416,-2.713526,6.884297,7.54453,-17.665438,-23.941153,36.92891,36.833336,-13.650814,-3.7164125,-13.33246
141,12.586462020874023,185.83641052246094,74.04148864746094,0.43946540809938295,-0.1320319281662425,-168.612651061659,-19.738684,38.154602,-5.6638384,35.387608,2.5852697,-9.731712,-11.118599,-20.039293,3.0180085,44.68703,-17.642591,15.000033,-2.1790183,-0.863521,14.509679,7.8729906,34.101357,-17.85011,64.65782,-2.4440205,7.1892476,7.728469,-17.624756,-24.006506,36.87734,37.906296,-13.563592,-3.4728103,-13.5676365
142,12.720799446105957,187.31617736816406,73.75432586669922,0.7595094179581624,-0.34999029628285616,-169.14353440027736,-19.666569,38.876534,-5.449104,38.37299,0.46235558,-9.417036,-11.705489,-19.681166,1.9231461,46.08949,-20.61651,15.000033,-2.105527,-1.4203098,14.805038,8.919949,34.44709,-17.43832,64.86444,-2.2758229,7.6006956,8.261282,-17.58141,-24.06567,36.68016,39.11054,-13.470025,-3.3009362,-13.746228
143,12.86806583404541,188.7556610107422,73.4842758178711,1.0764586935523757,-0.5675010146442856,-169.72388440611635,-19.57449,39.503025,-5.2193503,41.724777,-1.7982854,-9.049888,-12.437457,-19.317144,0.94971246,47.64803,-23.354757,15.000033,-2.0344775,-1.9622359,15.121841,9.92315,34.711605,-17.054882,65.08731,-2.1345935,8.024157,8.920982,-17.491533,-24.124458,36.364876,40.373863,-13.309648,-3.1080146,-13.934485
144,13.047959327697754,190.1775665283203,73.23837280273438,1.167714706011269,-0.7005624015641532,-170.39898238451744,-19.586218,40.33239,-4.972418,45.26343,-4.0143743,-8.44111,-13.252815,-18.470016,0.22278906,49.012012,-25.58086,14.253149,-1.8939584,-2.241574,15.383587,10.854804,34.85143,-16.624609,65.32803,-1.936208,8.369009,9.487944,-17.311085,-24.199917,35.961235,41.620934,-13.018414,-2.8020947,-14.19951
145,13.249054908752441,191.55810546875,73.02891540527344,0.969399907815551,-0.7076234215300155,-171.23964412159137,-19.776316,41.49573,-4.739257,49.137436,-6.214118,-7.451061,-14.195198,-16.957775,-0.09358897,50.104378,-27.218159,12.849588,-1.6281443,-2.1655214,15.576116,11.695972,34.82345,-16.115515,65.63313,-1.6278172,8.589562,9.957785,-17.043695,-24.30526,35.431187,42.898266,-12.561452,-2.4094067,-14.576847
146,13.44333267211914,192.87400817871094,72.86651611328125,0.6972772013277918,-0.6522794840574477,-172.17593294278876,-20.010113,42.690323,-4.4753346,53.378624,-8.488744,-6.175468,-15.23942,-15.197035,-0.07663312,51.129772,-28.451227,11.481061,-1.3220915,-1.9527644,15.737553,12.430608,34.623817,-15.586199,66.0239,-1.2534971,8.739667,10.439537,-16.716818,-24.443975,34.786503,44.225273,-11.974062,-1.9631922,-15.027445
147,13.64783763885498,194.15383911132812,72.76399993896484,0.4301969558300103,-0.5836614072795939,-173.09330622488807,-20.118792,43.721138,-4.1063104,57.5966,-10.717925,-4.8201885,-16.250795,-13.395308,0.050743617,52.09393,-29.32455,10.16632,-1.0622525,-1.7058588,15.857188,13.038006,34.275894,-15.098354,66.461525,-0.876,8.873077,10.880706,-16.316826,-24.62118,34.125732,45.479393,-11.297514,-1.3825622,-15.508818
148,13.84422492980957,195.41929626464844,72.71575927734375,0.24728595856275756,-0.5475377738966848,-173.87632923359223,-19.934256,44.391666,-3.526595,61.40274,-12.767212,-3.5944629,-17.133606,-11.7657995,0.0896438,53.00731,-29.873285,8.92397,-0.93465394,-1.5318216,15.93118,13.519442,33.817974,-14.700871,66.884476,-0.5604628,9.043525,11.224455,-15.819602,-24.841576,33.54233,46.527172,-10.570167,-0.58559644,-15.980731
149,14.00583267211914,196.6429901123047,72.72859191894531,0.18320509854736497,-0.5633763008558745,-174.53089022178477,-19.357128,44.648945,-2.6114233,64.75619,-14.634518,-2.4115152,-17.910498,-10.3594055,0.064136855,53.90408,-30.04742,7.7765236,-0.92428845,-1.47663,15.978236,13.911399,33.253536,-14.322773,67.27027,-0.25893727,9.269259,11.488668,-15.180383,-25.110582,33.023884,47.271072,-9.727784,0.6083364,-16.46882
150,14.138142585754395,197.8044891357422,72.80570983886719,0.1921708037788443,-0.6023878059015775,-175.1070737915848,-18.48004,44.584175,-1.4243127,67.83502,-16.368355,-1.2060724,-18.639904,-9.074345,0.04833156,54.768322,-29.835703,6.7066126,-0.996456,-1.4827043,16.002264,14.217721,32.580917,-13.951765,67.63112,0.041856177,9.520367,11.689002,-14.419869,-25.430304,32.526585,47.79124,-8.763359,2.0995686,-16.996927
151,14.255457878112793,198.960205078125,72.93108367919922,0.2322207570642864,-0.6365387603493294,-175.5550716186084,-17.441792,44.212284,-0.11838374,70.57575,-17.89247,-0.22358687,-19.30566,-7.8985815,-0.0626216,55.539944,-29.318146,5.6792893,-1.2026544,-1.5057238,15.978163,14.403552,31.845919,-13.73044,67.94483,0.21394871,9.778268,11.762821,-13.59315,-25.796698,32.082535,48.209373,-7.8155007,3.5530753,-17.510706
152,14.37078857421875,200.12423706054688,73.11000061035156,0.26116690354151706,-0.637937151351398,-175.8249140541314,-16.3962,43.543945,1.1659547,72.91642,-19.121344,0.28650475,-19.890709,-6.821362,-0.3695874,56.156467,-28.57931,4.657861,-1.5833014,-1.5107937,15.879835,14.445349,31.118399,-13.806306,68.17508,0.123638876,10.02542,11.641327,-12.742276,-26.200218,31.71212,48.639538,-7.0336766,4.637467,-17.937685
153,14.483348846435547,201.2601318359375,73.33274841308594,0.27721523170907075,-0.5967783545923023,-175.87637071143266,-15.401253,42.571262,2.4879122,74.84889,-20.00979,0.2635452,-20.388126,-5.870918,-0.9104727,56.60283,-27.615803,3.6516938,-2.1670918,-1.5123312,15.686948,14.349501,30.434765,-14.197116,68.314125,-0.31882858,10.311922,11.186078,-11.86381,-26.639427,31.428833,49.09645,-6.43104,5.2586694,-18.239037
154,14.62061595916748,202.4451904296875,73.60295867919922,0.29961183353517423,-0.5284050422328642,-175.74617395771017,-14.42722,41.271713,3.8888798,76.39858,-20.5965,-0.16372594,-20.822966,-5.052133,-1.6272447,56.91098,-26.384398,2.6824484,-2.9056969,-1.5331676,15.418998,14.145405,29.794172,-14.835766,68.3533,-1.0323155,10.63797,10.461693,-10.910157,-27.11097,31.191977,49.502365,-5.9474063,5.5990624,-18.44536
155,14.650233268737793,203.56797790527344,73.94697570800781,0.317858526582082,-0.4437110942850781,-175.49909454741575,-13.49879,39.63934,5.2082715,77.551796,-20.92339,-0.964933,-21.222025,-4.319864,-2.4775531,57.090603,-24.915592,1.724204,-3.722118,-1.5537179,15.107513,13.843425,29.210918,-15.741661,68.257675,-1.8915349,10.910315,9.699065,-9.859523,-27.595333,30.940342,49.837524,-5.6228037,5.744621,-18.57955
156,14.72667121887207,204.71084594726562,74.31305694580078,0.32162552939557226,-0.3532412054891188,-175.19977627246502,-12.628292,37.673683,6.2881827,78.29674,-21.039377,-2.1099384,-21.60936,-3.629962,-3.4202623,57.155834,-23.243484,0.745551,-4.5336947,-1.5607632,14.782497,13.451532,28.707075,-16.943373,67.99284,-2.7799711,11.02782,9.123447,-8.690852,-28.062557,30.603922,50.089287,-5.500548,5.779582,-18.667768
157,14.80052661895752,205.86285400390625,74.71126556396484,0.30264759863957746,-0.23376248147670706,-174.8338260479237,-11.856745,35.33716,7.075931,78.59407,-20.925798,-3.7007396,-21.992653,-2.9867437,-4.500396,57.089233,-21.378529,-0.31275845,-5.3611984,-1.5517037,14.413999,12.978199,28.305305,-18.588123,67.529976,-3.8224998,10.949798,8.786768,-7.3919106,-28.488361,30.16943,50.27999,-5.73448,5.618965,-18.696295
158,14.898536682128906,207.02359008789062,75.13236999511719,0.26929979735650694,-0.08761117972815884,-174.37745745633626,-11.190849,32.646374,7.6424885,78.45009,-20.59991,-5.7158294,-22.355677,-2.4206045,-5.730408,56.888493,-19.301886,-1.4228423,-6.2177978,-1.5415608,13.992466,12.422138,28.00121,-20.631317,66.88965,-5.0374823,10.734568,8.55545,-5.9699216,-28.862852,29.652012,50.419918,-6.261052,5.2520857,-18.66071
159,14.993836402893066,208.21578979492188,75.57002258300781,0.23274031532813555,0.03537829402728474,-173.88298964314814,-10.569005,29.695274,8.016956,77.93206,-20.165047,-7.94294,-22.691643,-1.9178603,-7.02183,56.61169,-17.016163,-2.4929266,-7.0261374,-1.5446702,13.581641,11.793051,27.768423,-22.79071,66.09567,-6.143564,10.421496,8.380181,-4.4570317,-29.17778,29.047318,50.491688,-6.7947235,4.8743005,-18.600552
160,15.073631286621094,209.4088134765625,76.02226257324219,0.2024230659529752,0.08505772471415815,-173.40260418649154,-9.922436,26.579544,8.228962,77.11017,-19.706272,-10.169048,-22.993544,-1.4566916,-8.280053,56.312008,-14.516552,-3.428085,-7.726811,-1.5761626,13.247143,11.1087265,27.575203,-24.761879,65.16463,-6.8535256,10.049084,8.221931,-2.90801,-29.42531,28.375937,50.490276,-7.047469,4.682809,-18.550648
161,15.166425704956055,210.61148071289062,76.47815704345703,0.16603893500576086,0.03441215034783599,-172.9293913207458,-9.206156,23.238918,8.189556,75.945915,-19.229261,-12.387072,-23.238438,-1.0231062,-9.545277,56.003975,-11.737543,-4.4165545,-8.343803,-1.6352165,12.994947,10.369762,27.415884,-26.521637,64.06454,-7.021602,9.597384,8.102302,-1.3195632,-29.593054,27.666162,50.40588,-6.8909926,4.7934585,-18.529797
162,15.23907470703125,211.7928466796875,76.94076538085938,0.116796511298676,-0.08587247077522844,-172.44337003704615,-8.443519,19.67971,7.895337,74.415535,-18.720617,-14.677743,-23.430595,-0.63315517,-10.862081,55.653114,-8.693747,-5.4471917,-8.916394,-1.7147706,12.791942,9.580064,27.291962,-28.191246,62.79435,-6.817256,9.050296,8.0405445,0.29111907,-29.672823,26.936209,50.276016,-6.493276,5.0801105,-18.51944
163,15.325435638427734,212.91139221191406,77.41741943359375,0.45641219398632527,-0.16459880971440508,-171.83475178258743,-7.7276287,15.806041,8.105782,72.49293,-18.077223,-15.000033,-23.829802,-0.7746867,-11.898054,55.563076,-5.669336,-5.981066,-9.550331,-2.1666367,12.513844,8.75255,27.1865,-29.677868,61.420372,-6.4250116,8.459164,8.00281,1.8344587,-29.663244,26.20234,50.169357,-6.0095425,5.3788986,-18.497093
164,15.416844367980957,214.01773071289062,77.87725067138672,0.8628900144520205,-0.23879451725537634,-171.2658477594036,-7.0325346,12.026938,8.4390335,70.328224,-17.353123,-15.000033,-24.289251,-0.95990014,-12.63939,55.4522,-2.6589293,-5.684749,-10.105668,-2.6823523,12.279921,7.9124465,27.070393,-30.87109,60.00427,-6.0254583,7.873489,7.9553986,3.1986673,-29.57764,25.49974,50.17177,-5.5929112,5.5253944,-18.432905
165,15.550539016723633,215.13934326171875,78.30940246582031,1.2776764341856548,-0.32207709116643923,-170.76261905777486,-6.337034,8.323053,8.773801,67.91152,-16.591022,-15.000033,-24.816465,-1.0431638,-13.024598,55.28374,0.4161464,-4.504714,-10.561571,-3.209288,12.121671,7.028758,26.929567,-31.712496,58.559826,-5.56315,7.2674317,7.871159,4.3885503,-29.417253,24.809393,50.29629,-5.2374525,5.5083494,-18.341436
166,15.714116096496582,216.25057983398438,78.7184829711914,1.6744216933670255,-0.43070992992547935,-170.31113943628532,-5.6070967,4.6529956,9.01627,65.20478,-15.777044,-15.000033,-25.375986,-0.9729872,-13.090708,55.03965,3.5730815,-2.6002584,-10.931308,-3.7266612,12.035241,6.0852885,26.765976,-32.264454,57.078037,-4.972419,6.626094,7.7835493,5.434971,-29.184072,24.140661,50.515568,-4.8758426,5.405225,-18.229342
167,15.90915298461914,217.3480987548828,79.07894897460938,1.9908505690068614,-0.5519383626912279,-169.92556354898954,-4.851045,1.2490661,9.226158,62.305264,-14.843849,-15.000033,-25.882933,-0.65173644,-12.853083,54.626865,6.6368494,0.13369957,-11.206295,-4.1592174,12.018909,5.1145024,26.57208,-32.600212,55.614807,-4.4182134,6.0050945,7.7432246,6.280706,-28.9057,23.564613,50.837975,-4.567017,5.1865015,-18.052683
168,16.098119735717773,218.41494750976562,79.39419555664062,2.1819754249151737,-0.6686339545448761,-169.61392660428604,-4.0809684,-1.6774081,9.502254,59.31342,-13.70604,-15.000033,-26.262486,-0.011949086,-12.328943,53.972477,9.421365,3.7987256,-11.387273,-4.4431934,12.065868,4.1481233,26.332556,-32.790226,54.228615,-4.0617228,5.4614363,7.7969527,6.8805246,-28.627644,23.147783,51.258133,-4.367248,4.823307,-17.766672
169,16.314455032348633,219.46621704101562,79.65770721435547,2.274297580549017,-0.7728333707306281,-169.37740982478354,-3.2550826,-4.126227,9.984829,56.178875,-12.26079,-15.000033,-26.482904,1.0211883,-11.366682,52.993847,12.024956,8.908792,-11.471546,-4.583141,12.177572,3.166206,26.025942,-32.80406,52.93111,-3.9941735,5.0122123,7.9748697,7.2601285,-28.381742,22.876139,51.75563,-4.3183885,4.28081,-17.338861
170,16.52383804321289,220.52500915527344,79.8554916381836,2.2935715120165785,-0.8674700638168811,-169.20132807832888,-2.367219,-6.233173,10.6287,52.866642,-10.537835,-15.000033,-26.59429,2.3571796,-10.072453,51.815697,14.319913,15.000033,-11.47178,-4.6059184,12.351974,2.1416764,25.64511,-32.6199,51.7206,-4.1073394,4.62299,8.244763,7.4612737,-28.179193,22.71527,52.304424,-4.3698964,3.5847678,-16.79664
171,16.732831954956055,221.6595916748047,79.97639465332031,1.8977648090329968,-0.8441115485029338,-169.28535458038004,-1.7337154,-7.5272865,11.383132,49.878532,-8.877372,-15.000033,-26.43637,2.6689608,-11.724582,50.342216,16.438053,15.000033,-11.213094,-4.2042384,12.535013,1.101764,25.204374,-32.325325,50.62621,-4.2663026,4.274058,8.555516,7.475603,-28.033535,22.69892,52.879803,-4.4372516,2.798495,-16.184519
172,16.97179412841797,222.796630859375,80.02432250976562,1.242054992634263,-0.7227407795917509,-169.5473134386459,-1.3725512,-8.271314,12.150438,47.191463,-7.3222055,-15.000033,-26.355507,3.152299,-13.550278,48.8597,18.00714,15.000033,-10.762906,-3.500438,12.692304,0.08109913,24.727762,-32.009354,49.656395,-4.339044,3.9495258,8.855847,7.2872376,-27.959042,22.858036,53.460922,-4.4380383,1.9855186,-15.543669
173,17.251249313354492,223.89581298828125,79.9961929321289,0.6209148423346291,-0.5679526519464817,-169.78753442222597,-1.0580567,-8.921615,12.862605,44.257538,-5.430079,-15.000033,-26.36773,3.586113,-15.2653265,47.601746,18.656118,15.000033,-10.318323,-2.7873065,12.830701,-0.88456047,24.215637,-31.640625,48.768826,-4.272298,3.6486917,9.146189,6.877904,-27.970518,23.20458,54.05193,-4.346181,1.1035786,-14.812462
174,17.524354934692383,225.00543212890625,79.89749145507812,-0.007885476634421112,-0.3796593636469913,-170.04228847440294,-0.78328747,-9.400989,13.6075535,41.14618,-3.2492628,-15.000033,-26.435095,4.0330253,-16.917183,46.454212,18.62083,15.000033,-9.848776,-2.0206606,12.965402,-1.8148512,23.666008,-31.185068,47.954834,-4.144578,3.3806384,9.447568,6.265123,-28.068924,23.721697,54.644413,-4.1971307,0.14073172,-13.986095
175,17.764968872070312,226.15109252929688,79.7576675415039,-0.7005829075139833,-0.24887444911452164,-170.31143259699812,-0.60750836,-9.519911,14.33248,38.469833,-1.3707755,-15.000033,-26.538319,4.590449,-18.285194,45.512966,18.04341,15.000033,-9.364008,-1.184492,13.177304,-2.7578552,23.10373,-30.736874,47.258457,-4.026361,3.1462648,9.740336,5.479128,-28.240433,24.387735,55.20241,-4.0085897,-0.79497856,-13.189395
176,18.003042221069336,227.331298828125,79.58113861083984,-1.5045223085580912,-0.27843551636386976,-170.5927192274064,-0.61398226,-9.055619,15.011823,36.943546,-0.46154067,-15.000033,-26.624521,5.3229504,-19.151148,44.85868,17.036602,15.000033,-8.867772,-0.27550635,13.560656,-3.7517028,22.571249,-30.394514,46.704697,-3.9916446,2.9473796,10.003048,4.554757,-28.459517,25.168785,55.68784,-3.811136,-1.5976274,-12.550725
177,18.231576919555664,228.5288543701172,79.39679718017578,-2.5086213154859633,-0.560411772901377,-170.94500876404277,-0.9303227,-7.6849675,15.67277,37.185265,-0.87045145,-15.000033,-26.583134,6.4462376,-19.30233,44.402336,15.442083,15.000033,-8.307486,0.76735973,14.223562,-4.784502,22.094496,-30.173374,46.280056,-4.104791,2.7829072,10.253638,3.4469109,-28.708208,26.110397,56.11892,-3.6077259,-2.2598684,-12.081105
178,18.437267303466797,229.73251342773438,79.19684600830078,-3.6982537173444903,-1.0634494248866582,-171.37614577916443,-1.5098876,-5.4419394,16.416183,38.97549,-2.3846805,-15.000033,-26.387028,7.88821,-18.917093,44.06798,13.270373,15.000033,-7.6726933,1.9500321,15.13416,-5.818223,21.679855,-30.022871,45.932613,-4.3190613,2.6545622,10.492128,2.1374142,-28.976402,27.208744,56.510742,-3.39425,-2.8332026,-11.721461
179,18.68720054626465,230.91885375976562,78.90581512451172,-4.467893701707781,-1.4649510486452684,-171.5297210724169,-2.133631,-3.2604027,18.074558,41.059597,-4.4147086,-11.413828,-26.678,8.479832,-18.278143,44.747887,10.494533,15.000033,-7.2896905,2.7443516,15.912403,-6.8466043,21.343441,-29.95377,45.622414,-4.5448823,2.5700564,10.670255,0.71809363,-29.2504,28.345999,56.81587,-3.197454,-3.3019114,-11.497786
180,18.95330238342285,232.0740203857422,78.50934600830078,-4.763904065981371,-1.6512318369830212,-171.32334673528808,-2.5824208,-1.6374997,20.38066,42.637356,-6.8527365,-4.5069017,-27.502932,7.967096,-17.752296,46.427937,7.4782677,15.000033,-7.202733,3.1046195,16.449205,-7.8726044,21.110144,-29.99182,45.317528,-4.695784,2.5370789,10.739774,-0.70633185,-29.515451,29.394913,56.987324,-3.0479455,-3.6504707,-11.439557
181,19.249448776245117,233.24075317382812,78.04863739013672,-5.181616630842143,-1.8715229739593382,-171.03545977559762,-2.7590277,0.06462167,22.128586,44.191322,-10.13578,0.38591483,-28.25778,7.2632623,-17.458857,48.279396,4.574579,15.000033,-7.1434593,3.5458195,17.024431,-8.896781,21.00894,-30.191671,44.984543,-4.774502,2.5513942,10.63477,-2.1501143,-29.768093,30.399845,57.03306,-2.9339983,-3.8558927,-11.590531
182,19.51781463623047,234.39747619628906,77.54310607910156,-5.661360416737202,-2.1236214731354854,-170.65859868036574,-2.7809122,1.8724452,23.474127,45.8738,-14.189142,4.286503,-28.992912,6.345552,-17.2216,50.38077,1.5937757,15.000033,-7.130304,4.0057926,17.648285,-9.900468,21.046335,-30.536278,44.616207,-4.8273478,2.6147127,10.395775,-3.6516955,-30.006443,31.396837,56.968216,-2.8523295,-3.9344542,-11.924895
183,19.804922103881836,235.56602478027344,76.99385070800781,-6.120812218991055,-2.3800695137564327,-170.19727583290603,-2.7514403,3.538421,24.280499,47.420727,-18.477558,7.153868,-29.666113,5.1300144,-17.087616,52.60713,-1.2587752,15.000033,-7.149179,4.4082484,18.304844,-10.872721,21.207872,-30.94538,44.23611,-4.830999,2.7422168,10.133777,-5.143518,-30.210426,32.247005,56.76784,-2.8449283,-3.9289987,-12.371578
184,20.1013126373291,236.76905822753906,76.40647888183594,-6.478371454901569,-2.619774019828735,-169.65690428642,-2.7771661,4.8488255,24.470556,48.612095,-22.452892,8.969483,-30.233318,3.5458455,-17.086618,54.83104,-3.7926075,15.000033,-7.1762247,4.6760244,18.977041,-11.821925,21.466856,-31.349611,43.896233,-4.761556,2.9471338,9.962777,-6.5598392,-30.357922,32.804348,56.426983,-2.959319,-3.8821,-12.862296
185,20.405513763427734,237.9900665283203,75.7912368774414,-6.75347628130644,-2.8801453212878276,-169.01109987152267,-2.8287494,5.826229,23.977743,49.3873,-26.05614,9.438047,-30.663696,1.5263623,-17.312708,57.091812,-5.9765778,15.000033,-7.2147336,4.815605,19.708649,-12.813995,21.812223,-31.777874,43.619724,-4.6189423,3.2815552,9.926342,-7.9355054,-30.44385,33.068466,55.983757,-3.2237623,-3.7759068,-13.466565
186,20.729145050048828,239.21963500976562,75.16349792480469,-6.9656266663155,-3.172050861840724,-168.25203139760416,-2.8721054,6.656135,23.006306,49.90475,-29.483568,8.711206,-30.959536,-0.89345664,-17.681353,59.427486,-7.949233,15.000033,-7.2813697,4.8399715,20.49706,-13.844604,22.2393,-32.268467,43.408764,-4.4133344,3.721046,9.960035,-9.297975,-30.473383,33.106712,55.462532,-3.6095657,-3.5951254,-14.193936
187,21.07541847229004,240.45953369140625,74.56975555419922,-7.035327923452401,-3.436772845032883,-167.42224657342305,-2.9973645,7.341388,21.861168,50.2908,-32.588074,7.454411,-31.151419,-3.6168096,-17.966257,61.710953,-9.754656,15.000033,-7.360492,4.69203,21.252823,-14.819105,22.724503,-32.75666,43.29271,-4.1321735,4.1623783,10.016849,-10.563639,-30.438063,32.86622,54.8345,-4.0850606,-3.3868732,-14.886327
188,21.37512969970703,241.6918487548828,74.04142761230469,-6.886426164979322,-3.6123126806551125,-166.57559403482855,-3.2889264,7.828144,20.776487,50.64958,-35.23242,6.3426166,-31.300867,-6.532136,-17.959171,63.811024,-11.409076,15.000033,-7.4224815,4.3239408,21.876482,-15.653361,23.23481,-33.1762,43.32172,-3.7587187,4.5008,10.052638,-11.656382,-30.325605,32.29538,54.08526,-4.619839,-3.202355,-15.387575
189,21.6380558013916,242.9269256591797,73.54920196533203,-6.434510965951787,-3.6519088893860645,-165.70663878161417,-3.7885013,7.969647,19.69953,50.92457,-37.39614,5.476845,-31.516623,-9.755262,-17.616383,65.78454,-12.902388,15.000033,-7.455261,3.6591012,22.303253,-16.3508,23.748014,-33.50026,43.55506,-3.1986413,4.6920505,10.0503235,-12.557414,-30.118746,31.254253,53.22954,-5.2645264,-3.0496147,-15.587333
190,21.864944458007812,244.1712646484375,73.08013916015625,-5.7341760982877,-3.6110637509918426,-164.79604395044768,-4.419468,7.8181663,18.54725,51.09287,-39.16785,4.545903,-31.776651,-13.288792,-17.028551,67.65348,-14.20986,15.000033,-7.466987,2.741142,22.588232,-16.976017,24.256777,-33.77762,44.001766,-2.4862392,4.794229,10.038569,-13.3340025,-29.821396,29.8151,52.314713,-6.0184793,-2.9093049,-15.592551
191,22.020301818847656,245.38333129882812,72.6507797241211,-4.928885658046921,-3.570961761933962,-163.8903437558117,-5.101363,7.5925446,17.457422,51.29555,-40.57468,3.6105542,-31.969702,-16.83714,-16.222052,69.24059,-15.294937,15.000033,-7.4564385,1.7183187,22.80604,-17.529804,24.753227,-34.037376,44.63317,-1.7942919,4.8564115,10.042883,-14.029183,-29.459055,28.244312,51.357265,-6.7830687,-2.7900512,-15.574372
192,22.142576217651367,246.59280395507812,72.27021026611328,-4.36035001968264,-3.526371111404664,-163.20115731308817,-5.9086876,7.8498645,16.62154,51.84386,-41.717663,2.6470501,-32.00505,-19.916233,-15.628732,70.27653,-16.048075,13.989379,-7.2744594,0.9520422,22.975817,-18.003733,25.230822,-34.294018,45.407146,-1.2931523,4.9284725,10.088028,-14.672121,-29.0641,26.818491,50.34584,-7.4477277,-2.6937706,-15.705216
193,22.248891830444336,247.80215454101562,71.94332122802734,-3.813262076846033,-3.5526747707791544,-162.57172021164328,-6.6969633,8.258654,16.068253,52.60094,-42.4487,1.7714113,-31.846151,-22.728695,-14.864558,70.8777,-16.535627,12.897438,-7.071474,0.22066541,23.158426,-18.355553,25.686548,-34.5217,46.281635,-0.9578166,5.0079236,10.259205,-15.196183,-28.631674,25.472975,49.203217,-8.003686,-2.6317556,-16.022058
194,22.321413040161133,249.02362060546875,71.6760482788086,-3.2270568541255837,-3.6158234038251695,-161.97454841833832,-7.493992,8.701418,15.692101,53.47797,-42.776604,0.9465907,-31.572363,-25.386223,-13.853712,71.13367,-16.770813,12.036948,-6.8529916,-0.53374326,23.319075,-18.604008,26.120281,-34.711464,47.290127,-0.7197176,5.0744147,10.518505,-15.608348,-28.155193,24.112354,47.944973,-8.4954815,-2.5957391,-16.436047
195,22.367267608642578,250.2481231689453,71.47176361083984,-2.707716962901224,-3.7146807578638468,-161.41655122649428,-8.299775,9.249604,15.32364,54.404045,-42.809273,0.103618756,-31.167852,-27.780025,-12.745582,71.063965,-16.82404,11.273883,-6.6268034,-1.2039615,23.47546,-18.816925,26.530577,-34.887882,48.489967,-0.6727371,5.149808,10.70381,-16.014277,-27.674978,22.961554,46.662758,-8.895067,-2.5542011,-16.929499
196,22.408700942993164,251.4697723388672,71.32049560546875,-2.361515103185213,-3.8454013179141477,-160.90591218505483,-9.118874,9.977426,14.7947235,55.317703,-42.654507,-0.8293207,-30.608467,-29.799862,-11.692625,70.70092,-16.781742,10.476285,-6.4091372,-1.6755041,23.648394,-19.050053,26.916315,-35.06383,49.92641,-0.90893453,5.254895,10.651002,-16.502253,-27.256958,22.253983,45.421474,-9.167265,-2.475112,-17.48197
197,22.433061599731445,252.69384765625,71.21161651611328,-2.263733617952388,-4.030595299096783,-160.4353518696916,-9.989455,10.964464,14.004795,56.30994,-42.28657,-1.8940197,-29.788034,-31.330572,-10.730227,69.979485,-16.65735,9.659845,-6.2076173,-1.8568344,23.886663,-19.348408,27.27638,-35.290245,51.67846,-1.582989,5.3821416,10.208138,-17.059443,-26.951305,22.102669,44.145344,-9.1634655,-2.310847,-18.177927
198,22.466716766357422,253.9042510986328,71.14747619628906,-2.348103138609921,-4.258603965049804,-160.00262660016037,-10.8966,12.139115,13.039149,57.361687,-41.66341,-3.0553339,-28.724117,-32.46164,-9.806287,68.927414,-16.419847,8.876458,-6.0151052,-1.8026747,24.173738,-19.661036,27.607288,-35.53185,53.674484,-2.597046,5.534596,9.498165,-17.599976,-26.760317,22.360027,42.76134,-8.931387,-2.0944734,-18.990025
199,22.496599197387695,255.11868286132812,71.10822296142578,-2.504444611538352,-4.475129726630302,-159.62519560034497,-11.771646,13.353993,12.015403,58.26472,-40.882595,-4.2603545,-27.591797,-33.388885,-8.930567,67.72535,-16.100128,8.044517,-5.8204703,-1.625254,24.43123,-19.902716,27.906336,-35.68013,55.73933,-3.6668766,5.7430253,8.769709,-18.108463,-26.674494,22.871471,41.347958,-8.727754,-1.9113503,-19.729385
200,22.491455078125,256.33355712890625,71.10282135009766,-2.62149334054773,-4.6277456296667445,-159.32100633101697,-12.549044,14.476853,11.06146,58.82506,-40.041195,-5.4455667,-26.578875,-34.30526,-8.106611,66.54945,-15.729167,7.083731,-5.6151032,-1.4424878,24.580395,-19.980658,28.173738,-35.618267,57.698887,-4.504776,6.0226502,8.270785,-18.581362,-26.67767,23.48739,39.99568,-8.817636,-1.839259,-20.20794
201,22.491405487060547,257.52349853515625,71.11735534667969,-2.694948457659805,-4.7008313702312625,-159.09884567825296,-13.248215,15.507018,10.182115,59.037277,-39.153988,-6.5882363,-25.72138,-35.244644,-7.3532286,65.43229,-15.329915,5.8864923,-5.395622,-1.2563325,24.595264,-19.88175,28.4066,-35.34032,59.59482,-5.077334,6.368164,8.011311,-19.04666,-26.77499,24.266626,38.731503,-9.314996,-1.8826222,-20.404615
202,22.470218658447266,258.7026062011719,71.16419982910156,-2.774701470538454,-4.722949059633905,-158.9481533453062,-13.893914,16.510706,9.31655,58.994328,-38.172386,-7.717472,-24.929577,-36.103783,-6.664124,64.2927,-14.897366,4.524578,-5.167051,-1.0144178,24.517996,-19.646004,28.604343,-34.89691,61.48814,-5.5232472,6.7686462,7.8777,-19.503792,-26.967077,25.260439,37.509926,-10.06609,-2.0047379,-20.411089
203,22.403657913208008,259.9021911621094,71.24238586425781,-2.830104424904186,-4.708576196435591,-158.85963693667057,-14.432194,17.468393,8.505503,58.66271,-37.10093,-8.83986,-24.208607,-36.87165,-5.997155,63.133327,-14.412638,3.1858885,-4.928248,-0.76179916,24.37495,-19.260368,28.775156,-34.263123,63.233593,-5.8202333,7.2209816,7.9312534,-19.913044,-27.222586,26.306921,36.320496,-10.934191,-2.2210708,-20.213158
204,22.328475952148438,261.10235595703125,71.35250091552734,-2.82984869516778,-4.672511266000736,-158.8236941402073,-14.807857,18.360031,7.794134,58.009655,-35.943584,-9.9605875,-23.55551,-37.53781,-5.3093696,61.94979,-13.840745,2.0553913,-4.6767435,-0.55224687,24.19265,-18.708838,28.935606,-33.414036,64.68712,-5.947856,7.7200274,8.232599,-20.236769,-27.495508,27.237072,35.16454,-11.791587,-2.5494685,-19.798456
205,22.243619918823242,262.30706787109375,71.49358367919922,-2.754935523396917,-4.6280888122711366,-158.8575507246718,-14.972157,19.168322,7.221796,56.99308,-34.73271,-11.076467,-22.950405,-38.150883,-4.626207,60.730297,-13.159408,1.1384134,-4.408432,-0.4269824,23.977657,-17.931921,29.09321,-32.25228,65.761955,-5.791334,8.371456,8.895037,-20.510984,-27.763971,28.049902,34.09056,-12.725092,-3.0845468,-19.072563
206,22.14259147644043,263.5311279296875,71.65813446044922,-2.6247489834363984,-4.564076447862003,-158.96006977394802,-14.964906,19.91276,6.763728,55.646027,-33.45243,-12.181076,-22.39366,-38.700764,-3.9553103,59.480015,-12.383911,0.34901634,-4.135788,-0.36508524,23.715998,-16.928782,29.250566,-30.80591,66.52981,-5.408552,9.147701,9.8467455,-20.775597,-28.024252,28.834871,33.12019,-13.761583,-3.8019648,-18.084135
207,22.0206356048584,264.7757263183594,71.84465789794922,-2.466612486853764,-4.459322018784909,-159.09298798992918,-14.865279,20.623337,6.364492,54.045544,-32.030884,-13.276125,-21.90728,-39.089127,-3.2271175,58.226124,-11.524661,-0.27216122,-3.8762383,-0.3282079,23.401333,-15.777938,29.42169,-29.255028,67.08434,-5.043695,9.846345,10.877411,-20.990398,-28.255384,29.548738,32.218006,-14.695914,-4.53187,-17.029165
208,21.884044647216797,266.04449462890625,72.05045318603516,-2.3077536321945202,-4.292668171362335,-159.21840810704688,-14.753062,21.327929,5.9645305,52.264473,-30.396229,-14.365688,-21.504292,-39.2251,-2.3689601,56.99145,-10.589278,-0.68443686,-3.6362128,-0.28123263,23.023905,-14.569321,29.626852,-27.793585,67.53044,-4.9310384,10.254864,11.783584,-21.11279,-28.430792,30.138952,31.3556,-15.332149,-5.092198,-16.092802
209,21.737457275390625,267.3355712890625,72.28114318847656,-2.0425457995970575,-4.021852947759558,-159.29220923552512,-14.6515665,21.811419,5.58544,50.232227,-28.528353,-15.000033,-21.225725,-39.247368,-1.3006883,55.72439,-9.577142,-0.84698665,-3.4517457,-0.32758898,22.531208,-13.28544,29.881908,-26.43418,67.85514,-5.1827035,10.249466,12.6110325,-21.11373,-28.522724,30.539635,30.519142,-15.62469,-5.441602,-15.232968
210,21.592893600463867,268.6455383300781,72.52470397949219,-1.6389897985233373,-3.6609199563789345,-159.32377209840706,-14.518228,22.019825,5.2729445,47.911522,-26.4465,-15.000033,-21.045906,-39.22947,-0.049043503,54.418724,-8.471043,-0.7730523,-3.3259761,-0.514451,21.931753,-11.87642,30.18815,-25.085848,68.00353,-5.6509137,9.96136,13.431081,-21.040628,-28.523216,30.797325,29.757252,-15.6858635,-5.666999,-14.375106
211,21.436298370361328,269.9900207519531,72.78226470947266,-1.2394570390237034,-3.2720254234486865,-159.3557340821047,-14.345573,22.244164,4.9803557,45.437588,-24.134577,-15.000033,-20.882288,-38.973934,1.2995226,53.181065,-7.2617874,-0.5052579,-3.2190847,-0.7138902,21.305298,-10.398429,30.542978,-23.795752,68.03992,-6.1849113,9.550251,14.083597,-20.938402,-28.437862,31.016735,29.109018,-15.580084,-5.769835,-13.65282
212,21.278486251831055,271.3587646484375,73.05558013916016,-0.8616245918116177,-2.890308673449816,-159.37848928069945,-14.144778,22.518482,4.690914,42.891865,-21.536821,-15.000033,-20.707102,-38.445896,2.7349474,52.10916,-5.9221115,-0.032347936,-3.1302927,-0.91423595,20.70102,-8.932946,30.939014,-22.626322,68.04753,-6.6404843,9.182795,14.415133,-20.839886,-28.281687,31.291008,28.602762,-15.3669195,-5.7537637,-13.20139
213,21.11422348022461,272.75048828125,73.33946990966797,-0.5179628711857335,-2.5077470314078187,-159.39223782432202,-13.911394,22.866377,4.4110007,40.253925,-18.63263,-15.000033,-20.58865,-37.48687,4.468989,51.298695,-4.2863975,0.46974617,-3.0516691,-1.0919726,20.111341,-7.510979,31.374947,-21.592697,68.04668,-7.002327,8.865751,14.3091135,-20.73112,-28.061628,31.641249,28.234959,-14.965886,-5.5581985,-13.120645
214,20.944965362548828,274.17474365234375,73.62916564941406,-0.20160771088591006,-2.1116714707153377,-159.40127231614784,-13.649653,23.274214,4.1466722,37.505714,-15.45676,-15.000033,-20.477175,-36.152775,6.432883,50.665993,-2.4347007,1.096419,-2.9838321,-1.2501218,19.516874,-6.098413,31.849737,-20.663502,68.00885,-7.342145,8.527523,13.87474,-20.594303,-27.776545,32.016384,27.985529,-14.377015,-5.202586,-13.31923
215,20.762479782104492,275.63092041015625,73.91249084472656,0.10438603581626009,-1.729294783340379,-159.40088297316092,-13.38478,23.721941,3.8811724,34.733078,-12.035211,-15.000033,-20.199055,-34.731293,8.218054,50.034676,-0.7266478,2.245584,-2.937458,-1.4189274,18.94648,-4.696083,32.355244,-19.842785,67.958084,-7.6513147,8.217792,13.304045,-20.456217,-27.437761,32.40073,27.86258,-13.777755,-4.812467,-13.642883
216,20.577829360961914,277.1178283691406,74.17975616455078,0.42405645660371916,-1.3870951819072495,-159.38502278278665,-13.144455,24.183601,3.5990403,32.02589,-8.392001,-15.000033,-19.63262,-33.529385,9.443879,49.23528,0.46095386,4.2664113,-2.9216146,-1.632224,18.42721,-3.315118,32.877415,-19.138363,67.92548,-7.9172406,7.982883,12.790552,-20.331867,-27.064322,32.772217,27.864117,-13.3487215,-4.5085216,-13.933453
217,20.388383865356445,278.6197509765625,74.41775512695312,0.8082541272284388,-1.078332044179257,-159.329784071482,-12.891217,24.591604,3.3496912,29.224173,-4.204617,-15.000033,-18.680838,-32.687157,9.948462,48.11665,1.077496,7.6945357,-2.9483361,-1.9262761,17.949236,-1.9814318,33.41375,-18.581112,67.93444,-8.142423,7.8416014,12.360481,-20.19001,-26.666174,33.10287,27.974352,-13.167256,-4.295302,-14.19552
218,20.21402931213379,280.1386413574219,74.6148681640625,1.2390437894355606,-0.791215323111949,-159.24417162037577,-12.644201,24.984886,3.1310337,26.373728,0.42446548,-15.000033,-17.49894,-32.035282,9.943972,46.819008,1.2649369,12.138406,-3.0037866,-2.274284,17.50081,-0.70478785,33.968082,-18.167624,67.980225,-8.330376,7.7643485,11.923447,-20.01323,-26.248837,33.400158,28.180851,-13.127188,-4.1155767,-14.494696
219,20.039962768554688,281.7344055175781,74.7630615234375,1.4803075547419176,-0.5181256893435329,-159.22156531612893,-12.572562,25.694502,2.7916234,23.90492,4.8209643,-15.000033,-16.422644,-31.368652,9.094069,45.62481,1.0048615,15.000033,-3.014961,-2.4716918,17.095444,0.527837,34.530212,-17.85192,68.0487,-8.467457,7.723224,11.498899,-19.84101,-25.830057,33.696674,28.484972,-13.13091,-3.9951925,-14.763186
220,19.872140884399414,283.3701171875,74.89342498779297,1.1175543493544458,-0.21838400848799308,-159.41019208594298,-12.947311,27.255136,2.0913162,22.337036,8.260855,-15.000033,-15.704326,-30.134558,7.3855634,44.69498,0.3957885,15.000033,-2.8512154,-2.1115847,16.726751,1.7249985,35.076324,-17.589739,68.130356,-8.538788,7.6895924,11.108988,-19.712978,-25.437986,34.027744,28.88531,-13.081698,-3.9615936,-14.934324
221,19.705810546875,285.0104675292969,74.97845458984375,0.8456543790813577,-0.009458598144712312,-159.5770102006605,-13.59093,28.733091,1.0522197,21.450783,10.810092,-15.000033,-15.218487,-28.836985,6.158524,44.016552,-0.7774127,15.000033,-2.7192786,-1.8623334,16.468115,2.853866,35.61454,-17.441595,68.25329,-8.510959,7.662758,10.76302,-19.610977,-25.086058,34.38453,29.35725,-12.968785,-4.0511107,-14.984925
222,19.544811248779297,286.6489562988281,75.03483581542969,0.600952663057778,0.13448115860757054,-159.73495707423217,-14.494852,30.190674,-0.29900697,21.129818,12.75656,-15.000033,-14.871308,-27.494902,5.0816903,43.47947,-2.4418118,15.000033,-2.6011677,-1.6537468,16.297169,3.9080243,36.151703,-17.417282,68.41761,-8.400338,7.653564,10.450061,-19.508501,-24.780066,34.747543,29.886759,-12.835412,-4.2380834,-14.950633
223,19.381710052490234,288.27459716796875,75.06591796875,0.4063713738691409,0.2053610489937757,-159.8995148507489,-15.485908,31.560965,-1.702113,21.425238,13.959886,-15.000033,-14.671436,-26.21405,4.0741982,43.226883,-4.4080267,15.000033,-2.5014386,-1.5160196,16.202133,4.93525,36.673042,-17.408741,68.59399,-8.258827,7.6473584,10.150084,-19.413677,-24.528265,35.136124,30.472567,-12.649549,-4.4461956,-14.850067
224,19.21483039855957,289.85504150390625,75.04045104980469,0.29038357272390153,0.18812700390267992,-160.09240749208456,-16.306808,32.78753,-2.8280919,22.283358,14.304027,-15.000033,-14.630754,-25.101587,3.054074,43.42519,-6.492211,15.000033,-2.427453,-1.4817907,16.177496,5.994613,37.151222,-17.2951,68.75038,-8.134778,7.6293397,9.8450575,-19.342842,-24.338676,35.580925,31.118525,-12.379689,-4.5981493,-14.702905
225,19.07977867126465,291.37890625,74.9270248413086,0.2793823183741796,0.05485492828607012,-160.307343267849,-16.85734,33.911697,-3.5646927,23.724056,13.524447,-15.000033,-14.774605,-24.240095,1.9336548,44.242355,-8.798784,15.000033,-2.3972237,-1.578083,16.2356,7.111929,37.574596,-17.045858,68.89266,-8.048845,7.5491576,9.518585,-19.354294,-24.229904,36.18217,31.839188,-11.989303,-4.7005787,-14.4847145
226,18.967124938964844,292.8919982910156,74.77742767333984,0.3528823231540245,-0.18721474939886154,-160.53756329149934,-17.231375,34.998253,-4.066357,25.683561,11.76104,-15.000033,-15.088297,-23.58119,0.7352696,45.574493,-11.37003,15.000033,-2.4099145,-1.7749671,16.386532,8.260072,37.94116,-16.713665,69.02981,-7.9686294,7.4291167,9.187702,-19.428219,-24.205132,36.9054,32.61855,-11.499777,-4.7818713,-14.195906
227,18.865814208984375,294.3912048339844,74.61097717285156,0.47522441106854174,-0.5002640135717653,-160.8047256076436,-17.455908,36.033222,-4.3929563,28.0118,9.490738,-15.000033,-15.514373,-23.019417,-0.43970278,47.176342,-13.942091,15.000033,-2.434173,-2.0260696,16.616312,9.401992,38.231487,-16.31005,69.152214,-7.853375,7.362444,8.883822,-19.463665,-24.240387,37.572674,33.429337,-10.964555,-4.799761,-13.894486
228,18.783260345458984,295.85577392578125,74.414306640625,0.6054121151974526,-0.8428047181477766,-161.13707409538995,-17.546068,36.968365,-4.590249,30.56495,7.227132,-15.000033,-15.992681,-22.440117,-1.4710978,48.79667,-16.257685,15.000033,-2.4361067,-2.2794642,16.902115,10.491458,38.42042,-15.85724,69.26635,-7.665655,7.440878,8.640493,-19.36384,-24.297346,38.009945,34.265316,-10.444116,-4.7145405,-13.64021
229,18.72585678100586,297.2800598144531,74.19537353515625,0.7751876793838754,-1.2321098910891537,-161.53719329848238,-17.459606,37.716724,-4.6438837,33.421577,5.018978,-14.9455805,-16.51707,-21.90648,-2.3626497,50.49446,-18.325642,15.000033,-2.4255738,-2.5763059,17.258652,11.514856,38.494255,-15.363676,69.42742,-7.411371,7.7019973,8.517187,-19.137566,-24.3452,38.18422,35.176872,-9.975536,-4.5285983,-13.39677
230,18.701013565063477,298.66204833984375,73.9703598022461,1.0861317400985127,-1.6595275172772823,-161.9474322215873,-17.267975,38.239048,-4.391572,36.721848,2.5916505,-14.344798,-17.135288,-21.579874,-3.1289086,52.3821,-20.277565,15.000033,-2.4514415,-3.0142798,17.65369,12.45367,38.45617,-14.855334,69.66165,-7.1095524,8.090319,8.481674,-18.836878,-24.372507,38.181843,36.19724,-9.532991,-4.26098,-13.154453
231,18.689456939697266,300.02606201171875,73.75961303710938,1.2723220592657747,-2.063312029222533,-162.45343265743898,-17.064724,38.889896,-4.065327,40.32186,0.033204943,-13.783086,-17.794441,-21.017128,-3.8048954,54.19381,-21.992153,14.637561,-2.43454,-3.3087578,18.035625,13.3298855,38.296173,-14.306857,69.87231,-6.722573,8.558408,8.430415,-18.458683,-24.385118,38.04853,37.29638,-9.07195,-3.8989193,-13.011446
232,18.7055721282959,301.3775634765625,73.56427764892578,1.2176103106768006,-2.3590322928744647,-163.0889883032773,-16.936855,39.87919,-3.6046555,44.03745,-2.5489426,-13.006669,-18.496647,-19.937582,-4.405135,55.688095,-23.350977,13.247456,-2.3046236,-3.31305,18.315271,14.069202,38.010887,-13.787869,70.03941,-6.232902,9.055488,8.259125,-17.970613,-24.392448,37.788406,38.445988,-8.548754,-3.431999,-13.066849
233,18.740676879882812,302.6859130859375,73.3792495727539,1.115949234725069,-2.5700129336611033,-163.8013088230318,-16.866774,41.016426,-2.8917193,48.038654,-5.2925644,-11.793259,-19.259422,-18.59435,-4.603318,56.909058,-24.385967,12.078448,-2.1135962,-3.1935315,18.525997,14.652632,37.585503,-13.246994,70.17113,-5.5397353,9.620893,7.887673,-17.349648,-24.39968,37.32671,39.685326,-7.9444685,-2.8733919,-13.350526
234,18.774372100830078,303.9315490722656,73.21943664550781,0.9718050522924186,-2.7312269794857147,-164.58921928483286,-16.768797,42.244743,-2.0032742,52.33925,-8.216135,-10.327999,-20.052753,-17.04397,-4.5087056,57.955055,-25.14486,11.03306,-1.8773444,-2.9720085,18.698036,15.089294,37.019943,-12.687813,70.294815,-4.6808233,10.256525,7.3869023,-16.62133,-24.408138,36.680172,41.013252,-7.2812877,-2.2273946,-13.811624
235,18.83318519592285,305.1664123535156,73.10813903808594,0.8414581621308236,-2.867721330521012,-165.36289330820307,-16.529652,43.348667,-0.99905866,56.616142,-11.104334,-8.795274,-20.785519,-15.478398,-4.359394,58.85437,-25.673218,10.03552,-1.673039,-2.7327058,18.810617,15.40947,36.34633,-12.209247,70.37095,-3.8404095,10.859143,6.8824015,-15.818652,-24.426878,36.000237,42.313587,-6.5762286,-1.4685104,-14.429649
236,18.88134765625,306.3819885253906,73.04999542236328,0.7800971701590436,-3.002850103939816,-166.03297610085554,-16.052145,44.107872,0.09220319,60.547478,-13.721961,-7.378638,-21.390406,-14.093166,-4.377697,59.634377,-26.015247,9.011058,-1.5697191,-2.5632434,18.846153,15.65829,35.610935,-11.9080925,70.350914,-3.2105508,11.33114,6.501667,-14.957887,-24.470907,35.432068,43.457108,-5.8419256,-0.57129234,-15.185052
237,18.88185691833496,307.5583190917969,73.0535888671875,0.8155228100811867,-3.1466099066107343,-166.60548897565417,-15.261623,44.54232,1.4608262,64.12414,-16.053234,-5.90759,-21.863907,-12.942321,-4.5956435,60.29475,-26.162823,7.9442677,-1.5357226,-2.4989834,18.801039,15.876655,34.822956,-11.756543,70.18582,-2.8085513,11.697388,6.2817063,-13.969914,-24.552631,34.97294,44.34702,-5.019388,0.6117958,-16.209635
238,18.861865997314453,308.7005615234375,73.10258483886719,0.9131877612786767,-3.284712825217436,-167.11971111323314,-14.210358,44.72123,3.0845745,67.48357,-18.198801,-4.3512974,-22.252659,-11.926772,-4.901193,60.822823,-26.093359,6.87341,-1.5403061,-2.4932117,18.691994,16.045204,33.978584,-11.71439,69.90287,-2.5497956,11.992584,6.151359,-12.846397,-24.675571,34.543663,45.042202,-4.099121,2.0099008,-17.47808
