unveil-humanoid-operators/unveil-humanoid-operators.github.io/feature-analysis-animation/data/feature_matrix_instances/gender_ankle_rom_walking_A035_arc_walk_left_loop_001__A035.csv
Frame,root_translateX,root_translateY,root_translateZ,root_rotateX,root_rotateY,root_rotateZ,left_hip_pitch_joint_dof,left_hip_roll_joint_dof,left_hip_yaw_joint_dof,left_knee_joint_dof,left_ankle_pitch_joint_dof,left_ankle_roll_joint_dof,right_hip_pitch_joint_dof,right_hip_roll_joint_dof,right_hip_yaw_joint_dof,right_knee_joint_dof,right_ankle_pitch_joint_dof,right_ankle_roll_joint_dof,waist_yaw_joint_dof,waist_roll_joint_dof,waist_pitch_joint_dof,left_shoulder_pitch_joint_dof,left_shoulder_roll_joint_dof,left_shoulder_yaw_joint_dof,left_elbow_joint_dof,left_wrist_roll_joint_dof,left_wrist_pitch_joint_dof,left_wrist_yaw_joint_dof,right_shoulder_pitch_joint_dof,right_shoulder_roll_joint_dof,right_shoulder_yaw_joint_dof,right_elbow_joint_dof,right_wrist_roll_joint_dof,right_wrist_pitch_joint_dof,right_wrist_yaw_joint_dof
0,1.632571816444397,-0.9910717606544495,77.28240203857422,0.7092485937541004,0.23584829405535118,-167.8792468707376,-5.230786,7.5221834,1.2445836,16.565836,-13.006305,-9.649667,-0.44674847,-5.471121,-20.475382,17.821152,-18.231184,2.6322484,-0.9614124,1.5029011,3.0484502,5.184865,22.765636,-32.71406,49.4516,6.208564,5.2324333,-1.584912,3.0722384,-25.072155,36.253525,45.92577,11.525317,25.615118,-4.521052
1,1.6258010864257812,-0.9883577227592468,77.26923370361328,0.7857953732704984,0.31329171046244897,-167.88507270013446,-5.2641687,7.4420047,1.2758833,16.469542,-12.990835,-9.669968,-0.68167245,-5.6101537,-20.441427,18.174404,-18.481817,2.6172328,-0.95941526,1.4366484,3.0318444,5.1744866,22.777002,-32.68077,49.405567,6.18168,5.222465,-1.5738451,3.126512,-25.089085,36.208225,45.89478,11.503643,25.61869,-4.503604
2,1.618764877319336,-0.9844324588775635,77.25416564941406,0.8608006582230866,0.3900525739877984,-167.89103180175155,-5.296685,7.3632255,1.3074888,16.373266,-12.974948,-9.689595,-0.91034037,-5.745418,-20.40764,18.515215,-18.728504,2.6025991,-0.95552933,1.3713974,3.0152605,5.1639595,22.789064,-32.647705,49.358597,6.154157,5.2125816,-1.5643508,3.1798131,-25.103848,36.158417,45.86453,11.478852,25.623009,-4.483149
3,1.6150908470153809,-0.9796509742736816,77.23320770263672,0.9386183739056762,0.4680099062295793,-167.89649111249236,-5.330412,7.2818556,1.3385694,16.275879,-12.959382,-9.710645,-1.1503602,-5.8869,-20.371891,18.877548,-18.98148,2.5870817,-0.9515649,1.3030466,2.9979322,5.148174,22.799412,-32.618034,49.319374,6.127482,5.2014546,-1.5522344,3.225001,-25.114305,36.117046,45.848225,11.462333,25.62398,-4.467535
4,1.611833095550537,-0.97369784116745,77.2095718383789,1.023604844438249,0.548196448812901,-167.90141431914833,-5.3643823,7.1939816,1.3691449,16.171991,-12.943133,-9.735147,-1.4169486,-6.043589,-20.33189,19.289915,-19.247332,2.5694022,-0.9446446,1.226849,2.9893963,5.1240215,22.81241,-32.591,49.2793,6.1084437,5.1903,-1.5361658,3.2702303,-25.12502,36.079533,45.830997,11.45503,25.62146,-4.461367
5,1.6099187135696411,-0.9639653563499451,77.18474578857422,1.121797412540728,0.6340703965274981,-167.9052688803196,-5.400409,7.092502,1.399239,16.055159,-12.922251,-9.764358,-1.7285669,-6.227327,-20.28471,19.78341,-19.538115,2.548626,-0.93734926,1.1372403,2.9872751,5.0897837,22.831758,-32.57033,49.239677,6.095975,5.177397,-1.5131695,3.3080235,-25.13746,36.054287,45.821056,11.473338,25.60823,-4.4735293
6,1.6073472499847412,-0.9508821964263916,77.15864562988281,1.2292562318439733,0.7237108115438764,-167.90846426168454,-5.437721,6.9812913,1.4291223,15.929098,-12.898423,-9.796904,-2.0717914,-6.4299498,-20.231825,20.334076,-19.846415,2.525738,-0.9305083,1.0391861,2.985515,5.04117,22.84362,-32.556828,49.216408,6.0896153,5.1633544,-1.4827743,3.3283033,-25.142958,36.048195,45.83453,11.515745,25.586973,-4.5007334
7,1.6026815176010132,-0.9369463920593262,77.13350677490234,1.3357235696775225,0.8119644705933369,-167.91119469090006,-5.4744077,6.8732457,1.4579254,15.806884,-12.879115,-9.831031,-2.4143596,-6.6298356,-20.17842,20.887249,-20.149431,2.502551,-0.92308176,0.94147503,2.988211,4.9892354,22.85893,-32.54334,49.19647,6.080687,5.1463203,-1.4534843,3.34996,-25.147575,36.048046,45.85194,11.554949,25.566612,-4.525204
8,1.597921371459961,-0.9196839332580566,77.10743713378906,1.4309149115437412,0.8931143739077954,-167.9142150097364,-5.5093384,6.7810583,1.4848559,15.703712,-12.873424,-9.864994,-2.7255976,-6.806535,-20.129477,21.392115,-20.426441,2.480604,-0.9133127,0.8554758,2.9986503,4.9473214,22.88057,-32.525444,49.164974,6.0629735,5.1290245,-1.4292507,3.3666534,-25.151804,36.06124,45.876945,11.585702,25.556793,-4.533754
9,1.5877174139022827,-0.9014750123023987,77.0821533203125,1.516923779717538,0.967607766155071,-167.92075260067426,-5.5367284,6.702703,1.5157647,15.609405,-12.875949,-9.8982935,-3.0080414,-6.962951,-20.081776,21.851303,-20.675207,2.4621065,-0.8968641,0.7806318,3.010512,4.8970714,22.897776,-32.51346,49.15212,6.025172,5.1016784,-1.4134294,3.3878677,-25.153261,36.08146,45.91098,11.59676,25.55914,-4.5212154
10,1.5755351781845093,-0.8786272406578064,77.05540466308594,1.5979132024374016,1.0376817855895661,-167.9293010924577,-5.5594516,6.632775,1.5489908,15.521838,-12.885237,-9.931815,-3.2756326,-7.1078415,-20.034288,22.28971,-20.907476,2.4457295,-0.8821295,0.7115448,3.0280788,4.8588853,22.92347,-32.49783,49.125652,5.973204,5.0704694,-1.4029546,3.4001627,-25.15333,36.12015,45.95698,11.603665,25.569393,-4.4973583
11,1.5620241165161133,-0.852150559425354,77.03102111816406,1.6654701391678663,1.1013636449408333,-167.9337728481529,-5.587471,6.580308,1.5728467,15.462701,-12.912652,-9.96621,-3.5103805,-7.227298,-19.99776,22.67823,-21.11677,2.428181,-0.86579055,0.6546085,3.0520768,4.820322,22.950838,-32.477234,49.10207,5.925174,5.0427313,-1.3934848,3.408547,-25.150984,36.16916,46.01195,11.6063385,25.58359,-4.4624343
12,1.5394115447998047,-0.824868381023407,77.01067352294922,1.71116824831623,1.1561324463124574,-167.92770574542772,-5.6310854,6.553808,1.5756272,15.455115,-12.970728,-10.001969,-3.696699,-7.308225,-19.982851,22.994091,-21.300455,2.4060998,-0.85284024,0.6174867,3.0834186,4.788713,22.975256,-32.44037,49.07653,5.9010434,5.029302,-1.3795918,3.4252346,-25.146175,36.218575,46.06547,11.594865,25.598627,-4.418601
13,1.515509843826294,-0.7982397675514221,76.99059295654297,1.7340477829365655,1.196707954411494,-167.91052758616738,-5.675484,6.5542846,1.5574919,15.481463,-13.059526,-10.04267,-3.8218668,-7.348377,-19.993353,23.224712,-21.456322,2.3794966,-0.8476272,0.600563,3.1278315,4.767879,22.997774,-32.382404,49.046654,5.9127874,5.0379214,-1.3614525,3.453537,-25.138046,36.266727,46.113228,11.566071,25.616568,-4.371519
14,1.4888498783111572,-0.7678930163383484,76.97013854980469,1.7381174720902055,1.2258205862236162,-167.88518180240763,-5.7212996,6.5776324,1.5236648,15.538318,-13.173805,-10.086812,-3.8988698,-7.3552084,-20.023304,23.388243,-21.588305,2.3497438,-0.8437877,0.601587,3.1811519,4.7482915,23.013983,-32.314926,49.02254,5.9474487,5.0614157,-1.3401148,3.5027442,-25.128595,36.30561,46.150566,11.513818,25.638622,-4.317941
15,1.4619985818862915,-0.7319765090942383,76.94586181640625,1.7227926257797483,1.2536901630632693,-167.85119440253186,-5.802081,6.6247334,1.4698043,15.667512,-13.316995,-10.127345,-3.9450278,-7.3285217,-20.069641,23.495567,-21.696266,2.3151653,-0.8406358,0.6202864,3.2367172,4.732698,23.030495,-32.23232,48.995106,5.9883113,5.087394,-1.3160114,3.526322,-25.116518,36.371563,46.21266,11.475069,25.658268,-4.2484984
16,1.431881070137024,-0.6943891644477844,76.9228744506836,1.6870436594762162,1.2903534311531226,-167.80724124807531,-5.9531927,6.696269,1.390848,15.915103,-13.49477,-10.157155,-3.978011,-7.2679033,-20.129433,23.55761,-21.779928,2.274168,-0.84416026,0.661045,3.279849,4.72961,23.04573,-32.13107,48.95935,6.015975,5.1046276,-1.2868733,3.5653362,-25.101648,36.439636,46.270157,11.410876,25.670137,-4.153417
17,1.397621750831604,-0.6551902890205383,76.89978790283203,1.6283636557483838,1.3382513318937672,-167.75309874369322,-6.179881,6.7944345,1.2834779,16.286615,-13.71285,-10.17071,-3.9978836,-7.1690173,-20.20291,23.56916,-21.834942,2.2271378,-0.8658677,0.7218439,3.3075032,4.7504478,23.066818,-31.994223,48.908306,6.032124,5.107907,-1.2544763,3.6031628,-25.075909,36.526237,46.336784,11.318888,25.67152,-4.0127754
18,1.360337734222412,-0.614602267742157,76.8777847290039,1.5474964111289455,1.3923569246106349,-167.68905411785892,-6.466878,6.9179487,1.1499976,16.763924,-13.967741,-10.1731,-3.9968622,-7.033024,-20.291496,23.52713,-21.862818,2.1745708,-0.8584325,0.8059,3.328516,4.7401943,23.079994,-31.885551,48.878902,6.0320067,5.1042876,-1.2133722,3.626087,-25.058304,36.619522,46.423786,11.247705,25.665844,-3.833717
19,1.3240416049957275,-0.5704504251480103,76.85807800292969,1.4481346180911217,1.45083130834212,-167.61653759912895,-6.8055015,7.063043,0.99611205,17.330717,-14.242977,-10.173967,-3.9793277,-6.866631,-20.393637,23.443132,-21.871662,2.1149418,-0.87548,0.9090107,3.344378,4.7632565,23.095991,-31.728792,48.82529,6.0318193,5.0984488,-1.1719351,3.6471758,-25.032648,36.738922,46.514984,11.164384,25.655943,-3.6608984
20,1.2836049795150757,-0.5209016799926758,76.84015655517578,1.3340810618528685,1.512152851806021,-167.5372065157377,-7.188277,7.2257037,0.8277,17.973804,-14.523138,-10.182874,-3.950331,-6.677401,-20.507479,23.330069,-21.869757,2.0467649,-0.9021098,1.0248834,3.3575096,4.8067865,23.116955,-31.539452,48.75414,6.0250764,5.0949817,-1.1311414,3.6925755,-24.992825,36.85859,46.594604,11.063972,25.64535,-3.533402
21,1.2455085515975952,-0.45910701155662537,76.81757354736328,1.2030052801970215,1.5800738367659477,-167.44914376259905,-7.622992,7.4080844,0.6445288,18.698719,-14.805592,-10.207785,-3.914809,-6.4627156,-20.635246,23.190586,-21.857212,1.9662122,-0.9021088,1.1617684,3.3669188,4.8247547,23.12902,-31.366764,48.697933,5.9987836,5.096594,-1.084156,3.8027759,-24.961422,36.93378,46.624973,10.968461,25.635595,-3.4798992
22,1.198663592338562,-0.40953969955444336,76.7972183227539,1.053875082901542,1.6542437083683377,-167.35245134108337,-8.109142,7.61042,0.44360715,19.506739,-15.096911,-10.242507,-3.8679736,-6.2194595,-20.776903,23.016478,-21.829506,1.8752563,-0.87013817,1.3183339,3.3863482,4.8139877,23.139738,-31.20731,48.644093,5.958914,5.1003366,-1.0316497,3.7088475,-24.942404,37.165653,46.81449,11.096614,25.618708,-3.4740858
23,1.153671145439148,-0.3584662079811096,76.77501678466797,0.8906184821135258,1.7265638950650746,-167.25119155877408,-8.627178,7.827137,0.2262896,20.378862,-15.395364,-10.2756195,-3.80079,-5.9520335,-20.927946,22.806402,-21.789906,1.7813625,-0.8791513,1.4918733,3.4023998,4.856641,23.150513,-30.978188,48.556473,5.924995,5.101547,-0.98461515,3.6996331,-24.916567,37.374344,46.936188,11.113952,25.604692,-3.466483
24,1.1085325479507446,-0.3058083951473236,76.74938201904297,0.7176133795025965,1.7891229238470592,-167.14969219719075,-9.157848,8.052194,-0.005637806,21.296919,-15.69985,-10.295462,-3.703395,-5.665266,-21.083727,22.555782,-21.739265,1.6918099,-0.8664497,1.676769,3.4287224,4.8954387,23.16019,-30.753103,48.460754,5.887025,5.096909,-0.94290364,3.694796,-24.895767,37.58871,47.058647,11.079204,25.594309,-3.3984413
25,1.0584466457366943,-0.25103771686553955,76.72335815429688,0.5330966535723549,1.8438038193693314,-167.04683284968667,-9.704105,8.285726,-0.2576312,22.2632,-16.018736,-10.294437,-3.5749078,-5.3554406,-21.246044,22.258055,-21.677048,1.6079917,-0.83935934,1.8758665,3.4557912,4.9361897,23.165543,-30.525663,48.35952,5.852983,5.0854855,-0.91026974,3.814887,-24.880177,37.71858,47.090294,10.872164,25.589819,-3.2494733
26,1.0070598125457764,-0.19770213961601257,76.69904327392578,0.3360963890307544,1.8935398213051404,-166.94124599089807,-10.270402,8.528694,-0.52827716,23.278753,-16.346256,-10.281054,-3.419845,-5.0217075,-21.415474,21.916283,-21.602282,1.5263627,-0.7939065,2.08828,3.50107,4.975852,23.174078,-30.285658,48.23597,5.826034,5.06934,-0.8845571,3.7035227,-24.87831,38.04456,47.29852,10.837193,25.580711,-3.0530329
27,0.9584754705429077,-0.1422751545906067,76.67191314697266,0.13036829890121035,1.9320424097723246,-166.83623251495712,-10.845263,8.778398,-0.8070998,24.335032,-16.66647,-10.268009,-3.236125,-4.6704364,-21.586706,21.540659,-21.515837,1.4467725,-0.7746586,2.3145626,3.556715,5.059424,23.18421,-29.996363,48.077072,5.7923207,5.048293,-0.8630196,3.6661294,-24.88022,38.35157,47.440815,10.689946,25.578053,-2.8321755
28,0.9084516167640686,-0.08658046275377274,76.64488220214844,-0.07974636320687262,1.953247287065398,-166.73518671325064,-11.415175,9.032121,-1.0827547,25.41969,-16.96301,-10.268201,-3.0251703,-4.3102264,-21.753662,21.148342,-21.422026,1.3688464,-0.7330675,2.5492558,3.6332912,5.138291,23.194134,-29.721928,47.910942,5.7246747,5.0230455,-0.8353887,3.6428378,-24.890503,38.660145,47.569847,10.514881,25.582588,-2.6051724
29,0.8536719679832458,-0.03565610200166702,76.61534881591797,-0.30178797622021697,1.9549253761073229,-166.640799812491,-11.966854,9.300987,-1.3433727,26.516264,-17.24986,-10.287161,-2.780347,-3.9294798,-21.915104,20.727661,-21.313797,1.2915142,-0.6550218,2.8022342,3.7324915,5.1992455,23.201256,-29.477308,47.741516,5.605895,4.995005,-0.80140555,3.5982928,-24.91018,38.995605,47.71889,10.346669,25.59611,-2.372116
30,0.7980775237083435,0.015697259455919266,76.583740234375,-0.534806261647098,1.9406857375228765,-166.55056732166713,-12.509885,9.581348,-1.5978762,27.634188,-17.530405,-10.317683,-2.5076637,-3.5311651,-22.073996,20.283548,-21.19596,1.2163079,-0.5873481,3.0740638,3.8534746,5.2923193,23.2083,-29.19757,47.53554,5.4629216,4.9629893,-0.7684036,3.5194435,-24.945333,39.396633,47.882687,10.177756,25.616909,-2.126513
31,0.7464635968208313,0.07013330608606339,76.54953002929688,-0.7616428547683025,1.9124510570483806,-166.45981799059882,-13.068678,9.848924,-1.8647592,28.809443,-17.768444,-10.355023,-2.213881,-3.1372826,-22.228472,19.827614,-21.074652,1.1427374,-0.49807194,3.3423762,3.9920683,5.3702908,23.21313,-28.93965,47.3375,5.3034425,4.92451,-0.7273193,3.4544055,-24.988352,39.797497,48.029556,9.990519,25.64034,-1.8713247
32,0.6930954456329346,0.12215384840965271,76.51891326904297,-0.9654871057382991,1.8723571768101313,-166.3635961087565,-13.667792,10.078247,-2.1630352,30.07748,-17.927847,-10.395317,-1.9100883,-2.7724917,-22.378712,19.381744,-20.961456,1.0719634,-0.4172125,3.5902836,4.154052,5.45544,23.216696,-28.672388,47.13879,5.1573405,4.876131,-0.6763522,3.351281,-25.04805,40.257206,48.176086,9.842113,25.66159,-1.6147254
33,0.6364158987998962,0.17486128211021423,76.49232482910156,-1.1453725722530064,1.818611451407976,-166.25943019199465,-14.313041,10.26392,-2.502432,31.45214,-18.00694,-10.448945,-1.594232,-2.4377875,-22.526094,18.945034,-20.856066,1.0024801,-0.33241057,3.8151658,4.340825,5.5302105,23.218756,-28.41314,46.951385,5.0205417,4.8138666,-0.6107856,3.2252724,-25.121397,40.7579,48.316868,9.716253,25.681078,-1.3497787
34,0.5843195915222168,0.2248106747865677,76.46924591064453,-1.309551469522808,1.7507942228609221,-166.15017935967637,-14.989286,10.415512,-2.8695502,32.91021,-18.021627,-10.519138,-1.2622467,-2.1217504,-22.670841,18.508451,-20.753567,0.93420476,-0.24593392,4.0275087,4.55125,5.603898,23.219036,-28.153814,46.764923,4.885194,4.7403884,-0.53456366,3.086221,-25.20729,41.29443,48.446053,9.598004,25.701273,-1.0759943
35,0.5276155471801758,0.27235209941864014,76.44751739501953,-1.4547789979990646,1.6727806632178224,-166.03911249388202,-15.689858,10.529614,-3.248372,34.431274,-17.960915,-10.59161,-0.9242154,-1.8311939,-22.810236,18.086596,-20.661472,0.8702001,-0.15466754,4.223769,4.778417,5.676185,23.217157,-27.902704,46.58646,4.756858,4.662758,-0.45174277,2.9273014,-25.306562,41.86159,48.567936,9.508938,25.719471,-0.8069101
36,0.46932077407836914,0.31906309723854065,76.42572021484375,-1.577825105103545,1.5884811623804602,-165.9294003635796,-16.409016,10.604805,-3.6237555,35.99554,-17.813288,-10.650585,-0.59006196,-1.572668,-22.942245,17.693886,-20.58703,0.81366426,-0.055863738,4.401184,5.0152135,5.747562,23.212082,-27.667646,46.422222,4.6414576,4.5882773,-0.3665645,2.7525814,-25.420214,42.445324,48.67739,9.461236,25.733416,-0.5562247
37,0.4142836332321167,0.36355164647102356,76.40428161621094,-1.6752904327179114,1.495066534496237,-165.82289685776976,-17.149878,10.633666,-4.006324,37.618385,-17.567728,-10.697306,-0.259209,-1.3511562,-23.066637,17.335756,-20.53508,0.76648897,0.055278283,4.5576596,5.2652974,5.814012,23.20307,-27.451681,46.27541,4.553314,4.5146255,-0.27810934,2.5595918,-25.549025,43.055813,48.774258,9.491935,25.741314,-0.3423974
38,0.3501301109790802,0.40596526861190796,76.3867416381836,-1.7499966592624763,1.3916055036612025,-165.7176191932119,-17.91234,10.617671,-4.397862,39.301537,-17.231714,-10.741865,0.0724663,-1.1624066,-23.18494,17.004965,-20.501303,0.7266857,0.1763988,4.695675,5.530317,5.8763957,23.189829,-27.250238,46.142952,4.4856014,4.43933,-0.18465187,2.3493512,-25.693693,43.693935,48.859283,9.581082,25.745275,-0.15321444
39,0.28497305512428284,0.44368594884872437,76.3720932006836,-1.8083486482323319,1.28462529996403,-165.6106678684701,-18.69105,10.571102,-4.7726383,41.0113,-16.823835,-10.777925,0.40095425,-0.998208,-23.298542,16.696247,-20.478937,0.6916632,0.30030626,4.8215456,5.801804,5.93874,23.171804,-27.06363,46.024338,4.4101925,4.3691893,-0.08883229,2.134834,-25.852549,44.330303,48.920273,9.655825,25.749483,0.044097524
40,0.2219521403312683,0.47839534282684326,76.35725402832031,-1.8564857064875844,1.181206866839671,-165.49959017702741,-19.481422,10.510328,-5.10593,42.715652,-16.363274,-10.795768,0.7226099,-0.85018754,-23.40838,16.402346,-20.45988,0.6586535,0.42328012,4.939873,6.070577,6.0027785,23.148571,-26.89506,45.920723,4.2990856,4.310931,0.0069777174,1.9128572,-26.025383,44.9468,48.959827,9.658187,25.756742,0.2827232
41,0.16106250882148743,0.5094481110572815,76.34352111816406,-1.8956058960126054,1.0846862866282942,-165.38381179740213,-20.303862,10.433704,-5.4134326,44.44518,-15.827912,-10.786301,1.0267984,-0.71983975,-23.512491,16.138002,-20.44871,0.6243794,0.5456413,5.0524464,6.332018,6.0645347,23.120071,-26.749641,45.83705,4.1277037,4.2652307,0.107429646,1.6933581,-26.211973,45.537006,48.969368,9.527428,25.768002,0.59596324
42,0.08507130295038223,0.5391762852668762,76.33077239990234,-1.9223640997626563,0.9909235265295178,-165.26456759629912,-21.154549,10.336939,-5.70134,46.205223,-15.21578,-10.753372,1.3191415,-0.6105058,-23.611578,15.900172,-20.446642,0.5911725,0.6708271,5.156487,6.5915656,6.1229925,23.086243,-26.626362,45.772293,3.9166996,4.228665,0.21224186,1.4705031,-26.412819,46.112953,48.95326,9.3130865,25.780437,0.9583086
43,0.0019263812573626637,0.5651662349700928,76.31880950927734,-1.9380744548147895,0.8949220098637574,-165.14202947439864,-21.997276,10.237103,-5.933335,47.931892,-14.579793,-10.7025795,1.6181754,-0.51615804,-23.710426,15.662311,-20.445501,0.5646465,0.79601765,5.25146,6.8552485,6.1847286,23.04673,-26.517042,45.71915,3.7041352,4.2018547,0.31149235,1.2398417,-26.62725,46.666122,48.917084,9.09937,25.792566,1.3140785
44,-0.06615988165140152,0.5868141055107117,76.30699157714844,-1.9437863490193408,0.7917174907384019,-165.01654084365865,-22.797686,10.153752,-6.0737643,49.56482,-13.974663,-10.637498,1.9430511,-0.43048683,-23.813425,15.395691,-20.43532,0.550241,0.9178143,5.336914,7.1286907,6.257436,23.00108,-26.413067,45.669903,3.5284762,4.185681,0.39524338,1.00731,-26.852919,47.17842,48.85892,8.959235,25.804703,1.6073322
45,-0.1462164968252182,0.6093170642852783,76.30071258544922,-1.9383523183880564,0.6767195005849181,-164.88642794624414,-23.562096,10.100815,-6.1107326,51.14646,-13.36145,-10.557917,2.302174,-0.3526254,-23.922216,15.091358,-20.414673,0.5487018,1.0375494,5.411039,7.419197,6.340081,22.948874,-26.309649,45.622097,3.3978732,4.1833715,0.4623969,0.7655522,-27.088528,47.656868,48.779434,8.923833,25.820154,1.8241426
46,-0.24225783348083496,0.6238545775413513,76.30200958251953,-1.9221284313596751,0.5536455733798278,-164.75216009917767,-24.307343,10.072509,-6.065883,52.695107,-12.731042,-10.45353,2.6844985,-0.28492746,-24.034739,14.764601,-20.388222,0.5573701,1.1552416,5.47459,7.7213097,6.4304557,22.890137,-26.21114,45.580494,3.2927206,4.1936975,0.5178104,0.5177686,-27.333746,48.102455,48.678867,8.943011,25.838566,1.9936482
47,-0.33374306559562683,0.637026846408844,76.30294799804688,-1.8978121645878614,0.43055304020830215,-164.6172456048129,-25.011614,10.059194,-5.952794,54.108444,-12.180727,-10.314118,3.0808544,-0.22578344,-24.148575,14.418256,-20.35244,0.5760713,1.2693039,5.531236,8.022209,6.5303884,22.825516,-26.126728,45.548874,3.2090268,4.2105737,0.56077474,0.2664569,-27.587395,48.506298,48.565258,8.993411,25.854216,2.1251953
48,-0.42756184935569763,0.6469842195510864,76.3036880493164,-1.867856791491026,0.3156810326468558,-164.48514508361615,-25.653912,10.04798,-5.7846513,55.28718,-11.808792,-10.133797,3.4787688,-0.17521647,-24.262478,14.063525,-20.307615,0.60563,1.379024,5.583689,8.308936,6.6402006,22.756407,-26.067541,45.532787,3.1420538,4.228017,0.5906769,0.007372215,-27.849255,48.864624,48.453575,9.057755,25.860733,2.2281132
49,-0.5358448624610901,0.6502873301506042,76.30394744873047,-1.8375021786139032,0.20651119911019875,-164.3495919646934,-26.225525,10.048116,-5.5576577,56.21764,-11.705077,-9.8835335,3.8885405,-0.12559412,-24.382124,13.687227,-20.247744,0.64440686,1.4764156,5.637903,8.580892,6.763363,22.683548,-26.035118,45.531113,3.0943313,4.249286,0.60611796,-0.25601763,-28.119856,49.171062,48.343437,9.127395,25.848783,2.3130395
50,-0.6476597785949707,0.6481428742408752,76.30696868896484,-1.8040603688367516,0.10024370512494038,-164.21130278148797,-26.740038,10.062732,-5.268377,56.95297,-11.797976,-9.576783,4.3078785,-0.08125655,-24.50626,13.299399,-20.177996,0.6926015,1.565484,5.690399,8.844104,6.897696,22.607218,-26.025715,45.542133,3.0661669,4.2761297,0.6078729,-0.52405864,-28.399525,49.42995,48.22946,9.214461,25.82431,2.3725102
51,-0.7676374912261963,0.6354032158851624,76.31282806396484,-1.7567382106138576,0.004129037586297477,-164.08399443146823,-27.204098,10.067514,-4.927537,57.482174,-11.944913,-9.275025,4.725388,-0.052444845,-24.622982,12.899152,-20.10124,0.7526913,1.6622596,5.7287235,9.095318,7.039173,22.52763,-26.038183,45.566372,3.0517197,4.300176,0.5981532,-0.7906486,-28.686075,49.638897,48.107216,9.314758,25.804256,2.387929
52,-0.8942898511886597,0.6161878108978271,76.32498168945312,-1.6856211537814951,-0.07441763518832659,-163.98090899534748,-27.625172,10.039042,-4.545446,57.793873,-12.002179,-9.039466,5.1225433,-0.052299745,-24.72089,12.502296,-20.023815,0.8273107,1.7834405,5.741585,9.331301,7.1818256,22.445303,-26.073336,45.60664,3.0438008,4.3129263,0.5793806,-1.0549235,-28.975603,49.7999,47.97713,9.429939,25.805155,2.3409183
53,-1.027038812637329,0.5941898822784424,76.34114074707031,-1.581405362125233,-0.13544576561531968,-163.9124086726632,-27.995043,9.960801,-4.12069,57.86689,-11.946795,-8.900611,5.4941187,-0.09323781,-24.793114,12.117343,-19.95103,0.9197401,1.9391924,5.7193775,9.552457,7.326759,22.360273,-26.134333,45.6656,3.0303354,4.3025727,0.55921555,-1.3178121,-29.26434,49.912754,47.844864,9.568953,25.831516,2.2109177
54,-1.1643809080123901,0.5757482051849365,76.3605728149414,-1.45154684659846,-0.18241932865541638,-163.86889438865197,-28.312943,9.848089,-3.649425,57.711624,-11.849482,-8.822999,5.8494444,-0.16634656,-24.847778,11.737063,-19.878786,1.0280744,2.1191337,5.669719,9.75969,7.4759917,22.272713,-26.220432,45.74236,3.0184119,4.2768126,0.5341896,-1.5866951,-29.551472,49.981342,47.718773,9.732561,25.8736,2.0127964
55,-1.31577730178833,0.5502843856811523,76.38036346435547,-1.3115184805175573,-0.21296822432063395,-163.83492224489956,-28.59891,9.727415,-3.1363468,57.36629,-11.706862,-8.76658,6.194986,-0.2501032,-24.894516,11.345928,-19.799303,1.145487,2.3071692,5.608256,9.950898,7.6272793,22.183096,-26.32374,45.83124,3.030295,4.2567873,0.4895493,-1.8497646,-29.835056,49.99691,47.585617,9.890697,25.927233,1.7805004
56,-1.4756423234939575,0.5157281160354614,76.4017562866211,-1.1763543731370785,-0.22512038528966133,-163.7942197821983,-28.872253,9.623908,-2.585381,56.869564,-11.51668,-8.691723,6.5377727,-0.32319683,-24.94358,10.926707,-19.703604,1.2660856,2.4882991,5.549109,10.123662,7.776134,22.092905,-26.438866,45.92795,3.0866816,4.2635126,0.41074094,-2.1101348,-30.114822,49.96341,47.444458,10.027547,25.987772,1.5486339
57,-1.6388531923294067,0.4791051149368286,76.42294311523438,-1.0435418741475855,-0.21273484599286052,-163.7458325576156,-29.135233,9.53741,-1.9859859,56.203415,-11.270637,-8.591496,6.8645487,-0.3917548,-24.993887,10.493571,-19.596115,1.3917637,2.6618907,5.4895296,10.27321,7.9227123,22.00272,-26.56317,46.030334,3.205344,4.3095765,0.27933675,-2.3730826,-30.390232,49.88018,47.2998,10.138437,26.062239,1.3196442
58,-1.800305962562561,0.4423379898071289,76.44158935546875,-0.9068523594585189,-0.17898631760630987,-163.6972535230271,-29.37535,9.455179,-1.33797,55.353832,-10.972146,-8.486989,7.1771,-0.46329144,-25.041128,10.048258,-19.478493,1.5247275,2.8338873,5.422938,10.402026,8.070001,21.912617,-26.69944,46.14038,3.3705316,4.3812413,0.10752793,-2.6306953,-30.660458,49.74033,47.149475,10.224894,26.150406,1.0773948
59,-1.9739034175872803,0.399762898683548,76.46014404296875,-0.7756370248285954,-0.13478388936496782,-163.64564005405998,-29.588211,9.382111,-0.65985304,54.36576,-10.636502,-8.380566,7.5028515,-0.51992214,-25.090073,9.559367,-19.340378,1.6596607,3.0012822,5.358562,10.519469,8.219553,21.823492,-26.848824,46.256546,3.55579,4.459906,-0.0730763,-2.878229,-30.925213,49.552357,46.986736,10.298807,26.237228,0.8282766
60,-2.156278610229492,0.3602316081523895,76.47662353515625,-0.6585821025601798,-0.09089399086306041,-163.5884022067103,-29.770792,9.322954,0.029944811,53.28471,-10.27991,-8.274608,7.8753963,-0.54064506,-25.145708,8.980312,-19.165655,1.7911948,3.1609867,5.304911,10.635135,8.372815,21.7369,-27.012764,46.376587,3.7340105,4.5275283,-0.23080929,-3.120811,-31.185085,49.33411,46.810833,10.381331,26.307648,0.57893807
61,-2.3453292846679688,0.3130553662776947,76.49195861816406,-0.5575544065363246,-0.04968905807293496,-163.5264166529339,-29.92039,9.287691,0.7471173,52.107067,-9.893967,-8.165587,8.298912,-0.5213828,-25.20709,8.306597,-18.948618,1.9176899,3.313176,5.263292,10.7510395,8.53406,21.653858,-27.191763,46.49738,3.8946705,4.5796266,-0.35537,-3.3569963,-31.43969,49.078194,46.62165,10.466457,26.358961,0.33237332
62,-2.544142007827759,0.26082146167755127,76.50315856933594,-0.46672852721547126,-0.0051821117899519846,-163.46108595020797,-30.03601,9.266016,1.4980493,50.810284,-9.474519,-8.055618,8.652764,-0.52479404,-25.270065,7.8036137,-18.826738,2.0446804,3.4600756,5.22792,10.862404,8.701464,21.574787,-27.385262,46.61952,4.0527043,4.625927,-0.46445173,-3.5909956,-31.6888,48.784748,46.42327,10.553296,26.398613,0.084948815
63,-2.735882520675659,0.21257582306861877,76.5053482055664,-0.38481355147663066,0.04403121859140164,-163.3905495278947,-30.120405,9.234045,2.248565,49.41612,-9.038583,-7.9542537,8.823869,-0.60992795,-25.33572,7.734865,-18.939615,2.1767454,3.5983992,5.1973305,10.967475,8.871469,21.499853,-27.589285,46.745247,4.2204924,4.669759,-0.56833696,-3.8132248,-31.93259,48.461533,46.206406,10.64476,26.426945,-0.16746321
64,-2.944911479949951,0.1522710770368576,76.50411987304688,-0.3106339354376346,0.09906515245051133,-163.31243996452025,-30.177444,9.169588,2.9622586,47.946075,-8.602884,-7.8701253,8.997553,-0.687403,-25.40942,7.663367,-19.059278,2.312614,3.7266219,5.170296,11.065713,9.038121,21.429523,-27.801735,46.877575,4.4099402,4.7144165,-0.6771034,-4.0406556,-32.17346,48.141647,45.978207,10.772246,26.443476,-0.42855164
65,-3.1581501960754395,0.087071493268013,76.49685668945312,-0.24493360764171473,0.15958671012816297,-163.22360354669485,-30.204248,9.0737,3.6435578,46.38435,-8.170708,-7.795671,9.17591,-0.7572939,-25.496569,7.588316,-19.187426,2.455962,3.8391428,5.1473517,11.158107,9.202297,21.36403,-28.023724,47.018585,4.638958,4.7644362,-0.7911002,-4.274933,-32.412678,47.825844,45.733543,10.939474,26.44804,-0.69615036
66,-3.380992889404297,0.020184887573122978,76.4825210571289,-0.18815146446704115,0.2252517184118968,-163.12670629661568,-30.198631,8.954651,4.306904,44.72207,-7.7313204,-7.7304163,9.359717,-0.81732637,-25.593758,7.507057,-19.320976,2.6047955,3.9375048,5.129092,11.244324,9.367953,21.303099,-28.254179,47.1655,4.8964214,4.816706,-0.90599775,-4.4993134,-32.649654,47.491978,45.46451,11.1226845,26.440823,-0.9693914
67,-3.602903366088867,-0.05124527961015701,76.45956420898438,-0.14002268112423452,0.29687195818301315,-163.0286494705403,-30.166023,8.804102,4.928836,42.988373,-7.2786837,-7.6918426,9.547197,-0.8658933,-25.690855,7.4161816,-19.454268,2.7529287,4.0310407,5.1153836,11.322833,9.533942,21.246279,-28.487034,47.312553,5.1512256,4.8628707,-1.0249369,-4.7129726,-32.884365,47.14805,45.178074,11.321391,26.421675,-1.2537776
68,-3.836552143096924,-0.1251646876335144,76.43368530273438,-0.10106001696386947,0.375651061203102,-162.93598574439008,-30.115147,8.616642,5.4836526,41.21757,-6.8088484,-7.696156,9.734888,-0.9011926,-25.778282,7.3173637,-19.584856,2.8941782,4.1289363,5.106991,11.39307,9.699403,21.192852,-28.715189,47.45329,5.373645,4.894539,-1.1509615,-4.931824,-33.117138,46.81862,44.89169,11.553162,26.390537,-1.5553648
69,-4.077462196350098,-0.2053975760936737,76.40216827392578,-0.07470057391337524,0.46282258706127205,-162.84965938092745,-30.046543,8.381674,5.9413767,39.384212,-6.325177,-7.7327366,9.924883,-0.9160393,-25.853056,7.2012873,-19.708004,3.0219736,4.23067,5.106807,11.452367,9.866809,21.142443,-28.93478,47.58765,5.5579863,4.902165,-1.295701,-5.1569505,-33.34807,46.505604,44.606594,11.82928,26.34196,-1.8795962
70,-4.317073822021484,-0.2898463308811188,76.36676788330078,-0.06020614801106528,0.5572570709726496,-162.76776180891193,-29.954906,8.111023,6.3207316,37.47658,-5.8254743,-7.794729,10.125456,-0.90867263,-25.920033,7.053903,-19.820065,3.1417081,4.3329997,5.1144385,11.502498,10.035206,21.09513,-29.149982,47.7189,5.719121,4.892562,-1.4537518,-5.3879724,-33.576984,46.204685,44.318935,12.145024,26.277218,-2.2217512
71,-4.566011428833008,-0.37651121616363525,76.3220443725586,-0.05291112669838145,0.6540836023997257,-162.69092424483742,-29.839216,7.831265,6.6674094,35.548954,-5.29587,-7.9053826,10.340055,-0.8865571,-25.98159,6.8781567,-19.917263,3.2643251,4.4356856,5.125893,11.549705,10.204207,21.049587,-29.36109,47.84334,5.860255,4.8824177,-1.6028687,-5.6181397,-33.80311,45.91088,44.027145,12.467029,26.205837,-2.5723038
72,-4.818094253540039,-0.46649253368377686,76.26703643798828,-0.048639588126490024,0.7458276164862063,-162.61868400537026,-29.710093,7.5661154,7.0251775,33.682907,-4.735287,-8.091927,10.540343,-0.87377894,-26.04065,6.7624,-20.047812,3.400193,4.5373397,5.1387095,11.602884,10.370697,21.003538,-29.57053,47.95948,5.983223,4.888366,-1.7205637,-5.8449726,-34.025272,45.622974,43.732475,12.766585,26.138058,-2.9220674
73,-5.070242404937744,-0.5577271580696106,76.20698547363281,-0.06383810834041141,0.8329957811316192,-162.54543720882612,-29.54212,7.3202925,7.4022384,31.815416,-4.087513,-8.422087,10.707523,-0.86310285,-26.101067,6.747266,-20.233335,3.552859,4.6339264,5.1702147,11.661796,10.532097,20.955542,-29.784264,48.06792,6.0876765,4.918152,-1.7996778,-6.079995,-34.244022,45.352627,43.442886,13.052138,26.073284,-3.278955
74,-5.334710121154785,-0.6577157974243164,76.14515686035156,-0.08900482327085474,0.9201423129436633,-162.47777991156076,-29.330486,7.0722203,7.785255,29.912336,-3.3613136,-8.861876,10.880122,-0.84272665,-26.155739,6.7319937,-20.421116,3.7167442,4.730181,5.2096796,11.720143,10.690524,20.905424,-29.998299,48.17173,6.17301,4.9617968,-1.8525707,-6.3050714,-34.45815,45.083744,43.1447,13.318696,26.007542,-3.644465
75,-5.60395622253418,-0.7665176391601562,76.08004760742188,-0.12301084480482437,1.0050408045768076,-162.42451023644813,-29.10268,6.833661,8.154727,28.069437,-2.640715,-9.290612,11.059033,-0.816003,-26.199219,6.715994,-20.605652,3.8870075,4.8366704,5.25484,11.778586,10.845652,20.853151,-30.204935,48.27201,6.2422986,5.009893,-1.8853319,-6.5440416,-34.668007,44.832256,42.858234,13.583166,25.945131,-3.9996033
76,-5.877383232116699,-0.8763313293457031,76.01034545898438,-0.16193918304261207,1.086549072811702,-162.39257916156788,-28.891897,6.6169477,8.493307,26.393682,-2.0167463,-9.586173,11.248107,-0.7873881,-26.22797,6.698204,-20.786268,4.0588927,4.951947,5.2998786,11.833156,11.006472,20.796856,-30.38627,48.368267,6.2994823,5.0526366,-1.9050593,-6.735532,-34.868874,44.541782,42.54705,13.77923,25.891525,-4.326128
77,-6.15943717956543,-0.9933158755302429,75.94014739990234,-0.2033744438425719,1.1651120189831674,-162.37997632991159,-28.709063,6.4273252,8.80659,24.909433,-1.5084202,-9.723763,11.443037,-0.76209974,-26.244652,6.6840076,-20.963348,4.2279863,5.0824165,5.3435683,11.886396,11.165211,20.736746,-30.546131,48.46299,6.3285713,5.086525,-1.9009764,-6.9420795,-35.062325,44.25836,42.25326,13.95787,25.848057,-4.614363
78,-6.443581581115723,-1.1113930940628052,75.86994934082031,-0.24744590503110542,1.242277125175292,-162.38274967002585,-28.545238,6.256747,9.102263,23.578941,-1.0788188,-9.765596,11.64551,-0.73812956,-26.25156,6.6698523,-21.13847,4.397598,5.217701,5.3857813,11.936024,11.326856,20.671875,-30.684029,48.554424,6.3342204,5.116829,-1.8741214,-7.123386,-35.245842,43.9525,41.948734,14.084871,25.81287,-4.8764234
79,-6.736771583557129,-1.2389793395996094,75.79693603515625,-0.2926104678074549,1.3191340361073538,-162.4021927096567,-28.406353,6.0992427,9.3653345,22.418877,-0.73743737,-9.718802,11.852708,-0.7179823,-26.246813,6.655117,-21.309616,4.5748982,5.36292,5.422844,11.979858,11.486447,20.603441,-30.809038,48.64628,6.3468876,5.147801,-1.8458109,-7.2946887,-35.419056,43.645744,41.647846,14.190736,25.783949,-5.124692
80,-7.045811653137207,-1.375506043434143,75.7216567993164,-0.3370969000761968,1.3971512523592373,-162.439695768214,-28.299131,5.9498563,9.5800495,21.447666,-0.49417654,-9.589592,12.0624485,-0.70353967,-26.22849,6.6422215,-21.478413,4.7668023,5.521081,5.451093,12.016441,11.641018,20.533491,-30.928417,48.739937,6.3968115,5.1835175,-1.8379049,-7.479274,-35.581715,43.366974,41.370052,14.311643,25.758507,-5.371439
81,-7.3523759841918945,-1.5115478038787842,75.64575958251953,-0.3832412596898398,1.4744858495489375,-162.4952306033219,-28.220766,5.8192973,9.751782,20.665007,-0.3850524,-9.377448,12.278712,-0.68999934,-26.198149,6.627383,-21.648197,4.9751654,5.6857653,5.4719734,12.045198,11.797206,20.462147,-31.041107,48.837555,6.503905,5.224249,-1.8565924,-7.6193676,-35.729374,43.06274,41.076447,14.3846,25.739117,-5.6105003
82,-7.666022300720215,-1.6529157161712646,75.56818389892578,-0.4283235733193405,1.5528299579006513,-162.5650320634516,-28.177685,5.7058105,9.883719,20.075933,-0.40077525,-9.078023,12.4979315,-0.6818596,-26.159595,6.6140614,-21.818758,5.196331,5.842697,5.4738398,12.065614,11.979782,20.40774,-31.127108,48.911404,6.647873,5.2691255,-1.8931493,-7.7950273,-35.825436,42.79375,40.83905,14.444115,25.722439,-5.840399
83,-7.991611957550049,-1.8004318475723267,75.4907455444336,-0.4629812872405144,1.6386423524538276,-162.6453389612265,-28.191479,5.587354,9.957648,19.71072,-0.4849496,-8.690498,12.712641,-0.692249,-26.11478,6.6048446,-21.983463,5.429237,6.026138,5.463997,12.071919,12.124864,20.335808,-31.226345,49.012417,6.7976255,5.316905,-1.936791,-7.9149823,-35.94072,42.495773,40.56747,14.497385,25.710567,-6.0744104
84,-8.32616901397705,-1.9489185810089111,75.41272735595703,-0.4774416779538726,1.7385397478950726,-162.7322177088864,-28.281845,5.4417367,9.956459,19.595926,-0.5784832,-8.213219,12.918156,-0.7332811,-26.065647,6.5959287,-22.131935,5.6728797,6.2031217,5.4233127,12.057848,12.272082,20.257795,-31.294155,49.100014,6.9289002,5.368602,-1.9879322,-8.022315,-36.050865,42.229996,40.29734,14.573736,25.696337,-6.333833
85,-8.672272682189941,-2.104248523712158,75.33531951904297,-0.46931605281480404,1.856009625363607,-162.82404846467315,-28.459389,5.2617865,9.871406,19.753479,-0.6664716,-7.6451874,13.110207,-0.805715,-26.014925,6.588696,-22.264273,5.928453,6.3693204,5.3407345,12.023128,12.438305,20.189917,-31.3149,49.150764,7.036966,5.4292407,-2.046467,-8.161791,-36.127712,42.022648,40.075535,14.700827,25.674292,-6.6325665
86,-9.022623062133789,-2.2656686305999756,75.26549530029297,-0.44346483386614033,1.9870099656412437,-162.9225342604987,-28.711634,5.0596485,9.714475,20.163252,-0.7771367,-6.9863987,13.291831,-0.90335,-25.962408,6.5841017,-22.384909,6.1966558,6.524569,5.223239,11.968328,12.622769,20.128946,-31.296474,49.173588,7.1349187,5.497011,-2.1146696,-8.265134,-36.17536,41.814087,39.851746,14.812592,25.648348,-6.9582634
87,-9.373979568481445,-2.4288618564605713,75.20834350585938,-0.4036781061444879,2.1261311292395764,-163.0300715940615,-29.020147,4.844232,9.499024,20.783897,-0.9142523,-6.2378335,13.471523,-1.0237256,-25.905006,6.5807614,-22.493952,6.4751887,6.672393,5.0772038,11.894903,12.83069,20.084993,-31.260582,49.15816,7.213334,5.566411,-2.1945252,-8.385835,-36.197594,41.66329,39.66167,14.943913,25.620337,-7.2924833
88,-9.735140800476074,-2.600494623184204,75.15006256103516,-0.3540900926182541,2.266779632598978,-163.1493408586257,-29.369026,4.6238427,9.239515,21.57957,-1.0841855,-5.3987427,13.656308,-1.1662296,-25.838657,6.5792704,-22.590668,6.762012,6.8360147,4.9130836,11.805328,12.980382,20.005945,-31.232138,49.208035,7.291791,5.621798,-2.286795,-8.47139,-36.22991,41.531693,39.44858,15.060997,25.602116,-7.605691
89,-10.110745429992676,-2.776437520980835,75.08833312988281,-0.2943837021173667,2.41534449609988,-163.2829023336119,-29.78812,4.372029,8.858563,22.609926,-1.2460216,-4.368862,13.8400545,-1.3318237,-25.769588,6.5795527,-22.683605,7.05999,6.9836936,4.7261205,11.687511,13.165137,19.94056,-31.186897,49.21781,7.3495255,5.6725583,-2.4094243,-8.552973,-36.247437,41.475708,39.245266,15.190453,25.589394,-7.9310164
90,-10.50212574005127,-2.9694507122039795,75.02420806884766,-0.2302167872271552,2.569113774173812,-163.4308783586834,-30.265276,4.0936728,8.378259,23.85569,-1.3951617,-3.1856375,14.018293,-1.5144471,-25.696283,6.6008534,-22.782618,7.369353,7.1372013,4.519569,11.551859,13.358204,19.887598,-31.132889,49.204456,7.3920813,5.720502,-2.5561566,-8.653989,-36.255302,41.48982,39.06702,15.358586,25.580946,-8.265274
91,-10.899030685424805,-3.169710636138916,74.96068572998047,-0.18726006383328073,2.6999947780393967,-163.5767409404576,-30.743176,3.8590431,7.927258,25.221098,-1.6281995,-2.0573897,14.124302,-1.7285532,-25.616306,6.8743014,-22.9958,7.683521,7.2832003,4.3220515,11.422682,13.553781,19.864882,-31.099339,49.1692,7.399858,5.7592077,-2.6985257,-8.692435,-36.254894,41.495945,38.85616,15.462587,25.571667,-8.560369
92,-11.297670364379883,-3.3726043701171875,74.8917236328125,-0.14299815978941433,2.8048050074624298,-163.73007668857502,-31.1394,3.712276,7.685933,26.526371,-2.0166793,-1.1775912,14.285068,-1.9388832,-25.51027,7.1009035,-23.140495,7.9986873,7.3557477,4.124923,11.312914,13.75401,19.779451,-30.998283,49.16942,7.428205,5.778355,-2.8038895,-8.794357,-36.244217,41.612732,38.67505,15.501739,25.56115,-8.764704
93,-11.709006309509277,-3.582180976867676,74.82379913330078,-0.0958963407751245,2.8909560728370813,-163.89498629802327,-31.438068,3.709289,7.7375503,27.739986,-2.6181114,-0.6320162,14.485576,-2.153489,-25.370146,7.2889795,-23.231113,8.317305,7.430711,3.9171193,11.207437,13.917364,19.685572,-30.936575,49.206043,7.4152765,5.7757273,-2.856298,-8.910327,-36.219227,41.774727,38.51857,15.458157,25.544294,-8.852766
94,-12.118542671203613,-3.7940568923950195,74.76024627685547,-0.04952742138446034,2.963550571662019,-164.06961420072471,-31.675673,3.818613,7.97381,28.940573,-3.3862832,-0.30029956,14.7172365,-2.3714607,-25.20672,7.4535604,-23.280443,8.641372,7.5054407,3.6955557,11.107383,14.077193,19.612453,-30.891653,49.22966,7.3714395,5.757225,-2.8794937,-8.979043,-36.189583,41.933662,38.32875,15.317076,25.525387,-8.853037
95,-12.538249969482422,-4.015200138092041,74.69944763183594,-0.005653527027973036,3.0073987161728715,-164.23734853910904,-31.855345,3.962902,8.258985,30.138802,-4.249235,-0.06912721,14.998084,-2.588647,-25.040949,7.601965,-23.268198,8.966924,7.538412,3.4784129,11.01767,14.218924,19.513824,-30.844402,49.29235,7.3215184,5.7301655,-2.881164,-9.066936,-36.133556,42.14817,38.175087,15.13472,25.505674,-8.808314
96,-12.976651191711426,-4.247099876403809,74.6396255493164,0.03418137207198969,3.0068329327749947,-164.38273095816774,-31.980259,4.0579257,8.460074,31.341166,-5.131841,0.17340553,15.345877,-2.7999952,-24.89209,7.7447996,-23.177046,9.289672,7.548554,3.272633,10.956277,14.331228,19.423496,-30.830894,49.383263,7.2661843,5.70674,-2.875219,-9.110472,-36.063286,42.341248,38.018044,14.919458,25.488836,-8.754456
97,-13.42930793762207,-4.487926006317139,74.5824966430664,0.0818978060034857,2.930661332234942,-164.50592712972104,-32.03088,4.068074,8.553367,32.581585,-6.050129,0.4511885,15.799781,-3.019562,-24.765064,7.8852677,-23.017818,9.614222,7.532759,3.068141,10.953328,14.423041,19.346838,-30.85389,49.498325,7.1867204,5.6844764,-2.8566058,-9.098896,-35.98215,42.513386,37.846992,14.669152,25.474012,-8.696931
98,-13.886775016784668,-4.7298736572265625,74.52745056152344,0.1412670030508274,2.7970472607608867,-164.61522435219615,-32.010624,4.0363297,8.612325,33.842697,-7.029872,0.70647025,16.327492,-3.2595763,-24.649626,8.042363,-22.806307,9.94204,7.4952154,2.8557098,10.993516,14.500566,19.285145,-30.904282,49.6271,7.0848117,5.6596446,-2.8229551,-9.027358,-35.893665,42.66487,37.649803,14.364187,25.460396,-8.616919
99,-14.35051441192627,-4.977217674255371,74.47476196289062,0.19963942662620626,2.6651959880601837,-164.7087930111806,-31.956999,3.9879951,8.654971,35.04653,-8.007138,0.92817444,16.623575,-3.6119397,-24.526312,8.749287,-22.796576,10.266992,7.436519,2.646353,11.020156,14.552424,19.231586,-30.970688,49.77146,7.0020895,5.6405964,-2.78955,-8.917854,-35.791153,42.79673,37.447624,14.020529,25.450588,-8.517965
100,-14.808158874511719,-5.224425792694092,74.42562866210938,0.24301182869248705,2.5954688121579554,-164.78458158321544,-31.911581,3.9480934,8.7002945,36.117775,-8.918378,1.1050438,16.333122,-4.184292,-24.364208,10.648617,-23.295946,10.583998,7.360368,2.4523873,10.978613,14.571074,19.186737,-31.04305,49.922955,6.9804206,5.6360774,-2.7731235,-8.773165,-35.680023,42.895023,37.238323,13.648781,25.448383,-8.403079
101,-15.270297050476074,-5.47495174407959,74.37992095947266,0.2714321518623227,2.6099540484309034,-164.84427697040064,-31.895046,3.918308,8.760743,37.041035,-9.750891,1.2092712,15.93326,-4.737105,-24.19773,12.573436,-23.708525,10.896461,7.269848,2.2709284,10.846591,14.5544615,19.150156,-31.12142,50.084435,7.0455103,5.646457,-2.7799857,-8.58398,-35.56,42.944466,37.008316,13.225878,25.460032,-8.261989
102,-15.731271743774414,-5.724269866943359,74.33942413330078,0.29726774789699006,2.6777380338047783,-164.89062507109148,-31.886549,3.879289,8.83489,37.854156,-10.535255,1.2559475,15.445602,-5.293041,-24.024668,14.563182,-24.058895,11.209336,7.166087,2.0908642,10.65361,14.505888,19.122301,-31.21099,50.25848,7.171035,5.6677628,-2.8006907,-8.3541155,-35.431896,42.95717,36.762066,12.758448,25.48144,-8.096162
103,-16.191255569458008,-5.981119632720947,74.30670928955078,0.32891372351944326,2.7801246726630406,-164.92461399198947,-31.861471,3.8199887,8.925548,38.555573,-11.272234,1.2997077,14.879648,-5.866343,-23.829002,16.632631,-24.31995,11.512063,7.0485797,1.9095318,10.420239,14.42421,19.100807,-31.308964,50.440983,7.3180256,5.701738,-2.8278544,-8.095245,-35.29736,42.954224,36.519318,12.291677,25.501225,-7.9278703
104,-16.65700912475586,-6.248538017272949,74.28192901611328,0.3741607340359161,2.8976269371312133,-164.94692617996577,-31.795912,3.7294035,9.033426,39.145893,-11.963494,1.3956287,14.253496,-6.4679775,-23.596216,18.779003,-24.453568,11.795482,6.916137,1.7245564,10.167139,14.308487,19.081322,-31.411327,50.62942,7.4492574,5.7503695,-2.8538916,-7.8261437,-35.15962,42.962894,36.305737,11.874376,25.50838,-7.7790036
105,-17.11646270751953,-6.513514518737793,74.26734924316406,0.43071677604710373,3.0375208186396025,-164.95382240907415,-31.696379,3.6073053,9.158705,39.61751,-12.600655,1.5638072,13.575387,-7.088716,-23.335293,20.97547,-24.457106,12.07172,6.765848,1.5384253,9.886038,14.14958,19.06029,-31.527643,50.83787,7.5480638,5.8136067,-2.8753586,-7.5460644,-35.020267,42.993225,36.11863,11.509538,25.506702,-7.6699195
106,-17.58192253112793,-6.785896301269531,74.26456451416016,0.49477199202006106,3.2060960771252063,-164.94562628828058,-31.575586,3.4569252,9.300555,39.97672,-13.186156,1.7758112,12.842611,-7.7177787,-23.049124,23.211386,-24.339748,12.346149,6.597906,1.354403,9.569684,13.9488,19.036243,-31.65595,51.067474,7.637803,5.8903503,-2.8962862,-7.250621,-34.87981,43.034306,35.949585,11.177779,25.500408,-7.584131
107,-18.046829223632812,-7.07180643081665,74.27513122558594,0.5730428575260856,3.382192661224847,-164.93090933874788,-31.411816,3.2736502,9.457654,40.231655,-13.731462,2.0078094,12.044225,-8.3686905,-22.707403,25.532652,-24.087635,12.594443,6.415711,1.1707989,9.240846,13.7205515,19.007814,-31.7745,51.295246,7.74052,5.9807615,-2.9205387,-6.9456277,-34.738808,43.07663,35.80849,10.890116,25.479816,-7.489342
108,-18.513845443725586,-7.360779285430908,74.29685974121094,0.6742140198777977,3.5455218277684972,-164.9181855525463,-31.183756,3.0528529,9.629936,40.394245,-14.251408,2.235501,11.17139,-9.055673,-22.278816,27.976906,-23.685497,12.791033,6.2222333,0.9832181,8.922313,13.479226,18.974129,-31.860342,51.497574,7.8788753,6.08489,-2.9522223,-6.6441317,-34.598286,43.1166,35.709915,10.663618,25.435223,-7.3532944
109,-18.980443954467773,-7.6518378257751465,74.32684326171875,0.8000351001523842,3.690803093045989,-164.90854508211225,-30.874268,2.7947922,9.82069,40.455177,-14.751137,2.4545243,10.238512,-9.781184,-21.758724,30.537395,-23.122768,12.958686,6.012761,0.79429144,8.616074,13.228566,18.932331,-31.911655,51.6742,8.061446,6.2148275,-3.003328,-6.346179,-34.45872,43.156063,35.661392,10.514689,25.352438,-7.1619763
110,-19.449649810791016,-7.9511613845825195,74.36497497558594,0.9445671179340746,3.82852007022417,-164.8972320247542,-30.498138,2.5030084,10.0249195,40.41316,-15.223427,2.6764023,9.247372,-10.529673,-21.159393,33.186172,-22.40244,13.10209,5.786349,0.60716105,8.310648,12.9593525,18.88141,-31.938564,51.838337,8.275997,6.3662047,-3.0679595,-6.0486827,-34.320858,43.19866,35.655956,10.432145,25.240984,-6.934599
111,-19.919715881347656,-8.253914833068848,74.4088363647461,1.106117927120898,3.9623770154641162,-164.88406454046506,-30.076904,2.1791291,10.231281,40.286648,-15.66498,2.8987126,8.16884,-11.290419,-20.47398,35.929718,-21.52662,13.169624,5.5526576,0.41760033,8.00881,12.669743,18.825321,-31.934914,51.98364,8.513829,6.514645,-3.124101,-5.746767,-34.184273,43.234413,35.67553,10.38395,25.125404,-6.68901
112,-20.384685516357422,-8.557459831237793,74.4607925415039,1.2831174372989858,4.096065999675879,-164.8690742101425,-29.631708,1.8243203,10.428949,40.093437,-16.071987,3.1182227,6.975975,-12.050774,-19.69785,38.768528,-20.49155,13.111698,5.321844,0.21952005,7.7134647,12.359124,18.771992,-31.895824,52.1008,8.764059,6.6360717,-3.1497786,-5.435813,-34.048073,43.252388,35.701706,10.336741,25.030348,-6.44291
113,-20.854345321655273,-8.867252349853516,74.51709747314453,1.4768196699928398,4.2406564601333665,-164.85075203556207,-29.170906,1.4347391,10.614767,39.831074,-16.443954,3.3333166,5.6491566,-12.812526,-18.828743,41.717342,-19.21555,12.944292,5.0956464,0.010289644,7.410667,12.032727,18.726719,-31.820852,52.187366,9.06767,6.724788,-3.1390045,-5.1088824,-33.91243,43.25023,35.737827,10.301425,24.95547,-6.201377
114,-21.314720153808594,-9.16887378692627,74.57730865478516,1.6855596704878153,4.390733207458833,-164.8291354614033,-28.679256,1.0136201,10.790739,39.492645,-16.7846,3.541246,4.2053967,-13.571332,-17.870636,44.76237,-17.718214,12.687851,4.8697877,-0.20554978,7.10429,11.692291,18.691198,-31.713188,52.241123,9.414761,6.794009,-3.1045504,-4.768914,-33.777172,43.2317,35.78788,10.289652,24.890152,-5.954818
115,-21.781604766845703,-9.463815689086914,74.64373779296875,1.9035119059584051,4.52604524515411,-164.80698883210715,-28.139954,0.5720783,10.954186,39.082417,-17.09333,3.7375467,2.6720603,-14.308103,-16.832735,47.86675,-16.14821,12.300433,4.6447096,-0.4256958,6.8228054,11.335163,18.668997,-31.571365,52.250927,9.71877,6.84851,-3.052065,-4.424508,-33.641552,43.192764,35.837547,10.26281,24.84252,-5.698407
116,-22.24513053894043,-9.74858283996582,74.7181167602539,2.1251847155590142,4.6262437523514786,-164.7873131054757,-27.539612,0.120844945,11.1023,38.60855,-17.370657,3.9197135,1.0756152,-15.00817,-15.726696,51.00141,-14.657631,11.738795,4.420872,-0.64843345,6.5953164,10.960091,18.664995,-31.393768,52.20328,9.893619,6.8929505,-2.9875295,-4.08118,-33.50384,43.12726,35.869595,10.180864,24.82084,-5.427313
117,-22.69720458984375,-10.037541389465332,74.79841613769531,2.3547779278413756,4.6828838046074255,-164.77084708268438,-26.860727,-0.34932706,11.229852,38.04871,-17.6068,4.0825357,-0.59953886,-15.709089,-14.575214,54.243217,-13.182803,10.965594,4.198067,-0.879453,6.434481,10.5706,18.681627,-31.168419,52.081795,9.924453,6.9385424,-2.9160557,-3.740407,-33.36276,43.028664,35.87743,10.011045,24.836845,-5.1183653
118,-23.152708053588867,-10.319596290588379,74.87843322753906,2.5937407628350577,4.7077555436382585,-164.756167648775,-26.11356,-0.840438,11.33831,37.4052,-17.803846,4.2269692,-2.3639634,-16.408228,-13.371776,57.58294,-11.671166,10.005863,3.9761155,-1.1199857,6.323472,10.168644,18.72031,-30.900286,51.89351,9.853876,6.979608,-2.833782,-3.4001915,-33.21812,42.90251,35.872395,9.781363,24.882032,-4.780865
119,-23.604860305786133,-10.587966918945312,74.9601058959961,2.8334886163401785,4.710169108881169,-164.74436794049086,-25.326849,-1.3316754,11.438105,36.722866,-17.978395,4.362717,-4.1823845,-17.019058,-12.085351,60.864597,-10.294923,8.915169,3.757345,-1.3632838,6.248562,9.752606,18.784845,-30.612766,51.657692,9.682461,6.994903,-2.732987,-3.062861,-33.06935,42.761414,35.863724,9.544712,24.93408,-4.4591374
120,-24.050783157348633,-10.855076789855957,75.04109954833984,3.0578688777813943,4.69914894122057,-164.73392746928613,-24.531233,-1.7962769,11.534288,36.048634,-18.148623,4.5005527,-6.0127954,-17.437458,-10.691058,63.9344,-9.222451,7.758368,3.5421162,-1.5945871,6.195993,9.321143,18.88036,-30.330488,51.392406,9.409811,6.9630218,-2.6064587,-2.7290125,-32.91517,42.61644,35.859657,9.353864,24.971733,-4.1980357
121,-24.49371910095215,-11.11424446105957,75.11943054199219,3.2707106187147867,4.673901695699195,-164.72900809266304,-23.726358,-2.2343569,11.641028,35.38113,-18.312202,4.6532707,-7.9008355,-17.63077,-9.124868,66.869,-8.486441,6.342522,3.3378885,-1.8203202,6.1706166,8.873335,19.010736,-30.051744,51.088783,9.003987,6.8738847,-2.4480383,-2.397012,-32.754467,42.458393,35.855026,9.207826,24.99575,-3.997426
122,-24.939023971557617,-11.363738059997559,75.1953125,3.4750698231710926,4.630247267872792,-164.72777047623896,-22.903803,-2.655285,11.749694,34.707973,-18.464914,4.8132315,-9.845441,-17.627966,-7.432349,69.72688,-7.9924216,4.7123284,3.141344,-2.0437307,6.177855,8.413455,19.177292,-29.76754,50.736324,8.475159,6.7395515,-2.2648175,-2.0659719,-32.586758,42.284077,35.847878,9.082507,25.015657,-3.8371625
123,-25.38364028930664,-11.607705116271973,75.26206970214844,3.656480632087778,4.5720489089354075,-164.72155362370464,-22.079416,-3.0472965,11.835114,34.05378,-18.619099,4.9618745,-11.730923,-17.426355,-5.741792,72.34067,-7.741218,3.2965367,2.9394572,-2.2481935,6.2049227,7.94918,19.380318,-29.49017,50.35073,7.8872538,6.5718527,-2.0696235,-1.7449161,-32.41233,42.118183,35.857304,9.000287,25.023752,-3.7331183
124,-25.822330474853516,-11.8399658203125,75.32121276855469,3.798631258848895,4.503181572153616,-164.70395493907571,-21.264341,-3.3960707,11.873293,33.43873,-18.787188,5.0805,-13.438726,-17.042713,-4.1720796,74.544975,-7.756437,2.5197163,2.7203026,-2.4149935,6.2390294,7.488268,19.618786,-29.2316,49.94819,7.304179,6.3831344,-1.8745867,-1.4417722,-32.230682,41.985367,35.900517,8.983399,25.012257,-3.7010484
125,-26.2607479095459,-12.06773567199707,75.3794174194336,3.899191613749175,4.425745560636373,-164.67573915669954,-20.46768,-3.6970134,11.86093,32.87331,-18.974676,5.1665883,-14.91176,-16.445673,-2.711955,76.26997,-8.243466,2.6376894,2.479298,-2.5409307,6.2756157,7.026997,19.894821,-29.00526,49.53301,6.7190356,6.160251,-1.6918805,-1.1651052,-32.040867,41.897976,35.98486,9.053103,24.977167,-3.766707
126,-26.694589614868164,-12.288232803344727,75.43611145019531,3.968701336829963,4.336337260789458,-164.63933569562437,-19.679598,-3.9602442,11.812854,32.343254,-19.173595,5.23167,-16.213459,-15.675418,-1.3204577,77.64129,-9.164561,3.3575869,2.2220142,-2.638656,6.3228016,6.5657096,20.208876,-28.800776,49.09481,6.106159,5.901953,-1.5133412,-0.9094611,-31.842108,41.841503,36.102325,9.190633,24.923105,-3.9144144
127,-27.142772674560547,-12.497798919677734,75.4964370727539,4.011886956475787,4.230913846711429,-164.58857129112815,-18.884,-4.1944323,11.731853,31.829353,-19.373016,5.2781477,-17.417936,-14.85617,-0.06025996,78.78075,-10.175036,4.283833,1.9500699,-2.7136643,6.3866806,6.1152754,20.554823,-28.593893,48.631557,5.5010324,5.6383815,-1.3189003,-0.6670508,-31.634306,41.804226,36.25062,9.364731,24.854633,-4.09798
128,-27.59576988220215,-12.705856323242188,75.55684661865234,4.031011498763002,4.106269256777964,-164.5185761927827,-18.06727,-4.40533,11.620477,31.316244,-19.563404,5.307842,-18.604599,-14.086888,1.0266534,79.79751,-10.909966,5.0428176,1.6655116,-2.7682474,6.471658,5.683499,20.92225,-28.360003,48.146526,4.9398355,5.3993993,-1.0868454,-0.42938688,-31.417881,41.7745,36.428158,9.542465,24.777222,-4.271319
129,-28.04299545288086,-12.910888671875,75.61894989013672,4.015057997169744,3.9634589627940837,-164.4270257349294,-17.23758,-4.5802326,11.475145,30.819895,-19.750343,5.3189564,-19.801765,-13.352444,1.9461315,80.70813,-11.244152,5.5969925,1.3673445,-2.7898324,6.5743814,5.260539,21.305264,-28.103777,47.652836,4.405389,5.184154,-0.79036266,-0.19949882,-31.194202,41.763027,36.645103,9.748569,24.675777,-4.45104
130,-28.49374771118164,-13.118783950805664,75.68212890625,3.966902704420457,3.804026962476872,-164.31719235875215,-16.399853,-4.719485,11.297819,30.34448,-19.93745,5.312765,-20.97199,-12.621281,2.7260633,81.45072,-11.374774,6.125459,1.0544726,-2.7800295,6.692883,4.8406434,21.702374,-27.834936,47.15476,3.8885942,4.9784274,-0.44631293,0.02191897,-30.96338,41.771072,36.89803,9.987714,24.552782,-4.6519065
131,-28.947633743286133,-13.319681167602539,75.7444839477539,3.9076637544331243,3.6252665872901466,-164.19299270076962,-15.533931,-4.849233,11.098172,29.85216,-20.11012,5.2955084,-22.100763,-11.94573,3.369943,82.01544,-11.402839,6.593111,0.7300256,-2.7617826,6.832425,4.4366446,22.109125,-27.53691,46.645462,3.4389298,4.792547,-0.09692942,0.2381877,-30.725506,41.778698,37.172874,10.202995,24.440598,-4.8252206
132,-29.41039276123047,-13.525917053222656,75.80738830566406,3.858589759784141,3.424482049654747,-164.0585390485213,-14.62145,-4.99446,10.884998,29.30903,-20.256105,5.2730365,-23.175533,-11.379331,3.881727,82.39499,-11.431365,6.962767,0.3972862,-2.7575552,6.998172,4.0598817,22.51919,-27.19214,46.1198,3.105881,4.6381326,0.21602854,0.4513266,-30.480745,41.767433,37.4554,10.340406,24.371735,-4.9230747
133,-29.867652893066406,-13.728607177734375,75.87068939208984,3.8197583358239435,3.1954258975943297,-163.91390988467566,-13.65293,-5.1563683,10.65538,28.71086,-20.3754,5.246128,-24.197285,-10.943579,4.25129,82.58602,-11.471334,7.2058277,0.053233597,-2.7670481,7.1953444,3.7121675,22.928135,-26.792078,45.5812,2.9323668,4.526271,0.48867807,0.6608802,-30.229193,41.73709,37.746815,10.376721,24.359428,-4.926458
134,-30.322338104248047,-13.938093185424805,75.93450164794922,3.7817875860305064,2.9416450484186383,-163.75726515913863,-12.640089,-5.323237,10.4059925,28.075052,-20.474274,5.213626,-25.176798,-10.613718,4.4860263,82.58946,-11.4686985,7.3455377,-0.30284193,-2.7806203,7.4184823,3.383148,23.334854,-26.347399,45.03896,2.8827124,4.44932,0.7427834,0.8649867,-29.971893,41.696922,38.055954,10.345159,24.385265,-4.8635454
135,-30.77654457092285,-14.14148235321045,75.99461364746094,3.7509185623265076,2.6750177694875124,-163.59003895274518,-11.59324,-5.5003805,10.1435,27.395256,-20.546495,5.177589,-26.113342,-10.374429,4.6146927,82.40075,-11.432754,7.422404,-0.6628942,-2.804984,7.657202,3.066252,23.738173,-25.871021,44.49531,2.8867161,4.3918543,0.9749923,1.0708965,-29.708948,41.638668,38.36943,10.272166,24.435,-4.757236
136,-31.24276351928711,-14.352728843688965,76.05680084228516,3.733580279937136,2.4073293858094518,-163.41341614280807,-10.52194,-5.6927423,9.8740635,26.663214,-20.584774,5.1387773,-27.004223,-10.210238,4.6653075,82.0148,-11.373653,7.4779863,-1.0179799,-2.8471124,7.900451,2.752994,24.137285,-25.377634,43.95408,2.8737438,4.3378987,1.182031,1.282613,-29.441662,41.555386,38.67911,10.186805,24.494678,-4.6303086
137,-31.706554412841797,-14.562858581542969,76.12057495117188,3.7346620563501376,2.1294920034783527,-163.23127818400033,-9.405038,-5.906998,9.5991955,25.857124,-20.578173,5.0965996,-27.842607,-10.136083,4.6283083,81.42601,-11.289975,7.518442,-1.3629869,-2.91346,8.158322,2.4441872,24.530264,-24.85294,43.407562,2.8408175,4.2885413,1.3540359,1.5056001,-29.17011,41.435978,38.980225,10.066328,24.572159,-4.464041
138,-32.15807342529297,-14.756187438964844,76.17565155029297,3.7485191650157437,1.839279984068719,-163.0415615189004,-8.243726,-6.136543,9.3132715,24.985184,-20.532192,5.049443,-28.629843,-10.152845,4.4930773,80.63653,-11.178258,7.5251136,-1.7023656,-2.9979663,8.431624,2.1403775,24.916357,-24.296635,42.86015,2.8199964,4.2505755,1.4962581,1.7366004,-28.894741,41.28748,39.277916,9.906759,24.670744,-4.254004
139,-32.61580276489258,-14.955198287963867,76.22239685058594,3.7662102241876134,1.5590014001687376,-162.83759169763198,-7.085255,-6.365594,9.012979,24.093447,-20.466589,4.9962463,-29.376417,-10.224912,4.285289,79.65463,-11.045635,7.500834,-2.0418925,-3.0882103,8.695929,1.8356779,25.29716,-23.743412,42.331005,2.7944639,4.2159886,1.6276628,1.9757373,-28.617489,41.12231,39.56995,9.756171,24.77017,-4.0451193
140,-33.07967758178711,-15.15497875213623,76.26763916015625,3.7788580123680906,1.310830049409199,-162.61208659257633,-5.9703164,-6.580258,8.69518,23.212784,-20.39899,4.9368615,-30.090284,-10.317214,4.030431,78.482994,-10.899517,7.4487877,-2.3861864,-3.1722348,8.92704,1.5228459,25.675354,-23.230303,41.839256,2.746789,4.1766706,1.7673125,2.2226067,-28.342701,40.95175,39.856594,9.664083,24.850288,-3.882314
141,-33.540008544921875,-15.34896469116211,76.3095932006836,3.7829461022044164,1.1007902748360447,-162.35612898928463,-4.9133835,-6.7767677,8.356484,22.356432,-20.333809,4.8703284,-30.777903,-10.432607,3.7136347,77.124146,-10.75628,7.361351,-2.7426362,-3.2439554,9.118435,1.198589,26.052505,-22.766695,41.388176,2.6863854,4.1368275,1.9257002,2.4829123,-28.072958,40.77013,40.12964,9.657059,24.910606,-3.782418
142,-34.0127067565918,-15.541187286376953,76.34758758544922,3.7824913809314173,0.9170300263268562,-162.07579565218612,-3.8911104,-6.9611907,7.9994583,21.505632,-20.262539,4.797137,-31.427868,-10.581392,3.3244336,75.5721,-10.609598,7.243756,-3.1052446,-3.3095129,9.283846,0.8662299,26.428175,-22.335236,40.96669,2.6174262,4.098624,2.0908597,2.7597628,-27.809692,40.570354,40.386642,9.702684,24.960592,-3.7196808
143,-34.48371124267578,-15.734091758728027,76.37297058105469,3.7813313846715775,0.75554781869988,-161.78608900355403,-2.8945675,-7.1344423,7.6319213,20.657543,-20.183655,4.719373,-32.02602,-10.742092,2.8963313,73.82569,-10.428103,7.1168623,-3.4585245,-3.3729944,9.431569,0.52827543,26.80185,-21.931995,40.57,2.513542,4.050908,2.247862,3.0478985,-27.553873,40.36541,40.629543,9.768765,24.99638,-3.6755662
144,-34.94845199584961,-15.934510231018066,76.3919448852539,3.783246808829309,0.612084967184831,-161.50233580285965,-1.9159257,-7.2976103,7.2619667,19.811768,-20.09688,4.6390657,-32.560802,-10.889986,2.462999,71.8851,-10.180455,7.0004563,-3.7870584,-3.4390824,9.569325,0.18762627,27.17284,-21.55279,40.193687,2.3486369,3.9823334,2.3817332,3.342287,-27.306128,40.167828,40.86184,9.820941,25.013739,-3.6316473
145,-35.41064453125,-16.120872497558594,76.41072845458984,3.7851491920219407,0.48809257665028344,-161.22351814460538,-0.9615908,-7.4452014,6.8865404,18.976812,-20.00377,4.5515575,-33.032864,-11.019162,2.018065,69.74018,-9.875007,6.886912,-4.0921254,-3.5039775,9.697542,-0.15949754,27.54169,-21.195728,39.83928,2.0936368,3.882124,2.4827685,3.6420512,-27.066622,39.979424,41.08403,9.85056,25.00648,-3.5842018
146,-35.88289260864258,-16.300024032592773,76.42406463623047,3.7860146583637206,0.3851719369285648,-160.94313291853882,-0.033756696,-7.5780416,6.5037384,18.15147,-19.905073,4.457363,-33.4429,-11.139038,1.5448481,67.39085,-9.523788,6.772423,-4.380777,-3.5658937,9.813083,-0.51205426,27.908617,-20.862337,39.506824,1.7700505,3.7587032,2.5603027,3.9478307,-26.835346,39.796345,41.294907,9.877327,24.97842,-3.542606
147,-36.359840393066406,-16.490150451660156,76.42923736572266,3.793824720661173,0.29895467652827307,-160.66858938282002,0.8834609,-7.707189,6.122914,17.31657,-19.795885,4.365749,-33.779728,-11.243527,1.0632048,64.845406,-9.09716,6.6842737,-4.6471057,-3.6332464,9.917436,-0.8588974,28.27137,-20.551275,39.189533,1.4290208,3.6300662,2.6282177,4.2619514,-26.612461,39.61783,41.493145,9.904343,24.940947,-3.508253
148,-36.84622573852539,-16.676965713500977,76.43134307861328,3.816555072238102,0.22485646104820864,-160.40717112942693,1.8052313,-7.8435087,5.7531743,16.454847,-19.672316,4.2851524,-34.032124,-11.330268,0.59402037,62.10875,-8.56414,6.6481905,-4.8847976,-3.714021,10.011856,-1.1903197,28.626379,-20.261873,38.88295,1.1221825,3.5140781,2.7009456,4.580465,-26.398916,39.447456,41.681915,9.940057,24.905462,-3.4826856
149,-37.333744049072266,-16.86628532409668,76.42804718017578,3.855188750828335,0.16163320555747746,-160.1632194746335,2.7364197,-7.9885135,5.3987885,15.560587,-19.533674,4.217093,-34.192684,-11.437155,0.08924875,59.15886,-7.9109006,6.6458025,-5.0903535,-3.807712,10.096143,-1.5064433,28.970366,-19.994379,38.590656,0.8465154,3.409266,2.7898533,4.9082136,-26.195597,39.28277,41.857693,9.994141,24.869835,-3.4718156
150,-37.82332992553711,-17.053749084472656,76.41531372070312,3.9051893928376575,0.1115810451819653,-159.93143894394953,3.672176,-8.136272,5.053313,14.636271,-19.379738,4.1551075,-34.26272,-11.544648,-0.44904307,55.98917,-7.150815,6.676663,-5.2678576,-3.9082952,10.169582,-1.8151622,29.302694,-19.750238,38.31782,0.5807852,3.3079307,2.8853304,5.2438674,-26.003136,39.124477,42.0217,10.062088,24.829674,-3.473126
151,-38.31343078613281,-17.235595703125,76.39339447021484,3.9670235243548113,0.07530880389180312,-159.7050248494896,4.605445,-8.287456,4.7104974,13.693294,-19.209955,4.096169,-34.2506,-11.571073,-0.91680217,52.62925,-6.295494,6.784404,-5.4244843,-4.0169024,10.2325735,-2.1134732,29.623556,-19.526648,38.056526,0.35063925,3.2188764,2.9701982,5.5860543,-25.820759,38.971916,42.174095,10.118294,24.793625,-3.4748735
152,-38.8118896484375,-17.422075271606445,76.36415100097656,4.042201865732752,0.053245918853561836,-159.47655696295027,5.5356574,-8.444374,4.3625946,12.729305,-19.01921,4.0386667,-34.16742,-11.452052,-1.2001868,49.106182,-5.3517923,7.0016046,-5.5689497,-4.13555,10.285607,-2.3958707,29.933517,-19.318895,37.797413,0.18184796,3.1510375,3.0271919,5.938329,-25.645544,38.821625,42.31128,10.133203,24.770046,-3.465566
153,-39.310123443603516,-17.6068172454834,76.32926940917969,4.129799457233378,0.051166581267374237,-159.2484369989762,6.4572973,-8.606123,4.0113697,11.739752,-18.802961,3.986787,-34.013233,-11.197754,-1.2828989,45.360615,-4.285346,7.2498226,-5.698985,-4.263578,10.327365,-2.664258,30.232513,-19.121046,37.537743,0.09416293,3.1112142,3.0475087,6.2955995,-25.47575,38.673756,42.4346,10.088909,24.764322,-3.441383
154,-39.823097229003906,-17.792261123657227,76.28744506835938,4.231797540324866,0.06504504546892562,-159.0201142353434,7.382864,-8.775613,3.6553016,10.710052,-18.557861,3.9411325,-33.77252,-10.864109,-1.2067943,41.375725,-3.095007,7.5224624,-5.814911,-4.402506,10.359421,-2.919526,30.520689,-18.935997,37.281433,0.069441095,3.0934427,3.0417888,6.655594,-25.310764,38.531525,42.548294,10.005748,24.77078,-3.4090734
155,-40.337100982666016,-17.969213485717773,76.23609924316406,4.357713717136533,0.0787445087701048,-158.77901997545456,8.325112,-8.963083,3.2826602,9.657475,-18.294369,3.8961322,-33.4308,-10.4754925,-0.9340182,37.236435,-1.8395959,7.9518194,-5.929645,-4.5635123,10.386324,-3.155495,30.80015,-18.77352,37.03094,0.0768381,3.0875278,3.021889,7.026215,-25.149485,38.393852,42.65415,9.906554,24.78138,-3.3724077
156,-40.85893630981445,-18.15430450439453,76.17265319824219,4.517205195513305,0.07421390899789755,-158.50830713655597,9.310292,-9.179368,2.8753252,8.573471,-18.010628,3.8463073,-32.96214,-10.06077,-0.42885587,33.005547,-0.56781054,8.670148,-6.0590577,-4.7587123,10.414228,-3.3654518,31.07403,-18.64412,36.787212,0.085554376,3.0835109,2.9995017,7.4096193,-24.991798,38.26299,42.76017,9.820196,24.787958,-3.3356035
157,-41.390045166015625,-18.333526611328125,76.08806610107422,4.732799323155764,0.033144091876861105,-158.1962100381091,10.3201685,-9.448512,2.4258249,7.54232,-17.75676,3.7914383,-32.26475,-9.619839,0.37549594,28.469107,0.8072025,9.883942,-6.215366,-5.013001,10.45357,-3.542223,31.345201,-18.547552,36.54319,0.10143949,3.084426,2.9712112,7.8183317,-24.837511,38.132957,42.855007,9.744364,24.79064,-3.3081179
158,-41.93240737915039,-18.51356315612793,75.97817993164062,5.013160988329322,-0.05076557183367566,-157.82859491096414,10.937132,-9.762528,1.9886907,7.449745,-17.996548,3.7340088,-31.302141,-9.2398405,1.4510905,23.548182,2.3121345,11.439192,-6.411281,-5.337659,10.511918,-3.6905234,31.616203,-18.480526,36.298573,0.13448685,3.0942457,2.9315119,8.246542,-24.687246,38.00662,42.939537,9.670822,24.793446,-3.2854311
159,-42.49237823486328,-18.70186424255371,75.84747314453125,5.351166825136494,-0.17868149932389468,-157.38744757296536,11.603008,-10.133349,1.4699514,7.3640885,-18.225637,3.6836002,-30.175034,-9.055753,2.6753328,18.562353,3.7981904,12.948658,-6.6644416,-5.72803,10.591674,-3.8137422,31.889063,-18.442352,36.05715,0.16246067,3.1043923,2.8884234,8.686006,-24.538748,37.889706,43.02119,9.604495,24.794348,-3.2494657
160,-43.05449295043945,-18.89266586303711,75.70458221435547,5.723173168384826,-0.3358778997032849,-156.87493322330582,12.294038,-10.526812,0.86917984,7.2929006,-18.436087,3.6436706,-29.053015,-9.118518,3.9098763,13.931712,5.0968733,14.050752,-6.972546,-6.1610184,10.6840725,-3.9183102,32.164707,-18.434395,35.825512,0.16162786,3.1059337,2.8511865,9.120603,-24.388052,37.791527,43.115753,9.553816,24.790731,-3.18257
161,-43.634315490722656,-19.075082778930664,75.55962371826172,6.106834128536407,-0.5060945636912652,-156.31527947866994,12.99263,-10.917633,0.20534226,7.2379146,-18.63369,3.614021,-27.991392,-9.35154,5.2691655,9.674217,6.217742,14.692921,-7.313716,-6.614825,10.779425,-4.0061297,32.444054,-18.455902,35.60041,0.12332434,3.0973742,2.824815,9.545966,-24.231308,37.711483,43.22851,9.51599,24.777185,-3.0755794
162,-44.211483001708984,-19.250770568847656,75.40841674804688,6.492917018289384,-0.6833080408383194,-155.72515987488694,13.695728,-11.295293,-0.5016845,7.193478,-18.821451,3.5894082,-27.338234,-9.636183,6.809292,6.465796,6.794978,15.000033,-7.671721,-7.0792313,10.872312,-4.0718036,32.725834,-18.505095,35.377647,0.06113385,3.0829196,2.8048239,9.957839,-24.067156,37.651913,43.363846,9.493687,24.755646,-2.9396236
163,-44.786705017089844,-19.422683715820312,75.26116943359375,6.848874348256088,-0.8367241086879467,-155.13470246738115,14.365021,-11.6164,-1.2052654,7.1654367,-18.99219,3.5555437,-28.026497,-9.7534485,8.384024,6.3297153,5.8036637,15.000033,-8.016757,-7.513423,10.939153,-4.1160097,33.003998,-18.581839,35.1694,-0.017446782,3.0615819,2.7882938,10.351325,-23.895218,37.61225,43.52951,9.482691,24.73293,-2.7860737
164,-45.360408782958984,-19.602313995361328,75.12287139892578,7.15664432629028,-0.9418130955607816,-154.56218746484467,14.970554,-11.865839,-1.8696295,7.1539874,-19.139254,3.506256,-28.58949,-9.886423,9.482318,6.2367253,4.877273,15.000033,-8.3264065,-7.8851924,10.960272,-4.1436086,33.27001,-18.68889,34.991154,-0.103363805,3.0323007,2.7722206,10.709633,-23.71689,37.601692,43.742302,9.494307,24.716413,-2.626606
165,-45.93003845214844,-19.778533935546875,74.99543762207031,7.405766576089962,-0.9790403436918946,-154.02282290636185,15.490394,-12.031786,-2.461944,7.1647305,-19.271872,3.4264348,-29.042526,-10.044326,9.915717,6.2008553,3.9074972,14.611579,-8.586078,-8.179526,10.918783,-4.1610494,33.519203,-18.837269,34.850292,-0.20135324,2.9930916,2.7601986,11.035784,-23.533169,37.62156,44.009125,9.554037,24.701164,-2.4786997
166,-46.501808166503906,-19.954082489013672,74.8789291381836,7.599015759681779,-0.9514602547032859,-153.51743050083323,15.929535,-12.125435,-2.9861937,7.1953,-19.392479,3.320897,-29.406668,-10.2037945,9.886086,6.210284,2.9098477,13.852853,-8.794323,-8.400647,10.820341,-4.170734,33.749256,-19.02476,34.7449,-0.31063464,2.9444566,2.7538497,11.330684,-23.34463,37.66791,44.326103,9.652524,24.6854,-2.3310926
167,-47.0775146484375,-20.124780654907227,74.77565002441406,7.736970710927995,-0.8723822652073087,-153.0392469945889,16.301203,-12.150077,-3.4668305,7.2407565,-19.485739,3.2062984,-29.649658,-10.333883,9.626838,6.2151895,2.133549,13.137418,-8.959153,-8.547172,10.682445,-4.175327,33.949062,-19.232998,34.683727,-0.41464087,2.8888195,2.7469404,11.596297,-23.158741,37.73139,44.67242,9.733017,24.682993,-2.153083
168,-47.66505432128906,-20.30902099609375,74.66790008544922,7.843983506441968,-0.765076275427739,-152.56751508191613,16.627077,-12.131665,-3.9477463,7.299321,-19.538815,3.103795,-29.771725,-10.434328,9.367905,6.2438264,1.8064182,12.797808,-9.099852,-8.654034,10.525217,-4.1663523,34.12844,-19.444494,34.661053,-0.50274515,2.830122,2.7309566,11.832675,-22.95884,37.797913,45.038807,9.728411,24.706572,-1.9138241
169,-48.260128021240234,-20.498472213745117,74.56451416015625,7.91204754876323,-0.6259749176055424,-152.10287796817767,16.903868,-12.060108,-4.432575,7.371186,-19.559263,3.019981,-29.697216,-10.512917,9.044796,6.258414,2.1069367,13.062235,-9.218811,-8.706471,10.350407,-4.1485004,34.274643,-19.654623,34.686596,-0.5639279,2.7526362,2.6994522,12.032038,-22.754688,37.878376,45.434727,9.633362,24.757101,-1.6031837
170,-48.83698654174805,-20.675827026367188,74.48770141601562,7.935674595012517,-0.4440051920981822,-151.65169013376232,17.121134,-11.93047,-4.900604,7.4604216,-19.552029,2.940256,-29.462727,-10.575787,8.578397,6.28084,2.8724291,13.694057,-9.310905,-8.690976,10.1483755,-4.1271763,34.38011,-19.871168,34.764557,-0.60467124,2.6592543,2.6584573,12.205768,-22.561897,37.97342,45.84671,9.478854,24.829382,-1.2373259
171,-49.39398193359375,-20.84038734436035,74.4407730102539,7.902642420152043,-0.21573911731369874,-151.22311188234076,17.277658,-11.73021,-5.3328304,7.5654936,-19.49482,2.8461766,-29.192549,-10.561775,8.146735,6.3139935,3.8835328,14.314579,-9.358755,-8.607591,9.91261,-4.0986705,34.45898,-20.099712,34.88757,-0.6353455,2.5821767,2.6211488,12.346707,-22.347307,38.06497,46.285652,9.262056,24.921095,-0.82782143
172,-49.96482467651367,-21.009702682495117,74.40528869628906,7.807005839166618,0.057044715342357305,-150.81955787805344,17.315228,-11.456,-5.7069407,7.8174233,-19.435984,2.7199574,-29.005222,-10.430368,7.921022,6.3587217,4.9190273,14.552585,-9.363984,-8.444914,9.643395,-4.0549693,34.49645,-20.32541,35.051422,-0.652934,2.5513105,2.6002054,12.468142,-22.134596,38.141804,46.71253,8.992776,25.03487,-0.38418335
173,-50.54706954956055,-21.193185806274414,74.36792755126953,7.6244493196059056,0.3898874055628321,-150.43954282642716,16.540138,-11.145565,-5.8843884,9.637992,-20.134848,2.5354912,-28.941788,-10.131606,8.018705,6.420127,5.985489,14.211701,-9.327887,-8.17506,9.333919,-4.0050335,34.4908,-20.55604,35.258873,-0.6683779,2.5849888,2.6015794,12.57655,-21.932655,38.195194,47.103836,8.638868,25.190443,0.12076421
174,-51.147850036621094,-21.378210067749023,74.3406982421875,7.3649846488879245,0.771890413505398,-150.06706792585007,15.688767,-10.744366,-6.040504,11.516834,-20.799404,2.3078434,-29.095413,-9.682644,8.332448,6.8499727,6.9977283,13.534555,-9.262352,-7.809989,8.988325,-3.9585602,34.440887,-20.801987,35.522762,-0.67637163,2.6636322,2.6182323,12.671941,-21.7249,38.22615,47.484196,8.198875,25.378178,0.6830639
175,-51.75638198852539,-21.56844139099121,74.33417510986328,7.077666473438999,1.1576936574146137,-149.67843802896897,14.822109,-10.311692,-6.21976,13.430721,-21.397728,2.0754924,-30.275925,-9.053615,8.78266,9.473886,6.8941183,12.792127,-9.19078,-7.405522,8.632659,-3.8963308,34.347454,-21.044893,35.83269,-0.6592684,2.7610402,2.640647,12.759624,-21.526436,38.251564,47.85871,7.750334,25.560188,1.2476096
176,-52.35661315917969,-21.751277923583984,74.32376098632812,6.810789455652141,1.5077550506502682,-149.25869143137322,13.992705,-9.909581,-6.4524574,15.358079,-21.894981,1.8787203,-31.159235,-8.566047,8.96759,11.584544,6.9904714,12.278085,-9.127031,-7.013626,8.287344,-3.798034,34.210415,-21.266218,36.179916,-0.5979305,2.850819,2.6601334,12.857274,-21.342403,38.27504,48.227646,7.353988,25.700054,1.7578353
177,-52.971397399902344,-21.937345504760742,74.3106689453125,6.578111467636684,1.8365510872778563,-148.8009414917909,13.20086,-9.555454,-6.760111,17.26259,-22.298986,1.7268935,-31.799377,-8.272059,8.84946,13.24357,7.3298283,12.13299,-9.075318,-6.6457963,7.9341035,-3.662938,34.02907,-21.467472,36.564594,-0.46471778,2.9272451,2.6732311,12.971956,-21.177225,38.29256,48.577785,7.0132957,25.795237,2.207147
178,-53.61190414428711,-22.138980865478516,74.29169464111328,6.350220822786931,2.1620899833715765,-148.32033344469417,12.409684,-9.214623,-7.113392,19.1808,-22.628191,1.5971236,-32.324413,-8.08813,8.558368,14.685556,7.809503,12.170917,-9.022499,-6.2687855,7.567511,-3.4979188,33.802563,-21.654146,36.98781,-0.27671468,3.0037432,2.6848698,13.097449,-21.032259,38.303265,48.905144,6.7011952,25.864336,2.6224627
179,-54.25784683227539,-22.35793113708496,74.27339935302734,6.104575688462816,2.454222203303946,-147.8408421828358,11.620244,-8.86181,-7.4592195,21.178942,-22.859484,1.4788514,-32.8044,-7.9334865,8.168178,16.160679,8.105152,12.167659,-8.951817,-5.8643093,7.2239,-3.2969637,33.531384,-21.816633,37.444843,-0.08481809,3.0827472,2.6989164,13.222503,-20.910366,38.315514,49.235157,6.433289,25.90377,2.996348
180,-54.909061431884766,-22.58370018005371,74.25300598144531,5.820656880510908,2.67724228675784,-147.38065424148274,10.845795,-8.474459,-7.752846,23.312296,-22.963156,1.3609529,-33.285606,-7.73454,7.742622,17.882055,7.9079924,11.909858,-8.8518505,-5.4175897,6.9453716,-3.0522523,33.217354,-21.943857,37.926826,0.060304012,3.1667142,2.7188566,13.3165,-20.815697,38.356358,49.604095,6.249202,25.909607,3.3211796
181,-55.56064224243164,-22.81003761291504,74.23790740966797,5.486895385957208,2.8090819319675404,-146.93635362707124,10.144513,-8.043596,-8.013128,25.538946,-22.943499,1.2051067,-33.820988,-7.4606075,7.2902174,20.035202,7.0092955,11.247022,-8.727325,-4.919913,6.7474976,-2.7508018,32.859398,-22.03067,38.42978,0.13876945,3.2600098,2.7475178,13.394108,-20.751516,38.41988,50.011692,6.167484,25.86688,3.5843081
182,-56.2268180847168,-23.04886817932129,74.2303466796875,5.1234089347979985,2.866148009336783,-146.49663620600407,9.508093,-7.5895376,-8.261991,27.828224,-22.803677,1.030349,-34.355415,-7.1625543,6.7918506,22.443676,5.623701,10.333949,-8.586937,-4.389672,6.611395,-2.3983667,32.45724,-22.082056,38.955433,0.18015397,3.3600965,2.7819753,13.461151,-20.719406,38.500614,50.44035,6.1720567,25.783686,3.7929866
183,-56.89122009277344,-23.292163848876953,74.22859954833984,4.7509398511345955,2.8734192870910453,-146.06801406494463,8.850044,-7.127846,-8.45737,30.24755,-22.503391,0.9055178,-34.768215,-6.8791604,6.2604933,24.760475,4.084376,9.418834,-8.428588,-3.8471842,6.523747,-2.0088274,32.016327,-22.097143,39.50056,0.20761155,3.459011,2.817042,13.494724,-20.719612,38.60828,50.88665,6.2233124,25.69138,3.9696708
184,-57.55618667602539,-23.539873123168945,74.23103332519531,4.38169400191182,2.8628044131584613,-145.66231836017064,8.080442,-6.66536,-8.551208,32.860638,-22.002855,0.8903663,-34.965595,-6.638281,5.695197,26.679289,2.7100546,8.741889,-8.247418,-3.3044255,6.466043,-1.5902921,31.545681,-22.071049,40.05669,0.24339108,3.5491517,2.8472543,13.47827,-20.751375,38.745613,51.343227,6.2707253,25.6208,4.1365213
185,-58.214508056640625,-23.7902889251709,74.24107360839844,4.016167026926577,2.830530839470016,-145.28839464443823,7.1875863,-6.2124715,-8.495905,35.72845,-21.302498,1.0657436,-34.927177,-6.4490952,5.0769205,28.167837,1.523069,8.403708,-8.037222,-2.7631228,6.4447985,-1.1204798,31.045181,-21.977058,40.612465,0.29300836,3.6195126,2.8844712,13.395255,-20.814714,38.93844,51.835094,6.362886,25.559956,4.2690926
186,-58.868228912353516,-24.04088020324707,74.26116180419922,3.6420740815161126,2.7697605176864544,-144.94244413892835,6.2187877,-5.7584996,-8.319038,38.78337,-20.405807,1.3573588,-34.722004,-6.2788897,4.406618,29.401152,0.36226678,8.260226,-7.8030834,-2.2113342,6.4601293,-0.59503925,30.51405,-21.818813,41.16607,0.34512112,3.6775012,2.9268997,13.267102,-20.908491,39.172585,52.350624,6.4932537,25.499332,4.3658175
187,-59.51007080078125,-24.290897369384766,74.28873443603516,3.253119058582414,2.70943449465004,-144.61951719762448,5.168117,-5.2802095,-8.089968,41.905468,-19.281277,1.5904512,-34.390915,-6.09698,3.7081048,30.380806,-0.73269826,8.181904,-7.5443583,-1.6414115,6.4863863,-0.05716668,29.964355,-21.648586,41.72524,0.3928212,3.742916,2.9492583,13.082203,-21.031878,39.435215,52.8659,6.591126,25.471762,4.4842887
188,-60.150569915771484,-24.54879379272461,74.33012390136719,2.8463544335410638,2.6776555142762537,-144.3148608019818,4.02215,-4.7606773,-7.888268,44.998844,-17.914227,1.5982683,-33.973324,-5.8760414,3.0117707,31.107042,-1.7207637,8.040914,-7.2602224,-1.0508115,6.4993935,0.45663878,29.415537,-21.517162,42.290833,0.42700192,3.8359022,2.9254453,12.84534,-21.181385,39.697155,53.34114,6.5660267,25.510254,4.682985
189,-60.78554916381836,-24.80536460876465,74.38854217529297,2.4124891490653564,2.693568904618665,-144.04787325286603,2.7322893,-4.186707,-7.719277,48.110588,-16.236113,1.3233547,-33.460453,-5.5964103,2.3291311,31.515211,-2.57127,7.814289,-6.9297686,-0.43209952,6.4884768,0.9595932,28.876333,-21.412119,42.85124,0.4427789,3.969039,2.857344,12.548859,-21.353802,39.949028,53.77446,6.3618474,25.637732,5.0017076
190,-61.4032096862793,-25.046497344970703,74.46161651611328,1.961333779764514,2.7387344478684987,-143.81553047992014,1.3170524,-3.5953965,-7.567373,51.284576,-14.292283,0.8403977,-32.84838,-5.275778,1.6501638,31.63994,-3.318227,7.5652227,-6.5576873,0.20158395,6.4668884,1.4715744,28.347893,-21.315214,43.39772,0.44151473,4.1299806,2.7547815,12.192572,-21.54644,40.20876,54.18209,6.0351133,25.829716,5.403827
191,-62.02471160888672,-25.28824806213379,74.55174255371094,1.5190596000629635,2.7837358317404455,-143.57850363882514,-0.14287263,-3.0425744,-7.483539,54.434532,-12.245704,0.2022638,-32.17318,-4.949019,0.9768516,31.618713,-4.012411,7.298535,-6.1805234,0.81789386,6.447492,1.9671957,27.842358,-21.270401,43.937103,0.42189884,4.301672,2.6037292,11.791868,-21.758234,40.48028,54.558567,5.6607485,26.048597,5.832321
192,-62.632381439208984,-25.518394470214844,74.64436340332031,1.109431193859079,2.7994346352014428,-143.30009551298357,-1.5705034,-2.5662174,-7.504744,57.473553,-10.249329,-0.5135989,-31.45612,-4.6501613,0.3102945,31.569178,-4.6966853,7.02215,-5.828336,1.3866894,6.4471936,2.4195971,27.377901,-21.326809,44.47423,0.3785803,4.467515,2.3896084,11.359401,-21.987942,40.76983,54.89599,5.322321,26.258305,6.2291455
193,-63.23922348022461,-25.745868682861328,74.74767303466797,0.7302597507586724,2.7674555135581276,-142.9688958504167,-2.9479675,-2.1599355,-7.6722164,60.435715,-8.260105,-1.3533539,-30.657152,-4.3847632,-0.3551976,31.478065,-5.381863,6.7396955,-5.504022,1.904145,6.483754,2.8294559,26.969225,-21.492157,45.00754,0.26814154,4.6317596,2.1067445,10.907308,-22.231709,41.064236,55.173225,5.002897,26.475899,6.605073
194,-63.85709762573242,-25.977388381958008,74.85456085205078,0.37250251223949904,2.707040298356446,-142.60570329253795,-4.3269653,-1.8134427,-7.958007,63.374687,-6.229883,-2.3135288,-29.772991,-4.139165,-1.0136606,31.296314,-6.0477166,6.453182,-5.189857,2.3796635,6.5480003,3.2165372,26.620018,-21.742657,45.523582,0.10214763,4.802259,1.7616215,10.424235,-22.486115,41.364445,55.397644,4.6717443,26.711523,6.983193
195,-64.46515655517578,-26.211074829101562,74.9579849243164,0.045280035969488326,2.645211245142151,-142.22015011920297,-5.7384667,-1.525997,-8.279216,66.22988,-4.303676,-3.2186542,-28.875456,-3.918729,-1.6522194,31.08294,-6.6887383,6.169503,-4.8887396,2.8069293,6.616926,3.5835905,26.329943,-22.078093,46.01127,-0.040688407,4.9668994,1.3579018,9.890811,-22.753908,41.68967,55.60625,4.3843656,26.92016,7.322036
196,-65.06610870361328,-26.44134521484375,75.05721282958984,-0.24383909470707102,2.609573343594362,-141.8218925400859,-7.2163267,-1.2773373,-8.5432825,68.93406,-2.6212683,-3.885963,-28.039602,-3.727914,-2.2614422,30.899849,-7.299917,5.8928194,-4.603154,3.1840177,6.6675005,3.9310408,26.09515,-22.498331,46.461258,-0.08132376,5.1126986,0.8990648,9.290831,-23.040705,42.060184,55.82942,4.1997123,27.058908,7.579005
197,-65.65412139892578,-26.672199249267578,75.15769958496094,-0.4901534956825918,2.608327687996995,-141.39878412606203,-8.818546,-1.063686,-8.759688,71.53834,-1.0417428,-4.220457,-27.294355,-3.5746725,-2.844066,30.779379,-7.882466,5.6083136,-4.3424687,3.5072145,6.6931877,4.2396584,25.917791,-23.021362,46.890205,-0.015306902,5.2287626,0.3467671,8.614552,-23.351501,42.50152,56.07,4.1515527,27.106274,7.7541375
198,-66.2317123413086,-26.89741325378418,75.25570678710938,-0.7049091303997302,2.626553152285452,-140.9539479156162,-10.528223,-0.8524094,-8.945354,74.069664,0.4572779,-4.2953568,-26.597878,-3.4524755,-3.4054053,30.685873,-8.439366,5.322825,-4.099622,3.7868924,6.7093973,4.514115,25.798428,-23.639595,47.296528,0.121064,5.323121,-0.2885619,7.8732457,-23.68563,42.999702,56.303898,4.208211,27.090649,7.8658366
199,-66.786865234375,-27.123870849609375,75.35042572021484,-0.9033149001817631,2.6568192742140964,-140.51152829303763,-12.254936,-0.5705183,-9.028528,76.40159,1.5630865,-4.18462,-25.905363,-3.3446836,-3.949225,30.55902,-8.961456,5.066102,-3.861718,4.03857,6.7220554,4.7867513,25.727526,-24.31687,47.65213,0.34652483,5.408736,-0.9296713,7.084872,-24.043478,43.5069,56.528942,4.3173466,27.042269,7.8982167
200,-67.32890319824219,-27.35358428955078,75.44232940673828,-1.1024696275875583,2.6911867354221717,-140.09910366018482,-13.909553,-0.1527236,-8.948896,78.421585,1.9500388,-3.983285,-25.180628,-3.2268841,-4.4790974,30.341375,-9.434251,4.8632812,-3.6127503,4.281995,6.736398,5.0855174,25.689692,-25.018475,47.934135,0.68117833,5.49819,-1.4985749,6.265599,-24.426258,43.98053,56.744106,4.4325004,26.991394,7.8352914
201,-67.867919921875,-27.591123580932617,75.53337097167969,-1.3150267512071399,2.7410406858273166,-139.71927107779698,-15.479393,0.49479634,-8.653266,80.10573,1.2578229,-3.6658113,-24.44293,-3.0814066,-5.0091405,30.029861,-9.847329,4.712117,-3.3498254,4.5339003,6.7374654,5.398696,25.677023,-25.77083,48.14772,1.1369619,5.595749,-1.981106,5.398921,-24.840172,44.466908,56.97401,4.5716057,26.916578,7.6704173
202,-68.39379119873047,-27.83626937866211,75.62681579589844,-1.5301146645967212,2.804378419534169,-139.36085454098054,-17.001638,1.3144119,-8.203079,81.516655,-0.25880098,-3.2227228,-23.704859,-2.91729,-5.53488,29.648804,-10.205926,4.5949974,-3.0797932,4.784119,6.7272468,5.7059345,25.687601,-26.582956,48.31495,1.7036026,5.6921024,-2.4155831,4.48524,-25.287806,44.97154,57.207638,4.7488217,26.811321,7.413457
203,-68.92277526855469,-28.091129302978516,75.72483825683594,-1.7289825897599642,2.853101861197135,-139.02987209340438,-18.461002,2.134352,-7.705709,82.67193,-2.002538,-2.7813668,-22.922775,-2.749393,-6.0323033,29.184696,-10.517914,4.511824,-2.7998626,5.0118856,6.7346516,6.023123,25.713394,-27.395382,48.439617,2.368891,5.779812,-2.8023925,3.5652313,-25.76382,45.389317,57.398388,4.9131227,26.72837,7.0722504
204,-69.43666076660156,-28.35243034362793,75.82691955566406,-1.8961360116217443,2.8604727669273373,-138.73152413823146,-19.852478,2.7945452,-7.2557282,83.59407,-3.368327,-2.4459865,-22.051313,-2.5906298,-6.48091,28.620047,-10.789471,4.462268,-2.506692,5.1992455,6.785661,6.3633513,25.744503,-28.151003,48.531403,3.1212716,5.851742,-3.1411207,2.6770847,-26.261303,45.61319,57.51127,5.0135994,26.720015,6.6529155
205,-69.95283508300781,-28.626962661743164,75.93701171875,-2.0215255821162,2.8229491811635774,-138.47413902191482,-21.187834,3.2656798,-6.843095,84.27353,-4.22818,-2.237662,-21.086746,-2.4496396,-6.8700666,27.9523,-11.021517,4.4477654,-2.193438,5.3376093,6.883323,6.722731,25.776005,-28.86144,48.595303,4.0102715,5.9037333,-3.4310646,1.8043338,-26.779818,45.650963,57.57186,5.001938,26.799688,6.172157
206,-70.46053314208984,-28.90670394897461,76.0581283569336,-2.116032747875773,2.7528627741467813,-138.25254688491395,-22.464619,3.629401,-6.415343,84.70085,-4.889785,-2.1020095,-20.05209,-2.316414,-7.214404,27.191843,-11.2119055,4.459917,-1.8641196,5.4390965,7.011686,7.0905547,25.80663,-29.550932,48.637108,5.025529,5.940406,-3.6714058,0.9463473,-27.321726,45.533035,57.591454,4.901173,26.940422,5.6203613
207,-70.96212768554688,-29.183372497558594,76.18336486816406,-2.197234280827643,2.648909271383703,-138.05004120876336,-23.666311,3.9021282,-5.9991355,84.904434,-5.3987794,-2.011798,-18.939713,-2.175007,-7.53304,26.33679,-11.3610935,4.48718,-1.5265093,5.5219984,7.17031,7.4660664,25.83237,-30.188713,48.66638,6.063618,5.968184,-3.8611765,0.12627617,-27.884,45.23614,57.538616,4.8283978,27.133131,4.964234
208,-71.4754638671875,-29.473129272460938,76.31292724609375,-2.283089312761548,2.509604671326313,-137.8496918102774,-24.774706,4.098756,-5.6241894,84.90796,-5.8021584,-1.940967,-17.740444,-2.009543,-7.8435397,25.38178,-11.467338,4.5233617,-1.1930801,5.60316,7.3558865,7.8537703,25.84832,-30.738256,48.6935,7.022648,5.9945207,-3.9995959,-0.60311365,-28.460012,44.69663,57.36755,4.8553057,27.367205,4.169335
209,-71.9921875,-29.778491973876953,76.4454574584961,-2.3723671465412464,2.332300625699625,-137.65271461136274,-25.790203,4.194099,-5.302551,84.71105,-6.0513554,-1.8980198,-16.446333,-1.8224272,-8.143109,24.321545,-11.532303,4.5834923,-0.86156255,5.681387,7.5681286,8.254877,25.851887,-31.204712,48.723392,7.932022,6.020078,-4.071479,-1.2405366,-29.045897,43.877575,57.084038,4.98381,27.661366,3.209393
210,-72.50720977783203,-30.076833724975586,76.5767822265625,-2.457266726715261,2.1186354684726822,-137.46575544694278,-26.722073,4.191514,-5.0150824,84.30075,-6.1407614,-1.8908755,-15.062668,-1.6207986,-8.42302,23.157679,-11.553682,4.667617,-0.5250234,5.750744,7.806937,8.664194,25.842543,-31.606262,48.75479,8.826916,6.043801,-4.081776,-1.8161547,-29.642313,42.824512,56.72176,5.1943264,28.010769,2.1061046
211,-73.0212173461914,-30.376798629760742,76.70003509521484,-2.545009975137765,1.8740894710441012,-137.2801790316906,-27.56527,4.146825,-4.7456245,83.68759,-6.183624,-1.8923134,-13.595917,-1.397404,-8.6904745,21.889074,-11.525588,4.753299,-0.19114426,5.820205,8.069217,9.080348,25.818895,-31.923954,48.787064,9.614409,6.069609,-4.0599127,-2.3197937,-30.248365,41.594112,56.271107,5.522403,28.366158,0.8951321
212,-73.5313491821289,-30.680131912231445,76.81689453125,-2.6427204187330573,1.6038842473286887,-137.087758202218,-28.311583,4.1138463,-4.4771833,82.87752,-6.2938123,-1.8759875,-12.056499,-1.1451442,-8.951357,20.523062,-11.441749,4.8193626,0.13172717,5.8982153,8.352725,9.503107,25.779604,-32.137543,48.8175,10.201771,6.1003084,-4.0352864,-2.754592,-30.862928,40.25982,55.73104,6.0185914,28.675266,-0.38732615
213,-74.05175018310547,-30.99155044555664,76.9297103881836,-2.7548279402378366,1.299751629446787,-136.88866037404227,-28.94772,4.0931044,-4.212199,81.86059,-6.524798,-1.8348448,-10.424789,-0.8560714,-9.200425,19.039167,-11.290891,4.8621354,0.43782485,5.988769,8.667938,9.94299,25.721043,-32.22226,48.842777,10.560057,6.140443,-4.002866,-3.1231673,-31.48277,38.800613,55.096085,6.7177873,28.941813,-1.7828119
214,-74.56382751464844,-31.30369758605957,77.0342788696289,-2.874002071297003,0.9625369471443184,-136.68642299496997,-29.479973,4.0581913,-3.954702,80.635666,-6.8083525,-1.7806805,-8.700145,-0.5394525,-9.43168,17.436308,-11.075952,4.900719,0.73819184,6.0860353,9.015403,10.393085,25.643013,-32.19973,48.86373,10.740221,6.187026,-3.9507272,-3.505724,-32.109993,37.27705,54.436756,7.6767735,29.173895,-3.2947834
215,-75.07655334472656,-31.62384605407715,77.13006591796875,-2.9893020522963143,0.611890168477231,-136.47839604686118,-29.930265,4.0199966,-3.6880732,79.224785,-7.0752883,-1.717637,-6.921059,-0.21361794,-9.651237,15.7500725,-10.814168,4.9460416,1.0187945,6.178638,9.36627,10.859497,25.546425,-32.086517,48.878765,10.774575,6.230542,-3.9002905,-3.8011038,-32.739117,35.66609,53.693813,8.737572,29.331142,-4.829955
216,-75.59469604492188,-31.95684814453125,77.21522521972656,-3.0900121582720295,0.26705919652490423,-136.26204645132006,-30.321281,3.9877887,-3.3945384,77.653244,-7.2557325,-1.6513993,-5.1275206,0.10316236,-9.866951,14.01756,-10.522827,5.004535,1.2528526,6.2492085,9.680652,11.36191,25.431719,-31.889137,48.889996,10.696154,6.2617774,-3.8737113,-3.742084,-33.355488,33.811996,52.67266,9.611707,29.377974,-6.2926755
217,-76.1146469116211,-32.29309844970703,77.2837905883789,-3.172996795752615,-0.0835738850083354,-136.03474070097477,-30.634476,3.9515204,-3.07173,75.90881,-7.352451,-1.5929911,-3.2850032,0.411294,-10.08349,12.196883,-10.18295,5.080555,1.5495862,6.3125772,10.023572,11.792633,25.319576,-31.704117,48.893417,10.460235,6.2815366,-3.876553,-4.216268,-34.00364,32.502728,52.0681,11.198742,29.27729,-7.6768737
218,-76.62305450439453,-32.62451171875,77.334228515625,-3.240686505433908,-0.4437780088921825,-135.8001641398284,-30.863598,3.905458,-2.7228382,73.98204,-7.3957524,-1.5372068,-1.3826218,0.716416,-10.293986,10.273097,-9.786774,5.1691933,1.7862501,6.3543534,10.360274,12.288326,25.193829,-31.391544,48.857777,10.083661,6.2927666,-3.905175,-4.5463004,-34.645687,31.104717,51.330597,12.820662,29.059065,-9.023677
219,-77.14159393310547,-32.97014617919922,77.36418151855469,-3.292003033522543,-0.7799812614874365,-135.56543871933326,-31.049501,3.8644915,-2.3385675,71.89549,-7.3579087,-1.4694452,0.49367025,1.0085273,-10.491725,8.344123,-9.378699,5.259647,2.0084734,6.375127,10.660627,12.794983,25.05748,-31.022892,48.81619,9.627358,6.292984,-3.9375188,-4.750678,-35.282406,29.678478,50.497364,14.364595,28.751226,-10.280937
220,-77.65420532226562,-33.3169059753418,77.38343811035156,-3.328774093759682,-1.0592290703314682,-135.33697878147711,-31.2331,3.8437362,-1.9119041,69.672485,-7.2126894,-1.3786129,1.9721016,1.2249861,-10.678391,7.124498,-9.328252,5.3431015,2.2448165,6.3828874,10.907298,13.277777,24.915384,-30.64442,48.77751,9.1586,6.2790337,-3.9532795,-4.9932365,-35.9235,28.405777,49.70944,15.8062525,28.389677,-11.400555
221,-78.1609878540039,-33.66610336303711,77.38351440429688,-3.3494099352609576,-1.2730447387784125,-135.11226711906497,-31.423779,3.829963,-1.4395221,67.30352,-6.9436865,-1.2885731,2.855296,1.3229346,-10.865869,7.0216928,-9.848253,5.4266706,2.4811554,6.374905,11.088929,13.750558,24.766293,-30.236296,48.738506,8.657893,6.2438855,-3.9453058,-5.237697,-36.56587,27.25787,48.933617,17.114063,27.958197,-12.3512945
222,-78.6659927368164,-34.02162170410156,77.37191772460938,-3.3589038156038686,-1.43972822400324,-134.8887605573227,-31.594671,3.816615,-0.9254051,64.775734,-6.56889,-1.2045851,3.6779094,1.4060743,-11.050185,6.930566,-10.35928,5.509164,2.713967,6.3541594,11.222282,14.219178,24.609272,-29.788008,48.694187,8.1022005,6.1911697,-3.9248686,-5.4888196,-37.20841,26.215483,48.1667,18.356102,27.45505,-13.161826
223,-79.16333770751953,-34.381473541259766,77.33737182617188,-3.3602904871971715,-1.568041549217336,-134.6730204060485,-31.7368,3.8192413,-0.36696246,62.118286,-6.118607,-1.0891958,4.4450593,1.4786112,-11.225694,6.8600574,-10.872628,5.5753503,2.947763,6.3241506,11.320787,14.67629,24.444366,-29.322075,48.64453,7.557381,6.1328077,-3.9018016,-5.7570753,-37.853935,25.306051,47.41296,19.479958,26.944963,-13.882602
224,-79.65206146240234,-34.735660552978516,77.27948760986328,-3.3576792386906957,-1.6689830377000785,-134.46990933467907,-31.845253,3.8529813,0.23625135,59.369633,-5.628488,-0.9063175,5.158452,1.5445645,-11.388513,6.8322654,-11.400835,5.6093507,3.1842654,6.2902155,11.400189,15.114977,24.27095,-28.85992,48.589317,7.0896525,6.080827,-3.8856146,-6.050356,-38.506763,24.556856,46.67346,20.434381,26.491749,-14.5677185
225,-80.13750457763672,-35.10038375854492,77.21338653564453,-3.384901202290271,-1.7374406623810057,-134.27466089690105,-31.918507,3.9329624,0.8644152,56.492023,-5.067586,-0.6119131,5.811078,1.6379011,-11.545489,6.850603,-11.948354,5.5948915,3.4233263,6.2859664,11.454932,15.532483,24.088978,-28.401007,48.52726,6.707851,6.035868,-3.8833942,-6.388256,-39.173775,24.002869,45.96067,21.235214,26.10435,-15.242461
226,-80.62059020996094,-35.47715377807617,77.13613891601562,-3.419089664730867,-1.7682188304270836,-134.08903760091383,-31.949724,4.026871,1.5441219,53.462902,-4.4290657,-0.24314296,6.417954,1.7364773,-11.691583,6.870183,-12.488772,5.546283,3.66388,6.288057,11.479191,15.93404,23.897848,-27.932796,48.45789,6.3803205,5.9922614,-3.888533,-6.7527933,-39.85445,23.617775,45.254173,21.901384,25.757397,-15.879967
227,-81.09151458740234,-35.857242584228516,77.05297088623047,-3.4614144815746615,-1.7757543827639124,-133.91322221913944,-31.914444,4.1330686,2.2730212,50.314938,-3.7664514,0.1072946,6.996955,1.8415794,-11.827537,6.8900437,-13.023562,5.4878054,3.900641,6.2988534,11.488969,16.318392,23.696753,-27.465834,48.38455,6.1126847,5.9529862,-3.888277,-7.139881,-40.545444,23.360968,44.548203,22.407007,25.462069,-16.456938
228,-81.54710388183594,-36.240028381347656,76.96173095703125,-3.512598143247772,-1.7748228299433657,-133.74845845118136,-31.781275,4.250743,3.0466273,47.06094,-3.1224833,0.34684986,7.5651555,1.9542319,-11.953032,6.907874,-13.551529,5.442879,4.1300745,6.319914,11.499441,16.683592,23.484486,-27.012072,48.31295,5.910261,5.920768,-3.869724,-7.531825,-41.240917,23.18177,43.82768,22.719868,25.230286,-16.950665
229,-82.00177001953125,-36.63034439086914,76.86595916748047,-3.5726345387639684,-1.773056444454097,-133.5941373286393,-31.524256,4.3698115,3.8758283,43.635685,-2.467691,0.44474047,8.129908,2.075833,-12.068061,6.9251056,-14.074719,5.4084024,4.3565154,6.3513308,11.521563,17.02387,23.262228,-26.571453,48.242104,5.797545,5.8958316,-3.830301,-7.9300876,-41.9412,23.079287,43.08488,22.805197,25.081812,-17.361029
230,-82.45020294189453,-37.032894134521484,76.76406860351562,-3.640808206675208,-1.7627619826124394,-133.45164923210757,-31.154642,4.478239,4.7615743,40.02603,-1.7761116,0.44225913,8.68319,2.2054172,-12.170328,6.9408026,-14.592149,5.372851,4.5847197,6.392087,11.546513,17.339466,23.031599,-26.141466,48.1709,5.7632093,5.87688,-3.7760532,-8.33457,-42.64729,23.06909,42.320496,22.689627,25.009052,-17.70152
231,-82.90155029296875,-37.43836975097656,76.65311431884766,-3.7197235586224937,-1.7361338132549144,-133.32645947897856,-30.70037,4.577694,5.6784344,36.322235,-1.0903094,0.3555921,9.215427,2.3439903,-12.256234,6.9574895,-15.102143,5.3464017,4.8135343,6.444358,11.55916,17.634996,22.79237,-25.732117,48.107437,5.7593355,5.8647337,-3.7062287,-8.740452,-43.35542,23.133232,41.548206,22.434029,24.982101,-17.96852
232,-83.34939575195312,-37.851558685302734,76.53477478027344,-3.8122929778262926,-1.6856086119577114,-133.22433948366927,-30.190617,4.6732287,6.6011047,32.616016,-0.4539093,0.20138034,9.71884,2.4930773,-12.322736,6.9725804,-15.599422,5.340219,5.0435705,6.5097146,11.543104,17.913317,22.543808,-25.35491,48.063023,5.73776,5.860071,-3.619644,-9.130989,-44.05982,23.24415,40.77446,22.093702,24.96959,-18.158234
233,-83.79698181152344,-38.27674865722656,76.40714263916016,-3.924411125165688,-1.6254769956419697,-133.15265457456738,-29.566061,4.770149,7.55848,28.793505,0.14244281,-0.082233824,10.209219,2.6622086,-12.360195,6.984862,-16.090141,5.3592496,5.282555,6.594595,11.511137,18.177973,22.28618,-25.006784,48.033535,5.6834908,5.8690357,-3.511856,-9.510692,-44.760826,23.404785,39.99923,21.608662,24.982882,-18.230747
234,-84.23872375488281,-38.7020263671875,76.27310180664062,-4.063103659943526,-1.5615170676130183,-133.11653909480353,-28.801956,4.85835,8.555692,24.78248,0.7572326,-0.49794045,10.691263,2.8603559,-12.362781,6.995632,-16.573973,5.39385,5.537558,6.707076,11.470698,18.428234,22.020357,-24.683668,48.014343,5.622836,5.8894243,-3.3844848,-9.8805,-45.45992,23.62196,39.213978,20.971216,25.031187,-18.200087
235,-84.67052459716797,-39.13146209716797,76.13389587402344,-4.234982040137184,-1.4736269953284913,-133.11849745076566,-27.994293,4.937746,9.530032,20.771599,1.4001546,-0.92992765,11.141953,3.0914385,-12.333071,7.0061183,-17.038046,5.4313602,5.81236,6.8524556,11.398553,18.655525,21.74734,-24.400215,48.01762,5.5689874,5.9095283,-3.2452345,-10.237602,-46.151695,23.882622,38.43128,20.32257,25.079649,-18.14393
236,-85.09577178955078,-39.565616607666016,75.98526763916016,-4.439942459939545,-1.33876020722698,-133.15715668236862,-27.259314,5.021547,10.416981,16.997019,2.0470963,-1.2486012,11.535249,3.3524325,-12.27774,7.013019,-17.465984,5.4595423,6.108612,7.026932,11.269063,18.849272,21.468775,-24.17177,48.05746,5.5351048,5.917886,-3.1015363,-10.578374,-46.827446,24.170422,37.666454,19.802279,25.0948,-18.14146
237,-85.51831817626953,-40.004844665527344,75.83625030517578,-4.6806232666498895,-1.1172086488420452,-133.23216246506993,-26.668285,5.135212,11.1293125,13.468297,2.7084107,-1.4297318,11.822227,3.649381,-12.204817,7.017512,-17.856934,5.4684763,6.4277086,7.2252026,11.0477915,19.001278,21.185345,-24.004051,48.140877,5.5199666,5.8991528,-2.9319894,-10.916664,-47.48393,24.497383,36.928272,19.443323,25.071459,-18.229046
238,-85.94465637207031,-40.45058059692383,75.68093872070312,-4.957714905408772,-0.8361274127752641,-133.34673661677766,-26.141447,5.2817445,11.727872,10.070283,3.3880978,-1.5285909,12.033352,3.984131,-12.106374,7.017863,-18.216448,5.464933,6.77075,7.4486375,10.758953,19.120337,20.897514,-23.887135,48.259357,5.518317,5.8637486,-2.7402475,-11.254791,-48.120937,24.86775,36.212948,19.170893,25.026009,-18.36018
239,-86.3708267211914,-40.89961242675781,75.52698516845703,-5.245368304747387,-0.5550691658884288,-133.48199516380592,-25.579882,5.417745,12.36426,6.844721,4.0601726,-1.5162059,12.243849,4.3217974,-11.989684,7.019553,-18.549597,5.4662566,7.1185865,7.6789403,10.454309,19.213217,20.60803,-23.8159,48.4091,5.5351644,5.83893,-2.5712156,-11.568855,-48.73121,25.250565,35.516537,18.963964,24.958288,-18.492624
240,-86.7950668334961,-41.353294372558594,75.37519073486328,-5.510389809811853,-0.3239418949045448,-133.60889955547822,-26.133091,5.782663,13.055823,6.522289,3.274846,-1.3667978,12.523249,4.620405,-11.872754,7.020432,-18.856209,5.4926724,7.4451056,7.889734,10.178865,19.284826,20.322216,-23.78603,48.585945,5.5757375,5.8519316,-2.4699285,-11.828227,-49.30352,25.607409,34.83417,18.799402,24.86735,-18.584372
