unveil-humanoid-operators/unveil-humanoid-operators.github.io/feature-analysis-animation/data/feature_matrix_instances/gender_jumping_turning_A025.csv
Frame,root_translateX,root_translateY,root_translateZ,root_rotateX,root_rotateY,root_rotateZ,left_hip_pitch_joint_dof,left_hip_roll_joint_dof,left_hip_yaw_joint_dof,left_knee_joint_dof,left_ankle_pitch_joint_dof,left_ankle_roll_joint_dof,right_hip_pitch_joint_dof,right_hip_roll_joint_dof,right_hip_yaw_joint_dof,right_knee_joint_dof,right_ankle_pitch_joint_dof,right_ankle_roll_joint_dof,waist_yaw_joint_dof,waist_roll_joint_dof,waist_pitch_joint_dof,left_shoulder_pitch_joint_dof,left_shoulder_roll_joint_dof,left_shoulder_yaw_joint_dof,left_elbow_joint_dof,left_wrist_roll_joint_dof,left_wrist_pitch_joint_dof,left_wrist_yaw_joint_dof,right_shoulder_pitch_joint_dof,right_shoulder_roll_joint_dof,right_shoulder_yaw_joint_dof,right_elbow_joint_dof,right_wrist_roll_joint_dof,right_wrist_pitch_joint_dof,right_wrist_yaw_joint_dof
0,0.10751243680715561,2.369853973388672,78.31809997558594,-0.10811315994270322,-2.3217727204759555,-93.72851105556205,5.904836,6.3767023,13.959147,9.853725,-11.220608,-5.9474936,3.66911,-6.935238,-14.0474415,7.411046,-9.957373,7.4638844,0.25363702,1.7792073,8.352981,-2.4105706,15.5416765,-46.75307,61.085903,2.9009826,-5.4849586,-2.5371342,-12.492039,-14.391979,65.68809,70.36706,23.724802,3.2133958,2.6180007
1,0.10573079437017441,2.357004165649414,78.31822967529297,-0.09882881591296909,-2.3657647436382243,-93.71562570207549,6.084662,6.3345823,13.965182,9.591959,-11.113055,-5.990464,3.7350097,-6.949641,-14.066618,7.416085,-9.988317,7.4827485,0.255957,1.7726192,8.405418,-2.393742,15.558443,-46.75491,61.045155,2.86274,-5.4797378,-2.5294988,-12.497394,-14.380737,65.71464,70.348366,23.757212,3.2011266,2.6028154
2,0.10229852050542831,2.3446834087371826,78.31748962402344,-0.09027898461075605,-2.409486704237024,-93.70234142606432,6.266198,6.2925296,13.971782,9.326145,-11.003076,-6.0360713,3.800977,-6.96339,-14.085753,7.4201856,-10.018388,7.5010757,0.2576951,1.7657526,8.455018,-2.37209,15.57132,-46.74634,61.008694,2.833281,-5.4749594,-2.5218804,-12.496692,-14.368105,65.73626,70.32705,23.787222,3.1883404,2.5841153
3,0.09932543337345123,2.3315491676330566,78.31519317626953,-0.08180745626660815,-2.4534265259053374,-93.68978711763157,6.443752,6.2505736,13.977014,9.070116,-10.897814,-6.0778527,3.867656,-6.9779716,-14.104888,7.4237294,-10.048474,7.519862,0.2617709,1.7607738,8.505971,-2.357811,15.578814,-46.744972,60.97739,2.8044128,-5.4718266,-2.5139139,-12.502554,-14.357702,65.76477,70.30999,23.818687,3.1769655,2.5720892
4,0.0958794578909874,2.315173864364624,78.31294250488281,-0.0688748232044663,-2.4976628704912542,-93.67996649906371,6.620289,6.2058907,13.980951,8.819321,-10.79722,-6.1092505,3.9313107,-6.9966083,-14.1224375,7.433444,-10.081312,7.540234,0.25870356,1.753675,8.552664,-2.3390393,15.586579,-46.742485,60.946743,2.784783,-5.474052,-2.505935,-12.506183,-14.343275,65.794174,70.29959,23.817345,3.1697652,2.5734537
5,0.09160401672124863,2.300995349884033,78.31132507324219,-0.05512925167356209,-2.5434732072121577,-93.67396369507749,6.7866745,6.1630707,13.980791,8.597767,-10.711359,-6.1246195,3.9963515,-7.0169883,-14.139886,7.443889,-10.115054,7.5630307,0.24681775,1.746863,8.594065,-2.3109882,15.593053,-46.73289,60.915825,2.7848701,-5.485579,-2.4962478,-12.485681,-14.327834,65.77988,70.28206,23.716917,3.1708632,2.595157
6,0.08637528866529465,2.28707218170166,78.30852508544922,-0.039043429590585606,-2.5907762310178275,-93.67087320704431,6.9511175,6.1202884,13.978165,8.38623,-10.630747,-6.1298227,4.0635357,-7.0384927,-14.157152,7.452453,-10.147769,7.5874467,0.25286043,1.7382066,8.639832,-2.2954354,15.601777,-46.74302,60.888203,2.7941732,-5.503153,-2.485462,-12.48945,-14.304449,65.791565,70.28662,23.635366,3.1757805,2.6337667
7,0.08419868350028992,2.2684407234191895,78.30702209472656,-0.025377477333099006,-2.636579043903879,-93.66756081954156,7.1114078,6.0789447,13.974759,8.18057,-10.55268,-6.131787,4.129326,-7.0594773,-14.173787,7.460817,-10.179855,7.611724,0.25347355,1.733264,8.683713,-2.2865279,15.605471,-46.756443,60.86808,2.80175,-5.520384,-2.477889,-12.485917,-14.293333,65.7988,70.27775,23.542698,3.181736,2.675527
8,0.08299922198057175,2.251786947250366,78.30399322509766,-0.01295155689092207,-2.6774797855067978,-93.66100417124869,7.264414,6.0403113,13.97131,7.977636,-10.473202,-6.1402516,4.191406,-7.0775986,-14.1902,7.4675956,-10.210064,7.6338243,0.24788663,1.7279654,8.716576,-2.2707055,15.610589,-46.767597,60.84818,2.809732,-5.5290413,-2.4768212,-12.467483,-14.27673,65.7898,70.267105,23.453165,3.1835651,2.7063196
9,0.08048667013645172,2.235459566116333,78.30181884765625,-0.002291533789712787,-2.7141686666939435,-93.65161302763771,7.4260535,5.998866,13.97117,7.7445626,-10.374538,-6.157202,4.248827,-7.0949883,-14.203283,7.47547,-10.2390175,7.6534553,0.26001218,1.7243966,8.746803,-2.2588327,15.614829,-46.7841,60.825367,2.8309898,-5.5240393,-2.4891906,-12.462416,-14.260948,65.799,70.27008,23.433329,3.1747177,2.7337985
10,0.079616978764534,2.219252586364746,78.29866790771484,-0.000804597804499562,-2.744374949967564,-93.63675964318402,7.5103536,5.9838257,13.960224,7.661264,-10.3511715,-6.1791215,4.3036942,-7.1028075,-14.219184,7.475779,-10.262872,7.6705728,0.2560579,1.7308123,8.769071,-2.2459636,15.616648,-46.79288,60.804737,2.8523464,-5.5118365,-2.511055,-12.447421,-14.253236,65.8015,70.261665,23.411846,3.1626024,2.7590036
11,0.07927991449832916,2.2022528648376465,78.29598999023438,-0.0011375529925513942,-2.772514332169266,-93.62070147902854,7.5642114,5.9782605,13.946524,7.639358,-10.359567,-6.203843,4.3589935,-7.1078224,-14.2361355,7.4710093,-10.283594,7.687131,0.26275602,1.7370836,8.7863655,-2.2352712,15.621145,-46.81681,60.785587,2.8695993,-5.4966044,-2.5316744,-12.443826,-14.2338,65.82672,70.27162,23.442427,3.1474795,2.773276
12,0.0785115584731102,2.184415340423584,78.29173278808594,-0.0005944661141448294,-2.799865134037306,-93.60515223400179,7.6205406,5.9730053,13.933696,7.6119733,-10.366133,-6.229649,4.418055,-7.111149,-14.255594,7.4577603,-10.300509,7.7041497,0.26021025,1.7449541,8.809775,-2.233796,15.622592,-46.831467,60.775238,2.8788502,-5.486293,-2.5463748,-12.439835,-14.227863,65.83994,70.26782,23.468102,3.1346045,2.76958
13,0.07525984942913055,2.1673314571380615,78.28763580322266,-0.002050955411917667,-2.827387603009276,-93.59055463907507,7.668876,5.9718204,13.921042,7.6028914,-10.384096,-6.259124,4.470221,-7.114917,-14.277254,7.4591494,-10.3258,7.7228785,0.25447807,1.7535886,8.830911,-2.2274373,15.624623,-46.849476,60.766994,2.8779304,-5.481123,-2.5467024,-12.431895,-14.220133,65.85281,70.263985,23.511255,3.1221445,2.7366514
14,0.07236003130674362,2.1495156288146973,78.2830810546875,-0.0036903487534991806,-2.85509451672999,-93.5761117138554,7.725023,5.969835,13.909978,7.578989,-10.395114,-6.2918816,4.529541,-7.1163325,-14.301796,7.446984,-10.344128,7.7425604,0.25365767,1.764015,8.849418,-2.212379,15.62715,-46.868244,60.754726,2.8771224,-5.476723,-2.5376432,-12.423304,-14.21111,65.86634,70.26864,23.583366,3.106016,2.6813486
15,0.07050251960754395,2.1327908039093018,78.2779769897461,-0.005163115803018061,-2.8807995612635695,-93.56206189142965,7.777414,5.968692,13.899276,7.5582356,-10.408087,-6.3221474,4.5863657,-7.117493,-14.326365,7.4352264,-10.36317,7.761427,0.25383067,1.7735684,8.868697,-2.2076192,15.629768,-46.890545,60.750042,2.868714,-5.474061,-2.528831,-12.421907,-14.202995,65.88531,70.27477,23.665836,3.0918152,2.6207852
16,0.06950636953115463,2.1163015365600586,78.27375030517578,-0.006827595649106595,-2.903746987430376,-93.54856113018712,7.82453,5.967829,13.888992,7.543007,-10.424816,-6.3441076,4.6398425,-7.118778,-14.3490095,7.423469,-10.382619,7.777917,0.25401807,1.7821805,8.876817,-2.1964233,15.63411,-46.91726,60.74541,2.856207,-5.4710617,-2.5227232,-12.414157,-14.1903105,65.90652,70.288345,23.73189,3.079431,2.565927
17,0.0698346421122551,2.1024022102355957,78.26936340332031,-0.007285469863033209,-2.9224532874010545,-93.53624692088478,7.8626847,5.9668384,13.879213,7.536667,-10.447749,-6.3522487,4.684629,-7.121731,-14.367591,7.4186845,-10.407015,7.7894673,0.25738722,1.7876269,8.883416,-2.1890895,15.637266,-46.92825,60.744667,2.8601885,-5.4693727,-2.5276692,-12.403831,-14.181876,65.914024,70.294014,23.76182,3.07288,2.5190825
18,0.0690864622592926,2.084115505218506,78.26376342773438,-0.006490034295222175,-2.937769011650769,-93.52502601528273,7.894947,5.9655375,13.870021,7.5351925,-10.474685,-6.350799,4.7246776,-7.1255903,-14.384775,7.4150414,-10.433185,7.798439,0.2710236,1.7888085,8.883721,-2.173781,15.647911,-46.93712,60.735992,2.8746037,-5.4676156,-2.5366874,-12.409065,-14.155487,65.945366,70.32622,23.814054,3.0665529,2.473379
19,0.06639064848423004,2.0613863468170166,78.26042938232422,-0.006457717157904526,-2.952713862274261,-93.51347096972326,7.9262557,5.964978,13.860734,7.534915,-10.501347,-6.349082,4.764815,-7.1287546,-14.401608,7.411085,-10.458727,7.808045,0.26796058,1.7938466,8.882511,-2.1576045,15.6505785,-46.93166,60.734505,2.8867652,-5.466441,-2.545586,-12.386893,-14.149195,65.93647,70.32613,23.802454,3.0652256,2.433067
20,0.06666882336139679,2.0407330989837646,78.25770568847656,-0.007272354367677771,-2.9705888695622535,-93.49984710378467,7.963435,5.9652214,13.850223,7.5303226,-10.52305,-6.3558435,4.8115263,-7.130342,-14.420554,7.402829,-10.48028,7.821778,0.2759648,1.7967343,8.883426,-2.141036,15.659883,-46.934204,60.725643,2.9038901,-5.460681,-2.553003,-12.379109,-14.130596,65.93559,70.34603,23.817104,3.0642257,2.4081469
21,0.06633995473384857,2.0184342861175537,78.25531768798828,-0.011708972380846835,-2.9918750030241874,-93.48292592010678,8.007543,5.966866,13.837629,7.5190287,-10.5371895,-6.375948,4.8667164,-7.1292872,-14.442778,7.388773,-10.496137,7.84293,0.26859066,1.805482,8.887206,-2.1293578,15.665181,-46.943714,60.721348,2.8987007,-5.448314,-2.5548005,-12.367169,-14.121205,65.93271,70.3543,23.828424,3.066238,2.400999
22,0.0647762194275856,1.9981285333633423,78.25108337402344,-0.01585115300282096,-3.0148390954976074,-93.46366786882692,8.053981,5.9701242,13.823505,7.5066566,-10.5476465,-6.403554,4.926978,-7.12645,-14.466928,7.3703876,-10.507615,7.868879,0.2631627,1.8157446,8.887996,-2.1069465,15.671472,-46.95212,60.70913,2.8993225,-5.4301195,-2.5538037,-12.349675,-14.111009,65.92106,70.36331,23.838663,3.07022,2.4072514
23,0.06339117139577866,1.9786076545715332,78.24613189697266,-0.020972486563188886,-3.038922442815157,-93.44493376610038,8.102541,5.9731684,13.809827,7.494131,-10.557345,-6.4325495,4.988405,-7.1236086,-14.490428,7.3533206,-10.519928,7.8942184,0.26071647,1.8246759,8.891634,-2.0926003,15.677733,-46.967476,60.702305,2.8971574,-5.4157615,-2.5486357,-12.338228,-14.102152,65.916885,70.37237,23.85664,3.0752926,2.4190207
24,0.06134224683046341,1.9571751356124878,78.2422103881836,-0.023692513021362785,-3.0634720648281917,-93.42952475719616,8.152715,5.9748287,13.799005,7.482442,-10.5685005,-6.4564586,5.0469203,-7.1225514,-14.510043,7.3415985,-10.53635,7.9137216,0.2555068,1.8335719,8.894835,-2.0798476,15.68241,-46.983364,60.70075,2.8968709,-5.4133873,-2.5365899,-12.322401,-14.0964365,65.91424,70.37687,23.857166,3.0787268,2.4263105
25,0.059740304946899414,1.936698317527771,78.23943328857422,-0.026221987150408577,-3.0878215209427546,-93.41829114652518,8.202194,5.9750338,13.791276,7.4749494,-10.583549,-6.473437,5.101251,-7.1234794,-14.5247555,7.3371577,-10.559537,7.9232683,0.26706553,1.8365645,8.895903,-2.0624118,15.690247,-47.00252,60.70018,2.9258213,-5.4291563,-2.5114439,-12.30704,-14.088221,65.92069,70.3803,23.862625,3.0802608,2.4245627
26,0.057611219584941864,1.9151098728179932,78.23766326904297,-0.02716744495252474,-3.1123285898423556,-93.40998515802816,8.251792,5.974383,13.7858095,7.4699044,-10.600327,-6.487066,5.151363,-7.1259837,-14.535815,7.3408113,-10.588089,7.926637,0.27363807,1.8394923,8.8930645,-2.0439205,15.6996155,-47.03006,60.70148,2.9490328,-5.4565787,-2.4755542,-12.287153,-14.080017,65.93239,70.38418,23.85383,3.0794704,2.4192283
27,0.05733571574091911,1.8908534049987793,78.2353286743164,-0.027093896658526448,-3.1381188340095614,-93.4032156074226,8.303386,5.972644,13.781888,7.4658113,-10.617534,-6.498498,5.202557,-7.1296835,-14.5455065,7.3445864,-10.617118,7.9300966,0.2811127,1.8418163,8.894018,-2.024981,15.703979,-47.04131,60.705856,2.9851933,-5.4872713,-2.442082,-12.266145,-14.076698,65.9387,70.38191,23.8345,3.0801473,2.4169106
28,0.05704309046268463,1.8671190738677979,78.23247528076172,-0.02529192146638157,-3.1660738442776934,-93.39699312539976,8.356773,5.9702654,13.778849,7.4636683,-10.634163,-6.5091176,5.2576385,-7.1343584,-14.55565,7.3458023,-10.644326,7.9396214,0.28870356,1.8422238,8.896488,-2.013802,15.710375,-47.05711,60.715324,2.9967542,-5.5118747,-2.4203584,-12.247102,-14.072523,65.95108,70.38459,23.821672,3.0830631,2.4221249
29,0.05734129250049591,1.844373106956482,78.2287826538086,-0.021992983688567513,-3.1978722364911225,-93.39203871665123,8.415008,5.965805,13.777677,7.4603763,-10.647495,-6.5178847,5.3187895,-7.141135,-14.565932,7.3423333,-10.668328,7.958587,0.308634,1.8367252,8.897135,-1.9914694,15.723462,-47.064384,60.715023,3.0021076,-5.5271792,-2.4167733,-12.228552,-14.064274,65.97395,70.39854,23.830702,3.0871859,2.4393697
30,0.05756920948624611,1.8215432167053223,78.22549438476562,-0.01680288374335756,-3.232288922389334,-93.38824822961553,8.4755125,5.9599123,13.777791,7.459237,-10.660006,-6.524371,5.3836255,-7.1497717,-14.575963,7.336986,-10.690914,7.9833302,0.32052946,1.8340666,8.9011965,-1.9661928,15.731403,-47.054745,60.71175,2.99876,-5.536531,-2.4244883,-12.206387,-14.059534,65.98521,70.414764,23.817213,3.092945,2.466222
31,0.057644572108983994,1.795678734779358,78.22245788574219,-0.01282830827686397,-3.266753330755574,-93.38468749573896,8.537595,5.9539204,13.778704,7.4558897,-10.671723,-6.531397,5.448592,-7.1582627,-14.5860615,7.3328104,-10.714575,8.008918,0.33953497,1.8287088,8.902247,-1.9316647,15.739268,-47.03076,60.70703,3.011052,-5.5450554,-2.4353526,-12.180969,-14.054856,65.99397,70.43051,23.808632,3.1002405,2.493407
32,0.05821973457932472,1.7703648805618286,78.21823120117188,-0.008721515184242844,-3.2978600893759373,-93.37957432996757,8.595364,5.9497085,13.778541,7.4550724,-10.687198,-6.541573,5.5109477,-7.1654153,-14.597592,7.328895,-10.73872,8.031004,0.35389188,1.8274205,8.902656,-1.9093323,15.742597,-47.019672,60.71034,3.0078619,-5.5527964,-2.438272,-12.160578,-14.052992,66.00092,70.44659,23.802034,3.1092815,2.5140827
33,0.058467667549848557,1.7450051307678223,78.21305084228516,-0.007797890939359855,-3.324588513530574,-93.37300929729406,8.653628,5.946397,13.778016,7.444789,-10.700952,-6.5548625,5.571123,-7.1699104,-14.610404,7.321984,-10.762278,8.048098,0.33439296,1.8263184,8.887838,-1.8573279,15.761755,-46.98618,60.693264,2.995524,-5.560961,-2.432304,-12.136488,-14.042371,66.032715,70.465996,23.79295,3.1189315,2.5234263
34,0.05895810201764107,1.7179518938064575,78.20903778076172,-0.0075598610715282046,-3.3473432727895065,-93.36553218312426,8.706526,5.944561,13.77694,7.437734,-10.718155,-6.570134,5.625991,-7.1738234,-14.6238575,7.31877,-10.787874,8.062718,0.35162982,1.8268665,8.872212,-1.8292078,15.765781,-46.97963,60.698254,2.9887507,-5.569086,-2.4177022,-12.11528,-14.040086,66.04527,70.48644,23.808172,3.1291103,2.5276732
35,0.058606598526239395,1.6888655424118042,78.20465850830078,-0.008007927729195475,-3.370730322115515,-93.3572231780788,8.763259,5.9432034,13.776097,7.425894,-10.734754,-6.588479,5.683593,-7.1764975,-14.638215,7.313825,-10.813002,8.076189,0.34990752,1.8306972,8.847281,-1.7893014,15.77143,-46.97331,60.7013,2.970198,-5.575123,-2.403188,-12.083469,-14.036791,66.06359,70.50322,23.811954,3.1416628,2.5287685
36,0.057284772396087646,1.6598094701766968,78.20073699951172,-0.011086573328077862,-3.3984643058095947,-93.34868024580251,8.826488,5.942855,13.775958,7.4139676,-10.753639,-6.6110854,5.7472343,-7.1785445,-14.653111,7.30999,-10.839272,8.089755,0.34073684,1.8343972,8.824308,-1.7492924,15.778795,-46.97048,60.708748,2.9527385,-5.5797048,-2.3965561,-12.047929,-14.032374,66.07631,70.516655,23.803267,3.1573834,2.5314395
37,0.05451903119683266,1.6219252347946167,78.19732666015625,-0.014334050847476004,-3.4315267148576853,-93.34035225381199,8.900234,5.943864,13.777794,7.3963323,-10.772917,-6.642199,5.8187294,-7.1790075,-14.668343,7.306348,-10.865031,8.103087,0.3411446,1.8401265,8.803317,-1.7058599,15.785229,-46.977097,60.716343,2.951623,-5.581046,-2.401577,-12.018974,-14.028411,66.098366,70.531395,23.817875,3.18157,2.540264
38,0.054992955178022385,1.5893399715423584,78.19175720214844,-0.019813063246739253,-3.467757351148744,-93.33208315506239,8.981036,5.946501,13.781337,7.375121,-10.79325,-6.679895,5.895337,-7.177905,-14.683947,7.303393,-10.891051,8.115606,0.33388206,1.8470335,8.776276,-1.6500459,15.792426,-46.982723,60.72496,2.9579132,-5.5807834,-2.4132776,-11.9751425,-14.023536,66.107574,70.54033,23.810244,3.2121298,2.549947
39,0.05830926075577736,1.5571119785308838,78.18788146972656,-0.0241493236854493,-3.5069484457056475,-93.32226195679347,9.064501,5.948779,13.782943,7.355916,-10.815013,-6.7160826,5.9759035,-7.177248,-14.7006445,7.3005047,-10.9185,8.128802,0.33710527,1.8536146,8.759991,-1.6121359,15.796251,-46.99887,60.741688,2.9677417,-5.5783277,-2.4281516,-11.948915,-14.020814,66.12825,70.55222,23.83329,3.2387514,2.5596821
40,0.058919452130794525,1.5250581502914429,78.18450927734375,-0.027078833502351855,-3.5481792321511505,-93.30957770183085,9.145975,5.9490924,13.779445,7.342587,-10.8369255,-6.742863,6.0591946,-7.1791673,-14.718915,7.2976613,-10.9493265,8.144105,0.32528946,1.8584963,8.7404375,-1.5736399,15.800646,-47.02054,60.7611,2.9624493,-5.5737877,-2.4384909,-11.910666,-14.017545,66.144585,70.56116,23.838379,3.2503679,2.5614014
41,0.06013590097427368,1.4923827648162842,78.17945861816406,-0.026361648542889582,-3.591094667317349,-93.29297059615035,9.219702,5.946197,13.768007,7.34523,-10.862214,-6.7531652,6.1423283,-7.185916,-14.737756,7.2978425,-10.986194,8.162777,0.31800744,1.8587768,8.726192,-1.5344129,15.8043785,-47.03509,60.77498,2.9788609,-5.56444,-2.4455307,-11.87091,-14.014482,66.153336,70.56953,23.846613,3.2397685,2.55384
42,0.06294095516204834,1.4643504619598389,78.17259216308594,-0.023137841148483634,-3.6363328236030217,-93.2735302587237,9.29264,5.940738,13.751525,7.351868,-10.886358,-6.753012,6.228804,-7.195216,-14.757832,7.2971063,-11.026155,8.183652,0.31430158,1.8560948,8.717959,-1.4990442,15.808257,-47.049786,60.787384,3.0073283,-5.551296,-2.4516776,-11.839234,-14.011227,66.17068,70.58204,23.874006,3.213967,2.5403063
43,0.06273876875638962,1.4346716403961182,78.16677856445312,-0.02082427278525933,-3.6843852921754325,-93.25259602601723,9.367179,5.9355803,13.733233,7.3622384,-10.913545,-6.753137,6.319163,-7.2049503,-14.779828,7.2966795,-11.067333,8.205003,0.3082544,1.851706,8.718109,-1.4730117,15.810849,-47.06156,60.804173,3.0320776,-5.539097,-2.4576173,-11.815288,-14.008817,66.18737,70.59259,23.90263,3.1851895,2.5265331
44,0.061850108206272125,1.4010180234909058,78.16065979003906,-0.020120020630314234,-3.735468862991723,-93.2312411294303,9.450618,5.932751,13.717073,7.363396,-10.939995,-6.7645497,6.415259,-7.211836,-14.805293,7.2954836,-11.107452,8.224897,0.29635853,1.8498241,8.717759,-1.4478744,15.812466,-47.077103,60.822926,3.030623,-5.530106,-2.46099,-11.7919235,-14.0071945,66.2049,70.60098,23.930552,3.163743,2.5159466
45,0.06053827702999115,1.3649249076843262,78.15385437011719,-0.02246791740950538,-3.7912851689933387,-93.21028778057143,9.547147,5.9329314,13.704721,7.352691,-10.967599,-6.7927084,6.520616,-7.214976,-14.835156,7.292882,-11.146655,8.243059,0.27100477,1.8499215,8.703821,-1.3937893,15.814254,-47.083717,60.83401,3.0061069,-5.525822,-2.45752,-11.73986,-14.004653,66.19762,70.59901,23.916098,3.1530285,2.5060651
46,0.05752120167016983,1.33002507686615,78.14751434326172,-0.02598798148113059,-3.850680427415489,-93.18922770090762,9.651961,5.93496,13.694109,7.3363247,-10.996847,-6.830933,6.632777,-7.215888,-14.868351,7.2879624,-11.184681,8.260359,0.26055753,1.8492764,8.694177,-1.3334506,15.815325,-47.080402,60.837788,2.9904544,-5.5233145,-2.4521646,-11.692995,-14.0025015,66.17849,70.597404,23.907862,3.1473591,2.49941
47,0.05514984205365181,1.2943328619003296,78.14209747314453,-0.030791917149692975,-3.911708955019731,-93.16647763121601,9.758079,5.938284,13.682635,7.320447,-11.026756,-6.8718677,6.7468524,-7.216004,-14.903433,7.285112,-11.22327,8.276752,0.23385115,1.849114,8.68865,-1.2815045,15.816146,-47.078236,60.847366,2.95593,-5.523452,-2.4469054,-11.6441145,-14.000422,66.15004,70.59073,23.87675,3.1434844,2.494299
48,0.054279714822769165,1.2557440996170044,78.13678741455078,-0.034837742345682224,-3.972010776404393,-93.14157323983285,9.861955,5.9413753,13.668632,7.306645,-11.055371,-6.908105,6.8596325,-7.2164207,-14.937964,7.2829647,-11.261103,8.292188,0.21132189,1.8493769,8.687347,-1.2430233,15.816892,-47.088696,60.85975,2.9288511,-5.523159,-2.4452486,-11.6038065,-13.998465,66.130745,70.58793,23.857832,3.136867,2.492272
49,0.05396539345383644,1.216764211654663,78.13267517089844,-0.040970440903009504,-4.03141443462675,-93.11198343441951,9.9598875,5.944854,13.649438,7.2999034,-11.083881,-6.9375024,6.970631,-7.216948,-14.9731655,7.282696,-11.2983,8.305755,0.18616307,1.8525128,8.682547,-1.201996,15.817548,-47.11055,60.866962,2.9169295,-5.5197744,-2.4442773,-11.557475,-13.996158,66.11041,70.589264,23.831411,3.1237943,2.492447
50,0.053661588579416275,1.17726731300354,78.12676239013672,-0.047684632122151197,-4.0905715138323036,-93.07933506574176,10.054913,5.9491043,13.627152,7.2974524,-11.112901,-6.9639745,7.0812297,-7.217263,-15.0091505,7.2828135,-11.333848,8.317858,0.17060177,1.857106,8.677455,-1.1534295,15.817717,-47.132618,60.864372,2.9333885,-5.5142584,-2.4435234,-11.513945,-13.99358,66.09684,70.59602,23.819859,3.1065524,2.4948127
51,0.05423034727573395,1.1422582864761353,78.12004089355469,-0.05408598314295414,-4.149526011437877,-93.0471404531078,10.14965,5.9533024,13.605164,7.2953143,-11.141036,-6.989452,7.191291,-7.2177916,-15.044118,7.2835417,-11.369736,8.330167,0.14793642,1.8615396,8.666974,-1.1070104,15.817533,-47.16373,60.86638,2.9365017,-5.511702,-2.4435816,-11.461493,-13.990651,66.07989,70.60083,23.796555,3.0908055,2.4961922
52,0.052741922438144684,1.108299732208252,78.1131591796875,-0.05933817464573919,-4.208844092540861,-93.01823052098668,10.2475395,5.956352,13.586199,7.2898817,-11.167778,-7.0155735,7.303199,-7.218741,-15.077712,7.2809105,-11.405757,8.344275,0.13921578,1.861032,8.657986,-1.0728962,15.816971,-47.213627,60.877007,2.9271169,-5.51635,-2.4436078,-11.414137,-13.985353,66.06394,70.60412,23.795986,3.0824435,2.4941664
53,0.04833817481994629,1.0742921829223633,78.10751342773438,-0.06028057983804042,-4.268736813716942,-92.99507909588726,10.346131,5.9594917,13.571809,7.2869287,-11.195827,-7.0438285,7.413522,-7.220755,-15.107131,7.2808814,-11.445315,8.36096,0.11474952,1.8553013,8.651686,-1.0331271,15.8167095,-47.238857,60.888245,2.916115,-5.5342693,-2.4448724,-11.368818,-13.982532,66.04971,70.59703,23.791397,3.0838304,2.4856
54,0.04484819248318672,1.0362727642059326,78.1011734008789,-0.06296976141071306,-4.328856622313159,-92.97498405738241,10.448857,5.9616613,13.560297,7.2779937,-11.220941,-7.0731063,7.525957,-7.2225966,-15.134413,7.276086,-11.483744,8.379193,0.103038974,1.8459185,8.636368,-0.97622436,15.816446,-47.264038,60.89236,2.9201522,-5.5595355,-2.4439044,-11.307303,-13.978262,66.01568,70.58345,23.78322,3.0911405,2.4713058
55,0.04176105558872223,0.9966431260108948,78.09477996826172,-0.062455440481718735,-4.388908974973265,-92.95557487090586,10.549597,5.9631643,13.549268,7.273134,-11.247127,-7.100532,7.636409,-7.226302,-15.161989,7.275091,-11.524243,8.398356,0.08877679,1.8338349,8.630182,-0.93757224,15.816613,-47.292572,60.904263,2.9104385,-5.5855246,-2.44852,-11.260332,-13.974051,65.99304,70.5696,23.787561,3.1031423,2.4598677
56,0.039857424795627594,0.9609987139701843,78.08811950683594,-0.061803390044748004,-4.447928984480911,-92.93525233622452,10.650092,5.9624524,13.538292,7.264968,-11.270103,-7.1240344,7.7482166,-7.231384,-15.192437,7.2697253,-11.561985,8.41754,0.10725507,1.8195016,8.614767,-0.9069644,15.816906,-47.353302,60.921295,2.895601,-5.6007166,-2.459601,-11.200026,-13.96247,65.95187,70.565704,23.792677,3.114647,2.4553144
57,0.03987821564078331,0.9251667261123657,78.08100891113281,-0.05879035826025105,-4.506086213988476,-92.9120253059425,10.7436075,5.9594364,13.524857,7.2672944,-11.296903,-7.139799,7.85571,-7.241534,-15.227816,7.2732205,-11.603732,8.43733,0.098887436,1.8057941,8.610032,-0.8639158,15.816425,-47.360912,60.922886,2.9027348,-5.604843,-2.4875937,-11.152681,-13.958155,65.938774,70.55258,23.79436,3.1332953,2.4634206
58,0.03780706226825714,0.8898489475250244,78.07450103759766,-0.05453547372580503,-4.563588522791727,-92.88772871329645,10.836628,5.953784,13.511073,7.2664013,-11.319999,-7.1500664,7.964332,-7.254085,-15.266838,7.274297,-11.644292,8.457703,0.085667975,1.7909607,8.604749,-0.83067644,15.815468,-47.373745,60.93012,2.8926044,-5.6020045,-2.5265455,-11.099514,-13.95158,65.92028,70.53721,23.778877,3.1571703,2.4792535
59,0.034768156707286835,0.8535815477371216,78.07108306884766,-0.05040568159197931,-4.620759373879868,-92.8635328470402,10.927893,5.9484663,13.497689,7.2686896,-11.3439045,-7.1611834,8.07062,-7.2669206,-15.305422,7.2787237,-11.685556,8.4779825,0.08219165,1.7753096,8.605213,-0.8011636,15.814377,-47.38298,60.935215,2.8928075,-5.594839,-2.565784,-11.057859,-13.946856,65.91663,70.52343,23.785757,3.1786487,2.4966733
60,0.03214121609926224,0.8179482817649841,78.06697845458984,-0.04687690356501773,-4.6781450407921605,-92.84035573975633,11.022001,5.9450035,13.485911,7.265363,-11.364185,-7.179325,8.179587,-7.2757034,-15.340819,7.2760215,-11.721774,8.497226,0.07737045,1.7610708,8.594013,-0.75067043,15.812381,-47.388245,60.934402,2.9023414,-5.5850377,-2.592081,-10.996032,-13.940438,65.903915,70.50707,23.772852,3.1903,2.5055206
61,0.03081144206225872,0.78469318151474,78.06128692626953,-0.047084805030589524,-4.735992098123905,-92.81829969575111,11.11756,5.944928,13.476409,7.260383,-11.38293,-7.2096415,8.285383,-7.2805076,-15.370983,7.2780347,-11.757609,8.5149555,0.07627842,1.7471797,8.602283,-0.7274052,15.811161,-47.40371,60.94123,2.9018054,-5.572332,-2.604816,-10.962383,-13.936365,65.912315,70.48897,23.78752,3.1910448,2.503802
62,0.02731879986822605,0.7481850385665894,78.05548095703125,-0.048243139794655145,-4.795675906811754,-92.79684787380758,11.22087,5.946208,13.468836,7.2437015,-11.395033,-7.247929,8.396511,-7.281041,-15.398459,7.2715564,-11.787464,8.5318165,0.07772676,1.7359084,8.580741,-0.6934301,15.806406,-47.468662,60.962456,2.8615549,-5.553749,-2.6008666,-10.894403,-13.920421,65.93108,70.47964,23.801193,3.18062,2.4885464
63,0.023905420675873756,0.7108399868011475,78.0498046875,-0.0489579796442771,-4.853731802360741,-92.77611378795288,11.322085,5.947255,13.4616,7.227971,-11.407134,-7.2851996,8.504346,-7.281952,-15.42481,7.266679,-11.81765,8.548427,0.084981754,1.7227106,8.569913,-0.6480631,15.8016815,-47.494774,60.96848,2.8658743,-5.536219,-2.595873,-10.837258,-13.907272,65.9397,70.46854,23.81021,3.1672866,2.4788423
64,0.019570572301745415,0.6736754179000854,78.04442596435547,-0.04790584835945977,-4.908907482861867,-92.75567506055006,11.415264,5.946915,13.452594,7.222531,-11.424125,-7.3127885,8.606055,-7.2861757,-15.451322,7.267851,-11.852457,8.56569,0.08402482,1.7075037,8.559902,-0.6234715,15.795792,-47.533314,60.990623,2.842103,-5.5266166,-2.5921798,-10.786544,-13.890598,65.951416,70.46605,23.81379,3.1543992,2.483354
65,0.015182897448539734,0.6384794116020203,78.03931427001953,-0.04435806878678799,-4.960543554112986,-92.73412472610856,11.501218,5.9428596,13.439768,7.22356,-11.4443655,-7.32482,8.703329,-7.2951674,-15.480928,7.2695203,-11.889714,8.582564,0.079905234,1.6877685,8.552477,-0.5976589,15.791214,-47.553654,61.009506,2.8317165,-5.52892,-2.5912325,-10.742039,-13.87812,65.95658,70.4643,23.808378,3.142111,2.515996
66,0.013560299761593342,0.6065061688423157,78.03388214111328,-0.03893355796465925,-5.009257401251242,-92.71206257320128,11.582383,5.9365444,13.424604,7.2266035,-11.464488,-7.327303,8.798749,-7.30662,-15.511794,7.2675796,-11.926083,8.599058,0.07131541,1.6657346,8.541057,-0.56015474,15.787208,-47.555107,61.02319,2.8364797,-5.539253,-2.589577,-10.689261,-13.86815,65.94333,70.46273,23.776575,3.1270854,2.567017
67,0.01088868547230959,0.5724857449531555,78.02982330322266,-0.03308606210877729,-5.057168727273828,-92.69274538713256,11.662049,5.9301763,13.411599,7.233519,-11.486956,-7.3285227,8.889589,-7.318981,-15.540078,7.2725563,-11.966204,8.617451,0.075870074,1.6427219,8.532377,-0.52772254,15.782553,-47.557972,61.036575,2.8468828,-5.5480013,-2.5890067,-10.646136,-13.856865,65.94372,70.46549,23.771257,3.114216,2.6131015
68,0.009350355714559555,0.5376415848731995,78.02517700195312,-0.028292128190863547,-5.106099211069148,-92.6791463026094,11.746872,5.9255085,13.405277,7.2363176,-11.507624,-7.3371835,8.98376,-7.328178,-15.5632,7.2705035,-12.001054,8.640027,0.09062406,1.6223893,8.520229,-0.47774145,15.779113,-47.548763,61.036358,2.8734324,-5.545678,-2.588984,-10.589215,-13.849704,65.94072,70.4583,23.768503,3.1072624,2.628225
69,0.0073911999352276325,0.5015196204185486,78.01959991455078,-0.024994232152242224,-5.158134921124816,-92.67423952414516,11.844897,5.9219904,13.409497,7.2259264,-11.523218,-7.355756,9.0846,-7.3332067,-15.578102,7.2592177,-12.031016,8.6708355,0.10376529,1.6051165,8.503785,-0.44744605,15.7721815,-47.567207,61.054695,2.8542361,-5.5284123,-2.5905378,-10.533689,-13.833428,65.97615,70.46004,23.800076,3.108328,2.5937603
70,0.006437764968723059,0.46578362584114075,78.01490783691406,-0.021259233608836785,-5.211404281266474,-92.67561969425778,11.947288,5.919989,13.420736,7.2147174,-11.539525,-7.3796587,9.187979,-7.3359027,-15.586942,7.2436414,-12.058958,8.707501,0.13113987,1.5896425,8.481998,-0.39837936,15.760147,-47.572372,61.063644,2.8570268,-5.5004106,-2.590268,-10.475971,-13.806053,66.03193,70.47185,23.864185,3.113719,2.5256953
71,0.0034315199591219425,0.4232819080352783,78.0089340209961,-0.020032392369787894,-5.263170368051097,-92.6786234414278,12.053375,5.917738,13.434136,7.192163,-11.548153,-7.4066873,9.292223,-7.3368897,-15.595493,7.221359,-12.079773,8.742663,0.15985097,1.5749751,8.461919,-0.356024,15.75066,-47.581596,61.072357,2.8527455,-5.470265,-2.5934856,-10.418139,-13.784401,66.08471,70.47446,23.922455,3.1227255,2.4570239
72,0.0010428649839013815,0.3832089900970459,78.00408935546875,-0.018838545360529074,-5.3099645958077595,-92.67845034389985,12.143189,5.9185505,13.4429,7.188187,-11.562509,-7.434354,9.380065,-7.340375,-15.607491,7.223346,-12.107462,8.768966,0.18300518,1.561725,8.441003,-0.31555128,15.743495,-47.588444,61.078506,2.8512778,-5.44554,-2.601699,-10.362245,-13.768521,66.12264,70.469505,23.952888,3.1323206,2.4197102
73,0.00033007137244567275,0.34822699427604675,77.9995346069336,-0.021399219411457858,-5.349063428876612,-92.67378675081221,12.223551,5.920797,13.4458065,7.1816354,-11.571374,-7.4622664,9.460586,-7.3422384,-15.626779,7.2251678,-12.127,8.779846,0.20034978,1.5502691,8.41433,-0.2676227,15.735192,-47.581055,61.078907,2.8673468,-5.4260235,-2.6186452,-10.307025,-13.751591,66.142555,70.46113,23.946316,3.1421397,2.4248586
74,-0.00022246009029913694,0.31070053577423096,77.99654388427734,-0.02385138286145513,-5.382375027110639,-92.66652950649599,12.29692,5.9245596,13.445179,7.1725683,-11.575515,-7.4917283,9.53151,-7.344165,-15.650099,7.2351294,-12.144466,8.781033,0.21253629,1.5426606,8.387568,-0.22967304,15.72999,-47.577522,61.081642,2.8756816,-5.4108515,-2.6434612,-10.262067,-13.741683,66.15889,70.4546,23.92576,3.150766,2.4584014
75,-0.0030747619457542896,0.27690035104751587,77.99554443359375,-0.026930492375343635,-5.415230382222828,-92.65908124272663,12.3675785,5.928347,13.445185,7.1664853,-11.577258,-7.5228877,9.6017,-7.346394,-15.674039,7.2436686,-12.157465,8.782568,0.21930088,1.533996,8.354956,-0.17713042,15.722818,-47.564114,61.078568,2.8970268,-5.3977914,-2.6649735,-10.207249,-13.728986,66.164665,70.44218,23.882711,3.162532,2.4997385
76,-0.004454195033758879,0.24319961667060852,77.9941177368164,-0.027933266957006646,-5.4520872139572365,-92.6525991205588,12.445066,5.928477,13.449008,7.154851,-11.571572,-7.555683,9.676627,-7.3510284,-15.696394,7.2476416,-12.16661,8.7948475,0.22124691,1.5220405,8.327454,-0.13738677,15.707504,-47.559822,61.092037,2.9107263,-5.3903227,-2.6754248,-10.167428,-13.701036,66.181335,70.4495,23.85127,3.1762602,2.5376995
77,-0.006489537190645933,0.2102229744195938,77.99231719970703,-0.024554054567157934,-5.494160961030678,-92.64828987574862,12.528476,5.925566,13.457411,7.1431875,-11.56267,-7.5894537,9.759437,-7.3572106,-15.715433,7.2423515,-12.172142,8.823327,0.22466466,1.5057251,8.30853,-0.100562066,15.697848,-47.57024,61.100704,2.9211113,-5.388908,-2.6691818,-10.124977,-13.682478,66.18536,70.43952,23.818474,3.195801,2.569707
78,-0.01010038796812296,0.1792447417974472,77.99278259277344,-0.01908749252452353,-5.538891752632787,-92.64516533712012,12.616578,5.9194436,13.469229,7.127568,-11.548793,-7.6242733,9.845947,-7.365416,-15.732863,7.231414,-12.173656,8.861748,0.23034841,1.4865918,8.286817,-0.08056857,15.680787,-47.61018,61.13241,2.9127557,-5.3930106,-2.6493511,-10.084879,-13.646643,66.177475,70.45187,23.778437,3.2173066,2.6026907
79,-0.01168971136212349,0.14951089024543762,77.99337768554688,-0.012161725511329565,-5.584731409322936,-92.6414212124959,12.703467,5.9127245,13.482391,7.114572,-11.528901,-7.662051,9.930084,-7.375776,-15.750849,7.2261896,-12.173093,8.902214,0.2333975,1.4652684,8.286179,-0.05253966,15.678301,-47.62012,61.135403,2.9279861,-5.399537,-2.6319563,-10.056364,-13.64134,66.17868,70.42798,23.747936,3.241005,2.6347375
80,-0.013863315805792809,0.11818274110555649,77.9959487915039,-0.005225802683122966,-5.633359597293481,-92.63555329583443,12.793925,5.905992,13.496201,7.096778,-11.495891,-7.70482,10.017548,-7.386353,-15.77181,7.2196693,-12.162668,8.937092,0.25319588,1.4440504,8.260378,-0.018427394,15.663223,-47.66519,61.16313,2.923762,-5.4073057,-2.6167595,-10.004276,-13.607286,66.18011,70.43727,23.713911,3.2556238,2.6621745
81,-0.015944737941026688,0.08696696162223816,77.99942779541016,0.0007642304040367889,-5.684454874712402,-92.6256572038994,12.884003,5.9007177,13.50998,7.082726,-11.453928,-7.754172,10.101609,-7.3987746,-15.797151,7.227364,-12.149286,8.963441,0.26575604,1.4230114,8.251363,-0.0011418937,15.648982,-47.69952,61.199303,2.9017153,-5.420103,-2.6150746,-9.966865,-13.574999,66.19922,70.44923,23.67167,3.2615685,2.689998
82,-0.017582478001713753,0.0563783161342144,78.00369262695312,0.006855083977546538,-5.738673456829551,-92.61309538279242,12.975008,5.8967175,13.524607,7.07005,-11.4028845,-7.8089437,10.187419,-7.4115267,-15.825701,7.237672,-12.128755,8.985739,0.2781182,1.4024009,8.249586,0.019276747,15.640108,-47.725407,61.22994,2.877405,-5.436765,-2.620657,-9.927106,-13.55523,66.227486,70.44708,23.624186,3.2628446,2.7175968
83,-0.019860360771417618,0.029585152864456177,78.00959014892578,0.014952540482916292,-5.7909881423325285,-92.60073066117972,13.062544,5.8906517,13.539419,7.0565047,-11.3414545,-7.8657017,10.267087,-7.427047,-15.854609,7.253207,-12.103453,9.007173,0.2849675,1.380322,8.248611,0.016401706,15.628107,-47.77498,61.280243,2.8204036,-5.4538603,-2.627372,-9.896992,-13.528156,66.272224,70.45726,23.593927,3.260898,2.7375517
84,-0.020784130319952965,0.0031826014164835215,78.017578125,0.025903439481272935,-5.836794021612429,-92.59139745544215,13.1398535,5.880016,13.553757,7.0432787,-11.269406,-7.921658,10.33639,-7.4469686,-15.881055,7.2681627,-12.070402,9.03114,0.30291474,1.3543352,8.243819,0.036724042,15.614455,-47.791874,61.312862,2.821976,-5.464542,-2.6329677,-9.868655,-13.4993925,66.30696,70.468735,23.59195,3.260234,2.7438064
85,-0.02235770784318447,-0.01679980382323265,78.02815246582031,0.043540463079729086,-5.874975530189465,-92.58733436920537,13.205195,5.86291,13.569024,7.0305047,-11.185983,-7.9748225,10.391447,-7.4734817,-15.901678,7.286553,-12.033507,9.057527,0.32225478,1.3233278,8.240934,0.050851338,15.603886,-47.804527,61.343433,2.8414383,-5.4693213,-2.6369011,-9.847164,-13.477979,66.337944,70.473885,23.630867,3.2633667,2.7282245
86,-0.025826821103692055,-0.03640036657452583,78.04102325439453,0.06540489601603368,-5.908018850651119,-92.5866707773007,13.260067,5.841124,13.584767,7.0228996,-11.094648,-8.0272,10.43626,-7.5055623,-15.918827,7.307317,-11.991221,9.085026,0.33957753,1.2880931,8.241471,0.030515386,15.590051,-47.84848,61.39771,2.8299174,-5.4712195,-2.6388686,-9.8474455,-13.449444,66.39816,70.491585,23.7279,3.2674906,2.6954782
87,-0.0272942204028368,-0.05361292138695717,78.05416870117188,0.0859527220827919,-5.9367343292331825,-92.58574528231276,13.305941,5.8195834,13.598199,7.0170517,-10.993823,-8.081797,10.474548,-7.537811,-15.938352,7.327083,-11.938917,9.114602,0.37168002,1.251677,8.242859,0.039782118,15.581717,-47.85395,61.419003,2.8787847,-5.467347,-2.644066,-9.837891,-13.433591,66.423195,70.489426,23.807955,3.2712843,2.6611092
88,-0.028681082651019096,-0.0669756680727005,78.07271575927734,0.10549889901214825,-5.960939142369715,-92.5809662183131,13.344262,5.802095,13.605769,7.0108843,-10.883684,-8.140943,10.508001,-7.5660477,-15.966719,7.3440795,-11.872627,9.147526,0.38499537,1.2213278,8.243604,0.0346544,15.57656,-47.86783,61.44405,2.8913703,-5.465309,-2.6547444,-9.836456,-13.423856,66.45049,70.489426,23.859806,3.2653778,2.6438103
89,-0.029633861035108566,-0.07750894874334335,78.09353637695312,0.11884779387896165,-5.97955638853727,-92.57039753376935,13.373418,5.789581,13.605479,7.003092,-10.760568,-8.20847,10.539433,-7.5885754,-16.007349,7.350971,-11.786919,9.185966,0.38286737,1.196355,8.233465,0.03233156,15.563789,-47.884487,61.46857,2.8832405,-5.458165,-2.6671758,-9.833135,-13.400062,66.47318,70.50243,23.861038,3.2477055,2.6432984
90,-0.03125270828604698,-0.0890720784664154,78.11492156982422,0.13059438773098234,-5.992621211967855,-92.55616623020391,13.392966,5.7797794,13.599212,6.995504,-10.625893,-8.281848,10.564597,-7.608634,-16.056246,7.3552465,-11.687586,9.228831,0.38057286,1.1741283,8.228535,0.021142783,15.55577,-47.897945,61.484745,2.8720036,-5.44885,-2.6868165,-9.839505,-13.384829,66.48241,70.5095,23.838985,3.2211185,2.6577754
91,-0.034544117748737335,-0.09966140985488892,78.13752746582031,0.13920260972354453,-6.003605019238566,-92.54163231592848,13.4076185,5.7730784,13.591318,6.988048,-10.485667,-8.3556185,10.585037,-7.626075,-16.107996,7.359664,-11.578033,9.271786,0.3800283,1.154839,8.219748,0.004096477,15.543037,-47.916378,61.507824,2.856049,-5.440985,-2.706483,-9.848062,-13.360682,66.48129,70.53117,23.807468,3.1928885,2.6763155
92,-0.03721538186073303,-0.1082095056772232,78.16152954101562,0.14596580846367047,-6.0162712657132404,-92.530316210145,13.42198,5.7696075,13.585946,6.98119,-10.345645,-8.424223,10.601366,-7.6410217,-16.15693,7.3691316,-11.463357,9.310608,0.39165723,1.1366398,8.217756,0.005925417,15.536103,-47.908237,61.504517,2.880405,-5.4370933,-2.7269444,-9.8553095,-13.348259,66.47091,70.531784,23.792957,3.1753013,2.6915424
93,-0.04026460647583008,-0.1098904088139534,78.18659210205078,0.15180817388983234,-6.03113958589959,-92.52272193325139,13.436012,5.76973,13.584462,6.976322,-10.206754,-8.485228,10.6154995,-7.6537952,-16.205736,7.3807883,-11.340177,9.343933,0.4021061,1.1189125,8.226262,-0.008544332,15.528499,-47.898357,61.506718,2.9031236,-5.4407263,-2.7530513,-9.872305,-13.334434,66.45676,70.529305,23.797792,3.1739502,2.7074578
94,-0.04249613732099533,-0.1109621599316597,78.21273040771484,0.15590026821246086,-6.046649972539947,-92.51709923289889,13.44043,5.7744884,13.583696,6.9886184,-10.074073,-8.541974,10.624304,-7.6651573,-16.25554,7.3982077,-11.209918,9.374252,0.4116416,1.1027455,8.239957,-0.029807497,15.52122,-47.886116,61.507866,2.9255927,-5.450262,-2.7839527,-9.891474,-13.321145,66.434166,70.520424,23.807222,3.181259,2.726434
95,-0.044080816209316254,-0.10829219967126846,78.23963165283203,0.15586659305416317,-6.062511500015152,-92.51371716599174,13.441907,5.7834044,13.583533,7.0042443,-9.942486,-8.597845,10.630899,-7.6721153,-16.30076,7.4144635,-11.072953,9.402768,0.43790188,1.0889231,8.260728,-0.055205997,15.512076,-47.868885,61.50503,2.9654248,-5.4621844,-2.8083885,-9.9289055,-13.304407,66.42089,70.520706,23.846207,3.1877766,2.7404246
96,-0.04743100330233574,-0.10519135743379593,78.2687759399414,0.15334649076406795,-6.0766371743687335,-92.51259344317572,13.439856,5.796316,13.582966,7.0231795,-9.8142185,-8.655612,10.631633,-7.6744003,-16.335484,7.432931,-10.9347105,9.430906,0.44825003,1.0807112,8.273093,-0.070879914,15.509788,-47.86207,61.489315,2.970964,-5.4739156,-2.8120866,-9.950469,-13.300148,66.412476,70.50091,23.859703,3.1853182,2.7352843
97,-0.05155240744352341,-0.09808569401502609,78.29705810546875,0.14497877337060366,-6.095306597079021,-92.51531966994519,13.445041,5.8156533,13.581934,7.038332,-9.683161,-8.720991,10.637401,-7.667062,-16.356478,7.4444447,-10.787723,9.457193,0.46555793,1.0766069,8.303189,-0.09970455,15.50605,-47.855156,61.469254,2.9613125,-5.4886827,-2.787412,-9.987385,-13.29198,66.4044,70.4787,23.872076,3.1677873,2.7028148
98,-0.0549987256526947,-0.09261970221996307,78.32502746582031,0.13146955296138257,-6.116016631906686,-92.52113529482747,13.451083,5.8406215,13.580216,7.0546722,-9.551163,-8.7905245,10.641964,-7.6534486,-16.367615,7.456632,-10.635066,9.4816,0.49237624,1.077105,8.334765,-0.12236993,15.502534,-47.850567,61.438442,2.948209,-5.506042,-2.740968,-10.029428,-13.282729,66.408966,70.45683,23.899298,3.1396585,2.6502883
99,-0.056740861386060715,-0.08377228677272797,78.35240173339844,0.11635571307352222,-6.13181106358061,-92.52764775904718,13.4488,5.8673077,13.579222,7.074589,-9.426166,-8.854354,10.640352,-7.637103,-16.373621,7.464257,-10.480976,9.5069065,0.50303495,1.080606,8.36694,-0.16608971,15.499315,-47.861816,61.417297,2.9008029,-5.5220847,-2.6915464,-10.083724,-13.269689,66.42888,70.43978,23.921171,3.1111035,2.5983055
100,-0.06013666093349457,-0.07438179105520248,78.38053131103516,0.102716562845824,-6.134786647833081,-92.53294135420107,13.428051,5.8915396,13.580379,7.09638,-9.312606,-8.902438,10.621492,-7.623336,-16.378458,7.472201,-10.334971,9.535778,0.51423794,1.0837821,8.383433,-0.1971594,15.49733,-47.861973,61.38589,2.8850915,-5.5281053,-2.6560762,-10.132202,-13.258032,66.43542,70.422,23.92025,3.0928166,2.5655563
101,-0.06123661994934082,-0.06018737331032753,78.40696716308594,0.09237922368416715,-6.121623031028849,-92.53540403967713,13.384647,5.9113727,13.58451,7.1203804,-9.20863,-8.93278,10.586335,-7.613042,-16.383755,7.4714513,-10.19132,9.571801,0.53651285,1.086103,8.383525,-0.2161733,15.496582,-47.85133,61.341114,2.919992,-5.5168395,-2.6421103,-10.18016,-13.25355,66.435524,70.39851,23.91247,3.088892,2.564769
102,-0.06094572693109512,-0.043828632682561874,78.43081665039062,0.08095119510299967,-6.097633754586452,-92.53637781367573,13.326067,5.9292984,13.590925,7.144477,-9.111166,-8.950506,10.538153,-7.6040816,-16.386702,7.4660544,-10.0492525,9.612609,0.5442089,1.0872694,8.392323,-0.27464998,15.496338,-47.850086,61.311142,2.937154,-5.4962263,-2.6418002,-10.264912,-13.244485,66.46357,70.38348,23.91606,3.0945232,2.5848732
103,-0.05934876203536987,-0.024040639400482178,78.45177459716797,0.06959839111617062,-6.066250402933415,-92.53854212925498,13.257526,5.947718,13.598666,7.169634,-9.027546,-8.956772,10.481564,-7.593302,-16.387304,7.4558434,-9.913486,9.651709,0.5504308,1.0921651,8.381032,-0.30748636,15.496401,-47.840515,61.267914,2.9714136,-5.4761558,-2.6438804,-10.3217,-13.24051,66.46343,70.36004,23.880978,3.1017334,2.6064544
104,-0.05230146273970604,-0.0011554331285879016,78.47021484375,0.054094865962996765,-6.033049872549709,-92.54439504756328,13.184066,5.9703784,13.606313,7.2003818,-8.966676,-8.952992,10.419387,-7.577981,-16.38493,7.4488177,-9.793836,9.682582,0.5704529,1.1011455,8.381304,-0.34364069,15.4970665,-47.817253,61.21691,3.0233848,-5.470873,-2.6448505,-10.403869,-13.235608,66.47312,70.348114,23.881342,3.1070132,2.6181471
105,-0.04703683778643608,0.023349251598119736,78.48626708984375,0.035254628716716245,-5.99424101633011,-92.55544325544895,13.103135,5.9972596,13.612427,7.234372,-8.928544,-8.9331665,10.349341,-7.5567946,-16.379343,7.439078,-9.68416,9.704824,0.5815695,1.1170877,8.374799,-0.38715872,15.4982605,-47.8043,61.170387,3.0503707,-5.487611,-2.645576,-10.485344,-13.23301,66.48425,70.33863,23.885925,3.1086721,2.6132228
106,-0.043118637055158615,0.04782303795218468,78.50023651123047,0.013180178548474681,-5.94935397794171,-92.56968560080148,13.012344,6.027575,13.617388,7.274427,-8.911341,-8.898692,10.271091,-7.5311165,-16.370949,7.4269295,-9.583705,9.7213335,0.5928102,1.1390259,8.365435,-0.43276975,15.499763,-47.79163,61.120327,3.0762572,-5.517775,-2.6476061,-10.571226,-13.231594,66.492485,70.33272,23.896215,3.1091685,2.6006188
107,-0.041359756141901016,0.0778731182217598,78.51129913330078,-0.009729159904940285,-5.905783907470576,-92.58548521513067,12.923356,6.0594764,13.625472,7.3120537,-8.910009,-8.861436,10.193928,-7.5027413,-16.361025,7.412054,-9.497998,9.731063,0.5990469,1.1639513,8.362826,-0.4738014,15.502514,-47.765816,61.063747,3.0983143,-5.5527034,-2.6451225,-10.660986,-13.230508,66.49591,70.32928,23.894022,3.1087508,2.584312
108,-0.03832204267382622,0.11029154062271118,78.51683807373047,-0.03399219944570832,-5.871851220290861,-92.60078662259735,12.850827,6.0900555,13.64118,7.3365083,-8.918947,-8.832912,10.126619,-7.4738164,-16.350534,7.3981624,-9.435017,9.732917,0.6054623,1.18899,8.375508,-0.5185323,15.506808,-47.738728,61.008175,3.0975044,-5.5835156,-2.633408,-10.758927,-13.230613,66.50484,70.32808,23.886415,3.1079736,2.5700343
109,-0.033681828528642654,0.14445161819458008,78.5171890258789,-0.060472346509224326,-5.8505734434643255,-92.61490413319028,12.799123,6.1221957,13.665895,7.345943,-8.940413,-8.819757,10.074858,-7.4411874,-16.339613,7.3813047,-9.394646,9.726574,0.6149552,1.2181777,8.409801,-0.5707538,15.513753,-47.717617,60.9513,3.0493321,-5.6098967,-2.605108,-10.8783,-13.232367,66.54474,70.33349,23.900177,3.1074207,2.5584676
110,-0.028528884053230286,0.17947456240653992,78.5150375366211,-0.08930083053791324,-5.837157406862558,-92.6289683548112,12.760582,6.1563673,13.697669,7.344841,-8.9758415,-8.814483,10.031566,-7.404774,-16.327494,7.363014,-9.374151,9.712451,0.6134668,1.252453,8.446794,-0.6306907,15.518458,-47.71393,60.90638,2.9413397,-5.6363378,-2.563967,-10.98011,-13.234472,66.5636,70.33552,23.864687,3.106897,2.5450134
111,-0.023149270564317703,0.2145565152168274,78.50838470458984,-0.11512282128967892,-5.8286556308802915,-92.64343468612223,12.72893,6.1858115,13.7330475,7.3381705,-9.021518,-8.807463,9.993029,-7.371595,-16.3154,7.344343,-9.372384,9.691099,0.61987466,1.283398,8.500619,-0.69557613,15.525345,-47.708626,60.857864,2.8444006,-5.659665,-2.5205991,-11.102746,-13.238498,66.59506,70.34374,23.85175,3.1043432,2.5328074
112,-0.01844494603574276,0.2553965449333191,78.4994888305664,-0.13152918785649886,-5.819867423458735,-92.66019747234807,12.696706,6.2041903,13.770542,7.3298335,-9.073497,-8.78896,9.949037,-7.3493123,-16.302998,7.335165,-9.393061,9.662522,0.6195892,1.3026872,8.553011,-0.74894816,15.538629,-47.69089,60.805843,2.7913964,-5.6782937,-2.4874606,-11.219441,-13.24708,66.6245,70.34473,23.829649,3.09716,2.52017
113,-0.008703993633389473,0.30090856552124023,78.48893737792969,-0.13745712609492824,-5.809571054060528,-92.6769428884118,12.660546,6.20685,13.807614,7.3195724,-9.129373,-8.755831,9.897239,-7.3426948,-16.291553,7.336137,-9.436442,9.626677,0.61754143,1.3076128,8.610963,-0.82234347,15.553242,-47.69131,60.76806,2.763465,-5.690001,-2.4653628,-11.34425,-13.256985,66.645,70.3472,23.79972,3.084494,2.511381
114,-0.005815533455461264,0.3391367793083191,78.47654724121094,-0.13451964765745467,-5.8000677318914,-92.69390573152575,12.624268,6.198386,13.846041,7.3072596,-9.192933,-8.7134495,9.84241,-7.3460693,-16.280458,7.3437667,-9.501938,9.583288,0.61738867,1.3018305,8.675285,-0.8964694,15.574638,-47.69632,60.725624,2.7610183,-5.6953616,-2.4491482,-11.469848,-13.272277,66.654625,70.34206,23.760204,3.0679934,2.5039904
115,-0.0005524025182239711,0.3893354833126068,78.45988464355469,-0.12844567520858,-5.79377006796697,-92.71490170648205,12.593224,6.185087,13.88873,7.292358,-9.26571,-8.664766,9.789205,-7.353611,-16.268143,7.3538117,-9.585471,9.5334015,0.630138,1.2910887,8.740666,-0.97765625,15.58651,-47.70702,60.701466,2.7853065,-5.6979275,-2.4369957,-11.600784,-13.281064,66.66993,70.349884,23.742159,3.0498505,2.493897
116,0.0045633153058588505,0.43824025988578796,78.43959045410156,-0.12132950026447731,-5.793289714174126,-92.74328828472377,12.57203,6.1733866,13.938137,7.27765,-9.351722,-8.612413,9.7414465,-7.3590903,-16.252996,7.364554,-9.684914,9.477937,0.6478902,1.2777865,8.808544,-1.0541929,15.609958,-47.7224,60.674316,2.8158762,-5.698924,-2.4296782,-11.724821,-13.297839,66.69495,70.34608,23.746264,3.03504,2.4741848
117,0.009331676177680492,0.48110726475715637,78.41719055175781,-0.1132110794019042,-5.800318244616416,-92.78117508427086,12.566622,6.1616163,13.996854,7.2569866,-9.450138,-8.556026,9.702796,-7.362999,-16.236351,7.372658,-9.803402,9.414796,0.67439806,1.2608645,8.874282,-1.1189502,15.635185,-47.73257,60.64811,2.8805609,-5.696599,-2.4298346,-11.83144,-13.315262,66.71437,70.33444,23.758894,3.026267,2.4379308
118,0.013534015975892544,0.5253610014915466,78.39069366455078,-0.10307857824988018,-5.812902721544662,-92.82642805597426,12.568203,6.148889,14.062327,7.2418118,-9.565261,-8.494526,9.66687,-7.368545,-16.218105,7.3875628,-9.945436,9.344313,0.72043735,1.2397467,8.9393,-1.1898581,15.650894,-47.745842,60.644302,2.9831626,-5.6932106,-2.4371002,-11.941261,-13.325503,66.745834,70.33688,23.808598,3.0188477,2.392849
119,0.016159674152731895,0.5696037411689758,78.36273193359375,-0.09336084336546338,-5.829036156676578,-92.87566543795083,12.576411,6.1369476,14.131381,7.2227907,-9.687744,-8.429845,9.633922,-7.37188,-16.1956,7.4017124,-10.095689,9.27152,0.7533621,1.2173492,9.013048,-1.244632,15.691621,-47.760338,60.609833,3.061766,-5.685447,-2.4431958,-12.056073,-13.349583,66.809944,70.31885,23.888391,3.013401,2.3441222
120,0.019111787900328636,0.6193518042564392,78.33208465576172,-0.08751248052825567,-5.846062676145118,-92.92559034811649,12.584251,6.130223,14.200008,7.2061,-9.817087,-8.364111,9.601954,-7.368464,-16.166502,7.4110637,-10.240427,9.201074,0.7843853,1.2014363,9.087165,-1.3120339,15.720016,-47.78464,60.60236,3.0977674,-5.6793814,-2.44137,-12.165354,-13.364926,66.84581,70.3155,23.938902,3.0047374,2.3073065
121,0.02369118295609951,0.667932391166687,78.30038452148438,-0.08970877828317209,-5.862636545308321,-92.97605442051326,12.588688,6.1308823,14.267785,7.192662,-9.956841,-8.295779,9.569847,-7.355468,-16.129313,7.4139695,-10.380295,9.131266,0.8058835,1.195691,9.162159,-1.3829869,15.73813,-47.81243,60.612003,3.0732331,-5.672954,-2.4236128,-12.275182,-13.373921,66.86651,70.325874,23.977165,2.991196,2.283165
122,0.02536827325820923,0.7154304385185242,78.27155303955078,-0.09460574803593758,-5.879851506942592,-93.02850485817292,12.593286,6.1365857,14.336549,7.1816487,-10.107898,-8.224504,9.537562,-7.3358583,-16.085825,7.415116,-10.522531,9.06053,0.8352847,1.192479,9.241191,-1.4386715,15.775769,-47.852135,60.598316,3.0110216,-5.6628184,-2.395285,-12.387157,-13.391248,66.89259,70.330956,24.041801,2.974442,2.2643077
123,0.029589824378490448,0.7632747292518616,78.24351501464844,-0.1024672086226352,-5.9009483024409395,-93.08222678114136,12.602423,6.1440835,14.405892,7.1689763,-10.258931,-8.154532,9.508435,-7.3139377,-16.037523,7.4148836,-10.66043,8.993728,0.85400707,1.1912622,9.325366,-1.5096778,15.814096,-47.907093,60.59986,2.9156163,-5.653849,-2.369563,-12.49188,-13.407209,66.90368,70.333664,24.071642,2.959746,2.2518198
124,0.03479241952300072,0.8179351687431335,78.21405792236328,-0.10870742415271151,-5.928380247409745,-93.13641207029377,12.617315,6.151194,14.475296,7.157367,-10.402304,-8.089604,9.487195,-7.2928486,-15.986916,7.4116716,-10.787588,8.935431,0.8795241,1.188461,9.413311,-1.5816807,15.846677,-47.95886,60.611404,2.8553994,-5.649717,-2.3576686,-12.594455,-13.419329,66.9194,70.34022,24.08634,2.9493284,2.246298
125,0.040136609226465225,0.8762350082397461,78.18338775634766,-0.1098610724432047,-5.9630980440043695,-93.19291078741328,12.642582,6.1524396,14.547689,7.140185,-10.536258,-8.028941,9.474117,-7.27845,-15.932209,7.406766,-10.909701,8.891124,0.9140755,1.1800491,9.503877,-1.6421949,15.8808775,-48.004505,60.616394,2.8460712,-5.64809,-2.3658323,-12.688028,-13.43027,66.93836,70.34382,24.059744,2.9458556,2.2495115
126,0.0410810224711895,0.9265563488006592,78.15403747558594,-0.10802750569683676,-6.003399430643606,-93.25142446758456,12.673975,6.1512294,14.622119,7.1227937,-10.666916,-7.9711266,9.465944,-7.2676907,-15.872946,7.402253,-11.028528,8.857054,0.9529723,1.1627973,9.602773,-1.6837152,15.948134,-48.04745,60.58692,2.8587432,-5.6477723,-2.3899302,-12.777002,-13.448097,66.959915,70.33343,24.00549,2.9466243,2.261227
127,0.04016045853495598,0.9799675941467285,78.13037872314453,-0.11173275394661027,-6.048836492160223,-93.30797929481008,12.707844,6.1565504,14.6933,7.1095033,-10.7904,-7.9190106,9.464484,-7.250246,-15.812811,7.39315,-11.128925,8.823775,0.9760791,1.1562616,9.703941,-1.7590411,15.979278,-48.100243,60.61373,2.8540478,-5.652711,-2.4150329,-12.865121,-13.454401,66.98206,70.336815,23.945753,2.9500868,2.2747998
128,0.04010655730962753,1.0323097705841064,78.10964965820312,-0.12596369711526872,-6.098257665699019,-93.35904140985521,12.737905,6.1773324,14.755205,7.1091323,-10.905748,-7.875317,9.462123,-7.2194166,-15.754376,7.393009,-11.204665,8.782185,1.0050768,1.1600844,9.806731,-1.7991847,16.029953,-48.135735,60.604553,2.8758225,-5.6542563,-2.4323928,-12.938677,-13.46259,66.97885,70.33294,23.921331,2.9540033,2.2807963
129,0.04023408517241478,1.0864156484603882,78.09298706054688,-0.15934560996604716,-6.159785115730361,-93.40434683103086,12.7723,6.222079,14.808732,7.12409,-11.014605,-7.8444247,9.469194,-7.165745,-15.697476,7.39813,-11.246981,8.726983,1.0191872,1.188022,9.918536,-1.8525417,16.053339,-48.16013,60.633076,2.8966167,-5.6617556,-2.4387631,-13.016545,-13.46558,66.98093,70.33957,23.973423,2.9614322,2.277995
130,0.04370323568582535,1.144355297088623,78.07852935791016,-0.20537579607241818,-6.2317053390814845,-93.44600042440884,12.810506,6.284496,14.85606,7.151896,-11.11793,-7.8237104,9.484998,-7.0959883,-15.64081,7.4067464,-11.263014,8.663989,1.0379618,1.2299384,10.043921,-1.897044,16.087757,-48.188633,60.64265,2.9194858,-5.666992,-2.4388745,-13.092138,-13.468997,66.97043,70.34397,24.074636,2.9718924,2.2674875
131,0.045724596828222275,1.2001121044158936,78.06832885742188,-0.253816214216716,-6.297055908863473,-93.48201381934507,12.835602,6.3498583,14.894382,7.185781,-11.209053,-7.804618,9.491246,-7.024463,-15.586661,7.4187016,-11.262389,8.600348,1.0522223,1.2736096,10.161578,-1.9274701,16.124449,-48.201633,60.646065,2.9566934,-5.669702,-2.4367907,-13.160205,-13.471708,66.95315,70.34637,24.176435,2.9802806,2.2574775
132,0.04576721787452698,1.2575578689575195,78.06045532226562,-0.2940954057234159,-6.339819998185837,-93.51117062831008,12.830814,6.4049416,14.920372,7.218259,-11.279917,-7.7790046,9.473303,-6.9637713,-15.537594,7.4296155,-11.253246,8.542958,1.0570369,1.3052447,10.261973,-1.9432327,16.179493,-48.204796,60.62617,2.989525,-5.6634336,-2.4353058,-13.220891,-13.473947,66.92993,70.3416,24.233126,2.9811664,2.2528605
133,0.04792189970612526,1.317269206047058,78.05711364746094,-0.3272729902081198,-6.3556502018888885,-93.52939655609694,12.786436,6.449653,14.928946,7.2573776,-11.333939,-7.7446136,9.426739,-6.914856,-15.496245,7.4397745,-11.234556,8.491909,1.0403137,1.3363509,10.335218,-1.9906431,16.190414,-48.215378,60.663776,3.0007622,-5.6478534,-2.4307778,-13.283227,-13.4738655,66.932526,70.34741,24.255413,2.9712443,2.2570028
134,0.05159097909927368,1.3774592876434326,78.05683135986328,-0.3583121691362953,-6.353438219380877,-93.53854375418761,12.714192,6.48931,14.922738,7.301802,-11.372158,-7.705731,9.361102,-6.8716283,-15.460962,7.4495864,-11.202851,8.443802,1.0207034,1.3607467,10.398367,-2.0249856,16.210886,-48.215065,60.681557,3.0231984,-5.6218734,-2.4248803,-13.338805,-13.472456,66.91463,70.35145,24.238056,2.9528642,2.2655985
135,0.05492405593395233,1.4362449645996094,78.05989074707031,-0.3821291319810836,-6.33613382645262,-93.54638417472856,12.62397,6.520777,14.912108,7.3428235,-11.391486,-7.6639156,9.277685,-6.8368363,-15.426712,7.459799,-11.163461,8.401131,1.0065458,1.3759171,10.445245,-2.038145,16.243612,-48.201447,60.677586,3.052704,-5.5937285,-2.417733,-13.389025,-13.468084,66.89997,70.35259,24.215477,2.9329896,2.275539
136,0.057959213852882385,1.4945487976074219,78.06554412841797,-0.39521220509561905,-6.306736147659856,-93.56045353244049,12.522248,6.5413885,14.906127,7.380998,-11.394612,-7.6203732,9.179238,-6.812827,-15.388962,7.4700484,-11.122074,8.366236,0.9967999,1.3820144,10.473003,-2.0524726,16.271795,-48.199253,60.68198,3.0450118,-5.5747976,-2.4050434,-13.433129,-13.462187,66.905106,70.34978,24.205938,2.9172378,2.2820368
137,0.05832498520612717,1.551328182220459,78.07473754882812,-0.39615015127560255,-6.263855397637584,-93.58339095205062,12.409999,6.545753,14.907047,7.410982,-11.372846,-7.574257,9.064092,-6.8042297,-15.345568,7.479193,-11.078808,8.345177,0.9951478,1.3740948,10.475089,-2.0597522,16.296122,-48.204533,60.694397,2.988519,-5.570069,-2.379028,-13.453652,-13.455108,66.90789,70.33509,24.177505,2.909039,2.281644
138,0.05953831598162651,1.6103588342666626,78.08541870117188,-0.38704251976975435,-6.20716389275591,-93.61100045597776,12.284275,6.5373096,14.909911,7.4367094,-11.330152,-7.5252075,8.934025,-6.8077087,-15.299266,7.4837694,-11.028997,8.334936,1.0072936,1.358705,10.457421,-2.0673294,16.303558,-48.21252,60.721985,2.9094088,-5.572853,-2.3426805,-13.465129,-13.452407,66.918785,70.314224,24.151234,2.905319,2.2789657
139,0.0622183196246624,1.6701784133911133,78.09622192382812,-0.3710730886763539,-6.138891047641571,-93.64030268984129,12.144596,6.5243125,14.914397,7.463056,-11.278884,-7.4758425,8.787815,-6.816765,-15.252539,7.494071,-10.978737,8.324113,1.0169553,1.3353504,10.423764,-2.0725176,16.32334,-48.236176,60.740986,2.809414,-5.5781436,-2.3120978,-13.468201,-13.443521,66.93682,70.2892,24.130978,2.9000337,2.2752178
140,0.06227095052599907,1.7308080196380615,78.10745239257812,-0.35916848854409766,-6.066121237572445,-93.66836527575106,12.000284,6.5148044,14.92065,7.4881,-11.230114,-7.4285016,8.634541,-6.8227944,-15.208452,7.507735,-10.927433,8.301577,1.0336026,1.3148522,10.379223,-2.041275,16.342403,-48.221798,60.729496,2.796508,-5.5773864,-2.3045056,-13.452467,-13.433262,66.9186,70.25799,24.101149,2.8899038,2.2767177
141,0.06301375478506088,1.7882417440414429,78.11872863769531,-0.35128313814677603,-5.984517078017691,-93.69382464971157,11.84714,6.509969,14.929311,7.5085382,-11.182061,-7.3855968,8.469163,-6.8244486,-15.169359,7.526548,-10.874274,8.261198,1.042317,1.2949134,10.332525,-2.0252872,16.365528,-48.214622,60.711945,2.8169851,-5.5688205,-2.3330216,-13.43921,-13.419454,66.8828,70.2226,24.077482,2.8714275,2.2870495
142,0.06345457583665848,1.8462203741073608,78.13032531738281,-0.3432289496893868,-5.893534203326074,-93.71852922889315,11.684375,6.5063515,14.940094,7.526161,-11.13094,-7.345477,8.290855,-6.825415,-15.1328335,7.549513,-10.81891,8.210049,1.0465763,1.2800016,10.26609,-1.9957073,16.375011,-48.19813,60.69469,2.8793619,-5.5565367,-2.3801455,-13.406072,-13.412827,66.84229,70.17343,24.06165,2.8471885,2.2993343
143,0.06311506778001785,1.9078001976013184,78.14073181152344,-0.33490849174613524,-5.80069286254074,-93.74410853727292,11.5181265,6.503028,14.952009,7.5466046,-11.081931,-7.303836,8.107001,-6.827216,-15.095697,7.579767,-10.76733,8.156371,1.0690305,1.2578925,10.21141,-1.985238,16.398842,-48.191345,60.66409,2.9492705,-5.5457997,-2.4411669,-13.383475,-13.396337,66.764694,70.12825,24.037802,2.8252244,2.3189921
144,0.06545299291610718,1.969279170036316,78.15046691894531,-0.32776117851372694,-5.716981042548401,-93.77199523909016,11.362662,6.4994264,14.964588,7.568013,-11.037478,-7.2568007,7.9361997,-6.82766,-15.055879,7.602644,-10.716012,8.108545,1.0850636,1.2431434,10.1577635,-1.9433842,16.419512,-48.16562,60.60699,3.0195618,-5.5410433,-2.4882517,-13.347262,-13.381596,66.683014,70.08167,24.003716,2.8096695,2.3353102
145,0.06994466483592987,2.0306177139282227,78.15885925292969,-0.3203423771657999,-5.642609310045016,-93.80169374055335,11.214641,6.495784,14.975997,7.5968666,-11.0011,-7.200036,7.778586,-6.8268147,-15.013721,7.619284,-10.667256,8.070329,1.0972099,1.2336605,10.118137,-1.900344,16.442316,-48.140705,60.528122,3.0652032,-5.5443273,-2.5248184,-13.319734,-13.365841,66.59983,70.038124,23.973185,2.8059785,2.355775
146,0.07160631567239761,2.091559886932373,78.16836547851562,-0.3150193783019403,-5.573279512590926,-93.83273603187935,11.070816,6.4919367,14.987098,7.6288443,-10.969329,-7.136607,7.6262465,-6.8256555,-14.96996,7.6351957,-10.621045,8.036803,1.1080015,1.2274523,10.085258,-1.8483144,16.471233,-48.112953,60.423286,3.1043866,-5.5518255,-2.558306,-13.293972,-13.347089,66.50778,69.996605,23.942356,2.8093903,2.3797066
147,0.07509208470582962,2.151108503341675,78.1773452758789,-0.30901260415126514,-5.510201535505482,-93.86627996913006,10.935009,6.4884377,15.000824,7.6618333,-10.941274,-7.073488,7.4804273,-6.823608,-14.923012,7.6521645,-10.577519,8.002868,1.1144619,1.2255361,10.057565,-1.8000194,16.48848,-48.086517,60.32743,3.124209,-5.566669,-2.5825179,-13.272856,-13.336337,66.44884,69.95129,23.939285,2.8147736,2.3968658
148,0.07926924526691437,2.208298683166504,78.1856918334961,-0.30342905209500165,-5.455254794276324,-93.90341686825556,10.811927,6.485623,15.019819,7.692675,-10.915671,-7.017762,7.3412814,-6.8210487,-14.870904,7.6741714,-10.53708,7.9635563,1.1249409,1.2207537,10.04104,-1.7379647,16.51416,-48.04154,60.220306,3.1437428,-5.586337,-2.5985556,-13.243248,-13.321689,66.37945,69.905495,23.91284,2.815542,2.4004898
149,0.08534497767686844,2.2673497200012207,78.19337463378906,-0.29980911810275673,-5.410188563138388,-93.94552100900182,10.708121,6.4832654,15.046391,7.712979,-10.889179,-6.9712667,7.2092395,-6.817112,-14.811476,7.7048297,-10.501586,7.9162445,1.1336652,1.2139155,10.037281,-1.683894,16.543556,-48.00347,60.122746,3.113735,-5.617723,-2.6007283,-13.223281,-13.306136,66.36028,69.860504,23.923483,2.8099985,2.3791687
150,0.08982884138822556,2.325291395187378,78.1998519897461,-0.2982905529735215,-5.373636977882246,-93.99139494108755,10.61601,6.4824853,15.078326,7.7344236,-10.867646,-6.9305134,7.084727,-6.8118305,-14.746525,7.739117,-10.468833,7.864046,1.1433586,1.2101816,10.038956,-1.6367196,16.558102,-47.968998,60.044662,3.0534737,-5.6595235,-2.58998,-13.193296,-13.298679,66.35496,69.806496,23.937841,2.802011,2.3396742
151,0.09593262523412704,2.384249448776245,78.20624542236328,-0.29632921075864943,-5.3424792105368475,-94.03931556230472,10.532966,6.4810777,15.112928,7.75266,-10.846374,-6.8934736,6.9653435,-6.8069425,-14.679076,7.776016,-10.438789,7.81031,1.1506088,1.2056869,10.052223,-1.5748076,16.581287,-47.91243,59.951553,3.0105886,-5.7002263,-2.5750043,-13.177622,-13.287653,66.376366,69.76362,23.96515,2.7919505,2.3008173
152,0.10513430833816528,2.4356186389923096,78.2120361328125,-0.29367884361206265,-5.313497942126681,-94.08734206579192,10.452704,6.478175,15.14768,7.7706637,-10.8251095,-6.8587627,6.848625,-6.8039117,-14.612431,7.8136115,-10.410692,7.7583594,1.1533569,1.2035922,10.067005,-1.5157086,16.601215,-47.860912,59.8712,2.9830077,-5.731846,-2.5583284,-13.150883,-13.278168,66.3796,69.726364,23.946682,2.7810874,2.2774615
153,0.1125793531537056,2.4884324073791504,78.21824645996094,-0.2887699649099237,-5.287775551716198,-94.13677934072967,10.379419,6.472474,15.184418,7.782906,-10.79981,-6.826125,6.735084,-6.8031154,-14.545588,7.852253,-10.384923,7.7077956,1.1594422,1.2056129,10.091394,-1.468295,16.619772,-47.821617,59.798035,2.9793596,-5.750067,-2.5406988,-13.13243,-13.269466,66.3806,69.70631,23.897635,2.7653203,2.2780194
154,0.120367631316185,2.543158531188965,78.22357177734375,-0.2815920451433354,-5.266207864450455,-94.18809067528395,10.311151,6.465709,15.223282,7.796467,-10.775486,-6.7966413,6.624495,-6.803978,-14.476491,7.8945484,-10.362541,7.656552,1.1708245,1.2093058,10.121249,-1.4156055,16.637451,-47.777485,59.724945,3.0062437,-5.7605524,-2.5201573,-13.109446,-13.261247,66.36875,69.695305,23.813175,2.7453582,2.2919602
155,0.1283242255449295,2.5988683700561523,78.22722625732422,-0.27584381833501104,-5.247562449244871,-94.2374695263255,10.249678,6.4580197,15.260704,7.803251,-10.749039,-6.7695913,6.522636,-6.8045135,-14.410787,7.9279118,-10.337022,7.607986,1.1846195,1.2166907,10.154501,-1.3908129,16.641603,-47.76765,59.690746,3.0090737,-5.768173,-2.4945009,-13.086593,-13.259167,66.36712,69.6889,23.74023,2.7296178,2.31003
156,0.14017513394355774,2.6530213356018066,78.23033142089844,-0.2696805134805887,-5.22461970567267,-94.28247996691842,10.18215,6.4502645,15.293075,7.812362,-10.725705,-6.7439337,6.415837,-6.8072476,-14.351067,7.967615,-10.315672,7.5649133,1.1984811,1.2223077,10.179211,-1.346758,16.64536,-47.749054,59.663536,3.0249333,-5.773467,-2.4661193,-13.056323,-13.257137,66.364204,69.687386,23.685986,2.7258446,2.326122
157,0.15468570590019226,2.7057642936706543,78.23223114013672,-0.2652143014761553,-5.202253018706837,-94.32050202664927,10.116392,6.4423475,15.317121,7.8184524,-10.704786,-6.7197185,6.318425,-6.80986,-14.302245,7.9962807,-10.291768,7.5286326,1.1976594,1.2225541,10.208516,-1.3117819,16.651838,-47.73251,59.666855,3.0179334,-5.78458,-2.4333365,-13.037381,-13.253449,66.39017,69.69224,23.680655,2.7411087,2.3386106
158,0.16544269025325775,2.7538833618164062,78.23495483398438,-0.2614235855640154,-5.180948303764692,-94.35366280261067,10.052476,6.433807,15.335302,7.8221984,-10.685439,-6.6971903,6.2270317,-6.8133607,-14.260885,8.020421,-10.267994,7.497517,1.1899735,1.2220776,10.238332,-1.2850708,16.655554,-47.733067,59.69714,2.9901009,-5.7965956,-2.3934379,-13.015869,-13.250848,66.423874,69.70203,23.693401,2.7690225,2.3501985
159,0.17063583433628082,2.80123233795166,78.23925018310547,-0.25711753965156,-5.155761331799641,-94.38436002096448,9.985883,6.4256616,15.352205,7.8237996,-10.665092,-6.677125,6.134192,-6.816515,-14.222335,8.041691,-10.24145,7.4699974,1.1711514,1.2221162,10.255741,-1.235987,16.659582,-47.725643,59.729332,2.9677176,-5.801844,-2.3564126,-12.988023,-13.246569,66.478455,69.718254,23.724663,2.799071,2.3595378
160,0.1783190369606018,2.852482795715332,78.2444076538086,-0.2540347506809155,-5.124706926967975,-94.41537653245105,9.913442,6.419324,15.372552,7.824843,-10.641351,-6.659968,6.0361023,-6.817483,-14.181365,8.059691,-10.207768,7.4441257,1.146972,1.2223294,10.275672,-1.2124394,16.661827,-47.73195,59.781994,2.9253383,-5.794389,-2.3379104,-12.959629,-13.242473,66.51755,69.72832,23.733574,2.8247852,2.3710794
161,0.18533676862716675,2.8964271545410156,78.25057220458984,-0.2548352559176453,-5.08619852769624,-94.44806079558701,9.835605,6.4160075,15.398939,7.8217998,-10.612297,-6.6482334,5.929632,-6.8153305,-14.135431,8.076367,-10.165616,7.4203053,1.1298709,1.2258582,10.286476,-1.1804069,16.661861,-47.73903,59.83605,2.8901973,-5.7682066,-2.3334436,-12.937473,-13.234608,66.5738,69.75014,23.767616,2.8410518,2.384704
162,0.19859252870082855,2.9535880088806152,78.25689697265625,-0.25448536329822485,-5.042948780270348,-94.48115652040265,9.754586,6.4145617,15.428634,7.8163185,-10.58031,-6.6410117,5.8209815,-6.810553,-14.087604,8.086161,-10.114392,7.399118,1.1293463,1.2292906,10.298566,-1.1492544,16.659649,-47.74115,59.896317,2.876511,-5.7280974,-2.3423445,-12.907426,-13.230902,66.59414,69.765656,23.783367,2.8552265,2.4022064
163,0.20957067608833313,3.0031557083129883,78.26253509521484,-0.25459109442254074,-4.994231838108951,-94.51193161527192,9.667703,6.4117393,15.457255,7.8092594,-10.545101,-6.6333184,5.7061877,-6.807761,-14.041295,8.09806,-10.063012,7.379518,1.121407,1.2307982,10.304833,-1.1268396,16.65472,-47.75301,59.969044,2.8576796,-5.6812654,-2.3666344,-12.877382,-13.226645,66.62155,69.77982,23.802406,2.8681998,2.418078
164,0.2133394181728363,3.039324998855591,78.268798828125,-0.250403002354724,-4.939485233221637,-94.53746192311074,9.571953,6.4049363,15.479548,7.8041286,-10.507901,-6.620495,5.587592,-6.808985,-14.00125,8.107558,-10.012945,7.360348,1.1062315,1.227762,10.296042,-1.0925674,16.6479,-47.761803,60.039963,2.8633916,-5.63364,-2.4097304,-12.831902,-13.222602,66.63848,69.78645,23.806763,2.8810656,2.4282544
165,0.22079867124557495,3.080925464630127,78.27432250976562,-0.24287096719100879,-4.874381546487394,-94.55737335853068,9.466363,6.390785,15.49568,7.789871,-10.460555,-6.600123,5.4636936,-6.8156385,-13.967938,8.107412,-9.960428,7.342695,1.084538,1.2171851,10.278387,-1.0880171,16.636728,-47.802074,60.134808,2.8690522,-5.583002,-2.48652,-12.797126,-13.217089,66.679634,69.79135,23.838017,2.8950284,2.4310904
166,0.22892078757286072,3.1256191730499268,78.27918243408203,-0.23137487497444018,-4.800328218537801,-94.57299026629376,9.339942,6.3756213,15.50607,7.7956667,-10.420069,-6.5749755,5.3231907,-6.828308,-13.938114,8.123462,-9.917532,7.3267393,1.068592,1.2017131,10.248623,-1.0785781,16.622963,-47.84582,60.230995,2.9107075,-5.5261335,-2.589646,-12.761195,-13.211194,66.730225,69.79241,23.891205,2.9085577,2.428326
167,0.23573878407478333,3.1721811294555664,78.28534698486328,-0.22027833198961594,-4.727879103690175,-94.58435826279944,9.217519,6.35871,15.512544,7.795046,-10.375507,-6.5487385,5.1908803,-6.8413672,-13.913916,8.12969,-9.871462,7.309801,1.039154,1.1843404,10.220615,-1.0690519,16.609692,-47.884506,60.32147,2.9464707,-5.471429,-2.695717,-12.721106,-13.206015,66.76558,69.786644,23.914967,2.923397,2.426618
168,0.2417576014995575,3.2195990085601807,78.29066467285156,-0.2095754830217798,-4.664921695584467,-94.5915934510176,9.105382,6.344265,15.51509,7.7957444,-10.334229,-6.5247483,5.0698204,-6.85306,-13.895038,8.141244,-9.831961,7.2892,1.0108492,1.1697199,10.191442,-1.0629222,16.591452,-47.937874,60.41583,2.939869,-5.429485,-2.7748625,-12.680076,-13.199187,66.806725,69.789314,23.944752,2.9359586,2.4294426
169,0.247794970870018,3.264315366744995,78.29537200927734,-0.20134125970600808,-4.615599948128091,-94.59653517784103,9.007837,6.3344116,15.5147085,7.8003907,-10.300054,-6.503534,4.964499,-6.861682,-13.880539,8.156965,-9.798512,7.2613897,0.9744532,1.1572875,10.173056,-1.0523694,16.577526,-47.983578,60.498245,2.8921924,-5.4039707,-2.8256025,-12.635795,-13.193681,66.82406,69.790146,23.933773,2.9493484,2.4444556
170,0.251234769821167,3.3073012828826904,78.30028533935547,-0.19460512704799188,-4.574943167563591,-94.59832359549559,8.919008,6.326968,15.510657,7.8077297,-10.269845,-6.4835887,4.870977,-6.86875,-13.871044,8.173627,-9.769407,7.2287335,0.94416696,1.1465255,10.161514,-1.0415556,16.557741,-48.037296,60.57189,2.8233361,-5.3868403,-2.8587298,-12.600348,-13.185652,66.84236,69.79642,23.925995,2.9637876,2.4666383
171,0.25492236018180847,3.3507444858551025,78.30540466308594,-0.18720970760754277,-4.539029173767939,-94.5939278316633,8.834156,6.319292,15.501369,7.815666,-10.239686,-6.4647326,4.783394,-6.877393,-13.867714,8.195102,-9.74535,7.1977615,0.9149786,1.1371855,10.146451,-1.0675286,16.523436,-48.12833,60.68153,2.7037785,-5.3781977,-2.8757753,-12.560028,-13.170608,66.851006,69.81582,23.913671,2.9743574,2.4876554
172,0.2549927234649658,3.3860955238342285,78.30985260009766,-0.17931791239942838,-4.506889571280762,-94.57906952998013,8.751728,6.3089576,15.483616,7.822984,-10.206402,-6.4471307,4.708485,-6.888158,-13.874574,8.205697,-9.717492,7.175028,0.86132187,1.1228417,10.150219,-1.0613356,16.516613,-48.153206,60.72514,2.629277,-5.3636465,-2.8874803,-12.528965,-13.167386,66.857346,69.812454,23.894655,2.9864373,2.5011177
173,0.25593113899230957,3.4226629734039307,78.31430053710938,-0.17109455108629618,-4.474624220745689,-94.54658912180496,8.665381,6.2936645,15.451497,7.829303,-10.1666565,-6.4313927,4.6412945,-6.9046555,-13.897191,8.211026,-9.688526,7.166082,0.8117555,1.1098735,10.141087,-1.0774338,16.494875,-48.222866,60.78571,2.5222836,-5.342469,-2.8783827,-12.486003,-13.15736,66.86462,69.81977,23.90852,2.992567,2.4953923
174,0.26278722286224365,3.4698598384857178,78.31892395019531,-0.16006580342108817,-4.445705240542861,-94.50092245558493,8.580279,6.2745934,15.408424,7.8344116,-10.122707,-6.4172816,4.5840244,-6.925126,-13.932323,8.212234,-9.659673,7.166204,0.7371308,1.0936034,10.141344,-1.0898238,16.480345,-48.2644,60.824005,2.4149768,-5.3188977,-2.8580441,-12.440633,-13.150856,66.85391,69.81664,23.901447,2.997494,2.480662
175,0.26630276441574097,3.509329319000244,78.32301330566406,-0.15046433985733051,-4.4221174310065745,-94.4546321123618,8.501528,6.256507,15.365233,7.841096,-10.081016,-6.4037213,4.534479,-6.9449596,-13.968483,8.212983,-9.632757,7.166509,0.67327964,1.0787879,10.14666,-1.1136357,16.464785,-48.31209,60.856728,2.3131258,-5.2990227,-2.828332,-12.402541,-13.144143,66.848885,69.81797,23.906017,3.0023286,2.466205
176,0.2678353190422058,3.5427544116973877,78.32645416259766,-0.14319810968185107,-4.40621675513801,-94.42120512760063,8.436769,6.243506,15.333404,7.847844,-10.045775,-6.390084,4.4897227,-6.9598293,-13.99339,8.218373,-9.610167,7.158122,0.6170421,1.06698,10.156352,-1.1341335,16.455507,-48.339867,60.874897,2.2414274,-5.2903523,-2.797003,-12.362745,-13.140102,66.84035,69.81888,23.878555,3.00936,2.4623423
177,0.26500657200813293,3.5712454319000244,78.32954406738281,-0.13888460028754065,-4.402058742849641,-94.40572720749566,8.388312,6.238586,15.316728,7.8639216,-10.024716,-6.375244,4.448942,-6.9683857,-14.002287,8.237646,-9.597461,7.1352735,0.5935193,1.0612295,10.167622,-1.1398048,16.443499,-48.345467,60.87358,2.2311156,-5.2958283,-2.758389,-12.312695,-13.135192,66.81184,69.82493,23.794119,3.0192733,2.4774125
178,0.26535218954086304,3.6037769317626953,78.332275390625,-0.1347787943694703,-4.407285620759577,-94.40093364372359,8.355036,6.2384257,15.309671,7.880793,-10.010128,-6.3600936,4.414981,-6.9725323,-14.001782,8.263496,-9.590745,7.103798,0.5814908,1.0581607,10.188472,-1.1604316,16.430721,-48.340454,60.872322,2.2410176,-5.3142767,-2.7148635,-12.262614,-13.129907,66.76934,69.832504,23.661106,3.0309532,2.5062113
179,0.27204629778862,3.6456215381622314,78.3349838256836,-0.13212512665668213,-4.414406402177638,-94.40023973920877,8.326202,6.2394214,15.306132,7.898029,-9.998228,-6.3457837,4.3834033,-6.9751835,-13.998278,8.288353,-9.584488,7.072432,0.57845956,1.056513,10.207286,-1.1686357,16.42068,-48.319534,60.85296,2.285825,-5.334662,-2.6708045,-12.216145,-13.125784,66.73516,69.84353,23.55793,3.043399,2.5314515
180,0.2694396674633026,3.6756489276885986,78.33666229248047,-0.12953671558882052,-4.417062995785137,-94.39744332122171,8.295307,6.2380075,15.300821,7.9077477,-9.980888,-6.3338175,4.352209,-6.978746,-13.997302,8.303766,-9.573245,7.0499415,0.56054837,1.0556285,10.2180605,-1.1760505,16.41754,-48.309196,60.8265,2.3163009,-5.350065,-2.632572,-12.172357,-13.124282,66.72112,69.855286,23.527777,3.0547123,2.5367262
181,0.26870962977409363,3.704871892929077,78.33795928955078,-0.12447321897759706,-4.408603662789051,-94.39037486416588,8.25179,6.233495,15.291275,7.916502,-9.960769,-6.3254237,4.311785,-6.9851775,-14.001334,8.314687,-9.558758,7.0398803,0.5374145,1.0487372,10.214696,-1.1938684,16.41141,-48.2982,60.811993,2.365413,-5.3595486,-2.6062102,-12.12391,-13.120985,66.69125,69.860855,23.59143,3.069478,2.5113213
182,0.2723609507083893,3.7343733310699463,78.3395767211914,-0.12017364680251946,-4.397665889892633,-94.38298045913982,8.209435,6.2273946,15.281209,7.9175396,-9.936448,-6.319917,4.2739253,-6.9914293,-14.006916,8.31643,-9.540335,7.0370603,0.51788956,1.0428227,10.201326,-1.2010962,16.406668,-48.28703,60.786896,2.4375787,-5.36528,-2.5829725,-12.072221,-13.117902,66.66349,69.870834,23.735209,3.0840914,2.4650931
183,0.2742014527320862,3.7635297775268555,78.34220886230469,-0.11486696640443195,-4.385816662003745,-94.37689052241593,8.167389,6.2206726,15.272919,7.9180093,-9.911942,-6.314359,4.2365484,-6.997892,-14.0110035,8.314197,-9.518924,7.037527,0.50766265,1.0383054,10.19329,-1.22565,16.404627,-48.288944,60.76349,2.5014858,-5.371049,-2.5648127,-12.043552,-13.115969,66.66351,69.89047,23.911602,3.0962656,2.4221284
184,0.27431491017341614,3.7914023399353027,78.34400939941406,-0.10963416016033864,-4.372892482939258,-94.37467092566347,8.124564,6.2136273,15.269182,7.920634,-9.888184,-6.3060775,4.1952887,-7.0048823,-14.009531,8.316042,-9.497865,7.0369,0.5052837,1.0352008,10.178638,-1.2430481,16.402819,-48.283485,60.740337,2.5665324,-5.3806343,-2.5509315,-12.000181,-13.114078,66.662865,69.90866,23.999683,3.1004524,2.3939931
185,0.2733430564403534,3.8177337646484375,78.34656524658203,-0.10054770939455492,-4.359052181406589,-94.37587047481993,8.080451,6.2054567,15.270434,7.9255223,-9.864041,-6.2933254,4.149302,-7.013622,-14.001769,8.32213,-9.475222,7.0349092,0.5042855,1.0365033,10.167921,-1.2678522,16.40119,-48.27353,60.718754,2.6171927,-5.396611,-2.5455678,-11.956271,-13.112225,66.661575,69.933426,23.940138,3.0939627,2.395537
186,0.2742498517036438,3.8464882373809814,78.34892272949219,-0.09258184815956295,-4.343293923691694,-94.37963094334442,8.035399,6.195905,15.275537,7.929717,-9.838397,-6.277653,4.099078,-7.023434,-13.989353,8.330817,-9.451467,7.033416,0.50646114,1.0400218,10.15821,-1.2956969,16.397043,-48.24897,60.69846,2.6738756,-5.41659,-2.548961,-11.911259,-13.10807,66.65517,69.96407,23.786814,3.080047,2.413709
187,0.27775734663009644,3.8783962726593018,78.35174560546875,-0.08259629871567199,-4.33066362550381,-94.3870617872637,7.995745,6.187241,15.28394,7.9347243,-9.815187,-6.262318,4.053597,-7.0319715,-13.973732,8.336853,-9.426828,7.032154,0.5241911,1.0448513,10.151762,-1.3278402,16.395012,-48.23333,60.67928,2.7246628,-5.435852,-2.5512795,-11.874541,-13.106001,66.66192,69.99738,23.649065,3.065005,2.441068
188,0.2799927592277527,3.9027199745178223,78.35414123535156,-0.07537439365811002,-4.325790699767415,-94.39959658694158,7.9686728,6.181314,15.295943,7.938801,-9.796272,-6.250629,4.0173492,-7.037452,-13.955154,8.34479,-9.407297,7.0305796,0.55122316,1.0492098,10.14804,-1.355162,16.392733,-48.217907,60.66127,2.7688909,-5.44812,-2.5451698,-11.843758,-13.103787,66.6767,70.02953,23.590712,3.0571232,2.4691103
189,0.2770876884460449,3.9186575412750244,78.35541534423828,-0.06864202866721843,-4.330553107502477,-94.41858257383666,7.957977,6.1781287,15.31266,7.943115,-9.784905,-6.24314,3.994568,-7.0399475,-13.933228,8.351682,-9.392499,7.030225,0.5622851,1.0511284,10.143493,-1.3816472,16.390392,-48.203075,60.65828,2.7814791,-5.4538054,-2.5282989,-11.804519,-13.100919,66.692375,70.05121,23.611998,3.0570729,2.501089
190,0.2758166790008545,3.938371419906616,78.35688018798828,-0.06346949363081852,-4.343080775504331,-94.4430989385751,7.9613714,6.1762824,15.333765,7.9443507,-9.776955,-6.238211,3.981852,-7.04003,-13.9078045,8.358662,-9.381693,7.030685,0.591761,1.0523849,10.13802,-1.3895502,16.388086,-48.17837,60.649433,2.8123136,-5.452812,-2.502887,-11.770637,-13.097778,66.72122,70.07712,23.717024,3.0615633,2.5403984
191,0.2772499620914459,3.9576780796051025,78.35702514648438,-0.06039429160655631,-4.358500362070649,-94.46983746410989,7.968223,6.1769466,15.35618,7.947916,-9.772012,-6.2357483,3.9729185,-7.037767,-13.880726,8.364496,-9.37106,7.0293193,0.60741633,1.0559578,10.131705,-1.3962342,16.386345,-48.1537,60.64231,2.815029,-5.449978,-2.475688,-11.724231,-13.094917,66.73304,70.09298,23.794662,3.0699437,2.5737314
192,0.27913084626197815,3.9790992736816406,78.3565902709961,-0.05790984534759146,-4.372155741955819,-94.49470061343526,7.9722877,6.17983,15.376284,7.950865,-9.765222,-6.2353253,3.96151,-7.03297,-13.85455,8.371171,-9.359552,7.0234804,0.64164114,1.063779,10.136237,-1.4219525,16.385582,-48.144913,60.634304,2.8047962,-5.4480386,-2.4540877,-11.700813,-13.093346,66.750946,70.110596,23.867537,3.0813932,2.5939527
193,0.27876290678977966,4.003603935241699,78.3573226928711,-0.05898507885458575,-4.38293492368587,-94.51843418840228,7.972245,6.185974,15.394377,7.9523563,-9.756207,-6.239399,3.9433322,-7.0245533,-13.827647,8.382751,-9.348534,7.0102696,0.66721123,1.0794039,10.136824,-1.4369941,16.383785,-48.127846,60.61538,2.7733574,-5.444576,-2.4375558,-11.669155,-13.090704,66.769196,70.1215,23.87708,3.0972075,2.5819411
194,0.2776416540145874,4.024567127227783,78.35818481445312,-0.062346350707880034,-4.392630405094565,-94.5421370466685,7.9701166,6.195045,15.411559,7.953946,-9.746495,-6.2472916,3.9230149,-7.0128684,-13.799976,8.39522,-9.336939,6.991953,0.6687026,1.1019132,10.141258,-1.4364858,16.37739,-48.06768,60.586246,2.744971,-5.439768,-2.4273531,-11.674569,-13.082473,66.865486,70.14594,23.922663,3.1181493,2.5507295
195,0.2781793773174286,4.044610023498535,78.35896301269531,-0.06577177863506226,-4.403139877615085,-94.56405817799823,7.9676185,6.204765,15.427176,7.9587035,-9.738297,-6.2542048,3.9041042,-7.001264,-13.773959,8.407634,-9.325249,6.9733014,0.69946593,1.1228565,10.152485,-1.4651216,16.375645,-48.05642,60.56586,2.6936476,-5.4389396,-2.416806,-11.670256,-13.080107,66.8988,70.15843,23.92373,3.1373277,2.524058
196,0.27558550238609314,4.060009002685547,78.35884857177734,-0.06618496586460114,-4.414807081843081,-94.58375024981241,7.966779,6.211214,15.442435,7.963777,-9.729897,-6.2552624,3.8892913,-6.993593,-13.750874,8.41863,-9.31398,6.959292,0.70362943,1.1370118,10.157595,-1.4750009,16.371126,-48.025948,60.545258,2.662991,-5.449359,-2.4022472,-11.661566,-13.074791,66.943375,70.1673,23.914892,3.1460469,2.517446
197,0.2740212380886078,4.078998565673828,78.35948944091797,-0.0644387359743804,-4.4277052565080846,-94.59964308589936,7.965304,6.213898,15.456541,7.975143,-9.724197,-6.247275,3.8782136,-6.991661,-13.732159,8.430384,-9.304471,6.9517446,0.7090244,1.1423042,10.161701,-1.4787523,16.368464,-47.99885,60.523293,2.6634667,-5.4761367,-2.3840146,-11.649684,-13.0714655,66.960335,70.17262,23.887222,3.140618,2.5503962
198,0.2745435833930969,4.0971999168396,78.360107421875,-0.059842170852745055,-4.441528412446623,-94.61296788865744,7.964034,6.214312,15.47002,7.9895606,-9.719615,-6.233512,3.8693302,-6.9933696,-13.716039,8.443512,-9.296307,6.947874,0.7121459,1.1407728,10.167608,-1.4816259,16.36558,-47.969128,60.503452,2.6837256,-5.5148215,-2.3649952,-11.642853,-13.067528,66.9724,70.175064,23.852661,3.1260896,2.6071942
199,0.2731899619102478,4.111789703369141,78.36202239990234,-0.05507471260939233,-4.457017323648144,-94.62446923663661,7.9636307,6.2138824,15.481976,8.005056,-9.715393,-6.218537,3.8640897,-6.996134,-13.702362,8.454513,-9.287795,6.945621,0.7003306,1.1368197,10.179649,-1.4848558,16.360584,-47.927597,60.484978,2.7132816,-5.556752,-2.3453424,-11.654517,-13.059043,67.00128,70.184555,23.831486,3.1080916,2.6673532
200,0.2727300822734833,4.12775182723999,78.36283111572266,-0.0507734259708361,-4.474106144107209,-94.63435976890561,7.96636,6.21364,15.491204,8.015885,-9.709142,-6.207033,3.8613162,-6.998325,-13.690982,8.465167,-9.280442,6.942933,0.6976466,1.1342032,10.190216,-1.4946914,16.359135,-47.919262,60.464725,2.723916,-5.5891747,-2.3221266,-11.652936,-13.055906,67.0055,70.1804,23.809013,3.093475,2.7049093
201,0.27453097701072693,4.149837493896484,78.36312103271484,-0.04929521667492694,-4.494586282765883,-94.64114568906538,7.970297,6.214325,15.495943,8.028355,-9.70388,-6.1994295,3.8614724,-7.0001116,-13.68314,8.477374,-9.275072,6.939267,0.6951865,1.1319733,10.204109,-1.5033702,16.35863,-47.916805,60.44093,2.7402542,-5.6130567,-2.2965338,-11.659144,-13.05472,67.00884,70.17734,23.809397,3.0803561,2.719707
202,0.2752123773097992,4.168312072753906,78.36348724365234,-0.046682830335445916,-4.52115027396558,-94.64621857249217,7.980944,6.214246,15.498378,8.038859,-9.698092,-6.1935163,3.8677506,-7.0029864,-13.677423,8.491866,-9.272496,6.935787,0.6764022,1.1300187,10.235346,-1.5159408,16.355774,-47.91296,60.41584,2.755642,-5.636787,-2.2581408,-11.689982,-13.045425,67.03811,70.18649,23.840185,3.062931,2.7199368
203,0.27293187379837036,4.1829376220703125,78.36392974853516,-0.04445621985426108,-4.545145188645706,-94.65054891440984,7.988209,6.2150784,15.499505,8.050001,-9.692835,-6.1898475,3.8731768,-7.004732,-13.67319,8.502758,-9.268275,6.9329853,0.65178066,1.1292912,10.256713,-1.5229906,16.354517,-47.91452,60.388355,2.76126,-5.655479,-2.2250392,-11.7035265,-13.040274,67.041405,70.1812,23.843634,3.0500746,2.710485
204,0.27092450857162476,4.198011875152588,78.3636703491211,-0.04211147541076979,-4.564257516057563,-94.65703680743002,7.992814,6.2167788,15.50284,8.057193,-9.686457,-6.1887407,3.8750389,-7.004346,-13.667209,8.509052,-9.261102,6.9315524,0.642838,1.1289762,10.279126,-1.5423237,16.352467,-47.9295,60.3668,2.7585413,-5.6737742,-2.197502,-11.736219,-13.030373,67.05649,70.18363,23.87586,3.041846,2.699555
205,0.270048052072525,4.2139811515808105,78.36370849609375,-0.04144578900122274,-4.575675680662231,-94.6661527986832,7.99229,6.219634,15.508601,8.058928,-9.678808,-6.1924996,3.8700848,-7.001117,-13.659489,8.509558,-9.249898,6.932503,0.62861073,1.1302714,10.285378,-1.543351,16.351566,-47.93009,60.33906,2.7558563,-5.6943126,-2.1810637,-11.74718,-13.026998,67.0501,70.16677,23.871912,3.0410252,2.6840916
206,0.2671705186367035,4.231467247009277,78.36286163330078,-0.041580187442712406,-4.583678215110705,-94.67744389894071,7.9910774,6.22339,15.516272,8.05545,-9.66981,-6.200485,3.8625622,-6.995777,-13.650171,8.506822,-9.236891,6.935116,0.63394207,1.1348834,10.302397,-1.5645392,16.345936,-47.948586,60.3189,2.7461352,-5.7195673,-2.1636727,-11.775368,-13.005777,67.00538,70.169876,23.849018,3.0471468,2.6629963
207,0.2672085464000702,4.249162197113037,78.36337280273438,-0.0416241532080319,-4.589330595647682,-94.68916096130107,7.9869676,6.2270656,15.524611,8.052934,-9.660967,-6.207855,3.8528,-6.990443,-13.640417,8.502827,-9.222546,6.938002,0.63235325,1.1383591,10.313058,-1.5743554,16.34366,-47.958157,60.292324,2.7369502,-5.737363,-2.1519265,-11.804916,-12.998485,66.99044,70.15408,23.855019,3.0536954,2.6403677
208,0.2666684687137604,4.265697479248047,78.36398315429688,-0.04063026683429023,-4.5964215951611065,-94.70060745699202,7.983492,6.2296367,15.534004,8.053253,-9.652341,-6.2103715,3.843491,-6.9872146,-13.630247,8.502539,-9.209737,6.9394093,0.6314909,1.13815,10.323128,-1.5913818,16.339256,-47.980267,60.276005,2.7162588,-5.742014,-2.1392584,-11.830952,-12.985477,66.95855,70.1406,23.849867,3.0551314,2.6213355
209,0.2675105929374695,4.280457496643066,78.36466217041016,-0.03750473994594596,-4.604901086935153,-94.71110624607394,7.979024,6.230011,15.544187,8.059207,-9.644535,-6.2047877,3.8334227,-6.987891,-13.619785,8.508903,-9.199562,6.939682,0.6369549,1.1327031,10.326846,-1.5972242,16.329779,-48.00254,60.260555,2.7094865,-5.7261662,-2.1237473,-11.849082,-12.96164,66.90522,70.13216,23.83728,3.0506904,2.6064765
210,0.2656479477882385,4.295161247253418,78.36582946777344,-0.03235170091805884,-4.613339819484661,-94.72116988913149,7.9738364,6.2289343,15.555108,8.067659,-9.636936,-6.1943703,3.8243315,-6.9903026,-13.609431,8.514212,-9.188236,6.93946,0.6157966,1.1251711,10.335978,-1.6094507,16.326134,-48.026276,60.244568,2.6727064,-5.696543,-2.1090338,-11.882126,-12.952397,66.8927,70.10399,23.851528,3.0462532,2.5927992
211,0.26407456398010254,4.311352729797363,78.3670654296875,-0.028167296422609536,-4.622246136185416,-94.73205679121338,7.9689536,6.2284274,15.567313,8.077779,-9.630022,-6.183711,3.813728,-6.992789,-13.597702,8.523386,-9.178297,6.937695,0.6221476,1.1160698,10.338794,-1.6313417,16.31513,-48.075977,60.2466,2.6350267,-5.663171,-2.0931158,-11.910558,-12.927109,66.859604,70.09504,23.870813,3.0348015,2.5801873
212,0.2632754147052765,4.32718563079834,78.3682861328125,-0.025200836814420268,-4.632109246936113,-94.74374814037773,7.966495,6.230196,15.579512,8.086586,-9.623342,-6.177636,3.8041177,-6.992736,-13.585015,8.533666,-9.169537,6.9334273,0.6202498,1.1068704,10.343482,-1.6251415,16.308584,-48.084995,60.229286,2.6303852,-5.6338468,-2.0794663,-11.939328,-12.913649,66.84822,70.06885,23.900564,3.0229769,2.5653455
213,0.2632039189338684,4.343053817749023,78.36907196044922,-0.02690891306495345,-4.642888237262801,-94.75523731745747,7.967317,6.2357545,15.590914,8.092136,-9.6153345,-6.1786995,3.796365,-6.9883814,-13.572305,8.542777,-9.159784,6.924529,0.6192999,1.0989683,10.347444,-1.6256585,16.307447,-48.08981,60.222984,2.6241739,-5.615527,-2.074953,-11.966957,-12.91149,66.84972,70.03638,23.940483,3.0048885,2.5501852
214,0.2629968523979187,4.356084823608398,78.36959838867188,-0.029858687988864728,-4.6552153083514565,-94.76962016799683,7.9723988,6.2438326,15.605089,8.095152,-9.606238,-6.1842427,3.789286,-6.9809947,-13.55637,8.55358,-9.150315,6.9118695,0.6144303,1.0892375,10.355373,-1.6391066,16.29554,-48.116474,60.23624,2.5911078,-5.5944304,-2.0575745,-11.993864,-12.887275,66.84388,70.01838,23.970776,2.9802315,2.525512
215,0.2611874043941498,4.368265151977539,78.37007904052734,-0.03266460259998638,-4.66755201844698,-94.78406129410442,7.976666,6.2522364,15.618849,8.1010065,-9.600275,-6.190158,3.7820103,-6.9736004,-13.540478,8.565037,-9.14214,6.8998513,0.6150679,1.0798857,10.360297,-1.6415348,16.287172,-48.124607,60.24357,2.576504,-5.5781364,-2.0481925,-12.019126,-12.87089,66.84383,69.99233,24.002846,2.956783,2.5070367
216,0.26083752512931824,4.38002347946167,78.37057495117188,-0.03397908709965543,-4.679463388839695,-94.80003319263504,7.9817758,6.2585793,15.6340475,8.104842,-9.595733,-6.1931963,3.775524,-6.9677563,-13.523958,8.573794,-9.134922,6.892534,0.61875886,1.0721529,10.365318,-1.6422284,16.278797,-48.126755,60.25008,2.5606053,-5.5654273,-2.0401027,-12.048189,-12.8551655,66.84535,69.96849,24.02388,2.9381287,2.4980655
217,0.26104792952537537,4.3921003341674805,78.37010192871094,-0.03344094023348834,-4.691452100548164,-94.81804523378142,7.988945,6.2613387,15.651447,8.106417,-9.594931,-6.191941,3.771091,-6.9644737,-13.506285,8.577284,-9.128055,6.891867,0.6279449,1.0658618,10.3699665,-1.6413407,16.261648,-48.1168,60.262955,2.5479438,-5.556989,-2.0332115,-12.093643,-12.82457,66.8608,69.967865,24.045153,2.9257934,2.505249
218,0.26127660274505615,4.404952526092529,78.3695297241211,-0.030584393839891286,-4.703338511992073,-94.83777370202185,7.9966307,6.2625313,15.670304,8.108113,-9.597433,-6.1883483,3.7680137,-6.9621587,-13.487795,8.577525,-9.122144,6.89527,0.63575864,1.0601882,10.373795,-1.633117,16.258354,-48.110294,60.260605,2.516184,-5.550951,-2.0284731,-12.117552,-12.819246,66.85652,69.929375,24.026289,2.9201822,2.5200303
219,0.2628970444202423,4.417856216430664,78.3689956665039,-0.028406452709981257,-4.714611291024787,-94.8584032119765,8.00431,6.263231,15.689733,8.108881,-9.59971,-6.1840367,3.764313,-6.96019,-13.46879,8.577725,-9.116576,6.9003167,0.63437706,1.0558999,10.377405,-1.6252725,16.254917,-48.09959,60.260353,2.477983,-5.5468817,-2.0229402,-12.136348,-12.813993,66.843925,69.88889,23.97972,2.9169686,2.5344932
220,0.2634414732456207,4.429309368133545,78.36824035644531,-0.02624497918297468,-4.72447748305611,-94.87887553868747,8.010921,6.2643933,15.708433,8.108917,-9.599025,-6.180719,3.7581692,-6.957799,-13.449872,8.5799,-9.109983,6.9046273,0.64861584,1.05155,10.383676,-1.6146083,16.245794,-48.07551,60.25742,2.4797363,-5.5418053,-2.0165236,-12.162465,-12.800565,66.82299,69.8579,23.941515,2.9140594,2.540865
221,0.26512596011161804,4.441490173339844,78.36832427978516,-0.026211625667028407,-4.73131003994236,-94.89883998981834,8.012464,6.2674937,15.724901,8.111587,-9.595423,-6.1793566,3.7502787,-6.953595,-13.43194,8.578766,-9.099091,6.9082184,0.66147816,1.0485307,10.387503,-1.6178337,16.24071,-48.07079,60.26216,2.4733913,-5.5355315,-2.00685,-12.193246,-12.792896,66.82297,69.826805,23.918772,2.9105089,2.5327175
222,0.26506489515304565,4.453149318695068,78.36885070800781,-0.025930632964584244,-4.736429058565245,-94.91942242835205,8.013199,6.2708764,15.741058,8.112913,-9.589053,-6.1790767,3.739966,-6.9488397,-13.413674,8.578899,-9.087357,6.912158,0.6776557,1.0468254,10.393205,-1.6252879,16.23162,-48.06713,60.271088,2.4772959,-5.5298743,-1.9920418,-12.236108,-12.77896,66.83837,69.805885,23.909386,2.9076827,2.5176046
223,0.2657129764556885,4.463894367218018,78.37097930908203,-0.02681049079550748,-4.741232817412829,-94.9396462405481,8.013266,6.2741966,15.757324,8.114604,-9.5819645,-6.1781273,3.7290158,-6.944304,-13.395597,8.579873,-9.07559,6.915474,0.6767306,1.0475593,10.390922,-1.6347831,16.214132,-48.064384,60.294563,2.4693866,-5.5263247,-1.9760354,-12.27316,-12.750703,66.85999,69.80307,23.890478,2.9026291,2.4947584
224,0.2659316062927246,4.475081920623779,78.37274932861328,-0.02692912466872221,-4.747801469057459,-94.95966305899523,8.014422,6.2771792,15.775124,8.119085,-9.576977,-6.1749535,3.7196648,-6.940919,-13.377012,8.582278,-9.064828,6.917148,0.6862977,1.048245,10.391992,-1.6443683,16.194738,-48.06289,60.31487,2.470348,-5.5242367,-1.9624121,-12.315715,-12.717779,66.88794,69.81058,23.902966,2.8959973,2.467787
225,0.2648717164993286,4.484823703765869,78.37381744384766,-0.024351101503340095,-4.757675372123335,-94.97909537015973,8.018117,6.2792344,15.795467,8.127276,-9.574444,-6.167257,3.712804,-6.939658,-13.358286,8.588272,-9.056133,6.916395,0.7039441,1.0484318,10.401233,-1.6488495,16.191523,-48.06366,60.312542,2.4729261,-5.5235076,-1.9549077,-12.342249,-12.71216,66.89377,69.78722,23.920578,2.890145,2.433495
226,0.2670200765132904,4.494902610778809,78.37389373779297,-0.021395033373470727,-4.76984483025865,-94.99838401380192,8.025566,6.2794504,15.818071,8.133708,-9.570932,-6.1565113,3.7056358,-6.940712,-13.338616,8.600444,-9.0504465,6.914059,0.72062886,1.0495596,10.41609,-1.6556519,16.183456,-48.060913,60.311703,2.47947,-5.525374,-1.9473584,-12.375206,-12.697758,66.90881,69.77759,23.960745,2.8820944,2.3910313
227,0.2688133716583252,4.5060272216796875,78.37355041503906,-0.01909151992812215,-4.781386994987811,-95.01771727247827,8.031168,6.280531,15.840651,8.142785,-9.569458,-6.146796,3.698984,-6.9410367,-13.3189745,8.611059,-9.044639,6.9110775,0.724944,1.0514883,10.427447,-1.6651139,16.174856,-48.059666,60.316456,2.4727423,-5.528638,-1.9414878,-12.397403,-12.681374,66.91227,69.769356,23.978535,2.873525,2.3475425
228,0.2703183889389038,4.516698837280273,78.37307739257812,-0.01732142765395742,-4.790051789295997,-95.03803077107227,8.035763,6.282064,15.861958,8.147141,-9.567219,-6.1420374,3.6907587,-6.9395523,-13.298933,8.617383,-9.03736,6.9087114,0.74899226,1.0524104,10.437111,-1.6677024,16.17001,-48.059998,60.310738,2.486168,-5.5306344,-1.9365073,-12.422613,-12.671734,66.91847,69.75659,24.015097,2.8650093,2.3107955
229,0.27126556634902954,4.527213096618652,78.37187957763672,-0.015957076523978434,-4.795274521369369,-95.05961433828692,8.040662,6.283685,15.881487,8.141994,-9.56246,-6.145626,3.680008,-6.936085,-13.278406,8.62079,-9.030205,6.907349,0.7562091,1.0547135,10.442503,-1.6882242,16.155857,-48.07309,60.331,2.4732623,-5.5341845,-1.9272344,-12.463484,-12.639268,66.94578,69.78129,24.057287,2.8506334,2.276119
230,0.27176374197006226,4.537249565124512,78.37117767333984,-0.015464117029815257,-4.79811476569067,-95.08195550704791,8.04428,6.286196,15.899812,8.133754,-9.558051,-6.154745,3.6691895,-6.930555,-13.25824,8.619084,-9.021766,6.906205,0.76835805,1.057381,10.44287,-1.683896,16.151537,-48.07128,60.326126,2.4860609,-5.5366564,-1.9193428,-12.479493,-12.628292,66.94284,69.7768,24.07194,2.8352664,2.2422175
231,0.27299460768699646,4.548807621002197,78.37115478515625,-0.015077082042775145,-4.799398955995852,-95.10474010968137,8.044692,6.2892823,15.918116,8.1284275,-9.555133,-6.1638885,3.6557403,-6.9246845,-13.2369,8.618036,-9.013215,6.9052105,0.7798684,1.0591705,10.448121,-1.6984041,16.14854,-48.080627,60.33032,2.4800477,-5.5400786,-1.9157958,-12.505834,-12.618512,66.94962,69.77172,24.088957,2.8242123,2.2190766
232,0.2732587158679962,4.5582451820373535,78.37174224853516,-0.015124835581820838,-4.7996423986403585,-95.12849639819251,8.045091,6.2911215,15.939166,8.121033,-9.549322,-6.1677327,3.6398563,-6.9196405,-13.213183,8.617783,-9.002808,6.9042716,0.7972261,1.060791,10.4453125,-1.7006572,16.141392,-48.08564,60.337048,2.4799573,-5.543289,-1.9100567,-12.524509,-12.593478,66.951096,69.78703,24.083525,2.8188317,2.2083035
233,0.2733944356441498,4.568046569824219,78.372802734375,-0.013413916158046947,-4.798342193041289,-95.15370811148534,8.039928,6.2935257,15.963152,8.123024,-9.546216,-6.16392,3.6198814,-6.9153137,-13.185918,8.619906,-8.990471,6.903864,0.8200263,1.0621357,10.447732,-1.7128345,16.13909,-48.090767,60.344097,2.4722736,-5.5500016,-1.9134104,-12.548207,-12.583315,66.96185,69.78655,24.059328,2.8273966,2.224624
234,0.274944543838501,4.579570770263672,78.37459564208984,-0.01193012631551653,-4.795438545533505,-95.18028184118826,8.03381,6.295062,15.99002,8.123679,-9.540978,-6.1556234,3.5966458,-6.911503,-13.155595,8.622099,-8.975712,6.9039187,0.8347127,1.0639845,10.443584,-1.7158853,16.132172,-48.083572,60.35642,2.4637485,-5.560157,-1.9176483,-12.578463,-12.549996,66.9897,69.81773,24.019955,2.84145,2.2590551
235,0.27636533975601196,4.591067314147949,78.37588500976562,-0.010064587292645005,-4.791865674979009,-95.20607733472376,8.024275,6.2972918,16.01623,8.128845,-9.536857,-6.145913,3.5726736,-6.907706,-13.125797,8.624561,-8.960652,6.903317,0.856342,1.0647038,10.4403,-1.7131155,16.130295,-48.073605,60.358864,2.4600842,-5.5653157,-1.9238735,-12.588408,-12.539546,66.99364,69.81472,23.960573,2.860641,2.2952178
236,0.27887165546417236,4.603601932525635,78.37712097167969,-0.008423821545636883,-4.787445801612021,-95.22915165257454,8.014524,6.2978396,16.040222,8.1311455,-9.530868,-6.137657,3.5474937,-6.905712,-13.099364,8.630082,-8.948344,6.901237,0.87288046,1.0646464,10.443292,-1.720537,16.128088,-48.064156,60.364887,2.4444742,-5.5634813,-1.9306645,-12.616394,-12.523722,67.01476,69.82293,23.942137,2.8740802,2.326607
237,0.2794599235057831,4.613389015197754,78.3779067993164,-0.004821107460559361,-4.7824832717762265,-95.24826659582374,8.003436,6.2972865,16.06096,8.132496,-9.523106,-6.13114,3.5232193,-6.905274,-13.077354,8.635708,-8.937541,6.896657,0.8836081,1.0637751,10.448231,-1.7263582,16.12553,-48.052322,60.368454,2.416906,-5.5461745,-1.9352802,-12.655343,-12.500434,67.056946,69.84346,23.978167,2.8794892,2.3458385
238,0.27988892793655396,4.626047134399414,78.37772369384766,-0.001997395754748051,-4.776780580713687,-95.26529045151455,7.990859,6.296081,16.080294,8.133446,-9.513884,-6.125097,3.4986749,-6.9056163,-13.057844,8.64185,-8.927542,6.8901896,0.88583016,1.0619028,10.450196,-1.72507,16.124195,-48.03512,60.36759,2.378441,-5.5174837,-1.9392742,-12.665392,-12.485603,67.061966,69.8393,23.983408,2.8840234,2.3578005
239,0.28303584456443787,4.637950420379639,78.37741088867188,0.0006190308572820207,-4.770879202988354,-95.28008885963823,7.9773555,6.294628,16.09686,8.13477,-9.504974,-6.12002,3.4750447,-6.9065714,-13.040962,8.647283,-8.917904,6.883691,0.89113134,1.0596198,10.459491,-1.7416579,16.123283,-48.030853,60.375957,2.3302848,-5.491743,-1.9439147,-12.702732,-12.465718,67.09757,69.853775,24.037626,2.884115,2.368861
240,0.28545820713043213,4.649104595184326,78.37776947021484,0.0036910204210712293,-4.766518782135067,-95.29250911851565,7.9658785,6.2938704,16.109324,8.134964,-9.4965925,-6.11653,3.4554372,-6.906214,-13.027491,8.650133,-8.908249,6.878802,0.8962793,1.0585294,10.460143,-1.7411541,16.123198,-48.027477,60.38003,2.3019674,-5.4806294,-1.9453444,-12.705731,-12.461537,67.09883,69.84199,24.046276,2.8832364,2.3718822
