unveil-humanoid-operators/unveil-humanoid-operators.github.io/feature-analysis-animation/data/feature_matrix_instances/gender_shoulder_mean_vel_jogging_A094_jog_ff_stop_180_R_001__A094.csv
Frame,root_translateX,root_translateY,root_translateZ,root_rotateX,root_rotateY,root_rotateZ,left_hip_pitch_joint_dof,left_hip_roll_joint_dof,left_hip_yaw_joint_dof,left_knee_joint_dof,left_ankle_pitch_joint_dof,left_ankle_roll_joint_dof,right_hip_pitch_joint_dof,right_hip_roll_joint_dof,right_hip_yaw_joint_dof,right_knee_joint_dof,right_ankle_pitch_joint_dof,right_ankle_roll_joint_dof,waist_yaw_joint_dof,waist_roll_joint_dof,waist_pitch_joint_dof,left_shoulder_pitch_joint_dof,left_shoulder_roll_joint_dof,left_shoulder_yaw_joint_dof,left_elbow_joint_dof,left_wrist_roll_joint_dof,left_wrist_pitch_joint_dof,left_wrist_yaw_joint_dof,right_shoulder_pitch_joint_dof,right_shoulder_roll_joint_dof,right_shoulder_yaw_joint_dof,right_elbow_joint_dof,right_wrist_roll_joint_dof,right_wrist_pitch_joint_dof,right_wrist_yaw_joint_dof
0,-0.18494483828544617,1.3347738981246948,80.7221450805664,3.1812353980257546,7.509168119392548,-85.86408663028118,12.698732,-1.5155101,2.49154,22.144938,16.639433,-1.059927,-20.979568,-4.2727036,-1.9520042,9.59679,1.5084662,3.9370048,-17.984203,-1.7330508,1.1303716,4.843728,33.726124,-33.86596,-58.97848,3.4360027,-2.8250244,-4.9288864,39.457195,-21.955061,20.978392,-40.513996,-19.085684,-12.885011,-1.0549703
1,-0.3306957483291626,-0.0206291601061821,80.7439956665039,3.050759992220227,7.3697260659936195,-85.86465175801835,12.373305,-0.7844708,3.4669597,24.636778,15.894956,-0.48502234,-19.868961,-4.1440477,-2.573686,7.365576,1.9204521,3.7728055,-17.508947,-1.6540056,1.0950505,5.396546,33.875168,-33.387104,-58.86101,3.2589214,-2.7124667,-5.1446457,39.94844,-21.931942,20.788536,-40.31245,-18.884296,-12.967873,-1.1085159
2,-0.4869423806667328,-1.356939673423767,80.71317291259766,2.9803537470535963,7.22705028156603,-85.8609645128925,12.090312,-0.04218604,4.5068684,27.10449,15.1584425,0.17280696,-19.428082,-4.08031,-3.0951548,6.456836,1.5855156,3.6117687,-17.043142,-1.6398802,1.0262171,5.9201097,34.02489,-32.940304,-58.736816,3.0850148,-2.5988517,-5.4141126,40.465733,-21.870129,20.585827,-40.080105,-18.669992,-13.063608,-1.1584812
3,-0.6447573304176331,-2.6891651153564453,80.62732696533203,2.8898961810159522,7.068216058215753,-85.90298837943337,11.80133,0.7082028,5.4210443,29.593756,14.36472,0.7998251,-19.268957,-3.997759,-3.61333,6.3707542,0.91155356,3.5151412,-16.506996,-1.6346107,0.9960378,6.4852133,34.16159,-32.453968,-58.587242,2.9044776,-2.4840693,-5.5818977,40.875313,-21.793036,20.4285,-39.820053,-18.502695,-13.139867,-1.1944393
4,-0.8075110912322998,-4.000844478607178,80.47394561767578,2.714138163006968,6.879274839689752,-86.03927634144685,11.460907,1.4326693,6.018235,32.141006,13.4563465,1.2696927,-18.883873,-3.814489,-4.2202854,6.3512106,0.4462038,3.5302615,-15.833624,-1.5903635,1.0690708,7.170218,34.253624,-31.843552,-58.389194,2.706907,-2.369256,-5.500255,41.038273,-21.741158,20.381424,-39.53394,-18.44167,-13.162097,-1.2109144
5,-0.9635711908340454,-5.295665264129639,80.26661682128906,2.4409813839329737,6.639668714921893,-86.28616183282801,11.082074,2.0735352,6.2232614,34.705486,12.435511,1.5929703,-18.173439,-3.523297,-5.0596704,6.347917,0.3086178,3.859852,-15.014404,-1.4954891,1.2766057,8.030049,34.284252,-31.059492,-58.145477,2.4682345,-2.2365592,-5.055754,40.93476,-21.74442,20.484041,-39.24053,-18.533276,-13.089926,-1.2469672
6,-1.0947502851486206,-6.572816371917725,80.01184844970703,2.0978607019143563,6.365429987451115,-86.61183526336778,10.658049,2.6448205,6.1443667,37.318043,11.314585,1.7951207,-17.250029,-3.1337492,-6.0556345,6.3846445,0.3885463,4.400112,-14.109072,-1.3492866,1.572207,9.028292,34.243786,-30.131378,-57.865017,2.1982062,-2.0949755,-4.3596134,40.637157,-21.82099,20.707022,-38.951324,-18.729305,-12.947357,-1.3055252
7,-1.243790626525879,-7.846983432769775,79.70354461669922,1.6544104443141259,6.081372489028089,-87.00312207823565,10.16628,3.2263274,5.8863606,39.99585,10.147988,1.7806207,-16.217028,-2.581274,-6.9439616,6.455787,0.5517916,4.7448263,-13.129157,-1.1063151,1.921877,10.097159,34.123425,-29.111965,-57.536293,1.9380287,-1.9842371,-3.5954375,40.156227,-21.97458,21.005564,-38.667152,-18.942722,-12.798425,-1.3236954
8,-1.3848068714141846,-9.123677253723145,79.34931182861328,1.0657747371364765,5.804343195958445,-87.4429166953198,9.606117,3.9225292,5.54953,42.716778,9.011587,1.4631803,-15.17501,-1.8031083,-7.4638777,6.570728,0.6585778,4.4953117,-12.099356,-0.7111727,2.300041,11.187146,33.921307,-28.036823,-57.15831,1.7285079,-1.9415672,-2.953456,39.490932,-22.205645,21.345125,-38.37924,-19.093773,-12.707214,-1.2369883
9,-1.5067437887191772,-10.387701988220215,78.94486999511719,0.2804290184782907,5.521696722309313,-87.97123272881666,9.039856,4.7531466,5.1184535,45.42031,8.0327015,0.66332066,-14.716251,-0.7882252,-7.3725047,8.007767,0.19694631,3.3246136,-10.989197,-0.11290441,2.7079973,12.323463,33.62926,-26.908775,-56.714214,1.6207502,-1.9754503,-2.4938056,38.62222,-22.522797,21.740707,-38.079765,-19.179317,-12.701555,-0.9860415
10,-1.6109787225723267,-11.640860557556152,78.48444366455078,-0.6035865028505687,5.206758140540123,-88.56033969978584,8.487924,5.5879917,4.5570335,48.093796,7.152579,-0.5110301,-15.2082405,0.33293986,-6.8696184,11.6493635,-1.2403098,1.5674684,-9.823031,0.5934735,3.145945,13.521297,33.242363,-25.718012,-56.207436,1.580952,-2.0635066,-2.115921,37.568417,-22.928177,22.212288,-37.79194,-19.233429,-12.742396,-0.621434
11,-1.733938217163086,-12.871594429016113,77.98595428466797,-1.42626519819177,4.867849027517074,-89.100449533865,7.8636613,6.3445354,3.932266,50.82128,6.1524367,-1.7105949,-15.68358,1.4872407,-6.318005,15.355748,-2.8437908,-0.21661748,-8.694626,1.2602297,3.5925221,14.71884,32.770973,-24.487799,-55.67541,1.5283445,-2.1968474,-1.7653999,36.381485,-23.401068,22.728294,-37.543755,-19.23626,-12.795143,-0.24245833
12,-1.849448323249817,-14.095873832702637,77.44277954101562,-2.1218288754627106,4.535862834461353,-89.50553456911831,7.0414133,7.0519,3.3030975,53.73194,4.795365,-2.6036158,-16.010588,2.5195923,-6.038201,18.772446,-4.818683,-1.5291718,-7.6651587,1.8291248,4.034856,15.841274,32.2323,-23.25319,-55.148487,1.3819298,-2.3690858,-1.3818759,35.101562,-23.905483,23.242428,-37.34345,-19.170279,-12.827631,0.0571177
13,-1.958725094795227,-15.309906005859375,76.84938049316406,-2.7444612608883,4.219220260920798,-89.74274539126803,5.9763904,7.7630186,2.593916,56.956184,2.9337535,-3.1689541,-16.229513,3.3889573,-6.1490116,22.069445,-7.596553,-2.2575917,-6.7610817,2.3489697,4.477414,16.85277,31.645123,-22.029898,-54.61903,1.0519286,-2.5983665,-0.90043294,33.721336,-24.412048,23.752157,-37.208534,-19.058266,-12.837148,0.28649053
14,-2.076172113418579,-16.488924026489258,76.2349853515625,-3.359063376356929,3.9171443011064473,-89.87662545764424,4.7146955,8.499292,1.7962726,60.42446,0.70637745,-3.5738678,-16.46027,4.165895,-6.452265,25.522488,-11.072851,-2.697094,-5.9193006,2.876436,4.9271626,17.796726,31.015173,-20.81721,-54.081486,0.60464454,-2.8856168,-0.36376712,32.208584,-24.911053,24.268099,-37.1035,-18.907516,-12.842538,0.49341336
15,-2.203657627105713,-17.61538314819336,75.5977554321289,-3.954976019518119,3.6539578795346377,-89.97571474586249,3.256021,9.291545,1.0457239,63.96642,-1.6894611,-3.777065,-16.683107,4.8679276,-6.799135,28.916739,-14.660136,-2.9879882,-5.057928,3.405821,5.3754153,18.703175,30.333431,-19.62661,-53.551804,0.19434915,-3.1967533,0.12704352,30.56433,-25.394863,24.762218,-36.95645,-18.675087,-12.843949,0.64128786
16,-2.318068504333496,-18.728355407714844,74.94557189941406,-4.505814018960418,3.449907211376868,-90.1041676985325,1.6004843,10.161555,0.4678811,67.40653,-4.047844,-3.731433,-16.848858,5.536804,-7.044523,31.963087,-17.729223,-3.2676506,-4.0949926,3.9181232,5.8094034,19.580116,29.582384,-18.47236,-53.027508,-0.025473423,-3.492293,0.46895382,28.793344,-25.858824,25.204884,-36.69497,-18.317858,-12.841705,0.69446665
17,-2.4242870807647705,-19.808725357055664,74.32699584960938,-5.020257021756951,3.3378462316845314,-90.27916762969288,-0.33764714,11.1512985,0.050176587,70.82734,-6.380792,-3.4189467,-17.034628,6.2146835,-7.1808534,34.683754,-20.128363,-3.56664,-2.9963834,4.424411,6.2180886,20.373972,28.743044,-17.345829,-52.4633,0.02046078,-3.7862055,0.60085076,26.840254,-26.297058,25.593306,-36.24458,-17.724197,-12.851796,0.60720265
18,-2.5276522636413574,-20.86647605895996,73.77582550048828,-5.508859893838501,3.298383840816834,-90.46743177531286,-2.5329278,12.233982,-0.3002067,74.27358,-8.772688,-2.8695078,-17.227066,6.8617373,-7.2816377,37.193047,-22.185318,-3.8158467,-1.8087748,4.938491,6.6025777,21.071573,27.814344,-16.244339,-51.84334,0.24243288,-4.0886693,0.5813151,24.716406,-26.707842,25.940859,-35.649513,-16.95392,-12.871671,0.4140105
19,-2.6094322204589844,-21.91228485107422,73.30037689208984,-5.94308923257023,3.271909901113433,-90.6556072911443,-4.813217,13.333645,-0.5683459,77.503525,-11.124425,-2.1028478,-17.235798,7.43564,-7.3308444,39.301067,-23.969017,-4.0000505,-0.5731904,5.438923,6.9718714,21.752438,26.811289,-15.184899,-51.23653,0.5459224,-4.3508744,0.4913472,22.523434,-27.094694,26.250868,-35.017204,-16.213352,-12.871539,0.19620998
20,-2.6672027111053467,-22.978391647338867,72.9081802368164,-6.292889896456647,3.1986033503722595,-90.82894953412782,-7.0052953,14.374709,-0.72299665,80.27151,-13.333013,-1.1418165,-16.873135,7.9078903,-7.317209,40.808983,-25.542524,-4.101353,0.67076766,5.8971934,7.340883,22.500008,25.756777,-14.188537,-50.718395,0.8322999,-4.5269127,0.4172564,20.3678,-27.463722,26.5321,-34.46143,-15.708195,-12.8182335,0.033059202
21,-2.696723461151123,-24.06133270263672,72.5997543334961,-6.549687474128069,3.030981990760519,-90.9889265340825,-9.070953,15.38899,-0.71142536,82.58505,-15.448864,0.106747374,-16.052185,8.272617,-7.244963,41.665306,-26.944757,-4.104266,1.9381294,6.2996764,7.782505,23.371487,24.642996,-13.245673,-50.3321,1.1960016,-4.562894,0.3807895,18.234604,-27.821442,26.780998,-33.976303,-15.488575,-12.676958,-0.07150463
22,-2.7242631912231445,-25.15996742248535,72.369140625,-6.72669103472374,2.81203954044494,-91.13951740032225,-11.093153,16.387054,-0.5637429,84.54439,-17.508528,1.612753,-14.883671,8.561692,-7.130436,41.96669,-28.132673,-4.0340586,3.239599,6.659615,8.271968,24.30878,23.464636,-12.349757,-50.03905,1.6451676,-4.498041,0.33914876,16.078487,-28.166634,27.011347,-33.515636,-15.441096,-12.471708,-0.15733102
23,-2.74680233001709,-26.285940170288086,72.22042083740234,-6.832056637285313,2.617599910810215,-91.2727823574931,-13.086983,17.27498,-0.3432466,86.05232,-19.381044,3.1727364,-13.477983,8.797577,-6.9731784,41.73722,-29.041191,-3.9318295,4.532981,6.98006,8.684106,25.247017,22.263908,-11.52595,-49.81408,1.9534583,-4.4249196,0.2887947,13.956629,-28.490519,27.256649,-33.13439,-15.525871,-12.256812,-0.20890284
24,-2.7675671577453613,-27.42829704284668,72.16475677490234,-6.876513477294399,2.523081736271682,-91.38198188367672,-15.06934,17.970522,-0.09723223,87.010086,-20.920338,4.5893316,-11.944279,8.987568,-6.7626495,41.004017,-29.604149,-3.824986,5.7833,7.25092,8.89844,26.144508,21.114874,-10.793901,-49.66057,1.8879966,-4.4359426,0.23928782,11.929199,-28.778164,27.537125,-32.887028,-15.700622,-12.088253,-0.21010426
25,-2.7926032543182373,-28.595182418823242,72.20930480957031,-6.884073433907601,2.5526339800722493,-91.47469699404026,-17.09897,18.545904,0.22012515,87.42595,-22.064323,5.919244,-10.281769,9.146308,-6.4699445,39.709522,-29.84937,-3.710574,7.023741,7.470606,8.873022,27.025446,20.067095,-10.190175,-49.629715,1.2394097,-4.5679264,0.24731033,10.008448,-29.013922,27.829964,-32.783794,-16.042017,-11.998845,-0.14115888
26,-2.8124945163726807,-29.804262161254883,72.35466766357422,-6.84245230332863,2.6645629746687924,-91.55302206950186,-19.1357,19.02083,0.654267,87.33584,-22.893759,7.231197,-8.4390545,9.244301,-6.097823,37.865288,-29.798563,-3.5706415,8.281424,7.6114583,8.681992,27.918945,19.131012,-9.699633,-49.729206,0.16585858,-4.7662005,0.31085816,8.174408,-29.188982,28.114618,-32.79645,-16.54289,-11.956434,-0.012162878
27,-2.825803756713867,-31.047893524169922,72.59661865234375,-6.709927026640218,2.8350496651863124,-91.60237211704784,-21.047037,19.248186,1.1688064,86.6832,-23.467949,8.353381,-6.4468913,9.222579,-5.6852107,35.594875,-29.372025,-3.3966649,9.507172,7.620714,8.385243,28.813555,18.325651,-9.251567,-49.92358,-1.0133675,-4.983905,0.3529646,6.4474297,-29.302513,28.416643,-32.92659,-17.045858,-11.919396,0.14812657
28,-2.8422930240631104,-32.32886505126953,72.92359924316406,-6.446807617207743,3.0405885020876022,-91.60654916803549,-22.706617,19.080755,1.7124456,85.40965,-23.828022,9.106019,-4.3422475,9.027254,-5.281297,33.02952,-28.49689,-3.1800308,10.646783,7.4500866,8.048806,29.709774,17.674341,-8.765182,-50.189114,-1.9814054,-5.1721344,0.30176616,4.848367,-29.35801,28.764265,-33.183468,-17.391209,-11.844483,0.30878305
29,-2.864957809448242,-33.64799880981445,73.32813262939453,-6.026097211247404,3.257797002350053,-91.55302031302728,-24.042065,18.480717,2.3313377,83.44671,-24.028343,9.442859,-2.007996,8.649334,-4.864393,29.979532,-27.136757,-2.9017906,11.6846895,7.0646763,7.6990843,30.630856,17.205818,-8.239138,-50.554768,-2.6646533,-5.331955,0.12328931,3.4143121,-29.350029,29.166792,-33.622654,-17.507904,-11.711131,0.44085008
30,-2.8794119358062744,-35.00174331665039,73.7887954711914,-5.479825515841261,3.5032512297525615,-91.45160443265777,-25.125942,17.546501,3.027767,80.8318,-24.022522,9.458117,0.52061313,8.120529,-4.4362164,26.461412,-25.344921,-2.5648382,12.652602,6.488477,7.311917,31.589743,16.927053,-7.696886,-51.04224,-3.2374237,-5.482625,-0.12779818,2.136469,-29.275597,29.597824,-34.23,-17.49372,-11.545632,0.5663654
31,-2.8881587982177734,-36.38433074951172,74.30033111572266,-4.86189771724467,3.812145767338155,-91.31816397286818,-26.049656,16.344397,3.6736546,77.65915,-23.711857,9.191722,2.9715393,7.4678426,-4.0840473,22.924044,-23.182917,-2.1959896,13.560047,5.776425,6.8773737,32.572975,16.815218,-7.093039,-51.617195,-3.7507987,-5.6035366,-0.3909708,0.97450966,-29.146816,30.036917,-34.920418,-17.440928,-11.373237,0.7276626
32,-2.889040470123291,-37.78146743774414,74.84838104248047,-4.230878247588844,4.218526013503277,-91.16521176496491,-26.90112,14.937764,4.1371093,74.022285,-23.000843,8.683418,5.0744634,6.735193,-3.8928115,19.81365,-20.711554,-1.8241253,14.404563,4.994646,6.3810225,33.566235,16.826822,-6.380798,-52.243515,-4.25076,-5.6738033,-0.61316216,-0.120051585,-28.98686,30.474728,-35.608856,-17.43884,-11.218126,0.9661682
33,-2.8806869983673096,-39.19206619262695,75.42508697509766,-3.557362588958535,4.76036577866186,-90.96431321411663,-27.681122,13.223271,4.3987722,69.81037,-21.872736,7.875048,6.7650323,5.899502,-3.8839402,17.18842,-17.845663,-1.4857167,15.149796,4.12005,5.799495,34.568787,16.938683,-5.5246334,-52.932392,-4.7167463,-5.678838,-0.8330695,-1.1157273,-28.813412,30.912607,-36.3251,-17.475544,-11.090859,1.3166733
34,-2.8493266105651855,-40.611778259277344,76.0169677734375,-2.8504846604554297,5.398874876762691,-90.70608120526676,-28.320276,11.238318,4.4620667,64.98942,-20.384075,6.779243,8.155995,5.014613,-4.0205903,14.873779,-14.606403,-1.1768016,15.778919,3.1690438,5.1495004,35.5956,17.144712,-4.5459,-53.695793,-5.129004,-5.6328077,-1.0716939,-1.9943695,-28.63468,31.365347,-37.110752,-17.513515,-10.9759035,1.7443552
35,-2.810116767883301,-42.016845703125,76.61724853515625,-2.2151549370010657,6.0569074348694185,-90.43579107040637,-28.791899,9.232031,4.2487593,59.7578,-18.541216,5.5361457,9.27145,4.217514,-4.280697,12.936328,-11.184769,-0.87028235,16.324055,2.2610092,4.470295,36.638275,17.41799,-3.4901764,-54.47609,-5.5289464,-5.564782,-1.2525048,-2.8251925,-28.461504,31.845762,-37.89541,-17.6031,-10.85889,2.1871412
36,-2.757028102874756,-43.433372497558594,77.21436309814453,-1.7403548859140356,6.664816835225392,-90.2076435709554,-29.07775,7.42536,3.7108169,54.314823,-16.344381,4.2788787,10.160749,3.5992136,-4.6314564,11.417973,-7.748056,-0.52459127,16.82386,1.5023228,3.7997215,37.675907,17.719404,-2.4031801,-55.204582,-5.956102,-5.503932,-1.3048426,-3.6848924,-28.304976,32.36937,-38.608673,-17.790453,-10.724835,2.583152
37,-2.688539505004883,-44.84504699707031,77.80079650878906,-1.4372011591943894,7.242327843575857,-90.0363764774012,-29.156574,5.776383,2.758842,48.49543,-13.652478,2.9810896,10.826375,3.1414754,-5.076093,10.278272,-4.1237736,-0.12078442,17.284128,0.9064334,3.1184812,38.700626,18.02349,-1.2780442,-55.865654,-6.4558573,-5.458509,-1.1748486,-4.6082397,-28.179686,32.959793,-39.238525,-18.14746,-10.549435,2.9323208
38,-2.6221225261688232,-46.25359344482422,78.35830688476562,-1.1531308887903213,7.840330837031871,-89.94393773194699,-29.011892,4.1340866,1.5226548,42.208473,-10.495181,1.6112738,10.77545,2.6135416,-5.577635,10.477029,-0.78461087,0.32940754,17.72054,0.31113273,2.4267945,39.729107,18.32426,-0.08355307,-56.502964,-6.9886217,-5.4140787,-0.92642343,-5.5516973,-28.089365,33.61526,-39.83528,-18.62534,-10.34601,3.2587848
39,-2.564781904220581,-47.67304229736328,78.8807601928711,-0.9081332808319837,8.410824833443948,-89.93801472022861,-28.621107,2.6602461,0.13948917,35.727364,-7.0914617,0.2606259,10.353686,2.0649319,-6.054148,11.443677,2.2332804,0.81902456,18.138395,-0.25338727,1.7584088,40.760292,18.6125,1.1613463,-57.109398,-7.466519,-5.364991,-0.66328776,-6.4880614,-28.027435,34.31157,-40.39736,-19.092937,-10.15612,3.5428405
40,-2.511608123779297,-49.100528717041016,79.36624908447266,-0.7752293318859178,8.874081450647017,-89.99446214682614,-27.993853,1.5371945,-1.2890193,29.40068,-3.6810846,-1.0025154,10.126585,1.6504183,-6.4755793,12.216386,5.086148,1.3351319,18.516489,-0.68627703,1.1535447,41.7863,18.876455,2.4257817,-57.66886,-7.7966666,-5.304125,-0.48837137,-7.3946347,-27.983162,35.021038,-40.90764,-19.420788,-10.021267,3.7664542
41,-2.4512813091278076,-50.5312385559082,79.81504821777344,-0.7760917350938855,9.233802551496611,-90.13175660737998,-27.172607,0.79838234,-2.8432841,23.160997,-0.034959633,-2.089721,10.186104,1.4063724,-6.868574,12.593819,7.8611717,2.0493248,18.866844,-0.96873134,0.59234285,42.810005,19.106993,3.731105,-58.166462,-7.951529,-5.2350497,-0.4353862,-8.322852,-27.954865,35.77215,-41.338936,-19.570019,-9.948801,3.8956609
42,-2.398650884628296,-51.962669372558594,80.21607971191406,-0.9437502937169845,9.497137163959295,-90.35838335646646,-26.15206,0.417656,-4.573986,16.896894,3.8725164,-3.092657,10.511712,1.3705282,-7.232398,12.58394,10.710665,2.9303057,19.198668,-1.0660653,0.06167736,43.834454,19.298399,5.080805,-58.613613,-7.9780087,-5.1581545,-0.4504089,-9.278532,-27.94399,36.569717,-41.697365,-19.610455,-9.915982,3.952623
43,-2.352184772491455,-53.39649200439453,80.56831359863281,-1.2939937488266353,9.606133715682093,-90.65638889130821,-24.941462,0.41494656,-6.223512,10.965314,7.479616,-4.203278,11.086527,1.5694726,-7.52346,12.368089,13.456821,3.6498291,19.510344,-0.9351966,-0.38048658,44.845684,19.449144,6.423063,-59.034477,-7.8997793,-5.0598574,-0.50505245,-10.179525,-27.943655,37.344322,-42.015293,-19.574745,-9.918986,4.0042114
44,-2.300812005996704,-54.828941345214844,80.8846435546875,-1.796342859106976,9.52190735364767,-90.98550722645221,-23.731024,0.7267457,-7.508591,6.0667067,10.050132,-5.595973,11.825457,1.9536414,-7.742902,12.2328005,15.874638,3.8546734,19.787813,-0.57731944,-0.6796463,45.816917,19.562876,7.6927257,-59.444042,-7.733417,-4.9274836,-0.57043666,-10.940162,-27.9454,38.01445,-42.320446,-19.497242,-9.955781,4.1197886
45,-2.240614414215088,-56.268184661865234,81.15943908691406,-2.4925171276074427,9.214706377790655,-91.36908559044593,-24.188822,1.1504104,-8.240425,5.845454,9.372103,-7.5374618,12.658556,2.5148537,-7.9277377,12.40485,17.901583,3.2734132,20.047394,0.047914956,-0.83991945,46.771168,19.649256,8.918301,-59.845547,-7.4531155,-4.744616,-0.6630587,-11.580479,-27.940763,38.584106,-42.61099,-19.374847,-10.048906,4.3377695
46,-2.161710500717163,-57.71804428100586,81.34938049316406,-3.214431209423616,8.77052041603212,-91.84103694542648,-24.396729,1.7860118,-8.422238,5.8435483,8.077427,-9.843185,13.142296,2.9866712,-8.080496,13.635359,19.158146,2.156199,20.334764,0.77253866,-0.910695,47.519478,19.71812,10.061997,-60.000134,-7.041364,-4.5485353,-0.808859,-12.152249,-27.930162,39.07688,-42.821636,-19.187586,-10.193142,4.6220145
47,-2.12200665473938,-59.15338897705078,81.47069549560547,-3.6859069747596442,8.290732778446229,-92.30165321853363,-24.363485,2.3022764,-8.207568,5.8471165,6.7613034,-11.972681,12.989442,3.0818677,-8.2284155,16.269316,19.345564,0.8891071,20.534262,1.3016047,-0.8466141,48.09665,19.800423,11.154915,-60.000134,-6.616009,-4.362332,-0.9444561,-12.643757,-27.89054,39.51129,-42.95509,-18.966398,-10.332927,4.8901815
48,-2.0997889041900635,-60.5731086730957,81.53731536865234,-3.900267778224231,7.854156391892277,-92.52605821957509,-24.15588,2.5232363,-8.059635,5.8484907,5.8937626,-13.407735,12.859138,2.9695318,-8.451432,18.790215,19.10112,-0.14868657,20.476322,1.633189,-0.6610995,48.555984,19.909721,12.108927,-60.000134,-6.220406,-4.1938243,-1.0065645,-12.975553,-27.822578,39.794697,-43.030544,-18.732052,-10.4340105,5.1047173
49,-2.0573086738586426,-61.9526252746582,81.56724548339844,-3.7982082622647604,7.508813324964057,-92.48907237964345,-23.763979,2.3511875,-8.046123,5.8476453,5.5610886,-13.885766,12.6081085,2.5507236,-8.7643,21.46687,18.108273,-0.89119697,20.115824,1.6880955,-0.35736427,48.902275,20.07606,12.948335,-60.000134,-5.8811207,-4.0427847,-0.93593055,-13.164197,-27.701817,39.90991,-43.029762,-18.48566,-10.473791,5.275416
50,-1.9844239950180054,-63.269073486328125,81.57217407226562,-3.500880712956215,7.193039945330485,-92.25868401672142,-23.162107,1.9709449,-8.045385,5.872954,5.510573,-13.743186,12.260608,1.9271992,-9.123829,24.366236,16.443203,-1.531841,19.516369,1.601475,0.061229713,49.14997,20.251757,13.66277,-60.000134,-5.535286,-3.898192,-0.7883732,-13.209322,-27.58041,39.870132,-42.99282,-18.212593,-10.479924,5.425909
51,-1.9021285772323608,-64.55209350585938,81.55475616455078,-3.0717122753469552,6.855507847458058,-91.86701906813245,-22.358614,1.472944,-8.0285845,5.844244,5.7492085,-13.326302,11.908512,1.2202404,-9.440249,27.30834,14.510495,-2.0313437,18.757408,1.3869005,0.57713,49.300247,20.535315,14.277784,-60.000134,-5.240679,-3.7580616,-0.60923964,-13.0880785,-27.39437,39.703945,-42.88587,-17.935339,-10.482394,5.5094543
52,-1.8393850326538086,-65.82585906982422,81.48846435546875,-2.645455893675562,6.452946484448706,-91.35229819317472,-21.450903,0.9948201,-7.992288,5.841682,6.2069545,-13.003228,11.661296,0.64454865,-9.648899,30.048275,12.752067,-2.3718212,17.908901,1.177648,1.1601346,49.338524,20.901209,14.752556,-60.000134,-4.991006,-3.6322944,-0.48923793,-12.756,-27.186039,39.44808,-42.746166,-17.66331,-10.509676,5.477728
53,-1.7995249032974243,-67.10829162597656,81.36463928222656,-2.2022502771579373,5.949731324760157,-90.65895811718269,-20.385036,0.49350047,-7.810996,5.8310165,7.091564,-12.807118,11.5679455,0.246623,-9.721415,32.557022,11.217249,-2.5129347,16.939402,0.94547766,1.8610501,49.250668,21.37908,15.079371,-60.000134,-4.8419976,-3.5303967,-0.4252348,-12.157956,-26.956495,39.079327,-42.602444,-17.428144,-10.562506,5.287747
54,-1.783382534980774,-68.40460205078125,81.16592407226562,-1.6901197571414643,5.375735543451444,-89.81005122949382,-19.179943,-0.15410691,-7.5046196,5.883522,8.320412,-12.601109,11.518915,-0.1023446,-9.683232,35.07058,9.625114,-2.4669025,15.858121,0.6206531,2.673999,49.042885,21.980915,15.263805,-60.000134,-4.7736473,-3.4421904,-0.37510097,-11.309119,-26.706486,38.57932,-42.456432,-17.214989,-10.630373,4.9726367
55,-1.766229271888733,-69.73049926757812,80.89192962646484,-1.196819037014443,4.770854252279729,-88.9444123336853,-17.886795,-0.88155574,-7.29248,5.948515,9.524922,-12.485479,11.454164,-0.41460493,-9.589815,37.596203,8.02094,-2.3114133,14.783778,0.28118408,3.4949112,48.743534,22.696783,15.308965,-60.000134,-4.6937866,-3.351792,-0.35641715,-10.273589,-26.446611,37.997322,-42.281483,-16.967524,-10.723626,4.5999794
56,-1.7503527402877808,-71.07210540771484,80.55809783935547,-0.7469648748407659,4.191716138841744,-88.19179237543524,-16.595898,-1.6257551,-7.372521,6.0332,10.30903,-12.5023,11.2788105,-0.76479036,-9.495913,40.171215,6.4365444,-2.1123214,13.8169365,-0.048858207,4.23569,48.373333,23.500982,15.235112,-60.000134,-4.5106664,-3.243143,-0.3948347,-9.12035,-26.190344,37.388805,-42.058754,-16.628672,-10.853322,4.233123
57,-1.73909330368042,-72.41683197021484,80.16758728027344,-0.3733887569133605,3.630845149563076,-87.55918056166887,-15.304111,-2.3101537,-7.903389,6.124693,10.749626,-12.9253435,11.025721,-1.0811185,-9.409798,42.748177,4.9093537,-1.8615594,12.969752,-0.31953406,4.8876176,47.92509,24.383076,15.056393,-60.000134,-4.131074,-3.1058607,-0.5525218,-7.8191233,-25.943834,36.771946,-41.773827,-16.115406,-11.028026,3.8457155
58,-1.7189738750457764,-73.75985717773438,79.72596740722656,-0.0368958375042603,3.0724422567054557,-86.97990223017298,-14.133479,-2.9868028,-8.729613,6.5734277,10.800583,-13.616953,10.717446,-1.3596838,-9.318922,45.328293,3.4147944,-1.5284382,12.182485,-0.56362855,5.4971952,47.387596,25.340052,14.756438,-60.000134,-3.6227553,-2.9544742,-0.8055278,-6.341922,-25.706865,36.130085,-41.455753,-15.479585,-11.242559,3.4149373
59,-1.682607889175415,-75.09747314453125,79.23885345458984,0.338454737425958,2.5631859863186874,-86.47226271002245,-13.637659,-3.8065,-9.557325,8.519473,9.587799,-13.963335,10.246134,-1.7632511,-9.238458,48.025726,1.884197,-1.1423784,11.441165,-0.8632639,6.0564165,46.761154,26.347876,14.318439,-60.000134,-3.1375287,-2.8094122,-1.0541918,-4.7700105,-25.481586,35.469334,-41.139606,-14.864719,-11.484725,3.0079396
60,-1.6082618236541748,-76.39308166503906,78.7676010131836,0.8148892421662696,2.1426252783419093,-86.06301879099829,-13.387144,-4.763289,-10.168471,10.994468,7.3768225,-13.364755,9.522852,-2.43782,-9.168867,50.931694,0.2598319,-0.7367821,10.734348,-1.2823502,6.554973,46.05192,27.365906,13.724427,-60.000134,-2.8224454,-2.6922076,-1.2025487,-3.191478,-25.270506,34.801163,-40.85659,-14.413375,-11.738208,2.690827
61,-1.5204291343688965,-77.67887878417969,78.25891876220703,1.3989806676018135,1.8268535508388528,-85.79439581865067,-13.5483,-5.916468,-10.671321,14.407575,3.5870814,-11.279828,8.54373,-3.4269016,-9.129748,54.087307,-1.4899085,-0.28632286,10.084164,-1.814071,6.9453893,45.280273,28.365145,12.955402,-60.000134,-2.7231812,-2.6151874,-1.2265786,-1.6267891,-25.074589,34.16895,-40.569305,-14.184259,-11.996256,2.4917593
62,-1.4618053436279297,-78.9777603149414,77.66703033447266,2.0047984042346827,1.583976155692032,-85.65161345024138,-13.982222,-7.2375283,-11.280462,18.504246,-1.351096,-8.137787,7.3853993,-4.575643,-9.101458,57.385525,-3.2986476,0.2030874,9.471078,-2.367242,7.2562723,44.42094,29.334951,12.057473,-60.000134,-2.7694156,-2.5616658,-1.1875905,-0.052209344,-24.891857,33.583107,-40.276844,-14.091599,-12.264763,2.369258
63,-1.4004716873168945,-80.267333984375,77.0446548461914,2.585053549782525,1.3827554780608347,-85.57122158573088,-14.428696,-8.655019,-11.851771,22.628042,-6.380905,-4.810418,6.0705347,-5.7673583,-9.018165,60.709286,-5.08721,0.6596232,8.894789,-2.8389282,7.4642215,43.440617,30.243267,10.869021,-59.898235,-2.820193,-2.5919507,-1.123291,1.5569392,-24.712389,32.96577,-39.935616,-14.05309,-12.541593,2.2874715
64,-1.3245530128479004,-81.52820587158203,76.41651153564453,3.1586741466227624,1.2027432177979809,-85.47892370879296,-14.653779,-10.022438,-12.092887,26.105865,-10.545709,-2.19438,4.589777,-6.962022,-8.807272,63.9898,-6.800599,1.0315763,8.141204,-3.2897732,7.7548795,41.623512,31.113754,9.568752,-59.096725,-3.0044806,-2.6473708,-1.1041638,3.0503607,-24.53572,32.38115,-39.632633,-14.005048,-12.827092,2.2006924
65,-1.2421425580978394,-82.73413848876953,75.79120635986328,3.832645498100051,1.0766730097683193,-85.36098193977668,-14.68228,-11.259028,-11.66083,28.81933,-13.739759,-0.52719784,2.851865,-8.294315,-8.410131,67.34591,-8.468906,1.3705703,7.3442793,-3.82851,8.05232,39.739426,31.90749,8.039412,-58.387676,-3.2403753,-2.7570312,-1.0134556,4.541148,-24.353294,31.674673,-39.42136,-13.957803,-13.143025,2.147781
66,-1.1610897779464722,-83.90935516357422,75.19329071044922,4.609477109152711,1.0113606199959402,-85.24468026276985,-14.640369,-12.380225,-10.754527,31.150957,-16.530993,0.6566092,0.8717442,-9.773119,-7.8535585,70.787186,-10.117978,1.7030101,6.4805183,-4.4773664,8.346143,37.67668,32.59836,6.3596635,-57.645893,-3.576031,-2.9162192,-0.8738654,6.0052433,-24.161623,30.918476,-39.27363,-13.936967,-13.483694,2.1345217
67,-1.0825988054275513,-85.06065368652344,74.62742614746094,5.372450473526123,0.945546509835563,-85.1169738045006,-14.47653,-13.352907,-9.806688,33.21066,-19.025438,1.5106603,-1.2075025,-11.19995,-7.196291,74.08642,-11.68738,1.9410247,5.5810337,-5.14978,8.682431,35.424988,33.157124,4.5598235,-56.84331,-3.8149896,-3.06624,-0.7659353,7.5364842,-23.941929,30.11422,-39.15546,-13.889654,-13.81209,2.0712223
68,-1.0216017961502075,-86.19503784179688,74.10173797607422,5.994622655378027,0.8166520791575107,-84.96866041939258,-14.136121,-14.186466,-9.247346,35.071976,-21.282734,2.191475,-3.2439773,-12.375277,-6.513862,77.016815,-13.111458,1.9897453,4.6837063,-5.7453113,9.109334,33.01205,33.557415,2.659193,-55.982643,-3.7533185,-3.146361,-0.76776993,9.226753,-23.66712,29.261017,-39.022846,-13.763467,-14.092018,1.871694
69,-0.9858751893043518,-87.32109832763672,73.621826171875,6.450647855788331,0.5892540639766572,-84.7534624350649,-13.63877,-14.9393,-9.19591,36.8194,-23.281404,2.6648402,-5.2346535,-13.243266,-5.7965484,79.60242,-14.35204,1.7849714,3.7636573,-6.2509174,9.704407,30.405668,33.77152,0.64094406,-55.020863,-3.3014333,-3.1388743,-0.9805413,11.129447,-23.300201,28.32057,-38.832092,-13.518522,-14.325676,1.4550308
70,-0.9944583177566528,-88.449951171875,73.20904541015625,6.806344974196201,0.30346953995631404,-84.49141305196983,-13.005915,-15.58987,-9.391346,38.397827,-24.993452,2.87781,-7.252663,-13.908981,-5.0202746,81.940575,-15.442824,1.3887933,2.7895122,-6.730282,10.417498,27.672657,33.778126,-1.4637187,-53.995316,-2.5799596,-3.0790899,-1.3409517,13.133176,-22.827078,27.340845,-38.564724,-13.194766,-14.532077,0.8957667
71,-1.03864324092865,-89.58089447021484,72.87217712402344,7.066862946290953,0.010222185478053081,-84.27387933185301,-12.181755,-16.068573,-9.691791,39.633175,-26.440552,2.958914,-9.270664,-14.427881,-4.2537656,83.91903,-16.42784,0.8833607,1.7862818,-7.1803265,11.115726,24.994928,33.572018,-3.56509,-53.01781,-1.6967331,-2.9824302,-1.6895489,15.08307,-22.27009,26.444923,-38.220955,-12.859562,-14.698593,0.33975574
72,-1.090975284576416,-90.76250457763672,72.62418365478516,7.238744174782093,-0.23938933006875307,-84.1915782207777,-11.11266,-16.317045,-9.957065,40.347404,-27.643871,3.0367236,-11.260319,-14.855526,-3.5674312,85.42098,-17.353647,0.34700292,0.78326863,-7.5833316,11.674233,22.52728,33.166397,-5.5788097,-52.192074,-0.75884086,-2.8590963,-1.8728837,16.847843,-21.679707,25.73896,-37.83636,-12.581126,-14.808959,-0.07341008
73,-1.142681360244751,-91.9540786743164,72.45732116699219,7.319577163637964,-0.4550103262082588,-84.30443655552416,-9.73207,-16.307762,-10.132439,40.45177,-28.634699,3.1250627,-13.244457,-15.208047,-2.9424233,86.44256,-18.258625,-0.24711797,-0.1654924,-7.9295135,12.120373,20.277296,32.556446,-7.518711,-51.50581,0.3773222,-2.6641111,-1.8075074,18.485601,-21.0876,25.193497,-37.4654,-12.410614,-14.819422,-0.3291645
74,-1.1922696828842163,-93.16615295410156,72.38600158691406,7.307721753476673,-0.6560382486642177,-84.55090995437845,-8.0898485,-16.09656,-10.277519,40.054237,-29.391884,3.1794302,-15.225792,-15.450997,-2.3708022,87.03362,-19.110764,-0.92649794,-1.0952262,-8.20531,12.513682,18.178802,31.743357,-9.421732,-50.900105,1.7122452,-2.3995025,-1.6041651,20.060541,-20.509136,24.752232,-37.11843,-12.300114,-14.7478,-0.50339454
75,-1.2313505411148071,-94.39382934570312,72.4048080444336,7.209980701372547,-0.8066601468797961,-84.83933502453822,-6.301945,-15.745506,-10.431805,39.264412,-29.854143,3.2319958,-17.141247,-15.577984,-1.9384334,87.160675,-19.847239,-1.6101243,-2.0869362,-8.381562,12.778396,16.252926,30.775759,-11.266424,-50.41321,2.9372637,-2.145429,-1.3911862,21.48239,-19.986752,24.4479,-36.77883,-12.16916,-14.668362,-0.5944127
76,-1.263804316520691,-95.6576919555664,72.50822448730469,7.032420170031063,-0.8706602305055973,-85.07783551425756,-4.484223,-15.300171,-10.642765,38.19226,-29.961699,3.2940595,-18.925081,-15.602764,-1.72773,86.79242,-20.40577,-2.2177129,-3.216854,-8.437622,12.844066,14.485317,29.727556,-13.020099,-50.0672,3.7253475,-1.9953616,-1.27774,22.681921,-19.573761,24.309557,-36.460674,-11.931324,-14.655449,-0.60874003
77,-1.2923879623413086,-96.94338989257812,72.68988800048828,6.763851849666803,-0.834885777842829,-85.24718278822434,-2.6054392,-14.73531,-10.942723,36.74004,-29.717585,3.368931,-20.56929,-15.57011,-1.8115146,85.8884,-20.790922,-2.7569537,-4.521478,-8.353101,12.68462,12.884469,28.64031,-14.659838,-49.914516,3.8943787,-2.004899,-1.2442124,23.655369,-19.31296,24.373869,-36.22526,-11.472507,-14.741222,-0.5485267
78,-1.3254830837249756,-98.25409698486328,72.93672180175781,6.40604963676911,-0.7207331244745225,-85.39558363000943,-0.6374668,-14.024815,-11.288198,34.90779,-29.159025,3.4351726,-22.088127,-15.470534,-2.1419144,84.472664,-21.033497,-3.2499342,-5.9449763,-8.136281,12.364128,11.445946,27.52398,-16.205364,-49.946213,3.633692,-2.1189592,-1.224457,24.484606,-19.214464,24.593304,-36.11728,-10.854617,-14.877987,-0.42599913
79,-1.3619786500930786,-99.61216735839844,73.24097442626953,5.988638040240943,-0.5440524303911672,-85.53289929561014,1.3041958,-13.215266,-11.621399,32.9428,-28.27149,3.456393,-23.451576,-15.246898,-2.616096,82.60958,-21.112906,-3.6492653,-7.4097977,-7.815694,11.942092,10.123569,26.407299,-17.70863,-50.081844,3.1786501,-2.2660086,-1.2478883,25.239565,-19.267263,24.864546,-36.119106,-10.255758,-15.022276,-0.26098067
80,-1.4010907411575317,-100.99085235595703,73.59075927734375,5.543732151986301,-0.32014959882107946,-85.66896388330417,3.1103175,-12.358787,-11.891651,31.085163,-27.035944,3.4021807,-24.63855,-14.847402,-3.1222298,80.368385,-21.002274,-3.913357,-8.827603,-7.4289575,11.471195,8.868598,25.329145,-19.233723,-50.240414,2.7589657,-2.3719804,-1.3363643,25.995405,-19.443584,25.079657,-36.213905,-9.856576,-15.133666,-0.0710191
81,-1.453596830368042,-102.39509582519531,73.97824096679688,5.055595829462469,-0.06169444994569436,-85.81027184153103,4.821029,-11.449839,-12.120998,29.30306,-25.393011,3.2555141,-25.619665,-14.231202,-3.6438105,77.712135,-20.698902,-4.033803,-10.160813,-6.976705,10.962719,7.680887,24.311693,-20.842218,-50.44312,2.3618033,-2.4241312,-1.4814895,26.759834,-19.725302,25.214787,-36.40788,-9.71586,-15.216052,0.16492474
82,-1.516345739364624,-103.82181549072266,74.40481567382812,4.522452986221351,0.2408348854357886,-85.95422024687592,6.4551954,-10.486811,-12.320351,27.520555,-23.37786,3.0395477,-26.411783,-13.453601,-4.2185445,74.61798,-20.218807,-4.038013,-11.438601,-6.4515715,10.393493,6.588974,23.363363,-22.513319,-50.727528,1.8841703,-2.4561932,-1.6640416,27.504004,-20.10315,25.31429,-36.701847,-9.734558,-15.289245,0.45358312
83,-1.5970237255096436,-105.26797485351562,74.86094665527344,3.98634613114337,0.605985701655644,-86.09580332711438,7.884939,-9.527449,-12.437245,25.903349,-21.111671,2.7945507,-27.066532,-12.601531,-4.8164754,71.16786,-19.561346,-3.941071,-12.67243,-5.884593,9.756986,5.5870194,22.50332,-24.187822,-51.027233,1.4210256,-2.4657958,-1.8849571,28.245974,-20.556162,25.373785,-37.06281,-9.860758,-15.339379,0.7566696
84,-1.7089440822601318,-106.73262023925781,75.3331298828125,3.487303291116847,1.05361989338301,-86.22840792553629,8.991315,-8.619365,-12.426368,24.618525,-18.706882,2.5588727,-27.631514,-11.751209,-5.4193006,67.43271,-18.720589,-3.75507,-13.871954,-5.3054185,9.045269,4.658225,21.757336,-25.803394,-51.284325,1.0640259,-2.4482226,-2.14203,28.99812,-21.055746,25.387856,-37.45714,-10.043146,-15.352383,1.0378805
85,-1.835178256034851,-108.20113372802734,75.81353759765625,3.021649057222679,1.631447738072519,-86.3466897927641,9.709585,-7.7395754,-12.275512,23.698519,-16.093412,2.3400202,-28.127548,-10.906909,-6.074047,63.319496,-17.630732,-3.4492009,-15.056482,-4.7041388,8.212546,3.804094,21.151669,-27.349333,-51.51074,0.8448246,-2.3947167,-2.4421518,29.733742,-21.58128,25.371864,-37.858242,-10.29925,-15.323197,1.2909557
86,-1.9790524244308472,-109.6803207397461,76.29829406738281,2.5712547271132933,2.3160587446030343,-86.45543483326713,10.121439,-6.8714767,-12.031453,23.067781,-13.243434,2.1173143,-28.515663,-10.022904,-6.7717433,58.799114,-16.305878,-3.0251584,-16.210396,-4.071595,7.2790704,3.0389423,20.69838,-28.858627,-51.754368,0.70609945,-2.3104086,-2.7750769,30.435633,-22.125635,25.328665,-38.2689,-10.651224,-15.261954,1.5406413
87,-2.1397736072540283,-111.16806030273438,76.77338409423828,2.151109253849441,3.0222160286085162,-86.55846314301839,10.350848,-6.055289,-11.740797,22.686005,-10.316891,1.8780575,-28.75517,-9.096303,-7.4166517,54.03099,-14.857265,-2.5434673,-17.297424,-3.4368722,6.3341165,2.3504755,20.396168,-30.332039,-52.00898,0.6069466,-2.2131755,-3.1141922,31.135452,-22.681376,25.23215,-38.698223,-11.056138,-15.17691,1.7965869
88,-2.308420181274414,-112.65989685058594,77.218994140625,1.7756862323595763,3.664527070573278,-86.6578717943304,10.516244,-5.334457,-11.443199,22.518173,-7.4650497,1.6119868,-28.814838,-8.13882,-7.9086647,49.184258,-13.399537,-2.0738113,-18.286222,-2.8345933,5.4641123,1.7187617,20.235031,-31.769182,-52.26243,0.5077816,-2.120349,-3.436308,31.86723,-23.241852,25.054413,-39.15566,-11.470954,-15.075524,2.0682771
89,-2.481147289276123,-114.1482925415039,77.64195251464844,1.437831015401815,4.262630824225117,-86.73804652122867,10.593849,-4.707554,-11.149859,22.546606,-4.6129208,1.3027714,-28.69424,-7.1406236,-8.233353,44.15875,-11.938128,-1.7259923,-19.19772,-2.2556465,4.6487193,1.1039028,20.217112,-33.20833,-52.481083,0.4001461,-2.0426798,-3.7223155,32.63054,-23.806301,24.781532,-39.63368,-11.938037,-14.963864,2.3631916
90,-2.644148349761963,-115.66021728515625,78.03058624267578,1.131361233815958,4.848837564083457,-86.7955082260452,10.564165,-4.1473575,-10.856915,22.744503,-1.6864508,0.9424117,-28.39224,-6.120684,-8.433591,38.868565,-10.4033,-1.45014,-20.045813,-1.6896756,3.8563247,0.5107742,20.344757,-34.643833,-52.68477,0.30497083,-1.9691358,-3.9890847,33.414574,-24.37459,24.423786,-40.13329,-12.46383,-14.837844,2.6779037
91,-2.8005664348602295,-117.18018341064453,78.38103485107422,0.8862383419812218,5.354144736472115,-86.84952341600454,10.558987,-3.6789236,-10.568844,23.046675,1.1592008,0.54663247,-27.893145,-5.153534,-8.481776,33.53547,-8.812113,-1.0778978,-20.798527,-1.1888084,3.147734,-0.021677628,20.602623,-35.99985,-52.929756,0.22805852,-1.8839208,-4.2732825,34.230743,-24.938978,23.99661,-40.670715,-12.950286,-14.688287,3.0026352
92,-2.946103096008301,-118.6971664428711,78.68536376953125,0.7362070709080244,5.7074458448221534,-86.91771362146423,10.696665,-3.3358562,-10.279207,23.416265,3.7572415,0.14549191,-27.183268,-4.3102336,-8.348845,28.390041,-7.183907,-0.43428248,-21.42586,-0.8124,2.5770588,-0.46931258,20.96604,-37.200005,-53.252323,0.1792584,-1.7707196,-4.6170588,35.088604,-25.488424,23.517689,-41.254425,-13.303287,-14.504442,3.3274298
93,-3.0841240882873535,-120.22342681884766,78.93694305419922,0.743221910727075,5.87222241773456,-86.98147666135385,11.03524,-3.224411,-10.081363,23.80747,6.108566,-0.18906347,-26.16774,-3.6380987,-7.9559083,23.255789,-5.4380736,0.69951653,-21.940693,-0.62719893,2.141779,-0.89391613,21.426739,-38.2668,-53.621223,0.13383916,-1.5981477,-5.0626044,36.022804,-26.019209,22.95744,-41.895824,-13.505936,-14.255471,3.6775599
94,-3.2124266624450684,-121.74854278564453,79.1390609741211,0.9240938981585042,5.876189396511862,-87.01838665003147,11.5414715,-3.3533297,-9.951599,24.192076,8.326859,-0.4840489,-24.843681,-3.169971,-7.31536,18.031218,-3.577867,2.1730795,-22.373224,-0.64691865,1.8026187,-1.320248,21.984715,-39.23247,-54.0061,0.100003086,-1.3822887,-5.584069,37.029125,-26.529764,22.315683,-42.59128,-13.610701,-13.954694,4.0488987
95,-3.34354305267334,-123.26686096191406,79.2920913696289,1.2232687889345941,5.753319791498264,-87.05357885578158,12.174009,-3.584974,-9.695819,24.588669,10.39062,-0.839525,-23.40276,-2.9132264,-6.556957,13.176863,-1.785043,3.6203249,-22.711813,-0.82898176,1.5544238,-1.6733551,22.623814,-40.025246,-54.42856,0.13604063,-1.1787369,-6.1260924,38.028484,-27.009493,21.660294,-43.296764,-13.61669,-13.654357,4.3861036
96,-3.467047691345215,-124.77664947509766,79.40153503417969,1.5073216420635798,5.564377193112519,-87.14204755358453,12.827886,-3.6983504,-9.097423,25.107323,12.221317,-1.3552154,-22.065046,-2.7521005,-5.847072,9.152569,-0.22439863,4.6751885,-22.916988,-1.0487931,1.3973643,-1.8841586,23.316198,-40.56522,-54.89154,0.29931614,-1.0453169,-6.6357737,38.91624,-27.44483,21.071856,-43.938663,-13.527097,-13.407372,4.6339107
97,-3.599973440170288,-126.26914978027344,79.4769515991211,1.6747285731917694,5.3331856379010905,-87.33957799708415,13.437865,-3.5616832,-8.044947,25.866798,13.882425,-2.175427,-21.200289,-2.5646152,-5.1904354,6.6904545,0.7691178,5.177283,-22.922009,-1.21261,1.3426908,-2.0068495,24.038113,-40.837273,-55.34425,0.7007,-1.0243969,-7.1589303,39.663452,-27.819597,20.56704,-44.47188,-13.280009,-13.219846,4.762801
98,-3.731457233428955,-127.7465591430664,79.50227355957031,1.7390921455641064,5.054679119976457,-87.63841643708047,13.985267,-3.2242875,-6.638671,26.92357,15.320692,-3.1826935,-21.209461,-2.3541217,-4.5228286,6.5830817,0.73927796,5.3452554,-22.727697,-1.3288193,1.3854265,-2.0869513,24.77532,-40.88363,-55.74573,1.278498,-1.0800223,-7.707039,40.291553,-28.129255,20.11853,-44.90012,-12.89897,-13.065971,4.808887
99,-3.8651514053344727,-129.21075439453125,79.48021697998047,1.7023704554064534,4.755029929088122,-88.0084911811637,14.412323,-2.6845033,-4.958388,28.334568,16.256886,-4.0845075,-21.020235,-2.0313241,-3.9717338,6.5190477,0.8621279,5.380009,-22.388298,-1.3828901,1.5099293,-2.0333273,25.509586,-40.706974,-56.10778,1.833548,-1.1495333,-8.17535,40.760323,-28.38236,19.744984,-45.21789,-12.509321,-12.951493,4.813135
100,-4.000423908233643,-130.65652465820312,79.40397644042969,1.5771777916299956,4.455367871354827,-88.41407215733804,14.690483,-1.942448,-3.0844884,30.10735,16.424963,-4.6020107,-20.638128,-1.6344557,-3.6059556,6.491087,1.0945264,5.482869,-21.968292,-1.3706455,1.7004498,-1.7472997,26.22267,-40.304977,-56.451584,2.1660724,-1.1650683,-8.462457,41.037174,-28.599308,19.462793,-45.43128,-12.236067,-12.880618,4.814914
101,-4.130634307861328,-132.08433532714844,79.26141357421875,1.3766109433136668,4.147466650995451,-88.85680536712675,14.863722,-0.9076988,-0.84034693,32.25823,15.601077,-4.637558,-20.016468,-1.180506,-3.5508595,6.493954,1.520272,5.8825483,-21.466637,-1.3048165,1.9590544,-1.1917402,26.898285,-39.647026,-56.773186,2.2307718,-1.0812398,-8.561681,41.130978,-28.796347,19.268744,-45.56145,-12.126722,-12.872332,4.793232
102,-4.262121200561523,-133.49969482421875,79.05661010742188,1.0858651648552549,3.8202975529324292,-89.35470322149197,14.975476,0.44902018,1.7321943,34.774124,13.9549055,-4.353654,-19.167366,-0.6355952,-3.7254403,6.53244,2.1303709,6.41486,-20.855091,-1.170687,2.2937696,-0.41546836,27.52367,-38.740643,-57.052868,2.1315951,-0.9399712,-8.521876,41.064323,-28.979258,19.155886,-45.6145,-12.107171,-12.917816,4.732746
103,-4.398102283477783,-134.9097442626953,78.80370330810547,0.6840773601726504,3.487331854158893,-89.88823681765086,14.999084,2.001407,4.214687,37.576107,11.831419,-3.8859603,-18.182148,0.029324695,-3.8932376,6.6141095,2.740257,6.697575,-20.165684,-0.9295728,2.6957216,0.5505877,28.086523,-37.641098,-57.29614,1.8903651,-0.80302185,-8.325113,40.82498,-29.15214,19.13143,-45.578773,-12.114504,-12.979185,4.680445
104,-4.523162841796875,-136.33412170410156,78.4969711303711,0.17058732315926742,3.1567579338481133,-90.42706369742189,14.892909,3.569544,6.203308,40.549175,9.612237,-3.3585813,-18.197762,0.7499243,-3.8301156,8.980472,1.9835639,6.363889,-19.44222,-0.56606406,3.1517975,1.6747268,28.575016,-36.40723,-57.50726,1.5308368,-0.73290366,-7.954608,40.418,-29.31463,19.208021,-45.458076,-12.095149,-13.01856,4.6829796
105,-4.640137195587158,-137.74700927734375,78.14683532714844,-0.464677904668524,2.806136535348691,-90.99363133523127,14.658069,5.038899,7.549445,43.68262,7.2468953,-2.6627717,-18.524557,1.6395504,-3.3391457,12.204378,0.7392815,5.0941715,-18.684345,-0.072694324,3.6743734,3.011261,28.970068,-35.027702,-57.673214,0.9585273,-0.7525564,-7.312099,39.821365,-29.473164,19.404177,-45.24504,-12.075284,-13.020738,4.7742343
106,-4.742274284362793,-139.17359924316406,77.7437973022461,-1.1339843083884227,2.4144633080402995,-91.56232632893177,14.343018,6.3823237,8.443295,46.943054,4.6334844,-1.7917728,-18.955635,2.659011,-2.5869174,15.944811,-0.7256296,3.2019026,-17.901182,0.45668474,4.2494655,4.553307,29.256546,-33.496616,-57.78391,0.19306773,-0.83398414,-6.439839,39.065323,-29.628178,19.70846,-44.96434,-12.069958,-13.006743,4.91921
107,-4.861553192138672,-140.55662536621094,77.31317901611328,-1.7315214549731408,2.005907532760594,-92.04534680054692,13.929714,7.5959253,9.0426035,50.226967,2.0689025,-1.002721,-19.351936,3.666889,-1.8981726,19.80256,-2.4517467,1.2449887,-17.129333,0.92434186,4.829167,6.1649427,29.432974,-31.888311,-57.843967,-0.5700598,-0.958223,-5.5309925,38.21736,-29.759846,20.080034,-44.645992,-12.002886,-12.993776,5.0650997
108,-4.964588642120361,-141.93698120117188,76.83294677734375,-2.2318594046121882,1.6261222663760826,-92.38018411544589,13.372318,8.802466,9.535533,53.489258,-0.18382457,-0.55299664,-19.606129,4.5381947,-1.5885421,23.412283,-4.5668387,-0.26801696,-16.371555,1.3134171,5.375101,7.6925154,29.506157,-30.286474,-57.845463,-1.1339273,-1.0963688,-4.7749534,37.34994,-29.83419,20.46801,-44.318913,-11.809843,-13.001249,5.166859
109,-5.068052768707275,-143.30523681640625,76.3036880493164,-2.6772609187839973,1.2922146168212385,-92.54762225313006,12.663719,10.118782,9.986332,56.79598,-1.9951408,-0.66003937,-19.786146,5.2139273,-1.8130933,26.961134,-7.491177,-1.2395571,-15.617568,1.6729184,5.8776383,9.06973,29.481558,-28.720722,-57.762913,-1.4331086,-1.2324582,-4.1935496,36.502335,-29.81497,20.849646,-44.002697,-11.430077,-13.044239,5.250492
110,-5.183647632598877,-144.63986206054688,75.7489013671875,-3.1113250242670736,0.9925849002985616,-92.59836631364767,11.798373,11.515185,10.321545,60.192112,-3.5450044,-1.1316328,-19.976765,5.7746153,-2.3681445,30.655018,-11.117338,-1.9617401,-14.830828,2.038174,6.3555408,10.349865,29.356272,-27.18396,-57.58067,-1.5745728,-1.3783374,-3.6916947,35.623116,-29.689041,21.236328,-43.650764,-10.917008,-13.11202,5.3414226
111,-5.300924777984619,-145.94496154785156,75.17965698242188,-3.5449982098362307,0.7368287020942471,-92.58335329464153,10.730374,12.953336,10.524573,63.609356,-5.054943,-1.6086037,-20.10025,6.291003,-3.0302765,34.161446,-14.825574,-2.532173,-13.974609,2.4118645,6.815802,11.558369,29.12778,-25.691391,-57.30422,-1.6208764,-1.5413079,-3.2843564,34.646656,-29.462032,21.632086,-43.19207,-10.379745,-13.185362,5.390361
112,-5.415573596954346,-147.22970581054688,74.60835266113281,-3.9812340118744043,0.532946698732216,-92.55058924659254,9.411189,14.372218,10.560892,66.96444,-6.7338023,-1.7437589,-20.064697,6.837549,-3.5743873,37.120773,-17.97241,-3.0432281,-13.017997,2.7919474,7.264797,12.723819,28.79385,-24.251638,-56.945934,-1.6344103,-1.730168,-2.987823,33.50391,-29.151564,22.036087,-42.557594,-9.917438,-13.244932,5.343732
113,-5.530253887176514,-148.4908905029297,74.08048248291016,-4.452207997549211,0.4096774369035426,-92.50843441815168,7.7439322,15.789146,10.354091,70.338066,-8.675559,-1.4410574,-19.888807,7.4522057,-3.9683652,39.47576,-20.406534,-3.5026891,-11.951609,3.2136185,7.7023706,13.850484,28.34617,-22.814535,-56.515823,-1.623928,-1.9668021,-2.891346,32.181206,-28.753733,22.45851,-41.71573,-9.48363,-13.286674,5.132821
114,-5.660094261169434,-149.7138671875,73.6155014038086,-4.953985144608242,0.3574814282341359,-92.43531280252269,5.7663956,17.196806,9.914909,73.72961,-10.744987,-0.9067419,-19.609001,8.066382,-4.3189964,41.43106,-22.48132,-3.8684776,-10.796199,3.6835213,8.118016,14.918945,27.787207,-21.38995,-56.000004,-1.5568022,-2.2392032,-2.9643042,30.71498,-28.265354,22.883204,-40.705376,-9.04608,-13.321998,4.8022466
115,-5.768139839172363,-150.9347381591797,73.2208023071289,-5.428751424258359,0.3254845808667222,-92.3318568681678,3.6328604,18.494364,9.341899,76.922745,-12.802783,-0.24704985,-19.151365,8.617791,-4.6138716,42.991898,-24.292675,-4.1559296,-9.575642,4.1530137,8.508245,15.937213,27.138775,-20.060204,-55.393375,-1.4348758,-2.5071871,-3.040036,29.137138,-27.714901,23.28481,-39.598064,-8.736568,-13.352733,4.462293
116,-5.851439952850342,-152.12254333496094,72.88931274414062,-5.816164504831574,0.26220277418881593,-92.19564773847323,1.4981154,19.598036,8.753516,79.701,-14.70949,0.44499928,-18.44247,9.055815,-4.8477,44.143864,-25.922728,-4.3795896,-8.321142,4.565112,8.8785925,16.931587,26.434027,-18.895117,-54.720882,-1.2611682,-2.731327,-2.9463108,27.467209,-27.15345,23.644188,-38.469597,-8.676067,-13.377262,4.2189536
117,-5.921102523803711,-153.32009887695312,72.62874603271484,-6.101007446198078,0.1352972407856179,-92.02378922496806,-0.6261198,20.525166,8.183479,82.075386,-16.475061,1.2185069,-17.443497,9.373808,-5.0303683,44.88371,-27.400328,-4.5348406,-7.0428696,4.907329,9.293502,17.95817,25.683538,-17.881695,-54.015892,-0.9768951,-2.8883913,-2.5748465,25.680315,-26.614191,23.967314,-37.3088,-8.9972725,-13.393447,4.082175
118,-5.969693660736084,-154.52513122558594,72.43605041503906,-6.315452129461394,-0.021237436400108427,-91.81719267361872,-2.8210907,21.302086,7.5782986,84.13729,-18.155077,2.1036868,-16.200497,9.608098,-5.1728826,45.209938,-28.67295,-4.6200066,-5.7383113,5.210062,9.742932,19.017744,24.888569,-16.966087,-53.30165,-0.6044915,-3.0033808,-2.0296896,23.783682,-26.103031,24.272429,-36.11937,-9.58936,-13.399386,3.9890206
119,-6.00405216217041,-155.74343872070312,72.31759643554688,-6.4663775447981635,-0.15976094673572067,-91.57916115607368,-5.0662184,21.879225,6.945897,85.80077,-19.67988,2.9824455,-14.770137,9.776943,-5.2728944,45.113,-29.70163,-4.6532784,-4.426624,5.4749155,10.12719,20.073948,24.075964,-16.144478,-52.61303,-0.269876,-3.1117704,-1.4533811,21.841547,-25.633705,24.580294,-34.998135,-10.21494,-13.394723,3.935398
120,-6.0280256271362305,-156.97970581054688,72.28076171875,-6.55906356555775,-0.23318754555133844,-91.31464855478761,-7.336526,22.21402,6.3040295,86.978226,-20.976536,3.7353303,-13.210053,9.892528,-5.3231316,44.58905,-30.448832,-4.6476116,-3.1264255,5.698597,10.350087,21.105919,23.287407,-15.410811,-51.998043,-0.1008142,-3.2547565,-0.9806851,19.92474,-25.223396,24.909279,-34.054398,-10.63514,-13.380321,3.915774
121,-6.0433855056762695,-158.21861267089844,72.3191146850586,-6.610995811399217,-0.23172729842509251,-91.00024072989387,-9.677766,22.292227,5.6185584,87.66391,-22.0182,4.3462415,-11.483412,9.96627,-5.334267,43.55149,-30.933537,-4.6006966,-1.8367803,5.884107,10.395167,22.136915,22.544228,-14.779142,-51.496246,-0.12616242,-3.4434283,-0.6077298,18.044987,-24.88419,25.267265,-33.322174,-10.768871,-13.356314,3.9228985
122,-6.059513092041016,-159.46495056152344,72.4432601928711,-6.614513520413079,-0.18092891058412286,-90.64271036256493,-12.068789,22.134804,4.928642,87.893425,-22.838175,4.8730793,-9.575592,9.983771,-5.305796,42.032394,-31.1667,-4.500553,-0.55103177,6.017091,10.320871,23.193855,21.847698,-14.236463,-51.108425,-0.2874531,-3.6600292,-0.26263553,16.17082,-24.618113,25.656172,-32.756424,-10.742291,-13.3230295,3.9570045
123,-6.059919834136963,-160.7440643310547,72.65200805664062,-6.534900402887782,-0.08732522251408868,-90.29070466504093,-14.369785,21.764566,4.366845,87.63166,-23.454123,5.3121185,-7.565941,9.912702,-5.2129345,40.18959,-31.094625,-4.3422894,0.71649784,6.0606627,10.146494,24.279335,21.214483,-13.730875,-50.841038,-0.5815508,-3.8988104,0.021550784,14.304511,-24.428574,26.087702,-32.342083,-10.6322565,-13.282236,4.025605
124,-6.056255340576172,-162.0432586669922,72.93284606933594,-6.338379956876398,0.04247989349218749,-89.992271625882,-16.444614,21.216356,4.056868,86.84563,-23.886631,5.657634,-5.539943,9.719444,-5.0346074,38.19065,-30.669413,-4.1251383,1.9502387,5.9772224,9.897847,25.40862,20.670713,-13.204655,-50.71939,-1.0091976,-4.1538534,0.21519682,12.451343,-24.317461,26.574078,-32.071518,-10.513911,-13.235771,4.1341844
125,-6.063467502593994,-163.3582763671875,73.28385925292969,-5.996886349054189,0.197858285462776,-89.7490390106887,-18.242088,20.485455,4.0677733,85.481346,-24.165335,5.8802834,-3.4514482,9.383987,-4.74228,35.962032,-29.883762,-3.846101,3.1460981,5.719093,9.588071,26.617628,20.241274,-12.651597,-50.794518,-1.6471747,-4.4398985,0.28608522,10.605662,-24.28765,27.13587,-31.982168,-10.39907,-13.194478,4.289744
126,-6.048336505889893,-164.69093322753906,73.69092559814453,-5.535117739632575,0.38331967047104953,-89.53820043928188,-19.819218,19.577532,4.332112,83.5608,-24.277254,5.9853625,-1.2876014,8.925344,-4.364017,33.464607,-28.767792,-3.5066779,4.3125668,5.3073754,9.219144,27.911848,19.929325,-12.089537,-51.06633,-2.4802685,-4.7530193,0.26590174,8.7756815,-24.337221,27.767508,-32.079254,-10.247005,-13.154428,4.4849467
127,-6.022897720336914,-166.05307006835938,74.14331817626953,-5.007960564848815,0.616166077317419,-89.36927578467925,-21.21408,18.540455,4.748871,81.16826,-24.174475,6.012761,0.81145054,8.370164,-3.9657617,30.924314,-27.333694,-3.1154833,5.4534807,4.8107524,8.797585,29.25588,19.722971,-11.499066,-51.47679,-3.3684008,-5.058581,0.21875705,6.9884577,-24.457577,28.44112,-32.300552,-10.058125,-13.095507,4.705337
128,-5.9797749519348145,-167.42306518554688,74.6342544555664,-4.4689305824385235,0.9141937477577273,-89.25133772566996,-22.466055,17.421549,5.217547,78.38856,-23.813597,6.0085583,2.706865,7.7525187,-3.6077368,28.567724,-25.591974,-2.6840296,6.57113,4.2989335,8.322159,30.605991,19.602114,-10.86283,-51.955128,-4.1668296,-5.32686,0.20709667,5.261853,-24.637344,29.130213,-32.573307,-9.833069,-12.9971075,4.937736
129,-5.930737495422363,-168.81077575683594,75.16156005859375,-3.9042304507813776,1.2959610912460853,-89.18056574702109,-23.572632,16.212671,5.78194,75.18357,-23.231667,6.022233,4.384698,7.0627136,-3.2784245,26.393435,-23.483435,-2.1959767,7.6598144,3.7581065,7.7701535,31.954239,19.558588,-10.184534,-52.493763,-4.857441,-5.552991,0.24683611,3.592927,-24.871302,29.849186,-32.895275,-9.529053,-12.849702,5.1868773
130,-5.871036052703857,-170.21157836914062,75.71006774902344,-3.3013062128662396,1.7467622403174203,-89.14938967650832,-24.50628,14.897659,6.461373,71.51433,-22.441456,6.0124116,5.892606,6.3068504,-2.9494975,24.328476,-21.03393,-1.6617912,8.712281,3.1619766,7.149796,33.32237,19.591238,-9.466623,-53.118397,-5.507616,-5.75237,0.30133182,1.9701508,-25.157797,30.614904,-33.289646,-9.163114,-12.665232,5.457456
131,-5.794672012329102,-171.6132354736328,76.27172088623047,-2.7121487742908577,2.2357197072248636,-89.16121118327018,-25.279398,13.508827,7.1058664,67.46802,-21.358084,5.893219,7.198008,5.5429163,-2.6527052,22.477442,-18.377464,-1.1329439,9.730915,2.5642226,6.498447,34.703545,19.687113,-8.694064,-53.795033,-6.0965505,-5.924415,0.3545127,0.3983944,-25.489809,31.40345,-33.722,-8.827481,-12.456233,5.736896
132,-5.703745365142822,-173.0087432861328,76.83592987060547,-2.188024419533281,2.7323612939917403,-89.22221546635507,-25.907124,12.083449,7.5617933,63.128662,-19.897675,5.587625,8.27787,4.8212585,-2.4195664,20.941929,-15.639538,-0.65670466,10.720272,2.020703,5.8482904,36.086575,19.827076,-7.8532367,-54.486855,-6.6012893,-6.0676675,0.3877208,-1.1236491,-25.85806,32.191086,-34.15078,-8.614317,-12.236045,6.0152783
133,-5.597805023193359,-174.42242431640625,77.39904022216797,-1.7252513384267247,3.2602888117516815,-89.35626121233128,-26.395994,10.605107,7.828339,58.40605,-17.903715,5.13394,9.0858,4.1155314,-2.2480087,19.757792,-12.742127,-0.24149053,11.696114,1.5331225,5.177025,37.465652,19.999159,-6.928024,-55.180977,-6.988612,-6.1757455,0.38392952,-2.6090667,-26.260927,32.989395,-34.550514,-8.552145,-11.998236,6.295103
134,-5.491023540496826,-175.84445190429688,77.95358276367188,-1.3067566634295522,3.8263759440786855,-89.55238494128874,-26.727112,9.070021,7.9379106,53.270355,-15.466254,4.565012,9.651505,3.4144397,-2.1123946,18.87443,-9.657804,0.13771385,12.644808,1.078292,4.4711456,38.851063,20.200672,-5.9243793,-55.89521,-7.2764587,-6.2501526,0.35221854,-4.05977,-26.697239,33.81699,-34.93968,-8.59236,-11.740277,6.5815125
135,-5.383724212646484,-177.27117919921875,78.48226165771484,-0.9580747611654256,4.375457159413773,-89.76990040871762,-26.87469,7.536199,7.7887573,47.884583,-12.859619,3.801395,10.073694,2.7783737,-2.0126085,18.260418,-6.5790806,0.49222615,13.534479,0.67206764,3.772566,40.24935,20.42751,-4.8621764,-56.623165,-7.516325,-6.301526,0.31292063,-5.4656944,-27.157282,34.656372,-35.33873,-8.712531,-11.481608,6.8720984
136,-5.274394512176514,-178.69679260253906,78.98181915283203,-0.7071485687723235,4.8499176606028165,-89.97196232187962,-26.806688,6.0695615,7.285223,42.39889,-10.354722,2.765715,10.4723835,2.2714913,-1.95071,17.841194,-3.6814907,0.8329413,14.338674,0.33798033,3.122598,41.664062,20.67601,-3.7602472,-57.36269,-7.7601943,-6.3404727,0.2863968,-6.821023,-27.62671,35.484398,-35.761314,-8.8911915,-11.241318,7.165949
137,-5.167872428894043,-180.13389587402344,79.43736267089844,-0.5675470227025428,5.246052472590774,-90.1709433703733,-26.453081,4.646887,6.307482,36.601074,-7.812964,1.3387307,10.872346,1.9153764,-1.9243218,17.556368,-0.8846319,1.1725761,15.065952,0.08395757,2.511723,43.122654,20.947678,-2.5964782,-58.126335,-8.0381565,-6.370637,0.27914524,-8.16557,-28.10191,36.316395,-36.194244,-9.207714,-11.005287,7.490931
138,-5.070741653442383,-181.5913848876953,79.83860778808594,-0.5372007648012057,5.582925942422738,-90.39690008006698,-25.771387,3.3105826,4.8998632,30.369194,-5.1182275,-0.38544837,11.260035,1.6894907,-1.917943,17.379095,1.9091915,1.5131681,15.743057,-0.08572348,1.9217684,44.623688,21.240585,-1.3591526,-58.920338,-8.317718,-6.3861876,0.28152588,-9.4958,-28.58165,37.15528,-36.629402,-9.646888,-10.771076,7.842304
139,-4.99055814743042,-183.06298828125,80.17931365966797,-0.6221514622893609,5.832673655551877,-90.64594821132592,-24.774714,2.2253726,3.261252,23.984657,-2.5525644,-2.1763792,11.694202,1.6001182,-1.920232,17.296665,4.550537,1.8370562,16.377457,-0.1448593,1.3838246,46.12524,21.544706,-0.08593315,-59.728294,-8.554763,-6.382861,0.289184,-10.753297,-29.05479,37.95414,-37.076065,-10.045332,-10.572562,8.171459
140,-4.921809673309326,-184.53866577148438,80.44966125488281,-0.8376811534506907,5.963261327859583,-90.91591996635023,-23.522413,1.5388888,1.6379004,17.795864,-0.4112338,-3.8223414,12.243007,1.6632102,-1.924394,17.278278,6.8986607,2.1093688,17.01077,-0.00012292995,0.85218,47.160275,21.854069,1.0542566,-60.000134,-8.699648,-6.41377,0.28308842,-11.887299,-29.504326,38.68156,-37.438656,-10.236473,-10.437682,8.430053
141,-4.858992099761963,-186.01841735839844,80.65579223632812,-1.2576822157831602,5.947559829715896,-91.2279450679732,-21.99024,1.3476093,-0.030435162,11.725416,1.0455153,-5.3099165,12.977048,1.9676224,-1.8858956,17.22687,9.003932,2.3390296,17.641863,0.4190882,0.3522711,47.954754,22.181002,2.1169674,-60.000134,-8.690014,-6.431129,0.26393315,-12.980198,-29.928774,39.360683,-37.706898,-10.177125,-10.38386,8.611643
142,-4.791451454162598,-187.4995880126953,80.80551147460938,-1.8920815972263212,5.7952094764567175,-91.59121246492168,-20.617493,1.6145333,-1.7616078,6.5729938,1.5574027,-6.7537417,13.879915,2.5159795,-1.8117516,17.12855,10.950842,2.5157402,18.256136,1.0859915,-0.09857916,48.745148,22.528135,3.194806,-60.000134,-8.575016,-6.4180684,0.23949713,-14.048606,-30.331085,39.999256,-37.93036,-9.954639,-10.390617,8.743039
143,-4.7192230224609375,-188.9662628173828,80.91459655761719,-2.5408349469287694,5.5723373665591955,-91.93934590070137,-21.330927,1.9384863,-3.2704203,6.381909,-0.38933393,-8.125035,14.739557,3.0561297,-1.8259454,17.310814,12.51787,2.5894508,18.806255,1.7903014,-0.47546262,49.48235,22.889,4.238046,-60.000134,-8.440238,-6.4010673,0.21988384,-14.973386,-30.695923,40.52416,-38.15569,-9.61001,-10.431317,8.826385
144,-4.642549991607666,-190.4220733642578,80.98548889160156,-3.037011531107801,5.3524587841917075,-92.20847208254295,-21.836775,2.1436276,-4.2273993,6.2594566,-1.5839455,-9.435539,15.347367,3.3763082,-2.0663497,18.096783,13.474417,2.5038543,19.245378,2.3480356,-0.7651553,50.11765,23.258883,5.18656,-60.000134,-8.362697,-6.40669,0.21628682,-15.639309,-30.997927,40.8576,-38.414097,-9.187404,-10.479964,8.866309
145,-4.565380573272705,-191.85302734375,81.01189422607422,-3.309731203208796,5.162135940130646,-92.40329912384561,-22.166988,2.2141662,-4.386736,6.2593465,-1.7305971,-10.842702,15.584493,3.3599792,-2.6276262,19.717672,13.667072,2.151965,19.53561,2.6917791,-0.9585898,50.666485,23.591734,6.0821033,-60.000134,-8.34342,-6.441239,0.21038648,-16.128292,-31.183245,41.02061,-38.63088,-8.620958,-10.541202,8.881539
146,-4.498302459716797,-193.2879180908203,81.00603485107422,-3.4327905371532297,4.950916665783011,-92.52470469938397,-22.20739,2.2403512,-3.9909916,6.1594152,-1.0748389,-12.310746,15.6621475,3.1048641,-3.4450681,21.797626,13.329501,1.5753446,19.660662,2.9496312,-1.04571,51.149303,23.825747,6.883185,-60.000134,-8.294712,-6.488346,0.18277031,-16.54493,-31.25329,41.074142,-38.727253,-7.9082246,-10.62544,8.874393
147,-4.433652400970459,-194.70457458496094,80.9464111328125,-3.471762036002615,4.736417088938311,-92.52418444037967,-22.084402,2.2063992,-3.49493,6.131437,-0.12727341,-13.5425205,15.668782,2.7287095,-4.405975,24.081272,12.629021,0.96149015,19.599226,3.121851,-1.0505681,51.545975,24.07181,7.6344767,-60.000134,-8.329509,-6.5507092,0.16302237,-16.710178,-31.26879,40.993187,-38.875698,-7.2154174,-10.709949,8.7897005
148,-4.37813138961792,-196.10733032226562,80.84173583984375,-3.3629542411811837,4.489457028505725,-92.37022954560128,-21.696964,1.9825001,-3.2223735,6.0081224,0.7368186,-14.226964,15.695774,2.2122972,-5.377823,26.417643,11.678767,0.53855836,19.419415,3.1650112,-0.9549464,51.82704,24.380539,8.140512,-60.000134,-8.387252,-6.6322174,0.17667964,-16.524702,-31.22211,40.70851,-39.036354,-6.682001,-10.788741,8.620015
149,-4.315435409545898,-197.49717712402344,80.6982192993164,-3.158517124454305,4.227922210525641,-92.01165888092062,-21.15383,1.5710686,-3.3285441,6.0291133,1.2771752,-14.118247,15.762388,1.6406257,-6.4190717,28.754982,10.410813,0.32198292,19.019737,3.0825326,-0.69082063,51.87895,24.784853,8.566471,-60.000134,-8.66062,-6.671638,0.24978508,-15.959374,-31.086477,40.160664,-39.318302,-6.4069185,-10.838231,8.361718
150,-4.247028827667236,-198.85499572753906,80.52301025390625,-2.822833076865434,3.940126667391194,-91.48594931649858,-20.390554,0.9615667,-3.5757477,6.0802164,1.7995301,-13.447851,15.828937,0.9451988,-7.5555267,31.214577,8.781903,0.22616409,18.398832,2.9481297,-0.32012936,51.829792,25.07702,8.734524,-60.000134,-8.946022,-6.7361164,0.32319838,-15.113639,-30.92707,39.505974,-39.620785,-6.288045,-10.864232,7.9799266
151,-4.192230701446533,-200.1951904296875,80.2978515625,-2.319207771326986,3.609716577179941,-90.89484840704385,-19.410873,0.1599928,-3.7983277,6.0518117,2.4458609,-12.66889,15.854274,0.069900334,-8.627646,33.865902,6.976181,0.29925472,17.88791,2.5317967,0.1292677,51.58626,25.743586,8.712883,-60.000134,-9.2409525,-6.7650886,0.4980594,-13.91943,-30.50499,38.479664,-39.82513,-6.188915,-10.926892,7.6595087
152,-4.129693984985352,-201.54830932617188,79.98979949951172,-1.916566395254837,3.2555378658677814,-90.3026804156825,-18.442799,-0.50523806,-4.021603,6.1796947,3.1705651,-12.280498,15.879355,-0.668027,-9.537892,36.493855,5.3343563,0.5193898,17.311497,2.2305079,0.5489149,51.222996,26.359842,8.519655,-60.000134,-9.345508,-6.75597,0.6175229,-12.670591,-30.029308,37.57267,-39.909004,-5.9785075,-11.046483,7.290349
153,-4.073889255523682,-202.90887451171875,79.61821746826172,-1.6434421804134496,2.7971051689004374,-89.70133799840205,-17.287258,-0.9559519,-4.1633687,6.23217,4.3979235,-12.790899,16.044098,-1.172082,-10.253006,38.963238,3.964683,0.94698125,16.708246,2.0679917,1.0129263,50.703117,26.94334,8.154558,-60.000134,-9.176003,-6.6916804,0.6380499,-11.248659,-29.506798,36.706085,-39.95744,-5.5653386,-11.260314,6.881942
154,-4.022646903991699,-204.27479553222656,79.19595336914062,-1.4436066091128956,2.258821202721476,-89.06189845796096,-15.954635,-1.308698,-4.2838287,6.2704706,5.9339476,-13.836634,16.289951,-1.519313,-10.850781,41.37242,2.7040524,1.5577099,16.049387,1.9810895,1.5383114,50.029118,27.506714,7.6116138,-60.000134,-8.825369,-6.586827,0.5916291,-9.6104145,-28.938198,35.8349,-40.00855,-5.038194,-11.543591,6.4267383
155,-3.9645447731018066,-205.6406707763672,78.72602844238281,-1.158186703545159,1.7563214783029193,-88.44271865886506,-14.610831,-1.7694949,-4.405714,6.357088,7.111432,-14.528143,16.37048,-1.9914113,-11.360141,43.938263,1.4566671,2.2553446,15.368525,1.8032649,2.0469885,49.25361,28.038883,6.858937,-60.000134,-8.391344,-6.4835606,0.5186082,-7.8912416,-28.335077,34.998264,-39.966682,-4.50974,-11.851893,5.993199
156,-3.931307315826416,-207.02281188964844,78.2120361328125,-0.638176349805196,1.3983807392356722,-87.9077670035089,-14.19226,-2.5927114,-4.5145416,8.179703,6.452107,-13.953739,16.065926,-2.857589,-11.794227,46.8456,0.14443383,2.9446487,14.620751,1.336602,2.5467482,48.352444,28.534618,6.1214585,-60.000134,-8.131047,-6.3726196,0.44060448,-6.2702994,-27.716906,34.26869,-39.824814,-4.0915484,-12.1401825,5.6448383
157,-3.855595111846924,-208.35252380371094,77.72347259521484,0.18655834957737072,1.2438656241784387,-87.47394068263677,-15.141105,-3.9148602,-4.7416015,12.537106,3.1354604,-11.302717,15.308383,-4.204907,-12.131596,50.152435,-1.224834,3.6738024,13.872063,0.54738575,2.9108374,47.367184,28.958296,5.2064457,-60.000134,-7.9390616,-6.2956624,0.34969166,-4.734797,-27.091484,33.649075,-39.5139,-3.8073254,-12.371629,5.4214907
158,-3.7933695316314697,-209.66799926757812,77.20124053955078,1.1312851729660804,1.2088131313130697,-87.12306613408538,-16.468237,-5.5554786,-5.2032356,17.494144,-1.2785356,-7.2289615,14.274279,-5.753539,-12.343714,53.662373,-2.5698667,4.4587264,13.102673,-0.37091774,3.1832018,46.27239,29.301107,4.1656623,-60.000134,-7.7864304,-6.2298045,0.22658418,-3.2234862,-26.463547,33.134758,-39.092655,-3.5942562,-12.576061,5.277931
159,-3.7181508541107178,-210.949951171875,76.64210510253906,2.0231533648273192,1.1921899609821234,-86.85788581222793,-17.816166,-7.3367004,-5.7073026,22.44682,-5.724907,-3.025404,13.097354,-7.3003798,-12.430086,57.212585,-3.8741941,5.167807,12.385333,-1.1885532,3.354487,45.179237,29.533134,2.7968032,-60.000134,-7.507054,-6.235818,0.12642053,-1.7092676,-25.835629,32.664074,-38.476482,-3.4340553,-12.798845,5.14992
160,-3.617482900619507,-212.18846130371094,76.0494384765625,2.8029410109161454,1.1127338977385424,-86.66449215452774,-18.7861,-8.993824,-5.8975844,26.688213,-9.313649,-0.0045655295,11.864733,-8.785677,-12.399096,60.71708,-5.1662116,5.6928296,11.474759,-1.9521309,3.7642741,43.899582,29.733755,1.9041313,-60.000134,-7.6514535,-6.17312,0.040407058,-0.35210484,-25.22858,32.32939,-37.869114,-3.3153121,-13.097486,4.971357
161,-3.502978801727295,-213.39108276367188,75.4325180053711,3.6051950590058093,0.9723034834737765,-86.54908293547774,-19.372625,-10.4358835,-5.462889,30.226929,-12.04844,1.4149272,10.53347,-10.426217,-12.213321,64.315125,-6.48623,6.0774612,10.606679,-2.6886008,4.186154,42.672134,29.840115,0.7081482,-60.000134,-7.7602797,-6.2319517,0.039212193,0.966848,-24.636806,32.011505,-37.039658,-3.2545357,-13.511645,4.7194643
162,-3.3695929050445557,-214.5882110595703,74.85787200927734,4.492988519551288,0.827121280312324,-86.49834340553831,-19.810677,-11.695018,-4.6267014,33.54292,-14.531621,1.9979397,9.042184,-12.259478,-11.861103,68.03599,-7.829653,6.383043,9.645998,-3.5303268,4.712643,41.338123,29.873194,-0.37447155,-60.000134,-8.10323,-6.308889,0.06800275,2.1743534,-24.071959,31.78608,-36.113873,-3.255854,-14.009028,4.4285526
163,-3.2628746032714844,-215.79446411132812,74.34628295898438,5.322071620395703,0.6647545156428641,-86.46847307109849,-20.046011,-12.664988,-3.768024,36.602722,-16.848253,2.1994157,7.452992,-14.000319,-11.402009,71.641594,-9.152957,6.518116,8.657061,-4.2904572,5.2058372,39.542645,29.83147,-1.6282454,-59.509583,-8.400975,-6.4264126,0.12934187,3.3925831,-23.516996,31.57804,-35.012352,-3.2767692,-14.512599,4.1014752
164,-3.2014102935791016,-216.97511291503906,73.89080810546875,5.9269197819029,0.4676725004423303,-86.42094589841548,-20.011545,-13.349017,-3.2488801,39.253445,-19.026741,2.4229717,5.8285756,-15.355079,-10.914072,74.903206,-10.414059,6.373448,7.6975784,-4.8000617,5.630606,37.295033,29.720549,-3.176076,-58.538036,-8.387915,-6.5217943,0.24786136,4.7566214,-22.949638,31.278152,-33.760117,-3.2805462,-14.94745,3.7559478
165,-3.199042797088623,-218.12344360351562,73.49201202392578,6.210964231918926,0.20867337608132389,-86.30294603958122,-19.684494,-13.780067,-3.1809137,41.44633,-21.048424,2.6658766,4.191654,-16.223896,-10.478959,77.8167,-11.641502,5.7998457,6.653516,-5.001086,6.1412997,34.394577,29.578781,-4.762074,-56.9935,-8.215273,-6.485323,0.46182626,6.2736945,-22.347013,30.860224,-32.368458,-3.233283,-15.295726,3.3829377
166,-3.229741334915161,-219.2421417236328,73.14820861816406,6.275771243391005,-0.09476257752716181,-86.1503371477342,-19.09629,-14.007102,-3.3218966,43.229855,-22.879974,2.7386804,2.4982119,-16.773207,-10.042761,80.49789,-12.845439,4.880958,5.5804844,-5.022662,6.7179923,31.483362,29.377998,-6.4489765,-55.483467,-7.7816615,-6.3679333,0.7864454,7.933353,-21.697914,30.3325,-30.853704,-3.163406,-15.599343,2.9853907
167,-3.263852834701538,-220.3746337890625,72.86919403076172,6.251286652824664,-0.39403516768451885,-86.05564050063764,-18.268585,-14.118774,-3.501205,44.55234,-24.515003,2.7411273,0.70870197,-17.115463,-9.495783,82.9097,-13.963884,3.859592,4.518202,-5.0065765,7.281122,28.511164,29.118916,-8.090696,-53.97728,-7.2933636,-6.2225857,1.1167566,9.613119,-21.034054,29.81154,-29.349213,-3.133508,-15.872806,2.613382
168,-3.2990126609802246,-221.55532836914062,72.64966583251953,6.271409150563549,-0.6410099131567962,-86.11234489788643,-17.231304,-14.183566,-3.5689023,45.371567,-25.949518,2.7723508,-1.2245493,-17.35536,-8.728256,85.01565,-14.924073,2.981275,3.5363886,-5.0893373,7.741733,25.69578,28.80877,-9.602953,-52.70545,-6.841239,-6.1074963,1.3536924,11.234058,-20.413153,29.385206,-28.023315,-3.203108,-16.130672,2.3075724
169,-3.3427250385284424,-222.7277069091797,72.48461151123047,6.388256907358521,-0.8341487402148181,-86.41057759198819,-15.9327135,-14.196071,-3.4352877,45.600803,-27.209871,2.8542857,-3.3864365,-17.48662,-7.584876,86.864746,-15.676588,2.2944667,2.7325232,-5.3196898,8.112765,23.020666,28.448057,-11.014955,-51.65334,-6.3980412,-6.0358505,1.4502686,12.862784,-19.878027,29.022415,-26.952085,-3.4862032,-16.373932,2.0517895
170,-3.375507116317749,-223.8994598388672,72.38748931884766,6.5296000342312315,-0.9944840174532781,-86.87842401190765,-14.382025,-14.128466,-3.1982157,45.29414,-28.291231,2.9374094,-5.727924,-17.437204,-6.186315,88.45597,-16.258158,1.6737665,2.047533,-5.5988307,8.436118,20.390648,28.037304,-12.391315,-50.717125,-5.9270687,-5.9780693,1.4606313,14.553911,-19.443592,28.673943,-26.096931,-3.910881,-16.593397,1.8196594
171,-3.39384126663208,-225.07333374023438,72.3733901977539,6.632843879690691,-1.109163321857636,-87.36620175276968,-12.697959,-13.997648,-3.0037196,44.616318,-29.138388,3.006651,-8.091648,-17.235802,-4.833786,89.67077,-16.724983,1.1071608,1.3234541,-5.840196,8.662436,17.8488,27.597956,-13.707974,-49.95069,-5.509642,-5.9315085,1.4353733,16.209568,-19.130533,28.391788,-25.452261,-4.256842,-16.789177,1.6370107
172,-3.410519599914551,-226.2347869873047,72.42872619628906,6.630882920541163,-1.1666315561880907,-87.72401578401193,-11.002109,-13.811375,-2.9961038,43.736603,-29.697525,3.0462055,-10.322708,-16.93826,-3.8235717,90.39147,-17.137335,0.5830165,0.396904,-5.965814,8.745443,15.4438305,27.165293,-14.91404,-49.42555,-5.2332897,-5.890925,1.426753,17.727945,-18.960844,28.236015,-25.016817,-4.3036995,-16.96229,1.5292988
173,-3.4399781227111816,-227.42568969726562,72.5592041015625,6.501323672943692,-1.1497277294170056,-87.91232161220431,-9.30822,-13.558493,-3.226848,42.63544,-29.981585,3.062613,-12.433872,-16.546165,-3.217372,90.579544,-17.512432,0.096619025,-0.8145884,-5.9456577,8.653067,13.19346,26.77199,-15.975372,-49.22624,-5.1701927,-5.876624,1.4854145,19.067745,-18.959759,28.274496,-24.841488,-3.8696272,-17.117987,1.5192176
174,-3.4838528633117676,-228.62911987304688,72.75590515136719,6.282698853851943,-1.070764212150646,-88.01029854989079,-7.5626435,-13.226642,-3.6098866,41.252003,-30.01491,3.0571198,-14.477821,-16.056728,-2.8757806,90.29474,-17.818483,-0.34061173,-2.2091486,-5.822307,8.433802,11.067831,26.430319,-16.922125,-49.31461,-5.265186,-5.8863974,1.5795196,20.302801,-19.135221,28.448013,-24.943993,-3.1037567,-17.251719,1.5848255
175,-3.535191059112549,-229.83303833007812,72.99859619140625,6.000241038522275,-0.9631003829869216,-88.04553639778048,-5.7854514,-12.818303,-4.0829673,39.69521,-29.76325,3.0071447,-16.365707,-15.535603,-2.7831933,89.568436,-18.04794,-0.715105,-3.6695142,-5.629506,8.158795,9.039336,26.142977,-17.805088,-49.57689,-5.411242,-5.882876,1.6381671,21.506529,-19.469255,28.62656,-25.265154,-2.2829828,-17.351982,1.6864625
176,-3.6215853691101074,-231.0761260986328,73.30806732177734,5.679906522454578,-0.8593369236664171,-88.04612941116922,-3.9963331,-12.342217,-4.583897,38.073967,-29.192234,2.891506,-18.01174,-15.048145,-2.918787,88.43412,-18.195133,-1.012164,-5.0766187,-5.4068265,7.8885045,7.080123,25.905579,-18.684809,-49.884567,-5.4989276,-5.830425,1.5901008,22.751785,-19.926329,28.680513,-25.729906,-1.6896652,-17.410028,1.7864693
177,-3.7010583877563477,-232.3265380859375,73.65719604492188,5.315859884914018,-0.7818180503168357,-88.01056692522343,-2.145207,-11.791038,-5.142504,36.346348,-28.277922,2.6896858,-19.35484,-14.625142,-3.3451965,86.84364,-18.267847,-1.203014,-6.3967667,-5.162422,7.6399803,5.1615777,25.712912,-19.619797,-50.239174,-5.49411,-5.707183,1.3894868,24.056717,-20.482784,28.577913,-26.339973,-1.4211732,-17.413483,1.8872468
178,-3.7848174571990967,-233.60777282714844,74.0443115234375,4.898487683491091,-0.7078591631803822,-87.92798739553518,-0.24975103,-11.160099,-5.772562,34.490227,-27.051027,2.4183912,-20.444866,-14.230668,-4.051367,84.79309,-18.272411,-1.2932451,-7.6819825,-4.8790917,7.374485,3.2948012,25.565151,-20.597975,-50.6737,-5.4514446,-5.5374403,1.084378,25.390413,-21.128761,28.378511,-27.108719,-1.3245789,-17.371393,2.0112076
179,-3.8638148307800293,-234.9042205810547,74.4713363647461,4.456062021758719,-0.6024970361407717,-87.81300763125829,1.5716083,-10.467424,-6.3894305,32.642933,-25.55803,2.1126163,-21.366438,-13.823336,-4.900596,82.383835,-18.199083,-1.3192436,-8.949446,-4.5592203,7.0639415,1.5228301,25.467175,-21.55899,-51.12348,-5.3960404,-5.3501487,0.7422091,26.743412,-21.84339,28.096718,-27.963936,-1.310929,-17.310423,2.1493676
180,-3.9809353351593018,-236.2285614013672,74.9294204711914,4.016820090973965,-0.4313706976983662,-87.68044987791568,3.206138,-9.738912,-6.9122944,30.93772,-23.841707,1.8084635,-22.206896,-13.363195,-5.7556124,79.715164,-18.038,-1.3243545,-10.214725,-4.203526,6.680428,-0.12270051,25.429667,-22.437859,-51.523773,-5.353081,-5.1730847,0.43042627,28.094692,-22.600185,27.744087,-28.827652,-1.2940422,-17.25663,2.2941236
181,-4.106380462646484,-237.57591247558594,75.40796661376953,3.5761086706094383,-0.18237876072974019,-87.51140452671058,4.6384344,-8.96692,-7.3404875,29.382877,-21.856043,1.4975479,-22.959114,-12.875149,-6.6707206,76.762726,-17.805082,-1.3436315,-11.52642,-3.8025231,6.2031884,-1.6257608,25.474035,-23.21412,-51.870327,-5.360005,-5.0135274,0.16044365,29.392488,-23.386372,27.336075,-29.645075,-1.2658082,-17.220089,2.462047
182,-4.238940715789795,-238.917236328125,75.8944320678711,3.126612658482719,0.12536277577459976,-87.30864118185352,5.9194045,-8.155505,-7.715678,27.933401,-19.605679,1.1681012,-23.581419,-12.36164,-7.6858234,73.48249,-17.500313,-1.3388726,-12.860446,-3.3590252,5.655564,-3.0052438,25.612556,-23.91695,-52.210186,-5.395753,-4.8564415,-0.09862364,30.645906,-24.197758,26.863792,-30.447674,-1.2724807,-17.186481,2.653561
183,-4.372631072998047,-240.26837158203125,76.37638092041016,2.693465678314502,0.47862227824403747,-87.11879483877922,7.0440483,-7.350533,-8.022613,26.629786,-17.198595,0.85010475,-24.115425,-11.760553,-8.634673,69.94147,-17.087038,-1.2558877,-14.123459,-2.8898032,5.0735774,-4.2963877,25.837742,-24.552176,-52.5447,-5.398401,-4.695245,-0.34604532,31.922182,-25.017775,26.299368,-31.281557,-1.3111507,-17.144484,2.8371685
184,-4.524652481079102,-241.62466430664062,76.85392761230469,2.2978734810620276,0.8632026940082266,-86.98701591394273,8.010521,-6.597507,-8.244786,25.503345,-14.737814,0.57444006,-24.606712,-11.02533,-9.3447485,66.20347,-16.528397,-1.0559655,-15.222597,-2.4163032,4.4867425,-5.537314,26.129475,-25.130404,-52.860275,-5.301175,-4.5228863,-0.5864277,33.280155,-25.82277,25.614504,-32.177994,-1.3781,-17.082876,2.9824886
185,-4.658568859100342,-242.97315979003906,77.31615447998047,1.9323947588092438,1.3092431928611048,-86.9226958281797,8.7597,-5.886609,-8.3601465,24.579266,-12.157942,0.366414,-25.091867,-10.135437,-9.777111,62.21016,-15.766902,-0.729953,-16.130272,-1.9246087,3.8671825,-6.767401,26.476633,-25.664461,-53.111847,-5.074366,-4.339705,-0.83762425,34.733284,-26.590942,24.77242,-33.134815,-1.4806045,-16.994862,3.0837276
186,-4.810970783233643,-244.36419677734375,77.77267456054688,1.5910822869875556,1.81130032188725,-86.90142590559984,9.310767,-5.208842,-8.388114,23.840576,-9.433341,0.2084096,-25.52906,-9.141496,-10.003694,57.93377,-14.835165,-0.31965762,-16.88858,-1.4140838,3.2023914,-7.9822044,26.878195,-26.160841,-53.292297,-4.752208,-4.148066,-1.0982178,36.24482,-27.312355,23.792915,-34.11454,-1.6198947,-16.887814,3.1600819
187,-4.947624206542969,-245.739990234375,78.19621276855469,1.296465377613409,2.301119851611512,-86.91549654356078,9.781871,-4.6056857,-8.372336,23.248919,-6.714784,0.06605704,-25.84908,-8.111087,-10.015451,53.480892,-13.82921,0.13132887,-17.5223,-0.9257565,2.5412493,-9.145186,27.326056,-26.605488,-53.441895,-4.365709,-3.9439282,-1.3471047,37.85329,-27.977728,22.751846,-35.141376,-1.8230034,-16.771187,3.21603
188,-5.107116222381592,-247.12808227539062,78.58720397949219,1.071390809214473,2.710153175395076,-86.95674154149236,10.300992,-4.1166053,-8.356557,22.748747,-4.1443863,-0.09899215,-25.98876,-7.110588,-9.8052225,48.965378,-12.843402,0.5812141,-18.04574,-0.50702244,1.9346408,-10.240182,27.808657,-26.996925,-53.590042,-3.9454274,-3.7218997,-1.5637499,39.389492,-28.596392,21.685303,-36.066658,-1.9905924,-16.652819,3.2587414
189,-5.254918098449707,-248.52328491210938,78.93547058105469,0.9231164026849449,3.0325659471146613,-87.02594277058725,10.906778,-3.7522047,-8.363843,22.275152,-1.6836786,-0.29711965,-25.929144,-6.118588,-9.293552,44.298355,-11.845864,1.0251187,-18.472158,-0.15293178,1.378584,-11.282256,28.325073,-27.313826,-53.72237,-3.4543827,-3.4693909,-1.7464687,41.14559,-29.153233,20.621534,-37.131985,-2.3078105,-16.539713,3.271787
190,-5.394133567810059,-249.93267822265625,79.24007415771484,0.8409180508421742,3.2980845877478338,-87.12230542300233,11.54653,-3.491395,-8.371745,21.845034,0.7364275,-0.5082965,-25.683844,-5.150759,-8.495262,39.43634,-10.798866,1.4567482,-18.767187,0.1371426,0.85435426,-12.322374,28.876665,-27.5969,-53.802994,-2.8912373,-3.1916935,-1.9070817,42.69702,-29.668434,19.460485,-37.975445,-2.5164752,-16.423132,3.26352
191,-5.527942657470703,-251.35560607910156,79.49588012695312,0.825304763643456,3.494316293045308,-87.23498821848014,12.214179,-3.3291113,-8.355239,21.523123,3.0207653,-0.72777975,-25.262232,-4.3131804,-7.555569,34.584187,-9.795713,1.8499289,-18.98601,0.3522452,0.36656925,-13.257942,29.450016,-27.805782,-53.89509,-2.3361533,-2.9110434,-2.0536814,44.333263,-30.130442,18.324608,-38.88747,-2.7790873,-16.297024,3.2514625
192,-5.655044078826904,-252.77223205566406,79.69827270507812,0.8790702064632029,3.6097056163681605,-87.35129613685761,12.9112625,-3.259899,-8.291078,21.352535,5.083172,-0.9511153,-24.688295,-3.686264,-6.634596,29.952272,-8.925772,2.200651,-19.154202,0.4670974,-0.077397175,-14.029099,30.0267,-27.931398,-54.036144,-1.8689367,-2.6482487,-2.1944966,45.920326,-30.543427,17.272383,-39.780838,-3.0148225,-16.151993,3.261689
193,-5.792367458343506,-254.212158203125,79.8531723022461,1.039840755974671,3.629673996414471,-87.47578729329949,13.685995,-3.3325229,-8.195769,21.27599,6.954925,-1.1521688,-23.9452,-3.2903688,-5.694111,25.47812,-8.203336,2.5410445,-19.255505,0.4447147,-0.49067894,-14.673132,30.59998,-27.971828,-54.196163,-1.4829067,-2.393908,-2.345256,47.47189,-30.914927,16.294397,-40.65346,-3.1915421,-15.979981,3.2899108
194,-5.924625873565674,-255.6527862548828,79.95657348632812,1.3070375959281546,3.5620302545034246,-87.60463750564996,14.54515,-3.5426104,-8.08291,21.247984,8.691068,-1.3416054,-23.032827,-3.0881515,-4.691851,21.073845,-7.571449,2.882155,-19.287088,0.2921316,-0.8752619,-15.222936,31.16968,-27.934027,-54.348797,-1.1420883,-2.139991,-2.500801,48.99107,-31.250214,15.358752,-41.499718,-3.3246634,-15.786922,3.3262866
195,-6.054825305938721,-257.097412109375,80.00489044189453,1.6185876274405653,3.4321608324268005,-87.7145571161741,15.4178915,-3.7965767,-7.922937,21.34738,10.228494,-1.5680288,-22.022322,-3.038064,-3.7934048,16.933487,-7.0191655,3.2047768,-19.296392,0.06267719,-1.2097135,-15.611723,31.724379,-27.809692,-54.52491,-0.8858912,-1.908466,-2.6384401,50.416588,-31.551907,14.507253,-42.307835,-3.456229,-15.586048,3.3874223
196,-6.1757402420043945,-258.5198974609375,80.01021575927734,1.8991842110165478,3.2706803914182996,-87.78792572657272,16.209478,-3.9868317,-7.677736,21.693287,11.480599,-1.8779354,-21.003077,-3.0729373,-3.1624634,13.28311,-6.5453367,3.4869542,-19.319403,-0.17677663,-1.4734238,-15.777608,32.245842,-27.59555,-54.75112,-0.75075954,-1.720792,-2.7360976,51.624355,-31.826586,13.779903,-43.00961,-3.5985882,-15.390345,3.4911933
197,-6.306770324707031,-259.9372863769531,79.96854400634766,2.131897825732371,3.086787077439755,-87.83485188571983,16.88607,-4.1069975,-7.351507,22.349035,12.482852,-2.3265178,-19.981619,-3.1687646,-2.8643308,10.116482,-6.162669,3.7300339,-19.343102,-0.41262248,-1.678599,-15.742318,32.720818,-27.29246,-55.00055,-0.77238697,-1.5811363,-2.8065417,52.614124,-32.081013,13.188335,-43.60411,-3.7342124,-15.198251,3.6594572
198,-6.433778285980225,-261.3407897949219,79.87889099121094,2.333326892305956,2.8749435079626253,-87.87493160034997,17.455069,-4.1790586,-6.939523,23.319118,13.221301,-2.867694,-18.88811,-3.3028097,-2.8145196,7.229083,-5.8065324,3.9553158,-19.336025,-0.65468067,-1.8357812,-15.541089,33.142902,-26.903814,-55.246803,-0.9209558,-1.4773873,-2.8575487,53.41481,-32.320534,12.715667,-44.095737,-3.8533115,-15.004468,3.8758512
199,-6.559235572814941,-262.727294921875,79.74258422851562,2.4636697478042597,2.6480385719353485,-87.91322859461731,17.881231,-4.1154737,-6.375567,24.63311,13.531745,-3.395822,-18.845137,-3.4471676,-2.873403,6.9874234,-6.6485686,4.1533723,-19.301878,-0.8526426,-1.922679,-15.128062,33.501545,-26.428112,-55.514668,-1.1329651,-1.406909,-2.859236,54.020805,-32.54809,12.3649235,-44.488457,-4.0223513,-14.817852,4.100867
200,-6.692395210266113,-264.09381103515625,79.55427551269531,2.4843484345503914,2.417183367592921,-87.9504177407073,18.14331,-3.8293073,-5.5964947,26.300966,13.261872,-3.80748,-18.70024,-3.4828339,-3.0321043,6.946265,-7.3192754,4.3090105,-19.24675,-0.95836073,-1.9165486,-14.462679,33.784084,-25.866493,-55.823483,-1.3470476,-1.3673538,-2.7821693,54.415054,-32.766113,12.135372,-44.774185,-4.2998767,-14.647326,4.2955046
201,-6.824302673339844,-265.439208984375,79.31258392333984,2.385706876838943,2.183110846825927,-87.9763304183668,18.263683,-3.2625206,-4.504725,28.346563,12.190601,-4.086257,-18.34867,-3.3940032,-3.3267117,6.9450927,-7.819879,4.3697743,-19.181517,-0.9619909,-1.8097913,-13.507995,33.971855,-25.208166,-56.187763,-1.5862639,-1.3649592,-2.5953434,54.59396,-32.97729,12.034611,-44.959614,-4.757811,-14.490834,4.444792
202,-6.955850124359131,-266.7563781738281,79.02244567871094,2.180330993383603,1.9400916588243688,-88.00059055206678,18.24455,-2.4388468,-3.1589968,30.785496,10.440438,-4.281738,-17.797737,-3.196756,-3.7724311,6.97846,-8.154447,4.354113,-19.08938,-0.88059807,-1.6157044,-12.312613,34.053585,-24.472565,-56.57454,-1.8695672,-1.3995107,-2.324506,54.56663,-33.183243,12.061236,-45.046394,-5.3437557,-14.345446,4.569637
203,-7.08164644241333,-268.069580078125,78.6885757446289,1.8651477683680506,1.6878864250581151,-88.04622284085059,18.064901,-1.404198,-1.7438803,33.559082,8.399617,-4.3967037,-17.096434,-2.8720677,-4.278376,7.032684,-8.122048,4.3503203,-18.939676,-0.70817727,-1.340303,-10.963655,34.031784,-23.708946,-56.938473,-2.1292331,-1.4590503,-2.0238822,54.339317,-33.381756,12.197832,-45.018818,-5.930796,-14.219355,4.685505
204,-7.1958909034729,-269.39398193359375,78.31147766113281,1.4370078249593061,1.4265975276072596,-88.1333319322909,17.712599,-0.22256066,-0.4422708,36.581627,6.4763346,-4.4330616,-16.295284,-2.4030473,-4.757177,7.0944085,-7.522058,4.4506116,-18.705732,-0.43734026,-0.98916984,-9.540158,33.917946,-22.964096,-57.24371,-2.2974522,-1.5305928,-1.7454108,53.911263,-33.56682,12.428025,-44.85936,-6.3902497,-14.120428,4.8088326
205,-7.288041591644287,-270.72222900390625,77.88038635253906,0.8999335495240662,1.1471043421988592,-88.26394100489196,17.218306,1.0603977,0.690365,39.828068,4.762331,-4.3507414,-15.629685,-1.8225336,-5.2199836,7.7374187,-6.2611427,4.9621134,-18.39035,-0.075948216,-0.561407,-8.015232,33.71721,-22.248848,-57.512203,-2.3402934,-1.6078218,-1.4745939,53.283382,-33.730984,12.76018,-44.5741,-6.713165,-14.043884,4.9826427
206,-7.419134140014648,-271.9877624511719,77.45960998535156,0.2618482384588568,0.8450451634941597,-88.41835975165476,16.619677,2.4597569,1.7309608,43.291206,3.0731192,-4.1738424,-15.668235,-1.1832207,-5.682253,10.202881,-5.224751,5.7678046,-18.0107,0.36534375,-0.05472382,-6.370169,33.42526,-21.56097,-57.753433,-2.301507,-1.6987054,-1.1884264,52.46096,-33.868534,13.199445,-44.173576,-6.9597,-13.987977,5.1858683
207,-7.560017108917236,-273.2259216308594,77.00397491455078,-0.46386252102744463,0.5265667046354289,-88.58068121871345,15.917651,3.9888089,2.699034,46.901386,1.4076637,-3.9909549,-15.870032,-0.42143387,-6.113177,13.159885,-4.439369,6.3205624,-17.56465,0.881065,0.5238656,-4.7016525,33.043083,-20.92079,-57.913067,-2.2337825,-1.8111492,-0.9272597,51.462364,-33.97572,13.718181,-43.659046,-7.1069226,-13.964175,5.3404202
208,-7.688687801361084,-274.4593811035156,76.49321746826172,-1.2406424118363488,0.1958502172683622,-88.73301692326748,15.107911,5.6547575,3.6111221,50.598106,-0.23845963,-3.873514,-16.443644,0.41353887,-6.4729238,16.89192,-4.763327,6.058265,-17.05318,1.4441376,1.1623076,-3.1009252,32.57527,-20.3435,-57.94097,-2.1870327,-1.9530171,-0.73232436,50.31192,-34.04844,14.286582,-43.036957,-7.132845,-13.983729,5.3686285
209,-7.831190586090088,-275.62103271484375,75.96928405761719,-2.0726127305865547,-0.16222848817198562,-88.85722053222683,14.201375,7.513223,4.4715266,54.448185,-1.8359206,-3.9113212,-17.699411,1.321506,-6.689346,22.05227,-6.6996355,4.4711533,-16.482502,2.0681076,1.8756326,-1.6088951,32.022713,-19.849356,-57.821228,-2.1993706,-2.1426609,-0.62679356,49.035297,-34.08162,14.89498,-42.321358,-6.971136,-14.064556,5.2304173
210,-7.926122665405273,-276.7911071777344,75.36495971679688,-2.8885804770247185,-0.5577493481677724,-88.94954925236377,13.219485,9.460275,5.2551136,58.433487,-3.3763266,-4.008211,-19.388153,2.2700799,-6.7498183,28.20318,-9.61361,1.9933065,-15.866744,2.6794212,2.6452088,-0.18008143,31.385824,-19.437332,-57.57882,-2.2350557,-2.3704631,-0.58608776,47.634583,-34.068348,15.55249,-41.522755,-6.6544514,-14.196371,4.974588
211,-8.018390655517578,-277.97283935546875,74.75057220458984,-3.618254712606605,-0.9632424947827842,-89.03258076049275,12.137561,11.363828,5.9385552,62.407852,-4.9265103,-3.9758418,-20.94458,3.2162108,-6.738349,34.108864,-12.726466,-0.5618608,-15.20245,3.2067494,3.424767,1.2308912,30.672848,-19.075706,-57.22901,-2.2380683,-2.6036627,-0.5779878,46.081367,-34.004036,16.254667,-40.625072,-6.309935,-14.347641,4.658674
212,-8.120290756225586,-279.1311950683594,74.15880584716797,-4.243397084721511,-1.3413762973147798,-89.14156156369937,10.91103,13.136311,6.4983473,66.242676,-6.5608573,-3.6524725,-21.898941,4.088278,-6.8085747,38.74809,-15.407893,-2.4055052,-14.475659,3.6308813,4.1766443,2.6867192,29.896252,-18.725676,-56.8012,-2.1515803,-2.8101704,-0.56688327,44.34103,-33.886208,16.999146,-39.60799,-6.064458,-14.48514,4.338578
213,-8.223379135131836,-280.2421875,73.5925064086914,-4.780998297499426,-1.68982400026891,-89.34495930307295,9.517418,14.808529,6.983012,69.99944,-8.344082,-2.95632,-22.149094,4.8349442,-7.0277133,41.964764,-17.682705,-3.2988715,-13.640801,3.9598315,4.9248753,4.243364,29.058588,-18.351707,-56.317547,-1.9352689,-2.9789884,-0.5498547,42.341667,-33.711536,17.816996,-38.399063,-5.917174,-14.609111,3.997433
214,-8.326242446899414,-281.32659912109375,73.04754638671875,-5.27421108821624,-2.016956836023811,-89.61510241953394,7.963294,16.4346,7.3723564,73.73242,-10.23394,-2.010609,-22.00003,5.5042276,-7.3233624,44.41128,-19.920376,-3.7008822,-12.715711,4.249405,5.684999,5.8782063,28.162855,-17.976025,-55.77749,-1.6294483,-3.1296637,-0.54038453,40.11699,-33.474598,18.696003,-37.02709,-5.809623,-14.734034,3.6124988
215,-8.428251266479492,-282.3783264160156,72.53679656982422,-5.7383068196664455,-2.301562117073994,-89.84295191851353,6.2346697,17.94289,7.547035,77.29338,-12.137307,-0.9658229,-21.60397,6.109546,-7.6667085,46.328575,-22.051092,-3.877342,-11.776452,4.536526,6.405889,7.537075,27.228062,-17.644068,-55.175983,-1.2994171,-3.2755477,-0.52610826,37.799908,-33.170174,19.568981,-35.632923,-5.784305,-14.846457,3.233068
216,-8.5557279586792,-283.43377685546875,72.08006286621094,-6.181324648982435,-2.5212917651049587,-89.91855345427446,4.3056355,19.261341,7.397979,80.52943,-13.954489,0.033043757,-21.104116,6.6736426,-8.019821,47.927944,-23.98655,-4.088512,-10.898564,4.8466063,7.037811,9.1691475,26.283062,-17.397362,-54.516087,-1.0096886,-3.4301538,-0.4909077,35.518204,-32.79505,20.372774,-34.352905,-5.8845797,-14.932806,2.9108057
217,-8.680344581604004,-284.50537109375,71.68913269042969,-6.641770134503585,-2.658198282972537,-89.76961052305738,2.0603786,20.395739,6.798958,83.493515,-15.682436,1.0101984,-20.500633,7.2125998,-8.419153,49.199165,-25.715271,-4.38039,-10.14486,5.197223,7.5859,10.805705,25.344189,-17.23195,-53.79992,-0.7686893,-3.593586,-0.41127515,33.271324,-32.338436,21.102827,-33.165314,-6.1826525,-14.988831,2.6560886
218,-8.790202140808105,-285.5898742675781,71.36439514160156,-7.100904908962475,-2.7240298075236473,-89.46939350482428,-0.48409843,21.339714,5.8433404,86.23274,-17.35026,2.0206404,-19.725557,7.7008595,-8.861788,50.052433,-27.281221,-4.619256,-9.454664,5.556472,8.073475,12.46677,24.417574,-17.128876,-53.038204,-0.5469435,-3.760301,-0.2943674,31.006083,-31.79341,21.78061,-32.01555,-6.636169,-15.020929,2.4454787
219,-8.88388729095459,-286.674560546875,71.11131286621094,-7.499489666312797,-2.743267902262907,-89.12895685743825,-3.1439393,22.02813,4.77532,88.59516,-18.914524,2.9688761,-18.824024,8.115179,-9.25299,50.576355,-28.67626,-4.7957125,-8.719852,5.876722,8.479646,14.089725,23.52087,-17.094154,-52.24972,-0.3527823,-3.9349627,-0.16926691,28.752626,-31.175154,22.39618,-30.973492,-7.1179485,-15.031533,2.282064
220,-8.945423126220703,-287.7377014160156,70.92584991455078,-7.772301283013073,-2.7433369477172116,-88.85855427560712,-5.71918,22.424221,3.8557274,90.42995,-20.33416,3.7607524,-17.842424,8.433484,-9.504685,50.860325,-29.891243,-4.903618,-7.836199,6.112068,8.786661,15.622294,22.677536,-17.126316,-51.46488,-0.19547363,-4.123203,-0.061169904,26.513853,-30.51656,22.947262,-30.09315,-7.48645,-15.024018,2.1678755
221,-8.991877555847168,-288.7957458496094,70.81504821777344,-7.900724992430397,-2.7308695457541607,-88.6672381968315,-8.202414,22.487906,3.1248417,91.71403,-21.631746,4.3750243,-16.792343,8.633392,-9.612838,50.935833,-30.941708,-4.933316,-6.789316,6.2437005,8.997356,17.092682,21.892464,-17.23294,-50.695408,-0.074693345,-4.3386636,0.059814163,24.33168,-29.836344,23.44762,-29.445484,-7.7145286,-15.002102,2.102004
222,-9.033454895019531,-289.8789978027344,70.78240203857422,-7.917841744565139,-2.694095252955869,-88.5031654852276,-10.66479,22.261032,2.4971945,92.52171,-22.809256,4.861976,-15.647828,8.730669,-9.627504,50.75246,-31.825241,-4.8908906,-5.636859,6.2935095,9.12674,18.538126,21.16588,-17.392353,-49.94541,0.011507495,-4.5749373,0.20073132,22.140614,-29.141594,23.912075,-28.949625,-7.8480525,-14.963564,2.0800412
223,-9.059285163879395,-290.95404052734375,70.82044982910156,-7.8456265815791015,-2.6331263475007467,-88.38303519505962,-13.015817,21.852325,2.0445168,92.83746,-23.791698,5.2343693,-14.39321,8.757911,-9.543164,50.26389,-32.51178,-4.7977204,-4.407604,6.269113,9.172873,19.957474,20.51815,-17.532778,-49.270927,0.054099254,-4.8028884,0.3052544,19.96192,-28.450628,24.370117,-28.599657,-7.9496,-14.903066,2.0961585
224,-9.068032264709473,-292.05010986328125,70.94170379638672,-7.704931058950848,-2.547453814315264,-88.32420062562922,-15.16605,21.37882,1.8310719,92.64446,-24.513346,5.5083747,-13.014552,8.747346,-9.351042,49.4303,-32.97057,-4.675987,-3.1342816,6.1752415,9.139337,21.366035,19.981123,-17.57486,-48.748333,0.03932463,-4.993752,0.32254156,17.782358,-27.789604,24.851679,-28.367338,-8.059348,-14.815491,2.1415036
225,-9.077312469482422,-293.1578369140625,71.13959503173828,-7.492411540804181,-2.432217110877026,-88.35005186644497,-17.11038,20.864847,1.8971385,91.9032,-24.925434,5.6404862,-11.502767,8.704959,-9.026855,48.21282,-33.21283,-4.5304017,-1.806539,5.9989705,9.033917,22.819698,19.574163,-17.486233,-48.471924,-0.034225505,-5.133659,0.22181435,15.599914,-27.171669,25.372051,-28.310526,-8.174338,-14.700448,2.203489
226,-9.080214500427246,-294.2906494140625,71.40999603271484,-7.200223281270726,-2.2891336341804713,-88.44577168330129,-18.876194,20.2707,2.2098918,90.625824,-25.079023,5.634503,-9.867696,8.607368,-8.583378,46.647865,-33.253323,-4.3546486,-0.42490515,5.730382,8.867861,24.336037,19.297098,-17.287836,-48.42597,-0.1709538,-5.2398863,0.045904897,13.42114,-26.597359,25.93667,-28.435522,-8.268784,-14.560653,2.2824507
227,-9.07580280303955,-295.4405822753906,71.74376678466797,-6.842563333306096,-2.1271686193916817,-88.56925715609195,-20.435421,19.607294,2.7048883,88.876625,-25.049154,5.5679827,-8.124169,8.441721,-8.06819,44.800835,-33.062588,-4.151059,0.95822877,5.378724,8.650223,25.877003,19.150473,-16.974445,-48.52759,-0.38887867,-5.3312674,-0.14562806,11.253059,-26.0736,26.559694,-28.654179,-8.349852,-14.396054,2.3890119
228,-9.070255279541016,-296.61053466796875,72.13108825683594,-6.434436114059961,-1.9549118387591862,-88.67813804884436,-21.762617,18.87848,3.3154087,86.72011,-24.911266,5.5177627,-6.2876453,8.197622,-7.530822,42.73275,-32.60895,-3.915551,2.288156,4.956641,8.389674,27.409895,19.134474,-16.538408,-48.69997,-0.7056265,-5.427386,-0.2932171,9.108098,-25.609379,27.255604,-28.883322,-8.424837,-14.206177,2.5317526
229,-9.050626754760742,-297.81243896484375,72.56865692138672,-5.957919872579052,-1.7838015237877982,-88.7597563544319,-22.812551,18.091335,4.096287,84.10913,-24.708231,5.526851,-4.299333,7.8639116,-6.953414,40.34676,-31.907135,-3.6382725,3.5603178,4.439168,8.100279,28.9462,19.252132,-15.961687,-48.955925,-1.1668016,-5.540975,-0.39372498,7.0022993,-25.211554,28.044533,-29.144539,-8.503074,-13.994676,2.6934752
230,-9.025039672851562,-299.0252990722656,73.04498291015625,-5.4109152252443495,-1.6051047894310566,-88.83566125361007,-23.601234,17.231976,5.05519,81.02101,-24.400364,5.5340724,-2.1798568,7.444182,-6.3275194,37.65165,-30.968578,-3.3174503,4.795655,3.8255367,7.783375,30.522287,19.499702,-15.237951,-49.35207,-1.7525052,-5.6590805,-0.47339505,4.9395185,-24.878416,28.923016,-29.48628,-8.575045,-13.760734,2.8719425
231,-9.00288200378418,-300.2662658691406,73.54449462890625,-4.839517880601411,-1.3983239704514545,-88.91495868471956,-24.206402,16.275667,6.0476327,77.56216,-23.932518,5.467802,-0.06611026,6.9591208,-5.7161636,34.865356,-29.757805,-2.9600234,5.979964,3.1657822,7.421749,32.12972,19.863792,-14.3787565,-49.85514,-2.3804219,-5.7637086,-0.5185127,2.905101,-24.606989,29.865297,-29.857811,-8.622365,-13.497845,3.1018546
232,-8.97217082977295,-301.5251159667969,74.06200408935547,-4.288922805306738,-1.1436387391715706,-89.00651674798212,-24.707922,15.209684,6.921396,73.833046,-23.250233,5.2665887,1.9084071,6.437722,-5.177251,32.208565,-28.241926,-2.5783162,7.100248,2.513896,6.9926553,33.750847,20.32481,-13.402801,-50.42031,-2.9651031,-5.837463,-0.516179,0.88105065,-24.393969,30.842274,-30.206585,-8.626141,-13.199399,3.4184754
233,-8.924856185913086,-302.7950744628906,74.59017944335938,-3.74907392089718,-0.8266661130609679,-89.09987830800233,-25.10806,14.021187,7.6711893,69.77892,-22.32345,4.9540176,3.7587576,5.8730392,-4.7067194,29.638908,-26.354496,-2.1496477,8.143085,1.8572481,6.47066,35.382355,20.87515,-12.293754,-51.043983,-3.4939535,-5.8645,-0.45387164,-1.1424494,-24.240389,31.85946,-30.531927,-8.559345,-12.85128,3.8697984
234,-8.873248100280762,-304.0835266113281,75.13052368164062,-3.208275932146969,-0.46249672839025846,-89.19181227197575,-25.36731,12.728782,8.340662,65.357864,-21.186262,4.55867,5.532013,5.272236,-4.2761216,27.08439,-24.13824,-1.6809533,9.114939,1.1789145,5.8734355,37.040592,21.509357,-11.043518,-51.739403,-4.0068593,-5.860682,-0.3425994,-3.1490693,-24.146137,32.93217,-30.86545,-8.441351,-12.461101,4.4229255
235,-8.812487602233887,-305.37518310546875,75.658447265625,-2.714264909839815,-0.07597848615420258,-89.30229567013414,-25.508833,11.383987,8.844114,60.687347,-19.88131,4.0396676,7.149527,4.6872625,-3.900238,24.728592,-21.728102,-1.2339537,10.035028,0.5326593,5.234726,38.723515,22.207174,-9.688528,-52.48419,-4.4961624,-5.849857,-0.20790815,-5.121614,-24.10692,34.045574,-31.187765,-8.325102,-12.054841,4.9952407
236,-8.7354736328125,-306.6724548339844,76.17555236816406,-2.310698604123343,0.3080013564847771,-89.45288491726203,-25.557322,10.044967,9.095612,55.88321,-18.451248,3.360015,8.540457,4.164358,-3.593521,22.74865,-19.257702,-0.8686363,10.924829,-0.024101295,4.582947,40.415638,22.941017,-8.271771,-53.240616,-4.948387,-5.8557434,-0.07895583,-7.0504665,-24.118208,35.186436,-31.465557,-8.262363,-11.65927,5.5073104
237,-8.634012222290039,-307.9725341796875,76.67388153076172,-2.0087108338548405,0.7047643303661639,-89.66186786355736,-25.508966,8.682965,9.022211,50.844196,-16.801487,2.48844,9.674331,3.7016695,-3.3695407,21.162853,-16.62881,-0.6219562,11.797561,-0.47166374,3.8919811,42.098785,23.696873,-6.7790766,-53.981815,-5.369742,-5.8920846,0.0286823,-8.958288,-24.183636,36.3944,-31.669888,-8.291182,-11.266533,5.927726
238,-8.532855033874512,-309.2806091308594,77.1553726196289,-1.794213760828432,1.117294607087198,-89.91502186446608,-25.333084,7.3257833,8.647227,45.522137,-14.943654,1.4781168,10.601211,3.2870011,-3.2107875,19.892065,-13.8160515,-0.4498706,12.635117,-0.82902443,3.1504734,43.78507,24.469248,-5.192716,-54.72261,-5.758315,-5.9425015,0.12590383,-10.844632,-24.3049,37.676205,-31.823717,-8.375584,-10.867962,6.303994
