unveil-humanoid-operators/unveil-humanoid-operators.github.io/feature-analysis-animation/data/feature_matrix_instances/gender_shoulder_mean_vel_jogging_A200_jog_ff_stop_180_R_002__A200.csv
Frame,root_translateX,root_translateY,root_translateZ,root_rotateX,root_rotateY,root_rotateZ,left_hip_pitch_joint_dof,left_hip_roll_joint_dof,left_hip_yaw_joint_dof,left_knee_joint_dof,left_ankle_pitch_joint_dof,left_ankle_roll_joint_dof,right_hip_pitch_joint_dof,right_hip_roll_joint_dof,right_hip_yaw_joint_dof,right_knee_joint_dof,right_ankle_pitch_joint_dof,right_ankle_roll_joint_dof,waist_yaw_joint_dof,waist_roll_joint_dof,waist_pitch_joint_dof,left_shoulder_pitch_joint_dof,left_shoulder_roll_joint_dof,left_shoulder_yaw_joint_dof,left_elbow_joint_dof,left_wrist_roll_joint_dof,left_wrist_pitch_joint_dof,left_wrist_yaw_joint_dof,right_shoulder_pitch_joint_dof,right_shoulder_roll_joint_dof,right_shoulder_yaw_joint_dof,right_elbow_joint_dof,right_wrist_roll_joint_dof,right_wrist_pitch_joint_dof,right_wrist_yaw_joint_dof
0,0.5369962453842163,1.4862830638885498,77.33232116699219,0.5801893836489749,1.6133900645468475,-95.96810806188299,0.9353167,6.0792003,17.373882,13.709724,-13.147232,-3.8084235,-0.88409275,-10.747548,-8.958845,13.395179,-12.857128,7.502629,-0.64881843,-1.4151422,13.913637,-4.8138494,21.43843,-38.07048,55.80711,3.0191195,2.9246266,2.5667803,-12.549201,-14.9058695,40.770622,57.81827,-1.5390519,1.229797,-2.4079764
1,0.5839856266975403,1.425358533859253,77.31901550292969,0.5712923442639481,1.7241774556260199,-95.96773353099516,0.91055965,6.023775,17.371992,13.607008,-13.241837,-3.8122537,-0.87491435,-10.779136,-8.971805,13.211203,-12.836828,7.6010823,-0.62976843,-1.4283539,13.877029,-4.8430004,21.447308,-38.00814,55.71419,2.982682,2.9131193,2.5933115,-12.591248,-14.906904,40.71257,57.79964,-1.5013282,1.1549808,-2.443678
2,0.6293234825134277,1.367859959602356,77.30452728271484,0.564153937502397,1.8358414076318903,-95.96806212527012,0.88877946,5.9656253,17.37151,13.494769,-13.331492,-3.8183944,-0.8670627,-10.812956,-8.984086,13.026044,-12.815438,7.7025433,-0.6100348,-1.4462553,13.858001,-4.876539,21.462236,-37.90713,55.61347,2.9780335,2.8981044,2.6072388,-12.638413,-14.912213,40.62219,57.766636,-1.4904343,1.0742757,-2.4705348
3,0.6816766858100891,1.3187229633331299,77.28549194335938,0.5533145953682571,1.9442065895249794,-95.96706732042365,0.8623962,5.9135866,17.368057,13.401999,-13.43101,-3.8201852,-0.8526896,-10.8428135,-8.998241,12.838921,-12.794565,7.7971983,-0.5937234,-1.458639,13.838423,-4.905591,21.475216,-37.81911,55.50806,2.9619844,2.8852327,2.6270487,-12.683192,-14.920682,40.541866,57.735874,-1.4736477,1.0041922,-2.493974
4,0.7313305735588074,1.2623692750930786,77.26622009277344,0.5336782001176382,2.0438427134408195,-95.96264955325509,0.82303745,5.877592,17.357119,13.362138,-13.557227,-3.8111591,-0.8237483,-10.862428,-9.016914,12.651122,-12.777015,7.875314,-0.58504635,-1.4601965,13.832836,-4.925022,21.48894,-37.73404,55.381317,2.9425406,2.8755918,2.6527236,-12.731441,-14.933031,40.456215,57.710514,-1.4666595,0.95849884,-2.499074
5,0.7748817801475525,1.1993310451507568,77.24981689453125,0.5009686333391262,2.130600075407988,-95.9593056215245,0.77172685,5.8660746,17.341501,13.386612,-13.719432,-3.7897778,-0.77579784,-10.863944,-9.036271,12.460126,-12.762397,7.9278994,-0.5841417,-1.4462836,13.842244,-4.9365597,21.496096,-37.655193,55.23759,2.9106536,2.86979,2.6917865,-12.794222,-14.939805,40.368797,57.709957,-1.4800622,0.9504528,-2.4772105
6,0.8270313143730164,1.131887674331665,77.23390197753906,0.4590710029189289,2.2082837554030155,-95.95650772107675,0.71109885,5.8717628,17.322075,13.457948,-13.907174,-3.759477,-0.7146029,-10.852685,-9.0565195,12.267417,-12.749903,7.9627085,-0.58897406,-1.4217727,13.865099,-4.940644,21.501842,-37.575996,55.076294,2.8731349,2.8666308,2.7390785,-12.868351,-14.943462,40.27819,57.72429,-1.506911,0.9690135,-2.435059
7,0.8759776949882507,1.070931077003479,77.2142562866211,0.41508217433253086,2.2829867201851957,-95.94478350453275,0.6387337,5.8805304,17.291903,13.561311,-14.107446,-3.7212162,-0.64350885,-10.841268,-9.086221,12.072418,-12.737694,7.9952817,-0.60405606,-1.3941638,13.890864,-4.936203,21.506323,-37.502903,54.905354,2.8401244,2.8668377,2.785497,-12.939604,-14.944911,40.184597,57.74411,-1.5329322,0.9924238,-2.391715
8,0.9350986480712891,1.0002461671829224,77.19428253173828,0.37589658122619235,2.361264745382497,-95.91432848384804,0.551918,5.8781233,17.24367,13.68083,-14.305757,-3.675908,-0.56543976,-10.842644,-9.13467,11.8732815,-12.723259,8.040821,-0.6286429,-1.3719091,13.91199,-4.927976,21.511269,-37.440407,54.735405,2.8233173,2.8696105,2.820935,-12.995192,-14.946417,40.078003,57.759,-1.5426329,0.9980054,-2.3645477
9,0.9952412247657776,0.9206889867782593,77.17496490478516,0.3413391371024658,2.4446666968483126,-95.85684485802982,0.44074175,5.8648586,17.168682,13.828915,-14.503689,-3.6225271,-0.47406435,-10.857035,-9.211173,11.658519,-12.701137,8.102257,-0.6659524,-1.3539877,13.917364,-4.9217877,21.51341,-37.411495,54.579185,2.8142092,2.8791485,2.8456335,-13.022441,-14.950193,39.96362,57.76223,-1.5182188,0.97946453,-2.3574805
10,1.0536173582077026,0.840311586856842,77.15675354003906,0.30823219467970375,2.5300760771596744,-95.77910345679422,0.3065198,5.847828,17.072311,14.014778,-14.708875,-3.5608659,-0.36965048,-10.878571,-9.309251,11.43108,-12.67323,8.171924,-0.71720046,-1.3354716,13.911959,-4.9143806,21.51014,-37.407024,54.43161,2.8076184,2.893846,2.8652604,-13.031627,-14.956466,39.848022,57.761677,-1.4684024,0.94898534,-2.3624797
11,1.1186201572418213,0.7677295207977295,77.14159393310547,0.28017218630423574,2.616258634890255,-95.69567958193164,0.17404382,5.8196044,16.971174,14.197458,-14.91174,-3.4934454,-0.26855084,-10.911264,-9.411266,11.2188835,-12.652048,8.248965,-0.76384336,-1.3199519,13.904982,-4.907896,21.501238,-37.421623,54.288963,2.8056817,2.906191,2.88198,-13.024687,-14.966298,39.72927,57.75818,-1.4114112,0.9128542,-2.3832595
12,1.1919772624969482,0.679093599319458,77.12215423583984,0.26011513994745894,2.702287112547726,-95.62005587682678,0.05870948,5.7756886,16.880247,14.355416,-15.107399,-3.422744,-0.18784235,-10.959459,-9.500512,11.051157,-12.651082,8.332416,-0.79024476,-1.3065398,13.901995,-4.9016504,21.483595,-37.455654,54.14671,2.8038497,2.9089956,2.9006672,-13.003596,-14.982869,39.611576,57.754623,-1.3597224,0.8770192,-2.4247715
13,1.2680422067642212,0.5804395079612732,77.10115051269531,0.2483378451149414,2.7881334279316494,-95.55375469968624,-0.03994291,5.7156444,16.799438,14.490333,-15.297704,-3.3478086,-0.12931387,-11.024058,-9.575335,10.930181,-12.670697,8.425431,-0.8063341,-1.2954773,13.904249,-4.8855214,21.458714,-37.497227,53.997894,2.8005338,2.8970058,2.924747,-12.979815,-15.003821,39.52114,57.76512,-1.2997366,0.8320914,-2.5097666
14,1.3407201766967773,0.4889124631881714,77.07701873779297,0.2430496417046216,2.87418122323263,-95.48989457045964,-0.1299284,5.6424503,16.722004,14.614128,-15.484732,-3.2679756,-0.085844524,-11.102841,-9.643805,10.844602,-12.706125,8.527081,-0.817814,-1.285598,13.909094,-4.860645,21.426521,-37.54662,53.844532,2.7999294,2.875314,2.9508965,-12.948012,-15.0282955,39.447376,57.782326,-1.231893,0.778664,-2.62835
15,1.420327067375183,0.39400216937065125,77.05368041992188,0.2449239110027708,2.9602295063181447,-95.43068721473875,-0.20419295,5.555563,16.65295,14.715694,-15.664807,-3.1860511,-0.05734046,-11.195695,-9.7038765,10.795131,-12.758903,8.630499,-0.82559526,-1.2802988,13.912911,-4.823646,21.391281,-37.59882,53.685608,2.8068292,2.851483,2.9722135,-12.910429,-15.053294,39.382225,57.80036,-1.1716081,0.7373801,-2.740978
16,1.5094951391220093,0.2947385609149933,77.02934265136719,0.2543508795330252,3.0460437789475896,-95.3784039168243,-0.2552565,5.4545817,16.5974,14.782371,-15.833081,-3.104909,-0.04452979,-11.302324,-9.753445,10.783331,-12.830592,8.728934,-0.81644,-1.2755846,13.911785,-4.7951927,21.33537,-37.666527,53.54728,2.8257444,2.8320818,2.9842534,-12.846216,-15.0922365,39.29619,57.789864,-1.1416259,0.73024654,-2.8057806
17,1.5955229997634888,0.18503990769386292,77.00277709960938,0.2701706089408191,3.132455742827664,-95.33849050701328,-0.28088942,5.3419714,16.562475,14.810698,-15.9888315,-3.0259101,-0.04938417,-11.420218,-9.788321,10.807626,-12.920264,8.819242,-0.8171896,-1.281322,13.906586,-4.721515,21.301487,-37.711506,53.36545,2.8712983,2.8236992,2.9779787,-12.78856,-15.114696,39.21391,57.774445,-1.1544482,0.77391493,-2.796388
18,1.680554986000061,0.07447054982185364,76.97772979736328,0.2919771720301409,3.2191891732241804,-95.30823003114735,-0.28541628,5.2176723,16.54328,14.807839,-16.134655,-2.9472811,-0.07008597,-11.549608,-9.810816,10.865698,-13.026126,8.905466,-0.7820918,-1.2844859,13.897255,-4.676481,21.238966,-37.796646,53.219173,2.929965,2.8181913,2.9640071,-12.690449,-15.1581955,39.088184,57.717426,-1.2067804,0.85480237,-2.7343967
19,1.769911527633667,-0.04129594564437866,76.955322265625,0.3230743062595137,3.3047461585484106,-95.27703974114763,-0.2702423,5.0754657,16.527803,14.774315,-16.268879,-2.8672032,-0.104432866,-11.6963415,-9.828925,10.96501,-13.153364,8.991537,-0.7480356,-1.2938026,13.88598,-4.6209855,21.169172,-37.875553,53.076332,2.9887207,2.811904,2.9448676,-12.582558,-15.208325,38.973953,57.657135,-1.2583815,0.9430142,-2.671547
20,1.8680191040039062,-0.17232269048690796,76.93122863769531,0.3664752002932128,3.3874783660739762,-95.23449297669,-0.23657213,4.9100423,16.503906,14.711882,-16.391094,-2.7840555,-0.15020497,-11.865375,-9.850206,11.112972,-13.307182,9.081159,-0.71830004,-1.3151999,13.874816,-4.5594935,21.095167,-37.944183,52.945206,3.027204,2.7995563,2.9259453,-12.470923,-15.262801,38.8894,57.610886,-1.2727509,1.009236,-2.655711
21,1.967970848083496,-0.3108340799808502,76.90290069580078,0.4250271958106176,3.464911380082053,-95.17890922843466,-0.17738955,4.715274,16.46959,14.610359,-16.496931,-2.6971645,-0.20633784,-12.060559,-9.87409,11.314601,-13.4910145,9.175942,-0.7048924,-1.3639911,13.866503,-4.461389,21.050571,-37.98378,52.791042,3.0330524,2.7788734,2.9022152,-12.382258,-15.295859,38.867573,57.6132,-1.2253847,1.0478208,-2.7244554
22,2.0585529804229736,-0.44397929310798645,76.87269592285156,0.49579744596476694,3.538502838708149,-95.1152616833067,-0.09416567,4.496288,16.430416,14.472294,-16.588255,-2.6075144,-0.27469027,-12.278377,-9.89709,11.565107,-13.701189,9.273829,-0.68037695,-1.4135975,13.856439,-4.388509,20.966526,-38.03446,52.68997,3.0192537,2.749322,2.8787928,-12.268713,-15.360811,38.86898,57.603218,-1.1382126,1.0763618,-2.8397112
23,2.159088134765625,-0.5820714831352234,76.83995819091797,0.5748388671063831,3.6128330028580824,-95.04375232705694,-0.0010738274,4.2624807,16.386225,14.316993,-16.672098,-2.5161011,-0.35468057,-12.512938,-9.923533,11.853654,-13.931148,9.372368,-0.66088533,-1.4701047,13.844554,-4.307449,20.877579,-38.073494,52.593376,3.0061262,2.7200751,2.856805,-12.142435,-15.429917,38.867054,57.592987,-1.056676,1.0913268,-2.9501295
24,2.263911247253418,-0.7348703145980835,76.80648040771484,0.6581138289287026,3.692325945905786,-94.9643144540567,0.0872232,4.0233827,16.337229,14.165792,-16.756943,-2.4237967,-0.44585747,-12.75891,-9.957466,12.169665,-14.174583,9.469399,-0.6445808,-1.5284891,13.82945,-4.219207,20.789011,-38.1067,52.490616,3.008347,2.6986442,2.8412066,-11.993098,-15.496872,38.816666,57.570396,-1.0255177,1.0908406,-3.0020168
25,2.358503818511963,-0.8853945732116699,76.771240234375,0.7473661343176192,3.77929703727376,-94.87606186339364,0.1679348,3.777191,16.284256,14.017457,-16.84099,-2.3287468,-0.5508844,-13.018125,-10.002343,12.513821,-14.432066,9.567139,-0.630252,-1.5914621,13.810422,-4.122519,20.70123,-38.130783,52.379494,3.0247078,2.685518,2.8370142,-11.818127,-15.560278,38.694492,57.53477,-1.0708932,1.0636933,-2.9612548
26,2.47023606300354,-1.0410916805267334,76.73147583007812,0.8434220778907019,3.8709305797722333,-94.77919390948882,0.24835001,3.5207098,16.226772,13.863896,-16.921583,-2.2312484,-0.6684673,-13.292789,-10.055346,12.890947,-14.706597,9.666004,-0.61648756,-1.6603926,13.788595,-4.018297,20.6141,-38.14792,52.26389,3.0474234,2.6773348,2.8403096,-11.620631,-15.619443,38.52314,57.4901,-1.1663643,1.0142671,-2.8630972
27,2.5695977210998535,-1.2055081129074097,76.69136047363281,0.9431347566327118,3.964010250399204,-94.67548664452798,0.3306645,3.2589626,16.163084,13.710747,-17.003313,-2.1350334,-0.7931081,-13.575326,-10.110816,13.296393,-14.995345,9.761093,-0.6044111,-1.7320052,13.763337,-3.9098542,20.528816,-38.16714,52.148415,3.084357,2.6759305,2.8433137,-11.41057,-15.6755495,38.338463,57.446484,-1.2708968,0.96380657,-2.7581248
28,2.681711196899414,-1.3806012868881226,76.65045166015625,1.0421830383930402,4.0555586637359315,-94.56720509019686,0.41654354,2.9978445,16.091644,13.565637,-17.091946,-2.043871,-0.9188424,-13.858249,-10.163082,13.724504,-15.294729,9.847151,-0.59476876,-1.8018695,13.735146,-3.7991188,20.447054,-38.196213,52.035217,3.1448605,2.683143,2.8378491,-11.193099,-15.729429,38.17328,57.407223,-1.3456919,0.9342696,-2.6965644
29,2.789055824279785,-1.5629239082336426,76.60974884033203,1.136803582558001,4.144615099907407,-94.45476405488814,0.50593084,2.7424536,16.010214,13.4309,-17.188425,-1.961839,-1.0448873,-14.135053,-10.208199,14.171574,-15.602265,9.916798,-0.58889925,-1.8673311,13.702679,-3.6857526,20.369942,-38.2389,51.92708,3.2422173,2.707368,2.8172522,-10.974031,-15.782889,38.049343,57.379086,-1.3711317,0.93736166,-2.6976392
30,2.8931381702423096,-1.7462443113327026,76.56633758544922,1.2298178586392283,4.232897944134333,-94.33721781988766,0.5984891,2.4884427,15.920318,13.301573,-17.289154,-1.8857698,-1.1747264,-14.411571,-10.2494545,14.641372,-15.920175,9.974348,-0.5872865,-1.9310429,13.666897,-3.5665803,20.297722,-38.288296,51.818687,3.3682728,2.7451832,2.786927,-10.74629,-15.835488,37.943855,57.354195,-1.372897,0.9598035,-2.732517
31,2.9969289302825928,-1.936726689338684,76.5195083618164,1.3288763465736848,4.321067141592385,-94.21384437766994,0.69299793,2.2275705,15.825488,13.178386,-17.396265,-1.8085607,-1.3146403,-14.702021,-10.290473,15.149551,-16.255575,10.032333,-0.58987945,-1.9993005,13.630376,-3.4397259,20.233845,-38.33751,51.700825,3.4987078,2.780085,2.7569995,-10.511643,-15.884714,37.83455,57.330452,-1.3692608,0.9851554,-2.7798033
32,3.101426839828491,-2.1391830444335938,76.4706802368164,1.440581972091782,4.409756777730764,-94.08407612245078,0.7898519,1.9514526,15.728537,13.058845,-17.510017,-1.7232414,-1.4628094,-15.013501,-10.338076,15.6935215,-16.610668,10.103366,-0.5931893,-2.075814,13.595537,-3.309965,20.17467,-38.3845,51.572395,3.6088383,2.7956362,2.7385087,-10.265069,-15.934337,37.69374,57.299225,-1.3800524,0.99739015,-2.817423
33,3.2069880962371826,-2.3412692546844482,76.41521453857422,1.5707052782491715,4.501034780587904,-93.94471625204423,0.883929,1.6532009,15.6285515,12.946913,-17.632639,-1.6234053,-1.6189468,-15.358597,-10.396422,16.273647,-16.987507,10.205583,-0.60110116,-2.1658046,13.560704,-3.172158,20.124931,-38.427162,51.432713,3.6816041,2.7742505,2.7374554,-10.004148,-15.979741,37.5053,57.262054,-1.4116195,0.9890791,-2.8360987
34,3.3153090476989746,-2.5493133068084717,76.35511016845703,1.7141968480512526,4.593877462721656,-93.79713534805985,0.9782292,1.3382614,15.524461,12.839449,-17.76162,-1.5142086,-1.7828058,-15.727278,-10.461972,16.88816,-17.38374,10.327239,-0.6201308,-2.2688823,13.524776,-3.0161467,20.092434,-38.459045,51.272278,3.7342415,2.7296524,2.7462,-9.741911,-16.012379,37.294937,57.233463,-1.4517999,0.9691879,-2.8499644
35,3.4268081188201904,-2.761361837387085,76.29100799560547,1.8622189936909317,4.6840442529466,-93.64697717771658,1.0789306,1.0194334,15.418386,12.735523,-17.896492,-1.4061153,-1.9614474,-16.105997,-10.525436,17.554749,-17.800467,10.43647,-0.6303483,-2.374162,13.494069,-2.8640695,20.066046,-38.497917,51.09703,3.788708,2.691602,2.7568595,-9.467513,-16.045954,37.068363,57.192726,-1.5000627,0.947932,-2.8687394
36,3.534792423248291,-2.978011131286621,76.22093963623047,2.006643184850878,4.767541182715976,-93.5001879391618,1.1936502,0.7080341,15.312947,12.632253,-18.036196,-1.3092841,-2.1654866,-16.480679,-10.57625,18.296131,-18.24172,10.500936,-0.6421655,-2.4772062,13.472737,-2.7036352,20.050589,-38.523487,50.88394,3.873408,2.690389,2.7584817,-9.199459,-16.073093,36.87011,57.147026,-1.5475627,0.9347301,-2.906574
37,3.638914108276367,-3.1941945552825928,76.15303039550781,2.1473685361260775,4.844619007150407,-93.36108085536007,1.325032,0.40431863,15.212212,12.524682,-18.178677,-1.2284645,-2.3972535,-16.852127,-10.600443,19.110678,-18.71706,10.507554,-0.636892,-2.5756304,13.463182,-2.5509393,20.04179,-38.55407,50.637234,3.9958875,2.7494473,2.7509532,-8.923829,-16.102522,36.692837,57.0842,-1.6115808,0.9312764,-2.9722817
38,3.7495062351226807,-3.420567512512207,76.08219909667969,2.28854497592062,4.917042134795719,-93.225583559853,1.4678907,0.1026019,15.113644,12.417797,-18.326439,-1.1572735,-2.6508358,-17.22587,-10.606162,19.985292,-19.221132,10.474006,-0.61595094,-2.6709843,13.464851,-2.4050522,20.040297,-38.592216,50.361244,4.140913,2.8476067,2.7386584,-8.631407,-16.144047,36.519024,56.99393,-1.6885747,0.9335311,-3.0556853
39,3.8533833026885986,-3.665220022201538,76.0083999633789,2.427562537123403,4.9830728957293156,-93.08706820326493,1.6223854,-0.19484939,15.010276,12.312093,-18.477873,-1.0896729,-2.9235191,-17.604382,-10.614,20.927637,-19.733334,10.414159,-0.6089623,-2.765612,13.47279,-2.245804,20.046253,-38.609013,50.05819,4.301228,2.9474514,2.7193594,-8.349459,-16.178984,36.362915,56.901245,-1.7466835,0.9411278,-3.1428883
40,3.950571298599243,-3.914207935333252,75.93280792236328,2.561633762202481,5.040974657417664,-92.93900512747055,1.7880867,-0.48578492,14.89503,12.209901,-18.632162,-1.0194552,-3.210986,-17.985971,-10.645696,21.942692,-20.232958,10.341193,-0.6100562,-2.856944,13.48977,-2.083138,20.058868,-38.61931,49.74137,4.4583,3.0120966,2.692972,-8.06734,-16.215212,36.190205,56.78963,-1.7649808,0.9541984,-3.2136352
41,4.059175968170166,-4.167558193206787,75.85714721679688,2.6937250581142753,5.083237755291348,-92.77665488814883,1.9705645,-0.77407986,14.763316,12.11664,-18.793291,-0.9434773,-3.4908688,-18.375944,-10.706177,23.009415,-20.727507,10.262265,-0.61585486,-2.9466157,13.52338,-1.9203544,20.082497,-38.63434,49.414345,4.6139097,3.02423,2.6503222,-7.774002,-16.264061,35.983036,56.641685,-1.7232269,0.9764946,-3.2547543
42,4.163236141204834,-4.4151225090026855,75.78502655029297,2.8241054902367044,5.113006995029424,-92.60451679093576,2.167817,-1.0594585,14.619749,12.030286,-18.960455,-0.86546344,-3.7723372,-18.774775,-10.782863,24.13316,-21.224792,10.1672325,-0.62375206,-3.0335758,13.573836,-1.7530034,20.12117,-38.65062,49.062656,4.773212,3.006272,2.5943975,-7.4647303,-16.33124,35.75395,56.45071,-1.6381307,1.0071826,-3.2776718
43,4.258092403411865,-4.675607204437256,75.71331787109375,2.9466303754484207,5.144840110339309,-92.42996282945859,2.3697114,-1.3342566,14.471261,11.939421,-19.125479,-0.7894552,-4.0966244,-19.17751,-10.870761,25.354973,-21.701859,10.042854,-0.6393039,-3.1140516,13.626628,-1.5782126,20.165918,-38.648857,48.683266,4.92701,2.980441,2.5436392,-7.1575227,-16.40159,35.527367,56.24386,-1.5439367,1.0393734,-3.3013346
44,4.355794906616211,-4.934713363647461,75.64532470703125,3.0556788981616045,5.193333031265139,-92.26018130141318,2.563902,-1.5906103,14.324847,11.835554,-19.28013,-0.7194561,-4.50556,-19.581099,-10.96399,26.7178,-22.13693,9.874704,-0.65369743,-3.18247,13.672853,-1.3994375,20.215307,-38.626617,48.265984,5.061098,2.9697428,2.5164886,-6.8510914,-16.475107,35.308968,56.022217,-1.4775022,1.0665522,-3.341652
45,4.457293510437012,-5.202244758605957,75.57386016845703,3.1514407558341215,5.261295819807037,-92.09040605543649,2.7460468,-1.8297666,14.175962,11.719096,-19.423777,-0.65184844,-4.990762,-19.991137,-11.075929,28.214287,-22.540312,9.6802025,-0.66725576,-3.2378943,13.708438,-1.2191979,20.268309,-38.589417,47.814114,5.1663876,2.9710379,2.5254767,-6.541136,-16.552517,35.101894,55.786003,-1.4446641,1.0888276,-3.407711
46,4.557140350341797,-5.4792890548706055,75.50665283203125,3.236937672152024,5.341109954654576,-91.91879665800987,2.9226716,-2.0551407,14.0232525,11.594045,-19.55986,-0.5858105,-5.537006,-20.41255,-11.201194,29.83131,-22.919773,9.454813,-0.68171304,-3.2830486,13.738714,-1.0376929,20.324583,-38.53961,47.333645,5.2516117,2.975187,2.5584116,-6.228424,-16.634552,34.900986,55.534157,-1.4269348,1.1089565,-3.4890575
47,4.654586315155029,-5.759042263031006,75.44229125976562,3.3091802567311164,5.432573617579525,-91.75725768571839,3.101044,-2.2625535,13.878379,11.451313,-19.686022,-0.5294152,-6.1707253,-20.832697,-11.308939,31.592733,-23.252625,9.149565,-0.6956522,-3.3171897,13.767984,-0.8496914,20.383236,-38.46293,46.815567,5.331452,2.9964538,2.596333,-5.919242,-16.719769,34.702404,55.265728,-1.4262128,1.1248596,-3.5729866
48,4.7429585456848145,-6.035537242889404,75.3802719116211,3.365899523943885,5.535044101755201,-91.61736233361067,3.286769,-2.4477963,13.753172,11.284664,-19.801157,-0.49066848,-6.9161882,-21.240866,-11.368518,33.51765,-23.513344,8.715585,-0.7087916,-3.3405647,13.799847,-0.6496129,20.443535,-38.343678,46.251335,5.4208083,3.0489702,2.6200438,-5.6216755,-16.805477,34.5027,54.98269,-1.4461877,1.1343093,-3.6468785
49,4.832155227661133,-6.324653148651123,75.32194519042969,3.4025662213447028,5.651460806958148,-91.50053690548565,3.4842672,-2.608207,13.647561,11.0793915,-19.899471,-0.47391462,-7.782653,-21.634287,-11.370206,35.627472,-23.69336,8.160863,-0.7233783,-3.3463812,13.831528,-0.43303108,20.504833,-38.17996,45.63411,5.513925,3.1483173,2.6325583,-5.343703,-16.89024,34.30136,54.691326,-1.497382,1.1360284,-3.7011294
50,4.914724826812744,-6.6149444580078125,75.26622772216797,3.4219013427769096,5.781189983714919,-91.40083032989577,3.6903942,-2.7469473,13.556173,10.841529,-19.982708,-0.47390896,-8.75287,-22.02231,-11.33148,37.900978,-23.807875,7.4978056,-0.7401046,-3.3374174,13.860443,-0.20521125,20.564657,-37.979134,44.974873,5.606278,3.282917,2.6415055,-5.0835066,-16.97065,34.101635,54.396862,-1.5753899,1.1311355,-3.7452354
51,5.000449180603027,-6.917252540588379,75.21200561523438,3.432850373422036,5.91848881768696,-91.31906534869931,3.9012437,-2.8701477,13.483065,10.591098,-20.05837,-0.4843131,-9.813818,-22.405035,-11.266098,40.29595,-23.868603,6.6840754,-0.7556691,-3.3283179,13.895693,0.03315036,20.628962,-37.737415,44.274567,5.7146735,3.4266412,2.6337142,-4.827083,-17.051739,33.90554,54.08186,-1.6568209,1.1217542,-3.7940564
52,5.078883171081543,-7.213151454925537,75.15367889404297,3.444137095624101,6.057981899214076,-91.25627375906122,4.114715,-2.9843698,13.432218,10.343731,-20.131983,-0.4985539,-10.951166,-22.786715,-11.188732,42.76926,-23.887495,5.6783714,-0.7677247,-3.334749,13.941745,0.2744154,20.695507,-37.452606,43.54933,5.8552103,3.5529084,2.5970163,-4.571621,-17.126535,33.71799,53.749905,-1.7195501,1.1089892,-3.8641293
53,5.145111083984375,-7.512547016143799,75.09625244140625,3.4525601076343437,6.201046360667519,-91.22035531659279,4.323313,-3.0846999,13.413467,10.1110115,-20.211912,-0.51250184,-12.200293,-23.179289,-11.1145315,45.392117,-23.82409,4.377212,-0.7684834,-3.3565762,14.001763,0.5247448,20.763868,-37.107357,42.79787,6.0335684,3.6429842,2.5252726,-4.3246794,-17.193012,33.545025,53.408737,-1.8078538,1.0809183,-3.962036
54,5.2151312828063965,-7.825779914855957,75.03431701660156,3.4556729271081723,6.349426625840423,-91.20786593006977,4.532773,-3.171726,13.421337,9.876088,-20.28928,-0.5296962,-13.550915,-23.586674,-11.040037,48.152813,-23.692839,2.8210921,-0.76349986,-3.3881578,14.07178,0.78542995,20.834114,-36.706696,42.01487,6.2403154,3.7148514,2.4260156,-4.090324,-17.25031,33.38541,53.06164,-1.9162378,1.04076,-4.0790524
55,5.275091171264648,-8.1282320022583,74.97626495361328,3.4632052929940356,6.498371648687294,-91.20263869903232,4.756974,-3.2587094,13.437267,9.622696,-20.35119,-0.55547374,-14.924358,-23.986032,-10.950445,50.890385,-23.583393,1.1966034,-0.76872945,-3.4367876,14.147027,1.0446659,20.909044,-36.281055,41.2041,6.4710536,3.7967517,2.3067873,-3.8527775,-17.297606,33.228157,52.694687,-1.9507004,1.0127728,-4.2077665
56,5.320134162902832,-8.428618431091309,74.91857147216797,3.4838488583407057,6.642966426563581,-91.18890983447255,5.009325,-3.3568044,13.443154,9.335151,-20.384321,-0.59572524,-16.245514,-24.336292,-10.826928,53.449448,-23.575207,-0.29311147,-0.7980811,-3.5085409,14.223068,1.2896581,20.993462,-35.863377,40.36854,6.719994,3.9176323,2.175232,-3.597357,-17.334873,33.062874,52.29424,-1.8146775,1.0206808,-4.340511
57,5.367232322692871,-8.752753257751465,74.85194396972656,3.5253756757286547,6.77778813151304,-91.16266611175597,5.302018,-3.4767694,13.434635,8.999128,-20.382236,-0.6542124,-17.50202,-24.689262,-10.737135,55.880184,-23.69912,-1.7130083,-0.84982795,-3.6131835,14.305358,1.5249554,21.090586,-35.45132,39.505936,7.004232,4.0837145,2.026133,-3.3165839,-17.362444,32.88879,51.84985,-1.461595,1.0865297,-4.459137
58,5.3884687423706055,-9.084104537963867,74.7860107421875,3.580632814557902,6.9069254355771355,-91.13227331882067,5.62971,-3.6102283,13.421117,8.615465,-20.347164,-0.7265009,-18.734053,-25.03379,-10.665795,58.242462,-23.901676,-3.1180487,-0.91691744,-3.7447052,14.394558,1.7560018,21.20162,-35.031837,38.610878,7.3200526,4.2801957,1.8571204,-3.0201538,-17.38113,32.710247,51.370697,-0.948748,1.1916817,-4.5735803
59,5.40977144241333,-9.433655738830566,74.71942138671875,3.6341838356482223,7.04067488855085,-91.10170889361906,5.9615064,-3.7334974,13.406044,8.230431,-20.300352,-0.80988705,-19.949411,-25.222672,-10.470027,60.397575,-24.123821,-4.2688365,-1.0044118,-3.883487,14.47901,1.9713197,21.328966,-34.622845,37.68197,7.630314,4.504097,1.679772,-2.7103374,-17.389784,32.517803,50.86398,-0.34193867,1.2984409,-4.7181373
60,5.432741165161133,-9.794632911682129,74.65362548828125,3.670410497959434,7.189365930187267,-91.07553950571517,6.2752323,-3.8258624,13.393201,7.8715186,-20.254736,-0.89905775,-21.160719,-25.103197,-10.012175,62.21461,-24.297585,-4.9162536,-1.1155636,-4.0104527,14.546728,2.1587288,21.47553,-34.24498,36.71852,7.897276,4.7528815,1.50616,-2.3886843,-17.38663,32.299503,50.338703,0.29156458,1.3684562,-4.9260626
61,5.430472373962402,-10.166404724121094,74.58987426757812,3.6912962010967685,7.357505215441469,-91.05355522986787,6.4395714,-3.85441,13.391351,7.818208,-20.36023,-0.99725825,-22.380428,-24.54354,-9.159688,63.655304,-24.441616,-4.8615136,-1.2519169,-4.1270666,14.590676,2.3190794,21.645647,-33.903088,35.71062,8.098906,5.0421,1.3214439,-2.0543077,-17.368233,32.051113,49.795193,1.0128003,1.3859853,-5.233723
62,5.425583362579346,-10.554086685180664,74.52783966064453,3.7026664695124643,7.538714077506408,-91.03457853011233,6.5809426,-3.8571954,13.392286,7.807327,-20.47916,-1.1049393,-23.589512,-23.635448,-8.040453,64.80378,-24.591354,-4.2570214,-1.4104486,-4.2420273,14.618571,2.4603002,21.841293,-33.588444,34.657642,8.258173,5.3683295,1.1249595,-1.706936,-17.333168,31.777487,49.2309,1.8294793,1.3698912,-5.613521
63,5.4228363037109375,-10.953788757324219,74.46267700195312,3.6975194505337043,7.72680882901761,-91.02186202557931,6.7262106,-3.8360631,13.397097,7.7921953,-20.574257,-1.2187177,-24.757235,-22.569279,-6.90177,65.70995,-24.705425,-3.3885643,-1.5865982,-4.3494644,14.640725,2.5808814,22.059689,-33.300053,33.574482,8.406704,5.7005887,0.95056003,-1.3501983,-17.284765,31.483315,48.649975,2.597077,1.3358436,-6.00247
64,5.41109037399292,-11.354290962219238,74.40464782714844,3.668945711654042,7.916021101904268,-91.01871516273471,6.875876,-3.7870374,13.408882,7.780981,-20.637438,-1.3356918,-25.867605,-21.54196,-5.970426,66.41661,-24.718714,-2.5506268,-1.7745581,-4.4425664,14.66763,2.6743085,22.294205,-33.039284,32.481228,8.574396,6.0075555,0.83242494,-0.98605186,-17.22956,31.172903,48.05386,3.172832,1.3034742,-6.3375354
65,5.409625053405762,-11.753138542175293,74.35842895507812,3.6110187412879897,8.108694062347528,-91.02032843072551,7.025728,-3.7044003,13.42174,7.7719617,-20.66847,-1.4551134,-26.922901,-20.554462,-5.2499437,66.890045,-24.55915,-1.7132375,-1.9757034,-4.5146146,14.70263,2.7258177,22.53989,-32.81791,31.400146,8.729377,6.2616353,0.7958644,-0.6095862,-17.172127,30.841867,47.44186,3.5143728,1.2717408,-6.5925884
66,5.393398761749268,-12.183003425598145,74.3155746459961,3.5292079627907045,8.306388269204092,-91.02678787974752,7.1779017,-3.5922353,13.435864,7.761322,-20.67059,-1.5789564,-27.932076,-19.531105,-4.626164,67.11679,-24.282206,-0.76297826,-2.1906998,-4.5688653,14.7403755,2.737146,22.794647,-32.63465,30.322367,8.868438,6.4859114,0.8181614,-0.21670946,-17.113564,30.489502,46.807636,3.701544,1.23555,-6.8036966
67,5.358114719390869,-12.627945899963379,74.28630828857422,3.434378387264349,8.501922920382093,-91.04908492562184,7.3430986,-3.4631739,13.463675,7.7510033,-20.638285,-1.7080766,-28.904202,-18.559296,-4.1350827,67.16758,-23.985632,0.12613548,-2.4136417,-4.6135983,14.778143,2.7266622,23.055065,-32.46838,29.220882,9.065777,6.724668,0.860983,0.19556358,-17.054419,30.121218,46.13805,3.7685452,1.2103307,-7.001562
68,5.336887836456299,-13.083803176879883,74.25523376464844,3.337785739313864,8.688573700070911,-91.09833233132143,7.5337853,-3.3307686,13.517634,7.7395353,-20.564508,-1.8431833,-29.848621,-17.728098,-3.8142323,67.11235,-23.758068,0.7781601,-2.6394699,-4.6580257,14.8127365,2.7135632,23.317574,-32.29634,28.06935,9.396879,7.0221066,0.88466763,0.62596047,-16.995695,29.744652,45.423958,3.7517872,1.2107812,-7.2173915
69,5.3055644035339355,-13.55258846282959,74.2306137084961,3.243084777840704,8.864213915795723,-91.18798139049358,7.755138,-3.2007687,13.611601,7.724403,-20.452482,-1.9856395,-30.782206,-17.069597,-3.6854334,66.96552,-23.606098,1.1202953,-2.8653965,-4.7071986,14.846333,2.6980953,23.580065,-32.120884,26.864183,9.920344,7.409615,0.88652235,1.0733501,-16.935427,29.351562,44.669483,3.6311085,1.2459297,-7.464066
70,5.264616012573242,-14.027647972106934,74.21669006347656,3.144710457706061,9.032606493695363,-91.30880075451348,8.000212,-3.0664961,13.735241,7.7068915,-20.303982,-2.1345332,-31.697403,-16.536926,-3.7203667,66.686966,-23.475393,1.2492715,-3.0947843,-4.755745,14.878525,2.669817,23.841984,-31.951672,25.621914,10.584534,7.8569303,0.88178176,1.5366846,-16.873343,28.941532,43.879402,3.3975651,1.3076082,-7.7236757
71,5.231191158294678,-14.528473854064941,74.20510864257812,3.0376345330383354,9.195087733350455,-91.43731554389463,8.263574,-2.9203618,13.864596,7.689626,-20.109404,-2.2878587,-32.56726,-16.098223,-3.885236,66.269104,-23.36372,1.2439326,-3.3330567,-4.7945023,14.903606,2.635187,24.102093,-31.774431,24.341372,11.300295,8.315288,0.8576679,2.0194488,-16.81445,28.533278,43.0392,3.1039925,1.3841697,-7.981068
72,5.190743446350098,-15.046818733215332,74.19898223876953,2.9175910760577937,9.353171223885044,-91.55037433309653,8.539691,-2.755279,13.975784,7.6736627,-19.857378,-2.4433675,-33.36439,-15.721032,-4.1458287,65.7038,-23.270151,1.1840111,-3.5872567,-4.8145103,14.916828,2.600114,24.35906,-31.573486,23.022959,11.977244,8.734652,0.8038518,2.527631,-16.767593,28.146898,42.129753,2.8028622,1.46387,-8.220925
73,5.146021842956543,-15.574548721313477,74.2085189819336,2.779619740920658,9.50756087312095,-91.64554575333743,8.826842,-2.564743,14.065539,7.6622186,-19.555113,-2.608111,-34.08712,-15.423263,-4.533138,64.98939,-23.218636,1.0403745,-3.8553748,-4.808413,14.920593,2.5584848,24.610168,-31.335608,21.653074,12.614612,9.128938,0.688612,3.074837,-16.739626,27.77561,41.127556,2.4903207,1.560784,-8.431674
74,5.102834701538086,-16.131423950195312,74.21961212158203,2.6265854070569716,9.65734667773147,-91.73463879612761,9.131811,-2.3548012,14.145587,7.646206,-19.201427,-2.7805216,-34.74289,-15.205957,-5.0557137,64.12651,-23.202309,0.79122967,-4.135072,-4.7803354,14.9183445,2.50815,24.854416,-31.071318,20.23823,13.253587,9.513,0.5275031,3.6618354,-16.732615,27.41245,40.036755,2.1455498,1.6764331,-8.622777
75,5.053770065307617,-16.700050354003906,74.248291015625,2.466244843542846,9.80135087286674,-91.81526928490318,9.44949,-2.1322367,14.2157955,7.6357026,-18.78675,-2.9465363,-35.32209,-15.012113,-5.644118,63.11469,-23.175112,0.5266281,-4.4325147,-4.737022,14.906062,2.4674296,25.094624,-30.798544,18.794855,13.868054,9.844991,0.38273627,4.2743616,-16.747702,27.07796,38.880337,1.7979108,1.7798764,-8.810361
76,5.003117561340332,-17.27625846862793,74.2762451171875,2.3058025805727644,9.938486506882414,-91.88481124864856,9.780879,-1.905322,14.275287,7.6277347,-18.29491,-3.0919232,-35.817215,-14.787106,-6.2271647,61.952873,-23.088161,0.33349928,-4.755801,-4.6848965,14.880777,2.456614,25.336065,-30.532623,17.33704,14.429708,10.083372,0.31763738,4.8970594,-16.783714,26.794352,37.680283,1.4777732,1.8399211,-9.011379
77,4.94093656539917,-17.87728500366211,74.31546783447266,2.1402703836193773,10.073023145862456,-91.94678395996814,10.120612,-1.669067,14.332602,7.627225,-17.728876,-3.207195,-36.229485,-14.560968,-6.8490148,60.62951,-22.942772,0.18567468,-5.1078234,-4.621386,14.840931,2.4745336,25.580536,-30.26782,15.8562355,14.970993,10.213019,0.33333346,5.5282145,-16.841097,26.571732,36.43507,1.2092581,1.8267161,-9.245463
78,4.885631084442139,-18.500728607177734,74.36178588867188,1.9660027214766398,10.204141287875466,-92.00103965508112,10.331086,-1.381938,14.388792,7.9382315,-17.255495,-3.3037539,-36.55821,-14.340948,-7.5308814,59.143677,-22.75772,0.05616136,-5.4852114,-4.5432153,14.789846,2.5149977,25.828476,-29.99673,14.34438,15.491186,10.25915,0.4036853,6.1747556,-16.920853,26.39733,35.134537,0.97062886,1.7640337,-9.49895
79,4.816892147064209,-19.14720344543457,74.42169952392578,1.7935791955399367,10.322868894535112,-92.0389827635484,10.411307,-1.0504321,14.425113,8.575644,-16.876028,-3.3965626,-36.8004,-14.048221,-8.158786,57.51457,-22.509151,0.023272073,-5.8868837,-4.4571304,14.732649,2.5957947,26.084461,-29.730804,12.809652,15.912999,10.241647,0.55199903,6.834959,-17.019602,26.257185,33.78591,0.72229755,1.7010107,-9.739093
80,4.735110282897949,-19.819480895996094,74.48603057861328,1.6337379388360096,10.42039388690961,-92.05155963385111,10.490605,-0.71708727,14.420873,9.268337,-16.441973,-3.4989567,-36.957134,-13.613179,-8.611958,55.761253,-22.172834,0.15836747,-6.3113523,-4.372311,14.673768,2.734675,26.356419,-29.481922,11.259007,16.157936,10.18089,0.8009862,7.5021777,-17.132505,26.137693,32.402447,0.42469642,1.6865237,-9.933294
81,4.655794620513916,-20.500957489013672,74.5569839477539,1.4861933749261906,10.49779465295195,-92.02664977529622,10.570516,-0.37756023,14.370503,10.005376,-15.943853,-3.6225166,-37.02937,-13.029334,-8.861602,53.85784,-21.718843,0.4663799,-6.770795,-4.291351,14.613655,2.9395206,26.650494,-29.246134,9.674676,16.205347,10.080465,1.1802218,8.174204,-17.256495,26.050688,30.977167,0.08065252,1.7401772,-10.099811
82,4.567483425140381,-21.209081649780273,74.62645721435547,1.34451666743031,10.559098513289582,-91.97052810232998,10.641819,-0.025874168,14.281222,10.801697,-15.393332,-3.7568574,-37.015972,-12.343082,-8.961132,51.797367,-21.169872,0.90156144,-7.2640867,-4.210089,14.551912,3.2068532,26.969414,-29.014727,8.048521,16.095154,9.929506,1.6699035,8.851796,-17.39088,25.998638,29.508749,-0.29368865,1.8333457,-10.246802
83,4.4744415283203125,-21.953601837158203,74.7012939453125,1.2122650001846507,10.599276419733897,-91.90116451244852,10.705114,0.3276756,14.154381,11.670936,-14.800001,-3.8841755,-36.915657,-11.571295,-8.908183,49.630188,-20.578371,1.4551584,-7.76932,-4.128567,14.49225,3.5433218,27.315592,-28.79169,6.397431,15.843002,9.725743,2.2179391,9.536659,-17.533949,25.950878,28.013905,-0.72057337,1.9426335,-10.326052
84,4.378694534301758,-22.71097183227539,74.77135467529297,1.091553519101101,10.613517553652539,-91.83633755755267,10.76913,0.6717211,13.9918995,12.609913,-14.170864,-3.9872313,-36.723156,-10.728718,-8.704344,47.400208,-19.998049,2.118612,-8.26307,-4.0449214,14.438339,3.9517727,27.69107,-28.584562,4.740885,15.463194,9.466705,2.7725422,10.232229,-17.682356,25.87471,26.508106,-1.2224143,2.0436084,-10.289216
85,4.274231910705566,-23.486787796020508,74.8369369506836,0.9845121111417419,10.600327855963723,-91.77645174807205,10.836306,1.0025265,13.78023,13.615288,-13.500221,-4.052132,-36.42491,-9.7747135,-8.275677,45.035313,-19.426271,2.9464664,-8.752703,-3.9628854,14.387065,4.447895,28.099495,-28.389599,3.0628493,14.960708,9.146338,3.3525066,10.938322,-17.834948,25.753756,24.979975,-1.8584925,2.1364114,-10.090064
86,4.170737266540527,-24.28331184387207,74.88882446289062,0.8895946007095875,10.56192157941277,-91.71035055449069,10.906568,1.3242395,13.521075,14.6782255,-12.781524,-4.0925474,-36.015198,-8.738878,-7.6366634,42.529007,-18.851099,3.9058857,-9.24826,-3.882584,14.340227,5.030847,28.542845,-28.20097,1.3525623,14.328893,8.763674,3.9726043,11.654457,-17.991205,25.605898,23.42336,-2.600076,2.2279556,-9.7645
87,4.061490535736084,-25.102081298828125,74.93670654296875,0.8038911161381374,10.498721873799184,-91.63961084581899,10.971419,1.6420578,13.240346,15.815623,-12.026883,-4.1313167,-35.508266,-7.728076,-6.9282455,40.030758,-18.303898,4.8685975,-9.728407,-3.7988877,14.306428,5.6729465,29.019115,-28.025898,-0.35421973,13.563652,8.325844,4.5744357,12.380963,-18.149914,25.447618,21.868073,-3.3398151,2.3045166,-9.3884535
88,3.9547815322875977,-25.943952560424805,74.97406768798828,0.7228549356759634,10.411913700126096,-91.56750048768151,11.024008,1.9632396,12.964582,17.039612,-11.245408,-4.188637,-34.928894,-6.828774,-6.3001175,37.697395,-17.805616,5.7212925,-10.168897,-3.7041357,14.292414,6.3413906,29.522596,-27.875698,-2.0147173,12.660694,7.8405805,5.1002955,13.118297,-18.308462,25.295017,20.346292,-3.969736,2.355247,-9.038977
89,3.8408496379852295,-26.803939819335938,75.00336456298828,0.6597566639482506,10.297255437262892,-91.48809038141742,11.085058,2.276451,12.693392,18.31871,-10.429457,-4.25247,-34.228832,-6.0341096,-5.7621527,35.37991,-17.336885,6.6028895,-10.57266,-3.6102316,14.29574,7.031776,30.050314,-27.761873,-3.6102726,11.532112,7.2764735,5.5612516,13.876724,-18.464897,25.156189,18.853,-4.465755,2.3852108,-8.743869
90,3.724761724472046,-27.685821533203125,75.01753997802734,0.6162552342428657,10.154930091271215,-91.40173745688408,11.155164,2.5797417,12.414638,19.648138,-9.571975,-4.3114715,-33.41398,-5.303866,-5.2456098,33.0545,-16.88908,7.523634,-10.948586,-3.5205467,14.312384,7.7553124,30.601725,-27.67674,-5.1575074,10.211649,6.638211,5.973026,14.651472,-18.618685,25.019802,17.378897,-4.8846025,2.3987586,-8.461163
91,3.6063082218170166,-28.574350357055664,75.01656341552734,0.5616916434930014,9.996737100968527,-91.32605089965962,11.183992,2.9077094,12.13885,21.101551,-8.694153,-4.387278,-32.61611,-4.641041,-4.79526,31.100933,-16.49798,8.197123,-11.27627,-3.4052784,14.344527,8.500294,31.172237,-27.604977,-6.6633525,8.87588,5.9929824,6.2889028,15.416081,-18.769339,24.873608,15.95424,-5.237334,2.3853793,-8.163056
92,3.483739137649536,-29.48589324951172,75.00186157226562,0.4550792291404454,9.838445759363557,-91.2825550446426,11.117369,3.3048272,11.878005,22.756567,-7.819837,-4.505277,-31.98216,-4.0275273,-4.4649878,29.92148,-16.20175,8.345254,-11.531896,-3.2229905,14.392713,9.250551,31.75331,-27.53348,-8.129389,7.699064,5.4118876,6.4682794,16.141632,-18.91604,24.706547,14.613331,-5.534411,2.3340285,-7.8220124
93,3.3617517948150635,-30.403810501098633,74.98095703125,0.25576203977120887,9.695556331374707,-91.29267062639155,10.940881,3.8175979,11.665887,24.626955,-6.9646115,-4.661565,-31.635525,-3.4262166,-4.303239,29.797531,-15.915209,7.7176943,-11.697899,-2.9269934,14.447971,9.988265,32.339596,-27.477493,-9.53644,6.685747,4.907443,6.4814844,16.829346,-19.059036,24.512629,13.368671,-5.7518864,2.2205787,-7.408162
94,3.2353322505950928,-31.327375411987305,74.94068145751953,-0.011964611696125211,9.556978616053748,-91.3423774563915,10.687531,4.4212203,11.482081,26.665628,-6.108417,-4.843269,-31.482494,-2.8372066,-4.29264,30.474325,-15.649831,6.5330267,-11.786475,-2.5411596,14.510924,10.713637,32.928238,-27.445032,-10.87521,5.7546444,4.450204,6.3597994,17.489573,-19.198193,24.297873,12.206489,-5.8920374,2.058624,-6.9443116
95,3.0999507904052734,-32.254032135009766,74.87915802001953,-0.29222767538736716,9.398678165417357,-91.40089001210768,10.375747,5.0495276,11.258271,28.85432,-5.2186294,-5.066771,-31.345245,-2.2961879,-4.3765354,31.556452,-15.596217,5.2138615,-11.818942,-2.1301613,14.5945015,11.437983,33.512596,-27.411867,-12.161296,4.951493,4.0482287,6.1587486,18.104155,-19.331837,24.072697,11.1267605,-6.0042515,1.8930153,-6.481637
96,2.9565134048461914,-33.20492935180664,74.77033996582031,-0.530530377218157,9.199444836934457,-91.44036778126187,10.017338,5.6337814,10.930894,31.185457,-4.270329,-5.3536263,-31.049393,-1.8333725,-4.472065,32.657787,-15.952032,4.183792,-11.816187,-1.758193,14.709303,12.17587,34.08374,-27.3499,-13.410819,4.324376,3.7070773,5.933861,18.651669,-19.457611,23.850348,10.132996,-6.1394825,1.768094,-6.071654
97,2.812173843383789,-34.16466522216797,74.6224136352539,-0.7089351652946422,8.952939809712655,-91.45390455530229,9.636994,6.1619573,10.492927,33.66338,-3.2722905,-5.7664895,-30.514856,-1.4869087,-4.5489078,33.74012,-16.887903,3.6237836,-11.7830515,-1.438529,14.837129,12.917414,34.64319,-27.279661,-14.621097,3.8906083,3.4496257,5.6983247,19.156658,-19.57241,23.628944,9.229569,-6.3233485,1.692594,-5.7120543
98,2.663520336151123,-35.13806915283203,74.44636535644531,-0.8525100535128063,8.669548186193579,-91.45722349390928,9.22121,6.6524086,9.972654,36.296013,-2.2393975,-6.284646,-29.839602,-1.2549977,-4.626899,34.988216,-18.264914,3.290936,-11.707385,-1.144087,14.976089,13.654615,35.191128,-27.209694,-15.779202,3.6238096,3.2649899,5.425965,19.616383,-19.675022,23.405376,8.421024,-6.526304,1.6437281,-5.3808804
99,2.499713182449341,-36.106258392333984,74.2579345703125,-0.9751761231903499,8.355910628491815,-91.45895594928281,8.711393,7.088743,9.363807,39.107037,-1.1598352,-6.803552,-29.128767,-1.0882231,-4.6946516,36.365696,-19.819834,2.9741497,-11.585384,-0.8734313,15.158632,14.403929,35.7109,-27.092785,-16.87945,3.5081444,3.1057422,5.112069,19.966791,-19.767103,23.196552,7.71348,-6.716274,1.6183146,-5.100535
100,2.3422653675079346,-37.0628547668457,74.05333709716797,-1.090353139918413,8.018003267686375,-91.4664680033414,8.051837,7.4606767,8.661382,42.11589,-0.015295727,-7.2095222,-28.485552,-0.91469634,-4.7477484,37.83187,-21.292027,2.4529564,-11.41912,-0.6234547,15.415905,15.178926,36.174618,-26.87959,-17.907938,3.5297992,2.9240656,4.7495294,20.139803,-19.853527,23.024595,7.1168084,-6.860095,1.6141676,-4.894477
101,2.1798391342163086,-38.00667953491211,73.83293151855469,-1.1828482749370302,7.639396594442412,-91.48296373262242,7.216717,7.7268534,7.798787,45.407646,1.3108174,-7.465655,-27.969437,-0.70441824,-4.775348,39.483814,-22.64115,1.5503303,-11.209368,-0.4059077,15.764239,15.967049,36.5644,-26.556923,-18.864368,3.8135207,2.7046916,4.2738647,20.13356,-19.93543,22.884754,6.627003,-6.9449825,1.6310083,-4.767561
102,2.042189836502075,-38.944244384765625,73.5870132446289,-1.2496608220169236,7.221209450868084,-91.50307635452339,6.2427044,7.903244,6.8046446,48.9487,2.772437,-7.626265,-27.507708,-0.48628595,-4.7813935,41.293106,-23.991419,0.4183936,-10.961003,-0.21515438,16.180664,16.750103,36.87348,-26.15936,-19.730007,4.3282895,2.469235,3.7082162,19.975502,-20.014166,22.774351,6.2471447,-6.9897075,1.6714083,-4.709047
103,1.916463851928711,-39.87458801269531,73.32757568359375,-1.3263614460446527,6.798066412003757,-91.52128976133847,5.160937,8.080307,5.8165174,52.593487,4.1389785,-7.7043204,-27.009243,-0.2582513,-4.795952,43.033375,-25.327602,-0.67350316,-10.680478,-0.017630886,16.636139,17.527296,37.086052,-25.71483,-20.453709,4.8300447,2.227326,3.1762366,19.645634,-20.099731,22.714413,5.9948597,-7.0084267,1.7372804,-4.718751
104,1.7967203855514526,-40.799312591552734,73.0549545288086,-1.4540395439367404,6.405929005915201,-91.53190377765137,3.992256,8.36055,4.9653926,56.211575,5.170631,-7.7126193,-26.390902,-0.019156063,-4.8576293,44.49249,-26.639313,-1.4537821,-10.377117,0.22878243,17.100666,18.297464,37.18014,-25.249636,-20.985348,5.078328,1.9964417,2.7975636,19.125174,-20.208698,22.727457,5.88394,-7.01437,1.8311352,-4.797212
105,1.6922632455825806,-41.713069915771484,72.7728042602539,-1.6709458678674034,6.02298093074944,-91.53186154217333,2.7415318,8.806669,4.26745,59.879276,5.9176908,-7.661253,-25.60556,0.2572186,-5.015643,45.635513,-27.955366,-1.8093277,-10.059461,0.563389,17.612005,19.07619,37.126785,-24.74014,-21.347427,4.973973,1.764698,2.5786905,18.410233,-20.3558,22.806257,5.894636,-6.994759,1.9630027,-4.943737
106,1.599561095237732,-42.62074279785156,72.48847961425781,-1.9503914565536058,5.642158543658828,-91.52526218026091,1.3915516,9.373695,3.6533415,63.642765,6.459238,-7.5244417,-24.713154,0.56970435,-5.249343,46.576645,-29.268919,-1.897568,-9.72797,0.97034335,18.166271,19.833937,36.9132,-24.196243,-21.525717,4.6653395,1.530848,2.456953,17.51667,-20.545876,22.944365,6.01403,-6.942278,2.129488,-5.1605844
107,1.514305591583252,-43.51032638549805,72.22154998779297,-2.2394089691722687,5.321945773708379,-91.5188244514716,-0.07830485,9.998733,3.121563,67.34123,6.5950837,-7.272711,-23.799633,0.8773708,-5.496857,47.339306,-30.520815,-1.8525717,-9.375279,1.4095643,18.67138,20.503881,36.55032,-23.69501,-21.42101,4.283505,1.3294569,2.4484925,16.457056,-20.776312,23.163824,6.2629337,-6.8785634,2.3125215,-5.4519534
108,1.43380868434906,-44.415958404541016,71.97502136230469,-2.482336067290886,5.120873265707104,-91.51853569987514,-1.6850594,10.601821,2.6704037,70.80938,6.1267433,-6.8933773,-22.94833,1.1375805,-5.6956573,47.945995,-31.653543,-1.8093278,-8.9888525,1.8342494,19.037905,21.02863,36.06586,-23.309866,-20.94984,3.9553607,1.1968852,2.5731204,15.2444315,-21.037643,23.482323,6.6622696,-6.8272395,2.4937415,-5.820775
109,1.3541898727416992,-45.324859619140625,71.7646484375,-2.672347038844049,5.083059541057997,-91.52211285671224,-3.4725165,11.146706,2.281284,74.070244,4.7758718,-6.3636847,-22.209187,1.3455019,-5.8451195,48.39818,-32.654144,-1.7845414,-8.551968,2.2322364,19.227766,21.379116,35.469772,-23.069233,-20.025282,3.531962,1.0410897,2.8906217,13.838512,-21.323572,23.92312,7.281584,-6.761662,2.679978,-6.298404
110,1.2829375267028809,-46.23424530029297,71.59141540527344,-2.832877076881854,5.168516770869047,-91.52749747278779,-5.419424,11.651201,1.9469632,77.19946,2.7189178,-5.7251987,-21.53243,1.5221004,-5.9806066,48.689117,-33.55551,-1.716006,-8.068476,2.6204746,19.296392,21.59864,34.76279,-22.927992,-18.731268,3.0048313,0.87363213,3.372156,12.251269,-21.62684,24.461618,8.073514,-6.680211,2.876418,-6.873656
111,1.2264457941055298,-47.163818359375,71.44120025634766,-2.9512189406386926,5.308934607380893,-91.53789247676501,-7.4400077,12.114985,1.6898531,80.096504,0.44782934,-5.063681,-20.842237,1.6596541,-6.0916224,48.822186,-34.368023,-1.6201785,-7.5574827,2.989437,19.298,21.749786,33.973057,-22.84233,-17.251055,2.7039366,0.8888105,3.9126117,10.568766,-21.932623,25.047228,8.893854,-6.6445556,3.0625412,-7.482933
112,1.160603404045105,-48.09150695800781,71.32221221923828,-3.0162859473104597,5.4353636992228,-91.55632676615774,-9.448358,12.560669,1.5445435,82.65229,-1.5401286,-4.447026,-20.059355,1.7505833,-6.166196,48.79708,-35.101986,-1.5123448,-7.033079,3.3280516,19.28763,21.901554,33.14776,-22.769781,-15.779679,2.9492507,1.2887518,4.414459,8.8760195,-22.223701,25.628674,9.60886,-6.720734,3.218415,-8.0597
113,1.0970224142074585,-49.02429962158203,71.23129272460938,-3.0177970563868013,5.544314720935079,-91.58387507016845,-11.454925,13.015424,1.5430794,84.85161,-3.1366243,-3.885226,-19.177557,1.7802922,-6.197317,48.62098,-35.775875,-1.3878405,-6.4795847,3.6175003,19.26705,22.060793,32.31186,-22.70552,-14.289189,3.6561053,2.2662318,4.8906302,7.1339345,-22.491037,26.248768,10.282812,-6.990779,3.3498392,-8.618804
114,1.0416065454483032,-49.98594284057617,71.17832946777344,-2.9645740305264625,5.666867684942839,-91.61886047149547,-13.49159,13.471072,1.6686244,86.74258,-4.5921106,-3.3422906,-18.232124,1.7545292,-6.192944,48.293365,-36.38122,-1.2436551,-5.88715,3.8574064,19.217188,22.21833,31.473465,-22.66195,-12.737107,4.69038,3.6753924,5.3696737,5.314676,-22.728691,26.91319,10.958457,-7.4009895,3.4659665,-9.182063
115,0.9902793169021606,-50.95375061035156,71.16350555419922,-2.876896005814521,5.786681073970226,-91.66055164667343,-15.509264,13.911139,1.8889514,88.31391,-5.944615,-2.8065593,-17.204424,1.6970736,-6.1626687,47.799862,-36.883747,-1.095496,-5.2755804,4.0680914,19.160019,22.420065,30.664772,-22.628908,-11.298018,6.3009834,5.2184196,5.7726517,3.5207248,-22.924255,27.517786,11.483494,-7.815109,3.5493903,-9.691695
116,0.9343891143798828,-51.93644714355469,71.18083190917969,-2.77426408149844,5.887383973140371,-91.70828547826504,-17.457163,14.314519,2.1725175,89.54879,-7.2330856,-2.2690587,-16.077621,1.6305187,-6.1147556,47.12813,-37.249447,-0.95768297,-4.6588163,4.266489,19.115858,22.724966,29.938124,-22.59641,-10.163965,8.744425,6.6003523,6.024974,1.8576857,-23.06549,27.956245,11.711317,-8.100101,3.578243,-10.089242
117,0.8958826661109924,-52.917259216308594,71.23497009277344,-2.6623362168409757,5.959436470675562,-91.76901538624597,-19.3391,14.709302,2.543312,90.44801,-8.458762,-1.6950625,-14.834275,1.5581844,-6.044979,46.257977,-37.495243,-0.8305196,-4.030729,4.457497,19.102518,23.201187,29.340786,-22.577147,-9.465915,12.694933,7.9348745,6.107077,0.34182885,-23.140444,28.185862,11.578181,-8.249994,3.5241756,-10.347968
118,0.8709322810173035,-53.91083908081055,71.31790161132812,-2.5297720704010342,6.01277591673064,-91.84115737790219,-21.172724,15.096443,3.0156162,91.01477,-9.600851,-1.1048812,-13.487757,1.4646205,-5.9487247,45.205673,-37.6327,-0.70725423,-3.3703568,4.618233,19.10441,23.830252,28.89036,-22.575592,-9.115834,17.825817,9.308913,6.0011835,-1.0772964,-23.145626,28.263632,11.184241,-8.329156,3.4016607,-10.501561
119,0.8248161673545837,-54.93159484863281,71.433349609375,-2.370750304588313,6.060205565822053,-91.91106490882584,-22.927816,15.4115305,3.5453072,91.232254,-10.662804,-0.5730205,-12.065056,1.3445629,-5.83382,44.007656,-37.61768,-0.58827496,-2.677963,4.7256303,19.093904,24.551012,28.590593,-22.556093,-8.987075,22.871864,10.375046,5.722098,-2.3941038,-23.085257,28.238663,10.622735,-8.310078,3.251775,-10.583686
120,0.7768693566322327,-55.96455383300781,71.5825424194336,-2.179805450336178,6.114809693485404,-91.96482765145475,-24.576246,15.591241,4.089566,91.084595,-11.647098,-0.17223157,-10.593671,1.1937137,-5.7092447,42.6998,-37.404633,-0.471601,-1.9593413,4.759933,19.048458,25.302795,28.43728,-22.47449,-8.959704,26.543497,10.804139,5.3847694,-3.6070142,-22.971153,28.160479,9.981878,-8.162207,3.116642,-10.627889
121,0.7351810336112976,-57.02520751953125,71.76397705078125,-1.9551877661399066,6.178548409661696,-91.99898790847256,-26.123144,15.634853,4.6583166,90.55706,-12.579211,0.09153084,-9.039001,1.0164292,-5.572806,41.20955,-36.99732,-0.35928312,-1.2190796,4.7236457,18.967537,26.094437,28.444824,-22.308878,-9.042514,28.525433,10.349477,5.076762,-4.6998425,-22.804913,28.001606,9.225026,-7.855195,3.0087025,-10.611524
122,0.6994828581809998,-58.10187530517578,71.97465515136719,-1.7010186803409075,6.2445592524785045,-92.02078579584158,-27.57568,15.574381,5.275091,89.656586,-13.448149,0.25116932,-7.402009,0.81188357,-5.423117,39.547005,-36.415493,-0.24620262,-0.45670602,4.623324,18.867636,26.96834,28.620031,-22.072678,-9.310231,29.47722,9.249629,4.786874,-5.6853404,-22.58456,27.753176,8.32301,-7.407904,2.9065096,-10.529618
123,0.6504567861557007,-59.211082458496094,72.22013092041016,-1.4210510002474879,6.313390846940857,-92.03271511747992,-28.908894,15.398466,5.9166393,88.39781,-14.198626,0.2958194,-5.763155,0.57008255,-5.2709346,37.869156,-35.639194,-0.11934146,0.32455757,4.4489865,18.75094,27.910429,28.927488,-21.773434,-9.732062,29.585936,7.9274015,4.4892597,-6.5969048,-22.325893,27.490934,7.368091,-6.871173,2.8014562,-10.440206
124,0.6208990216255188,-60.346580505371094,72.49089813232422,-1.119918142398198,6.385634126242791,-92.03704859885262,-30.098791,15.096875,6.5573835,86.79513,-14.775855,0.21679208,-4.20219,0.283375,-5.126812,36.3315,-34.64665,0.032132212,1.1131054,4.2000895,18.618273,28.889652,29.301186,-21.421082,-10.250065,29.050371,6.80319,4.148922,-7.462936,-22.057116,27.29656,6.444781,-6.2915883,2.6860921,-10.400355
125,0.5830098390579224,-61.50650405883789,72.78323364257812,-0.7915741793068722,6.4552269242139975,-92.03967999749052,-31.137218,14.650828,7.1958346,84.82701,-15.148519,-0.008162851,-2.706259,-0.0560009,-4.9865246,34.924217,-33.410717,0.2241776,1.9063054,3.8811557,18.473404,29.872217,29.694544,-21.005718,-10.826435,27.63033,5.896562,3.7022188,-8.296772,-21.802824,27.19663,5.5621934,-5.6373982,2.5638294,-10.453382
126,0.556985080242157,-62.682395935058594,73.09394836425781,-0.43897239743593447,6.523184418739498,-92.03713618988643,-32.03433,14.079166,7.839549,82.488686,-15.353597,-0.3620555,-1.2490702,-0.43699434,-4.8464403,33.586647,-31.953655,0.4448374,2.694887,3.5111477,18.315184,30.851837,30.090319,-20.533302,-11.448748,25.336918,5.029049,3.1456082,-9.071832,-21.571505,27.156921,4.6645255,-4.8918967,2.4383502,-10.560278
127,0.5425000786781311,-63.872467041015625,73.42735290527344,-0.0795638787880446,6.600820734525282,-92.01772551441809,-32.792187,13.425026,8.47487,79.81453,-15.440523,-0.79554343,0.11235493,-0.83988374,-4.717398,32.398884,-30.322264,0.6607745,3.4578247,3.110538,18.134686,31.82913,30.460976,-20.041403,-12.086545,22.753725,4.3156543,2.56778,-9.760201,-21.371416,27.166094,3.749836,-4.128191,2.2992077,-10.652436
128,0.536738395690918,-65.07553100585938,73.76521301269531,0.2690802242335292,6.699153057034775,-91.96957974402775,-33.41442,12.729169,9.088879,76.8407,-15.456458,-1.2605493,1.3251078,-1.2459086,-4.6099358,31.439524,-28.563885,0.84010184,4.171347,2.700444,17.92088,32.79416,30.772074,-19.569654,-12.698798,20.469286,3.8512728,2.0824044,-10.33659,-21.210985,27.215132,2.8194094,-3.4213073,2.1379344,-10.661049
129,0.5345145463943481,-66.31598663330078,74.11214447021484,0.612853311334927,6.828901888366505,-91.9025556114951,-33.89691,12.005569,9.719316,73.52411,-15.392403,-1.7431947,2.3565445,-1.6650832,-4.5146375,30.757877,-26.653547,0.9640585,4.8444467,2.27812,17.66247,33.73834,30.991514,-19.126728,-13.262063,18.482008,3.704147,1.7320613,-10.810336,-21.103577,27.320847,1.8710384,-2.7560115,1.949843,-10.572216
130,0.540497362613678,-67.5678939819336,74.45854187011719,0.9556453197848221,6.980965169080612,-91.81751081022034,-34.233223,11.230044,10.352339,69.85277,-15.230894,-2.2667892,3.2453818,-2.0999131,-4.4297857,30.304813,-24.580538,1.0585182,5.4730735,1.8460574,17.367788,34.638645,31.10788,-18.703138,-13.76697,16.546448,3.7978761,1.4719383,-11.189507,-21.05759,27.490116,0.9002856,-2.1021657,1.7433769,-10.420354
131,0.5609312057495117,-68.85213470458984,74.80583190917969,1.2794139690076272,7.136228094679474,-91.69195143220713,-34.420124,10.387287,10.901806,65.89383,-14.996395,-2.8377113,4.0534816,-2.5202174,-4.374842,29.993456,-22.398987,1.1607265,6.0198684,1.4299593,17.054522,35.46393,31.127834,-18.311604,-14.198189,14.88125,3.9947546,1.2904073,-11.451079,-21.067593,27.695004,-0.0926989,-1.5075251,1.5302483,-10.209764
132,0.5812910795211792,-70.15991973876953,75.13944244384766,1.5645157557689644,7.275187308369885,-91.50309994249471,-34.455975,9.467849,11.279305,61.715633,-14.716031,-3.4574757,4.8343225,-2.8929727,-4.3676786,29.754255,-20.173277,1.3040644,6.4515,1.0548995,16.738087,36.19048,31.071123,-17.962982,-14.549107,13.702597,4.1587873,1.1675336,-11.572247,-21.119194,27.902567,-1.102867,-1.0248221,1.3209962,-9.9446945
133,0.6092334389686584,-71.473388671875,75.4555892944336,1.826982307085628,7.411008754608226,-91.22901578890773,-34.306095,8.426945,11.484148,57.142887,-14.360035,-4.170014,5.595466,-3.2358,-4.413387,29.539074,-17.841839,1.4988949,6.753608,0.701181,16.404335,36.83322,30.948753,-17.657196,-14.821083,13.059319,4.274893,1.1440547,-11.544121,-21.203264,28.105335,-2.1290555,-0.6931133,1.1077543,-9.620957
134,0.6516208648681641,-72.81925201416016,75.74571228027344,2.0616870693144738,7.545128212928185,-90.89223081991952,-33.960155,7.304134,11.541861,52.16537,-13.914004,-4.9456186,6.3139515,-3.5425375,-4.4935393,29.395945,-15.395312,1.7376333,6.9533505,0.37003395,16.04962,37.405315,30.76422,-17.386438,-15.028527,12.834884,4.404725,1.2146683,-11.386019,-21.319128,28.315384,-3.166027,-0.4788643,0.8874332,-9.237205
135,0.6841534972190857,-74.1756820678711,76.00289154052734,2.225962319823597,7.640335941428203,-90.53660760788065,-33.444344,6.2049828,11.412736,47.083607,-13.416926,-5.680096,7.0293655,-3.752508,-4.5922885,29.322485,-12.934593,2.0132606,7.0824256,0.106530696,15.707325,37.886314,30.533062,-17.147058,-15.190619,12.996735,4.530688,1.2845933,-11.112581,-21.461914,28.526848,-4.2065187,-0.32820976,0.67706203,-8.802645
136,0.7197087407112122,-75.53572845458984,76.22257232666016,2.274939192589315,7.662126899549847,-90.20395589445079,-32.809673,5.2341475,11.061074,42.246113,-12.922658,-6.278148,7.760219,-3.8079839,-4.6968536,29.350712,-10.573282,2.301004,7.1747446,-0.044626743,15.410139,38.2587,30.279009,-16.93578,-15.331913,13.509567,4.6355324,1.260641,-10.736333,-21.623812,28.72903,-5.2451653,-0.18668078,0.49384692,-8.326176
137,0.7430561184883118,-76.90740203857422,76.40495300292969,2.175450451503015,7.607609060931307,-89.89167274668168,-32.0373,4.3989725,10.41395,37.55435,-12.414779,-6.7012253,8.543068,-3.673086,-4.7939525,29.409372,-8.281536,2.5576544,7.2392597,-0.05693752,15.147888,38.527016,30.02009,-16.75316,-15.463368,14.554429,4.707041,1.1132549,-10.223298,-21.79839,28.89843,-6.3000817,-0.08082153,0.34804496,-7.7609787
138,0.7730603814125061,-78.2841796875,76.54711151123047,1.9493291954922836,7.491887410520972,-89.58554329288448,-31.101814,3.678618,9.507608,32.8835,-11.871653,-7.0003448,9.355623,-3.3855522,-4.8897853,29.512089,-6.0136385,2.7802467,7.270881,0.044811413,14.911981,38.708942,29.763077,-16.597958,-15.587696,16.079718,4.7539287,0.8948518,-9.574743,-21.984724,29.035692,-7.3700385,-0.027858587,0.22731315,-7.1174817
139,0.8055698275566101,-79.66639709472656,76.6410140991211,1.644682277204877,7.311950912757062,-89.30454110835166,-30.083212,3.1049936,8.4907055,28.59548,-11.363391,-7.226624,10.119935,-3.0153604,-5.005416,29.826454,-3.8631577,2.996949,7.2762623,0.21535261,14.733722,38.805573,29.51431,-16.4619,-15.714604,17.700254,4.79001,0.63622594,-8.856387,-22.184633,29.170015,-8.418504,0.036431942,0.11618326,-6.490121
140,0.8286515474319458,-81.03929138183594,76.68929290771484,1.3219534765566237,7.0701515875753715,-89.06138169446727,-29.092056,2.6710067,7.5225606,25.090048,-10.974569,-7.4482203,10.750069,-2.6454377,-5.166254,30.527058,-1.9299262,3.2439384,7.254906,0.3967108,14.639699,38.817993,29.278906,-16.336336,-15.852881,19.031046,4.8334394,0.36812747,-8.136957,-22.400536,29.332949,-9.406352,0.17784955,0.0003527496,-5.9740753
141,0.8628212213516235,-82.39729309082031,76.69068908691406,0.9755949216237811,6.772338762638993,-88.850689826816,-28.170532,2.380585,6.641347,22.460506,-10.80358,-7.7616253,11.227623,-2.2837265,-5.4115877,31.67078,-0.22458042,3.5450368,7.208531,0.5934708,14.624843,38.744644,29.057272,-16.220686,-16.01228,20.063152,4.895644,0.07178532,-7.413931,-22.636692,29.534666,-10.337873,0.42427897,-0.12257099,-5.603157
142,0.9011550545692444,-83.74211120605469,76.64279174804688,0.604249671356859,6.426430738867687,-88.65282053327726,-27.315048,2.1869018,5.7808185,20.568493,-10.810051,-8.126622,11.568769,-1.9473705,-5.727831,33.219505,1.2751876,3.8521903,7.1245613,0.80537146,14.672482,38.582714,28.849388,-16.119335,-16.183168,20.969618,4.964369,-0.26003233,-6.655533,-22.893106,29.755499,-11.23157,0.737609,-0.24548517,-5.324669
143,0.9397135972976685,-85.05941009521484,76.54055786132812,0.2901393551422469,6.044249103515606,-88.45247472175,-26.585823,1.9803499,4.941108,19.492826,-10.884575,-8.397606,11.736108,-1.7370619,-6.069622,35.193954,2.5118318,4.1172047,6.973368,0.9501684,14.786126,38.32928,28.660725,-16.031284,-16.342505,21.638954,5.0288377,-0.57827234,-5.8901997,-23.162493,29.985525,-12.065138,1.0823892,-0.36774907,-5.1038904
144,0.9695945382118225,-86.37744140625,76.38616943359375,0.11226601551767469,5.635924943998892,-88.23875760805875,-26.039816,1.6562471,4.116958,19.322989,-10.927643,-8.417263,11.704196,-1.729737,-6.3892555,37.58315,3.4423542,4.316013,6.7288218,0.9462217,14.969081,37.986736,28.499952,-15.95333,-16.472189,21.95784,5.080878,-0.8328682,-5.1495075,-23.430216,30.216093,-12.808915,1.4219658,-0.49105802,-4.906335
145,0.9871386289596558,-87.68743133544922,76.18130493164062,0.07801262917448683,5.181036994655523,-87.9978118251274,-25.70881,1.1631732,3.2079685,20.255487,-10.741422,-8.184702,11.487629,-1.915713,-6.721839,40.43564,4.1418138,4.4621015,6.3685045,0.77546114,15.234357,37.58283,28.372057,-15.8705435,-16.591558,21.816029,5.12387,-1.0201998,-4.4573703,-23.68614,30.47401,-13.446086,1.7763994,-0.62191397,-4.7418127
146,1.0212714672088623,-88.94752502441406,75.95613861083984,0.1379515173832472,4.6734395956396115,-87.74727350325792,-25.537569,0.55659455,2.2606885,22.162905,-10.420992,-7.781278,11.117518,-2.2445786,-7.067445,43.710846,4.6132946,4.575755,5.9179215,0.48530552,15.576621,37.118187,28.277517,-15.785522,-16.710314,21.297665,5.1651354,-1.1619217,-3.8029351,-23.92539,30.758932,-13.978307,2.1517546,-0.75854725,-4.6210327
147,1.0572882890701294,-90.18338012695312,75.67192840576172,0.2819810837981609,4.1435210467657315,-87.52707634136934,-25.448095,-0.095204964,1.483911,24.63965,-10.303806,-7.1616993,10.594325,-2.6990623,-7.3242736,47.256733,4.709873,4.669707,5.4272733,0.0963217,15.970148,36.553757,28.220047,-15.722613,-16.794342,20.580519,5.201758,-1.2452573,-3.1664317,-24.14034,31.02059,-14.401608,2.4910297,-0.88785803,-4.509812
148,1.076314926147461,-91.45005798339844,75.31094360351562,0.5189353857563284,3.631174024710443,-87.36815022797619,-25.395372,-0.71865624,1.068547,27.325169,-10.7558,-6.2501802,9.901439,-3.2725036,-7.39927,50.942158,4.2760315,4.767247,4.94285,-0.38784787,16.383091,35.842766,28.206837,-15.710113,-16.80498,19.840322,5.2298436,-1.2568204,-2.5249445,-24.321014,31.204,-14.716251,2.7385538,-0.9969909,-4.374411
149,1.0968027114868164,-92.6764144897461,74.92018127441406,0.8868739863290358,3.105661367325673,-87.25138372073452,-25.455439,-1.3084608,1.0849254,30.47315,-12.029148,-4.7804813,9.078178,-3.9810529,-7.290774,54.860836,3.113315,4.933822,4.4508505,-1.005988,16.845654,34.999992,28.248354,-15.741344,-16.78628,19.003809,5.247217,-1.1931835,-1.8857366,-24.464195,31.30863,-14.95342,2.8758187,-1.0671351,-4.185575
150,1.1199856996536255,-93.86565399169922,74.48995971679688,1.352595319039168,2.5542677590819776,-87.17711888267827,-25.593588,-1.8604937,1.3773369,34.110207,-13.871388,-2.8597648,8.13348,-4.7611737,-7.043038,59.037304,1.352981,5.1637435,3.9523153,-1.7333733,17.359632,34.042683,28.347834,-15.809912,-16.746403,18.012247,5.2551546,-1.0590801,-1.254796,-24.568707,31.354391,-15.102824,2.9333262,-1.1107585,-3.966787
151,1.1615430116653442,-95.04547882080078,74.03178405761719,1.8564208848978199,2.058742153329808,-87.18877486768359,-25.661839,-2.3429813,1.8032984,37.62903,-15.932078,-0.9597367,6.9750876,-5.5340075,-6.6369534,63.26544,-0.67886037,5.3771935,3.4984634,-2.503757,17.843945,32.91993,28.497677,-15.944821,-16.585745,17.064785,5.2531295,-0.85381913,-0.6063664,-24.62178,31.31817,-15.095402,2.9270115,-1.1622745,-3.7649498
152,1.226973056793213,-96.19355773925781,73.58793640136719,2.354609418450726,1.7073940171480586,-87.32484892072011,-25.54574,-2.7534976,2.2682106,40.478374,-17.869064,0.4394544,5.498578,-6.2494693,-6.0403943,67.33739,-2.645202,5.49171,3.131272,-3.2636683,18.214422,31.576878,28.683422,-16.175766,-16.198198,16.362751,5.242008,-0.5759844,0.07733148,-24.603485,31.180542,-14.850679,2.870803,-1.2560246,-3.6253147
153,1.2800699472427368,-97.34102630615234,73.1716537475586,2.902119694694895,1.5533200442981456,-87.61549539406494,-25.25618,-3.1412163,2.8562467,42.55801,-19.691824,1.1567825,3.5894098,-6.947308,-5.1435103,71.33058,-4.5715036,5.4720407,2.870572,-4.0669074,18.436762,29.956375,28.898027,-16.509182,-15.533591,15.836976,5.165592,-0.19980009,0.78615403,-24.489826,30.920692,-14.320593,2.8933463,-1.4439727,-3.4501305
154,1.3237202167510986,-98.49325561523438,72.78199768066406,3.5144510349129257,1.5493378203471788,-88.02617047617429,-24.87553,-3.5142863,3.6047547,44.202133,-21.56933,1.4619616,1.3254286,-7.6167097,-3.9857972,75.31336,-6.5930448,5.3794236,2.6784246,-4.933884,18.553278,28.108736,29.136686,-16.92201,-14.659637,15.4239855,5.0415683,0.26766503,1.4919446,-24.26939,30.56435,-13.52538,2.9420443,-1.6938237,-3.2479165
155,1.3368090391159058,-99.6431655883789,72.43904113769531,4.090676077868516,1.6325543310500417,-88.49656328132332,-24.406488,-3.8143437,4.382778,45.52591,-23.392801,1.5494945,-1.1211995,-8.161974,-2.7544417,79.065506,-8.531538,5.266868,2.498754,-5.763743,18.595695,26.143366,29.382376,-17.393301,-13.646487,15.3337145,4.9859767,0.7776801,2.1810243,-23.947454,30.17075,-12.486683,2.758523,-1.9123634,-3.226015
156,1.3502427339553833,-100.78813171386719,72.1481704711914,4.529999210376365,1.7358963910044793,-88.96957568808854,-23.841982,-3.9840074,5.054336,46.63091,-25.048868,1.6155335,-3.5856822,-8.521897,-1.6455951,82.36969,-10.209221,5.1724486,2.2741683,-6.4513316,18.59608,24.158283,29.61078,-17.907427,-12.550472,15.777204,5.119013,1.2782627,2.8437037,-23.542141,29.802576,-11.233535,2.0847287,-2.0047796,-3.5954635
157,1.3651243448257446,-101.9332504272461,71.91141510009766,4.793540570624814,1.8797557014608222,-89.47410239700133,-23.199965,-3.968601,5.6260056,47.51863,-26.526506,1.6727738,-6.1372447,-8.67967,-0.6568755,85.21115,-11.528739,5.0925837,2.0099666,-6.9377384,18.540031,22.049734,29.802374,-18.552176,-11.213682,16.826365,5.529835,1.8201798,3.4705696,-23.048544,29.46805,-9.613114,0.7955914,-1.8701087,-4.5775795
158,1.361893892288208,-103.10492706298828,71.72897338867188,4.9400638542710205,2.0851150717551907,-90.02592907447867,-22.475063,-3.818867,6.1726217,48.141644,-27.878628,1.6331701,-8.8358135,-8.684575,0.29142076,87.69734,-12.59076,4.9985976,1.7198948,-7.2882214,18.417088,19.802933,29.945723,-19.30375,-9.652145,18.3654,6.148581,2.3943279,4.067334,-22.4641,29.146963,-7.662746,-0.9474743,-1.5478653,-5.9961123
159,1.3784899711608887,-104.25891876220703,71.59354400634766,5.015697812553137,2.2822896526622154,-90.55034844742028,-21.619528,-3.6332288,6.6512103,48.51935,-29.083046,1.5417016,-11.507785,-8.605054,1.1170807,89.788734,-13.514114,4.8858223,1.3580014,-7.580169,18.265614,17.638033,30.035028,-19.986485,-8.164911,20.331867,6.8515778,2.850515,4.6540494,-21.829437,28.860115,-5.713273,-2.9710748,-1.1622899,-7.4777265
160,1.3834447860717773,-105.43608856201172,71.50267028808594,5.068527363465404,2.4025368215619354,-90.9721313626973,-20.587137,-3.5072923,7.0125256,48.670322,-30.117168,1.4415914,-13.980413,-8.519185,1.7430419,91.44448,-14.420805,4.751214,0.87450284,-7.885827,18.126953,15.774983,30.074284,-20.424183,-7.0499763,22.675716,7.5009246,3.0415888,5.2647977,-21.21493,28.627829,-4.1233377,-5.1059194,-0.8712324,-8.671423
161,1.3662474155426025,-106.62751007080078,71.44959259033203,5.10988621706824,2.396604711137407,-91.26475313001959,-19.32129,-3.4648848,7.2250504,48.589542,-30.994768,1.3280377,-16.20636,-8.440878,2.1596496,92.65054,-15.339325,4.5894775,0.2496461,-8.222321,18.049812,14.255307,30.064043,-20.556366,-6.3577266,25.866463,8.0997925,2.7955155,5.9612956,-20.677856,28.45616,-3.0362375,-7.739881,-0.70376104,-9.636955
162,1.3427045345306396,-107.83599853515625,71.44273376464844,5.1170275925570055,2.3097047412696248,-91.4698315485893,-17.860062,-3.4511857,7.319343,48.27026,-31.721832,1.184283,-18.283638,-8.356777,2.4055073,93.4297,-16.201706,4.399364,-0.49125168,-8.542671,18.010288,12.956641,30.007051,-20.486057,-5.936455,29.79096,8.663869,2.20862,6.755241,-20.23757,28.330132,-2.323367,-10.80399,-0.5727768,-10.526414
163,1.3204748630523682,-109.04763793945312,71.47856140136719,5.085878367003652,2.2167072852559433,-91.61478260345935,-16.301702,-3.439626,7.334179,47.732517,-32.26521,1.0326205,-20.25871,-8.305601,2.4824383,93.79551,-16.991264,4.187719,-1.3204243,-8.816277,17.941109,11.834359,29.921923,-20.299107,-5.7700043,33.506855,9.0943985,1.5760955,7.613516,-19.905304,28.222816,-1.9387115,-13.451547,-0.52416074,-11.14273
164,1.2975115776062012,-110.26443481445312,71.56379699707031,5.012270088919486,2.192275432291226,-91.72637156958167,-14.744097,-3.4045331,7.3081098,46.995365,-32.590504,0.8943596,-22.174217,-8.319816,2.3901281,93.76056,-17.692133,3.963405,-2.2112875,-9.011592,17.778631,10.864748,29.838762,-20.07142,-5.8667746,36.054268,9.350938,1.2214594,8.498644,-19.689707,28.105442,-1.8314394,-14.838935,-0.6365682,-11.291502
165,1.2876505851745605,-111.49635314941406,71.69621276855469,4.887754946311389,2.2681684750017777,-91.77214408724649,-13.2267885,-3.3428192,7.214592,46.053425,-32.71924,0.7791,-24.064596,-8.431762,2.0790677,93.3107,-18.323778,3.739022,-3.1968367,-9.117374,17.496296,10.096573,29.778685,-19.758276,-6.3300962,37.25034,9.389249,1.2104844,9.428811,-19.609896,27.943937,-2.115924,-14.448431,-1.0419835,-10.709945
166,1.2643406391143799,-112.76058197021484,71.87647247314453,4.715976127716761,2.400393049300371,-91.75026755139228,-11.694107,-3.2587602,7.04173,44.90499,-32.66337,0.6719055,-25.889042,-8.622097,1.5596592,92.44119,-18.890001,3.512266,-4.2677407,-9.145405,17.145927,9.534617,29.749653,-19.34256,-7.1526794,37.567127,9.268411,1.4036746,10.448066,-19.671274,27.745317,-2.8181558,-12.813727,-1.654397,-9.554156
167,1.2302162647247314,-114.05000305175781,72.10152435302734,4.509472987695199,2.550217233720758,-91.734430580524,-10.103052,-3.1408844,6.85144,43.576797,-32.371124,0.55672336,-27.57197,-8.842836,0.9164361,91.17272,-19.356674,3.2714484,-5.3377213,-9.096055,16.781158,9.107129,29.757982,-18.932276,-8.187,37.032505,9.127407,1.8160989,11.549939,-19.857948,27.54434,-3.7470822,-10.679558,-2.2402303,-8.268805
168,1.2057222127914429,-115.34945678710938,72.364501953125,4.281316878663154,2.67859303760466,-91.79878734709557,-8.4086075,-2.9820526,6.707184,42.092354,-31.792265,0.41802022,-29.039265,-9.037619,0.23158865,89.52694,-19.687983,3.005434,-6.310044,-8.977564,16.446146,8.729631,29.81136,-18.654055,-9.266861,35.67028,9.098696,2.4656336,12.702611,-20.123178,27.368385,-4.6650496,-8.819083,-2.6253018,-7.326292
169,1.1613246202468872,-116.67620849609375,72.67485046386719,4.0306448913218365,2.773535963544755,-91.96784558761459,-6.5485086,-2.782147,6.6127467,40.371433,-30.914248,0.24439728,-30.26568,-9.222537,-0.5374309,87.48282,-19.880396,2.7101703,-7.1653776,-8.794107,16.139435,8.389563,29.923027,-18.565815,-10.376296,33.16835,9.239133,3.4949577,13.877618,-20.440287,27.23825,-5.497212,-7.270146,-2.7860584,-6.83875
170,1.1151729822158813,-118.03321838378906,73.02554321289062,3.750545499976288,2.8557119415524266,-92.20200331203411,-4.5655065,-2.5438986,6.5398893,38.435352,-29.767487,0.044744723,-31.273222,-9.391542,-1.4345348,85.03073,-19.958916,2.4120429,-7.941529,-8.55025,15.840104,8.134752,30.099516,-18.595987,-11.594896,29.608114,9.409423,4.862921,15.076533,-20.800058,27.1255,-6.3329864,-5.69432,-2.8253558,-6.565006
171,1.0677263736724854,-119.42064666748047,73.41119384765625,3.4467871518843807,2.93425313062671,-92.47893124849716,-2.573445,-2.269195,6.505312,36.463528,-28.366234,-0.16381104,-32.071823,-9.458824,-2.3701499,82.20886,-19.925247,2.1388574,-8.638806,-8.258474,15.558426,7.976341,30.330332,-18.665369,-12.897261,25.608828,9.468713,6.3014483,16.291748,-21.179964,26.99729,-7.1624594,-4.3082614,-2.807631,-6.4653587
172,1.0080169439315796,-120.83818054199219,73.83102416992188,3.1271699993160746,3.018434893425234,-92.77639665052315,-0.6836889,-1.9631397,6.5254083,34.634647,-26.723757,-0.3626016,-32.677406,-9.352546,-3.2412634,79.04932,-19.780638,1.9067223,-9.260795,-7.9310412,15.29827,7.9138093,30.591568,-18.700361,-14.241212,21.799068,9.337508,7.5262184,17.504221,-21.547686,26.827707,-7.9560175,-3.3319929,-2.7948184,-6.496788
173,0.9402374029159546,-122.2634048461914,74.26497650146484,2.781626374008909,3.098818871898654,-93.11310594636521,1.1217407,-1.6156011,6.6271133,32.9461,-24.787666,-0.5324375,-33.081295,-9.064314,-4.048616,75.52376,-19.498077,1.657799,-9.795087,-7.562734,15.066056,7.93594,30.866426,-18.69594,-15.614444,18.080238,9.036568,8.508395,18.679499,-21.879011,26.624107,-8.654087,-2.9005811,-2.7934368,-6.688495
174,0.8639624118804932,-123.69866180419922,74.69954681396484,2.414253083774316,3.1722002188310325,-93.49443762391168,2.8852787,-1.2363791,6.7964773,31.331545,-22.576061,-0.68871206,-33.27426,-8.62569,-4.829414,71.61718,-19.086302,1.4049307,-10.247456,-7.1593957,14.847869,8.034735,31.154356,-18.686975,-17.013678,14.216952,8.607146,9.360601,19.803333,-22.166433,26.40992,-9.239235,-2.8808029,-2.7778826,-7.049555
175,0.7787767648696899,-125.14805603027344,75.13066101074219,2.056028652923933,3.258574325725145,-93.8777419461662,4.536336,-0.8611174,6.9839387,29.862835,-20.199596,-0.8651037,-33.28553,-8.046666,-5.517479,67.37709,-18.593884,1.2539848,-10.65121,-6.7482944,14.614741,8.21093,31.451998,-18.66244,-18.40514,10.629975,8.063439,10.011638,20.888186,-22.404692,26.184666,-9.745513,-3.0909274,-2.7573228,-7.5049396
176,0.6791271567344666,-126.59646606445312,75.56100463867188,1.7368051278307863,3.3792898895397534,-94.21870733696831,6.0079994,-0.5242045,7.1346326,28.600023,-17.760206,-1.0948222,-33.145874,-7.3503275,-6.0417924,62.837643,-18.060453,1.2981638,-11.042633,-6.353037,14.338363,8.469991,31.753958,-18.608,-19.760698,7.741463,7.437634,10.397469,21.946495,-22.591808,25.947554,-10.208444,-3.3493865,-2.7422209,-7.979902
177,0.5681049823760986,-128.0641632080078,75.97341918945312,1.441412004811108,3.562825861440724,-94.50515472787355,7.2491536,-0.20481767,7.2404227,27.562416,-15.199233,-1.3909498,-32.84436,-6.5237074,-6.382936,57.838688,-17.470644,1.5419555,-11.430949,-5.9514575,13.994588,8.813997,32.053104,-18.506031,-21.060133,5.599688,6.685125,10.445993,22.990463,-22.721178,25.700647,-10.62979,-3.6932948,-2.7316043,-8.505722
178,0.45489728450775146,-129.55563354492188,76.35726928710938,1.1676752849883947,3.7889400617272133,-94.7571147370511,8.317112,0.09602959,7.3145833,26.701279,-12.480661,-1.7440192,-32.35063,-5.596314,-6.5525794,52.36648,-16.79146,1.9149811,-11.800802,-5.545618,13.602031,9.234392,32.34704,-18.368858,-22.316357,3.9915793,5.8420515,10.212907,24.003136,-22.791464,25.446789,-10.983423,-4.1944275,-2.7161958,-9.104733
179,0.33283597230911255,-131.0568389892578,76.70368957519531,0.9638286058652483,4.007029822441506,-94.97665797190645,9.307318,0.31205913,7.330332,25.962803,-9.735634,-2.1527226,-31.676579,-4.666793,-6.5245976,46.681046,-16.033886,2.3923604,-12.153235,-5.1905384,13.198335,9.725462,32.638706,-18.225212,-23.56099,2.947362,5.0560403,9.846175,24.961792,-22.8125,25.184177,-11.27826,-4.7192135,-2.6996284,-9.690233
180,0.19996857643127441,-132.57748413085938,77.00896453857422,0.8774802718418432,4.166659489863183,-95.16599873726352,10.309437,0.3778196,7.2654085,25.298971,-7.0920796,-2.603094,-30.844606,-3.8332791,-6.2781334,41.056908,-15.217659,2.9516785,-12.488541,-4.9402328,12.822881,10.285581,32.934364,-18.102776,-24.83104,2.5038543,4.4651194,9.499849,25.851658,-22.801964,24.907034,-11.534097,-5.1322875,-2.690042,-10.1758175
181,0.058242958039045334,-134.1002655029297,77.27558898925781,0.9370609563718668,4.270205301165003,-95.29996122307305,11.344504,0.25921848,7.0561914,24.63603,-4.487604,-3.0694203,-29.789719,-3.1049225,-5.7321377,35.27154,-14.272412,3.6604438,-12.832977,-4.813986,12.463154,10.940742,33.240387,-17.997997,-26.160122,2.915235,4.111811,9.177346,26.716036,-22.770943,24.599241,-11.786878,-5.4172187,-2.6873646,-10.5504875
182,-0.06653334200382233,-135.62564086914062,77.49286651611328,1.1408760780441223,4.329778678680051,-95.37093988835352,12.3879175,-0.034509867,6.7152042,23.982386,-1.8592111,-3.5546288,-28.479536,-2.527707,-4.898184,29.200699,-13.186629,4.4702306,-13.191873,-4.810778,12.111014,11.69425,33.559055,-17.892464,-27.535057,4.0781436,3.9098644,8.823707,27.56343,-22.722925,24.264164,-12.04155,-5.6359253,-2.690056,-10.857102
183,-0.18840783834457397,-137.1655731201172,77.64612579345703,1.483864457766131,4.312035550552163,-95.40739899299122,13.459873,-0.494912,6.33788,23.404165,0.6743601,-4.074191,-27.030005,-2.2096624,-3.9292905,23.34173,-12.089217,5.2210374,-13.537683,-4.9452643,11.810717,12.511217,33.89013,-17.788982,-28.929688,5.4971924,3.806568,8.4999485,28.325481,-22.663929,23.929285,-12.2719345,-5.768999,-2.7069294,-11.0920315
184,-0.29233619570732117,-138.69659423828125,77.73714447021484,1.9291278983620044,4.196618153193508,-95.45209078510823,14.548536,-1.0737696,6.032561,23.01321,2.970022,-4.6431766,-25.625708,-2.1655416,-3.013172,18.296995,-11.144039,5.7909427,-13.829016,-5.1986885,11.601282,13.348787,34.23039,-17.696396,-30.305155,6.6774,3.7576733,8.266171,28.932093,-22.60319,23.619272,-12.44604,-5.798028,-2.7466722,-11.250792
185,-0.39731067419052124,-140.2166290283203,77.78145599365234,2.466782592905725,3.9899721023033528,-95.52599587555267,15.654672,-1.7468374,5.824935,22.824493,4.9831634,-5.2779737,-24.34917,-2.345916,-2.1556532,14.200444,-10.362644,6.208148,-14.056012,-5.5550823,11.4737625,14.210568,34.580795,-17.617441,-31.69199,7.6489305,3.8095326,8.1133175,29.37831,-22.544394,23.326189,-12.552557,-5.6516566,-2.836277,-11.305742
186,-0.5097043514251709,-141.72079467773438,77.77950286865234,3.0666240972945196,3.7199970319511384,-95.62666414026623,16.729631,-2.460208,5.6774487,22.87818,6.7550845,-5.9486613,-23.139938,-2.6610367,-1.3134935,10.761667,-9.667433,6.5463877,-14.220309,-5.9753246,11.406314,15.107783,34.940487,-17.550323,-33.088158,8.62319,3.9688008,8.014118,29.693836,-22.489933,23.040014,-12.605384,-5.3598437,-2.963637,-11.267509
187,-0.615214467048645,-143.20217895507812,77.74932861328125,3.6186718841197414,3.416302856428684,-95.781876108085,17.641844,-3.0775895,5.634284,23.37928,8.234502,-6.6129456,-22.009378,-2.9703362,-0.6079646,7.992576,-9.112423,6.765024,-14.279389,-6.3553944,11.414124,16.002134,35.294807,-17.502647,-34.411194,9.376318,4.1379924,8.007453,29.853144,-22.445393,22.787619,-12.60332,-5.0512857,-3.0793552,-11.191555
188,-0.7170628309249878,-144.66053771972656,77.67847442626953,4.028217004146517,3.1037031876367815,-96.01351595247988,18.278828,-3.4963753,5.7420173,24.48739,9.383955,-7.2388997,-21.620218,-3.1489887,-0.110053115,7.3126693,-9.494506,6.816858,-14.194987,-6.6043706,11.512328,16.846407,35.620285,-17.4866,-35.565746,9.68717,4.220284,8.133675,29.832312,-22.420198,22.594269,-12.544644,-4.856349,-3.1342256,-11.134325
189,-0.8139784336090088,-146.10208129882812,77.57196044921875,4.295524000363815,2.7818126914538928,-96.34308234771443,18.636135,-3.7451248,6.048296,26.232748,10.2395525,-7.880832,-21.266481,-3.1982002,0.00085262966,7.323904,-10.242149,6.679189,-13.945139,-6.7107377,11.700733,17.621399,35.899258,-17.521221,-36.532196,9.404298,4.186318,8.438226,29.624714,-22.425264,22.46362,-12.434761,-4.8240204,-3.1000898,-11.1083555
190,-0.9025939702987671,-147.53318786621094,77.4200210571289,4.446895109041516,2.4452177214600077,-96.76202734926973,18.761751,-3.834317,6.536547,28.540092,10.794814,-8.5336,-20.677414,-3.149333,-0.18301316,7.403896,-10.95335,6.3837233,-13.546961,-6.690745,11.969665,18.326601,36.124588,-17.610157,-37.328693,8.683966,4.084229,8.883729,29.245468,-22.465414,22.38152,-12.272429,-4.8780537,-3.007826,-11.086084
191,-0.9859446287155151,-148.95567321777344,77.22199249267578,4.439370437095589,2.1042151349399654,-97.23610665458739,18.643784,-3.6676736,7.147355,31.364363,10.970171,-9.092266,-20.37734,-2.9311953,-0.3630258,8.485761,-11.805178,5.9528775,-13.032672,-6.505268,12.318418,18.939587,36.277054,-17.745062,-37.911777,7.7727804,3.933834,9.3827095,28.699713,-22.534512,22.348162,-12.039079,-4.9640307,-2.8973055,-11.063457
192,-1.0576952695846558,-150.34335327148438,76.99463653564453,4.2377207038840545,1.7652980910397773,-97.725075846983,18.293686,-3.169798,7.811524,34.61784,10.705615,-9.460097,-20.65055,-2.4706762,-0.2740052,10.996569,-12.699472,5.4092503,-12.438067,-6.1293054,12.74694,19.453362,36.35484,-17.910088,-38.255817,6.911027,3.7612262,9.852468,27.993046,-22.617064,22.362997,-11.717878,-5.0294633,-2.8087764,-11.035063
193,-1.1468425989151,-151.68739318847656,76.77357482910156,3.8303604242722757,1.4138881007178041,-98.23543609977526,17.746971,-2.3394325,8.545577,38.320396,9.938273,-9.643012,-21.124704,-1.6823212,0.22057705,14.2081585,-12.812057,4.769335,-11.746894,-5.549897,13.275339,19.864986,36.38345,-18.119856,-38.381527,6.0101027,3.543353,10.343954,27.156582,-22.734324,22.414461,-11.348503,-5.0428677,-2.7588408,-10.992433
194,-1.2349671125411987,-153.04173278808594,76.48807525634766,3.3062965223397556,1.0197651025140098,-98.75094860817832,17.078762,-1.3100913,9.328472,42.389008,8.771034,-9.689972,-21.712244,-0.66796595,0.9107049,18.051327,-12.381079,4.078874,-10.98472,-4.8488603,13.895238,20.174686,36.33844,-18.37729,-38.283062,5.0030503,3.2733552,10.862209,26.179731,-22.872503,22.508366,-10.924547,-5.0467343,-2.7229493,-10.938656
195,-1.3299064636230469,-154.380859375,76.15635681152344,2.741631744997181,0.5842837040960724,-99.21300504406608,16.321922,-0.16740368,10.051196,46.629086,7.371635,-9.577028,-22.237919,0.4091947,1.5039986,22.020166,-11.886281,3.3763978,-10.23587,-4.1092997,14.576607,20.448286,36.220238,-18.621723,-37.991657,4.124842,3.0132143,11.298837,25.056437,-23.028368,22.667929,-10.448464,-5.063224,-2.6803188,-10.900254
196,-1.443585991859436,-155.69393920898438,75.78739166259766,2.1513552043242794,0.13222574106398502,-99.5836936109182,15.461053,1.0851356,10.622587,50.904747,5.876961,-9.283705,-22.587797,1.4033796,1.747834,25.694113,-11.868267,2.61143,-9.572191,-3.3505297,15.288659,20.761557,36.027534,-18.783768,-37.54662,3.604966,2.8299136,11.553544,23.773962,-23.215227,22.921286,-9.927952,-5.104373,-2.6108568,-10.906981
197,-1.5487216711044312,-157.000244140625,75.37129211425781,1.4418971824808586,-0.3484779708633999,-99.88060594383967,14.481526,2.5758538,11.016324,55.3525,4.181706,-8.76337,-22.850334,2.3584301,1.5504901,29.257734,-12.540326,1.6128386,-9.006178,-2.4818087,16.079464,21.164198,35.75253,-18.799166,-37.016552,3.5248601,2.7354186,11.573472,22.311176,-23.443274,23.272764,-9.392607,-5.154839,-2.500912,-10.923953
198,-1.6547971963882446,-158.27899169921875,74.94031524658203,0.6101007133168224,-0.8540549583589201,-100.1215964199116,13.388333,4.273832,11.262186,59.994392,2.2500782,-8.059497,-23.085066,3.3164735,1.0909681,32.894882,-13.63588,0.4128469,-8.516109,-1.4934143,16.943274,21.62049,35.390816,-18.703835,-36.37522,3.750668,2.6986609,11.42304,20.666002,-23.711628,23.721563,-8.83696,-5.204653,-2.3641121,-10.954748
199,-1.765384554862976,-159.5538787841797,74.50570678710938,-0.22195501235560927,-1.3235603487953254,-100.28050096225067,12.156063,5.994092,11.366221,64.57234,0.3074691,-7.275483,-23.195,4.154987,0.5395398,36.29683,-15.022896,-0.76800823,-8.10082,-0.49855494,17.768698,22.060041,34.94546,-18.59129,-35.498413,4.187412,2.7229385,11.179886,18.85764,-24.011635,24.28279,-8.215502,-5.275474,-2.221353,-11.084836
200,-1.867040753364563,-160.8411407470703,74.07747650146484,-0.9365410861833358,-1.6944821490900366,-100.33473139061712,10.7429285,7.5754094,11.349155,68.84622,-1.4304234,-6.4992433,-23.087492,4.789478,0.041010898,39.15188,-16.553112,-1.6875349,-7.7430463,0.38829494,18.448153,22.415419,34.425564,-18.556833,-34.267525,4.741121,2.8124855,10.921663,16.913977,-24.330011,24.965748,-7.4838867,-5.3922987,-2.093234,-11.397482
201,-1.9683589935302734,-162.1317596435547,73.66958618164062,-1.521252673956823,-1.9382074739940982,-100.26294006833089,9.081285,9.057191,11.214349,72.86509,-2.918009,-5.716095,-22.745243,5.213035,-0.42514852,41.39949,-18.34325,-2.2593582,-7.4343247,1.1461788,18.96262,22.680359,33.824314,-18.61399,-32.590286,5.4362893,2.9330778,10.633318,14.804581,-24.659424,25.795368,-6.5819864,-5.585232,-1.9763736,-11.9598875
202,-2.054495096206665,-163.40931701660156,73.30046844482422,-2.0454916107639143,-2.0854024568402916,-100.08969007007525,7.1851826,10.519793,10.944942,76.7443,-4.279537,-4.876018,-22.23827,5.5154247,-0.93341714,43.23184,-20.432076,-2.6212933,-7.1664295,1.8415674,19.369558,22.8838,33.137184,-18.719633,-30.548794,6.3090343,3.090318,10.282083,12.537559,-24.989693,26.749512,-5.566284,-5.8329134,-1.8600627,-12.711978
203,-2.132689952850342,-164.66558837890625,72.99376678466797,-2.5008534434677148,-2.162521488482526,-99.86148525016254,5.125101,11.864898,10.55008,80.347855,-5.5447125,-4.0156493,-21.600288,5.7507854,-1.4329388,44.706238,-22.54289,-2.8597617,-6.910364,2.4854002,19.678907,23.015602,32.390263,-18.886087,-28.27822,7.2831764,3.3510087,9.922934,10.20269,-25.298975,27.761322,-4.559999,-6.084954,-1.7551198,-13.543588
204,-2.2029924392700195,-165.93731689453125,72.74899291992188,-2.881668594510087,-2.198461365402133,-99.62523607403939,2.9722118,12.983895,10.053599,83.53705,-6.737802,-3.1855607,-20.860016,5.949937,-1.8569837,45.87864,-24.397947,-3.0498056,-6.624339,3.0843463,19.898909,23.059896,31.631075,-19.137934,-25.91893,8.2786875,3.7863545,9.619254,7.891999,-25.562614,28.753551,-3.6722429,-6.2982674,-1.6759808,-14.339922
205,-2.294602155685425,-167.21014404296875,72.55034637451172,-3.1821519460437253,-2.1764544468803146,-99.35675191008706,0.6578929,13.827281,9.414099,86.31379,-7.8241196,-2.3548539,-20.011665,6.0778737,-2.1953506,46.72655,-25.957697,-3.1795828,-6.2976184,3.627977,20.003244,22.935701,30.888136,-19.529686,-23.316553,9.326919,4.505702,9.359042,5.5721555,-25.765461,29.75788,-2.8349068,-6.4472957,-1.6210947,-15.143645
206,-2.395564079284668,-168.5228271484375,72.40744018554688,-3.407328659893965,-2.088938821740648,-99.04356975378367,-1.8381692,14.441215,8.655497,88.743774,-8.788675,-1.5185732,-19.04047,6.108307,-2.4766445,47.24134,-27.367271,-3.2165034,-5.9279947,4.104155,19.998425,22.686924,30.169477,-20.036894,-20.478365,10.445969,5.443337,9.122238,3.220519,-25.901356,30.772503,-2.015235,-6.568644,-1.5869687,-15.986784
207,-2.5156848430633545,-169.82952880859375,72.30445861816406,-3.564307561478918,-1.9802015847294416,-98.74670663330595,-4.36425,14.863637,7.9085593,90.78077,-9.681438,-0.7735983,-17.955671,6.0749173,-2.6850522,47.49459,-28.626455,-3.195156,-5.4929028,4.513803,19.939068,22.482965,29.501976,-20.5686,-17.782282,11.527755,6.4146357,8.971797,0.93814063,-25.964222,31.683466,-1.3567574,-6.711899,-1.5872314,-16.739044
208,-2.619633197784424,-171.13555908203125,72.24168395996094,-3.6606578193433315,-1.8948036155042307,-98.5274767773957,-6.763327,15.149028,7.302977,92.37684,-10.556681,-0.21579169,-16.766125,6.019262,-2.8061628,47.555523,-29.734377,-3.1541207,-4.969811,4.8568583,19.878307,22.49449,28.929121,-21.036938,-15.614607,12.452393,7.2375197,8.984811,-1.1760064,-25.953548,32.386604,-0.9919302,-6.9268737,-1.6357286,-17.269053
209,-2.7144057750701904,-172.45611572265625,72.20870971679688,-3.6864346755272472,-1.8585293357992958,-98.42484012854534,-9.00107,15.2918005,6.870489,93.51706,-11.444044,0.10252949,-15.459526,5.953487,-2.8072097,47.44734,-30.717518,-3.099272,-4.330822,5.121202,19.844746,22.787123,28.496645,-21.462078,-14.090104,13.36019,7.947967,9.308535,-3.1172304,-25.867956,32.8545,-0.97214955,-7.2878594,-1.7615347,-17.499554
210,-2.8115148544311523,-173.77816772460938,72.21446990966797,-3.6423333672653126,-1.8449500280946975,-98.39878269850446,-11.153442,15.290541,6.55957,94.23045,-12.306485,0.2432723,-14.035543,5.850694,-2.70851,47.13294,-31.56847,-3.0116267,-3.5872724,5.2989016,19.808483,23.284529,28.221638,-21.877323,-13.035065,14.228726,8.62578,9.8732,-4.9335976,-25.70992,33.15007,-1.2058116,-7.7481995,-1.9528097,-17.514357
211,-2.919931411743164,-175.1074676513672,72.26509094238281,-3.5520830467505538,-1.8197863601157034,-98.39286128337636,-13.2295885,15.216045,6.3708196,94.53411,-13.103789,0.28610596,-12.519514,5.6993527,-2.5747535,46.59024,-32.235256,-2.8967276,-2.7867634,5.399016,19.735842,23.950106,28.094208,-22.207272,-12.40839,14.700094,9.14654,10.437236,-6.6165724,-25.489769,33.32038,-1.6060649,-8.170355,-2.1617477,-17.424995
212,-3.0233194828033447,-176.45143127441406,72.36814880371094,-3.4351647616221657,-1.7484896663534293,-98.35061567545608,-15.237576,15.13056,6.3006506,94.44224,-13.794177,0.30526456,-10.938036,5.4908366,-2.4707584,45.799843,-32.66706,-2.7603521,-1.9842414,5.4315515,19.593699,24.752752,28.08841,-22.367443,-12.169498,14.430116,9.374867,10.758519,-8.155529,-25.224207,33.41498,-2.0951414,-8.417402,-2.3371735,-17.342838
213,-3.1197805404663086,-177.8038787841797,72.51732635498047,-3.28847263109316,-1.6103895284904952,-98.27339092114954,-17.210506,15.053321,6.373141,93.94736,-14.371626,0.28750184,-9.288142,5.215017,-2.400378,44.71692,-32.893345,-2.607458,-1.197855,5.3942957,19.37006,25.737844,28.195864,-22.300917,-12.430519,13.082685,9.187762,10.752812,-9.561689,-24.921207,33.42715,-2.702688,-8.482819,-2.468383,-17.27035
214,-3.212538719177246,-179.19192504882812,72.71430969238281,-3.1038536847467424,-1.4288302048773303,-98.1860166793651,-19.124268,14.958412,6.588131,93.03896,-14.859095,0.20214854,-7.559362,4.8797336,-2.3356855,43.36936,-32.928753,-2.4348168,-0.40961674,5.2826033,19.087679,26.92213,28.414553,-22.051668,-13.182151,10.930965,8.68945,10.532436,-10.845261,-24.58272,33.354897,-3.4520857,-8.426367,-2.5801923,-17.160181
215,-3.301003932952881,-180.60157775878906,72.94768524169922,-2.8959077073086674,-1.234991942663625,-98.06799404062309,-20.899279,14.832214,6.9063025,91.72878,-15.260451,0.09528347,-5.765323,4.5059857,-2.2922761,41.84559,-32.70191,-2.2354727,0.38136965,5.106286,18.763474,28.217085,28.71384,-21.693213,-14.184325,8.551321,8.0846405,10.157699,-11.990524,-24.22129,33.24451,-4.2605653,-8.207317,-2.672445,-17.046207
216,-3.384662389755249,-182.0376739501953,73.22944641113281,-2.6788140693813425,-1.0598071931485191,-97.89822858674212,-22.456284,14.658155,7.286221,90.02783,-15.580808,0.012768593,-3.9175038,4.1168222,-2.2846873,40.23041,-32.136818,-2.0015776,1.1726673,4.8824162,18.411371,29.511515,29.042383,-21.303213,-15.168859,6.5260673,7.566455,9.714235,-12.97686,-23.859232,33.141468,-5.0501103,-7.7857237,-2.7442298,-16.960878
217,-3.4737958908081055,-183.50653076171875,73.54817962646484,-2.457151561616519,-0.9188006413353097,-97.64726944383776,-23.77889,14.445279,7.729616,87.92854,-15.844204,0.011067828,-1.9498898,3.7164235,-2.3261085,38.442642,-31.204142,-1.7201929,1.9528462,4.627608,18.034237,30.748209,29.3602,-20.894175,-16.042765,4.8907003,7.1318283,9.1749,-13.787215,-23.520061,33.050205,-5.8263083,-7.0450697,-2.7731237,-16.94328
218,-3.5642142295837402,-185.0017852783203,73.90377044677734,-2.223181386908126,-0.7937996871473616,-97.33300819858023,-24.896925,14.188755,8.256987,85.42423,-16.047293,0.039952256,0.12122069,3.2981203,-2.404999,36.475967,-29.950788,-1.3995754,2.7184546,4.344697,17.623932,31.958437,29.651407,-20.440506,-16.906654,3.3877063,6.700069,8.510428,-14.425666,-23.216759,32.951756,-6.639034,-6.0393806,-2.7651246,-16.966936
219,-3.6618704795837402,-186.51144409179688,74.28507995605469,-1.9765806312650291,-0.6650022204420869,-97.00541126021508,-25.807,13.8582115,8.848648,82.53024,-16.155088,-0.0038394723,2.1572528,2.8688836,-2.4973562,34.533665,-28.418447,-1.062179,3.4790075,4.0322757,17.177423,33.149647,29.901785,-19.964785,-17.774006,2.1595967,6.3273478,7.8261533,-14.903273,-22.95525,32.85446,-7.477595,-4.983721,-2.7615228,-16.963621
220,-3.7407257556915283,-188.05250549316406,74.6900405883789,-1.7182433790587552,-0.5123133620074563,-96.7147077234383,-26.50823,13.433396,9.481088,79.25433,-16.1314,-0.21647151,4.0187855,2.4349601,-2.577073,32.818035,-26.645887,-0.7295452,4.245118,3.6884592,16.691158,34.32682,30.097233,-19.492489,-18.654486,1.3535299,6.061656,7.231477,-15.232356,-22.735186,32.76638,-8.32613,-4.0948887,-2.8016572,-16.863985
221,-3.8167543411254883,-189.62176513671875,75.103271484375,-1.4408011566726149,-0.33094571784978055,-96.48057860953641,-26.985176,12.916128,10.165038,75.544426,-15.933848,-0.63061744,5.689681,1.988015,-2.6378112,31.348421,-24.571568,-0.40615442,5.0422015,3.3074906,16.158587,35.47715,30.223698,-19.027222,-19.544716,1.1074648,5.933483,6.7442627,-15.404876,-22.559853,32.688633,-9.182008,-3.388066,-2.907808,-16.655556
222,-3.8945729732513428,-191.2113800048828,75.52139282226562,-1.1488979741677114,-0.13200461708908448,-96.27275987943206,-27.239563,12.322748,10.89435,71.40213,-15.593941,-1.1847715,7.2342186,1.531922,-2.6885312,30.038273,-22.20331,-0.078365035,5.8514824,2.8972757,15.586255,36.5868,30.275423,-18.56377,-20.423729,1.3187921,5.898229,6.3139157,-15.4199705,-22.433317,32.620617,-10.053421,-2.7602057,-3.0525565,-16.372076
223,-3.959731340408325,-192.8126983642578,75.94369506835938,-0.8634886663345432,0.08138966772752385,-96.06692198750999,-27.30249,11.658025,11.612661,66.9069,-15.175729,-1.8313015,8.637867,1.0883338,-2.7270038,28.920036,-19.675613,0.2622774,6.6175046,2.4739206,14.987748,37.664543,30.256817,-18.110897,-21.28183,1.772979,5.891477,5.9475136,-15.303893,-22.351397,32.568943,-10.936262,-2.2531028,-3.199746,-16.011312
224,-4.010859966278076,-194.4279022216797,76.34567260742188,-0.6013038399206008,0.3062023458023611,-95.8409909767591,-27.202307,10.926452,12.269692,62.123524,-14.737926,-2.5217009,9.888301,0.6775703,-2.747937,28.018478,-17.113934,0.6243581,7.2908773,2.0510228,14.375003,38.721848,30.1816,-17.677292,-22.115335,2.2513623,5.853569,5.6545415,-15.085327,-22.304861,32.536762,-11.818043,-1.9096395,-3.316681,-15.572475
225,-4.063784599304199,-196.0592498779297,76.72779846191406,-0.3472517757991602,0.5682221607762074,-95.59643301433975,-26.904219,10.119805,12.919356,56.861248,-14.263116,-3.2758334,10.943843,0.27953237,-2.745592,27.339985,-14.455779,0.98944193,7.863289,1.6006774,13.719602,39.79028,30.049467,-17.242987,-22.94559,2.7651002,5.778663,5.455651,-14.76497,-22.279408,32.532658,-12.688348,-1.8131055,-3.404107,-15.03772
226,-4.102847576141357,-197.71051025390625,77.08505249023438,-0.10115311385093001,0.8591202097462495,-95.3464623266944,-26.384695,9.243886,13.55918,51.09021,-13.706586,-4.0977554,11.829458,-0.10308984,-2.7133162,26.859442,-11.654135,1.3682274,8.366462,1.128565,13.024014,40.854073,29.864174,-16.814198,-23.774338,3.40504,5.6967916,5.3436365,-14.334282,-22.273077,32.546825,-13.545433,-1.918682,-3.4805505,-14.412528
227,-4.134095668792725,-199.37844848632812,77.40768432617188,0.0934678835238434,1.1248517712581523,-95.08921331264871,-25.69662,8.33796,14.054759,45.128056,-13.08492,-4.910931,12.643439,-0.4108989,-2.6427982,26.524792,-8.848646,1.8047181,8.788757,0.69453716,12.346192,41.8957,29.635681,-16.396442,-24.586739,4.0740557,5.5995917,5.2751307,-13.82659,-22.284328,32.58279,-14.386289,-2.0807822,-3.537385,-13.733206
228,-4.154566287994385,-201.05209350585938,77.68136596679688,0.1986914286274541,1.311515678856821,-94.82286912972248,-24.893665,7.4464025,14.2771015,39.29961,-12.418974,-5.634113,13.481867,-0.589943,-2.5263944,26.282389,-6.176535,2.3310373,9.122633,0.3533365,11.744581,42.8986,29.380402,-15.996588,-25.374466,4.673486,5.4781294,5.2081866,-13.270683,-22.313213,32.63995,-15.211665,-2.1545186,-3.562679,-13.035793
229,-4.1681623458862305,-202.72848510742188,77.90950775146484,0.18888300152087653,1.4120817518660136,-94.54588631125091,-23.927073,6.5489006,14.133312,33.42141,-11.659362,-6.245501,14.398154,-0.61470735,-2.3249342,26.035213,-3.5683124,2.9585814,9.373352,0.13154481,11.210358,43.884933,29.114216,-15.612049,-26.150593,5.223786,5.324309,5.138551,-12.628248,-22.357664,32.703518,-16.029516,-2.1409986,-3.5396547,-12.285149
230,-4.175105094909668,-204.40728759765625,78.08745574951172,0.0607226742787642,1.4460878128768244,-94.27239595639273,-22.744501,5.70815,13.692841,27.342363,-10.785834,-6.759292,15.345674,-0.48868108,-2.0359468,25.813879,-0.9617626,3.6486535,9.560854,0.02536408,10.722179,44.868603,28.842966,-15.235742,-26.934488,5.756987,5.1460075,5.089815,-11.89019,-22.41809,32.768368,-16.84691,-2.1070333,-3.4783792,-11.475824
231,-4.185440540313721,-206.08419799804688,78.20602416992188,-0.18883214106814764,1.4025791256396538,-94.02214078757093,-21.439993,5.0677,13.0904875,21.524763,-9.89639,-7.182222,16.268896,-0.20921533,-1.7143906,25.758347,1.4930401,4.349285,9.696791,0.042783823,10.316106,45.81912,28.56608,-14.867556,-27.724348,6.1923804,4.958019,5.060118,-11.136375,-22.503576,32.852455,-17.654274,-2.003347,-3.4029007,-10.687752
232,-4.189187049865723,-207.73825073242188,78.2713394165039,-0.5379005825070978,1.2791110474574947,-93.8042651278859,-20.168758,4.6957836,12.488459,16.517702,-9.120852,-7.560871,17.09064,0.19394808,-1.4321404,26.041618,3.625068,5.012707,9.783644,0.16714372,10.024947,46.69588,28.277756,-14.511892,-28.50779,6.450624,4.7747154,5.04585,-10.44555,-22.62741,32.97647,-18.446674,-1.7775477,-3.3363185,-10.002227
233,-4.1861371994018555,-209.37106323242188,78.28755950927734,-0.9889125027787001,1.0881061924091442,-93.60332533679957,-18.988249,4.569491,11.953364,12.407873,-8.496565,-7.970539,17.785458,0.7288765,-1.1805682,26.708887,5.3971057,5.686315,9.804957,0.40115523,9.838512,47.508045,27.96995,-14.166819,-29.288433,6.488367,4.587657,5.049521,-9.838274,-22.805061,33.169178,-19.23295,-1.3573394,-3.2673397,-9.441154
234,-4.176231384277344,-210.9734344482422,78.25752258300781,-1.5059813623651435,0.8416847647396446,-93.39829838912654,-17.822865,4.5621505,11.429292,8.874748,-7.9174047,-8.404061,18.348036,1.3262044,-0.95959276,27.76295,6.8535666,6.3615594,9.746417,0.70816976,9.743592,48.253246,27.640354,-13.835006,-30.054323,6.3586683,4.392663,5.0683293,-9.266093,-23.04072,33.413147,-20.024712,-0.7867322,-3.1868715,-8.965042
235,-4.156234264373779,-212.55039978027344,78.1816635131836,-1.961886270934661,0.5498314988958506,-93.17174698234267,-17.303473,4.637719,10.845836,7.2788153,-8.055221,-8.782928,18.7052,1.7923474,-0.88267493,29.343283,7.9172926,6.923357,9.598857,0.96054417,9.76324,48.861763,27.294529,-13.529874,-30.751747,6.124876,4.209818,5.091131,-8.706758,-23.323122,33.658768,-20.818207,-0.1876474,-3.1240208,-8.562863
236,-4.1543731689453125,-214.09912109375,78.06939697265625,-2.237466898585372,0.22075940670392408,-92.9121820476043,-17.231453,4.6081066,10.189051,7.2163916,-8.647276,-9.009362,18.810658,1.956273,-1.0601696,31.524136,8.534977,7.2655187,9.358586,1.0357182,9.917201,49.268517,26.943867,-13.264257,-31.332249,5.8481083,4.0599866,5.1086936,-8.138556,-23.628681,33.854923,-21.599234,0.31492853,-3.110094,-8.221432
237,-4.159354209899902,-215.62583923339844,77.91040802001953,-2.304952370312208,-0.15711385210087744,-92.62199349404118,-16.88617,4.3114095,9.442714,7.209503,-8.853867,-9.154557,18.656761,1.790487,-1.539723,34.39039,8.701623,7.3519335,9.024063,0.89184344,10.220188,49.485577,26.590591,-13.030967,-31.80991,5.5127006,3.959998,5.11565,-7.5879426,-23.941757,34.009445,-22.36012,0.71441376,-3.1738422,-7.9545217
238,-4.1787896156311035,-217.12664794921875,77.69790649414062,-2.200218472251984,-0.5796562077365709,-92.29914141059493,-16.282879,3.8029945,8.638161,7.25586,-8.716204,-9.226475,18.285986,1.3354673,-2.2593408,37.85104,8.441834,7.242367,8.590406,0.5622369,10.650419,49.538742,26.235506,-12.824234,-32.198174,5.0935054,3.895369,5.1196537,-7.072981,-24.254595,34.147774,-23.080957,1.0652442,-3.2947407,-7.7603946
239,-4.188046932220459,-218.59083557128906,77.493896484375,-1.9197786341521996,-1.0222414031216358,-91.93827417822307,-15.520439,3.1069868,7.901107,7.449781,-8.3901415,-9.03099,17.74598,0.55937105,-3.1434684,41.69251,7.7674136,6.9864893,8.061949,0.053615022,11.170479,49.394157,25.89482,-12.65736,-32.448128,4.635563,3.8407881,5.132665,-6.5617433,-24.551126,34.243683,-23.727163,1.3355203,-3.4305432,-7.600898
