unveil-humanoid-operators/unveil-humanoid-operators.github.io/feature-analysis-animation/data/feature_matrix_instances/gender_ankle_rom_walking_A246_crouch_ff_stop_180_R_003__A246.csv
Frame,root_translateX,root_translateY,root_translateZ,root_rotateX,root_rotateY,root_rotateZ,left_hip_pitch_joint_dof,left_hip_roll_joint_dof,left_hip_yaw_joint_dof,left_knee_joint_dof,left_ankle_pitch_joint_dof,left_ankle_roll_joint_dof,right_hip_pitch_joint_dof,right_hip_roll_joint_dof,right_hip_yaw_joint_dof,right_knee_joint_dof,right_ankle_pitch_joint_dof,right_ankle_roll_joint_dof,waist_yaw_joint_dof,waist_roll_joint_dof,waist_pitch_joint_dof,left_shoulder_pitch_joint_dof,left_shoulder_roll_joint_dof,left_shoulder_yaw_joint_dof,left_elbow_joint_dof,left_wrist_roll_joint_dof,left_wrist_pitch_joint_dof,left_wrist_yaw_joint_dof,right_shoulder_pitch_joint_dof,right_shoulder_roll_joint_dof,right_shoulder_yaw_joint_dof,right_elbow_joint_dof,right_wrist_roll_joint_dof,right_wrist_pitch_joint_dof,right_wrist_yaw_joint_dof
0,0.5835818648338318,-1.0708787441253662,64.1624755859375,-9.240351885445799,34.00571480639872,-101.53633954792694,-83.209366,11.098128,-2.8293445,79.10287,-30.522598,-3.5160708,-88.33783,-2.450345,-7.5327063,89.83559,-13.085173,4.7042046,2.8627796,-0.91353154,29.793802,-56.456326,33.140915,-18.938383,-24.785902,-0.72306144,-4.561511,1.7924001,-59.753025,-19.512814,17.71941,-34.493576,3.0614498,-1.4702144,-12.690643
1,0.6529998779296875,-1.4353114366531372,64.11853790283203,-9.385493665492556,34.00072203116532,-101.72044976576721,-83.002144,11.254653,-2.7612252,79.54603,-31.172422,-3.2999237,-88.60714,-2.450696,-8.377863,87.58129,-13.399294,5.4306965,2.7744138,-1.0154302,29.793802,-56.415234,33.279316,-18.698017,-24.822262,-0.46706614,-4.5201974,2.0293424,-59.862118,-19.530233,17.54181,-34.41706,3.2988324,-1.4301983,-12.638421
2,0.717599093914032,-1.8022453784942627,64.06723022460938,-9.537621668870509,33.99982933882305,-101.90661035695688,-82.8002,11.4080715,-2.7001772,79.986176,-31.821129,-3.0761113,-88.87932,-2.47506,-9.236662,85.32144,-13.725697,6.1698527,2.7001727,-1.0977938,29.793802,-56.356987,33.44181,-18.45739,-24.8948,-0.2368536,-4.4832363,2.2819853,-59.93252,-19.60556,17.354471,-34.385006,3.5551808,-1.3808701,-12.61259
3,0.774989128112793,-2.174485921859741,64.00741577148438,-9.677401963937074,33.99751001062471,-102.0830016336763,-82.59032,11.558559,-2.6347914,80.425095,-32.47202,-2.870607,-89.12463,-2.5054853,-10.055601,83.013565,-14.016545,6.841498,2.625116,-1.1769375,29.793802,-56.287277,33.6006,-18.213846,-24.983152,-0.012354013,-4.4363227,2.534765,-59.991856,-19.713066,17.187548,-34.370872,3.8195739,-1.352004,-12.591233
4,0.8047731518745422,-2.586087226867676,63.928977966308594,-9.785600389437002,33.989430550126556,-102.23780988057426,-82.36054,11.706764,-2.553984,80.865456,-33.12836,-2.7094226,-89.31374,-2.5207138,-10.781139,80.61515,-14.224042,7.3681626,2.53736,-1.2651408,29.793802,-56.204662,33.729446,-17.960886,-25.080627,0.22315833,-4.365989,2.7716734,-60.05945,-19.835434,17.070143,-34.35789,4.080275,-1.3733805,-12.556671
5,0.8362533450126648,-2.984917163848877,63.85163116455078,-9.850490247585816,33.969961585752166,-102.36789052590935,-82.09345,11.853104,-2.4451249,81.299416,-33.802597,-2.6109347,-89.44309,-2.475528,-11.368751,78.082596,-14.319069,7.7573185,2.4335744,-1.3705031,29.793802,-56.10997,33.804337,-17.695345,-25.17879,0.5167295,-4.2530284,2.985821,-60.142666,-19.960258,17.014044,-34.33426,4.341466,-1.4695778,-12.493852
6,0.8503281474113464,-3.373914957046509,63.772247314453125,-9.88471016133204,33.941089191945665,-102.4782014241835,-81.79871,11.996665,-2.317788,81.729996,-34.48806,-2.5572777,-89.52056,-2.3912039,-11.8578415,75.444695,-14.331336,8.042432,2.326634,-1.4776236,29.793802,-56.021183,33.818104,-17.428171,-25.262146,0.8560996,-4.1105385,3.178932,-60.23362,-20.083092,17.00789,-34.296947,4.5857935,-1.6182904,-12.409138
7,0.8482357263565063,-3.7510263919830322,63.69072341918945,-9.905823841809383,33.91029859428657,-102.56993325120361,-81.50373,12.136874,-2.1928444,82.17283,-35.16614,-2.5203958,-89.53118,-2.335437,-12.324301,72.76457,-14.298694,8.192831,2.2208178,-1.5725667,29.793802,-55.95235,33.784,-17.16797,-25.324966,1.1669598,-3.9732275,3.3493786,-60.33824,-20.214512,17.031046,-34.24577,4.801789,-1.7789724,-12.31483
8,0.8452076315879822,-4.137548923492432,63.59891128540039,-9.933431480762064,33.88686277385207,-102.64499945731544,-81.23886,12.273001,-2.0931933,82.64273,-35.8167,-2.4721215,-89.46281,-2.3665724,-12.851464,70.10491,-14.2576885,8.186096,2.1270936,-1.635886,29.793802,-55.910446,33.722267,-16.924482,-25.372149,1.3673855,-3.8770607,3.5012858,-60.44982,-20.364523,17.078342,-34.189728,4.958046,-1.9124892,-12.23187
9,0.8212021589279175,-4.529233932495117,63.497650146484375,-9.982344529944024,33.88354197696018,-102.7149945019815,-81.0201,12.415907,-2.026675,83.13175,-36.44403,-2.404675,-89.307755,-2.476982,-13.485395,67.40791,-14.206082,8.022565,2.0531213,-1.66042,29.793802,-55.90495,33.656174,-16.683262,-25.410622,1.4224325,-3.834185,3.6293492,-60.581604,-20.548704,17.145723,-34.1347,5.0666485,-2.0150607,-12.163884
10,0.7992491126060486,-4.8914995193481445,63.39859390258789,-10.036884887938287,33.895831140987816,-102.7747232893321,-80.8316,12.560933,-1.9779531,83.63336,-37.056007,-2.3324654,-89.07376,-2.6198852,-14.183677,64.65394,-14.126615,7.731451,1.9769486,-1.6726015,29.793802,-55.882866,33.56695,-16.456438,-25.469576,1.4241575,-3.8248122,3.7491162,-60.719437,-20.749521,17.255283,-34.095505,5.129359,-2.1087766,-12.115566
11,0.738176167011261,-5.276546955108643,63.28554153442383,-10.077113351372338,33.89537515059309,-102.80080571312483,-80.64783,12.687813,-1.9449227,84.17338,-37.63617,-2.262341,-88.76636,-2.795285,-14.904654,61.979885,-14.038279,7.333765,1.9056633,-1.6593173,29.793802,-55.891247,33.477856,-16.235416,-25.505362,1.2921437,-3.8388999,3.8545065,-60.84828,-20.976912,17.368866,-34.047047,5.155239,-2.1841686,-12.068264
12,0.6812201142311096,-5.680021286010742,63.15311813354492,-10.076643109269321,33.86508830259642,-102.77238119687661,-80.450874,12.775176,-1.9154174,84.771355,-38.167164,-2.1993623,-88.409294,-3.012007,-15.593649,59.53038,-13.96071,6.8444276,1.8013916,-1.659194,29.793802,-55.851135,33.363213,-16.059198,-25.552568,1.1170995,-3.8640227,3.976553,-60.930714,-21.198235,17.494627,-34.00634,5.126111,-2.239544,-12.036126
13,0.6173439025878906,-6.072025775909424,63.0185661315918,-10.022743106186203,33.79055450966235,-102.67150463098575,-80.21878,12.808736,-1.8833072,85.42822,-38.663326,-2.134814,-87.96028,-3.3099828,-16.280928,57.26927,-13.987905,6.2343907,1.6740652,-1.6531107,29.793802,-55.82556,33.247585,-15.896014,-25.569754,0.77476734,-3.9067976,4.0690084,-60.973,-21.421162,17.615088,-33.946335,5.0055537,-2.2602355,-12.003442
14,0.5440329909324646,-6.463348865509033,62.87712860107422,-9.92883916641862,33.69107965698495,-102.51658993739349,-79.97218,12.803513,-1.8508966,86.131935,-39.12424,-2.0673883,-87.43771,-3.6656458,-16.977934,55.15176,-14.087868,5.5143375,1.5097877,-1.6634378,29.793802,-55.75269,33.105854,-15.768477,-25.60021,0.37043402,-3.96952,4.155771,-60.979324,-21.617653,17.767775,-33.88913,4.7844114,-2.2570302,-11.988595
15,0.45273131132125854,-6.865811347961426,62.72422790527344,-9.826960019987236,33.57073106218334,-102.34023213280652,-79.73649,12.789671,-1.8432513,86.89582,-39.525547,-2.0207717,-86.92575,-4.009156,-17.61804,53.324776,-14.104038,4.741396,1.3585132,-1.6540114,29.793802,-55.71045,32.969322,-15.66406,-25.596766,-0.11988686,-4.038939,4.269127,-60.97106,-21.805058,17.916119,-33.80563,4.551688,-2.2439017,-11.962868
16,0.35519179701805115,-7.274557590484619,62.560791015625,-9.73935102577803,33.44569762499601,-102.17782991369005,-79.5442,12.795993,-1.871158,87.727646,-39.837746,-2.0128253,-86.52727,-4.285552,-18.122316,51.9445,-13.87631,3.9561334,1.2021766,-1.6652316,29.793802,-55.62598,32.824036,-15.6216545,-25.594284,-0.5166971,-4.099254,4.484268,-60.960236,-21.975359,18.04889,-33.72601,4.4238877,-2.2430065,-11.927601
17,0.2517763078212738,-7.687862873077393,62.39067840576172,-9.691118332234879,33.33915294285871,-102.04764398195907,-79.43936,12.8397255,-1.9458324,88.64168,-40.03621,-2.0549731,-86.26238,-4.49296,-18.467068,51.01262,-13.386138,3.1344707,1.1212066,-1.6225042,29.793802,-55.593494,32.675346,-15.640841,-25.574772,-0.9263678,-4.1537256,4.8307395,-60.933002,-22.11369,18.211128,-33.625237,4.333751,-2.2656455,-11.888144
18,0.13092824816703796,-8.099510192871094,62.21659851074219,-9.650176098137834,33.231932683204164,-101.92971135467923,-79.37964,12.903389,-2.0403304,89.62559,-40.14432,-2.132359,-86.09093,-4.6795135,-18.679836,50.487804,-12.723309,2.2463918,1.0077542,-1.6191555,29.793802,-55.544292,32.55543,-15.678652,-25.534279,-1.3116025,-4.2042274,5.2613077,-60.94434,-22.265905,18.303404,-33.522137,4.4443564,-2.2948542,-11.812092
19,0.0024555728305131197,-8.491434097290039,62.04010772705078,-9.620761003292097,33.1018374048689,-101.80991881549829,-79.328545,12.9716215,-2.182672,90.66152,-40.19622,-2.238594,-86.01482,-4.864935,-18.826424,50.417313,-11.8717,1.3113999,0.9481916,-1.584839,29.793802,-55.468235,32.408966,-15.806597,-25.508537,-1.6544716,-4.2545457,5.7535834,-60.877274,-22.36214,18.462727,-33.420143,4.4130445,-2.3230352,-11.766364
20,-0.13201583921909332,-8.854122161865234,61.86541748046875,-9.580081245997722,32.89467045022992,-101.66602769249207,-79.20328,13.024564,-2.3735137,91.73273,-40.23569,-2.3625739,-86.02009,-5.0756626,-18.946323,50.877758,-10.826586,0.35036603,0.8908417,-1.5606778,29.793802,-55.38347,32.2688,-15.975344,-25.420374,-1.9706454,-4.297185,6.2148824,-60.762234,-22.435505,18.588047,-33.297573,4.3125434,-2.3234763,-11.702405
21,-0.2933778762817383,-9.256551742553711,61.675018310546875,-9.522305929714108,32.56892674982491,-101.48202651236228,-78.96612,13.054082,-2.626266,92.869026,-40.274094,-2.514235,-86.1295,-5.3533587,-19.047588,52.076923,-9.300113,-0.7281569,0.8126836,-1.5730726,29.793802,-55.20668,32.123554,-16.229479,-25.29093,-2.2013936,-4.3278146,6.6864634,-60.544228,-22.479637,18.689365,-33.183018,4.102885,-2.279589,-11.653604
22,-0.46814897656440735,-9.665204048156738,61.47907257080078,-9.457038578076267,32.15771411046937,-101.26455062004989,-78.65845,13.061203,-2.9320686,94.06854,-40.291008,-2.6960864,-86.32437,-5.7093678,-19.127111,53.893314,-7.375276,-1.9348096,0.7638413,-1.569124,29.793802,-55.00367,31.962128,-16.570305,-25.118885,-2.4118395,-4.3519616,7.185217,-60.22625,-22.47007,18.816042,-33.047443,3.7260435,-2.2078552,-11.625626
23,-0.6325632929801941,-10.068775177001953,61.28096008300781,-9.373191991215794,31.732341312779877,-101.0317145064254,-78.32227,13.045188,-3.242075,95.25582,-40.275196,-2.8889277,-86.54706,-6.0975537,-19.172691,55.90419,-5.596872,-3.1009967,0.70086414,-1.5846546,29.793802,-54.797234,31.796465,-16.930042,-24.924564,-2.5582592,-4.371507,7.6382403,-59.91403,-22.425919,18.937496,-32.893368,3.331109,-2.1409986,-11.562924
24,-0.8092153072357178,-10.468125343322754,61.090904235839844,-9.271265531524895,31.370883944169375,-100.81038489733263,-78.014946,13.012915,-3.5196173,96.35915,-40.213707,-3.0720434,-86.75889,-6.430735,-19.153484,57.709057,-4.5225897,-4.020377,0.6234735,-1.6198323,29.793802,-54.639828,31.649918,-17.243435,-24.731913,-2.6482697,-4.3899,7.976887,-59.68555,-22.382116,19.038044,-32.729847,3.0197465,-2.112979,-11.4256115
25,-0.9806719422340393,-10.864212989807129,60.9052734375,-9.151297795222579,31.09306990216614,-100.61825650253711,-77.756294,12.974448,-3.755388,97.36881,-40.10159,-3.234819,-86.991325,-6.619976,-18.989113,59.265713,-4.426807,-4.556146,0.5413455,-1.6770074,29.793802,-54.548065,31.540169,-17.493313,-24.554377,-2.6977756,-4.4073606,8.194975,-59.55939,-22.368732,19.106995,-32.575768,2.8403497,-2.1298554,-11.1782055
26,-1.1497094631195068,-11.252274513244629,60.73524856567383,-9.016199663769873,30.861645553979173,-100.44167707459327,-77.521255,12.926272,-3.972005,98.32115,-39.944336,-3.3908374,-87.26215,-6.6970706,-18.699316,60.771305,-4.966582,-4.8096514,0.45520312,-1.7518095,29.793802,-54.47687,31.477116,-17.704712,-24.404167,-2.7171988,-4.421728,8.331384,-59.4827,-22.385645,19.154799,-32.44083,2.743261,-2.1752305,-10.861199
27,-1.319884181022644,-11.645349502563477,60.579769134521484,-8.875206171516686,30.668823868692513,-100.2641605262877,-77.302475,12.860329,-4.185771,99.214066,-39.750404,-3.5555818,-87.519646,-6.7459226,-18.403091,62.203136,-5.786882,-4.9288254,0.36901715,-1.8274108,29.793802,-54.419937,31.435123,-17.900362,-24.271751,-2.6856194,-4.433086,8.382845,-59.424362,-22.42517,19.186897,-32.325382,2.6786783,-2.2477133,-10.54228
28,-1.496032476425171,-12.03577995300293,60.44168472290039,-8.737894392616406,30.507668620286125,-100.06894392250554,-77.09327,12.767808,-4.4134283,100.04612,-39.528744,-3.7448516,-87.712105,-6.85701,-18.215393,63.535004,-6.52966,-5.0618424,0.28357983,-1.8820215,29.793802,-54.36037,31.403433,-18.089745,-24.16115,-2.5977724,-4.442423,8.345846,-59.35072,-22.484053,19.20994,-32.231014,2.5976496,-2.3465214,-10.291329
29,-1.680379033088684,-12.429669380187988,60.32275390625,-8.611520159846624,30.392317973284076,-99.85361653927559,-76.907425,12.638157,-4.6651716,100.811775,-39.28077,-3.9737325,-87.82729,-7.062149,-18.180346,64.74298,-7.144336,-5.2060223,0.17921606,-1.9193684,29.793802,-54.284214,31.386312,-18.267076,-24.089947,-2.422391,-4.4476147,8.191314,-59.289207,-22.535505,19.232653,-32.15068,2.488365,-2.4984248,-10.11314
30,-1.8682422637939453,-12.827287673950195,60.21881103515625,-8.493003805449925,30.31890977308848,-99.62636291999173,-76.74346,12.479721,-4.935867,101.51596,-39.004993,-4.2321143,-87.88869,-7.3117924,-18.236761,65.8498,-7.8094482,-5.2966385,0.086926535,-1.9259448,29.793802,-54.251915,31.39157,-18.431074,-24.022284,-2.2192435,-4.4502087,7.9241896,-59.238487,-22.60108,19.235292,-32.07771,2.368564,-2.692834,-9.967366
31,-2.063530206680298,-13.229827880859375,60.12569808959961,-8.361806442926538,30.25902958784877,-99.38675888897247,-76.56902,12.308172,-5.1984086,102.16725,-38.697304,-4.49298,-87.90875,-7.58024,-18.322788,66.90015,-8.509699,-5.392114,-0.012517542,-1.9377543,29.793802,-54.20035,31.411283,-18.573997,-23.966208,-1.9721391,-4.4536233,7.601353,-59.17669,-22.669006,19.24239,-32.00652,2.243994,-2.8793774,-9.872414
32,-2.268104314804077,-13.631476402282715,60.042999267578125,-8.199378982952926,30.183560272674306,-99.13417427792531,-76.35235,12.140851,-5.4298005,102.773186,-38.357082,-4.729071,-87.89989,-7.8415785,-18.377821,67.93917,-9.228438,-5.550781,-0.12304928,-1.9789386,29.793802,-54.092056,31.43024,-18.698183,-23.91472,-1.6788989,-4.4613976,7.280042,-59.073437,-22.74101,19.269781,-31.935688,2.1194048,-3.0067437,-9.843964
33,-2.477116584777832,-14.031885147094727,59.96831512451172,-8.002657051383485,30.077471205242986,-98.8611135661014,-76.07191,11.983773,-5.6341276,103.3302,-38.00195,-4.9444838,-87.84846,-8.100503,-18.401146,68.97736,-9.982513,-5.794789,-0.2271097,-2.0310464,29.793802,-53.97578,31.45458,-18.785732,-23.827816,-1.3966113,-4.4784446,6.9385633,-58.93025,-22.808256,19.324516,-31.824995,1.9618721,-3.04965,-9.900312
34,-2.6848387718200684,-14.438494682312012,59.905147552490234,-7.775778986681944,29.961260454417005,-98.5708909714517,-75.75093,11.827944,-5.815405,103.832184,-37.62466,-5.147111,-87.761,-8.366853,-18.411638,69.99482,-10.772066,-6.0895867,-0.36217242,-2.1285043,29.793802,-53.797344,31.462404,-18.859747,-23.73941,-1.015239,-4.5016365,6.5694013,-58.76838,-22.839867,19.40303,-31.698076,1.7879035,-3.0412865,-10.027301
35,-2.8974862098693848,-14.85110092163086,59.85550308227539,-7.53116503299245,29.842674431680493,-98.27809312509194,-75.41778,11.671188,-5.976699,104.30222,-37.19124,-5.3198195,-87.649216,-8.620993,-18.401299,70.97816,-11.567539,-6.410812,-0.49366215,-2.2277055,29.793802,-53.59494,31.468046,-18.907282,-23.648716,-0.6198979,-4.524212,6.194471,-58.591198,-22.882318,19.497309,-31.562008,1.6222501,-3.0080178,-10.180941
36,-3.110713481903076,-15.266209602355957,59.820526123046875,-7.278480187324092,29.72827338363553,-97.9967442546658,-75.097855,11.510958,-6.1176376,104.76228,-36.66897,-5.4460344,-87.525055,-8.842923,-18.359724,71.91524,-12.339116,-6.7335343,-0.59813964,-2.3026373,29.793802,-53.39648,31.47889,-18.904615,-23.5563,-0.27726948,-4.537284,5.8191156,-58.40948,-22.939875,19.581717,-31.40936,1.4839975,-2.9765282,-10.289684
37,-3.320110559463501,-15.686458587646484,59.796024322509766,-7.006336422209206,29.616160266362648,-97.72653318347075,-74.774185,11.334554,-6.2327805,105.201164,-36.06665,-5.5204816,-87.392624,-9.0271015,-18.267576,72.80994,-13.085471,-7.0631466,-0.6962916,-2.3942766,29.793802,-53.17509,31.485008,-18.875242,-23.451595,0.08257873,-4.5350146,5.4458394,-58.22531,-22.980984,19.645954,-31.23854,1.3763452,-2.948643,-10.334232
38,-3.5308892726898193,-16.104080200195312,59.786163330078125,-6.7171153697144,29.505066418474488,-97.46196803698591,-74.44516,11.148763,-6.3278255,105.6131,-35.394665,-5.5523286,-87.24765,-9.183181,-18.136627,73.667244,-13.818583,-7.406727,-0.778002,-2.4622273,29.793802,-52.918343,31.502413,-18.777998,-23.36935,0.4093798,-4.525394,5.0552335,-58.026947,-23.067316,19.721355,-31.060543,1.2960002,-2.9106708,-10.369818
39,-3.7408363819122314,-16.517423629760742,59.78553771972656,-6.426143713060956,29.403063706439593,-97.20816419266346,-74.152084,10.976823,-6.4010367,106.02336,-34.620705,-5.544896,-87.09028,-9.319552,-17.995798,74.476006,-14.537343,-7.750597,-0.8521213,-2.531734,29.793802,-52.65236,31.511263,-18.66814,-23.290138,0.73634976,-4.5109982,4.6944237,-57.825397,-23.140663,19.790346,-30.885813,1.2450045,-2.8738296,-10.383669
40,-3.9495415687561035,-16.92635726928711,59.79770278930664,-6.150956521513745,29.318949254763982,-96.97016974920308,-73.93863,10.8428955,-6.452665,106.46203,-33.7135,-5.501142,-86.920204,-9.443495,-17.876438,75.22394,-15.238482,-8.080276,-0.9191459,-2.5799348,29.793802,-52.381756,31.513296,-18.533484,-23.23909,1.0253595,-4.4963255,4.3873253,-57.636986,-23.198992,19.87086,-30.719967,1.2272968,-2.8477237,-10.389033
41,-4.153029441833496,-17.3344669342041,59.818058013916016,-5.901392958434769,29.264431089568745,-96.75107261915566,-73.81388,10.756557,-6.48745,106.923386,-32.685097,-5.4374194,-86.74443,-9.556514,-17.79395,75.90052,-15.911932,-8.401659,-0.9542615,-2.574175,29.793802,-52.173615,31.526201,-18.380062,-23.183685,1.1592476,-4.489913,4.159188,-57.46526,-23.24984,19.952166,-30.55608,1.2597704,-2.8315732,-10.36426
42,-4.363685607910156,-17.735654830932617,59.840660095214844,-5.66074583699342,29.23777679850685,-96.5477681101802,-73.76111,10.705503,-6.4962697,107.39221,-31.542068,-5.3429637,-86.568924,-9.654213,-17.723703,76.51463,-16.559948,-8.718066,-0.9986924,-2.5452628,29.793802,-51.89427,31.545544,-18.17493,-23.211052,1.2424458,-4.485171,3.9928007,-57.30465,-23.31642,20.064861,-30.419302,1.356075,-2.823507,-10.339657
43,-4.565587043762207,-18.134431838989258,59.8745231628418,-5.431359778211959,29.20631840330554,-96.35556859158163,-73.772255,10.686187,-6.4912896,107.89717,-30.251701,-5.186966,-86.35878,-9.736521,-17.666973,77.0837,-17.208694,-9.016487,-1.0078046,-2.485936,29.793802,-51.681408,31.582628,-17.9304,-23.20831,1.27495,-4.468066,3.8248363,-57.138622,-23.378004,20.168695,-30.271765,1.4388415,-2.8218734,-10.312036
44,-4.758326530456543,-18.537996292114258,59.91713333129883,-5.197762459327864,29.150853605889136,-96.17065025954705,-73.847,10.694764,-6.4593396,108.455605,-28.773909,-4.931607,-86.1022,-9.801346,-17.600561,77.62497,-17.875414,-9.27765,-1.0426909,-2.4561892,29.793802,-51.345463,31.611317,-17.608185,-23.296513,1.4896374,-4.4206853,3.6119807,-56.967644,-23.425034,20.304861,-30.135626,1.481704,-2.8324454,-10.338022
45,-4.959660530090332,-18.95246124267578,59.9654541015625,-4.9700900298326065,29.053052148975787,-95.99847488576239,-73.9615,10.740957,-6.4130745,109.079666,-27.123432,-4.5697594,-85.77222,-9.842711,-17.534828,78.138306,-18.574663,-9.494895,-1.0315439,-2.3844457,29.793802,-51.093857,31.678717,-17.170538,-23.32032,1.6681308,-4.342318,3.2840676,-56.78544,-23.482962,20.460583,-29.955978,1.4335715,-2.857351,-10.420063
46,-5.169785976409912,-19.36151885986328,60.017574310302734,-4.74297756306455,28.934493100331782,-95.84017319312011,-74.13162,10.832279,-6.339032,109.75466,-25.306555,-4.1104403,-85.39482,-9.863701,-17.464968,78.61634,-19.290588,-9.677366,-1.0338433,-2.3311012,29.793802,-50.733112,31.750645,-16.65659,-23.423765,1.9605732,-4.2361274,2.9142563,-56.594746,-23.528744,20.648273,-29.785027,1.3529013,-2.8984432,-10.553892
47,-5.365630149841309,-19.76653289794922,60.0837516784668,-4.521040546473518,28.805434268211776,-95.68503346008181,-74.398674,10.97285,-6.24121,110.4661,-23.282337,-3.5482097,-84.98415,-9.875964,-17.398228,79.06416,-20.009377,-9.836304,-1.0431986,-2.2711906,29.793802,-50.35737,31.839195,-16.072882,-23.563978,2.336391,-4.116746,2.5378337,-56.41634,-23.564974,20.85108,-29.610395,1.2496501,-2.938153,-10.698286
48,-5.5511603355407715,-20.174644470214844,60.15107727050781,-4.308465658519081,28.67862057247446,-95.522980482513,-74.81078,11.171284,-6.1210814,111.20645,-21.004156,-2.8700633,-84.55686,-9.889894,-17.34122,79.48443,-20.715935,-9.983015,-1.0673083,-2.2039673,29.793802,-49.99635,31.951654,-15.445796,-23.748158,2.8271565,-3.996051,2.2092068,-56.256912,-23.590887,21.045195,-29.450716,1.146888,-2.9609036,-10.815133
49,-5.740485668182373,-20.589197158813477,60.22275161743164,-4.106727390849564,28.551950862653328,-95.35226358244904,-75.390465,11.453958,-5.97491,111.977196,-18.352634,-2.0489721,-84.107506,-9.904049,-17.293814,79.87544,-21.409597,-10.115805,-1.107308,-2.1191962,29.793802,-49.62896,32.095837,-14.758583,-24.005882,3.5410578,-3.8477557,1.9125116,-56.112362,-23.6051,21.23364,-29.312613,1.0366902,-2.9542077,-10.902294
50,-5.940014362335205,-20.99203109741211,60.30259704589844,-3.9198153200459465,28.419218907495786,-95.18193820479856,-76.11751,11.848133,-5.802694,112.78304,-15.384466,-1.0631908,-83.62649,-9.910091,-17.259697,80.233536,-22.096241,-10.231477,-1.1549735,-2.0168872,29.793802,-49.25395,32.27724,-14.005487,-24.317076,4.4157777,-3.677518,1.6286691,-55.979385,-23.607347,21.425018,-29.184298,0.91116136,-2.9292276,-10.976303
51,-6.1236348152160645,-21.397165298461914,60.383094787597656,-3.7551316979328835,28.287191570334656,-95.01888746470809,-76.97374,12.3640175,-5.6124187,113.61108,-12.317291,0.09225344,-83.12581,-9.907209,-17.249874,80.55985,-22.770836,-10.33919,-1.2121931,-1.9169471,29.793802,-48.900642,32.49913,-13.218538,-24.643291,5.2425256,-3.5415423,1.4080825,-55.868767,-23.5993,21.609875,-29.062372,0.79723656,-2.9069169,-11.032851
52,-6.322651386260986,-21.796831130981445,60.46033477783203,-3.618075133810745,28.162506840829007,-94.86898297408678,-77.935684,12.999237,-5.414058,114.45486,-9.373143,1.4122347,-82.61729,-9.896075,-17.27526,80.85653,-23.429958,-10.44987,-1.2848784,-1.8482329,29.793802,-48.53075,32.747837,-12.433329,-25.00275,5.8563657,-3.4893775,1.3091421,-55.786514,-23.579401,21.777287,-28.95055,0.72436565,-2.909176,-11.068937
53,-6.5182952880859375,-22.189943313598633,60.53928756713867,-3.5093320068111353,28.04247403785356,-94.73120034046293,-79.074486,13.713121,-5.2526894,115.35946,-6.2802153,2.966289,-82.097916,-9.87731,-17.34065,81.12449,-24.070593,-10.566094,-1.3646067,-1.8042483,29.793802,-48.184486,33.02485,-11.653434,-25.3597,6.205361,-3.5564518,1.3727391,-55.730347,-23.551128,21.927149,-28.8411,0.7173022,-2.9443119,-11.079998
54,-6.700077056884766,-22.57740020751953,60.618621826171875,-3.440267486625498,27.92060610527888,-94.61259234828894,-80.38241,14.573592,-5.116231,116.311584,-3.0370357,4.7847433,-81.553276,-9.838554,-17.454134,81.35708,-24.694818,-10.686167,-1.4372499,-1.7661922,29.793802,-47.846256,33.327618,-10.869748,-25.732712,6.3926973,-3.705631,1.5635092,-55.689537,-23.516182,22.058332,-28.737484,0.7556593,-3.0003412,-11.069054
55,-6.891626358032227,-22.97158432006836,60.69635009765625,-3.4249855423991318,27.80092791511309,-94.52593279903661,-81.70403,15.672073,-4.9511614,117.23094,-0.29113087,6.7328043,-80.985176,-9.763589,-17.620937,81.54728,-25.303562,-10.808727,-1.4925274,-1.7318102,29.793802,-47.52556,33.643345,-10.098476,-26.107338,6.420304,-3.883886,1.8134743,-55.664524,-23.477554,22.155607,-28.647655,0.7936574,-3.0668054,-11.040198
56,-7.0876994132995605,-23.364025115966797,60.76634979248047,-3.4585227307179185,27.6916793741242,-94.4726137474651,-82.86692,17.028315,-4.693455,118.03906,1.2984405,8.613556,-80.40852,-9.650143,-17.82608,81.69729,-25.899569,-10.927602,-1.5328536,-1.7098368,29.793802,-47.234985,33.953224,-9.352555,-26.471691,6.294779,-4.038744,2.0529952,-55.658615,-23.440042,22.204472,-28.578295,0.78607965,-3.1328945,-10.997738
57,-7.272451400756836,-23.746925354003906,60.83491897583008,-3.5358714015822272,27.601218578798836,-94.4456989948903,-83.79634,18.801,-4.2306633,118.803116,1.3067961,10.490311,-79.83067,-9.506628,-18.069582,81.80404,-26.486591,-11.039664,-1.5614411,-1.7003341,29.793802,-46.990067,34.24734,-8.607896,-26.833845,5.9335513,-4.133767,2.190471,-55.67979,-23.415281,22.189587,-28.535522,0.68987536,-3.1953597,-10.920152
58,-7.455072402954102,-24.128650665283203,60.90377426147461,-3.622368574734122,27.529165800347297,-94.4278687743985,-84.54314,20.834824,-3.5809665,119.53641,0.13771303,12.353164,-79.26571,-9.354737,-18.317228,81.884926,-27.065193,-11.139806,-1.5965272,-1.7205975,29.793802,-46.786694,34.525425,-7.8572135,-27.195782,5.3661084,-4.20598,2.2823236,-55.727867,-23.408623,22.128647,-28.519999,0.5424416,-3.2596395,-10.81521
59,-7.6320977210998535,-24.50359535217285,60.974632263183594,-3.662379976968615,27.476704426455328,-94.39444040337442,-85.1361,22.655903,-2.8438494,120.081276,-1.5782391,13.889151,-78.74243,-9.2240505,-18.502783,81.97091,-27.631508,-11.218643,-1.6752784,-1.8087175,29.793802,-46.59988,34.78198,-7.135988,-27.539413,4.7735753,-4.3133607,2.4811602,-55.800564,-23.409954,22.057503,-28.522793,0.41746372,-3.327805,-10.729685
60,-7.794390678405762,-24.880720138549805,61.0462532043457,-3.628449394990016,27.441884542353442,-94.33130344039309,-85.654335,23.835642,-2.15883,120.28277,-3.1707065,14.824766,-78.27528,-9.130608,-18.59095,82.08342,-28.181192,-11.2731,-1.816985,-1.9805009,29.793802,-46.41571,35.007557,-6.4935303,-27.839643,4.339071,-4.5158343,2.9396772,-55.896023,-23.402391,22.00561,-28.528936,0.38322854,-3.4011219,-10.705887
61,-7.939652442932129,-25.254514694213867,61.11954879760742,-3.540446944015655,27.42131752806354,-94.248697879822,-86.13769,24.255342,-1.6075269,120.101166,-4.573134,15.000033,-77.85397,-9.060483,-18.598171,82.21631,-28.709568,-11.311982,-2.0155675,-2.2280824,29.793802,-46.23572,35.190872,-5.9622827,-28.098011,4.1579733,-4.8548093,3.7627506,-56.01317,-23.373165,21.97935,-28.53288,0.4681548,-3.4860325,-10.770539
62,-8.075804710388184,-25.623348236083984,61.18668746948242,-3.4163322208133584,27.4171739952112,-94.15044912745662,-86.57472,24.326958,-1.0118682,119.61359,-6.071791,14.926587,-77.470566,-9.011763,-18.548967,82.35803,-29.218454,-11.333932,-2.2564495,-2.532358,29.793802,-46.08282,35.331448,-5.5200214,-28.313152,4.127358,-5.2887635,4.8466635,-56.15853,-23.323982,21.958626,-28.53119,0.62496775,-3.57943,-10.89002
63,-8.202091217041016,-25.99280548095703,61.25215148925781,-3.253278351863618,27.425757544922465,-94.03209379027956,-86.978355,23.871147,-0.5369281,118.853935,-7.501453,14.243937,-77.118225,-8.98874,-18.453604,82.51117,-29.71907,-11.335068,-2.52875,-2.8794782,29.793802,-45.964787,35.436752,-5.1402917,-28.465538,4.1326284,-5.7542915,6.033483,-56.331287,-23.262451,21.92759,-28.516605,0.8090767,-3.6682503,-11.017047
64,-8.328368186950684,-26.354848861694336,61.317039489746094,-3.0410656506547875,27.445246297778315,-93.88579143918416,-87.364784,22.996748,-0.16823958,117.8579,-8.724227,13.12062,-76.79677,-9.00232,-18.31115,82.67941,-30.218733,-11.30596,-2.8241112,-3.2601233,29.793802,-45.8962,35.520443,-4.7950063,-28.528522,4.0482116,-6.193259,7.163755,-56.529396,-23.198591,21.871733,-28.488024,0.9781551,-3.7391527,-11.106093
65,-8.4508695602417,-26.71292495727539,61.38370132446289,-2.7772303008131596,27.477137224305565,-93.7150172249921,-87.74262,21.593493,0.022857208,116.59978,-9.738673,11.4245405,-76.51027,-9.046973,-18.114344,82.856285,-30.709267,-11.233477,-3.1432831,-3.686471,29.793802,-45.86984,35.590843,-4.4869213,-28.508785,3.8079412,-6.626136,8.247699,-56.752285,-23.13792,21.781214,-28.445688,1.1438124,-3.7889802,-11.141932
66,-8.570928573608398,-27.06390953063965,61.44797897338867,-2.482207444173994,27.51366923725538,-93.53834185178512,-88.10665,19.766556,0.03486836,115.07708,-10.669264,9.248888,-76.245346,-9.102478,-17.87703,83.03617,-31.18865,-11.129106,-3.4685922,-4.150238,29.793802,-45.89708,35.646782,-4.240075,-28.398827,3.479591,-7.0770364,9.354589,-56.98735,-23.082924,21.662523,-28.399479,1.3245032,-3.8249848,-11.152136
67,-8.678265571594238,-27.417587280273438,61.50341033935547,-2.1724866360664596,27.542934710627915,-93.3620473846069,-88.445854,17.84469,-0.036187906,113.35007,-11.541909,6.947935,-75.98147,-9.166588,-17.62476,83.22706,-31.67444,-11.019339,-3.7708209,-4.6157694,29.793802,-45.97058,35.67196,-4.057778,-28.203987,3.1591728,-7.4908686,10.418428,-57.20874,-23.045374,21.518349,-28.36087,1.4905802,-3.8492947,-11.158283
68,-8.788444519042969,-27.7775821685791,61.550777435302734,-1.851797960900605,27.559534109921707,-93.1820526300581,-88.75399,16.109308,-0.07258737,111.47744,-12.337925,4.840402,-75.70948,-9.249484,-17.373251,83.44265,-32.18511,-10.928704,-4.0581417,-5.0687914,29.793802,-46.060535,35.68041,-3.89813,-27.943428,2.9241045,-7.8084188,11.364609,-57.422367,-23.00305,21.371674,-28.32453,1.6074489,-3.86503,-11.18054
69,-8.894299507141113,-28.131378173828125,61.594051361083984,-1.5013890092962825,27.55948745087917,-92.98445759497105,-89.019485,14.518326,-0.05536835,109.43267,-13.033709,2.904109,-75.43231,-9.368559,-17.107916,83.69508,-32.727715,-10.85839,-4.3515754,-5.5308423,29.793802,-46.177505,35.66609,-3.755367,-27.570171,2.804502,-7.998105,12.176887,-57.619663,-22.951424,21.227013,-28.304115,1.6357788,-3.8625498,-11.25582
70,-8.998400688171387,-28.48682975769043,61.63145446777344,-1.122104164420987,27.547533521311518,-92.77213166938738,-89.24449,12.958984,-0.044731226,107.193306,-13.646665,1.0091659,-75.15464,-9.5188675,-16.825016,83.974976,-33.293407,-10.796756,-4.651226,-6.0056458,29.793802,-46.30647,35.61526,-3.6394281,-27.113293,2.7660882,-8.092283,12.889734,-57.82341,-22.87882,21.082859,-28.27474,1.5937827,-3.8441143,-11.360678
71,-9.103694915771484,-28.854650497436523,61.66489791870117,-0.7432971440454523,27.53510871185614,-92.5586360859439,-89.45264,11.545801,-0.026275322,104.82217,-14.163295,-0.7390659,-74.87744,-9.6798315,-16.549932,84.26487,-33.871696,-10.745413,-4.9239826,-6.444179,29.793802,-46.477226,35.55729,-3.560224,-26.62046,2.7437456,-8.129067,13.514924,-58.021114,-22.82238,20.920763,-28.250303,1.565066,-3.8270836,-11.427481
72,-9.20419979095459,-29.228586196899414,61.689632415771484,-0.3891434960133324,27.528651843969932,-92.35507451593566,-89.653656,10.386112,0.04194129,102.37856,-14.568321,-2.230475,-74.59693,-9.835067,-16.304373,84.550934,-34.455254,-10.705797,-5.157208,-6.811408,29.793802,-46.65009,35.46737,-3.511497,-26.186274,2.742049,-8.145957,14.0484915,-58.24096,-22.749006,20.729391,-28.191938,1.6087644,-3.8282807,-11.364179
73,-9.299880981445312,-29.596467971801758,61.70838928222656,-0.04432353276171731,27.537042126675566,-92.14916548929449,-89.852165,9.464431,0.19499873,99.84283,-14.800204,-3.4630773,-74.32546,-10.000295,-16.080843,84.83735,-35.04846,-10.685391,-5.362587,-7.1156573,29.793802,-46.827625,35.39386,-3.4878814,-25.80758,2.765238,-8.11275,14.496915,-58.463894,-22.703987,20.491385,-28.13915,1.8123093,-3.8572676,-11.124273
74,-9.38516902923584,-29.961421966552734,61.72216033935547,0.3040621101047534,27.55609412985476,-91.93511055475793,-90.03415,8.704358,0.41672924,97.18761,-14.8685665,-4.515587,-74.06578,-10.182251,-15.864554,85.13175,-35.652554,-10.679013,-5.5522404,-7.3815703,29.793802,-47.00724,35.326843,-3.4912632,-25.45837,2.8248417,-8.021395,14.860702,-58.686234,-22.676752,20.215023,-28.097668,2.120976,-3.9017825,-10.7604265
75,-9.477669715881348,-30.32891845703125,61.72377014160156,0.6264307377504704,27.585154530974993,-91.733227510725,-90.19718,8.114575,0.680137,94.46461,-14.853482,-5.4018154,-73.80857,-10.355972,-15.67437,85.42221,-36.257774,-10.671672,-5.7017045,-7.571172,29.793802,-47.254482,35.305134,-3.4906116,-25.114199,2.747642,-7.9503117,15.145278,-58.9113,-22.673157,19.951895,-28.056297,2.4207115,-3.9483986,-10.385926
76,-9.573080062866211,-30.702701568603516,61.71343231201172,0.8983689603194023,27.622739782457064,-91.56402487260155,-90.33456,7.706566,0.96713275,91.72362,-14.834744,-6.1324635,-73.54476,-10.496977,-15.523154,85.69808,-36.85541,-10.647755,-5.801065,-7.7293115,29.793802,-47.447437,35.2849,-3.5424235,-24.92734,2.5795603,-7.961092,15.405621,-59.093822,-22.66661,19.694372,-28.068552,2.6266854,-3.9908051,-10.09675
77,-9.659483909606934,-31.07455062866211,61.69979476928711,1.1117448767113054,27.671951990713765,-91.42959948931767,-90.440506,7.5107145,1.3121396,88.9449,-14.823299,-6.715846,-73.27094,-10.5980835,-15.419223,85.950714,-37.445312,-10.596195,-5.82483,-7.8283057,29.793802,-47.67019,35.263527,-3.6714587,-24.829468,2.198042,-8.120577,15.6513405,-59.234962,-22.649538,19.451181,-28.11552,2.683749,-4.027085,-9.932496
78,-9.742758750915527,-31.455787658691406,61.675025939941406,1.287641722326048,27.733117767814566,-91.31852092525416,-90.51092,7.4881015,1.7365746,86.10703,-14.770258,-7.16209,-72.99613,-10.676328,-15.346263,86.19197,-38.03243,-10.526838,-5.817414,-7.873828,29.793802,-47.860504,35.25518,-3.805152,-24.849258,1.6553764,-8.377636,15.853107,-59.377693,-22.62467,19.255867,-28.174492,2.6515882,-4.0640697,-9.852692
79,-9.81536865234375,-31.837739944458008,61.651206970214844,1.4273427574870658,27.79656939006088,-91.23240699707306,-90.54915,7.5523405,2.1806557,83.263626,-14.66836,-7.4800386,-72.7154,-10.735286,-15.299704,86.432175,-38.612755,-10.456893,-5.771019,-7.884875,29.793802,-48.05028,35.2611,-3.9607365,-24.95527,1.1047884,-8.632521,15.984614,-59.518826,-22.584595,19.062178,-28.234978,2.5717483,-4.101291,-9.777739
80,-9.883323669433594,-32.23004150390625,61.61720275878906,1.5349026927219032,27.852200992882146,-91.17303559159242,-90.559654,7.6243486,2.5885408,80.47111,-14.513921,-7.66472,-72.425186,-10.780842,-15.272135,86.685524,-39.182343,-10.4042845,-5.7141223,-7.8649044,29.793802,-48.18442,35.28127,-4.0667996,-25.187195,0.68654495,-8.785745,16.00211,-59.664513,-22.551506,18.876936,-28.304092,2.499304,-4.1367364,-9.65506
81,-9.940470695495605,-32.62852096557617,61.575435638427734,1.604066050575474,27.89906031017725,-91.13947347658502,-90.55153,7.707957,2.9541352,77.73299,-14.30814,-7.644489,-72.12248,-10.814566,-15.274075,86.954414,-39.74462,-10.383827,-5.6208572,-7.824354,29.793802,-48.32317,35.33623,-4.181819,-25.512863,0.40964195,-8.786645,15.869324,-59.814465,-22.502626,18.654545,-28.3671,2.4216604,-4.1735826,-9.44518
82,-9.984376907348633,-33.03122329711914,61.528076171875,1.638483951524197,27.942530430633106,-91.13093155017025,-90.518425,7.831923,3.3126,75.02324,-14.054395,-7.4488707,-71.81206,-10.83405,-15.301162,87.23363,-40.29952,-10.382435,-5.5087905,-7.7530346,29.793802,-48.419147,35.424477,-4.264949,-25.968306,0.19757119,-8.695098,15.607374,-59.97968,-22.446392,18.441494,-28.427162,2.3223684,-4.212221,-9.202194
83,-10.023969650268555,-33.42872619628906,61.47227478027344,1.6431014259655596,27.984491966539842,-91.15059668009737,-90.45437,7.9620204,3.6472197,72.35664,-13.750718,-7.220052,-71.49698,-10.832524,-15.339578,87.51565,-40.84169,-10.378154,-5.377435,-7.661495,29.793802,-48.48297,35.532207,-4.3341055,-26.517136,0.09018743,-8.5734,15.325909,-60.145626,-22.383322,18.23814,-28.491476,2.223832,-4.249396,-8.944753
84,-10.0604829788208,-33.83318328857422,61.41199493408203,1.625218940664922,28.02309464746153,-91.20176816173228,-90.35028,8.069465,3.9406745,69.748116,-13.392778,-7.097924,-71.1812,-10.804888,-15.371876,87.80075,-41.35781,-10.348079,-5.2433863,-7.5751667,29.793802,-48.513546,35.65888,-4.3931565,-27.124586,0.12869184,-8.483978,15.13194,-60.286537,-22.317709,18.040197,-28.593327,2.1682875,-4.280018,-8.686231
85,-10.093552589416504,-34.234130859375,61.349098205566406,1.5712865866292087,28.066541720492218,-91.2914977881782,-90.20847,8.162341,4.183866,67.159706,-12.942689,-7.130819,-70.86649,-10.737843,-15.407656,88.07399,-41.846024,-10.286322,-5.0626864,-7.4588556,29.793802,-48.54029,35.789585,-4.4802403,-27.799482,0.37899935,-8.430495,15.095596,-60.4434,-22.228212,17.866135,-28.656149,2.1097624,-4.3044186,-8.433703
86,-10.109375,-34.64591598510742,61.28213882446289,1.4859252359027169,28.10544671588224,-91.41631828170502,-90.02642,8.251686,4.390213,64.59818,-12.414102,-7.2394767,-70.54574,-10.639506,-15.446777,88.346214,-42.313194,-10.204484,-4.870371,-7.3363314,29.793802,-48.520935,35.92869,-4.563331,-28.565937,0.82751065,-8.382518,15.139219,-60.58525,-22.124714,17.695564,-28.73905,2.0782313,-4.3208766,-8.165129
87,-10.11438274383545,-35.061180114746094,61.207096099853516,1.3835821394945804,28.141187410813995,-91.5647531598481,-89.822235,8.314592,4.5513835,62.136448,-11.872472,-7.371443,-70.22531,-10.5279665,-15.481969,88.631226,-42.766205,-10.1100445,-4.6667647,-7.2120132,29.793802,-48.485928,36.071182,-4.6414194,-29.367876,1.3124396,-8.359337,15.175122,-60.729427,-22.008205,17.537882,-28.82242,2.0593638,-4.3390465,-7.9035854
88,-10.116683959960938,-35.4796142578125,61.12857437133789,1.2804057844008394,28.173118638644,-91.72585968993883,-89.60957,8.330625,4.66017,59.844845,-11.383434,-7.4719987,-69.90948,-10.421333,-15.504301,88.93864,-43.207703,-10.010618,-4.462499,-7.099137,29.793802,-48.453457,36.20897,-4.7065983,-30.155018,1.6845332,-8.380924,15.113447,-60.883415,-21.881432,17.398333,-28.905134,2.0510888,-4.367164,-7.6668544
89,-10.130682945251465,-35.904991149902344,61.05104064941406,1.1755685690798467,28.203644717294424,-91.90076745182365,-89.39252,8.289509,4.689526,57.708073,-10.961209,-7.513025,-69.59855,-10.321635,-15.517561,89.26617,-43.643723,-9.912108,-4.2532125,-6.9909396,29.793802,-48.44037,36.341743,-4.752253,-30.922512,1.9096516,-8.463104,14.925175,-61.04665,-21.751877,17.272255,-28.988773,2.0650127,-4.4096913,-7.4498515
90,-10.118403434753418,-36.33167266845703,60.96446990966797,1.0632167262208128,28.233036122342906,-92.09362605840225,-89.166824,8.209807,4.6489763,55.702675,-10.573222,-7.523445,-69.2912,-10.221145,-15.524042,89.60832,-44.07106,-9.808686,-4.040887,-6.897137,29.793802,-48.347946,36.4368,-4.804868,-31.774376,2.1415439,-8.587999,14.675451,-61.21743,-21.605978,17.162907,-29.074133,2.0966024,-4.4634147,-7.2525864
91,-10.093156814575195,-36.76588821411133,60.871360778808594,0.9469247892690565,28.25501510089814,-92.29659847842933,-88.94182,8.113613,4.5796914,53.9073,-10.223932,-7.535679,-68.98633,-10.12227,-15.517661,89.97622,-44.47707,-9.693056,-3.822314,-6.796332,29.793802,-48.29116,36.513947,-4.845301,-32.568157,2.2909143,-8.740874,14.361124,-61.387413,-21.46225,17.066729,-29.161263,2.127339,-4.516487,-7.077256
92,-10.052446365356445,-37.1948127746582,60.76944351196289,0.8348844036428252,28.267756176000248,-92.50075371849269,-88.729706,8.01885,4.5284996,52.398155,-9.916063,-7.584181,-68.68952,-10.030221,-15.488244,90.38207,-44.848866,-9.557347,-3.6122913,-6.712237,29.793802,-48.19107,36.54936,-4.902011,-33.344177,2.4241965,-8.895313,14.024548,-61.551586,-21.30919,16.99083,-29.255516,2.1348054,-4.564022,-6.9481335
93,-10.029664039611816,-37.633209228515625,60.66566848754883,0.7206382542030247,28.26448214536701,-92.70851131227676,-88.50466,7.9464345,4.539421,51.15815,-9.733636,-7.723738,-68.389,-9.940345,-15.443328,90.82558,-45.193665,-9.403279,-3.3924413,-6.6221986,29.793802,-48.110413,36.548008,-4.9638724,-34.054203,2.4880822,-9.05607,13.61964,-61.711937,-21.152443,16.940977,-29.345217,2.089652,-4.5997,-6.8738313
94,-9.993269920349121,-38.074337005615234,60.55702590942383,0.602170691836048,28.2513651959869,-92.92091473225518,-88.27961,7.878778,4.5756383,50.16905,-9.651385,-7.9222865,-68.08889,-9.853213,-15.386931,91.301186,-45.51397,-9.234304,-3.1541715,-6.5138674,29.793802,-48.081924,36.521595,-5.0228195,-34.684933,2.4530084,-9.2337055,13.143572,-61.87168,-20.998983,16.913837,-29.427164,2.0027719,-4.6282654,-6.844033
95,-9.943401336669922,-38.52012634277344,60.4463996887207,0.49751919414649615,28.240870389397504,-93.12583970849299,-88.120544,7.7681456,4.5654335,49.50698,-9.508915,-8.084379,-67.81281,-9.785158,-15.302247,91.81372,-45.79391,-9.043939,-2.9450815,-6.4365845,29.793802,-47.96656,36.434387,-5.1155334,-35.33423,2.4617863,-9.409916,12.692417,-62.03049,-20.83349,16.897663,-29.518284,1.9268415,-4.6587033,-6.84115
96,-9.883334159851074,-38.9681510925293,60.339229583740234,0.4133641898689114,28.24699035243928,-93.31123003708234,-88.09921,7.5687532,4.423598,49.25199,-9.146455,-8.116068,-67.58072,-9.74822,-15.184767,92.36292,-46.01521,-8.826433,-2.7483137,-6.3404226,29.793802,-47.96903,36.328815,-5.200153,-35.80026,2.3520732,-9.586073,12.297516,-62.20432,-20.682003,16.884272,-29.581493,1.8751445,-4.6933913,-6.828959
97,-9.819536209106445,-39.41210174560547,60.22977066040039,0.35308321558759487,28.28398710832866,-93.46785014627442,-88.26697,7.224062,4.088045,49.514458,-8.453918,-7.957147,-67.415695,-9.755178,-15.038917,92.96316,-46.16602,-8.578663,-2.584322,-6.249874,29.793802,-48.000427,36.19153,-5.3175263,-36.194595,2.2272902,-9.7569065,12.023002,-62.394047,-20.534729,16.871544,-29.624744,1.877211,-4.7429104,-6.8023305
98,-9.751110076904297,-39.85649108886719,60.11958312988281,0.31310159305481033,28.34018538476553,-93.60385269539229,-88.571396,6.768109,3.6241806,50.218086,-7.533252,-7.679264,-67.300545,-9.796901,-14.864661,93.60998,-46.25739,-8.304314,-2.4513464,-6.173641,29.793802,-48.024582,36.00753,-5.469993,-36.544983,2.1112137,-9.925007,11.827283,-62.59321,-20.38561,16.862377,-29.658243,1.9164065,-4.8017883,-6.775412
99,-9.673067092895508,-40.305908203125,60.012638092041016,0.2950722215399643,28.39653148080314,-93.73409754994672,-88.93246,6.293314,3.1421566,51.159187,-6.5427012,-7.380931,-67.203735,-9.854446,-14.643585,94.27721,-46.30801,-8.005828,-2.3278992,-6.107063,29.793802,-48.066673,35.781982,-5.6301427,-36.7664,1.9316301,-10.087039,11.651558,-62.802322,-20.235989,16.871317,-29.67488,1.9418876,-4.8572783,-6.7741756
100,-9.58789348602295,-40.765193939208984,59.90591812133789,0.30280943027287416,28.4345722552787,-93.872222262714,-89.2741,5.8963604,2.746329,52.142254,-5.6495743,-7.147097,-67.094765,-9.910356,-14.356849,94.94043,-46.337025,-7.686188,-2.2080212,-6.0621924,29.793802,-48.11164,35.52384,-5.7733307,-36.80562,1.6450914,-10.236901,11.444972,-63.010902,-20.086699,16.905207,-29.687616,1.9182194,-4.89708,-6.826611
101,-9.491228103637695,-41.22856140136719,59.80586242675781,0.3361271829547941,28.446900607767784,-94.02367365722812,-89.59869,5.5806646,2.3930144,53.168392,-4.8227997,-7.051569,-66.97134,-9.950212,-13.986188,95.60446,-46.3404,-7.3339777,-2.0907454,-6.0380015,29.793802,-48.144844,35.237926,-5.888253,-36.66473,1.2327653,-10.387356,11.174278,-63.21003,-19.936815,16.980864,-29.706131,1.8319916,-4.914697,-6.973864
102,-9.3843994140625,-41.698184967041016,59.71565246582031,0.3936925759257205,28.4439588143087,-94.18104582891759,-89.93866,5.3062067,2.0474453,54.324104,-4.0000443,-7.0239635,-66.84731,-9.984991,-13.546195,96.27873,-46.309498,-6.951621,-1.983861,-6.0334725,29.793802,-48.171455,34.926537,-5.9835167,-36.370228,0.7174005,-10.535163,10.872299,-63.404766,-19.784704,17.088772,-29.727665,1.7078006,-4.9172683,-7.1901526
103,-9.2739896774292,-42.17976760864258,59.63227081298828,0.47762224268631653,28.435616174022655,-94.33698841215062,-90.26809,5.11169,1.8233404,55.546913,-3.3064,-6.9177337,-66.71663,-10.0354805,-13.072979,96.944435,-46.26458,-6.5657516,-1.893149,-6.06039,29.793802,-48.210217,34.5961,-6.067179,-35.908012,0.11700755,-10.649574,10.589326,-63.611927,-19.628431,17.198868,-29.736355,1.5627189,-4.913975,-7.403515
104,-9.14921760559082,-42.66370391845703,59.55479049682617,0.5942715862168183,28.431386557563673,-94.48347224880396,-90.55918,5.046459,1.8394005,56.77396,-2.8704062,-6.581085,-66.574455,-10.124093,-12.597648,97.582245,-46.222187,-6.203294,-1.8480722,-6.159729,29.793802,-48.222225,34.23682,-6.1686344,-35.308495,-0.47667646,-10.698292,10.388559,-63.844315,-19.458029,17.277836,-29.73994,1.4333907,-4.9153175,-7.5428257
105,-9.02402400970459,-43.15061950683594,59.483116149902344,0.7523940776162639,28.422200390363148,-94.61000682477093,-90.79631,5.236735,2.2509687,58.045006,-2.836144,-5.9263334,-66.40968,-10.271056,-12.1268835,98.20033,-46.18855,-5.8615074,-1.8361682,-6.30195,29.793802,-48.34336,33.900555,-6.2221107,-34.386375,-1.4102316,-10.736996,10.199097,-64.11243,-19.30079,17.300064,-29.71456,1.2883302,-4.9110293,-7.5419054
106,-8.9046630859375,-43.63945007324219,59.41923904418945,0.9494950185636178,28.40961994541312,-94.72381221605595,-90.99,5.6389117,2.9455912,59.375065,-3.1189482,-5.0365644,-66.23331,-10.460359,-11.640182,98.804436,-46.15438,-5.528365,-1.866598,-6.5105934,29.793802,-48.486958,33.583096,-6.2604284,-33.240425,-2.5513022,-10.757835,10.039859,-64.40134,-19.1453,17.289118,-29.68882,1.1347892,-4.9028087,-7.464704
107,-8.791467666625977,-44.1221809387207,59.36785888671875,1.157742338734971,28.41012132692042,-94.84369596784548,-91.157974,6.0356965,3.6292017,60.67258,-3.4973364,-4.0266137,-66.055595,-10.658236,-11.148858,99.36859,-46.10796,-5.2213345,-1.913755,-6.7630434,29.793802,-48.606224,33.271843,-6.2882953,-32.0581,-3.4949868,-10.654024,10.012559,-64.69746,-18.97891,17.27269,-29.666525,1.0231924,-4.9076715,-7.3936872
108,-8.670032501220703,-44.61549377441406,59.329044342041016,1.3447491721067972,28.439578238592514,-94.98900615642079,-91.33378,6.194436,4.017819,61.84926,-3.7281122,-3.0169427,-65.88558,-10.825549,-10.666206,99.86586,-46.037697,-4.958209,-1.9346132,-7.0080085,29.793802,-48.710464,32.976307,-6.278965,-30.978853,-3.917157,-10.323449,10.204919,-64.98651,-18.807117,17.278183,-29.64294,1.0010166,-4.9399695,-7.4048
109,-8.55052375793457,-45.11039352416992,59.3022346496582,1.5206109649569215,28.509585425716423,-95.155598512993,-91.55833,5.9263515,3.959141,62.863194,-3.640176,-1.948048,-65.73275,-10.975792,-10.19797,100.29014,-45.95702,-4.760901,-1.9188547,-7.2392597,29.793802,-48.839626,32.71782,-6.2049437,-29.958055,-3.7532024,-9.629339,10.665968,-65.27491,-18.640993,17.318947,-29.60312,1.1172949,-5.0238266,-7.5429645
110,-8.431108474731445,-45.61051559448242,59.29261016845703,1.699319545638087,28.610194985837254,-95.33547663794243,-91.808365,5.378461,3.6496038,63.76489,-3.376011,-0.8001449,-65.59323,-11.123312,-9.731846,100.65619,-45.86603,-4.613635,-1.90287,-7.4983897,29.793802,-48.95571,32.487576,-6.0926647,-28.966223,-3.1555598,-8.657272,11.338416,-65.56486,-18.471092,17.378918,-29.564821,1.3438061,-5.1462765,-7.762657
111,-8.319022178649902,-46.1263313293457,59.29692459106445,1.8451885666603813,28.724625175268653,-95.54245132137028,-92.03232,4.8200974,3.3180285,64.607574,-3.1562598,0.24913365,-65.44971,-11.228097,-9.267666,100.96643,-45.732502,-4.479792,-1.863537,-7.741962,29.793802,-49.049015,32.286083,-5.957643,-28.089745,-2.2688305,-7.6400127,12.125022,-65.83991,-18.29377,17.441967,-29.536776,1.5793014,-5.2628913,-7.997039
112,-8.202986717224121,-46.637535095214844,59.31559753417969,1.9240353928432876,28.836412661142585,-95.79017585955395,-92.1777,4.527861,3.1799898,65.44537,-3.2196152,1.0304294,-65.28527,-11.250418,-8.804249,101.22373,-45.524338,-4.32243,-1.7901214,-7.9424286,29.793802,-49.07976,32.105618,-5.8265824,-27.443037,-1.1892204,-6.8115697,12.946464,-66.0765,-18.102089,17.487343,-29.542046,1.732903,-5.3288765,-8.18303
113,-8.078577041625977,-47.16106033325195,59.34702682495117,1.906500361499312,28.944389387824888,-96.10223430509133,-92.2237,4.631221,3.305204,66.29387,-3.685744,1.4261624,-65.07628,-11.152863,-8.347064,101.395996,-45.255108,-4.1130643,-1.6513184,-8.071344,29.793802,-49.04383,31.944729,-5.7175016,-27.071209,0.24619423,-6.2060037,13.900368,-66.26187,-17.890022,17.508978,-29.584072,1.7880098,-5.320447,-8.284441
114,-7.947203636169434,-47.69267654418945,59.39398956298828,1.8176910857511253,29.055479391049335,-96.46494102595351,-92.19916,4.9676704,3.564199,67.12717,-4.4151926,1.5485727,-64.83734,-10.964268,-7.8933444,101.494026,-44.934223,-3.8771067,-1.4653579,-8.153835,29.793802,-48.952644,31.802732,-5.615329,-26.912613,2.036423,-5.6872272,14.986079,-66.4116,-17.656815,17.51849,-29.651459,1.7899479,-5.264958,-8.339979
115,-7.81996488571167,-48.245121002197266,59.44804000854492,1.7025518483636504,29.16542598532917,-96.83595936682906,-92.126564,5.380025,3.8687892,67.93588,-5.2651105,1.5807325,-64.60352,-10.747608,-7.4364066,101.58234,-44.526554,-3.658688,-1.2842909,-8.228803,29.793802,-48.81018,31.673914,-5.4934363,-26.90448,3.8301735,-5.2556663,15.987343,-66.55217,-17.408108,17.526308,-29.726511,1.7337654,-5.19329,-8.398403
116,-7.683337688446045,-48.806297302246094,59.51383590698242,1.605219572917045,29.26996898037933,-97.17252900156956,-92.0304,5.7058516,4.130146,68.71241,-6.0954356,1.7051017,-64.409134,-10.564479,-6.970841,101.72433,-43.994843,-3.5019226,-1.1578417,-8.328474,29.793802,-48.63195,31.55789,-5.316554,-26.975311,5.2628827,-4.9371233,16.690094,-66.70378,-17.161499,17.538221,-29.80341,1.6214535,-5.134934,-8.506266
117,-7.540736198425293,-49.35297775268555,59.584999084472656,1.5293496197222785,29.380168431684556,-97.47798970058273,-91.92561,5.915607,4.329751,69.45736,-6.8926826,1.9750925,-64.25819,-10.410189,-6.489861,101.908264,-43.367096,-3.43544,-1.0856861,-8.459764,29.793802,-48.40634,31.444096,-5.064272,-27.165482,6.1902914,-4.807199,17.002308,-66.87831,-16.91931,17.5586,-29.881973,1.3903981,-5.090175,-8.68606
118,-7.409716606140137,-49.909584045410156,59.656028747558594,1.4534337288900048,29.49297524552084,-97.77022184584497,-91.7968,6.087574,4.513677,70.176216,-7.7233067,2.2904248,-64.13195,-10.25827,-5.999495,102.109024,-42.65193,-3.4285288,-1.0445428,-8.597813,29.793802,-48.139008,31.337091,-4.7469587,-27.485939,6.813693,-4.8497634,17.05464,-67.0563,-16.690855,17.578928,-29.976654,1.0731763,-5.0433564,-8.906301
119,-7.26619291305542,-50.468421936035156,59.73940658569336,1.383533553751526,29.59155068349834,-98.02754855760551,-91.62821,6.215941,4.6877728,70.85862,-8.567232,2.6023405,-64.04295,-10.136631,-5.5148683,102.36983,-41.770493,-3.4380088,-1.0358632,-8.73888,29.793802,-47.8474,31.22138,-4.4407887,-27.84997,7.3617826,-4.956637,16.99516,-67.22276,-16.474134,17.601349,-30.070238,0.77006215,-5.006478,-9.156918
120,-7.122034549713135,-51.02833557128906,59.836185455322266,1.3260544384309976,29.65638072289957,-98.22763876302608,-91.402,6.297794,4.860419,71.496895,-9.407077,2.866423,-63.999634,-10.073618,-5.0522375,102.734245,-40.648426,-3.421043,-1.0584451,-8.869442,29.793802,-47.566177,31.085018,-4.208185,-28.152216,8.040951,-5.0181146,16.959978,-67.36332,-16.2776,17.624538,-30.144913,0.58924437,-4.990834,-9.419528
121,-6.987639427185059,-51.59746551513672,59.92947769165039,1.293965634906899,29.6803464443954,-98.35449689977364,-91.10417,6.316969,5.041641,72.07895,-10.236968,3.071382,-63.985195,-10.098591,-4.6209326,103.20824,-39.26908,-3.3446035,-1.1252003,-8.997776,29.793802,-47.296993,30.91576,-4.064573,-28.382639,8.9493475,-5.0034637,16.947985,-67.46449,-16.11469,17.64322,-30.208426,0.58796275,-5.0012426,-9.700445
122,-6.866401672363281,-52.16329574584961,60.02477264404297,1.2770628304740619,29.675258764435647,-98.4227619430878,-90.74969,6.2801504,5.2234025,72.61442,-11.067996,3.244086,-64.00012,-10.18658,-4.2154193,103.76746,-37.67167,-3.2393036,-1.2117934,-9.106423,29.793802,-47.045376,30.704514,-3.991532,-28.57789,9.958012,-4.9744678,16.897495,-67.53383,-15.992228,17.661367,-30.258924,0.6893196,-5.0319543,-10.007266
123,-6.745119571685791,-52.719478607177734,60.12556076049805,1.2525860160717257,29.646585932023047,-98.45674166925022,-90.35998,6.21478,5.3857903,73.12324,-11.9014015,3.3848367,-64.08677,-10.2774725,-3.8089333,104.41092,-35.851536,-3.1418686,-1.2966082,-9.175619,29.793802,-46.80664,30.445578,-3.9880214,-28.727112,10.974081,-4.9539404,16.854206,-67.569046,-15.917295,17.668728,-30.310114,0.8493635,-5.077905,-10.317158
124,-6.622766017913818,-53.25504684448242,60.2335205078125,1.1939281494319367,29.601244820490667,-98.48107623640364,-89.9617,6.1501126,5.5064654,73.63286,-12.737343,3.4965742,-64.28346,-10.311306,-3.389321,105.13813,-33.805347,-3.0961604,-1.3357598,-9.162874,29.793802,-46.609272,30.146141,-4.0498796,-28.798576,11.859238,-4.9657574,16.860981,-67.57411,-15.898118,17.662886,-30.353659,1.0007508,-5.1332726,-10.609117
125,-6.507579326629639,-53.80332946777344,60.33238220214844,1.1048747934307817,29.53279072077945,-98.49339592730172,-89.54039,6.08952,5.5967,74.13769,-13.58642,3.5794282,-64.60182,-10.304466,-2.9644701,105.96618,-31.429691,-3.1179101,-1.3386104,-9.07953,29.793802,-46.43084,29.803186,-4.1858773,-28.788485,12.634551,-5.02527,16.9459,-67.538795,-15.94067,17.639387,-30.407959,1.1717021,-5.2036767,-10.881312
126,-6.399874210357666,-54.36085510253906,60.42130661010742,0.9933988851766652,29.441133219820173,-98.48321632419675,-89.09167,6.01839,5.6621656,74.62924,-14.444029,3.6336293,-65.02125,-10.273939,-2.541759,106.88745,-28.752434,-3.1749885,-1.3066734,-8.926277,29.793802,-46.279602,29.412487,-4.4012756,-28.705273,13.340201,-5.1160088,17.081366,-67.4636,-16.046688,17.603848,-30.462574,1.372635,-5.290354,-11.146499
127,-6.296370029449463,-54.900569915771484,60.51445770263672,0.8445461721465014,29.340581003648925,-98.46360774705248,-88.64833,5.939573,5.6795125,75.12226,-15.291163,3.662092,-65.53018,-10.1588,-2.1057174,107.85208,-25.96269,-3.2343984,-1.2256424,-8.687601,29.793802,-46.177437,28.978483,-4.6839175,-28.56049,13.926672,-5.2092495,17.233717,-67.35358,-16.217155,17.553328,-30.512775,1.5539508,-5.379338,-11.401438
128,-6.200510025024414,-55.448577880859375,60.59931945800781,0.6434178577354833,29.245964132469144,-98.44841038288527,-88.24454,5.857971,5.624503,75.63331,-16.109268,3.6669705,-66.1149,-9.895092,-1.6416699,108.81999,-23.253384,-3.2614272,-1.0851907,-8.353798,29.793802,-46.14099,28.509357,-5.0204153,-28.370935,14.34864,-5.27635,17.370316,-67.21352,-16.449856,17.482637,-30.558592,1.6682277,-5.4563303,-11.6443
129,-6.103306770324707,-55.98552703857422,60.67467498779297,0.3727289782566195,29.15556243589436,-98.4376779761487,-87.890305,5.7686863,5.4698076,76.17416,-16.891953,3.6298525,-66.79513,-9.479276,-1.1573437,109.81917,-20.469694,-3.2845836,-0.8794005,-7.9064565,29.793802,-46.177364,28.010717,-5.4106154,-28.122276,14.543242,-5.322038,17.469435,-67.04524,-16.748823,17.389952,-30.59454,1.7078284,-5.5302954,-11.901619
130,-6.00298547744751,-56.51224899291992,60.74497604370117,0.04224957575293031,29.063707153468684,-98.42626818342863,-87.566895,5.6737914,5.234108,76.73345,-17.649555,3.555713,-67.56679,-8.924375,-0.6620688,110.85382,-17.567791,-3.288289,-0.6156751,-7.3598084,29.793802,-46.26935,27.478409,-5.8631835,-27.818384,14.5591345,-5.3570557,17.55542,-66.846214,-17.111681,17.276157,-30.628227,1.6963878,-5.6043844,-12.16784
131,-5.9064507484436035,-57.03282928466797,60.802207946777344,-0.32532860824256443,28.977275700586624,-98.42155409389116,-87.2687,5.5900965,4.956027,77.300415,-18.392384,3.4798446,-68.373886,-8.1870575,-0.15086675,111.8513,-14.918889,-3.1749837,-0.29417396,-6.7351165,29.793802,-46.427376,26.92635,-6.3527174,-27.483114,14.465764,-5.367045,17.654501,-66.61598,-17.531929,17.138474,-30.665304,1.6302563,-5.6536164,-12.385503
132,-5.821033477783203,-57.543365478515625,60.85429763793945,-0.7054975352431688,28.903914186639824,-98.43106243954372,-86.989105,5.5335574,4.6763086,77.86068,-19.129375,3.4373093,-69.15741,-7.231704,0.38065687,112.74356,-12.910825,-2.8596303,0.0697535,-6.0738654,29.793802,-46.638863,26.369928,-6.861789,-27.154549,14.361122,-5.333875,17.80034,-66.35281,-17.989672,16.972403,-30.724566,1.5108078,-5.6540427,-12.499712
133,-5.736089706420898,-58.047000885009766,60.90176773071289,-1.1039637049274948,28.838858294669027,-98.45931620663661,-86.729324,5.5124407,4.3940263,78.42399,-19.865253,3.4462705,-69.89692,-6.0458136,0.9368383,113.58763,-11.704776,-2.4211297,0.47358474,-5.3743024,29.793802,-46.897877,25.828894,-7.37146,-26.84655,14.200207,-5.234615,17.991459,-66.05263,-18.465706,16.774889,-30.798534,1.2959085,-5.580477,-12.466623
134,-5.656935691833496,-58.536678314208984,60.94441223144531,-1.5253062327678213,28.778852970547412,-98.49903157364014,-86.48872,5.5143,4.09497,78.99148,-20.594086,3.4848807,-70.61755,-4.665702,1.5034621,114.40765,-11.095034,-1.891084,0.9042883,-4.6411147,29.793802,-47.196938,25.31274,-7.884922,-26.547337,13.956263,-5.083281,18.217007,-65.72902,-18.946442,16.550167,-30.878685,0.9962539,-5.4537086,-12.323715
135,-5.581243515014648,-59.0226936340332,60.98725891113281,-1.940667307144713,28.731715598127437,-98.538666204592,-86.25743,5.5233226,3.8012426,79.53757,-21.309212,3.528848,-71.32882,-3.1424305,2.0637662,115.08575,-10.929572,-1.1281544,1.3331034,-3.9166656,29.793802,-47.539154,24.828932,-8.402324,-26.248621,13.725848,-4.919323,18.49,-65.40677,-19.42632,16.30518,-30.97436,0.6929306,-5.3176146,-12.132394
136,-5.513927936553955,-59.486000061035156,61.03294372558594,-2.320168294188622,28.707056024615948,-98.56712001892339,-86.02659,5.524494,3.5363994,80.03581,-22.003935,3.554412,-72.04251,-1.5309905,2.6125216,115.5084,-11.066581,0.008177817,1.7307079,-3.2464733,29.793802,-47.91672,24.375422,-8.931896,-25.94817,13.621768,-4.7802663,18.825748,-65.10676,-19.900795,16.046644,-31.095821,0.46882793,-5.2155495,-11.957409
137,-5.4466986656188965,-59.95006561279297,61.076332092285156,-2.6473476466587815,28.704528596303888,-98.57280773727528,-85.78899,5.5103073,3.313765,80.47732,-22.676268,3.554741,-72.730286,0.25712514,3.2230406,115.64624,-11.6966715,1.6973019,2.087844,-2.6453016,29.793802,-48.33804,23.956966,-9.47845,-25.64693,13.684555,-4.6746655,19.262747,-64.828125,-20.368292,15.768648,-31.245733,0.3353517,-5.1556726,-11.791703
138,-5.388453960418701,-60.40519332885742,61.117183685302734,-2.9223450728245313,28.720265908168535,-98.55623457029334,-85.54429,5.482762,3.1382024,80.87039,-23.32869,3.547445,-73.39714,2.1344728,3.894821,115.57077,-12.86578,3.7452657,2.3990514,-2.1117184,29.793802,-48.783382,23.573568,-10.033741,-25.357462,13.865299,-4.579641,19.783915,-64.56129,-20.820925,15.474578,-31.420607,0.25675914,-5.116738,-11.611137
139,-5.330333709716797,-60.85175323486328,61.16152572631836,-3.1541336783288636,28.7596986803427,-98.53245253967454,-85.299225,5.4477677,3.007133,81.215996,-23.960373,3.5425715,-74.11436,3.82002,4.5123444,115.309814,-14.181509,5.7639894,2.672112,-1.6304355,29.793802,-49.257076,23.230354,-10.566876,-25.05822,14.076015,-4.492041,20.308455,-64.329636,-21.257162,15.192863,-31.599174,0.228718,-5.0948954,-11.448808
140,-5.267499923706055,-61.2912712097168,61.20210266113281,-3.364535704465147,28.82946221664221,-98.52366211287008,-85.06763,5.418372,2.90338,81.52238,-24.572823,3.546446,-74.958984,5.1066356,4.959708,114.879265,-15.210926,7.431336,2.9213295,-1.1809409,29.793802,-49.75465,22.928017,-11.056431,-24.738749,14.243837,-4.4088945,20.758858,-64.15106,-21.676594,14.945353,-31.76422,0.2494481,-5.086346,-11.339792
141,-5.200923442840576,-61.72875213623047,61.2434196472168,-3.567903709014374,28.94243873827733,-98.5350889479353,-84.864334,5.396247,2.810387,81.78018,-25.159588,3.556003,-75.97147,5.99796,5.2174864,114.26604,-15.76547,8.7967005,3.156432,-0.7453947,29.793802,-50.3,22.672451,-11.498686,-24.381561,14.403164,-4.337897,21.13025,-64.03872,-22.087772,14.729898,-31.919037,0.3388075,-5.1008224,-11.295483
142,-5.13979959487915,-62.14238357543945,61.29484176635742,-3.7576830607290597,29.09354420412631,-98.56100969373585,-84.68392,5.3803344,2.7328262,81.99175,-25.722424,3.566998,-77.11206,6.6172004,5.350536,113.459724,-16.06988,10.014736,3.3744884,-0.3343796,29.793802,-50.886257,22.463985,-11.90806,-24.000153,14.574931,-4.2774243,21.461205,-63.979053,-22.491777,14.537241,-32.073906,0.49188495,-5.1365933,-11.29813
143,-5.082736015319824,-62.554847717285156,61.34080123901367,-3.9333572334008977,29.2606093821308,-98.6105764518069,-84.51041,5.3821397,2.6769755,82.18536,-26.276636,3.5819926,-78.33318,6.981397,5.3657603,112.470665,-16.292229,10.959788,3.5767417,0.040155463,29.793802,-51.476242,22.294752,-12.286414,-23.625475,14.657758,-4.2143836,21.734566,-63.952164,-22.877491,14.378407,-32.216892,0.6674981,-5.171973,-11.333686
144,-5.0287885665893555,-62.969608306884766,61.37975311279297,-4.092923628878711,29.420496918371022,-98.69184760332963,-84.32669,5.4119625,2.6509147,82.38881,-26.836931,3.604139,-79.585266,7.1043434,5.2669954,111.314674,-16.60161,11.501576,3.7618046,0.36549768,29.793802,-52.03474,22.155113,-12.632655,-23.284307,14.551077,-4.137087,21.930555,-63.943607,-23.226488,14.267423,-32.332146,0.8194187,-5.1852274,-11.386673
145,-4.974419116973877,-63.38261413574219,61.411590576171875,-4.2397009631416696,29.56680808667891,-98.81445242226243,-84.12963,5.4786367,2.6562998,82.61269,-27.405884,3.6463587,-80.8753,6.9449177,5.0228066,109.98722,-17.072802,11.545067,3.9304385,0.6374994,29.793802,-52.55798,22.04097,-12.945819,-22.979338,14.177076,-4.0372057,22.010433,-63.955673,-23.521648,14.216395,-32.40376,0.93174726,-5.1637497,-11.469656
146,-4.929408073425293,-63.7873649597168,61.43883514404297,-4.378055271162217,29.71041677281642,-98.97277291069615,-83.92784,5.5751038,2.6842566,82.84318,-27.977173,3.7016985,-82.20705,6.5335636,4.6318026,108.47831,-17.604988,11.20136,4.0806127,0.8637556,29.793802,-53.065,21.956034,-13.226644,-22.691591,13.612742,-3.923179,21.992989,-64.004196,-23.759323,14.219396,-32.43198,1.0216845,-5.121756,-11.580764
147,-4.874906063079834,-64.1839599609375,61.46681213378906,-4.504361091364727,29.854461178433425,-99.1507164258557,-83.72077,5.6878343,2.7291286,83.07048,-28.552406,3.7442446,-83.527664,5.980086,4.1442966,106.79515,-18.107992,10.643693,4.2043753,1.0472686,29.793802,-53.55459,21.906301,-13.472055,-22.414862,12.984371,-3.8087955,21.944653,-64.08539,-23.947155,14.257918,-32.433952,1.099582,-5.0772386,-11.682481
148,-4.826302528381348,-64.58731079101562,61.49049377441406,-4.6129225119836335,30.003505728842434,-99.33217894312519,-83.50844,5.8030972,2.7881105,83.28363,-29.133017,3.748555,-84.79071,5.386367,3.6137197,104.94442,-18.487316,10.034881,4.2917633,1.1870378,29.793802,-54.016888,21.89319,-13.683816,-22.152636,12.428368,-3.70876,21.933483,-64.19257,-24.097324,14.313376,-32.432697,1.1807485,-5.048193,-11.740259
149,-4.786128044128418,-64.99148559570312,61.506874084472656,-4.698853840051404,30.15574184291532,-99.51806803758646,-83.28491,5.922623,2.8650591,83.478645,-29.72448,3.696125,-86.003876,4.7329,3.027406,102.914604,-18.72257,9.341099,4.346675,1.2843792,29.793802,-54.465256,21.923264,-13.857299,-21.883703,11.932729,-3.645988,21.96617,-64.32547,-24.218466,14.379926,-32.42939,1.284727,-5.032301,-11.727936
150,-4.738252639770508,-65.37836456298828,61.526512145996094,-4.768917750855433,30.310765644502023,-99.71541741460197,-83.054115,6.052177,2.9574203,83.66226,-30.324047,3.6036243,-87.17333,3.9898975,2.3535972,100.70498,-18.87241,8.50916,4.377732,1.3434803,29.793802,-54.896664,21.99114,-14.0018,-21.618944,11.443537,-3.6061463,22.013348,-64.480255,-24.31433,14.464361,-32.41929,1.4028074,-5.0223007,-11.674029
151,-4.700544357299805,-65.77869415283203,61.53884506225586,-4.831242268360884,30.473663834147278,-99.91675098030235,-82.825905,6.185339,3.058493,83.83759,-30.921497,3.5015848,-88.26053,3.2333932,1.6303881,98.333565,-18.95112,7.672171,4.384597,1.372742,29.793802,-55.297657,22.094816,-14.124803,-21.393276,11.001971,-3.5509434,22.084349,-64.64339,-24.393715,14.565752,-32.421795,1.5055522,-5.028091,-11.621288
152,-4.667033672332764,-66.18062591552734,61.54490661621094,-4.892848951088247,30.646955666245596,-100.11420675433968,-82.60777,6.31466,3.1618714,84.00917,-31.50734,3.420497,-89.2306,2.534785,0.8981586,95.821724,-18.965279,6.956733,4.367701,1.3850255,29.793802,-55.66959,22.212353,-14.228157,-21.221981,10.655874,-3.4441779,22.17831,-64.81544,-24.447365,14.689172,-32.432713,1.550264,-5.059062,-11.6027975
153,-4.627387046813965,-66.5791244506836,61.550872802734375,-4.959622718888119,30.82592612617468,-100.30966305762722,-82.39667,6.4410896,3.2621222,84.177475,-32.0786,3.3671577,-90.07735,1.9066967,0.15720731,93.14745,-18.88441,6.404314,4.3400025,1.3975109,29.793802,-56.019615,22.31735,-14.320875,-21.097826,10.448169,-3.2566974,22.325788,-64.99291,-24.478552,14.845332,-32.44692,1.5134108,-5.129305,-11.641676
154,-4.602594375610352,-66.9796371459961,61.555789947509766,-5.024034077800091,31.01290643303707,-100.50502121164537,-82.19136,6.5664487,3.366696,84.33916,-32.640335,3.3267627,-90.81974,1.3145114,-0.6124452,90.301704,-18.708248,5.945342,4.290781,1.3917472,29.793802,-56.331566,22.464663,-14.3948145,-21.034512,10.32008,-3.0127103,22.524258,-65.17045,-24.504648,15.0320215,-32.48458,1.4336638,-5.2306585,-11.727307
155,-4.5823822021484375,-67.3714599609375,61.5569953918457,-5.079969203389469,31.213380149687055,-100.69242333855946,-81.99575,6.6841745,3.4790134,84.49532,-33.194878,3.2947502,-91.455154,0.7532184,-1.4024934,87.31931,-18.483727,5.5373263,4.2170773,1.3652045,29.793802,-56.62303,22.607973,-14.453222,-21.011015,10.250165,-2.7622828,22.69891,-65.356316,-24.512854,15.219476,-32.528023,1.3239882,-5.33604,-11.806623
156,-4.563694000244141,-67.77251434326172,61.55670166015625,-5.121686728932269,31.43423274483234,-100.86436434250534,-81.81571,6.789344,3.6040242,84.64649,-33.74505,3.267675,-91.983795,0.22290562,-2.2114844,84.233,-18.257498,5.1333494,4.115347,1.3140616,29.793802,-56.904644,22.749094,-14.489603,-21.023132,10.176457,-2.554005,22.782694,-65.55366,-24.510462,15.383849,-32.5786,1.2094463,-5.418851,-11.83787
157,-4.545569896697998,-68.182861328125,61.54792785644531,-5.149690780192945,31.680842720111585,-101.02580348533047,-81.655075,6.8848047,3.7449725,84.79222,-34.30066,3.244529,-92.40171,-0.29255766,-3.0789769,81.01034,-18.048212,4.719085,3.983501,1.2305275,29.793802,-57.17172,22.883543,-14.50268,-21.07792,10.126098,-2.3887696,22.73804,-65.76284,-24.499577,15.51727,-32.644077,1.0765033,-5.465991,-11.805052
158,-4.54189395904541,-68.58409881591797,61.54351806640625,-5.166711036272579,31.946594684100152,-101.17673042094921,-81.508446,6.971305,3.8978214,84.93316,-34.85454,3.2277865,-92.70309,-0.7782701,-4.0007463,77.6307,-17.823015,4.3246613,3.8301752,1.127806,29.793802,-57.42941,23.011822,-14.494975,-21.17191,10.106168,-2.2452183,22.605509,-65.97965,-24.485046,15.631965,-32.72005,0.9183021,-5.493371,-11.731473
159,-4.534669876098633,-68.99332427978516,61.53369140625,-5.166009168971494,32.22398344905621,-101.30122213185183,-81.36971,7.0358496,4.056991,85.06757,-35.39406,3.2165046,-92.89737,-1.195422,-4.901657,74.15862,-17.547098,3.964673,3.6505275,1.0128373,29.793802,-57.675842,23.1322,-14.478754,-21.2933,10.069784,-2.1360118,22.443594,-66.19732,-24.469366,15.73203,-32.801037,0.77682877,-5.519693,-11.640502
160,-4.538102626800537,-69.40473937988281,61.521427154541016,-5.140218916416307,32.50506108844991,-101.3831853415949,-81.23432,7.0666814,4.217777,85.19878,-35.900673,3.210459,-92.997314,-1.513004,-5.700641,70.657295,-17.188896,3.6462195,3.442791,0.89532524,29.793802,-57.9145,23.246084,-14.462467,-21.431099,9.959301,-2.0740855,22.30906,-66.40982,-24.456526,15.822778,-32.882824,0.692954,-5.5629525,-11.553763
161,-4.547005653381348,-69.82240295410156,61.5040168762207,-5.082573242368735,32.795048595710035,-101.41651760541204,-81.10494,7.054462,4.3835926,85.32003,-36.367268,3.2128217,-93.00294,-1.7399215,-6.3933954,67.07612,-16.77777,3.3480604,3.2020125,0.77870834,29.793802,-58.13925,23.356625,-14.42149,-21.599773,9.743514,-2.0762615,22.201923,-66.61776,-24.451138,15.903976,-32.972984,0.68982995,-5.6250615,-11.457652
162,-4.559853553771973,-70.24742126464844,61.48103332519531,-4.99441579553403,33.094187782091446,-101.40564568337109,-80.980484,7.00396,4.556955,85.43075,-36.8039,3.223248,-92.90788,-1.895393,-7.009497,63.3888,-16.30948,3.066013,2.9277022,0.65665656,29.793802,-58.348473,23.457163,-14.362733,-21.798231,9.462182,-2.1311085,22.097582,-66.822174,-24.452795,15.975294,-33.07329,0.7431587,-5.697363,-11.348464
163,-4.5820183753967285,-70.66934967041016,61.45722198486328,-4.88108259020931,33.38555262117778,-101.35057281676202,-80.85079,6.924543,4.7296762,85.54791,-37.218506,3.2349682,-92.71642,-1.9743991,-7.516646,59.70107,-15.701455,2.824637,2.6373084,0.53796273,29.793802,-58.56869,23.5311,-14.335781,-21.983896,9.145775,-2.2106845,22.009893,-67.010994,-24.462769,16.03203,-33.15949,0.81750095,-5.780712,-11.256296
164,-4.611605167388916,-71.08795928955078,61.43410110473633,-4.74410261060069,33.65763743522938,-101.25273333134969,-80.709404,6.8251143,4.899582,85.68455,-37.61574,3.2424269,-92.44361,-1.9740714,-7.8759794,56.127117,-14.8746,2.6469307,2.3196733,0.40050486,29.793802,-58.783028,23.625988,-14.380899,-22.161879,8.811891,-2.2835355,21.967304,-67.17251,-24.480196,16.080805,-33.231388,0.8946063,-5.878831,-11.230359
165,-4.647669315338135,-71.51180267333984,61.40594482421875,-4.584771207295723,33.898189988248,-101.10198636411121,-80.54169,6.7009954,5.0650992,85.84058,-38.010468,3.2629366,-92.05107,-1.8842809,-8.065545,52.579063,-13.758288,2.5530028,1.9827771,0.27187836,29.793802,-59.010708,23.657242,-14.508119,-22.299034,8.4649725,-2.353269,21.962698,-67.31639,-24.492039,16.123276,-33.25288,0.9540396,-6.008701,-11.268588
166,-4.697345733642578,-71.933837890625,61.37190628051758,-4.394527142033515,34.11793070277144,-100.89427691742905,-80.3563,6.543463,5.231047,86.00921,-38.393368,3.294197,-91.54831,-1.729069,-8.096748,49.032852,-12.40896,2.514755,1.6222112,0.12103536,29.793802,-59.24846,23.70753,-14.73708,-22.420748,8.063743,-2.425485,22.028755,-67.413445,-24.522999,16.13971,-33.2779,1.0317746,-6.1656556,-11.369724
167,-4.76852560043335,-72.37439727783203,61.327796936035156,-4.170242184487321,34.32279541107482,-100.64648221817953,-80.167206,6.363503,5.398695,86.19901,-38.743362,3.3000743,-91.01404,-1.5516849,-7.9905157,45.722073,-10.949086,2.4890714,1.2406297,-0.036487687,29.793802,-59.494995,23.740978,-14.997604,-22.511507,7.69738,-2.5018783,22.092428,-67.50379,-24.552887,16.158033,-33.27041,1.1038287,-6.310844,-11.495867
168,-4.8426032066345215,-72.80654907226562,61.282615661621094,-3.918433083674501,34.52438116535695,-100.38479161194675,-79.99664,6.180184,5.5638785,86.42125,-39.039066,3.2433324,-90.54091,-1.3849732,-7.778523,42.898952,-9.50964,2.4347007,0.86556715,-0.20301546,29.793802,-59.783337,23.773193,-15.282,-22.54179,7.429695,-2.575739,22.127855,-67.59641,-24.581364,16.174501,-33.225056,1.1570482,-6.4064317,-11.620486
169,-4.927319049835205,-73.22124481201172,61.237144470214844,-3.638352728154993,34.75599301567394,-100.12348479775757,-79.876015,6.014278,5.756593,86.66553,-39.268093,3.1244583,-90.11226,-1.2009017,-7.415294,40.497654,-8.093712,2.4102259,0.51569015,-0.41020083,29.793802,-60.180855,23.839647,-15.64237,-22.485739,7.2788067,-2.6471834,22.173414,-67.68147,-24.623066,16.15022,-33.18405,1.2006572,-6.434583,-11.744665
170,-5.032557010650635,-73.65797424316406,61.17086410522461,-3.3307176786391004,35.00716394834748,-99.85653765350665,-79.79149,5.8593535,5.971365,86.92978,-39.443775,2.9593527,-89.71501,-0.9917196,-6.8997507,38.459675,-6.6564784,2.4145262,0.15948963,-0.648171,29.793802,-60.61712,23.945908,-16.02916,-22.401335,7.2018127,-2.7195013,22.21695,-67.78867,-24.662766,16.122446,-33.11955,1.2380346,-6.4190392,-11.885371
171,-5.1400580406188965,-74.08268737792969,61.10027313232422,-3.027806003888588,35.22951909668752,-99.59659168588153,-79.70683,5.7073865,6.1380343,87.24051,-39.58679,2.7304955,-89.46656,-0.80287296,-6.3527884,37.07226,-5.269553,2.315755,-0.18138027,-0.88586754,29.793802,-61.051163,24.06343,-16.432213,-22.282696,7.181525,-2.7761085,22.229013,-67.88371,-24.681694,16.100817,-33.021656,1.2578466,-6.3797135,-12.026717
172,-5.245568752288818,-74.46897888183594,61.03764724731445,-2.7679225009600477,35.37944556640748,-99.36136556015828,-79.591576,5.55265,6.184418,87.624016,-39.71528,2.4197326,-89.49221,-0.67373025,-5.90499,36.623173,-4.003867,1.9787053,-0.47370604,-1.096446,29.793802,-61.435192,24.18534,-16.85319,-22.144653,7.188593,-2.7988849,22.190058,-67.91516,-24.679817,16.075983,-32.904415,1.2626876,-6.3370657,-12.152506
173,-5.364836692810059,-74.8623046875,60.962432861328125,-2.5626751640178256,35.43730423936652,-99.16566427675825,-79.4334,5.3917713,6.0786204,88.10712,-39.8338,1.9835705,-89.92828,-0.6119978,-5.5685096,37.484135,-2.7602932,1.2568501,-0.71343654,-1.2940737,29.793802,-61.756287,24.290905,-17.30989,-21.955656,7.287067,-2.7734137,22.074663,-67.8552,-24.64276,16.046858,-32.766747,1.2475605,-6.2905498,-12.261538
174,-5.500195026397705,-75.29000091552734,60.87483596801758,-2.3873431918910955,35.4231618919709,-98.98946824290003,-79.23995,5.217239,5.8715854,88.66783,-39.93801,1.4422312,-90.6671,-0.61411905,-5.297975,39.38898,-1.5330775,0.23900223,-0.9120952,-1.4792141,29.793802,-62.044212,24.379768,-17.793808,-21.71445,7.4602103,-2.7137597,21.894567,-67.73318,-24.57271,16.01538,-32.592373,1.2061677,-6.230658,-12.353806
175,-5.648637771606445,-75.70606231689453,60.78814697265625,-2.2157442782307495,35.366158788218435,-98.79995919657296,-79.01995,5.018164,5.6259704,89.25537,-40.028496,0.87533945,-91.486336,-0.6980621,-5.114408,41.680058,-0.5398994,-0.85004497,-1.1197703,-1.6518707,29.793802,-62.321827,24.437918,-18.292376,-21.432041,7.6658387,-2.644996,21.704075,-67.60079,-24.480398,16.004772,-32.396427,1.1629479,-6.167994,-12.442175
176,-5.789694786071777,-76.12247467041016,60.686622619628906,-2.0561423059632267,35.29875654673904,-98.59353274499317,-78.79499,4.813449,5.378251,89.82734,-40.102875,0.3605292,-92.17185,-0.844865,-5.0387263,43.72561,-0.013924476,-1.7648455,-1.3147281,-1.7772789,29.793802,-62.59118,24.504719,-18.777267,-21.195837,7.7754717,-2.5881674,21.547373,-67.496765,-24.38332,15.99955,-32.184086,1.1236528,-6.1094117,-12.514027
177,-5.926984786987305,-76.52667999267578,60.581825256347656,-1.9166741138435264,35.22169134692925,-98.3852261629613,-78.5758,4.6109424,5.1161537,90.39034,-40.1528,-0.10421389,-92.710335,-1.0591587,-5.09945,45.51291,-0.24468769,-2.4491594,-1.5074933,-1.8597265,29.793802,-62.86419,24.569838,-19.267002,-20.974833,7.8277645,-2.518268,21.458796,-67.43266,-24.295208,16.015171,-31.96415,1.1280252,-6.054291,-12.573708
178,-6.073932647705078,-76.90514373779297,60.49351501464844,-1.7995311703134544,35.121048633783104,-98.17671469889817,-78.350815,4.404986,4.8194203,90.96351,-40.181004,-0.5540166,-93.197205,-1.3404682,-5.25976,47.32788,-1.0360856,-3.0169327,-1.6806597,-1.897616,29.793802,-63.12666,24.628347,-19.763884,-20.767927,7.8409314,-2.4340332,21.405022,-67.37582,-24.221378,16.040644,-31.733282,1.1595069,-5.998845,-12.623122
179,-6.211538314819336,-77.27340698242188,60.419952392578125,-1.7001903249762373,35.032708901661636,-97.9610425828529,-78.13368,4.209157,4.5220394,91.51414,-40.19334,-0.95791596,-93.626,-1.6337242,-5.4347296,49.019604,-1.8984237,-3.4649887,-1.8520452,-1.9010177,29.793802,-63.390373,24.670908,-20.24019,-20.589092,7.799286,-2.3941588,21.3556,-67.33567,-24.163546,16.083183,-31.528214,1.1793119,-5.9495373,-12.695395
180,-6.3524932861328125,-77.64802551269531,60.360687255859375,-1.6148335085137069,34.99021502611693,-97.73223914919923,-77.93612,4.0377746,4.257896,92.01075,-40.198006,-1.2837999,-93.99387,-1.8815122,-5.5507555,50.44629,-2.3453677,-3.7944,-2.029373,-1.8859869,29.793802,-63.660877,24.70756,-20.67392,-20.470772,7.670981,-2.454936,21.28036,-67.31319,-24.112879,16.129507,-31.381884,1.1444228,-5.9124784,-12.813396
181,-6.480574607849121,-78.02619934082031,60.31729507446289,-1.55129833499573,35.01760522992045,-97.48677484702088,-77.781715,3.914108,4.049203,92.44306,-40.184933,-1.4862114,-94.294334,-2.0558574,-5.5949664,51.49944,-2.1246216,-3.957835,-2.2205062,-1.8320227,29.793802,-63.952446,24.734133,-21.046492,-20.422876,7.3895273,-2.6796253,21.168762,-67.34403,-24.079546,16.210371,-31.304035,1.0183935,-5.887738,-13.042507
182,-6.608059883117676,-78.41825866699219,60.27853012084961,-1.5109387537685932,35.093881501055534,-97.23224877180904,-77.66072,3.8283584,3.8705962,92.8289,-40.152588,-1.5940067,-94.538635,-2.1815238,-5.610479,52.290104,-1.5380063,-3.9641006,-2.4177563,-1.7240355,29.793802,-64.23792,24.745495,-21.339912,-20.449436,6.9836845,-3.0241194,21.015244,-67.421814,-24.07002,16.327555,-31.273884,0.8323845,-5.8710365,-13.34722
183,-6.743780612945557,-78.81233215332031,60.254032135009766,-1.4816674890223156,35.18684339521047,-96.97839517662993,-77.53751,3.7454762,3.6820772,93.1788,-40.11719,-1.6882322,-94.74519,-2.2860854,-5.6204233,52.990757,-0.9228788,-3.9111335,-2.6002755,-1.6232022,29.793802,-64.54149,24.752249,-21.655272,-20.490738,6.593226,-3.3743908,20.877262,-67.47761,-24.06282,16.420311,-31.285141,0.64425987,-5.8648224,-13.625637
184,-6.880516052246094,-79.20807647705078,60.23362731933594,-1.4446149363848642,35.26571128614222,-96.73393040929814,-77.37463,3.6270654,3.4524143,93.499214,-40.0958,-1.8479906,-94.935135,-2.400659,-5.6411824,53.773994,-0.61578685,-3.900361,-2.7815523,-1.5411829,29.793802,-64.7783,24.747705,-21.914219,-20.583254,6.3422155,-3.6331553,20.710709,-67.48037,-24.054264,16.480692,-31.308363,0.5186928,-5.871137,-13.765855
185,-7.028716087341309,-79.61618041992188,60.21196365356445,-1.4025599745381814,35.32374055897747,-96.49885180511664,-77.16394,3.4559848,3.15146,93.79285,-40.09781,-2.1053412,-95.10648,-2.5356054,-5.6826434,54.68584,-0.7390344,-3.9556074,-2.9470181,-1.5014857,29.793802,-64.99233,24.71399,-22.185368,-20.686941,6.314898,-3.7449794,20.543623,-67.39834,-24.024654,16.46636,-31.348795,0.4730628,-5.9012313,-13.695839
186,-7.172828197479248,-80.03447723388672,60.196632385253906,-1.359401242185724,35.37568416945735,-96.26893755290205,-76.92102,3.2552946,2.8061361,94.05475,-40.112774,-2.4128437,-95.25007,-2.67294,-5.7302885,55.635452,-1.1026471,-4.022841,-3.1136584,-1.4734693,29.793802,-65.166725,24.647198,-22.406004,-20.82765,6.427518,-3.7782452,20.342451,-67.283516,-23.970495,16.423529,-31.391373,0.4656012,-5.9503255,-13.482994
187,-7.319218635559082,-80.45698547363281,60.18525314331055,-1.3099821721101825,35.42415082780415,-96.04680613224816,-76.652435,3.049256,2.458445,94.28866,-40.136322,-2.73215,-95.37412,-2.8066423,-5.776373,56.588245,-1.576327,-4.0921836,-3.2862177,-1.4511652,29.793802,-65.27077,24.599445,-22.564075,-21.027702,6.567335,-3.8000512,20.129889,-67.157104,-23.929388,16.393637,-31.442316,0.48349184,-5.999398,-13.246974
188,-7.462439060211182,-80.87353515625,60.1792106628418,-1.2563968088482445,35.46062553601182,-95.83568102131954,-76.35588,2.864047,2.1416128,94.5028,-40.16468,-3.0266378,-95.4757,-2.9316897,-5.822069,57.513603,-2.0334928,-4.155595,-3.4300637,-1.4533578,29.793802,-65.41349,24.494162,-22.739498,-21.133244,6.689468,-3.8756697,19.923016,-67.02692,-23.841679,16.331072,-31.470577,0.47158504,-6.028117,-13.029696
189,-7.607462406158447,-81.29034423828125,60.17601013183594,-1.1860731102310305,35.49548627490885,-95.62863014397924,-76.03951,2.6931891,1.8660245,94.684875,-40.195496,-3.295479,-95.570114,-3.0499897,-5.8530016,58.41478,-2.4745603,-4.2056174,-3.5743995,-1.4660462,29.793802,-65.51549,24.387705,-22.862751,-21.233019,6.7512717,-4.0418596,19.696367,-66.91175,-23.753162,16.290203,-31.483246,0.44238752,-6.0267987,-12.883365
190,-7.753036975860596,-81.699462890625,60.1783447265625,-1.1043574979513018,35.528148731187116,-95.42707511489957,-75.701965,2.529002,1.6102699,94.83609,-40.230885,-3.5550017,-95.6528,-3.1637077,-5.875411,59.30493,-2.9564602,-4.2493906,-3.7159564,-1.496201,29.793802,-65.58256,24.283707,-22.95028,-21.3364,6.7953296,-4.2559776,19.458485,-66.78909,-23.662281,16.24791,-31.498816,0.4145146,-6.0078287,-12.758399
191,-7.904916286468506,-82.11105346679688,60.17668151855469,-1.0269662949076968,35.54735666411199,-95.24544528626296,-75.338745,2.3915958,1.3743547,94.9778,-40.26921,-3.7916124,-95.70651,-3.2647913,-5.905346,60.16569,-3.4319007,-4.2931213,-3.8369465,-1.5307889,29.793802,-65.616295,24.183496,-23.015005,-21.44589,6.8083787,-4.4704924,19.245811,-66.6606,-23.572498,16.20846,-31.511759,0.3858603,-5.9844275,-12.657985
192,-8.05012035369873,-82.51537322998047,60.17898178100586,-0.9699237142102876,35.542143735751125,-95.0984850067742,-74.943825,2.3003817,1.1584023,95.12974,-40.311096,-3.9921176,-95.71389,-3.345689,-5.961129,60.97869,-3.8542225,-4.345182,-3.9208102,-1.5573052,29.793802,-65.62792,24.078247,-23.07054,-21.54905,6.7835503,-4.63828,19.093384,-66.52987,-23.484152,16.177713,-31.514956,0.3534039,-5.969936,-12.58409
193,-8.201253890991211,-82.92835998535156,60.18067169189453,-0.9380917113274109,35.51130200466281,-94.9939078867516,-74.50503,2.2718601,0.9710586,95.27995,-40.38732,-4.14528,-95.67185,-3.4053864,-6.055962,61.72844,-4.1728106,-4.419687,-3.95442,-1.5719973,29.793802,-65.62047,23.959324,-23.120417,-21.650389,6.690479,-4.752663,19.01575,-66.399704,-23.403465,16.15298,-31.508427,0.3120999,-5.970037,-12.542327
194,-8.364781379699707,-83.33831787109375,60.185020446777344,-0.9234617781988156,35.46100460980692,-94.92301208719982,-74.03064,2.2932038,0.80852836,95.42319,-40.486755,-4.2605786,-95.59014,-3.4463325,-6.1782455,62.428596,-4.4248347,-4.5072746,-3.9458723,-1.5772693,29.793802,-65.59193,23.826967,-23.158985,-21.748539,6.543899,-4.837227,18.99315,-66.26352,-23.33775,16.131407,-31.498518,0.26753148,-5.976597,-12.532029
195,-8.520877838134766,-83.7505874633789,60.19577407836914,-0.9247214515933435,35.38934152050348,-94.87589516797541,-73.54412,2.3395214,0.65047705,95.59217,-40.547474,-4.356834,-95.46791,-3.4669602,-6.310952,63.10415,-4.696382,-4.582213,-3.9029171,-1.5653292,29.793802,-65.540474,23.681738,-23.1842,-21.839853,6.4020033,-4.8896027,19.005375,-66.1131,-23.284966,16.117252,-31.484015,0.22673874,-5.982021,-12.540522
196,-8.664833068847656,-84.16217803955078,60.213321685791016,-0.9392118454782213,35.29457818576302,-94.84240041283728,-73.06794,2.3857892,0.47755542,95.81874,-40.50699,-4.4527426,-95.30474,-3.4652414,-6.4357367,63.78046,-5.0732865,-4.618081,-3.8373752,-1.531826,29.793802,-65.463806,23.528757,-23.19348,-21.919378,6.3232446,-4.907268,19.032938,-65.941696,-23.238422,16.114193,-31.46228,0.1966425,-5.97893,-12.555678
197,-8.813714027404785,-84.5819320678711,60.22977828979492,-0.967903449731469,35.16970770114945,-94.8272891679915,-72.57797,2.426681,0.28730345,96.08923,-40.397427,-4.5511746,-95.095665,-3.4282482,-6.5423083,64.46564,-5.5889683,-4.6016555,-3.75304,-1.4824029,29.793802,-65.353264,23.37083,-23.185127,-21.97703,6.3480673,-4.8753285,19.09196,-65.74772,-23.191017,16.118805,-31.43155,0.16184144,-5.9651914,-12.568363
198,-8.96727180480957,-85.0002212524414,60.2478141784668,-1.0105755997696866,35.017501225685976,-94.8333611767208,-72.07109,2.4753644,0.08981545,96.39328,-40.237556,-4.642891,-94.84232,-3.3600016,-6.6423335,65.145485,-6.1943374,-4.5490556,-3.6471086,-1.4215975,29.793802,-65.21043,23.210552,-23.159367,-22.020008,6.4364486,-4.7994323,19.18539,-65.53854,-23.140472,16.132034,-31.392982,0.12298931,-5.9450226,-12.585574
199,-9.120728492736816,-85.43693542480469,60.263694763183594,-1.0624644378449295,34.85168504252607,-94.84769487435254,-71.60301,2.5326917,-0.11395758,96.76799,-39.937885,-4.72883,-94.55834,-3.284588,-6.7486224,65.8162,-6.8520584,-4.478464,-3.5288286,-1.3486406,29.793802,-65.04858,23.05898,-23.116638,-22.065752,6.5271616,-4.707781,19.276134,-65.31683,-23.085396,16.162264,-31.343988,0.11374882,-5.9209924,-12.622432
200,-9.271991729736328,-85.87015533447266,60.27590560913086,-1.119316806632202,34.68477163629507,-94.85740655419487,-71.22866,2.5990794,-0.32386136,97.2503,-39.40875,-4.8097534,-94.25522,-3.2262263,-6.873527,66.4728,-7.5247498,-4.407549,-3.405873,-1.261225,29.793802,-64.89085,22.91202,-23.058632,-22.116035,6.566119,-4.6293545,19.323835,-65.090256,-23.018526,16.22046,-31.27562,0.16342625,-5.8955398,-12.690283
201,-9.425822257995605,-86.30206298828125,60.28998565673828,-1.1836983355065107,34.515747991487814,-94.86349737545632,-70.948166,2.6821754,-0.540982,97.85568,-38.643833,-4.869528,-93.93006,-3.1904032,-7.0238543,67.11928,-8.219989,-4.3353953,-3.2789474,-1.1584501,29.793802,-64.72189,22.785309,-22.978117,-22.194412,6.5413814,-4.555179,19.303516,-64.856285,-22.939571,16.307343,-31.186197,0.29547846,-5.8707633,-12.789667
202,-9.573162078857422,-86.73487854003906,60.30845642089844,-1.2551223760793295,34.33913029156236,-94.87117785385365,-70.73692,2.7786431,-0.76436484,98.560356,-37.6827,-4.9120817,-93.57845,-3.1642873,-7.1906323,67.75665,-8.9511,-4.2545123,-3.1505997,-1.0474546,29.793802,-64.533646,22.682774,-22.874844,-22.291306,6.481175,-4.4750476,19.241737,-64.614845,-22.844364,16.420296,-31.079332,0.48844916,-5.8453717,-12.915095
203,-9.715099334716797,-87.16748809814453,60.33149337768555,-1.3258634101375482,34.162174260277574,-94.87418217208922,-70.61463,2.8715892,-0.9917082,99.34606,-36.508488,-4.9679236,-93.21095,-3.1457686,-7.3619623,68.37598,-9.692827,-4.1725945,-3.030766,-0.93964624,29.793802,-64.34244,22.6077,-22.759996,-22.39388,6.3795605,-4.4149156,19.180573,-64.37177,-22.729532,16.562597,-30.964207,0.71023214,-5.817368,-13.073038
204,-9.856334686279297,-87.59562683105469,60.35711669921875,-1.3882864679835207,33.99186258134479,-94.86649706225946,-70.601616,2.9430256,-1.2209435,100.19429,-35.104073,-5.06711,-92.8386,-3.1319544,-7.5257325,68.969666,-10.416796,-4.09645,-2.927637,-0.8451661,29.793802,-64.16273,22.563457,-22.64363,-22.488558,6.2287474,-4.401007,19.161993,-64.1301,-22.592916,16.735563,-30.855131,0.9287392,-5.78423,-13.269701
205,-9.995182991027832,-88.02153778076172,60.38821792602539,-1.449572330293796,33.83966953637154,-94.84837818812808,-70.728516,2.9748147,-1.4762101,101.11427,-33.39177,-5.2505827,-92.465164,-3.1276407,-7.693524,69.520775,-11.106855,-4.027478,-2.8425114,-0.7623791,29.793802,-64.00601,22.554129,-22.520563,-22.57226,6.0033565,-4.464021,19.185795,-63.898964,-22.432343,16.938269,-30.746874,1.1591234,-5.7438407,-13.526598
206,-10.129474639892578,-88.45457458496094,60.42026901245117,-1.509200443231102,33.69851258054287,-94.82279350877003,-70.978645,2.9756014,-1.750033,102.113335,-31.40347,-5.490292,-92.08704,-3.1311555,-7.864194,70.04076,-11.779875,-3.9606087,-2.7740104,-0.6914771,29.793802,-63.857998,22.582947,-22.386127,-22.653538,5.7138352,-4.582005,19.23325,-63.674347,-22.245394,17.171925,-30.637062,1.4096899,-5.6985984,-13.833592
207,-10.269695281982422,-88.88060760498047,60.450191497802734,-1.5491773961839828,33.54831785597766,-94.78701001291958,-71.29839,2.9688156,-1.9953316,103.16683,-29.28393,-5.7140594,-91.69947,-3.1354463,-8.012267,70.56067,-12.46119,-3.8994544,-2.7308688,-0.6476596,29.793802,-63.701088,22.647745,-22.253094,-22.733294,5.4119735,-4.702697,19.31924,-63.44288,-22.028732,17.44454,-30.533833,1.6410689,-5.6527348,-14.150374
208,-10.39968204498291,-89.28744506835938,60.48282241821289,-1.5539559297032968,33.36857895688925,-94.73972796626524,-71.63558,2.987197,-2.1646657,104.25112,-27.177149,-5.845434,-91.298,-3.133554,-8.1129465,71.11239,-13.175672,-3.8471599,-2.7142365,-0.640946,29.793802,-63.516212,22.744682,-22.134869,-22.81327,5.1452675,-4.773949,19.457687,-63.192585,-21.78033,17.7626,-30.444681,1.8101492,-5.6095176,-14.43517
209,-10.527645111083984,-89.712890625,60.50394058227539,-1.5053950685279691,33.14737860235758,-94.67519767802897,-71.97319,3.0300806,-2.2495701,105.36866,-25.063316,-5.9278345,-90.8799,-3.1269643,-8.1428175,71.71374,-13.940718,-3.7980409,-2.7391598,-0.69361305,29.793802,-63.300236,22.867367,-22.04526,-22.88074,4.946702,-4.7620964,19.699106,-62.918034,-21.493214,18.141048,-30.374113,1.9012022,-5.563443,-14.708412
210,-10.658905982971191,-90.13720703125,60.52142333984375,-1.4187815489365914,32.897291857363996,-94.59726590798162,-72.34134,3.0930212,-2.2738774,106.52876,-22.882309,-5.971244,-90.446045,-3.1192245,-8.1210985,72.342804,-14.741138,-3.752583,-2.8000133,-0.7938717,29.793802,-63.06641,23.014782,-21.974455,-22.931486,4.7870803,-4.702281,20.019981,-62.626827,-21.165514,18.571354,-30.313282,1.9358422,-5.5139737,-14.979635
211,-10.790515899658203,-90.55226135253906,60.53342056274414,-1.3274367586096896,32.635401128072,-94.5181952676181,-72.761406,3.21741,-2.23631,107.72439,-20.717604,-5.841701,-90.00104,-3.105812,-8.087142,72.97498,-15.547902,-3.7228756,-2.8671339,-0.8994528,29.793802,-62.82314,23.190268,-21.90156,-22.981813,4.622681,-4.6449904,20.325539,-62.328636,-20.807232,19.028189,-30.25524,1.930845,-5.471703,-15.192837
212,-10.910941123962402,-90.96533966064453,60.54804992675781,-1.2652876786093237,32.3796353365261,-94.45081758551208,-73.256004,3.4557292,-2.1327,108.944336,-18.65078,-5.397754,-89.54748,-3.0797179,-8.080447,73.58048,-16.333933,-3.721407,-2.9153411,-0.96991456,29.793802,-62.58212,23.395733,-21.807447,-23.041004,4.4153657,-4.6409426,20.522997,-62.02568,-20.435276,19.483866,-30.20235,1.9099073,-5.4477596,-15.294768
213,-11.030437469482422,-91.38526916503906,60.55919647216797,-1.2385689515108051,32.1230750912391,-94.39717260828871,-73.862335,3.8011498,-1.9847053,110.21988,-16.534502,-4.542432,-89.07945,-3.0361464,-8.1045885,74.161766,-17.101711,-3.7546763,-2.9279158,-0.98872876,29.793802,-62.33239,23.63029,-21.678497,-23.11682,4.1086535,-4.7244964,20.554806,-61.710052,-20.06342,19.928703,-30.155382,1.8587075,-5.449058,-15.247313
214,-11.149490356445312,-91.80360412597656,60.5694465637207,-1.2364495327423342,31.86030611530721,-94.35413800644234,-74.56327,4.2803073,-1.7837096,111.54562,-14.380346,-3.3326,-88.59587,-2.9758866,-8.144336,74.72809,-17.861485,-3.8148215,-2.91626,-0.9709285,29.793802,-62.078384,23.887072,-21.532743,-23.198137,3.7416556,-4.861074,20.483511,-61.37355,-19.696125,20.37624,-30.12342,1.7787352,-5.468427,-15.0906315
215,-11.266191482543945,-92.21666717529297,60.5837516784668,-1.2698544271405603,31.611029885568726,-94.325502520765,-75.29322,4.9781303,-1.5012703,112.85279,-12.529669,-1.8798902,-88.105354,-2.9043198,-8.218639,75.259674,-18.599894,-3.8962348,-2.8722236,-0.9042054,29.793802,-61.84468,24.159298,-21.39759,-23.287521,3.3991435,-4.9981656,20.393713,-61.027527,-19.337103,20.83219,-30.102459,1.6998987,-5.496337,-14.888145
216,-11.38259220123291,-92.63628387451172,60.590858459472656,-1.3444932123623454,31.3944508052582,-94.31313333483338,-75.97614,5.952204,-1.095654,114.07963,-11.335734,-0.3034948,-87.61794,-2.8275886,-8.341279,75.73861,-19.303158,-3.9919662,-2.8006124,-0.7878658,29.793802,-61.655212,24.442135,-21.296534,-23.380877,3.172944,-5.0843143,20.370174,-60.672337,-18.99273,21.296183,-30.10375,1.6637741,-5.5220504,-14.70161
217,-11.506515502929688,-93.05355834960938,60.60504150390625,-1.4744601895289666,31.220968308070997,-94.32700029739559,-76.59203,7.2042885,-0.5791466,115.28064,-10.910282,1.3881418,-87.13873,-2.7371016,-8.525906,76.15261,-19.96058,-4.106435,-2.6798635,-0.5983931,29.793802,-61.523247,24.725954,-21.246435,-23.480173,3.125701,-5.0931234,20.445717,-60.311455,-18.663359,21.772223,-30.11574,1.7083455,-5.5512886,-14.523728
218,-11.621129989624023,-93.47440338134766,60.62311553955078,-1.6480647005829963,31.0756784886987,-94.36178027985848,-77.15585,8.667909,0.01376007,116.472176,-11.091972,3.2091508,-86.66047,-2.6323,-8.756483,76.51568,-20.582533,-4.239866,-2.5099504,-0.3425353,29.793802,-61.431236,25.013096,-21.225727,-23.590887,3.1885211,-5.0560746,20.5671,-59.932415,-18.357704,22.25009,-30.14553,1.8075768,-5.5853405,-14.326603
219,-11.723703384399414,-93.88909912109375,60.64530563354492,-1.8261198924087327,30.951156577563157,-94.39387515339966,-77.65157,10.259036,0.6890416,117.525764,-11.8180065,5.0314355,-86.188644,-2.533804,-8.997141,76.85163,-21.186142,-4.3780427,-2.329052,-0.06980988,29.793802,-61.378677,25.29468,-21.22779,-23.695148,3.2849536,-5.01206,20.70601,-59.555996,-18.067083,22.747175,-30.193382,1.872669,-5.6121745,-14.161247
220,-11.829450607299805,-94.29067993164062,60.6719856262207,-1.9682833083755866,30.835941745664172,-94.39796700418461,-78.057304,11.889318,1.4644557,118.31476,-13.017695,6.7232084,-85.72623,-2.4658089,-9.211443,77.18795,-21.790104,-4.5062733,-2.1731741,0.17292812,29.793802,-61.35325,25.573532,-21.231045,-23.789524,3.3197267,-4.9989204,20.825226,-59.194458,-17.787462,23.26669,-30.264385,1.8233266,-5.6178603,-14.067523
221,-11.933527946472168,-94.69281768798828,60.69843673706055,-2.0638089626802776,30.727706209778074,-94.36471889475177,-78.28076,13.679479,2.4670272,118.80227,-15.008812,8.261937,-85.272766,-2.43943,-9.395619,77.53176,-22.3983,-4.625742,-2.058398,0.37947997,29.793802,-61.3325,25.876928,-21.213926,-23.899221,3.25546,-5.027591,20.916805,-58.81705,-17.537012,23.830425,-30.406437,1.6796341,-5.579189,-14.126264
222,-12.03018856048584,-95.10346984863281,60.723026275634766,-2.1181171402935917,30.64706592844788,-94.29836354851022,-78.34082,15.527263,3.6777172,119.045876,-17.712233,9.618423,-84.84666,-2.4513967,-9.552534,77.87263,-22.999815,-4.7385607,-1.9453793,0.5799454,29.793802,-61.347157,26.179232,-21.217752,-24.022219,3.149112,-5.079756,21.015308,-58.482803,-17.272053,24.473932,-30.521393,1.3991433,-5.5157733,-14.319611
223,-12.117050170898438,-95.52863311767578,60.746910095214844,-2.1025375942230085,30.569644495855954,-94.19556564597556,-78.35203,17.07451,4.918099,119.05303,-20.443989,10.7188835,-84.43467,-2.5001936,-9.645848,78.22868,-23.606094,-4.834222,-1.9394522,0.6761837,29.793802,-61.365627,26.512993,-21.183638,-24.116251,3.0381317,-5.1389527,21.083178,-58.14266,-17.031036,25.067677,-30.724693,1.1058482,-5.454793,-14.43374
224,-12.199727058410645,-95.9444580078125,60.77528762817383,-2.0384256593273764,30.498183812294965,-94.06510738164478,-78.52867,18.055243,5.9403524,118.85359,-22.505953,11.572851,-84.032074,-2.5732133,-9.690984,78.58911,-24.216963,-4.9097896,-1.9537896,0.7232403,29.793802,-61.37941,26.869709,-21.129972,-24.247683,2.87588,-5.1942077,21.120275,-57.864655,-16.798662,25.551826,-30.880575,0.6957847,-5.440222,-14.326133
225,-12.285980224609375,-96.35250854492188,60.812442779541016,-1.9256599636794614,30.42834386646526,-93.90640230596031,-78.97618,18.4398,6.677759,118.46906,-23.657282,12.342479,-83.631676,-2.6683607,-9.685874,78.95028,-24.835133,-4.9487276,-2.0290308,0.68870085,29.793802,-61.40971,27.24426,-21.053621,-24.37083,2.657165,-5.2485867,21.099346,-57.643684,-16.577333,25.887415,-31.031939,0.1381969,-5.4950595,-13.876751
226,-12.36056900024414,-96.76459503173828,60.84960174560547,-1.7759562444596075,30.361786784095106,-93.7222597914751,-79.61098,18.420835,7.2339272,117.88739,-24.270084,13.024822,-83.232544,-2.7868187,-9.647151,79.309845,-25.45802,-4.961591,-2.1386614,0.6035137,29.793802,-61.448093,27.639847,-20.957071,-24.507845,2.3723247,-5.307384,21.032618,-57.46525,-16.373247,26.111664,-31.17878,-0.5467295,-5.600183,-13.197062
227,-12.4419584274292,-97.1805419921875,60.886627197265625,-1.6098294158493058,30.30547519938553,-93.52975887178098,-80.3565,18.107037,7.63621,117.0905,-24.572624,13.424583,-82.84242,-2.9164717,-9.595024,79.6627,-26.07549,-4.9838486,-2.237644,0.50144196,29.793802,-61.50344,28.027529,-20.877306,-24.648207,2.1085808,-5.3606925,20.981813,-57.35816,-16.15592,26.277748,-31.246964,-1.267636,-5.7320776,-12.470403
228,-12.51689624786377,-97.58206939697266,60.92750549316406,-1.427662304304033,30.24290911062384,-93.34320890132216,-81.08998,17.59661,7.936433,116.0583,-24.805279,13.340986,-82.453285,-3.0472403,-9.527783,80.0196,-26.685946,-5.0483723,-2.3888226,0.33758357,29.793802,-61.540104,28.422789,-20.786636,-24.74541,1.9792265,-5.394717,20.979662,-57.233624,-15.957963,26.390116,-31.365585,-1.7879856,-5.849252,-11.825763
229,-12.584842681884766,-97.97373962402344,60.97127914428711,-1.2379480391561737,30.17698120159946,-93.1672076842488,-81.80689,16.859097,8.098924,114.75888,-25.004818,12.626459,-82.06861,-3.1756778,-9.456941,80.37845,-27.280731,-5.189184,-2.5669503,0.13352469,29.793802,-61.57705,28.827463,-20.705875,-24.804094,2.0157182,-5.403176,21.06865,-57.1059,-15.784582,26.437902,-31.506048,-2.127666,-5.95087,-11.224992
230,-12.654903411865234,-98.38337707519531,61.00996017456055,-1.047034458804657,30.11533419075184,-92.99802709281087,-82.56263,15.888206,8.096733,113.209946,-25.069792,11.441448,-81.68831,-3.3021734,-9.387375,80.72952,-27.861988,-5.381315,-2.7186902,-0.07321403,29.793802,-61.627216,29.222506,-20.651321,-24.859404,2.1443746,-5.3946567,21.222113,-57.033215,-15.610991,26.423807,-31.572449,-2.4132817,-6.054041,-10.6298275
231,-12.727679252624512,-98.80680084228516,61.04301834106445,-0.8493680677424614,30.05396842107575,-92.83681014168799,-83.33096,14.809038,7.997724,111.46524,-25.029316,10.04143,-81.30716,-3.4252045,-9.305268,81.07607,-28.445032,-5.5693865,-2.8738863,-0.30877042,29.793802,-61.658546,29.596386,-20.597736,-24.894224,2.3294673,-5.380854,21.379873,-56.968163,-15.441804,26.393404,-31.630465,-2.5742211,-6.139247,-10.18142
232,-12.793405532836914,-99.21063995361328,61.077247619628906,-0.6477232054223662,29.99632675569971,-92.68383558144531,-84.10241,13.736059,7.858939,109.57713,-24.89787,8.67024,-80.92361,-3.5436404,-9.207043,81.414604,-29.041822,-5.6990237,-3.0073454,-0.55507314,29.793802,-61.63286,29.926977,-20.530615,-24.943836,2.5071476,-5.371825,21.48835,-56.899784,-15.276876,26.401556,-31.672401,-2.591981,-6.189186,-10.040314
233,-12.851034164428711,-99.61803436279297,61.10580062866211,-0.4475117375623323,29.950183876868525,-92.54208010279307,-84.90438,12.630513,7.639627,107.52835,-24.636,7.3139524,-80.53899,-3.6543717,-9.096151,81.73224,-29.653572,-5.742275,-3.0771146,-0.78315073,29.793802,-61.561134,30.173517,-20.459425,-25.006304,2.7153807,-5.373955,21.51939,-56.849728,-15.100084,26.470625,-31.639452,-2.4537897,-6.1982145,-10.340794
234,-12.90494155883789,-100.02532958984375,61.130428314208984,-0.244952081787466,29.904912077798713,-92.4106162235888,-85.71137,11.459288,7.3185234,105.29802,-24.267357,5.875923,-80.14694,-3.7593098,-8.97285,82.03656,-30.275906,-5.7326746,-3.1147184,-1.0093931,29.793802,-61.46364,30.335901,-20.379015,-25.046507,2.9835975,-5.3801923,21.494926,-56.784832,-14.930899,26.556345,-31.590292,-2.1530743,-6.174279,-10.952681
235,-12.961135864257812,-100.44579315185547,61.15033721923828,-0.03983536432382434,29.860096127188775,-92.28341970903423,-86.4791,10.335364,6.9734225,102.93935,-23.87288,4.4657607,-79.754265,-3.8652713,-8.842132,82.34549,-30.906553,-5.7100844,-3.1312702,-1.2321789,29.793802,-61.36557,30.423979,-20.305311,-25.058952,3.2144227,-5.388825,21.463661,-56.7287,-14.775343,26.64398,-31.511927,-1.7768062,-6.1304364,-11.686226
236,-13.011835098266602,-100.8738021850586,61.16935729980469,0.17211563133029545,29.811579061721144,-92.15339117175027,-87.164604,9.36413,6.6929574,100.501595,-23.521872,3.1855757,-79.364914,-3.9797153,-8.703936,82.678734,-31.543947,-5.7132497,-3.1592267,-1.4681649,29.793802,-61.279163,30.465559,-20.24133,-25.037085,3.3129926,-5.3963513,21.470787,-56.695377,-14.6399765,26.718637,-31.420355,-1.3957739,-6.074848,-12.343809
237,-13.05123233795166,-101.29933166503906,61.1785774230957,0.4059781658576633,29.75912890313931,-92.0157340980047,-87.76473,8.523535,6.4858937,97.95553,-23.218864,1.988813,-78.988976,-4.1049557,-8.541547,83.048546,-32.185772,-5.7649,-3.219863,-1.7447592,29.793802,-61.19765,30.482534,-20.180035,-24.984638,3.2056453,-5.3963804,21.54147,-56.680977,-14.5164175,26.76261,-31.333801,-1.019548,-5.9894876,-12.915226
238,-13.093912124633789,-101.7314453125,61.18184280395508,0.6581346148023755,29.70491872162426,-91.87460887901857,-88.300514,7.768377,6.31553,95.28152,-22.919931,0.8430007,-78.622536,-4.23731,-8.356749,83.44359,-32.83382,-5.839602,-3.3061147,-2.0598495,29.793802,-61.105083,30.482157,-20.113476,-24.916273,2.9539225,-5.3918934,21.650782,-56.682617,-14.398168,26.793976,-31.246126,-0.60780716,-5.878251,-13.4924135
