unveil-humanoid-operators/unveil-humanoid-operators.github.io/feature-analysis-animation/data/feature_matrix_instances/gender_ankle_rom_walking_A461_painful_stand_on_stop_walk_ff_180_R_001__A461.csv
Frame,root_translateX,root_translateY,root_translateZ,root_rotateX,root_rotateY,root_rotateZ,left_hip_pitch_joint_dof,left_hip_roll_joint_dof,left_hip_yaw_joint_dof,left_knee_joint_dof,left_ankle_pitch_joint_dof,left_ankle_roll_joint_dof,right_hip_pitch_joint_dof,right_hip_roll_joint_dof,right_hip_yaw_joint_dof,right_knee_joint_dof,right_ankle_pitch_joint_dof,right_ankle_roll_joint_dof,waist_yaw_joint_dof,waist_roll_joint_dof,waist_pitch_joint_dof,left_shoulder_pitch_joint_dof,left_shoulder_roll_joint_dof,left_shoulder_yaw_joint_dof,left_elbow_joint_dof,left_wrist_roll_joint_dof,left_wrist_pitch_joint_dof,left_wrist_yaw_joint_dof,right_shoulder_pitch_joint_dof,right_shoulder_roll_joint_dof,right_shoulder_yaw_joint_dof,right_elbow_joint_dof,right_wrist_roll_joint_dof,right_wrist_pitch_joint_dof,right_wrist_yaw_joint_dof
0,0.42013972997665405,1.139269471168518,78.36994934082031,0.9615773330582964,3.4002365862003074,-94.53103541979596,-0.4933488,1.8881686,4.205182,6.9600525,-10.623331,-3.8165102,-1.6347996,-5.3731036,-4.0076275,7.0477858,-7.4579377,6.575629,-0.06825587,0.7868348,2.3169208,2.725889,9.294255,-16.40344,62.734806,-3.7875383,-2.4475832,1.4842043,-1.3141904,-10.490502,25.317379,61.653088,-10.889332,0.500249,-10.117898
1,0.4136565923690796,1.1074081659317017,78.38468170166016,0.929465607744799,3.529285703386799,-94.47123661244197,-0.6305077,1.9000409,4.152257,6.958202,-10.619527,-3.801167,-1.6962814,-5.359985,-4.073913,6.9468384,-7.4232607,6.600657,-0.13516785,0.8096551,2.2415338,2.738313,9.296147,-16.405788,62.696995,-3.785137,-2.4456785,1.4815127,-1.3163574,-10.499597,25.311247,61.64232,-10.923138,0.5654578,-10.152037
2,0.4336164891719818,1.0772209167480469,78.39445495605469,0.8952539698536031,3.6633102962777246,-94.40864090541041,-0.77461463,1.915033,4.096195,6.9577065,-10.6156435,-3.7864475,-1.7660885,-5.345463,-4.1427817,6.8526173,-7.3910284,6.6234584,-0.2011737,0.83638096,2.1604438,2.7472312,9.293984,-16.412771,62.663998,-3.7826862,-2.44371,1.4811008,-1.3156445,-10.508756,25.300325,61.6288,-10.961932,0.6345922,-10.187787
3,0.46218907833099365,1.0449773073196411,78.40142822265625,0.8662875450331546,3.787285127853205,-94.35223865070564,-0.90493107,1.9239135,4.0463953,6.9562483,-10.612953,-3.770551,-1.8687315,-5.3410087,-4.2008476,6.848967,-7.409158,6.6495566,-0.25143948,0.86144614,2.0906742,2.7464328,9.285494,-16.429235,62.637802,-3.7810981,-2.442427,1.4817328,-1.3064762,-10.525194,25.277678,61.609158,-10.997443,0.69685584,-10.2188635
4,0.49989601969718933,1.018678903579712,78.40587615966797,0.8481675795096664,3.88636892407182,-94.31024795642942,-1.0028807,1.9194182,4.0111547,6.955143,-10.614627,-3.751683,-1.9457737,-5.3504233,-4.24347,6.845243,-7.4340763,6.6845946,-0.29192534,0.8744305,2.0463178,2.7480779,9.277486,-16.44102,62.606766,-3.7801595,-2.4418542,1.4799391,-1.3099581,-10.536485,25.260658,61.610966,-11.015069,0.74036014,-10.2444315
5,0.5123615264892578,0.99275141954422,78.41032409667969,0.8444775303247948,3.950559602927146,-94.28821430818407,-1.0562453,1.8973242,3.995659,6.9544106,-10.622071,-3.730914,-1.9886624,-5.377127,-4.265059,6.844659,-7.469462,6.7315283,-0.30520865,0.8773483,2.0397966,2.7398221,9.261334,-16.462137,62.578327,-3.78372,-2.442516,1.4777937,-1.3141936,-10.557661,25.236393,61.620815,-11.010619,0.7595397,-10.257563
6,0.5446110367774963,0.9607990980148315,78.4114990234375,0.8508478679940727,3.989821838559881,-94.28045806775708,-1.0774889,1.862691,3.9943182,6.9536214,-10.633773,-3.7086759,-2.0057716,-5.4158835,-4.271676,6.843082,-7.5105953,6.7870264,-0.30217993,0.87427676,2.0606034,2.7274566,9.238339,-16.485134,62.54908,-3.7884867,-2.4439921,1.4747424,-1.3177392,-10.587649,25.210627,61.6335,-10.989987,0.76177716,-10.2618265
7,0.5788953304290771,0.9249682426452637,78.41102600097656,0.8625498325325155,4.019266543064614,-94.27901963688404,-1.0852907,1.8203268,4.0002575,6.9536138,-10.647994,-3.6821384,-2.0132034,-5.4617286,-4.270852,6.843548,-7.556219,6.8469753,-0.29189944,0.8689538,2.0924854,2.7131104,9.210744,-16.507486,62.520496,-3.7910805,-2.4465332,1.4699719,-1.3199373,-10.62389,25.182678,61.647884,-10.9617405,0.75455415,-10.263046
8,0.6115918755531311,0.8898458480834961,78.41171264648438,0.8740945232958685,4.054072919992931,-94.276153986204,-1.0979986,1.775299,4.0065274,6.9532485,-10.661542,-3.6484575,-2.02537,-5.5093923,-4.2701936,6.8436704,-7.601399,6.907459,-0.28497794,0.86082184,2.1182156,2.7047203,9.187231,-16.523363,62.488277,-3.7867656,-2.4496021,1.4611611,-1.323864,-10.653588,25.149546,61.66912,-10.940037,0.7454048,-10.268402
9,0.6468945145606995,0.8491913676261902,78.41294860839844,0.888426443279236,4.101314290380194,-94.2742156099487,-1.122572,1.7253705,4.0171323,6.9526772,-10.672858,-3.6037362,-2.05054,-5.5607233,-4.264429,6.8425117,-7.6460104,6.968557,-0.26989132,0.854906,2.130643,2.6914132,9.153839,-16.537159,62.46547,-3.7706182,-2.4546628,1.4473629,-1.3139066,-10.693574,25.099207,61.68096,-10.924751,0.7300211,-10.274142
10,0.6880868673324585,0.8096792697906494,78.41474914550781,0.906914411280941,4.151967516250932,-94.2759151341507,-1.1487365,1.6690794,4.0338135,6.952153,-10.68359,-3.5505772,-2.0796037,-5.617337,-4.2519345,6.842463,-7.6934505,7.0317383,-0.2518961,0.8420064,2.138851,2.6822894,9.123024,-16.544025,62.440887,-3.747016,-2.460594,1.4278712,-1.3045123,-10.72863,25.042137,61.7006,-10.911316,0.7061335,-10.280852
11,0.7299056053161621,0.7725706100463867,78.4169921875,0.9220918289743,4.196641156880522,-94.27362969207566,-1.168022,1.6125987,4.0462675,6.9516253,-10.69685,-3.4957736,-2.0996354,-5.6749144,-4.245529,6.842426,-7.7407846,7.095117,-0.23500337,0.8375995,2.1535246,2.6692336,9.085671,-16.555294,62.419647,-3.7218292,-2.4674563,1.4115771,-1.2929252,-10.769628,24.98076,61.718822,-10.901447,0.6859992,-10.290697
12,0.7694445848464966,0.7366517782211304,78.41899108886719,0.9271393106233105,4.2261331155559185,-94.26003466638635,-1.1720341,1.5613331,4.0444098,6.9518485,-10.716844,-3.446191,-2.0984054,-5.7292185,-4.2580376,6.8428497,-7.7864,7.156808,-0.23300922,0.84524333,2.1850343,2.6581964,9.050144,-16.572847,62.39241,-3.7019022,-2.474029,1.4039807,-1.2931422,-10.80841,24.92901,61.74656,-10.895472,0.6814692,-10.309236
13,0.8031999468803406,0.7042232155799866,78.42119598388672,0.9183575466138598,4.231679680750061,-94.2292929085332,-1.1530169,1.5169272,4.020744,6.9537067,-10.746101,-3.406269,-2.064357,-5.7791104,-4.297765,6.8433385,-7.831075,7.2148514,-0.25033605,0.875282,2.24388,2.6441658,9.009373,-16.604712,62.360115,-3.6896367,-2.4807386,1.4127382,-1.3031472,-10.852861,24.887081,61.77627,-10.898765,0.702963,-10.340757
14,0.8471243977546692,0.6626047492027283,78.42206573486328,0.899837504099081,4.220242031404359,-94.18651842904168,-1.1166656,1.4766023,3.9822571,6.955326,-10.781323,-3.3715658,-2.0069256,-5.8266244,-4.3563113,6.843406,-7.87464,7.270769,-0.28141022,0.92137164,2.3221047,2.628472,8.964516,-16.645267,62.324352,-3.6812975,-2.4878895,1.4322602,-1.3198619,-10.901967,24.85123,61.808228,-10.908676,0.7417129,-10.38177
15,0.8985716700553894,0.6184752583503723,78.42476654052734,0.8770390718884163,4.206386355076898,-94.14106407122713,-1.0763234,1.4385798,3.9404345,6.956835,-10.819567,-3.3353252,-1.9441618,-5.872566,-4.421634,6.843974,-7.9160256,7.327843,-0.31403315,0.9736828,2.4025853,2.6113434,8.917167,-16.686684,62.291527,-3.6727974,-2.495204,1.4519862,-1.3356916,-10.954534,24.815924,61.84086,-10.916392,0.7813214,-10.422199
16,1.000268816947937,0.5643038749694824,78.42915344238281,0.8548847696608913,4.204495068348714,-94.1020032681052,-1.0463475,1.4011042,3.9066677,6.9595284,-10.858016,-3.2908013,-1.8939053,-5.917765,-4.481808,6.8442273,-7.9528966,7.389474,-0.33923274,1.0158744,2.4674976,2.5984824,8.879108,-16.71889,62.262142,-3.6620271,-2.5018735,1.4599426,-1.3516858,-10.998003,24.780396,61.883137,-10.9116125,0.805121,-10.453546
17,1.0735032558441162,0.5098344087600708,78.43037414550781,0.8327124624692636,4.213861799684362,-94.07739943757124,-1.0241452,1.3672366,3.8896418,6.961937,-10.894771,-3.2337422,-1.8574728,-5.959371,-4.5302424,6.8439617,-7.9813085,7.4596806,-0.34282973,1.0538038,2.519896,2.579766,8.83971,-16.741217,62.246727,-3.6484003,-2.5094044,1.4525567,-1.3606669,-11.044818,24.741026,61.92861,-10.886898,0.80448645,-10.46956
18,1.127943754196167,0.45841851830482483,78.43213653564453,0.808470959395612,4.228352594649749,-94.06055482351086,-1.0044277,1.3368474,3.8813632,6.9643655,-10.931867,-3.168485,-1.8259963,-5.9980035,-4.5745068,6.842433,-8.003088,7.5355587,-0.33506706,1.0926031,2.5663981,2.5567749,8.797976,-16.756746,62.241016,-3.6331918,-2.5176945,1.4361322,-1.3654724,-11.097889,24.700695,61.97621,-10.849653,0.7897359,-10.476081
19,1.1835886240005493,0.40805619955062866,78.43507385253906,0.7853092885562776,4.254219631907279,-94.03853086530994,-0.99551475,1.3030771,3.8684328,6.966734,-10.969985,-3.1013327,-1.8031803,-6.040348,-4.623288,6.841088,-8.026082,7.609981,-0.33481252,1.1217177,2.596298,2.5449429,8.769456,-16.769705,62.230293,-3.6157892,-2.5238936,1.4156088,-1.3706424,-11.135458,24.659977,62.02955,-10.810512,0.7727728,-10.480995
20,1.2511584758758545,0.3545849025249481,78.4375991821289,0.7663613388470436,4.297602759956643,-93.99820848032643,-1.0056307,1.2588656,3.837548,6.969172,-11.010117,-3.038477,-1.7924908,-6.0930123,-4.6853623,6.8403955,-8.057199,7.6762996,-0.34464905,1.1545827,2.5996518,2.532908,8.733681,-16.800148,62.228157,-3.5934303,-2.5279033,1.4023452,-1.3516893,-11.184434,24.604021,62.056034,-10.77812,0.76638585,-10.484872
21,1.326171636581421,0.2831595838069916,78.43851470947266,0.7535297821414116,4.3668921457677685,-93.93001124937233,-1.0436101,1.201187,3.7783904,6.970173,-11.051222,-2.9850328,-1.7984003,-6.1586585,-4.769381,6.840261,-8.10447,7.7285748,-0.38500518,1.1758806,2.5614865,2.541207,8.711581,-16.838528,62.21923,-3.564728,-2.5277448,1.3938682,-1.3225378,-11.215522,24.549173,62.078835,-10.756624,0.7753137,-10.49375
22,1.3928589820861816,0.21085189282894135,78.43692016601562,0.7447077380876717,4.45643597191352,-93.8427907116628,-1.1032234,1.13416,3.7003496,6.9708595,-11.093531,-2.9364684,-1.8182554,-6.233029,-4.8685703,6.8409805,-8.161929,7.7720275,-0.42824692,1.2002605,2.4925814,2.5471346,8.683586,-16.900347,62.221455,-3.5325727,-2.5255206,1.3903234,-1.2625691,-11.256412,24.47397,62.07383,-10.743372,0.7926915,-10.499492
23,1.4563616514205933,0.13281062245368958,78.43408966064453,0.7391343256124372,4.551786261347855,-93.75181744086669,-1.1681362,1.0600387,3.6201222,6.9716825,-11.138165,-2.884961,-1.8424324,-6.314092,-4.96915,6.8417497,-8.216239,7.816829,-0.4814559,1.2177213,2.415713,2.5605175,8.6625185,-16.961285,62.219543,-3.4974244,-2.5209413,1.389031,-1.2048723,-11.288835,24.393467,62.066048,-10.729335,0.81201607,-10.506108
24,1.5264643430709839,0.05816193297505379,78.4353256225586,0.7355922421895497,4.638418018481537,-93.67220951998779,-1.221829,0.98128116,3.5543306,6.9728274,-11.186233,-2.8224878,-1.8612986,-6.39901,-5.0575585,6.8422685,-8.254517,7.873132,-0.5301365,1.2293477,2.3550606,2.5709345,8.646116,-17.022747,62.21552,-3.4643583,-2.514749,1.3912238,-1.1590259,-11.316459,24.29881,62.0549,-10.70759,0.8268034,-10.512633
25,1.6076902151107788,-0.01749100163578987,78.43535614013672,0.732498999463111,4.711703209947082,-93.60553948007646,-1.2593194,0.9000376,3.5056324,6.974256,-11.238095,-2.746214,-1.8699759,-6.48519,-5.1333675,6.840723,-8.275648,7.9486227,-0.5639489,1.2398022,2.3170714,2.5711439,8.628555,-17.09077,62.214188,-3.4393404,-2.5087402,1.4029356,-1.1126428,-11.34853,24.179487,62.02422,-10.676538,0.83692557,-10.516084
26,1.6907669305801392,-0.09482679516077042,78.4336166381836,0.7309569760506505,4.779673439927835,-93.54461924037504,-1.2902045,0.81436646,3.4656901,6.9762573,-11.292674,-2.6606815,-1.8748243,-6.5748377,-5.202741,6.839049,-8.286541,8.036407,-0.6157726,1.2412654,2.287015,2.5845668,8.619475,-17.13668,62.2022,-3.4135735,-2.501827,1.4191988,-1.0888993,-11.36621,24.073236,62.003567,-10.63207,0.8456598,-10.52259
27,1.7752455472946167,-0.15855740010738373,78.42752838134766,0.7337814136715745,4.846670144959916,-93.49114311886845,-1.3185672,0.7211507,3.4346583,6.9784284,-11.350218,-2.5686514,-1.8821917,-6.671109,-5.2625074,6.8380084,-8.282973,8.124975,-0.65226996,1.240377,2.2640638,2.5852184,8.6101265,-17.203363,62.196102,-3.3846812,-2.4913678,1.4340589,-1.0615857,-11.386806,23.932463,61.96807,-10.592313,0.8506099,-10.526815
28,1.8707408905029297,-0.23222003877162933,78.42201232910156,0.7428147280605235,4.916999164587741,-93.4468551612315,-1.3489375,0.6177483,3.4124622,6.9803944,-11.410348,-2.472912,-1.8973799,-6.77636,-5.3103104,6.8363085,-8.259652,8.202767,-0.663763,1.2401713,2.2462206,2.5655768,8.597865,-17.307428,62.198936,-3.3458765,-2.474351,1.4389961,-1.0227444,-11.421264,23.73967,61.90995,-10.568447,0.85015815,-10.527239
29,1.9642800092697144,-0.3023235499858856,78.41956329345703,0.753427388960934,4.995470524692056,-93.40753219949417,-1.3869116,0.5085801,3.3941143,6.982449,-11.470894,-2.3722184,-1.9244612,-6.8889976,-5.3508854,6.835874,-8.227295,8.261986,-0.68364197,1.2437145,2.2258184,2.548883,8.587497,-17.413296,62.194393,-3.28045,-2.44763,1.4292587,-0.9997085,-11.457504,23.547176,61.858315,-10.5571165,0.8451192,-10.538452
30,2.064655303955078,-0.3652037978172302,78.41551208496094,0.7625290042665969,5.078514497874721,-93.37370202999114,-1.4289109,0.39688736,3.3804526,6.9850607,-11.532824,-2.26561,-1.9593598,-7.0051484,-5.385374,6.8353477,-8.18383,8.309843,-0.713723,1.2498416,2.2053328,2.5363202,8.580652,-17.515549,62.184,-3.1945026,-2.4136155,1.4097092,-0.996738,-11.487141,23.35548,61.818195,-10.553044,0.836051,-10.558566
31,2.1795098781585693,-0.4389383792877197,78.41148376464844,0.7714102475164898,5.158094174827437,-93.35397663033685,-1.4650472,0.28238937,3.3792753,6.9867377,-11.599797,-2.1570094,-1.997252,-7.120584,-5.4068775,6.834561,-8.107693,8.356389,-0.71842843,1.2592176,2.1992896,2.5048897,8.574751,-17.651035,62.179363,-3.1125388,-2.3772762,1.3816807,-0.9819264,-11.528174,23.101372,61.747913,-10.550712,0.8216413,-10.56149
32,2.294370174407959,-0.5133303999900818,78.40362548828125,0.7892850600246865,5.226108360701247,-93.35722271643618,-1.4868946,0.15722112,3.4002223,6.9897842,-11.677567,-2.0502465,-2.0339756,-7.240152,-5.4062095,6.8335886,-7.9766693,8.4114275,-0.73268145,1.2564732,2.2171388,2.4759107,8.574775,-17.773275,62.165733,-3.0398288,-2.3436959,1.3403823,-0.9863015,-11.562472,22.811068,61.66717,-10.524269,0.8025232,-10.533766
33,2.3966658115386963,-0.5721968412399292,78.39226531982422,0.8422208563800708,5.296279422732327,-93.3811601336094,-1.509718,-0.007200169,3.4449959,6.9903717,-11.761461,-1.9460384,-2.3378496,-7.426097,-5.3437815,7.3712535,-8.09652,8.479864,-0.74736,1.2149246,2.2430222,2.4442537,8.581253,-17.89687,62.15056,-2.9762497,-2.314173,1.2820904,-1.0062938,-11.590662,22.462051,61.579903,-10.471223,0.7716534,-10.449996
34,2.515885353088379,-0.6325647830963135,78.36531066894531,0.9254286708943028,5.368321900247859,-93.42348895450974,-1.5337739,-0.20552945,3.5111208,6.990455,-11.851046,-1.8429226,-3.3013518,-7.7083836,-5.1677976,9.276403,-8.911074,8.549257,-0.73869324,1.1401887,2.2788742,2.3988914,8.596844,-18.051252,62.13664,-2.9242744,-2.2855737,1.2097143,-1.0202382,-11.619374,22.034964,61.46678,-10.408866,0.7307791,-10.322667
35,2.633268117904663,-0.6887759566307068,78.33277893066406,1.0168231618065227,5.4129167486626475,-93.49219732217054,-1.5222073,-0.4106893,3.604692,6.991302,-11.95574,-1.7389419,-4.3140936,-7.9968715,-4.9544454,11.318042,-9.713339,8.611567,-0.7277139,1.0516427,2.3568938,2.3528485,8.621983,-18.198738,62.109966,-2.8855252,-2.2569084,1.1308975,-1.0506113,-11.641715,21.578335,61.334274,-10.331343,0.69388515,-10.198799
36,2.740072727203369,-0.7475489974021912,78.29817962646484,1.1082098027156668,5.401050601443373,-93.59588987822822,-1.4403502,-0.6103815,3.7335222,6.9945374,-12.083248,-1.6335043,-5.3540516,-8.270084,-4.7032313,13.508477,-10.457673,8.658687,-0.7169818,0.95511043,2.5093985,2.3070824,8.654776,-18.322273,62.06557,-2.8652382,-2.2270734,1.055484,-1.1058156,-11.654751,21.116297,61.1777,-10.240383,0.6742717,-10.123385
37,2.8684632778167725,-0.7962400317192078,78.25377655029297,1.1995411765137427,5.310778468317668,-93.74170468376937,-1.2592819,-0.80206424,3.906726,6.998748,-12.238623,-1.5239255,-6.3960476,-8.529362,-4.414,15.851974,-11.166855,8.68785,-0.67142755,0.8465363,2.7654953,2.2519255,8.704919,-18.450472,61.998566,-2.8642485,-2.1956027,0.9869211,-1.16251,-11.660004,20.600147,60.966366,-10.143457,0.6841569,-10.109451
38,2.983234405517578,-0.8421071767807007,78.20996856689453,1.2970952886948872,5.162399442081343,-93.92353515939945,-1.0059656,-0.9963988,4.1169443,7.004087,-12.415788,-1.4110682,-7.4678373,-8.792265,-4.0818067,18.36127,-11.863988,8.696409,-0.61848503,0.72329384,3.0993316,2.1981807,8.767041,-18.561419,61.91116,-2.8751962,-2.163548,0.91921324,-1.2401714,-11.6547785,20.05737,60.72703,-10.032372,0.71411055,-10.135682
39,3.0990304946899414,-0.889957070350647,78.16278076171875,1.4040640632943642,4.990070355799281,-94.12960914819811,-0.72222066,-1.2019902,4.348112,7.0094676,-12.607662,-1.2982228,-8.607087,-9.057765,-3.701941,21.024782,-12.485396,8.677854,-0.5661486,0.5835826,3.4708478,2.1417377,8.843032,-18.667881,61.810177,-2.9192955,-2.1286662,0.84840906,-1.3377475,-11.641672,19.510767,60.470886,-9.913489,0.741329,-10.180207
40,3.188422203063965,-0.9463619589805603,78.13140869140625,1.5230323465480524,4.827775834962292,-94.34774967533055,-0.45040548,-1.4251518,4.584321,7.014919,-12.807232,-1.1889476,-9.850906,-9.3198805,-3.271365,23.829641,-12.965352,8.628101,-0.5295807,0.4260937,3.840736,2.0813951,8.934908,-18.774792,61.70148,-3.016953,-2.0906236,0.7692996,-1.4561764,-11.624252,18.992329,60.20936,-9.790339,0.7430573,-10.2213335
41,3.3079068660736084,-0.9829717874526978,78.07305908203125,1.6661601897897775,4.713725229712581,-94.56469232244726,-0.23450795,-1.6808318,4.8132896,7.018387,-13.00979,-1.0866084,-11.255033,-9.594891,-2.787889,26.819017,-13.298931,8.586467,-0.5197234,0.24035384,4.169221,2.0224628,9.043557,-18.879387,61.573483,-3.1948962,-2.0431392,0.67672914,-1.5945501,-11.607632,18.504467,59.943684,-9.656196,0.7081098,-10.25083
42,3.414123773574829,-1.0451234579086304,78.01885986328125,1.8271002038175932,4.6203831304415885,-94.78965907496504,-0.04054726,-1.9584979,5.045542,7.0225005,-13.221105,-0.989718,-12.780877,-9.873316,-2.2542703,29.975407,-13.515127,8.537477,-0.5269834,0.03270468,4.4886384,1.964488,9.168225,-18.97948,61.425835,-3.435154,-1.9891983,0.57383436,-1.7488877,-11.59244,18.032598,59.662773,-9.511085,0.6502205,-10.279797
43,3.528872489929199,-1.1019257307052612,77.96553039550781,1.981946740985053,4.483462438535249,-95.04482103989392,0.21139476,-2.2264557,5.299157,7.0264854,-13.4475155,-0.8945928,-14.324888,-10.10868,-1.6781684,33.202442,-13.593459,8.399772,-0.5361124,-0.17560132,4.8650646,1.9005421,9.3099165,-19.0827,61.27245,-3.6917286,-1.9345585,0.46939853,-1.9206982,-11.576519,17.584974,59.367516,-9.368495,0.5845976,-10.31675
44,3.629789113998413,-1.156553864479065,77.90990447998047,2.1083077925902827,4.238306427706373,-95.35256009320602,0.5968695,-2.4541788,5.5918517,7.033842,-13.696253,-0.7968613,-15.775617,-10.256842,-1.0716434,36.39158,-13.512836,8.095612,-0.5320027,-0.36465034,5.364712,1.8256038,9.470234,-19.195398,61.125286,-3.9176724,-1.8850521,0.37152237,-2.1114743,-11.55459,17.169851,59.058475,-9.24255,0.52639514,-10.370498
45,3.6850829124450684,-1.2325645685195923,77.89215087890625,2.1982673108023674,3.8269358045052346,-95.73288014085223,1.1809596,-2.6270032,5.9386735,7.044582,-13.973105,-0.6876184,-17.084126,-10.291148,-0.41233093,39.566036,-13.204357,7.6132684,-0.5049461,-0.5299269,6.06042,1.7340385,9.65263,-19.306211,60.97631,-4.1124816,-1.8450594,0.27604768,-2.3413095,-11.521251,16.787725,58.740704,-9.145232,0.4794284,-10.449544
46,3.813793420791626,-1.2529196739196777,77.80790710449219,2.2668085370375404,3.296117496163961,-96.16924864590231,1.9085357,-2.76414,6.326086,7.0567665,-14.272129,-0.57246894,-18.306067,-10.24118,0.28598347,42.754333,-12.69338,6.992505,-0.46446228,-0.6841933,6.8985806,1.6316141,9.8584,-19.415201,60.821274,-4.2968926,-1.8100986,0.18047477,-2.6073275,-11.476217,16.436565,58.417866,-9.06585,0.4356353,-10.548418
47,3.9378552436828613,-1.289430856704712,77.73345947265625,2.3264825760004406,2.7388752930569313,-96.62977873401425,2.67647,-2.8872015,6.729221,7.0701184,-14.585313,-0.46787396,-19.490068,-10.148475,0.95578384,45.85883,-12.099678,6.237628,-0.42402166,-0.8329013,7.755547,1.5280087,10.084445,-19.547499,60.680748,-4.457465,-1.7739582,0.095642574,-2.8709424,-11.421733,16.115679,58.08385,-8.9902935,0.3923995,-10.6543865
48,4.014283657073975,-1.3772599697113037,77.70026397705078,2.388131786146084,2.2495228127199427,-97.08223193144013,3.382469,-3.0168343,7.1228695,7.0812845,-14.902649,-0.39026868,-20.691399,-10.052602,1.5322753,48.79115,-11.548271,5.357082,-0.39718288,-0.9817757,8.506215,1.4296346,10.325469,-19.73043,60.579082,-4.581765,-1.7308451,0.03342296,-3.0944667,-11.364121,15.824711,57.73401,-8.902842,0.3470782,-10.755012
49,4.140620708465576,-1.4497171640396118,77.61451721191406,2.4487013064399337,1.8154175669947061,-97.54520365530519,4.0454965,-3.1517305,7.523501,7.0917687,-15.23059,-0.3477561,-21.930588,-9.973119,1.9761094,51.637764,-11.0145645,4.1924925,-0.3677852,-1.1275134,9.159698,1.3374002,10.578366,-19.978123,60.515076,-4.6519623,-1.6732345,-0.0011582935,-3.2705858,-11.309947,15.560789,57.358498,-8.799551,0.2954698,-10.848802
50,4.246501445770264,-1.5437393188476562,77.54072570800781,2.506120247858767,1.3994271692879372,-98.02647988782618,4.7059073,-3.283843,7.9366965,7.100331,-15.5698595,-0.33094612,-23.180243,-9.89264,2.31986,54.41375,-10.450432,2.794264,-0.33380362,-1.2673868,9.768733,1.2438594,10.841835,-20.277245,60.481323,-4.6809816,-1.6067722,-0.014699167,-3.4131863,-11.259791,15.323027,56.956142,-8.687552,0.24008588,-10.940453
51,4.312932014465332,-1.6890851259231567,77.48640441894531,2.5647079660606664,1.0598109536933893,-98.47746451137297,5.2862477,-3.417915,8.321015,7.1106043,-15.906765,-0.32903722,-24.423018,-9.778232,2.6144512,56.92885,-9.943568,1.499746,-0.33240938,-1.4062828,10.272393,1.1459465,11.1125765,-20.607353,60.49134,-4.6952987,-1.5451125,-0.012485398,-3.5187356,-11.21237,15.113894,56.538273,-8.569722,0.18880895,-11.026846
52,4.368951320648193,-1.8528190851211548,77.43161010742188,2.6287489702465643,0.8548826408641245,-98.85018632839892,5.7121396,-3.558314,8.636517,7.119266,-16.223839,-0.3316134,-25.642168,-9.58372,2.9225774,59.001507,-9.5890255,0.66213393,-0.4008754,-1.5493351,10.609605,1.039797,11.386325,-20.94838,60.559788,-4.722515,-1.5020065,0.0005263922,-3.5836132,-11.164184,14.936485,56.11628,-8.448481,0.14931864,-11.1052885
53,4.423335075378418,-2.024113893508911,77.3697509765625,2.7148913808040125,0.8360571211183775,-99.11970421373019,5.921774,-3.728565,8.8656025,7.1259036,-16.519136,-0.3454848,-26.875872,-9.280506,3.3070223,60.61559,-9.492453,0.4635266,-0.56710523,-1.7163666,10.7139,0.92708296,11.665216,-21.33033,60.704742,-4.7614913,-1.4959431,0.036018766,-3.6022506,-11.113258,14.804074,55.6864,-8.312438,0.12916654,-11.183063
54,4.482707500457764,-2.2040791511535645,77.2959976196289,2.81293209133097,0.9596835004949444,-99.31586822168255,5.9717965,-3.9185617,9.03421,7.1311555,-16.800707,-0.3734843,-28.120335,-8.8858,3.7241416,61.87657,-9.590964,0.7060996,-0.8067979,-1.897477,10.634844,0.8076727,11.949801,-21.751959,60.914116,-4.8005776,-1.5146459,0.09245464,-3.578423,-11.05888,14.711363,55.24561,-8.163629,0.12226594,-11.259481
55,4.55946159362793,-2.396756887435913,77.21624755859375,2.8851521610875395,1.141377907001773,-99.47341569498558,5.95976,-4.0816574,9.168069,7.138469,-17.067682,-0.39872253,-29.299215,-8.416884,4.0811133,62.79026,-9.723753,1.1710663,-1.0801113,-2.0537612,10.48339,0.6742682,12.231389,-22.142742,61.16175,-4.848532,-1.5260564,0.1464204,-3.5266542,-11.003128,14.633418,54.813175,-8.029547,0.1163616,-11.3212185
56,4.621114730834961,-2.573077917098999,77.16142272949219,2.8952086995317243,1.2969657060027016,-99.62757780416163,5.9848948,-4.171516,9.291648,7.145261,-17.317572,-0.4035608,-30.338688,-7.8978243,4.291242,63.353573,-9.718243,1.6366676,-1.3472284,-2.1459985,10.369464,0.51830655,12.496284,-22.429855,61.42735,-4.9126086,-1.4988843,0.17540894,-3.4629211,-10.949458,14.549079,54.410095,-7.9350204,0.09959291,-11.355291
57,4.671159744262695,-2.7661564350128174,77.12162017822266,2.8300296743030326,1.4207881988439273,-99.78384985745564,6.0486403,-4.1733894,9.403046,7.1562037,-17.54838,-0.3709939,-31.233105,-7.316278,4.3473353,63.530388,-9.515501,2.103376,-1.6084665,-2.1553895,10.297515,0.32793948,12.735721,-22.628477,61.7348,-5.016947,-1.4256926,0.18213995,-3.3898973,-10.903098,14.462744,54.035572,-7.886042,0.06378067,-11.355382
58,4.704985618591309,-2.9878203868865967,77.10321807861328,2.71083892275009,1.5511414078053403,-99.92473645127991,6.1073046,-4.114459,9.491723,7.1664305,-17.760458,-0.31335068,-32.0203,-6.678673,4.298933,63.326828,-9.21197,2.662754,-1.8817188,-2.1012704,10.2172165,0.104672626,12.948037,-22.763914,62.09931,-5.14722,-1.3265657,0.1774042,-3.2978656,-10.865423,14.383623,53.67993,-7.8689,0.017287392,-11.329226
59,4.754105567932129,-3.219757318496704,77.0884017944336,2.5533840986843774,1.6704285882944498,-100.05190933751469,6.1805267,-4.0078006,9.569276,7.1779504,-17.963602,-0.2566141,-32.697174,-6.0356946,4.148374,62.806927,-8.860137,3.2304294,-2.154091,-2.0048578,10.153723,-0.13564663,13.132143,-22.780394,62.478523,-5.2557287,-1.202596,0.15209638,-3.188381,-10.834796,14.300591,53.357094,-7.8789926,-0.026726099,-11.286278
60,4.821087837219238,-3.439629077911377,77.06604766845703,2.3745697226020046,1.761307168387618,-100.16702650471542,6.2914486,-3.8680336,9.647555,7.188645,-18.165905,-0.22650467,-33.257427,-5.4374814,3.8962138,62.034943,-8.50901,3.7221801,-2.4149232,-1.8901691,10.13138,-0.3762771,13.287403,-22.618626,62.833046,-5.2934113,-1.0575972,0.09627849,-3.066174,-10.807588,14.205401,53.08416,-7.910867,-0.05502608,-11.236891
61,4.8541178703308105,-3.688133955001831,77.06250762939453,2.15750136210436,1.8074989694265982,-100.27335594373882,6.461155,-3.6738186,9.733912,7.199106,-18.36957,-0.23280944,-33.668213,-4.892003,3.4868023,60.982307,-8.150168,4.110379,-2.6575017,-1.7407634,10.1664,-0.6193454,13.401912,-22.242592,63.177723,-5.2097926,-0.8828753,-0.012122863,-2.9292295,-10.781766,14.098608,52.864014,-7.9717813,-0.05718587,-11.183012
62,4.848317623138428,-3.9250292778015137,77.07617950439453,1.901140231751276,1.8218230184170614,-100.36872985137241,6.6735806,-3.4268348,9.821211,7.2106986,-18.570698,-0.2597493,-33.941097,-4.374733,2.9407697,59.62444,-7.7588835,4.4381633,-2.8987522,-1.5606456,10.24447,-0.8566196,13.493537,-21.677494,63.508865,-5.040562,-0.67893493,-0.16582943,-2.7851985,-10.752125,13.994178,52.69477,-8.060954,-0.042595766,-11.121064
63,4.890251159667969,-4.178833484649658,77.06044006347656,1.6439162624438328,1.8310661672220816,-100.44716899354526,6.8965516,-3.17436,9.898954,7.221225,-18.766941,-0.29494393,-34.13326,-3.8822007,2.368062,58.030247,-7.3578277,4.728205,-3.1341226,-1.3790421,10.333756,-1.1160989,13.553138,-21.001337,63.836155,-4.874059,-0.46880543,-0.31677955,-2.6298397,-10.726371,13.872515,52.57756,-8.164826,-0.027940419,-11.05077
64,4.927732944488525,-4.444307804107666,77.04412078857422,1.425047398943362,1.8623828957978092,-100.50242196666515,7.096076,-2.963996,9.956033,7.229777,-18.95653,-0.3261084,-34.303413,-3.4149022,1.8793954,56.272232,-6.972194,5.0018067,-3.365089,-1.2326993,10.405797,-1.4044131,13.592782,-20.281424,64.138535,-4.798214,-0.27234665,-0.42081696,-2.4618971,-10.709722,13.720059,52.51128,-8.269107,-0.03003751,-10.971412
65,4.928330898284912,-4.704209327697754,77.03009033203125,1.2568310151683189,1.9290004333764112,-100.5283789359691,7.2522473,-2.8099139,9.98503,7.2383547,-19.13397,-0.35080388,-34.46345,-2.9818287,1.4862559,54.333687,-6.614372,5.2521024,-3.6256018,-1.1434566,10.456759,-1.6865509,13.627762,-19.44343,64.369415,-4.8215685,-0.07320292,-0.46204808,-2.3018532,-10.695886,13.559033,52.50491,-8.374086,-0.0599093,-10.874536
66,4.934791564941406,-4.984396934509277,77.0159912109375,1.1187620979259296,2.0144047272590675,-100.52913046963758,7.3879004,-2.6882162,9.9923525,7.244748,-19.300667,-0.37438127,-34.575912,-2.5823886,1.1363485,52.179775,-6.266565,5.4696894,-3.901382,-1.0916699,10.500581,-1.9704249,13.655158,-18.486923,64.54769,-4.9057713,0.13347442,-0.46640036,-2.1396477,-10.68461,13.386152,52.551846,-8.485322,-0.10651307,-10.76263
67,4.933598041534424,-5.270201683044434,76.9959487915039,1.0002040957955274,2.1015186840225133,-100.514071941346,7.528884,-2.5856118,9.986827,7.2515006,-19.471167,-0.39681536,-34.626682,-2.2045426,0.8431418,49.8583,-5.9064856,5.670164,-4.1515245,-1.0551826,10.541885,-2.2954917,13.675962,-17.544662,64.71575,-5.05553,0.31139094,-0.45880687,-1.9547819,-10.683392,13.17897,52.639843,-8.592087,-0.15372829,-10.652004
68,4.926163196563721,-5.559967994689941,76.96981811523438,0.8903693334159548,2.173107798934205,-100.49231350621952,7.7011867,-2.489299,9.977451,7.2583117,-19.657198,-0.4182479,-34.60102,-1.835654,0.62044185,47.41297,-5.5130763,5.8699303,-4.3991375,-1.0236379,10.590383,-2.6380131,13.710991,-16.66232,64.860954,-5.2532177,0.42556772,-0.4744587,-1.774829,-10.696639,12.990825,52.786083,-8.667823,-0.18354596,-10.566082
69,4.919723987579346,-5.866727352142334,76.93970489501953,0.7890183839013396,2.2245118342696726,-100.46153817563336,7.9107666,-2.398124,9.964078,7.264289,-19.859098,-0.43641776,-34.478683,-1.462895,0.48692545,44.800663,-5.0688744,6.0934906,-4.6408944,-0.99997926,10.65627,-2.9889646,13.776413,-15.835393,64.96691,-5.545158,0.45549488,-0.53430486,-1.5941747,-10.730112,12.816648,52.97786,-8.692625,-0.18600692,-10.50673
70,4.888409614562988,-6.189900875091553,76.89942169189453,0.7023216219116417,2.2639058443981166,-100.41660943055379,8.143942,-2.3200874,9.941134,7.271933,-20.072441,-0.45136213,-34.263382,-1.1003429,0.43125582,42.001163,-4.5823503,6.3232913,-4.8706503,-0.9929414,10.736224,-3.3491035,13.872029,-15.042293,65.0259,-5.925621,0.42551202,-0.6206752,-1.3998147,-10.781594,12.63553,53.204117,-8.683263,-0.17255935,-10.4603405
71,4.857200622558594,-6.526248931884766,76.85124206542969,0.6309697325996728,2.2932733848680322,-100.36274072218477,8.400493,-2.2582912,9.909513,7.279037,-20.298931,-0.4665791,-33.978912,-0.7735688,0.4212348,39.098045,-4.0729647,6.515223,-5.0898156,-0.99966025,10.820459,-3.7187753,13.995704,-14.330735,65.04249,-6.3099174,0.36775798,-0.70898974,-1.1951748,-10.847148,12.457789,53.474438,-8.669709,-0.15781656,-10.42487
72,4.821994304656982,-6.873744010925293,76.7923583984375,0.575351833540265,2.314778422304136,-100.30542580542708,8.678848,-2.215422,9.870672,7.2862053,-20.542223,-0.4858993,-33.65384,-0.5032677,0.42245385,36.182102,-3.5631535,6.628892,-5.299383,-1.0173157,10.900398,-4.0949054,14.148545,-13.748455,65.01657,-6.614553,0.31408283,-0.7755502,-0.98119515,-10.923777,12.292731,53.79403,-8.682273,-0.15661742,-10.397138
73,4.77946662902832,-7.234857082366943,76.72294616699219,0.5365235499251971,2.325954195094984,-100.24741525715801,8.981794,-2.1920834,9.82662,7.2936897,-20.806484,-0.51648545,-33.27466,-0.29007554,0.41555113,33.22369,-3.0518544,6.6483784,-5.4951744,-1.0472585,10.978092,-4.4817934,14.333419,-13.32111,64.94671,-6.816542,0.26958594,-0.82061625,-0.75678414,-11.00977,12.140714,54.170494,-8.7368555,-0.18195358,-10.372954
74,4.732217788696289,-7.607880115509033,76.64193725585938,0.5170881144758144,2.324379172306036,-100.18114699780486,9.31109,-2.1899161,9.771846,7.3001657,-21.087786,-0.55398583,-32.82357,-0.12306059,0.41752198,30.177044,-2.5217462,6.6034565,-5.68138,-1.095555,11.0580015,-4.877519,14.551562,-13.020562,64.8329,-6.9615436,0.21824318,-0.85484636,-0.52254623,-11.106018,11.996384,54.600624,-8.815584,-0.22284968,-10.35546
75,4.678601264953613,-7.996571063995361,76.54737091064453,0.5210938945818823,2.3128099595397447,-100.09932415678782,9.662547,-2.2138147,9.698326,7.306143,-21.380524,-0.5853855,-32.33166,-0.003103337,0.4502676,27.128428,-1.9826072,6.524306,-5.868006,-1.1657568,11.135155,-5.269393,14.798511,-12.813288,64.67446,-7.0670676,0.15962094,-0.87023926,-0.27789515,-11.209029,11.857997,55.067467,-8.898688,-0.25829262,-10.351812
76,4.627220153808594,-8.395687103271484,76.44384002685547,0.5523463551767006,2.294515837569166,-99.9957907345593,10.0331135,-2.2686098,9.598739,7.312011,-21.679916,-0.5975968,-31.835032,0.067931175,0.5360597,24.173487,-1.448426,6.439628,-6.0646048,-1.261022,11.203067,-5.6464014,15.067501,-12.664535,64.47427,-7.148968,0.09320457,-0.85752803,-0.023902683,-11.314665,11.7237215,55.557697,-8.968039,-0.26720658,-10.370135
77,4.5678391456604,-8.807662963867188,76.3336181640625,0.6186713787886359,2.266524252797605,-99.86642263339596,10.425499,-2.3637238,9.46718,7.319021,-21.987309,-0.5787133,-31.334284,0.07966039,0.6813506,21.305931,-0.9268849,6.3615284,-6.2787437,-1.3882134,11.260005,-6.009962,15.359597,-12.588852,64.23064,-7.2008796,0.019883903,-0.8094076,0.23601665,-11.423614,11.601179,56.076515,-9.032163,-0.23749538,-10.418952
78,4.503019332885742,-9.240541458129883,76.21040344238281,0.7197817108830851,2.225704411042876,-99.71131524197212,10.843611,-2.4980056,9.303492,7.3237023,-22.302303,-0.5376334,-30.816063,0.03248634,0.87013,18.49383,-0.4131776,6.2777824,-6.50858,-1.5480021,11.310313,-6.364747,15.676026,-12.596625,63.943703,-7.2177157,-0.060577538,-0.7319554,0.503255,-11.53649,11.489064,56.628967,-9.097268,-0.1823567,-10.492262
79,4.43527364730835,-9.679779052734375,76.07611083984375,0.8435749613853116,2.177336193968435,-99.53307474179398,11.280656,-2.6550107,9.111805,7.3288445,-22.62325,-0.4930067,-30.296535,-0.05753581,1.0915215,15.792418,0.09382028,6.177669,-6.746869,-1.7299622,11.3539095,-6.7046065,16.007582,-12.642823,63.620968,-7.2144117,-0.15085295,-0.6348248,0.779527,-11.649908,11.3747015,57.20688,-9.140112,-0.11836682,-10.577685
80,4.366347789764404,-10.135407447814941,75.9331283569336,0.972906956686357,2.129737644807461,-99.33909435834252,11.727416,-2.8131087,8.902008,7.3337,-22.946287,-0.46493134,-29.800804,-0.1691417,1.3364538,13.269461,0.59518725,6.046716,-6.982855,-1.9176316,11.387388,-7.026399,16.341215,-12.68155,63.27588,-7.2049074,-0.25430635,-0.5253076,1.064615,-11.761344,11.245459,57.805622,-9.140085,-0.06188592,-10.664493
81,4.285823345184326,-10.612567901611328,75.78359985351562,1.1021469009540845,2.094413663539497,-99.13254663252104,12.1721735,-2.9648356,8.6760845,7.3384376,-23.271055,-0.4577093,-29.338097,-0.2996943,1.6338243,10.893651,1.1195153,5.8653455,-7.209743,-2.0984957,11.396975,-7.3455224,16.6632,-12.723078,62.92874,-7.1812367,-0.38111246,-0.3929234,1.3563755,-11.870069,11.094976,58.43792,-9.072834,-0.016778218,-10.759686
82,4.2062249183654785,-11.103734016418457,75.62501525878906,1.2302202560791842,2.070182416464278,-98.91900955552298,12.615365,-3.1083608,8.4397745,7.344542,-23.599834,-0.46432948,-28.877071,-0.44560796,1.9774362,8.590846,1.6871471,5.643387,-7.425399,-2.2745147,11.389355,-7.647745,16.99696,-12.783915,62.547974,-7.1456203,-0.52467036,-0.24306744,1.660392,-11.983641,10.93129,59.08971,-8.952633,0.024747401,-10.860551
83,4.1175689697265625,-11.595932960510254,75.46758270263672,1.3427671795698162,2.0493199205401598,-98.71407726332126,13.067624,-3.2270734,8.213024,7.350755,-23.932848,-0.48825952,-28.54963,-0.5729797,2.3101304,6.71374,2.1032643,5.4070063,-7.6214542,-2.4314954,11.371325,-7.931288,17.3187,-12.824582,62.147087,-7.1015697,-0.6704041,-0.080923334,1.9659281,-12.096061,10.763913,59.764275,-8.826503,0.06597636,-10.962723
84,4.029305458068848,-12.096735000610352,75.3062744140625,1.4261508495767383,2.0245405433717267,-98.53284508566627,13.537565,-3.3058834,8.016094,7.3588085,-24.272408,-0.5322772,-28.975065,-0.62137544,2.582729,6.6499534,1.6274331,5.1787944,-7.790288,-2.5574994,11.354543,-8.186715,17.61921,-12.808738,61.72907,-7.062221,-0.80687135,0.0814146,2.2682974,-12.206391,10.604074,60.45112,-8.73634,0.10982878,-11.056055
85,3.9421536922454834,-12.608756065368652,75.14382934570312,1.4801610816028656,1.9915251574807789,-98.38802445139547,14.032375,-3.3502095,7.86041,7.3678117,-24.622498,-0.59934896,-29.31043,-0.6218733,2.7908506,6.6068554,1.1859947,4.9648204,-7.920666,-2.6489875,11.341781,-8.418836,17.885994,-12.722762,61.294662,-7.016707,-0.9282871,0.25509736,2.5618637,-12.315698,10.456808,61.16341,-8.695625,0.16385525,-11.142372
86,3.848508358001709,-13.136384963989258,74.98211669921875,1.5058924098818969,1.9591946522635983,-98.274803849471,14.541423,-3.3613465,7.741074,7.3787155,-24.982126,-0.68789434,-29.573511,-0.5838465,2.9622269,6.580407,0.7928156,4.74971,-8.01742,-2.7077782,11.328977,-8.618468,18.138922,-12.582829,60.826267,-6.967934,-1.0413436,0.43609908,2.8528512,-12.433079,10.320337,61.891132,-8.6756115,0.22398233,-11.2199955
87,3.760204553604126,-13.674073219299316,74.817138671875,1.4958809664863109,1.9385911043079143,-98.17985895106364,15.049119,-3.3230872,7.651604,7.3913684,-25.34353,-0.7921305,-29.753601,-0.5062916,3.07866,6.569793,0.4898364,4.5346465,-8.086154,-2.7206645,11.2967,-8.806692,18.351217,-12.408685,60.375004,-6.921457,-1.1535418,0.61882335,3.1422265,-12.545144,10.179803,62.634544,-8.673944,0.27791953,-11.2973585
88,3.6686296463012695,-14.219558715820312,74.65507507324219,1.4429485156492239,1.9397136490401368,-98.0893679975375,15.543515,-3.221834,7.5852475,7.4023676,-25.697336,-0.90538985,-29.83794,-0.3881009,3.1221516,6.573949,0.31794697,4.3220143,-8.137748,-2.6821501,11.236502,-8.971452,18.531193,-12.212716,59.935993,-6.893957,-1.2621166,0.7832395,3.4382696,-12.650339,10.025663,63.371033,-8.680508,0.3125461,-11.370335
89,3.578091859817505,-14.777790069580078,74.49625396728516,1.346294564760791,1.952575242747907,-98.00535069941519,16.036692,-3.061446,7.5457067,7.4170136,-26.058279,-1.0223631,-29.796722,-0.22815202,3.0773566,6.5966277,0.27478862,4.146518,-8.173745,-2.594706,11.163894,-9.096229,18.691444,-11.978283,59.485474,-6.900439,-1.3662957,0.917241,3.743454,-12.753686,9.878622,64.10527,-8.6916485,0.31265765,-11.458784
90,3.4734320640563965,-15.348058700561523,74.34550476074219,1.2085168520531808,1.9746670542460376,-97.93429246356973,16.535164,-2.8506594,7.537267,7.4324636,-26.425856,-1.1454613,-29.644573,-0.025316454,2.959152,6.6368637,0.34332046,3.9957497,-8.188767,-2.4615254,11.078484,-9.190761,18.827269,-11.703938,59.031982,-6.929016,-1.4663655,1.0328038,4.050734,-12.85318,9.737494,64.84826,-8.713148,0.28928122,-11.557781
91,3.358046054840088,-15.929841995239258,74.19761657714844,1.026548197939112,2.0268909663972337,-97.86732373063386,17.01079,-2.5803165,7.553181,7.4474955,-26.77441,-1.281818,-29.436338,0.22127949,2.7924292,6.689737,0.5399222,3.8008711,-8.196164,-2.2793148,10.962972,-9.247192,18.952509,-11.411698,58.569702,-6.9691424,-1.5622083,1.1314281,4.3633947,-12.954217,9.570311,65.55646,-8.740105,0.26726842,-11.612019
92,3.2348923683166504,-16.521005630493164,74.05708312988281,0.7994264229868867,2.1296845494201397,-97.79396568759961,17.435844,-2.2416213,7.5863643,7.4621177,-27.07966,-1.4413118,-29.226152,0.5093843,2.6016905,6.7505116,0.8807329,3.4928544,-8.178828,-2.0458524,10.770667,-9.334172,19.01724,-11.169135,58.20423,-6.987875,-1.6621373,1.2510207,4.677069,-13.005988,9.323671,66.24365,-8.781794,0.2732479,-11.602908
93,3.104076623916626,-17.129453659057617,73.92070007324219,0.5168925038234486,2.3025995584733105,-97.7123455689455,17.78883,-1.8188895,7.645341,7.478573,-27.366806,-1.6436877,-29.603384,0.875089,2.3884635,8.093829,0.700129,3.0006192,-8.165038,-1.7497064,10.530671,-9.354625,19.11202,-10.920177,57.78042,-7.0125456,-1.7570885,1.3363551,5.01722,-13.076,8.937193,66.81359,-8.846861,0.31178787,-11.411508
94,2.9613425731658936,-17.73847007751465,73.8031005859375,0.19206324136876743,2.5239908170292673,-97.6191511485207,18.098022,-1.332525,7.7248964,7.49333,-27.636627,-1.879989,-30.375048,1.2878278,2.1300132,10.368217,0.17306063,2.3796995,-8.144903,-1.4099457,10.229717,-9.35994,19.192408,-10.692976,57.38515,-7.0450506,-1.8523784,1.4163268,5.3695045,-13.120988,8.462529,67.340256,-8.924652,0.37138253,-11.113836
95,2.807093620300293,-18.360666275024414,73.69287109375,-0.14219069858224578,2.755304334364284,-97.50443092376103,18.403166,-0.82277536,7.799716,7.5072703,-27.834213,-2.1194909,-31.08748,1.6820295,1.8174884,12.541465,-0.16968296,1.7449244,-8.130151,-1.0627098,9.903249,-9.353063,19.249342,-10.491497,57.02338,-7.066644,-1.9413828,1.4981842,5.721647,-13.136307,7.9958563,67.831726,-9.000122,0.44272614,-10.824904
96,2.6343443393707275,-18.993385314941406,73.59959411621094,-0.4623667372486897,2.963092100999131,-97.3657140455201,18.740509,-0.31939027,7.8513446,7.517427,-27.90265,-2.332529,-31.703592,2.0238583,1.4402058,14.455343,-0.25932395,1.2044468,-8.118847,-0.7356788,9.590104,-9.330627,19.294844,-10.333719,56.67976,-7.078068,-2.0152414,1.5807639,6.0781093,-13.1320095,7.6226487,68.271454,-9.057649,0.515079,-10.6471195
97,2.45265531539917,-19.625961303710938,73.53022003173828,-0.7846234896892607,3.166048718682859,-97.18893836786317,19.08563,0.20848718,7.873543,7.522957,-27.839865,-2.5211535,-32.262093,2.2992325,0.9426276,16.083023,0.018185623,0.77249765,-8.101052,-0.42252734,9.293858,-9.307837,19.36249,-10.247017,56.333153,-7.0855455,-2.0609043,1.6466138,6.446892,-13.094625,7.3538074,68.64195,-9.109751,0.5900225,-10.629116
98,2.2581887245178223,-20.281774520874023,73.47886657714844,-1.117071403486677,3.376653640651652,-96.98465898723249,19.425896,0.7701693,7.881629,7.5267024,-27.671494,-2.6995761,-32.80351,2.5271885,0.34853202,17.580725,0.5518604,0.38115725,-8.103525,-0.113961674,8.982242,-9.261052,19.431639,-10.188881,55.9992,-7.0805645,-2.0879734,1.707611,6.800883,-13.024127,7.201162,68.98348,-9.138368,0.6746586,-10.720397
99,2.0594558715820312,-20.96719741821289,73.43633270263672,-1.4304420153928146,3.549914809707658,-96.7936319570963,19.808968,1.3109652,7.8956504,7.549353,-27.392727,-2.8561695,-33.291157,2.7372303,-0.22826694,19.060139,1.078599,0.01971031,-8.09338,0.1578753,8.69013,-9.165065,19.496935,-10.139454,55.671066,-7.0687513,-2.1125665,1.7752692,7.1449823,-12.925746,7.092231,69.287796,-9.154539,0.7586295,-10.840385
100,1.859159231185913,-21.672834396362305,73.39126586914062,-1.7114455595943507,3.6347163320749583,-96.65226626636661,20.259346,1.7966175,7.9344406,7.670102,-27.027763,-2.9800887,-33.69606,2.9720974,-0.6840146,20.643923,1.3366123,-0.31052443,-8.050542,0.37587345,8.454367,-8.990718,19.547924,-10.072428,55.34701,-7.0533247,-2.151787,1.8644545,7.4775667,-12.805737,6.972927,69.555756,-9.158346,0.83215946,-10.912506
101,1.66169011592865,-22.38996696472168,73.35176086425781,-1.9633541452404089,3.6078551497720364,-96.5536198721519,20.8398,2.2306352,8.002617,7.821925,-26.552326,-3.0631802,-33.993084,3.2591062,-0.97899485,22.376451,1.2508302,-0.6169236,-7.9850335,0.5421088,8.290171,-8.729077,19.577375,-9.987641,55.02655,-7.0437913,-2.2138896,2.0000074,7.8100452,-12.669391,6.823596,69.77383,-9.141605,0.8958308,-10.91066
102,1.4672266244888306,-23.115554809570312,73.31917572021484,-2.2087540935161374,3.50585534445712,-96.47267659258314,20.895317,2.7427728,8.05406,9.3061075,-26.656727,-3.1145942,-34.205193,3.5798938,-1.1878399,24.180042,0.9699367,-0.8943182,-7.9107223,0.68780404,8.172737,-8.403204,19.584044,-9.900658,54.71601,-7.036028,-2.2890086,2.1684804,8.1428795,-12.519968,6.6692004,69.941864,-9.106609,0.95342433,-10.876228
103,1.2724189758300781,-23.832693099975586,73.2892837524414,-2.449623053671394,3.390858983236103,-96.40213153750945,20.620573,3.2964547,8.059015,11.526046,-26.988543,-3.150164,-34.328392,3.8965201,-1.380518,25.877312,0.60567147,-1.118405,-7.831236,0.82758343,8.051131,-8.026811,19.567781,-9.801735,54.41981,-7.0069594,-2.36563,2.3263178,8.458191,-12.356936,6.520186,70.0816,-9.073326,1.0004734,-10.834523
104,1.0774836540222168,-24.55478286743164,73.26854705810547,-2.6818581766328022,3.3236922669339193,-96.34174708643178,20.229294,3.837997,8.004195,13.850157,-27.176805,-3.1887045,-34.367287,4.173612,-1.6204964,27.308435,0.26292387,-1.2633286,-7.744097,0.96860445,7.8750334,-7.6153803,19.53084,-9.684212,54.144173,-6.937808,-2.4321313,2.43037,8.737954,-12.178124,6.385654,70.2146,-9.064167,1.0326998,-10.811887
105,0.8855878114700317,-25.288068771362305,73.25143432617188,-2.8930294951839204,3.3264883245636234,-96.30881738808033,19.741066,4.330047,7.8901744,16.198887,-27.212738,-3.2444668,-34.339035,4.4023643,-1.923309,28.43684,-0.01791779,-1.2611321,-7.639059,1.0968082,7.6201873,-7.1584797,19.473906,-9.533241,53.88003,-6.8025928,-2.4885316,2.4609299,8.977963,-11.978141,6.261761,70.34539,-9.08266,1.0458922,-10.8177805
106,0.6846569776535034,-26.02558708190918,73.25013732910156,-3.0835577499871207,3.3634525883821262,-96.30739100275368,19.187428,4.7771378,7.736753,18.598562,-27.113453,-3.3059912,-34.245754,4.6091566,-2.2452712,29.365383,-0.30437213,-1.1403061,-7.511761,1.2052528,7.3177857,-6.6527185,19.397696,-9.355971,53.62614,-6.619404,-2.5401428,2.4440913,9.18524,-11.757021,6.144979,70.463844,-9.118037,1.0434502,-10.838905
107,0.480377197265625,-26.759506225585938,73.26448822021484,-3.267650500683117,3.4075370008853243,-96.31711245832268,18.556068,5.2152567,7.550765,21.101515,-26.84125,-3.3600183,-34.071228,4.8129473,-2.5609562,30.144943,-0.65356255,-1.018031,-7.3683887,1.3101248,7.0011067,-6.1187983,19.303255,-9.174808,53.39542,-6.4301114,-2.58329,2.4036717,9.359831,-11.519817,6.0471263,70.56922,-9.169083,1.0319104,-10.865356
108,0.2874133288860321,-27.49567413330078,73.29127502441406,-3.4630047956863708,3.4330982093564253,-96.31406255162585,17.834396,5.683235,7.3359447,23.758041,-26.354063,-3.3979974,-33.796658,5.0348115,-2.8493125,30.816418,-1.1191843,-1.0112222,-7.2186465,1.432654,6.7025843,-5.5757403,19.190592,-9.011819,53.200325,-6.2755847,-2.6141856,2.3629706,9.502052,-11.273875,5.9818435,70.66025,-9.232976,1.0176806,-10.886065
109,0.10371477901935577,-28.24087142944336,73.3350601196289,-3.671314097737815,3.4330149554687903,-96.30585493608034,17.058851,6.1698365,7.105716,26.552893,-25.646217,-3.4161978,-33.422817,5.2953835,-3.092866,31.407452,-1.7618262,-1.1820234,-7.0575976,1.5783693,6.4207335,-5.0130076,19.056694,-8.871941,53.03843,-6.1682525,-2.628052,2.3184736,9.615506,-11.021923,5.952321,70.748825,-9.322522,0.9997706,-10.904835
110,-0.08580707013607025,-28.99775505065918,73.39740753173828,-3.8804304747302747,3.4200202951993597,-96.30165901280871,16.236961,6.643187,6.8599925,29.441221,-24.725328,-3.438432,-32.958603,5.585248,-3.302395,31.889242,-2.535644,-1.4564153,-6.8817544,1.7340329,6.1417723,-4.425319,18.900005,-8.744248,52.905445,-6.0855513,-2.628497,2.2608263,9.699729,-10.762746,5.9527287,70.83084,-9.432683,0.9754643,-10.924154
111,-0.26807519793510437,-29.749610900878906,73.48226928710938,-4.088988278553061,3.3997363702049666,-96.2785340148008,15.304318,7.1160975,6.573607,32.445614,-23.571512,-3.494952,-32.397633,5.879244,-3.502001,32.217125,-3.3357606,-1.74828,-6.7053175,1.8958659,5.878452,-3.8384542,18.723885,-8.627894,52.809475,-6.0163946,-2.6235256,2.2038922,9.751597,-10.499046,5.9781184,70.878494,-9.540433,0.9487184,-10.930837
112,-0.44708508253097534,-30.50055503845215,73.58657836914062,-4.296315896967948,3.3777217123453993,-96.21391030136218,14.195001,7.6057696,6.214467,35.59286,-22.168324,-3.6054254,-31.731285,6.1490555,-3.7165186,32.346825,-4.0592284,-1.9707534,-6.5421114,2.0598507,5.6444235,-3.2794204,18.534882,-8.523804,52.759552,-5.9534564,-2.6211162,2.16122,9.766913,-10.236166,6.024422,70.864395,-9.621356,0.92328316,-10.911007
113,-0.6255779266357422,-31.252315521240234,73.70770263671875,-4.494821730046639,3.3486777729144865,-96.1085986824783,12.903108,8.1141,5.775733,38.93379,-20.500444,-3.7642848,-30.928423,6.37969,-3.9463277,32.24765,-4.701708,-2.0965133,-6.3969083,2.2170627,5.433487,-2.7348757,18.335505,-8.438522,52.760674,-5.90343,-2.6239054,2.1383207,9.750746,-9.972787,6.1101246,70.79188,-9.669258,0.8934707,-10.855749
114,-0.7960344552993774,-31.998624801635742,73.84220886230469,-4.684176441452053,3.3117045530684908,-95.97357780955265,11.457523,8.619186,5.262921,42.44289,-18.581846,-3.9670317,-30.003206,6.5870714,-4.1778784,31.952436,-5.3128853,-2.1755853,-6.261608,2.3679898,5.24181,-2.1963682,18.125647,-8.3708725,52.806656,-5.8694987,-2.6272154,2.126294,9.703235,-9.707734,6.232098,70.67232,-9.696469,0.85942614,-10.773579
115,-0.9722506403923035,-32.72543716430664,73.98844146728516,-4.875876887682907,3.2791247098210126,-95.80183813701827,9.834123,9.108286,4.6535344,46.05497,-16.446352,-4.221574,-29.013092,6.785963,-4.415514,31.509737,-5.870814,-2.233948,-6.131687,2.5252352,5.087187,-1.691916,17.905075,-8.304645,52.883083,-5.8346963,-2.6278136,2.1159945,9.613102,-9.444628,6.3550644,70.48882,-9.70577,0.83346134,-10.674331
116,-1.1311883926391602,-33.4420280456543,74.14549255371094,-5.082584114248161,3.263388751490901,-95.58632738770923,8.006639,9.570794,3.923732,49.710625,-14.126401,-4.5295496,-28.014637,6.9910374,-4.6633406,30.967154,-6.3529243,-2.2953985,-6.003065,2.7037823,4.9879065,-1.2502745,17.672995,-8.223423,52.976074,-5.783042,-2.622576,2.0984163,9.469329,-9.189452,6.4431243,70.22305,-9.700215,0.8278472,-10.5672655
117,-1.2836207151412964,-34.13215637207031,74.30652618408203,-5.314064386433788,3.287636309746055,-95.32939343145374,5.8593836,9.976143,2.9741154,53.55887,-11.60856,-4.838532,-27.024927,7.2130847,-4.909165,30.294031,-6.7334595,-2.3539197,-5.881275,2.9195535,4.9359093,-0.8762325,17.425203,-8.108299,53.081913,-5.701703,-2.602741,2.0676026,9.256037,-8.940901,6.4798517,69.868866,-9.673952,0.8516621,-10.44448
118,-1.4207568168640137,-34.80735397338867,74.46495056152344,-5.557120321062202,3.3389523355447523,-95.03407647990454,3.4394789,10.307845,1.8405969,57.582787,-8.878522,-5.1618657,-26.010656,7.437556,-5.151339,29.47805,-7.0311003,-2.399109,-5.7660193,3.1581132,4.925314,-0.5573239,17.161001,-7.9731827,53.21027,-5.6015654,-2.5729647,2.0303423,8.983436,-8.699088,6.485289,69.43615,-9.628816,0.89657754,-10.304517
119,-1.5623818635940552,-35.46164321899414,74.61846923828125,-5.795686812082902,3.3762705556244583,-94.6939265530841,0.9522017,10.604645,0.6961051,61.493366,-5.9753346,-5.5779967,-24.955606,7.6456075,-5.4133773,28.596529,-7.2892165,-2.4461336,-5.6462893,3.3949327,4.9785457,-0.29136193,16.884436,-7.8467155,53.36134,-5.500293,-2.549895,1.9953392,8.67895,-8.471866,6.483337,68.93007,-9.574334,0.9486513,-10.164151
120,-1.7027311325073242,-36.09652328491211,74.76179504394531,-6.017852468030128,3.3586753088074426,-94.30144007652716,-1.4132464,10.940963,-0.29331806,65.02448,-2.9387553,-6.142268,-23.841557,7.82392,-5.721628,27.72263,-7.5500746,-2.5089583,-5.5117826,3.6100864,5.118413,-0.07471299,16.601746,-7.7575397,53.53374,-5.4174905,-2.5498888,1.9709227,8.371153,-8.271533,6.497114,68.35438,-9.520607,0.99358374,-10.03879
121,-1.8278148174285889,-36.711219787597656,74.89407348632812,-6.250321029431005,3.2900282511803063,-93.83587078740602,-3.681513,11.462422,-1.0707334,68.1562,0.71902716,-6.9794803,-22.673588,7.9875193,-6.1136494,26.858484,-7.8094177,-2.591021,-5.372785,3.8306756,5.3534627,0.08681839,16.311493,-7.6979957,53.728336,-5.354533,-2.5872931,1.9555309,8.070931,-8.0981045,6.5078797,67.67264,-9.476462,1.0418029,-9.915004
122,-1.9420825242996216,-37.33454132080078,75.0321044921875,-6.497567617054701,3.1882077818285723,-93.30883259409079,-5.9647655,12.121327,-1.7494454,71.05187,4.866378,-7.961083,-21.452871,8.149586,-6.567424,25.95875,-8.042941,-2.6810486,-5.2296658,4.065585,5.67106,0.19535573,16.011742,-7.656897,53.944233,-5.302562,-2.6498249,1.9457049,7.763833,-7.94938,6.5122027,66.892235,-9.434097,1.0969924,-9.788561
123,-2.055103063583374,-37.95193862915039,75.16767883300781,-6.720456825310912,3.0316855471772572,-92.76108884552231,-8.189586,12.738493,-2.3947961,73.714096,8.504258,-8.786814,-20.155361,8.294654,-7.02107,25.022846,-8.258247,-2.768626,-5.058725,4.27353,6.063609,0.2703613,15.710113,-7.655705,54.17414,-5.2679687,-2.7142358,1.9450758,7.43796,-7.8360133,6.5594373,66.08695,-9.376459,1.1305218,-9.686902
124,-2.1567041873931885,-38.58095932006836,75.31214904785156,-6.869735051220105,2.7990602534668647,-92.22405771483827,-10.240607,13.132708,-3.0363677,76.10362,10.629006,-9.193917,-18.744827,8.393108,-7.4154677,24.040108,-8.465851,-2.8455667,-4.847601,4.4043803,6.5228887,0.33685887,15.417044,-7.7124596,54.40497,-5.258649,-2.7564874,1.9546307,7.0849047,-7.772252,6.703453,65.322105,-9.283852,1.1177495,-9.633317
125,-2.2624897956848145,-39.19160079956055,75.45993041992188,-6.933794278099231,2.453605531265649,-91.67952894890749,-12.032424,13.25408,-3.6812499,78.22326,10.640515,-9.115921,-17.181524,8.426939,-7.7600746,23.019674,-8.686858,-2.9142785,-4.5995727,4.442869,7.0887623,0.3867012,15.137553,-7.8381863,54.63412,-5.2925577,-2.7670813,1.9811994,6.7126474,-7.7627325,6.935944,64.57854,-9.139427,1.0439675,-9.59021
126,-2.357329845428467,-39.79167938232422,75.6059799194336,-6.938683574674747,2.015353619905016,-91.11681578428808,-13.62403,13.20077,-4.297154,80.08824,9.175502,-8.734607,-15.494748,8.408832,-8.080792,21.967602,-8.913115,-2.9728343,-4.321843,4.4176197,7.7524276,0.41721958,14.868863,-8.019294,54.862976,-5.36268,-2.7593446,2.0193872,6.323833,-7.8022623,7.2398176,63.82976,-8.954551,0.92505044,-9.555254
127,-2.4223618507385254,-40.43381881713867,75.76715850830078,-6.890581647486513,1.5474417732624348,-90.58370403140597,-15.114112,13.009977,-4.842484,81.68831,7.079709,-8.178811,-13.770054,8.351923,-8.344264,20.89366,-9.122652,-3.0105767,-4.005782,4.344291,8.433205,0.46171072,14.61002,-8.234655,55.085102,-5.439111,-2.7442734,2.0517585,5.8980274,-7.8925796,7.657364,63.13629,-8.753124,0.7794129,-9.606772
128,-2.4891505241394043,-41.04176330566406,75.91645812988281,-6.796637360719881,1.1130183049471243,-90.12832153390303,-16.602448,12.737248,-5.266387,83.008316,5.2040095,-7.5554457,-12.095527,8.272745,-8.519318,19.814505,-9.292978,-3.0226405,-3.6474054,4.2419667,9.051673,0.5574108,14.359917,-8.458299,55.29,-5.49162,-2.7325416,2.0593138,5.4131403,-8.03717,8.23693,62.557945,-8.556314,0.6252137,-9.821439
129,-2.5722849369049072,-41.651710510253906,76.06522369384766,-6.643990698196434,0.7157941891640784,-89.75731230046155,-18.114433,12.328439,-5.5879765,84.041534,3.5742183,-6.7764196,-10.470932,8.163063,-8.59812,18.722956,-9.416146,-3.017535,-3.2437017,4.102998,9.5991,0.70844215,14.119744,-8.701598,55.477943,-5.519105,-2.725403,2.0338671,4.8556714,-8.243056,9.0673485,62.126522,-8.318612,0.44169587,-10.317519
130,-2.629633665084839,-42.266029357910156,76.21497344970703,-6.436778331556275,0.32500407461181363,-89.44802039138571,-19.595528,11.76823,-5.829369,84.795746,1.8087416,-5.838169,-8.862185,8.016807,-8.602618,17.626535,-9.511204,-3.0009904,-2.8040748,3.9285922,10.116965,0.9024052,13.888182,-8.9644985,55.648876,-5.5346575,-2.7176163,1.9846753,4.23536,-8.506991,10.108742,61.802616,-8.042968,0.22640312,-11.018241
131,-2.67496395111084,-42.9097785949707,76.36947631835938,-6.201932335477289,-0.0470804512718844,-89.20429743143978,-21.026222,11.206042,-5.926835,85.26697,0.1503444,-4.9449525,-7.2977715,7.85655,-8.543731,16.545353,-9.586538,-2.9683702,-2.3386424,3.749702,10.6004925,1.1457077,13.6588335,-9.211283,55.79542,-5.529862,-2.7101696,1.9205686,3.564915,-8.811897,11.209228,61.55196,-7.8253107,0.019787114,-11.71162
132,-2.712287664413452,-43.53522491455078,76.50794982910156,-5.969923781798907,-0.38714274290140366,-89.0298872313558,-22.386532,10.807824,-5.8082614,85.44683,-1.1629252,-4.290524,-5.8072495,7.7033873,-8.429963,15.500706,-9.65113,-2.9147718,-1.8527615,3.5912993,11.041455,1.4391623,13.42585,-9.410679,55.916866,-5.494567,-2.7045228,1.8533028,2.8605268,-9.139613,12.2105255,61.34295,-7.7648983,-0.13225843,-12.190643
133,-2.7580060958862305,-44.15110778808594,76.62727355957031,-5.732575674650917,-0.6860924264920277,-88.9373577682059,-23.675873,10.690311,-5.365989,85.3141,-2.0297728,-3.9333293,-4.407299,7.5550795,-8.2423115,14.5025215,-9.70257,-2.8376298,-1.3320631,3.4466884,11.4243965,1.7805021,13.188675,-9.57359,56.0209,-5.4295635,-2.703824,1.7869642,2.1131623,-9.486756,13.095733,61.2033,-7.9257846,-0.21273242,-12.393139
134,-2.762072801589966,-44.762413024902344,76.7385482788086,-5.477386504307774,-0.9523745421071642,-88.92164250191537,-24.89599,10.760029,-4.6571965,84.87454,-2.5926754,-3.7612526,-3.0809083,7.400289,-7.9821606,13.546528,-9.742668,-2.7469718,-0.7729766,3.3032644,11.755642,2.16366,12.949597,-9.717444,56.11318,-5.3382626,-2.7065992,1.7177317,1.3206995,-9.85542,13.938245,61.144012,-8.245499,-0.24567653,-12.435241
135,-2.7815356254577637,-45.39381790161133,76.84292602539062,-5.221912498604791,-1.1980966474142254,-88.95931016937534,-26.033163,10.868161,-3.8535252,84.16266,-2.9792502,-3.7073019,-1.8021506,7.2444224,-7.6858687,12.621695,-9.781351,-2.6520545,-0.19744043,3.1723053,12.057697,2.5830464,12.708882,-9.822176,56.191628,-5.216239,-2.7078643,1.6460829,0.50855386,-10.238482,14.715528,61.11159,-8.632795,-0.24604848,-12.379388
136,-2.8187339305877686,-46.04377746582031,76.93354797363281,-4.97983161100259,-1.4350343216999963,-89.02604752706654,-27.086565,10.865128,-3.1349251,83.21753,-3.3141353,-3.7022612,-0.54128504,7.096022,-7.3906484,11.704667,-9.824449,-2.5607088,0.37484226,3.0653129,12.351987,3.0303085,12.466391,-9.870513,56.256523,-5.05853,-2.7024593,1.5736735,-0.29811502,-10.624103,15.3977165,61.05318,-9.000303,-0.22856663,-12.289565
137,-2.8426408767700195,-46.68339538574219,77.0077133178711,-4.750066795670584,-1.6619629446814264,-89.12416828835339,-28.073381,10.711258,-2.5428064,82.04396,-3.597212,-3.7233994,0.6988877,6.956656,-7.0943446,10.790582,-9.86498,-2.4700704,0.94691515,2.9786718,12.636152,3.5073266,12.222651,-9.860405,56.306202,-4.832492,-2.6876433,1.4995569,-1.1044906,-11.007024,15.9688225,60.97357,-9.363163,-0.18311653,-12.15686
138,-2.8454151153564453,-47.31320571899414,77.06683349609375,-4.526194571764034,-1.8732282776469293,-89.2631742746057,-28.991938,10.494721,-1.9891497,80.621666,-3.773853,-3.8028417,1.9072207,6.8228264,-6.7808805,9.89005,-9.903324,-2.3788009,1.5264566,2.905334,12.899192,4.017134,11.9789,-9.801121,56.342506,-4.5513635,-2.666561,1.4239805,-1.9239888,-11.389172,16.446714,60.902054,-9.758996,-0.10787482,-11.9573145
139,-2.857334613800049,-47.94229507446289,77.10503387451172,-4.317429721523699,-2.074913669677579,-89.42909689683412,-29.817858,10.259508,-1.4660022,78.951706,-3.8871188,-3.951378,3.0917299,6.695301,-6.468167,9.02017,-9.957484,-2.2946427,2.1008809,2.8521073,13.149625,4.55209,11.73672,-9.693594,56.37057,-4.2785854,-2.6433208,1.3501049,-2.7484913,-11.770065,16.854374,60.824722,-10.127364,-0.028399896,-11.733409
140,-2.861116409301758,-48.58080291748047,77.13114166259766,-4.132154827487873,-2.2732089772858175,-89.60797792895956,-30.525507,10.045539,-0.962928,77.033714,-3.979786,-4.181175,4.25673,6.5742145,-6.174502,8.205966,-10.049492,-2.2244785,2.657573,2.824578,13.39615,5.104883,11.498034,-9.5380945,56.39567,-4.0772996,-2.6218235,1.2811884,-3.570792,-12.147997,17.21393,60.727238,-10.40786,0.030933462,-11.528733
141,-2.8731534481048584,-49.217796325683594,77.14376831054688,-3.969993955932909,-2.469743083022376,-89.80538427266498,-31.106602,9.831956,-0.50464326,74.84904,-4.0644875,-4.527928,5.404948,6.454145,-5.908904,7.4507723,-10.185363,-2.1733623,3.2000327,2.8208895,13.641031,5.680143,11.262493,-9.318513,56.40885,-3.9558558,-2.599055,1.2125118,-4.3941994,-12.522644,17.516447,60.608055,-10.591724,0.06887919,-11.340239
142,-2.8830642700195312,-49.86856460571289,77.13998413085938,-3.824750253527225,-2.661207325148997,-90.02556917834501,-31.573633,9.614773,-0.09072899,72.400215,-4.1192913,-4.965127,6.4051957,6.3236346,-5.6736345,7.015828,-10.49961,-2.1354837,3.731894,2.837049,13.878738,6.2817197,11.029046,-9.039545,56.40944,-3.8826175,-2.5739827,1.1436396,-5.223928,-12.894573,17.755096,60.476246,-10.7085905,0.09747662,-11.1504755
143,-2.867417335510254,-50.534122467041016,77.116455078125,-3.6765908601295227,-2.8471668248407163,-90.2566238379558,-31.934168,9.4349,0.3517502,69.733574,-4.1410446,-5.415884,7.217938,6.1669292,-5.4534354,6.9788704,-11.023944,-2.1003852,4.2452836,2.85031,14.108703,6.898448,10.800324,-8.734601,56.416534,-3.8642735,-2.5536056,1.0842981,-6.054685,-13.262684,17.953484,60.33267,-10.756173,0.11299476,-10.981576
144,-2.86185359954834,-51.19697570800781,77.0735855102539,-3.546694938135062,-3.025146979822878,-90.48006708241293,-32.18556,9.353443,0.86558557,66.86044,-4.108044,-5.8136516,8.008085,6.0324216,-5.220777,6.9760957,-11.561227,-2.059082,4.725779,2.8790717,14.32575,7.5210495,10.581089,-8.436193,56.446957,-3.9065995,-2.5443146,1.0440819,-6.880442,-13.625027,18.134045,60.177086,-10.733725,0.112080865,-10.855744
145,-2.8692615032196045,-51.86433792114258,77.01454162597656,-3.4397429868186276,-3.1932220984475537,-90.69464154155703,-32.319016,9.398739,1.4765478,63.752724,-4.013271,-6.168326,8.770263,5.9306407,-4.967871,7.000128,-12.10026,-2.0030546,5.1712933,2.9260519,14.53248,8.14918,10.377136,-8.140251,56.490192,-4.018403,-2.5468206,1.0252662,-7.7084804,-13.980382,18.287035,60.00352,-10.606942,0.09348459,-10.774816
146,-2.8644328117370605,-52.54757308959961,76.94517517089844,-3.3563166291286914,-3.352339875021031,-90.90726452373774,-32.328037,9.5274,2.1553566,60.39714,-3.8601406,-6.515286,9.521681,5.855198,-4.702279,7.022147,-12.631323,-1.9364567,5.588409,2.9886527,14.728445,8.789224,10.189189,-7.8347063,56.539944,-4.195139,-2.5575747,1.0216777,-8.539731,-14.328936,18.402922,59.814526,-10.388565,0.059442285,-10.728467
147,-2.860109806060791,-53.23667526245117,76.8569107055664,-3.2970008323624316,-3.5040827737160893,-91.11346200539114,-32.2186,9.686402,2.8675861,56.83442,-3.6481533,-6.8279533,10.273708,5.8006406,-4.4377913,7.044234,-13.167065,-1.8666737,5.9774685,3.0716312,14.904275,9.438539,10.012917,-7.5405216,56.622097,-4.424949,-2.5773284,1.0306971,-9.357772,-14.669579,18.505804,59.621277,-10.14454,0.011568244,-10.720384
148,-2.842268466949463,-53.93903732299805,76.75582122802734,-3.2630631092668625,-3.6502861154476727,-91.30873575050397,-31.999289,9.832434,3.5734806,53.103104,-3.3799677,-7.0733085,11.038298,5.763359,-4.1883035,7.065507,-13.718559,-1.8012887,6.3376822,3.1825268,15.049935,10.093426,9.841625,-7.2774057,56.763767,-4.6946516,-2.6070669,1.0507718,-10.145446,-15.000527,18.618856,59.435566,-9.943265,-0.048882775,-10.754482
149,-2.8280413150787354,-54.65593338012695,76.63733673095703,-3.2496499081492365,-3.7917436443419725,-91.49161887175498,-31.656778,9.97827,4.2915664,49.159885,-3.0272486,-7.194033,11.818205,5.7331924,-3.956006,7.0875106,-14.293414,-1.7376539,6.665289,3.315916,15.162374,10.758803,9.672177,-7.0482583,56.965446,-5.0337296,-2.6579757,1.0970049,-10.907494,-15.324591,18.75404,59.269516,-9.807641,-0.12862526,-10.852461
150,-2.806546211242676,-55.38792037963867,76.501220703125,-3.2572253124200925,-3.9275054875308837,-91.66538178143674,-31.186495,10.138878,5.034128,44.990765,-2.5966816,-7.2223406,12.60716,5.7146287,-3.7330585,7.108191,-14.882312,-1.669774,6.9611344,3.4728181,15.246298,11.4334135,9.50501,-6.8416224,57.2167,-5.4365273,-2.7266438,1.1660808,-11.650108,-15.642936,18.896801,59.114254,-9.700701,-0.2262301,-11.005608
151,-2.758178234100342,-56.13161849975586,76.35696411132812,-3.294588703552796,-4.057731396676973,-91.83561162881756,-30.61134,10.28362,5.7545276,40.67041,-2.1319144,-7.248092,13.401265,5.7192187,-3.5144985,7.1276484,-15.473943,-1.6014714,7.23506,3.6608377,15.303653,12.105056,9.33966,-6.6544013,57.527912,-5.837669,-2.7912908,1.2286042,-12.366188,-15.952587,19.037083,58.957535,-9.59623,-0.32789555,-11.173374
152,-2.712458848953247,-56.88886642456055,76.1930923461914,-3.3687129475304216,-4.183360778987621,-92.00977150349284,-29.951942,10.392261,6.4028664,36.263412,-1.6715591,-7.3548594,14.198972,5.758898,-3.2934763,7.1447935,-16.056267,-1.539034,7.4972925,3.887662,15.336992,12.761268,9.175881,-6.4833245,57.910194,-6.1731935,-2.8298573,1.2561581,-13.049686,-16.248371,19.163944,58.789913,-9.470611,-0.41994703,-11.315764
153,-2.6594111919403076,-57.65129470825195,76.01209259033203,-3.4999315161975484,-4.322299466307106,-92.19485199862548,-29.1535,10.490865,6.992036,31.6424,-1.1806756,-7.571692,15.02229,5.8585224,-3.058783,7.1603274,-16.633026,-1.4941242,7.7548137,4.1744204,15.35048,13.415057,9.013681,-6.3227415,58.365738,-6.431714,-2.837517,1.2354547,-13.699538,-16.527464,19.276445,58.621674,-9.303017,-0.5003167,-11.434157
154,-2.6039233207702637,-58.42447280883789,75.81353759765625,-3.6833956369573984,-4.47443946401561,-92.39512556595038,-28.196627,10.612219,7.5407066,26.767143,-0.6285217,-7.832897,15.872413,6.011234,-2.8046489,7.1727724,-17.20691,-1.4623398,8.008867,4.517866,15.344326,14.071044,8.853491,-6.1730766,58.88566,-6.6454873,-2.8251579,1.1843662,-14.324491,-16.79099,19.383041,58.46047,-9.110388,-0.5758372,-11.546309
155,-2.549802303314209,-59.21443176269531,75.59881591796875,-3.8998556471730565,-4.616655089763787,-92.61721539415721,-27.154495,10.752188,8.012318,21.83277,-0.058327544,-8.080437,16.715277,6.1879506,-2.5288563,7.1819487,-17.764963,-1.428856,8.265926,4.89382,15.3169,14.705196,8.694874,-6.0404058,59.462273,-6.8145437,-2.7931364,1.1211101,-14.92678,-17.038023,19.478645,58.286667,-8.930396,-0.6458448,-11.636588
156,-2.499568462371826,-60.01097106933594,75.3725357055664,-4.130241313081917,-4.727038447048096,-92.86984756664619,-26.108356,10.90286,8.370998,17.050169,0.47775874,-8.268368,17.51631,6.365112,-2.2286632,7.1891613,-18.29526,-1.3802258,8.534186,5.2805724,15.267054,15.29234,8.537222,-5.931683,60.093697,-6.938738,-2.745144,1.0637294,-15.511379,-17.268282,19.559637,58.083515,-8.798096,-0.7094258,-11.689723
157,-2.4382197856903076,-60.808815002441406,75.13671112060547,-4.406547687903016,-4.803686469091106,-93.1740392157758,-25.034742,11.075193,8.568516,12.279748,0.98308337,-8.449114,18.272715,6.577595,-1.8781717,7.190507,-18.803913,-1.3141996,8.830917,5.7099857,15.1849575,15.842111,8.378484,-5.8432875,60.779522,-6.990986,-2.678919,1.0136766,-16.084208,-17.484186,19.61619,57.851856,-8.744679,-0.7666966,-11.682066
158,-2.3509609699249268,-61.609130859375,74.89970397949219,-4.74640207883043,-4.872230391925241,-93.54199577438519,-23.763948,11.3079605,8.674483,7.203757,1.6190622,-8.622969,19.014383,6.8486724,-1.4586036,7.1885567,-19.293875,-1.2444221,9.168503,6.2074094,15.080509,16.368042,8.217393,-5.77506,61.518925,-6.9804826,-2.594645,0.96245235,-16.640274,-17.68783,19.651674,57.599243,-8.744249,-0.8176138,-11.627374
159,-2.2745280265808105,-62.389278411865234,74.66573333740234,-5.077616940939135,-4.9236245828263945,-93.92230673204232,-24.466146,11.851477,8.360425,6.5331564,0.06653002,-8.6801,19.731245,7.093314,-1.0332222,7.1868577,-19.746733,-1.1704197,9.504415,6.6935554,14.969679,16.845081,8.058461,-5.7370896,62.304935,-6.9607234,-2.4923096,0.9143679,-17.169819,-17.877583,19.68135,57.318268,-8.746724,-0.86175275,-11.568675
160,-2.1924524307250977,-63.15385055541992,74.45600891113281,-5.316094013883675,-4.935052397201142,-94.24511667424417,-25.260393,12.295291,8.088453,6.4171896,-1.4633003,-8.54398,20.401825,7.216614,-0.69099164,7.189279,-20.148312,-1.0901356,9.777368,7.066812,14.863141,17.242968,7.9098854,-5.738137,63.133015,-6.9857225,-2.371573,0.8730636,-17.661198,-18.048296,19.715734,56.99921,-8.704496,-0.8988508,-11.550315
161,-2.1044580936431885,-63.911556243896484,74.27888488769531,-5.419379275904588,-4.865368655378566,-94.4772139714856,-25.956816,12.522032,7.971198,6.371561,-2.7040224,-8.131597,20.98215,7.174811,-0.488018,7.19578,-20.512123,-1.0003518,9.950877,7.269119,14.75325,17.535177,7.782987,-5.7867913,64.01936,-7.0928583,-2.232178,0.84743875,-18.13401,-18.191975,19.761356,56.637093,-8.6061325,-0.9354265,-11.5845375
162,-2.014543056488037,-64.68582153320312,74.12751007080078,-5.409964738726824,-4.717095259989724,-94.62821272755336,-26.601336,12.529918,7.9387984,6.4228725,-3.7602077,-7.5334086,21.480639,6.9938116,-0.41018158,7.20767,-20.849491,-0.89495087,10.034122,7.3251863,14.634111,17.729795,7.6733246,-5.874347,64.97065,-7.2459826,-2.0766273,0.8329422,-18.58355,-18.3142,19.805763,56.2304,-8.475383,-0.9699632,-11.649937
163,-1.9301576614379883,-65.46668243408203,73.99073028564453,-5.352833939995339,-4.558209509993687,-94.74013113727896,-27.051353,12.403042,7.919434,6.4629726,-4.554168,-6.950761,21.973215,6.758958,-0.38026008,7.21729,-21.120287,-0.78488946,10.081427,7.318146,14.518429,17.880806,7.582856,-5.985046,65.93822,-7.3935366,-1.8994179,0.8097001,-18.96793,-18.408098,19.825926,55.795315,-8.329997,-0.9900575,-11.739749
164,-1.8503600358963013,-66.2650146484375,73.86380767822266,-5.286615571266018,-4.433192438030219,-94.82257742114406,-27.238306,12.187203,7.8197064,6.4900317,-5.0531397,-6.558349,22.51798,6.514603,-0.36227775,7.2240524,-21.30027,-0.66446084,10.115217,7.2854595,14.409581,18.029442,7.5250173,-6.093665,66.88455,-7.4834876,-1.6994474,0.75271344,-19.251637,-18.454828,19.801636,55.350533,-8.184718,-0.9842224,-11.851143
165,-1.769140601158142,-67.06878662109375,73.74207305908203,-5.229696381210839,-4.392576015103858,-94.87138340941239,-27.031021,11.904956,7.6159267,6.5016136,-5.2276125,-6.464354,23.177212,6.282908,-0.34844375,7.227986,-21.398237,-0.5365277,10.135041,7.2729917,14.342437,18.17474,7.4744406,-6.22061,67.83991,-7.516582,-1.4812928,0.6621342,-19.415028,-18.479248,19.735472,54.877377,-8.026568,-0.92713803,-11.995297
166,-1.6835564374923706,-67.87397003173828,73.63519287109375,-5.156884931418413,-4.397731773748515,-94.87920669168288,-26.50129,11.547505,7.347404,6.498694,-5.095278,-6.5403676,23.902884,6.033954,-0.36500588,7.2288737,-21.422552,-0.3995026,10.116953,7.2362437,14.3067,18.308535,7.445922,-6.3483906,68.7989,-7.5104856,-1.2428863,0.53857535,-19.484257,-18.47562,19.648012,54.36977,-7.8470654,-0.83264065,-12.16987
167,-1.595090389251709,-68.69712829589844,73.53953552246094,-5.039000317126849,-4.360604164151995,-94.85219715433439,-25.887068,11.107561,7.017246,6.485546,-4.6903186,-6.6025076,24.585356,5.733222,-0.42630193,7.2275147,-21.347794,-0.24106978,10.09084,7.1533117,14.224291,18.398043,7.4131217,-6.5018206,69.74568,-7.4538703,-0.9830869,0.41644713,-19.463715,-18.446482,19.49456,53.863598,-7.6911855,-0.74523264,-12.3467245
168,-1.5072815418243408,-69.53985595703125,73.46438598632812,-4.858545935517986,-4.1949679211166915,-94.80005419536859,-25.427628,10.56631,6.633969,6.4643598,-4.049734,-6.4761586,25.117996,5.354973,-0.5404013,7.22262,-21.147144,-0.050210774,10.034323,6.979522,14.038119,18.454678,7.3783073,-6.6069994,70.61166,-7.3074627,-0.69573766,0.28824577,-19.372068,-18.394142,19.307634,53.36498,-7.563734,-0.70798796,-12.493915
169,-1.4091178178787231,-70.37773895263672,73.4310302734375,-4.598434730719408,-3.857660847062102,-94.71713588357323,-25.176949,9.872079,6.1469398,6.432608,-3.1096237,-6.114705,25.452045,4.885545,-0.7186729,7.2163763,-20.831053,0.18432692,9.942602,6.7003818,13.718048,18.466331,7.332713,-6.657711,71.40397,-7.033372,-0.36165696,0.15017362,-19.20635,-18.329975,19.080309,52.864513,-7.465596,-0.7459809,-12.601102
170,-1.305968999862671,-71.23605346679688,73.42285919189453,-4.260496652396646,-3.39402687425887,-94.58422229544172,-25.05546,9.017394,5.5637264,6.4607177,-1.9087862,-5.620984,25.653322,4.3242564,-0.9724791,7.209815,-20.41769,0.4630318,9.79611,6.3250046,13.292393,18.419985,7.248887,-6.6731987,72.17355,-6.6530595,0.005035979,0.022489453,-18.99832,-18.206877,18.801027,52.414593,-7.4217224,-0.8331843,-12.6936865
171,-1.1761935949325562,-72.0870590209961,73.45437622070312,-3.893183868473632,-2.8743982004727004,-94.43517966058675,-24.997858,8.11734,5.004833,6.485232,-0.5447283,-5.0614595,25.79458,3.7264016,-1.2492214,7.1983147,-19.871054,0.75706434,9.61602,5.9133005,12.811428,18.363024,7.1563144,-6.649936,72.86083,-6.2337713,0.36646247,-0.110653095,-18.724419,-18.072042,18.533312,51.975124,-7.3808804,-0.93003756,-12.771852
172,-1.011169195175171,-72.92476654052734,73.53369140625,-3.5224598284848847,-2.3617518493981655,-94.28901713201701,-24.964176,7.2611446,4.5891757,6.4948378,0.8467657,-4.4753585,25.939678,3.1220274,-1.5206999,7.1845136,-19.162962,1.0447065,9.430933,5.504297,12.313865,18.311031,7.0603504,-6.61736,73.438515,-5.8482203,0.6883649,-0.23122025,-18.380898,-17.928982,18.281374,51.560593,-7.3471665,-1.0000763,-12.841435
173,-0.8528854846954346,-73.76887512207031,73.6268310546875,-3.1097963880818154,-1.8370204828312893,-94.16718129632761,-25.002316,6.4383745,4.395801,6.480388,2.3488328,-3.7803895,26.003593,2.4583445,-1.7766883,7.305162,-18.373478,1.3270535,9.255202,5.054976,11.785178,18.265448,6.954656,-6.561595,73.903145,-5.50061,0.9751725,-0.32725868,-17.974987,-17.769144,18.061804,51.173443,-7.327961,-1.0353404,-12.908389
174,-0.7032895088195801,-74.6473617553711,73.7164306640625,-2.6163721635795993,-1.2637389302813113,-94.08166471873022,-25.12523,5.596498,4.409008,6.444403,3.9953976,-2.9721544,25.211912,1.6615812,-2.0381804,9.113089,-18.327345,1.62071,9.105102,4.5224295,11.202706,18.217924,6.8417673,-6.482547,74.267,-5.159419,1.2421491,-0.4092895,-17.499765,-17.597042,17.860428,50.800976,-7.3204775,-1.0542113,-12.965838
175,-0.5602275729179382,-75.5721435546875,73.80022430419922,-2.083103898443929,-0.6933570218058442,-94.02611908820643,-25.597881,4.796574,4.5423484,7.174587,5.1683297,-2.1924353,24.156715,0.79656726,-2.2651892,11.465525,-18.395544,1.9200563,8.981979,3.9529333,10.604665,18.166557,6.7296004,-6.4073896,74.543495,-4.839735,1.463012,-0.48892254,-16.966543,-17.40511,17.657345,50.474274,-7.314959,-1.0613446,-13.009369
176,-0.4266815185546875,-76.50473022460938,73.88481140136719,-1.5610934330730093,-0.18979271014617607,-93.98123656359829,-26.039663,4.0486975,4.7362423,8.113446,5.963873,-1.5857236,23.133646,-0.06279821,-2.4601724,13.875229,-18.293966,2.2145343,8.87522,3.399199,10.040723,18.109476,6.6311245,-6.364836,74.74362,-4.5583572,1.6125281,-0.57906103,-16.384182,-17.184484,17.430101,50.22272,-7.302973,-1.0616649,-13.035117
177,-0.28065213561058044,-77.4389419555664,73.9808120727539,-1.062963491707567,0.21972655658354256,-93.9423477904979,-26.336632,3.3615866,4.9781446,9.124671,6.419533,-1.2156525,22.24014,-0.89271075,-2.618478,16.22064,-17.969482,2.5197442,8.787457,2.8755386,9.522545,18.057747,6.556678,-6.3757625,74.861275,-4.295373,1.6736106,-0.6973395,-15.734098,-16.924603,17.170973,50.0342,-7.265604,-1.0376831,-13.055884
178,-0.14510199427604675,-78.3666000366211,74.09191131591797,-0.5731976396072924,0.5679402763641591,-93.90363245892242,-26.528,2.7235458,5.279277,10.170371,6.6528153,-0.9856068,21.420948,-1.7151115,-2.7485685,18.538164,-17.454002,2.82647,8.709844,2.3581593,9.027257,18.00834,6.508023,-6.421602,74.8913,-4.052117,1.6644175,-0.8337184,-15.019008,-16.622484,16.88786,49.901814,-7.214984,-0.99375147,-13.070268
179,-0.014405159279704094,-79.28852844238281,74.20628356933594,-0.1024924316985636,0.8766080144079316,-93.84175780411589,-26.627699,2.1212375,5.575222,11.183855,6.7026296,-0.81370384,20.586432,-2.5192153,-2.8869908,20.919136,-16.759754,3.0867856,8.61207,1.8541092,8.555575,17.936335,6.482708,-6.471485,74.84793,-3.8769467,1.6121165,-0.95921814,-14.279747,-16.28558,16.581417,49.86039,-7.1882887,-0.9676193,-13.052263
180,0.12669537961483002,-80.21665954589844,74.32674407958984,0.33823225954757263,1.1665039796565455,-93.7373657224745,-26.640533,1.529332,5.8089733,12.065112,6.6258907,-0.63142914,19.66332,-3.2918153,-3.0678027,23.425127,-15.887938,3.259225,8.469281,1.3749009,8.10926,17.815517,6.4753118,-6.4970474,74.745895,-3.8182,1.5441755,-1.0448503,-13.554506,-15.927741,16.252838,49.9401,-7.216724,-0.9967471,-12.975303
181,0.25577741861343384,-81.137451171875,74.45431518554688,0.7415942476355804,1.4466213537463009,-93.56288648360383,-26.56812,0.9181988,5.947154,12.767414,6.4095044,-0.45137987,18.645868,-4.0156837,-3.3408697,26.072832,-14.815661,3.3116121,8.262833,0.9316969,7.67392,17.64022,6.482547,-6.498515,74.58977,-3.9355671,1.4542471,-1.0712615,-12.822006,-15.554087,15.879547,50.154327,-7.313831,-1.1250155,-12.819469
182,0.37527740001678467,-82.04348754882812,74.5871810913086,1.109827111677351,1.7023832607435052,-93.3336413805197,-26.41866,0.29703584,6.017117,13.356646,6.033182,-0.3118965,17.576075,-4.693954,-3.6823144,28.819021,-13.543567,3.2811747,8.009434,0.5268033,7.253745,17.420803,6.5040526,-6.490076,74.37361,-4.1866603,1.3325313,-1.0577475,-12.068389,-15.164588,15.467471,50.476917,-7.45755,-1.3210975,-12.602674
183,0.5076450705528259,-82.9408187866211,74.72205352783203,1.4443173798305504,1.918505809987662,-93.0973770372888,-26.186905,-0.30495065,6.057976,13.857209,5.5604916,-0.18557861,16.44918,-5.339813,-4.010337,31.645805,-12.114162,3.23174,7.7398443,0.16156697,6.879488,17.155403,6.5368958,-6.467291,74.09713,-4.4679866,1.2010378,-1.0324092,-11.336098,-14.767889,15.056848,50.87441,-7.6318283,-1.5098313,-12.353472
184,0.6425532698631287,-83.84373474121094,74.86249542236328,1.745669886998088,2.07977792132567,-92.90225449502817,-25.86541,-0.852888,6.1081634,14.298656,5.0528455,-0.043573204,15.254298,-5.966153,-4.237406,34.550194,-10.573575,3.2210276,7.483475,-0.16225815,6.584323,16.84168,6.57551,-6.424568,73.76042,-4.6760993,1.0819257,-1.0223043,-10.669192,-14.379388,14.692652,51.314598,-7.818297,-1.6152853,-12.100146
185,0.7703363299369812,-84.72444152832031,75.01091766357422,1.9953786927671966,2.162766253702785,-92.73580165093067,-25.430447,-1.3296065,6.1450186,14.694914,4.499034,0.11550419,13.995167,-6.5445666,-4.337346,37.589767,-8.894367,3.2497637,7.236513,-0.42023835,6.391741,16.47435,6.6126814,-6.352297,73.358574,-4.773003,0.9868008,-1.044966,-10.053825,-14.008736,14.366354,51.786137,-8.023506,-1.6056297,-11.838721
186,0.9032284617424011,-85.58871459960938,75.15996551513672,2.1955474792620002,2.1815747901732334,-92.5810389551402,-24.897451,-1.7558172,6.156073,15.040479,3.8725152,0.28118697,12.667774,-7.069076,-4.3565135,40.76243,-7.0714493,3.2945645,6.98668,-0.61332977,6.282405,16.05071,6.6463637,-6.2580433,72.902565,-4.817589,0.89765716,-1.0813291,-9.470058,-13.657752,14.062689,52.300133,-8.251013,-1.5251479,-11.556216
187,1.0412367582321167,-86.43661499023438,75.30854797363281,2.378171104541969,2.1769295741565284,-92.47958895612715,-24.291912,-2.1500273,6.1942177,15.293069,3.2196817,0.46336773,11.247578,-7.5876994,-4.3103833,43.978775,-5.1875997,3.3610427,6.752785,-0.7795974,6.2253857,15.583293,6.678703,-6.1589966,72.39343,-4.8464136,0.8051755,-1.1027989,-8.950046,-13.332434,13.813886,52.859493,-8.4792,-1.4114615,-11.266901
188,1.1642602682113647,-87.26202392578125,75.4510726928711,2.577604309402422,2.190060534754202,-92.47222481260056,-23.63691,-2.5291028,6.310457,15.404834,2.5890918,0.6697421,9.706498,-8.160977,-4.211463,47.15873,-3.3290617,3.4405508,6.552253,-0.95806277,6.1896806,15.082763,6.712719,-6.0737886,71.8356,-4.898405,0.697662,-1.0819056,-8.524936,-13.040083,13.653469,53.46557,-8.684295,-1.3018271,-10.984815
189,1.2947802543640137,-88.07080078125,75.59027099609375,2.8029981495741216,2.243505799361574,-92.581342018624,-22.948921,-2.8876317,6.5248966,15.369685,1.975211,0.91512686,7.9616213,-8.821472,-4.0192947,50.37425,-1.2489464,3.5481927,6.4010615,-1.1585625,6.1633477,14.5489235,6.7423387,-5.990374,71.2157,-4.982977,0.57331276,-1.018364,-8.207268,-12.789286,13.585262,54.120396,-8.870823,-1.1891899,-10.693703
190,1.4265300035476685,-88.86306762695312,75.72269439697266,3.0365580175484035,2.3122931895759486,-92.78041346286865,-22.199152,-3.2192533,6.803691,15.18965,1.3631502,1.188159,6.044398,-9.540645,-3.7358341,53.647327,1.0097994,3.6496174,6.2843432,-1.3566433,6.1655498,13.976741,6.764459,-5.904696,70.5359,-5.080015,0.43770432,-0.92463,-7.975772,-12.581989,13.593974,54.81969,-9.045277,-1.0590452,-10.391543
191,1.5630128383636475,-89.63877868652344,75.8476333618164,3.2776359310130467,2.3669486102528086,-93.03676253970185,-21.375208,-3.5419312,7.122172,14.892593,0.77377194,1.4568483,4.093172,-10.308723,-3.4428456,56.839962,2.9125535,3.6577795,6.175452,-1.5510875,6.2108407,13.372634,6.7912054,-5.84541,69.82207,-5.1807685,0.2900827,-0.79393834,-7.813143,-12.41571,13.682647,55.558353,-9.189059,-0.93682295,-10.114837
192,1.6987897157669067,-90.40055847167969,75.96041870117188,3.526617731495527,2.377853589699902,-93.31804229626637,-20.464062,-3.8745224,7.456677,14.502695,0.22983514,1.6911683,2.2475967,-11.12306,-3.2253203,59.82441,3.9127748,3.5011003,6.0515566,-1.7438005,6.3136854,12.741993,6.8423834,-5.846154,69.0997,-5.2798305,0.12991132,-0.6219839,-7.698474,-12.282821,13.849761,56.3283,-9.283836,-0.84807515,-9.899727
193,1.8265032768249512,-91.15251922607422,76.07118225097656,3.8087771369848396,2.338701665430114,-93.64720438453033,-19.445175,-4.2371936,7.8397317,13.989562,-0.2551035,1.8895162,0.53828704,-12.047409,-3.1023743,62.62587,3.5964913,3.1792982,5.9313693,-1.967422,6.4877267,12.088981,6.9276047,-5.9144387,68.35077,-5.389421,-0.04522428,-0.4103956,-7.645789,-12.182033,14.125442,57.145214,-9.27972,-0.8102836,-9.760215
194,1.942291498184204,-91.88475036621094,76.17605590820312,4.1133373820940795,2.2661383948550577,-94.03304174370304,-18.328707,-4.6150327,8.268313,13.348819,-0.6943321,2.0630503,-1.1113228,-13.066066,-3.015481,65.308044,2.3275285,2.7412841,5.8243194,-2.2135584,6.7212586,11.411436,7.044343,-6.0360546,67.56662,-5.509762,-0.23381582,-0.16449387,-7.6579256,-12.112541,14.494683,58.006527,-9.20218,-0.8059912,-9.67541
195,2.0526089668273926,-92.62386322021484,76.27883911132812,4.389718943145991,2.1636509083492528,-94.41664176133531,-17.156096,-4.9751368,8.66545,12.648873,-1.1049464,2.204251,-2.7204657,-14.050067,-2.94651,67.8018,0.7207092,2.2036686,5.6911674,-2.4281135,6.9899197,10.703918,7.196093,-6.215767,66.788376,-5.617939,-0.4303161,0.114494346,-7.696871,-12.063993,14.887561,58.877552,-9.144477,-0.80878323,-9.629477
196,2.1654393672943115,-93.3526840209961,76.38501739501953,4.591297432563727,2.033208337427986,-94.73871376028256,-15.972181,-5.2854357,8.958956,11.965334,-1.5069141,2.3077326,-4.304039,-14.879561,-2.8948634,70.035736,-0.60301685,1.5679228,5.495211,-2.5652666,7.2698617,9.960053,7.3912377,-6.4605618,66.057465,-5.690916,-0.62872094,0.42465058,-7.7222013,-12.020997,15.229043,59.72356,-9.202514,-0.7926332,-9.606973
197,2.2863261699676514,-94.06219482421875,76.49174499511719,4.708866380846748,1.8653489806951062,-94.99231806926628,-14.7753,-5.534054,9.138769,11.310738,-1.9028198,2.365201,-5.8665485,-15.5390215,-2.88562,72.001884,-1.5327735,0.7662147,5.227828,-2.621724,7.5707154,9.172896,7.6402664,-6.8007736,65.37212,-5.732632,-0.8333339,0.79691833,-7.744647,-11.973141,15.514287,60.565014,-9.427493,-0.7484967,-9.609449
198,2.3583827018737793,-94.76670837402344,76.5995864868164,4.768239039193904,1.6616108376899916,-95.20663627415965,-13.547565,-5.7374463,9.245078,10.650052,-2.283532,2.382283,-7.393455,-16.080606,-2.9221897,73.73151,-2.3798206,-0.16866261,4.9129,-2.6302488,7.8992796,8.343944,7.9441233,-7.2294817,64.71908,-5.754248,-1.0475956,1.2197345,-7.7789874,-11.918873,15.771449,61.414352,-9.762634,-0.6911151,-9.644403
199,2.4193854331970215,-95.4899673461914,76.71141052246094,4.77841624772839,1.4394027686555795,-95.37523589841885,-12.306,-5.901371,9.283531,9.985125,-2.6528244,2.3761501,-8.869386,-16.493088,-2.9905336,75.20967,-3.1478424,-1.1019706,4.5596805,-2.6010978,8.227071,7.486178,8.295094,-7.6981583,64.108986,-5.744992,-1.2542611,1.6297165,-7.791798,-11.857754,15.977046,62.22725,-10.144957,-0.6302632,-9.705293
200,2.4846091270446777,-96.23336029052734,76.82953643798828,4.7482132748637635,1.2161803115925784,-95.49203805168119,-11.068868,-6.037651,9.260535,9.317953,-3.0093713,2.364838,-10.279604,-16.765087,-3.0764422,76.42178,-3.8369555,-1.896737,4.1759815,-2.5429673,8.525178,6.612258,8.683392,-8.155852,63.55748,-5.6928554,-1.4384893,1.9650722,-7.7526655,-11.793165,16.110876,62.961952,-10.511001,-0.5748131,-9.786489
201,2.544255495071411,-96.96395111083984,76.94078063964844,4.668942221661174,0.986531214992838,-95.55184132194303,-9.82773,-6.138026,9.169698,8.6512985,-3.3654757,2.3470037,-11.607816,-16.894775,-3.2072227,77.35376,-4.427728,-2.5371664,3.7551742,-2.4412088,8.789552,5.724384,9.1061735,-8.602846,63.077656,-5.589262,-1.6024667,2.2108843,-7.6587605,-11.728506,16.183786,63.640694,-10.856977,-0.540398,-9.91319
202,2.603395700454712,-97.66657257080078,77.04057312011719,4.541007397023047,0.7442327714604289,-95.55935637503099,-8.57949,-6.1994104,9.014268,7.986745,-3.7179792,2.315976,-12.86282,-16.889233,-3.3943005,78.016106,-4.91921,-3.0859594,3.294829,-2.2960458,9.03553,4.8153977,9.562978,-9.062869,62.66101,-5.441243,-1.7520224,2.400717,-7.5226693,-11.663326,16.204142,64.27048,-11.21113,-0.51475745,-10.079143
203,2.6621761322021484,-98.38443756103516,77.1373062133789,4.387135836054682,0.5058734435297606,-95.52290494438228,-7.3517847,-6.235598,8.813407,7.334693,-4.055418,2.282306,-14.071422,-16.75542,-3.589601,78.43264,-5.337237,-3.518953,2.80849,-2.1371999,9.263118,3.8831007,10.048491,-9.522806,62.292587,-5.2629175,-1.8784069,2.546603,-7.3472786,-11.5974655,16.148825,64.80831,-11.559281,-0.47684985,-10.234248
204,2.7107222080230713,-99.12957000732422,77.2337646484375,4.230019506513418,0.288046813529888,-95.45112705096072,-6.251321,-6.2491336,8.594101,6.8734074,-4.45467,2.256918,-15.261029,-16.500648,-3.74477,78.626785,-5.7077217,-3.8142817,2.309257,-1.9919413,9.471933,2.9255176,10.554898,-9.966087,61.95689,-5.0657787,-1.973092,2.6607974,-7.133087,-11.528906,15.993379,65.20704,-11.888436,-0.4051571,-10.327701
205,2.753566026687622,-99.83567810058594,77.31725311279297,4.068603438005018,0.09918909185246579,-95.3398254371639,-5.4090476,-6.2229843,8.3651085,6.8541527,-5.040454,2.2476785,-16.450726,-16.098028,-3.8428214,78.59999,-6.030348,-3.949589,1.7910819,-1.8581836,9.653895,1.930542,11.081452,-10.395506,61.667706,-4.8259935,-2.0245526,2.734622,-6.8807945,-11.454047,15.710999,65.4564,-12.229493,-0.28190947,-10.335782
206,2.7898712158203125,-100.53216552734375,77.39059448242188,3.893553674050014,-0.0712303883120628,-95.18700641361505,-4.599178,-6.187598,8.0990305,6.8299527,-5.5877914,2.252095,-17.621353,-15.560505,-3.911515,78.33796,-6.290464,-3.9421759,1.2519984,-1.7253642,9.811838,0.9015132,11.630234,-10.820432,61.430717,-4.54497,-2.040833,2.7660892,-6.5904317,-11.372384,15.320378,65.58244,-12.5784855,-0.123627566,-10.288992
207,2.828516721725464,-101.25484466552734,77.4634017944336,3.718930682310182,-0.23495715005866513,-95.00508773291041,-3.8057919,-6.1518593,7.81146,6.8089557,-6.1106367,2.261218,-18.745068,-14.948893,-3.9677207,77.84444,-6.4956036,-3.8309462,0.70764834,-1.6057134,9.961194,-0.14163639,12.196139,-11.234689,61.21987,-4.276763,-2.043665,2.7779918,-6.2636623,-11.287544,14.8692255,65.59352,-12.869332,0.03990778,-10.218502
208,2.8643810749053955,-101.94747161865234,77.5241928100586,3.555617933204652,-0.4038351283890939,-94.80600020965551,-3.0079916,-6.1226234,7.516721,6.789818,-6.620466,2.265041,-19.79123,-14.324137,-4.0285034,77.120384,-6.652596,-3.6549041,0.17092434,-1.5083827,10.116363,-1.1779176,12.770469,-11.627284,61.008217,-4.073317,-2.0540018,2.794569,-5.9056396,-11.208944,14.41108,65.50208,-13.033207,0.17974207,-10.156675
209,2.899282693862915,-102.64651489257812,77.57117462158203,3.3920905857102257,-0.583352074583943,-94.58995521386309,-2.2020135,-6.0910344,7.213471,6.779582,-7.1126885,2.2612963,-20.757042,-13.6783285,-4.097153,76.1681,-6.777404,-3.4119246,-0.36166155,-1.4185117,10.282282,-2.2100077,13.348258,-11.999168,60.800674,-3.962505,-2.0809283,2.8201199,-5.51029,-11.143664,13.95375,65.290565,-13.047074,0.30509,-10.112258
210,2.937471389770508,-103.36296844482422,77.61247253417969,3.2299068489440503,-0.7666745233321253,-94.35154502267034,-1.3940035,-6.059958,6.8961706,6.770071,-7.581769,2.2566404,-21.655106,-12.995683,-4.1608353,74.98121,-6.8617306,-3.0905797,-0.8963669,-1.3343536,10.451632,-3.247728,13.928733,-12.353032,60.60871,-3.910107,-2.1124697,2.8431158,-5.0742674,-11.092343,13.474647,64.95549,-12.947191,0.42600808,-10.067024
211,2.96930193901062,-104.06941223144531,77.63697814941406,3.0773022869408386,-0.9478670884356337,-94.09389275111981,-0.5981763,-6.0343575,6.5702763,6.7795386,-8.051391,2.2537696,-22.48122,-12.304206,-4.219292,73.56942,-6.8907185,-2.7129107,-1.4265206,-1.2672178,10.621466,-4.282279,14.508529,-12.677172,60.41869,-3.8741744,-2.1406255,2.864817,-4.605825,-11.054654,12.981011,64.52957,-12.75504,0.5148286,-10.013673
212,2.9959750175476074,-104.7904281616211,77.6566390991211,2.9305593661449447,-1.1202742938761496,-93.81909614411471,0.17943294,-6.008796,6.2371616,6.806666,-8.535213,2.2528553,-23.230495,-11.6234665,-4.2811465,71.945206,-6.851922,-2.3038945,-1.9484619,-1.2170312,10.787109,-5.299615,15.082583,-12.956553,60.20838,-3.8104475,-2.1523314,2.8869405,-4.113554,-11.0281315,12.481092,64.04605,-12.493031,0.544163,-9.94452
213,3.02209734916687,-105.50526428222656,77.6637954711914,2.7843771739779983,-1.285088923115286,-93.5204506512843,0.945912,-5.9702516,5.8915753,6.8338494,-9.022855,2.2521012,-23.896292,-10.9462805,-4.3553586,70.09761,-6.7350717,-1.8467956,-2.4706979,-1.1744106,10.949092,-6.3030314,15.651357,-13.180501,59.984077,-3.6975555,-2.1412451,2.9153988,-3.5965345,-11.014922,11.955875,63.499535,-12.140209,0.48618206,-9.832336
214,3.036196231842041,-106.21914672851562,77.65987396240234,2.6362473125483334,-1.4443759359766684,-93.19892658779317,1.7041875,-5.9228954,5.533989,6.861301,-9.5087185,2.2503684,-24.479351,-10.2685175,-4.432934,68.01964,-6.5502005,-1.3405143,-2.99268,-1.139119,11.107965,-7.296882,16.215334,-13.356754,59.752758,-3.5597162,-2.1143527,2.9479902,-3.0478046,-11.014512,11.409218,62.87576,-11.693626,0.3629775,-9.687906
215,3.039248466491699,-106.94254302978516,77.64419555664062,2.4997041243243556,-1.5916260763561434,-92.86716035452388,2.45144,-5.881157,5.170948,6.88873,-9.998023,2.2462537,-24.985188,-9.607423,-4.49989,65.728325,-6.3136973,-0.8305732,-3.500242,-1.1214062,11.256186,-8.27705,16.771164,-13.501611,59.509384,-3.4281642,-2.0844252,2.975723,-2.4774413,-11.02359,10.888358,62.208313,-11.202179,0.22167437,-9.563832
216,3.0457680225372314,-107.66480255126953,77.62185668945312,2.3880928053600865,-1.7205094706392812,-92.53766276362622,3.185687,-5.8603024,4.8085575,6.9150767,-10.4962225,2.2384713,-25.421074,-8.981425,-4.5416775,63.24213,-6.042886,-0.36262995,-3.9808722,-1.131866,11.3853,-9.238987,17.313814,-13.628865,59.24959,-3.3323271,-2.0639381,2.9903803,-1.898906,-11.0377,10.441859,61.532154,-10.714664,0.109374896,-9.514681
217,3.045295476913452,-108.39146423339844,77.58717346191406,2.29724642031374,-1.8303365071894484,-92.21190851723496,3.905453,-5.85704,4.44645,6.9414115,-11.004806,2.2179167,-25.790234,-8.401496,-4.562118,60.563572,-5.7516527,0.027696496,-4.4311047,-1.169804,11.494757,-10.190773,17.842463,-13.729407,58.97924,-3.2859042,-2.055172,2.9850028,-1.3183547,-11.057354,10.0973215,60.84552,-10.227631,0.028672803,-9.570997
218,3.0385823249816895,-109.1200942993164,77.5410385131836,2.224712295662628,-1.9239715283987522,-91.883335996408,4.611789,-5.8634624,4.081342,6.966937,-11.520388,2.1863456,-26.085886,-7.860446,-4.563626,57.682583,-5.428643,0.36827534,-4.8603764,-1.2301054,11.586196,-11.132664,18.35901,-13.797631,58.70126,-3.270921,-2.0519936,2.9665182,-0.7301349,-11.0834055,9.827782,60.13428,-9.720423,-0.041676383,-9.699131
219,3.0388095378875732,-109.84691619873047,77.48011016845703,2.1771554441737946,-2.0005377936556554,-91.55268707242708,5.304508,-5.888841,3.7144163,6.991445,-12.042202,2.1592093,-26.297668,-7.35194,-4.5290337,54.588184,-5.05022,0.7070968,-5.273396,-1.3179805,11.654281,-12.046614,18.860783,-13.849439,58.404602,-3.263938,-2.0544145,2.9476392,-0.13655545,-11.112284,9.594849,59.43091,-9.219152,-0.09953793,-9.86085
220,3.0297086238861084,-110.58416748046875,77.40678405761719,2.1626492365476953,-2.059287562541212,-91.22050753702834,5.983761,-5.9447265,3.3465874,7.0150695,-12.570077,2.153498,-26.416819,-6.8732443,-4.439054,51.26972,-4.59051,1.0899162,-5.6737013,-1.4380772,11.693362,-12.918465,19.342949,-13.904012,58.082333,-3.2439883,-2.062869,2.9422317,0.4611181,-11.137474,9.357649,58.76704,-8.750426,-0.14094314,-10.018553
221,3.0146732330322266,-111.32228088378906,77.32220458984375,2.1859195250637007,-2.098790285759654,-90.88268106488941,6.64542,-6.0363426,2.9736085,7.0384474,-13.105175,2.1787252,-26.44066,-6.4130626,-4.2444468,47.689926,-4.0217934,1.5127805,-6.056919,-1.5944711,11.704519,-13.758643,19.803507,-13.965183,57.738926,-3.2013366,-2.078038,2.9571333,1.06126,-11.155907,9.100433,58.134224,-8.300885,-0.150365,-10.166095
222,2.9990122318267822,-112.07122802734375,77.22431945800781,2.2414817851654156,-2.120655780670368,-90.53926973624493,7.2919755,-6.1591153,2.5943558,7.0609713,-13.646967,2.2253232,-26.367044,-5.9938536,-3.9635642,43.856262,-3.3620784,1.9442096,-6.4206514,-1.784287,11.688259,-14.577218,20.243217,-14.028472,57.38349,-3.1504705,-2.0996592,2.9857938,1.6652688,-11.168509,8.841927,57.522438,-7.864889,-0.13465467,-10.323949
223,2.9822378158569336,-112.83560943603516,77.10853576660156,2.329386050442335,-2.1293268216316363,-90.19645406843202,7.932681,-6.3109674,2.2138536,7.082895,-14.192916,2.2823503,-26.184208,-5.658728,-3.6815135,39.807808,-2.6517072,2.3923564,-6.772833,-2.0021443,11.638746,-15.353204,20.659996,-14.09243,57.01051,-3.0997922,-2.126857,3.0214279,2.2763114,-11.173991,8.59285,56.96119,-7.480782,-0.122623794,-10.4947405
224,2.9676172733306885,-113.60957336425781,76.98005676269531,2.450195661269685,-2.1299671577982884,-89.8597264387997,8.577593,-6.4901876,1.8365848,7.102809,-14.739337,2.3386571,-25.879164,-5.4404693,-3.4885015,35.569958,-1.9241148,2.8733864,-7.12114,-2.2431405,11.55031,-16.0677,21.050915,-14.156208,56.616997,-3.0570228,-2.1587467,3.057801,2.8965423,-11.170345,8.363266,56.48069,-7.1867256,-0.142572,-10.681473
225,2.9469034671783447,-114.39183807373047,76.83499908447266,2.617039598284541,-2.133014683455812,-89.53028688657612,9.242248,-6.7135596,1.4616338,7.1182904,-15.287385,2.399127,-25.386963,-5.344651,-3.3890612,30.995667,-1.129155,3.4539485,-7.47069,-2.5196867,11.421426,-16.714087,21.415861,-14.219315,56.206707,-3.0240417,-2.1948278,3.1018772,3.5337005,-11.158759,8.1725025,56.08283,-7.022134,-0.20596464,-10.919706
226,2.9175260066986084,-115.1900634765625,76.67325592041016,2.834651237024695,-2.1391439665834957,-89.19647845921614,9.9219055,-6.988977,1.0771472,7.133436,-15.838926,2.4696457,-24.699919,-5.366168,-3.3480175,26.05049,-0.23207669,4.1073303,-7.825548,-2.8400276,11.257967,-17.303244,21.756666,-14.280201,55.78032,-2.9963915,-2.235597,3.153917,4.1837444,-11.139903,8.009181,55.752647,-6.9561276,-0.29538918,-11.19656
227,2.893892765045166,-116.00579833984375,76.49432373046875,3.0955689728227163,-2.1411553004290442,-88.84014823301005,10.605866,-7.306042,0.66610897,7.143789,-16.384718,2.5413177,-23.882408,-5.5113053,-3.4059777,20.910929,0.7157651,4.724194,-8.193806,-3.199536,11.065952,-17.84557,22.074402,-14.3398485,55.33514,-2.9739177,-2.2814734,3.1984508,4.834253,-11.111896,7.8331566,55.495155,-6.9258757,-0.3958904,-11.443025
228,2.8724637031555176,-116.82707214355469,76.29618072509766,3.3979640632809343,-2.134032709292748,-88.44100413397024,11.284092,-7.6606874,0.20955683,7.150037,-16.919985,2.6065705,-23.025507,-5.7839947,-3.6055744,15.813567,1.6413274,5.205001,-8.584304,-3.598821,10.851506,-18.354736,22.369806,-14.402768,54.871376,-2.9588432,-2.3332307,3.219982,5.4735026,-11.069611,7.605111,55.315685,-6.86659,-0.49282598,-11.590019
229,2.843553304672241,-117.65791320800781,76.07671356201172,3.780618027377446,-2.1279175126595407,-87.96490742137095,11.966482,-8.09821,-0.32910162,7.1501627,-17.44287,2.6670673,-21.997614,-6.208241,-3.991973,10.446225,2.6565866,5.58083,-9.02721,-4.077788,10.60986,-18.83107,22.644644,-14.472624,54.389507,-2.9561214,-2.394154,3.2114391,6.112382,-11.006663,7.2997303,55.218014,-6.7651706,-0.5942045,-11.598907
230,2.8127193450927734,-118.49710845947266,75.84504699707031,4.257127099974353,-2.1385606393429013,-87.40717323939613,12.670948,-8.63553,-0.9600893,7.143819,-17.952408,2.7317817,-21.551397,-6.855263,-4.470295,6.4135065,2.9065502,5.903746,-9.530073,-4.6561007,10.343443,-19.275097,22.901043,-14.551796,53.896526,-2.9649796,-2.462402,3.1809983,6.757587,-10.920834,6.9400244,55.19705,-6.655245,-0.70322657,-11.513979
231,2.7762603759765625,-119.34502410888672,75.6068344116211,4.724900478232347,-2.1334373502752095,-86.84317323641595,13.362154,-9.1414795,-1.6034482,7.1399035,-18.453794,2.787392,-22.87042,-7.6774077,-4.8586674,6.2448816,1.1847465,6.1091285,-10.022588,-5.2240167,10.060135,-19.68576,23.134516,-14.6271105,53.385353,-2.9716132,-2.5317805,3.1405115,7.3795223,-10.814506,6.560127,55.249752,-6.546237,-0.79935986,-11.390039
232,2.7364838123321533,-120.192626953125,75.38433837890625,5.06357719663598,-2.07711710505896,-86.35958204550816,14.007074,-9.464323,-2.1607068,7.14591,-18.95953,2.81579,-24.20826,-8.347735,-5.344259,6.300152,-0.4667646,6.149724,-10.421187,-5.6455975,9.778099,-20.065979,23.338524,-14.690187,52.85218,-2.9686308,-2.5974326,3.104922,7.941901,-10.697377,6.193938,55.378002,-6.446537,-0.862618,-11.282579
233,2.6924948692321777,-121.02953338623047,75.17760467529297,5.2968283989951805,-1.9739217484563971,-85.91891228186807,14.594153,-9.644747,-2.6648517,7.1562834,-19.458942,2.834055,-25.480204,-8.897667,-6.042643,6.3572416,-1.9609674,6.0069733,-10.751519,-5.952465,9.491153,-20.430332,23.514416,-14.754388,52.30739,-2.9517457,-2.655362,3.0657244,8.4685755,-10.569159,5.8376665,55.562084,-6.3687363,-0.87705594,-11.190846
234,2.6470625400543213,-121.87065887451172,74.9808349609375,5.468976839062639,-1.829271611119645,-85.50638059333357,15.136219,-9.737735,-3.1322126,7.1677103,-19.953485,2.8433366,-26.696907,-9.361718,-6.9233885,6.412928,-3.3501449,5.7317767,-11.03145,-6.189651,9.191267,-20.769258,23.66224,-14.813206,51.74649,-2.922361,-2.7094972,3.0203342,8.965299,-10.427682,5.480015,55.81026,-6.303916,-0.8569106,-11.090336
235,2.596076011657715,-122.7184066772461,74.78496551513672,5.595611431421404,-1.6794973941335658,-85.14263188668154,15.675731,-9.765811,-3.5476213,7.181858,-20.423637,2.8499591,-27.758242,-9.711704,-7.8175354,6.462337,-4.5338693,5.4120483,-11.261851,-6.359304,8.912009,-21.06484,23.766085,-14.838245,51.179516,-2.881534,-2.7650545,2.9804463,9.416729,-10.300238,5.151151,56.137394,-6.217782,-0.8232652,-10.995232
236,2.5480422973632812,-123.55632781982422,74.59004211425781,5.68734472286121,-1.5588855187632624,-84.85062519171986,16.256279,-9.749509,-3.8950937,7.1949167,-20.846548,2.8606532,-28.570667,-9.926056,-8.559419,6.5040627,-5.406487,5.129062,-11.424763,-6.4946156,8.691481,-21.301872,23.849129,-14.8246,50.602722,-2.837686,-2.8237095,2.9536867,9.805359,-10.165891,4.8589125,56.562332,-6.095579,-0.7986132,-10.924101
237,2.507033109664917,-124.39026641845703,74.40110778808594,5.735855909015672,-1.4650646329828318,-84.63449492922051,16.87092,-9.680948,-4.163717,7.2081456,-21.23048,2.8752897,-29.111986,-10.008952,-9.19548,6.5293794,-5.939314,4.876,-11.525828,-6.5727696,8.540539,-21.482132,23.899723,-14.749147,50.003643,-2.7832668,-2.888761,2.937092,10.120808,-10.053947,4.613161,57.078815,-5.891017,-0.7847892,-10.883291
238,2.4650943279266357,-125.2261962890625,74.22088623046875,5.743262197912836,-1.3800524021591098,-84.49436347711115,17.48693,-9.562457,-4.348225,7.251598,-21.600094,2.891384,-29.435467,-9.9687805,-9.778572,6.542899,-6.187657,4.602161,-11.561504,-6.5889664,8.438547,-21.603924,23.918758,-14.620682,49.379185,-2.722642,-2.9583983,2.9270523,10.37716,-9.974819,4.4090896,57.67389,-5.6205125,-0.77123517,-10.857568
239,2.419724702835083,-126.06271362304688,74.04857635498047,5.709868623653156,-1.3111479618930286,-84.43804838998504,18.123047,-9.405765,-4.451231,7.3206673,-21.931257,2.9030266,-29.557226,-9.782843,-10.176638,6.542579,-6.1557827,4.3167777,-11.523973,-6.5663004,8.372376,-21.63747,23.912746,-14.441763,48.74243,-2.6535723,-3.027674,2.9303153,10.581368,-9.891039,4.2420917,58.366028,-5.3657227,-0.76067436,-10.843785
