unveil-humanoid-operators/unveil-humanoid-operators.github.io/feature-analysis-animation/data/feature_matrix_instances/gender_ankle_rom_walking_A141_lift_crate_walk_ff_stop_315_001__A141.csv
Frame,root_translateX,root_translateY,root_translateZ,root_rotateX,root_rotateY,root_rotateZ,left_hip_pitch_joint_dof,left_hip_roll_joint_dof,left_hip_yaw_joint_dof,left_knee_joint_dof,left_ankle_pitch_joint_dof,left_ankle_roll_joint_dof,right_hip_pitch_joint_dof,right_hip_roll_joint_dof,right_hip_yaw_joint_dof,right_knee_joint_dof,right_ankle_pitch_joint_dof,right_ankle_roll_joint_dof,waist_yaw_joint_dof,waist_roll_joint_dof,waist_pitch_joint_dof,left_shoulder_pitch_joint_dof,left_shoulder_roll_joint_dof,left_shoulder_yaw_joint_dof,left_elbow_joint_dof,left_wrist_roll_joint_dof,left_wrist_pitch_joint_dof,left_wrist_yaw_joint_dof,right_shoulder_pitch_joint_dof,right_shoulder_roll_joint_dof,right_shoulder_yaw_joint_dof,right_elbow_joint_dof,right_wrist_roll_joint_dof,right_wrist_pitch_joint_dof,right_wrist_yaw_joint_dof
0,2.4060168266296387,-0.5622000098228455,76.90335083007812,-2.043339390676129,-3.8746748863664915,160.0307198279836,-1.4322109,13.711621,36.813316,33.182922,-23.355219,-0.40549594,-22.03977,-11.071127,-14.288401,32.87891,0.7670073,0.68333167,-1.1645894,-4.4730086,8.382879,-20.757723,19.306175,-10.235779,52.889034,2.5792139,4.682,7.6224585,-12.503949,-22.792679,11.010229,58.458725,23.347675,-11.291657,-4.08286
1,2.4768178462982178,-0.45377829670906067,76.89588928222656,-2.035981205708925,-3.810909893344223,159.79342052414918,-1.4943045,13.911917,36.984837,33.30764,-23.376047,-0.4691017,-22.134218,-11.00061,-13.724731,32.799503,0.89095783,1.0082105,-1.142147,-4.478895,8.401374,-20.818647,19.318674,-10.300907,52.920708,2.489866,4.71038,7.5746427,-12.527222,-22.828968,11.050842,58.45633,23.351547,-11.309217,-4.0149684
2,2.5421361923217773,-0.3561377227306366,76.88700866699219,-2.029606912621295,-3.7474158340981276,159.5526928648223,-1.5551777,14.113312,37.15891,33.431824,-23.397127,-0.5308314,-22.22703,-10.93199,-13.166257,32.721973,1.0181211,1.333341,-1.1170347,-4.4847293,8.422042,-20.881817,19.336266,-10.372049,52.952427,2.392623,4.739688,7.5246425,-12.550041,-22.869482,11.092067,58.45232,23.353632,-11.330843,-3.940782
3,2.5853044986724854,-0.2567017078399658,76.88572692871094,-2.022357626262548,-3.683510763515063,159.31886242691414,-1.6171292,14.313568,37.32748,33.55822,-23.417906,-0.59622186,-22.318182,-10.857423,-12.597149,32.641502,1.1338724,1.6594176,-1.0931897,-4.487907,8.447451,-20.934654,19.361593,-10.440282,52.965214,2.294255,4.7668138,7.4706917,-12.557864,-22.927721,11.12598,58.424767,23.372759,-11.338368,-3.8667574
4,2.63057804107666,-0.1515040397644043,76.8812255859375,-2.011567912435952,-3.6185673042910826,159.1018830775989,-1.6822287,14.508882,37.48241,33.688923,-23.437569,-0.67059106,-22.406622,-10.769204,-12.001308,32.551865,1.2245551,1.9870415,-1.0811902,-4.495854,8.4624,-20.98418,19.377739,-10.4903755,52.985546,2.22025,4.78707,7.422834,-12.576218,-22.967915,11.153945,58.416775,23.402805,-11.326688,-3.8157558
5,2.687201738357544,-0.0394369438290596,76.87046813964844,-1.994997664807673,-3.549978005094114,158.90623963046323,-1.7546378,14.696044,37.62171,33.824722,-23.456188,-0.75690895,-22.493298,-10.662602,-11.364872,32.447178,1.2836952,2.327254,-1.0814794,-4.5104127,8.466565,-21.026106,19.387709,-10.5228615,53.005764,2.1730242,4.796863,7.380778,-12.593696,-22.9997,11.170738,58.415478,23.471252,-11.277179,-3.7889726
6,2.7423861026763916,0.06729602813720703,76.85426330566406,-1.974256782891628,-3.4788954493371445,158.7259563103559,-1.8316314,14.877008,37.74996,33.96319,-23.473396,-0.8517006,-22.577082,-10.543002,-10.700037,32.33154,1.3190836,2.6756847,-1.0912648,-4.530007,8.462027,-21.063879,19.391788,-10.542004,53.02897,2.146247,4.799134,7.343652,-12.61356,-23.021574,11.179719,58.42366,23.56405,-11.20198,-3.7808874
7,2.779254674911499,0.1806260198354721,76.84159088134766,-1.9535896252724954,-3.4103260114711493,158.5556108269937,-1.9078976,15.0593405,37.867367,34.108448,-23.491238,-0.95091087,-22.65622,-10.418595,-10.03009,32.21855,1.3363755,3.0096796,-1.1035688,-4.5460095,8.456039,-21.09993,19.392752,-10.55671,53.05153,2.1237566,4.800302,7.307723,-12.632722,-23.046114,11.184971,58.431126,23.648252,-11.126143,-3.7829556
8,2.8108901977539062,0.2980318069458008,76.82819366455078,-1.936661141773362,-3.3494589367829324,158.38963095407354,-1.9785447,15.250333,37.9743,34.265812,-23.51226,-1.0504845,-22.730808,-10.297898,-9.377346,32.123074,1.3415111,3.3068783,-1.1167846,-4.5574746,8.452083,-21.132225,19.392212,-10.565735,53.07152,2.1010258,4.8074856,7.27115,-12.660686,-23.05922,11.18944,58.44617,23.674492,-11.079864,-3.7938588
9,2.843933582305908,0.420629620552063,76.8111572265625,-1.9279453165901088,-3.295775550439907,158.22692911590045,-2.048824,15.459215,38.067886,34.447372,-23.540796,-1.1494335,-22.80345,-10.172117,-8.7367525,32.04645,1.3320458,3.550574,-1.125356,-4.55081,8.453846,-21.175167,19.388727,-10.576308,53.09902,2.059339,4.8218193,7.223022,-12.69184,-23.08678,11.192395,58.45865,23.62832,-11.071574,-3.8114536
10,2.8816113471984863,0.5496658086776733,76.79076385498047,-1.9234537577594915,-3.247180814937072,158.07023812493492,-2.1197977,15.678912,38.148815,34.64712,-23.574238,-1.2497711,-22.875395,-10.041407,-8.09934,31.984861,1.3053863,3.756353,-1.1371478,-4.540443,8.45587,-21.212791,19.38548,-10.576852,53.122513,2.0177681,4.8416605,7.169044,-12.72961,-23.103273,11.189672,58.47762,23.518719,-11.08946,-3.8451316
11,2.918027400970459,0.683937132358551,76.77182006835938,-1.9174545194648227,-3.2063062322657334,157.91983471050457,-2.1781144,15.895409,38.22331,34.84167,-23.604725,-1.3524387,-22.937675,-9.922534,-7.484421,31.932392,1.2741152,3.9500737,-1.1482593,-4.527975,8.460951,-21.246592,19.382378,-10.5807295,53.140747,1.9783133,4.862138,7.12514,-12.768217,-23.118805,11.190854,58.493225,23.408302,-11.113172,-3.8745134
12,2.9508776664733887,0.8151682019233704,76.75617218017578,-1.9041750002490283,-3.1757411885961777,157.77553763952642,-2.2113955,16.09596,38.29742,35.01012,-23.624992,-1.4583608,-22.984066,-9.833197,-6.910741,31.887098,1.2487332,4.157887,-1.1535876,-4.512174,8.472724,-21.277351,19.376673,-10.601395,53.150604,1.9429467,4.8782406,7.107334,-12.7935505,-23.153416,11.203016,58.485104,23.360102,-11.120387,-3.878235
13,2.971663475036621,0.9543996453285217,76.74362182617188,-1.8824069089238993,-3.1589471283075614,157.63907441383267,-2.211967,16.275608,38.371887,35.143173,-23.631657,-1.5669302,-23.007633,-9.783708,-6.393346,31.849632,1.2294836,4.3861184,-1.155556,-4.5046,8.489279,-21.298096,19.37519,-10.646159,53.14722,1.9183712,4.890597,7.1335597,-12.812156,-23.18779,11.2331915,58.461445,23.387062,-11.106336,-3.850789
14,2.9970386028289795,1.0979722738265991,76.72857666015625,-1.85520101229477,-3.153447632352995,157.50971055329993,-2.1881104,16.442297,38.443886,35.253983,-23.629358,-1.6779481,-23.013863,-9.762777,-5.918997,31.81895,1.2129401,4.621145,-1.1541518,-4.4981933,8.511849,-21.311317,19.378283,-10.710345,53.130745,1.8957622,4.900979,7.18955,-12.821476,-23.230654,11.276391,58.4181,23.464268,-11.07972,-3.8003404
15,3.0173144340515137,1.2404992580413818,76.71632385253906,-1.82154776803958,-3.1531667841934605,157.3844141541493,-2.1508114,16.597994,38.51404,35.350197,-23.620457,-1.7922031,-23.018002,-9.756979,-5.461701,31.795143,1.2022978,4.859709,-1.1511365,-4.4938645,8.537228,-21.319103,19.3857,-10.775461,53.10715,1.8736608,4.908673,7.2471266,-12.826901,-23.27401,11.321992,58.367466,23.5606,-11.053475,-3.7443397
16,3.0361015796661377,1.386314034461975,76.69917297363281,-1.7803968598066289,-3.1521149886216793,157.26074429666002,-2.112182,16.748083,38.58496,35.445156,-23.610167,-1.9130089,-23.03666,-9.75339,-4.996809,31.783598,1.1961073,5.0975275,-1.1521243,-4.4983416,8.564732,-21.326912,19.388012,-10.797705,53.087345,1.8788744,4.912832,7.276555,-12.839845,-23.281145,11.340447,58.32891,23.61413,-11.044817,-3.7070832
17,3.0596113204956055,1.5342398881912231,76.6837158203125,-1.7300228697460278,-3.1507855738479855,157.13182703976437,-2.068026,16.890085,38.662796,35.5341,-23.59674,-2.0411294,-23.073278,-9.746862,-4.509831,31.782719,1.2034738,5.335111,-1.1423504,-4.4973383,8.5787945,-21.338886,19.40758,-10.86234,53.082474,1.8243726,4.9127626,7.280725,-12.855145,-23.3262,11.403767,58.310257,23.731102,-11.058388,-3.677398
18,3.0700771808624268,1.6913421154022217,76.66617584228516,-1.6716472205558153,-3.151274775226751,157.00319516182972,-2.015953,17.023075,38.742554,35.61355,-23.577913,-2.1765869,-23.119274,-9.745491,-4.018859,31.790735,1.2216527,5.5740204,-1.1341993,-4.4984245,8.60484,-21.338072,19.427204,-10.884758,53.05718,1.796362,4.9092717,7.2568827,-12.862788,-23.359758,11.442707,58.278812,23.83312,-11.087732,-3.6531665
19,3.0893445014953613,1.8588128089904785,76.64810180664062,-1.6081269484230567,-3.151382979137704,156.8815063404013,-1.9632484,17.149933,38.815765,35.69088,-23.558222,-2.3132477,-23.170925,-9.751302,-3.5375586,31.80529,1.2377496,5.813363,-1.1242939,-4.502962,8.625395,-21.350237,19.437384,-10.899095,53.052162,1.7742907,4.9029655,7.22857,-12.874321,-23.372059,11.465774,58.25424,23.904266,-11.114376,-3.6414545
20,3.1086959838867188,2.0302631855010986,76.626708984375,-1.5422907313309064,-3.148761297607994,156.77461857561048,-1.9162481,17.272213,38.872894,35.76838,-23.5383,-2.446374,-23.222569,-9.766286,-3.0811307,31.818813,1.2421156,6.052281,-1.1292557,-4.5049562,8.642287,-21.350597,19.469847,-10.918159,53.03309,1.712132,4.895397,7.1964526,-12.885948,-23.402575,11.507377,58.20075,23.968992,-11.106209,-3.6304352
21,3.137390613555908,2.1961710453033447,76.59870147705078,-1.4714906041049751,-3.1434709840714565,156.68225011723237,-1.8737701,17.385601,38.914223,35.844734,-23.519444,-2.573444,-23.271597,-9.788896,-2.641407,31.82677,1.2364299,6.31191,-1.1431901,-4.509679,8.663875,-21.334654,19.522596,-10.921331,52.98595,1.6284696,4.888335,7.1558905,-12.884367,-23.439423,11.531117,58.095455,23.97975,-11.044818,-3.627082
22,3.148743152618408,2.3704946041107178,76.57658386230469,-1.3956537840164376,-3.1365288125404462,156.6009160684956,-1.8326615,17.490347,38.94376,35.916893,-23.499454,-2.6975744,-23.32148,-9.818325,-2.2145815,31.833813,1.2245237,6.585541,-1.1516235,-4.5158753,8.668353,-21.356487,19.549442,-10.931199,52.99502,1.5409825,4.8775196,7.123216,-12.890249,-23.453323,11.542111,58.00313,23.94185,-10.95797,-3.6435416
23,3.148637294769287,2.5537562370300293,76.5612564086914,-1.3201953365522785,-3.127322956162182,156.53395771189486,-1.7997717,17.597363,38.958065,35.995377,-23.480236,-2.8222554,-23.37657,-9.860086,-1.821695,31.848186,1.1990587,6.8303266,-1.1664732,-4.518608,8.673045,-21.374617,19.58312,-10.944059,52.99608,1.4416409,4.8658986,7.091485,-12.890806,-23.467384,11.545214,57.89205,23.894571,-10.866557,-3.6576633
24,3.154977321624756,2.7502799034118652,76.54071044921875,-1.2507835961423464,-3.11491959129072,156.48456526514425,-1.7813333,17.717081,38.953327,36.08791,-23.462286,-2.951125,-23.440817,-9.918706,-1.4839354,31.876902,1.1535772,7.003444,-1.1898766,-4.515958,8.682373,-21.382416,19.63286,-10.968025,52.976513,1.3351244,4.853856,7.06448,-12.883401,-23.486095,11.537567,57.764244,23.862343,-10.799102,-3.6561074
25,3.1696290969848633,2.9449377059936523,76.51576232910156,-1.1923294609646475,-3.098635928164233,156.45544598414466,-1.7813153,17.856054,38.92584,36.1995,-23.446499,-3.0833025,-23.519478,-9.994317,-1.2147052,31.927704,1.0931509,7.0827217,-1.2256424,-4.5003295,8.694634,-21.383455,19.692818,-11.008437,52.941204,1.2163495,4.8407626,7.0519586,-12.871237,-23.506588,11.517115,57.620407,23.844025,-10.768266,-3.632728
26,3.1851933002471924,3.1441853046417236,76.48656463623047,-1.1408465970548871,-3.079306134040664,156.44405787553637,-1.7956254,18.00762,38.878338,36.324276,-23.431992,-3.21751,-23.607937,-10.084261,-1.0002561,31.991854,1.020764,7.0945845,-1.2708725,-4.46846,8.696741,-21.39728,19.730553,-11.056832,52.92931,1.1003673,4.824873,7.0587697,-12.870163,-23.52046,11.495023,57.49017,23.825113,-10.762147,-3.6034048
27,3.1905133724212646,3.3493692874908447,76.45975494384766,-1.0888002398461212,-3.057799823621695,156.4466032725695,-1.8186934,18.162186,38.817146,36.456882,-23.418541,-3.3567681,-23.70119,-10.190143,-0.81959015,32.06166,0.9213746,7.069399,-1.3240584,-4.4299774,8.693497,-21.412956,19.75191,-11.096147,52.927616,1.0034115,4.8070855,7.0673866,-12.877738,-23.529308,11.477299,57.37612,23.811302,-10.765309,-3.577701
28,3.186755657196045,3.5603833198547363,76.43423461914062,-1.0282215048404888,-3.0350207219068364,156.45881786315067,-1.8442029,18.309593,38.74909,36.590427,-23.405045,-3.5040557,-23.792912,-10.313938,-0.6517218,32.12678,0.78132737,7.0375977,-1.3545067,-4.4091487,8.705254,-21.432934,19.804953,-11.161789,52.906033,0.9036312,4.7896643,7.0520277,-12.839199,-23.551128,11.423505,57.222286,23.815641,-10.754157,-3.5485508
29,3.1799659729003906,3.7753984928131104,76.40128326416016,-0.9601158950242579,-3.0102682416708797,156.47882339889193,-1.8700172,18.449114,38.676914,36.72016,-23.391695,-3.6626768,-23.885633,-10.463453,-0.5135468,32.192173,0.60002273,6.997979,-1.3905413,-4.3920503,8.714519,-21.442854,19.849348,-11.1957035,52.883354,0.85120165,4.770981,7.0082507,-12.811022,-23.567377,11.383382,57.097576,23.839455,-10.737089,-3.5334823
30,3.2033681869506836,3.997116804122925,76.35794067382812,-0.887710461022876,-2.983459092990214,156.50872731894327,-1.8994232,18.587242,38.599045,36.853283,-23.38028,-3.8318477,-23.981592,-10.635284,-0.40859893,32.26082,0.38261124,6.9373918,-1.4315423,-4.3736124,8.715915,-21.454872,19.875858,-11.212081,52.876316,0.8345774,4.7500577,6.9512124,-12.795782,-23.575771,11.355474,57.005318,23.877743,-10.722244,-3.5295935
31,3.2104995250701904,4.225129127502441,76.31793975830078,-0.8073855389566738,-2.9562648427834355,156.5519206484068,-1.936487,18.720724,38.506996,36.99561,-23.369497,-4.00306,-24.074322,-10.813067,-0.29597613,32.318703,0.12749738,6.8704658,-1.471812,-4.3616176,8.721697,-21.46735,19.905132,-11.228869,52.866173,0.82270575,4.7279,6.894205,-12.773211,-23.583298,11.319712,56.911163,23.918028,-10.701208,-3.5303466
32,3.213205575942993,4.46691370010376,76.2722396850586,-0.715886080127458,-2.9305451431592098,156.61079324311174,-1.9864306,18.850142,38.395046,37.159893,-23.361557,-4.1703115,-24.157026,-10.9800005,-0.13553481,32.352676,-0.16852406,6.8107224,-1.518552,-4.3567266,8.729099,-21.482544,19.930098,-11.245208,52.86271,0.8025266,4.7030625,6.85886,-12.758948,-23.587929,11.2851095,56.82923,23.946169,-10.672424,-3.538687
33,3.2165467739105225,4.713650226593018,76.21665954589844,-0.6130024900496369,-2.9077224032174502,156.6831253398339,-2.0516675,18.980503,38.26343,37.35862,-23.358858,-4.3299136,-24.2331,-11.132154,0.08875901,32.36673,-0.54455215,6.764195,-1.568247,-4.3593655,8.744609,-21.50172,19.956896,-11.266737,52.85685,0.7608018,4.6786184,6.847498,-12.748052,-23.591137,11.241813,56.742554,23.960592,-10.622185,-3.5551996
34,3.228566884994507,4.9728684425354,76.15558624267578,-0.5005303423159413,-2.8865122330072173,156.76844930998135,-2.1298127,19.110523,38.114433,37.583607,-23.360317,-4.486131,-24.303759,-11.278213,0.35339147,32.363514,-0.9851714,6.7233024,-1.6239684,-4.365754,8.762006,-21.524044,19.979113,-11.285347,52.856407,0.7128281,4.6526756,6.8512106,-12.749825,-23.591824,11.199106,56.66968,23.968557,-10.558093,-3.5796158
35,3.2332677841186523,5.2269086837768555,76.09423828125,-0.3774395850228085,-2.8649790434306834,156.87253708619727,-2.2157202,19.22876,37.94688,37.810688,-23.361143,-4.6446443,-24.362267,-11.420086,0.6403887,32.33546,-1.4152557,6.680733,-1.6886377,-4.3775735,8.776726,-21.542631,19.991032,-11.29843,52.86227,0.67176217,4.6223617,6.871294,-12.7505865,-23.591085,11.168401,56.609177,23.971167,-10.501873,-3.6119742
36,3.2319421768188477,5.49144983291626,76.02978515625,-0.2419741873219528,-2.841444375441134,157.00145283989983,-2.3049138,19.323864,37.759823,38.017094,-23.35721,-4.811086,-24.402164,-11.56304,0.9325531,32.27519,-1.7598246,6.6285954,-1.733651,-4.4197283,8.80313,-21.57203,20.030218,-11.35002,52.862953,0.6243629,4.586003,6.898707,-12.690604,-23.583214,11.094533,56.510983,23.95557,-10.47065,-3.6369474
37,3.225337266921997,5.76653528213501,75.96699523925781,-0.09174623510208832,-2.8162721821642664,157.15316951906982,-2.3911982,19.38895,37.556908,38.193142,-23.348581,-4.985488,-24.44605,-11.709534,1.2330378,32.209187,-1.9621433,6.467714,-1.8045121,-4.46449,8.815481,-21.580967,20.04061,-11.373031,52.874836,0.6080194,4.5352683,6.960097,-12.645093,-23.578163,11.075422,56.45702,23.938955,-10.484003,-3.671564
38,3.227839946746826,6.051656723022461,75.89515686035156,0.07249663555079484,-2.790519944531495,157.32584387796317,-2.478248,19.430138,37.3378,38.350777,-23.336384,-5.1652894,-24.490675,-11.858808,1.549525,32.13506,-2.076349,6.233845,-1.8691634,-4.5298142,8.828654,-21.594788,20.054567,-11.415391,52.893265,0.5942005,4.4754424,7.0464478,-12.570556,-23.566813,11.047578,56.39874,23.909365,-10.524366,-3.7081697
39,3.231823444366455,6.343392848968506,75.82353973388672,0.2441770380985162,-2.762399600746134,157.52498136698273,-2.5781696,19.461115,37.09424,38.507195,-23.32186,-5.3522954,-24.485174,-12.001314,1.8662387,31.993717,-2.1883428,6.120696,-1.9304405,-4.607896,8.840706,-21.618954,20.070675,-11.474992,52.92622,0.584455,4.415201,7.126174,-12.464254,-23.545681,11.005084,56.333027,23.871136,-10.575072,-3.747145
40,3.234787940979004,6.63983678817749,75.74681854248047,0.41608650954570525,-2.730309870159275,157.7566734498335,-2.7040339,19.495651,36.816715,38.67877,-23.305698,-5.5483036,-24.377996,-12.133651,2.1667635,31.72521,-2.3844981,6.3224635,-2.0002382,-4.682262,8.849639,-21.641218,20.083351,-11.534466,52.966106,0.5875407,4.3632565,7.166253,-12.343882,-23.518503,10.952111,56.274586,23.832212,-10.619581,-3.7862666
41,3.2338168621063232,6.9448561668396,75.6649169921875,0.5984045298735404,-2.6968108956817334,158.03287193133423,-2.856103,19.518642,36.498318,38.864407,-23.287697,-5.7531443,-24.108648,-12.265138,2.465026,31.22154,-2.6552672,7.0319033,-2.0916398,-4.7620625,8.855541,-21.65781,20.093367,-11.584063,53.010094,0.61518556,4.3255463,7.1408367,-12.20929,-23.48336,10.893148,56.23707,23.801338,-10.659565,-3.8260045
42,3.237276554107666,7.265166759490967,75.57879638671875,0.7916768373836631,-2.6624156037651097,158.34704236602082,-3.0278475,19.527258,36.145744,39.056618,-23.267338,-5.9658237,-23.717764,-12.404166,2.755752,30.540476,-2.9640543,8.095322,-2.2031655,-4.8458962,8.859228,-21.66515,20.09958,-11.621819,53.05465,0.6631272,4.295902,7.071598,-12.060521,-23.448586,10.836503,56.212425,23.776812,-10.700928,-3.866351
43,3.2273621559143066,7.598196029663086,75.49613952636719,0.9755741348193318,-2.6223631856847973,158.67800244756,-3.2228994,19.553337,35.76994,39.262905,-23.246113,-6.1877365,-23.306633,-12.531377,2.9930177,29.873358,-3.3573167,9.187349,-2.3058543,-4.921295,8.859875,-21.673346,20.105171,-11.674293,53.107086,0.7065118,4.2662673,7.0016074,-11.900567,-23.403906,10.766245,56.18057,23.739044,-10.736619,-3.9080236
44,3.220654010772705,7.930012226104736,75.400634765625,1.1276168702627045,-2.5711678287033584,159.00400902979584,-3.4455633,19.630531,35.381107,39.489777,-23.224483,-6.420259,-22.978554,-12.624473,3.139778,29.41555,-3.881563,9.986572,-2.3883393,-4.958764,8.857686,-21.667805,20.10815,-11.73906,53.153076,0.7257901,4.228385,6.9693193,-11.743804,-23.363482,10.694037,56.11916,23.68208,-10.756105,-3.9494421
45,3.2106659412384033,8.273238182067871,75.30139923095703,1.2413869091729763,-2.5135588579852164,159.3303994616547,-3.6977055,19.769644,34.968735,39.75255,-23.211235,-6.6671243,-22.714947,-12.670246,3.1966496,29.183502,-4.620659,10.41399,-2.4431386,-4.954228,8.853712,-21.664806,20.109522,-11.852368,53.204037,0.70276594,4.175661,6.9881115,-11.568887,-23.324041,10.601811,56.0151,23.604712,-10.748954,-3.9751709
46,3.2072086334228516,8.617122650146484,75.19640350341797,1.3282207269760666,-2.4497717846409297,159.66473563051474,-3.9773014,19.952042,34.531254,40.041626,-23.202412,-6.926944,-22.478655,-12.679817,3.1850364,29.08934,-5.5274734,10.639975,-2.476411,-4.9169016,8.849094,-21.66414,20.107986,-12.004073,53.259148,0.650532,4.114118,7.035808,-11.370866,-23.29086,10.489613,55.874218,23.51345,-10.721353,-3.9887538
47,3.2248151302337646,8.969138145446777,75.12387084960938,1.3917699363510108,-2.3668696604320947,159.98854486171209,-4.284813,20.169695,34.09065,40.332275,-23.183672,-7.194119,-22.347528,-12.65558,3.1055255,29.179317,-6.4549227,10.720819,-2.5102494,-4.8415933,8.84191,-21.613443,20.103256,-12.100832,53.277874,0.6053179,4.0536647,7.095552,-11.211823,-23.277506,10.414807,55.724426,23.413727,-10.691168,-4.021261
48,3.2600646018981934,9.333110809326172,75.04939270019531,1.4370855926528165,-2.252145789815677,160.283298127168,-4.618911,20.412643,33.66982,40.595592,-23.137993,-7.46249,-22.397911,-12.602863,2.9580543,29.497112,-7.2550197,10.713535,-2.4582202,-4.754906,8.833504,-21.598825,20.078592,-12.20631,53.33109,0.5712345,4.004497,7.173629,-11.036299,-23.263367,10.280746,55.52961,23.266508,-10.677129,-4.0985065
49,3.2920103073120117,9.703014373779297,74.97903442382812,1.4575093020190946,-2.0829464460840716,160.55031586942738,-5.0183363,20.696068,33.260433,40.851273,-23.067196,-7.735498,-22.71953,-12.519925,2.712552,30.155693,-7.8933077,10.593957,-2.413851,-4.6345377,8.80084,-21.515379,20.067947,-12.209285,53.33575,0.5776154,4.008973,7.238753,-10.967369,-23.263573,10.257278,55.398975,23.144197,-10.705628,-4.2399774
50,3.327039957046509,10.06691837310791,74.90864562988281,1.4529780507284535,-1.8716946089500341,160.7972629781447,-5.4711742,21.01845,32.852848,41.103226,-22.976833,-8.014464,-23.246431,-12.406147,2.3810856,31.094854,-8.446441,10.34559,-2.3086662,-4.471355,8.755736,-21.436884,20.013468,-12.193009,53.346718,0.62496495,4.048043,7.3166494,-10.880313,-23.281666,10.211039,55.235004,22.999157,-10.755522,-4.4243374
51,3.365748643875122,10.431894302368164,74.84264373779297,1.4371803134313426,-1.6604543136557939,161.01565587962799,-5.90149,21.351593,32.468933,41.309807,-22.862028,-8.291582,-23.822931,-12.266663,2.0235848,32.1047,-8.935655,10.036437,-2.176969,-4.274379,8.719586,-21.34238,19.907297,-12.095945,53.37651,0.6862057,4.038357,7.4266796,-10.843915,-23.332054,10.162296,55.040718,22.797388,-10.7878685,-4.639689
52,3.4213333129882812,10.79831600189209,74.79322814941406,1.4246189754447136,-1.4902496929496634,161.19654456085598,-6.2329364,21.66641,32.13221,41.427242,-22.716099,-8.558504,-24.295244,-12.106035,1.7009926,32.974556,-9.38069,9.735769,-2.0363588,-4.087257,8.7313795,-21.169144,19.79652,-11.867827,53.362656,0.73247385,3.9030948,7.5777674,-10.87006,-23.384556,10.06422,54.754265,22.46349,-10.761781,-4.871615
53,3.4901182651519775,11.167303085327148,74.75289154052734,1.4089422242786107,-1.3751097608217722,161.3057927177091,-6.4246936,21.979307,31.877256,41.44361,-22.54075,-8.817828,-24.633066,-11.888728,1.4405131,33.655125,-9.764691,9.445622,-1.8659198,-3.9112077,8.810331,-20.894045,19.671835,-11.448924,53.31595,0.780282,3.572654,7.82662,-10.9960785,-23.426693,9.892047,54.360947,21.935036,-10.662811,-5.14718
54,3.5510354042053223,11.54276180267334,74.72901153564453,1.3857327828826793,-1.2919866259156547,161.35871943291556,-6.524187,22.298962,31.683119,41.38317,-22.338112,-9.071845,-24.916151,-11.626404,1.206235,34.256104,-10.083814,9.135199,-1.6696578,-3.7382746,8.932374,-20.541769,19.531244,-10.879011,53.246815,0.837604,3.1058533,8.147981,-11.211198,-23.459316,9.675198,53.89842,21.259556,-10.51351,-5.4644794
55,3.5910117626190186,11.918869972229004,74.71847534179688,1.3720008526996605,-1.2269969303632395,161.4211723958773,-6.5856647,22.585287,31.490599,41.256596,-22.10274,-9.311455,-25.15154,-11.379068,0.96138835,34.801243,-10.374142,8.823823,-1.4920548,-3.5769732,9.067656,-20.156336,19.393085,-10.267582,53.136147,0.8652949,2.6151044,8.436287,-11.449307,-23.48782,9.443796,53.38694,20.532595,-10.328926,-5.7652946
56,3.635857343673706,12.287904739379883,74.71805572509766,1.3850393997449408,-1.1663063922618953,161.5590664039311,-6.663847,22.79795,31.240398,41.07575,-21.829704,-9.527848,-25.34847,-11.211695,0.6716044,35.31845,-10.675037,8.531116,-1.3760434,-3.4447832,9.191117,-19.772505,19.29587,-9.729329,52.95007,0.8131719,2.2133675,8.581721,-11.636268,-23.514097,9.21939,52.835552,19.84586,-10.125474,-5.989854
57,3.6901803016662598,12.660913467407227,74.71759033203125,1.445564326325066,-1.1189200072249337,161.77077171810203,-6.738979,22.907152,30.942644,40.82952,-21.51299,-9.709283,-25.501898,-11.149018,0.3498729,35.81884,-10.996249,8.269261,-1.3337033,-3.3583,9.307007,-19.370136,19.248789,-9.22921,52.641617,0.6694052,1.9384748,8.510196,-11.777999,-23.533709,8.981763,52.21415,19.159948,-9.879865,-6.1185102
58,3.7507545948028564,13.029257774353027,74.72461700439453,1.5388141522703258,-1.0884189533579327,162.0275914571667,-6.791808,22.94165,30.623018,40.51673,-21.15714,-9.863923,-25.607927,-11.153609,0.0069187414,36.285378,-11.316869,8.025121,-1.3535129,-3.303104,9.430399,-18.918982,19.240091,-8.706232,52.217216,0.46234545,1.7288481,8.288825,-11.915346,-23.551163,8.736177,51.52664,18.447157,-9.592974,-6.181756
59,3.815262794494629,13.395683288574219,74.73667907714844,1.630231222586041,-1.052521467113822,162.35494085076948,-6.881148,22.944275,30.237923,40.163162,-20.771711,-10.011532,-25.678608,-11.197313,-0.39289603,36.705917,-11.631296,7.7809296,-1.4336503,-3.2584965,9.548738,-18.44961,19.286219,-8.260555,51.736782,0.18849735,1.5483241,8.022609,-12.018968,-23.576511,8.542865,50.83483,17.826818,-9.320195,-6.198596
60,3.876039505004883,13.762450218200684,74.75837707519531,1.6853363164105895,-0.9887086675163771,162.77812796438414,-7.0640774,22.959358,29.746275,39.79545,-20.36776,-10.172595,-25.724295,-11.251869,-0.88612306,37.067123,-11.934251,7.5183277,-1.5420811,-3.2008307,9.643184,-18.042883,19.379116,-8.035306,51.31257,-0.15712436,1.3582456,7.830037,-12.026555,-23.615303,8.426591,50.19069,17.407557,-9.117555,-6.1920056
61,3.9456703662872314,14.136054992675781,74.78729248046875,1.6885973107388272,-0.8949513634164168,163.32647006550738,-7.3630843,23.000353,29.108557,39.420757,-19.94562,-10.357185,-25.727589,-11.315656,-1.5030603,37.357323,-12.230182,7.2330155,-1.6929222,-3.10915,9.709319,-17.716892,19.525423,-8.111194,50.970905,-0.62369156,1.1479281,7.7341027,-11.9113655,-23.690636,8.423885,49.58655,17.256842,-8.992817,-6.1533155
62,4.018123626708984,14.524693489074707,74.81533813476562,1.6609952545744227,-0.7813112496136544,163.978968207056,-7.743426,23.041473,28.355352,39.024563,-19.501116,-10.553144,-25.687412,-11.401597,-2.217345,37.586613,-12.521958,6.9349675,-1.8824403,-2.9971337,9.760189,-17.445545,19.721983,-8.414247,50.663673,-1.1971964,0.9373826,7.674727,-11.68641,-23.803465,8.493843,48.981922,17.30628,-8.916548,-6.0730247
63,4.088063716888428,14.920501708984375,74.84552764892578,1.6227704863624448,-0.64386268888232,164.6850571995126,-8.176805,23.06802,27.549082,38.59848,-19.03707,-10.74748,-25.639914,-11.502605,-2.980905,37.77371,-12.800869,6.6273203,-2.0812469,-2.8840568,9.804886,-17.204826,19.939947,-8.8024,50.36049,-1.7661078,0.7328449,7.6399775,-11.383594,-23.93361,8.581268,48.398884,17.463453,-8.888902,-5.9757504
64,4.163956642150879,15.32125473022461,74.87804412841797,1.5942575660346692,-0.47932047503847847,165.39432243648764,-8.635269,23.067923,26.752594,38.136127,-18.557323,-10.926844,-25.622368,-11.612518,-3.7457356,37.937237,-13.057451,6.312662,-2.26051,-2.787617,9.847582,-16.975122,20.1407,-9.132567,50.041126,-2.2136185,0.54026264,7.6236405,-11.043901,-24.05291,8.635754,47.87367,17.63254,-8.912369,-5.890245
65,4.255481243133545,15.715514183044434,74.91123962402344,1.5766822543567955,-0.282936406804548,166.1080705466111,-9.121883,23.041632,25.962826,37.6335,-18.063229,-11.083164,-25.639029,-11.732136,-4.5157137,38.07666,-13.290364,5.987162,-2.4163055,-2.7082329,9.873072,-16.76476,20.30672,-9.415299,49.7307,-2.517494,0.35517454,7.6456094,-10.665792,-24.153456,8.678899,47.461323,17.838232,-9.003082,-5.808383
66,4.348474979400635,16.10524559020996,74.9483642578125,1.5618074619194877,-0.05802783883540159,166.84814459778363,-9.645852,22.99702,25.152298,37.09567,-17.553867,-11.224956,-25.671152,-11.863622,-5.311682,38.18313,-13.503783,5.6510487,-2.5621352,-2.6344075,9.877114,-16.589691,20.442146,-9.710902,49.449654,-2.7268596,0.17480706,7.709934,-10.241227,-24.241955,8.730347,47.146576,18.10855,-9.157103,-5.725107
67,4.45533561706543,16.49275779724121,74.9835433959961,1.5542996805104685,0.186976578461808,167.5956220921908,-10.187047,22.932175,24.347775,36.525105,-17.02589,-11.363372,-25.724453,-12.003869,-6.110199,38.266266,-13.696947,5.3127246,-2.6955776,-2.566298,9.879738,-16.441807,20.542835,-9.951626,49.17314,-2.8330832,0.007366035,7.7877455,-9.802864,-24.30988,8.738032,46.861862,18.352459,-9.34798,-5.674575
68,4.5496063232421875,16.872726440429688,75.03292083740234,1.5587113404964539,0.4433576166931689,168.3310886694857,-10.727101,22.845873,23.57601,35.925594,-16.476263,-11.509914,-25.803001,-12.149703,-6.8883724,38.332886,-13.868352,4.9803967,-2.8182924,-2.505529,9.896766,-16.313892,20.599566,-10.06426,48.88327,-2.8224301,-0.13899405,7.85247,-9.394264,-24.34114,8.657088,46.55393,18.47477,-9.55146,-5.6959047
69,4.664910316467285,17.25116729736328,75.07382202148438,1.5835712836788898,0.7169718839656478,169.05152906520223,-11.275781,22.72848,22.83727,35.299976,-15.883222,-11.637868,-25.920105,-12.307174,-7.635941,38.385963,-14.017775,4.6574063,-2.9343212,-2.4620821,9.92723,-16.195137,20.607819,-10.007079,48.571,-2.6601167,-0.26778448,7.9026017,-9.02421,-24.329226,8.49097,46.22528,18.455751,-9.788007,-5.8177834
70,4.793661594390869,17.617467880249023,75.11156463623047,1.6248220666823356,1.0091616062090698,169.76673595614488,-11.836859,22.585835,22.120115,34.644554,-15.254634,-11.751272,-26.0689,-12.476427,-8.366899,38.420586,-14.145784,4.338893,-3.0287988,-2.4383435,9.968201,-16.106302,20.579077,-9.840659,48.253082,-2.3665698,-0.3808888,7.9504304,-8.653796,-24.273092,8.233925,45.884666,18.333963,-10.060701,-6.0110397
71,4.942007064819336,17.96343231201172,75.14970397949219,1.6669179260235674,1.3049288064111444,170.4766922238797,-12.383448,22.438866,21.432478,33.953007,-14.632923,-11.907639,-26.22614,-12.644475,-9.094411,38.436447,-14.253796,4.0207,-3.1114092,-2.4164958,10.011113,-16.065607,20.506557,-9.611581,47.963867,-1.996713,-0.4695225,7.9979315,-8.32232,-24.163559,7.9029512,45.56062,18.113733,-10.326187,-6.245932
72,5.091713905334473,18.3077335357666,75.185302734375,1.693143612397262,1.589215390785686,171.180934558244,-12.887809,22.308317,20.782093,33.21612,-14.060571,-12.163595,-26.367832,-12.797334,-9.832011,38.431313,-14.342249,3.6985881,-3.1924868,-2.3715596,10.069469,-16.055763,20.4204,-9.362589,47.672764,-1.6322986,-0.5219624,8.0289545,-8.036199,-24.038408,7.5058727,45.219055,17.830292,-10.530893,-6.4735417
73,5.241693019866943,18.644168853759766,75.22099304199219,1.6931475585172568,1.8571557022719403,171.87895855197164,-13.332089,22.2023,20.167353,32.403904,-13.529158,-12.589715,-26.483011,-12.925007,-10.590131,38.398827,-14.408285,3.3670044,-3.2668,-2.2919083,10.158208,-16.078262,20.321907,-9.07072,47.356953,-1.2614514,-0.5285196,8.0340185,-7.7940626,-23.897095,6.9851856,44.82614,17.443697,-10.654347,-6.6891894
74,5.402787685394287,18.979318618774414,75.25314331054688,1.6765058673005142,2.117074213205064,172.5705592297505,-13.73191,22.1112,19.584547,31.525251,-13.024096,-13.135469,-26.585161,-13.035816,-11.359933,38.340508,-14.452104,3.0296245,-3.3312628,-2.189993,10.272288,-16.13154,20.207056,-8.723927,47.02104,-0.85863835,-0.4971768,8.0183,-7.586831,-23.73468,6.3544254,44.39249,16.960773,-10.723421,-6.911017
75,5.568120002746582,19.307031631469727,75.28594970703125,1.657821521894071,2.3742829048629246,173.25598183960605,-14.112873,22.028423,19.039122,30.633244,-12.577667,-13.675772,-26.688856,-13.143799,-12.125576,38.2697,-14.479852,2.6958442,-3.3872106,-2.084163,10.393208,-16.214808,20.09077,-8.393134,46.69718,-0.47773394,-0.4429889,7.992557,-7.3998513,-23.567142,5.7049637,43.95172,16.466782,-10.758869,-7.1262236
76,5.738298416137695,19.628755569458008,75.3184585571289,1.651878038236318,2.6342061540506285,173.93556108142104,-14.503185,21.945086,18.538189,29.783705,-12.219253,-14.086354,-26.808449,-13.263449,-12.871009,38.198097,-14.496424,2.375028,-3.4384768,-1.9918541,10.506617,-16.317993,19.994871,-8.1452055,46.403324,-0.17676486,-0.38046008,7.963969,-7.212157,-23.417223,5.128716,43.52639,16.053162,-10.780503,-7.3189244
77,5.918198585510254,19.944467544555664,75.34904479980469,1.6593683644451618,2.8977485348525445,174.6131242948926,-14.904464,21.848791,18.071657,28.95118,-11.951729,-14.369906,-26.945965,-13.397733,-13.5966425,38.127106,-14.500829,2.071391,-3.4924152,-1.9132137,10.615845,-16.430426,19.93163,-7.9800253,46.11191,0.025049308,-0.2918779,7.912398,-7.0215607,-23.296932,4.642504,43.113945,15.735131,-10.780052,-7.4818263
78,6.093564033508301,20.250043869018555,75.37924194335938,1.673010796841976,3.1620182478726835,175.2872326808392,-15.304947,21.746,17.64222,28.11949,-11.757674,-14.580636,-27.093655,-13.538979,-14.309744,38.04996,-14.490229,1.7791044,-3.5501812,-1.8394761,10.730646,-16.546679,19.89814,-7.8612776,45.806026,0.1536897,-0.1761044,7.835888,-6.8380733,-23.201902,4.2049603,42.697872,15.475589,-10.750436,-7.6201625
79,6.27672815322876,20.54575538635254,75.40485382080078,1.6969917726274615,3.4263705813250174,175.9506853819467,-15.716787,21.652601,17.277182,27.360703,-11.633797,-14.673665,-27.255106,-13.688399,-15.003215,37.9715,-14.469647,1.4926028,-3.606773,-1.7765954,10.845196,-16.66263,19.891115,-7.8006606,45.519665,0.22069272,-0.071949996,7.769592,-6.657596,-23.132896,3.8207936,42.279724,15.285089,-10.713996,-7.7377243
80,6.467381954193115,20.828859329223633,75.43104553222656,1.735796913911153,3.690248158902357,176.59669729929064,-16.15547,21.583212,17.002821,26.75312,-11.580542,-14.605574,-27.432014,-13.848028,-15.671332,37.894066,-14.443986,1.2064359,-3.6556127,-1.7303702,10.953052,-16.777098,19.904358,-7.8111343,45.28958,0.23916076,-0.018173685,7.7496037,-6.473542,-23.08864,3.4926503,41.86005,15.172869,-10.69317,-7.8387046
81,6.673111915588379,21.101852416992188,75.45089721679688,1.7974854261124922,3.9601683244288397,177.22582784704377,-16.653364,21.532495,16.781809,26.28608,-11.619806,-14.264436,-27.638662,-14.0252495,-16.308216,37.823483,-14.415154,0.9162245,-3.6861463,-1.7116657,11.050147,-16.910606,19.93971,-7.9354134,45.149197,0.19771937,-0.031573202,7.79939,-6.271099,-23.070274,3.2337735,41.437614,15.179464,-10.693814,-7.925502
82,6.874505519866943,21.375261306762695,75.4705810546875,1.8785666672159993,4.234371104516828,177.84181615810135,-17.19729,21.4885,16.615261,25.933573,-11.748442,-13.709275,-27.870623,-14.218921,-16.918346,37.75783,-14.381226,0.6258383,-3.6921606,-1.7182381,11.143227,-17.0687,20.005028,-8.172472,45.075516,0.08570566,-0.08916095,7.8948956,-6.0377,-23.077452,3.0185826,40.995502,15.286905,-10.703156,-7.990493
83,7.079981327056885,21.646785736083984,75.49411010742188,1.9655649288451775,4.5005900679123405,178.44237676871413,-17.733883,21.45844,16.587618,25.74712,-11.926446,-13.152621,-28.102774,-14.415492,-17.509062,37.68673,-14.338479,0.3421008,-3.7041972,-1.7284402,11.232567,-17.203861,20.080713,-8.426285,45.01798,-0.058362577,-0.17115815,8.003785,-5.8168626,-23.104063,2.8386056,40.554577,15.413301,-10.719367,-8.036782
84,7.280372142791748,21.917110443115234,75.51943969726562,2.0449014597430244,4.746406279371626,179.0247170897721,-18.20762,21.454119,16.783726,25.776403,-12.110444,-12.805716,-28.311584,-14.601453,-18.086973,37.603344,-14.285202,0.072070494,-3.7253394,-1.7251638,11.322053,-17.29918,20.151756,-8.636073,44.944443,-0.20494604,-0.25729555,8.097334,-5.6156654,-23.135752,2.6446571,40.107693,15.468991,-10.738985,-8.061577
85,7.485274791717529,22.170595169067383,75.54479217529297,2.105907108804175,4.9738534937206484,179.59281015544002,-18.59102,21.525055,17.333916,25.980646,-12.2631645,-12.799944,-28.492863,-14.7674265,-18.664413,37.49849,-14.217182,-0.18702364,-3.7557461,-1.6968187,11.413821,-17.363491,20.213827,-8.805639,44.86744,-0.35272774,-0.3548994,8.177404,-5.4321847,-23.169233,2.4267955,39.65379,15.428681,-10.783623,-8.049982
86,7.694391250610352,22.415678024291992,75.56175231933594,2.1582869393394057,5.1880464645826345,-179.8531587933141,-18.918705,21.656124,18.156136,26.362936,-12.418345,-12.99278,-28.658854,-14.923988,-19.235334,37.378452,-14.137027,-0.43721795,-3.7887216,-1.6550369,11.5037,-17.41099,20.269531,-8.96697,44.807198,-0.5127552,-0.47088623,8.258889,-5.25762,-23.206978,2.2030892,39.19483,15.336223,-10.848121,-8.009233
87,7.9007568359375,22.64267921447754,75.57743835449219,2.218295813466467,5.381868580635769,-179.3223666821628,-19.226692,21.767849,19.015469,27.034672,-12.637363,-13.182482,-28.811611,-15.0844345,-19.774677,37.258087,-14.049842,-0.6707299,-3.8274512,-1.618242,11.582681,-17.42522,20.310764,-9.0877905,44.74353,-0.6667204,-0.58435106,8.333604,-5.1081705,-23.241415,1.984665,38.7456,15.204656,-10.890472,-7.975147
88,8.09850025177002,22.85550880432129,75.59764862060547,2.300566516750987,5.547239448908942,-178.82394201067967,-19.55048,21.78047,19.676147,28.095757,-12.982863,-13.171853,-28.952757,-15.262318,-20.260004,37.153275,-13.962067,-0.8800706,-3.8810806,-1.6049769,11.639103,-17.38436,20.329868,-9.130893,44.656334,-0.7957753,-0.6742815,8.394098,-5.0111446,-23.261665,1.793364,38.332924,15.04708,-10.869889,-7.9863605
89,8.306072235107422,23.051652908325195,75.61371612548828,2.4166864730656807,5.684608297899586,-178.36470718935018,-19.92395,21.680065,20.111166,29.658455,-13.490074,-12.864803,-29.08918,-15.467866,-20.677143,37.06586,-13.871459,-1.0602793,-3.8976836,-1.6251328,11.692427,-17.321787,20.336857,-9.133944,44.53293,-0.92480254,-0.72885305,8.428258,-4.8871956,-23.28026,1.540174,37.85569,14.863888,-10.74952,-8.042048
90,8.507643699645996,23.23978614807129,75.63829040527344,2.5524610284797093,5.795861495286513,-177.93960583417902,-20.312311,21.50359,20.436,31.617163,-14.107971,-12.385687,-29.21744,-15.688611,-21.04124,36.98964,-13.776267,-1.2169437,-3.9442627,-1.6712505,11.718648,-17.195122,20.32646,-9.047449,44.38979,-1.0377983,-0.7622176,8.449176,-4.8471513,-23.28195,1.3445209,37.434196,14.651096,-10.570306,-8.152994
91,8.688929557800293,23.40999412536621,75.66545867919922,2.6846485474980937,5.875765067465138,-177.54028138369756,-20.6465,21.240881,20.632,33.73512,-14.767336,-11.8723345,-29.318289,-15.90273,-21.37526,36.918747,-13.680199,-1.3582462,-3.9747033,-1.7101464,11.741833,-17.044842,20.296984,-8.932884,44.23831,-1.126652,-0.78765845,8.463106,-4.79563,-23.27667,1.1194448,37.012684,14.406909,-10.362583,-8.2551365
92,8.860082626342773,23.569583892822266,75.6868667602539,2.7919814886589207,5.919859033802531,-177.1573330302125,-20.86473,20.885807,20.678116,35.795757,-15.410934,-11.45871,-29.37478,-16.09065,-21.701744,36.84952,-13.587857,-1.492029,-3.9929078,-1.7158636,11.745427,-16.897243,20.230381,-8.828769,44.13581,-1.1780462,-0.8214421,8.495279,-4.740334,-23.263481,0.8959676,36.65725,14.14197,-10.170953,-8.323586
93,9.03337287902832,23.7203369140625,75.70548248291016,2.874364299294588,5.926036713259921,-176.79291507883158,-20.975075,20.424305,20.521103,37.83861,-16.038126,-11.1897135,-29.387308,-16.251745,-22.016493,36.787033,-13.499878,-1.6168958,-4.0353026,-1.6988223,11.730557,-16.691021,20.172626,-8.711459,44.028313,-1.2150141,-0.8578702,8.539273,-4.7320256,-23.249125,0.71918505,36.407257,13.859344,-9.998856,-8.339039
94,9.203409194946289,23.86014747619629,75.72023010253906,2.9411113290235336,5.897302565777557,-176.45028908886246,-21.003489,19.853645,20.192606,39.94699,-16.673218,-10.996071,-29.362896,-16.394636,-22.31151,36.72903,-13.412832,-1.7297279,-4.069813,-1.6570196,11.698328,-16.475689,20.07252,-8.58573,43.955452,-1.2123268,-0.8941975,8.597523,-4.728194,-23.223787,0.53576136,36.21146,13.535813,-9.826357,-8.323356
95,9.363052368164062,23.98851203918457,75.7330322265625,2.9883631171279412,5.838796948768917,-176.12127520153712,-20.922916,19.197678,19.792656,41.9957,-17.312521,-10.833409,-29.300737,-16.51812,-22.599897,36.67082,-13.330328,-1.8352706,-4.1008086,-1.5965531,11.649506,-16.243399,19.963484,-8.455431,43.89921,-1.1891487,-0.93985546,8.6579685,-4.731824,-23.198235,0.3764096,36.07451,13.226716,-9.6632,-8.302051
96,9.512041091918945,24.10784149169922,75.74412536621094,3.011699478448504,5.7553536476247045,-175.79786422064785,-20.705889,18.48804,19.415394,43.860188,-17.952568,-10.652162,-29.198023,-16.619362,-22.895103,36.603134,-13.253353,-1.9383147,-4.1174283,-1.5134978,11.584702,-16.015207,19.843603,-8.328777,43.870934,-1.1417099,-1.0061462,8.714955,-4.7221174,-23.174053,0.2434311,35.984516,12.969623,-9.518276,-8.301745
97,9.65725326538086,24.222888946533203,75.74894714355469,3.0060923790310357,5.647823977466484,-175.48204268813686,-20.342857,17.741386,19.067497,45.550873,-18.618208,-10.443347,-29.049623,-16.692171,-23.20302,36.518967,-13.182052,-2.040445,-4.1113033,-1.4039402,11.499313,-15.788862,19.709608,-8.211405,43.878956,-1.0668691,-1.1115196,8.775438,-4.687018,-23.15413,0.14011408,35.939873,12.782184,-9.388984,-8.337726
98,9.796740531921387,24.320409774780273,75.7557144165039,2.9751376863809393,5.51424244270313,-175.17660160695488,-19.849434,16.94681,18.696602,47.127007,-19.306452,-10.228023,-28.859497,-16.739183,-23.51398,36.42498,-13.115428,-2.1386714,-4.088835,-1.2683846,11.394922,-15.557817,19.558989,-8.097575,43.916767,-0.9652968,-1.2449456,8.83979,-4.637309,-23.136969,0.062004194,35.944347,12.642375,-9.271841,-8.392962
99,9.932147979736328,24.410856246948242,75.7656478881836,2.926561945201691,5.3550377796730615,-174.87465674995138,-19.235092,16.09887,18.305403,48.533386,-19.970625,-9.99842,-28.634954,-16.772985,-23.824322,36.329937,-13.053617,-2.2311845,-4.0605755,-1.1141177,11.279334,-15.338145,19.396107,-7.9828258,43.977333,-0.84137684,-1.3733224,8.894106,-4.589159,-23.123339,0.001955882,35.997868,12.525993,-9.174543,-8.446808
100,10.065651893615723,24.492197036743164,75.77473449707031,2.868061204315275,5.1706528494890875,-174.56909027939278,-18.511028,15.191882,17.896662,49.71745,-20.565521,-9.747703,-28.385174,-16.808222,-24.132063,36.248924,-13.001182,-2.316118,-4.0380898,-0.9479281,11.1614895,-15.143014,19.228222,-7.861189,44.049175,-0.7016285,-1.4636742,8.923026,-4.5594206,-23.112246,-0.045997757,36.10004,12.41053,-9.104754,-8.478075
101,10.200691223144531,24.564035415649414,75.7806625366211,2.798822071500131,4.960647038564134,-174.25379630253343,-17.675114,14.229665,17.47544,50.69233,-21.109833,-9.43547,-28.099533,-16.843897,-24.438576,36.163685,-12.949881,-2.3918593,-4.0281863,-0.7689348,11.041824,-14.964162,19.055323,-7.7193165,44.11956,-0.5275999,-1.5032634,8.919835,-4.5486417,-23.101418,-0.08421893,36.26843,12.294109,-9.082155,-8.4784155
102,10.331758499145508,24.6254825592041,75.78143310546875,2.715315716761249,4.724964142982316,-173.93375303886162,-16.723269,13.219487,17.030106,51.47983,-21.61853,-9.077373,-27.777803,-16.874462,-24.744513,36.075184,-12.901643,-2.4594784,-4.02447,-0.5758273,10.916789,-14.796503,18.87667,-7.5629015,44.195328,-0.32336795,-1.5109376,8.892815,-4.550901,-23.090418,-0.10794531,36.497925,12.187316,-9.096977,-8.460427
103,10.466227531433105,24.67422103881836,75.77823638916016,2.6214806670596693,4.465211659641109,-173.61896109486946,-15.661725,12.156509,16.540918,52.034927,-22.036106,-8.751542,-27.44311,-16.904264,-25.042242,36.016644,-12.867233,-2.5221555,-4.019315,-0.37561104,10.789482,-14.654667,18.702116,-7.4146924,44.29159,-0.13042907,-1.501032,8.848811,-4.5718055,-23.081137,-0.113728285,36.752785,12.085316,-9.112565,-8.433758
104,10.599322319030762,24.717708587646484,75.7660903930664,2.5217122502111295,4.183004488659546,-173.31917605780592,-14.496314,11.034855,15.9902725,52.313004,-22.305193,-8.5362015,-27.119225,-16.938536,-25.324314,36.023983,-12.859241,-2.583452,-4.006149,-0.17772049,10.663756,-14.550742,18.546629,-7.2962584,44.419846,0.0073184622,-1.4874489,8.793539,-4.617517,-23.076115,-0.09772995,36.996704,11.983628,-9.09232,-8.407137
105,10.744178771972656,24.754371643066406,75.74262237548828,2.4259665772372454,3.8733983730241826,-173.03430764475047,-13.195389,9.806527,15.352296,52.25576,-22.348728,-8.599134,-26.801943,-16.990305,-25.579853,36.096405,-12.874813,-2.6396487,-3.9865413,0.008390111,10.542838,-14.477957,18.416374,-7.207381,44.564713,0.07689774,-1.4685867,8.731904,-4.6923604,-23.07553,-0.05972055,37.22495,11.882254,-9.025172,-8.383547
106,10.883987426757812,24.78257179260254,75.71371459960938,2.328401905977714,3.537534182437345,-172.7593601000665,-11.76237,8.496086,14.634899,51.902958,-22.216078,-8.849631,-26.482113,-17.054045,-25.81649,36.218754,-12.909788,-2.6911533,-3.9651718,0.18771294,10.424963,-14.42832,18.310303,-7.136586,44.719925,0.09883956,-1.4382889,8.657779,-4.793972,-23.07719,-6.8142224e-05,37.455048,11.784256,-8.931058,-8.357168
107,11.022831916809082,24.809999465942383,75.6656723022461,2.2104210162603444,3.185812005381076,-172.49778273201477,-10.252707,7.2007523,13.87744,51.34914,-22.044876,-8.978509,-26.174097,-17.106735,-26.051731,36.399452,-12.971474,-2.747462,-3.9322104,0.361253,10.313914,-14.406572,18.265205,-7.1040792,44.891865,0.059167758,-1.4021437,8.55318,-4.9046273,-23.075104,0.06763607,37.665936,11.6940155,-8.818241,-8.314463
108,11.171250343322754,24.84197998046875,75.5990982055664,2.0534781610350192,2.828637111006225,-172.25321101696974,-8.72639,6.015378,13.125722,50.69346,-21.970032,-8.676688,-25.890503,-17.124792,-26.303041,36.644333,-13.065762,-2.818198,-3.8902552,0.5568127,10.200829,-14.430355,18.241318,-7.0977855,45.12482,-0.0076638996,-1.3683368,8.416595,-5.024979,-23.070545,0.15683113,37.861,11.604325,-8.696863,-8.260381
109,11.324263572692871,24.872230529785156,75.51856994628906,1.8599490934012126,2.45695907113206,-172.0264099459629,-7.216798,4.850929,12.273885,50.033688,-21.909435,-7.757933,-25.623743,-17.114553,-26.57036,36.967644,-13.202109,-2.9045541,-3.853715,0.7726992,10.071893,-14.500812,18.234667,-7.1085815,45.45756,-0.09389255,-1.3428524,8.233008,-5.2009797,-23.061274,0.29868716,38.103416,11.501487,-8.571024,-8.191179
110,11.471609115600586,24.897735595703125,75.41802978515625,1.6395274926612662,2.0686563808204856,-171.81627226101713,-5.687118,3.6935835,11.343184,49.30508,-21.834581,-6.4185166,-25.370623,-17.087572,-26.841978,37.363804,-13.376155,-3.0025969,-3.805497,0.9964728,9.944615,-14.612111,18.263056,-7.1482477,45.846806,-0.21651137,-1.317906,8.005827,-5.3878202,-23.048143,0.4562133,38.334904,11.390343,-8.43151,-8.100329
111,11.623034477233887,24.93514060974121,75.29341888427734,1.385597988944482,1.68516017364945,-171.62110978228634,-4.1003385,2.7400005,10.566199,48.354664,-21.974371,-4.929651,-25.148886,-17.028006,-27.119646,37.808006,-13.573282,-3.1138601,-3.7697153,1.2093184,9.816267,-14.726147,18.37163,-7.2068105,46.233063,-0.40271443,-1.2869033,7.7649326,-5.6219296,-23.015022,0.672816,38.57306,11.310094,-8.288049,-8.019307
112,11.774277687072754,24.978939056396484,75.14756774902344,1.0899655218679412,1.3281192177128087,-171.43870830741375,-2.423039,2.1743133,10.167398,47.015984,-22.568394,-3.5794709,-24.977577,-16.91877,-27.40683,38.277298,-13.780146,-3.240068,-3.7213802,1.4294895,9.685805,-14.874946,18.52635,-7.306683,46.615906,-0.6465253,-1.2466413,7.5556283,-5.8600726,-22.971832,0.9175002,38.7697,11.287368,-8.143805,-7.9710226
113,11.927139282226562,25.02410125732422,74.97254943847656,0.7323467710272867,0.9926437743438552,-171.2803319850846,-0.55140865,2.1026034,10.365036,45.108006,-23.81539,-2.452403,-24.85805,-16.735199,-27.703556,38.789463,-14.009428,-3.3832326,-3.659772,1.6755604,9.549282,-15.064674,18.732357,-7.449688,47.01261,-0.9737327,-1.1978885,7.377871,-6.128809,-22.92464,1.235333,38.933384,11.356335,-7.9944673,-7.9753733
114,12.089896202087402,25.07590675354004,74.78152465820312,0.32829532404842804,0.6714348016747536,-171.1412173844031,1.4768503,2.3417065,11.007187,42.713825,-25.541739,-1.4862357,-24.784422,-16.501242,-28.00414,39.356003,-14.267164,-3.5418508,-3.5915997,1.9356328,9.407305,-15.288324,18.990124,-7.6275973,47.425346,-1.3727299,-1.1421056,7.2132745,-6.4290733,-22.872828,1.6167909,39.07464,11.494346,-7.8390126,-8.0143795
115,12.27929973602295,25.142478942871094,74.58419036865234,-0.07936918803489526,0.38409099466276975,-170.9954371285404,3.4808376,2.6592054,11.763784,40.057404,-27.414455,-0.7266518,-24.760805,-16.268,-28.307167,39.936314,-14.52543,-3.7121572,-3.5419614,2.1673324,9.256186,-15.515718,19.288763,-7.821009,47.809204,-1.7930609,-1.0767341,7.07799,-6.746258,-22.8055,2.0139706,39.212166,11.6481,-7.6915193,-8.068429
116,12.472904205322266,25.218788146972656,74.390625,-0.4527004012148227,0.14921277671604985,-170.81932715114564,5.260106,2.8780165,12.285668,37.40606,-29.114483,-0.13283591,-24.791042,-16.079872,-28.61487,40.490158,-14.756645,-3.8914566,-3.5309384,2.3324163,9.09282,-15.7226095,19.612814,-8.013835,48.12552,-2.180852,-0.99977326,6.9905105,-7.0634274,-22.709227,2.3747108,39.364044,11.760437,-7.566093,-8.118969
117,12.670228958129883,25.30428123474121,74.18914031982422,-0.8311442662798226,-0.027801919342071234,-170.6322436558936,6.89122,3.0416706,12.529633,34.492714,-30.682451,0.36679268,-24.881481,-15.877897,-28.943554,41.007286,-14.956654,-4.097229,-3.5459733,2.4664829,8.910639,-15.914709,19.95902,-8.205965,48.377663,-2.528195,-0.9076243,6.9769745,-7.3916817,-22.582123,2.7102537,39.536552,11.817352,-7.463825,-8.161009
118,12.877671241760254,25.402700424194336,73.98918151855469,-1.2212893649016627,-0.15625682631760465,-170.43888222998098,8.4430685,3.2242918,12.684808,31.268515,-32.225338,0.74875164,-25.025976,-15.6576395,-29.290588,41.508095,-15.140418,-4.326001,-3.57939,2.5779934,8.711362,-16.107306,20.329838,-8.40742,48.589355,-2.8580277,-0.8037219,7.023213,-7.732906,-22.427355,3.0357797,39.7203,11.845217,-7.378437,-8.205886
119,13.093670845031738,25.50476837158203,73.80936431884766,-1.5402681519809578,-0.24047888273473889,-170.19514097004472,9.677562,3.352312,12.70698,28.397953,-33.563213,1.0013268,-25.204767,-15.536853,-29.635906,41.984253,-15.300804,-4.5443993,-3.6556396,2.5937834,8.505973,-16.295187,20.716312,-8.622401,48.757263,-3.1642015,-0.6965174,7.088486,-8.050786,-22.236734,3.299819,39.905212,11.844727,-7.312833,-8.259616
120,13.3073091506958,25.578445434570312,73.67704772949219,-1.703705396828141,-0.28610330393164785,-169.85798423339662,10.338748,3.3665416,12.528123,26.593637,-34.541374,1.1368058,-25.401947,-15.633671,-29.957499,42.431065,-15.429921,-4.7181354,-3.7947392,2.4392807,8.304481,-16.48226,21.104568,-8.860933,48.88693,-3.4381971,-0.59427273,7.1347785,-8.30353,-21.997421,3.4441245,40.078472,11.812139,-7.270096,-8.329142
121,13.519109725952148,25.654029846191406,73.587890625,-1.6206349200936325,-0.27503962698998047,-169.42034651632457,10.174072,3.2086453,12.041664,26.351877,-35.093655,1.1801939,-25.687885,-16.059984,-30.194567,42.904938,-15.533202,-4.8312984,-3.9995463,2.022808,8.090898,-16.681248,21.492159,-9.141829,48.971977,-3.683935,-0.4928004,7.165381,-8.486407,-21.69566,3.436763,40.220467,11.748282,-7.2320867,-8.428903
122,13.756720542907715,25.745906829833984,73.52285766601562,-1.3544969272948615,-0.2166125456344727,-168.90616080711422,9.359195,2.939203,11.293178,27.256655,-35.34808,1.1750839,-26.049625,-16.726826,-30.371868,43.38932,-15.609365,-4.9033923,-4.2549596,1.4015547,7.8615475,-16.900213,21.882372,-9.464114,49.02567,-3.9015937,-0.39027813,7.1999564,-8.61611,-21.332766,3.3043454,40.34401,11.64724,-7.204191,-8.552648
123,14.01933479309082,25.84954833984375,73.47845458984375,-1.0528910476983508,-0.15616956953452962,-168.3186549792863,8.277326,2.6765013,10.438643,28.65185,-35.443134,1.1546305,-26.34355,-17.451374,-30.597664,43.765644,-15.637106,-4.951607,-4.555269,0.7289044,7.646514,-17.131199,22.265472,-9.803514,49.078526,-4.0767927,-0.2983978,7.223657,-8.683162,-20.921532,3.0818686,40.48319,11.498589,-7.224574,-8.675478
124,14.27584457397461,25.94173812866211,73.46312713623047,-0.8676536282797404,-0.13492153160220685,-167.6602240466915,7.3147964,2.5443745,9.631476,29.863596,-35.50866,1.1273749,-26.422552,-18.049147,-30.989626,43.91788,-15.59696,-4.9934015,-4.892671,0.16584268,7.477819,-17.367088,22.623995,-10.134714,49.1636,-4.192128,-0.2290107,7.222296,-8.677902,-20.48406,2.808032,40.67265,11.294551,-7.330649,-8.772549
125,14.537556648254395,26.045122146606445,73.48291015625,-0.8425013643152008,-0.1377204775823674,-166.85045495505508,6.4339595,2.5999722,8.839565,30.90572,-35.546326,1.0819961,-26.23078,-18.511272,-31.653315,43.79951,-15.484276,-5.023429,-5.321101,-0.24071053,7.3551564,-17.62312,22.942122,-10.458728,49.302086,-4.224364,-0.19874898,7.1852655,-8.567683,-20.009966,2.4341688,40.92511,10.985768,-7.5622687,-8.84867
126,14.764954566955566,26.145538330078125,73.5343246459961,-0.8985141415953907,-0.14801773641792076,-165.9141180720285,5.48535,2.7635832,8.005864,32.05346,-35.486973,1.0007468,-25.850475,-18.916393,-32.50825,43.481003,-15.309262,-5.03376,-5.821732,-0.5692741,7.262631,-17.908169,23.21749,-10.789833,49.484085,-4.1842475,-0.19790559,7.125006,-8.369722,-19.496225,1.9600925,41.222874,10.591843,-7.889031,-8.915091
127,14.961925506591797,26.245561599731445,73.60941314697266,-1.0056991145212189,-0.20278979193391586,-165.01177502539332,4.680322,2.9696035,7.236501,33.041523,-35.359135,0.88543355,-25.34283,-19.210562,-33.393112,43.019566,-15.075311,-5.037782,-6.279467,-0.8410412,7.217124,-18.191677,23.452976,-11.114359,49.68249,-4.10705,-0.19841792,7.0586543,-8.141611,-18.991154,1.5036217,41.54547,10.217881,-8.241759,-8.954036
128,15.140732765197754,26.33145523071289,73.69680786132812,-1.1338152635737644,-0.34076358658703426,-164.30448488879594,4.2187595,3.162701,6.6359897,33.622887,-35.20023,0.7547651,-24.77236,-19.344364,-34.14241,42.4729,-14.78691,-5.0500093,-6.5840974,-1.0662966,7.2405233,-18.422558,23.649935,-11.403843,49.8495,-4.0296464,-0.17201875,6.9981565,-7.9354835,-18.56616,1.1910266,41.86377,9.984268,-8.549691,-8.941495
129,15.316314697265625,26.397197723388672,73.79762268066406,-1.3113998008622616,-0.6065715318538843,-163.8223274020533,4.207787,3.3818092,6.220442,33.692814,-35.030537,0.6026801,-24.078325,-19.258564,-34.751415,41.799377,-14.432187,-5.07685,-6.713369,-1.202335,7.3841963,-18.567858,23.801662,-11.633195,49.953457,-3.9523885,-0.1144799,6.9374733,-7.7357726,-18.271399,1.0437747,42.147064,9.927531,-8.799227,-8.847417
130,15.490560531616211,26.451629638671875,73.90475463867188,-1.5440808086441262,-0.9683986847292815,-163.482734692348,4.518343,3.6506877,5.9353895,33.412025,-34.83672,0.43716374,-23.255894,-18.992102,-35.290302,40.984367,-14.012375,-5.1094,-6.727691,-1.235917,7.628537,-18.638327,23.898731,-11.804522,50.003742,-3.8587868,-0.04022994,6.8674846,-7.5253687,-18.107517,1.0109912,42.414986,10.008047,-9.0229845,-8.682477
131,15.654550552368164,26.479894638061523,74.01162719726562,-1.766130581675025,-1.3520302445415944,-163.2799480418664,4.9844937,3.8930275,5.7806077,32.941383,-34.61848,0.3029913,-22.452747,-18.649807,-35.704052,40.126617,-13.552205,-5.1397977,-6.6406245,-1.2114027,7.889748,-18.646404,23.920801,-11.918632,50.012615,-3.7467325,0.051005434,6.7966456,-7.3515105,-18.08695,1.1059645,42.711193,10.23003,-9.218065,-8.48061
132,15.813053131103516,26.498079299926758,74.1165771484375,-1.9070182184994486,-1.6833157900890572,-163.20936293652184,5.4396105,4.0258107,5.7559886,32.430107,-34.361176,0.23637192,-21.816929,-18.344564,-35.939415,39.33077,-13.079548,-5.160894,-6.453653,-1.24162,8.068732,-18.645624,23.922573,-12.045374,50.035416,-3.66001,0.16091423,6.7383595,-7.2563705,-18.123756,1.3308035,43.096478,10.56976,-9.390893,-8.292099
133,15.973736763000488,26.494661331176758,74.21702575683594,-1.9365629449383048,-1.944045778035946,-163.32717499958858,5.880484,4.0109224,5.9220147,31.850372,-34.04796,0.24831928,-21.40976,-18.089249,-35.92997,38.61862,-12.589703,-5.174663,-6.1636705,-1.3033257,8.138465,-18.558937,23.880262,-12.122809,50.010307,-3.6012363,0.29749236,6.6780863,-7.3090415,-18.32402,1.8189604,43.620968,11.150161,-9.525066,-8.111655
134,16.13544273376465,26.475048065185547,74.31062316894531,-1.892277061043641,-2.1735666181297044,-163.6179081960495,6.3785014,3.8931906,6.258721,31.142635,-33.685772,0.31689602,-21.143297,-17.836126,-35.721363,37.94024,-12.074396,-5.1847486,-5.752235,-1.3778172,8.15422,-18.415665,23.792305,-12.164443,49.95016,-3.5506957,0.45815486,6.6156425,-7.4517136,-18.64388,2.4854112,44.22876,11.910609,-9.623867,-7.916936
135,16.291061401367188,26.436307907104492,74.40349578857422,-1.8135954682823205,-2.383165034328414,-163.9695994338846,6.88018,3.7211194,6.6453543,30.404974,-33.29954,0.4202564,-20.93746,-17.598352,-35.436817,37.28422,-11.551991,-5.186853,-5.3226013,-1.4341191,8.144828,-18.222322,23.65905,-12.153528,49.85918,-3.4870577,0.6276557,6.565143,-7.6630936,-19.04385,3.2277954,44.892544,12.715554,-9.7094145,-7.7212543
136,16.446441650390625,26.379364013671875,74.49684143066406,-1.7401931892217253,-2.5847557421601737,-164.26987358948767,7.329772,3.5467181,6.961657,29.741346,-32.91688,0.5384726,-20.712534,-17.388868,-35.1988,36.635937,-11.039165,-5.176644,-4.966042,-1.4519117,8.143787,-17.998106,23.482393,-12.080485,49.74649,-3.381422,0.79148376,6.541186,-7.899952,-19.460947,3.9159567,45.563892,13.410052,-9.8042965,-7.5380116
137,16.59641456604004,26.325902938842773,74.58936309814453,-1.6676646929835772,-2.790307232766907,-164.51549557199135,7.7455316,3.3587992,7.199464,29.141356,-32.524155,0.6839245,-20.455381,-17.219366,-35.0041,35.998634,-10.536041,-5.1467366,-4.6893554,-1.4486074,8.160847,-17.736345,23.263927,-11.933024,49.602867,-3.2165384,0.9580888,6.5587826,-8.1666155,-19.863737,4.5305376,46.253395,13.931058,-9.923546,-7.3701253
138,16.738697052001953,26.273420333862305,74.67974090576172,-1.5797052503307798,-2.990326466153146,-164.75779075134065,8.148461,3.137258,7.416154,28.561062,-32.11386,0.8601938,-20.206373,-17.081587,-34.79836,35.37944,-10.036836,-5.1018443,-4.445263,-1.444346,8.174915,-17.44471,23.009686,-11.732076,49.442722,-3.0100904,1.1316209,6.609695,-8.477656,-20.254627,5.127228,46.981544,14.35104,-10.055825,-7.217972
139,16.875259399414062,26.22501564025879,74.76785278320312,-1.498087144674732,-3.165630484188133,-164.9654302267896,8.483728,2.9238803,7.5887856,28.0587,-31.7244,1.0364323,-19.968676,-16.95926,-34.62723,34.771027,-9.549638,-5.0558643,-4.240291,-1.42805,8.172671,-17.170382,22.733797,-11.52668,49.315273,-2.7903512,1.2911216,6.674597,-8.796079,-20.623178,5.6803503,47.708385,14.711823,-10.184854,-7.0919023
140,17.012928009033203,26.191404342651367,74.8505859375,-1.444479661457591,-3.297398079726623,-165.106969362689,8.694236,2.760972,7.693937,27.69394,-31.393785,1.1833555,-19.74846,-16.837593,-34.534657,34.17105,-9.083989,-5.0224133,-4.077123,-1.3944645,8.140299,-16.965178,22.45509,-11.371563,49.273834,-2.5863173,1.4155838,6.7354813,-9.079907,-20.953074,6.15612,48.392727,15.049776,-10.294884,-7.002857
141,17.145036697387695,26.167449951171875,74.92658233642578,-1.4342622991683882,-3.369094590799965,-165.15832453276752,8.736294,2.672266,7.702898,27.506195,-31.131426,1.2920623,-19.539864,-16.70442,-34.556732,33.552856,-8.632065,-5.006028,-3.9714406,-1.3413299,8.06073,-16.834362,22.184092,-11.269664,49.32817,-2.3940556,1.4957287,6.7821503,-9.322053,-21.22677,6.5433035,49.035095,15.378351,-10.385751,-6.967196
142,17.28394889831543,26.157745361328125,74.99767303466797,-1.452637706304105,-3.39454970741853,-165.14139542111187,8.649743,2.6312852,7.6354628,27.453936,-30.91572,1.3805501,-19.343979,-16.570635,-34.660263,32.92641,-8.1910095,-4.9992266,-3.917446,-1.2828381,7.9455857,-16.74945,21.923903,-11.198014,49.447033,-2.2057638,1.5449188,6.8255453,-9.544962,-21.441307,6.856485,49.65778,15.669457,-10.466577,-6.977253
143,17.41581916809082,26.15521812438965,75.06004333496094,-1.4772318816377246,-3.40113539486841,-165.09269702173577,8.497161,2.6081638,7.5409636,27.485739,-30.743128,1.456826,-19.173477,-16.45661,-34.792545,32.341423,-7.780957,-4.9975934,-3.8861635,-1.2364931,7.824374,-16.711958,21.683043,-11.172235,49.622204,-2.046151,1.5763654,6.879328,-9.750641,-21.607784,7.102017,50.251625,15.900006,-10.535343,-7.007014
144,17.547195434570312,26.151565551757812,75.10956573486328,-1.4845599647283862,-3.415777014608234,-165.04932992438725,8.351026,2.5703292,7.4680634,27.530119,-30.599728,1.5317415,-19.0391,-16.378103,-34.896706,31.839266,-7.4117017,-4.996339,-3.8465445,-1.217637,7.7287307,-16.723423,21.470211,-11.209875,49.84193,-1.94207,1.6031768,6.955937,-9.935682,-21.74243,7.2832155,50.80046,16.049847,-10.588634,-7.027815
145,17.679149627685547,26.145395278930664,75.14442443847656,-1.467807003214348,-3.4407424894806202,-165.01023828786865,8.216363,2.5112386,7.4212236,27.582846,-30.490017,1.6092255,-18.946074,-16.345589,-34.968117,31.436275,-7.091921,-4.9888115,-3.7981608,-1.2286744,7.6640644,-16.793236,21.293814,-11.344227,50.123188,-1.9329789,1.6238848,7.058625,-10.095186,-21.85145,7.3726716,51.295204,16.0764,-10.613889,-7.03046
146,17.814268112182617,26.149568557739258,75.17265319824219,-1.4389405556043993,-3.4631379382073484,-164.959264513333,8.060926,2.4469895,7.3769393,27.67368,-30.416422,1.68344,-18.888374,-16.348234,-35.03324,31.109262,-6.8116837,-4.978719,-3.7531803,-1.2613463,7.6176643,-16.914669,21.152445,-11.558188,50.45804,-1.9987617,1.6332387,7.178523,-10.226151,-21.93116,7.374051,51.737625,16.005852,-10.615467,-7.027389
147,17.964099884033203,26.160844802856445,75.18289947509766,-1.4043852772385192,-3.4884454902224,-164.9104723924413,7.893742,2.3814778,7.3427286,27.798119,-30.371435,1.7476327,-18.855612,-16.368753,-35.086918,30.83448,-6.559462,-4.9769,-3.7033932,-1.314174,7.592513,-17.061327,21.036108,-11.786366,50.79741,-2.0706916,1.6388053,7.310106,-10.334987,-21.986994,7.3449244,52.135242,15.923549,-10.615583,-7.023791
148,18.113140106201172,26.172954559326172,75.18663024902344,-1.3702562644309328,-3.522111027592799,-164.87737351544098,7.7233186,2.3188877,7.325887,27.95324,-30.348196,1.7953277,-18.840551,-16.392042,-35.122673,30.59556,-6.322872,-4.9937105,-3.645297,-1.3827447,7.592213,-17.200249,20.93431,-11.956242,51.08666,-2.079802,1.648498,7.4467926,-10.432259,-22.02789,7.3499227,52.495872,15.91685,-10.635926,-7.025017
149,18.266996383666992,26.184404373168945,75.17891693115234,-1.3452546183893355,-3.5723447068031793,-164.86457517039557,7.5620975,2.2712023,7.3307605,28.134937,-30.355402,1.8102753,-18.832289,-16.403906,-35.145115,30.386585,-6.102052,-5.0388594,-3.5751126,-1.4549228,7.630192,-17.33501,20.836143,-12.050246,51.323956,-2.0023358,1.659011,7.5943894,-10.515866,-22.058521,7.3965993,52.81094,16.008017,-10.685094,-7.0464134
150,18.428447723388672,26.18979263305664,75.17062377929688,-1.3235820764877069,-3.634175396155538,-164.86439152199227,7.4024315,2.2322612,7.3526573,28.345194,-30.392862,1.8004835,-18.836899,-16.415388,-35.156033,30.215557,-5.900885,-5.1043005,-3.5018392,-1.536367,7.7024884,-17.467348,20.755781,-12.097031,51.52154,-1.8772388,1.6688045,7.750944,-10.587396,-22.076746,7.461183,53.080235,16.15369,-10.750213,-7.0795336
151,18.598146438598633,26.191722869873047,75.15510559082031,-1.2905729232917103,-3.6924218516741543,-164.8727005649447,7.2205997,2.1800554,7.385536,28.594412,-30.442831,1.7958857,-18.875803,-16.45063,-35.14428,30.093027,-5.717442,-5.174074,-3.423907,-1.6216339,7.7726564,-17.612436,20.650097,-12.109394,51.714348,-1.7079704,1.6835593,7.915424,-10.650779,-22.100668,7.55306,53.332287,16.34342,-10.820992,-7.0992627
152,18.754789352416992,26.183076858520508,75.13617706298828,-1.2306786003847796,-3.7320246691238577,-164.88554415394506,6.9939756,2.0912683,7.423715,28.889894,-30.48557,1.8264627,-18.971457,-16.535652,-35.09776,30.032606,-5.5515885,-5.2319674,-3.3535452,-1.7313951,7.8239145,-17.731071,20.551504,-12.087283,51.855686,-1.5228639,1.7146536,8.066136,-10.711432,-22.13277,7.680251,53.571274,16.57012,-10.88452,-7.070214
153,18.92320442199707,26.165931701660156,75.10625457763672,-1.1335332500858888,-3.7424500139563013,-164.90556829885017,6.700169,1.9534099,7.4682455,29.24952,-30.514658,1.9027194,-19.145792,-16.683947,-35.003532,30.046339,-5.4050193,-5.278338,-3.2930102,-1.8690279,7.8438187,-17.822641,20.438925,-12.004499,51.95522,-1.2911637,1.7646372,8.214989,-10.772396,-22.185009,7.8596697,53.800545,16.870535,-10.9386425,-6.968292
154,19.089197158813477,26.147335052490234,75.0758285522461,-1.009108214349613,-3.733924806356173,-164.93379570520463,6.3565125,1.7804542,7.522214,29.663544,-30.540052,2.0070817,-19.382248,-16.879942,-34.870434,30.12558,-5.2778053,-5.3200126,-3.2366621,-2.030238,7.8508716,-17.891996,20.325144,-11.869823,52.00752,-1.0186269,1.829474,8.361466,-10.825476,-22.251913,8.077237,54.004482,17.238148,-10.987463,-6.812483
155,19.264541625976562,26.1258602142334,75.04314422607422,-0.8735945689671083,-3.7227448194972363,-164.9630928538864,5.999304,1.5910412,7.5828013,30.099453,-30.568336,2.1273775,-19.640903,-17.100796,-34.720306,30.240326,-5.161266,-5.350622,-3.1888614,-2.1921098,7.8531976,-17.943048,20.215538,-11.72475,52.0136,-0.7584743,1.9040027,8.484055,-10.877657,-22.3354,8.322165,54.198032,17.602821,-11.030657,-6.6441865
156,19.43531608581543,26.095867156982422,75.00650024414062,-0.7430972518933777,-3.7249769028334265,-164.986712161077,5.6646028,1.4038225,7.64596,30.525827,-30.606667,2.2522092,-19.884123,-17.325115,-34.575306,30.366735,-5.049749,-5.364255,-3.1518855,-2.333428,7.8606143,-17.979132,20.12045,-11.613753,51.970234,-0.5659164,1.9829699,8.55994,-10.930564,-22.437485,8.577929,54.38929,17.893284,-11.067987,-6.503264
157,19.607725143432617,26.053491592407227,74.96138000488281,-0.6115731598581629,-3.7401203286558755,-164.99605368702356,5.3536882,1.2089788,7.705317,30.939734,-30.65736,2.3813365,-20.118227,-17.572618,-34.43702,30.52802,-4.9521985,-5.347925,-3.1305993,-2.4631,7.8712077,-17.998764,20.051197,-11.552511,51.87591,-0.47121808,2.0556347,8.579691,-10.978692,-22.551271,8.838847,54.581398,18.035614,-11.107393,-6.4280014
158,19.764842987060547,26.011943817138672,74.9096908569336,-0.4742523216799291,-3.761254687223701,-164.99685546762564,5.0498595,1.001981,7.764568,31.356749,-30.716831,2.5203197,-20.35872,-17.84587,-34.295223,30.727644,-4.8684883,-5.3091273,-3.1265929,-2.5796256,7.882861,-17.99316,19.994976,-11.507409,51.724422,-0.43761304,2.1271842,8.5548115,-11.024109,-22.694275,9.122269,54.765285,18.093866,-11.144865,-6.3853726
159,19.937110900878906,25.974878311157227,74.86849975585938,-0.3476966709578722,-3.7947436390861617,-165.00453981202708,4.763564,0.80723035,7.834391,31.771904,-30.782953,2.6673439,-20.579952,-18.098757,-34.153996,30.909681,-4.7782497,-5.272087,-3.120181,-2.678289,7.90516,-17.974058,19.957634,-11.483388,51.51621,-0.43539587,2.2186718,8.495522,-11.0679455,-22.850735,9.411951,54.931778,18.179678,-11.167616,-6.3127613
160,20.11349868774414,25.941646575927734,74.82716369628906,-0.24882414560598776,-3.84695567696049,-165.03407793786508,4.504938,0.6497683,7.925063,32.180805,-30.853848,2.8209298,-20.756098,-18.285877,-34.018177,31.01951,-4.661697,-5.2609196,-3.0977564,-2.7510095,7.945346,-17.949114,19.939978,-11.477223,51.252808,-0.4311767,2.3506756,8.412631,-11.120504,-23.006641,9.701987,55.080994,18.406841,-11.162976,-6.1495013
161,20.285715103149414,25.901647567749023,74.79019165039062,-0.186243917900453,-3.922231714594383,-165.08985529778374,4.2788773,0.5405011,8.042679,32.586033,-30.933481,2.9904528,-20.87448,-18.389389,-33.892265,31.035429,-4.5110154,-5.2854342,-3.0636992,-2.7770576,8.01316,-17.90138,19.940962,-11.478084,50.89921,-0.42227903,2.5369313,8.293525,-11.192235,-23.18823,10.015297,55.198074,18.866055,-11.112843,-5.8364806
162,20.452699661254883,25.867950439453125,74.75260162353516,-0.14943529607811096,-4.016204222658147,-165.16373659502406,4.0799656,0.4651802,8.179736,32.988186,-31.02189,3.1745427,-20.950304,-18.435863,-33.773266,30.98983,-4.3380914,-5.3315763,-3.0195205,-2.7732391,8.099695,-17.840315,19.963276,-11.498821,50.475285,-0.42502838,2.7638812,8.139612,-11.276459,-23.380028,10.341054,55.294636,19.46884,-11.027701,-5.423929
163,20.629268646240234,25.834354400634766,74.71746063232422,-0.12760477529981676,-4.121966116735591,-165.25214004680444,3.9018464,0.41175237,8.325763,33.382423,-31.111898,3.3554208,-21.00058,-18.4457,-33.65557,30.909586,-4.15249,-5.387568,-2.9664211,-2.7527719,8.196245,-17.770996,20.000093,-11.528131,50.014034,-0.42879,3.0107284,7.9713683,-11.35732,-23.573689,10.657686,55.378613,20.099047,-10.928413,-5.0004034
164,20.802204132080078,25.797439575195312,74.68302917480469,-0.10964645960075468,-4.232202220909505,-165.35135356413835,3.738812,0.36761364,8.471352,33.76258,-31.19599,3.5147104,-21.042257,-18.438684,-33.533306,30.820461,-3.9636738,-5.4415264,-2.9026468,-2.73047,8.292335,-17.705591,20.040497,-11.559116,49.557545,-0.42183816,3.2563398,7.8113017,-11.414779,-23.755877,10.936421,55.458725,20.634268,-10.840316,-4.655183
165,20.966291427612305,25.76987075805664,74.65113067626953,-0.09399358227560271,-4.351111906215064,-165.46450289404518,3.5979018,0.33042422,8.614354,34.12415,-31.274778,3.6480665,-21.0757,-18.415346,-33.401745,30.731478,-3.775458,-5.4924054,-2.8197384,-2.707831,8.387973,-17.653833,20.080196,-11.596029,49.113304,-0.40110868,3.49923,7.6556444,-11.444626,-23.920616,11.174893,55.545277,21.064484,-10.776259,-4.4062304
166,21.130647659301758,25.7417049407959,74.61747741699219,-0.0857102792095886,-4.480626948068297,-165.5921957204384,3.479649,0.3063418,8.759567,34.47143,-31.351608,3.7649708,-21.094095,-18.367039,-33.2649,30.63003,-3.5833464,-5.5460105,-2.7181659,-2.6819243,8.482274,-17.618979,20.11905,-11.646691,48.678246,-0.3690895,3.7488072,7.5001955,-11.461969,-24.061567,11.38362,55.64578,21.439873,-10.725702,-4.21216
167,21.292680740356445,25.714401245117188,74.588134765625,-0.08442620510875769,-4.610224203429475,-165.72696446910885,3.3681417,0.29514506,8.908084,34.809494,-31.420408,3.8677733,-21.099485,-18.29754,-33.13157,30.501322,-3.3800895,-5.600777,-2.6084135,-2.6595416,8.564074,-17.606056,20.151083,-11.711186,48.281174,-0.32339042,4.0002174,7.3669043,-11.474871,-24.163687,11.553249,55.763744,21.730446,-10.680857,-4.0728683
168,21.449129104614258,25.687255859375,74.56143188476562,-0.09077324023750855,-4.729486131742508,-165.86136651700141,3.2472703,0.29794368,9.060623,35.14393,-31.475729,3.9583519,-21.0933,-18.209097,-33.011482,30.328613,-3.1570919,-5.654974,-2.5164762,-2.620509,8.64556,-17.565557,20.191946,-11.760892,47.869408,-0.27987376,4.2499146,7.259247,-11.46581,-24.295053,11.695479,55.831905,21.950665,-10.617491,-3.9663422
169,21.613636016845703,25.66681480407715,74.54264068603516,-0.10614946737873945,-4.837609108429425,-165.99676705556237,3.1136744,0.3179399,9.2204075,35.479828,-31.510366,4.036444,-21.07105,-18.096466,-32.905678,30.099539,-2.9089613,-5.7087045,-2.4219594,-2.588062,8.701121,-17.556719,20.214645,-11.833133,47.525627,-0.21841478,4.5014253,7.2117343,-11.454603,-24.371433,11.769416,55.916294,22.023748,-10.532839,-3.9274197
170,21.766544342041016,25.637357711791992,74.52522277832031,-0.13058428910972175,-4.939614611439347,-166.136020065903,2.9754314,0.3539705,9.386027,35.81289,-31.528923,4.10064,-21.033422,-17.959917,-32.809616,29.825167,-2.6411605,-5.762409,-2.330152,-2.55193,8.742629,-17.555218,20.229427,-11.911318,47.210285,-0.14460628,4.755658,7.2033086,-11.436425,-24.42165,11.797347,55.9999,21.987782,-10.433168,-3.9458663
171,21.921802520751953,25.60826301574707,74.51011657714844,-0.15947934002515335,-5.03376587416419,-166.27398826696245,2.8355875,0.39779449,9.552458,36.131718,-31.541689,4.151375,-20.991385,-17.8139,-32.722485,29.529354,-2.3637702,-5.815697,-2.2417529,-2.5158737,8.773605,-17.566872,20.241503,-11.994785,46.936733,-0.06976952,5.0010023,7.2107277,-11.405478,-24.4668,11.802444,56.073208,21.903507,-10.35106,-3.9903586
172,22.065677642822266,25.5776309967041,74.49565887451172,-0.1877246363667636,-5.118531033854859,-166.40584448946925,2.6980603,0.44063178,9.714795,36.423897,-31.55843,4.189215,-20.957567,-17.6742,-32.642677,29.238962,-2.0886102,-5.868071,-2.1782553,-2.4932454,8.791498,-17.59321,20.244896,-12.041642,46.732243,0.027841384,5.2250543,7.2090945,-11.398019,-24.479534,11.821645,56.174686,21.802689,-10.32827,-4.0436835
173,22.21869468688965,25.549407958984375,74.47879028320312,-0.2208632739063049,-5.192219688566569,-166.5284879057539,2.5590208,0.48956308,9.870736,36.692608,-31.585203,4.2065573,-20.930147,-17.536547,-32.576862,28.950903,-1.8147459,-5.924358,-2.1144736,-2.468606,8.787703,-17.64786,20.251862,-12.126125,46.601364,0.098694436,5.4276094,7.2033973,-11.37852,-24.510815,11.860867,56.284626,21.754229,-10.379153,-4.08765
174,22.367456436157227,25.52728271484375,74.46444702148438,-0.25904697764765383,-5.256245649446598,-166.64500377811157,2.418239,0.5457708,10.023535,36.94241,-31.615862,4.2055516,-20.905523,-17.39655,-32.522987,28.656982,-1.5387752,-5.983216,-2.0708594,-2.4464736,8.776557,-17.713526,20.254335,-12.178887,46.519833,0.19153792,5.61397,7.1896524,-11.360012,-24.529541,11.898189,56.39465,21.690397,-10.482281,-4.142445
175,22.51476287841797,25.499216079711914,74.44892120361328,-0.29128652331279686,-5.31292931502289,-166.76013081527833,2.2820778,0.59375864,10.175391,37.1653,-31.642765,4.201622,-20.887835,-17.26457,-32.468575,28.363565,-1.261359,-6.0346775,-2.039763,-2.433901,8.753699,-17.786524,20.253174,-12.22688,46.492622,0.27333105,5.7812085,7.1845007,-11.346972,-24.548923,11.949654,56.5037,21.60108,-10.607353,-4.2099657
176,22.6621150970459,25.468931198120117,74.43688201904297,-0.30630358052786133,-5.36496534739055,-166.87854808361925,2.1574137,0.6170929,10.328881,37.3519,-31.65805,4.2103553,-20.883587,-17.152681,-32.40064,28.081587,-0.985954,-6.0688863,-2.01877,-2.4464011,8.731308,-17.853912,20.250376,-12.255134,46.50302,0.34376743,5.9278727,7.1924825,-11.333629,-24.557655,12.000443,56.584564,21.442139,-10.722861,-4.294778
177,22.809715270996094,25.438800811767578,74.423583984375,-0.29744113646031456,-5.410885614146759,-166.9976698935589,2.04818,0.6046632,10.48222,37.489273,-31.658308,4.2397494,-20.896322,-17.071127,-32.315903,27.81531,-0.7136828,-6.0807447,-2.014933,-2.4885924,8.695579,-17.92825,20.24442,-12.277274,46.582745,0.37455392,6.053565,7.222265,-11.33112,-24.56377,12.067394,56.653492,21.227295,-10.826946,-4.380688
178,22.95534324645996,25.408979415893555,74.41307067871094,-0.27179548080012,-5.450348315297832,-167.1165667080906,1.9494718,0.5674372,10.635122,37.587032,-31.648714,4.2804365,-20.92202,-17.011581,-32.22064,27.559118,-0.44314396,-6.0762405,-2.0310395,-2.5507255,8.64887,-18.001656,20.231243,-12.284868,46.716236,0.3831489,6.161291,7.2685266,-11.338519,-24.567335,12.154187,56.7114,20.966928,-10.9334345,-4.474766
179,23.102041244506836,25.38064193725586,74.40128326416016,-0.2391083333172147,-5.485624965650931,-167.24125375645127,1.8549832,0.52255434,10.791381,37.667126,-31.633005,4.322105,-20.954947,-16.956282,-32.117485,27.303776,-0.1703822,-6.0622406,-2.0453644,-2.6262584,8.603681,-18.07744,20.21821,-12.287087,46.887344,0.39110795,6.2439513,7.323399,-11.34196,-24.568436,12.244547,56.74845,20.653635,-11.036964,-4.6040235
180,23.243894577026367,25.3481388092041,74.38780212402344,-0.21008561615369853,-5.519415173396414,-167.37792141901753,1.7576469,0.48822787,10.955101,37.75451,-31.6165,4.354253,-20.9875,-16.886068,-32.00945,27.03847,0.109291375,-6.0456095,-2.0748417,-2.6945276,8.540956,-18.15297,20.187807,-12.277895,47.1203,0.4140526,6.2927594,7.393332,-11.398853,-24.570177,12.4355755,56.835175,20.324963,-11.138542,-4.8151083
181,23.39051628112793,25.320222854614258,74.38005828857422,-0.18193570587681682,-5.546151212705365,-167.526122962032,1.648576,0.46131986,11.126146,37.853733,-31.597057,4.376366,-21.030518,-16.806307,-31.893837,26.770458,0.39475685,-6.038998,-2.100948,-2.763966,8.474244,-18.22366,20.15242,-12.265212,47.395382,0.47611746,6.2943,7.4805894,-11.466118,-24.577412,12.676114,56.918922,19.908379,-11.198982,-5.131586
182,23.52853775024414,25.293249130249023,74.37110137939453,-0.15055881061733195,-5.5664754814834385,-167.68332398935794,1.5344008,0.43429628,11.302718,37.951103,-31.57278,4.393237,-21.083967,-16.724443,-31.76989,26.503502,0.68333817,-6.0352206,-2.099528,-2.851314,8.415805,-18.311707,20.133272,-12.281837,47.709877,0.54658407,6.2582374,7.580571,-11.496662,-24.587559,12.903266,56.950222,19.407677,-11.22629,-5.519156
183,23.672609329223633,25.2645320892334,74.35726165771484,-0.12484049345407264,-5.5920657584914855,-167.85248154832223,1.4296662,0.419966,11.486675,38.04769,-31.55019,4.4026,-21.12522,-16.624691,-31.643473,26.220463,0.9794012,-6.0110087,-2.129843,-2.9208653,8.348884,-18.370914,20.102467,-12.260193,48.04204,0.60286146,6.21017,7.677863,-11.597289,-24.609856,13.2438,57.035244,18.969019,-11.291399,-5.936938
184,23.81125831604004,25.245258331298828,74.34867858886719,-0.11225679160640506,-5.634847897657997,-168.03658228629408,1.349222,0.42957538,11.679847,38.143284,-31.535252,4.402209,-21.13106,-16.49201,-31.52005,25.902472,1.2847525,-5.9436483,-2.141856,-2.9746556,8.310645,-18.434538,20.078531,-12.235328,48.35601,0.60466206,6.1807404,7.7442703,-11.696663,-24.643124,13.5913925,57.10032,18.662455,-11.454922,-6.315168
185,23.94487953186035,25.2281551361084,74.33480834960938,-0.11671796273543035,-5.701837986104721,-168.2367941553526,1.3003546,0.470291,11.882667,38.242203,-31.533445,4.3873634,-21.095709,-16.321636,-31.40142,25.556156,1.594762,-5.837485,-2.1269794,-3.0149155,8.306474,-18.517546,20.06842,-12.222512,48.660908,0.52312905,6.175393,7.774906,-11.791059,-24.686626,13.958357,57.149033,18.547508,-11.779062,-6.65084
186,24.083850860595703,25.209375381469727,74.32552337646484,-0.13391153276856838,-5.78543562235753,-168.451476334317,1.2741661,0.5350654,12.0941105,38.343246,-31.540138,4.3606796,-21.028877,-16.120127,-31.285048,25.181303,1.9105314,-5.7014832,-2.1158757,-3.036001,8.325108,-18.584394,20.068092,-12.186936,48.946693,0.38763952,6.179228,7.778223,-11.9098015,-24.75027,14.387871,57.19692,18.573366,-12.215511,-6.971491
187,24.22430419921875,25.190914154052734,74.31780242919922,-0.15635906251686338,-5.876034378715893,-168.6787534166438,1.2629579,0.6104856,12.313657,38.43574,-31.546118,4.3306723,-20.940266,-15.897118,-31.165922,24.773203,2.2409523,-5.5186315,-2.0835457,-3.054318,8.35864,-18.65597,20.076849,-12.164077,49.225933,0.22229393,6.1912885,7.7653613,-12.026,-24.814838,14.800448,57.227688,18.639694,-12.669349,-7.264436
188,24.360939025878906,25.18238639831543,74.31027221679688,-0.17761181414962976,-5.963753266741102,-168.91709276808973,1.2590971,0.6844815,12.5409775,38.509197,-31.54217,4.30591,-20.83686,-15.660274,-31.039854,24.320095,2.5961075,-5.272152,-2.0464053,-3.0693655,8.39439,-18.704124,20.09028,-12.135557,49.478848,0.060298175,6.2101293,7.74216,-12.159523,-24.878448,15.186689,57.252872,18.673498,-13.043783,-7.520651
189,24.50031852722168,25.169885635375977,74.30789184570312,-0.19342659251292138,-6.049461037263975,-169.16862772875078,1.2661775,0.7503332,12.777426,38.5564,-31.525303,4.285577,-20.710777,-15.417126,-30.935383,23.81193,2.9732966,-4.958058,-2.0315914,-3.072089,8.435979,-18.692188,20.113081,-12.065835,49.670723,-0.097420394,6.24345,7.6930885,-12.340537,-24.95827,15.570058,57.267914,18.671818,-13.30817,-7.7403445
190,24.635921478271484,25.153911590576172,74.30682373046875,-0.2076954383480485,-6.137301619650295,-169.43344347452518,1.2869306,0.81521386,13.022913,38.58382,-31.500301,4.266293,-20.55989,-15.161602,-30.843962,23.252775,3.3691454,-4.5854177,-2.0011866,-3.0733998,8.489748,-18.671804,20.143578,-12.000956,49.84166,-0.26770696,6.2897387,7.6240845,-12.524965,-25.038918,15.908875,57.25489,18.653278,-13.516016,-7.926702
191,24.767316818237305,25.139184951782227,74.31105041503906,-0.22632682410125948,-6.222686772849832,-169.70587750281277,1.3117961,0.88779235,13.273487,38.6025,-31.469814,4.252859,-20.400236,-14.88127,-30.706032,22.65595,3.791087,-4.156355,-1.9404761,-3.0794618,8.538623,-18.66976,20.169563,-11.967563,50.032433,-0.43834272,6.3322206,7.5653834,-12.69957,-25.100252,16.21547,57.25411,18.626408,-13.695938,-8.079526
192,24.891653060913086,25.12628746032715,74.32121276855469,-0.25568464937429886,-6.301128883617004,-169.98033311912474,1.3303822,0.9776662,13.5250845,38.62549,-31.437649,4.2501593,-20.24687,-14.563258,-30.4631,22.034866,4.246534,-3.6726732,-1.8768934,-3.0774355,8.576623,-18.644552,20.194027,-11.928871,50.212276,-0.5930282,6.3549247,7.5315466,-12.874521,-25.161093,16.559072,57.288326,18.629622,-13.869964,-8.191898
193,25.017393112182617,25.11540985107422,74.33300018310547,-0.2994695100847966,-6.372920747781361,-170.25514086978743,1.3403814,1.0892831,13.776637,38.658905,-31.404255,4.263379,-20.081375,-14.197,-30.12063,21.355373,4.7446246,-3.0935307,-1.84979,-3.0517526,8.607022,-18.53639,20.225294,-11.834674,50.336044,-0.7265692,6.3473783,7.529197,-13.080466,-25.252754,17.016544,57.368053,18.69967,-14.040658,-8.245314
194,25.144681930541992,25.105255126953125,74.34370422363281,-0.35175534462786684,-6.440717449686455,-170.53295949447036,1.3485479,1.2146443,14.030255,38.693237,-31.366877,4.289004,-19.899942,-13.794197,-29.701387,20.621067,5.27816,-2.4312072,-1.7845213,-3.0299923,8.628655,-18.454514,20.245058,-11.784324,50.495636,-0.852299,6.319314,7.561812,-13.257581,-25.329506,17.454592,57.46914,18.775537,-14.200566,-8.249937
195,25.26151466369629,25.100139617919922,74.36334228515625,-0.40854538134774027,-6.502671485081805,-170.81452878904884,1.3566277,1.3482523,14.286473,38.720303,-31.326105,4.3186755,-19.733734,-13.36852,-29.17535,19.890049,5.835142,-1.7661617,-1.7384752,-2.9908175,8.6436205,-18.322475,20.262651,-11.690513,50.60646,-0.95982325,6.2872453,7.588182,-13.4520645,-25.422611,17.93785,57.58803,18.883472,-14.34091,-8.233402
196,25.367170333862305,25.091657638549805,74.38317108154297,-0.4640876185111839,-6.556799011065901,-171.10081369689428,1.3668437,1.4837477,14.546277,38.73146,-31.281958,4.343867,-19.625225,-12.941237,-28.509472,19.246983,6.3958855,-1.1776346,-1.651537,-2.9582822,8.6480055,-18.225212,20.272207,-11.627973,50.72288,-1.0576743,6.2672114,7.594364,-13.605901,-25.493502,18.347403,57.69848,18.97278,-14.461564,-8.225989
197,25.479703903198242,25.088390350341797,74.40410614013672,-0.5199632756697548,-6.601320538774258,-171.39685547358854,1.3785892,1.6242334,14.813611,38.726036,-31.235437,4.363081,-19.600224,-12.493806,-27.622524,18.715227,6.972164,-0.6893733,-1.5787818,-2.9087124,8.639198,-18.07827,20.278994,-11.50541,50.76967,-1.1329682,6.2624006,7.5544977,-13.77377,-25.577093,18.785494,57.81601,19.092428,-14.550209,-8.225451
198,25.584224700927734,25.091890335083008,74.4266128540039,-0.5785272362188085,-6.637675820920386,-171.70091747630306,1.3905725,1.7720996,15.086891,38.70943,-31.187044,4.380359,-19.630083,-12.022944,-26.556906,18.256626,7.565795,-0.2551754,-1.496661,-2.8487158,8.621744,-17.911715,20.28099,-11.360087,50.777046,-1.1907669,6.264658,7.488496,-13.929446,-25.666782,19.218866,57.929394,19.229935,-14.611857,-8.217739
199,25.687885284423828,25.09256362915039,74.45429992675781,-0.6386220455240755,-6.667996969396993,-172.00426606934406,1.4036448,1.9232832,15.358993,38.679844,-31.133957,4.39503,-19.671831,-11.563946,-25.46865,17.848104,8.146888,0.14907177,-1.3656971,-2.801638,8.597741,-17.802061,20.27962,-11.280659,50.816425,-1.2480097,6.2735815,7.425603,-14.034861,-25.72213,19.548222,58.03537,19.324394,-14.666925,-8.219078
200,25.78572654724121,25.08869171142578,74.4868392944336,-0.7009958401863907,-6.693980224352247,-172.29784567296625,1.4172349,2.075552,15.622186,38.637497,-31.074886,4.40654,-19.683748,-11.151428,-24.514748,17.460382,8.689296,0.5449031,-1.2945722,-2.7259974,8.575366,-17.630789,20.273867,-11.145805,50.79738,-1.2873137,6.2883534,7.3637085,-14.181938,-25.793253,19.909777,58.1569,19.41339,-14.72543,-8.243862
201,25.88242530822754,25.092761993408203,74.52154541015625,-0.7633670076125906,-6.716026071095168,-172.5850894396131,1.4370047,2.2264884,15.880937,38.571507,-31.007202,4.4119368,-19.66401,-10.780046,-23.692093,17.073643,9.208134,0.94795614,-1.1810776,-2.6609175,8.558587,-17.520142,20.26879,-11.092243,50.805862,-1.3282555,6.31494,7.3185654,-14.272998,-25.833557,20.138737,58.259743,19.42139,-14.813744,-8.304114
202,25.981157302856445,25.094398498535156,74.55631256103516,-0.8273100689369185,-6.732908817931567,-172.86875437464528,1.4600908,2.3792102,16.137037,38.487232,-30.933033,4.4124565,-19.63688,-10.436164,-22.931978,16.7125,9.709005,1.3425385,-1.0801885,-2.5838172,8.5404005,-17.393764,20.261671,-11.036798,50.785408,-1.3590629,6.3516726,7.2746863,-14.369181,-25.869131,20.344364,58.37282,19.40203,-14.915495,-8.391188
203,26.077028274536133,25.107208251953125,74.59516906738281,-0.8949757357928768,-6.744829054492263,-173.13975442638426,1.4777576,2.5342908,16.379713,38.400543,-30.854551,4.4135137,-19.59768,-10.142993,-22.291561,16.401081,10.161135,1.7013803,-0.9946854,-2.4992373,8.521586,-17.26781,20.251612,-10.9837265,50.763596,-1.3832512,6.3871326,7.2393036,-14.460128,-25.897871,20.509356,58.480698,19.366022,-14.992436,-8.480312
204,26.168489456176758,25.11989974975586,74.63726043701172,-0.9686172945868857,-6.752491405729827,-173.3887256022264,1.4804417,2.6925504,16.59775,38.328407,-30.774002,4.420641,-19.544764,-9.9245405,-21.828136,16.16714,10.53249,1.9962813,-0.91764313,-2.4176483,8.502426,-17.171648,20.241604,-10.954306,50.778217,-1.4098891,6.410366,7.222193,-14.527757,-25.91048,20.601635,58.56684,19.31818,-15.007144,-8.546926
205,26.255237579345703,25.12875747680664,74.6812973022461,-1.050842114746354,-6.754815317551445,-173.6118651046338,1.4652001,2.8557098,16.786348,38.273346,-30.689056,4.4359145,-19.47818,-9.799591,-21.606567,16.029009,10.815199,2.2176547,-0.87136424,-2.329985,8.478277,-17.087503,20.227379,-10.93294,50.83107,-1.4374264,6.4149656,7.23168,-14.596253,-25.910528,20.64919,58.6465,19.258587,-14.935364,-8.588463
206,26.34432029724121,25.142908096313477,74.72604370117188,-1.1398435495660413,-6.751719261241299,-173.81451171851126,1.4367553,3.0225751,16.951946,38.226513,-30.599257,4.4563117,-19.40058,-9.750442,-21.58119,15.96538,11.030839,2.3791177,-0.841174,-2.2420993,8.454346,-17.025793,20.221825,-10.931824,50.914536,-1.4717745,6.4079204,7.257264,-14.640858,-25.905756,20.639238,58.696327,19.185106,-14.800374,-8.614209
207,26.43616485595703,25.16004753112793,74.76956939697266,-1.2341132545278615,-6.74458212096862,-174.00196531948254,1.3964972,3.1946998,17.100405,38.1913,-30.511427,4.4790416,-19.322987,-9.746482,-21.643766,15.967378,11.177062,2.4868424,-0.8134602,-2.1504712,8.423023,-16.980972,20.193478,-10.939396,51.016846,-1.4892856,6.3976326,7.297727,-14.694502,-25.863585,20.567883,58.77803,19.101095,-14.645009,-8.629498
208,26.518672943115234,25.185880661010742,74.81240844726562,-1.3282152095500275,-6.734960812008353,-174.17926280499793,1.3478577,3.3676414,17.238676,38.165848,-30.43042,4.502286,-19.254581,-9.760811,-21.683374,16.021055,11.25475,2.5489852,-0.79291165,-2.0659006,8.391622,-16.956848,20.169588,-10.937374,51.120995,-1.5028664,6.391498,7.3238783,-14.729007,-25.813364,20.469446,58.842876,19.06476,-14.501364,-8.632552
209,26.59732437133789,25.209171295166016,74.85277557373047,-1.4261350785742775,-6.722090836708567,-174.34148094046887,1.2867656,3.5467057,17.361834,38.156647,-30.358604,4.5265055,-19.199306,-9.797527,-21.707464,16.142336,11.249513,2.551704,-0.7729277,-1.9924124,8.349182,-16.971403,20.132763,-10.926493,51.252277,-1.4983683,6.391134,7.339206,-14.76343,-25.70486,20.312809,58.93772,19.05434,-14.384383,-8.6381445
210,26.68979835510254,25.239425659179688,74.89424896240234,-1.528333463243062,-6.705364101182545,-174.48790965530054,1.2134644,3.7312472,17.46842,38.161015,-30.292286,4.552572,-19.151213,-9.86823,-21.762787,16.32998,11.166513,2.496563,-0.77708864,-1.9214894,8.306117,-16.98171,20.103605,-10.886989,51.367504,-1.4856473,6.393688,7.341563,-14.798994,-25.57555,20.127901,59.0304,19.07798,-14.268925,-8.6368265
211,26.778268814086914,25.26838493347168,74.93277740478516,-1.6257926595633185,-6.687066483039687,-174.62985789842085,1.1369066,3.9109132,17.569473,38.167637,-30.229254,4.578469,-19.107077,-9.95603,-21.797832,16.553343,11.029459,2.4139733,-0.79177076,-1.8591425,8.267337,-16.989374,20.084187,-10.841488,51.464275,-1.4692893,6.398073,7.3394384,-14.832655,-25.442738,19.933876,59.118843,19.136042,-14.150671,-8.61232
212,26.855281829833984,25.29844093322754,74.97193908691406,-1.70967170120355,-6.668992895069601,-174.77830077066815,1.0659617,4.0760036,17.675947,38.16511,-30.167227,4.602112,-19.065598,-10.043935,-21.76161,16.784653,10.861231,2.3343885,-0.81091046,-1.8013238,8.241655,-16.981556,20.07507,-10.8011,51.52355,-1.4555668,6.4033003,7.3382125,-14.857025,-25.35273,19.766785,59.181564,19.244736,-14.021155,-8.544912
213,26.93570899963379,25.333261489868164,75.00830078125,-1.7776721814433645,-6.652484514699756,-174.93393809683974,1.0028299,4.221938,17.784138,38.15074,-30.106068,4.62596,-19.027414,-10.131059,-21.63647,17.023817,10.657413,2.2601118,-0.8191563,-1.7757863,8.208506,-17.003345,20.071821,-10.806313,51.610443,-1.4427923,6.4080105,7.3568435,-14.910471,-25.218555,19.593042,59.313538,19.368385,-13.89041,-8.432074
214,27.01839828491211,25.366188049316406,75.03907012939453,-1.8351013653263275,-6.635931413732913,-175.0914463475575,0.94260716,4.3555374,17.89009,38.13101,-30.046997,4.650146,-18.99026,-10.222768,-21.451649,17.276209,10.413481,2.1771374,-0.8409168,-1.7497292,8.187106,-17.005507,20.076088,-10.806896,51.65776,-1.4311218,6.413658,7.37502,-14.958571,-25.121876,19.436533,59.4243,19.548445,-13.746787,-8.271946
215,27.103439331054688,25.395191192626953,75.06634521484375,-1.881135563325082,-6.618157114416623,-175.25376572911816,0.88537675,4.4792843,18.00636,38.10487,-29.988329,4.6690354,-18.962452,-10.321118,-21.221851,17.554693,10.133638,2.0910127,-0.85315996,-1.7491236,8.16292,-17.026163,20.088863,-10.828434,51.715008,-1.4149704,6.4202404,7.397659,-15.012994,-25.004496,19.288239,59.556885,19.737223,-13.606886,-8.104991
216,27.184879302978516,25.42973518371582,75.0918960571289,-1.9156438766087245,-6.597826640720426,-175.42377745086208,0.8309076,4.5969563,18.145319,38.072556,-29.928825,4.6769853,-18.947248,-10.425456,-20.96282,17.86044,9.828582,2.007006,-0.86526513,-1.7671578,8.13722,-17.044973,20.109138,-10.84355,51.764706,-1.3873637,6.427957,7.4155173,-15.077497,-24.888403,19.196177,59.694176,19.93614,-13.475183,-7.960054
217,27.267221450805664,25.468917846679688,75.11749267578125,-1.937325271483282,-6.575137597669435,-175.60343381583237,0.78258574,4.7094903,18.318687,38.029663,-29.868507,4.665921,-18.952805,-10.539866,-20.667318,18.212366,9.491238,1.9189955,-0.8720602,-1.7948996,8.117217,-17.059914,20.12814,-10.843521,51.797386,-1.3322289,6.4352164,7.428043,-15.135203,-24.80714,19.181988,59.80534,20.170034,-13.345589,-7.842673
218,27.347990036010742,25.503093719482422,75.1414566040039,-1.9475066166145858,-6.550615340916534,-175.79086410213242,0.73966825,4.8160405,18.516985,37.977432,-29.80791,4.6408176,-18.972563,-10.660891,-20.330545,18.597275,9.1219425,1.8263907,-0.8600131,-1.8223078,8.111005,-17.083467,20.135088,-10.844429,51.81247,-1.2541807,6.442493,7.4378734,-15.148845,-24.78307,19.200045,59.850254,20.438362,-13.209907,-7.73148
219,27.4268798828125,25.53818130493164,75.16584777832031,-1.9484223333699537,-6.523025151105854,-175.98285415049253,0.6937137,4.9147024,18.721046,37.927086,-29.74787,4.616525,-18.997002,-10.783425,-19.972166,18.989046,8.733454,1.7440857,-0.8643383,-1.8693322,8.091623,-17.103786,20.152014,-10.839453,51.835045,-1.1856823,6.451138,7.442551,-15.211211,-24.731201,19.263805,59.955547,20.69893,-13.090445,-7.628222
220,27.50726890563965,25.574609756469727,75.18717956542969,-1.9460346039897112,-6.491535773181639,-176.17692749266138,0.63526636,5.008628,18.911451,37.89322,-29.69133,4.6072526,-19.013494,-10.897646,-19.612993,19.355602,8.342049,1.6862786,-0.8637327,-1.9093438,8.079585,-17.12585,20.16046,-10.838169,51.84084,-1.1437029,6.4653125,7.433997,-15.232875,-24.70888,19.28125,60.004337,20.91496,-12.977133,-7.5116916
221,27.591163635253906,25.616806030273438,75.20291900634766,-1.9403451382885168,-6.455135760257622,-176.37193257605176,0.5578025,5.096423,19.079374,37.88621,-29.641518,4.6234593,-19.01992,-11.001967,-19.256079,19.696463,7.9410806,1.6466308,-0.8707505,-1.9519686,8.062764,-17.147263,20.17037,-10.835946,51.841667,-1.1479849,6.4886346,7.405014,-15.250671,-24.684038,19.264929,60.04424,21.071617,-12.879116,-7.377737
222,27.66930389404297,25.664974212646484,75.21974182128906,-1.928893944627584,-6.414635674810338,-176.56968558282927,0.46776447,5.177251,19.236628,37.89584,-29.595867,4.6554313,-19.025639,-11.102277,-18.890131,20.032234,7.523809,1.6210458,-0.8720386,-2.0046682,8.043851,-17.182121,20.183088,-10.844071,51.84652,-1.1831417,6.5185657,7.360939,-15.2602625,-24.656155,19.216013,60.078213,21.180101,-12.795202,-7.232196
223,27.751752853393555,25.705537796020508,75.234375,-1.9189752655747516,-6.370957863088146,-176.77074619616505,0.37162447,5.262717,19.391987,37.91254,-29.551977,4.6856217,-19.014408,-11.187645,-18.525343,20.32204,7.1185374,1.6248319,-0.8915922,-2.0406451,8.021197,-17.195024,20.184628,-10.844108,51.83114,-1.226279,6.5472417,7.3195863,-15.264944,-24.652779,19.19669,60.095943,21.290041,-12.7179365,-7.094675
224,27.833309173583984,25.750795364379883,75.24919128417969,-1.8964386382411276,-6.325051432067017,-176.97757116483717,0.28659633,5.335969,19.561848,37.902695,-29.49528,4.7006974,-18.99658,-11.276155,-18.152948,20.574057,6.73117,1.6768516,-0.8781948,-2.1048179,8.013677,-17.243048,20.195837,-10.892077,51.820503,-1.2553912,6.5693665,7.292893,-15.245106,-24.638199,19.10856,60.101234,21.37407,-12.645467,-6.965302
225,27.916461944580078,25.80047035217285,75.26893615722656,-1.8760681732076108,-6.276576462064549,-177.18515185794863,0.20746233,5.4149847,19.739952,37.875393,-29.43213,4.689689,-18.941587,-11.339834,-17.770042,20.72418,6.3846283,1.806497,-0.88605195,-2.1611521,8.002236,-17.26428,20.204626,-10.9512825,51.78828,-1.2673006,6.574696,7.2986345,-15.234152,-24.632168,19.058355,60.111057,21.490873,-12.570277,-6.857983
226,28.001903533935547,25.850162506103516,75.28929138183594,-1.852659803948735,-6.225138447596807,-177.39450633484418,0.13121507,5.4927335,19.923288,37.836243,-29.363855,4.6635103,-18.861578,-11.388933,-17.377676,20.804491,6.0612836,1.9955841,-0.9161298,-2.2150743,7.9924955,-17.262522,20.210238,-10.999754,51.73307,-1.2605779,6.5693197,7.3196707,-15.239876,-24.631142,19.03175,60.126938,21.617031,-12.496183,-6.7632103
227,28.082942962646484,25.899564743041992,75.30606079101562,-1.8263564653740858,-6.171808573032646,-177.61375557124538,0.058099173,5.572208,20.117846,37.791042,-29.29022,4.6329646,-18.781855,-11.440306,-17.010159,20.875582,5.748345,2.1845086,-0.9024958,-2.282329,7.9841595,-17.300753,20.22503,-11.124439,51.6936,-1.2813312,6.5696015,7.3475833,-15.198164,-24.633476,18.959919,60.123623,21.719986,-12.441051,-6.683707
228,28.16029167175293,25.948986053466797,75.32090759277344,-1.7987732750239482,-6.11783589164978,-177.85028221962583,-0.012713703,5.6585207,20.328337,37.748257,-29.21256,4.608831,-18.723991,-11.508504,-16.702318,20.989292,5.4392743,2.3151147,-0.89134353,-2.3426054,7.982038,-17.334015,20.238264,-11.225219,51.636986,-1.2989595,6.5895348,7.348009,-15.163408,-24.640017,18.917732,60.136856,21.790644,-12.423603,-6.63367
229,28.2410945892334,26.004106521606445,75.33885955810547,-1.765525129343026,-6.0624073790658155,-178.10910199971056,-0.08091402,5.748449,20.561054,37.709415,-29.130417,4.5965443,-18.703392,-11.604841,-16.45871,21.176195,5.123841,2.3671052,-0.8792369,-2.3991966,7.982038,-17.3485,20.247637,-11.289031,51.54679,-1.3093377,6.636835,7.3075914,-15.144166,-24.646568,18.905418,60.185425,21.799036,-12.461536,-6.626099
230,28.3234920501709,26.06058120727539,75.35835266113281,-1.7270631900426425,-6.005158545666136,-178.38662451972942,-0.14568579,5.8409324,20.813047,37.66936,-29.042656,4.58947,-18.706194,-11.718426,-16.259586,21.400867,4.810652,2.3741174,-0.85952437,-2.4579215,7.983936,-17.36509,20.253124,-11.338436,51.445347,-1.3188711,6.702247,7.243592,-15.117904,-24.65121,18.906563,60.243767,21.761663,-12.540691,-6.65388
231,28.40823745727539,26.11960220336914,75.37950134277344,-1.6932750760070967,-5.948144237451868,-178.67218280483758,-0.20881276,5.943898,21.070808,37.6303,-28.952477,4.5801997,-18.70812,-11.833437,-16.10848,21.619822,4.517985,2.359079,-0.8226599,-2.5119865,7.9882183,-17.403812,20.26866,-11.443376,51.35416,-1.3570236,6.776755,7.183597,-15.084497,-24.664658,18.915071,60.31435,21.734716,-12.634796,-6.688318
232,28.48929786682129,26.178979873657227,75.40247344970703,-1.6741183061629503,-5.893712539628707,-178.95818866794033,-0.27035853,6.065379,21.323397,37.59219,-28.861403,4.5613036,-18.685429,-11.931594,-16.006874,21.787361,4.2657423,2.3442688,-0.8003776,-2.546991,8.008917,-17.461704,20.287895,-11.566217,51.27927,-1.4038252,6.8500714,7.139817,-15.061082,-24.681805,18.945873,60.385113,21.751633,-12.716098,-6.7073393
233,28.580400466918945,26.242473602294922,75.42500305175781,-1.6767323158219696,-5.843150578021049,-179.2425360130381,-0.33378747,6.214285,21.567692,37.56336,-28.772388,4.530743,-18.627064,-12.005417,-15.9704485,21.883986,4.0633216,2.3238485,-0.77780086,-2.5597358,8.04176,-17.56822,20.320913,-11.76782,51.246098,-1.4961573,6.922357,7.127216,-15.02976,-24.71104,18.998844,60.450092,21.848152,-12.778354,-6.696813
234,28.66813850402832,26.30215835571289,75.45063018798828,-1.6947677647237422,-5.79549558713563,-179.52862230234356,-0.39720747,6.3844433,21.80856,37.54074,-28.683279,4.492521,-18.545134,-12.065185,-15.99456,21.93423,3.8996625,2.289961,-0.77075714,-2.5490377,8.089558,-17.680477,20.356848,-11.984975,51.211052,-1.5933216,6.998981,7.125938,-15.022865,-24.742346,19.076616,60.53798,21.976698,-12.837288,-6.6724772
235,28.756364822387695,26.365816116333008,75.48347473144531,-1.7157683026508117,-5.7484106629725105,-179.81963048299198,-0.4557316,6.55979,22.050694,37.510136,-28.590803,4.448328,-18.4577,-12.120517,-16.046406,21.967821,3.760699,2.2614515,-0.7499467,-2.5414922,8.148513,-17.821548,20.414055,-12.25268,51.194405,-1.7248101,7.075459,7.1338773,-14.983891,-24.791971,19.154337,60.588554,22.136984,-12.891256,-6.6472206
236,28.848114013671875,26.434539794921875,75.51930236816406,-1.7281042199077525,-5.700094757301994,179.88309468641495,-0.50352603,6.724639,22.296654,37.455463,-28.490437,4.399821,-18.380981,-12.181251,-16.095144,22.013083,3.6327925,2.2573404,-0.7338104,-2.542767,8.215669,-17.962864,20.47036,-12.4966345,51.187283,-1.8400892,7.1460395,7.138801,-14.950493,-24.842094,19.239145,60.631935,22.28994,-12.947381,-6.6408763
237,28.924230575561523,26.505353927612305,75.55449676513672,-1.7281892989450505,-5.653880370757886,179.58074222084687,-0.5310553,6.8706894,22.544025,37.36471,-28.381525,4.3454385,-18.309406,-12.255227,-16.14918,22.074024,3.5164428,2.2931318,-0.7220792,-2.557471,8.286475,-18.117744,20.517332,-12.724421,51.211456,-1.939233,7.2157683,7.1463194,-14.926151,-24.885878,19.347769,60.684624,22.447922,-13.020159,-6.6670384
238,29.0163516998291,26.581844329833984,75.58628845214844,-1.7225450711372474,-5.609519615033631,179.27390240797808,-0.5442279,7.007313,22.7923,37.249012,-28.266104,4.2849813,-18.23799,-12.335712,-16.219728,22.13773,3.4171543,2.3553705,-0.713649,-2.5775533,8.363131,-18.289185,20.557241,-12.948197,51.263535,-2.0287948,7.284953,7.158695,-14.910885,-24.924383,19.47485,60.747433,22.614843,-13.104092,-6.7138352
239,29.109270095825195,26.658430099487305,75.62118530273438,-1.714230021398712,-5.5590058179596795,178.9585028570798,-0.56032985,7.1452312,23.048386,37.126804,-28.144077,4.2221923,-18.18151,-12.409863,-16.27927,22.200361,3.3322794,2.4189389,-0.68675554,-2.6074593,8.446094,-18.472315,20.624166,-13.207825,51.320683,-2.1515346,7.342423,7.1721864,-14.85402,-24.99073,19.584425,60.748306,22.787863,-13.167265,-6.758999
