unveil-humanoid-operators/unveil-humanoid-operators.github.io/feature-analysis-animation/data/feature_matrix_instances/gender_ankle_rom_walking_A492_walk_the_dog_ff_360_pull_leash_R_001__A492.csv
Frame,root_translateX,root_translateY,root_translateZ,root_rotateX,root_rotateY,root_rotateZ,left_hip_pitch_joint_dof,left_hip_roll_joint_dof,left_hip_yaw_joint_dof,left_knee_joint_dof,left_ankle_pitch_joint_dof,left_ankle_roll_joint_dof,right_hip_pitch_joint_dof,right_hip_roll_joint_dof,right_hip_yaw_joint_dof,right_knee_joint_dof,right_ankle_pitch_joint_dof,right_ankle_roll_joint_dof,waist_yaw_joint_dof,waist_roll_joint_dof,waist_pitch_joint_dof,left_shoulder_pitch_joint_dof,left_shoulder_roll_joint_dof,left_shoulder_yaw_joint_dof,left_elbow_joint_dof,left_wrist_roll_joint_dof,left_wrist_pitch_joint_dof,left_wrist_yaw_joint_dof,right_shoulder_pitch_joint_dof,right_shoulder_roll_joint_dof,right_shoulder_yaw_joint_dof,right_elbow_joint_dof,right_wrist_roll_joint_dof,right_wrist_pitch_joint_dof,right_wrist_yaw_joint_dof
0,-0.7381723523139954,4.40078067779541,78.50043487548828,-0.44847361929941754,-5.104701228758216,-79.66887760540719,3.3420498,4.898006,-15.168082,8.873317,-10.726636,-9.569277,10.751916,-9.964518,-22.475794,7.840826,-7.9666333,9.269615,9.929519,-3.402538,11.601389,4.1229653,16.335276,-16.490355,64.30127,-20.757784,-6.7736297,3.7000413,-60.74733,-17.140738,2.1392567,67.48808,20.549631,-16.733053,-13.940289
1,-0.7173311710357666,4.476437568664551,78.51888275146484,-0.5100242623516401,-5.071174369650694,-79.76631685448922,3.2519474,4.9625044,-15.080075,8.888325,-10.66882,-9.567074,10.604054,-9.9098625,-22.358707,7.8263907,-7.795828,9.298238,9.93346,-3.3321254,11.638238,3.9932775,16.35396,-16.378328,64.183876,-20.827534,-6.7844853,3.7206142,-60.706985,-17.145975,2.1872098,67.38187,20.559397,-16.73484,-13.914479
2,-0.7001755833625793,4.5492048263549805,78.53759765625,-0.5703615602678735,-5.035019241065705,-79.85693486906744,3.1582527,5.024318,-14.998793,8.902929,-10.610805,-9.567302,10.455495,-9.858058,-22.248337,7.81448,-7.6303353,9.327375,9.911263,-3.265418,11.681344,3.89437,16.377054,-16.218422,64.03139,-20.886189,-6.7920413,3.7330968,-60.695408,-17.145718,2.2609506,67.2892,20.580017,-16.738113,-13.886339
3,-0.6821585297584534,4.634088516235352,78.55783081054688,-0.6335017860414127,-5.005239276474332,-79.9608535676741,3.0697763,5.091936,-14.905403,8.924376,-10.555995,-9.562991,10.307197,-9.801511,-22.12482,7.801861,-7.456909,9.356366,9.889605,-3.1882248,11.729699,3.7928808,16.399096,-16.067179,63.88025,-20.938093,-6.7991843,3.744413,-60.690468,-17.1357,2.3360515,67.20103,20.60369,-16.73918,-13.861055
4,-0.6584023833274841,4.732833385467529,78.57876586914062,-0.7067343836754761,-4.990744245547419,-80.09719410258765,2.9935093,5.1724787,-14.781285,8.96266,-10.507937,-9.547197,10.156265,-9.734772,-21.967861,7.7937226,-7.266387,9.384657,9.881032,-3.0824933,11.793953,3.6799479,16.416824,-15.947001,63.73102,-20.970201,-6.804201,3.7537868,-60.69396,-17.116526,2.4026864,67.11642,20.634617,-16.731457,-13.836985
5,-0.6306400895118713,4.819389343261719,78.60333251953125,-0.7896805572093156,-5.000122096199343,-80.26725756167747,2.936505,5.267704,-14.625706,9.025187,-10.471587,-9.516811,10.010744,-9.655162,-21.77641,7.792447,-7.0581136,9.413023,9.877623,-2.9414573,11.881545,3.5617988,16.434471,-15.860535,63.579884,-20.989626,-6.811367,3.7493515,-60.717026,-17.080673,2.4640696,67.05044,20.67394,-16.712751,-13.810243
6,-0.5996795296669006,4.927240371704102,78.63239288330078,-0.8815831797331665,-5.026644012768749,-80.46197040616326,2.8935175,5.373733,-14.446947,9.104444,-10.44295,-9.476061,9.868223,-9.566209,-21.55967,7.7957034,-6.8362217,9.441461,9.886186,-2.7745938,11.98291,3.4287848,16.448975,-15.810789,63.440254,-21.001524,-6.821235,3.7383616,-60.746216,-17.03693,2.5131984,66.99479,20.714312,-16.686016,-13.781829
7,-0.5657833814620972,5.043499946594238,78.66158294677734,-0.9787547067860859,-5.056868767513693,-80.68563666638151,2.852002,5.488575,-14.240179,9.19376,-10.417014,-9.428832,9.711891,-9.4713955,-21.313017,7.8025713,-6.6013865,9.469299,9.89568,-2.5923314,12.092856,3.3012724,16.461983,-15.7618475,63.28063,-20.984545,-6.8207736,3.7368958,-60.784943,-16.979471,2.5689769,66.927956,20.768019,-16.654758,-13.762408
8,-0.5295768976211548,5.160398006439209,78.69139862060547,-1.0779235090059422,-5.078356722667229,-80.94347789138794,2.8050768,5.610826,-13.999969,9.2760725,-10.383879,-9.379166,9.5244465,-9.375171,-21.031254,7.8126054,-6.353505,9.495415,9.923585,-2.4027178,12.204064,3.1636758,16.468935,-15.710088,63.105316,-20.92047,-6.800119,3.7637568,-60.80939,-16.926718,2.6268504,66.81459,20.844265,-16.621887,-13.755667
9,-0.48216772079467773,5.292704105377197,78.72154998779297,-1.1769114395876645,-5.0910601339302515,-81.23569349437643,2.749043,5.7358327,-13.723684,9.35829,-10.346082,-9.324587,9.305086,-9.281457,-20.713715,7.826647,-6.0967813,9.521584,9.929724,-2.2099073,12.322308,3.068842,16.469542,-15.599689,62.862072,-20.78909,-6.7443643,3.825702,-60.868137,-16.841877,2.7206259,66.68612,20.940792,-16.59263,-13.782389
10,-0.43629562854766846,5.428121089935303,78.75067138671875,-1.2764723868088603,-5.100750936418987,-81.56051710136308,2.692785,5.864542,-13.413492,9.437799,-10.30303,-9.265055,9.061276,-9.187398,-20.362303,7.8459044,-5.830487,9.547577,9.903462,-2.015286,12.443183,2.99948,16.455942,-15.43354,62.589188,-20.600687,-6.667426,3.914791,-60.954613,-16.69922,2.8457806,66.5478,21.042498,-16.567572,-13.844286
11,-0.3779963552951813,5.569352149963379,78.7795181274414,-1.378981618198422,-5.103408243731494,-81.91809956332936,2.6299477,6.0009947,-13.072867,9.51772,-10.2578535,-9.203919,8.788773,-9.088908,-19.977755,7.8683014,-5.545844,9.571243,9.888723,-1.8084395,12.562184,2.9220726,16.43526,-15.274455,62.302094,-20.384443,-6.5863576,4.0199213,-61.032402,-16.555769,2.9765043,66.371544,21.170938,-16.539255,-13.905727
12,-0.3197459280490875,5.7152228355407715,78.81145477294922,-1.4848436182914708,-5.095005188754275,-82.30845288936102,2.5549035,6.149953,-12.705578,9.599327,-10.2122135,-9.14473,8.48323,-8.980718,-19.561077,7.8921013,-5.2342606,9.590947,9.8803005,-1.589148,12.6723795,2.8405168,16.41419,-15.127634,61.996155,-20.159792,-6.5193844,4.129302,-61.09569,-16.406145,3.11453,66.14866,21.33621,-16.507627,-13.949783
13,-0.2546153962612152,5.878939628601074,78.84326934814453,-1.6026349682340018,-5.072519338022508,-82.73246958326273,2.468208,6.3184633,-12.313031,9.67568,-10.16369,-9.089877,8.142119,-8.85619,-19.112823,7.914593,-4.8945427,9.606854,9.884652,-1.3556026,12.769435,2.7587292,16.396091,-14.988163,61.66488,-19.91701,-6.4751663,4.242596,-61.141937,-16.2536,3.251292,65.87631,21.54763,-16.470222,-13.968732
14,-0.18896661698818207,6.048343181610107,78.87457275390625,-1.7248535686260782,-5.039288296160289,-83.19023535657263,2.3695736,6.499751,-11.892887,9.754824,-10.115544,-9.036913,7.7690587,-8.720664,-18.632586,7.93518,-4.52948,9.621634,9.894042,-1.1124129,12.85838,2.6824493,16.380108,-14.845864,61.304825,-19.650253,-6.4418774,4.3643274,-61.178875,-16.089775,3.393043,65.55968,21.795998,-16.427603,-13.975783
15,-0.11299174278974533,6.209717273712158,78.90656280517578,-1.8467598488629164,-4.999394788974529,-83.67927262821571,2.261619,6.6832533,-11.442815,9.840579,-10.06756,-8.982164,7.3675623,-8.584132,-18.119055,7.9592905,-4.1382585,9.638107,9.895609,-0.8668357,12.944799,2.6087463,16.36974,-14.713238,60.92068,-19.387224,-6.40665,4.490188,-61.20802,-15.905136,3.553337,65.20339,22.067524,-16.387985,-13.9789715
16,-0.03310682252049446,6.393435001373291,78.93257141113281,-1.970370648116848,-4.955261544648347,-84.1953256991249,2.0593505,6.854323,-10.974884,10.118381,-10.115824,-8.922931,6.9440637,-8.4416895,-17.574787,7.9810867,-3.7144496,9.658595,9.88306,-0.61334246,13.031275,2.5325837,16.370815,-14.610028,60.514263,-19.155188,-6.3544445,4.61486,-61.226086,-15.703547,3.7403352,64.807915,22.349115,-16.356663,-13.981931
17,0.062138866633176804,6.573662281036377,78.9515380859375,-2.1278127146409886,-4.906676879819042,-84.73555619757455,1.6036801,7.0194063,-10.516322,10.926948,-10.440416,-8.861084,6.5175023,-8.25301,-17.005224,7.9641895,-3.23849,9.687455,9.848439,-0.3196797,13.113571,2.4664364,16.382517,-14.528824,60.06809,-18.976313,-6.2738347,4.7375636,-61.23999,-15.480918,3.9514623,64.379524,22.638344,-16.335821,-13.977314
18,0.16411565244197845,6.772507667541504,78.97538757324219,-2.2893704301534945,-4.857863026219514,-85.30691480448445,1.1932307,7.2023144,-10.022159,11.639597,-10.7107525,-8.793913,6.0720925,-8.060476,-16.399755,7.9492674,-2.732435,9.729487,9.802727,-0.020254442,13.20214,2.4074445,16.405678,-14.463244,59.585064,-18.831858,-6.174059,4.861325,-61.244247,-15.23526,4.18012,63.91048,22.94033,-16.322634,-13.966575
19,0.27795109152793884,6.976107597351074,79.00577545166016,-2.452510067827124,-4.8023991405248845,-85.9034949521222,0.79711705,7.39827,-9.5028105,12.300781,-10.947819,-8.720879,5.6020513,-7.862407,-15.769579,7.9336896,-2.1957703,9.776189,9.740551,0.28295046,13.286782,2.3399496,16.445662,-14.427327,59.10043,-18.688025,-6.078227,4.982162,-61.229465,-14.967292,4.4394245,63.395325,23.257214,-16.315357,-13.966906
20,0.3940978944301605,7.183379173278809,79.03041076660156,-2.595853316411082,-4.733245410066172,-86.523586367586,0.3859703,7.5800323,-8.960323,12.952342,-11.167633,-8.641113,5.0516043,-7.6958117,-15.112875,8.019364,-1.6823562,9.820055,9.663754,0.56311285,13.361084,2.2472155,16.509865,-14.43749,58.649014,-18.511286,-6.008835,5.0956917,-61.183964,-14.6793375,4.740281,62.82657,23.592173,-16.312033,-13.994362
21,0.508993923664093,7.405786991119385,79.03211975097656,-2.652823217806292,-4.629396889010142,-87.18127836564085,-0.079158664,7.677697,-8.372105,13.631258,-11.3839,-8.547643,3.8929822,-7.761361,-14.339271,9.291228,-1.7628486,9.873293,9.591674,0.75335073,13.412005,2.1290922,16.603764,-14.510118,58.233433,-18.273863,-5.9781103,5.1975513,-61.106216,-14.372836,5.085828,62.20121,23.949303,-16.314037,-14.062266
22,0.6430363059043884,7.642158031463623,79.02798461914062,-2.691723480158676,-4.51103190958446,-87.85877939205248,-0.568349,7.758782,-7.763612,14.317704,-11.591231,-8.445814,2.6854105,-7.833371,-13.54217,10.59051,-1.8301771,9.9300375,9.506002,0.9192291,13.453592,1.9945459,16.726763,-14.635403,57.83342,-18.001902,-5.971028,5.29018,-60.994152,-14.04845,5.466646,61.51622,24.326586,-16.321762,-14.157502
23,0.7685890197753906,7.870278358459473,79.01679229736328,-2.7187016338860235,-4.395184024945519,-88.55878216530783,-1.0626013,7.836642,-7.1333766,15.018178,-11.801271,-8.338035,1.4560864,-7.895065,-12.72315,11.898395,-1.8704916,9.988186,9.404145,1.0689535,13.504203,1.8402826,16.877747,-14.792116,57.453403,-17.741459,-5.9690785,5.377254,-60.850693,-13.70582,5.8726153,60.781754,24.717152,-16.331078,-14.257849
24,0.9040580987930298,8.101828575134277,79.00308990478516,-2.7415666803631806,-4.298882597672527,-89.28436094520347,-1.5422,7.923616,-6.479553,15.736162,-12.023215,-8.226784,0.22743648,-7.932401,-11.883606,13.204761,-1.8713242,10.045127,9.283447,1.2099568,13.582375,1.6616554,17.056019,-14.959256,57.09872,-17.539572,-5.9539714,5.462377,-60.678284,-13.34274,6.291158,60.007935,25.113043,-16.337942,-14.341525
25,1.055879831314087,8.34129524230957,78.98626708984375,-2.763759840584074,-4.218849967002788,-90.0342889447907,-2.0157201,8.020298,-5.805116,16.48331,-12.263236,-8.108411,-1.0049355,-7.94493,-11.024488,14.515591,-1.8327243,10.105949,9.138036,1.3468707,13.683269,1.4583611,17.262026,-15.151145,56.771725,-17.421276,-5.928313,5.545877,-60.477238,-12.955637,6.7293906,59.19194,25.531729,-16.334213,-14.403425
26,1.2051142454147339,8.589204788208008,78.96157836914062,-2.779425314628722,-4.147827891017043,-90.80819035786948,-2.4845,8.124011,-5.109375,17.243439,-12.512817,-7.9834447,-2.251927,-7.936361,-10.144603,15.8382845,-1.7611707,10.171023,8.969283,1.4749695,13.799435,1.2343315,17.495564,-15.37172,56.468044,-17.357649,-5.899012,5.6260233,-60.24568,-12.543864,7.1908236,58.331,25.96905,-16.324593,-14.455896
27,1.3646584749221802,8.846094131469727,78.93045043945312,-2.789382979954746,-4.096226500260578,-91.61024092917532,-2.9368474,8.23895,-4.3873386,18.018265,-12.770047,-7.8592772,-3.497639,-7.8989186,-9.24394,17.157211,-1.6549159,10.2297945,8.78383,1.5874922,13.943224,0.9909842,17.754385,-15.581699,56.18665,-17.313297,-5.85726,5.702462,-59.982758,-12.111353,7.6621537,57.43432,26.38945,-16.324322,-14.503356
28,1.521272897720337,9.107206344604492,78.89759826660156,-2.7931966823809797,-4.074207117817702,-92.44477639117302,-3.3541532,8.369167,-3.6327512,18.79496,-13.028635,-7.743349,-4.7326493,-7.8272343,-8.321158,18.470903,-1.5146972,10.271295,8.590701,1.678444,14.127473,0.7281565,18.03664,-15.745664,55.921967,-17.253828,-5.789611,5.7764187,-59.687157,-11.662147,8.126983,56.510952,26.756027,-16.348362,-14.5493555
29,1.694663405418396,9.380415916442871,78.85144805908203,-2.7882291518334203,-4.087093726395886,-93.31070816018749,-3.7352705,8.514261,-2.8477204,19.582603,-13.290435,-7.637601,-5.957843,-7.723261,-7.378555,19.794344,-1.3449863,10.289636,8.391075,1.7528604,14.356903,0.44073611,18.339632,-15.857972,55.68232,-17.165657,-5.6930733,5.823805,-59.362236,-11.199429,8.581408,55.555588,27.08038,-16.407324,-14.589583
30,1.8615186214447021,9.643023490905762,78.80375671386719,-2.7750220178673928,-4.127582975928883,-94.20698284455523,-4.0878143,8.672236,-2.0337818,20.381536,-13.556993,-7.537355,-7.178835,-7.588608,-6.4162793,21.127756,-1.1444135,10.291606,8.183109,1.8121479,14.623332,0.12551454,18.662714,-15.940646,55.470943,-17.06824,-5.5742006,5.8523016,-59.005016,-10.722664,9.032099,54.56468,27.374979,-16.490644,-14.622927
31,2.030574083328247,9.918313980102539,78.74766540527344,-2.7502307483569925,-4.186803598810204,-95.1386097338828,-4.40686,8.844288,-1.1839364,21.168848,-13.8217945,-7.4405394,-8.3894005,-7.4176083,-5.430925,22.438965,-0.90381175,10.285694,7.9667664,1.8420833,14.919289,-0.21107474,19.008963,-15.992767,55.27627,-16.975983,-5.436854,5.909475,-58.612507,-10.233128,9.493274,53.55612,27.60746,-16.581347,-14.660091
32,2.195233106613159,10.203530311584473,78.68338775634766,-2.7109066424992245,-4.255991870418866,-96.11032101326916,-4.686642,9.031042,-0.29098788,21.919477,-14.077765,-7.345475,-9.58332,-7.2046666,-4.419003,23.696472,-0.61427075,10.28111,7.743952,1.8285627,15.238322,-0.5616363,19.382837,-16.012684,55.08398,-16.902708,-5.2844725,6.042316,-58.17853,-9.730435,9.972959,52.543575,27.743732,-16.662306,-14.711201
33,2.366137981414795,10.48288345336914,78.62217712402344,-2.6536231211542365,-4.332249791361441,-97.11820114856738,-4.9297304,9.228049,0.642809,22.633053,-14.323451,-7.251329,-10.772557,-6.9555945,-3.3861146,24.922535,-0.2766062,10.272891,7.5124855,1.7668996,15.577891,-0.931165,19.788927,-16.003986,54.896534,-16.86377,-5.1191726,6.2590885,-57.698074,-9.21116,10.471828,51.517735,27.766457,-16.725197,-14.789973
34,2.5387380123138428,10.759161949157715,78.55628967285156,-2.5798002791058576,-4.419403870332375,-98.16169805481663,-5.1361494,9.435187,1.6156628,23.31863,-14.561271,-7.1595464,-11.955407,-6.6704845,-2.3326745,26.125614,0.10513874,10.259952,7.272078,1.6621857,15.941318,-1.3200077,20.227852,-15.966241,54.715637,-16.84967,-4.93796,6.535466,-57.175972,-8.67479,10.987637,50.475613,27.69544,-16.780485,-14.88801
35,2.71335768699646,11.047781944274902,78.48375701904297,-2.4940227987076704,-4.518887710524338,-99.25134907124271,-5.29879,9.660202,2.6351614,23.971968,-14.792918,-7.0719447,-13.102647,-6.335368,-1.2475852,27.25077,0.5354734,10.258742,7.0282087,1.5168508,16.331806,-1.7143662,20.6973,-15.891151,54.526386,-16.835665,-4.736829,6.86949,-56.62062,-8.127217,11.524253,49.4396,27.55491,-16.839146,-14.981899
36,2.8899331092834473,11.34029769897461,78.4067611694336,-2.40001153487228,-4.632101295271798,-100.39759253428267,-5.4091606,9.911157,3.7089317,24.58785,-15.0194435,-6.9901943,-14.183472,-5.9374924,-0.11954099,28.241207,1.0178368,10.28668,6.788164,1.3347517,16.752249,-2.1031458,21.19349,-15.773063,54.316463,-16.797958,-4.511796,7.2596292,-56.041023,-7.5782423,12.087085,48.432594,27.369743,-16.911873,-15.047584
37,3.075084686279297,11.635859489440918,78.32809448242188,-2.290485851562449,-4.763411565539057,-101.60174795709547,-5.4489455,10.179579,4.8443685,25.14532,-15.238152,-6.9150515,-15.193589,-5.4847393,1.0611438,29.101704,1.5449737,10.341429,6.5593987,1.1111571,17.209383,-2.4911692,21.714296,-15.608718,54.07655,-16.723867,-4.2452927,7.700457,-55.427185,-7.033093,12.668554,47.438087,27.126326,-17.001852,-15.074664
38,3.248026132583618,11.92470932006836,78.25457763671875,-2.164688857514226,-4.909819049632387,-102.85902942306132,-5.425471,10.462533,6.0364037,25.653212,-15.448987,-6.8457375,-16.144732,-4.9819026,2.2867067,29.856554,2.1154675,10.418834,6.341381,0.84798944,17.699402,-2.887439,22.259583,-15.405769,53.819317,-16.627573,-3.9446428,8.1944275,-54.77605,-6.4931545,13.270353,46.448902,26.819647,-17.102549,-15.07681
39,3.425565004348755,12.213638305664062,78.18122100830078,-2.0382463796208596,-5.063101053927183,-104.17091909328305,-5.3699827,10.778818,7.2731967,26.15408,-15.659165,-6.781283,-17.035778,-4.4136457,3.5434573,30.49098,2.7425005,10.533085,6.130502,0.56113154,18.209646,-3.289949,22.828997,-15.181231,53.569412,-16.53018,-3.6434836,8.751992,-54.10695,-5.963182,13.908839,45.5019,26.4879,-17.210003,-15.065346
40,3.6069159507751465,12.51346492767334,78.10958099365234,-1.9261497911797092,-5.2154249649055,-105.53892980278061,-5.3135552,11.148625,8.542438,26.691751,-15.876656,-6.7199054,-17.867844,-3.7651877,4.817967,30.99501,3.436012,10.697712,5.924356,0.26736143,18.728195,-3.6962361,23.420715,-14.950701,53.350887,-16.449982,-3.375625,9.3838415,-53.43678,-5.4496303,14.598024,44.63216,26.169844,-17.319588,-15.051221
41,3.794926404953003,12.82082462310791,78.03372192382812,-1.8330799194888547,-5.367426692975243,-106.96255136745951,-5.2601113,11.576275,9.840505,27.275808,-16.104935,-6.6603475,-18.638094,-3.036307,6.1191297,31.360712,4.1972637,10.9147,5.7197633,-0.023844069,19.255745,-4.1151657,24.036499,-14.747578,53.183533,-16.360977,-3.1563509,10.128193,-52.76837,-4.9573603,15.354147,43.846294,25.870615,-17.440563,-15.027075
42,3.9836063385009766,13.124120712280273,77.95649719238281,-1.7499883806253083,-5.523127404000212,-108.44100098777899,-5.188642,12.052013,11.174505,27.88025,-16.339159,-6.602688,-19.344448,-2.2391467,7.4528065,31.597887,5.0175457,11.178622,5.5239325,-0.32069093,19.798597,-4.5499635,24.675829,-14.560419,53.052933,-16.264534,-2.9651568,10.967666,-52.089508,-4.4885116,16.162083,43.12166,25.572985,-17.57121,-14.9894705
43,4.172813415527344,13.424700736999512,77.88177490234375,-1.673081624815653,-5.681650315616085,-109.97604916197604,-5.0982704,12.577077,12.546934,28.509064,-16.57675,-6.546996,-19.986935,-1.3800714,8.801914,31.716105,5.8955994,11.491469,5.3461723,-0.6331498,20.352526,-4.9867754,25.33165,-14.332813,52.93134,-16.218287,-2.7838662,11.830673,-51.39882,-4.046116,16.995333,42.457214,25.282976,-17.691109,-14.955711
44,4.364277362823486,13.739727020263672,77.80522155761719,-1.600435820365728,-5.842751449674434,-111.56947598077679,-4.983608,13.151544,13.961542,29.156887,-16.814144,-6.4937067,-20.566442,-0.4649797,10.149672,31.724878,6.830379,11.854902,5.1961775,-0.9691064,20.913136,-5.413596,25.994291,-14.007516,52.79523,-16.278683,-2.596707,12.646533,-50.69211,-3.631365,17.825056,41.84862,25.006783,-17.779537,-14.943649
45,4.554028034210205,14.055685997009277,77.72695922851562,-1.5395722443525184,-6.011522464444576,-113.22749338309698,-4.844842,13.785856,15.417071,29.841938,-17.05678,-6.4404025,-21.081003,0.5141224,11.502393,31.625444,7.817646,12.24621,5.0767946,-1.3178685,21.48408,-5.8294067,26.660192,-13.578096,52.65815,-16.485798,-2.4151456,13.398184,-49.970608,-3.2436404,18.660837,41.297775,24.7403,-17.818764,-14.966853
46,4.746128082275391,14.373411178588867,77.645263671875,-1.4861386631937656,-6.187339879771331,-114.9472167356354,-4.676405,14.47508,16.913961,30.55583,-17.302578,-6.3864856,-21.527117,1.5489333,12.870568,31.40867,8.859623,12.672263,4.9818516,-1.6768222,22.066004,-6.2393193,27.330925,-13.069485,52.531197,-16.797594,-2.246563,14.124902,-49.236862,-2.8823538,19.512913,40.808376,24.481955,-17.824087,-15.013334
47,4.932147026062012,14.694732666015625,77.56318664550781,-1.4257128079946928,-6.362293025917049,-116.71694440021086,-4.473279,15.197376,18.457378,31.271097,-17.5442,-6.3363247,-21.910896,2.6114619,14.24582,31.080576,9.957392,13.179846,4.906393,-2.0666196,22.648684,-6.641837,28.00567,-12.473704,52.39114,-17.151981,-2.0695102,14.841259,-48.49365,-2.550906,20.36029,40.387917,24.241716,-17.825499,-15.062363
48,5.125548839569092,15.01770305633545,77.47740173339844,-1.3429614948541408,-6.526130007464994,-118.52571506027033,-4.231424,15.929225,20.052843,31.960766,-17.774584,-6.2949305,-22.238728,3.6735752,15.622549,30.646736,11.109449,13.817868,4.8463597,-2.507904,23.22173,-7.0361576,28.682255,-11.781518,52.214977,-17.485826,-1.861062,15.561279,-47.743614,-2.2545013,21.182205,40.042324,24.030285,-17.852776,-15.092866
49,5.3168721199035645,15.353838920593262,77.38997650146484,-1.234158557621135,-6.673924485055491,-120.38134553241956,-3.9446642,16.662785,21.714094,32.609985,-17.990776,-6.2668366,-22.519058,4.74794,17.068342,30.110014,12.295596,14.560536,4.8118258,-3.0051398,23.786804,-7.4190755,29.359518,-10.974141,51.99062,-17.798084,-1.6062658,16.267355,-46.986248,-1.9981382,21.980156,39.771854,23.853859,-17.913803,-15.099775
50,5.503544330596924,15.692422866821289,77.29839324951172,-1.1101803072155336,-6.812595998562358,-122.28567711906456,-3.6111448,17.412745,23.433987,33.237328,-18.19608,-6.2527637,-22.753582,5.808293,18.43614,29.466904,13.520791,15.000033,4.8041196,-3.5472798,24.3496,-7.7918315,30.03749,-10.060731,51.734703,-18.115301,-1.3203067,16.960007,-46.217365,-1.7832152,22.761696,39.569138,23.707043,-17.992416,-15.093844
51,5.689749240875244,16.02918815612793,77.21282958984375,-0.9737886009605343,-6.949105286737486,-124.21870557659518,-3.2334049,18.180656,25.189478,33.861362,-18.39211,-6.24812,-22.936466,6.788908,19.521154,28.707977,14.819102,15.000033,4.806192,-4.1299624,24.905048,-8.168907,30.71795,-9.085181,51.475723,-18.424286,-1.0254774,17.681408,-45.435062,-1.6091888,23.512955,39.430435,23.582155,-18.082823,-15.079009
52,5.875341892242432,16.3703556060791,77.11824035644531,-0.8781577121018671,-7.107234966707492,-126.15763195833671,-2.8239338,19.03502,26.931408,34.55195,-18.60472,-6.2582555,-23.002926,7.690363,20.261621,27.741463,16.257647,15.000033,4.8000073,-4.696687,25.460136,-8.564919,31.402039,-8.090508,51.240784,-18.70792,-0.7435921,18.473574,-44.638977,-1.4753882,24.218788,39.353867,23.470951,-18.178926,-15.058432
53,6.04439640045166,16.720870971679688,77.02123260498047,-0.8659823651680447,-7.307599968648768,-128.106063362727,-2.3778176,20.043304,28.645512,35.355446,-18.85426,-6.290315,-22.906559,8.542895,20.642563,26.47132,17.885336,15.000033,4.7862253,-5.204193,26.030455,-8.974596,32.091408,-7.0680823,51.03525,-18.969103,-0.4765887,19.335865,-43.828537,-1.3823758,24.890549,39.353065,23.377522,-18.289076,-15.032631
54,6.201411724090576,17.06472396850586,76.92048645019531,-0.8483228959895471,-7.521500244857959,-130.07466673158123,-1.8753923,21.077612,30.3871,36.178387,-19.099644,-6.322983,-22.725044,9.309172,20.809761,25.01221,19.625986,15.000033,4.7757287,-5.7416153,26.601467,-9.392917,32.787403,-6.004152,50.84786,-19.214455,-0.21417114,20.249796,-43.004734,-1.3310511,25.528511,39.42473,23.304102,-18.413118,-14.999575
55,6.35379695892334,17.420377731323242,76.81716918945312,-0.8186686719526708,-7.746903555257186,-132.0401136256555,-1.3220452,22.115927,32.132866,37.00545,-19.328722,-6.3645754,-22.471218,9.938345,20.631142,23.393147,21.476284,15.000033,4.7599707,-6.314997,27.168194,-9.840023,33.491776,-4.9412165,50.68429,-19.437628,0.04004442,21.229734,-42.168266,-1.3203219,26.097307,39.53946,23.240036,-18.531666,-14.959801
56,6.511360168457031,17.78734016418457,76.69780731201172,-0.7675677835822403,-7.97545486454466,-133.9837916167549,-0.7309308,23.140556,33.861202,37.82829,-19.532488,-6.4229264,-22.16333,10.393799,19.969984,21.649755,23.446402,15.000033,4.7380915,-6.9289117,27.721592,-10.3495865,34.20619,-3.9328833,50.559185,-19.636074,0.28200343,22.291069,-41.317375,-1.3487322,26.556751,39.666973,23.173565,-18.624887,-14.912821
57,6.649940490722656,18.15966033935547,76.5757827758789,-0.6913697510547462,-8.211050884697062,-135.91968152984325,-0.09408517,24.156942,35.584797,38.650608,-19.709412,-6.5043545,-21.76349,10.676168,18.757315,19.67192,25.720875,15.000033,4.7288404,-7.594711,28.26744,-10.926302,34.93164,-2.9375668,50.467937,-19.82474,0.49855623,23.400972,-40.449562,-1.4155113,26.892727,39.807884,23.06523,-18.687408,-14.853673
58,6.7860236167907715,18.546165466308594,76.44564819335938,-0.5729519756422904,-8.44616391641681,-137.86595945658766,0.5924773,25.145105,37.331924,39.466034,-19.859896,-6.5976377,-21.27585,10.816454,17.070513,17.468046,28.285643,15.000033,4.7415733,-8.328637,28.79967,-11.556605,35.66856,-1.9483173,50.407356,-19.99873,0.6965654,24.56298,-39.562973,-1.5184197,27.123724,39.9711,22.93373,-18.72895,-14.7837715
59,6.919190883636475,18.9366397857666,76.29521179199219,-0.30753271967252277,-8.69457955160998,-139.7700994746473,1.3580146,25.933615,39.090508,40.217186,-19.980654,-6.670907,-21.240456,10.8883915,14.96651,16.421293,30.000067,15.000033,4.734735,-9.138403,29.28867,-12.345301,36.265476,-1.1536957,50.513268,-20.08268,0.8722634,25.897835,-38.733425,-1.6249204,27.24145,40.30474,22.828163,-18.76102,-14.724581
60,7.034994602203369,19.317739486694336,76.1213150024414,0.21354192164709662,-8.97756918078444,-141.55236065326804,2.2235005,26.326117,40.816795,40.822243,-20.05914,-6.6904216,-22.085297,10.820215,12.531036,17.621853,30.000067,15.000033,4.6334376,-10.311614,29.793802,-13.081959,37.10655,-0.52018094,50.569572,-20.171688,1.1316766,27.340324,-37.736465,-1.8025404,27.298567,40.410736,22.909636,-18.758047,-14.6429
61,7.154242515563965,19.702390670776367,75.94002532958984,0.6740029513042173,-9.099931719669453,-143.35139929804603,2.9102256,26.827845,42.52405,41.51836,-20.155264,-6.7047606,-22.948908,10.618506,9.623173,18.58267,30.000067,15.000033,4.518133,-11.39715,29.793802,-14.044579,37.89348,-0.3457886,51.047894,-20.146452,1.419223,29.108198,-36.578266,-1.9529749,27.285671,40.674015,23.20046,-18.726126,-14.536407
62,7.2783098220825195,20.093170166015625,75.74949645996094,1.105600398031369,-9.178626360719264,-145.17372213866412,3.5824382,27.39124,44.241398,42.254852,-20.255863,-6.7234945,-23.742231,10.282698,6.2777467,19.418358,30.000067,15.000033,4.4295783,-12.443138,29.793802,-15.128611,38.660915,-0.33491534,51.535095,-20.027296,1.729124,31.137472,-35.4776,-2.121888,27.143051,40.951378,23.580734,-18.680635,-14.452217
63,7.417985916137695,20.497739791870117,75.56517791748047,1.4766729844959887,-9.20002290659613,-146.99642143873368,4.2133203,28.041527,45.9439,43.026207,-20.349642,-6.7519946,-24.316948,9.932189,2.9608624,19.86478,30.000067,15.000033,4.344293,-13.414378,29.793802,-16.325775,39.41688,-0.5557724,52.04294,-19.932396,2.0640857,33.212273,-34.43254,-2.3391004,26.904757,41.212597,24.005081,-18.637157,-14.368375
64,7.550125598907471,20.89712142944336,75.39434051513672,1.7475952039201819,-9.16257410114907,-148.7883097108228,4.7820973,28.809208,47.59803,43.823654,-20.422672,-6.7982407,-24.509233,9.735148,0.14203231,19.60447,30.000067,15.000033,4.2528343,-14.260113,29.793802,-17.69259,40.153046,-1.1328969,52.639194,-19.979223,2.4124694,35.127457,-33.4416,-2.6326005,26.581213,41.447872,24.420965,-18.611912,-14.261361
65,7.689980506896973,21.295896530151367,75.23661041259766,1.8916117468980709,-9.063102854844232,-150.5513691843106,5.284496,29.735176,49.200706,44.662994,-20.478464,-6.8764024,-24.163773,9.824184,-2.0522342,18.301159,30.000067,15.000033,4.159832,-14.941421,29.793802,-19.251692,40.874443,-2.2382314,53.40191,-20.180489,2.715424,37.103287,-32.47604,-3.0265965,26.15928,41.619045,24.847828,-18.606192,-14.107457
66,7.830238342285156,21.686357498168945,75.09719848632812,1.9260729811655575,-8.918967149987749,-152.2806213427096,5.7411537,30.799763,50.75355,45.54187,-20.520372,-6.979048,-23.337614,10.16738,-3.8691504,16.084944,30.000067,15.000033,4.083561,-15.47669,29.793802,-21.055473,41.572083,-3.8403907,54.328896,-20.492783,2.9897594,39.158318,-31.477509,-3.5355146,25.61179,41.688145,25.3125,-18.605381,-13.916304
67,7.96598482131958,22.081323623657227,74.96752166748047,1.870238694241754,-8.754510810196242,-153.93635703565423,6.1618943,31.958996,52.22591,46.433983,-20.537327,-7.0847178,-22.21648,10.687455,-5.405848,13.366939,30.000067,15.000033,4.0150895,-15.888303,29.793802,-23.144854,42.19638,-5.7063313,55.32641,-20.930237,3.334435,40.789246,-30.427744,-4.1630464,24.948046,41.672195,25.77482,-18.605148,-13.7176895
68,8.088574409484863,22.482954025268555,74.84042358398438,1.8595387671127588,-8.638023242851167,-155.42193778367093,6.591869,32.97669,53.553764,47.22332,-20.498085,-7.151698,-21.10594,11.105939,-6.782686,10.922501,30.000067,15.000033,3.8639557,-16.319904,29.793802,-25.488827,42.682957,-7.574514,56.302116,-21.506784,3.8570075,41.491665,-29.327417,-4.88709,24.216396,41.651264,26.198654,-18.599,-13.543606
69,8.193523406982422,22.8702449798584,74.71137237548828,1.9740570400992663,-8.59774781304402,-156.68728153425852,7.0283237,33.72772,54.68743,47.880657,-20.406061,-7.1499014,-21.275145,11.125383,-8.093655,11.560021,27.99165,15.000033,3.5651422,-16.840479,29.793802,-28.054707,42.981533,-9.313165,57.238815,-22.287016,4.730796,41.013546,-28.1987,-5.682546,23.429554,41.67136,26.544376,-18.602459,-13.428768
70,8.301995277404785,23.25362777709961,74.58818817138672,2.0705745746217343,-8.569618912876296,-157.82870033082898,7.4194446,34.45908,55.687534,48.50985,-20.284388,-7.121014,-22.143507,10.958839,-9.29879,13.901168,24.657812,15.000033,3.1818376,-17.282867,29.793802,-30.784409,43.095375,-10.978601,58.114178,-23.18671,5.8688803,39.68497,-27.090984,-6.5552006,22.57495,41.718136,26.826275,-18.621452,-13.36195
71,8.411511421203613,23.644607543945312,74.46312713623047,2.157926649719243,-8.549392015895233,-158.87929676589002,7.790353,35.170204,56.603107,49.092884,-20.130098,-7.101064,-23.106176,10.6411495,-10.511806,16.615145,21.257538,15.000033,2.740201,-17.656382,29.793802,-33.592686,43.049965,-12.620245,58.881042,-24.007933,6.9913993,37.854984,-26.027914,-7.506258,21.684006,41.826504,27.107048,-18.62978,-13.298075
72,8.502368927001953,24.050765991210938,74.34007263183594,2.2476372953471295,-8.533944924318948,-159.86996860563696,8.167796,35.85776,57.4798,49.621418,-19.946785,-7.128937,-24.098373,10.147474,-11.872199,19.554985,18.13525,15.000033,2.2596216,-17.983162,29.793802,-36.38241,42.87185,-14.245947,59.4827,-24.54924,7.802821,35.85342,-25.043911,-8.534931,20.800194,42.033363,27.459991,-18.600925,-13.190157
73,8.591575622558594,24.461862564086914,74.21843719482422,2.3443168428865433,-8.51851072222984,-160.80168090865072,8.547023,36.517086,58.323105,50.09752,-19.738739,-7.2159576,-25.091442,9.418287,-13.448161,22.71645,15.366125,15.000033,1.7491512,-18.26307,29.793802,-39.13081,42.59684,-15.910284,59.83402,-24.97466,8.287409,33.560463,-24.137642,-9.640436,19.894718,42.357967,27.888021,-18.533403,-13.012177
74,8.665651321411133,24.88312339782715,74.09345245361328,2.4676072785621033,-8.512689234739682,-161.64994019603606,8.916706,37.1091,59.100468,50.50628,-19.499138,-7.3393946,-26.061268,8.434354,-15.071042,26.119644,12.7433405,15.000033,1.1802702,-18.54136,29.793802,-41.87127,42.20341,-17.49581,59.99523,-25.251009,8.587196,30.84546,-23.288458,-10.811757,18.964687,42.768852,28.36689,-18.435944,-12.787844
75,8.711912155151367,25.303749084472656,73.9741439819336,2.6328171067705166,-8.53363407694087,-162.41454913282357,9.296298,37.605778,59.805344,50.825085,-19.21743,-7.490456,-26.96565,7.263714,-16.525547,29.661837,10.187729,15.000033,0.54767406,-18.82707,29.793802,-44.587048,41.71368,-19.093504,60.07756,-25.281973,8.591936,28.052458,-22.516447,-12.058106,18.073011,43.267056,28.91682,-18.307022,-12.564305
76,8.750062942504883,25.747114181518555,73.84968566894531,2.8476855434447197,-8.58810980181467,-163.10068199562457,9.69441,37.994522,60.435196,51.039852,-18.885088,-7.6601815,-27.796753,6.0084863,-17.621738,33.242813,7.6371083,15.000033,-0.14247029,-19.11475,29.793802,-47.242794,41.15351,-20.779104,60.158028,-24.976109,8.185378,25.519047,-21.74116,-13.354332,17.188559,43.7545,29.4395,-18.12998,-12.379433
77,8.763330459594727,26.22142791748047,73.72354125976562,3.009058590799832,-8.654345880252974,-163.78754840812593,10.125544,38.482273,61.04755,51.258694,-18.521849,-7.883993,-28.52977,4.8331914,-18.520285,36.711926,5.1534724,14.381845,-0.8207395,-19.307053,29.793802,-49.802372,40.53455,-22.59554,60.220196,-24.293547,7.142124,23.288883,-20.962023,-14.682543,16.313839,44.207638,29.905224,-17.905869,-12.307594
78,8.762784957885742,26.725255966186523,73.58953094482422,3.1125465368291976,-8.724962264769314,-164.4822662794633,10.581529,39.08947,61.649708,51.49191,-18.121655,-8.1682625,-29.161928,3.6426473,-19.5938,40.114956,2.7523947,12.090191,-1.4872772,-19.451042,29.793802,-52.31722,39.863323,-24.51846,60.262066,-23.338846,5.557719,21.222979,-20.353912,-16.100714,15.599325,44.791073,30.534964,-17.667095,-12.318093
79,8.752391815185547,27.244752883911133,73.4541244506836,3.247874185322644,-8.782013957564468,-165.12478801297104,11.017191,39.62182,62.201923,51.63184,-17.664753,-8.470615,-29.781425,2.39578,-20.386156,43.533146,0.41121837,9.883733,-2.2057142,-19.588388,29.720314,-54.753178,39.14396,-26.441372,60.26234,-22.222212,3.8114243,19.361101,-19.736454,-17.566668,14.869057,45.383656,31.157557,-17.378872,-12.259917
80,8.723978996276855,27.777130126953125,73.3302993774414,3.417456677713846,-8.811439335047126,-165.72553017666007,11.420064,40.07389,62.71198,51.66684,-17.13815,-8.783025,-30.3584,1.0964583,-20.98958,46.86783,-1.7651738,7.892878,-2.9461439,-19.732893,29.57605,-57.22926,38.390766,-28.310492,60.28403,-21.002464,2.291589,17.725548,-19.133698,-19.063812,14.074969,46.008724,31.797274,-17.041214,-11.999484
81,8.672170639038086,28.332292556762695,73.21891784667969,3.613991784076049,-8.827519664951593,-166.26517080618345,11.781867,40.45793,63.156303,51.60794,-16.541113,-9.10729,-30.891333,-0.25197765,-21.419565,50.132736,-3.720304,6.2084284,-3.7121038,-19.89652,29.413944,-59.757698,37.607605,-30.083939,60.27806,-19.532866,1.0234917,16.339024,-18.559614,-20.6006,13.234475,46.665203,32.482075,-16.647795,-11.491433
82,8.623908042907715,28.90074920654297,73.10558319091797,3.8342913536610257,-8.834004051886618,-166.74721474277422,12.1111355,40.7807,63.534874,51.45895,-15.88174,-9.44883,-31.408285,-1.6492474,-21.659578,53.37644,-5.5036545,4.7217727,-4.513152,-20.073383,29.237207,-62.292297,36.797173,-31.78687,60.223194,-17.808445,-0.17619595,15.186091,-18.019646,-22.176914,12.365068,47.34953,33.192734,-16.19905,-10.814602
83,8.552141189575195,29.493396759033203,73.00431060791016,4.084131424344567,-8.820816838359233,-167.2171830504277,12.439698,41.02723,63.88992,51.192123,-15.156135,-9.806206,-31.90717,-3.0992346,-21.75627,56.57172,-7.1779785,3.2682738,-5.2998767,-20.246899,29.03853,-64.87717,35.98473,-33.49415,60.180622,-16.11295,-1.2201419,14.216295,-17.512167,-23.788153,11.436793,48.040527,33.92876,-15.714863,-10.037093
84,8.464712142944336,30.103515625,72.91205596923828,4.369668246506047,-8.776821050448687,-167.7203572906801,12.799583,41.182434,64.26437,50.780678,-14.360392,-10.177502,-32.385277,-4.6009765,-21.745329,59.686615,-8.8163395,1.6907313,-6.025139,-20.404264,28.811932,-67.55238,35.20708,-35.28739,60.19942,-14.740153,-2.0101738,13.363218,-17.032545,-25.421906,10.412345,48.715225,34.67834,-15.215615,-9.224631
85,8.370598793029785,30.729618072509766,72.8311538696289,4.690769003059237,-8.703637000701654,-168.24900257712534,13.200197,41.237602,64.69467,50.210808,-13.512775,-10.548498,-32.875126,-6.1168303,-21.559347,62.736137,-10.411291,-0.008452401,-6.6900225,-20.56011,28.56231,-70.2238,34.480366,-37.068817,60.111076,-13.729092,-2.3513234,12.607673,-16.576328,-27.067894,9.304398,49.395752,35.458755,-14.698496,-8.349086
86,8.259559631347656,31.38064193725586,72.76019287109375,5.044235547323661,-8.602146183269259,-168.78574869805016,13.619443,41.20287,65.14515,49.5001,-12.609757,-10.924395,-33.3874,-7.653107,-21.206186,65.735016,-11.938094,-1.7628223,-7.402078,-20.726894,28.276524,-73.065,33.78833,-38.903904,60.103153,-13.004626,-2.3213968,11.948337,-16.24909,-28.727722,8.214055,50.1422,36.260155,-14.1540165,-7.3968616
87,8.127214431762695,32.053226470947266,72.69498443603516,5.429052090795229,-8.466731489242827,-169.36120353193508,14.041149,41.09317,65.54719,48.67207,-11.614051,-11.333213,-33.88105,-9.277886,-20.824343,68.64749,-13.461044,-3.6283302,-8.00241,-20.880756,27.957537,-75.86969,33.187645,-40.864857,60.098415,-12.395045,-2.2759864,11.392837,-15.915131,-30.383385,6.978958,50.86975,37.049004,-13.592289,-6.435805
88,7.9808197021484375,32.74100875854492,72.63506317138672,5.845370313675799,-8.288581447642734,-170.00584016871304,14.447661,40.91884,65.83095,47.74521,-10.484556,-11.80287,-34.31065,-11.065722,-20.547113,71.436066,-15.059414,-5.6619334,-8.4968405,-21.015472,27.591034,-78.791336,32.731995,-43.208923,60.344013,-11.945236,-2.5396116,10.925553,-15.62688,-32.021164,5.6023664,51.576717,37.794815,-13.028354,-5.5400214
89,7.823630332946777,33.454246520996094,72.58051300048828,6.302413060832474,-8.060742346430178,-170.71457623394863,14.8495455,40.640358,66.04805,46.670635,-9.2309065,-12.339492,-34.66519,-13.137056,-20.462278,74.16514,-16.872942,-7.9313784,-8.91303,-21.151287,27.157888,-81.86321,32.454044,-46.025326,60.756927,-11.738582,-3.0961227,10.542807,-15.427483,-33.617233,4.0788174,52.31095,38.505764,-12.446603,-4.712817
90,7.651427268981934,34.19245910644531,72.52560424804688,6.795311924823923,-7.787294493455132,-171.4755287420543,15.242602,40.26172,66.20225,45.454636,-7.863483,-12.930032,-34.97648,-15.417456,-20.462948,76.82717,-18.871435,-10.381353,-9.306235,-21.309692,26.648375,-85.03331,32.34641,-49.22806,61.25567,-11.77078,-3.787043,10.240399,-15.3859415,-35.163315,2.5052664,53.13468,39.18254,-11.853794,-3.9253013
91,7.460536003112793,34.95329666137695,72.47427368164062,7.301177424163888,-7.47641685265822,-172.3095959054812,15.587799,39.867954,66.15208,44.209583,-6.3461437,-13.574433,-35.266716,-17.684122,-20.404913,79.286,-20.867682,-12.878993,-9.659924,-21.479158,26.06962,-88.175514,32.399357,-52.742107,61.938213,-11.856242,-4.740698,10.017187,-15.516114,-36.665062,0.96284074,54.031754,39.77153,-11.300331,-3.1951346
92,7.260961055755615,35.728797912597656,72.42000579833984,7.841747464395952,-7.100395940438431,-173.1859396956922,15.767417,39.474903,65.723885,43.025654,-4.6440983,-14.243002,-35.630554,-19.773125,-20.073956,81.43682,-22.635406,-15.000033,-10.006643,-21.682043,25.385807,-91.18835,32.609,-56.51537,62.898533,-11.810052,-6.0901923,9.875239,-15.796425,-38.133823,-0.49718913,54.95287,40.224796,-10.83555,-2.536858
93,7.035113334655762,36.47781753540039,72.36621856689453,8.772024459137,-6.794287296605237,-173.84567668762466,15.804613,38.443035,64.81091,41.533394,-2.6808498,-15.000033,-36.16392,-22.167017,-18.758821,83.62492,-24.32522,-15.000033,-10.5961485,-22.291767,24.61715,-94.18497,32.990982,-60.771057,64.270035,-11.626343,-8.170014,9.804282,-16.225784,-39.58533,-1.8871979,55.862003,40.51733,-10.486262,-1.9897137
94,6.783950328826904,37.23753356933594,72.3122787475586,9.9299197840672,-6.544846836973004,-174.4384005626127,15.849887,37.072662,63.806744,39.838547,-0.47760555,-15.000033,-36.739174,-24.828056,-17.152962,85.7279,-25.94658,-15.000033,-11.307473,-23.136871,23.785532,-97.196785,33.53424,-65.52602,65.92365,-11.394362,-10.804121,9.803359,-16.849224,-41.030914,-3.1746347,56.805386,40.68137,-10.229395,-1.5359836
95,6.513313293457031,38.050453186035156,72.2352294921875,10.978284972624461,-6.278088335032544,-175.2043313105082,15.805322,35.96742,62.342957,38.39108,1.846222,-15.000033,-37.212177,-26.988853,-15.557737,87.24794,-27.147017,-15.000033,-11.90017,-23.855854,22.912354,-100.02593,34.202423,-70.41332,67.58508,-11.057944,-13.368573,9.9062805,-17.66441,-42.476315,-4.2925124,57.82324,40.757027,-10.037054,-1.1009592
96,6.214158058166504,38.93360137939453,72.1374282836914,11.658249325425714,-5.940653052984198,-176.30988170079488,15.553423,35.5768,60.147633,37.573845,4.14641,-15.000033,-37.415974,-28.003847,-14.25401,87.78857,-27.569813,-15.000033,-12.16211,-24.17459,22.05922,-102.48585,34.96325,-75.04537,69.02412,-10.549829,-15.247452,10.156791,-18.639519,-43.93184,-5.2055364,58.939278,40.789597,-9.876665,-0.6060108
97,5.9148268699646,39.8997917175293,72.01335906982422,11.787152356629072,-5.4791835589646265,-177.87219146809755,15.068824,36.22911,57.220577,37.581944,6.4386497,-15.000033,-37.27092,-27.556864,-13.414235,87.08546,-26.474827,-15.000033,-11.919428,-23.90079,21.26975,-104.5984,35.817116,-79.46124,70.26578,-9.656049,-16.242222,10.7522135,-19.731308,-45.41554,-5.9468656,60.13003,40.801273,-9.761094,-0.0029543084
98,5.600905418395996,40.929141998291016,71.87268829345703,11.493331267769335,-4.932528307406355,-179.74971994009437,14.328684,37.55261,53.56064,38.10192,8.818508,-15.000033,-36.79451,-26.05655,-12.955898,85.4344,-24.247326,-15.000033,-11.306803,-23.17059,20.52029,-106.50512,36.775482,-83.84817,71.438545,-8.464828,-16.688187,11.618192,-20.930496,-46.943333,-6.5440884,61.366547,40.775608,-9.696783,0.6624572
99,5.265939235687256,41.995235443115234,71.71993255615234,10.991280721954032,-4.370998482258242,178.27508537924362,13.219958,38.906822,48.90469,38.758595,11.256895,-15.000033,-35.984413,-23.910833,-12.733701,83.282455,-22.21419,-15.000033,-10.555919,-22.210945,19.776075,-108.204285,37.835457,-88.02161,72.51148,-7.37138,-16.795336,12.380606,-22.24083,-48.512333,-6.9781866,62.6518,40.70137,-9.637119,1.3322859
100,4.907358646392822,43.04659652709961,71.54850006103516,10.878316730163862,-3.995256901345763,176.5868557743401,11.826183,39.213444,43.339493,39.09295,13.667702,-14.104687,-34.90669,-21.804682,-12.01447,81.230446,-21.792301,-14.216972,-10.058347,-21.641726,19.053299,-109.68087,38.98975,-91.77843,73.45777,-6.765719,-16.79091,12.668321,-23.676085,-50.115417,-7.224838,63.998978,40.570805,-9.535809,1.9518331
101,4.521326541900635,44.083778381347656,71.33346557617188,10.79883720472996,-3.6803615484661236,174.9366457620283,10.197731,38.944176,36.70022,39.362457,16.113977,-13.027708,-33.35467,-18.992764,-10.842377,78.92608,-23.690136,-11.818616,-9.54551,-21.071737,18.29718,-110.87967,40.237465,-95.099106,74.304184,-6.7015533,-16.629087,12.326605,-25.215181,-51.76002,-7.240619,65.406685,40.335236,-9.363431,2.5233216
102,4.130136013031006,45.118446350097656,71.08111572265625,10.901779661162202,-3.3178764948820905,173.38154581348718,8.314093,38.01786,29.328365,39.651703,18.647354,-11.566894,-31.55443,-16.019428,-9.579397,76.334595,-27.18929,-9.583002,-9.090557,-20.658674,17.385178,-111.86661,41.59073,-98.086914,75.096695,-6.980027,-16.23394,11.573708,-26.85589,-53.441376,-7.048348,66.86574,40.028275,-9.149563,3.0759344
103,3.743185520172119,46.146671295166016,70.7938003540039,11.02392936971558,-2.8525569035718257,171.8694597226223,6.2758784,36.461838,21.44459,40.117153,21.007133,-10.355049,-29.913166,-13.227498,-8.562673,73.90416,-31.075157,-8.162702,-8.627198,-20.238724,16.414112,-112.78646,43.058537,-100.69146,75.855225,-7.6118135,-15.786897,10.606029,-28.648558,-55.13329,-6.733036,68.3527,39.73384,-8.935907,3.589944
104,3.3849363327026367,47.180809020996094,70.4900131225586,11.12987473270482,-2.157389406396048,170.42961316045754,4.098893,34.14443,13.267742,40.90629,22.906267,-9.997025,-28.993765,-10.945655,-7.965116,72.13089,-34.04708,-7.8608813,-8.195983,-19.782343,15.364981,-113.78004,44.643208,-102.866936,76.58768,-8.613921,-15.468684,9.616947,-30.61876,-56.804836,-6.3929305,69.83106,39.542137,-8.76589,4.0388684
105,3.0760626792907715,48.207340240478516,70.17221069335938,11.213462740775487,-1.0883919982732375,169.04315516255582,1.7538213,30.62031,4.2108793,42.185867,24.089941,-10.990316,-29.12143,-9.185684,-7.936775,71.23409,-35.796967,-8.85482,-7.8090777,-19.2742,14.096237,-114.8452,46.34448,-104.54609,77.31243,-10.104562,-15.315711,8.516892,-32.76304,-58.43752,-6.0714855,71.27068,39.47319,-8.661772,4.383579
106,2.834563732147217,49.226863861083984,69.8586196899414,11.267703379421892,0.21602607269634586,167.64682756053392,-0.26273134,25.95696,-5.4453435,44.10178,24.477407,-13.152226,-29.908978,-7.6306458,-8.314504,70.905975,-36.96253,-10.786458,-7.3733673,-18.74891,12.714065,-115.93303,48.157074,-105.76808,78.03714,-12.040148,-15.204076,7.2471957,-35.060066,-60.036644,-5.7258873,72.678276,39.474503,-8.599186,4.6382627
107,2.700443744659424,50.23631286621094,69.55704498291016,11.259351614146652,1.4776032098920524,166.21516416178676,-1.5598695,21.203157,-13.94613,46.65044,24.109497,-15.000033,-30.843685,-6.105374,-8.820799,70.832634,-37.659973,-13.033695,-6.8092914,-18.214344,11.53192,-117.08079,50.068787,-106.642296,78.748566,-14.20338,-15.087467,6.0476,-37.389244,-61.599586,-5.401573,74.00021,39.522217,-8.555491,4.862968
108,2.6234681606292725,51.23616027832031,69.29805755615234,11.463738200396035,2.4231524416298873,164.78734316505822,-2.3485043,17.30307,-19.587448,49.49031,23.501007,-15.000033,-31.53063,-4.784043,-8.944243,70.89269,-38.069653,-14.908069,-6.107613,-17.978485,10.827996,-118.358536,52.05879,-107.30709,79.41964,-16.377743,-14.945645,5.1572285,-39.688313,-63.123165,-5.1369777,75.22908,39.581875,-8.501361,5.110218
109,2.58524489402771,52.194583892822266,69.10562896728516,11.782058187047365,2.998986069765953,163.43866836480422,-2.894653,13.948993,-23.435698,52.64338,22.926573,-15.000033,-31.929619,-3.777269,-8.716164,71.14807,-38.021362,-15.000033,-5.34115,-17.942652,10.716964,-119.83036,54.1146,-107.70901,80.0621,-18.587805,-14.778058,4.6483626,-41.92411,-64.601814,-5.022397,76.318474,39.670483,-8.427413,5.422396
110,2.5560050010681152,53.16240310668945,68.98236083984375,12.004272849679268,3.397686875201262,162.07330115534234,-3.4842837,11.152578,-26.009396,56.163258,22.181576,-15.000033,-32.26736,-2.681721,-8.468625,71.55261,-37.43798,-15.000033,-4.4622602,-17.878147,11.013412,-121.44209,56.221992,-107.81315,80.69459,-20.934994,-14.611266,4.3878884,-44.051174,-66.04042,-5.0663075,77.24681,39.825565,-8.349008,5.7581053
111,2.523545026779175,54.14039993286133,68.92913055419922,12.135041859500125,3.674674028689388,160.76629220200894,-4.351054,8.910603,-27.643965,59.91779,21.121143,-15.000033,-32.421627,-1.5069941,-8.259399,71.837364,-36.63575,-15.000033,-3.5578148,-17.734005,11.5401535,-123.03301,58.354305,-107.74417,81.33846,-23.318468,-14.487184,4.3056846,-46.105522,-67.44156,-5.217304,78.12035,39.89968,-8.281104,6.057073
112,2.4893739223480225,55.14012145996094,68.92103576660156,12.179412739217403,3.8864119200106506,159.59496315393568,-5.6306562,7.1807356,-28.697721,63.747723,19.599747,-15.000033,-32.27607,-0.2969164,-8.151351,71.73462,-35.92705,-15.000033,-2.7037547,-17.48619,12.115247,-124.45903,60.47685,-107.66387,82.03139,-25.639818,-14.442495,4.32147,-47.97317,-68.82058,-5.324386,78.94882,39.96761,-8.238374,6.252982
113,2.491647243499756,56.14872741699219,68.9365234375,12.143085538934882,4.003048602976449,158.64392288883818,-7.4099283,6.0459905,-29.201687,67.67959,17.518038,-15.000033,-31.759142,0.8916518,-8.196906,71.14678,-35.36648,-15.000033,-1.9480505,-17.132864,12.754131,-125.704475,62.566414,-107.5877,82.86524,-27.977095,-14.590391,4.465581,-49.649925,-70.1747,-5.3531566,79.76975,40.02485,-8.219657,6.3267016
114,2.5008270740509033,57.1568603515625,68.97019958496094,12.027276394667176,4.030562232997601,157.88677097268035,-9.66851,5.496487,-29.153318,71.736015,15.009591,-15.000033,-30.986568,2.0729566,-8.365507,70.21452,-34.779514,-15.000033,-1.2718749,-16.672253,13.492476,-126.77904,64.61779,-107.40868,83.8409,-30.356798,-14.894454,4.746127,-51.256332,-71.48922,-5.391914,80.62735,39.975716,-8.223236,6.317414
115,2.5077342987060547,58.15824890136719,69.0124282836914,11.819888433016827,4.071758565852184,157.21697522858082,-12.291422,5.332119,-28.842846,75.73394,12.265179,-15.000033,-30.108084,3.3171105,-8.592977,69.015625,-34.128468,-15.000033,-0.61024004,-16.09059,14.196434,-127.608444,66.62601,-107.137245,84.85478,-32.606388,-15.156038,5.054473,-52.776127,-72.777626,-5.3890905,81.4968,39.93676,-8.254272,6.2456737
116,2.5101799964904785,59.160072326660156,69.06439971923828,11.507753054255916,4.226717443996744,156.52091535830348,-15.154675,5.3352284,-28.518782,79.49071,9.471715,-15.000033,-29.268667,4.69446,-8.808107,67.6298,-33.37652,-15.000033,0.11298624,-15.356057,14.732364,-128.09329,68.59322,-106.76889,85.8069,-34.56773,-15.172049,5.2965736,-54.350582,-74.05207,-5.2997403,82.43618,39.879883,-8.318839,6.139133
117,2.499749183654785,60.17658233642578,69.12562561035156,11.04062539492243,4.525055050306808,155.82386872305915,-18.371614,5.653422,-28.163542,83.03187,6.5007057,-15.000033,-28.474236,6.255935,-9.025242,65.980934,-32.536736,-15.000033,0.8869155,-14.408456,15.042423,-128.19168,70.5251,-106.24853,86.65527,-36.122536,-14.795715,5.5430613,-56.014526,-75.31445,-5.0926304,83.480774,39.84808,-8.421759,5.976725
118,2.4802703857421875,61.220314025878906,69.1934585571289,10.425109678276044,4.896994136162762,155.12607494189874,-21.914219,6.4024854,-27.712574,86.41156,3.2599962,-15.000033,-27.624617,7.9894304,-9.22299,64.03119,-31.606272,-15.000033,1.7363294,-13.258011,15.212797,-127.89355,72.43369,-105.56951,87.463135,-37.419193,-14.168612,5.8209143,-57.79184,-76.56135,-4.7864327,84.63736,39.764973,-8.558915,5.7559967
119,2.4106552600860596,62.24284362792969,69.30330657958984,10.350023175672042,5.189941669704264,154.27082605721407,-25.947756,8.114715,-25.320919,89.27379,0.19620302,-11.597806,-26.715012,9.220464,-8.854874,62.42433,-30.834648,-15.000033,2.8031137,-12.610655,15.468549,-127.2208,74.33802,-104.69135,88.24475,-38.51503,-13.496494,5.9783354,-59.604393,-77.79338,-4.3479967,85.81586,39.695858,-8.714888,5.531499
120,2.326096773147583,63.26092529296875,69.43207550048828,10.301025451562053,5.505062774800007,153.2246743199044,-29.674295,9.67214,-22.946884,91.728165,-2.6706836,-7.745505,-25.799559,10.454584,-8.329533,60.868942,-29.88894,-15.000033,4.069268,-11.985588,15.727548,-126.13591,76.26491,-103.518005,89.02494,-39.47348,-12.976277,5.8541355,-61.50846,-79.01329,-3.7468545,86.96249,39.564384,-8.874106,5.3603296
121,2.235549211502075,64.28038787841797,69.5755386352539,10.242725487581474,5.882731300978447,151.9675555553314,-33.089108,10.806847,-20.79517,93.80799,-5.198055,-4.0722623,-24.940271,11.7335,-7.684963,59.381695,-28.715832,-15.000033,5.556526,-11.353508,15.955125,-124.53945,78.244286,-101.93431,89.76297,-40.215584,-12.633385,5.395495,-63.49385,-80.22457,-2.936972,88.087166,39.43781,-9.018056,5.2925606
122,2.1298840045928955,65.306884765625,69.73442077636719,10.178468941929527,6.317782651997066,150.55270204317117,-36.331173,11.7386875,-18.651197,95.54612,-7.53053,-0.38517016,-24.10431,13.036245,-6.915903,57.91416,-27.367792,-15.000033,7.2204895,-10.699963,16.135014,-122.327736,80.2993,-99.84939,90.41314,-40.73498,-12.363424,4.6863747,-65.63086,-81.41784,-1.9062421,89.219215,39.29364,-9.160146,5.2917
123,2.040228843688965,66.35223388671875,69.90677642822266,10.143533974156794,6.751610727047656,149.02406031300615,-39.204235,12.18815,-16.68488,96.84712,-9.591472,2.6901276,-23.209719,14.299571,-5.9982324,56.461582,-25.909634,-15.000033,8.9856615,-10.071462,16.327168,-119.461914,82.43698,-97.21502,90.98293,-41.202698,-12.166141,3.7693784,-67.958405,-82.56887,-0.6464979,90.27367,39.0859,-9.317973,5.2751637
124,1.937875509262085,67.42030334472656,70.08901977539062,10.171849387027692,7.1279201914790695,147.4270184290097,-41.562565,11.886378,-15.072331,97.6014,-11.237605,4.5353312,-22.171549,15.47216,-4.912939,55.012512,-24.392391,-15.000033,10.775772,-9.516459,16.594128,-115.90619,84.63293,-94.00251,91.5071,-41.79426,-12.033617,2.6804228,-70.478485,-83.64208,0.84385276,91.17392,38.79719,-9.518136,5.1641603
125,1.81699538230896,68.50676727294922,70.286376953125,10.235233788484306,7.415182606136044,145.72118286448878,-43.37436,10.638205,-13.956218,97.734055,-12.2799015,4.800577,-20.934673,16.588179,-3.648916,53.587208,-22.821133,-15.000033,12.619019,-9.019442,16.97729,-111.52818,86.81174,-90.13504,92.088,-42.583954,-12.024297,1.2377932,-73.171555,-84.59724,2.550226,91.95799,38.38073,-9.785007,4.9337416
126,1.6908444166183472,69.60820007324219,70.50115203857422,10.312601419284178,7.651429626217576,143.8991746668008,-44.8354,8.690008,-13.199077,97.29972,-12.782266,3.94515,-19.544357,17.676126,-2.2273228,52.181896,-21.166159,-15.000033,14.541235,-8.575214,17.417294,-106.18374,88.81429,-85.483765,92.81998,-43.48643,-12.083583,-0.5583666,-75.99025,-85.406296,4.4151936,92.67431,37.85256,-10.108856,4.618222
127,1.5480594635009766,70.72490692138672,70.73309326171875,10.444012078652914,7.887929625779957,142.05584192181277,-46.13225,6.436891,-12.564948,96.38625,-12.984891,2.5669048,-18.067068,18.666248,-0.6802439,50.760284,-19.450771,-15.000033,16.481901,-8.244048,17.82837,-99.88503,90.429955,-80.008995,93.77587,-44.420147,-12.04807,-2.3852062,-78.84707,-86.06757,6.3526545,93.26539,37.292255,-10.470761,4.226591
128,1.3773764371871948,71.88555145263672,70.97382354736328,10.675443627480139,8.181342246117213,140.29073482637205,-47.42896,4.2551627,-11.803607,95.084946,-13.099228,1.2494255,-16.580114,19.48156,0.9591825,49.29459,-17.700201,-15.000033,18.374407,-8.078201,18.142454,-92.77153,91.54654,-73.78483,94.93566,-45.28898,-11.783614,-3.8897758,-81.66801,-86.60591,8.277855,93.635956,36.76335,-10.8370075,3.764657
129,1.1994167566299438,73.08149719238281,71.22026062011719,11.042286853610783,8.54041463127999,138.61257587849164,-48.729538,2.0582266,-10.910623,93.34821,-13.089205,-0.061712816,-15.07653,20.070953,2.7196517,47.801876,-15.972424,-15.000033,20.214636,-8.10423,18.398912,-84.93489,92.23195,-66.91371,96.18868,-45.998375,-11.26243,-4.9815545,-84.482124,-87.05069,10.151135,93.67031,36.25177,-11.197953,3.2188096
130,1.0100429058074951,74.31838989257812,71.46906280517578,11.504730218490122,8.946293742433014,136.9756343008011,-49.961563,-0.2768405,-10.024327,91.13401,-12.886677,-1.6004797,-13.531302,20.480522,4.598099,46.30593,-14.256059,-15.000033,22.02685,-8.2664175,18.660315,-76.401146,92.620705,-59.429344,97.41713,-46.609028,-10.575187,-5.819049,-87.29368,-87.414734,11.974441,93.419914,35.718853,-11.554893,2.6015723
131,0.8144635558128357,75.5872802734375,71.71812438964844,12.001384336517766,9.414498565647044,135.40388455179524,-51.148846,-2.4560113,-9.0782175,88.54374,-12.607137,-3.0717402,-12.000402,20.773663,6.516756,44.782978,-12.464484,-15.000033,23.763762,-8.511005,18.907373,-67.24025,92.80015,-51.320282,98.50016,-47.254772,-9.772898,-6.410522,-90.01499,-87.70203,13.752824,93.0473,35.217205,-11.896792,1.9698621
132,0.6188709735870361,76.8938980102539,71.96735382080078,12.474266696031046,9.955568600241161,133.92494143624728,-52.305275,-4.2076206,-7.983649,85.695915,-12.3478775,-4.1856866,-10.532742,21.010826,8.399503,43.1981,-10.516257,-15.000033,25.379705,-8.80089,19.107866,-57.541473,92.80178,-42.594814,99.36754,-48.069183,-8.903579,-6.7645617,-92.541534,-87.915985,15.485732,92.71797,34.80529,-12.218628,1.3774573
133,0.4119710624217987,78.24235534667969,72.20794677734375,12.986534865829631,10.629606168368332,132.5526974601909,-53.513508,-5.426969,-6.5466027,82.56856,-12.123782,-4.745566,-9.203108,21.141426,10.301476,41.5892,-8.49446,-15.000033,26.86756,-9.241262,19.237463,-47.385742,92.62034,-33.299137,99.97296,-49.137093,-7.925676,-6.8041034,-94.90388,-88.06438,17.150667,92.483574,34.49095,-12.532738,0.83180326
134,0.20544680953025818,79.64226531982422,72.44054412841797,13.54481955147352,11.411796172791679,131.27848370766282,-54.693123,-6.314765,-4.844187,79.11073,-11.870806,-4.9748664,-7.9721313,21.14806,12.229823,39.966736,-6.4276915,-15.000033,28.232906,-9.854067,19.347136,-36.842033,92.22909,-23.538237,100.28543,-50.365196,-6.8296537,-6.545554,-97.12357,-88.15144,18.717531,92.267914,34.25598,-12.8347645,0.31662643
135,0.005538878962397575,81.0818862915039,72.66364288330078,14.007827773024797,12.172174952157581,130.0951270101675,-55.629288,-7.06262,-3.2009091,75.416145,-11.567901,-5.1987453,-6.700536,21.137808,14.030157,38.222893,-4.1448007,-15.000033,29.44768,-10.475501,19.494497,-26.075218,91.587906,-13.507344,100.28309,-51.61648,-5.701108,-6.134963,-99.09667,-88.17621,20.15599,92.05763,34.081226,-13.102924,-0.15326619
136,-0.18482191860675812,82.5541000366211,72.87093353271484,14.2358075088056,12.77148880430045,128.99326453525626,-56.14363,-7.8382187,-1.9659985,71.59165,-11.194807,-5.705187,-5.2223554,21.211876,15.54093,36.19264,-1.456072,-15.000033,30.481476,-10.929465,19.718306,-15.3554325,90.64429,-3.513093,99.9726,-52.75127,-4.626605,-5.7311,-100.69731,-88.13777,21.430407,91.83594,33.954147,-13.316684,-0.56817544
137,-0.36693912744522095,84.06270599365234,73.0609359741211,14.233525738785476,13.2013658157616,127.96641428424851,-56.225117,-8.653439,-1.2127792,67.54886,-10.720587,-6.5070267,-3.5439308,21.449177,16.906368,33.858772,1.8078976,-15.000033,31.348555,-11.225702,20.000595,-5.025397,89.32886,6.02256,99.36684,-53.780502,-3.6119652,-5.3183,-101.78053,-88.04186,22.518747,91.570625,33.87598,-13.4727745,-0.9573696
138,-0.5305258631706238,85.62177276611328,73.23164367675781,14.081012429606371,13.50987302447716,127.02309921869433,-55.955734,-9.42765,-0.76477385,63.261803,-10.158953,-7.432076,-1.6904317,21.731955,18.12529,31.201818,5.5335135,-15.000033,32.06941,-11.4348545,20.300423,4.4143367,87.57956,14.606497,98.50209,-54.770096,-2.6467922,-4.816715,-102.38545,-87.90417,23.41213,91.259186,33.842564,-13.5905485,-1.331667
139,-0.6626306772232056,87.23635864257812,73.37564849853516,13.772756850499587,13.650353254470938,126.16916639495385,-55.331066,-10.163916,-0.58771986,58.937653,-9.558171,-8.464407,0.49931726,21.86718,18.834148,27.973398,9.59051,-15.000033,32.63313,-11.465014,20.60809,12.462849,85.38092,21.818117,97.45422,-55.677387,-1.8004627,-4.2890444,-102.692406,-87.743935,24.144663,90.91659,33.83574,-13.684037,-1.6580143
140,-0.7707544565200806,88.90138244628906,73.48175811767578,13.333298233726621,13.609471536629611,125.3914654525885,-54.374966,-10.86514,-0.5935598,54.759907,-8.951928,-9.584648,3.2246125,21.711327,19.015549,23.841095,13.98227,-14.031927,33.049793,-11.256852,20.920074,18.863728,82.7828,27.487776,96.3089,-56.467285,-1.1325159,-3.8084433,-102.94346,-87.576675,24.79301,90.57516,33.830654,-13.762011,-1.895447
141,-0.9099239706993103,90.53289031982422,73.59290313720703,13.272396218418153,13.620812136824851,124.56996599812084,-52.929256,-11.680321,-0.116859235,49.8042,-7.9723997,-11.054538,6.3722253,21.088552,20.846447,19.031918,18.681635,-6.6247196,33.512688,-11.320028,21.346653,23.69494,79.88321,31.73657,95.139,-57.132133,-0.70092016,-3.4067354,-103.193504,-87.4129,25.428625,90.27099,33.846092,-13.824648,-1.9884412
142,-1.0491714477539062,92.13748168945312,73.62811279296875,13.4138636397837,13.583178092985479,123.68805399662315,-50.981228,-12.543537,0.5391185,44.249756,-6.736592,-12.814483,10.111908,20.021738,23.193525,13.210898,23.957771,2.9412692,34.03566,-11.494243,21.898737,27.319147,76.80851,34.86058,93.9681,-57.714783,-0.45331323,-3.0589733,-103.45141,-87.25267,26.138086,90.002945,33.887276,-13.859344,-1.9697188
143,-1.1968507766723633,93.6921157836914,73.5617904663086,13.631047824961177,13.56874980060921,122.70713348363604,-48.86804,-13.4117365,1.1602575,38.666485,-5.329595,-14.052322,13.504898,18.847609,25.436466,8.171258,28.529648,12.516853,34.63999,-11.718648,22.485437,30.083904,73.658676,37.157684,92.80764,-58.23563,-0.2686907,-2.7619104,-103.82897,-87.08809,26.96354,89.75785,33.9281,-13.86878,-1.9173176
144,-1.3102737665176392,95.22230529785156,73.36152648925781,13.516510304253861,13.47254657582924,121.78868948497117,-47.088776,-14.136036,1.203323,34.378365,-4.163454,-14.035174,14.821151,18.509155,24.100101,7.5225387,30.000067,15.000033,35.102055,-11.6098995,22.92361,32.243343,70.485085,38.8302,91.65993,-58.717678,-0.042900257,-2.4989448,-104.398605,-86.90948,27.91544,89.50219,33.943348,-13.860472,-1.9146441
145,-1.3880505561828613,96.79454040527344,73.13609313964844,13.009691364023915,13.32080380040649,121.04117638584339,-45.782936,-14.89323,0.46389174,31.462482,-2.8873165,-11.925309,15.122243,18.690786,20.970114,8.899735,30.000067,15.000033,35.29494,-11.110101,23.10765,33.940952,67.30979,40.026585,90.48869,-59.07833,0.2519538,-2.233588,-105.17053,-86.71081,28.977917,89.24851,33.91112,-13.830502,-1.9666101
146,-1.4559805393218994,98.39998626708984,72.9410171508789,12.155489137623332,13.160058589417986,120.47984566442175,-44.850918,-15.599444,-0.8301227,29.657654,-1.4005005,-8.302624,15.532922,19.026228,17.540064,9.826506,30.000067,15.000033,35.21024,-10.277241,23.015085,35.239582,64.1349,40.8591,89.32633,-59.3246,0.5604029,-1.9875811,-106.04332,-86.493416,30.098146,88.99738,33.86276,-13.788442,-2.032902
147,-1.5113794803619385,99.93329620361328,72.7685775756836,11.079856355704127,12.93154581300751,120.10648460768675,-44.28695,-16.038275,-2.2145975,29.36204,-0.45014557,-4.543681,15.8400955,19.493767,14.049511,10.791114,30.000067,15.000033,35.026306,-9.262876,22.692566,35.595917,61.842163,40.9519,89.11815,-59.532192,1.0033659,-1.9763476,-106.41638,-86.33523,30.826199,88.73279,33.798145,-13.787038,-2.1654613
148,-1.5277122259140015,101.29835510253906,72.70143127441406,9.958753029743145,12.60082762452815,119.81152296512832,-43.89848,-16.054459,-3.3140562,30.55955,-0.87725145,-2.046365,15.681733,19.929443,10.769235,12.5925255,30.000067,15.000033,34.49952,-7.984289,22.588741,36.38828,58.5097,41.296593,88.08408,-60.09021,1.2159563,-1.9150676,-107.46682,-86.10814,32.045788,88.34374,33.76753,-13.760933,-2.3137362
149,-1.5811833143234253,102.64252471923828,72.60588073730469,8.882275701173274,12.198037516993365,119.47385383555542,-43.70217,-15.442089,-3.965693,33.583,-3.3898206,-1.3802559,13.533939,20.372345,7.477869,18.565292,27.713232,15.000033,33.916985,-6.723924,22.63961,37.135834,55.240948,41.6917,87.283165,-60.7929,1.4069912,-2.2104905,-108.51654,-85.81975,33.251957,87.934044,33.777107,-13.74758,-2.541313
150,-1.7171614170074463,104.08448028564453,72.42550659179688,7.94863392139125,11.760635920368264,119.054327265498,-43.625813,-14.27204,-4.2584715,37.83433,-7.2394466,-1.739924,10.640078,20.4339,4.5125103,26.135157,24.639412,15.000033,33.340103,-5.5653453,22.847727,37.754986,52.01377,41.992134,86.67809,-61.621326,1.5739948,-2.7544227,-109.560844,-85.471825,34.445892,87.49111,33.803234,-13.744616,-2.845619
151,-1.8830060958862305,105.4676284790039,72.22929382324219,7.3548008662573725,11.299936055974593,118.58095024891325,-43.451824,-12.900056,-4.25992,42.03358,-11.225743,-2.4490838,7.488437,19.890306,1.9648831,34.124317,21.296894,15.000033,32.768963,-4.6826277,23.343695,38.20215,48.83636,42.174484,86.11846,-62.601677,1.8457485,-3.236145,-110.72196,-85.072556,35.61595,87.070015,33.830425,-13.765729,-3.149917
152,-2.0371384620666504,106.72726440429688,72.08935546875,7.184786959856193,10.81159247535588,118.1385190269081,-42.931152,-11.921396,-4.134881,45.081467,-14.319596,-2.8657486,4.4063764,18.645424,-0.21366824,41.715878,18.003273,15.000033,32.143574,-4.1405015,24.197203,38.42701,45.727505,42.178585,85.46488,-63.78427,2.339998,-3.3402708,-112.076355,-84.63594,36.722393,86.71909,33.853836,-13.828104,-3.3764372
153,-2.1739141941070557,107.9570541381836,72.02124786376953,7.546897115263819,10.255948538893753,117.77911841244413,-41.907387,-11.756993,-3.8480814,46.712887,-16.287342,-2.8436499,1.3581789,16.553982,-1.9835604,49.18762,14.6015625,15.000033,31.438354,-4.0135555,25.513872,38.717606,42.62522,41.199368,84.41691,-66.28272,3.1556509,-2.8534768,-113.61736,-84.19021,37.686287,86.43115,33.85274,-13.964615,-3.4840772
154,-2.271308660507202,109.18392944335938,71.95237731933594,8.338917973609016,9.635827398753124,117.48605596706828,-40.536068,-12.120335,-3.3642821,47.60634,-17.71493,-2.7170112,-1.6918299,13.811082,-3.2092028,56.783092,11.003544,15.000033,30.631586,-4.20934,27.25441,38.135098,39.724094,41.59799,83.89678,-67.25639,4.0627403,-1.9610093,-115.490486,-83.742516,38.7034,86.18177,33.86164,-14.133301,-3.4887345
155,-2.3203206062316895,110.43505859375,71.83570861816406,9.056752639387495,9.058007032416905,117.16237659934232,-39.112988,-12.438637,-2.9757054,48.349434,-19.0324,-2.6491232,-4.6167574,10.774305,-4.3688216,63.827515,7.585063,14.371658,29.854029,-4.416073,28.953154,37.730106,36.902218,41.09454,83.12388,-69.10609,5.0775146,-0.96640104,-117.246254,-83.2655,39.519886,85.96103,33.876705,-14.312739,-3.4968598
156,-2.367032527923584,111.70374298095703,71.7047119140625,9.518840795831611,8.737560961346773,116.85410363208265,-37.939487,-12.433579,-2.7761593,49.128998,-20.418514,-2.7286134,-7.5709405,7.3868456,-6.0377707,70.00664,4.4597063,11.763903,29.089302,-4.483184,29.793802,37.493744,34.280617,40.21995,82.39596,-70.56261,5.990484,-0.0890216,-118.23043,-82.6732,40.135933,85.68914,33.935673,-14.441198,-3.6127753
157,-2.4272446632385254,112.98323059082031,71.58260345458984,9.77465818291431,8.64059730416482,116.55615653961657,-36.95806,-12.135301,-2.663742,49.906666,-21.898394,-2.935903,-10.619096,4.0402184,-7.4614444,75.43199,1.4829415,9.240083,28.304468,-4.4357233,29.793802,37.37075,31.97441,39.00597,81.9893,-71.472115,6.929017,0.48489693,-118.323715,-81.87695,40.496433,85.401405,34.009228,-14.533358,-3.9295528
158,-2.4698901176452637,114.25758361816406,71.47174072265625,10.019301698094855,8.565080343680904,116.25860144063215,-35.878696,-11.8049555,-2.5117192,50.477943,-23.33258,-3.1944885,-13.644779,0.5343566,-8.568231,80.396805,-1.5197282,6.730939,27.468029,-4.428914,29.793802,37.038982,29.930935,37.73367,81.887566,-72.022705,8.004475,0.84158677,-118.34092,-80.95595,40.755444,85.21676,34.085953,-14.619133,-4.341634
159,-2.5049452781677246,115.53510284423828,71.40575408935547,10.195533601150506,8.543669893975649,116.0042300222017,-34.75798,-11.428755,-2.4194105,50.842,-24.6714,-3.5003338,-16.709282,-2.820089,-9.309876,84.78327,-4.4107156,4.3405924,26.573624,-4.398392,29.793802,36.480907,28.100794,36.359776,81.88317,-72.40517,8.996832,1.1752417,-118.44618,-79.9493,40.94044,85.141495,34.187374,-14.716524,-4.7578115
160,-2.5108959674835205,116.81796264648438,71.39291381835938,10.247203783447443,8.608378507344193,115.83445550373061,-33.651268,-10.969772,-2.4982367,51.002743,-25.86659,-3.8583622,-19.876915,-5.7031736,-9.681125,88.4583,-7.0103126,2.1735978,25.606941,-4.288852,29.793802,35.687172,26.441252,34.836903,81.78613,-72.82532,9.675433,1.6685793,-118.75275,-78.88541,41.001495,85.17348,34.30853,-14.84728,-5.0945106
161,-2.503309726715088,118.11102294921875,71.44061279296875,10.107374126879915,8.80174337058744,115.74464393126284,-32.58494,-10.351305,-2.8108435,50.946777,-26.94617,-4.309973,-23.290138,-7.9250383,-9.708311,91.371796,-9.219759,0.21229264,24.56396,-4.06354,29.793802,34.606754,24.911856,33.14701,81.54557,-73.37839,10.047472,2.4380753,-119.311775,-77.7861,40.876926,85.286545,34.497707,-14.995708,-5.2902784
162,-2.4851348400115967,119.4228515625,71.5302963256836,9.81129977599977,9.097726541496455,115.71628386403795,-31.531437,-9.591089,-3.2941911,50.693184,-27.933641,-4.837476,-26.930275,-9.634194,-9.492425,93.612465,-11.102584,-1.5802662,23.4491,-3.7472756,29.793802,33.29653,23.494263,31.318697,81.21161,-73.94404,10.196324,3.350721,-120.015976,-76.66564,40.570095,85.44771,34.74471,-15.150115,-5.3983893
163,-2.445547342300415,120.74319458007812,71.64034271240234,9.46074565250885,9.425038284655557,115.76993407396583,-30.463123,-8.785887,-3.880483,50.289036,-28.766443,-5.3684154,-30.599045,-11.04303,-9.151707,95.24333,-12.699794,-3.1333508,22.260069,-3.3830729,29.793802,31.906015,22.197155,29.358194,80.745605,-74.41401,10.014976,4.228068,-120.71938,-75.53534,40.12827,85.64928,34.973362,-15.34288,-5.5119514
164,-2.3774611949920654,122.07565307617188,71.76397705078125,9.157980753636242,9.712948097966386,115.92806797131267,-29.353952,-8.040396,-4.5042815,49.776814,-29.375717,-5.835324,-34.092632,-12.390037,-8.779652,96.32633,-14.059716,-4.3777933,21.000818,-3.015049,29.793802,30.54078,21.054348,27.260506,80.19471,-74.664,9.39217,4.8556542,-121.299904,-74.402565,39.606865,85.89362,35.088184,-15.607128,-5.722505
165,-2.2923741340637207,123.42777252197266,71.91166687011719,8.914715427424131,9.93007325214374,116.24034047549304,-28.189522,-7.372027,-5.1803,49.14717,-29.763327,-6.2154274,-37.395935,-13.714312,-8.391405,96.8522,-15.156193,-5.2402062,19.630503,-2.622708,29.793802,29.156748,20.096687,24.861755,79.529366,-74.75329,8.2293,5.193904,-121.72977,-73.26955,39.025146,86.187965,35.078312,-15.978704,-6.0721717
166,-2.2015509605407715,124.79917907714844,72.09202575683594,8.684017637799862,10.116148592418059,116.68182144764289,-26.984552,-6.7241817,-5.941555,48.38268,-29.958597,-6.552298,-40.595512,-14.929451,-7.970958,96.80037,-15.964149,-5.788721,18.18779,-2.1696424,29.793802,27.65421,19.330088,22.182472,78.81916,-74.6947,6.6253524,5.3501463,-122.11621,-72.14689,38.38192,86.54075,34.948097,-16.430983,-6.508672
167,-2.0996055603027344,126.19271087646484,72.3074951171875,8.484105676037741,10.306071710662929,117.16469828239015,-25.761803,-6.093769,-6.748112,47.518063,-29.928272,-6.88446,-43.640266,-16.086727,-7.5401363,96.21583,-16.540676,-6.1572404,16.78276,-1.7104952,29.793802,26.090206,18.742073,19.526545,78.18443,-74.315025,4.776098,5.3658576,-122.4556,-71.06521,37.803623,86.932274,34.826508,-16.9071,-6.985272
168,-1.9970221519470215,127.6241683959961,72.55557250976562,8.332230116707201,10.535845388469337,117.60043866430435,-24.54634,-5.4764404,-7.5627694,46.58566,-29.64342,-7.252608,-46.481453,-17.22279,-7.1261644,95.144485,-16.946857,-6.47402,15.518547,-1.2945228,29.793802,24.538136,18.311275,17.197084,77.69624,-73.45507,2.8646195,5.290969,-122.77235,-70.05365,37.35858,87.34672,34.775944,-17.344862,-7.446248
169,-1.8742684125900269,129.0911865234375,72.8316879272461,8.254207081273211,10.83340980278234,117.98955715659417,-23.331778,-4.8899693,-8.399236,45.48663,-29.06997,-7.7044334,-49.169056,-18.363024,-6.7042418,93.56875,-17.14963,-6.699761,14.405558,-0.9301407,29.793802,22.951471,18.038507,15.155441,77.36152,-71.93266,0.7227642,5.013347,-123.12168,-69.10923,36.811436,87.79718,34.474464,-17.721344,-7.882559
170,-1.745539903640747,130.59608459472656,73.12964630126953,8.234087982318563,11.17412643999783,118.37178796946226,-22.117281,-4.3275137,-9.277682,44.237415,-28.229378,-8.211741,-51.701256,-19.484081,-6.2869325,91.47296,-17.139719,-6.7899327,13.350341,-0.68254817,29.793802,21.412004,17.92062,13.384072,77.019745,-69.89104,-1.6957489,4.607903,-123.27338,-68.25275,36.501427,88.19264,34.537685,-18.076859,-8.327523
171,-1.6168034076690674,132.1392822265625,73.43690490722656,8.207671968182243,11.515809993264417,118.7150924115153,-20.942522,-3.7418122,-10.173543,43.05902,-27.18375,-8.701492,-53.93931,-20.534782,-5.98149,88.90234,-17.015238,-6.85529,12.457959,-0.33775154,29.793802,19.873264,17.935722,11.827205,76.694336,-67.675156,-4.0099273,4.3835316,-123.553276,-67.465454,35.946053,88.650116,34.184128,-18.403103,-8.745052
172,-1.4746114015579224,133.71957397460938,73.75312805175781,8.117237733231432,11.822726751561362,118.98723718032699,-19.849485,-3.0913627,-11.05794,42.168327,-25.993423,-9.096547,-55.74695,-21.471645,-5.899598,85.90271,-16.877205,-7.0017548,11.701214,0.05898447,29.793802,18.556261,18.050499,10.736662,76.20785,-65.575386,-5.8321495,4.602138,-123.73795,-66.76292,35.430023,89.06038,34.034924,-18.719204,-9.127143
173,-1.3272501230239868,135.33303833007812,74.07398986816406,7.925612937686977,12.130622958581995,119.15559010576911,-18.849442,-2.308233,-11.905737,41.535263,-24.641312,-9.385983,-57.105198,-22.32296,-6.178166,82.3949,-16.771345,-7.338009,11.121699,0.5706122,29.793802,17.453226,18.248783,10.264854,75.44927,-63.511234,-6.9516687,5.442164,-123.981476,-66.13419,34.84984,89.46637,33.931164,-19.011591,-9.436398
174,-1.1893304586410522,136.9944610595703,74.39200592041016,7.667201862800958,12.449007658785982,119.2422445071894,-17.932182,-1.4343747,-12.738553,41.076046,-23.107153,-9.603284,-58.05959,-23.088806,-6.7615952,78.38173,-16.649572,-7.755325,10.670845,1.1329561,29.793802,16.560207,18.541029,10.346006,74.436134,-61.351078,-7.5883603,6.7017927,-124.20742,-65.56327,34.221134,89.84436,33.917274,-19.281343,-9.694677
175,-1.0449726581573486,138.69508361816406,74.69463348388672,7.389026852083641,12.6999061467778,119.29721698674709,-17.099514,-0.585394,-13.596491,40.927673,-21.448997,-9.739569,-58.579285,-23.693058,-7.4601054,74.03185,-16.451488,-8.040192,10.296104,1.7229053,29.793802,15.878107,18.932243,10.647696,73.3635,-59.33564,-8.001808,8.04016,-124.336006,-65.03443,33.519993,90.19007,33.875145,-19.547775,-9.957504
176,-0.8965930938720703,140.43624877929688,74.97230529785156,7.139343759064627,12.803745882804328,119.37289966454045,-16.34337,0.124955766,-14.52023,41.22093,-19.720741,-9.78629,-58.646103,-24.083645,-8.060968,69.50131,-16.107615,-8.004617,9.945487,2.313815,29.793802,15.404206,19.425623,10.829451,72.440834,-57.7049,-8.490279,9.1268215,-124.26953,-64.54213,32.77946,90.49573,33.7569,-19.829882,-10.278842
177,-0.7403093576431274,142.21304321289062,75.2294921875,6.903331747386834,12.727235116474194,119.46110306984575,-15.611664,0.7085912,-15.541279,41.98556,-17.92451,-9.704298,-58.175552,-24.175034,-8.496993,64.60373,-15.496827,-7.4859247,9.627987,2.943545,29.793802,15.132843,20.037066,10.740534,71.7424,-56.688725,-9.157008,9.846384,-123.985634,-64.07996,32.03824,90.750374,33.571705,-20.144804,-10.696579
178,-0.587299644947052,144.02151489257812,75.45246124267578,6.664277201964646,12.512379614425802,119.5410090291269,-14.9036875,1.2200491,-16.626236,43.1325,-16.027285,-9.510188,-57.203587,-24.051546,-8.859103,59.31726,-14.686036,-6.6566305,9.37652,3.6216836,29.793802,15.033134,20.770895,10.558579,71.18435,-56.118214,-9.858413,10.36633,-123.57408,-63.65264,31.299698,90.98661,33.32571,-20.477388,-11.171399
179,-0.4353976249694824,145.8709259033203,75.64791107177734,6.469422188950122,12.193784371328467,119.65203828317634,-14.286859,1.6075256,-17.731146,44.60505,-14.01704,-9.2741375,-55.89549,-23.921974,-9.189862,54.031105,-13.874209,-5.8360434,9.160401,4.263941,29.793802,15.103895,21.60459,10.4576845,70.69561,-55.62188,-10.536197,10.808676,-123.06409,-63.281513,30.605288,91.233696,33.073063,-20.795235,-11.639609
180,-0.2657281458377838,147.74513244628906,75.80384826660156,6.35934785472626,11.810106050448994,119.83124016769986,-13.84064,1.8180983,-18.817453,46.363396,-11.886484,-9.057704,-54.430508,-23.9663,-9.557412,49.15164,-13.258828,-5.311365,8.954271,4.7941623,29.793802,15.350936,22.503117,10.608645,70.1943,-54.822044,-11.126928,11.307788,-122.488976,-62.995125,29.982855,91.51596,32.84869,-21.064598,-12.032331
181,-0.089174285531044,149.65650939941406,75.90570068359375,6.384711814765835,11.315239574654171,120.10890199576976,-13.558253,1.8011461,-19.891233,48.438274,-9.406088,-8.852226,-52.745216,-24.23509,-9.963601,44.613377,-13.089728,-5.304938,8.739636,5.1807704,29.793802,15.819636,23.458967,11.062429,69.64781,-53.539116,-11.5980015,11.883245,-121.74594,-62.809746,29.43629,91.826355,32.65656,-21.274546,-12.31593
182,0.10357056558132172,151.58230590820312,75.9435806274414,6.501526495543072,10.710805551688543,120.45371836800761,-13.412979,1.6162423,-20.9682,50.83713,-6.6466427,-8.600003,-50.80417,-24.60523,-10.400737,40.27461,-13.20878,-5.583297,8.538274,5.4702783,29.793802,16.508934,24.474,11.739782,69.087456,-51.996235,-11.989033,12.475587,-120.82145,-62.722935,28.920433,92.13097,32.48089,-21.439018,-12.524976
183,0.3019051253795624,153.52601623535156,75.91545867919922,6.616858514970951,10.10891211972116,120.81166125499489,-13.459602,1.3622285,-22.028633,53.501083,-4.065635,-8.29847,-48.847042,-24.985043,-10.91994,36.46017,-13.191989,-5.737671,8.386318,5.705506,29.793802,17.35604,25.518335,12.617757,68.53124,-50.417194,-12.341728,13.105139,-119.8915,-62.733257,28.391668,92.418304,32.32166,-21.562588,-12.693908
184,0.47808414697647095,155.4942626953125,75.8162841796875,6.652763150356705,9.620860960575417,121.13528400926552,-13.743463,1.1120975,-23.05716,56.37154,-2.1260521,-7.974478,-47.10197,-25.294638,-11.555784,33.478413,-12.591319,-5.381929,8.313908,5.927236,29.793802,18.304081,26.545198,13.675924,67.99403,-49.01969,-12.706101,13.796766,-119.13517,-62.83615,27.819485,92.67773,32.18396,-21.649534,-12.859327
185,0.6394440531730652,157.4921417236328,75.64448547363281,6.6121614554734105,9.299069717382418,121.44468408082102,-14.299667,0.8026833,-24.124023,59.515965,-0.929028,-7.6710105,-45.51186,-25.552946,-12.347921,31.174112,-10.985021,-4.246671,8.313086,6.118848,29.793802,19.352581,27.516762,15.009075,67.45097,-47.741306,-13.121323,14.600876,-118.617966,-63.038994,27.222494,92.92969,32.07285,-21.684124,-13.020417
186,0.79311203956604,159.4945068359375,75.41493225097656,6.538425213367467,9.077366510711741,121.75832004896053,-15.090913,0.39089876,-25.209322,62.95232,-0.2455249,-7.37873,-44.016884,-25.777325,-13.200143,29.480082,-8.689612,-2.626882,8.371482,6.267903,29.793802,20.5303,28.420595,16.603334,66.91381,-46.497257,-13.556692,15.496532,-118.229065,-63.338398,26.610765,93.17051,31.991037,-21.669046,-13.159624
187,1.0265910625457764,161.326904296875,75.21755981445312,6.418974040651099,8.889236242760022,122.02837671164761,-16.060284,-0.033631124,-26.17395,66.577385,-0.05501275,-7.070275,-42.820675,-25.940107,-13.954142,28.82353,-6.3840055,-0.9985148,8.504955,6.4202447,29.793802,21.823362,29.25307,18.2723,66.447685,-45.475433,-13.965576,16.396978,-117.9287,-63.7064,25.950462,93.37208,31.907825,-21.639135,-13.292197
188,1.275788426399231,163.1416015625,74.96311950683594,6.2355579223083994,8.667562820258881,122.20654976167145,-17.153355,-0.36201683,-26.886662,70.28486,-0.3376846,-6.7125254,-42.098812,-26.042837,-14.524147,29.600119,-4.7739086,0.19533855,8.719045,6.620439,29.793802,23.231998,30.021227,19.83566,66.09787,-44.8686,-14.308574,17.21047,-117.701324,-64.10233,25.233519,93.52275,31.802296,-21.632145,-13.435442
189,1.471311092376709,165.0513153076172,74.59983825683594,6.0395086055241975,8.42084346381259,122.35138158607747,-18.419914,-0.58561444,-27.279459,74.21526,-1.2866412,-6.327024,-42.135284,-26.197186,-14.874537,32.439915,-3.904439,0.9016245,8.953608,6.815632,29.793802,24.825108,30.745962,21.365873,65.77661,-44.75529,-14.610276,17.97409,-117.72094,-64.505,24.456749,93.71738,31.645641,-21.679256,-13.643877
190,1.671176552772522,166.91348266601562,74.19080352783203,5.826543716943552,8.167718047934736,122.47144053870878,-19.863167,-0.7566433,-27.442955,78.39883,-2.8694038,-5.925289,-42.6903,-26.32828,-15.118918,36.84516,-3.4090974,1.4166878,9.208793,6.995062,29.793802,26.566858,31.42087,22.920086,65.52131,-45.0327,-14.88761,18.703007,-117.968765,-64.91189,23.668598,93.96412,31.468319,-21.760527,-13.901045
191,1.8340789079666138,168.69418334960938,73.73214721679688,5.491523007333399,7.86211843233819,122.44185377349908,-21.356432,-0.8500134,-27.496763,82.54708,-4.7189193,-5.470824,-43.169853,-26.176168,-15.44253,41.53216,-3.395629,1.8045545,9.57462,7.281743,29.793802,28.32087,32.01428,24.287249,65.51352,-45.61807,-15.098741,19.278421,-118.190544,-65.303,22.922602,94.13048,31.281998,-21.831127,-14.116425
192,1.973251461982727,170.3925323486328,73.26228332519531,4.926824206795757,7.460600460249073,122.13522164577773,-22.771,-0.85126,-27.555967,86.351616,-6.4485826,-4.9346976,-43.051197,-25.55888,-15.982693,45.341366,-4.032388,2.0205379,10.135289,7.801068,29.793802,29.974554,32.49558,25.259867,65.88863,-46.42453,-15.1997385,19.590065,-118.15142,-65.64439,22.306442,94.08743,31.127417,-21.844713,-14.19348
193,2.1489837169647217,171.96298217773438,72.90045928955078,3.9765427815965277,6.927033755753683,121.41670280590219,-24.052935,-0.69541067,-27.730703,89.85821,-8.060255,-4.282298,-42.23167,-24.300325,-16.803349,48.125988,-5.6171203,1.8677756,10.969363,8.750634,29.793802,31.532732,32.84479,25.819784,66.71266,-47.44303,-15.242073,19.573227,-117.93477,-65.898415,21.921474,93.78975,31.002453,-21.755499,-14.052522
194,2.361299753189087,173.5123748779297,72.68352508544922,2.749590294503755,6.272628853707505,120.39417176379338,-25.249819,-0.43329617,-27.93292,93.180885,-9.711969,-3.5640917,-41.058117,-22.518177,-17.759363,50.489048,-7.977868,1.3791993,11.978571,10.04261,29.793802,33.077732,33.06596,26.085672,67.82491,-48.710133,-15.222913,19.304607,-117.74128,-66.0522,21.789839,93.36945,30.90336,-21.606398,-13.765277
195,2.5692527294158936,175.09361267089844,72.55892181396484,1.5343592022508523,5.536192533164351,119.30333081969763,-26.411356,-0.21502449,-27.980677,96.11317,-11.243158,-2.863564,-39.666676,-20.559042,-18.666489,52.45294,-10.609615,0.78672844,12.986335,11.367191,29.793802,34.622715,33.17465,26.04887,69.02196,-50.206482,-15.012861,18.892277,-117.475174,-66.11633,21.83259,92.95114,30.842821,-21.483881,-13.465196
196,2.7634830474853516,176.68508911132812,72.45391845703125,0.607481648858601,4.785885205904017,118.37195518353423,-27.621483,-0.1688703,-27.692305,98.45261,-12.49494,-2.2475185,-38.14636,-18.805166,-19.398172,54.04601,-13.025206,0.33279186,13.834939,12.369327,29.793802,36.213943,33.193535,25.723701,70.104256,-51.898056,-14.477178,18.449667,-116.93627,-66.11807,21.8986,92.61354,30.838234,-21.466515,-13.282139
197,2.932952880859375,178.2918243408203,72.37068939208984,0.02923956892682456,3.989073584982583,117.60741892863676,-28.887526,-0.24579915,-26.945702,100.14492,-13.400595,-1.7165474,-36.352707,-17.345829,-19.929605,55.191383,-15.18457,0.06386586,14.544137,12.976748,29.793802,37.848206,33.1962,24.79825,71.16195,-53.893898,-13.574723,18.111746,-115.86187,-66.09198,21.941896,92.28899,30.894003,-21.611025,-13.280556
198,3.0811426639556885,179.92848205566406,72.33340454101562,-0.3502699440942225,3.136608823986752,116.8972177897889,-30.187778,-0.3746775,-25.857433,101.30462,-14.046787,-1.226584,-34.262497,-16.0017,-20.324484,55.911674,-17.324945,-0.15650128,15.200933,13.3739,29.793802,39.479733,33.20696,23.347904,72.30008,-56.17125,-12.366437,17.81358,-114.378555,-66.03259,22.021727,91.94689,30.999218,-21.861444,-13.3830385
199,3.233856678009033,181.58419799804688,72.316162109375,-0.5871025493555115,2.3404517024821248,116.28220033886437,-31.560202,-0.63616985,-24.598667,101.95996,-14.501136,-0.774407,-32.0846,-14.770643,-20.649231,56.349396,-19.384247,-0.34682912,15.796579,13.605334,29.793802,40.991898,33.208202,21.842052,73.44081,-58.524727,-10.891634,17.378311,-112.8069,-65.97018,22.116106,91.6622,31.131157,-22.1172,-13.500719
200,3.378032922744751,183.25692749023438,72.31358337402344,-0.7369254174850614,1.708130225364607,115.80526387578522,-33.04325,-1.1223979,-23.334427,102.132286,-14.827848,-0.3646765,-30.030722,-13.65439,-20.974693,56.64585,-21.298803,-0.51848894,16.323772,13.727304,29.793802,42.239117,33.15415,20.680283,74.51624,-60.76848,-9.1971,16.635994,-111.46261,-65.93651,22.226818,91.490005,31.280365,-22.279612,-13.55076
201,3.5001397132873535,184.9322509765625,72.31825256347656,-0.7520168378508341,1.3066897556350814,115.51991902593475,-34.74713,-1.9485489,-22.044455,101.80313,-15.015062,0.016542086,-28.175785,-12.750856,-21.295824,56.856293,-23.107445,-0.6508599,16.745329,13.641125,29.793802,43.23806,32.986546,19.930023,75.48238,-62.873158,-7.139892,15.476381,-110.36252,-65.94221,22.360813,91.40641,31.446459,-22.299612,-13.494204
202,3.6329567432403564,186.6306610107422,72.35346221923828,-0.630421934596932,1.0736634428399792,115.3845351714898,-36.62003,-3.0160787,-20.639824,100.9466,-15.035642,0.35367513,-26.387522,-12.049445,-21.5955,56.901283,-24.829453,-0.73486894,17.072144,13.323188,29.793802,44.126064,32.682766,19.426245,76.29906,-64.87487,-4.731989,14.060214,-109.27225,-65.980515,22.438713,91.34358,31.642803,-22.23086,-13.375162
203,3.7718348503112793,188.30955505371094,72.4244384765625,-0.49464537814336274,0.9172659964191762,115.30254508124172,-38.45768,-4.112561,-19.19435,99.57842,-14.932679,0.5995726,-24.577866,-11.379802,-21.92442,56.72515,-26.370153,-0.8017851,17.376255,12.980315,29.793802,44.855694,32.26136,19.14278,76.96917,-66.723694,-2.2627032,12.587504,-108.237915,-66.04396,22.393604,91.34053,31.837238,-22.132914,-13.235349
204,3.91398286819458,189.94236755371094,72.52622985839844,-0.4644891806699954,0.746419548068124,115.18033099650488,-40.0543,-5.0461617,-17.798834,97.72383,-14.748908,0.71293044,-22.664974,-10.560609,-22.3237,56.26589,-27.630428,-0.89073676,17.726454,12.818694,29.793802,45.37825,31.74459,19.059362,77.502,-68.40456,-0.033856537,11.227242,-107.32117,-66.12959,22.185667,91.438126,32.013577,-22.06293,-13.113814
205,4.044250011444092,191.54141235351562,72.65184020996094,-0.5879073264434129,0.5564869923341055,115.01372496752585,-41.407207,-5.820675,-16.521175,95.37693,-14.484662,0.66471773,-20.594297,-9.519499,-22.861778,55.39629,-28.581745,-1.0169982,18.137835,12.919395,29.793802,45.568333,31.13529,19.235508,77.94422,-69.95348,1.9245588,9.824674,-106.583244,-66.24413,21.79518,91.69798,32.197067,-22.029655,-12.993403
206,4.1587934494018555,193.1405487060547,72.79842376708984,-0.7926337087050926,0.38871510351332406,114.84774594407818,-42.59492,-6.529208,-15.31586,92.52217,-14.127434,0.486398,-18.425327,-8.350796,-23.484816,54.178165,-29.274353,-1.1636283,18.576254,13.154887,29.793802,45.470036,30.430786,19.658188,78.29739,-71.381256,3.758606,8.321488,-105.96609,-66.39023,21.237099,92.072624,32.38937,-22.004065,-12.860657
207,4.260980129241943,194.76937866210938,72.97276306152344,-1.0175924603518895,0.22149630204786205,114.66389266081266,-43.534824,-7.1344633,-14.114063,89.17715,-13.6983185,0.22681406,-16.250631,-7.1229157,-24.05003,52.83614,-29.727858,-1.328145,19.04049,13.427588,29.793802,45.274635,29.655235,20.184584,78.51802,-72.67593,5.410586,7.01165,-105.37672,-66.55296,20.53246,92.448685,32.521828,-21.984583,-12.7593355
208,4.363534450531006,196.4173583984375,73.15665435791016,-1.20180432107184,0.03209099194993628,114.44262117156931,-44.141533,-7.605492,-12.8435,85.35254,-13.215159,-0.06913571,-14.153501,-5.917229,-24.424114,51.603317,-29.96839,-1.5034982,19.53086,13.645478,29.793802,45.157356,28.846111,20.65813,78.59068,-73.84146,6.811302,6.1816325,-104.74125,-66.71401,19.728415,92.73179,32.532074,-21.975431,-12.736188
209,4.47322940826416,198.06417846679688,73.33483123779297,-1.3250646915516864,-0.19171894401852688,114.1800409218952,-44.385517,-7.9158387,-11.453178,80.988075,-12.666989,-0.37039003,-12.113751,-4.7499804,-24.57649,50.478954,-30.002235,-1.7000971,20.064167,13.807084,29.793802,45.090775,28.022858,21.054806,78.50924,-74.96728,7.909986,6.05155,-104.09744,-66.872795,18.855316,92.93789,32.34168,-21.996166,-12.85278
210,4.57332706451416,199.7192840576172,73.51255798339844,-1.4201096050098052,-0.43751027116401575,113.8850518262625,-44.289562,-8.117002,-9.997273,76.077644,-12.041341,-0.7166748,-10.088375,-3.5930161,-24.58059,49.36333,-29.819225,-1.9152483,20.641338,13.9625225,29.793802,44.968746,27.187656,21.42896,78.32998,-76.05896,8.734252,6.3910065,-103.494865,-67.03529,17.921352,93.12567,32.010475,-22.040113,-13.070034
211,4.666148662567139,201.38363647460938,73.68473815917969,-1.507920879732725,-0.6923200375166612,113.55731281293096,-43.856613,-8.290177,-8.565369,70.6989,-11.345729,-1.1639068,-8.126704,-2.4678214,-24.47007,48.357018,-29.419703,-2.1177652,21.245392,14.108449,29.793802,44.86598,26.351955,21.734163,78.073105,-76.993805,9.349445,6.847766,-102.89436,-67.189026,16.93386,93.27451,31.658983,-22.075483,-13.283271
212,4.758107662200928,203.06454467773438,73.85674285888672,-1.6133029733121016,-0.9450903208196418,113.19772112205844,-43.09983,-8.496386,-7.258941,64.91373,-10.588039,-1.7522268,-6.276734,-1.3887169,-24.283728,47.560616,-28.806423,-2.2756763,21.85458,14.242745,29.793802,44.85163,25.530672,21.923023,77.771454,-77.63794,9.836844,7.065018,-102.26753,-67.31203,15.917397,93.36896,31.41842,-22.072598,-13.390656
213,4.8294148445129395,204.77256774902344,74.02155303955078,-1.7124851736730429,-1.1753503457692827,112.79542396875559,-41.98302,-8.716852,-6.061333,58.475834,-9.737529,-2.4272635,-4.5524907,-0.3829281,-24.04629,46.97553,-27.993723,-2.4509492,22.472765,14.339556,29.793802,44.912235,24.726215,21.93691,77.45951,-77.86162,10.205029,6.934761,-101.66809,-67.39034,14.860199,93.426155,31.308868,-22.026821,-13.366636
214,4.897106647491455,206.4982147216797,74.16932678222656,-1.8211466678826835,-1.4027477490879778,112.34517435959125,-40.479168,-8.906672,-4.961891,51.34909,-8.760987,-3.1692662,-2.9107926,0.58257586,-23.741034,46.548367,-26.971907,-2.6362574,23.11049,14.42672,29.793802,45.01696,23.937157,21.813457,77.126656,-77.76269,10.421492,6.6380377,-101.11304,-67.42352,13.780522,93.46199,31.271097,-21.957077,-13.269298
215,4.964223384857178,208.2286376953125,74.29595184326172,-2.021167114869839,-1.6805026366702154,111.85417825141485,-38.616833,-9.051496,-4.074278,43.87024,-7.6474476,-4.0457716,-1.3103211,1.5913492,-23.337202,46.27866,-25.694628,-2.6946619,23.755875,14.586263,29.793802,45.202675,23.173414,21.641375,76.744804,-77.54803,10.514015,6.254895,-100.55417,-67.40921,12.7399435,93.47421,31.277483,-21.873291,-13.122951
216,5.0184783935546875,209.9923095703125,74.38773345947266,-2.4023938183410456,-2.0669736254441333,111.33110288615411,-36.4423,-9.108976,-3.513524,36.405804,-6.3982778,-5.1135483,0.29525918,2.7438006,-22.798336,46.157898,-24.1114,-2.4855995,24.397444,14.912376,29.793802,45.495113,22.447794,21.504654,76.29695,-77.427086,10.516316,5.86383,-99.9581,-67.34363,11.797441,93.46595,31.28671,-21.785131,-12.952131
217,5.05433988571167,211.79673767089844,74.4282455444336,-3.0571604195146582,-2.629427536533355,110.75291667382204,-33.75546,-8.983831,-3.3598375,28.608416,-4.922131,-6.505795,2.0168903,4.1859736,-22.124973,46.116325,-22.162758,-2.0334442,25.069942,15.506871,29.793802,45.93906,21.766726,21.359562,75.76047,-77.46767,10.392018,5.420564,-99.3028,-67.22232,10.994945,93.44971,31.299145,-21.68922,-12.747974
218,5.086485862731934,213.64138793945312,74.41110229492188,-4.050481594696446,-3.3869893700413622,110.07954234162678,-30.50569,-8.472262,-3.5862725,20.3153,-3.2245414,-8.109413,3.9153783,6.0274873,-21.284786,46.041138,-19.82371,-1.3989102,25.813717,16.450903,29.793802,46.504898,21.117405,21.181282,75.15392,-77.55871,10.1500025,4.8959637,-98.68333,-67.04463,10.322658,93.44159,31.314009,-21.578833,-12.497572
219,5.110030174255371,215.5170135498047,74.3282241821289,-5.390875978109768,-4.233525362614897,109.31847705354362,-27.13896,-7.443212,-4.07928,12.33606,-1.5116644,-9.653169,5.83818,8.258722,-20.20124,45.91751,-17.11902,-0.47884926,26.67117,17.74898,29.515121,47.188805,20.543392,21.009546,74.56231,-77.63736,9.859615,4.423449,-97.972755,-66.78975,9.793479,93.39904,31.371607,-21.462475,-12.246727
220,5.1272382736206055,217.4065399169922,74.19667053222656,-6.8425602950958355,-4.923055970294112,108.55646374491842,-24.92023,-6.192408,-4.5594697,6.9203577,-0.70359963,-10.889168,7.387298,10.539295,-18.868,45.990337,-14.211099,0.89187306,27.644876,19.13561,28.56003,47.992462,20.1362,20.857119,74.11682,-77.61552,9.563178,4.160308,-96.94622,-66.43531,9.35801,93.32086,31.444529,-21.380682,-12.051466
221,5.129343032836914,219.28195190429688,74.03063201904297,-8.223802911126038,-5.5006469199677435,107.87607255860453,-25.035515,-5.12848,-4.8712997,6.7831984,-2.2887897,-11.864358,8.555117,12.701349,-17.21117,46.430637,-11.087883,3.056605,28.605007,20.42076,27.42971,48.620197,19.91535,20.87468,73.86929,-77.47606,9.356236,4.088106,-95.9539,-66.10333,9.065017,93.19717,31.60991,-21.315989,-11.863934
222,5.1245269775390625,221.1303253173828,73.8443603515625,-9.434360901860973,-5.974356582784416,107.2895248543005,-25.017609,-4.238295,-5.28619,6.653934,-3.572484,-12.685699,9.336655,14.699148,-15.290705,47.334656,-7.908854,5.982442,29.475885,21.478127,26.228884,49.184284,19.779913,21.046045,73.69205,-77.259796,9.170017,4.15657,-94.92764,-65.74335,8.817924,92.99426,31.827003,-21.266432,-11.684699
223,5.116337776184082,222.96566772460938,73.63529968261719,-10.42151516709535,-6.311975636269849,106.78723550370378,-24.896133,-3.5936594,-5.809177,6.5240545,-4.3502073,-13.205497,9.692211,16.445894,-13.340972,48.727093,-5.0543404,9.2269,30.190763,22.233599,25.022295,49.68073,19.688732,21.35211,73.57953,-77.0283,9.033936,4.30751,-93.925026,-65.30089,8.541018,92.73947,32.02092,-21.230118,-11.532618
224,5.109673500061035,224.79010009765625,73.40201568603516,-11.176024792369294,-6.482206073752419,106.35677150794423,-24.755684,-3.2151713,-6.473129,6.5062447,-4.471108,-13.280786,9.589791,17.832483,-11.64243,50.59588,-2.7924771,12.256646,30.782387,22.722494,23.846235,50.035408,19.650997,21.683882,73.52895,-76.848145,8.964723,4.488058,-93.15611,-64.89205,8.284412,92.5282,32.122192,-21.170311,-11.358879
225,5.116237163543701,226.61691284179688,73.12661743164062,-11.674616314584892,-6.494433975740349,105.98888828991052,-24.419905,-3.1090448,-7.2974215,6.4908285,-3.9440303,-13.076188,9.030639,18.907932,-10.1047735,52.927975,-0.9442674,15.000033,31.187532,22.885746,22.735462,50.30468,19.652481,22.101889,73.51781,-76.749466,9.004669,4.7151747,-92.53782,-64.43008,7.9144063,92.32722,32.08949,-21.090683,-11.164904
226,5.171900749206543,228.44187927246094,72.79952239990234,-12.066402355079653,-6.303510149996766,105.59435126765027,-24.035051,-3.0386348,-8.281538,6.5508814,-2.8658416,-12.697192,8.0695305,19.445343,-9.561271,55.598774,0.7358079,15.000033,31.540743,22.803503,21.555056,50.490837,19.693766,22.633738,73.54543,-76.69338,9.125655,5.00954,-92.00716,-63.920788,7.470692,92.09718,31.99754,-20.999872,-10.961491
227,5.194119453430176,230.11224365234375,72.51258850097656,-12.160485445859866,-5.925566301209965,105.23286502869412,-23.754967,-3.285705,-9.265856,6.6411185,-1.0036669,-11.71852,6.651516,19.227678,-9.494096,58.74633,1.8397982,15.000033,31.599985,22.280775,20.426645,50.611233,19.762024,23.35457,73.7631,-76.62665,9.318027,5.2830324,-91.380646,-63.069477,6.766975,91.76355,31.709818,-21.000372,-10.943896
228,5.17750358581543,231.70314025878906,72.23570251464844,-11.8168426977232,-5.371839439304259,104.9555065938418,-23.762068,-4.060581,-10.083139,6.7361155,1.8978839,-9.739009,4.799044,17.91743,-9.972212,62.4266,2.0169466,15.000033,31.470089,21.392376,19.516157,50.56577,19.794352,24.022627,74.01831,-76.515816,9.440453,5.520697,-91.10349,-62.302517,6.226685,91.49652,31.31105,-21.01708,-10.992212
229,5.129688262939453,233.30223083496094,71.93737030029297,-10.881349556133676,-4.39776744386276,104.7251591166768,-26.441689,-5.912719,-10.462649,11.105394,4.640836,-5.906438,2.2337742,15.070068,-11.086819,66.92996,0.9454603,15.000033,31.159786,19.87898,18.654259,50.380234,19.796545,24.766998,74.3654,-76.33774,9.526385,5.696716,-91.10558,-61.580776,5.7239447,91.268845,30.714132,-21.070639,-11.159713
230,5.053670406341553,234.88702392578125,71.60447692871094,-9.673522177756995,-3.1911375324229425,104.50627882036872,-30.655367,-8.220244,-10.152428,17.81152,7.901055,-0.68579715,-0.6858654,11.229814,-12.367139,71.91332,-0.9837168,15.000033,30.754568,18.073576,17.78597,50.150803,19.770443,25.58751,74.73852,-76.11811,9.603557,5.8377614,-91.343506,-60.879482,5.2434673,91.0757,29.943861,-21.140644,-11.408921
231,4.97694206237793,236.4454803466797,71.20133972167969,-8.52141819982943,-2.295885652017537,104.35482227008666,-34.303837,-10.237584,-9.158907,23.85302,11.234428,4.51374,-3.2495341,7.2911,-13.235504,76.68674,-3.1866026,15.000033,30.238424,16.509361,17.252094,49.890247,19.708649,26.297867,75.02572,-75.868286,9.608361,5.959874,-91.75811,-60.213818,4.859644,90.89084,29.147243,-21.201849,-11.688241
232,4.874900817871094,237.7715606689453,70.83523559570312,-7.508585287519567,-2.1194429925587683,104.38458308585554,-36.406902,-11.888651,-7.9333606,28.645838,12.815601,8.270106,-5.042065,3.889194,-13.370203,80.755806,-5.1669817,15.000033,29.507427,15.451544,17.437716,49.53637,19.61197,26.709665,75.139885,-75.599556,9.469598,6.087685,-92.29548,-59.623676,4.632347,90.68307,28.47526,-21.231941,-11.940886
233,4.722280502319336,239.2222137451172,70.51775360107422,-6.429854822071215,-2.8963166116010837,104.68460278202983,-36.686142,-13.556254,-6.8095407,32.60071,11.403953,9.872097,-5.924003,0.93637234,-12.698735,84.17782,-6.9535894,15.000033,28.4425,14.835392,18.717611,49.027378,19.490408,26.804903,75.05872,-75.34321,9.164203,6.2359147,-93.02956,-59.158504,4.545669,90.4532,27.937483,-21.214912,-12.179368
234,4.6067214012146,240.6614532470703,70.30731201171875,-5.427377672969523,-4.231937711385472,105.07784411469875,-36.129223,-14.984843,-5.943947,36.79547,7.7060366,10.074327,-6.343897,-2.0659046,-11.994972,87.18449,-8.705178,13.961609,27.275515,14.542212,20.636368,48.344845,19.355743,26.652973,74.85254,-75.08326,8.72647,6.3955784,-93.96378,-58.830105,4.5753107,90.21492,27.473602,-21.163338,-12.409506
235,4.616997718811035,241.97265625,70.1745376586914,-4.582751165542434,-5.7162246043980645,105.54332352144179,-35.152256,-15.995269,-5.447306,40.880917,3.277574,9.655482,-6.6863756,-5.17807,-11.643177,89.745476,-10.3742285,11.411693,26.067112,14.397536,22.730818,47.49572,19.213894,26.19297,74.58507,-74.762054,8.174234,6.551494,-94.93184,-58.61078,4.7589574,89.95871,27.121735,-21.099676,-12.569394
236,4.651521682739258,243.16148376464844,70.11186218261719,-4.047637327310473,-6.9273192352802715,106.0416323807898,-34.243458,-16.591478,-5.3268075,44.44155,-0.35812914,9.450017,-7.430121,-7.839497,-11.343214,91.79629,-11.86621,8.939375,24.894318,14.360677,24.467644,46.51161,19.067501,25.36936,74.31269,-74.32674,7.529516,6.69262,-95.784836,-58.44876,5.1559277,89.693756,26.921515,-21.051743,-12.606185
237,4.718304634094238,244.32806396484375,70.10322570800781,-3.9663271537804428,-7.767821800170725,106.67042723581169,-33.43401,-16.947325,-5.6081185,47.210342,-2.800926,9.581686,-8.6733055,-9.868761,-11.223505,93.279854,-13.151704,6.4638953,23.651579,14.569773,25.736403,45.34328,18.888906,24.056887,74.1224,-73.75983,6.727676,6.901872,-96.53537,-58.326622,5.8676977,89.437485,26.889772,-21.051645,-12.500911
238,4.77524471282959,245.5253143310547,70.13116455078125,-4.2131693955501195,-8.459405464920502,107.4439172260021,-32.447117,-17.213907,-6.1499743,49.34583,-4.794016,9.6319475,-10.177469,-11.390957,-11.210795,94.26358,-14.313933,3.9171593,22.294228,15.024044,26.841866,44.027992,18.665115,22.30206,73.96007,-73.09168,5.780538,7.165802,-97.288,-58.23669,6.8828783,89.20993,27.006748,-21.083103,-12.291196
239,4.809178829193115,246.7755126953125,70.16431427001953,-4.605658275727425,-9.04223659761187,108.16582578446558,-31.371166,-17.381594,-6.736404,51.131306,-6.6276474,9.622723,-11.855382,-12.612975,-11.213718,94.85995,-15.366138,1.4830443,21.004553,15.560131,27.807882,42.722034,18.43853,20.338148,73.6892,-72.33767,4.824395,7.3193517,-97.974106,-58.124546,8.039632,88.98963,27.24628,-21.10211,-12.024322
240,4.826821327209473,248.06446838378906,70.19607543945312,-4.956110916202703,-9.562884507453347,108.63482109220048,-30.311548,-17.379704,-7.190549,52.853867,-8.59348,9.575365,-13.635432,-13.755731,-11.119259,95.17353,-16.300886,-0.65571594,19.95117,15.992208,28.633371,41.53749,18.283604,18.419168,73.22457,-71.521866,4.0018616,7.1863823,-98.45836,-57.91824,9.119187,88.72192,27.568398,-21.069077,-11.768961
241,4.845759868621826,249.3380126953125,70.21282958984375,-5.260561460429826,-10.053845583790823,108.74219618599648,-29.271717,-17.066238,-7.4981847,54.60434,-10.8445635,9.46394,-15.551831,-14.800772,-10.874719,95.25064,-17.08413,-2.4608412,19.200586,16.295006,29.270842,40.519535,18.26078,16.522018,72.544685,-70.63087,3.45075,6.607048,-98.568214,-57.55854,10.075623,88.32715,28.025736,-20.984842,-11.562338
