unveil-humanoid-operators/unveil-humanoid-operators.github.io/feature-analysis-animation/data/feature_matrix_instances/gender_shoulder_mean_vel_jogging_A316_jog_ff_stop_180_R_005__A316.csv
Frame,root_translateX,root_translateY,root_translateZ,root_rotateX,root_rotateY,root_rotateZ,left_hip_pitch_joint_dof,left_hip_roll_joint_dof,left_hip_yaw_joint_dof,left_knee_joint_dof,left_ankle_pitch_joint_dof,left_ankle_roll_joint_dof,right_hip_pitch_joint_dof,right_hip_roll_joint_dof,right_hip_yaw_joint_dof,right_knee_joint_dof,right_ankle_pitch_joint_dof,right_ankle_roll_joint_dof,waist_yaw_joint_dof,waist_roll_joint_dof,waist_pitch_joint_dof,left_shoulder_pitch_joint_dof,left_shoulder_roll_joint_dof,left_shoulder_yaw_joint_dof,left_elbow_joint_dof,left_wrist_roll_joint_dof,left_wrist_pitch_joint_dof,left_wrist_yaw_joint_dof,right_shoulder_pitch_joint_dof,right_shoulder_roll_joint_dof,right_shoulder_yaw_joint_dof,right_elbow_joint_dof,right_wrist_roll_joint_dof,right_wrist_pitch_joint_dof,right_wrist_yaw_joint_dof
0,-0.27495893836021423,-2.0884206295013428,72.56110382080078,-2.736556788899379,3.4676666969836822,88.46128168886199,-27.733208,19.005915,9.294408,107.020584,-17.151375,5.3220854,0.4660304,6.862243,1.307001,35.569775,-32.744473,-1.6823485,3.4673667,3.9491434,11.075423,36.2747,23.075489,-21.540165,-41.902744,-5.5219765,6.2414045,-0.029907769,-46.18113,-28.367367,33.097694,-31.889812,-26.927162,28.354012,1.5919862
1,-0.30649784207344055,-0.10481765866279602,72.96405792236328,-1.9653314620186928,3.6420532301101955,88.63024528826703,-29.310781,17.849012,10.322739,103.557884,-16.6561,5.050333,3.1115716,5.8230834,1.6446416,33.020832,-30.423607,-0.99895847,4.1971483,3.4945223,10.545495,38.669067,23.424221,-21.237688,-43.199863,-6.1932564,5.79178,0.2197393,-48.104404,-28.43375,33.30128,-32.91226,-26.374819,28.328817,1.3586873
2,-0.3606555759906769,1.8876785039901733,73.38843536376953,-1.1871752650723848,3.793016910531304,88.81194099140656,-30.83127,16.666883,11.3988085,100.13909,-16.206316,4.7513003,5.8028283,4.7792225,1.983083,30.42603,-28.217495,-0.29740474,4.949671,2.9655492,10.072095,41.28976,23.978535,-20.848425,-44.74097,-7.026827,5.326882,0.50143075,-50.059055,-28.442686,33.458546,-33.971535,-25.806757,28.298779,1.1065269
3,-0.4344335198402405,3.907236099243164,73.83538818359375,-0.4322560068632878,3.9661119224562857,88.99135092467007,-32.211433,15.428779,12.456697,96.47255,-15.744817,4.3722997,8.30637,3.755471,2.2515163,28.04315,-25.826763,0.3708008,5.719471,2.399575,9.590362,43.953465,24.647907,-20.39641,-46.416073,-7.7275844,4.855336,0.8348607,-51.86345,-28.412687,33.577232,-35.05036,-25.314041,28.260746,0.8844224
4,-0.5320667028427124,5.949110507965088,74.29788970947266,0.2669981840103508,4.207398969393192,89.15517589731289,-33.357048,14.098138,13.418852,92.25733,-15.222945,3.8578124,10.385442,2.7887673,2.3938072,26.149494,-22.958563,0.9409901,6.492821,1.8366936,9.037522,46.472534,25.341024,-19.90919,-48.11492,-8.000832,4.3883934,1.2401426,-53.339973,-28.368176,33.679512,-36.131783,-24.991661,28.215782,0.7346621
5,-0.6562262773513794,8.01654052734375,74.77395629882812,0.9299821539454985,4.544504624962808,89.29046756990915,-34.25199,12.605137,14.284158,87.35885,-14.643677,3.2073786,11.923546,1.8705281,2.4026737,24.930065,-19.450445,1.1920632,7.2622204,1.2778769,8.374621,48.776184,25.99329,-19.401182,-49.747574,-7.555137,3.9471922,1.7197202,-54.507042,-28.33727,33.80492,-37.19671,-24.876925,28.174553,0.6704246
6,-0.7889435887336731,10.099815368652344,75.25377655029297,1.5595564019205042,4.945824727858971,89.40914395379896,-34.93003,10.997116,15.060848,81.93182,-14.027836,2.4604774,13.056571,0.9960576,2.3166475,24.24105,-15.502312,1.2196368,8.022324,0.73582196,7.637182,50.88795,26.574863,-18.893133,-51.29152,-6.585965,3.5347147,2.2506938,-55.44418,-28.332521,33.958466,-38.25807,-24.907433,28.137348,0.6630621
7,-0.9191598892211914,12.19283676147461,75.72720336914062,2.099473924253109,5.37314459051561,89.5308403822111,-35.36368,9.398524,15.696631,76.08327,-13.349065,1.614094,13.948772,0.21667966,2.1886084,23.821264,-11.344635,1.4353794,8.754704,0.25756064,6.865606,52.77834,27.062199,-18.421705,-52.75862,-5.5326753,3.1327522,2.8175218,-56.075157,-28.353329,34.1033,-39.3462,-25.019712,28.090534,0.6998162
8,-1.0554413795471191,14.288814544677734,76.18085479736328,2.4860882850884845,5.789712993506522,89.67286751215198,-35.538307,7.9241896,16.142788,69.91592,-12.56873,0.65354264,14.790896,-0.39019287,2.116947,23.360798,-7.1768284,2.259128,9.44064,-0.10434497,6.0955667,54.423492,27.437523,-18.021135,-54.16568,-4.8358393,2.7145212,3.4000268,-56.32761,-28.391766,34.19854,-40.48246,-25.14935,28.016787,0.767455
9,-1.1974703073501587,16.409549713134766,76.60785675048828,2.735821939499261,6.234484115043973,89.85454796773676,-35.44322,6.5208197,16.425053,63.211082,-11.608875,-0.5095135,15.666826,-0.83387905,2.1373408,22.549725,-2.6300578,4.189301,10.061928,-0.3616587,5.2759376,55.849342,27.687689,-17.681585,-55.512882,-4.5264077,2.3106205,3.9814067,-56.196136,-28.447712,34.26474,-41.662323,-25.326525,27.917938,0.87365794
10,-1.3451491594314575,18.53827667236328,76.99217987060547,2.867466703806879,6.713515415116324,90.04471374526553,-35.046734,5.1335154,16.55863,55.876236,-10.442294,-1.8498594,16.521975,-1.0836383,2.3597667,21.5252,2.2909517,6.961682,10.635517,-0.5263061,4.4022274,57.045254,27.808632,-17.40215,-56.777767,-4.3904815,1.9202621,4.5643497,-55.72961,-28.522104,34.320267,-42.86956,-25.56635,27.799917,1.0217043
11,-1.4971113204956055,20.654388427734375,77.32032012939453,2.813528256917138,7.140267550467785,90.19624884090818,-34.337265,3.8867395,16.469458,48.2553,-9.139276,-3.2126913,17.327108,-1.022507,2.8861578,20.68156,6.80549,9.809277,11.190313,-0.53352576,3.5774727,57.93713,27.80557,-17.23245,-57.95663,-4.4960327,1.4547571,5.15483,-54.940517,-28.596018,34.32859,-44.09709,-25.795874,27.655096,1.1929499
12,-1.649874210357666,22.7565860748291,77.58673095703125,2.5149389710000936,7.426650304140166,90.26343649676075,-33.326443,2.9259768,16.098764,40.732796,-7.791491,-4.43178,18.017605,-0.6103867,3.6354957,20.467943,10.171907,11.859735,11.759411,-0.32895994,2.9084554,58.457317,27.691881,-17.213379,-59.05248,-4.9134555,0.8230279,5.7575507,-53.83254,-28.647322,34.24931,-45.348133,-25.94743,27.476252,1.3677522
13,-1.7966413497924805,24.86266326904297,77.79431915283203,1.8479121075113996,7.541554755569213,90.22210301278822,-31.947132,2.361686,15.306335,33.094833,-6.3103538,-5.524636,18.594982,0.2193698,4.505469,20.978746,12.202249,12.7231655,12.38746,0.2166276,2.370943,58.552696,27.454477,-17.416832,-60.000134,-5.7644777,-0.037501115,6.427605,-52.416653,-28.654442,34.082912,-46.620293,-26.044443,27.231468,1.5990328
14,-1.9035027027130127,26.972543716430664,77.9356460571289,0.8158544043918913,7.504814718620637,90.06797652219696,-30.147083,2.2129295,14.166471,25.11596,-4.628586,-6.5588636,19.128443,1.4312146,5.47003,21.948782,13.3705225,12.832878,13.184426,1.1457305,1.8345588,57.59126,27.014574,-18.04354,-60.000134,-6.9996777,-1.1937146,7.1750364,-50.673084,-28.618586,33.858433,-47.78624,-26.123627,26.930664,1.8935986
15,-1.969147801399231,29.077878952026367,78.00792694091797,-0.44915725756601643,7.302134319339274,89.79561584968452,-28.05698,2.492971,12.969212,17.357363,-2.9574964,-7.4615884,19.630764,2.8905113,6.4816837,23.339514,13.9460535,12.489343,13.98996,2.3069525,1.4711095,56.3704,26.42075,-18.72892,-60.000134,-8.351311,-2.449212,7.817477,-48.68231,-28.517246,33.631397,-48.899582,-26.100388,26.63969,2.1321678
16,-1.9948455095291138,31.15605926513672,78.01887512207031,-1.7374797942957914,6.953480266170947,89.44524230150223,-25.851759,3.061621,12.033906,10.387822,-1.4979922,-8.172488,20.047714,4.404609,7.464325,25.184425,14.139505,12.029256,14.742205,3.5072927,1.3350743,54.87471,25.715664,-19.403175,-60.000134,-9.608817,-3.7318451,8.271599,-46.473747,-28.324745,33.42962,-49.869892,-25.922358,26.416405,2.2239156
17,-2.007960319519043,33.20332717895508,78.0008544921875,-2.889119621260132,6.503266962798879,89.06838060051855,-24.812551,4.0204506,11.484462,6.8859916,-1.7390823,-8.65985,20.228083,5.8924866,8.438432,27.771734,13.643469,11.387574,15.407899,4.5697913,1.4414225,53.036934,24.911404,-20.075031,-60.000134,-10.851536,-5.09983,8.515935,-43.964176,-28.015173,33.268074,-50.75292,-25.472565,26.2634,2.0761123
18,-2.0385615825653076,35.20512771606445,77.9634017944336,-3.8915536754845133,5.992317919746197,88.72738667788971,-25.027758,5.221879,11.103998,6.736085,-3.6346564,-8.976103,20.111977,7.3207903,9.335131,31.166302,12.3529215,10.460818,15.935317,5.475925,1.7432811,50.89093,24.005201,-20.74794,-60.000134,-12.166789,-6.5642657,8.604177,-41.183582,-27.574,33.166332,-51.550533,-24.83385,26.146208,1.7672672
19,-2.0609519481658936,37.17091751098633,77.89659118652344,-4.654131326809578,5.471375234225418,88.51234125304602,-25.05299,6.106827,10.776712,6.6994553,-5.2720933,-9.143279,19.715519,8.477371,9.886282,35.119175,10.74434,9.551852,16.404152,6.0705633,2.195084,48.48109,23.442667,-21.38472,-60.000134,-13.448191,-8.071545,8.730355,-37.97984,-27.250957,32.90264,-52.409218,-24.221886,26.089558,1.4064219
20,-2.08781361579895,39.098819732666016,77.80139923095703,-5.181902541034359,5.0301016452384255,88.48267803417909,-24.93467,6.546104,10.263162,6.6909037,-6.392699,-9.156455,19.034864,9.228774,9.836621,39.299458,9.360463,8.938135,16.436619,6.5155773,2.7496777,46.00696,22.611431,-21.908375,-60.000134,-14.319997,-9.306676,8.724961,-34.973904,-26.749626,32.727787,-52.79252,-23.868803,26.058273,1.271423
21,-2.1077139377593994,40.98875427246094,77.6592788696289,-5.438982814052437,4.602897482140575,88.6034871126007,-24.497673,6.499048,9.570522,6.626296,-7.0560474,-9.1524515,18.153152,9.465446,9.053228,43.715275,8.383645,8.745413,16.201876,6.6884894,3.476542,43.392094,21.922277,-22.285225,-60.000134,-14.843365,-10.392717,8.741799,-31.82951,-26.282639,32.52633,-52.96607,-23.84402,26.145372,1.2663126
22,-2.108224630355835,42.86284637451172,77.45335388183594,-5.476682847345294,4.21036252427851,88.85477442646271,-23.814322,6.1258245,8.760537,6.5699515,-7.3571787,-9.0543375,17.034567,9.278058,7.7047024,48.45251,7.5457277,8.773928,15.594688,6.724433,4.3559747,40.64544,20.962238,-22.549276,-60.000134,-15.024889,-11.271836,8.612963,-28.841957,-25.555243,32.52841,-52.59066,-24.115902,26.278013,1.428442
23,-2.1005337238311768,44.72920608520508,77.18646240234375,-5.229569716724289,3.8524408587764616,89.27012062511282,-22.980022,5.4205027,7.860941,6.610378,-7.1304555,-8.492598,15.729947,8.603388,6.04621,53.402218,6.613325,8.856644,14.340227,6.554749,5.3456845,37.99086,19.632713,-22.485302,-60.000134,-14.982603,-11.902263,8.402912,-26.573023,-24.389658,32.884983,-51.318523,-24.409576,26.421755,1.743024
24,-2.1768059730529785,46.511253356933594,76.9579849243164,-4.656349112017908,3.525134860496835,89.87162596604276,-22.075539,4.365151,6.907961,6.798421,-6.169356,-7.1214943,14.308696,7.435748,4.351515,58.430935,5.372711,8.8492775,12.7645235,6.034174,6.4428897,35.327374,18.502254,-22.233122,-60.000134,-14.868915,-12.3495455,8.334793,-24.433996,-23.168234,33.36857,-49.81441,-24.827557,26.52437,2.094805
25,-2.296452045440674,48.24393081665039,76.72997283935547,-3.3921489601542123,3.228647925138674,90.72049714849324,-21.005962,2.433523,5.9471855,6.954286,-3.5840442,-4.3811936,12.805951,5.3551655,2.5994406,63.699265,3.6410003,8.8458605,10.815088,4.7644134,7.6914144,32.609913,17.57366,-21.832096,-59.930267,-14.610452,-12.680803,8.458706,-22.491451,-21.925388,33.795856,-47.971367,-25.298079,26.570023,2.510816
26,-2.3357274532318115,50.0119514465332,76.35469055175781,-1.9009830197387478,2.8276075629553725,91.66736161093097,-23.009071,0.38817003,4.934074,14.157341,-3.2717354,-0.8921495,11.426397,2.8527222,0.82748705,69.05871,1.6931262,8.840471,8.927623,3.2052686,8.837581,28.804644,16.730251,-21.58177,-58.525257,-14.221461,-13.073633,8.82252,-20.380913,-20.672724,33.99305,-45.80493,-25.868326,26.590628,2.996792
27,-2.33617901802063,51.80718994140625,75.85616302490234,-0.6412984809541635,2.244792765923194,92.5593678703767,-24.67551,-1.5611452,4.2641373,21.164509,-2.790585,2.2269902,10.25412,0.5425163,-0.7198323,74.221466,-0.26383162,8.726955,7.067785,1.8798217,10.004169,24.780869,15.979375,-21.303408,-56.90694,-13.781775,-13.194087,9.226887,-18.280231,-19.461502,34.18111,-43.518948,-26.373592,26.578276,3.5181189
28,-2.399001359939575,53.529380798339844,75.34922790527344,0.42078731270156466,1.5723139207343118,93.40849881674505,-25.409525,-3.3049848,3.936624,26.515987,-2.9936454,4.2517457,9.132037,-1.4631555,-1.8825445,79.07489,-2.1681633,8.532299,5.2695017,0.7294523,11.101291,20.530964,15.394612,-20.984232,-55.11238,-13.461065,-12.908881,9.584022,-16.144472,-18.345457,34.389343,-41.32293,-26.630297,26.533777,4.0015197
29,-2.4312143325805664,55.21603775024414,74.8123550415039,1.5759791201993454,0.8475791279880318,94.35809981541811,-25.326931,-5.012538,3.9288406,30.534113,-4.8471107,5.0922613,7.9841757,-3.418458,-2.6349986,83.78497,-4.158812,8.328245,3.4946513,-0.5650534,12.13304,15.851234,15.052918,-20.706556,-52.952293,-13.364813,-12.041411,9.90532,-13.841047,-17.361301,34.504566,-39.315327,-26.513895,26.436935,4.455099
30,-2.4272258281707764,56.89129638671875,74.27891540527344,2.8863207146786474,0.08115161316676257,95.42136886384861,-24.86633,-6.7863474,4.1133223,34.104427,-7.9419165,5.285236,6.804298,-5.4135313,-3.130142,88.42835,-6.2776494,8.162177,1.7848066,-2.1067653,13.092436,10.723277,14.979184,-20.575306,-50.436035,-13.402834,-10.729044,10.261703,-11.31196,-16.53107,34.421413,-37.517548,-26.127476,26.30078,4.8876343
31,-2.4611754417419434,58.61313247680664,73.79429626464844,4.102328961475192,-0.6456854032671302,96.43899216264117,-24.181835,-8.383292,4.272131,37.269196,-11.486389,5.19335,5.4831076,-7.192759,-3.4464784,92.75713,-8.312857,8.01857,0.2721917,-3.6561432,13.894573,5.3896627,15.146319,-20.643982,-47.875965,-13.438922,-9.308286,10.646568,-8.603111,-15.883124,34.179283,-36.021706,-25.649412,26.171295,5.234784
32,-2.543726682662964,60.34893798828125,73.39080810546875,4.964211377943627,-1.2443631427057755,97.25312243993214,-23.354923,-9.587808,4.209778,39.92463,-14.599511,5.151419,3.882436,-8.53444,-3.6379626,96.53163,-10.041383,7.8433647,-0.98209244,-4.9252033,14.506322,0.15015054,15.492492,-20.904087,-45.631172,-13.334538,-8.102484,11.024833,-5.7935987,-15.447565,33.8746,-34.892185,-25.25811,26.093546,5.4315076
33,-2.6128604412078857,62.08311462402344,73.08450317382812,5.36113520831985,-1.6886378989304254,97.88003569597586,-22.349129,-10.306509,3.808933,41.994778,-17.131073,5.213392,1.8957022,-9.3611765,-3.695027,99.73358,-11.345435,7.5685167,-2.0225937,-5.773269,14.983899,-5.0304995,15.972733,-21.410475,-43.756184,-12.987292,-7.049243,11.411247,-2.8701367,-15.261509,33.550304,-34.182934,-24.95168,26.094786,5.40201
34,-2.6199655532836914,63.80866622924805,72.8544921875,5.454538927519854,-2.013081109209545,98.39290755083536,-21.109852,-10.647375,3.2131042,43.529427,-19.517267,5.2222357,-0.43465883,-9.83349,-3.5821238,102.49608,-12.341688,7.2173843,-2.8972688,-6.353232,15.400814,-10.266821,16.548178,-22.189823,-42.119694,-12.502235,-6.0221,11.803949,0.24107365,-15.339325,33.15604,-33.926712,-24.63412,26.142555,5.194093
35,-2.5922930240631104,65.53865051269531,72.69427490234375,5.396129714010042,-2.2183225044414003,98.72182212749917,-19.669252,-10.726155,2.6203997,44.547596,-21.721613,5.185573,-3.0300226,-10.114874,-3.3165054,104.79574,-13.151831,6.842155,-3.6156309,-6.7809334,15.74309,-15.334514,17.162783,-23.094986,-40.805588,-12.031348,-5.241812,12.11831,3.4748557,-15.65832,32.705738,-34.052364,-24.3526,26.194014,4.9333735
36,-2.5747175216674805,67.29402160644531,72.5896987915039,5.336904190511455,-2.30864077764062,98.79533000960461,-18.06555,-10.665477,2.2232144,45.070312,-23.706696,5.107534,-5.8067737,-10.356537,-2.8989985,106.601265,-13.900107,6.5126467,-4.207077,-7.158397,15.956871,-20.017433,17.776724,-23.936508,-39.84099,-11.706781,-4.926185,12.260721,6.7109184,-16.165516,32.232456,-34.400166,-24.165083,26.212404,4.747212
37,-2.5723071098327637,69.08515167236328,72.53821563720703,5.308138107959735,-2.2787143477307197,98.49810433222089,-16.278461,-10.435382,2.1354713,45.08028,-25.5362,4.9825945,-8.856059,-10.538895,-2.207786,107.92894,-14.592888,6.273362,-4.6270337,-7.483877,15.988557,-24.30844,18.395144,-24.652363,-39.17893,-11.551515,-5.2886496,12.185448,9.861245,-16.828201,31.76227,-34.87891,-24.182312,26.180117,4.7040076
38,-2.594637393951416,70.9028549194336,72.53813171386719,5.237601972239541,-2.1326510185868752,97.90322285667544,-14.298004,-9.993065,2.24668,44.57345,-27.20533,4.8094716,-12.192137,-10.571375,-1.3004403,108.77517,-15.149987,6.076047,-4.910541,-7.696523,15.860707,-28.324892,19.035349,-25.316864,-38.7725,-11.487699,-6.1567793,11.937785,12.946966,-17.63397,31.284075,-35.484737,-24.358091,26.122984,4.732574
39,-2.6314096450805664,72.73802947998047,72.58724212646484,5.113485173005453,-1.8902366179983403,97.2222639167071,-12.177689,-9.452661,2.4018285,43.590626,-28.570877,4.5936728,-15.605903,-10.5100765,-0.44286433,109.07312,-15.575867,5.856421,-5.208698,-7.8034854,15.606968,-32.04062,19.692879,-25.929245,-38.613697,-11.479479,-7.1662674,11.555671,15.9956875,-18.54343,30.771206,-36.155178,-24.519201,26.071478,4.7509475
40,-2.658548593521118,74.59092712402344,72.70013427734375,4.926543508926457,-1.5705931405184914,96.66685800284169,-9.973205,-8.912952,2.436294,42.17675,-29.492252,4.338268,-18.8825,-10.445319,0.105173305,108.76301,-15.888018,5.5529046,-5.6756344,-7.807909,15.248231,-35.440086,20.354074,-26.463972,-38.659946,-11.498874,-7.953945,11.070091,19.02021,-19.497078,30.199392,-36.796494,-24.498146,26.057518,4.679616
41,-2.6615777015686035,76.45387268066406,72.8741683959961,4.677955258699149,-1.1258158011084545,96.25866587434597,-7.683072,-8.39824,2.297715,40.195843,-29.963097,4.034482,-22.069357,-10.4147215,0.28561962,107.79853,-16.134764,5.1562424,-6.3533797,-7.7057114,14.7009945,-38.512577,21.020681,-26.902866,-38.87472,-11.522603,-8.4589205,10.442832,21.986288,-20.445732,29.565426,-37.270298,-24.22957,26.096674,4.4762335
42,-2.649535894393921,78.36024475097656,73.1220703125,4.367258583693072,-0.5676053450924456,95.89703081214788,-5.2859597,-7.8383727,2.0734696,37.682144,-30.053179,3.672651,-25.204811,-10.371787,0.19717096,106.20541,-16.314129,4.7153273,-7.1619534,-7.492103,13.967942,-41.263916,21.699064,-27.285238,-39.24858,-11.519738,-8.860982,9.67016,24.868662,-21.367266,28.873745,-37.595795,-23.828024,26.169018,4.200862
43,-2.6256356239318848,80.33338165283203,73.4391098022461,3.9752328104676673,0.0009755818260562548,95.60765441944075,-2.8117566,-7.187565,1.8060274,34.93625,-29.736464,3.2522542,-28.06259,-10.307229,-0.16709532,104.04425,-16.380848,4.2555966,-8.010314,-7.1519203,13.185896,-43.88446,22.41168,-27.567137,-39.66844,-11.672476,-9.149811,8.817906,27.757217,-22.23586,28.064827,-37.941387,-23.39163,26.252098,3.925578
44,-2.5766561031341553,82.34807586669922,73.7979507446289,3.491282503024638,0.47898024641093767,95.41476273396209,-0.29248077,-6.4097533,1.5430919,32.257694,-28.986666,2.773422,-30.431313,-10.222512,-0.7941788,101.382416,-16.289398,3.7996728,-8.96277,-6.7107987,12.51204,-46.06817,23.097488,-27.894403,-40.349224,-11.630413,-9.330265,7.9977593,30.562172,-23.046715,27.220589,-38.38224,-23.031803,26.327112,3.7296202
45,-2.5329465866088867,84.39225006103516,74.18000793457031,2.857713617422261,0.8273062847242304,95.33741925114866,2.3666792,-5.447816,1.2433488,29.576302,-27.796234,2.2139888,-32.214317,-10.104376,-1.7684845,98.18208,-15.997728,3.3433745,-9.945423,-6.0992217,11.985071,-48.02558,23.745989,-28.149145,-41.146442,-11.605006,-9.350099,7.1223226,33.414276,-23.785192,26.230536,-38.98872,-22.754276,26.39692,3.6323051
46,-2.480499744415283,86.4436264038086,74.57909393310547,2.1053162323418784,1.1066427844965079,95.35057174422386,5.1241455,-4.3406296,0.9133969,26.804829,-26.187956,1.5754396,-33.514465,-9.951509,-3.0610647,94.43028,-15.565689,2.905776,-10.989768,-5.3448124,11.536262,-49.67218,24.333366,-28.38839,-42.084126,-11.463922,-9.232492,6.1875896,36.254498,-24.450184,25.13317,-39.67103,-22.51822,26.46973,3.5984483
47,-2.416921854019165,88.50704956054688,74.98513793945312,1.3534962314222594,1.3651610043478866,95.41264384861508,7.736209,-3.206001,0.6600259,24.254526,-24.20156,0.9075243,-34.440437,-9.782034,-4.481729,90.22688,-15.089165,2.5214937,-12.019988,-4.5609617,11.111503,-51.130623,24.863253,-28.665678,-43.051735,-11.300002,-9.066286,5.3372416,39.032215,-25.032745,23.99463,-40.414616,-22.337282,26.532621,3.6080234
48,-2.3476545810699463,90.58087921142578,75.4015121459961,0.7209012050190255,1.649780836942756,95.48397717692266,9.988056,-2.1693695,0.5671771,22.20816,-21.864027,0.27392057,-35.11394,-9.615681,-5.8273945,85.65778,-14.650163,2.2252963,-12.994877,-3.8684056,10.653895,-52.439182,25.341862,-29.072319,-43.999054,-11.117481,-8.940077,4.7262654,41.64005,-25.526611,22.921034,-41.172684,-22.23432,26.572563,3.647439
49,-2.271789073944092,92.67181396484375,75.82022094726562,0.1966923647127666,1.9650110341852736,95.56633706207012,11.860094,-1.2148181,0.68331945,20.74866,-19.10026,-0.29362988,-35.52976,-9.4460945,-7.109687,80.64878,-14.250127,1.9927951,-13.898474,-3.2594745,10.165342,-53.666294,25.781519,-29.626825,-44.920753,-10.893732,-8.8399,4.416367,44.088127,-25.925884,21.90053,-41.952934,-22.29257,26.575676,3.7600386
50,-2.203458786010742,94.77497863769531,76.2354736328125,-0.2650677931557094,2.286237293301749,95.67272081903992,13.459443,-0.3101928,0.9217107,19.743546,-15.93452,-0.8094408,-35.637733,-9.247948,-8.400759,75.17038,-13.8441725,1.821905,-14.749306,-2.6937828,9.670683,-54.75709,26.181644,-30.29216,-45.852398,-10.614302,-8.7281475,4.3221397,46.38933,-26.230364,20.911669,-42.746834,-22.483286,26.551163,3.9436173
51,-2.1171205043792725,96.88459777832031,76.64175415039062,-0.6052173427324058,2.619496788762136,95.7890917580368,14.769076,0.457414,1.153112,19.148548,-12.534446,-1.2899458,-35.50536,-9.028856,-9.594802,69.346146,-13.426786,1.7650989,-15.532281,-2.230108,9.129307,-55.63157,26.541122,-31.037127,-46.76885,-10.392475,-8.65279,4.366977,48.47877,-26.444344,20.028051,-43.49995,-22.663889,26.52082,4.115863
52,-2.023216485977173,99.00306701660156,77.03760528564453,-0.7665943524428005,2.9739915751611,95.9073823768937,15.785639,1.006134,1.2503811,18.881277,-9.041846,-1.7736161,-35.206734,-8.810199,-10.5900545,63.280136,-12.984411,1.8654419,-16.243399,-1.925046,8.497589,-56.206097,26.856703,-31.842493,-47.643353,-10.319833,-8.663751,4.47741,50.286133,-26.57827,19.325806,-44.15661,-22.694431,26.507511,4.196316
53,-1.914833664894104,101.1448745727539,77.41114044189453,-0.7054089813665698,3.389028876434937,96.03896977563299,16.457508,1.2801481,1.1866248,18.868275,-5.154371,-2.3024254,-34.73578,-8.604173,-11.366555,56.725914,-12.45984,2.096766,-16.890753,-1.8122969,7.7030425,-56.494907,27.133934,-32.750168,-48.465775,-10.446137,-8.784693,4.676195,51.83061,-26.63994,18.838247,-44.716553,-22.468533,26.529749,4.1179004
54,-1.8058834075927734,103.30015563964844,77.74949645996094,-0.46011662618186544,3.8543783873735817,96.20092134951165,16.833328,1.329401,0.9881514,19.097265,-0.86688876,-2.9176593,-34.05628,-8.4163685,-11.980987,49.644733,-11.844163,2.4359157,-17.483335,-1.8519531,6.7766075,-56.54597,27.377771,-33.756798,-49.24231,-10.711927,-8.985916,4.9879103,53.147034,-26.638119,18.519651,-45.216858,-22.088093,26.569532,3.9414177
55,-1.6926404237747192,105.465087890625,78.04896545410156,-0.10040185855971491,4.302245553270918,96.40388772415155,17.076393,1.2320462,0.6228231,19.530664,3.2611938,-3.63894,-33.18424,-8.259976,-12.459057,42.409527,-11.15897,2.9328873,-18.02531,-1.9864198,5.8337893,-56.334274,27.583183,-34.76757,-49.963707,-11.055718,-9.2378025,5.337756,54.199913,-26.589106,18.319439,-45.665638,-21.718777,26.59676,3.7751722
56,-1.59556245803833,107.62308502197266,78.2899398803711,0.30715832618463773,4.658269110974441,96.6536359633143,17.342274,1.0660095,0.09160293,20.173153,6.6457047,-4.4189234,-32.133747,-8.143775,-12.825041,35.391518,-10.419548,3.6442566,-18.51577,-2.1670732,4.994518,-55.83483,27.743546,-35.67807,-50.618633,-11.428019,-9.508561,5.647781,54.9621,-26.51165,18.185482,-46.080658,-21.520185,26.584059,3.7232282
57,-1.4918550252914429,109.7736587524414,78.47118377685547,0.8407879421819026,4.9028633847588985,96.97689112679797,17.727537,0.7597202,-0.66355765,20.89854,9.128388,-5.322993,-30.786175,-8.119933,-13.078582,28.262356,-9.524203,4.832,-19.000134,-2.4675343,4.240389,-54.993767,27.853111,-36.490208,-51.228767,-11.877555,-9.82756,5.9275513,55.47239,-26.419014,18.118301,-46.517178,-21.541239,26.520864,3.8255692
58,-1.3846532106399536,111.92001342773438,78.5788345336914,1.6054953373329117,5.024673666380337,97.40964280339858,18.200054,0.20053446,-1.64706,21.70124,11.054793,-6.3058343,-29.045132,-8.2809925,-13.205654,20.727402,-8.367992,6.402741,-19.514378,-3.0016813,3.5303214,-53.85286,27.91558,-37.25454,-51.777416,-12.41478,-10.198111,6.2015963,55.76542,-26.316795,18.139162,-46.98437,-21.68517,26.42426,4.015843
59,-1.2912094593048096,114.05023193359375,78.61520385742188,2.5665398528196297,4.967600989328261,97.94977609115305,18.703571,-0.5703268,-2.726519,22.805616,12.590166,-7.0971394,-27.050676,-8.691254,-13.204285,13.418219,-7.0633125,7.8917956,-20.03157,-3.7771451,2.9514246,-52.519203,27.938187,-37.945305,-52.206684,-12.920848,-10.547873,6.420491,55.795387,-26.213007,18.231117,-47.423267,-21.89684,26.309072,4.241241
60,-1.2154113054275513,116.15299987792969,78.6031265258789,3.5035416708672478,4.762811946867303,98.49911431290782,19.042816,-1.3258752,-3.666427,24.564768,13.826879,-7.4580984,-25.15218,-9.20588,-13.085289,7.2662086,-5.878591,8.80107,-20.448185,-4.571812,2.5865915,-51.05065,27.931997,-38.470875,-52.501545,-13.280619,-10.800457,6.5211005,55.511524,-26.163504,18.344992,-47.783306,-22.108257,26.190384,4.445109
61,-1.1456780433654785,118.21676635742188,78.57078552246094,4.13910235713896,4.533457745229791,98.92829528303191,18.933964,-1.77228,-4.2889733,27.364199,14.667288,-7.202673,-25.685535,-10.001466,-12.429645,7.079652,-7.277864,8.749237,-20.609468,-5.136723,2.4463558,-49.49435,27.905771,-38.91068,-52.642494,-13.414986,-10.93726,6.5063443,54.73558,-26.084684,18.562517,-47.93501,-22.357555,26.057955,4.6284013
62,-1.0737524032592773,120.23124694824219,78.51236724853516,4.493970399862285,4.312912681241251,99.22900337134058,18.44127,-1.9048989,-4.633803,30.994272,15.055384,-6.4722886,-26.018534,-10.43206,-11.657987,6.9828944,-8.311421,8.043336,-20.535656,-5.4285197,2.493784,-47.735386,27.861969,-39.191628,-52.722633,-13.4185705,-10.994072,6.3754725,53.544827,-26.021242,18.82163,-47.953136,-22.654943,25.90232,4.8251004
63,-0.9917002320289612,122.21226501464844,78.42584228515625,4.6731039688277125,4.063677708935956,99.41995296608007,17.792727,-1.8036802,-4.7367973,35.01829,15.079983,-5.5646253,-26.109497,-10.580372,-10.873287,6.9450517,-9.070983,7.1729045,-20.263039,-5.5924115,2.6916056,-45.853523,27.789206,-39.392147,-52.63414,-13.337312,-11.00908,6.2217274,51.989304,-25.965303,19.136385,-47.777813,-22.935335,25.76236,4.9930377
64,-0.9096179008483887,124.18376159667969,78.28694915771484,4.800490163520539,3.734258459235076,99.52877507888667,17.19852,-1.5921122,-4.649526,39.08689,14.799521,-4.8059244,-25.897842,-10.570566,-10.171004,6.935503,-9.617484,6.6234136,-19.833155,-5.751469,3.0240498,-43.862137,27.695133,-39.53451,-52.352337,-13.215082,-11.018924,6.1257987,50.216072,-25.966831,19.430191,-47.450333,-23.118671,25.665442,5.110169
65,-0.8288128972053528,126.14703369140625,78.08149719238281,5.002700256225806,3.2603337285191607,99.6049883818252,16.759544,-1.407726,-4.3763885,43.212986,14.1016445,-4.277495,-25.276155,-10.563524,-9.56466,6.9536715,-10.185523,6.653524,-19.317215,-6.050497,3.4781315,-41.745316,27.533403,-39.601425,-51.828857,-13.011374,-11.014885,6.0753527,48.204624,-26.062521,19.76673,-46.966915,-23.17943,25.6464,5.158999
66,-0.751502513885498,128.07810974121094,77.8013916015625,5.186582176471007,2.6849106553014606,99.62124596888918,16.33413,-1.1246599,-3.9223337,47.614105,12.9547,-3.7976482,-24.298933,-10.492734,-9.002585,7.009891,-10.660996,6.9411697,-18.672249,-6.3630643,4.0738125,-39.473156,27.321875,-39.57245,-51.127735,-12.723453,-10.985551,6.0411654,45.962513,-26.269379,20.122324,-46.387154,-23.13777,25.677696,5.1556354
67,-0.7034104466438293,129.97715759277344,77.44782257080078,5.14342670027375,2.1125239491530845,99.49820289236418,15.789078,-0.5148365,-3.3380647,52.243477,11.5547905,-3.3341873,-23.134007,-10.122037,-8.48039,7.0874977,-10.568887,7.104167,-17.834234,-6.4572005,4.7880692,-37.110275,27.07815,-39.47801,-50.20442,-12.44556,-10.947871,6.0524316,43.482113,-26.585276,20.499247,-45.645325,-22.991207,25.733654,5.059012
68,-0.6898636817932129,131.86883544921875,77.04109191894531,4.673533479916488,1.6342515064671665,99.17175322427208,15.031801,0.61716837,-2.6865385,57.009686,10.128918,-2.8712258,-21.952988,-9.209224,-7.9877896,7.1929035,-9.435536,6.7844877,-16.75433,-6.104592,5.5958133,-34.713905,26.82016,-39.342197,-49.02866,-12.273685,-10.920232,6.141724,40.774624,-27.01025,20.885307,-44.699455,-22.738653,25.78437,4.8335085
69,-0.6037555932998657,133.66876220703125,76.6948471069336,3.678305317768693,1.2439654646699456,98.6481606650373,14.087894,2.3698177,-1.9638027,61.958973,8.756591,-2.4344068,-21.766464,-7.720631,-7.357605,9.449182,-7.538138,5.8549,-15.429032,-5.1881847,6.506149,-32.337852,26.56339,-39.11587,-47.585136,-12.337239,-10.963455,6.3562145,37.820755,-27.52933,21.29361,-43.51042,-22.337505,25.797009,4.417216
70,-0.49238330125808716,135.44387817382812,76.30107116699219,2.426715429500223,0.8155461360733747,98.02648178134002,13.139356,4.4439735,-1.2221265,67.02889,7.36845,-2.0186446,-22.977112,-5.9516296,-6.668909,14.950493,-5.8749275,4.751436,-13.978989,-4.000028,7.517118,-29.875154,26.307947,-38.8243,-45.947243,-12.513532,-11.054223,6.6756124,34.634674,-28.140556,21.758474,-42.140373,-21.810404,25.790945,3.8506453
71,-0.43327802419662476,137.27340698242188,75.76970672607422,1.1727000835459889,0.3114682996510833,97.34229977888926,12.258543,6.5168576,-0.55691326,72.005844,5.951283,-1.5962794,-23.919933,-3.9937086,-6.2414026,20.105196,-4.0274286,3.7992768,-12.47473,-2.8044784,8.559303,-27.305069,26.063705,-38.468132,-44.114544,-12.740959,-11.082289,7.0200596,31.279469,-28.861307,22.283878,-40.68391,-21.23371,25.816538,3.241301
72,-0.37746283411979675,139.09442138671875,75.158447265625,0.010025209066182355,-0.23127079810015588,96.5647760767721,11.417428,8.433974,-0.018231736,76.73512,4.449611,-1.1816155,-24.521032,-2.0470088,-6.048697,24.667383,-3.4043944,3.0138276,-10.937909,-1.6828365,9.555907,-24.574745,25.846493,-38.02249,-42.105083,-12.935148,-10.938405,7.3114586,27.760212,-29.724981,22.898003,-39.195732,-20.676208,25.927494,2.6907697
73,-0.3050761818885803,140.82516479492188,74.51399230957031,-1.2128492569856573,-0.7853244513926771,95.59260941848783,10.603553,10.314852,0.37881514,81.31388,2.8189487,-0.8938376,-24.999708,-0.049714897,-6.072214,29.150938,-4.85798,2.1204145,-9.293565,-0.46256557,10.503219,-21.639685,25.66996,-37.398083,-39.850174,-13.266333,-10.608176,7.453413,23.931934,-30.77499,23.713139,-37.53929,-20.001305,26.17723,2.138154
74,-0.28216370940208435,142.5310516357422,73.84988403320312,-2.555812243625048,-1.3489755840690956,94.44171948154275,9.802104,12.219055,0.70781887,85.81821,1.0791665,-0.7394583,-25.507742,2.0343387,-6.1937304,33.915283,-7.7361717,1.0417972,-7.5999374,0.95604575,11.401436,-18.445843,25.54315,-36.53205,-37.451633,-13.711194,-10.150257,7.5189304,19.734491,-32.01326,24.799103,-35.70965,-19.184908,26.526188,1.529765
75,-0.21989697217941284,144.26904296875,73.24517822265625,-3.8173103047956882,-1.903787694919859,93.2425631352805,8.93679,13.960182,1.0407636,90.072334,-0.73380864,-0.5485048,-25.838081,3.9801354,-6.2202034,38.466537,-11.179668,-0.021784022,-6.034947,2.38618,12.210735,-14.943963,25.476652,-35.447807,-35.178684,-13.912357,-9.560095,7.6799626,15.301281,-33.389465,26.111534,-33.948444,-18.47575,26.89394,0.9919274
76,-0.0982070192694664,146.05393981933594,72.70885467529297,-4.790525280639973,-2.4223341216992123,92.122943158719,7.902271,15.379594,1.4286959,93.90712,-2.580471,-0.12295059,-25.771278,5.621696,-6.0403185,42.216644,-14.250387,-0.84825844,-4.713514,3.5982335,12.929055,-11.124622,25.47815,-34.233162,-33.258533,-13.520161,-8.830243,8.100561,10.821189,-34.825455,27.539505,-32.518982,-18.157621,27.202415,0.6791965
77,-0.014779421500861645,147.81719970703125,72.2353286743164,-5.403645235196719,-2.9128531323465885,91.01164648208837,6.694731,16.444126,1.9364486,97.31495,-4.51523,0.70769227,-25.204866,6.9725757,-5.602076,44.990494,-16.813334,-1.3779691,-3.5804129,4.4818597,13.623245,-6.861639,25.54168,-32.886818,-31.704401,-12.131463,-7.7343554,8.943012,6.195989,-36.284966,29.113127,-31.413933,-18.478325,27.452196,0.72812045
78,-0.03141361102461815,149.56834411621094,71.85838317871094,-5.778305573054969,-3.3711659830091323,89.86971190232002,5.324695,17.258762,2.5037076,100.39057,-6.528552,1.8082377,-24.267817,8.127642,-4.99294,47.11164,-19.328558,-1.7346472,-2.5562673,5.153077,14.317093,-2.1896534,25.656277,-31.396557,-30.431866,-10.069612,-6.322775,10.042968,1.4174504,-37.73644,30.88206,-30.596245,-19.269983,27.673285,1.0401527
79,-0.10481929779052734,151.2969512939453,71.56909942626953,-6.000950528933017,-3.7430096640089032,88.87946485945581,3.6961918,17.901207,2.9829621,103.0927,-8.469914,2.9445436,-23.071388,9.059421,-4.377963,48.685432,-21.717966,-1.973182,-1.6665062,5.6864414,14.943225,2.5716374,25.816118,-29.914698,-29.429691,-8.053768,-5.021022,11.105003,-3.3461766,-39.09979,32.665733,-30.076223,-20.110262,27.834185,1.4338843
80,-0.162793830037117,153.03390502929688,71.36956024169922,-6.163245702019306,-3.977156881371429,88.224654806348,1.7122794,18.45821,3.2239993,105.370186,-10.185344,3.8836534,-21.729681,9.736662,-3.9173477,49.807358,-23.900606,-2.1423938,-0.9061731,6.1323,15.392887,7.027571,26.019464,-28.642506,-28.586355,-6.7574887,-4.2915554,11.895682,-7.5401664,-40.29475,34.15635,-30.062105,-20.796354,27.900837,1.763113
81,-0.1553603559732437,154.79551696777344,71.24202728271484,-6.278473066755482,-4.041268015439804,88.02453236103449,-0.7861133,18.947992,3.1117587,107.25959,-11.61952,4.610529,-20.24188,10.076884,-3.6986232,50.46289,-25.91219,-2.2241845,-0.31561103,6.460224,15.60428,11.03498,26.275536,-27.660591,-27.709103,-6.3490586,-4.4277573,12.374119,-11.199771,-41.28815,35.22457,-30.400116,-21.346575,27.827286,2.090704
82,-0.11590301245450974,156.57089233398438,71.17619323730469,-6.30972513727605,-3.9656764159758757,88.15559677343444,-3.7260408,19.325556,2.760753,108.76202,-12.837747,5.2465186,-18.559254,10.118421,-3.6402998,50.611942,-27.778715,-2.212102,0.15634347,6.632487,15.611332,14.737153,26.593576,-26.899704,-26.788061,-6.4404044,-5.140326,12.686477,-14.496893,-42.09401,35.96799,-30.952381,-21.923246,27.636675,2.4886575
83,-0.08434607833623886,158.36386108398438,71.16883087158203,-6.272566400945422,-3.7974933187563895,88.43768654465376,-6.8447404,19.599606,2.406028,109.76683,-13.869352,5.7958817,-16.720604,10.008016,-3.6356642,50.305676,-29.408745,-2.1604156,0.6359719,6.6984453,15.44191,18.17016,26.977884,-26.317493,-25.984514,-6.852559,-6.0316715,12.902027,-17.446955,-42.736893,36.466393,-31.633062,-22.358997,27.412315,2.8229427
84,-0.06303853541612625,160.15965270996094,71.22000885009766,-6.181719514231057,-3.5843541009165536,88.68935790121574,-9.8659525,19.799103,2.2832193,110.16869,-14.753999,6.254024,-14.769461,9.886463,-3.5673292,49.609787,-30.705933,-2.1164746,1.265101,6.7169676,15.13551,21.353172,27.42775,-25.882814,-25.463146,-7.410099,-6.701688,13.095673,-20.125277,-43.241722,36.7938,-32.32871,-22.442122,27.240866,2.9599826
85,-0.039941370487213135,161.96017456054688,71.33708953857422,-6.041431326846708,-3.3081862711906314,88.91076238767178,-12.815214,19.941196,2.441784,109.93545,-15.500499,6.579159,-12.693209,9.753255,-3.433187,48.458885,-31.708004,-2.074702,2.0502605,6.6965175,14.660628,24.255215,27.964718,-25.617996,-25.295753,-8.1878395,-7.053763,13.292445,-22.568388,-43.624203,36.958553,-32.994267,-21.936829,27.15844,2.784278
86,-0.017923275008797646,163.7949676513672,71.53367614746094,-5.839312350863,-2.958315518549949,89.18084018584973,-15.771478,20.001053,2.8020072,109.10925,-16.08746,6.7720823,-10.475457,9.531459,-3.2832894,46.85351,-32.448486,-2.0057907,2.8973072,6.6007466,14.030287,26.929832,28.606386,-25.46604,-25.432535,-9.23971,-7.295932,13.445317,-24.78025,-43.896328,36.948837,-33.670696,-21.00671,27.114023,2.3933082
87,0.016793664544820786,165.67674255371094,71.80152130126953,-5.5719307649594505,-2.5917603705504892,89.43715751934967,-18.536077,19.96236,3.3922832,107.69866,-16.520044,6.8830943,-8.148922,9.237858,-3.0700102,44.950325,-32.831013,-1.9154029,3.797349,6.4191036,13.344163,29.522863,29.329199,-25.279703,-25.85212,-10.355801,-7.4837193,13.529372,-26.732105,-44.078648,36.79665,-34.421963,-20.056593,27.069572,1.9760084
88,0.027124278247356415,167.55068969726562,72.1332778930664,-5.236237845929671,-2.2626673950277647,89.61857060143885,-20.917208,19.8125,4.224909,105.718796,-16.810276,6.9606843,-5.749774,8.888722,-2.748137,42.908875,-32.758587,-1.8105817,4.754617,6.1573153,12.698587,32.14266,30.079903,-24.941044,-26.502403,-11.322551,-7.671495,13.514215,-28.442345,-44.18628,36.545887,-35.261154,-19.467945,26.998001,1.7123711
89,0.01442014891654253,169.45753479003906,72.5125732421875,-4.8219774178879895,-1.987711392293035,89.69849637899048,-22.842813,19.56447,5.374305,103.12526,-16.997112,6.9964805,-3.2159898,8.481615,-2.2620504,40.64863,-32.210155,-1.7304133,5.8005505,5.8228903,12.109155,34.80755,30.819397,-24.439016,-27.398148,-12.102049,-7.882059,13.366619,-29.904957,-44.2197,36.171093,-36.18649,-19.385246,26.892418,1.6665303
90,-0.011091689579188824,171.3927459716797,72.93126678466797,-4.33350624429836,-1.734674815554666,89.7164362649098,-24.3935,19.20242,6.813633,99.921524,-17.08337,6.942137,-0.5647825,7.993367,-1.6624174,38.14036,-31.246675,-1.6495222,6.904424,5.416709,11.527034,37.460377,31.537048,-23.822554,-28.529896,-12.794412,-8.079544,13.10515,-31.115946,-44.18391,35.67406,-37.20039,-19.589592,26.772272,1.73394
91,-0.035389211028814316,173.3569793701172,73.3895263671875,-3.8030612892171916,-1.4831120271502956,89.71095979416343,-25.627296,18.676601,8.379899,96.19113,-17.022669,6.793702,2.0481687,7.4212666,-1.0607669,35.61799,-29.892109,-1.4836442,8.000351,4.949996,10.950575,40.059986,32.214302,-23.102427,-29.790407,-13.385226,-8.232464,12.774909,-32.147247,-44.09235,35.148453,-38.260513,-19.900885,26.656761,1.8345162
92,-0.07092050462961197,175.3434600830078,73.86476135253906,-3.2599818071746802,-1.2141217389058259,89.71940428667338,-26.614563,17.945951,9.899109,92.00999,-16.765392,6.55804,4.4745564,6.777886,-0.55849326,33.306866,-28.163197,-1.1552609,9.020796,4.440411,10.377081,42.557102,32.825035,-22.298471,-31.064198,-13.852488,-8.310323,12.41972,-33.078648,-43.95872,34.69549,-39.320423,-20.135057,26.566488,1.8863795
93,-0.1270211935043335,177.33140563964844,74.35955047607422,-2.67778280352094,-0.9362183894406132,89.73273725703163,-27.347687,16.974516,11.382604,87.333244,-16.279852,6.3284545,6.7471867,6.0438895,-0.12782314,31.171318,-26.019503,-0.5871385,9.957484,3.8733463,9.826463,44.93303,33.345158,-21.384066,-32.323574,-14.195416,-8.286744,11.984994,-33.95267,-43.791687,34.344944,-40.38706,-20.240217,26.520468,1.8673365
94,-0.20040808618068695,179.32235717773438,74.86355590820312,-2.0590501775013075,-0.6555544453029342,89.73961871923937,-27.80269,15.788384,12.870375,82.1296,-15.608202,6.073245,8.913198,5.2453136,0.28438595,29.131063,-23.464972,0.14580378,10.832797,3.2619522,9.295546,47.198288,33.76084,-20.382862,-33.606083,-14.405743,-8.185117,11.466982,-34.72853,-43.59106,34.05335,-41.479362,-20.31054,26.504908,1.817686
95,-0.2827049195766449,181.32257080078125,75.36534881591797,-1.4708771882790013,-0.3519778446691906,89.77214222669468,-28.032629,14.449072,14.234655,76.4689,-14.795698,5.62756,10.855083,4.4721856,0.6249365,27.345154,-20.579805,0.8881938,11.618745,2.6681955,8.743777,49.28045,34.07129,-19.389828,-34.84803,-14.485481,-8.049977,10.982531,-35.355915,-43.35675,33.81501,-42.56796,-20.385283,26.491772,1.7534703
96,-0.3966194987297058,183.34259033203125,75.86746978759766,-0.983026409256082,-0.005914237860708501,89.86055495274185,-28.08534,13.018935,15.355478,70.39041,-13.8696785,4.8289733,12.4653845,3.8091493,0.8352065,25.97042,-17.442106,1.4931488,12.294393,2.1512752,8.124826,51.163124,34.279236,-18.506886,-36.029236,-14.402287,-7.926946,10.650572,-35.779068,-43.089466,33.618797,-43.62407,-20.504225,26.452919,1.6909212
97,-0.5122535824775696,185.3817138671875,76.34854125976562,-0.573016269093406,0.4090433320892403,90.03450620428369,-27.900368,11.4309435,16.267202,63.59636,-12.741073,3.547481,13.660846,3.236053,0.8519188,25.098087,-13.807475,1.7821501,12.834108,1.6930217,7.4040637,52.805954,34.39293,-17.76739,-37.115395,-14.100824,-7.810769,10.543266,-35.98188,-42.789608,33.469383,-44.660828,-20.71681,26.384857,1.6369071
98,-0.6357841491699219,187.4260711669922,76.80110168457031,-0.22503213660402646,0.8709983489773159,90.26784694296661,-27.439816,9.673483,16.984077,56.06143,-11.375191,1.9100883,14.522228,2.7328756,0.7286926,24.643011,-9.7210455,1.8915642,13.254733,1.2853736,6.61077,54.237175,34.417706,-17.126383,-38.137314,-13.601768,-7.682543,10.582181,-35.990864,-42.45978,33.36797,-45.69076,-20.988892,26.301197,1.5823455
99,-0.7643792033195496,189.4928741455078,77.21003723144531,-0.01872309690239225,1.3302967164394006,90.49654470281557,-26.781954,7.92046,17.374943,48.21336,-9.87012,0.1505446,15.220405,2.3870945,0.6018375,24.423656,-5.667603,2.1527524,13.601532,1.0035036,5.7944503,55.47992,34.359295,-16.553701,-39.13014,-13.033509,-7.5656424,10.657865,-35.818672,-42.105152,33.302692,-46.697037,-21.233917,26.20088,1.5195122
100,-0.8939496278762817,191.55247497558594,77.56767272949219,-0.028075539353273143,1.7385227952383635,90.65344565280556,-26.010248,6.3739223,17.328878,40.50405,-8.339549,-1.4839706,15.947472,2.2929633,0.63597363,24.21975,-2.122128,2.8872755,13.929811,0.911806,5.0062165,56.575584,34.2204,-16.024567,-40.14165,-12.510554,-7.4864626,10.663659,-35.47389,-41.73515,33.25648,-47.660786,-21.366068,26.082733,1.4426805
101,-1.0238611698150635,193.61343383789062,77.85555267333984,-0.3442458063829828,2.108084819733622,90.70859642272626,-25.10111,5.1103034,16.660328,32.702587,-6.7235646,-2.9660866,16.867218,2.5549655,0.89975303,23.675934,0.97096515,4.5172057,14.280724,1.0879084,4.19553,57.57798,34.005924,-15.504757,-41.22146,-12.046536,-7.4359713,10.574365,-34.942123,-41.36319,33.255917,-48.612514,-21.326508,25.944162,1.3370868
102,-1.1363333463668823,195.67355346679688,78.06228637695312,-0.9698709630145849,2.4374491959692053,90.65846519410829,-23.901506,4.171848,15.470989,24.496714,-4.922122,-4.3765073,17.905428,3.181312,1.3899996,22.91869,3.8477156,6.7628894,14.663858,1.5458976,3.3572764,58.478012,33.71912,-15.016836,-42.363842,-11.578754,-7.406027,10.446245,-34.21216,-40.99735,33.29225,-49.567028,-21.171427,25.787062,1.2123314
103,-1.214868426322937,197.71629333496094,78.19249725341797,-1.8723963037631053,2.6494061928942094,90.47921394867913,-22.414743,3.7400005,14.103831,16.432896,-3.0800545,-5.6658387,18.903355,4.1364484,2.11921,22.455217,6.3059154,8.868892,15.082009,2.2890384,2.6103427,59.18567,33.36211,-14.619273,-43.502544,-11.130308,-7.4248295,10.295718,-33.31624,-40.63943,33.301937,-50.478027,-20.976725,25.612343,1.0978671
104,-1.2667282819747925,199.74407958984375,78.2702407836914,-2.946233592679162,2.6870753034342645,90.19808964525063,-20.73379,3.8323553,12.946358,9.139593,-1.3495286,-6.8175974,19.640932,5.293531,2.989519,22.878706,8.107455,10.081926,15.495736,3.2434897,2.0778832,59.59131,32.940296,-14.374836,-44.555733,-10.720451,-7.520319,10.13757,-32.238655,-40.28186,33.23317,-51.334198,-20.866674,25.42119,1.0184472
105,-1.3237197399139404,201.75860595703125,78.32012939453125,-4.019699924670657,2.5901404298688204,89.89436018159088,-20.83593,4.6490808,12.045893,6.769857,-1.8817433,-7.874923,19.862787,6.5164027,3.9354262,24.68044,8.929174,9.990905,15.825251,4.2285237,1.7734236,59.660492,32.444103,-14.294876,-45.48357,-10.362438,-7.710963,9.966958,-31.035913,-39.925392,33.032394,-52.112328,-20.800528,25.188416,1.0126194
106,-1.3816243410110474,203.7241973876953,78.3499755859375,-5.009617347585888,2.4254455641353077,89.61680619897267,-21.65397,5.6697435,11.283956,6.612419,-3.3251374,-8.827657,19.6349,7.723465,4.8539376,27.577438,8.919606,9.104847,16.041224,5.1391716,1.6495794,59.40179,31.877218,-14.35058,-46.290188,-10.043006,-7.9788055,9.776017,-29.63229,-39.565037,32.757885,-52.877052,-20.79428,24.920252,1.0475404
107,-1.4434142112731934,205.64273071289062,78.35546875,-5.818222053848177,2.2147009198670857,89.40372031208642,-22.214523,6.493135,10.625758,6.542765,-4.538138,-9.59592,19.125761,8.739167,5.518254,31.125744,8.474455,8.061622,16.202068,5.8765297,1.7065791,58.906525,31.52976,-14.52594,-47.120785,-9.826519,-8.317825,9.674233,-27.930698,-39.346256,32.355183,-53.681313,-20.75393,24.6902,0.9657362
108,-1.4848815202713013,207.5096893310547,78.32946014404297,-6.453024063988877,2.0019299907733514,89.28287478955843,-22.529179,7.052352,9.919242,6.527707,-5.4768753,-10.108304,18.491894,9.45846,5.7286305,34.851612,7.9937267,7.466054,16.134527,6.453719,1.9307458,57.94927,31.024845,-14.822968,-47.65449,-9.563768,-8.67104,9.532346,-26.101006,-39.03141,31.84122,-54.339664,-20.67076,24.47156,0.9028568
109,-1.531052589416504,209.3433837890625,78.25389862060547,-6.883793398824671,1.7424750874997528,89.21473290751058,-22.457777,7.330054,9.1645975,6.497958,-6.2483063,-10.241197,17.770927,9.808122,5.4847007,38.831818,7.4824076,7.5296087,15.876344,6.8712444,2.363113,56.677216,30.535427,-15.235581,-48.07478,-9.3323965,-9.084725,9.460976,-24.199743,-38.690163,31.383379,-54.781605,-20.508516,24.320847,0.6776358
110,-1.5763200521469116,211.1499481201172,78.13394927978516,-7.159298651169105,1.4489828830585338,89.20054712372212,-22.058605,7.4424024,8.403962,6.477146,-6.827414,-10.0773535,16.878714,9.86131,4.891028,43.20686,6.786261,7.8661327,15.407085,7.1732545,2.963165,54.95344,29.893175,-15.818634,-48.202953,-9.074995,-9.546792,9.404252,-22.298958,-38.19039,30.962519,-54.919865,-20.32243,24.183998,0.44130942
111,-1.612194299697876,212.93331909179688,77.95556640625,-7.232892816790264,1.1435683150611076,89.29547883654215,-21.438692,7.3443074,7.6981425,6.502841,-6.968711,-9.803378,15.838324,9.499559,3.9488187,47.84823,5.8788567,8.214792,14.764143,7.279098,3.718827,53.141327,29.433561,-16.384428,-48.42295,-8.937416,-10.023648,9.39637,-20.255665,-37.77218,30.555082,-55.028057,-20.074154,24.128786,0.04732045
112,-1.6226533651351929,214.69581604003906,77.69683837890625,-7.129740279160819,0.826166462313067,89.54173436764682,-20.677458,7.0502706,7.0884757,6.6153746,-6.4173093,-9.625755,14.734176,8.699108,2.6778185,52.54766,4.7909245,8.311673,13.840946,7.251382,4.545545,50.847202,28.704262,-17.086386,-48.170036,-8.741716,-10.415197,9.286478,-18.42338,-37.04137,30.25068,-54.707348,-19.882824,24.09933,-0.20863076
113,-1.6205778121948242,216.44320678710938,77.38053131103516,-6.7286424158877916,0.47644744495291314,89.95628221388908,-19.632456,6.3536243,6.70153,6.651738,-4.5775986,-9.924532,13.621969,7.2600265,1.0018755,57.37556,3.4579134,8.090492,12.656415,6.9304047,5.514613,48.453945,28.049849,-17.73771,-47.900047,-8.6526375,-10.765857,9.13508,-16.622883,-36.280235,30.073812,-54.183376,-19.634684,24.200056,-0.6003059
114,-1.651309609413147,218.14927673339844,77.0582504272461,-6.075148566418715,0.07866089515478909,90.49842365303428,-18.316395,5.2852507,6.461623,6.6814065,-1.7864065,-10.549145,12.549935,5.2391534,-0.9808593,62.36879,1.8961377,7.6768436,11.300624,6.3436313,6.612524,45.820892,27.450212,-18.430977,-47.520252,-8.628483,-11.092415,8.968721,-14.739239,-35.479397,29.892416,-53.503212,-19.344593,24.386642,-1.0651816
115,-1.747847557067871,219.8162841796875,76.74346160888672,-5.19498415957516,-0.3585283124304123,91.13498532131156,-16.869997,3.9042063,6.290265,6.785161,0.97963274,-10.842836,11.538718,2.7527347,-2.9901218,67.398506,0.17574851,7.176691,9.817537,5.495212,7.798991,43.00488,26.902279,-19.124002,-47.064137,-8.664041,-11.350043,8.794327,-12.798573,-34.647675,29.682549,-52.79165,-19.075409,24.584305,-1.5101874
116,-1.8292512893676758,221.5138702392578,76.33477783203125,-4.140775105001625,-0.8286006449722139,91.82791682692414,-17.647497,2.5819979,6.0229635,11.778744,0.29734772,-10.077514,10.575754,-0.032679453,-4.7681317,72.3322,-1.6221739,6.700844,8.261498,4.4235673,9.034135,40.06211,26.414433,-19.782316,-46.571705,-8.75514,-11.49342,8.618332,-10.8150015,-33.800472,29.415533,-52.19191,-18.890047,24.720728,-1.8438163
117,-1.8738336563110352,223.2191162109375,75.84823608398438,-2.888414073674533,-1.3999779479953651,92.60639522569068,-18.810913,1.097533,5.7628937,17.875826,-1.9986342,-7.5131626,9.774361,-3.2229054,-6.3754706,77.24177,-3.520485,6.3976774,6.623893,3.0900176,10.389716,36.9674,25.995049,-20.437305,-46.009323,-8.959421,-11.500758,8.433606,-8.790659,-32.952072,29.054743,-51.7558,-18.763296,24.760641,-2.0452847
118,-1.9277721643447876,224.8592071533203,75.3286361694336,-1.6022762219242277,-2.103865912541187,93.42924983096727,-20.181181,-0.5217874,5.4478006,24.764114,-5.1755967,-3.752426,9.187677,-6.6449695,-7.9112983,82.11376,-5.507191,6.1318583,4.9623594,1.6588061,11.843492,33.696945,25.647247,-21.134552,-45.376278,-9.258945,-11.396935,8.242723,-6.674351,-32.11146,28.60677,-51.45224,-18.670883,24.751814,-2.1618543
119,-1.9596762657165527,226.46051025390625,74.77037048339844,-0.43937761990893276,-2.815328636809363,94.2036290971272,-21.270626,-2.1860409,5.1261487,31.075487,-8.345703,0.03000642,8.569181,-9.87918,-9.195136,86.747154,-7.491499,5.655435,3.3813698,0.29772303,13.21158,30.27157,25.372799,-21.862862,-44.72832,-9.540066,-11.2105665,8.068119,-4.39966,-31.279142,28.10303,-51.28272,-18.675655,24.741444,-2.2117484
120,-2.0267586708068848,228.05287170410156,74.23858642578125,0.5365023956570292,-3.376452701594547,94.8719566143088,-21.72002,-3.716166,4.9170756,35.749886,-10.933702,2.723122,7.5789337,-12.59715,-10.02712,90.96585,-9.392951,4.7617373,1.9353784,-0.9055182,14.312072,26.715736,25.167583,-22.593395,-44.130775,-9.692889,-10.97291,7.932587,-1.9137282,-30.445515,27.584082,-51.233208,-18.84171,24.776249,-2.214288
121,-2.1156842708587646,229.7036895751953,73.789794921875,1.4219349537494608,-3.7092264885073516,95.4969397538014,-21.48853,-5.0420547,4.893644,38.66323,-13.089331,4.0512676,5.9633837,-14.806972,-10.2760935,94.86752,-11.242991,3.1963434,0.5779514,-2.0273716,15.10091,22.940048,25.02963,-23.344782,-43.549145,-9.706859,-10.6252575,7.8556676,0.8540499,-29.58975,27.04123,-51.34608,-19.218971,24.893171,-2.1668699
122,-2.175497531890869,231.3643035888672,73.45319366455078,2.290897824107927,-3.8786996202402952,96.11038101887645,-20.854883,-6.200755,4.9572444,40.598015,-15.253932,4.665023,3.8297377,-16.67218,-10.052183,98.52702,-13.047953,1.1927509,-0.7288134,-3.1457205,15.660245,18.956385,24.942934,-24.127748,-42.975006,-9.641963,-10.179084,7.8289247,3.8434637,-28.695494,26.479118,-51.595966,-19.757149,25.056187,-2.063962
123,-2.1668081283569336,233.0016632080078,73.21342468261719,3.0261130628195634,-3.940328077548344,96.60929732059738,-19.946571,-7.072776,5.008463,41.921307,-17.385405,4.8606625,1.3603561,-18.106905,-9.533913,101.7225,-14.679251,-0.7492311,-1.9518441,-4.1339397,16.019571,14.963516,24.874014,-24.87178,-42.520634,-9.486923,-9.768025,7.8212175,6.8774867,-27.765083,25.97534,-51.83884,-20.376513,25.20434,-1.9140912
124,-2.1156187057495117,234.62265014648438,73.04466247558594,3.5074742721952634,-3.950199233445507,96.88778873904727,-18.891207,-7.5868344,4.9735036,42.95405,-19.407364,4.939639,-1.231131,-19.075916,-8.947495,104.23363,-16.036922,-2.1723523,-3.0681577,-4.8577585,16.224586,11.152398,24.79164,-25.495432,-42.271706,-9.222158,-9.521379,7.7873764,9.777106,-26.818699,25.605124,-51.92487,-21.003788,25.278944,-1.7272565
125,-2.0765533447265625,236.26980590820312,72.93373107910156,3.636960801347875,-3.9020599898460175,96.8863909008126,-17.71401,-7.6335096,4.845125,43.765102,-21.385607,4.8910174,-3.992951,-19.501266,-8.336678,106.01911,-17.085585,-2.998688,-4.0800314,-5.195474,16.306124,7.5322495,24.685507,-25.95637,-42.254757,-8.721036,-9.506707,7.6941776,12.526835,-25.874704,25.390224,-51.81791,-21.728249,25.25061,-1.4753103
126,-2.07733154296875,237.94192504882812,72.87943267822266,3.502426603619107,-3.7723122605028494,96.67413326050863,-16.343168,-7.292642,4.7079396,44.176704,-23.327017,4.5959287,-7.0054765,-19.445992,-7.643026,107.19553,-17.870302,-3.4791298,-5.019989,-5.2306056,16.261032,3.999348,24.562113,-26.293295,-42.387505,-8.024238,-9.640922,7.55792,15.209734,-24.945251,25.28646,-51.58224,-22.557735,25.155527,-1.1651598
127,-2.100189208984375,239.6555633544922,72.88593292236328,3.266047412429535,-3.5930922884631347,96.33594528435826,-14.760151,-6.80116,4.6156387,44.122612,-25.057169,4.2028623,-10.082043,-19.125484,-6.960545,107.77986,-18.434433,-3.67489,-5.895416,-5.131633,16.091686,0.55118567,24.427837,-26.56689,-42.576557,-7.3625474,-9.825962,7.4055033,17.82696,-24.049824,25.239248,-51.261017,-23.296404,25.03686,-0.8625771
128,-2.128566265106201,241.41085815429688,72.95198059082031,3.0897652029941933,-3.3942457013181055,95.9583334472683,-12.950934,-6.392178,4.595764,43.535458,-26.394785,3.8474095,-13.042824,-18.761198,-6.3443956,107.7887,-18.82752,-3.6328943,-6.715125,-5.066612,15.795158,-2.8101182,24.286219,-26.84177,-42.735756,-6.9688263,-9.963093,7.2617893,20.38375,-23.208559,25.195326,-50.911877,-23.745356,24.94195,-0.6350395
129,-2.158334970474243,243.17681884765625,73.07896423339844,3.0312591922509684,-3.170281331142927,95.50564056679431,-10.850853,-6.12451,4.689616,42.27558,-27.332378,3.557152,-15.914528,-18.410536,-5.7404876,107.19227,-19.044146,-3.2390935,-7.4456444,-5.069813,15.344243,-6.1230755,24.137348,-27.14191,-42.829807,-6.988522,-10.041012,7.1275725,22.924866,-22.43514,25.11791,-50.56708,-23.745035,24.886995,-0.53916174
130,-2.196631669998169,244.9580841064453,73.26249694824219,2.997740050032249,-2.9128342387694506,94.95472494270072,-8.4823265,-5.8755193,4.8629937,40.41361,-27.948393,3.2521055,-18.739264,-17.956793,-5.1570907,105.98154,-19.072823,-2.5104275,-8.08752,-5.0403576,14.766617,-9.395427,23.98459,-27.453882,-42.906326,-7.268177,-10.106893,6.9901037,25.476091,-21.73402,25.004005,-50.245655,-23.428728,24.849813,-0.5318059
131,-2.2297275066375732,246.77317810058594,73.50721740722656,2.924021947432705,-2.643908274168135,94.4108826845133,-5.9708424,-5.6001654,5.0158544,38.20753,-28.191874,2.8971953,-21.37427,-17.376642,-4.710844,104.21119,-18.96099,-1.6849736,-8.705883,-4.947322,14.134005,-12.5659275,23.834824,-27.781822,-43.016815,-7.5972095,-10.149993,6.8544335,28.007244,-21.104616,24.863758,-49.987263,-23.038296,24.821556,-0.5314833
132,-2.2261929512023926,248.60272216796875,73.81344604492188,2.750263385813799,-2.385031617968683,93.97659112187851,-3.4464805,-5.2465215,5.0527167,35.92369,-28.018496,2.461892,-23.678913,-16.662823,-4.5189376,101.93772,-18.762577,-1.0044322,-9.36342,-4.766636,13.51491,-15.568212,23.694838,-28.132416,-43.213326,-7.764725,-10.160315,6.7290044,30.478632,-20.546398,24.710196,-49.814114,-22.818527,24.793203,-0.4526801
133,-2.2020082473754883,250.45120239257812,74.16354370117188,2.441350164437077,-2.1421254717254175,93.68237001141732,-0.85567313,-4.7867866,4.907484,33.462864,-27.39958,1.9445927,-25.608583,-15.782589,-4.6458464,99.11957,-18.501692,-0.520899,-10.088144,-4.4730573,12.918539,-18.396812,23.569632,-28.493008,-43.523964,-7.7187085,-10.114649,6.6084743,32.91541,-20.06314,24.52526,-49.744297,-22.835491,24.768522,-0.27555856
134,-2.1666550636291504,252.3346405029297,74.53933715820312,2.0388994391306463,-1.9032584035060223,93.4693360642362,1.8328229,-4.2459097,4.6483836,30.750982,-26.37109,1.3577467,-27.221268,-14.771993,-5.0037327,95.739,-18.169847,-0.100746974,-10.84214,-4.0875483,12.317679,-21.07505,23.458967,-28.87155,-43.933147,-7.5738907,-10.026486,6.495107,35.334095,-19.658178,24.296345,-49.769497,-22.95911,24.749786,-0.044326417
135,-2.108546257019043,254.23464965820312,74.92800903320312,1.6001065808083945,-1.6625370549493665,93.30449652021738,4.452344,-3.6526453,4.377753,28.099867,-24.990116,0.6962979,-28.542976,-13.7236805,-5.4820757,91.888306,-17.767464,0.28982845,-11.587403,-3.658382,11.722713,-23.575918,23.35777,-29.30084,-44.422825,-7.368977,-9.939103,6.4085217,37.67058,-19.33134,24.048582,-49.856903,-23.143856,24.724136,0.23357338
136,-2.0471901893615723,256.15313720703125,75.32007598876953,1.1769225653778441,-1.4140524263367837,93.15549058601556,6.839149,-3.043875,4.189753,25.81707,-23.30722,-0.04310717,-29.60264,-12.7172365,-5.976541,87.650955,-17.284765,0.6857412,-12.287629,-3.2332404,11.14105,-25.871794,23.259266,-29.807808,-44.970325,-7.1406345,-9.897646,6.3663692,39.853405,-19.07993,23.809526,-49.96383,-23.346432,24.679253,0.5522457
137,-1.9797451496124268,258.0645751953125,75.71760559082031,0.7431057890863916,-1.1592237897440405,93.02441350041973,8.988632,-2.3901596,4.1107492,23.941113,-21.294636,-0.8771019,-30.391088,-11.693402,-6.4901447,82.97219,-16.682295,1.0963957,-12.943396,-2.7875936,10.583724,-27.997725,23.162298,-30.39031,-45.577797,-6.8290615,-9.889161,6.3765187,41.88809,-18.907593,23.554136,-50.08049,-23.582067,24.60265,0.9430302
138,-1.9153163433074951,259.9874267578125,76.11649322509766,0.2843196166789552,-0.9006110194082598,92.92133171718585,10.968068,-1.6998601,4.0681753,22.333967,-18.940788,-1.7848471,-30.89052,-10.630434,-7.055307,77.81678,-15.9785595,1.5032026,-13.568743,-2.3092482,10.04616,-29.945463,23.064686,-31.036427,-46.26235,-6.429183,-9.896984,6.4287634,43.80648,-18.818083,23.26772,-50.230503,-23.866917,24.502306,1.3994232
139,-1.8514541387557983,261.9169006347656,76.51039123535156,-0.12575297763671112,-0.6335951463653509,92.82803758090817,12.719915,-1.0624906,3.999557,21.049656,-16.32033,-2.713181,-31.122066,-9.642513,-7.630668,72.27741,-15.235004,1.9066029,-14.142991,-1.8571384,9.502584,-31.649279,22.96438,-31.731794,-46.996113,-6.0936956,-9.95555,6.5085335,45.575905,-18.802532,22.995998,-50.406784,-24.159575,24.397573,1.8585725
140,-1.7726448774337769,263.862548828125,76.89534759521484,-0.4188056915003603,-0.3522646892674949,92.7287764834577,14.193755,-0.5608659,3.8447504,20.132103,-13.505579,-3.6181972,-31.107754,-8.828121,-8.190037,66.42279,-14.499598,2.3195503,-14.649958,-1.4913065,8.924512,-33.015472,22.85816,-32.48007,-47.76901,-5.935345,-10.099813,6.6030045,47.147907,-18.845781,22.790821,-50.588676,-24.425207,24.308407,2.2624428
141,-1.6868985891342163,265.82672119140625,77.26899719238281,-0.592017200311321,-0.037696842911616055,92.61893256628902,15.370351,-0.18621175,3.623273,19.559298,-10.288036,-4.5584774,-30.797092,-8.174273,-8.808191,60.014572,-13.710601,2.7533169,-15.08502,-1.2088724,8.284147,-34.041126,22.74937,-33.359737,-48.598305,-5.9826813,-10.373476,6.766139,48.511974,-18.940664,22.658873,-50.756756,-24.652752,24.24146,2.5951703
142,-1.60277259349823,267.8006591796875,77.62074279785156,-0.6789944780812414,0.30208543282168143,92.51213551522932,16.281553,0.08849174,3.3217723,19.318218,-6.703552,-5.5406218,-30.173117,-7.586953,-9.4973545,53.013523,-12.818331,3.236982,-15.446704,-0.985433,7.5932965,-34.804714,22.646503,-34.327744,-49.455914,-6.203608,-10.745115,6.980751,49.694214,-19.082787,22.566938,-50.9131,-24.867002,24.185408,2.8926933
143,-1.510399341583252,269.7970886230469,77.93817138671875,-0.6577233275704676,0.6339914796651931,92.4234288630356,16.968296,0.21587189,2.855807,19.443193,-3.184527,-6.4621944,-29.316984,-7.0554733,-10.143971,45.780834,-11.886444,3.8021543,-15.749756,-0.8526592,6.8883886,-35.254646,22.544203,-35.267,-50.30887,-6.501498,-11.138623,7.1334224,50.673927,-19.266699,22.522573,-51.06298,-25.093555,24.133524,3.1792622
144,-1.4109472036361694,271.79144287109375,78.20829010009766,-0.5030494578860888,0.9239354862338296,92.37707037860942,17.489109,0.15332384,2.1623266,19.927105,-0.1401197,-7.2240148,-28.318356,-6.6090083,-10.631501,38.682537,-10.969573,4.4599156,-16.015001,-0.84478617,6.203115,-35.36215,22.432941,-36.05096,-51.103676,-6.8022304,-11.4753475,7.1081247,51.43888,-19.48566,22.53212,-51.213943,-25.355528,24.079403,3.4767845
145,-1.3192863464355469,273.79315185546875,78.42173767089844,-0.14465026965297295,1.17737043075907,92.38837301565704,17.897768,-0.19593444,1.175927,20.629953,2.4580038,-7.870606,-27.099346,-6.310445,-10.958272,31.419323,-10.022487,5.292242,-16.277752,-1.0299972,5.496336,-35.044384,22.300037,-36.704144,-51.87273,-7.104036,-11.76427,6.844859,51.98706,-19.744654,22.616669,-51.37245,-25.712374,24.026688,3.825631
146,-1.2222156524658203,275.7962646484375,78.56877136230469,0.4524595004600507,1.381943764083787,92.48113813576995,18.231535,-0.86317164,-0.06872787,21.490952,4.8463316,-8.45299,-25.54374,-6.200088,-11.187103,23.698147,-8.909262,6.289741,-16.559006,-1.4497807,4.766343,-34.345623,22.142063,-37.308746,-52.613026,-7.4074473,-12.033169,6.410854,52.338783,-20.047724,22.772625,-51.544727,-26.134098,23.976427,4.2020307
147,-1.1406092643737793,277.7868957519531,78.65482330322266,1.2738310443345588,1.4700635857491862,92.6911370903703,18.529537,-1.7982211,-1.4577186,22.623096,6.935731,-8.857623,-23.74378,-6.33714,-11.287045,16.060751,-7.640419,7.3092804,-16.829859,-2.119592,4.095504,-33.536526,21.982107,-37.721584,-53.15475,-7.8176727,-12.229328,5.876206,52.545464,-20.374268,22.955727,-51.753624,-26.506369,23.919737,4.530852
148,-1.071423888206482,279.7489318847656,78.67500305175781,2.2132335549961244,1.408996794321803,93.00418436213073,18.746946,-2.8429518,-2.8153508,24.243696,8.581027,-8.966245,-21.845146,-6.6793065,-11.24477,9.116258,-6.257294,8.17761,-17.083221,-2.9518356,3.5966868,-32.60222,21.82193,-38.02695,-53.522243,-8.03597,-12.311276,5.3402505,52.55313,-20.716206,23.153896,-51.970226,-26.734133,23.84665,4.752441
149,-0.9996457695960999,281.68292236328125,78.64324188232422,3.070688980837974,1.2648072267086634,93.34237192416967,18.659899,-3.8214445,-4.12118,26.717104,9.545106,-8.628021,-21.86501,-7.4123864,-10.834578,7.0644445,-6.90581,8.771956,-17.21806,-3.7272785,3.277118,-31.616062,21.670126,-38.10605,-53.69164,-8.123637,-12.2567625,4.770675,52.32457,-21.047852,23.371073,-52.1556,-26.781351,23.734024,4.87092
150,-0.9329716563224792,283.5833740234375,78.5766372680664,3.7979898961515146,1.0888699157754957,93.65814779298728,18.2603,-4.706235,-5.346329,29.938456,9.912316,-7.968046,-22.52765,-8.148416,-10.206298,6.9066525,-8.161919,9.162861,-17.230906,-4.381594,3.104003,-30.40004,21.511526,-38.09649,-53.776535,-7.968072,-12.102307,4.153053,51.8018,-21.37115,23.630793,-52.272415,-26.71634,23.592415,4.9233313
151,-0.8570952415466309,285.4554748535156,78.47598266601562,4.401015889849284,0.8803639868471193,93.92557266727145,17.693209,-5.418048,-6.250686,33.582657,9.923386,-7.2759986,-22.981604,-8.674731,-9.473127,6.8517137,-9.139013,9.420456,-17.078514,-4.9331217,3.0567133,-29.105173,21.346018,-37.979553,-53.63735,-7.800288,-11.881965,3.5668063,51.032738,-21.69274,23.879623,-52.32188,-26.561417,23.466082,4.8685493
152,-0.771795928478241,287.2876281738281,78.33538818359375,4.846547274407592,0.6190150619218353,94.12984722882923,17.096819,-5.793814,-6.6205935,37.391197,9.76605,-6.834919,-23.11226,-8.923906,-8.688718,6.779338,-9.840139,9.590934,-16.716068,-5.3860254,3.1619363,-27.787165,21.220444,-37.847298,-53.231792,-7.725205,-11.636245,3.1175063,50.003025,-21.934277,24.067373,-52.23431,-26.373266,23.385445,4.7013774
153,-0.6755422353744507,289.0877380371094,78.13199615478516,5.272192798885396,0.27951001732327707,94.31455780909268,16.527317,-5.900656,-6.3852477,41.357567,9.462964,-6.724337,-22.88098,-9.068637,-7.7239027,6.751573,-10.570623,9.74371,-16.206802,-5.8717713,3.3938074,-26.401241,21.09894,-37.675648,-52.53697,-7.7439723,-11.362872,2.7866497,48.74931,-22.17394,24.218365,-52.055496,-26.084845,23.37757,4.3171287
154,-0.5938147902488708,290.8546142578125,77.8613510131836,5.646452230581833,-0.11644155787222098,94.4705909142581,15.884429,-5.712809,-5.6872215,45.642315,8.88712,-6.729486,-22.342346,-9.129189,-6.590959,6.780592,-11.2237835,9.809123,-15.58888,-6.323508,3.7365432,-24.921339,20.933384,-37.380417,-51.554417,-7.8069553,-11.038563,2.5142035,47.28908,-22.519007,24.375353,-51.845932,-25.666546,23.428486,3.718097
155,-0.5331170558929443,292.611328125,77.53012084960938,5.8284881777526465,-0.5200958160928896,94.52569849190911,15.109146,-5.07599,-4.657536,50.158875,8.060847,-6.6691885,-21.625141,-8.972784,-5.476615,6.8816543,-11.276628,9.661178,-14.833539,-6.5525866,4.1851606,-23.388802,20.68901,-36.999672,-50.277504,-7.8427744,-10.668033,2.3382883,45.6904,-23.081839,24.499214,-51.705875,-25.176634,23.522358,3.0198731
156,-0.5157454609870911,294.3677062988281,77.14128112792969,5.5945363053352075,-0.887573220655998,94.40777994540687,14.173694,-3.7856543,-3.445523,54.809677,7.004307,-6.4206047,-20.784916,-8.345713,-4.6244383,6.9552817,-10.145103,9.176966,-13.82914,-6.3539166,4.767333,-21.851099,20.453745,-36.67218,-48.76252,-7.79802,-10.270137,2.3411148,43.860004,-23.681091,24.56112,-51.50934,-24.76794,23.617329,2.4271076
157,-0.5087333917617798,296.0958251953125,76.72346496582031,4.852154090618421,-1.2265521406182176,94.10940633026772,13.1311035,-1.6731607,-1.9796438,59.64134,5.707263,-5.9555106,-19.8096,-7.103078,-4.113945,6.9770284,-6.9532795,8.3666315,-12.5780115,-5.6256933,5.4865403,-20.308643,20.22586,-36.391426,-46.936516,-7.721145,-9.8718195,2.569715,41.76395,-24.325277,24.601181,-51.21401,-24.525925,23.721172,1.9696531
158,-0.39646732807159424,297.71844482421875,76.37134552001953,3.779150032522181,-1.6108607547248812,93.708448333722,12.124371,1.0787951,-0.3283407,64.62365,4.187467,-5.341304,-19.303215,-5.451203,-3.8017087,8.357711,-2.920671,7.458968,-11.154164,-4.55698,6.3262,-18.731787,20.003693,-36.124035,-44.821774,-7.629034,-9.460302,2.9862747,39.43716,-25.02013,24.635159,-50.85828,-24.377747,23.84369,1.5710697
159,-0.26763129234313965,299.3373718261719,75.95101165771484,2.6072777991137652,-2.079299076264981,93.25723278207126,11.216539,4.037926,1.1954826,69.529945,2.5353851,-4.624719,-20.249346,-3.7186472,-3.6127055,13.1389475,-0.62612706,6.568814,-9.658427,-3.3797374,7.2349315,-17.092625,19.7965,-35.844425,-42.565117,-7.411181,-8.980413,3.492609,36.914406,-25.784225,24.659967,-50.50843,-24.194355,23.979088,1.2060022
160,-0.18790240585803986,301.00421142578125,75.40682220458984,1.491754726164301,-2.6176668874258713,92.76845051581815,10.36355,6.827679,2.3493547,74.16821,0.8216692,-3.8789287,-20.914385,-2.0261858,-3.6222622,17.593498,0.37574723,5.589412,-8.166325,-2.2343447,8.156196,-15.345453,19.620344,-35.509407,-40.331516,-6.951231,-8.3746605,3.9899602,34.188557,-26.64483,24.684322,-50.19795,-23.83933,24.120594,0.84440947
161,-0.10162308067083359,302.6125793457031,74.83624267578125,0.3003769919739746,-3.223314481416622,92.17592201140133,9.521266,9.544568,3.080158,78.67042,-1.0428106,-3.1989226,-21.68936,-0.2842896,-3.7823384,22.623142,-0.8860582,4.130321,-6.623086,-0.9628764,9.13268,-13.522552,19.48472,-35.076836,-38.050983,-6.230021,-7.5748467,4.488274,31.198517,-27.637913,24.748358,-49.930912,-23.144234,24.26915,0.44157606
162,-0.05657582730054855,304.1613464355469,74.2346420288086,-1.0065859576066476,-3.8885700112736994,91.48755496460738,8.687604,12.280094,3.5510242,83.09692,-3.0595083,-2.566619,-22.59651,1.5597527,-4.0395355,28.265461,-3.6053305,2.2542803,-5.063035,0.49314523,10.144196,-11.586002,19.394268,-34.52175,-35.72165,-5.313428,-6.62655,5.0204377,27.913382,-28.77619,24.89829,-49.669426,-22.204823,24.42784,0.00876805
163,-0.009455619379878044,305.6929016113281,73.6746597290039,-2.2309885150083417,-4.550109877135604,90.79108643778807,7.7793155,14.76348,3.8636897,87.20021,-5.05222,-1.901274,-23.291378,3.3014035,-4.2331676,33.60325,-6.8302116,0.41015172,-3.6500456,1.9252477,11.064384,-9.37126,19.358637,-33.833305,-33.629345,-4.200437,-5.647831,5.5236,24.337664,-30.03814,25.16516,-49.370235,-21.285402,24.593573,-0.39696896
164,0.1547451764345169,307.3002014160156,73.26435089111328,-3.1801923618871135,-5.13792410913031,90.16788089639881,6.6882043,16.764315,4.1140733,90.740234,-6.850704,-1.092666,-23.425241,4.7492537,-4.285826,37.704945,-9.590815,-0.9395216,-2.5057957,3.1050642,11.800401,-6.716247,19.393068,-33.021416,-32.054146,-2.888869,-4.7580876,5.9391656,20.481968,-31.376358,25.570427,-49.0012,-20.662409,24.765371,-0.7097786
165,0.3229641020298004,308.9190368652344,72.97036743164062,-3.793899073693131,-5.629629793666101,89.54362468501205,5.3364882,18.177479,4.3156624,93.687515,-8.414084,-0.015815321,-22.8846,5.857969,-4.158953,40.342297,-11.78567,-1.6485859,-1.6123413,3.9386573,12.376035,-3.4336991,19.501795,-32.022297,-31.09357,-1.0014281,-3.8937848,6.2699723,16.103865,-32.773533,26.194696,-48.4713,-20.38303,24.963327,-0.91364694
166,0.3601447343826294,310.4930725097656,72.80113983154297,-4.200618014838777,-6.050558676404669,88.89009311230106,3.7349625,19.174799,4.434913,96.19272,-9.828578,1.2450519,-21.893608,6.7364035,-3.9081526,42.087605,-13.927648,-1.9919616,-0.9105835,4.5625563,12.864409,0.40124762,19.682735,-30.840351,-30.64945,1.3257966,-3.023614,6.528126,11.213525,-34.203613,27.087461,-47.839672,-20.30264,25.185085,-1.0523536
167,0.2824389934539795,312.0595397949219,72.71965026855469,-4.486703734121991,-6.398540725086355,88.36453645387256,1.9101604,19.95338,4.4800415,98.26042,-11.102203,2.4968553,-20.587456,7.4082637,-3.661995,43.17987,-15.9489,-2.1354594,-0.40281123,5.063827,13.258522,4.491755,19.938437,-29.64582,-30.653095,3.3302133,-2.3234396,6.698706,6.269905,-35.5786,28.108938,-47.30303,-20.431765,25.394796,-1.1248658
168,0.22510401904582977,313.65374755859375,72.70145416259766,-4.74170369328317,-6.673236839164126,88.12653479574801,-0.101749085,20.71171,4.4555573,99.88751,-12.250168,3.5500388,-19.099493,7.9075212,-3.54447,43.84109,-17.771845,-2.2388241,-0.040114257,5.511961,13.5249815,8.451066,20.275293,-28.657587,-30.950144,4.261072,-1.9682912,6.797027,1.778543,-36.793972,29.013733,-46.995308,-20.82474,25.5479,-1.0901437
169,0.23611921072006226,315.2510986328125,72.73443603515625,-4.974861814004296,-6.863385230317914,88.28458481017996,-2.3967025,21.501032,4.3007445,101.09578,-13.262098,4.3638744,-17.40127,8.181179,-3.6227403,44.043415,-19.43745,-2.2876809,0.16185704,5.874722,13.6100025,12.179162,20.709808,-27.95211,-31.47145,3.7666438,-2.070139,6.7889433,-2.1953664,-37.783615,29.65311,-46.807186,-21.780064,25.614643,-0.7912202
170,0.298971563577652,316.862548828125,72.8212661743164,-5.147080064179946,-6.971624099190008,88.7302114143206,-4.9664707,22.205647,4.0568724,101.86877,-14.127364,5.045097,-15.439489,8.230225,-3.832858,43.69497,-20.969267,-2.2213287,0.25228408,6.0997863,13.523307,15.792836,21.252598,-27.44871,-32.20982,2.3081856,-2.5069358,6.688718,-5.88632,-38.544678,30.08237,-46.602276,-23.230461,25.605057,-0.24478684
171,0.37030529975891113,318.5030212402344,72.96501159667969,-5.266666999128933,-7.020677437448849,89.29465066004599,-7.6030846,22.783062,3.886575,102.14941,-14.870233,5.6249447,-13.309563,8.178021,-4.08826,42.916584,-22.255295,-2.120813,0.36217704,6.2313623,13.312788,19.228579,21.902851,-27.104788,-33.076744,0.36605233,-3.1022832,6.586366,-9.308591,-39.098064,30.370464,-46.398674,-24.659819,25.544788,0.33088583
172,0.4376812279224396,320.1446228027344,73.1646957397461,-5.342304868455843,-7.033562439096091,89.80927067418482,-10.087524,23.20617,3.9469573,101.885345,-15.518435,6.1235523,-11.108311,8.142777,-4.2926445,41.83472,-23.186071,-2.0614104,0.62525874,6.3202806,13.027991,22.416912,22.64855,-26.890024,-33.982258,-1.5755839,-3.6897569,6.5870776,-12.373392,-39.480198,30.577936,-46.30698,-25.583735,25.47392,0.7156135
173,0.500571608543396,321.7877502441406,73.41824340820312,-5.387998357402758,-6.9949494800972225,90.27793470309523,-12.428936,23.50457,4.2811575,101.05328,-16.12342,6.5443735,-8.793413,8.14358,-4.454466,40.336994,-23.7483,-2.074004,1.0498766,6.3986664,12.643017,25.313013,23.497034,-26.843126,-34.929054,-3.6027281,-4.289295,6.7403636,-15.095615,-39.711594,30.698103,-46.307014,-25.74328,25.41321,0.816617
174,0.5467117428779602,323.43255615234375,73.72947692871094,-5.391278268577403,-6.901577995859843,90.77353294424816,-14.686572,23.670406,4.8378077,99.674034,-16.65728,6.8549657,-6.332431,8.113512,-4.6108174,38.406254,-23.997349,-2.1031752,1.552217,6.431911,12.149537,27.99621,24.459894,-26.916262,-35.97859,-5.897271,-4.9753103,6.9668827,-17.481482,-39.80366,30.717648,-46.389595,-25.457407,25.344694,0.75766855
175,0.5848013162612915,325.0914001464844,74.08354187011719,-5.329399895023496,-6.793381345406223,91.23271433744652,-16.72052,23.645645,5.6126294,97.76913,-17.033451,7.0231085,-3.8380125,8.035281,-4.7059827,36.31612,-23.93002,-2.0946434,2.127722,6.381973,11.623391,30.578793,25.51761,-26.968622,-37.115673,-8.115435,-5.6688356,7.203374,-19.624752,-39.782692,30.675512,-46.535843,-24.969208,25.265774,0.633466
176,0.6042414307594299,326.7554626464844,74.4777603149414,-5.182055150059846,-6.70962497795552,91.59250956481299,-18.401358,23.382254,6.588901,95.36252,-17.166325,7.0235567,-1.4284335,7.889563,-4.687567,34.348892,-23.547873,-2.0007226,2.7678285,6.2206497,11.138063,33.157536,26.62512,-26.871937,-38.31093,-9.910778,-6.285248,7.395305,-21.548746,-39.682903,30.618694,-46.786285,-24.562025,25.177193,0.53563815
177,0.6042687296867371,328.4234619140625,74.89279174804688,-4.9297788035018355,-6.670312299407193,91.8357372760132,-19.671785,22.872145,7.8280272,92.42475,-17.042904,6.85476,0.9463141,7.664477,-4.515719,32.445663,-22.81038,-1.8407009,3.4840865,5.942609,10.716747,35.732464,27.753284,-26.618046,-39.543423,-11.178667,-6.821115,7.547053,-23.254059,-39.52611,30.540691,-47.170803,-24.20522,25.076841,0.44401705
178,0.5850958824157715,330.0892028808594,75.32230377197266,-4.592996352909541,-6.6513316356889165,91.99797543997138,-20.605368,22.141659,9.297425,88.95136,-16.711222,6.514993,3.314198,7.3668804,-4.235189,30.514006,-21.738241,-1.6308371,4.2631297,5.5794687,10.32199,38.24922,28.894917,-26.267744,-40.8093,-12.102173,-7.3119073,7.6851397,-24.715952,-39.320477,30.429136,-47.686195,-23.781408,24.969032,0.3152742
179,0.5563857555389404,331.7608947753906,75.77047729492188,-4.215637968487728,-6.625179238158322,92.0957999163803,-21.278963,21.203333,10.828377,84.98947,-16.183104,5.999362,5.5245996,7.009567,-3.9165745,28.782131,-20.422476,-1.325177,5.067343,5.164902,9.932658,40.702606,30.02626,-25.817509,-42.082897,-12.764248,-7.7280254,7.797858,-25.977577,-39.079662,30.311493,-48.26584,-23.398203,24.863169,0.2022083
180,0.5202681422233582,333.4278259277344,76.21944427490234,-3.8395218553747545,-6.564312809451842,92.14459203072435,-21.769247,20.073067,12.25382,80.570786,-15.468879,5.309333,7.4334702,6.611334,-3.6224623,27.46714,-18.94598,-0.8795292,5.8573713,4.732707,9.524375,43.078884,31.110773,-25.26754,-43.325645,-13.246948,-8.039472,7.869176,-27.087093,-38.819363,30.22213,-48.839264,-23.162422,24.770254,0.15707278
181,0.47284847497940063,335.09417724609375,76.66239929199219,-3.421947057418145,-6.467198802593312,92.1271448641671,-22.069307,18.686357,13.58625,75.60769,-14.495504,4.485096,9.030504,6.1244617,-3.3506386,26.593418,-17.283472,-0.22125871,6.642919,4.253429,9.105771,45.35474,32.117477,-24.614754,-44.496517,-13.550244,-8.2152195,7.859622,-28.079855,-38.55309,30.164993,-49.399887,-23.11638,24.698843,0.20967986
182,0.4008280634880066,336.7480773925781,77.0958480834961,-2.96105587535493,-6.345466417346225,92.0412201280436,-22.15289,17.067444,14.854884,70.0873,-13.289105,3.5306046,10.382311,5.567254,-3.0546837,26.054472,-15.401169,0.5976569,7.434296,3.7329855,8.687283,47.50832,33.033726,-23.887072,-45.58618,-13.629853,-8.275882,7.7873425,-28.903425,-38.285614,30.131723,-50.000492,-23.20903,24.643354,0.32193032
183,0.3145679235458374,338.4005432128906,77.51670837402344,-2.5510763038968465,-6.190897112569314,91.92166520784207,-22.06277,15.366873,15.93309,64.13646,-11.99202,2.3985271,11.4750805,5.0584693,-2.725476,25.84718,-13.363169,1.4383469,8.190891,3.252336,8.2386265,49.53838,33.849525,-23.133543,-46.608486,-13.495595,-8.270009,7.722974,-29.537323,-38.02226,30.126215,-50.612545,-23.355703,24.593916,0.45041302
184,0.21797145903110504,340.0584716796875,77.90669250488281,-2.2885124345206678,-5.996505429463154,91.80281841528117,-21.83141,13.732243,16.713625,57.860886,-10.733626,1.0387946,12.296325,4.716772,-2.364162,25.974545,-11.2339115,2.1717646,8.873195,2.893074,7.726044,51.44124,34.55709,-22.402035,-47.58124,-13.158607,-8.245576,7.7361794,-29.941502,-37.767437,30.152313,-51.22063,-23.484283,24.540909,0.5514195
185,0.12212865799665451,341.732177734375,78.26636505126953,-2.1837442483010627,-5.7324449750499715,91.69206697831694,-21.366947,12.113781,17.204123,50.901756,-9.444167,-0.6983887,12.803222,4.5740047,-1.947224,26.418453,-8.80336,2.8149192,9.479504,2.6595397,7.105395,53.1955,35.15277,-21.709482,-48.48584,-12.5699215,-8.189225,7.8469462,-30.072248,-37.527817,30.239012,-51.855534,-23.602007,24.488205,0.59531695
186,0.027003182098269463,343.426513671875,78.5936279296875,-2.1982565463971158,-5.415597849725577,91.56045996998826,-20.610584,10.475968,17.44508,43.17217,-8.01842,-2.7188008,13.042623,4.5936356,-1.463347,27.138378,-6.0878625,3.4472234,10.031597,2.5258946,6.4038134,54.801342,35.633457,-21.045555,-49.316116,-11.735445,-8.080697,8.0139065,-29.971453,-37.310314,30.371098,-52.515373,-23.72454,24.439255,0.6121397
187,-0.05617843568325043,345.13433837890625,78.8699951171875,-2.3697117875345253,-5.110340814064137,91.39004100594829,-19.64442,9.004261,17.404945,35.204323,-6.538267,-4.7131095,13.132625,4.7933874,-0.955591,28.118328,-3.502661,4.0258055,10.532184,2.5405965,5.696934,56.270638,35.99825,-20.416002,-50.105274,-10.755068,-7.9563246,8.213679,-29.663881,-37.114063,30.502287,-53.171204,-23.853401,24.38433,0.64511627
188,-0.13873352110385895,346.858642578125,79.073486328125,-2.739664385236158,-4.88290472763091,91.16429179710336,-18.594778,7.9064107,17.070305,27.63137,-5.127592,-6.3826942,13.189947,5.185483,-0.48448104,29.350765,-1.4679031,4.4793444,10.986315,2.7588758,5.060054,57.613037,36.249535,-19.825132,-50.88254,-9.729409,-7.8536654,8.425361,-29.163225,-36.933086,30.598143,-53.803616,-24.010246,24.313017,0.73839206
189,-0.21107548475265503,348.5818176269531,79.20634460449219,-3.416565032270661,-4.748750200722787,90.8577549406446,-17.491085,7.3259726,16.359072,20.47033,-3.840367,-7.6954894,13.244058,5.9386,0.07729117,30.82317,-0.084621556,4.793621,11.419323,3.2879162,4.4638133,58.90115,36.384575,-19.253208,-51.693287,-8.591686,-7.7639294,8.654104,-28.452438,-36.76675,30.664785,-54.4305,-24.215757,24.213913,0.9446802
190,-0.282740980386734,350.29827880859375,79.28236389160156,-4.440470809299192,-4.7036119329139545,90.46364260581186,-16.245667,7.299262,15.322794,13.440723,-2.613981,-8.79839,13.279064,7.0972285,0.71149087,32.499016,0.9010958,4.983451,11.845646,4.1738286,3.8840837,60.121105,36.405273,-18.70908,-52.53195,-7.3178453,-7.669131,8.905008,-27.52594,-36.61735,30.733105,-55.06398,-24.470285,24.095402,1.2294717
191,-0.3581675589084625,351.99603271484375,79.29667663574219,-5.6555893205071275,-4.76294892744533,90.02153544329265,-14.934165,7.7337613,14.189388,6.929165,-1.4711279,-9.694074,13.267194,8.359758,1.1074734,34.454895,1.5457755,4.9968495,12.223028,5.2873974,3.4014316,61.15341,36.325764,-18.244316,-53.342964,-6.067441,-7.59868,9.165,-26.483057,-36.487602,30.7701,-55.62764,-24.688,23.975618,1.5065293
192,-0.43371376395225525,353.6575927734375,79.25830841064453,-6.758382507884108,-4.897607403227355,89.61033428667974,-16.162996,8.843712,12.8297825,6.673625,-3.2507575,-10.396677,13.094348,9.230747,0.9228471,36.870625,1.8380764,4.786431,12.469585,6.330762,3.1074746,61.85809,36.16741,-17.900543,-54.052197,-5.001522,-7.585698,9.419772,-25.383276,-36.3608,30.751842,-56.07228,-24.82693,23.87159,1.6866566
193,-0.5007166862487793,355.26678466796875,79.1789321899414,-7.586672196408641,-5.054661779610133,89.26409391026324,-17.154589,9.655971,11.686995,6.527785,-4.6174235,-10.848749,12.652802,9.415203,-0.021223655,39.94413,1.6251264,4.2926292,12.540532,7.1292796,3.0225747,62.17979,35.925514,-17.706272,-54.624283,-4.1388903,-7.64989,9.689865,-24.227015,-36.22117,30.66192,-56.401882,-24.857569,23.768946,1.734992
194,-0.5788607597351074,356.83489990234375,79.06024169921875,-8.185345069791104,-5.217980114424076,88.97515300895631,-17.97406,10.201464,10.676269,6.499083,-5.687065,-11.084432,11.965989,8.984309,-1.5172055,43.646107,0.8618067,3.5189066,12.450734,7.716206,3.1015673,62.160797,35.608032,-17.643265,-55.067135,-3.4029305,-7.7730646,9.9836,-22.995073,-36.065372,30.517454,-56.62658,-24.808508,23.663267,1.6987956
195,-0.6439340114593506,358.3729248046875,78.88565826416016,-8.637019256660036,-5.4203235094511335,88.74983247875834,-18.54128,10.531591,9.777921,6.527424,-6.516257,-11.238239,11.179411,8.081771,-3.3189733,47.67813,-0.21462145,2.4837842,12.201078,8.181516,3.3328102,61.832333,35.242195,-17.674189,-55.39114,-2.8118374,-7.9329963,10.262933,-21.725676,-35.88499,30.360962,-56.69686,-24.733074,23.586493,1.6190884
196,-0.7027978301048279,359.8898010253906,78.65476989746094,-9.00750877469877,-5.6908904610414615,88.60065952433482,-18.77261,10.705523,8.96716,6.5489955,-7.155996,-11.4219475,10.4109,6.874612,-5.20984,51.7625,-1.362321,1.2301056,11.792471,8.595465,3.7016797,61.23202,34.872078,-17.759146,-55.613586,-2.3887246,-8.109414,10.494883,-20.453856,-35.673077,30.216293,-56.561314,-24.675795,23.571173,1.5389961
197,-0.775282621383667,361.390869140625,78.35694885253906,-9.410318801847488,-6.041579543966835,88.5128795004122,-18.606127,10.881608,8.199177,6.5746255,-7.9218597,-11.805834,9.714051,5.41657,-7.306088,55.906067,-2.5693727,-0.35826015,11.239872,9.065183,4.187685,60.39901,34.53519,-17.890512,-55.79963,-2.2129865,-8.312225,10.691413,-19.138954,-35.420406,30.068243,-56.21345,-24.67014,23.638233,1.4710199
198,-0.8558276891708374,362.8739929199219,77.99806213378906,-9.782154110358487,-6.451731836315575,88.49198393819576,-18.087639,11.040935,7.4966836,6.595674,-8.666702,-12.268924,9.084079,3.582539,-9.618454,60.212833,-3.9881668,-2.288711,10.544135,9.510976,4.79928,59.335304,34.243874,-18.073341,-55.95539,-2.2580197,-8.550993,10.875515,-17.769428,-35.123123,29.893137,-55.67234,-24.68374,23.765505,1.3966773
199,-0.9180087447166443,364.32696533203125,77.58357238769531,-9.895940977563669,-6.895610202122225,88.57720929955568,-17.30592,10.929933,6.931733,6.5791373,-8.796831,-12.460646,8.492766,1.3072674,-11.804366,64.60674,-5.611422,-4.293906,9.696179,9.6891165,5.5601263,57.996418,34.000153,-18.295393,-55.988968,-2.3853178,-8.805213,11.030206,-16.387775,-34.785423,29.701984,-54.947975,-24.686625,23.920118,1.3077811
200,-0.9504092931747437,365.7747497558594,77.11097717285156,-9.521780925341886,-7.336985383708504,88.80375671799149,-16.42329,10.259469,6.5550437,6.627607,-7.786387,-12.035136,7.8640513,-1.4354076,-13.539007,69.01015,-7.3839593,-6.057219,8.69425,9.347157,6.4680753,56.320675,33.796524,-18.54873,-55.79243,-2.456407,-9.054253,11.1374,-15.044989,-34.412174,29.503635,-54.044342,-24.638807,24.068888,1.1915796
201,-0.9481202960014343,367.2236022949219,76.60017395019531,-8.507485131387826,-7.823848196922424,89.22345168672074,-15.346697,8.757355,6.45309,6.652147,-4.772241,-10.93974,7.2712874,-4.819483,-14.861678,73.44635,-9.274998,-7.487248,7.501061,8.3300705,7.575269,54.277397,33.62116,-18.846802,-55.35233,-2.4229968,-9.288656,11.171483,-13.742455,-34.008755,29.31123,-52.932255,-24.507635,24.200567,1.0385154
202,-1.0520126819610596,368.5771179199219,76.17494201660156,-7.055468774909222,-8.409576568267937,89.76462686603239,-14.055921,6.6514983,6.616466,6.664362,-0.2311504,-9.479621,6.782379,-8.640891,-15.874378,77.88285,-11.236934,-8.69556,6.177824,6.842261,8.844025,51.93354,33.469887,-19.185297,-54.74821,-2.3607845,-9.520717,11.14612,-12.454617,-33.5766,29.121773,-51.62498,-24.315174,24.335289,0.8526793
203,-1.2142157554626465,369.9000244140625,75.73216247558594,-5.487779287549844,-9.0699250568485,90.27079720086557,-14.485878,4.6259437,6.8006325,10.517623,2.442203,-7.7994523,6.2367125,-12.308986,-16.386543,82.14134,-13.129035,-9.677475,4.8759427,5.2094593,10.148852,49.385223,33.34891,-19.527565,-54.02007,-2.31741,-9.761274,11.102342,-11.192097,-33.116592,28.927908,-50.18073,-24.111979,24.487375,0.6455729
204,-1.304173469543457,371.2559814453125,75.15080261230469,-4.096526907809683,-9.733194126375206,90.6135083758479,-15.536881,3.0182166,7.05698,15.691122,3.1889944,-5.9018474,5.382598,-15.280589,-16.233917,86.07959,-14.84046,-10.44347,3.7187846,3.732532,11.370529,46.696575,33.271782,-19.844475,-53.17966,-2.3419886,-10.021463,11.08363,-9.971904,-32.628716,28.713793,-48.652176,-23.943584,24.66913,0.42850497
205,-1.3762320280075073,372.562255859375,74.5174560546875,-2.831178720541073,-10.375243621583369,90.78367110199055,-17.006763,1.762139,7.2705765,21.76919,1.8675734,-3.3089027,4.0180407,-17.499727,-15.2319565,89.850365,-16.398638,-10.968199,2.7115285,2.3460736,12.528578,43.873222,33.248604,-20.109169,-52.184303,-2.5384974,-10.381871,11.096735,-8.866407,-32.116337,28.465248,-46.990505,-23.741268,24.87465,0.15364315
206,-1.3910797834396362,373.8047180175781,73.84001922607422,-1.598163035408037,-11.019528212969234,90.83553657205384,-18.774254,0.5978988,7.4364533,28.553411,-0.62969565,-0.15956378,2.2453,-19.13314,-13.553103,93.48815,-17.833836,-11.238395,1.823039,0.96529776,13.67107,40.865746,33.28335,-20.353434,-51.033646,-2.8544335,-10.811634,11.121473,-7.8323207,-31.58001,28.181389,-45.194336,-23.504608,25.098207,-0.17169397
207,-1.4313883781433105,375.0366516113281,73.18927764892578,-0.48393906994945407,-11.620069784949338,90.79215071165454,-20.35517,-0.49842817,7.584519,34.90996,-3.4390802,2.7730367,0.20766392,-20.185013,-11.569339,96.73982,-19.07828,-11.268664,1.0649235,-0.28232324,14.72565,37.62096,33.379726,-20.642937,-49.77478,-3.1042426,-11.155663,11.167515,-6.6992764,-31.008398,27.859322,-43.399742,-23.388702,25.357046,-0.45163476
208,-1.5418542623519897,376.277587890625,72.64918518066406,0.4370790484808581,-12.130913629250664,90.67894334625205,-21.315508,-1.4282726,7.829653,39.875187,-5.8611665,4.763167,-1.9646146,-20.730528,-9.638773,99.37068,-20.074741,-11.098582,0.43390048,-1.2830702,15.621258,34.100647,33.537148,-21.036123,-48.474026,-3.101459,-11.259578,11.251581,-5.2894616,-30.384047,27.498474,-41.74627,-23.559519,25.66897,-0.58335495
209,-1.635061264038086,377.5108337402344,72.22160339355469,1.1882146783862597,-12.507533556352065,90.48698327371496,-21.520796,-2.064425,8.288774,43.233932,-7.9746823,5.5502715,-4.3775268,-20.762854,-7.714667,101.35365,-20.788853,-10.700605,-0.07549987,-2.034131,16.332176,30.16822,33.767963,-21.584795,-47.086967,-2.8247051,-10.969462,11.475228,-3.556401,-29.685171,27.099329,-40.216446,-24.221682,26.100811,-0.46662426
210,-1.6759071350097656,378.70556640625,71.8776626586914,1.8321427886316661,-12.774797246551618,90.22424196398963,-21.268095,-2.4374614,8.873782,45.69467,-10.239409,5.6161017,-7.048087,-20.303288,-5.6798363,102.83259,-21.267923,-10.070523,-0.47294158,-2.6249113,16.902716,25.914845,34.062294,-22.231089,-45.64867,-2.3689897,-10.404915,11.811155,-1.5899239,-28.90768,26.648504,-38.736893,-25.249598,26.615467,-0.15994592
211,-1.655073881149292,379.90997314453125,71.5933837890625,2.335946334049862,-12.997213104432651,89.93942048218517,-20.73639,-2.6073477,9.435852,47.659317,-12.54141,5.3621435,-9.722903,-19.507837,-3.7859173,103.816055,-21.57143,-9.3233,-0.795469,-3.0605152,17.377682,21.651789,34.370853,-22.850615,-44.334175,-1.7166008,-9.819618,12.069649,0.5577678,-28.068016,26.149876,-37.358364,-26.299744,27.079735,0.19143656
212,-1.604433298110962,381.1386413574219,71.36504364013672,2.6632371311438816,-13.241091210126402,89.67861336184204,-20.102066,-2.6645374,9.820757,49.48812,-14.740229,5.176547,-12.169293,-18.556017,-2.264054,104.30335,-21.752287,-8.574408,-1.0966341,-3.3375657,17.802475,17.637053,34.633034,-23.331512,-43.24308,-0.838931,-9.470112,12.044192,2.8151097,-27.195103,25.635887,-36.13885,-27.01205,27.371536,0.4221939
213,-1.5783416032791138,382.3671875,71.17439270019531,2.7479821592900837,-13.569800133516804,89.42381890748469,-19.30414,-2.5543656,9.984379,51.217457,-16.857275,5.108065,-14.31817,-17.395569,-1.1603454,104.244354,-21.794945,-7.811986,-1.3809532,-3.3496408,18.230467,13.791727,34.81111,-23.663157,-42.270157,0.4940343,-9.480782,11.564709,5.2513947,-26.297005,25.104282,-35.104343,-27.25138,27.426891,0.4471842
214,-1.5931698083877563,383.5952453613281,71.0175552368164,2.629737796397017,-13.937595205847247,89.16331656756465,-18.268955,-2.255335,10.026716,52.660866,-18.942331,4.9708457,-16.29355,-16.002474,-0.36030263,103.64689,-21.679203,-6.9996977,-1.6572511,-3.1190608,18.630196,9.962345,34.90174,-23.906322,-41.319633,2.2019017,-9.713854,10.760889,7.857829,-25.377031,24.56729,-34.2268,-27.213554,27.328241,0.35702685
215,-1.6130053997039795,384.8207092285156,70.9065170288086,2.4260232257007868,-14.24561834306948,88.95106945224867,-17.164251,-1.9206917,9.991845,53.836555,-20.89193,4.796538,-18.179245,-14.613227,0.17449102,102.59975,-21.449396,-6.2119117,-1.9763176,-2.8298721,18.91801,6.2559,34.90846,-24.094011,-40.480362,3.8538268,-10.025174,9.873393,10.469543,-24.460585,24.075802,-33.512157,-27.027723,27.180233,0.23709784
216,-1.633238434791565,386.0452880859375,70.83828735351562,2.2562718006197837,-14.392658966517423,88.83932500879804,-16.16462,-1.7000886,9.910266,54.767303,-22.608715,4.6143427,-20.06345,-13.455935,0.48825476,101.19248,-21.15013,-5.5238724,-2.3844216,-2.6648457,19.009785,2.8024268,34.838314,-24.255798,-39.863926,5.0178585,-10.2475815,9.133293,12.924717,-23.5887,23.682564,-32.967663,-26.814596,27.089169,0.16729634
217,-1.6390912532806396,387.2625732421875,70.81643676757812,2.1452934259249288,-14.313002791936412,88.84023762381489,-15.347475,-1.6240621,9.776835,55.437588,-24.058355,4.425617,-22.043682,-12.612519,0.5662263,99.44086,-20.818848,-4.9543605,-2.8868628,-2.6624594,18.842636,-0.34259865,34.67861,-24.36841,-39.55813,5.616578,-10.317877,8.517115,15.24647,-22.787796,23.375763,-32.671127,-26.526772,27.101694,0.1497503
218,-1.6133673191070557,388.47509765625,70.83551025390625,2.027957113321002,-14.072343173635137,88.92706732044296,-14.616708,-1.6015971,9.5694475,55.85123,-25.298594,4.214002,-24.046053,-11.963993,0.40143514,97.28912,-20.426413,-4.461666,-3.463264,-2.707476,18.477953,-3.2746382,34.424152,-24.45552,-39.476578,5.870684,-10.322997,7.9255743,17.531244,-22.063625,23.127522,-32.632626,-26.109156,27.159239,0.1367306
219,-1.5626648664474487,389.67718505859375,70.89411926269531,1.8926276637645263,-13.764677351023156,89.09203044380368,-13.893906,-1.6004902,9.288229,56.071804,-26.370998,3.9813004,-25.906206,-11.440115,0.06274856,94.72601,-19.92566,-4.0271125,-4.104079,-2.7565575,18.017582,-6.084161,34.10126,-24.618435,-39.469967,5.7910275,-10.304558,7.4760437,19.736784,-21.428246,22.950771,-32.751163,-25.670254,27.20993,0.13406405
220,-1.49912691116333,390.8615417480469,70.9898681640625,1.7246551751440924,-13.483168728182926,89.32757519750375,-13.101421,-1.5902505,8.937228,56.161137,-27.315159,3.731332,-27.46335,-10.966664,-0.378467,91.74144,-19.270617,-3.6328793,-4.790785,-2.7787683,17.569471,-8.835672,33.7537,-24.944824,-39.424805,5.3846917,-10.304595,7.2928076,21.826603,-20.89588,22.84866,-32.93533,-25.319675,27.2008,0.14982164
221,-1.4238712787628174,392.0498046875,71.1251220703125,1.5073146843435306,-13.223939311405992,89.66036429792649,-12.248167,-1.565691,8.484419,56.117176,-28.128809,3.4610572,-28.716389,-10.528376,-0.9469633,88.30835,-18.43865,-3.3151374,-5.5383954,-2.7722929,17.147686,-11.529236,33.412968,-25.474358,-39.377796,4.4764805,-10.333104,7.504588,23.805368,-20.485083,22.827702,-33.2333,-25.094566,27.097311,0.18434843
222,-1.3421672582626343,393.2355041503906,71.28992462158203,1.2504824049735672,-12.943270979898008,90.08316456243716,-11.368267,-1.5362581,7.9390025,55.913822,-28.795645,3.1701388,-29.731064,-10.159532,-1.6627274,84.441345,-17.469711,-3.0654004,-6.3466277,-2.7577434,16.710129,-14.091399,33.07818,-26.141031,-39.425575,3.1120312,-10.376204,8.030001,25.700123,-20.200222,22.874681,-33.689278,-24.926855,26.933872,0.23440619
223,-1.252434253692627,394.41424560546875,71.47512817382812,0.9901926987343829,-12.674934105539208,90.53499588139498,-10.420027,-1.497507,7.3691983,55.577988,-29.336637,2.86805,-30.452465,-9.845727,-2.4457092,80.18425,-16.403439,-2.7950144,-7.173333,-2.7464683,16.279211,-16.476303,32.74375,-26.862053,-39.541183,1.6305518,-10.437835,8.6726055,27.503534,-20.028814,22.961893,-34.205208,-24.776287,26.761003,0.3047595
224,-1.1599606275558472,395.6037902832031,71.6893539428711,0.7575370320339398,-12.454071005887542,90.95681540969854,-9.359089,-1.4462407,6.8425364,55.134304,-29.772654,2.5638454,-30.824734,-9.562156,-3.220404,75.55903,-15.273262,-2.4130967,-7.973618,-2.7488856,15.87424,-18.65054,32.405533,-27.558393,-39.68847,0.37387747,-10.506689,9.231734,29.204576,-19.947214,23.055662,-34.671688,-24.607714,26.629208,0.40131313
225,-1.0693607330322266,396.8052062988281,71.91595458984375,0.5308990816550204,-12.289507690218121,91.35463841331796,-8.162775,-1.3573806,6.3494544,54.554653,-30.116884,2.253285,-30.794367,-9.29904,-4.0451503,70.43933,-14.053983,-1.8734742,-8.764825,-2.7552648,15.502916,-20.626026,32.071266,-28.22321,-39.853615,-0.61850196,-10.58065,9.691661,30.76789,-19.94746,23.147655,-35.046356,-24.394526,26.547981,0.5422262
226,-0.969212532043457,398.00360107421875,72.15702819824219,0.3014798027106131,-12.162336262230303,91.75258314694585,-6.85873,-1.2380575,5.863915,53.836857,-30.35524,1.9337854,-30.39797,-9.029153,-4.942472,64.83099,-12.72454,-1.2142227,-9.5607,-2.76751,15.152914,-22.410736,31.747889,-28.889841,-40.06523,-1.508822,-10.661447,10.14504,32.19877,-20.032328,23.24969,-35.37705,-24.170319,26.491741,0.7230943
227,-0.8743597865104675,399.23651123046875,72.40506744384766,0.12277579358361283,-12.068197313009742,92.11942789946318,-5.4753275,-1.138002,5.427322,53.039448,-30.46692,1.6166346,-29.726433,-8.71166,-5.7723136,58.943264,-11.307738,-0.47465277,-10.31048,-2.8113468,14.809155,-23.98087,31.431818,-29.536407,-40.32457,-2.2649992,-10.730377,10.550801,33.55117,-20.185934,23.35633,-35.68973,-23.990126,26.457102,0.91334105
228,-0.7861276865005493,400.4967346191406,72.658447265625,0.05279796331595761,-12.004555026194616,92.42428942424631,-4.040109,-1.1111861,5.078722,52.22211,-30.425919,1.3130318,-28.877752,-8.336963,-6.3858786,52.979942,-9.833804,0.28659922,-10.960339,-2.9153378,14.452705,-25.316608,31.114252,-30.147057,-40.62676,-2.8488324,-10.766729,10.865907,34.874573,-20.38326,23.459217,-36.003735,-23.916159,26.439182,1.0867444
229,-0.6837180852890015,401.7738342285156,72.90160369873047,0.11507352577339308,-11.983290101746439,92.65241185785418,-2.5015938,-1.1801536,4.8400445,51.32455,-30.225597,1.0295281,-27.807346,-7.8875737,-6.74303,46.766754,-8.214381,0.92561674,-11.488486,-3.098634,14.075943,-26.429474,30.7925,-30.734116,-40.966625,-3.2068918,-10.74864,11.077738,36.191696,-20.608137,23.550087,-36.291195,-24.004305,26.44401,1.228249
230,-0.5848274827003479,403.0692443847656,73.13313293457031,0.27859320793855,-12.004395048569835,92.8244733004346,-0.8598304,-1.3241014,4.680789,50.334854,-29.875444,0.76002574,-26.483006,-7.4052515,-6.905801,40.230705,-6.457549,1.4958283,-11.917233,-3.3484018,13.683965,-27.353397,30.470856,-31.309137,-41.322754,-3.3816864,-10.687235,11.206522,37.47255,-20.856459,23.623537,-36.541058,-24.218569,26.469467,1.3602676
231,-0.4854518473148346,404.3846130371094,73.34075927734375,0.5267330338012373,-12.049967555383775,92.96353755905349,0.78369987,-1.5422536,4.559347,49.383404,-29.379265,0.4980856,-25.016722,-6.978774,-6.878182,33.714203,-4.7169447,2.2407472,-12.268648,-3.6524713,13.278803,-28.06538,30.147211,-31.860895,-41.690292,-3.4458637,-10.611611,11.259368,38.677647,-21.11817,23.686401,-36.779613,-24.479504,26.498306,1.5098848
232,-0.3825046122074127,405.69781494140625,73.5243148803711,0.8528207783197927,-12.106190096886154,93.09887490396139,2.3329155,-1.8453002,4.4302745,48.59488,-28.735298,0.23964114,-23.4924,-6.683926,-6.6761513,27.506908,-3.1025383,3.427163,-12.567521,-4.010745,12.862713,-28.555902,29.817482,-32.381935,-42.04972,-3.4774554,-10.551385,11.241393,39.76832,-21.38056,23.745901,-37.034996,-24.709885,26.514112,1.7056152
233,-0.2882330119609833,407.0332946777344,73.67796325683594,1.3427800326010602,-12.20474785041981,93.24822186797437,3.8637354,-2.3448014,4.2957697,47.88674,-27.903011,-0.004148074,-21.712105,-6.616213,-6.2754483,21.222843,-1.4772402,5.576567,-12.8187475,-4.5166345,12.430485,-28.852312,29.48492,-32.881058,-42.36856,-3.5349073,-10.522749,11.143309,40.781727,-21.634645,23.801762,-37.317837,-24.921127,26.515215,1.988091
234,-0.17600874602794647,408.3702697753906,73.7848892211914,2.0861103711274285,-12.379097661631386,93.43053617694227,5.4580216,-3.1482387,4.1431355,47.159958,-26.85145,-0.2080609,-19.56094,-6.841476,-5.6786914,14.58377,0.33615908,8.449437,-13.041573,-5.279507,11.986491,-28.945599,29.152773,-33.383274,-42.666515,-3.5445595,-10.504753,10.963998,41.744007,-21.877964,23.853838,-37.628002,-25.151579,26.508804,2.3349745
235,-0.06290774047374725,409.69732666015625,73.8528823852539,3.021635002856633,-12.597046841834459,93.65477026524287,6.992596,-4.1812263,3.9199777,46.55262,-25.617046,-0.3698875,-17.283365,-7.336784,-4.9730983,8.102997,2.2367358,11.147332,-13.242769,-6.249096,11.533347,-28.873083,28.825703,-33.869713,-42.93847,-3.49157,-10.47109,10.713882,42.60582,-22.10444,23.89915,-37.964493,-25.35911,26.492859,2.6779578
236,0.05394836887717247,410.9978332519531,73.90152740478516,3.8531481647172763,-12.75571765048588,93.85901341543271,8.214567,-5.062412,3.629021,46.35759,-24.33108,-0.54460204,-17.14432,-7.9141827,-4.0301876,6.4508767,1.8924925,12.680376,-13.369104,-7.097928,11.078466,-28.670622,28.504908,-34.303497,-43.179417,-3.3611078,-10.400771,10.407645,43.25529,-22.307003,23.932743,-38.272182,-25.497728,26.46471,2.9478111
237,0.17497073113918304,412.2612609863281,73.95165252685547,4.312442970864824,-12.746763566599476,93.97029708846364,8.925713,-5.465233,3.3248582,46.780552,-23.087664,-0.7999589,-17.680462,-8.080529,-3.014906,6.32728,1.0274609,12.380418,-13.354642,-7.5124316,10.603032,-28.32245,28.187119,-34.663544,-43.40313,-3.1410532,-10.280464,10.018872,43.606087,-22.472946,23.959211,-38.499355,-25.522888,26.421898,3.1252034
238,0.30226731300354004,413.4979248046875,73.99617767333984,4.480543516176206,-12.601820591695304,93.99488724155714,9.223528,-5.4980974,3.038131,47.705166,-21.850695,-1.1253555,-18.194984,-7.889559,-1.9966701,6.2892194,0.336242,10.854931,-13.198824,-7.5790133,10.10674,-27.839739,27.871172,-34.968895,-43.593327,-2.8534377,-10.128584,9.551247,43.689285,-22.597252,23.981268,-38.639404,-25.470692,26.36594,3.2486432
239,0.42892909049987793,414.70550537109375,74.01985168457031,4.5041055591902435,-12.409151705212691,93.97898604602308,9.271737,-5.347118,2.7598348,48.979523,-20.585236,-1.4822546,-18.555853,-7.5470343,-1.1245466,6.290877,-0.100773916,9.019339,-12.94501,-7.4813356,9.633806,-27.251114,27.553505,-35.2489,-43.73646,-2.487626,-9.974179,9.069283,43.5396,-22.690744,23.997496,-38.68729,-25.41337,26.301298,3.3342721
240,0.5709482431411743,415.9013671875,74.00176239013672,4.535682774408035,-12.268214314562531,93.97753548019821,9.239996,-5.2073784,2.4717772,50.458122,-19.255993,-1.8325924,-18.638084,-7.278985,-0.54862475,6.320438,-0.2379324,7.8038816,-12.642884,-7.41146,9.235715,-26.601364,27.232655,-35.517765,-43.808167,-2.0573304,-9.845147,8.634915,43.20567,-22.773506,24.002209,-38.65164,-25.41864,26.23338,3.3951726
