unveil-humanoid-operators/unveil-humanoid-operators.github.io/feature-analysis-animation/data/feature_matrix_instances/gender_ankle_rom_walking_A031_walk_hands_on_back_loop_003__A031.csv
Frame,root_translateX,root_translateY,root_translateZ,root_rotateX,root_rotateY,root_rotateZ,left_hip_pitch_joint_dof,left_hip_roll_joint_dof,left_hip_yaw_joint_dof,left_knee_joint_dof,left_ankle_pitch_joint_dof,left_ankle_roll_joint_dof,right_hip_pitch_joint_dof,right_hip_roll_joint_dof,right_hip_yaw_joint_dof,right_knee_joint_dof,right_ankle_pitch_joint_dof,right_ankle_roll_joint_dof,waist_yaw_joint_dof,waist_roll_joint_dof,waist_pitch_joint_dof,left_shoulder_pitch_joint_dof,left_shoulder_roll_joint_dof,left_shoulder_yaw_joint_dof,left_elbow_joint_dof,left_wrist_roll_joint_dof,left_wrist_pitch_joint_dof,left_wrist_yaw_joint_dof,right_shoulder_pitch_joint_dof,right_shoulder_roll_joint_dof,right_shoulder_yaw_joint_dof,right_elbow_joint_dof,right_wrist_roll_joint_dof,right_wrist_pitch_joint_dof,right_wrist_yaw_joint_dof
0,-0.32706207036972046,-4.102028846740723,78.45569610595703,-0.8991161644990815,3.398551533238427,89.19635726238397,1.8016529,3.9341102,7.124055,7.2541213,-13.430906,-4.1487355,2.7482738,-3.562732,-19.205587,7.006365,-12.502258,3.5327122,-2.045704,1.3703151,1.6537486,9.077043,4.8160586,-102.01282,39.883926,-0.1228476,-11.4651575,13.158943,13.812676,-1.7866713,105.28764,53.712925,-22.797626,-3.0162928,-10.281708
1,-0.32121968269348145,-4.122186660766602,78.46233367919922,-0.9149511548396216,3.5059069553785704,89.16551578960869,1.6709896,3.9647303,7.142662,7.2373686,-13.40037,-4.148055,2.5949957,-3.5347564,-19.196093,7.0047445,-12.46884,3.5015087,-2.0181355,1.3878558,1.6207594,9.063298,4.8108783,-102.037,39.87465,-0.13353011,-11.450422,13.185125,13.801283,-1.7673491,105.30401,53.753155,-22.795563,-3.0296164,-10.295193
2,-0.3132779002189636,-4.146463394165039,78.46730041503906,-0.933892760394012,3.6116329544563,89.13606032161186,1.5355146,3.9992855,7.1588006,7.2347484,-13.37764,-4.147909,2.4438787,-3.504749,-19.189177,7.00331,-12.437075,3.4719543,-1.9961371,1.4085115,1.5877796,9.049996,4.8094544,-102.0525,39.86078,-0.14198323,-11.4332,13.209833,13.786996,-1.7624152,105.31959,53.780663,-22.797562,-3.0445511,-10.307734
3,-0.30576804280281067,-4.173794269561768,78.47438049316406,-0.949053786096163,3.720414299908234,89.10384200477492,1.3971833,4.03087,7.1781955,7.231077,-13.353616,-4.1470256,2.2884705,-3.476543,-19.17726,7.00159,-12.402131,3.438371,-1.9711366,1.4243842,1.5525101,9.038799,4.8041244,-102.081116,39.852627,-0.15615354,-11.421125,13.240466,13.777105,-1.7439765,105.351,53.818607,-22.78606,-3.054257,-10.325755
4,-0.2895392179489136,-4.200450420379639,78.47582244873047,-0.950521925736193,3.834606644169938,89.06427684973637,1.2521722,4.0475216,7.2075014,7.2289977,-13.3284445,-4.1453314,2.1022997,-3.4686136,-19.150154,7.049273,-12.386121,3.394664,-1.9410126,1.4241298,1.5181743,9.030713,4.800567,-102.091415,39.842815,-0.15587908,-11.421271,13.252125,13.765748,-1.7323967,105.369484,53.8443,-22.78241,-3.0604422,-10.330861
5,-0.27570098638534546,-4.231861114501953,78.47698974609375,-0.9401297544525123,3.958456525872781,89.01386879095051,1.0967004,4.051891,7.2494593,7.2255764,-13.2997875,-4.139046,1.8930112,-3.4716418,-19.103636,7.1140237,-12.367882,3.3361974,-1.9047812,1.4121524,1.4817289,9.02953,4.7953987,-102.08608,39.837498,-0.13345781,-11.44345,13.249053,13.756756,-1.7167605,105.393814,53.874855,-22.77747,-3.0598474,-10.332212
6,-0.2645154595375061,-4.258928298950195,78.47763061523438,-0.9230325445512061,4.089426654111726,88.95543690548762,0.93379086,4.047439,7.3007803,7.2206416,-13.268362,-4.129494,1.668579,-3.4818304,-19.04301,7.1862993,-12.343924,3.2667327,-1.8589311,1.3917124,1.4441706,9.030517,4.7924943,-102.072876,39.830177,-0.09567314,-11.47977,13.233785,13.745943,-1.7087969,105.4116,53.892567,-22.776508,-3.0526206,-10.326606
7,-0.25022000074386597,-4.283990859985352,78.47760009765625,-0.8969275441363433,4.223142900343505,88.89490714916161,0.76864666,4.03404,7.356783,7.2147474,-13.235303,-4.1219573,1.4395716,-3.5006657,-18.97677,7.2611265,-12.321513,3.1938808,-1.8156636,1.3606501,1.4050312,9.033755,4.790162,-102.05536,39.8228,-0.0668938,-11.517347,13.211594,13.737802,-1.7029597,105.42688,53.904026,-22.77255,-3.0457342,-10.31371
8,-0.23304146528244019,-4.311768531799316,78.475830078125,-0.8616602772364357,4.35501572696477,88.8380821445885,0.60750926,4.013183,7.412559,7.2069173,-13.203016,-4.1220994,1.2169188,-3.5275326,-18.913673,7.3326397,-12.301134,3.1251965,-1.7824131,1.3177569,1.3651502,9.035233,4.788245,-102.04098,39.813908,-0.07315246,-11.54212,13.186166,13.734671,-1.698739,105.43556,53.910145,-22.760988,-3.044669,-10.290512
9,-0.22181744873523712,-4.332002639770508,78.47288513183594,-0.8143108227723735,4.485058769945867,88.78600097464985,0.44944248,3.9794037,7.4680796,7.1975336,-13.16616,-4.1310496,0.7189656,-3.6675138,-18.835842,8.030555,-12.612818,3.0665643,-1.7573916,1.258578,1.3223573,9.032332,4.78672,-102.03687,39.80258,-0.14069441,-11.549138,13.150625,13.739563,-1.6959887,105.4329,53.908028,-22.739084,-3.051854,-10.251116
10,-0.1968531608581543,-4.357184886932373,78.46785736083984,-0.7539182734443597,4.615350175072299,88.73563334092435,0.29068217,3.9337041,7.5258245,7.1888533,-13.12779,-4.145858,0.18118976,-3.8334033,-18.754013,8.818749,-12.972065,3.011215,-1.7368912,1.1844394,1.2771819,9.026772,4.7857757,-102.03862,39.79022,-0.25004873,-11.546346,13.105888,13.749946,-1.694744,105.42233,53.899494,-22.709068,-3.0641215,-10.1990795
11,-0.16530360281467438,-4.384537696838379,78.46125793457031,-0.6902547466514459,4.744413590046929,88.68699538204098,0.13536294,3.8867822,7.5840597,7.1799293,-13.091661,-4.1659913,-0.33639926,-3.9945602,-18.67314,9.5704365,-13.317423,2.95687,-1.7165456,1.1058041,1.234072,9.021379,4.784477,-102.04662,39.777954,-0.358738,-11.539121,13.068295,13.762261,-1.6932988,105.39534,53.887363,-22.681532,-3.079312,-10.142868
12,-0.13666677474975586,-4.404546737670898,78.45479583740234,-0.6338326896571378,4.868904236133394,88.64151051650373,-0.0113814045,3.8517811,7.6393356,7.1711082,-13.062583,-4.191331,-0.79683775,-4.127053,-18.598791,10.215601,-13.618216,2.9012146,-1.7062212,1.0345222,1.1959752,9.025534,4.783479,-102.05049,39.76524,-0.4213918,-11.532915,13.0564575,13.773807,-1.6922398,105.36721,53.876858,-22.656994,-3.0941732,-10.095805
13,-0.1051337718963623,-4.422882080078125,78.44762420654297,-0.5843023835479897,4.9894535431061815,88.59575706849579,-0.14864714,3.8290133,7.695628,7.1625175,-13.043541,-4.223633,-1.201885,-4.2316847,-18.528763,10.755835,-13.876168,2.844326,-1.706709,0.9704531,1.1632324,9.044335,4.7829885,-102.04105,39.753464,-0.4126355,-11.534368,13.080305,13.782858,-1.6913685,105.339745,53.86674,-22.636635,-3.1092482,-10.058947
14,-0.0686371922492981,-4.431819438934326,78.43975067138672,-0.5367809376128526,5.10667902627951,88.5509964615491,-0.27829623,3.813615,7.752148,7.153915,-13.031449,-4.2626038,-1.5633587,-4.3164244,-18.462896,11.215636,-14.101306,2.7871237,-1.7209215,0.90925574,1.1336607,9.074331,4.782988,-102.02302,39.74114,-0.36157542,-11.53869,13.130621,13.791769,-1.6908633,105.32023,53.85786,-22.612638,-3.1246023,-10.029753
15,-0.028999516740441322,-4.43800687789917,78.43238830566406,-0.4952821028419408,5.219720316782871,88.51247438876216,-0.40261304,3.8082566,7.8017917,7.146835,-13.022457,-4.3044333,-1.8802829,-4.3787284,-18.40576,11.595989,-14.293705,2.7289937,-1.748965,0.8510597,1.1105083,9.105061,4.783576,-101.99258,39.727985,-0.29710907,-11.534798,13.182595,13.798496,-1.6901889,105.29505,53.84919,-22.596407,-3.1414998,-10.002035
16,0.01914372481405735,-4.448437213897705,78.4252700805664,-0.46481640996450435,5.326342135258839,88.48650347996563,-0.5201664,3.8178685,7.835959,7.139019,-13.011258,-4.345858,-2.142398,-4.4111094,-18.363842,11.882179,-14.445612,2.6688316,-1.7908648,0.80052286,1.0940657,9.124734,4.784147,-101.97559,39.71126,-0.26505664,-11.512164,13.226602,13.80677,-1.6897144,105.276344,53.84236,-22.58215,-3.1558907,-9.982881
17,0.07313311100006104,-4.455020427703857,78.41974639892578,-0.44226888343109394,5.426381066713161,88.47713445112312,-0.6376192,3.841839,7.8515463,7.140722,-13.001138,-4.383216,-2.351279,-4.4158163,-18.339417,12.079616,-14.559772,2.6050315,-1.8481793,0.7526931,1.0863851,9.130209,4.7852683,-101.965775,39.689297,-0.27485052,-11.453935,13.243294,13.816056,-1.6889511,105.24793,53.83362,-22.5761,-3.1707644,-9.966544
18,0.13030222058296204,-4.457345008850098,78.41683197021484,-0.4293170055123354,5.518644383492653,88.48107780038326,-0.7445643,3.880358,7.8524127,7.1368694,-12.98715,-4.4198465,-2.4972591,-4.3889365,-18.331612,12.169171,-14.629435,2.5381615,-1.9175028,0.7122464,1.0878885,9.1252775,4.786577,-101.96869,39.66213,-0.3103721,-11.370747,13.248895,13.827306,-1.6879802,105.21484,53.82589,-22.574291,-3.1848745,-9.956769
19,0.18782807886600494,-4.461788654327393,78.41436004638672,-0.4218778383131647,5.609137640149457,88.48919859259424,-0.853728,3.9300303,7.8449254,7.1447105,-12.98005,-4.4602346,-2.6106575,-4.342404,-18.330862,12.19939,-14.674559,2.4724271,-1.9824617,0.6783593,1.0923963,9.112445,4.7881045,-101.98761,39.636936,-0.35209695,-11.292102,13.265698,13.8374605,-1.6866968,105.170235,53.82251,-22.58426,-3.1981225,-9.949976
20,0.25360244512557983,-4.4571428298950195,78.40995025634766,-0.41791645887952966,5.702497787739647,88.49302962799827,-0.9586704,3.9856546,7.8362,7.1452665,-12.971738,-4.5088415,-2.7151875,-4.285417,-18.328896,12.20723,-14.711207,2.411755,-2.0269527,0.6511628,1.0906705,9.097439,4.790808,-102.03477,39.621326,-0.3836577,-11.247834,13.320176,13.847035,-1.68392,105.11193,53.825356,-22.60932,-3.2088654,-9.945788
21,0.31791332364082336,-4.44995641708374,78.40503692626953,-0.4184723178224041,5.799433205963999,88.4898901549401,-1.0618486,4.0471888,7.825057,7.143407,-12.966087,-4.5682597,-2.8101778,-4.21735,-18.323185,12.190172,-14.739356,2.3592937,-2.0575643,0.6289587,1.0778577,9.084787,4.794143,-102.10955,39.62089,-0.39868605,-11.254618,13.437506,13.857911,-1.678963,105.057625,53.839645,-22.644947,-3.215537,-9.948035
22,0.39002567529678345,-4.4381818771362305,78.4004898071289,-0.4235684368277977,5.8976479523556495,88.48466591966202,-1.1622149,4.1158338,7.8087544,7.13987,-12.962333,-4.6355643,-2.8858695,-4.134548,-18.318508,12.134245,-14.752615,2.3123195,-2.095779,0.6093252,1.0592933,9.074723,4.7962646,-102.186264,39.63257,-0.40181723,-11.293416,13.594704,13.8671255,-1.6731362,105.023384,53.862556,-22.68521,-3.2188485,-9.957158
23,0.4647328555583954,-4.423923969268799,78.39813232421875,-0.43184896800942196,5.9975845969951616,88.47869571123009,-1.26349,4.1909246,7.7924857,7.1370025,-12.958258,-4.707007,-2.9510145,-4.0416093,-18.31584,12.05354,-14.754128,2.266052,-2.1386223,0.593341,1.0409474,9.064929,4.7967763,-102.25093,39.648544,-0.39774767,-11.340429,13.748992,13.87085,-1.6684055,105.00315,53.889202,-22.732021,-3.2195044,-9.970353
24,0.5442743897438049,-4.416722297668457,78.3958969116211,-0.442074999740648,6.099959233194827,88.47418582271828,-1.3709726,4.2724113,7.7803645,7.1406693,-12.954069,-4.77883,-3.0170221,-3.944192,-18.316916,11.9684105,-14.750517,2.2157152,-2.1749175,0.5822533,1.0274485,9.051879,4.7963924,-102.307396,39.660946,-0.3960057,-11.37198,13.861806,13.86779,-1.6630461,104.98232,53.919098,-22.786388,-3.2178044,-9.985771
25,0.6161292791366577,-4.402698516845703,78.3932876586914,-0.4526531894537896,6.206508124111354,88.47682503241822,-1.4876313,4.358337,7.7704754,7.148235,-12.945665,-4.8513145,-3.0873847,-3.8465514,-18.327631,11.883026,-14.7415285,2.1601207,-2.2236178,0.57384306,1.0201224,9.035667,4.795837,-102.32945,39.666035,-0.39010662,-11.382035,13.913963,13.853091,-1.6605215,104.973946,53.954937,-22.856361,-3.2126749,-10.006845
26,0.699054479598999,-4.389622211456299,78.38887786865234,-0.4645337591733535,6.3162682255506795,88.48406304359246,-1.6102275,4.449153,7.761402,7.1595855,-12.934364,-4.9260144,-3.156188,-3.7453096,-18.34545,11.787559,-14.724586,2.1018343,-2.2644682,0.57045656,1.0194516,9.009524,4.7942934,-102.35463,39.66925,-0.38728988,-11.383431,13.9365,13.828735,-1.6559999,104.959335,53.99855,-22.940699,-3.2040765,-10.033845
27,0.7832198143005371,-4.382216930389404,78.38472747802734,-0.4799131781536767,6.425760485395986,88.48421272068319,-1.7301192,4.5485744,7.7598715,7.1734066,-12.926614,-5.001313,-3.2196121,-3.6346116,-18.358145,11.680494,-14.702188,2.0416636,-2.299962,0.57012635,1.0158907,8.993275,4.793056,-102.36369,39.67208,-0.3811285,-11.379542,13.936099,13.806988,-1.6531689,104.954926,54.0389,-23.020876,-3.1949947,-10.056734
28,0.8760736584663391,-4.367852210998535,78.38055419921875,-0.5024681617108576,6.532883957087427,88.46651705758217,-1.8417331,4.6617894,7.7712684,7.191924,-12.925718,-5.075588,-3.2748187,-3.5065112,-18.35464,11.559218,-14.676474,1.9801936,-2.3124554,0.5767548,1.020773,8.975902,4.7911654,-102.36947,39.67733,-0.380326,-11.3744,13.9310465,13.780903,-1.6492252,104.9527,54.070293,-23.078157,-3.188933,-10.06803
29,0.9728888273239136,-4.34252405166626,78.37332153320312,-0.5309154249168739,6.638515911713455,88.42506806983668,-1.942768,4.789074,7.8003,7.21297,-12.931374,-5.146398,-3.3224685,-3.3595867,-18.328892,11.421087,-14.646182,1.9178174,-2.2996173,0.5875083,1.0188714,8.975697,4.788102,-102.36449,39.68637,-0.37412578,-11.365959,13.913649,13.765574,-1.6430006,104.96302,54.090065,-23.106176,-3.1829646,-10.064758
30,1.0748437643051147,-4.317430019378662,78.36698913574219,-0.5653458110641906,6.743868898709645,88.36683544186192,-2.0377042,4.9284196,7.842854,7.23831,-12.942554,-5.2153983,-3.3650794,-3.1975644,-18.287897,11.27054,-14.611903,1.8540778,-2.268497,0.60317874,1.0141802,8.984829,4.785914,-102.349686,39.696102,-0.3655665,-11.353364,13.880826,13.754335,-1.6385682,104.98406,54.10132,-23.114311,-3.176685,-10.052442
31,1.1729974746704102,-4.291754245758057,78.35836791992188,-0.6025566681077802,6.843838543580349,88.29914566824812,-2.123471,5.076618,7.8935657,7.2676215,-12.959358,-5.286307,-3.3961453,-3.0250483,-18.238789,11.108756,-14.57516,1.7889595,-2.2492151,0.6177902,1.0151718,9.006093,4.780506,-102.30258,39.71166,-0.3595671,-11.340751,13.842884,13.741194,-1.6280035,105.03941,54.112602,-23.100471,-3.1745148,-10.034384
32,1.2789965867996216,-4.269733428955078,78.35006713867188,-0.6421143584088179,6.933338807467983,88.2290671627552,-2.1967583,5.229802,7.9475255,7.3013687,-12.983158,-5.362436,-3.4139192,-2.8483493,-18.188019,10.947927,-14.543446,1.7225667,-2.2204566,0.6341863,1.0277505,9.02998,4.7772064,-102.26874,39.728523,-0.377222,-11.332849,13.819312,13.725617,-1.6213351,105.08128,54.111897,-23.083416,-3.1819282,-10.007266
33,1.3887999057769775,-4.244288444519043,78.34088897705078,-0.6823751013909601,7.011590046201894,88.15908350461986,-2.3511004,5.4006176,7.994772,7.5395055,-13.123075,-5.447373,-3.4117641,-2.6677468,-18.139423,10.777607,-14.510914,1.6568322,-2.2021294,0.64739865,1.051933,9.06549,4.7744746,-102.22868,39.748478,-0.4225853,-11.327458,13.817115,13.705141,-1.6145246,105.13696,54.101223,-23.05414,-3.201062,-9.971031
34,1.4999706745147705,-4.216328144073486,78.32942962646484,-0.7238100511438105,7.081052666108902,88.08487150882723,-2.552051,5.585774,8.041115,7.904773,-13.336849,-5.537992,-3.39164,-2.480084,-18.088356,10.592964,-14.476612,1.5911435,-2.1782773,0.6603294,1.084501,9.108998,4.7737584,-102.19242,39.769833,-0.49075285,-11.323163,13.828245,13.682698,-1.6096345,105.19324,54.076485,-23.01474,-3.2284951,-9.924644
35,1.6141821146011353,-4.177802085876465,78.31488800048828,-0.7683920526625745,7.141827996763305,88.00498893180779,-2.7658577,5.781893,8.088798,8.323844,-13.577811,-5.6281424,-3.3647964,-2.2867894,-18.030344,10.416977,-14.449554,1.5214436,-2.1513329,0.67720485,1.128541,9.151563,4.7746325,-102.15216,39.792408,-0.5656766,-11.326141,13.837922,13.657705,-1.6063904,105.24572,54.049393,-22.969543,-3.262608,-9.873653
36,1.7335444688796997,-4.138638973236084,78.29953002929688,-0.8186426513595514,7.19364710452971,87.91773072947247,-3.0118546,5.9922943,8.135395,8.837148,-13.859459,-5.7118034,-3.3356922,-2.0868678,-17.960773,10.256108,-14.43473,1.4435205,-2.1178193,0.7024458,1.186762,9.18389,4.776213,-102.10705,39.817177,-0.6323715,-11.342561,13.832221,13.630506,-1.6046257,105.282715,54.02704,-22.924915,-3.3013763,-9.822844
37,1.8383046388626099,-4.113663196563721,78.27991485595703,-0.8716503173600152,7.236014150758238,87.81922919142816,-3.2830381,6.2135406,8.185337,9.43312,-14.176341,-5.783055,-3.3060572,-1.8829044,-17.876263,10.112484,-14.432995,1.3570356,-2.0770547,0.7358296,1.2621107,9.202099,4.7777705,-102.05041,39.84172,-0.6876467,-11.373055,13.795273,13.59905,-1.6039811,105.30442,54.01108,-22.880276,-3.3441608,-9.770839
38,1.9821001291275024,-4.070057392120361,78.26055908203125,-0.9293218943671855,7.269060673910751,87.71129821654011,-3.5737934,6.446252,8.237974,10.099405,-14.5253525,-5.8469586,-3.2724998,-1.6731943,-17.779978,9.979457,-14.440179,1.2635266,-2.0406492,0.77459514,1.3536072,9.212895,4.7800784,-101.968056,39.866295,-0.7350237,-11.414564,13.734527,13.561905,-1.6047196,105.326866,53.99861,-22.832079,-3.3922088,-9.715668
39,2.08916974067688,-4.038511276245117,78.2374496459961,-0.9964929154237733,7.294370668187982,87.60226881953713,-3.893539,6.698007,8.2827635,10.850124,-14.910439,-5.9137087,-3.2293494,-1.4497675,-17.678545,9.848843,-14.454346,1.1624825,-1.9846678,0.8271209,1.4497128,9.220802,4.7810006,-101.921585,39.899498,-0.7899252,-11.468248,13.691379,13.531762,-1.6052518,105.324776,53.98933,-22.78088,-3.4446027,-9.665533
40,2.2098708152770996,-4.005326271057129,78.21221923828125,-1.078342955956903,7.312558675331161,87.50033959079477,-4.2522426,6.977174,8.308909,11.701259,-15.336388,-5.993472,-3.1692517,-1.2043861,-17.578417,9.710105,-14.471298,1.0532309,-1.963849,0.89053327,1.5589875,9.230781,4.783257,-101.82966,39.941166,-0.82412773,-11.533167,13.664999,13.4917555,-1.6076692,105.33544,53.986637,-22.728493,-3.506792,-9.616919
41,2.333472490310669,-3.9582717418670654,78.18046569824219,-1.1764894444240521,7.32837187225422,87.39981243702361,-4.646321,7.286611,8.320939,12.639197,-15.808882,-6.091982,-3.0939848,-0.9324239,-17.469841,9.557521,-14.487974,0.93173015,-1.9250138,0.97346497,1.6574124,9.247876,4.7840843,-101.79176,39.99959,-0.86427075,-11.619628,13.695293,13.467469,-1.6081936,105.329056,53.992863,-22.658035,-3.5788481,-9.582154
42,2.4561219215393066,-3.9190192222595215,78.14684295654297,-1.2898926309737186,7.339091819487045,87.298894598007,-5.068539,7.6227374,8.3216915,13.653601,-16.321352,-6.202898,-3.004174,-0.63797355,-17.353094,9.39633,-14.506559,0.79952437,-1.9056835,1.0693749,1.765851,9.263459,4.785704,-101.71943,40.066895,-0.88444966,-11.723039,13.738655,13.435832,-1.6094226,105.32265,54.00962,-22.582165,-3.6643326,-9.546977
43,2.586623191833496,-3.876086711883545,78.10655975341797,-1.4176955891017295,7.3381994425430825,87.21181545944792,-5.5368814,7.9843087,8.29615,14.785941,-16.866423,-6.31702,-2.894959,-0.32589975,-17.249426,9.2324295,-14.531804,0.6648599,-1.8864418,1.1803327,1.8822823,9.282886,4.7866416,-101.680046,40.14292,-0.916862,-11.827666,13.81348,13.411197,-1.6092342,105.30803,54.025944,-22.511215,-3.7459223,-9.522629
44,2.726188898086548,-3.831883430480957,78.05877685546875,-1.5566449763033812,7.317886648269245,87.15240297204757,-6.0599785,8.367891,8.230772,16.060436,-17.429607,-6.424699,-2.758664,-0.001818326,-17.179321,9.068727,-14.566708,0.5360207,-1.8873925,1.3009322,2.0206409,9.306851,4.787532,-101.653725,40.22337,-0.96556926,-11.915819,13.907067,13.388273,-1.6081963,105.29387,54.0307,-22.466742,-3.8123364,-9.507535
45,2.8714706897735596,-3.7945563793182373,78.0047607421875,-1.7268011112460677,7.274296109117982,87.12871904694813,-6.6477437,8.802845,8.113387,17.501606,-18.051157,-6.522002,-2.574409,0.36361474,-17.15304,8.867376,-14.594365,0.40559503,-1.923043,1.447207,2.1968546,9.326488,4.7892275,-101.62109,40.30838,-1.0279012,-11.983272,14.006433,13.352064,-1.6055179,105.27141,54.021645,-22.461027,-3.8633013,-9.495371
46,3.019169807434082,-3.752232074737549,77.94621276855469,-1.9173753613856757,7.2117328792586175,87.13032616998032,-7.282009,9.275706,7.956177,19.066824,-18.712797,-6.6127043,-2.359065,0.7570763,-17.15425,8.654966,-14.627083,0.27311307,-1.9793652,1.6084772,2.3928583,9.351594,4.791881,-101.59924,40.40227,-1.1068362,-12.03871,14.124798,13.318496,-1.6011404,105.24864,54.0007,-22.476135,-3.900634,-9.49418
47,3.1505801677703857,-3.705904245376587,77.8830795288086,-2.11092498885261,7.137453843687617,87.15057166264869,-7.970587,9.748787,7.7617474,20.753702,-19.347631,-6.7019014,-2.1292238,1.1460971,-17.177118,8.451291,-14.670481,0.1524994,-2.0474763,1.7765325,2.6085682,9.376382,4.795988,-101.58363,40.490726,-1.1872462,-12.0861435,14.263846,13.283469,-1.594031,105.222946,53.984806,-22.510809,-3.9327729,-9.496764
48,3.286454200744629,-3.6646745204925537,77.81828308105469,-2.2824052703741358,7.058368730995181,87.18219275589777,-8.72121,10.183358,7.5345383,22.561518,-19.89007,-6.792747,-1.9080321,1.4936439,-17.215242,8.289856,-14.73694,0.05806144,-2.1177955,1.9391809,2.8356829,9.402201,4.8017945,-101.57724,40.562195,-1.2600437,-12.129655,14.431297,13.251808,-1.583157,105.201385,53.985867,-22.557886,-3.9652033,-9.501819
49,3.413280487060547,-3.6497459411621094,77.76025390625,-2.428676847728374,6.979105803907659,87.22631435118245,-9.548052,10.579748,7.272861,24.509125,-20.325026,-6.903412,-1.7105347,1.7904738,-17.273521,8.186748,-14.835984,0.0021311997,-2.200563,2.0945227,3.0737927,9.429581,4.8061886,-101.58437,40.61403,-1.3281459,-12.167778,14.658668,13.219043,-1.5737877,105.19399,54.005035,-22.610836,-4.0021524,-9.519539
50,3.5343475341796875,-3.604116678237915,77.70394134521484,-2.560710547005994,6.895143466748762,87.28606802542805,-10.444758,10.958323,6.972193,26.591429,-20.689514,-7.019228,-1.5219263,2.0571105,-17.353966,8.120036,-14.957777,-0.02604751,-2.297102,2.2469509,3.3262706,9.458377,4.8103423,-101.60332,40.65395,-1.3953038,-12.199496,14.932949,13.184829,-1.5628185,105.19509,54.0346,-22.674173,-4.0387855,-9.5473385
51,3.6468379497528076,-3.546769618988037,77.6473388671875,-2.6798567176529304,6.799924443012453,87.35597194474119,-11.389454,11.309193,6.634504,28.776907,-20.992113,-7.093464,-1.3240613,2.299595,-17.44576,8.072277,-15.0890465,-0.04667825,-2.3938806,2.39561,3.5864954,9.497416,4.8120565,-101.614784,40.689224,-1.4490138,-12.229237,15.1923065,13.161395,-1.5571593,105.19957,54.066624,-22.756342,-4.0682282,-9.566155
52,3.755467414855957,-3.4827630519866943,77.59327697753906,-2.7890567723219815,6.68708815006094,87.4310979441664,-12.354909,11.620752,6.263461,31.023329,-21.239954,-7.0825953,-1.0968623,2.5248852,-17.53816,8.022696,-15.21457,-0.080044046,-2.4697273,2.5409985,3.8542285,9.544118,4.813632,-101.619095,40.722305,-1.4858919,-12.260986,15.385383,13.15521,-1.5484548,105.20274,54.101803,-22.856623,-4.080734,-9.561197
53,3.8549768924713135,-3.416548728942871,77.54142761230469,-2.893851396816259,6.54795791783699,87.51557998125593,-13.339299,11.895418,5.838104,33.350227,-21.402838,-7.0323653,-0.82387406,2.7423873,-17.634417,7.9596086,-15.3258505,-0.139974,-2.5332153,2.6918402,4.1341476,9.606308,4.814467,-101.5997,40.75167,-1.4921267,-12.296789,15.493694,13.1756735,-1.5315971,105.20721,54.150085,-22.987751,-4.0699077,-9.518729
54,3.9442319869995117,-3.3446974754333496,77.49565124511719,-2.991346537241851,6.388548698885563,87.61014856283548,-14.353932,12.137396,5.364554,35.766865,-21.487526,-6.9421353,-0.52175987,2.9451337,-17.73838,7.9008355,-15.434905,-0.21280853,-2.5857728,2.8438962,4.424116,9.681397,4.8137155,-101.57322,40.778927,-1.4782901,-12.334657,15.550658,13.214095,-1.5229912,105.2111,54.19114,-23.144371,-4.0393467,-9.45063
55,4.038830280303955,-3.2622079849243164,77.45225524902344,-3.0687129791679775,6.222515674244047,87.70466411726714,-15.386981,12.338299,4.8894496,38.214813,-21.55629,-6.70509,-0.2032463,3.121041,-17.83881,7.838494,-15.541085,-0.2778527,-2.6322455,2.9800622,4.713422,9.766762,4.809514,-101.50785,40.80725,-1.4451119,-12.369569,15.550019,13.263526,-1.5071167,105.221924,54.24589,-23.313198,-4.0097814,-9.371058
56,4.12701416015625,-3.1672074794769287,77.41670227050781,-3.1156771267541266,6.063957876253148,87.7883915764876,-16.423275,12.488745,4.462568,40.63024,-21.669249,-6.218379,0.1108848,3.2549691,-17.925013,7.7828336,-15.654004,-0.3142815,-2.63613,3.0908782,4.9796414,9.856261,4.8066382,-101.44709,40.8351,-1.4181519,-12.397511,15.5084095,13.32344,-1.4997793,105.21208,54.29431,-23.481188,-3.9946394,-9.2996235
57,4.211144924163818,-3.0572690963745117,77.38334655761719,-3.1237352504269658,5.907724585950748,87.86539299614424,-17.48279,12.573645,4.074525,43.09114,-21.83569,-5.3298044,0.43125778,3.3398762,-18.000587,7.728861,-15.7747135,-0.31249443,-2.6427884,3.1620893,5.239931,9.953687,4.7993407,-101.31932,40.89639,-1.4486992,-12.525142,15.475096,13.38343,-1.4830395,105.210785,54.368015,-23.675564,-4.01254,-9.226813
58,4.2845845222473145,-2.943124532699585,77.35969543457031,-3.102869935331917,5.749575852409071,87.93787903030969,-18.560028,12.602882,3.7135413,45.591515,-22.024294,-4.1378627,0.76210123,3.3848202,-18.069159,7.676556,-15.900261,-0.28487232,-2.6123765,3.2112236,5.486808,10.056586,4.7946277,-101.20557,40.974,-1.5362712,-12.719075,15.452795,13.457325,-1.4705515,105.19382,54.442158,-23.886625,-4.0430975,-9.156495
59,4.3564043045043945,-2.826854944229126,77.33934783935547,-3.058864226175852,5.602274193152317,87.99651436809766,-19.601944,12.599799,3.4212084,47.95102,-22.23641,-2.919896,1.0639714,3.391075,-18.123774,7.672475,-16.049091,-0.24274561,-2.5568597,3.2441704,5.712904,10.164561,4.7883735,-101.04202,41.013523,-1.5053332,-12.763166,15.270431,13.536412,-1.4561102,105.167465,54.518707,-24.075483,-4.0783815,-9.0866165
60,4.429255962371826,-2.70184588432312,77.32400512695312,-2.997303297202481,5.47895849392133,88.03193897476295,-20.56341,12.587445,3.234258,50.006496,-22.480059,-1.9560899,1.3354028,3.3731904,-18.154924,7.676809,-16.19523,-0.19818664,-2.4628613,3.2705815,5.90347,10.276239,4.7782135,-100.813515,40.960094,-1.1955817,-12.443681,14.772872,13.61848,-1.4429525,105.12093,54.586544,-24.199327,-4.105175,-9.020654
61,4.472941875457764,-2.551516532897949,77.31456756591797,-2.9163569476210163,5.380310758692313,88.03386808303978,-21.421326,12.576341,3.1855485,51.736397,-22.808758,-1.3373098,1.575111,3.3275847,-18.153095,7.6836834,-16.331553,-0.15010716,-2.331642,3.2903373,6.0572453,10.395645,4.750635,-100.44816,40.75927,-0.41332784,-11.526704,13.727096,13.706238,-1.426709,105.05937,54.65437,-24.227577,-4.121293,-8.948911
62,4.540406227111816,-2.4100112915039062,77.3056411743164,-2.812025772629428,5.300526915108093,88.0102575789583,-22.208103,12.551915,3.2455187,53.23681,-23.205475,-0.9144424,1.7918642,3.2510931,-18.125818,7.6961937,-16.463818,-0.09366812,-2.172544,3.2979631,6.180359,10.528845,4.6847906,-99.97819,40.483242,0.726339,-10.208045,12.26594,13.799987,-1.4067824,104.99424,54.724728,-24.185616,-4.1320815,-8.875138
63,4.610218524932861,-2.2621219158172607,77.30326843261719,-2.6909731178518372,5.243013236530992,87.97885123616065,-22.96224,12.498218,3.3585453,54.521263,-23.571465,-0.6091879,1.9890022,3.1532626,-18.08953,7.7094755,-16.59431,-0.03522848,-1.9947268,3.291425,6.274999,10.668386,4.6021395,-99.51025,40.227497,1.919451,-8.904828,10.778707,13.88891,-1.3899148,104.92132,54.77956,-24.123468,-4.1399674,-8.81558
64,4.6682024002075195,-2.0910019874572754,77.29986572265625,-2.561298387367889,5.211046892590073,87.95729199549343,-23.721344,12.398652,3.471278,55.598587,-23.803915,-0.34293377,2.1645992,3.0424688,-18.060513,7.729448,-16.731462,0.018912995,-1.8372256,3.2614248,6.3467913,10.810633,4.5218005,-99.1079,40.087433,2.8415806,-8.003944,9.669752,13.958164,-1.3742288,104.87679,54.81289,-24.080078,-4.1472034,-8.78952
65,4.744965076446533,-1.90753173828125,77.30353546142578,-2.4163170815893253,5.210671856441445,87.95033923891792,-24.493624,12.24104,3.5847716,56.457653,-23.88905,-0.101089835,2.3340259,2.9197497,-18.039663,7.713345,-16.853132,0.061856676,-1.7065037,3.1947908,6.3881097,10.960686,4.460062,-98.78016,40.097527,3.36269,-7.6426063,9.098523,14.005066,-1.3569541,104.867485,54.821312,-24.074007,-4.1513333,-8.809125
66,4.801685333251953,-1.7093956470489502,77.30652618408203,-2.254381348643557,5.2380923835666175,87.94865900978157,-25.260551,12.036445,3.725742,57.09866,-23.873209,0.07290749,2.4768386,2.7752495,-18.019989,7.708622,-16.981571,0.09888871,-1.5788558,3.100497,6.398393,11.114152,4.4292536,-98.4984,40.174946,3.6549308,-7.5848374,8.843607,14.037787,-1.3395888,104.87026,54.806828,-24.0827,-4.1522393,-8.861464
67,4.871560096740723,-1.5226478576660156,77.31119537353516,-2.0906506347765257,5.282328544527064,87.94855582593868,-26.01543,11.802314,3.8795147,57.5374,-23.749681,0.17139243,2.6056669,2.624597,-18.002485,7.7071996,-17.11375,0.14113571,-1.4600004,3.0005586,6.396226,11.2572,4.416364,-98.25484,40.265743,3.83643,-7.642671,8.745912,14.05833,-1.3204938,104.89232,54.787155,-24.079523,-4.1558976,-8.929827
68,4.896855354309082,-1.3303179740905762,77.31327819824219,-1.9384552488750812,5.332268784839905,87.94626000366621,-26.751245,11.55599,4.0310397,57.789913,-23.512356,0.18768327,2.7320232,2.4825761,-17.988657,7.7041216,-17.248436,0.19963871,-1.3556266,2.9167218,6.400183,11.376572,4.411742,-98.04078,40.31362,4.028597,-7.6314545,8.643876,14.069549,-1.2925037,104.94103,54.786144,-24.038324,-4.16894,-8.997884
69,4.934694766998291,-1.1265078783035278,77.3167953491211,-1.7968876025426395,5.390300481116768,87.93595079313863,-27.466616,11.298691,4.187715,57.84084,-23.1385,0.10407257,2.8508883,2.3486402,-17.975882,7.697575,-17.382912,0.28609636,-1.2157145,2.8660054,6.4030385,11.458936,4.4120793,-97.93776,40.304874,4.2381067,-7.4964695,8.535337,14.065447,-1.2809609,104.966286,54.77547,-23.96133,-4.1947265,-9.064573
70,4.975341320037842,-0.9140774607658386,77.3125228881836,-1.6600880948364467,5.460278929400859,87.92100739522338,-28.164314,11.022313,4.352349,57.686054,-22.637825,-0.071364865,2.9600618,2.2161279,-17.964052,7.6885557,-17.517815,0.39169285,-1.1276613,2.812485,6.408168,11.527658,4.4153886,-97.809746,40.27501,4.4397697,-7.3385377,8.469688,14.038424,-1.2505759,105.07362,54.794758,-23.838572,-4.2315526,-9.141099
71,5.02046537399292,-0.696610689163208,77.30258178710938,-1.5329844901488692,5.533940123278484,87.9117059779998,-28.843454,10.730058,4.501841,57.357384,-22.053577,-0.30590144,3.0728824,2.0926316,-17.958538,7.677549,-17.657148,0.49703363,-1.0270602,2.7762692,6.4164853,11.577896,4.420776,-97.745285,40.2427,4.5902853,-7.20439,8.447177,14.019128,-1.2162663,105.15468,54.815792,-23.706352,-4.2705126,-9.214455
72,5.069700717926025,-0.4693905711174011,77.2966537475586,-1.419741341543948,5.602797604627515,87.91824076727448,-29.502796,10.424513,4.614003,56.88759,-21.428637,-0.5663016,3.2029617,1.9853481,-17.96454,7.664842,-17.80456,0.58262223,-0.9258117,2.75748,6.438365,11.616602,4.426285,-97.71236,40.224182,4.680818,-7.141953,8.44191,14.022232,-1.1947129,105.1872,54.81565,-23.585554,-4.303774,-9.271489
73,5.094505786895752,-0.23489736020565033,77.28288269042969,-1.3219784348726273,5.666439681077498,87.94640884554146,-30.144072,10.092949,4.667811,56.268017,-20.760511,-0.86835223,3.3533664,1.8951733,-17.986477,7.6497364,-17.960238,0.63828576,-0.83943903,2.7520325,6.4748874,11.648421,4.4319706,-97.69193,40.23059,4.704959,-7.1851897,8.45605,14.05648,-1.1823682,105.17852,54.795406,-23.47517,-4.3267384,-9.315832
74,5.133419513702393,0.005515411961823702,77.26510620117188,-1.2367602704853236,5.728607969426274,87.98954895029543,-30.765028,9.737804,4.677242,55.484425,-20.030624,-1.2214351,3.5167465,1.8189629,-18.02031,7.6327386,-18.12213,0.6760857,-0.76618487,2.7583923,6.523016,11.669351,4.4419255,-97.68749,40.248215,4.674702,-7.301704,8.49595,14.109868,-1.1691705,105.14429,54.767193,-23.3654,-4.344757,-9.350801
75,5.163698673248291,0.25933903455734253,77.247314453125,-1.1636203913505354,5.786785916366282,88.038853044247,-31.356905,9.383648,4.675635,54.55794,-19.256376,-1.582118,3.692785,1.7566204,-18.058735,7.614553,-18.292105,0.7104594,-0.69393307,2.7808118,6.5840526,11.676176,4.456367,-97.7103,40.257286,4.6020474,-7.4388337,8.548548,14.172481,-1.1560041,105.08954,54.741158,-23.255466,-4.364697,-9.370515
76,5.198828220367432,0.5162454843521118,77.21597290039062,-1.104594971691953,5.839080437502224,88.08555378400861,-31.912794,9.055838,4.696353,53.51141,-18.454725,-1.9071451,3.8802722,1.7085239,-18.094637,7.5959682,-18.471066,0.75561666,-0.6323062,2.8155468,6.6594973,11.672822,4.465116,-97.74244,40.251648,4.505692,-7.545493,8.598551,14.229763,-1.1500806,105.051094,54.71882,-23.134954,-4.3900123,-9.370697
77,5.227087497711182,0.771831750869751,77.1784439086914,-1.0611920995499848,5.88472033373446,88.1248756767005,-32.43614,8.759784,4.7481523,52.342545,-17.656631,-2.169958,4.078347,1.6779842,-18.12154,7.5771604,-18.659683,0.8170417,-0.5423736,2.8807476,6.751851,11.642023,4.4829245,-97.844666,40.207947,4.35962,-7.6110287,8.659605,14.289344,-1.1418066,104.9749,54.71184,-23.012148,-4.425127,-9.340638
78,5.244437217712402,1.036521077156067,77.13873291015625,-1.033475250874965,5.92483357932805,88.1620262565382,-32.926907,8.481669,4.8133984,51.03896,-16.839802,-2.3982708,4.288409,1.6637769,-18.1446,7.556395,-18.856417,0.886732,-0.46527663,2.9630709,6.859982,11.597487,4.4968247,-97.96315,40.148743,4.173728,-7.6628103,8.729274,14.349769,-1.1394193,104.90696,54.707645,-22.876612,-4.4646425,-9.289211
79,5.262025356292725,1.3134609460830688,77.08830261230469,-1.0139735555477833,5.960219943006995,88.20281832821486,-33.37232,8.2178,4.8873086,49.608086,-15.950272,-2.6299984,4.5105076,1.6589478,-18.17402,7.536737,-19.062088,0.9588203,-0.39169502,3.0489764,6.977284,11.548816,4.5062246,-98.08707,40.08923,3.9788356,-7.7028813,8.789235,14.404918,-1.142807,104.844925,54.700443,-22.741146,-4.5063686,-9.227122
80,5.28381872177124,1.5862025022506714,77.03985595703125,-0.9966336104567369,5.991447875883278,88.25366833101441,-33.75971,7.9636126,4.9627914,48.056328,-14.931694,-2.9035807,4.7469063,1.657216,-18.220495,7.5176535,-19.276,1.02737,-0.32448632,3.1214166,7.097935,11.509008,4.510843,-98.190025,40.044968,3.810301,-7.7333755,8.818052,14.448274,-1.1494738,104.80158,54.686893,-22.614355,-4.547204,-9.166592
81,5.329117298126221,1.8778986930847168,76.98237609863281,-0.980297302026834,6.017192667001194,88.32545170288053,-34.081306,7.710632,5.0208793,46.359535,-13.775929,-3.2509933,5.001264,1.6594865,-18.298174,7.498783,-19.50133,1.0870584,-0.2629483,3.1762831,7.2218328,11.476233,4.5128818,-98.28044,40.00952,3.6857207,-7.7259536,8.786452,14.481569,-1.1579616,104.76967,54.65974,-22.486132,-4.5916514,-9.110503
82,5.366048336029053,2.167313814163208,76.92401885986328,-0.9685072171688938,6.03731862732118,88.41100903185567,-34.34146,7.4608483,5.0681057,44.516563,-12.507709,-3.6450932,5.272504,1.6685984,-18.396875,7.479499,-19.7369,1.1424907,-0.20728755,3.2216923,7.352384,11.445866,4.512885,-98.364876,39.977444,3.5847538,-7.6888666,8.712575,14.507471,-1.1685239,104.74796,54.625587,-22.35522,-4.639228,-9.052842
83,5.3780999183654785,2.466968536376953,76.8641357421875,-0.9606310725189802,6.053859475554052,88.49004995334145,-34.548546,7.226529,5.134207,42.570656,-11.121031,-4.0360084,5.553702,1.6817105,-18.491325,7.4616065,-19.976685,1.2022996,-0.15781021,3.2617033,7.48817,11.42617,4.511818,-98.41139,39.960163,3.4882796,-7.6794004,8.645502,14.5222845,-1.1749293,104.75054,54.605278,-22.24993,-4.6838803,-8.987631
84,5.398543357849121,2.778676986694336,76.7925033569336,-0.9587386766251673,6.069337492414561,88.54226406872918,-34.713524,7.0204024,5.250332,40.56905,-9.611899,-4.3736925,5.837998,1.6955873,-18.556255,7.445557,-20.213564,1.2747571,-0.064017236,3.3133168,7.622826,11.412771,4.507081,-98.49009,39.97579,3.3360884,-7.753527,8.670558,14.522875,-1.1946523,104.75432,54.583557,-22.189405,-4.7103434,-8.92143
85,5.425319194793701,3.1072945594787598,76.71994018554688,-0.9599670298005576,6.081596158914917,88.56169226339121,-34.838543,6.849914,5.436364,38.51122,-7.92739,-4.6470017,6.1239853,1.7058676,-18.583305,7.4346256,-20.447113,1.3682868,0.038988095,3.3661618,7.766303,11.41796,4.5011644,-98.526474,40.04197,3.109926,-7.9827704,8.825055,14.50165,-1.2158569,104.78911,54.58768,-22.197298,-4.727417,-8.840366
86,5.452571868896484,3.437911033630371,76.64173126220703,-0.9642356897863718,6.090153666145103,88.55856731993235,-34.918877,6.705546,5.671432,36.377113,-6.086698,-4.882348,6.416007,1.7158659,-18.585619,7.42628,-20.680336,1.4757289,0.15188813,3.4188333,7.9164166,11.437343,4.491309,-98.54158,40.14871,2.8301334,-8.318758,9.070078,14.461704,-1.2486768,104.85357,54.598667,-22.25052,-4.7348685,-8.752229
87,5.455944061279297,3.7702128887176514,76.56260681152344,-0.9776905464422295,6.098650881196078,88.53898961763763,-34.95579,6.577449,5.9248824,34.18265,-4.1930065,-5.085706,6.713796,1.7340562,-18.572367,7.4188724,-20.91464,1.5819331,0.26135984,3.4739757,8.060715,11.472282,4.4712243,-98.514915,40.262394,2.592513,-8.641229,9.290235,14.407283,-1.3079044,104.94957,54.58735,-22.326132,-4.725204,-8.661846
88,5.43143367767334,4.106203079223633,76.47960662841797,-1.0053879383375646,6.110513017603678,88.50828440298484,-34.949482,6.4592605,6.167069,31.942375,-2.3494537,-5.2630725,7.017556,1.7683936,-18.551846,7.410436,-21.150845,1.6719978,0.37226576,3.543054,8.188094,11.515773,4.439473,-98.44784,40.339325,2.485245,-8.827262,9.372496,14.350466,-1.3855416,105.05442,54.5584,-22.408485,-4.696592,-8.574089
89,5.421331405639648,4.451825141906738,76.38906860351562,-1.0520533147561697,6.123834355047197,88.46239780102545,-34.903774,6.358822,6.393192,29.658312,-0.5251325,-5.37383,7.3281026,1.8225358,-18.52052,7.401307,-21.38873,1.7395375,0.49541238,3.6327589,8.299982,11.564194,4.4029922,-98.33779,40.35353,2.5513372,-8.821988,9.265601,14.2946205,-1.4543983,105.1682,54.540768,-22.503605,-4.638974,-8.482414
90,5.419220447540283,4.81981086730957,76.29401397705078,-1.1152610206298303,6.13677684671985,88.39886721744384,-34.817307,6.2834654,6.6194954,27.324253,1.3146812,-5.428215,7.645342,1.8923134,-18.47431,7.39429,-21.628962,1.7934043,0.6229274,3.737092,8.402329,11.6228485,4.351629,-98.1811,40.34054,2.7377143,-8.698534,9.036453,14.232156,-1.5310363,105.30421,54.52127,-22.616232,-4.5569,-8.3871355
91,5.431933403015137,5.208613395690918,76.19349670410156,-1.191816286414268,6.151118094964574,88.3238657937138,-34.67504,6.226482,6.8479695,24.930332,3.0782838,-5.508321,7.972886,1.9767342,-18.41841,7.3836203,-21.870369,1.8414364,0.75746155,3.8505988,8.49087,11.690575,4.2935047,-98.00644,40.3191,2.9826462,-8.524753,8.755307,14.174512,-1.604368,105.440445,54.50231,-22.728348,-4.471757,-8.303269
92,5.444820404052734,5.611603736877441,76.08357238769531,-1.2835631713380278,6.167502222619293,88.2415335445578,-34.45668,6.1806602,7.0790358,22.458591,4.6783214,-5.6974397,8.312677,2.076488,-18.356075,7.3696175,-22.114939,1.8909119,0.89251107,3.967118,8.56289,11.76967,4.2284055,-97.82938,40.315594,3.226574,-8.367953,8.491549,14.127444,-1.679459,105.568,54.468872,-22.818253,-4.403359,-8.246851
93,5.458057880401611,6.041439056396484,75.96502685546875,-1.397486303468297,6.180115536153234,88.14407066612135,-34.12895,6.1581683,7.32946,19.853088,6.119668,-6.047089,8.673055,2.2022538,-18.281914,7.3497734,-22.36728,1.9356129,1.0432928,4.093406,8.618555,11.86601,4.161567,-97.65315,40.3279,3.4769773,-8.22944,8.252276,14.097787,-1.754076,105.68128,54.423912,-22.87763,-4.3588114,-8.229871
94,5.460148811340332,6.468220233917236,75.8347396850586,-1.543034336434824,6.182101570575095,88.02082713707436,-33.688435,6.171292,7.5956755,17.108759,7.452884,-6.5056524,9.058073,2.3611434,-18.18443,7.3256483,-22.622938,1.9723462,1.2385381,4.24478,8.665588,11.969279,4.123436,-97.49361,40.311752,3.7541015,-8.077255,8.006953,14.090535,-1.7959443,105.763885,54.40442,-22.922731,-4.3292203,-8.240964
95,5.454453468322754,6.908276557922363,75.69816589355469,-1.7134291206999364,6.172803055397234,87.87035714495428,-33.168472,6.211656,7.851997,14.303096,8.655262,-7.000219,9.467783,2.5453482,-18.055696,7.296095,-22.87622,2.0129871,1.425976,4.406893,8.715265,12.081076,4.0707455,-97.3018,40.310135,4.033411,-7.9319086,7.758501,14.081795,-1.8546818,105.86931,54.36147,-22.954094,-4.3025026,-8.264062
96,5.449474811553955,7.354401111602783,75.55219268798828,-1.9006413527750636,6.15542863011919,87.69647152028917,-32.60133,6.2641296,8.075043,11.501807,9.709521,-7.4566307,9.895269,2.7409432,-17.893402,7.262335,-23.119081,2.0698411,1.6317817,4.583135,8.770972,12.177582,4.026226,-97.13647,40.30318,4.266659,-7.810069,7.524618,14.074824,-1.9054022,105.947845,54.31726,-22.995167,-4.273956,-8.277602
97,5.4352030754089355,7.820472717285156,75.39546966552734,-2.0973206211219146,6.12967382248385,87.50593807842718,-31.95076,6.313262,8.2711735,8.612569,10.637863,-7.866233,10.344915,2.9449248,-17.697954,7.220799,-23.360027,2.143631,1.8365545,4.7640224,8.833766,12.263553,3.9881299,-96.971825,40.29612,4.439559,-7.720374,7.290179,14.0660515,-1.9515553,106.01473,54.26537,-23.047932,-4.2409134,-8.275773
98,5.402426719665527,8.303295135498047,75.23614501953125,-2.3040684199503714,6.096598342378364,87.29705352781995,-31.498812,6.406112,8.42838,6.2328634,11.127637,-8.262073,10.816164,3.1553378,-17.471472,7.1699934,-23.597967,2.2288136,2.0512083,4.9492335,8.898001,12.342673,3.9608116,-96.81396,40.28281,4.572562,-7.6513133,7.05596,14.059839,-1.9879911,106.066414,54.210712,-23.106098,-4.2079096,-8.268805
99,5.410479545593262,8.789112091064453,75.06861877441406,-2.526982266694944,6.064238492391537,87.08284724316779,-32.081524,6.6681376,8.429075,6.14873,10.2993965,-8.633615,11.272828,3.367528,-17.237772,7.166526,-23.842493,2.3288827,2.2512467,5.147609,8.961304,12.408888,3.93468,-96.6678,40.266563,4.693609,-7.5924773,6.8485756,14.05264,-2.026482,106.11425,54.154152,-23.158852,-4.176322,-8.264485
100,5.400154113769531,9.278276443481445,74.91167449951172,-2.747772217307698,6.048484207113793,86.85530188742047,-32.62985,6.9290433,8.408624,6.0874305,9.410085,-8.965847,11.718228,3.560272,-16.998152,7.162732,-24.047874,2.4504642,2.4573364,5.3431373,9.009778,12.450992,3.9113648,-96.573166,40.241493,4.822104,-7.5323935,6.7007523,14.048404,-2.061932,106.14045,54.108788,-23.202776,-4.1484666,-8.269
101,5.3643879890441895,9.782194137573242,74.75743865966797,-2.976536872742593,6.055980440110882,86.60796118840274,-33.166943,7.1950355,8.331524,6.0614743,8.396742,-9.261834,12.144852,3.7433789,-16.753763,7.1515245,-24.20803,2.5966148,2.670773,5.5465465,9.037063,12.466705,3.8798568,-96.529,40.21425,4.9913383,-7.464051,6.613674,14.043958,-2.1071026,106.14245,54.066727,-23.231667,-4.1288137,-8.282065
102,5.323001861572266,10.301206588745117,74.6099624633789,-3.1733192374763255,6.095576920813953,86.3683538859353,-33.674625,7.406537,8.225662,6.009148,7.2832413,-9.51537,12.536178,3.8713133,-16.529043,7.1598015,-24.347296,2.7735329,2.8725522,5.717924,9.035965,12.456936,3.8547971,-96.53239,40.177834,5.1773868,-7.3949876,6.5742826,14.042786,-2.1393497,106.118095,54.04371,-23.250362,-4.11664,-8.30037
103,5.286978721618652,10.84582233428955,74.46839141845703,-3.378604723962368,6.144810718935391,86.12613786050062,-34.150043,7.624901,8.129239,6.016619,6.166211,-9.734452,12.929727,3.9986308,-16.297358,7.1534286,-24.440147,2.9629347,3.0677762,5.8930154,9.027456,12.429733,3.8275807,-96.57494,40.14421,5.325921,-7.335323,6.5877767,14.04256,-2.1711962,106.082726,54.0231,-23.269321,-4.1010795,-8.326459
104,5.243693828582764,11.384946823120117,74.33473205566406,-3.5428206667849897,6.211327162562069,85.91819989015332,-34.542587,7.7872057,8.117624,6.0164022,5.2208757,-9.908884,13.31287,4.073954,-16.087326,7.1500826,-24.488214,3.1660383,3.2050612,6.018161,9.012485,12.390046,3.8164313,-96.62504,40.101746,5.389341,-7.2961683,6.652357,14.041458,-2.1835237,106.07226,54.02487,-23.292517,-4.075117,-8.36295
105,5.192439079284668,11.937811851501465,74.20870208740234,-3.6807862135718907,6.288498189583189,85.74537168842681,-34.854248,7.9113503,8.191295,6.021648,4.453522,-10.061017,13.694345,4.1169806,-15.895193,7.1490808,-24.4934,3.3734615,3.3157046,6.1119394,8.993286,12.333348,3.7993279,-96.753105,40.082336,5.3252945,-7.277181,6.815306,14.041099,-2.2022772,106.048584,54.013794,-23.332489,-4.026318,-8.417926
106,5.150285720825195,12.514832496643066,74.08633422851562,-3.8000562716864583,6.380230830125564,85.59637351260096,-35.09789,8.00299,8.320416,6.0311756,3.7963705,-10.190564,14.070008,4.135142,-15.716023,7.1461043,-24.455782,3.5893714,3.3864207,6.18085,8.968501,12.262067,3.7838786,-96.91555,40.06596,5.1825714,-7.2735696,7.051244,14.039433,-2.219035,106.02745,54.00846,-23.380985,-3.965369,-8.485633
107,5.084758281707764,13.0811128616333,73.9872817993164,-3.888295935824897,6.488939226435246,85.46522411581913,-35.253635,8.043458,8.518553,6.0326796,3.2786531,-10.263068,14.434434,4.1067934,-15.548466,7.1432524,-24.371056,3.826014,3.421194,6.2119045,8.934697,12.179243,3.7730489,-97.07359,40.048355,4.9900594,-7.292613,7.2951016,14.034475,-2.2309937,106.01995,54.0095,-23.430132,-3.9047153,-8.551383
108,5.021663188934326,13.65867805480957,73.89338684082031,-3.9431686044011283,6.620959205578901,85.34098475281094,-35.32647,8.032516,8.789479,6.051634,2.906326,-10.245307,14.773423,4.0238814,-15.385875,7.14159,-24.230513,4.092621,3.4920654,6.225996,8.869803,12.082458,3.7574136,-97.31118,40.040405,4.7329783,-7.338946,7.521191,14.039922,-2.2486935,105.98439,53.998222,-23.468824,-3.8487883,-8.612873
109,4.950498580932617,14.254064559936523,73.81595611572266,-3.988218824906527,6.762198262950629,85.20799986625498,-35.25867,8.005717,9.22601,6.0754967,2.668575,-10.2344675,15.103802,3.9093666,-15.2109995,7.139893,-24.039965,4.388739,3.5247598,6.2276707,8.808076,11.982019,3.7473292,-97.47601,40.014168,4.4615674,-7.4283195,7.684642,14.039077,-2.261124,105.993645,54.012756,-23.511341,-3.8060284,-8.661245
110,4.849908351898193,14.838936805725098,73.7481918334961,-4.015961718619398,6.91508215166523,85.07691463312267,-35.068413,7.95268,9.791911,6.1013937,2.5630767,-10.209219,15.4284525,3.762532,-15.034082,7.131484,-23.79755,4.711323,3.5664816,6.2193575,8.730708,11.87202,3.7346017,-97.69222,39.99436,4.1178393,-7.553383,7.851974,14.048641,-2.2783585,106.0101,54.02218,-23.546106,-3.7579956,-8.7176695
111,4.781759738922119,15.457242965698242,73.69108581542969,-3.9672037022837223,7.110360435883278,84.98337834912847,-34.857925,7.780361,10.307601,6.1324635,2.6225853,-9.954892,15.712526,3.5224094,-14.898605,7.1226826,-23.49604,5.0674944,3.5453155,6.1245413,8.626236,11.753129,3.7257638,-97.84263,39.969765,3.780248,-7.6865892,7.94799,14.040391,-2.292022,106.03864,54.031498,-23.569517,-3.7338765,-8.742482
112,4.671840667724609,16.089521408081055,73.66429901123047,-3.7753391943523344,7.366320937954395,84.96526858986493,-34.70872,7.388096,10.599895,6.1577773,2.8906734,-9.258953,15.943742,3.1222656,-14.850597,7.103734,-23.119997,5.468154,3.4488356,5.8643265,8.468337,11.625475,3.7226198,-97.934715,39.954987,3.4627895,-7.800506,7.948143,14.01357,-2.2981722,106.05931,54.01257,-23.553425,-3.7392206,-8.722768
113,4.592601776123047,16.732376098632812,73.6842269897461,-3.3794360694073453,7.751620643958377,85.06629726746044,-34.699966,6.6715946,10.563855,6.1588063,3.486912,-7.83654,16.054098,2.5061686,-14.954492,7.0900984,-22.692562,5.931552,3.3009098,5.394424,8.19944,11.46332,3.7171686,-98.08546,39.96621,3.0943692,-7.905315,7.844446,13.97222,-2.319307,106.028946,53.92277,-23.471617,-3.7772844,-8.6715555
114,4.497554302215576,17.377958297729492,73.72865295410156,-2.83133429246962,8.20571399855151,85.25646336153945,-34.76101,5.718614,10.323366,6.1771965,4.362585,-5.887524,16.120934,1.73374,-15.169108,7.0660977,-22.21203,6.4531746,3.034076,4.7502356,7.8820653,11.295581,3.7206466,-98.10555,39.979267,2.7551484,-8.0088825,7.5944095,13.911931,-2.3312206,105.99353,53.816605,-23.371319,-3.860003,-8.563364
115,4.407422065734863,18.053924560546875,73.8004150390625,-2.213478667018837,8.650456621902704,85.45861721631427,-34.79294,4.6846256,10.063395,6.174972,5.3557367,-3.9134321,16.207676,0.8783212,-15.385642,7.0401554,-21.64438,7.010244,2.746407,4.0289316,7.5675163,11.1184025,3.7307358,-98.11179,39.986668,2.4489822,-8.077501,7.335522,13.823644,-2.339676,105.97553,53.701797,-23.23979,-3.949975,-8.427818
116,4.317941665649414,18.754425048828125,73.8858871459961,-1.6283484638157169,8.99568522203526,85.58664427659095,-34.696793,3.755315,9.937914,6.164131,6.23628,-2.4065673,16.388355,0.033567727,-15.486577,7.0140495,-20.952278,7.574176,2.516884,3.3411856,7.324858,10.935497,3.7438974,-98.15355,39.97597,2.2120621,-8.078142,7.1758065,13.694262,-2.3453367,105.99765,53.59844,-23.083,-4.0194187,-8.277815
117,4.213011741638184,19.462976455688477,73.97272491455078,-1.0964387851875934,9.202674483291647,85.63511299257048,-34.43117,2.9490247,9.909917,6.1490235,6.99733,-1.4305277,16.660852,-0.8021861,-15.467036,7.085685,-20.206484,8.151826,2.343611,2.7116466,7.1948433,10.742057,3.751388,-98.21676,39.94844,2.0442984,-8.016136,7.082739,13.510273,-2.3481061,106.04639,53.50427,-22.864437,-4.0626493,-8.061602
118,4.110684394836426,20.171266555786133,74.06512451171875,-0.5419542757478589,9.334248981438218,85.63048784399751,-34.04753,2.1682844,9.944713,6.1192045,7.7239695,-0.7338706,17.012268,-1.6910669,-15.378192,7.153975,-19.3596,8.761234,2.2109056,2.0560477,7.125621,10.537624,3.758051,-98.30587,39.91107,1.9189738,-7.9045987,7.0317955,13.282342,-2.351012,106.12436,53.404774,-22.583578,-4.0888133,-7.7976594
119,3.978813409805298,20.890729904174805,74.169921875,-0.000601129236525256,9.417749015878083,85.60948321559272,-33.584274,1.4453665,10.060619,6.094107,8.310443,-0.33865377,17.408781,-2.5642226,-15.247581,7.231517,-18.388985,9.373994,2.0958521,1.4099576,7.0859566,10.331929,3.7637632,-98.454346,39.870483,1.8549389,-7.727401,7.1150727,13.030519,-2.353888,106.24796,53.317295,-22.327124,-4.1065483,-7.5879045
120,3.8284969329833984,21.634096145629883,74.28287506103516,0.4892799525930352,9.484113347157237,85.60945159363568,-33.072384,0.8090447,10.273563,6.0793395,8.656553,-0.26836947,17.814152,-3.3547611,-15.098521,7.320143,-17.25929,9.959664,1.9818007,0.8119991,7.042367,10.12862,3.7652953,-98.69977,39.83582,1.8699125,-7.468645,7.4224353,12.772111,-2.3522048,106.41904,53.260574,-22.186522,-4.1274815,-7.530775
121,3.7102744579315186,22.396461486816406,74.39778137207031,0.927739109473862,9.525993015242186,85.6320024030858,-32.48933,0.28484648,10.652115,6.081975,8.685517,-0.66826177,18.22997,-4.06622,-14.9229145,7.4245415,-15.962865,10.494866,1.8709915,0.25302204,6.9959154,9.925917,3.7618597,-99.10313,39.811844,2.0436652,-7.123515,8.098601,12.481601,-2.3398547,106.6809,53.247974,-22.204756,-4.160074,-7.678995
122,3.606525421142578,23.150768280029297,74.5152359008789,1.3345912548699372,9.543022320534833,85.65798437588873,-31.82398,-0.14635476,11.166136,6.093721,8.490514,-1.483324,18.48555,-4.7829547,-14.696033,7.9039245,-14.703479,10.996954,1.7868602,-0.2818885,6.9445057,9.723342,3.750802,-99.65582,39.797485,2.3267744,-6.696876,9.060666,12.167102,-2.3051083,107.00913,53.280113,-22.325605,-4.19588,-7.974034
123,3.4907021522521973,23.881141662597656,74.64409637451172,1.7017722753110323,9.571752532151322,85.6844992572479,-31.143093,-0.5154609,11.688871,6.1103034,8.2114935,-2.4374862,17.841679,-5.6669416,-14.346489,10.255134,-14.269565,11.493487,1.7105737,-0.76882744,6.865473,9.52514,3.7368424,-100.20138,39.77896,2.5757525,-6.190567,10.028563,11.8741865,-2.2647161,107.32317,53.3343,-22.500074,-4.225506,-8.335397
124,3.3764641284942627,24.611797332763672,74.77973937988281,2.0172898714251337,9.645102106575598,85.70582293186862,-30.519814,-0.8617002,12.095311,6.1224623,7.9564714,-3.249194,17.115973,-6.4685764,-13.938965,12.591249,-13.667248,12.009773,1.6907963,-1.1690592,6.72742,9.337207,3.7051613,-100.721565,39.7696,2.6025808,-5.613637,10.773588,11.688736,-2.1858776,107.51589,53.43631,-22.661125,-4.2340713,-8.703063
125,3.2714037895202637,25.341739654541016,74.91386413574219,2.2608865767985824,9.781201367216939,85.71384159013947,-30.000408,-1.1799531,12.352426,6.138022,7.718016,-3.9226398,16.265911,-7.167549,-13.443552,14.946339,-12.867165,12.571906,1.6777712,-1.4660922,6.5189404,9.15608,3.6723018,-101.09908,39.756516,2.4410748,-4.879973,11.208797,11.596487,-2.1252184,107.604614,53.54467,-22.84445,-4.2071214,-9.092543
126,3.1481425762176514,26.07473373413086,75.0522232055664,2.4378324017042377,9.95808595803737,85.71250466919311,-29.547935,-1.4605372,12.530521,6.151342,7.43642,-4.580288,15.318391,-7.769472,-12.865812,17.319332,-11.885992,13.153508,1.7037214,-1.6681488,6.255273,8.980422,3.623854,-101.44957,39.757057,2.143355,-4.017796,11.489919,11.580776,-2.0603936,107.60501,53.679134,-23.065483,-4.1532702,-9.531141
127,3.0237767696380615,26.818037033081055,75.19854736328125,2.5730072217680746,10.141756312622931,85.71102179756949,-29.120134,-1.7264067,12.654637,6.1646247,7.1077704,-5.119063,14.295862,-8.303985,-12.253433,19.761553,-10.83636,13.703328,1.7382905,-1.8135178,5.9760227,8.82452,3.5745587,-101.725395,39.737556,1.6782537,-3.2084281,11.647088,11.62099,-2.0122886,107.55415,53.78458,-23.241535,-4.100113,-9.941598
128,2.9148995876312256,27.54964828491211,75.34758758544922,2.6921179690376706,10.29862203071471,85.7161809283362,-28.668793,-1.9944055,12.747016,6.1755013,6.7414885,-5.437408,13.231338,-8.804515,-11.655088,22.302847,-9.822315,14.1683235,1.7361734,-1.9445568,5.720819,8.701668,3.5548081,-101.85023,39.645813,1.0243465,-2.6312594,11.70218,11.692242,-1.9990298,107.51001,53.808662,-23.286718,-4.0770817,-10.247081
129,2.8006105422973633,28.273204803466797,75.49717712402344,2.786779168228211,10.439017806411655,85.68650343578729,-28.202188,-2.2500248,12.831133,6.190087,6.324212,-5.4437537,12.084376,-9.284114,-11.0154295,24.97462,-8.839791,14.574192,1.8644636,-2.00243,5.488963,8.589465,3.5143788,-102.00826,39.492733,0.04130609,-2.3540702,11.695009,11.844754,-1.9861649,107.308235,53.806355,-23.203333,-4.095488,-10.450475
130,2.685110330581665,28.994482040405273,75.6544418334961,2.839279422037705,10.572457799404251,85.63448397649648,-27.73222,-2.4836538,12.8779545,6.1990576,5.865552,-5.2148204,10.863055,-9.718464,-10.337669,27.739021,-7.8376074,14.923112,1.9962889,-2.00105,5.268066,8.495335,3.4870913,-102.027435,39.26211,-1.1683419,-2.2688231,11.5674925,12.046242,-1.9924794,107.07254,53.77084,-23.01347,-4.1402755,-10.584215
131,2.577545404434204,29.711145401000977,75.81108856201172,2.8677513322565367,10.679444615405373,85.6502007300226,-27.247044,-2.7121236,12.830461,6.214748,5.392813,-4.9046135,9.65031,-10.09065,-9.78514,30.53566,-6.845267,15.000033,2.108134,-1.9882997,5.0569324,8.43608,3.4593542,-102.02694,39.059986,-2.48355,-2.3049376,11.349201,12.270226,-2.019542,106.782234,53.63287,-22.751348,-4.202045,-10.614807
132,2.4781556129455566,30.416404724121094,75.96215057373047,2.9561840979374723,10.700389875182031,85.82843153501528,-26.674,-3.0326548,12.674236,6.2217116,4.932164,-4.647725,8.561017,-10.495716,-9.464687,33.36771,-5.9416833,15.000033,2.0582986,-2.0958936,4.88494,8.454206,3.452039,-101.99349,38.952995,-3.7554743,-2.3889902,11.066106,12.492924,-2.044878,106.60184,53.364853,-22.389763,-4.2630095,-10.53674
133,2.6032803058624268,31.282636642456055,76.0401840209961,3.146161113511006,10.587153148821542,86.29295431019706,-25.967878,-3.5182316,12.319637,6.2223425,4.4883103,-4.4655123,7.7129965,-10.954467,-9.529491,36.249123,-5.182259,14.772349,1.7867341,-2.3904977,4.772137,8.56996,3.4756727,-101.97544,38.999954,-5.0183053,-2.5461912,10.688901,12.7301445,-2.0750813,106.48104,52.862644,-21.930658,-4.299376,-10.277083
134,2.6155407428741455,32.0475959777832,76.14128875732422,3.357460961274768,10.394372306698864,86.9599520631174,-25.192516,-4.069849,11.783544,6.2239356,4.054286,-4.296196,7.0168576,-11.415175,-9.92625,39.156574,-4.5070224,14.149435,1.3347749,-2.775231,4.670152,8.764149,3.5591848,-101.92367,39.107025,-6.323788,-2.792005,10.215799,12.995626,-2.0903988,106.44236,52.20962,-21.351755,-4.320003,-9.878312
135,2.6164944171905518,32.76774978637695,76.25202941894531,3.5557646828474962,10.186136220137605,87.6152758051868,-24.400557,-4.5958457,11.248453,6.2207446,3.620915,-4.135135,6.294128,-11.908574,-10.362832,42.077065,-3.8467188,13.434323,0.8758116,-3.1545289,4.574597,8.964927,3.7445648,-101.82039,39.119717,-7.5581374,-3.0476,9.6957245,13.250598,-2.0845418,106.45997,51.57962,-20.71838,-4.376223,-9.443281
136,2.5499041080474854,33.4079704284668,76.3843765258789,3.6978630998285182,10.030100509801976,88.04464304122119,-23.660944,-4.9945493,10.892746,6.228411,3.1699214,-3.9808657,5.357331,-12.425478,-10.556174,44.99078,-3.12154,12.831818,0.58971864,-3.4209223,4.491502,9.1157,3.9648426,-101.66832,38.99837,-8.617627,-3.2425294,9.185568,13.450637,-2.0736966,106.49851,51.1194,-20.096632,-4.518004,-9.073344
137,2.3514931201934814,34.00788497924805,76.52330780029297,3.7475604502026405,9.963354149422493,88.12805802297368,-23.003973,-5.1979485,10.811483,6.2409286,2.69853,-3.852349,4.0511327,-12.934301,-10.345105,47.996967,-2.1696544,12.390974,0.576168,-3.5005803,4.4307857,9.196155,4.177926,-101.440506,38.72514,-9.496918,-3.372372,8.666511,13.573295,-2.0945613,106.56086,50.860622,-19.478699,-4.788619,-8.805626
138,2.1582019329071045,34.633628845214844,76.65385437011719,3.737386500964534,9.94253430417386,88.00095285773953,-22.38946,-5.281754,10.897269,6.2588153,2.2123182,-3.7421508,2.5042748,-13.429009,-9.903303,51.07508,-1.0773256,12.017536,0.72054714,-3.4649487,4.393392,9.252088,4.35301,-101.14938,38.401936,-10.248181,-3.475548,8.1211605,13.635518,-2.1641555,106.65723,50.686764,-18.840315,-5.1497517,-8.578026
139,2.1243770122528076,35.35170364379883,76.7433853149414,3.7228776264005563,9.920070719806905,87.83223961771382,-21.775326,-5.3504095,11.019853,6.2807384,1.7215115,-3.6132271,0.945372,-13.925453,-9.4460535,54.029247,-0.13506019,11.70756,0.8742893,-3.4228966,4.369707,9.320892,4.484424,-100.84301,38.122646,-10.848006,-3.5486686,7.6101027,13.652839,-2.2704206,106.775444,50.526665,-18.219677,-5.5309887,-8.346145
140,2.145008087158203,36.072601318359375,76.81985473632812,3.7604269177664196,9.848188734741548,87.79019693175347,-21.11891,-5.506542,11.046939,6.3017516,1.2388433,-3.4304192,-0.39784548,-14.456026,-9.1854515,56.680416,0.35513744,11.451664,0.89037365,-3.4835312,4.352103,9.433713,4.59558,-100.56768,37.95036,-11.270491,-3.5882914,7.1941314,13.644775,-2.389288,106.90477,50.320072,-17.654423,-5.8618426,-8.068203
141,2.208155393600464,36.792503356933594,76.88894653320312,3.881727941266937,9.71464684215038,87.96018273068412,-20.415087,-5.783243,10.911534,6.3257236,0.7713361,-3.1909857,-1.4163888,-15.054132,-9.242859,58.964222,0.24133396,11.340549,0.7011502,-3.7134047,4.331033,9.614446,4.7010865,-100.33105,37.91988,-11.501474,-3.5904408,6.8809404,13.612347,-2.4785068,107.054054,50.051872,-17.08774,-6.141951,-7.6913204
142,2.1606688499450684,37.44071960449219,76.9642333984375,4.048554058866905,9.544162582095053,88.23811021773118,-19.684956,-6.116889,10.68949,6.3560567,0.3102354,-2.9157221,-2.2503388,-15.692599,-9.478311,61.005566,-0.30268443,11.354456,0.3926307,-4.041142,4.310136,9.834533,4.829808,-100.10202,37.94509,-11.55254,-3.559457,6.6410346,13.551015,-2.539362,107.23179,49.77671,-16.517984,-6.4027295,-7.2538037
143,2.0734829902648926,38.0819091796875,77.03092193603516,4.222661070593364,9.343777873744784,88.50676793896652,-18.919333,-6.4635215,10.467516,6.3794913,-0.15490186,-2.6044674,-3.0421965,-16.333445,-9.70445,62.899284,-1.0935943,11.322025,0.08288983,-4.3768296,4.312386,10.044412,4.9524717,-99.91461,37.990208,-11.449011,-3.5105846,6.4845195,13.486652,-2.5630686,107.385796,49.59882,-16.076094,-6.6286407,-6.8503227
144,2.0312254428863525,38.74885940551758,77.09364318847656,4.355100903908447,9.123665998450317,88.65170849098597,-18.12412,-6.766782,10.325597,6.40592,-0.64500946,-2.2590516,-3.936327,-16.912987,-9.741938,64.724945,-1.9404178,11.067492,-0.12738544,-4.6170483,4.3598104,10.199774,5.046416,-99.78437,38.010666,-11.21197,-3.4567049,6.419027,13.436279,-2.5699258,107.48606,49.587433,-15.889998,-6.804856,-6.5776496
145,1.9087251424789429,39.3834114074707,77.15365600585938,4.442294414734003,8.874898185198138,88.59443044400723,-17.277065,-7.021916,10.327639,6.426201,-1.175032,-1.8514138,-5.004855,-17.399727,-9.442283,66.52755,-2.8682203,10.4872675,-0.15685065,-4.723429,4.4830294,10.284674,5.0641813,-99.74462,38.01941,-10.818525,-3.3917,6.464364,13.402782,-2.5739646,107.499054,49.793705,-16.02148,-6.947295,-6.4595723
146,1.761404275894165,40.027137756347656,77.20832824707031,4.5063064575684235,8.596827563359053,88.41194678059193,-16.386349,-7.2460165,10.413456,6.447124,-1.738773,-1.3964396,-6.1660414,-17.80683,-8.928343,68.251816,-3.9450765,9.704369,-0.11525713,-4.7583246,4.658712,10.329928,5.0696993,-99.72011,37.9907,-10.2502985,-3.305635,6.6001406,13.366986,-2.5824308,107.49768,50.15042,-16.383923,-7.0581927,-6.44988
147,1.6651947498321533,40.64532470703125,77.26251220703125,4.548872400387354,8.309888516312578,88.22075727300815,-15.485073,-7.4398627,10.489918,6.468151,-2.3075294,-0.9536365,-7.3343,-18.162971,-8.417993,69.82849,-5.050345,8.882536,-0.087666474,-4.7633214,4.842363,10.353177,5.0611906,-99.71844,37.976868,-9.582018,-3.22112,6.798605,13.333709,-2.596991,107.47567,50.552284,-16.916306,-7.103176,-6.5300174
148,1.5560317039489746,41.30647659301758,77.30899047851562,4.573323709749472,8.034274987449765,88.13707014041381,-14.607017,-7.6085196,10.466611,6.4876165,-2.8476155,-0.576522,-8.42106,-18.518917,-8.134759,71.18902,-6.0695243,8.178718,-0.15300573,-4.781704,4.9904833,10.371126,5.0282526,-99.764366,38.043552,-8.898865,-3.1636317,7.04365,13.311121,-2.6192172,107.43256,50.904575,-17.548193,-7.046248,-6.688198
149,1.4925580024719238,41.95681381225586,77.35245513916016,4.582843749270373,7.763961926666389,88.2426630840511,-13.752554,-7.7683315,10.2752075,6.507498,-3.3404489,-0.275862,-9.342395,-18.92924,-8.233184,72.297516,-6.9884133,7.661562,-0.40148205,-4.854199,5.0820827,10.395724,4.998618,-99.847336,38.211708,-8.171491,-3.14425,7.3561707,13.304388,-2.6259356,107.403595,51.189503,-18.316133,-6.8373804,-6.9435124
150,1.4548470973968506,42.603511810302734,77.39262390136719,4.57348060751753,7.492603085596861,88.45890828490954,-12.907312,-7.912036,9.980664,6.527197,-3.8049295,-0.020724304,-10.160555,-19.366116,-8.569862,73.19903,-7.8676944,7.2345095,-0.72731787,-4.9355845,5.1460085,10.412137,4.915373,-100.025314,38.49686,-7.3916936,-3.1488438,7.7503986,13.32181,-2.6059494,107.32739,51.47818,-19.245981,-6.5069494,-7.2891297
151,1.437741756439209,43.244483947753906,77.43421173095703,4.535712145008442,7.239731197883489,88.66133168974659,-12.084224,-8.018877,9.695688,6.545737,-4.260309,0.2035816,-11.009215,-19.756636,-8.924114,73.947205,-8.709401,6.8058057,-1.0545089,-4.991539,5.2058134,10.409789,4.8058066,-100.19997,38.80241,-6.607496,-3.1565623,8.155435,13.352097,-2.5404449,107.24714,51.832882,-20.212204,-6.1383314,-7.682945
152,1.3862532377243042,43.86944580078125,77.47419738769531,4.458702930323742,7.02525035581526,88.72596305050465,-11.301411,-8.062917,9.531378,6.568421,-4.733654,0.40834773,-12.027258,-20.021814,-9.076337,74.59251,-9.5136175,6.2816877,-1.2606218,-4.9700155,5.2850137,10.372584,4.6827264,-100.34838,39.04529,-5.888789,-3.1526225,8.516271,13.384909,-2.4583652,107.14383,52.261436,-21.105728,-5.8142304,-8.084866
153,1.318711280822754,44.480751037597656,77.51395416259766,4.333314712722704,6.8627360441726735,88.57621353457203,-10.570618,-8.026718,9.556829,6.591909,-5.232632,0.5986696,-13.305583,-20.120821,-8.925249,75.166595,-10.285571,5.6011844,-1.2735144,-4.828417,5.3973637,10.270988,4.5203595,-100.48158,39.211414,-5.234409,-3.1312854,8.824601,13.407303,-2.3827646,106.99703,52.7847,-21.946089,-5.532951,-8.510854
154,1.2665659189224243,45.05720138549805,77.55533599853516,4.165537901029801,6.738169248291719,88.293076674508,-9.880968,-7.928366,9.701314,6.617056,-5.7447124,0.76686484,-14.7501955,-20.083784,-8.611314,75.63104,-11.021328,4.828012,-1.1729022,-4.5995045,5.524593,10.123319,4.315708,-100.60884,39.34737,-4.6154046,-3.1030009,9.109016,13.419705,-2.3298094,106.81887,53.353317,-22.777569,-5.254794,-8.973553
155,1.0418208837509155,45.63605880737305,77.59626770019531,3.976230756649345,6.629108545491697,87.98811937646107,-9.208904,-7.795968,9.865531,6.643253,-6.260823,0.9047098,-16.223654,-19.943897,-8.274339,75.92844,-11.705342,4.0579486,-1.0594293,-4.342345,5.6468062,9.98669,4.07678,-100.70937,39.502834,-4.063223,-3.0814176,9.368776,13.436314,-2.2992673,106.630684,53.891506,-23.53334,-5.011082,-9.430968
156,0.9541675448417664,46.22965621948242,77.63468170166016,3.7863939679043197,6.5145751385657,87.77288870352707,-8.530956,-7.657418,9.950491,6.669846,-6.7718735,1.0049369,-17.589432,-19.743692,-8.051952,76.00356,-12.322584,3.386174,-1.0319681,-4.1199627,5.746972,9.918005,3.8256779,-100.76279,39.71378,-3.6080651,-3.0794744,9.60319,13.473273,-2.2803748,106.45805,54.329544,-24.146328,-4.8355813,-9.842771
157,0.8949505090713501,46.81740951538086,77.67735290527344,3.594577939580768,6.383456410667036,87.68137776186605,-7.832879,-7.5106516,9.926116,6.6987796,-7.2804794,1.0510269,-18.802309,-19.476612,-7.9872127,75.83542,-12.880184,2.8041623,-1.1208136,-3.9495971,5.8262787,9.938463,3.5855615,-100.76495,39.976677,-3.2562792,-3.0978765,9.829159,13.545956,-2.2612662,106.30993,54.66536,-24.581366,-4.753555,-10.234875
158,0.8595912456512451,47.43060302734375,77.704833984375,3.3923565096072004,6.249559591336861,87.65269897740733,-7.128655,-7.3429823,9.848135,6.728425,-7.7894096,1.0526958,-19.931633,-19.127806,-8.011483,75.453415,-13.381349,2.2756755,-1.2692025,-3.7999008,5.8930626,10.012432,3.3670912,-100.72697,40.24823,-2.9908764,-3.1304326,10.041584,13.64596,-2.2378552,106.171265,54.941624,-24.880383,-4.7450686,-10.619771
159,0.8536814451217651,48.07593536376953,77.7165298461914,3.1849738048311123,6.129106573441531,87.65606543788765,-6.4403415,-7.167826,9.745992,6.759099,-8.293488,1.0423069,-21.013988,-18.729792,-8.09466,74.877785,-13.803474,1.851935,-1.4426475,-3.659271,5.943601,10.111183,3.1745992,-100.65483,40.5035,-2.8065748,-3.1799445,10.207278,13.755079,-2.210486,106.033424,55.164555,-25.093134,-4.777796,-10.937206
160,0.8350884318351746,48.70296859741211,77.73261260986328,2.9818229395832776,6.038031370861855,87.66091564426935,-5.7890344,-6.994921,9.646897,6.7887306,-8.785368,1.0517222,-22.087048,-18.316526,-8.2054825,74.128586,-14.122452,1.5825013,-1.6083649,-3.516644,5.973953,10.206451,3.0071967,-100.55337,40.72331,-2.699224,-3.2496188,10.292902,13.854113,-2.183288,105.886185,55.336285,-25.26891,-4.8187394,-11.126265
161,0.8231611251831055,49.33209228515625,77.74299621582031,2.7822324545246615,5.985184597144115,87.66745435638339,-5.189566,-6.8247013,9.548231,6.8191066,-9.2613325,1.088873,-23.165062,-17.896086,-8.352522,73.19717,-14.325929,1.5140269,-1.7667767,-3.3718047,5.9774117,10.300688,2.8759336,-100.40208,40.89538,-2.7059433,-3.3497994,10.2610655,13.939065,-2.1620784,105.72027,55.44022,-25.413082,-4.871291,-11.1413
162,0.8072169423103333,49.948875427246094,77.74787902832031,2.583169868434544,5.9605462665597635,87.68969448934224,-4.6255884,-6.652731,9.437397,6.848177,-9.724849,1.137277,-24.222729,-17.451332,-8.550498,72.07294,-14.423023,1.6099629,-1.9332653,-3.2292824,5.958332,10.406329,2.76809,-100.20596,41.042156,-2.817324,-3.4765368,10.138652,14.019304,-2.146038,105.54226,55.478615,-25.502377,-4.950194,-11.024514
163,0.7884804010391235,50.563262939453125,77.749267578125,2.3875525115707643,5.951544111468045,87.71751941780975,-4.079579,-6.482038,9.327579,6.880466,-10.182571,1.1915883,-25.239414,-16.980127,-8.775809,70.77221,-14.4236,1.7897998,-2.0942338,-3.0862923,5.9270577,10.505815,2.7007513,-100.00791,41.139687,-2.9563596,-3.6084151,9.989738,14.094203,-2.1379929,105.368225,55.468708,-25.54108,-5.037878,-10.846886
164,0.7693713307380676,51.18419647216797,77.74642944335938,2.196254216013332,5.94543267902199,87.74106863700173,-3.529083,-6.3151693,9.230884,6.9103575,-10.641652,1.2457651,-26.196049,-16.479082,-9.00268,69.31211,-14.338659,1.9745188,-2.237917,-2.9380033,5.893532,10.585334,2.6674473,-99.85437,41.188946,-3.04853,-3.7262006,9.881191,14.165041,-2.135846,105.21941,55.436905,-25.53086,-5.116095,-10.681372
165,0.7582932710647583,51.813995361328125,77.73756408691406,2.009695897301113,5.943798566027813,87.75609947566069,-2.9769063,-6.14946,9.154792,6.941254,-11.0994625,1.309438,-27.096876,-15.939138,-9.216575,67.67982,-14.163713,2.1573014,-2.3638067,-2.7800646,5.8601336,10.641737,2.6361032,-99.740204,41.218136,-3.06844,-3.837534,9.82338,14.227493,-2.137775,105.08897,55.383446,-25.47376,-5.183162,-10.519318
166,0.7437406778335571,52.44889831542969,77.72219848632812,1.8261869292004456,5.951641817509851,87.76876631882365,-2.4307177,-5.9836707,9.090369,6.971339,-11.553261,1.3811321,-27.946823,-15.365642,-9.430501,65.86734,-13.8944235,2.3747258,-2.4755623,-2.616696,5.819461,10.685947,2.6101174,-99.65666,41.231915,-3.0625806,-3.9507391,9.78818,14.285391,-2.1445155,104.974556,55.295696,-25.36505,-5.2459836,-10.333873
167,0.7248280644416809,53.0806770324707,77.70000457763672,1.649403534316958,5.9612684289746145,87.78451654077655,-1.8827689,-5.823893,9.027371,7.0010996,-12.011133,1.43842,-28.72983,-14.781018,-9.656497,63.901134,-13.544625,2.6122267,-2.579607,-2.4551256,5.78051,10.718924,2.596512,-99.599754,41.225513,-3.0442972,-4.044175,9.761894,14.337712,-2.1516647,104.884094,55.196346,-25.212683,-5.3068857,-10.157207
168,0.7079936265945435,53.71266174316406,77.66944122314453,1.4833689345919927,5.964972154421555,87.8088502505735,-1.3246777,-5.6759534,8.95577,7.0290465,-12.4795,1.4589605,-29.429914,-14.207464,-9.906422,61.806843,-13.127947,2.8553474,-2.6759431,-2.3012216,5.7573695,10.738589,2.5844936,-99.55945,41.215576,-3.0209558,-4.0982914,9.720592,14.378044,-2.162281,104.798004,55.09854,-25.041262,-5.372957,-10.011883
169,0.7033736109733582,54.3570442199707,77.6307601928711,1.3225804638597967,5.9619762082663845,87.84588818473131,-0.75773937,-5.5318465,8.870297,7.0571365,-12.963563,1.4277905,-30.049082,-13.64995,-10.180774,59.582912,-12.654724,3.1043568,-2.7740922,-2.152277,5.7528014,10.744783,2.5766487,-99.54349,41.20006,-2.9965112,-4.0995555,9.663708,14.405044,-2.1726255,104.73486,55.004272,-24.827188,-5.446395,-9.910587
170,0.6859606504440308,55.00424575805664,77.58165740966797,1.1678230055106822,5.955724225815539,87.89263461652446,-0.18320149,-5.3910236,8.777059,7.0817785,-13.457495,1.3592663,-30.592949,-13.098581,-10.469509,57.2131,-12.114231,3.3645465,-2.8647106,-2.0054736,5.7640653,10.734655,2.570607,-99.55163,41.18015,-2.9611664,-4.061849,9.594322,14.418174,-2.1848798,104.67598,54.90348,-24.580326,-5.52652,-9.831365
171,0.6706213355064392,55.65239715576172,77.5264663696289,1.0304344585526144,5.946898848711766,87.94402929123353,0.39623162,-5.2701015,8.683275,7.109263,-13.958079,1.2751818,-31.056145,-12.5556555,-10.768336,54.70191,-11.488198,3.6287503,-2.948382,-1.8746213,5.777748,10.719548,2.5678208,-99.57299,41.156616,-2.9229996,-4.005548,9.525924,14.428267,-2.1943197,104.63771,54.806553,-24.322363,-5.602897,-9.77555
172,0.6740841865539551,56.303070068359375,77.45941162109375,0.9238516590534015,5.935599151427902,87.99496487968116,0.9876775,-5.187326,8.59464,7.129427,-14.454553,1.1972808,-31.433912,-12.025415,-11.071259,52.05387,-10.76165,3.8889937,-3.0033016,-1.7668335,5.786054,10.702978,2.5659387,-99.615555,41.13538,-2.8903744,-3.951569,9.467256,14.441804,-2.2103522,104.59295,54.710205,-24.09347,-5.6685843,-9.735437
173,0.6636509895324707,56.95843505859375,77.37875366210938,0.8518680585925589,5.924623887674363,88.04141822011907,1.592055,-5.1466656,8.511773,7.132584,-14.94241,1.123255,-31.7364,-11.52075,-11.363654,49.267365,-9.94454,4.1198177,-3.0521884,-1.6938779,5.7836776,10.689425,2.5661173,-99.63993,41.113445,-2.856861,-3.88582,9.413397,14.461069,-2.2164762,104.58158,54.630154,-23.87675,-5.7230906,-9.725762
174,0.6578097343444824,57.61153793334961,77.28955841064453,0.8064526739830965,5.913049381606776,88.08874063025823,2.1931202,-5.13622,8.430715,7.1524625,-15.441113,1.0427762,-31.961588,-11.042353,-11.647268,46.333485,-9.040267,4.3295,-3.0705967,-1.6393607,5.774894,10.671988,2.5688372,-99.703545,41.08848,-2.834488,-3.80507,9.37274,14.484423,-2.2332091,104.56805,54.54475,-23.66598,-5.769769,-9.745262
175,0.6559358239173889,58.295570373535156,77.18488311767578,0.7894764848626898,5.894806146790663,88.1454936493047,2.8142393,-5.1571484,8.346434,7.1581516,-15.932673,0.9663922,-32.090206,-10.577564,-11.937959,43.248306,-8.017799,4.559298,-3.0808837,-1.6083872,5.764822,10.656801,2.5782657,-99.77521,41.06274,-2.8083775,-3.740933,9.337449,14.504667,-2.263014,104.560074,54.449238,-23.48704,-5.805014,-9.765691
176,0.6550426483154297,58.9813346862793,77.06763458251953,0.8024312277436705,5.86264532617889,88.22168978950552,3.4584532,-5.211196,8.254596,7.163468,-16.418108,0.90597767,-32.101517,-10.116609,-12.24956,40.003326,-6.844339,4.850763,-3.114422,-1.6042242,5.761665,10.651445,2.589375,-99.82009,41.045414,-2.7600813,-3.7272344,9.299124,14.517541,-2.2839346,104.57598,54.379284,-23.359306,-5.832,-9.762297
177,0.6466366648674011,59.663124084472656,76.93922424316406,0.8481215215968888,5.807189789277722,88.31818395985059,4.1362314,-5.300673,8.15453,7.170808,-16.905685,0.8690756,-31.976173,-9.68212,-12.594063,36.56244,-5.4755907,5.1957536,-3.158855,-1.6268244,5.776668,10.654184,2.5983825,-99.85281,41.04441,-2.6871588,-3.7961805,9.262941,14.522506,-2.2939136,104.60553,54.33765,-23.304632,-5.8504453,-9.730017
178,0.6568137407302856,60.34465408325195,76.80180358886719,0.9272839484284996,5.731945048757871,88.43461016308432,4.843895,-5.428934,8.043279,7.176827,-17.392965,0.849496,-31.721638,-9.278358,-12.953751,32.919346,-3.93228,5.5765214,-3.2129617,-1.6798241,5.800362,10.665706,2.6210065,-99.8877,41.03876,-2.6026368,-3.9214454,9.237682,14.523751,-2.3086314,104.65978,54.300957,-23.29744,-5.856094,-9.687337
179,0.6416142582893372,61.0433235168457,76.64349365234375,1.0439246958857908,5.647383373500208,88.58017978236799,5.568327,-5.597714,7.910536,7.1819367,-17.86871,0.8393375,-31.35169,-8.874334,-13.29713,29.098465,-2.2766778,6.016271,-3.2869086,-1.7618207,5.8264413,10.682571,2.637482,-99.91306,41.048397,-2.5082104,-4.051555,9.205208,14.521885,-2.3142328,104.70667,54.28347,-23.3259,-5.85458,-9.624316
180,0.646112322807312,61.76164627075195,76.47306060791016,1.2009219578483339,5.562564326107471,88.76765199086054,6.298708,-5.8124194,7.7426953,7.185866,-18.321045,0.83112574,-30.877993,-8.45561,-13.590755,25.12215,-0.5740015,6.533477,-3.404327,-1.8793956,5.837216,10.708781,2.6643827,-99.92968,41.04894,-2.418675,-4.132767,9.166051,14.523125,-2.3177264,104.75651,54.273083,-23.352438,-5.8413453,-9.546889
181,0.6293355822563171,62.49699401855469,76.28521728515625,1.4199059958984754,5.478873993072157,89.00998874516026,7.0320077,-6.0977507,7.5283127,7.1858215,-18.744574,0.8311379,-30.299133,-8.072486,-13.84341,20.955229,1.2014806,7.046871,-3.571661,-2.0487857,5.8325706,10.740908,2.6873205,-99.94349,41.060966,-2.351995,-4.1399975,9.096305,14.527084,-2.3165054,104.78946,54.271248,-23.380945,-5.8138313,-9.438527
182,0.6210563778877258,63.23090744018555,76.08570098876953,1.7150870618488074,5.374458910104021,89.32242790973521,7.7928777,-6.4688063,7.249577,7.184037,-19.146818,0.8455928,-29.577286,-7.780345,-14.064492,16.5642,3.0720484,7.5663176,-3.8065279,-2.2856185,5.8298597,10.781568,2.7143338,-99.95421,41.0704,-2.2982082,-4.1017847,9.009819,14.53485,-2.310089,104.82258,54.28039,-23.418325,-5.771005,-9.307093
183,0.63587886095047,63.95855712890625,75.86988067626953,2.091317973765518,5.218132535744664,89.72602630764163,8.617761,-6.9217496,6.877402,7.1800976,-19.528177,0.8679182,-28.653063,-7.5855513,-14.225722,11.950879,4.9840703,8.243401,-4.12636,-2.5992756,5.857602,10.83501,2.7467709,-99.95304,41.08264,-2.2187207,-4.056662,8.940083,14.545135,-2.2961166,104.848465,54.29664,-23.473696,-5.7247553,-9.171475
184,0.6407076120376587,64.70525360107422,75.63160705566406,2.544093857826489,4.985250993690895,90.2322289733016,9.536805,-7.441996,6.3905196,7.1746974,-19.89083,0.89021736,-27.310986,-7.4367456,-14.324258,6.763112,7.0630083,9.226429,-4.537766,-2.9915662,5.9373875,10.906072,2.78331,-99.934326,41.106857,-2.0757215,-4.043661,8.921978,14.557147,-2.2742796,104.8592,54.31611,-23.554995,-5.686176,-9.051068
185,0.6688969135284424,65.4832992553711,75.37425994873047,3.07746766252098,4.667863077377069,90.85755241312185,10.558832,-8.032744,5.7696033,7.1708,-20.242414,0.91141933,-28.03073,-7.9512258,-14.036406,6.3497696,6.4498,10.684646,-5.0566893,-3.4686408,6.0658813,11.007381,2.830457,-99.88839,41.143566,-1.8352315,-4.090054,8.973626,14.577609,-2.240396,104.85176,54.340027,-23.66103,-5.657447,-8.937302
186,0.6568651795387268,66.27861022949219,75.09930419921875,3.6622617258076646,4.297959756983015,91.56428152190652,11.649323,-8.659926,5.04949,7.1658783,-20.578024,0.929668,-28.781996,-8.589063,-13.646302,6.201407,5.517903,12.447174,-5.647334,-3.9995625,6.213013,11.129875,2.8946078,-99.820465,41.179085,-1.5245943,-4.169212,9.072518,14.605346,-2.1891606,104.82918,54.379604,-23.787886,-5.6344223,-8.824354
187,0.6694793701171875,67.07742309570312,74.83484649658203,4.179805123206609,3.9348572066472953,92.24234210117622,12.738113,-9.178888,4.339566,7.167268,-20.88934,0.92008835,-29.460602,-9.195786,-13.173083,6.0524273,4.4317613,14.187447,-6.200191,-4.466631,6.3484507,11.252098,2.9344,-99.76187,41.24216,-1.2095811,-4.2415633,9.199229,14.621124,-2.1551337,104.79378,54.404716,-23.936283,-5.614821,-8.737673
188,0.7097045183181763,67.84567260742188,74.58868408203125,4.581846425171007,3.608730851130168,92.78116454610193,13.786652,-9.523928,3.753683,7.189024,-21.18002,0.8601444,-30.089611,-9.627241,-12.634078,5.9469876,3.2382376,15.000033,-6.6299496,-4.8313217,6.4763746,11.33947,3.0023959,-99.68144,41.244495,-0.92217183,-4.254966,9.310832,14.617596,-2.0931115,104.76156,54.47995,-24.114342,-5.6084123,-8.696044
189,0.7712212204933167,68.63684844970703,74.3510971069336,4.839776109901086,3.3321344257380825,93.1770644221178,14.791609,-9.668088,3.3153489,7.2326903,-21.471434,0.75155836,-30.725266,-9.780876,-11.861312,5.938841,1.759492,15.000033,-6.913602,-5.0578284,6.593225,11.389852,3.0664947,-99.61974,41.22761,-0.6955977,-4.196987,9.421933,14.587725,-2.0307121,104.714554,54.56529,-24.328867,-5.6153593,-8.717968
190,0.837316632270813,69.44619750976562,74.12437438964844,5.058850930772933,3.0559617287899554,93.54599019848517,15.803129,-9.753465,2.9031286,7.281026,-21.740637,0.63007087,-31.291782,-9.83907,-10.872482,5.979248,0.07102433,15.000033,-7.16799,-5.2364073,6.7245674,11.414162,3.1416857,-99.5571,41.167194,-0.49096668,-4.0854473,9.537562,14.545162,-1.9521623,104.65278,54.69094,-24.580008,-5.637864,-8.788786
191,0.8959077596664429,70.26609802246094,73.91315460205078,5.211172151478786,2.8195793832065275,93.85566027781766,16.76478,-9.760202,2.5425692,7.331243,-21.954638,0.47726494,-31.732725,-9.809336,-9.983076,6.0253153,-1.4095935,15.000033,-7.358209,-5.3561687,6.83456,11.427153,3.1894011,-99.51286,41.14603,-0.31779045,-3.9597971,9.659466,14.47756,-1.8987887,104.605995,54.77665,-24.831303,-5.6454577,-8.887898
192,0.9513826370239258,71.06745910644531,73.7138442993164,5.287305021271938,2.6669604768081623,94.06807442704469,17.62288,-9.68289,2.2633772,7.3809786,-22.082771,0.27037814,-32.005318,-9.729472,-9.4989605,6.043821,-2.267224,15.000033,-7.456795,-5.385105,6.8993483,11.406031,3.2595398,-99.45847,41.082726,-0.1515601,-3.8346648,9.757124,14.389475,-1.8143684,104.5865,54.923157,-25.064722,-5.643257,-8.992651
193,0.9944633841514587,71.84928894042969,73.52801513671875,5.319086014672083,2.6185502726573824,94.1743691075852,18.351059,-9.559397,2.0678334,7.4380183,-22.132689,0.003680633,-32.079258,-9.643118,-9.554329,6.033673,-2.4033227,15.000033,-7.4512544,-5.380683,6.893777,11.363252,3.328956,-99.423874,41.0411,-0.0050093955,-3.6996982,9.862235,14.268037,-1.7235833,104.62461,55.05691,-25.26974,-5.600842,-9.130218
194,1.0468683242797852,72.64342498779297,73.35244750976562,5.311103703982476,2.651369408205702,94.19186612252756,18.980795,-9.3963,1.9479871,7.499054,-22.114965,-0.31323227,-31.984938,-9.534108,-9.98465,6.00151,-2.0127082,15.000033,-7.3580422,-5.3404,6.83757,11.298985,3.3811588,-99.40294,41.023502,0.12163953,-3.5479357,9.970548,14.113047,-1.6475908,104.695694,55.16645,-25.465494,-5.5318794,-9.2983265
195,1.1301782131195068,73.44318389892578,73.2208251953125,5.216869877129062,2.753711227109134,94.12699026059467,19.528805,-9.142952,1.9160893,7.559426,-22.013803,-0.67384356,-31.789906,-9.364574,-10.638742,5.9503345,-1.1473526,15.000033,-7.17502,-5.203368,6.733521,11.226383,3.403997,-99.386955,41.042095,0.22233318,-3.4323819,10.049828,13.941314,-1.6096535,104.76728,55.240807,-25.642027,-5.456163,-9.441995
196,1.2275986671447754,74.1768798828125,73.15621185302734,4.992027474997574,2.9116784701123968,93.99363063446637,20.01519,-8.750586,1.9779139,7.618,-21.816006,-1.0728943,-31.57139,-9.095085,-11.345905,5.9036274,0.11400213,15.000033,-6.964271,-4.9283533,6.58729,11.1526985,3.4397252,-99.30395,41.0454,0.29874176,-3.3999739,10.07317,13.771276,-1.5379119,104.91704,55.379787,-25.737192,-5.3949146,-9.528296
197,1.3038548231124878,74.94329071044922,73.1190185546875,4.568340780033767,3.1571955261646796,93.75961011771417,20.412214,-8.150756,2.1871037,7.6716084,-21.545603,-1.5299972,-31.328262,-8.696473,-12.177069,5.8699107,1.9588726,15.000033,-6.6298556,-4.4389706,6.3796673,11.080636,3.4589748,-99.18343,41.09102,0.3226384,-3.4984078,10.003758,13.602426,-1.4852368,105.05775,55.5011,-25.774725,-5.3496995,-9.518072
198,1.34587562084198,75.74856567382812,73.09339141845703,3.905515761977106,3.5346428172460627,93.37424802744594,20.68333,-7.301139,2.6019392,7.740342,-21.230635,-2.0709991,-31.109682,-8.064277,-13.091831,5.9141326,4.2719855,15.000033,-6.177585,-3.7000422,6.075164,11.005433,3.4666593,-98.97736,41.152485,0.3188569,-3.6880803,9.857744,13.420126,-1.4310755,105.26722,55.65793,-25.741179,-5.317485,-9.454121
199,1.4144593477249146,76.57095336914062,73.07845306396484,3.064060837631973,3.87874218664701,92.86012808107016,20.908344,-6.247736,3.1796386,8.049061,-20.954325,-2.6946528,-30.85611,-7.0394125,-14.00824,5.9950447,6.603249,13.323301,-5.6231356,-2.808987,5.7979064,10.940564,3.458562,-98.78122,41.2255,0.31282097,-3.9058247,9.703887,13.245768,-1.3887072,105.492195,55.813885,-25.680933,-5.2876024,-9.351272
200,1.5268642902374268,77.42350769042969,73.06453704833984,2.1870845514446406,4.137834257087894,92.34859965207151,20.176775,-5.076673,3.835519,10.612847,-21.709127,-3.3429465,-30.572783,-5.8357544,-14.713778,6.062812,8.571262,11.113278,-5.124971,-1.8970903,5.5611877,10.890785,3.4328291,-98.62584,41.288567,0.34881616,-4.0853534,9.600764,13.0881195,-1.3529848,105.74401,55.99093,-25.616161,-5.2568226,-9.237973
201,1.623054027557373,78.29073333740234,73.04586791992188,1.3751081690734186,4.302173942843252,91.9669777762242,19.709976,-3.9634693,4.2745485,12.84463,-22.136738,-3.9620483,-30.277029,-4.6726,-14.889591,6.153758,10.197663,9.719485,-4.792321,-1.022785,5.3584085,10.857123,3.380759,-98.53941,41.327457,0.43877164,-4.2139525,9.570703,12.954805,-1.3305768,105.98593,56.20796,-25.509737,-5.257079,-9.095284
202,1.6927682161331177,79.15345001220703,73.03527069091797,0.5231386778266046,4.414796001536603,91.64542450976714,19.328455,-2.787713,4.6072917,15.033471,-22.407913,-4.588078,-29.938818,-3.4462836,-14.736163,6.2289743,11.704873,8.747167,-4.5456476,-0.0851249,5.1727505,10.836006,3.284251,-98.50023,41.375355,0.55803156,-4.3261337,9.580304,12.836311,-1.3306973,106.22491,56.44662,-25.364567,-5.2797036,-8.917502
203,1.7880572080612183,80.03593444824219,73.04133605957031,-0.30971380104336105,4.481357970076237,91.37178630720662,18.98602,-1.6283121,4.852429,17.218002,-22.463058,-5.2052035,-30.266207,-2.4482198,-14.450928,7.9058676,12.109569,7.9082727,-4.3619885,0.8397928,5.0067096,10.808992,3.167376,-98.52292,41.43043,0.6832864,-4.4242673,9.60985,12.722118,-1.3574172,106.46598,56.66284,-25.278906,-5.262317,-8.746895
204,1.8837604522705078,80.92283630371094,73.07351684570312,-1.0840475729850618,4.507006421730322,91.12847565146106,18.629404,-0.54312813,5.035543,19.4541,-22.251629,-5.800069,-31.099113,-1.71065,-14.317437,10.89894,11.415096,6.895506,-4.227548,1.6893069,4.865192,10.761301,3.0315988,-98.604195,41.514053,0.79389584,-4.512043,9.637048,12.601274,-1.4043716,106.73731,56.827957,-25.345753,-5.1438413,-8.628095
205,1.9509806632995605,81.81346130371094,73.12122344970703,-1.7915281704874144,4.474725834407054,90.90701616548117,18.274153,0.45827094,5.16039,21.752144,-21.725931,-6.3319554,-31.683517,-1.0480771,-14.40864,13.626761,10.334892,5.5962563,-4.135895,2.45417,4.7655005,10.683173,2.887303,-98.7553,41.625843,0.885248,-4.598109,9.64467,12.467389,-1.462332,107.064766,56.960106,-25.6274,-4.887408,-8.572646
206,2.0422427654266357,82.712646484375,73.18832397460938,-2.437427293117959,4.387191839897046,90.71726489891485,17.936115,1.3870592,5.211203,24.07735,-20.91847,-6.8107586,-32.081253,-0.44403672,-14.551766,16.174646,8.92303,4.200883,-4.0981507,3.1477542,4.7030716,10.583828,2.737418,-98.96796,41.750168,0.96937776,-4.677774,9.647152,12.329358,-1.5264579,107.43296,57.075733,-26.059998,-4.5334373,-8.555317
207,2.1377482414245605,83.61051940917969,73.27558135986328,-3.0026463615540657,4.281549877062348,90.56470129708617,17.562244,2.2205513,5.1867595,26.418509,-19.901844,-7.2976646,-32.28976,0.09298943,-14.694719,18.418255,7.420816,2.8393455,-4.108947,3.7476132,4.6472874,10.47385,2.5880473,-99.22542,41.870064,1.0491306,-4.7340546,9.671677,12.202247,-1.5929348,107.78908,57.14842,-26.550392,-4.137267,-8.564673
208,2.2274866104125977,84.5031967163086,73.38394165039062,-3.476430411194188,4.19807385125655,90.44913717018828,17.085485,2.9405968,5.0891585,28.791634,-18.757767,-7.8544636,-32.296955,0.56835914,-14.807345,20.201248,6.0953493,1.6344031,-4.156601,4.236622,4.5642004,10.363414,2.4479275,-99.511795,41.96529,1.1265234,-4.749858,9.745395,12.09945,-1.659132,108.08164,57.15198,-27.005507,-3.754471,-8.591575
209,2.333070755004883,85.40434265136719,73.51234436035156,-3.837463005756648,4.156311149306091,90.35861870196469,16.473095,3.5224233,4.906903,31.225222,-17.4829,-8.507474,-32.10386,0.98708695,-14.88923,21.483679,4.979235,0.5942723,-4.233542,4.587992,4.426896,10.249935,2.3266408,-99.83658,42.023125,1.2175214,-4.7202764,9.886526,12.017161,-1.7214707,108.31697,57.074997,-27.44868,-3.3623066,-8.638992
210,2.408022165298462,86.27554321289062,73.66851043701172,-4.1064998075962516,4.139136125980209,90.28180505064367,15.73731,3.988042,4.6526213,33.748116,-16.06371,-9.2127285,-31.740423,1.3700062,-14.950742,22.378273,3.940277,-0.335341,-4.330765,4.825125,4.252837,10.128381,2.2296612,-100.205376,42.0435,1.3153934,-4.653883,10.076567,11.951585,-1.7777271,108.51473,56.940002,-27.912579,-2.943726,-8.709544
211,2.5032801628112793,87.1357650756836,73.84027099609375,-4.326991804895221,4.131526908084112,90.21982252865503,14.882838,4.391072,4.3648157,36.37045,-14.56626,-9.926595,-31.23029,1.7426553,-14.994966,22.943964,2.999169,-1.1327164,-4.445302,5.0033164,4.0756474,10.0025625,2.1835244,-100.57849,42.00027,1.3945891,-4.5521603,10.284286,11.915805,-1.8112168,108.65737,56.780903,-28.314283,-2.5636652,-8.797477
212,2.586005449295044,87.99079132080078,74.02595520019531,-4.5458746086593,4.118472649432511,90.1755765969634,13.917606,4.789099,4.0816007,39.096375,-13.051676,-10.604294,-30.59313,2.1264439,-15.027166,23.235004,2.178366,-1.7765279,-4.5642414,5.182303,3.9275494,9.882417,2.1559322,-100.94096,41.92938,1.4194511,-4.4202347,10.484372,11.919063,-1.8392363,108.70712,56.597927,-28.577374,-2.2849348,-8.897885
213,2.667384147644043,88.83645629882812,74.223876953125,-4.772189474553714,4.094956993647435,90.14640409558712,12.836563,5.1958466,3.7963495,41.970566,-11.5072,-11.2757225,-29.802256,2.5378656,-15.051988,23.20549,1.498104,-2.24297,-4.688295,5.3719935,3.815665,9.770417,2.1391418,-101.30725,41.83544,1.3790184,-4.2278643,10.682297,11.962783,-1.8675239,108.64843,56.371967,-28.683464,-2.1275322,-9.025162
214,2.746886730194092,89.65511322021484,74.43677520751953,-4.985059198624081,4.070843348345774,90.12837487268189,11.629194,5.5887184,3.4967797,44.993908,-9.91532,-11.934097,-28.857254,2.963542,-15.068537,22.845392,0.94477016,-2.5489278,-4.793563,5.548233,3.7179937,9.660539,2.1309285,-101.71877,41.72239,1.2796321,-3.984803,10.895071,12.042786,-1.9043391,108.46856,56.089794,-28.68204,-2.0557,-9.176929
215,2.818488359451294,90.46151733398438,74.65298461914062,-5.17585336639234,4.051736850338936,90.1263314402276,10.302437,5.9721355,3.2149866,48.091457,-8.322834,-12.482503,-27.821062,3.3745732,-15.075209,22.27265,0.48485777,-2.7352085,-4.9248557,5.7001433,3.6379156,9.55696,2.1335347,-102.06915,41.593662,1.1511486,-3.7534056,11.092002,12.148397,-1.9358902,108.25315,55.794716,-28.568846,-2.051349,-9.328832
216,2.876664876937866,91.24961853027344,74.87788391113281,-5.339395689973889,4.044075698255562,90.14567213365233,8.864901,6.353599,2.9873428,51.18422,-6.775968,-12.830932,-26.753859,3.745735,-15.073506,21.594057,0.085641414,-2.8459914,-4.9834847,5.850332,3.556534,9.447051,2.148761,-102.46279,41.45392,0.9663431,-3.5978434,11.280912,12.289156,-1.9841655,107.90846,55.4881,-28.382969,-2.0949993,-9.448586
217,2.9300661087036133,92.0194320678711,75.1092300415039,-5.469054399846036,4.057139153356347,90.19627794021166,7.2578125,6.711816,2.7879994,54.34454,-5.123226,-12.980165,-25.665318,4.0641384,-15.074157,20.802317,-0.24290104,-2.875394,-5.031462,5.9854064,3.4808617,9.326951,2.1842425,-102.82793,41.28976,0.7460046,-3.5303166,11.471109,12.453709,-2.0562742,107.48171,55.15943,-28.09389,-2.209569,-9.541222
218,2.980288028717041,92.77875518798828,75.33992004394531,-5.569436257225216,4.085344063866249,90.27307272366156,5.4973817,7.0635414,2.6231449,57.583504,-3.3924153,-12.957637,-24.524035,4.3466334,-15.079741,19.844215,-0.48573735,-2.8116872,-5.096234,6.0995975,3.415442,9.204657,2.239258,-103.14024,41.100334,0.4957364,-3.5184414,11.657154,12.641491,-2.1449761,107.0075,54.80665,-27.691736,-2.395265,-9.61978
219,3.0138843059539795,93.53192901611328,75.56106567382812,-5.650762145456742,4.112177017260266,90.35885949747028,3.7093287,7.4788656,2.5782788,60.72292,-1.9030293,-12.718189,-23.33813,4.611126,-15.078421,18.777979,-0.6732708,-2.6921184,-5.147576,6.1970162,3.3574793,9.096114,2.3039339,-103.39071,40.909733,0.21589285,-3.5574348,11.787449,12.855707,-2.234529,106.51045,54.45763,-27.215868,-2.5989795,-9.667068
220,3.0485501289367676,94.26773834228516,75.77066040039062,-5.7226921975417415,4.12106354062953,90.43612227140152,2.017362,8.031213,2.7312076,63.5942,-0.9817078,-12.222532,-22.11464,4.8766413,-15.056822,17.661285,-0.8355662,-2.5531394,-5.154434,6.283275,3.3032403,9.016459,2.3773472,-103.57099,40.73206,-0.09361411,-3.6416152,11.810448,13.096046,-2.322623,106.01655,54.124897,-26.705881,-2.7661598,-9.666162
221,3.081359624862671,95.00373840332031,75.96788787841797,-5.790422210965071,4.1105930105752195,90.51112843205836,0.46318942,8.772228,3.131487,66.16917,-0.7819023,-11.45071,-20.844837,5.1448603,-15.020593,16.485647,-0.97602856,-2.3855035,-5.116356,6.3609147,3.245956,8.973537,2.4591708,-103.6688,40.57182,-0.4367386,-3.7825031,11.706246,13.379705,-2.407557,105.510956,53.805405,-26.113325,-2.8775718,-9.597568
222,3.1187474727630615,95.7411117553711,76.15608215332031,-5.84224812013875,4.088062754717392,90.58860737994047,-1.0138388,9.654415,3.7178185,68.53969,-1.1243384,-10.437659,-19.52962,5.402995,-14.972861,15.2292,-1.0826244,-2.1826315,-5.041619,6.4231687,3.1887374,8.957836,2.5489008,-103.698524,40.4232,-0.8143014,-3.9775648,11.5044155,13.702122,-2.4886358,104.980095,53.495956,-25.437922,-2.9626756,-9.475066
223,3.142958879470825,96.46944427490234,76.33409881591797,-5.872783459583761,4.050692287544436,90.64906873602555,-2.4445941,10.5913925,4.395522,70.71454,-1.8369509,-9.241324,-18.19623,5.646315,-14.896169,13.944421,-1.1685959,-1.9792457,-4.924017,6.4615364,3.144229,8.959501,2.6450026,-103.675934,40.283833,-1.2177879,-4.199018,11.225628,14.028508,-2.5642393,104.47249,53.213573,-24.786434,-3.039993,-9.333914
224,3.1691088676452637,97.19454193115234,76.51206970214844,-5.876755592803419,3.9957389144306514,90.67331186721246,-3.8647134,11.495452,5.076226,72.69861,-2.740237,-7.9179115,-16.869913,5.871284,-14.773241,12.681937,-1.2420486,-1.803429,-4.7594457,6.470143,3.1252053,8.969412,2.74469,-103.61484,40.15189,-1.6376998,-4.4194674,10.890762,14.32551,-2.6325486,104.03809,52.97821,-24.264849,-3.129215,-9.209731
225,3.2038087844848633,97.90735626220703,76.67127227783203,-5.851851343499106,3.9156991809068473,90.64999815840298,-5.28056,12.356365,5.7729154,74.5065,-3.9238513,-6.376985,-15.539241,6.0803456,-14.590171,11.432604,-1.2946907,-1.6459366,-4.5355225,6.448664,3.139503,8.985649,2.84492,-103.508224,40.02583,-2.0970652,-4.6507273,10.473321,14.597879,-2.6926515,103.68444,52.805626,-23.924524,-3.2431014,-9.120991
226,3.228024482727051,98.61988067626953,76.81539916992188,-5.800007585723161,3.8157583834933444,90.59183508977303,-6.6756716,13.180106,6.503932,76.132355,-5.441615,-4.6617274,-14.201416,6.26741,-14.359702,10.18811,-1.326264,-1.4887619,-4.2604456,6.4006577,3.177817,9.01378,2.943777,-103.350296,39.910427,-2.593574,-4.89922,9.971939,14.859214,-2.7437563,103.38986,52.68395,-23.70015,-3.369233,-9.046357
227,3.2495784759521484,99.31645202636719,76.953125,-5.726421514181906,3.7116183612626767,90.51507233635674,-8.057456,13.921807,7.208412,77.55067,-7.050071,-3.0108898,-12.871919,6.4277287,-14.103044,8.952316,-1.3409417,-1.3455937,-3.9632018,6.329265,3.2300165,9.061881,3.00183,-103.15752,39.855404,-3.080465,-5.132676,9.446794,15.09177,-2.7686374,103.167336,52.617554,-23.519415,-3.4912276,-8.964284
228,3.251384973526001,100.02462768554688,77.08123016357422,-5.637242109729655,3.6178508750555656,90.43575101884068,-9.433313,14.559838,7.8435464,78.73524,-8.499288,-1.643001,-11.564203,6.561014,-13.841741,7.726632,-1.342515,-1.2341485,-3.6578953,6.241566,3.2829084,9.121767,3.0622692,-102.95331,39.820404,-3.5061314,-5.3161993,8.957817,15.273632,-2.788564,103.00266,52.563004,-23.321121,-3.5914016,-8.846621
229,3.273772716522217,100.71446990966797,77.1973876953125,-5.5295226610104224,3.5386717802708194,90.3445008202867,-10.799492,15.1313,8.465584,79.675804,-9.731289,-0.6112269,-10.448349,6.6273274,-13.582093,6.8622265,-1.512911,-1.1765273,-3.3455715,6.134117,3.33035,9.194578,3.1645114,-102.71525,39.763023,-3.877995,-5.427302,8.499089,15.396978,-2.8118546,102.91798,52.51076,-23.064735,-3.6637921,-8.676141
230,3.2957592010498047,101.40618896484375,77.29681396484375,-5.4090378495190725,3.4661941622278065,90.23757791318549,-12.157506,15.645213,9.0879345,80.38914,-10.866639,0.20139082,-9.728328,6.5820084,-13.34557,6.8178945,-2.0906312,-1.1529715,-3.0099766,6.014949,3.381166,9.286592,3.2416587,-102.45773,39.750435,-4.2215896,-5.492048,8.050149,15.476412,-2.8199968,102.90025,52.490265,-22.79375,-3.7182357,-8.471063
231,3.3023006916046143,102.0700912475586,77.39155578613281,-5.285834462598248,3.3956147056146593,90.13934824246024,-13.523801,16.04567,9.616988,80.88405,-11.914749,0.84590614,-9.013874,6.5259895,-13.124057,6.7731934,-2.6599448,-1.1306303,-2.6812043,5.8900037,3.4439259,9.38926,3.3053586,-102.19368,39.774963,-4.491085,-5.542822,7.640876,15.517048,-2.8177543,102.94067,52.49309,-22.556261,-3.7579916,-8.261014
232,3.318129777908325,102.75711059570312,77.47450256347656,-5.16995394580932,3.3220944792202625,90.07336461148707,-14.919137,16.273752,9.957036,81.1709,-12.884393,1.3733523,-8.295782,6.462922,-12.951291,6.7321963,-3.2380247,-1.0746583,-2.3981857,5.7630816,3.527498,9.4949045,3.3759408,-101.9243,39.819454,-4.637576,-5.612021,7.3000774,15.523054,-2.8037314,103.04574,52.51475,-22.394966,-3.7865005,-8.077517
233,3.352942705154419,103.43184661865234,77.53343963623047,-5.057150088763384,3.2408311904254883,90.05598959648646,-16.369736,16.270506,10.04854,81.24938,-13.798375,1.8079423,-7.566735,6.3859906,-12.848723,6.6942015,-3.8331976,-0.9708612,-2.1642022,5.6254005,3.638381,9.603468,3.4498334,-101.66878,39.90292,-4.634282,-5.719313,7.049556,15.488729,-2.7732882,103.22349,52.55691,-22.355808,-3.7934475,-7.932533
234,3.3710553646087646,104.10277557373047,77.5822525024414,-4.946201917822271,3.154569227170719,90.07133257394081,-17.8601,16.08388,9.960269,81.114105,-14.637499,2.1246936,-6.837477,6.2986436,-12.7961855,6.6707287,-4.4449944,-0.84793353,-1.9679132,5.4778266,3.7719953,9.716242,3.5373793,-101.408844,40.007233,-4.508047,-5.844489,6.868086,15.414851,-2.716099,103.479126,52.634254,-22.401001,-3.781777,-7.8095737
235,3.3909082412719727,104.77876281738281,77.6152114868164,-4.840898956856612,3.0698247437209494,90.09444968566993,-19.3454,15.807981,9.791631,80.7674,-15.356271,2.3015664,-6.1108212,6.2139764,-12.759423,6.648393,-5.058841,-0.733258,-1.775513,5.338395,3.915632,9.827771,3.6206596,-101.16212,40.125317,-4.311725,-5.964278,6.730089,15.320253,-2.6420481,103.74558,52.738262,-22.467434,-3.7758079,-7.691463
236,3.4041876792907715,105.44851684570312,77.62986755371094,-4.748894929339402,2.9934127039823806,90.10226899217794,-20.784283,15.539387,9.638014,80.21292,-15.912178,2.3147426,-5.4003973,6.14383,-12.707484,6.6361117,-5.6640887,-0.64866954,-1.5727398,5.224878,4.0582833,9.932492,3.6966894,-100.92265,40.233097,-4.092619,-6.0537357,6.6065636,15.222141,-2.5587668,103.9799,52.866188,-22.485111,-3.7989285,-7.5635386
237,3.4073610305786133,106.1030502319336,77.62477111816406,-4.695051315489453,2.9296242452578105,90.08337762109672,-22.178284,15.307722,9.496466,79.42554,-16.25591,2.1032028,-4.720713,6.112811,-12.637547,6.651089,-6.264518,-0.59424496,-1.3504623,5.169965,4.1963124,10.032651,3.7644377,-100.68572,40.326946,-3.8523004,-6.0971646,6.4934254,15.117691,-2.4716163,104.16542,53.01952,-22.42752,-3.873406,-7.3947783
238,3.416734457015991,106.7753677368164,77.61384582519531,-4.667364986386078,2.8737883645684246,90.05150703108124,-23.538115,15.05927,9.331703,78.40197,-16.420307,1.7031045,-4.0573893,6.104369,-12.561077,6.6760883,-6.8565946,-0.5560937,-1.1196886,5.1516123,4.335571,10.131621,3.8193185,-100.454704,40.42598,-3.5697186,-6.111201,6.4049797,14.997838,-2.3882296,104.3274,53.183887,-22.335163,-3.9802818,-7.2013197
239,3.418794631958008,107.44478607177734,77.59406280517578,-4.65646724112074,2.815658840904546,90.0239185668982,-24.84206,14.807028,9.15318,77.16806,-16.46815,1.2238004,-3.3919764,6.1159387,-12.486752,6.7021155,-7.4440784,-0.53428084,-0.89534354,5.157095,4.4832664,10.224719,3.8570323,-100.24025,40.53478,-3.2576835,-6.11922,6.339864,14.872135,-2.3181696,104.481766,53.338337,-22.238657,-4.081157,-7.0396457
240,3.4368906021118164,108.14404296875,77.56131744384766,-4.6623818348846084,2.744850126790509,90.01900156092984,-26.070812,14.567203,8.96445,75.75407,-16.464125,0.7717217,-2.7094991,6.1485033,-12.425691,6.7275343,-8.034615,-0.5280815,-0.69530493,5.1781826,4.6476865,10.306856,3.8821833,-100.04878,40.648033,-2.927285,-6.1439204,6.2960205,14.751994,-2.2582204,104.64832,53.47734,-22.166794,-4.13914,-6.9673285
241,3.4253339767456055,108.80233001708984,77.52002716064453,-4.686073863891437,2.656534574312896,90.05053038753161,-27.226265,14.31991,8.744589,74.149956,-16.42364,0.33830944,-2.005167,6.201762,-12.384863,6.753719,-8.631886,-0.5360183,-0.5353403,5.2136993,4.837744,10.376468,3.9009995,-99.87406,40.76312,-2.5478325,-6.2011266,6.2909713,14.6353855,-2.195848,104.849495,53.61094,-22.129967,-4.135084,-7.0248327
242,3.424288749694824,109.49176788330078,77.46550750732422,-4.726874896708842,2.557175159752525,90.10540968237031,-28.311594,14.059849,8.500127,72.342445,-16.31313,-0.12169981,-1.2861032,6.270871,-12.354756,6.780019,-9.230256,-0.5518613,-0.40699258,5.2636485,5.0476103,10.436135,3.9163394,-99.70695,40.876526,-2.1215672,-6.274523,6.318704,14.520963,-2.1144621,105.07906,53.76295,-22.107862,-4.093161,-7.1747394
