unveil-humanoid-operators/unveil-humanoid-operators.github.io/feature-analysis-animation/data/feature_matrix_instances/gender_ankle_rom_walking_A246_crouch_ff_start_180_R_002__A246.csv
Frame,root_translateX,root_translateY,root_translateZ,root_rotateX,root_rotateY,root_rotateZ,left_hip_pitch_joint_dof,left_hip_roll_joint_dof,left_hip_yaw_joint_dof,left_knee_joint_dof,left_ankle_pitch_joint_dof,left_ankle_roll_joint_dof,right_hip_pitch_joint_dof,right_hip_roll_joint_dof,right_hip_yaw_joint_dof,right_knee_joint_dof,right_ankle_pitch_joint_dof,right_ankle_roll_joint_dof,waist_yaw_joint_dof,waist_roll_joint_dof,waist_pitch_joint_dof,left_shoulder_pitch_joint_dof,left_shoulder_roll_joint_dof,left_shoulder_yaw_joint_dof,left_elbow_joint_dof,left_wrist_roll_joint_dof,left_wrist_pitch_joint_dof,left_wrist_yaw_joint_dof,right_shoulder_pitch_joint_dof,right_shoulder_roll_joint_dof,right_shoulder_yaw_joint_dof,right_elbow_joint_dof,right_wrist_roll_joint_dof,right_wrist_pitch_joint_dof,right_wrist_yaw_joint_dof
0,-0.22282998263835907,0.1782185584306717,58.00174331665039,-2.1629794426748776,24.72468598331404,82.65622977359219,-83.78331,10.4236,-7.8168874,88.635216,-31.234903,-10.6571045,-83.805626,-1.443908,4.530474,85.354256,-26.34565,8.421607,2.0476582,0.15344737,29.793802,-53.95875,27.42469,-20.174301,-21.301615,-1.2996849,-8.969687,17.667664,-58.129776,-22.13345,17.000648,-28.47555,9.165529,-4.9507713,-6.171605
1,-0.2171645164489746,0.17869490385055542,57.991851806640625,-2.151408513176462,24.726043650125877,82.67873901881158,-83.79795,10.407562,-7.8089924,88.65231,-31.237062,-10.65875,-83.824554,-1.4625566,4.5398464,85.394554,-26.369534,8.418658,2.0425987,0.1559952,29.793802,-53.979355,27.409328,-20.147758,-21.286264,-1.3731436,-8.973078,17.71336,-58.128757,-22.107138,17.005844,-28.51011,9.233635,-4.966739,-6.178136
2,-0.21700549125671387,0.17642778158187866,57.98149871826172,-2.1411933617343224,24.727314753911205,82.70216622519891,-83.81302,10.39082,-7.801676,88.66966,-31.238674,-10.660076,-83.84346,-1.4821732,4.5485654,85.435356,-26.393145,8.415477,2.0429888,0.16289313,29.793802,-54.000546,27.40142,-20.13081,-21.277117,-1.4550418,-8.976702,17.772058,-58.119183,-22.096668,17.007822,-28.553516,9.310729,-4.98354,-6.1831813
3,-0.2204553633928299,0.17515242099761963,57.97126388549805,-2.1295327395258212,24.728551848273995,82.72355917566743,-83.827286,10.375387,-7.793878,88.68694,-31.241434,-10.662151,-83.862206,-1.5009581,4.5582023,85.47499,-26.417252,8.412654,2.0346794,0.16854483,29.793802,-54.023113,27.369667,-20.090225,-21.2528,-1.5193275,-8.980264,17.801096,-58.127613,-22.059895,17.018253,-28.57581,9.368765,-4.9985933,-6.192948
4,-0.21769744157791138,0.1765250861644745,57.961456298828125,-2.123166222178094,24.735076624913535,82.7380568153123,-83.84776,10.364431,-7.791526,88.70481,-31.245872,-10.666398,-83.884796,-1.5145249,4.561777,85.50863,-26.439516,8.407872,2.0331783,0.17025554,29.793802,-54.041462,27.332071,-20.056322,-21.234655,-1.5573746,-8.982275,17.818563,-58.13802,-22.0171,17.024515,-28.598082,9.41004,-5.0130854,-6.238893
5,-0.2161771059036255,0.17756620049476624,57.9517707824707,-2.1211649585134897,24.75092927983988,82.74344778421317,-83.87797,10.358877,-7.795362,88.72142,-31.251781,-10.674313,-83.91464,-1.5239177,4.557969,85.5329,-26.460157,8.399777,2.0350566,0.16207163,29.793802,-54.052807,27.28604,-20.01994,-21.222412,-1.56365,-8.980889,17.807356,-58.15155,-21.961222,17.022934,-28.62299,9.430904,-5.02478,-6.331343
6,-0.21895575523376465,0.1793161928653717,57.94181823730469,-2.124148794714649,24.774950773339953,82.74191157957341,-83.9166,10.35725,-7.8038073,88.73666,-31.258478,-10.6848345,-83.95084,-1.5282093,4.5484285,85.54954,-26.478706,8.38928,2.040981,0.14689198,29.793802,-54.050377,27.247725,-19.98268,-21.230328,-1.5543061,-8.977383,17.780787,-58.15785,-21.909681,17.013449,-28.663557,9.444569,-5.035446,-6.461805
7,-0.21412087976932526,0.1806752234697342,57.931583404541016,-2.129199614426705,24.800200202557658,82.737785625999,-83.95752,10.357882,-7.814313,88.753395,-31.265516,-10.695032,-83.98809,-1.531397,4.537587,85.564674,-26.495546,8.379472,2.0506434,0.1323617,29.793802,-54.03877,27.219278,-19.947397,-21.252401,-1.538225,-8.975156,17.757849,-58.156982,-21.868763,17.004133,-28.713602,9.454568,-5.0485373,-6.613267
8,-0.21742063760757446,0.17936979234218597,57.920021057128906,-2.1315716039751695,24.81501927268036,82.73567373113542,-83.987755,10.358751,-7.8213773,88.77451,-31.274567,-10.70215,-84.016266,-1.5321441,4.5331855,85.585884,-26.51174,8.374948,2.050428,0.11886329,29.793802,-54.04291,27.16829,-19.906717,-21.238937,-1.5002798,-8.9778,17.737103,-58.18523,-21.788631,17.010887,-28.713408,9.437771,-5.065853,-6.7500854
9,-0.21795953810214996,0.17663051187992096,57.90961837768555,-2.1352506113069514,24.823941676907474,82.7340246981391,-84.01392,10.362966,-7.826567,88.80023,-31.28274,-10.704683,-84.03973,-1.527069,4.5338283,85.61065,-26.522324,8.377326,2.0566995,0.118392214,29.793802,-54.04763,27.131153,-19.874279,-21.23126,-1.4647721,-8.996417,17.756622,-58.205353,-21.725798,17.033157,-28.709677,9.417925,-5.0931797,-6.9025536
10,-0.21430155634880066,0.18238651752471924,57.89879608154297,-2.1398058161328684,24.829607000312464,82.7315038371794,-84.03878,10.370189,-7.831706,88.83005,-31.290949,-10.704607,-84.0609,-1.5182438,4.5374885,85.63742,-26.52936,8.384745,2.0671012,0.12776564,29.793802,-54.05218,27.100176,-19.84442,-21.22663,-1.4254383,-9.026082,17.798218,-58.22538,-21.672665,17.068083,-28.697857,9.391052,-5.1272817,-7.0724306
11,-0.2094770073890686,0.18454203009605408,57.88739776611328,-2.1450405527931826,24.830991942534233,82.73135072029616,-84.05913,10.374421,-7.8376193,88.861244,-31.300682,-10.703511,-84.07731,-1.5110664,4.540556,85.66651,-26.53765,8.391806,2.0779893,0.1381325,29.793802,-54.04884,27.07701,-19.816643,-21.2328,-1.3849441,-9.04586,17.834953,-58.235508,-21.634924,17.092607,-28.694668,9.367271,-5.1618824,-7.2303977
12,-0.2094576060771942,0.1840730607509613,57.875328063964844,-2.146326359934495,24.826626535365925,82.73758602053574,-84.072235,10.369862,-7.845077,88.89226,-31.313732,-10.703112,-84.08744,-1.5136741,4.5406384,85.70036,-26.553465,8.393706,2.0819163,0.13953812,29.793802,-54.03412,27.06098,-19.788656,-21.25379,-1.3445584,-9.035103,17.838919,-58.233658,-21.611061,17.08869,-28.706785,9.352832,-5.1909533,-7.347177
13,-0.20871655642986298,0.18909607827663422,57.86323547363281,-2.1428254364807757,24.812031432738102,82.75200185998058,-84.07173,10.352761,-7.852933,88.92274,-31.333559,-10.7038145,-84.08731,-1.5302483,4.5373926,85.74119,-26.580196,8.387968,2.0645502,0.12185046,29.793802,-54.006165,27.032434,-19.749193,-21.276031,-1.2982588,-8.98753,17.794838,-58.241047,-21.568876,17.049002,-28.709175,9.335798,-5.21486,-7.3919735
14,-0.21123985946178436,0.19160620868206024,57.85129165649414,-2.13478202071904,24.79042006531688,82.77266097468087,-84.062294,10.3271675,-7.8617573,88.95325,-31.35767,-10.704649,-84.08016,-1.5552793,4.5312185,85.7875,-26.61402,8.377246,2.038418,0.09139553,29.793802,-53.969032,27.007704,-19.71366,-21.305904,-1.2515508,-8.914737,17.72915,-58.241226,-21.531298,16.979557,-28.721231,9.322805,-5.237058,-7.3926077
15,-0.21418456733226776,0.19317591190338135,57.83951950073242,-2.1263914750326975,24.763315700845215,82.79637351636246,-84.047646,10.298138,-7.871522,88.98569,-31.382607,-10.705585,-84.06697,-1.5827593,4.525373,85.83679,-26.65119,8.366188,2.0114918,0.05898317,29.793802,-53.937702,26.977734,-19.677126,-21.32889,-1.1874504,-8.820849,17.628815,-58.23848,-21.485926,16.899605,-28.728209,9.306737,-5.2499156,-7.3702397
16,-0.21568027138710022,0.19546855986118317,57.828731536865234,-2.119629611622317,24.73179232312998,82.82039269351202,-84.030624,10.271504,-7.881238,89.020935,-31.404345,-10.705755,-84.04961,-1.6069443,4.522584,85.888145,-26.688148,8.358073,1.9907279,0.036448065,29.793802,-53.921402,26.932875,-19.635063,-21.336447,-1.0868955,-8.709981,17.48334,-58.23695,-21.421593,16.837831,-28.719845,9.2769,-5.2467527,-7.3522687
17,-0.2142026275396347,0.20121949911117554,57.81586837768555,-2.1133187570454965,24.69844619598937,82.84664243084987,-84.015656,10.246852,-7.891828,89.05955,-31.4195,-10.704945,-84.030525,-1.6275809,4.52432,85.942375,-26.724516,8.354758,1.9825116,0.038918357,29.793802,-53.905872,26.890015,-19.582954,-21.356726,-0.96465737,-8.572807,17.310154,-58.223507,-21.37218,16.806534,-28.71267,9.246347,-5.2230124,-7.359221
18,-0.21317411959171295,0.2037193328142166,57.80289077758789,-2.108429278490448,24.661829760877733,82.87555378520346,-84.00026,10.221687,-7.903849,89.10139,-31.431108,-10.703594,-84.00768,-1.6461041,4.5282254,85.99876,-26.761484,8.353858,1.9836295,0.058795318,29.793802,-53.890038,26.845785,-19.52439,-21.387878,-0.8243361,-8.410934,17.107996,-58.19654,-21.335796,16.7879,-28.709793,9.215617,-5.1830087,-7.372996
19,-0.20887881517410278,0.21026511490345,57.79032897949219,-2.1053859729961517,24.623256304576884,82.90264867296969,-83.98341,10.198994,-7.9170485,89.144264,-31.442852,-10.702075,-83.982735,-1.6630162,4.530565,86.05485,-26.79815,8.352952,1.9918679,0.08663232,29.793802,-53.87756,26.79548,-19.459854,-21.417145,-0.65655655,-8.246859,16.849443,-58.165295,-21.306513,16.775017,-28.708052,9.183004,-5.1379075,-7.3885303
20,-0.2067713588476181,0.21287226676940918,57.778202056884766,-2.1053960648043333,24.586101528567273,82.92324350465724,-83.966415,10.181217,-7.931199,89.18618,-31.4586,-10.701214,-83.957954,-1.6770159,4.528673,86.106094,-26.832542,8.350733,2.004268,0.10652406,29.793802,-53.860672,26.760626,-19.3946,-21.453323,-0.462902,-8.102774,16.518936,-58.126827,-21.290724,16.75673,-28.721138,9.157562,-5.099987,-7.406485
21,-0.205484077334404,0.21707238256931305,57.76543426513672,-2.1089699171401204,24.549159786034558,82.93417007967989,-83.948425,10.171065,-7.9467163,89.22819,-31.480347,-10.700703,-83.93288,-1.6871549,4.5194726,86.151825,-26.864256,8.3455925,2.0181832,0.12384625,29.793802,-53.846863,26.711386,-19.308634,-21.477005,-0.20221922,-7.9777484,16.070648,-58.101433,-21.272203,16.7414,-28.72547,9.125913,-5.0669,-7.4206986
22,-0.20499685406684875,0.21763211488723755,57.754058837890625,-2.1159171584522656,24.512219893065847,82.93838428724135,-83.929665,10.166621,-7.9637814,89.2706,-31.505758,-10.700491,-83.90689,-1.6950618,4.5054607,86.1938,-26.894043,8.339055,2.0373702,0.13871647,29.793802,-53.834488,26.66188,-19.21566,-21.499186,0.10830812,-7.86312,15.53723,-58.0753,-21.257479,16.725315,-28.734863,9.093658,-5.033443,-7.436438
23,-0.20475967228412628,0.21927659213542938,57.74462890625,-2.1222346452791707,24.47410056685668,82.94160292732991,-83.90811,10.163399,-7.979809,89.31154,-31.532291,-10.700426,-83.87914,-1.7016041,4.4913683,86.23418,-26.923395,8.332095,2.0576584,0.14789434,29.793802,-53.817917,26.6253,-19.126781,-21.525484,0.408637,-7.7719283,14.967493,-58.042034,-21.248293,16.707531,-28.752748,9.064648,-5.0081506,-7.449839
24,-0.20749908685684204,0.22324146330356598,57.735530853271484,-2.126006480322626,24.430802441991275,82.94900912877337,-83.877846,10.156936,-7.99256,89.34991,-31.558443,-10.700383,-83.84457,-1.7108862,4.4819984,86.27589,-26.955265,8.325529,2.0741916,0.16558091,29.793802,-53.79884,26.565916,-19.033197,-21.545385,0.6545372,-7.71666,14.387062,-58.015575,-21.23503,16.700792,-28.757967,9.027234,-4.994664,-7.4533105
25,-0.2078799605369568,0.22840355336666107,57.7267951965332,-2.123437504988541,24.384174189075516,82.96274975748783,-83.84018,10.145453,-8.000592,89.38528,-31.58346,-10.7002735,-83.805046,-1.720947,4.480064,86.318924,-26.989859,8.321472,2.0906599,0.17122856,29.793802,-53.771732,26.534197,-18.962994,-21.57726,0.8073885,-7.7068195,13.805411,-57.96711,-21.227833,16.683546,-28.783266,8.996652,-5.002985,-7.451339
26,-0.20795436203479767,0.2332349270582199,57.719600677490234,-2.118721027313276,24.332610785189416,82.97958201599074,-83.79457,10.131722,-8.005027,89.419174,-31.60913,-10.699981,-83.75945,-1.7327949,4.482828,86.36272,-27.026617,8.318525,2.1015742,0.18315291,29.793802,-53.732193,26.487587,-18.875849,-21.609844,0.91198343,-7.7347226,13.175105,-57.92803,-21.215982,16.676472,-28.792992,8.958767,-5.0263886,-7.439175
27,-0.2107703983783722,0.23666198551654816,57.7153205871582,-2.1140305728355844,24.27808896048226,82.99756677807501,-83.74385,10.117211,-8.008835,89.45049,-31.634413,-10.7002535,-83.709274,-1.7455213,4.485823,86.405754,-27.063599,8.313787,2.112517,0.1965547,29.793802,-53.698757,26.432161,-18.8019,-21.634586,0.99349195,-7.777523,12.571162,-57.889477,-21.201334,16.672941,-28.801432,8.917077,-5.050279,-7.419476
28,-0.21039272844791412,0.24175892770290375,57.71124267578125,-2.110436569719792,24.22195089861731,83.01536588971123,-83.69099,10.103596,-8.015172,89.47888,-31.658625,-10.701791,-83.6555,-1.7579514,4.484111,86.44583,-27.098183,8.303994,2.1239321,0.21200885,29.793802,-53.674397,26.3714,-18.749796,-21.650457,1.0771604,-7.8145137,12.051552,-57.85197,-21.185062,16.670103,-28.810003,8.873977,-5.060025,-7.3895965
29,-0.20951902866363525,0.24614597856998444,57.70751190185547,-2.1114998194263093,24.163716653786384,83.03245776252817,-83.63666,10.090274,-8.025891,89.5049,-31.681263,-10.704722,-83.5986,-1.773154,4.4757776,86.48518,-27.13024,8.284228,2.1347656,0.22685485,29.793802,-53.655552,26.312075,-18.72288,-21.663742,1.1654351,-7.840152,11.6220455,-57.815456,-21.168266,16.666689,-28.824448,8.831082,-5.0511174,-7.3511477
30,-0.21092809736728668,0.25035104155540466,57.705909729003906,-2.1121624366425973,24.10538940260722,83.05007986902378,-83.58138,10.076623,-8.037919,89.52776,-31.702267,-10.708506,-83.54092,-1.7884996,4.464274,86.523575,-27.159977,8.257611,2.1391263,0.23277366,29.793802,-53.627193,26.282352,-18.714348,-21.692636,1.234047,-7.8646636,11.263493,-57.77253,-21.157265,16.664312,-28.854847,8.796581,-5.033173,-7.310005
31,-0.2080569565296173,0.25282731652259827,57.70436477661133,-2.1147835957407435,24.045834107190426,83.0672561159762,-83.522644,10.0643635,-8.048521,89.547005,-31.72275,-10.713132,-83.47899,-1.8044068,4.4529233,86.556946,-27.18872,8.233185,2.1417966,0.24110283,29.793802,-53.602936,26.2421,-18.715418,-21.712282,1.2988522,-7.8912272,10.971354,-57.73567,-21.138742,16.667068,-28.878708,8.759135,-5.0086837,-7.2556396
32,-0.213307723402977,0.25453856587409973,57.70442581176758,-2.115770749672189,23.98601971203045,83.08394591552378,-83.460396,10.054817,-8.055584,89.562035,-31.743387,-10.718805,-83.41201,-1.8183216,4.444099,86.58085,-27.216963,8.219944,2.1486003,0.25486988,29.793802,-53.593803,26.184494,-18.730341,-21.70659,1.3625404,-7.923776,10.758187,-57.706966,-21.11065,16.671743,-28.882574,8.717057,-4.9830475,-7.1841974
33,-0.21553027629852295,0.258562296628952,57.70712661743164,-2.116439169929981,23.929328460302724,83.09906815756521,-83.396645,10.050124,-8.054702,89.57093,-31.763039,-10.72596,-83.34334,-1.8285292,4.441368,86.5919,-27.243532,8.223164,2.154084,0.26871604,29.793802,-53.5709,26.1533,-18.753647,-21.717127,1.4079931,-7.9636183,10.658584,-57.66996,-21.094435,16.68213,-28.89844,8.697227,-4.9570446,-7.1006618
34,-0.21315675973892212,0.2618313431739807,57.71183395385742,-2.1173214470675634,23.87200189440227,83.11313238686549,-83.32927,10.049118,-8.049844,89.5757,-31.782446,-10.734695,-83.26963,-1.8374128,4.4413233,86.593735,-27.269337,8.236954,2.163201,0.28756374,29.793802,-53.556,26.11469,-18.792736,-21.713223,1.4500123,-8.009552,10.651288,-57.63723,-21.073324,16.695875,-28.903399,8.6819105,-4.927481,-6.9988623
35,-0.21531137824058533,0.26101306080818176,57.71892166137695,-2.1179628539460227,23.818432186646046,83.1273982386369,-83.26259,10.047608,-8.043115,89.5751,-31.800854,-10.742877,-83.19641,-1.8466654,4.442301,86.58923,-27.293453,8.254314,2.166316,0.30183455,29.793802,-53.528366,26.09054,-18.832592,-21.719137,1.4729252,-8.0543375,10.695846,-57.601967,-21.0589,16.713486,-28.915533,8.66422,-4.8980117,-6.89818
36,-0.21476370096206665,0.2601897418498993,57.72740173339844,-2.1174198324478932,23.769948670011,83.1430931697873,-83.198296,10.042066,-8.038883,89.56879,-31.818298,-10.748962,-83.12583,-1.8594562,4.44099,86.58211,-27.316055,8.26794,2.1606505,0.30591944,29.793802,-53.4994,26.07368,-18.870426,-21.718664,1.4765768,-8.093536,10.748054,-57.569195,-21.047125,16.729828,-28.926607,8.623734,-4.8721933,-6.809232
37,-0.21688856184482574,0.2600293755531311,57.737548828125,-2.1182309666065975,23.721858125991737,83.16073480291878,-83.13314,10.029739,-8.0409155,89.55943,-31.836773,-10.749958,-83.053474,-1.8760955,4.4344077,86.57588,-27.33933,8.273422,2.148396,0.2943275,29.793802,-53.48603,26.041069,-18.934559,-21.683683,1.464223,-8.124176,10.823657,-57.541157,-21.019949,16.74315,-28.928188,8.536665,-4.848258,-6.732359
38,-0.222258523106575,0.263476699590683,57.74931335449219,-2.118573876579033,23.67527321977137,83.17977384508146,-83.06699,10.013391,-8.045163,89.54585,-31.855352,-10.747479,-82.98051,-1.8966305,4.426026,86.56818,-27.362446,8.275542,2.1263046,0.27059084,29.793802,-53.47015,26.005198,-19.003036,-21.63797,1.432854,-8.149488,10.927705,-57.517498,-20.982937,16.753168,-28.924593,8.422063,-4.824702,-6.6579103
39,-0.2236412614583969,0.2684178054332733,57.7615966796875,-2.1181077247163973,23.636860519558372,83.19905259931848,-83.0057,9.996399,-8.047695,89.525406,-31.871939,-10.747171,-82.91243,-1.9183087,4.418537,86.5537,-27.382547,8.280758,2.0994275,0.24514022,29.793802,-53.448364,25.982044,-19.05702,-21.598495,1.39401,-8.172043,11.030779,-57.49645,-20.952543,16.768429,-28.922035,8.3029995,-4.805335,-6.59074
40,-0.22736722230911255,0.2798426151275635,57.77680969238281,-2.1170144029485005,23.61015605493402,83.2177024620586,-82.95165,9.982154,-8.045048,89.49622,-31.884817,-10.754751,-82.851326,-1.9379888,4.4139295,86.52803,-27.397383,8.2949915,2.0770326,0.22709961,29.793802,-53.435524,25.964998,-19.086214,-21.558622,1.3717432,-8.193551,11.0977745,-57.4766,-20.925486,16.785997,-28.917345,8.192128,-4.7914057,-6.523157
41,-0.2281365990638733,0.2866465449333191,57.794578552246094,-2.116550410015894,23.597101232252317,83.23609379258255,-82.90833,9.972407,-8.036747,89.45798,-31.892403,-10.774431,-82.798874,-1.9565694,4.412415,86.48918,-27.404957,8.320748,2.065104,0.22735633,29.793802,-53.4357,25.953512,-19.091633,-21.520239,1.3564126,-8.216601,11.136142,-57.46097,-20.906052,16.809786,-28.903778,8.08528,-4.7877946,-6.450994
42,-0.23255020380020142,0.29191938042640686,57.8125,-2.116646146155428,23.59765418753519,83.25418979046547,-82.87553,9.965339,-8.024088,89.41084,-31.894892,-10.801897,-82.756004,-1.9751154,4.412632,86.43964,-27.406069,8.353804,2.0668185,0.23175828,29.793802,-53.43976,25.952635,-19.089502,-21.493862,1.3447925,-8.233344,11.1587105,-57.445946,-20.90448,16.816683,-28.894222,7.9991703,-4.7885194,-6.3773966
43,-0.23508602380752563,0.29826465249061584,57.83253479003906,-2.1180928612683645,23.6020618174674,83.27131982019858,-82.84186,9.958064,-8.011328,89.35807,-31.89811,-10.8323555,-82.71192,-1.9931443,4.4134336,86.382324,-27.406937,8.39301,2.0584846,0.25068828,29.793802,-53.456272,25.944878,-19.050032,-21.446337,1.352014,-8.257818,11.142606,-57.42764,-20.894281,16.859228,-28.877943,7.8852677,-4.7946744,-6.3123283
44,-0.2389003038406372,0.3069410026073456,57.854400634765625,-2.114195379970073,23.61435462416071,83.28588560422698,-82.80819,9.948893,-7.9944987,89.29843,-31.903572,-10.858842,-82.6732,-2.009383,4.4193044,86.319916,-27.40958,8.436388,2.0485332,0.24211411,29.793802,-53.47465,25.940882,-18.988262,-21.406345,1.415426,-8.269482,11.054989,-57.418343,-20.888699,16.875431,-28.869026,7.8165603,-4.789613,-6.264171
45,-0.2422182559967041,0.31502294540405273,57.87933349609375,-2.1052411177361523,23.632855511176633,83.29717388461115,-82.77114,9.934575,-7.9760237,89.232124,-31.913076,-10.879568,-82.637794,-2.0251424,4.4303637,86.25269,-27.41666,8.484308,2.011172,0.210681,29.793802,-53.45988,25.937975,-18.850422,-21.388962,1.5568647,-8.271009,10.871982,-57.43225,-20.877405,16.892595,-28.8571,7.8109107,-4.7879095,-6.2164063
46,-0.24797365069389343,0.32720935344696045,57.90644836425781,-2.095168594863175,23.65849197093932,83.30576928921414,-82.73424,9.91756,-7.9580793,89.15883,-31.924152,-10.898402,-82.60486,-2.0386486,4.443042,86.17753,-27.42515,8.537097,1.9738078,0.1560243,29.793802,-53.456608,25.941233,-18.700356,-21.365843,1.7588657,-8.264509,10.637101,-57.443604,-20.868055,16.88473,-28.857216,7.853482,-4.789056,-6.1673136
47,-0.2541464567184448,0.3377074897289276,57.93502426147461,-2.0794820814097874,23.69074966602572,83.31338367177702,-82.69747,9.901979,-7.9316044,89.07935,-31.936573,-10.916548,-82.57659,-2.0518157,4.4630218,86.09846,-27.433504,8.595034,1.9277539,0.09414886,29.793802,-53.450695,25.955164,-18.510773,-21.352217,1.9653373,-8.257784,10.335641,-57.459972,-20.855886,16.886822,-28.857224,7.8716917,-4.7666907,-6.156174
48,-0.2640562057495117,0.35353896021842957,57.96446228027344,-2.0609720435291163,23.7287240995232,83.32104051773379,-82.663284,9.892561,-7.894417,88.99481,-31.948902,-10.936016,-82.55288,-2.065667,4.488634,86.016594,-27.439083,8.656702,1.8919617,0.040472336,29.793802,-53.47131,25.98009,-18.31637,-21.333338,2.1246088,-8.257151,9.984224,-57.467876,-20.846144,16.901505,-28.860529,7.7963514,-4.6937585,-6.216425
49,-0.27080342173576355,0.3692319989204407,57.99716567993164,-2.030304888381746,23.77421802283703,83.33243804516772,-82.62995,9.889731,-7.8336196,88.900764,-31.961124,-10.9569645,-82.537994,-2.0823047,4.530372,85.934265,-27.440844,8.723427,1.848438,-0.011090983,29.793802,-53.490665,26.030771,-18.07281,-21.340118,2.225419,-8.26234,9.551951,-57.47078,-20.835161,16.95417,-28.86758,7.6050925,-4.557498,-6.3629613
50,-0.27391210198402405,0.388114333152771,58.03023147583008,-1.9891396048650358,23.828320680321287,83.34573113184996,-82.598076,9.891169,-7.7536883,88.797455,-31.973083,-10.9782505,-82.5321,-2.1013916,4.586026,85.850334,-27.440172,8.795136,1.789343,-0.07592997,29.793802,-53.5008,26.124329,-17.784296,-21.373884,2.2889616,-8.269384,9.051626,-57.474194,-20.8165,17.035202,-28.881002,7.3402543,-4.374539,-6.577226
51,-0.2787567377090454,0.4067508578300476,58.063758850097656,-1.9513196914669244,23.88636216435784,83.3547118848509,-82.568306,9.897594,-7.6739264,88.69343,-31.98571,-10.999901,-82.526505,-2.1171088,4.6405077,85.7604,-27.43802,8.870804,1.7418637,-0.13691467,29.793802,-53.530857,26.23468,-17.510643,-21.400211,2.3175654,-8.279501,8.527272,-57.473347,-20.797256,17.11251,-28.89398,7.023656,-4.1605506,-6.844647
52,-0.28526848554611206,0.42174333333969116,58.097110748291016,-1.9239065925168235,23.946517939216545,83.35364438642138,-82.5419,9.909413,-7.606732,88.59462,-31.99831,-11.020268,-82.51689,-2.1259356,4.6840334,85.66105,-27.434864,8.949094,1.7036264,-0.18790531,29.793802,-53.567867,26.373507,-17.270544,-21.425179,2.2995307,-8.293273,8.017152,-57.484207,-20.778143,17.188322,-28.893631,6.6813354,-3.9346528,-7.1665993
53,-0.301876425743103,0.44121378660202026,58.13093948364258,-1.9107926094257175,24.008159636003285,83.34338913396513,-82.51879,9.924334,-7.5559936,88.501785,-32.008385,-11.040327,-82.50217,-2.1285808,4.714745,85.55281,-27.4325,9.031637,1.6811807,-0.22204053,29.793802,-53.619804,26.535477,-17.072498,-21.443756,2.2056062,-8.318245,7.510199,-57.505737,-20.763058,17.257843,-28.879381,6.2765565,-3.6957455,-7.560103
54,-0.3056073784828186,0.46946102380752563,58.16899108886719,-1.905156366772141,24.07272717287578,83.32656547511358,-82.4998,9.942869,-7.514487,88.41338,-32.017445,-11.060294,-82.48549,-2.1284077,4.7380896,85.43783,-27.4305,9.118284,1.6711426,-0.24315822,29.793802,-53.685505,26.719645,-16.900427,-21.459284,2.048571,-8.350281,6.9917364,-57.534,-20.753334,17.327324,-28.854525,5.8123417,-3.4341016,-8.020845
55,-0.31270289421081543,0.4966374933719635,58.205963134765625,-1.9102855219943613,24.14008406154456,83.29808309350942,-82.48334,9.9702635,-7.4812484,88.32737,-32.02949,-11.078313,-82.46556,-2.119411,4.7521544,85.31195,-27.42467,9.205615,1.6722699,-0.25713098,29.793802,-53.758984,26.92713,-16.760187,-21.469147,1.886661,-8.373358,6.499645,-57.56345,-20.748367,17.391607,-28.828175,5.371461,-3.1554742,-8.509855
56,-0.32397758960723877,0.5194496512413025,58.24436950683594,-1.9313833045499347,24.210552527330638,83.25242846438864,-82.46934,10.011939,-7.4555354,88.243546,-32.049263,-11.092619,-82.44211,-2.0986357,4.7552,85.17203,-27.41135,9.290011,1.6833591,-0.27096298,29.793802,-53.83684,27.159811,-16.65934,-21.47046,1.7781692,-8.372776,6.07272,-57.592594,-20.74573,17.44662,-28.802975,5.0363235,-2.8679452,-8.988983
57,-0.3379381000995636,0.5445998907089233,58.28514862060547,-1.9700595973101755,24.282744040157787,83.18227568570796,-82.45693,10.07537,-7.438571,88.16469,-32.08198,-11.106106,-82.41394,-2.0607357,4.745812,85.01604,-27.387989,9.371303,1.7071911,-0.28753245,29.793802,-53.92456,27.422024,-16.6023,-21.457191,1.7323412,-8.340834,5.7228575,-57.62105,-20.742788,17.494812,-28.780743,4.829576,-2.5528216,-9.470369
58,-0.35562798380851746,0.5770576596260071,58.330230712890625,-2.025561859873409,24.356949597356916,83.09207073497436,-82.44629,10.155887,-7.4295774,88.09024,-32.12415,-11.118215,-82.38224,-2.0086143,4.7251754,84.84667,-27.357298,9.450473,1.7414668,-0.30551308,29.793802,-54.01954,27.715757,-16.584341,-21.435946,1.7197939,-8.28729,5.4296427,-57.65152,-20.73805,17.538052,-28.759169,4.7075386,-2.2145903,-9.967504
59,-0.3779348134994507,0.6141074895858765,58.37504959106445,-2.0888607601171816,24.436253378833438,82.99560188846954,-82.4394,10.239447,-7.425425,88.013916,-32.16607,-11.123403,-82.34935,-1.9542478,4.6986265,84.667244,-27.323265,9.528912,1.7752924,-0.32661194,29.793802,-54.11302,28.037235,-16.598993,-21.409582,1.7416637,-8.224701,5.183255,-57.685097,-20.730406,17.571115,-28.735342,4.6519146,-1.8970497,-10.444987
60,-0.3986317217350006,0.6459566354751587,58.42239761352539,-2.1514050278535253,24.523000388811187,82.9069579252797,-82.438675,10.312122,-7.423161,87.931885,-32.19951,-11.115505,-82.31801,-1.9065379,4.6698413,84.48212,-27.29003,9.606984,1.799845,-0.35003534,29.793802,-54.195457,28.379213,-16.639765,-21.385868,1.8003962,-8.165596,4.9730716,-57.720436,-20.720589,17.586979,-28.709312,4.6425633,-1.643487,-10.866855
61,-0.4208512604236603,0.6786696910858154,58.47248840332031,-2.215958422941859,24.621822268598606,82.8277754113283,-82.449005,10.371098,-7.4254355,87.84109,-32.22104,-11.094861,-82.29176,-1.8693352,4.635527,84.28887,-27.256786,9.683869,1.8180394,-0.36900324,29.793802,-54.275097,28.736214,-16.705748,-21.35892,1.9182043,-8.108966,4.7869835,-57.759983,-20.71121,17.58308,-28.679853,4.696923,-1.4743553,-11.240789
62,-0.4394960105419159,0.7159420251846313,58.525169372558594,-2.284293437214569,24.7297382386534,82.7515904506828,-82.46789,10.423582,-7.4332876,87.74459,-32.235477,-11.064,-82.26797,-1.8366534,4.5941596,84.08661,-27.22202,9.759332,1.8362122,-0.3820451,29.793802,-54.356567,29.10627,-16.801376,-21.327633,2.0881903,-8.050284,4.6327105,-57.80164,-20.704721,17.562067,-28.64559,4.815949,-1.3645012,-11.580595
63,-0.4604445695877075,0.7533243298530579,58.57966995239258,-2.3549103206578175,24.83860800444252,82.67819349764987,-82.48601,10.470367,-7.441816,87.64657,-32.246857,-11.021081,-82.238815,-1.8067281,4.553449,83.8798,-27.188494,9.83577,1.8505031,-0.39698625,29.793802,-54.43031,29.486017,-16.929327,-21.291994,2.2681582,-7.9969893,4.529442,-57.841114,-20.70101,17.525331,-28.612398,4.9550004,-1.2881478,-11.859599
64,-0.4920324385166168,0.8006097078323364,58.635677337646484,-2.4221376611153036,24.94026432587559,82.60818193345474,-82.4928,10.512951,-7.446042,87.55,-32.258453,-10.964227,-82.19635,-1.7777094,4.521149,83.67302,-27.159773,9.915751,1.856727,-0.42189103,29.793802,-54.486374,29.871899,-17.091583,-21.25447,2.4165447,-7.9561667,4.496142,-57.87484,-20.698692,17.47543,-28.582918,5.069061,-1.2187349,-12.050425
65,-0.5276212692260742,0.8525325655937195,58.69123458862305,-2.4869065771708208,25.030970456795984,82.54122428983052,-82.48648,10.551142,-7.4463434,87.45846,-32.27119,-10.888371,-82.13836,-1.7480727,4.49999,83.4705,-27.135,10.001813,1.8542401,-0.45884788,29.793802,-54.525566,30.264294,-17.30763,-21.20965,2.535243,-7.9317293,4.5655866,-57.901123,-20.698366,17.409157,-28.552965,5.1554694,-1.1687187,-12.139147
66,-0.5503785610198975,0.9034271240234375,58.7541389465332,-2.550608480769249,25.11581666548492,82.47731841953048,-82.4717,10.584238,-7.4448485,87.36848,-32.282883,-10.795988,-82.0681,-1.7190661,4.485259,83.26688,-27.113462,10.092071,1.8462169,-0.50260085,29.793802,-54.554905,30.662664,-17.57177,-21.15704,2.6421494,-7.9188695,4.7184772,-57.9216,-20.701027,17.32567,-28.52106,5.2346287,-1.1452467,-12.142113
67,-0.5837469100952148,0.9574461579322815,58.820098876953125,-2.613955730950165,25.19851022857056,82.4167225670689,-82.45017,10.613408,-7.439659,87.276825,-32.29455,-10.69675,-81.98921,-1.6934488,4.4742775,83.05976,-27.096148,10.181846,1.8328435,-0.55089545,29.793802,-54.570686,31.060997,-17.845966,-21.106915,2.7211218,-7.911808,4.895003,-57.938457,-20.704735,17.231993,-28.499674,5.2953453,-1.1134112,-12.077617
68,-0.6210129857063293,1.0144309997558594,58.88115692138672,-2.673589836522119,25.282889308688333,82.36031304960308,-82.42295,10.639445,-7.428907,87.17916,-32.306328,-10.600286,-81.90768,-1.673712,4.463896,82.85114,-27.07907,10.265586,1.8141549,-0.600473,29.793802,-54.568752,31.451097,-18.091116,-21.072308,2.7571723,-7.9049907,5.0338974,-57.95493,-20.706446,17.136898,-28.50022,5.3254075,-1.0383382,-11.963388
69,-0.6612532734870911,1.077002763748169,58.94912338256836,-2.7311561028824762,25.36846353072825,82.30843874720534,-82.38951,10.662907,-7.411163,87.07542,-32.317947,-10.510546,-81.8224,-1.6618364,4.4530673,82.64002,-27.06359,10.344198,1.7909216,-0.6464421,29.793802,-54.551197,31.827993,-18.301193,-21.04738,2.7359145,-7.900417,5.1339273,-57.975967,-20.70555,17.03794,-28.526821,5.3097434,-0.8890799,-11.777862
70,-0.6933313012123108,1.1393847465515137,59.021324157714844,-2.7863896455866874,25.453205162635598,82.26087745053998,-82.348625,10.683433,-7.38799,86.966675,-32.32881,-10.422026,-81.73098,-1.6558795,4.443138,82.42637,-27.049734,10.419706,1.7641418,-0.68929774,29.793802,-54.518967,32.19106,-18.494787,-21.028912,2.6714437,-7.9002376,5.22092,-57.998276,-20.703646,16.93244,-28.570744,5.256448,-0.6913947,-11.519447
71,-0.7254409193992615,1.2025920152664185,59.092323303222656,-2.840510228363586,25.539083642200147,82.21626825142448,-82.30271,10.699766,-7.3620257,86.85429,-32.341633,-10.330329,-81.63505,-1.65319,4.435029,82.21045,-27.037346,10.488973,1.7342204,-0.7341785,29.793802,-54.474216,32.53891,-18.670311,-21.018667,2.5894895,-7.899612,5.274648,-58.017433,-20.700212,16.828478,-28.621586,5.1880684,-0.4954922,-11.236443
72,-0.7716422080993652,1.2734768390655518,59.16291427612305,-2.8941861656195207,25.62758450129114,82.1735516977312,-82.253174,10.710875,-7.3353314,86.73715,-32.35751,-10.231188,-81.536446,-1.6511979,4.430128,81.99201,-27.02557,10.548975,1.6998292,-0.78715366,29.793802,-54.41424,32.870415,-18.82376,-21.022383,2.516706,-7.893604,5.2742314,-58.02711,-20.693027,16.735056,-28.66993,5.1268864,-0.35148057,-10.977154
73,-0.8203703761100769,1.349873661994934,59.23610305786133,-2.9485862740694224,25.718814698533947,82.1331170652143,-82.20059,10.714397,-7.311471,86.61699,-32.378933,-10.123201,-81.43449,-1.6485991,4.4280777,81.77218,-27.016617,10.596984,1.6559916,-0.85577124,29.793802,-54.332188,33.18462,-18.952612,-21.039713,2.4699404,-7.8775306,5.2076707,-58.02391,-20.677382,16.646627,-28.714876,5.075216,-0.27788556,-10.737175
74,-0.8603090643882751,1.426466703414917,59.31489562988281,-3.003488014909491,25.811636922079675,82.09524653372354,-82.14353,10.711572,-7.287984,86.492805,-32.404385,-10.008835,-81.32825,-1.6469716,4.4286156,81.55061,-27.010191,10.635304,1.6037076,-0.9361305,29.793802,-54.228745,33.48226,-19.05776,-21.07022,2.4334872,-7.8550825,5.0876155,-58.013035,-20.65229,16.562107,-28.761147,5.0213213,-0.24626403,-10.495573
75,-0.9051753878593445,1.5063297748565674,59.398311614990234,-3.055293944965812,25.90692915987792,82.05883137873967,-82.08146,10.706901,-7.2583914,86.362785,-32.430042,-9.889209,-81.21926,-1.6480991,4.433116,81.324715,-27.00148,10.668521,1.5512682,-1.01623,29.793802,-54.121704,33.76566,-19.141548,-21.107756,2.3811944,-7.833453,4.9306097,-58.00384,-20.622692,16.495888,-28.798712,4.9684525,-0.23595731,-10.277131
76,-0.9575688242912292,1.588374137878418,59.48171615600586,-3.1047790364973755,26.005178652487793,82.02197587333542,-82.01448,10.704647,-7.2164426,86.225784,-32.453716,-9.765522,-81.1093,-1.6538007,4.442493,81.09178,-26.98551,10.701054,1.5080776,-1.0827541,29.793802,-54.023922,34.037086,-19.206457,-21.153011,2.2880156,-7.819756,4.753492,-58.00428,-20.597612,16.463133,-28.822607,4.92081,-0.2262327,-10.1073065
77,-1.0117673873901367,1.671467900276184,59.56830978393555,-3.153005029024063,26.10557659726371,81.98406066270708,-81.94353,10.709937,-7.164057,86.08425,-32.477673,-9.648147,-80.99661,-1.6618155,4.454709,80.85061,-26.962702,10.736847,1.4851987,-1.1180898,29.793802,-53.946148,34.297325,-19.251072,-21.206781,2.1158776,-7.8182454,4.554595,-58.012352,-20.58881,16.474125,-28.831669,4.876498,-0.20654269,-9.996149
78,-1.0661816596984863,1.7686679363250732,59.65673828125,-3.202210428735345,26.208395460214494,81.94583498061293,-81.868935,10.718957,-7.104176,85.937294,-32.50278,-9.53318,-80.88123,-1.6724224,4.46851,80.60218,-26.934736,10.77209,1.4791332,-1.1290063,29.793802,-53.877827,34.54367,-19.276226,-21.272072,1.887138,-7.823906,4.3279724,-58.0216,-20.599749,16.51816,-28.833427,4.837639,-0.18955338,-9.931586
79,-1.1147621870040894,1.8584907054901123,59.75004577636719,-3.244653321024513,26.31722520558259,81.90862672432867,-81.790375,10.723419,-7.032105,85.780685,-32.522,-9.400524,-80.76683,-1.6892383,4.4888096,80.34678,-26.898968,10.801808,1.4753817,-1.140875,29.793802,-53.805958,34.771973,-19.287943,-21.347225,1.6648821,-7.8304715,4.083499,-58.031715,-20.622963,16.578005,-28.834215,4.8137693,-0.18910728,-9.905188
80,-1.1755725145339966,1.9519822597503662,59.849727630615234,-3.273847298834252,26.434911982403587,81.87388907859146,-81.706215,10.715294,-6.9423094,85.608444,-32.529278,-9.230053,-80.65667,-1.7164705,4.520807,80.08463,-26.853071,10.820882,1.4573601,-1.1817936,29.793802,-53.71898,34.97935,-19.291876,-21.428152,1.5139575,-7.83203,3.830413,-58.046387,-20.643808,16.636007,-28.838682,4.811983,-0.21906006,-9.906887
81,-1.2445604801177979,2.0525834560394287,59.95010757446289,-3.2921889509457167,26.561984240024028,81.84187110027914,-81.61816,10.6926565,-6.8383408,85.421295,-32.523224,-9.015489,-80.551926,-1.7550347,4.559498,79.81734,-26.792759,10.81967,1.414082,-1.2686914,29.793802,-53.609863,35.16607,-19.287052,-21.512993,1.4562466,-7.825968,3.5499117,-58.068264,-20.646013,16.678268,-28.850174,4.824615,-0.27384797,-9.913944
82,-1.313179612159729,2.1602606773376465,60.05971908569336,-3.300461454947173,26.69619208135182,81.81209658770423,-81.524574,10.659713,-6.7198033,85.220604,-32.50907,-8.767661,-80.45073,-1.8030368,4.605443,79.54524,-26.720919,10.803793,1.3506695,-1.3907053,29.793802,-53.48769,35.336315,-19.26953,-21.59892,1.4580799,-7.816088,3.2429063,-58.101788,-20.625156,16.718801,-28.857897,4.8461595,-0.34919322,-9.934601
83,-1.3878861665725708,2.2725727558135986,60.17106628417969,-3.2914370066805327,26.83647745951585,81.78438928320286,-81.42018,10.616608,-6.575911,85.004395,-32.48351,-8.492236,-80.35018,-1.8603532,4.672364,79.26488,-26.645205,10.791134,1.2742494,-1.5343761,29.793802,-53.356247,35.49391,-19.239202,-21.685736,1.5024991,-7.80633,2.9490829,-58.15194,-20.587263,16.782984,-28.844233,4.888087,-0.4611571,-10.006159
84,-1.4721843004226685,2.3834593296051025,60.29298782348633,-3.256089134685773,26.982337579982598,81.75916205989094,-81.30123,10.563537,-6.396221,84.77255,-32.445316,-8.194656,-80.24816,-1.9266003,4.773342,78.97251,-26.572447,10.799458,1.194888,-1.6829871,29.793802,-53.223774,35.64056,-19.198067,-21.772058,1.5697258,-7.800906,2.7084906,-58.22372,-20.54547,16.897495,-28.795649,4.9640207,-0.62568784,-10.167278
85,-1.5598511695861816,2.495084762573242,60.41936111450195,-3.1900453774065,27.133775482599233,81.74102426669005,-81.1667,10.493131,-6.177211,84.52323,-32.38844,-7.8584404,-80.14506,-2.0065253,4.9143233,78.67102,-26.50663,10.837943,1.1166904,-1.8242779,29.793802,-53.104805,35.776485,-19.147926,-21.856928,1.6597058,-7.8034916,2.5375183,-58.31239,-20.512543,17.081024,-28.696184,5.067919,-0.859878,-10.466454
86,-1.6530265808105469,2.617189407348633,60.55047607421875,-3.0986898084671015,27.29171876294594,81.72859005263413,-81.020775,10.407332,-5.925428,84.260216,-32.314953,-7.486492,-80.04216,-2.0988138,5.0865097,78.359856,-26.442484,10.895393,1.0384662,-1.9634185,29.793802,-52.99115,35.89856,-19.087807,-21.944094,1.77848,-7.8113847,2.4138987,-58.412743,-20.491356,17.3151,-28.56577,5.198375,-1.1514765,-10.873229
87,-1.752178430557251,2.7487101554870605,60.684513092041016,-2.9915850556534664,27.456445552929086,81.71249187042959,-80.86015,10.321518,-5.645568,83.97646,-32.24131,-7.1151104,-79.938225,-2.193995,5.280672,78.033104,-26.37582,10.959415,0.9652203,-2.107893,29.793802,-52.861675,35.99706,-19.020756,-22.038515,1.9186976,-7.818927,2.3196743,-58.52575,-20.480524,17.565756,-28.429916,5.3745914,-1.4730418,-11.3057575
88,-1.8519597053527832,2.886150598526001,60.830265045166016,-2.8803886585361687,27.62768703190857,81.68289665762494,-80.68129,10.2502775,-5.34198,83.66627,-32.18455,-6.7805896,-79.83182,-2.2824836,5.488222,77.684326,-26.30205,11.017579,0.89936244,-2.2691267,29.793802,-52.689903,36.06479,-18.948174,-22.148544,2.074843,-7.820456,2.2360427,-58.650627,-20.475296,17.798271,-28.321161,5.617118,-1.7969153,-11.681967
89,-1.959374189376831,3.021926164627075,60.9844856262207,-2.7582057337306787,27.809754476678123,81.6411246930931,-80.48193,10.194361,-5.006206,83.32099,-32.14804,-6.493741,-79.72629,-2.366336,5.7136703,77.31076,-26.223135,11.06944,0.84929484,-2.4628618,29.793802,-52.494186,36.087433,-18.896662,-22.261168,2.277282,-7.812736,2.1693556,-58.782013,-20.475863,17.98519,-28.254847,5.978955,-2.1263745,-11.981336
90,-2.071962356567383,3.159773826599121,61.13713455200195,-2.6163317149072496,28.002681925370457,81.5917261695045,-80.26145,10.145043,-4.6306267,82.94289,-32.122196,-6.2338805,-79.62471,-2.4503424,5.967439,76.917854,-26.140375,11.12203,0.7764224,-2.682339,29.793802,-52.213062,36.096188,-18.788898,-22.42699,2.5115323,-7.7997775,2.110056,-58.954365,-20.477459,18.203035,-28.192883,6.431648,-2.476918,-12.269624
91,-2.1839027404785156,3.3070523738861084,61.29710006713867,-2.482666909772966,28.195763344713495,81.52791276781508,-80.02762,10.106875,-4.250433,82.55219,-32.10534,-5.9950953,-79.5136,-2.5248284,6.2219143,76.50649,-26.048668,11.169624,0.7266931,-2.9009333,29.793802,-51.925663,36.083206,-18.70226,-22.583641,2.7264075,-7.7851915,2.0722022,-59.12254,-20.479012,18.395994,-28.146893,6.8792734,-2.8271108,-12.509623
92,-2.306276321411133,3.455901622772217,61.463279724121094,-2.369697935049499,28.379033838002428,81.44449156534407,-79.78294,10.083444,-3.8866844,82.16516,-32.097523,-5.768752,-79.38324,-2.5827065,6.4628334,76.08104,-25.94318,11.208945,0.692398,-3.0754342,29.793802,-51.60014,36.04083,-18.58681,-22.743801,2.8679101,-7.7755055,2.0289266,-59.305035,-20.477959,18.612684,-28.079449,7.213495,-3.159778,-12.712205
93,-2.4268929958343506,3.60915207862854,61.63130569458008,-2.2899907568159468,28.550919789225894,81.33275794158479,-79.527596,10.080542,-3.548458,81.783325,-32.09897,-5.5557556,-79.227646,-2.6172767,6.683487,75.634415,-25.82594,11.23899,0.7017723,-3.2117636,29.793802,-51.280643,35.971733,-18.504108,-22.874743,2.9024043,-7.7684484,1.9969261,-59.47659,-20.474604,18.807272,-28.00903,7.409491,-3.4722235,-12.849328
94,-2.5561671257019043,3.7668797969818115,61.799957275390625,-2.2295099548532136,28.715801565955285,81.19829144817427,-79.2594,10.094475,-3.2212381,81.39966,-32.110077,-5.359279,-79.05283,-2.6336622,6.8944526,75.16791,-25.698502,11.262144,0.74208885,-3.3175154,29.793802,-50.95159,35.862377,-18.432526,-22.988176,2.8692327,-7.763019,1.9701596,-59.652042,-20.46994,18.995504,-27.92825,7.517923,-3.7723923,-12.935023
95,-2.6831347942352295,3.921436071395874,61.97096633911133,-2.1867771311414397,28.873772926841536,81.05436417366207,-78.98371,10.116391,-2.9070733,81.01768,-32.12788,-5.176782,-78.86466,-2.6428044,7.0914025,74.6933,-25.555,11.277224,0.80784285,-3.3960001,29.793802,-50.631104,35.729744,-18.378168,-23.08036,2.8140075,-7.760914,1.9625005,-59.811142,-20.466965,19.17084,-27.856634,7.573812,-4.052638,-12.988836
96,-2.813884735107422,4.08636474609375,62.146644592285156,-2.157196991360205,29.02462495086106,80.91469497513825,-78.70662,10.137122,-2.6075628,80.64293,-32.14956,-5.005475,-78.6696,-2.6572843,7.2708163,74.2244,-25.390804,11.2830925,0.8892583,-3.4436417,29.793802,-50.329956,35.577408,-18.332342,-23.147007,2.785921,-7.7651196,1.9783977,-59.944218,-20.465683,19.339678,-27.796534,7.606836,-4.306582,-13.032914
97,-2.9384491443634033,4.251832008361816,62.32044219970703,-2.1459370418794097,29.170557266217905,80.77425175010238,-78.43123,10.163939,-2.3221686,80.276215,-32.173206,-4.8375635,-78.46028,-2.6683183,7.437676,73.7419,-25.209177,11.30602,0.9988848,-3.4416804,29.793802,-50.05229,35.4072,-18.29542,-23.187077,2.773456,-7.780998,2.036432,-60.051067,-20.467472,19.516037,-27.746471,7.5946817,-4.5258174,-13.074718
98,-3.0715630054473877,4.420314311981201,62.48974609375,-2.151661415953523,29.3109650610963,80.62894710722006,-78.15409,10.198358,-2.0501814,79.914764,-32.201145,-4.6768656,-78.23645,-2.6735342,7.5917487,73.24655,-25.011671,11.337352,1.134417,-3.3981783,29.793802,-49.787766,35.21914,-18.266937,-23.205772,2.7573268,-7.805519,2.1272,-60.13614,-20.47179,19.693657,-27.702286,7.53219,-4.7168074,-13.104081
99,-3.2039153575897217,4.5887451171875,62.658164978027344,-2.1658226644536844,29.441186263573798,80.49218876871169,-77.87006,10.224184,-1.7920285,79.55812,-32.23557,-4.537217,-78.015594,-2.6912313,7.72353,72.78135,-24.787214,11.325918,1.2661343,-3.35266,29.793802,-49.52985,35.016636,-18.24458,-23.208464,2.7765841,-7.8284874,2.2159815,-60.20034,-20.475119,19.85177,-27.678286,7.4743414,-4.890128,-13.112888
100,-3.339249610900879,4.773806571960449,62.82225799560547,-2.1742146134980205,29.556568137047517,80.37857422183026,-77.57323,10.224904,-1.5482423,79.20482,-32.281086,-4.4328294,-77.81278,-2.7391121,7.8226714,72.38602,-24.528658,11.220154,1.3621265,-3.3467162,29.793802,-49.26833,34.806,-18.223303,-23.202234,2.8703923,-7.8394194,2.2682843,-60.241684,-20.470882,19.965988,-27.68908,7.475774,-5.0564227,-13.092605
101,-3.486514091491699,4.956544399261475,62.98020553588867,-2.1705789736591083,29.660857811059017,80.29350278275241,-77.2619,10.190647,-1.3160155,78.84523,-32.337166,-4.3783927,-77.62036,-2.8023124,7.9290605,72.040886,-24.246706,10.997269,1.3934262,-3.4242172,29.793802,-48.98218,34.594345,-18.192999,-23.190945,3.0798643,-7.830076,2.263966,-60.265045,-20.445297,20.019695,-27.748335,7.579546,-5.221973,-13.034239
102,-3.625206232070923,5.145111083984375,63.138824462890625,-2.1609653694048983,29.7547768374567,80.22896055418919,-76.93857,10.131679,-1.094893,78.48186,-32.40073,-4.362508,-77.43507,-2.879777,8.034283,71.73614,-23.943275,10.687171,1.3755878,-3.561146,29.793802,-48.6742,34.38795,-18.151585,-23.17503,3.374142,-7.807221,2.2252412,-60.276367,-20.391552,20.031282,-27.841269,7.744942,-5.379914,-12.942299
103,-3.7570464611053467,5.338556289672852,63.28860092163086,-2.1550785939927044,29.82932837910262,80.17832464180184,-76.604614,10.062773,-0.88883185,78.13358,-32.47501,-4.3597026,-77.281235,-3.0052097,8.055712,71.52905,-23.592232,10.31727,1.3457481,-3.6952076,29.793802,-48.374996,34.191315,-18.108341,-23.152288,3.681196,-7.7830324,2.1816869,-60.27513,-20.318861,20.030071,-27.936726,7.903314,-5.52196,-12.82955
104,-3.8831207752227783,5.528721332550049,63.430763244628906,-2.162377922751324,29.876284725605856,80.13527449281439,-76.26274,9.998619,-0.7027487,77.81888,-32.56194,-4.3445377,-77.18378,-3.2177827,7.9102664,71.47682,-23.168594,9.913509,1.3469685,-3.7584937,29.793802,-48.11868,34.00386,-18.078287,-23.123453,3.9276946,-7.7695184,2.1639001,-60.254616,-20.24771,20.04185,-28.007435,7.9891267,-5.6400747,-12.711226
105,-4.00258731842041,5.711511135101318,63.55935287475586,-2.1858082833126975,29.89063185268704,80.10938307503606,-75.91029,9.935534,-0.5441416,77.54042,-32.66079,-4.3093815,-77.10712,-3.5687578,7.531824,71.55377,-22.739145,9.476051,1.3987975,-3.7099755,29.793802,-47.920338,33.817,-18.081697,-23.083372,4.0979857,-7.7718644,2.2089248,-60.192917,-20.198746,20.071856,-28.047186,7.9883437,-5.74591,-12.582773
106,-4.132639408111572,5.89795446395874,63.68364715576172,-2.2213125327978807,29.87817692097285,80.10054074612907,-75.54865,9.868698,-0.41054353,77.28993,-32.772213,-4.26806,-77.0483,-4.0282207,6.9773493,71.743065,-22.297438,8.987279,1.487401,-3.5815337,29.793802,-47.76886,33.622375,-18.11559,-23.031473,4.228291,-7.7835174,2.2920423,-60.08834,-20.18013,20.100773,-28.081638,7.9396634,-5.838252,-12.443212
107,-4.258969783782959,6.0836358070373535,63.809078216552734,-2.2690086057391783,29.847510364592583,80.08779627530465,-75.18586,9.81082,-0.2908058,77.06853,-32.89527,-4.22688,-77.083046,-4.5154076,6.348257,72.11666,-21.707386,8.440588,1.6037197,-3.4160247,29.793802,-47.662273,33.420372,-18.159513,-22.970034,4.3216395,-7.7996187,2.3511472,-59.962624,-20.191542,20.1221,-28.129543,7.856943,-5.893171,-12.312223
108,-4.3829755783081055,6.27221155166626,63.92053985595703,-2.3247894732364682,29.807126769973575,80.05080428084504,-74.82988,9.774293,-0.17219618,76.87819,-33.0306,-4.1920176,-77.29276,-4.9542155,5.7454863,72.74703,-20.830215,7.8244534,1.733454,-3.2615151,29.793802,-47.589096,33.219284,-18.186731,-22.906948,4.381063,-7.8150516,2.324204,-59.838684,-20.224531,20.129953,-28.210552,7.753047,-5.884366,-12.209684
109,-4.511057376861572,6.447047233581543,64.01765441894531,-2.3734927132088184,29.75681983317347,79.98766709250542,-74.473236,9.7538185,-0.034518223,76.71281,-33.178284,-4.162007,-77.72071,-5.380375,5.154865,73.716194,-19.617577,7.102876,1.8586905,-3.155716,29.793802,-47.532234,33.02785,-18.172235,-22.852015,4.4158006,-7.8251705,2.16251,-59.719524,-20.264711,20.116364,-28.340391,7.658863,-5.8033304,-12.100106
110,-4.632829189300537,6.623943328857422,64.11392974853516,-2.415613073376271,29.692201515942518,79.91004605449001,-74.112595,9.743697,0.114716075,76.572205,-33.337376,-4.1334,-78.31877,-5.839445,4.53485,74.9634,-18.148905,6.268449,1.979886,-3.0764527,29.793802,-47.49064,32.85219,-18.125814,-22.803904,4.4209795,-7.833114,1.9096177,-59.60072,-20.30501,20.093336,-28.502035,7.556429,-5.6647587,-11.985191
111,-4.75098180770874,6.799564361572266,64.20230865478516,-2.4792579674753776,29.61619613535765,79.81597344599325,-73.76116,9.755579,0.24519132,76.465225,-33.508163,-4.1099954,-79.03614,-6.273313,3.9408405,76.34798,-16.468912,5.3563976,2.1122108,-2.9808512,29.793802,-47.482914,32.698616,-18.073763,-22.753147,4.37547,-7.8455987,1.6427096,-59.49695,-20.34851,20.080002,-28.659117,7.3868246,-5.4781046,-11.940347
112,-4.869539737701416,6.972232341766357,64.2806625366211,-2.593963711378534,29.531896895965854,79.70290423795392,-73.43371,9.803011,0.32537818,76.4025,-33.68965,-4.095639,-79.82259,-6.611269,3.4250443,77.72693,-14.618401,4.413899,2.274545,-2.822894,29.793802,-47.526775,32.57131,-18.045631,-22.688538,4.2585034,-7.869157,1.4397691,-59.417248,-20.406279,20.096598,-28.786842,7.0936666,-5.252033,-12.041366
113,-4.982370376586914,7.137539863586426,64.35481262207031,-2.7719072146340857,29.439388770005927,79.56151626198663,-73.133575,9.896072,0.3472957,76.38557,-33.879955,-4.088359,-80.730934,-6.826401,3.0118473,79.130424,-12.349674,3.4312956,2.4845374,-2.5764327,29.793802,-47.64025,32.474277,-18.050259,-22.605854,4.0489216,-7.907062,1.3385127,-59.368507,-20.49398,20.149887,-28.87713,6.654293,-4.9738255,-12.283661
114,-5.080841064453125,7.3105902671813965,64.42204284667969,-2.99529123214633,29.33703656907425,79.39715163565198,-72.853355,10.025217,0.32813522,76.40953,-34.079185,-4.08654,-81.77164,-6.977435,2.6531384,80.60583,-9.714082,2.3767366,2.7317998,-2.267584,29.793802,-47.808037,32.405273,-18.074677,-22.515505,3.7604773,-7.9552755,1.2938482,-59.337334,-20.615353,20.226915,-28.953682,6.1077576,-4.641511,-12.635621
115,-5.178083419799805,7.479316711425781,64.47648620605469,-3.249388846828624,29.225022354285752,79.2280150941581,-72.59063,10.176632,0.2720007,76.47251,-34.294106,-4.09588,-82.826675,-7.0936,2.3014681,82.039505,-7.2043276,1.2928628,2.9949021,-1.9258336,29.793802,-48.00932,32.355743,-18.115194,-22.426306,3.423257,-8.00974,1.2577701,-59.29998,-20.760643,20.312283,-29.036491,5.487479,-4.277522,-13.131606
116,-5.265097141265869,7.647327423095703,64.52044677734375,-3.5218599656846123,29.104482173937292,79.07051890118285,-72.34495,10.338609,0.18066458,76.57541,-34.531242,-4.1228595,-83.77198,-7.1798944,1.924322,83.32443,-5.323126,0.24708259,3.2526557,-1.5806204,29.793802,-48.224854,32.314808,-18.168427,-22.34241,3.0705922,-8.06577,1.1812649,-59.238262,-20.9125,20.389513,-29.141096,4.82364,-3.9028,-13.804415
117,-5.337095260620117,7.8117451667785645,64.55404663085938,-3.837558003029539,28.97599823868155,78.90987557851741,-72.13076,10.533306,0.034287933,76.73473,-34.799797,-4.175872,-84.59537,-7.2421002,1.4646176,84.49497,-4.2566113,-0.90441483,3.5193725,-1.2209169,29.793802,-48.464657,32.278732,-18.234571,-22.258131,2.6847522,-8.126369,1.0426221,-59.15643,-21.058388,20.453238,-29.266806,4.0684237,-3.4909227,-14.685703
118,-5.403427600860596,7.985076427459717,64.57340240478516,-4.196505415692667,28.83838326411571,78.74186103019208,-71.94383,10.761467,-0.163629,76.94599,-35.09392,-4.2502384,-85.35101,-7.2471247,0.9694944,85.5919,-3.7220025,-2.1104405,3.7991683,-0.83802456,29.793802,-48.736908,32.249615,-18.314245,-22.167543,2.2618375,-8.191613,0.8685281,-59.069515,-21.197094,20.513054,-29.399479,3.2231264,-3.0315897,-15.743131
119,-5.459001064300537,8.162962913513184,64.58588409423828,-4.550785865142707,28.691035892183237,78.59701766678077,-71.75805,10.981364,-0.37836432,77.17945,-35.40272,-4.333781,-86.01544,-7.1007404,0.5744479,86.51777,-3.5114176,-2.9813297,4.057289,-0.46232492,29.793802,-49.02555,32.225685,-18.405043,-22.076256,1.8514106,-8.252915,0.68226355,-58.970875,-21.32881,20.573763,-29.530787,2.3903744,-2.5727623,-16.917772
120,-5.506769180297852,8.346651077270508,64.58318328857422,-4.850572616412458,28.534284570509453,78.50610075745735,-71.54755,11.150934,-0.5750336,77.40503,-35.71385,-4.4140964,-86.56724,-6.710322,0.41078347,87.17352,-3.4134164,-3.1283655,4.2598743,-0.122992076,29.793802,-49.316124,32.202385,-18.50592,-21.98275,1.5030785,-8.302471,0.5073604,-58.854836,-21.454731,20.639872,-29.648054,1.6698635,-2.168109,-18.154081
121,-5.540064334869385,8.535049438476562,64.57594299316406,-5.088217260880704,28.353881682119994,78.4787502299798,-71.297745,11.260623,-0.7538888,77.63031,-36.037064,-4.497236,-86.97944,-5.962003,0.57037497,87.5479,-3.4513524,-2.2364743,4.403986,0.18289189,29.793802,-49.602333,32.174164,-18.622639,-21.88693,1.2053175,-8.332775,0.32996646,-58.70283,-21.576397,20.726091,-29.748474,1.0661701,-1.8271883,-19.509247
122,-5.574505805969238,8.72936725616455,64.56487274169922,-5.287071651554454,28.154732533460912,78.49892967615152,-71.02496,11.331775,-0.9307541,77.86658,-36.372345,-4.5863905,-87.26884,-4.931679,0.95706636,87.69385,-3.7369812,-0.5849738,4.5077806,0.47121036,29.793802,-49.893345,32.13862,-18.755436,-21.789503,0.9410021,-8.350353,0.14387745,-58.523388,-21.69501,20.824516,-29.836279,0.5325149,-1.5233253,-20.992008
123,-5.591611385345459,8.926118850708008,64.5496597290039,-5.45098161037489,27.966701621984896,78.55663200947275,-70.74966,11.367724,-1.0938872,78.08942,-36.703907,-4.665204,-87.48144,-3.826419,1.4234408,87.607666,-4.184253,1.3161197,4.5674877,0.73051643,29.793802,-50.196716,32.097214,-18.894615,-21.685259,0.7519936,-8.369476,-0.015813533,-58.345406,-21.812042,20.909817,-29.916544,0.08637976,-1.2629437,-22.476748
124,-5.603728294372559,9.12993049621582,64.53398132324219,-5.5815716883856865,27.819663819124038,78.64157326791036,-70.49391,11.372934,-1.2321666,78.27559,-37.01119,-4.717416,-87.66695,-2.8422163,1.83574,87.27939,-4.6745076,2.9697785,4.5788193,0.94772947,29.793802,-50.519104,32.054596,-19.029352,-21.576382,0.6792134,-8.404515,-0.11374035,-58.1985,-21.928238,20.956545,-29.993616,-0.25595784,-1.0559541,-23.838697
125,-5.616734504699707,9.349113464355469,64.52421569824219,-5.670195649812637,27.714481357796185,78.76937438811485,-70.25487,11.333485,-1.3423283,78.4184,-37.288246,-4.7317123,-87.825874,-1.9827654,2.2119956,86.69823,-5.1958685,4.3468423,4.5234504,1.1108238,29.793802,-50.85896,32.01452,-19.16474,-21.458685,0.773393,-8.462184,-0.12800069,-58.08057,-22.04096,20.96131,-30.062117,-0.4781882,-0.9236808,-25.082005
126,-5.621127605438232,9.562417030334473,64.52129364013672,-5.715948642598984,27.637581535493517,78.94037085072101,-70.02314,11.250156,-1.428802,78.52995,-37.54666,-4.718428,-87.93527,-1.1770885,2.6129062,85.868546,-5.7995496,5.660802,4.404616,1.2241197,29.793802,-51.211613,31.97844,-19.302092,-21.332659,0.9981054,-8.534037,-0.080537505,-57.97962,-22.14814,20.939486,-30.124268,-0.59698313,-0.86220896,-26.263456
127,-5.624207973480225,9.774388313293457,64.51957702636719,-5.738696618795,27.599044202267322,79.11822473980746,-69.8135,11.151838,-1.49478,78.61529,-37.789177,-4.6946855,-88.01443,-0.48164657,2.9842985,84.799065,-6.4308705,6.811955,4.2548475,1.301952,29.793802,-51.572487,31.94745,-19.426167,-21.21315,1.2654183,-8.611708,-0.0013769619,-57.91488,-22.251465,20.892017,-30.18211,-0.64408785,-0.8449509,-27.336496
128,-5.6165361404418945,9.983101844787598,64.52066040039062,-5.757685831868204,27.608862611873345,79.2665543314315,-69.64139,11.068334,-1.544509,78.68057,-38.020924,-4.6778407,-88.08381,0.062583864,3.2712855,83.498146,-7.0279617,7.7112737,4.1084437,1.3608644,29.793802,-51.940968,31.922188,-19.522957,-21.108416,1.4861424,-8.687158,0.07902619,-57.904,-22.355833,20.82043,-30.244123,-0.6499641,-0.8435414,-28.253918
129,-5.611877918243408,10.201274871826172,64.517822265625,-5.772624315273772,27.677531630824515,79.38336526176944,-69.51493,10.996303,-1.5776109,78.71759,-38.236103,-4.6706142,-88.150604,0.44957834,3.469489,81.93035,-7.593324,8.349043,3.962216,1.3965294,29.793802,-52.3195,31.903217,-19.589571,-21.0179,1.6332386,-8.758581,0.14956445,-57.96297,-22.466759,20.704649,-30.31885,-0.5643364,-0.8722464,-28.966063
130,-5.595417022705078,10.42212200164795,64.52149200439453,-5.7746418945181315,27.796624749468716,79.4856905648038,-69.42503,10.923956,-1.5935453,78.7274,-38.435223,-4.6648383,-88.20071,0.70972395,3.6082428,80.099304,-8.138949,8.77847,3.8006163,1.4032499,29.793802,-52.706417,31.891842,-19.632341,-20.938723,1.7552501,-8.82996,0.22661935,-58.081146,-22.577456,20.553604,-30.39625,-0.3927436,-0.94181806,-29.510176
131,-5.578815937042236,10.639249801635742,64.52880096435547,-5.777447918629581,27.949016218216883,79.5646727705649,-69.36217,10.870113,-1.6001078,78.72779,-38.628704,-4.662267,-88.214165,0.86415887,3.6785347,78.05485,-8.623504,9.016051,3.656473,1.4097712,29.793802,-53.10338,31.881542,-19.663774,-20.877478,1.8727099,-8.903106,0.32546684,-58.213406,-22.705261,20.392174,-30.480965,-0.23882164,-1.0149395,-29.973843
132,-5.56341552734375,10.873538970947266,64.53266143798828,-5.790987472769485,28.116605131970672,79.6115551079309,-69.314705,10.852684,-1.6017747,78.73723,-38.82409,-4.6640525,-88.17173,0.9338816,3.673707,75.85027,-9.007977,9.080438,3.5464058,1.4341,29.793802,-53.500355,31.868517,-19.68024,-20.840307,2.0129426,-8.979164,0.45455626,-58.341805,-22.83494,20.263214,-30.553053,-0.21532637,-1.0531994,-30.441107
133,-5.530283451080322,11.100568771362305,64.53714752197266,-5.823593702565023,28.30205289265821,79.61424035907028,-69.28764,10.8839655,-1.5970762,78.757545,-39.02366,-4.6684394,-88.07037,0.93086475,3.5839717,73.43876,-9.268039,8.950502,3.4850624,1.4940784,29.793802,-53.905636,31.849665,-19.675312,-20.82412,2.1996386,-9.060903,0.62689954,-58.467873,-22.968744,20.17956,-30.605396,-0.38215336,-1.0392381,-30.929512
134,-5.482195854187012,11.336734771728516,64.53360748291016,-5.867770193319402,28.511405735097778,79.58158889699591,-69.28393,10.951301,-1.585797,78.781006,-39.220745,-4.6757317,-87.909195,0.8593839,3.4095604,70.803085,-9.426957,8.64201,3.458699,1.5775399,29.793802,-54.320698,31.823599,-19.65031,-20.825024,2.4148467,-9.146687,0.83251494,-58.60405,-23.108791,20.121183,-30.643925,-0.670729,-0.99324447,-31.395014
135,-5.428005218505859,11.587615013122559,64.52784729003906,-5.913546535744077,28.73109777208678,79.5357113906255,-69.28784,11.035915,-1.5744326,78.808876,-39.421837,-4.6906404,-87.67476,0.7257142,3.1577244,68.03884,-9.520643,8.228779,3.4461253,1.6581693,29.793802,-54.729736,31.790575,-19.620754,-20.844988,2.6218686,-9.230966,1.0490158,-58.733524,-23.247551,20.071026,-30.677107,-0.99908745,-0.9329006,-31.829609
136,-5.372975826263428,11.805728912353516,64.52165222167969,-5.951155504147546,28.948157263976263,79.49833358318612,-69.28436,11.118974,-1.5686514,78.843735,-39.631233,-4.717661,-87.35946,0.53516924,2.8375177,65.249374,-9.581692,7.7816877,3.423097,1.7058818,29.793802,-55.11583,31.753523,-19.601704,-20.888178,2.7843862,-9.308538,1.2535242,-58.84039,-23.370432,20.01282,-30.71413,-1.2871735,-0.87737215,-32.22469
137,-5.300432205200195,12.045896530151367,64.51294708251953,-5.980730242496909,29.163621996962586,79.46077091883157,-69.2697,11.205906,-1.5677966,78.87948,-39.851147,-4.758856,-86.94516,0.2678349,2.4039156,62.370243,-9.627379,7.317249,3.385131,1.6999832,29.793802,-55.471813,31.719435,-19.588085,-20.96406,2.9032173,-9.375268,1.4216872,-58.926266,-23.458302,19.94237,-30.750498,-1.5344714,-0.848141,-32.57733
138,-5.224303245544434,12.298808097839355,64.50191497802734,-6.003343773144876,29.3811658069038,79.41869027275737,-69.24807,11.299555,-1.5650212,78.91663,-40.07857,-4.8106933,-86.43246,-0.057028607,1.8645043,59.367836,-9.636199,6.8146296,3.3193872,1.6401895,29.793802,-55.78857,31.707085,-19.560026,-21.074715,2.9953835,-9.434039,1.5693717,-59.021404,-23.484318,19.885603,-30.759762,-1.7846566,-0.8315849,-32.89027
139,-5.129673957824707,12.569853782653809,64.47845458984375,-6.005846396788065,29.592540567954863,79.40024465208731,-69.21915,11.382141,-1.5626199,78.96851,-40.314228,-4.8710938,-85.85083,-0.38348573,1.3062671,56.4006,-9.587051,6.2765937,3.2268565,1.5574217,29.793802,-56.074028,31.704216,-19.536385,-21.198729,3.0456161,-9.492578,1.7395765,-59.10317,-23.488712,19.843384,-30.768013,-2.0113444,-0.79211205,-33.170742
140,-5.016750812530518,12.82845687866211,64.44406127929688,-5.978133790854572,29.793269029212382,79.43237753017218,-69.18617,11.435014,-1.5627277,79.04133,-40.549908,-4.9363885,-85.23865,-0.6698806,0.8208935,53.630165,-9.458256,5.6901298,3.1072648,1.4728556,29.793802,-56.351215,31.70255,-19.535349,-21.303041,3.037019,-9.556918,1.9685571,-59.173985,-23.48668,19.797007,-30.775764,-2.1850471,-0.6964318,-33.40498
141,-4.89675760269165,13.086181640625,64.40291595458984,-5.908206096032683,29.98124156615788,79.52678920805432,-69.14043,11.443797,-1.5608323,79.12458,-40.787315,-5.0052314,-84.54986,-0.95099854,0.40498555,50.97098,-9.382544,4.9987965,2.9538064,1.3838342,29.793802,-56.64143,31.703844,-19.57851,-21.373531,2.9608433,-9.634805,2.2872584,-59.22887,-23.471409,19.74888,-30.785397,-2.3054476,-0.5253082,-33.570724
142,-4.772973537445068,13.36068058013916,64.35547637939453,-5.804082817987779,30.159402611322236,79.6671241839395,-69.08357,11.421738,-1.5566758,79.21767,-41.02955,-5.0792937,-83.79046,-1.240118,0.021436322,48.388153,-9.3309555,4.220669,2.7694898,1.2802261,29.793802,-56.929317,31.711859,-19.650862,-21.426659,2.8291247,-9.721072,2.6706305,-59.274387,-23.436462,19.706985,-30.790396,-2.3860686,-0.3013137,-33.679337
143,-4.627105712890625,13.642419815063477,64.29434204101562,-5.685166166542008,30.327568239261296,79.83393422611313,-69.029594,11.396926,-1.5553457,79.3432,-41.26828,-5.1598277,-83.08876,-1.4791319,-0.2829464,46.143738,-9.04714,3.4378865,2.5596738,1.1509212,29.793802,-57.191677,31.731295,-19.742952,-21.46357,2.6688735,-9.802771,3.0868597,-59.317158,-23.360794,19.67098,-30.78599,-2.436379,-0.05285265,-33.77628
144,-4.48546838760376,13.923470497131348,64.22395324707031,-5.577088324224538,30.48797520790713,80.00276274189078,-68.99516,11.402098,-1.5640085,79.52363,-41.49971,-5.249118,-82.58397,-1.6163255,-0.46580607,44.515068,-8.27793,2.7221162,2.3423898,0.99972343,29.793802,-57.402107,31.755836,-19.842615,-21.49233,2.50803,-9.866104,3.5047832,-59.35949,-23.24799,19.647186,-30.776886,-2.463781,0.19268602,-33.912334
145,-4.314402103424072,14.21151351928711,64.13709259033203,-5.492284965630097,30.663910391379027,80.15289736218972,-69.00193,11.462557,-1.5716149,79.75059,-41.7232,-5.3530946,-82.358536,-1.6141036,-0.4706004,43.694893,-6.8484006,1.9227953,2.134437,0.81127197,29.793802,-57.577126,31.775633,-19.96294,-21.50604,2.3583274,-9.907451,3.938993,-59.402752,-23.112415,19.62178,-30.779737,-2.4392006,0.4223006,-34.119217
146,-4.148834705352783,14.48250961303711,64.05157470703125,-5.421240236412861,30.849500969696795,80.29495707039425,-69.03918,11.56212,-1.5809735,80.01725,-41.94227,-5.4699388,-82.34208,-1.5245404,-0.35051,43.515965,-4.930453,1.042084,1.9331133,0.59490407,29.793802,-57.73198,31.789474,-20.109934,-21.49746,2.2062173,-9.933801,4.398268,-59.447834,-22.949636,19.593042,-30.787191,-2.371057,0.652622,-34.36134
147,-3.9562408924102783,14.762815475463867,63.9515266418457,-5.361643545397979,31.003567163778758,80.45236057746372,-69.07809,11.671052,-1.6237693,80.35194,-42.152996,-5.5902534,-82.43863,-1.4219872,-0.21683228,43.70695,-2.7890108,0.3835578,1.7465212,0.40775618,29.793802,-57.85348,31.790693,-20.278736,-21.474234,2.036945,-9.94844,4.850173,-59.470085,-22.774208,19.56755,-30.787514,-2.3131182,0.9025377,-34.595154
148,-3.754307985305786,15.050108909606934,63.83978271484375,-5.305660441819663,31.08563361686897,80.64899339713229,-69.089966,11.759157,-1.7307988,80.782906,-42.3516,-5.704813,-82.55068,-1.3651937,-0.15307608,44.00005,-0.69517803,0.2555845,1.5831307,0.30516148,29.793802,-57.932358,31.76961,-20.464828,-21.439434,1.837251,-9.95477,5.2619424,-59.444252,-22.59861,19.54995,-30.765158,-2.3192368,1.1912119,-34.775475
149,-3.536583185195923,15.363020896911621,63.70493698120117,-5.249145080790047,31.06885601829512,80.90236225252511,-69.05646,11.81552,-1.9157709,81.33886,-42.545013,-5.8054943,-82.65507,-1.342073,-0.12505019,44.335934,1.6089588,1.0128026,1.4594326,0.3324984,29.793802,-57.954945,31.706911,-20.670406,-21.393097,1.5763956,-9.950324,5.631045,-59.33398,-22.433105,19.551449,-30.71579,-2.4334009,1.5595002,-34.89436
150,-3.3093392848968506,15.666736602783203,63.55754852294922,-5.202565241089719,30.9802120449718,81.19278164958685,-68.99666,11.859424,-2.1619668,81.99957,-42.735138,-5.900892,-82.80711,-1.2928878,-0.056345303,44.86824,4.1529317,2.4199243,1.3794295,0.46251097,29.793802,-57.940914,31.592434,-20.902245,-21.326647,1.2731835,-9.93583,5.970605,-59.155167,-22.286226,19.560833,-30.648788,-2.6168325,1.9865279,-34.97412
151,-3.0724360942840576,15.953156471252441,63.39308166503906,-5.173876923642677,30.861210436314053,81.491671000112,-68.938095,11.90377,-2.4539895,82.7145,-42.90526,-6.0052586,-83.01608,-1.2259365,0.009342441,45.62813,6.3269897,3.8876538,1.3292909,0.6388531,29.793802,-57.92843,31.437826,-21.16125,-21.232618,0.9870821,-9.919148,6.272307,-58.966816,-22.169127,19.555084,-30.578722,-2.797166,2.398419,-35.017
152,-2.8441052436828613,16.204490661621094,63.228397369384766,-5.165453796326386,30.75347623397949,81.77536682515881,-68.90857,11.957057,-2.7745304,83.4334,-43.035286,-6.1316605,-83.28544,-1.1988333,-0.027781546,46.630505,7.5295777,4.7966714,1.2864522,0.7982511,29.793802,-57.94596,31.268677,-21.443283,-21.112688,0.77231,-9.907099,6.530638,-58.82711,-22.088957,19.51506,-30.519032,-2.8974702,2.7202392,-35.0288
153,-2.6143248081207275,16.462743759155273,63.06985092163086,-5.175508167656268,30.663063214046623,82.0413939182377,-68.92158,12.01944,-3.1218479,84.16445,-43.118664,-6.2859707,-83.64724,-1.2716149,-0.24573931,47.977905,7.366396,4.880558,1.2264018,0.8990376,29.793802,-57.981876,31.109219,-21.749937,-20.975565,0.6578597,-9.891621,6.7491474,-58.752445,-22.043991,19.435425,-30.492538,-2.8642664,2.9244816,-35.01396
154,-2.376845598220825,16.752105712890625,62.91294860839844,-5.196532161068521,30.56901114828811,82.30617410415813,-68.958176,12.08225,-3.5019324,84.92615,-43.16524,-6.459399,-84.0796,-1.4243522,-0.5898749,49.613358,6.2430415,4.4942145,1.1541619,0.9712255,29.793802,-58.010147,30.965961,-22.075012,-20.832975,0.60260624,-9.870738,6.9334826,-58.709988,-22.02765,19.329489,-30.49026,-2.744083,3.0526264,-34.97259
155,-2.1371524333953857,17.039499282836914,62.75655746459961,-5.227485169481489,30.47262550332546,82.57384659804721,-68.99874,12.140155,-3.90927,85.685265,-43.18496,-6.6428423,-84.5037,-1.6121345,-0.98545855,51.305573,4.7661777,3.935585,1.0898068,1.058251,29.793802,-58.035828,30.836044,-22.40118,-20.690132,0.5567949,-9.860646,7.0809183,-58.679565,-22.036926,19.20729,-30.486647,-2.6112854,3.133696,-34.90503
156,-1.8988940715789795,17.323083877563477,62.60669708251953,-5.269984890559977,30.376715326949018,82.84607048279237,-69.02529,12.190143,-4.338886,86.40909,-43.18983,-6.8275356,-84.846985,-1.7930446,-1.3755634,52.830795,3.5419705,3.4926414,1.0591029,1.2080872,29.793802,-58.070477,30.70912,-22.714628,-20.55191,0.47184733,-9.878122,7.1877203,-58.64717,-22.073044,19.078741,-30.451164,-2.5396867,3.1966743,-34.811306
157,-1.6494122743606567,17.613908767700195,62.464691162109375,-5.335096100619541,30.279282044193536,83.13101855534718,-69.03986,12.229465,-4.812068,87.09432,-43.187786,-7.020007,-85.09454,-1.9703101,-1.7823902,54.153328,2.6887758,3.1972716,1.0718602,1.4534396,29.793802,-58.12738,30.57492,-23.023014,-20.412954,0.3159416,-9.947822,7.241314,-58.62224,-22.148884,18.934238,-30.364878,-2.5592837,3.2429316,-34.692875
158,-1.4131683111190796,17.9073486328125,62.33979034423828,-5.421646607976698,30.18041131819109,83.42378682913217,-69.052414,12.262054,-5.326894,87.75991,-43.168198,-7.222187,-85.28424,-2.1578646,-2.2280436,55.386635,1.8971678,2.9111683,1.1228994,1.7712231,29.793802,-58.204273,30.428095,-23.334553,-20.272163,0.123421274,-10.054463,7.2464256,-58.60588,-22.27157,18.769394,-30.247444,-2.6265655,3.2597096,-34.549664
159,-1.1843442916870117,18.19753074645996,62.22372055053711,-5.508392014674816,30.08575578580918,83.7061443159334,-69.053215,12.296244,-5.841563,88.39859,-43.12409,-7.4192114,-85.42844,-2.3370266,-2.6703866,56.538364,1.1302055,2.657541,1.212602,2.1240604,29.793802,-58.29551,30.266092,-23.634525,-20.12651,-0.05613959,-10.155336,7.2244425,-58.562386,-22.428217,18.600388,-30.137938,-2.708272,3.2548482,-34.378498
160,-0.9321679472923279,18.489276885986328,62.11527633666992,-5.569613399974648,30.00073073671743,83.96043392439329,-69.03314,12.339622,-6.312622,89.00521,-43.046993,-7.5954866,-85.54031,-2.4890342,-3.065344,57.617157,0.35061002,2.4600122,1.3342557,2.4678955,29.793802,-58.38858,30.0919,-23.90445,-19.977222,-0.17157166,-10.207204,7.196462,-58.465263,-22.590557,18.444994,-30.064312,-2.7741263,3.235657,-34.173927
161,-0.6853393316268921,18.781003952026367,62.0137939453125,-5.597479969361385,29.92009995077711,84.18275969507667,-68.97696,12.39761,-6.7253394,89.57539,-42.941795,-7.761026,-85.615685,-2.6090577,-3.3990955,58.62665,-0.4637424,2.3397496,1.4855492,2.8005261,29.793802,-58.492126,29.91479,-24.12968,-19.810781,-0.20430402,-10.189449,7.1541233,-58.304935,-22.729914,18.319304,-30.01257,-2.843506,3.1918745,-33.916206
162,-0.43300995230674744,19.080322265625,61.92927551269531,-5.6024877364356,29.84211830405948,84.38199934436147,-68.89213,12.464967,-7.1005244,90.112816,-42.811752,-7.918662,-85.653175,-2.7056913,-3.6944492,59.56719,-1.2910608,2.2790422,1.6540864,3.1259592,29.793802,-58.601135,29.744844,-24.318356,-19.631445,-0.18127589,-10.126785,7.089617,-58.108932,-22.835009,18.21647,-29.962847,-2.9306347,3.1237922,-33.60931
163,-0.17000064253807068,19.38237762451172,61.85215759277344,-5.59129717666259,29.778220196117722,84.55903031101529,-68.80375,12.533303,-7.4482765,90.62229,-42.63868,-8.042227,-85.66978,-2.7819624,-3.9638882,60.438038,-2.1005435,2.2417874,1.8186934,3.4086182,29.793802,-58.685127,29.587978,-24.486353,-19.458115,-0.12053715,-10.044622,7.02566,-57.91525,-22.90426,18.122692,-29.921165,-2.9959054,3.0489306,-33.2855
164,0.08646737039089203,19.696765899658203,61.796974182128906,-5.5714676240296015,29.74021457356435,84.7145112606346,-68.73813,12.594121,-7.779532,91.110275,-42.406494,-8.105864,-85.68246,-2.8421109,-4.22057,61.239315,-2.862109,2.1897461,1.9619321,3.6162918,29.793802,-58.715218,29.446644,-24.648026,-19.312874,-0.039573837,-9.968885,6.984696,-57.757626,-22.94376,18.022062,-29.900394,-2.998804,2.9866157,-32.9768
165,0.3424854278564453,20.015182495117188,61.76177978515625,-5.5415328038634035,29.73712061902769,84.85306662690283,-68.711655,12.636772,-8.102874,91.58273,-42.097862,-8.085256,-85.69946,-2.8907635,-4.4659467,61.970413,-3.5708787,2.117311,2.073188,3.7234766,29.793802,-58.667423,29.319323,-24.810188,-19.208738,0.090608686,-9.89569,6.970576,-57.637264,-22.955412,17.902029,-29.917307,-2.9098828,2.9543996,-32.711143
166,0.5946067571640015,20.321439743041992,61.72532272338867,-5.498217404951268,29.760945979580033,84.97277853971076,-68.707886,12.668659,-8.410005,92.03445,-41.72509,-8.000161,-85.712074,-2.9243906,-4.6942525,62.63245,-4.242181,2.0427246,2.164771,3.753073,29.793802,-58.562263,29.207134,-24.962626,-19.13309,0.26813927,-9.814837,6.9722776,-57.5377,-22.937876,17.772612,-29.9637,-2.7562928,2.9386487,-32.465267
167,0.8367245197296143,20.62070655822754,61.70219039916992,-5.448964788574806,29.799039783324254,85.06397184027907,-68.70571,12.7090845,-8.687354,92.45661,-41.31551,-7.891082,-85.7116,-2.934026,-4.9068284,63.22733,-4.875828,1.9652827,2.2543755,3.7473388,29.793802,-58.43348,29.119184,-25.090248,-19.074266,0.42784485,-9.743117,6.990573,-57.464516,-22.898052,17.6547,-30.014366,-2.5809164,2.9120777,-32.19576
168,1.0937741994857788,20.90550422668457,61.696285247802734,-5.399173600830813,29.83885086419366,85.11747519360509,-68.68364,12.7766285,-8.921664,92.83932,-40.89779,-7.798005,-85.69103,-2.9107997,-5.1043916,63.75809,-5.472292,1.8843249,2.361292,3.7482758,29.793802,-58.31991,29.062468,-25.181236,-19.020765,0.5032893,-9.697598,7.026667,-57.42159,-22.847988,17.567158,-30.047861,-2.423818,2.8473437,-31.86119
169,1.3253350257873535,21.200708389282227,61.706851959228516,-5.357506032196395,29.883803462727855,85.11969508420363,-68.64352,12.888055,-9.104911,93.17616,-40.491943,-7.719726,-85.65309,-2.8458147,-5.294114,64.21352,-6.0212383,1.7960569,2.4994204,3.774216,29.793802,-58.235516,29.043018,-25.225538,-18.976515,0.4466072,-9.690749,7.083523,-57.408768,-22.803715,17.515734,-30.076702,-2.2730558,2.7500253,-31.45929
170,1.557868480682373,21.49148941040039,61.72758865356445,-5.317817798768384,29.937486544077647,85.07932981751927,-68.59402,13.030085,-9.246231,93.47429,-40.079796,-7.6383104,-85.601006,-2.7462463,-5.473201,64.59924,-6.5273166,1.7019238,2.6585064,3.7961357,29.793802,-58.170437,29.047083,-25.24213,-18.931652,0.3081457,-9.710881,7.160668,-57.423145,-22.745497,17.482037,-30.10353,-2.1180265,2.6304815,-31.002958
171,1.786710262298584,21.77558708190918,61.7579460144043,-5.2689105109409695,29.99136581166409,85.01914387969789,-68.528275,13.176512,-9.358581,93.74373,-39.62794,-7.5685287,-85.52661,-2.626228,-5.6283216,64.93216,-7.0084915,1.6089516,2.8121984,3.7995815,29.793802,-58.08291,29.083448,-25.2316,-18.904314,0.1499208,-9.739532,7.2541966,-57.461155,-22.665426,17.472101,-30.108927,-1.985426,2.4692626,-30.493757
172,2.0141892433166504,22.06483268737793,61.79996871948242,-5.2033065104985115,30.03714151773174,84.96152490985611,-68.440636,13.3009815,-9.457858,93.99553,-39.101944,-7.525898,-85.42286,-2.4999106,-5.748682,65.23189,-7.4838266,1.523972,2.948914,3.78173,29.793802,-57.945164,29.144129,-25.205462,-18.90432,0.03531979,-9.758787,7.3621497,-57.503563,-22.576881,17.480215,-30.08257,-1.8979739,2.2471182,-29.932951
173,2.2353694438934326,22.360204696655273,61.861026763916016,-5.124104614621944,30.06898087074211,84.89695081772128,-68.29724,13.421674,-9.528156,94.20609,-38.554085,-7.509157,-85.28182,-2.3572414,-5.82698,65.495026,-7.956381,1.4498787,3.092914,3.7516217,29.793802,-57.755653,29.20916,-25.172962,-18.930258,0.009484225,-9.76547,7.472907,-57.541683,-22.493902,17.49719,-30.013874,-1.8554641,1.9222426,-29.308802
174,2.465712547302246,22.65070915222168,61.927734375,-5.034070999388553,30.092254536635927,84.81883016320323,-68.11218,13.544324,-9.570123,94.37871,-37.981358,-7.512071,-85.10802,-2.1951487,-5.872845,65.71319,-8.416569,1.3821604,3.2530534,3.7197156,29.793802,-57.539032,29.270231,-25.132195,-18.970062,0.030977972,-9.769147,7.5904922,-57.579624,-22.42202,17.522348,-29.91294,-1.8438517,1.5172567,-28.625237
175,2.6660146713256836,22.950143814086914,62.00873947143555,-4.933566575222947,30.114383922402293,84.75271222291866,-67.95369,13.625744,-9.6295395,94.568825,-37.272408,-7.544695,-84.91049,-2.038579,-5.903958,65.898026,-8.86538,1.316338,3.4107904,3.698569,29.793802,-57.32474,29.311256,-25.093338,-19.00053,0.039289493,-9.771751,7.7363997,-57.603653,-22.377195,17.548508,-29.818975,-1.8677006,1.1100383,-27.905317
176,2.8711085319519043,23.248432159423828,62.09804916381836,-4.81245124947651,30.143303009494225,84.72542609178882,-67.886986,13.619032,-9.743326,94.82886,-36.313046,-7.61613,-84.700905,-1.9125754,-5.929784,66.062675,-9.303186,1.2491966,3.508268,3.6634572,29.793802,-57.108337,29.368849,-25.039116,-19.0244,-0.03142771,-9.773181,7.9302216,-57.63335,-22.320011,17.595161,-29.74485,-1.9398296,0.77533925,-27.169626
177,3.0857558250427246,23.548969268798828,62.19691467285156,-4.668513794242263,30.17188033183662,84.7428834935734,-67.89478,13.502403,-9.929923,95.16021,-35.08689,-7.7606673,-84.469444,-1.8224845,-5.953429,66.21137,-9.735342,1.1804357,3.5433402,3.6228166,29.793802,-56.88339,29.44203,-24.969515,-19.034483,-0.21431848,-9.774845,8.165287,-57.64974,-22.245909,17.658293,-29.70377,-2.0812905,0.54765236,-26.400532
178,3.291111707687378,23.847984313964844,62.307621002197266,-4.503463715033364,30.19884819968879,84.79168272243616,-67.950874,13.298096,-10.163765,95.53777,-33.649963,-7.9660306,-84.21472,-1.7558651,-5.965167,66.33787,-10.160352,1.1128443,3.5292637,3.5700614,29.793802,-56.64608,29.52928,-24.884424,-19.036606,-0.4686917,-9.776201,8.433963,-57.658985,-22.155201,17.739536,-29.681067,-2.2833495,0.37899452,-25.593668
179,3.4955997467041016,24.143827438354492,62.43085861206055,-4.321658934412751,30.240910908518945,84.86900698662144,-68.11341,13.029247,-10.42469,95.977486,-31.99268,-8.172941,-83.95874,-1.71243,-5.9667873,66.43703,-10.567628,1.0443885,3.4637358,3.4909987,29.793802,-56.416046,29.637083,-24.791191,-19.038542,-0.7510634,-9.777146,8.763394,-57.696087,-22.05446,17.836416,-29.658073,-2.5105,0.22285374,-24.78906
180,3.695110321044922,24.437089920043945,62.56275939941406,-4.130586305496691,30.31492643167166,84.9714255129736,-68.44198,12.72144,-10.691458,96.49498,-30.102528,-8.320704,-83.72243,-1.691172,-5.9605165,66.50166,-10.946048,0.97319734,3.3468225,3.373372,29.793802,-56.213924,29.771809,-24.698393,-19.049389,-1.0192837,-9.777531,9.1813,-57.787548,-21.958593,17.943743,-29.624308,-2.723835,0.034830414,-24.02846
181,3.8899545669555664,24.719568252563477,62.69890213012695,-3.9298644530546527,30.436313934326147,85.10663182376624,-68.985374,12.361472,-10.977211,97.10609,-27.877853,-8.396661,-83.514694,-1.6976116,-5.9484167,66.516205,-11.283763,0.8968786,3.171863,3.2147198,29.793802,-56.043087,29.93779,-24.61197,-19.076126,-1.2743018,-9.781994,9.722184,-57.947582,-21.881649,18.060509,-29.584505,-2.9130068,-0.20175248,-23.320713
182,4.081332683563232,25.00525665283203,62.848419189453125,-3.7162369071205488,30.592743298840833,85.27410832755614,-69.70301,11.941604,-11.282936,97.797356,-25.352121,-8.434712,-83.32328,-1.7305528,-5.9290223,66.48851,-11.589653,0.81756765,2.945363,3.0261266,29.793802,-55.891037,30.133656,-24.526348,-19.119173,-1.5383711,-9.79054,10.364011,-58.1534,-21.826147,18.186481,-29.549128,-3.093498,-0.46058604,-22.647724
183,4.281022071838379,25.288591384887695,62.99613571166992,-3.492038269500883,30.758991782146918,85.45794420682985,-70.521095,11.5006485,-11.57192,98.540054,-22.715446,-8.443329,-83.13634,-1.778793,-5.902339,66.44418,-11.8818445,0.7368767,2.687658,2.815787,29.793802,-55.7536,30.353994,-24.433023,-19.18353,-1.7994177,-9.795355,11.049571,-58.376434,-21.788855,18.318846,-29.521404,-3.2656016,-0.72012657,-22.00984
184,4.468350410461426,25.55379295349121,63.14292526245117,-3.260333149237428,30.90987647521365,85.64192494993465,-71.3661,11.0791025,-11.809579,99.306114,-20.157806,-8.427885,-82.94309,-1.8311208,-5.867311,66.41029,-12.179515,0.65787506,2.418642,2.5908241,29.793802,-55.62765,30.591394,-24.324621,-19.267519,-2.0440261,-9.787797,11.721049,-58.59235,-21.763111,18.456999,-29.497707,-3.4315321,-0.95945126,-21.406662
185,4.6400556564331055,25.833532333374023,63.285099029541016,-3.0200269686330277,31.043160673060157,85.82709785423386,-72.24002,10.676942,-11.996465,100.10645,-17.584028,-8.485968,-82.74199,-1.8896902,-5.8248386,66.388885,-12.485537,0.58465004,2.1380446,2.354912,29.793802,-55.52849,30.844395,-24.200123,-19.370771,-2.285586,-9.752147,12.383375,-58.80256,-21.74638,18.596897,-29.480236,-3.609006,-1.1740698,-20.818747
186,4.819899082183838,26.095495223999023,63.42025375366211,-2.7689709619508034,31.170087656114166,86.01893570333407,-73.1786,10.27606,-12.146079,100.95628,-14.941155,-8.581562,-82.54372,-1.9591045,-5.773068,66.37324,-12.790845,0.5152156,1.8379692,2.1017833,29.793802,-55.4535,31.11343,-24.06398,-19.489513,-2.523437,-9.697555,13.059632,-59.02075,-21.739119,18.741356,-29.466534,-3.7934458,-1.3748423,-20.25158
187,4.989161014556885,26.356098175048828,63.555274963378906,-2.513668804411682,31.28604700075217,86.21020650191069,-74.15339,9.905726,-12.243599,101.81929,-12.477422,-8.509167,-82.34268,-2.0305455,-5.7125835,66.3657,-13.097068,0.44171497,1.5252393,1.828388,29.793802,-55.380795,31.39211,-23.917557,-19.619232,-2.7261171,-9.651335,13.719366,-59.23726,-21.737974,18.894384,-29.449438,-3.9549172,-1.5630202,-19.741219
188,5.155254364013672,26.625818252563477,63.68828582763672,-2.2592623310144995,31.385856714986538,86.39189300379016,-75.14132,9.612072,-12.270101,102.66295,-10.4443245,-8.051684,-82.13722,-2.0947716,-5.6442137,66.37291,-13.40583,0.3562183,1.2092428,1.5321496,29.793802,-55.29069,31.669943,-23.76275,-19.749048,-2.8596685,-9.639727,14.3306,-59.443825,-21.738306,19.061794,-29.41847,-4.0652537,-1.7391301,-19.32251
189,5.322902679443359,26.88652801513672,63.81416320800781,-1.9936725819163075,31.463756996726392,86.56466957818985,-76.17657,9.375234,-12.232305,103.558556,-8.833504,-6.9395022,-81.92736,-2.1531734,-5.5533834,66.40288,-13.719852,0.2623031,0.8802247,1.1946812,29.793802,-55.179737,31.941193,-23.590258,-19.872803,-2.8914564,-9.677132,14.87972,-59.64252,-21.736378,19.245531,-29.365242,-4.067898,-1.9361833,-18.98155
190,5.4795942306518555,27.14622688293457,63.934452056884766,-1.723003440334538,31.5225595407738,86.73020147452931,-77.26488,9.211124,-12.131389,104.49491,-7.532589,-5.3359184,-81.71185,-2.2077813,-5.4474354,66.44924,-14.037796,0.16184792,0.5404885,0.8266146,29.793802,-55.06479,32.205418,-23.404387,-19.98817,-2.84488,-9.74493,15.383938,-59.83841,-21.73281,19.442955,-29.294758,-3.997621,-2.1413403,-18.704958
191,5.627472400665283,27.41007423400879,64.05271911621094,-1.478061609869568,31.570996548699462,86.88152504917694,-78.335945,9.202814,-11.951672,105.32589,-6.651908,-3.6830559,-81.48672,-2.2498932,-5.3605666,66.49575,-14.353811,0.04480092,0.21961808,0.47120607,29.793802,-54.950314,32.457077,-23.228975,-20.103657,-2.766385,-9.81944,15.858756,-60.026043,-21.731623,19.647179,-29.214159,-3.9630852,-2.287321,-18.53004
192,5.771411895751953,27.674108505249023,64.16325378417969,-1.2896850849698642,31.618910675894647,87.01292162896672,-79.30856,9.407799,-11.690354,105.90703,-6.3117547,-2.446543,-81.251015,-2.2716484,-5.325083,66.52895,-14.663374,-0.0983423,-0.052040942,0.17291461,29.793802,-54.846027,32.686024,-23.090445,-20.22442,-2.7024643,-9.87793,16.319654,-60.198498,-21.740572,19.851942,-29.134241,-4.0729733,-2.3073437,-18.494558
193,5.9111199378967285,27.94002914428711,64.27571105957031,-1.1783488565494218,31.663197899447134,87.11373764040368,-80.12066,9.906192,-11.323299,106.21483,-6.78731,-1.8334346,-80.99595,-2.262056,-5.3602552,66.54278,-14.965946,-0.2791473,-0.24745646,-0.044719726,29.793802,-54.762627,32.877293,-23.000378,-20.353964,-2.6257427,-9.913668,16.792395,-60.351833,-21.773146,20.046534,-29.058035,-4.2807493,-2.1583068,-18.597563
194,6.047728538513184,28.198137283325195,64.37744140625,-1.1212184018767104,31.701506830909032,87.19173756205774,-80.813416,10.613074,-10.867756,106.32097,-7.9393253,-1.5978489,-80.7266,-2.2296855,-5.440403,66.54733,-15.264948,-0.48797718,-0.38119733,-0.20236818,29.793802,-54.70069,33.021572,-22.950747,-20.480713,-2.5208695,-9.938979,17.26115,-60.481358,-21.837524,20.23401,-28.984999,-4.5512724,-1.8831362,-18.822851
195,6.1885504722595215,28.46086311340332,64.46607971191406,-1.077304160479445,31.74537829034994,87.27087555682557,-81.46211,11.337353,-10.381398,106.235466,-9.266954,-1.5260185,-80.46267,-2.1973393,-5.5317516,66.55096,-15.560919,-0.7027091,-0.48747933,-0.3233529,29.793802,-54.660797,33.121475,-22.9374,-20.584646,-2.458192,-9.961876,17.677416,-60.587803,-21.929333,20.431742,-28.910967,-5.0094113,-1.5427262,-19.184704
196,6.326457977294922,28.71788215637207,64.5611572265625,-1.010425603261406,31.805674246783333,87.37406938469844,-82.14578,11.8938,-9.927246,105.96783,-10.275745,-1.394254,-80.22052,-2.1871727,-5.6043444,66.55861,-15.853548,-0.9019438,-0.6061572,-0.4360361,29.793802,-54.645206,33.18611,-22.955723,-20.63778,-2.5066898,-9.991102,17.992483,-60.677456,-22.027594,20.655327,-28.82674,-5.785064,-1.1955063,-19.691978
197,6.455853462219238,28.981914520263672,64.65013122558594,-0.9252432719224576,31.890565011329667,87.49413852784073,-82.90473,12.27713,-9.5095,105.51874,-10.851332,-1.1233739,-80.006195,-2.1905112,-5.654846,66.557625,-16.13258,-1.0709158,-0.7519291,-0.55052686,29.793802,-54.638226,33.24364,-22.98843,-20.660585,-2.7342532,-10.035834,18.218033,-60.75011,-22.129719,20.926739,-28.74311,-6.9161325,-0.8319659,-20.388033
198,6.575463771820068,29.241634368896484,64.74063110351562,-0.8333565212981471,31.99159730897122,87.6239670750361,-83.68807,12.57355,-9.0926075,104.88254,-11.252685,-0.8366597,-79.80946,-2.2009165,-5.6964645,66.54987,-16.401731,-1.2235141,-0.9158223,-0.6667614,29.793802,-54.640835,33.29713,-23.038332,-20.654493,-3.086276,-10.089322,18.371445,-60.81518,-22.216412,21.234598,-28.65102,-8.334379,-0.4157235,-21.24244
199,6.699624061584473,29.50173568725586,64.82971954345703,-0.7177550216146201,32.09822028504462,87.7846700012839,-84.44769,12.737082,-8.688864,104.06164,-11.54743,-0.6073756,-79.62809,-2.2431972,-5.728452,66.56509,-16.68213,-1.3823184,-1.097769,-0.78947675,29.793802,-54.654037,33.33492,-23.123167,-20.604334,-3.457176,-10.135847,18.416727,-60.879753,-22.27,21.545296,-28.526325,-10.000855,0.03598458,-22.163523
200,6.808695316314697,29.757747650146484,64.92092895507812,-0.5616905220891643,32.203886275536746,87.99723896141805,-85.14131,12.722118,-8.311307,103.05735,-11.800305,-0.5088424,-79.464264,-2.342067,-5.7488937,66.63152,-16.994009,-1.5695685,-1.3026851,-0.90472883,29.793802,-54.63332,33.374554,-23.22592,-20.55405,-3.7646456,-10.160422,18.31821,-60.942078,-22.32858,21.855585,-28.373047,-11.860636,0.50690377,-23.094814
201,6.918211460113525,30.02113151550293,65.00259399414062,-0.35546346398863166,32.30932901165131,88.27242501137557,-85.76551,12.48577,-7.9791245,101.85545,-12.027277,-0.56940204,-79.32051,-2.5108678,-5.758984,66.75503,-17.343016,-1.8066639,-1.5237976,-1.0120447,29.793802,-54.584263,33.40419,-23.369118,-20.490536,-4.017943,-10.153145,18.042868,-60.993736,-22.402868,22.158976,-28.183746,-14.14873,1.0427055,-24.09451
202,7.021548748016357,30.27958869934082,65.07476806640625,-0.11440860546026094,32.41582961631228,88.59636856083245,-86.34195,12.068619,-7.688637,100.45798,-12.193815,-0.74451137,-79.19402,-2.7325337,-5.7616525,66.92023,-17.71958,-2.0762649,-1.7516885,-1.1085955,29.793802,-54.5312,33.40622,-23.561047,-20.393883,-4.247281,-10.122999,17.617178,-61.03154,-22.480433,22.453924,-27.958736,-16.810207,1.6560118,-25.156368
203,7.118924617767334,30.545974731445312,65.14083099365234,0.14632800648768307,32.517942186084525,88.9535589568648,-86.86672,11.556216,-7.415485,98.88606,-12.288901,-0.98768616,-79.076584,-2.986752,-5.7618575,67.11966,-18.117949,-2.3459752,-1.9794214,-1.1884882,29.793802,-54.485447,33.388588,-23.788591,-20.270292,-4.4011846,-10.083923,17.09972,-61.05309,-22.549908,22.716537,-27.721931,-19.36065,2.2515502,-26.121147
204,7.203014373779297,30.831754684448242,65.19180297851562,0.4076754621402807,32.612496686819895,89.32839711799099,-87.337616,11.031179,-7.1351976,97.162025,-12.301369,-1.2545795,-78.960724,-3.2537117,-5.766082,67.34455,-18.531584,-2.584024,-2.1859467,-1.2333996,29.793802,-54.465477,33.347713,-24.047749,-20.128935,-4.4291534,-10.05217,16.55226,-61.03833,-22.636545,22.918137,-27.518805,-21.311863,2.7103252,-26.854704
205,7.317564487457275,31.08745765686035,65.23993682861328,0.6756904422671478,32.705462266804616,89.73773392076255,-87.76137,10.475572,-6.853239,95.25559,-12.18234,-1.5469874,-78.851814,-3.544143,-5.775251,67.59598,-18.958712,-2.7846222,-2.3913403,-1.2467047,29.793802,-54.481228,33.298473,-24.334967,-19.957624,-4.3083234,-10.030971,15.938563,-60.998478,-22.719122,23.053623,-27.33305,-22.574457,2.9611232,-27.34192
206,7.412844657897949,31.35225486755371,65.28034210205078,0.9575116369196589,32.79631736289777,90.1824655963519,-88.13487,9.863409,-6.582153,93.16203,-11.95434,-1.8797612,-78.751526,-3.8629308,-5.786112,67.87614,-19.401861,-2.9644594,-2.5997825,-1.2371372,29.793802,-54.51342,33.24424,-24.650475,-19.763918,-4.0697184,-10.015151,15.244859,-60.938885,-22.79688,23.140436,-27.15363,-23.400469,3.0574906,-27.667875
207,7.497146129608154,31.635643005371094,65.31639099121094,1.236279557844368,32.87057545548904,90.62241397085673,-88.43841,9.259212,-6.2997584,90.942406,-11.710822,-2.229725,-78.6473,-4.181931,-5.7958508,68.18474,-19.862314,-3.12445,-2.786895,-1.2187135,29.793802,-54.538334,33.185127,-24.987408,-19.576649,-3.7446592,-10.006795,14.564237,-60.855186,-22.86662,23.178688,-27.006886,-23.83202,3.0486577,-27.838594
208,7.569192886352539,31.915382385253906,65.33563232421875,1.4956080478740927,32.913944433334834,91.01742034335942,-88.6538,8.724445,-5.991947,88.65863,-11.543038,-2.5855165,-78.52586,-4.4734116,-5.8011045,68.52154,-20.340961,-3.265078,-2.9280527,-1.2057889,29.793802,-54.529884,33.119358,-25.339552,-19.42287,-3.3619251,-10.006296,13.989443,-60.744324,-22.924063,23.16799,-26.915337,-23.909746,2.9870734,-27.855701
209,7.655780792236328,32.19768524169922,65.3366470336914,1.7400924652130487,32.91663404592552,91.36848098183798,-88.759865,8.252246,-5.6556334,86.28786,-11.488326,-2.960913,-78.38049,-4.738724,-5.7986274,68.896255,-20.844147,-3.3864288,-3.0322456,-1.2155528,29.793802,-54.472946,33.046757,-25.713896,-19.309448,-2.8679368,-10.013633,13.547263,-60.604553,-22.96387,23.09241,-26.896557,-23.474453,2.852479,-27.632444
210,7.722715377807617,32.47905731201172,65.33148956298828,1.9746740241775402,32.8879617620798,91.6917994968711,-88.77052,7.817052,-5.2993593,83.80535,-11.4897375,-3.3573616,-78.218056,-4.989315,-5.7906466,69.30615,-21.36912,-3.4884255,-3.1091177,-1.2387342,29.793802,-54.385555,32.96953,-26.11022,-19.216558,-2.2680829,-10.029278,13.18738,-60.440567,-22.983843,22.957655,-26.931496,-22.561003,2.6311898,-27.193735
211,7.799031734466553,32.76012420654297,65.31343078613281,2.184519747629495,32.84244959889181,91.97026252184239,-88.718735,7.449159,-4.917508,81.268875,-11.495768,-3.7423868,-78.04565,-5.210826,-5.784275,69.73215,-21.90294,-3.5744116,-3.136783,-1.2496905,29.793802,-54.27517,32.89128,-26.506092,-19.153242,-1.6752311,-10.051016,12.886274,-60.259346,-22.985613,22.801176,-26.987093,-21.501827,2.38544,-26.71006
212,7.859177112579346,33.051265716552734,65.29407501220703,2.3545025260409744,32.79531482704845,92.1874359303313,-88.63997,7.176892,-4.5035505,78.73995,-11.45602,-4.0844245,-77.87114,-5.3905945,-5.788344,70.15621,-22.434345,-3.6488695,-3.0902236,-1.220176,29.793802,-54.164925,32.81102,-26.884438,-19.11633,-1.207078,-10.076312,12.621087,-60.064674,-22.97497,22.657473,-27.03649,-20.631289,2.1675563,-26.355452
213,7.916197776794434,33.34451675415039,65.25794982910156,2.484369769430148,32.746483751730445,92.33649022396955,-88.52885,7.013931,-4.0404444,76.20488,-11.359382,-4.378415,-77.69319,-5.5264325,-5.80345,70.57494,-22.959908,-3.7131143,-2.9493415,-1.1393231,29.793802,-54.061058,32.71381,-27.26071,-19.10969,-0.88414663,-10.102744,12.399937,-59.847843,-22.955938,22.531069,-27.074287,-19.98603,1.9683119,-26.174776
214,7.9668684005737305,33.63942337036133,65.20381927490234,2.581502716609951,32.690023889849854,92.4268428642041,-88.36995,6.937758,-3.532512,73.63905,-11.229451,-4.643359,-77.509705,-5.6245937,-5.8256555,70.99961,-23.485037,-3.7652175,-2.7335808,-1.0193832,29.793802,-53.948204,32.606483,-27.628944,-19.138008,-0.6521178,-10.13073,12.227323,-59.611954,-22.931091,22.412128,-27.116386,-19.404188,1.7657005,-26.08013
215,8.016375541687012,33.943687438964844,65.14628601074219,2.638205302588993,32.630487968655714,92.46676905997039,-88.18458,6.921569,-3.0101392,71.09306,-11.070904,-4.8858914,-77.32294,-5.682209,-5.857167,71.42908,-24.014814,-3.8025372,-2.460136,-0.8670921,29.793802,-53.83623,32.491035,-27.976099,-19.178497,-0.4937607,-10.160738,12.083202,-59.364025,-22.90085,22.285322,-27.163366,-18.927866,1.582286,-26.039072
216,8.048913955688477,34.24525451660156,65.07474517822266,2.645766081251444,32.57229524947044,92.46386295691751,-87.9926,6.942254,-2.5048037,68.61272,-10.885437,-5.1110744,-77.13471,-5.6955514,-5.900106,71.85864,-24.545395,-3.8226914,-2.1489623,-0.6892645,29.793802,-53.738266,32.373592,-28.284025,-19.20421,-0.3975883,-10.193927,11.945904,-59.113995,-22.864315,22.139643,-27.217665,-18.598755,1.4419979,-26.02064
217,8.09044361114502,34.54907989501953,64.98910522460938,2.590945842693733,32.517706693197034,92.40922793988724,-87.795815,7.0109587,-2.0200386,66.1872,-10.68753,-5.313016,-76.946335,-5.650724,-5.959512,72.28457,-25.073483,-3.8271935,-1.794253,-0.48416275,29.793802,-53.648605,32.259544,-28.548748,-19.2258,-0.38093218,-10.231795,11.8020935,-58.85422,-22.817423,21.97855,-27.288027,-18.476416,1.3784071,-26.065228
218,8.120504379272461,34.855751037597656,64.89585876464844,2.4823216221784556,32.46349384313264,92.30244122157443,-87.58643,7.1349306,-1.5394295,63.802864,-10.469762,-5.4903216,-76.756805,-5.55332,-6.032474,72.70991,-25.60004,-3.816893,-1.3927182,-0.25307268,29.793802,-53.5641,32.151703,-28.776808,-19.252514,-0.44695303,-10.2726,11.665948,-58.58625,-22.757492,21.806952,-27.369421,-18.522106,1.3693678,-26.174297
219,8.136139869689941,35.16185760498047,64.79862213134766,2.345224985975458,32.40687377192446,92.1642786243044,-87.36625,7.2860217,-1.0646561,61.492107,-10.209583,-5.654798,-76.56643,-5.4298925,-6.108501,73.142586,-26.13198,-3.7879417,-0.969777,-0.008160516,29.793802,-53.475388,32.05534,-28.962906,-19.275192,-0.55364466,-10.312189,11.55786,-58.329308,-22.687891,21.619041,-27.44641,-18.630108,1.3557277,-26.260334
220,8.147821426391602,35.472068786621094,64.69204711914062,2.204209803772781,32.344567405682795,92.01562344191484,-87.13782,7.4345922,-0.5981976,59.290253,-9.884383,-5.8192153,-76.37378,-5.3073587,-6.1782966,73.59029,-26.676277,-3.7367575,-0.5460733,0.2401286,29.793802,-53.390522,31.963005,-29.110931,-19.2695,-0.657381,-10.347032,11.498168,-58.099705,-22.60862,21.40346,-27.500963,-18.6989,1.2767272,-26.231646
221,8.141892433166504,35.78337860107422,64.57562255859375,2.0600055146535743,32.278107717139434,91.8533717949648,-86.895935,7.585215,-0.12536311,57.179016,-9.478572,-6.0142603,-76.18217,-5.183696,-6.2408175,74.054634,-27.2323,-3.6597762,-0.11230978,0.5028794,29.793802,-53.30212,31.87882,-29.212389,-19.249407,-0.7442374,-10.376699,11.496863,-57.90307,-22.527477,21.14612,-27.525883,-18.699917,1.0942013,-26.034204
222,8.138410568237305,36.09659194946289,64.44778442382812,1.9002608199735675,32.20836763642628,91.66945211341233,-86.64302,7.7474446,0.34995052,55.151585,-9.008593,-6.225524,-75.990425,-5.047571,-6.301864,74.530846,-27.796799,-3.5600033,0.34045148,0.7830958,29.793802,-53.211834,31.801609,-29.272602,-19.218866,-0.83726215,-10.403054,11.542357,-57.727303,-22.445568,20.854275,-27.535063,-18.686298,0.84784454,-25.726274
223,8.131233215332031,36.417789459228516,64.3154296875,1.7329444018838152,32.13267825788407,91.47799945764721,-86.39746,7.898006,0.7981333,53.264545,-8.500359,-6.397859,-75.79445,-4.9132266,-6.361193,75.01969,-28.376669,-3.4435036,0.7852374,1.0602287,29.793802,-53.120937,31.731653,-29.299286,-19.166563,-0.95460147,-10.42649,11.621101,-57.567657,-22.362766,20.557405,-27.540686,-18.672588,0.5954604,-25.392233
224,8.114158630371094,36.74525833129883,64.17031860351562,1.5691441184534651,32.048926801104265,91.2943196781827,-86.17898,8.014447,1.1896322,51.577415,-7.9826236,-6.4757905,-75.59108,-4.7951093,-6.4179435,75.52379,-28.97365,-3.3160717,1.1925837,1.3119034,29.793802,-53.018723,31.67044,-29.298416,-19.088346,-1.1079972,-10.447093,11.719519,-57.417995,-22.277514,20.28859,-27.558453,-18.675732,0.39456287,-25.116236
225,8.075227737426758,37.06890869140625,64.02357482910156,1.412658308550135,31.96092185178216,91.12576434511267,-86.00428,8.079655,1.5027263,50.10382,-7.414943,-6.4313717,-75.383156,-4.7021112,-6.473927,76.04068,-29.593935,-3.1716151,1.5472158,1.524356,29.793802,-52.901165,31.623224,-29.264357,-18.980194,-1.3004404,-10.463848,11.8335905,-57.28415,-22.187504,20.048653,-27.593016,-18.694681,0.25996056,-24.903
226,8.031634330749512,37.40180587768555,63.86466598510742,1.2595723887584076,31.870107078917393,90.96535618872895,-85.8662,8.109805,1.7585936,48.822533,-6.8033113,-6.2975645,-75.17337,-4.6269794,-6.529051,76.57104,-30.234234,-3.009642,1.8628834,1.7103267,29.793802,-52.77121,31.594088,-29.192299,-18.848751,-1.5279117,-10.477362,11.970921,-57.16683,-22.09417,19.826488,-27.639528,-18.722744,0.16138871,-24.714222
227,7.985952377319336,37.731082916259766,63.705360412597656,1.10442752364742,31.77155066280989,90.80647128990505,-85.747505,8.132243,1.9916052,47.73873,-6.244648,-6.1110168,-74.95634,-4.559871,-6.580058,77.11737,-30.885078,-2.8442123,2.1560369,1.889011,29.793802,-52.630157,31.577568,-29.091759,-18.710922,-1.7891178,-10.489917,12.135768,-57.057034,-22.000147,19.626236,-27.684717,-18.767677,0.08807634,-24.570204
228,7.9351067543029785,38.07292175292969,63.53572463989258,0.9432974049921403,31.657916858823903,90.64263120729532,-85.62947,8.172212,2.236958,46.85948,-5.836788,-5.9088826,-74.72549,-4.4914002,-6.6223245,77.68388,-31.537916,-2.6890736,2.438308,2.0726252,29.793802,-52.48238,31.561632,-28.973808,-18.569357,-2.0739775,-10.503334,12.330207,-56.951912,-21.886927,19.451092,-27.704187,-18.845125,0.027361235,-24.485607
229,7.85842752456665,38.415855407714844,63.35545349121094,0.7656398001677489,31.518111134964407,90.46690638124349,-85.46403,8.278405,2.5806994,46.133224,-5.7323446,-5.682955,-74.46862,-4.4116807,-6.6597967,78.27609,-32.196106,-2.5446038,2.731837,2.2915766,29.793802,-52.32302,31.539612,-28.838337,-18.435461,-2.4121172,-10.518307,12.555049,-56.836296,-21.78208,19.301657,-27.70163,-18.963919,-0.031835966,-24.464756
230,7.779098987579346,38.75937271118164,63.17687225341797,0.578068889342568,31.358189281377005,90.28642718714964,-85.27603,8.419628,2.9773517,45.577896,-5.8390903,-5.4220967,-74.19103,-4.3288846,-6.694438,78.88956,-32.86213,-2.4046135,3.0247228,2.5318506,29.793802,-52.17215,31.504004,-28.686308,-18.279696,-2.7966392,-10.534776,12.806326,-56.72419,-21.672958,19.173344,-27.674091,-19.121778,-0.081502825,-24.493904
231,7.704085350036621,39.10197448730469,62.99089813232422,0.3980785595158986,31.202934265396493,90.11486762722942,-85.16544,8.506446,3.261252,45.307037,-5.889807,-5.155119,-73.91935,-4.2598233,-6.72026,79.5133,-33.525635,-2.2727466,3.29776,2.7641203,29.793802,-52.032387,31.45872,-28.525873,-18.113998,-3.1739051,-10.554454,13.085451,-56.610466,-21.57144,19.063766,-27.649696,-19.285597,-0.096046336,-24.586407
232,7.616135597229004,39.44984817504883,62.80168914794922,0.24322419770165477,31.07641982428236,89.96543396908856,-85.23022,8.453889,3.2688076,45.42894,-5.611497,-4.9054503,-73.67839,-4.2215295,-6.73111,80.135796,-34.1771,-2.1526797,3.5253923,2.9534893,29.793802,-51.898376,31.405901,-28.362537,-17.952484,-3.4807286,-10.577849,13.393644,-56.508377,-21.468603,18.978275,-27.640368,-19.42838,-0.05205232,-24.749844
233,7.519463539123535,39.794376373291016,62.626487731933594,0.12488943345121943,31.001617261385427,89.85173462691634,-85.548935,8.1571455,2.8244023,46.041264,-4.743225,-4.674855,-73.489525,-4.2245045,-6.723278,80.74647,-34.824818,-2.0476453,3.6843297,3.0784776,29.793802,-51.786575,31.35056,-28.18242,-17.782156,-3.701535,-10.612944,13.738574,-56.44447,-21.3535,18.915335,-27.64577,-19.517614,0.056444105,-24.986305
234,7.418941497802734,40.13600540161133,62.44842529296875,0.032490399024187475,30.959361802539643,89.76137137480612,-86.04238,7.6820807,2.0679886,47.05032,-3.4814465,-4.4640613,-73.33386,-4.2569685,-6.698339,81.3543,-35.471146,-1.954355,3.7889912,3.153747,29.793802,-51.67865,31.297499,-27.982952,-17.613525,-3.8642728,-10.655998,14.118232,-56.40937,-21.224491,18.878574,-27.658342,-19.575573,0.21646748,-25.291468
235,7.302236557006836,40.49833297729492,62.26329040527344,-0.050866271479716785,30.91047028197415,89.66803619607205,-86.579636,7.2071366,1.304633,48.288635,-2.2493248,-4.2813153,-73.17692,-4.302678,-6.6589975,81.9784,-36.09339,-1.867339,3.8697062,3.2019372,29.793802,-51.56575,31.244064,-27.787123,-17.440205,-3.9962308,-10.690821,14.514088,-56.35932,-21.075724,18.873842,-27.662878,-19.664848,0.42222312,-25.659796
236,7.167641639709473,40.86591720581055,62.081241607666016,-0.1383023003380749,30.815745813191715,89.54793975409163,-87.043274,6.929888,0.83003044,49.60387,-1.4822992,-4.10544,-72.98281,-4.3465614,-6.6089687,82.63587,-36.671516,-1.7806844,3.9532423,3.2433007,29.793802,-51.413925,31.17505,-27.618668,-17.274221,-4.0979753,-10.698844,14.907044,-56.257957,-20.890436,18.908049,-27.64109,-19.851765,0.66953254,-26.08239
237,7.0297160148620605,41.2442741394043,61.904483795166016,-0.24300818042288266,30.64839902595888,89.38918313878868,-87.42529,6.983963,0.7611064,51.067677,-1.380704,-3.9291587,-72.726295,-4.3905263,-6.5647025,83.34825,-37.216408,-1.7046709,4.0536075,3.2956476,29.793802,-51.229897,31.076372,-27.488958,-17.081585,-4.1791654,-10.662236,15.310509,-56.08743,-20.657927,18.992754,-27.57115,-20.231909,0.99596983,-26.589579
238,6.889463424682617,41.61818313598633,61.73173904418945,-0.35656404301512995,30.432692745720026,89.20509427626317,-87.78092,7.262598,0.9128049,52.725086,-1.6908454,-3.7423403,-72.42859,-4.4398108,-6.518919,84.10013,-37.733757,-1.6384832,4.154725,3.3431406,29.793802,-51.011955,30.942425,-27.387394,-16.871284,-4.213806,-10.593941,15.726923,-55.875256,-20.376556,19.11974,-27.45505,-20.747065,1.3930789,-27.169043
239,6.732051849365234,41.992515563964844,61.56834411621094,-0.4592195509897389,30.207195521810306,89.01210406084341,-88.10295,7.6034856,1.1248589,54.403614,-2.1785374,-3.5132127,-72.12629,-4.486721,-6.4417562,84.85604,-38.19683,-1.5600632,4.2430544,3.3645804,29.793802,-50.819668,30.785528,-27.307705,-16.63804,-4.2202687,-10.523856,16.116753,-55.65153,-20.050398,19.268034,-27.321959,-21.238363,1.7866821,-27.74599
