unveil-humanoid-operators/unveil-humanoid-operators.github.io/feature-analysis-animation/data/feature_matrix_instances/gender_ankle_rom_walking_A056_walk_ff_start_225_003__A056.csv
Frame,root_translateX,root_translateY,root_translateZ,root_rotateX,root_rotateY,root_rotateZ,left_hip_pitch_joint_dof,left_hip_roll_joint_dof,left_hip_yaw_joint_dof,left_knee_joint_dof,left_ankle_pitch_joint_dof,left_ankle_roll_joint_dof,right_hip_pitch_joint_dof,right_hip_roll_joint_dof,right_hip_yaw_joint_dof,right_knee_joint_dof,right_ankle_pitch_joint_dof,right_ankle_roll_joint_dof,waist_yaw_joint_dof,waist_roll_joint_dof,waist_pitch_joint_dof,left_shoulder_pitch_joint_dof,left_shoulder_roll_joint_dof,left_shoulder_yaw_joint_dof,left_elbow_joint_dof,left_wrist_roll_joint_dof,left_wrist_pitch_joint_dof,left_wrist_yaw_joint_dof,right_shoulder_pitch_joint_dof,right_shoulder_roll_joint_dof,right_shoulder_yaw_joint_dof,right_elbow_joint_dof,right_wrist_roll_joint_dof,right_wrist_pitch_joint_dof,right_wrist_yaw_joint_dof
0,-0.15018489956855774,1.5877289772033691,77.3777084350586,0.2697756213031929,4.605216612502158,-87.28603597140884,-7.8088064,1.7929958,8.743337,14.743663,-14.07569,-2.1184177,-7.83129,-3.5774689,-3.60087,19.595293,-17.231573,4.151783,-2.032801,0.46358296,1.6839347,-7.305929,15.833816,-53.161205,59.617527,1.226794,4.463611,6.6060514,7.795473,-15.876571,30.184845,49.537285,9.982961,6.8426685,-1.6075262
1,-0.1494593322277069,1.581079363822937,77.37645721435547,0.2654808504850912,4.606015312658283,-87.2843013097989,-7.8129864,1.7978777,8.738611,14.7498255,-14.0907,-2.1069067,-7.832489,-3.5739338,-3.6093988,19.599865,-17.227367,4.160735,-2.0438273,0.47648075,1.6874688,-7.300589,15.82896,-53.16008,59.61539,1.2304653,4.4678745,6.6363726,7.8013964,-15.883978,30.16752,49.54409,10.001516,6.8014593,-1.5667942
2,-0.15063372254371643,1.582042932510376,77.37604522705078,0.2609210681913337,4.606551439859536,-87.28262179869526,-7.819079,1.8034004,8.733359,14.760339,-14.109551,-2.0942695,-7.8326735,-3.570252,-3.6190221,19.603088,-17.221813,4.1712027,-2.0562978,0.48756364,1.6904519,-7.2938905,15.826504,-53.16018,59.61292,1.2336388,4.472909,6.6698046,7.8042693,-15.887229,30.153471,49.55541,10.031011,6.759236,-1.52511
3,-0.14959987998008728,1.5772435665130615,77.37622833251953,0.2574157337921167,4.607512630283539,-87.28086456013163,-7.8211126,1.8073213,8.729255,14.761848,-14.120693,-2.0838187,-7.8351283,-3.5671723,-3.6264794,19.60973,-17.219326,4.178659,-2.062584,0.4996327,1.6946808,-7.289985,15.822194,-53.16091,59.609505,1.2380568,4.476873,6.6967545,7.8118467,-15.892085,30.127218,49.561897,10.035238,6.7188077,-1.4852078
4,-0.15004463493824005,1.585038423538208,77.377685546875,0.2563290570769977,4.6095069915974864,-87.27899221589361,-7.826172,1.809132,8.726481,14.767807,-14.127649,-2.0782835,-7.840178,-3.566408,-3.6305778,19.618101,-17.22069,4.1797585,-2.072706,0.5072042,1.6940966,-7.285004,15.820637,-53.15845,59.607323,1.2342114,4.4776063,6.709896,7.818179,-15.893462,30.114521,49.570026,9.996706,6.6820354,-1.46193
5,-0.15298619866371155,1.5914212465286255,77.37722778320312,0.259219008935005,4.612997626933089,-87.27601665414267,-7.8349233,1.8072519,8.725092,14.778599,-14.125978,-2.081038,-7.8509727,-3.568925,-3.629793,19.633799,-17.230272,4.169103,-2.0686574,0.5166624,1.6972927,-7.28601,15.815022,-53.14648,59.600834,1.2372745,4.4723735,6.6961465,7.839224,-15.897107,30.0621,49.56592,9.828949,6.645507,-1.4469173
6,-0.15131312608718872,1.5899468660354614,77.37604522705078,0.2646779451363239,4.617265530013349,-87.2729492532304,-7.8467727,1.8030612,8.725225,14.794823,-14.1179085,-2.0897114,-7.865895,-3.5737164,-3.6249926,19.654951,-17.245956,4.1500273,-2.0738876,0.5199971,1.691536,-7.2827,15.813932,-53.137077,59.597702,1.2209089,4.462632,6.670592,7.8556094,-15.897372,30.043686,49.5692,9.609215,6.6082644,-1.45492
7,-0.15580090880393982,1.5903337001800537,77.37320709228516,0.2707930095641651,4.622168438244116,-87.27023957814161,-7.856685,1.7978044,8.726529,14.805656,-14.108512,-2.098523,-7.880428,-3.579191,-3.618903,19.673155,-17.260532,4.1320114,-2.061614,0.52583903,1.6975315,-7.2907023,15.809273,-53.113895,59.58986,1.2307262,4.454189,6.633009,7.886457,-15.897174,29.970459,49.550407,9.378572,6.5825276,-1.452165
8,-0.15671858191490173,1.5875141620635986,77.37415313720703,0.2756393195444862,4.627328280606382,-87.26930593150102,-7.8641148,1.7934753,8.729167,14.810756,-14.10367,-2.1017358,-7.891209,-3.5836186,-3.6137867,19.682713,-17.268833,4.1242924,-2.0583699,0.52859175,1.6947457,-7.293423,15.806579,-53.108437,59.586853,1.2275436,4.4526563,6.614038,7.8988886,-15.896487,29.94354,49.544518,9.310016,6.573542,-1.453511
9,-0.16094882786273956,1.5869462490081787,77.37358093261719,0.27938706075514147,4.633659792219564,-87.27117322236074,-7.8701167,1.7896898,8.734997,14.810575,-14.1082945,-2.0933018,-7.8973155,-3.588001,-3.6089928,19.679054,-17.267296,4.133421,-2.0523264,0.52834505,1.6921992,-7.300223,15.804339,-53.11257,59.586323,1.2341318,4.4627504,6.6112213,7.901134,-15.895904,29.930788,49.532692,9.454353,6.5942006,-1.4468879
10,-0.1590956598520279,1.5864981412887573,77.37368774414062,0.2830147859383672,4.641037833363258,-87.27478177788954,-7.875154,1.7856104,8.743236,14.806466,-14.117948,-2.0778422,-7.8998127,-3.5927117,-3.603985,19.664877,-17.258717,4.1531425,-2.0449355,0.5255932,1.6877997,-7.30898,15.802419,-53.12477,59.58796,1.2440132,4.480354,6.617893,7.8957076,-15.8958025,29.93056,49.518528,9.741326,6.636393,-1.4384245
11,-0.15396882593631744,1.582642674446106,77.37385559082031,0.2848905312566731,4.647369682654061,-87.27915633478491,-7.8781857,1.7833909,8.750794,14.800212,-14.127381,-2.0654354,-7.900773,-3.5951865,-3.5997286,19.6501,-17.24957,4.173366,-2.037308,0.52324486,1.6825366,-7.3182955,15.79961,-53.14481,59.593143,1.2478411,4.497786,6.630319,7.8891797,-15.896134,29.939873,49.50437,10.054497,6.681478,-1.4309882
12,-0.15383432805538177,1.5806728601455688,77.371826171875,0.28362022496025996,4.650546065185621,-87.28288603653398,-7.8766794,1.7848955,8.754572,14.791557,-14.130158,-2.0663004,-7.899728,-3.593175,-3.5975199,19.64013,-17.243769,4.1841946,-2.0330043,0.524526,1.6813811,-7.323143,15.797647,-53.1559,59.596493,1.2505931,4.508104,6.64146,7.883311,-15.896582,29.946266,49.49559,10.264517,6.7116833,-1.4234842
13,-0.15775306522846222,1.580130696296692,77.36949157714844,0.2763755016061948,4.6483534043499395,-87.28601169509643,-7.869336,1.7938074,8.752004,14.781441,-14.124304,-2.088535,-7.8967,-3.5829446,-3.5992584,19.639967,-17.244127,4.180875,-2.033733,0.53421694,1.68679,-7.3222175,15.796926,-53.158203,59.595863,1.2475454,4.5087132,6.65335,7.8831205,-15.8965845,29.946785,49.48825,10.348242,6.7233105,-1.4130934
14,-0.1589353233575821,1.5812876224517822,77.37052917480469,0.2648266778201022,4.642367977610832,-87.28922273780506,-7.8572435,1.8082286,8.745554,14.76966,-14.113703,-2.1249864,-7.8905935,-3.5665293,-3.603488,19.643824,-17.24697,4.169397,-2.0318747,0.54658085,1.6971322,-7.3198757,15.796053,-53.15967,59.5955,1.2432578,4.504716,6.6689024,7.8829217,-15.896491,29.947268,49.482086,10.383313,6.7285566,-1.4020963
15,-0.15467599034309387,1.5796922445297241,77.37139129638672,0.2534638922256435,4.63545646521649,-87.29232167899715,-7.844266,1.822394,8.738873,14.758583,-14.101477,-2.1628613,-7.883839,-3.550217,-3.6071005,19.648838,-17.250816,4.155828,-2.0309894,0.5581775,1.7083523,-7.317006,15.795461,-53.16068,59.596893,1.2353722,4.49638,6.683065,7.881423,-15.896435,29.948076,49.482025,10.353497,6.724019,-1.3935107
16,-0.15928888320922852,1.578011393547058,77.37226867675781,0.24822105791375806,4.633459071778178,-87.29442104755935,-7.83747,1.828907,8.73554,14.750232,-14.0908785,-2.188975,-7.882906,-3.5415366,-3.6066215,19.6541,-17.254656,4.1465497,-2.0297842,0.5638317,1.7123888,-7.314876,15.794899,-53.160633,59.59971,1.228776,4.4874926,6.6844983,7.8812037,-15.896411,29.950073,49.48883,10.252336,6.707649,-1.3922354
17,-0.15563131868839264,1.5902312994003296,77.373291015625,0.2523441590791227,4.636560574945514,-87.29446201036775,-7.8385243,1.8240451,8.736495,14.748473,-14.082548,-2.2004182,-7.8877797,-3.5444918,-3.6002655,19.660826,-17.259777,4.142985,-2.0331688,0.55983,1.7049173,-7.311648,15.792942,-53.15736,59.60898,1.2199444,4.474027,6.668328,7.879925,-15.896545,29.95892,49.516335,9.987695,6.665006,-1.404881
18,-0.15482574701309204,1.595334529876709,77.37373352050781,0.26232333212368114,4.642491928198441,-87.29329364389116,-7.837806,1.8111598,8.740691,14.73825,-14.068053,-2.2041936,-7.897173,-3.5543692,-3.5891724,19.671251,-17.267328,4.141331,-2.0334966,0.54833806,1.6930103,-7.311408,15.791983,-53.156723,59.621403,1.209149,4.457049,6.639632,7.8801503,-15.897159,29.968304,49.55395,9.598553,6.603356,-1.4280314
19,-0.15923543274402618,1.5862799882888794,77.37076568603516,0.273112947537847,4.651419064574869,-87.29268561825657,-7.8457355,1.798003,8.745826,14.738399,-14.060375,-2.2015653,-7.9102345,-3.5655231,-3.5778182,19.680035,-17.273056,4.1418076,-2.0359344,0.53654224,1.6772667,-7.3093395,15.791289,-53.154026,59.633278,1.1995195,4.441893,6.609506,7.879795,-15.897928,29.979153,49.58883,9.259514,6.5483656,-1.4497288
20,-0.16134138405323029,1.5737254619598389,77.37042999267578,0.27901460107956516,4.662633701896302,-87.29553095107264,-7.85969,1.7913111,8.751584,14.7433,-14.059536,-2.1943057,-7.9262915,-3.5714257,-3.568344,19.684412,-17.274626,4.143742,-2.038879,0.529791,1.6663021,-7.3076854,15.789538,-53.143032,59.64045,1.199979,4.435878,6.5888014,7.8714757,-15.899665,29.994514,49.60507,9.160084,6.528166,-1.4592808
21,-0.15931087732315063,1.57185697555542,77.37200164794922,0.27773442456749103,4.678416621342436,-87.3042325870902,-7.8844123,1.7940439,8.758924,14.755436,-14.069092,-2.1779833,-7.949047,-3.5697823,-3.5612254,19.682278,-17.26892,4.148731,-2.0332835,0.5290121,1.6616331,-7.313622,15.788586,-53.13671,59.64247,1.2091329,4.4435706,6.5831685,7.8568335,-15.900762,30.001759,49.585632,9.460731,6.5684185,-1.4458354
22,-0.1589689701795578,1.5807284116744995,77.3685302734375,0.2729191250544661,4.698112496153086,-87.3171476790945,-7.9183965,1.8020074,8.768144,14.774889,-14.087051,-2.15333,-7.9778447,-3.5643845,-3.5549083,19.676735,-17.258648,4.156462,-2.0240324,0.5311673,1.6595182,-7.324013,15.787352,-53.13096,59.64202,1.224025,4.460636,6.5860806,7.83527,-15.902663,30.009602,49.545517,10.028014,6.64826,-1.4193448
23,-0.15357141196727753,1.583100438117981,77.37095642089844,0.26654971038336533,4.717191123890962,-87.32934248129479,-7.9541125,1.8120555,8.776053,14.799266,-14.108407,-2.1297967,-8.005233,-3.5574586,-3.5501747,19.67024,-17.24848,4.1636047,-2.017774,0.5354412,1.659134,-7.335033,15.785738,-53.124203,59.641453,1.2356557,4.4788837,6.5902195,7.8133264,-15.905963,30.020452,49.50525,10.592666,6.725686,-1.3943698
24,-0.15372741222381592,1.583964228630066,77.36870574951172,0.26124082585996755,4.731337744107948,-87.33570929408816,-7.9852524,1.8205471,8.779499,14.828806,-14.1295,-2.1168487,-8.025205,-3.5518007,-3.5479803,19.668814,-17.244638,4.16698,-2.0143964,0.5403413,1.6613433,-7.3425145,15.784307,-53.11468,59.638954,1.2406348,4.4905114,6.587024,7.8007097,-15.908925,30.025602,49.48391,10.878689,6.758053,-1.3814946
25,-0.1591489464044571,1.5812864303588867,77.37032318115234,0.25861689577589986,4.735450435666028,-87.33375448586276,-8.002221,1.8258882,8.778161,14.857872,-14.146222,-2.123472,-8.030921,-3.5485744,-3.5476692,19.674398,-17.250183,4.1639147,-2.0167568,0.5450228,1.6682805,-7.347081,15.783229,-53.106182,59.636845,1.2235917,4.491084,6.574141,7.8022,-15.9110565,30.02507,49.49532,10.717593,6.713566,-1.3882186
26,-0.16174012422561646,1.5767369270324707,77.36446380615234,0.2567730798124803,4.733055651662339,-87.32623782674041,-8.011288,1.8303181,8.773169,14.889081,-14.161723,-2.1425312,-8.02728,-3.5458252,-3.5494106,19.684082,-17.26151,4.1567945,-2.024424,0.5520911,1.6838822,-7.350159,15.781612,-53.085373,59.63174,1.2043382,4.4854255,6.552793,7.811415,-15.91358,30.011917,49.523678,10.276902,6.62211,-1.4035579
27,-0.1613093465566635,1.5763508081436157,77.36380767822266,0.25400398268251845,4.732787992124735,-87.31740823966408,-8.030565,1.8361876,8.764976,14.935763,-14.184755,-2.1590447,-8.026089,-3.54287,-3.553991,19.695276,-17.274044,4.1496544,-2.0298033,0.55858546,1.6953611,-7.354065,15.780533,-53.071262,59.62797,1.1849734,4.4800954,6.530276,7.8229327,-15.914645,29.999975,49.552963,9.819581,6.5325747,-1.422144
28,-0.15875792503356934,1.5845518112182617,77.36126708984375,0.24798516057812123,4.743146834776251,-87.31107304820178,-8.076689,1.845841,8.753623,15.008816,-14.222061,-2.158017,-8.037831,-3.5383353,-3.56249,19.70319,-17.282257,4.146677,-2.0296679,0.5652108,1.6985313,-7.361286,15.77979,-53.059193,59.625416,1.1889889,4.481158,6.5080705,7.829347,-15.9150505,29.990532,49.56089,9.592014,6.4951925,-1.4314909
29,-0.15467964112758636,1.5882896184921265,77.35899353027344,0.24303688207094457,4.767556893810762,-87.31031320837157,-8.151244,1.8535002,8.741863,15.101452,-14.270759,-2.126503,-8.0695095,-3.538359,-3.5744164,19.711193,-17.285667,4.1517887,-2.0209062,0.5662804,1.6881348,-7.370526,15.779345,-53.052834,59.623573,1.2257838,4.492953,6.4904075,7.826208,-15.915252,29.988197,49.540524,9.739805,6.546329,-1.4244709
30,-0.14625093340873718,1.5946643352508545,77.35458374023438,0.23767821966493477,4.80187856928835,-87.31227375656465,-8.248564,1.8615553,8.728251,15.213948,-14.329902,-2.0756838,-8.113696,-3.5400658,-3.5897608,19.717567,-17.28563,4.161596,-2.0142612,0.5648657,1.671241,-7.3829775,15.777347,-53.036865,59.62554,1.2902056,4.5108857,6.472258,7.8102593,-15.9175825,30.000925,49.50367,10.1097975,6.653376,-1.4102942
31,-0.1403082013130188,1.5948923826217651,77.3491439819336,0.2244906209727987,4.84063283445727,-87.31229258832705,-8.369075,1.8800857,8.707796,15.362739,-14.407745,-2.0261376,-8.160786,-3.5334518,-3.6097715,19.71925,-17.283163,4.170084,-2.0114863,0.5721431,1.6482319,-7.3918333,15.775134,-53.020203,59.627693,1.3563366,4.5285835,6.45221,7.794929,-15.920894,30.019062,49.46393,10.491865,6.7559404,-1.3987149
32,-0.1375742107629776,1.6005935668945312,77.34518432617188,0.19538854622204435,4.879372966403397,-87.30577941553092,-8.516355,1.920537,8.675324,15.568672,-14.514399,-1.9986708,-8.202325,-3.5071697,-3.6353679,19.713243,-17.279318,4.1708727,-2.0094726,0.5970389,1.6260284,-7.401949,15.774268,-53.00861,59.630203,1.403329,4.5398507,6.4245124,7.7925477,-15.922296,30.02238,49.429214,10.672819,6.795653,-1.3965156
33,-0.14377690851688385,1.5941282510757446,77.33565521240234,0.1439623629436883,4.916861773872443,-87.29144199127396,-8.69609,1.9919549,8.625605,15.847853,-14.658106,-2.0058923,-8.230035,-3.4521194,-3.668278,19.686516,-17.26911,4.1601057,-2.0203938,0.6489689,1.6077998,-7.412463,15.7732115,-52.982224,59.635525,1.4359747,4.54122,6.3734155,7.799659,-15.924601,30.016254,49.403522,10.569707,6.742435,-1.4045366
34,-0.1417073905467987,1.5979905128479004,77.32059478759766,0.0768831886270492,4.954852036961783,-87.27180322041251,-8.898743,2.0842001,8.563227,16.174528,-14.828873,-2.0343149,-8.249966,-3.377226,-3.7071495,19.645342,-17.25415,4.1420836,-2.0369928,0.7212111,1.5960786,-7.422852,15.773123,-52.939198,59.63666,1.4730526,4.5370255,6.3036027,7.81456,-15.926863,29.98872,49.376274,10.289974,6.633029,-1.4132783
35,-0.13496027886867523,1.5997756719589233,77.30957794189453,0.0001667229112453582,4.995967608928314,-87.24743511681524,-9.126328,2.1882887,8.494333,16.544704,-15.019528,-2.0667384,-8.273233,-3.2927377,-3.7510915,19.605642,-17.23979,4.121721,-2.0504928,0.8013263,1.5811318,-7.4362316,15.774808,-52.909893,59.63992,1.4906416,4.5302386,6.2449384,7.8334455,-15.927661,29.958345,49.353527,9.953335,6.508422,-1.4324992
36,-0.1331929862499237,1.6105564832687378,77.29670715332031,-0.0799250856806356,5.04228054403814,-87.21832384211191,-9.376593,2.2948368,8.42494,16.946642,-15.224433,-2.08582,-8.309588,-3.208669,-3.799892,19.581766,-17.230692,4.103952,-2.0645492,0.8823952,1.5614421,-7.4500413,15.77621,-52.89445,59.64572,1.4874945,4.5235615,6.222284,7.8472304,-15.927776,29.942947,49.336323,9.666738,6.4112434,-1.4660265
37,-0.12624917924404144,1.6095129251480103,77.27908325195312,-0.16851530448363597,5.097810944036699,-87.1812357547374,-9.6622305,2.4094353,8.354589,17.394468,-15.449844,-2.087072,-8.362237,-3.1207645,-3.8583157,19.569725,-17.222149,4.087099,-2.0804064,0.96888715,1.5359886,-7.4662085,15.77686,-52.890347,59.654636,1.4694678,4.5182786,6.2409186,7.853038,-15.928091,29.943518,49.323826,9.406399,6.3439817,-1.5278717
38,-0.10962782055139542,1.622471570968628,77.26728057861328,-0.26733632366210824,5.160542468913187,-87.1370467515744,-9.979539,2.5352502,8.280387,17.88721,-15.695833,-2.0801685,-8.425203,-3.0245368,-3.9247694,19.56306,-17.212715,4.0689783,-2.1010473,1.064521,1.5068891,-7.484123,15.777335,-52.8898,59.66587,1.4393154,4.5126314,6.2865114,7.8555665,-15.929175,29.954557,49.313343,9.130172,6.287481,-1.6112859
39,-0.10165715217590332,1.636512041091919,77.24517059326172,-0.364108917518781,5.222406201099988,-87.09287018035202,-10.297694,2.6560075,8.2050705,18.384632,-15.943504,-2.0678694,-8.494586,-2.9336522,-3.9902,19.573551,-17.213127,4.0553427,-2.1251004,1.1587276,1.4785105,-7.499496,15.777108,-52.894115,59.67775,1.3864839,4.5039682,6.3563385,7.850461,-15.93231,29.977627,49.31243,8.923071,6.2513323,-1.6865102
40,-0.09418079257011414,1.6367765665054321,77.22357940673828,-0.4467318649336314,5.275751859589604,-87.05522710582974,-10.589882,2.7567797,8.131043,18.853306,-16.177427,-2.0528326,-8.564119,-2.8608592,-4.045741,19.606815,-17.2304,4.051893,-2.1455607,1.2419327,1.4596314,-7.5098133,15.776204,-52.897186,59.683643,1.312025,4.4900436,6.444274,7.841476,-15.936641,29.995827,49.31781,8.857786,6.2457194,-1.7198023
41,-0.07584275305271149,1.6368852853775024,77.2051010131836,-0.5154427670516163,5.317536846720463,-87.02497729115426,-10.854524,2.837598,8.05145,19.29697,-16.39803,-2.034922,-8.624933,-2.8059044,-4.092334,19.65249,-17.262691,4.064318,-2.1666138,1.3163253,1.4533733,-7.513639,15.77457,-52.901608,59.681717,1.1949782,4.466116,6.568095,7.821171,-15.945161,30.018082,49.345818,8.94137,6.258153,-1.6968306
42,-0.058021705597639084,1.6258442401885986,77.18646240234375,-0.5752467925672319,5.352214567750167,-86.99890761222946,-11.104482,2.905082,7.9677978,19.729961,-16.612568,-2.012846,-8.682128,-2.7632601,-4.1336355,19.70969,-17.306269,4.08828,-2.1875565,1.3867406,1.456851,-7.5127773,15.77208,-52.90669,59.672573,1.046171,4.4347043,6.723588,7.798118,-15.959906,30.043798,49.380802,9.136578,6.2892365,-1.6356616
43,-0.05033555254340172,1.6297049522399902,77.16232299804688,-0.6221060584108231,5.383059036522149,-86.97743380646881,-11.332009,2.9545727,7.8951545,20.129843,-16.81267,-1.9876204,-8.753211,-2.7381072,-4.164171,19.80606,-17.370266,4.1140604,-2.2025945,1.4445124,1.4646428,-7.5102987,15.769585,-52.90998,59.662056,0.89841306,4.4036684,6.874415,7.774032,-15.975024,30.057793,49.40828,9.458291,6.3655396,-1.5558839
44,-0.013092061504721642,1.640624761581421,77.13714599609375,-0.6522367801667596,5.413313948066333,-86.9609581789328,-11.530842,2.9821396,7.8481116,20.476957,-16.991795,-1.9602512,-8.855593,-2.7351162,-4.179224,19.968678,-17.463533,4.132114,-2.211899,1.4882083,1.4722904,-7.508861,15.7642975,-52.907875,59.655483,0.7784227,4.380225,6.98616,7.7661834,-16.00356,30.05715,49.385036,9.932274,6.516758,-1.4784222
45,0.013365604914724827,1.638933777809143,77.10968017578125,-0.6698602785623771,5.444011875205674,-86.9485988676806,-11.699676,2.9932704,7.8336477,20.766483,-17.149862,-1.932936,-8.989097,-2.749481,-4.178644,20.19474,-17.585331,4.134781,-2.2106445,1.5163124,1.4788568,-7.513281,15.758077,-52.90539,59.660633,0.69064754,4.362525,7.056098,7.762215,-16.028692,30.02315,49.30014,10.755429,6.8340335,-1.3866032
46,0.034890491515398026,1.6286860704421997,77.0856704711914,-0.675073332895356,5.473332490689295,-86.94036673104604,-11.843163,2.9880788,7.842648,21.011414,-17.291449,-1.9041804,-9.145259,-2.7811513,-4.165133,20.471369,-17.73135,4.1293874,-2.1941533,1.535053,1.4892068,-7.527096,15.744536,-52.910435,59.675735,0.6181308,4.3474584,7.1014767,7.7779818,-16.069397,29.955658,49.148636,11.853674,7.277737,-1.2809635
47,0.06798435002565384,1.6261358261108398,77.06404876708984,-0.6573627864881137,5.500442598343344,-86.93838118846273,-11.958665,2.9539495,7.868006,21.209675,-17.411291,-1.8700485,-9.331861,-2.8415825,-4.1346006,20.817059,-17.907194,4.126751,-2.171287,1.5322764,1.4976139,-7.53884,15.726158,-52.90709,59.691494,0.5696898,4.343333,7.1135426,7.8027315,-16.11287,29.885883,49.00645,12.825807,7.668589,-1.2059553
48,0.10907051712274551,1.6253432035446167,77.03301239013672,-0.6056841887918561,5.524399314992355,-86.94470877949703,-12.042377,2.8776617,7.9025908,21.357243,-17.503563,-1.8265519,-9.554139,-2.9426787,-4.083135,21.245155,-18.116117,4.1380196,-2.149006,1.4933462,1.499074,-7.533134,15.713572,-52.880497,59.689552,0.5548164,4.3590274,7.082895,7.8253155,-16.139694,29.84094,48.9514,13.267163,7.8248377,-1.1954007
49,0.14981554448604584,1.6202116012573242,77.00758361816406,-0.5163766595018694,5.543658176410213,-86.96224548607144,-12.094657,2.7549295,7.9422674,21.461594,-17.568302,-1.770561,-9.815402,-3.0875793,-4.0070662,21.765491,-18.36249,4.1676965,-2.1201243,1.4212807,1.4968119,-7.511818,15.697681,-52.818584,59.665203,0.60037357,4.4118857,6.976019,7.8732276,-16.175222,29.823818,48.984203,12.9340105,7.628694,-1.2683353
50,0.1667938530445099,1.591325044631958,76.97908020019531,-0.3948174356825987,5.559054069023288,-86.98916308289641,-12.11588,2.5925417,7.991745,21.52037,-17.60744,-1.7048266,-10.111158,-3.2700922,-3.9087749,22.366995,-18.642578,4.209494,-2.0856736,1.3164417,1.4898008,-7.4760427,15.686507,-52.73274,59.621346,0.69134384,4.4928546,6.8079777,7.930924,-16.202068,29.8248,49.088535,12.085269,7.1991453,-1.4063365
51,0.1933508813381195,1.575984239578247,76.95082092285156,-0.24573289575804058,5.573963864129652,-87.02005516643177,-12.107884,2.3950663,8.0564375,21.524155,-17.62261,-1.6340901,-10.437128,-3.4864757,-3.793476,23.03377,-18.94844,4.258524,-2.062825,1.1905669,1.4814562,-7.428895,15.672085,-52.6285,59.572277,0.7869324,4.567073,6.6426973,7.988618,-16.243998,29.843414,49.20199,11.085091,6.719438,-1.5703753
52,0.2611360251903534,1.5690678358078003,76.91831970214844,-0.07307802651140267,5.591580987128741,-87.049717912998,-12.069897,2.1666858,8.142055,21.45963,-17.613293,-1.5632586,-10.7881775,-3.7337236,-3.6662805,23.748625,-19.271517,4.3096347,-2.0417147,1.0390397,1.4685786,-7.3837037,15.661543,-52.557823,59.533127,0.82590234,4.6025267,6.546199,8.03413,-16.28331,29.849558,49.291405,10.28468,6.3660216,-1.7133023
53,0.3003772497177124,1.5461833477020264,76.88719177246094,0.12584209667567037,5.6137067129438805,-87.0769924320777,-11.988893,1.9004053,8.254849,21.29589,-17.570808,-1.493007,-11.165198,-4.0174427,-3.5268197,24.511314,-19.614561,4.3635225,-2.0251365,0.85986066,1.4475539,-7.334653,15.654227,-52.521656,59.50511,0.7835299,4.5765567,6.5481544,8.057805,-16.319801,29.85259,49.35439,9.726235,6.1789055,-1.8297964
54,0.32486021518707275,1.5180436372756958,76.85430908203125,0.3522182968087984,5.638157492956748,-87.10466599083156,-11.868745,1.5961666,8.389651,21.048582,-17.498075,-1.4212534,-11.567912,-4.336518,-3.3721883,25.324804,-19.97998,4.422262,-2.0116348,0.6541488,1.4202839,-7.2813363,15.648943,-52.5069,59.48207,0.68906844,4.5112057,6.6096907,8.069781,-16.356369,29.857368,49.40851,9.237782,6.0653844,-1.9398255
55,0.3811846077442169,1.5041162967681885,76.81749725341797,0.5983378256053972,5.662812673666204,-87.13287232665778,-11.731403,1.2680979,8.535066,20.766457,-17.408035,-1.3487945,-11.993533,-4.6778016,-3.2035542,26.18336,-20.355717,4.482929,-2.0021622,0.4305258,1.3964628,-7.2307506,15.644219,-52.503033,59.46146,0.5884664,4.4407864,6.6925015,8.092068,-16.406694,29.845972,49.427128,8.857696,6.0027547,-2.0261865
56,0.4406108856201172,1.4829272031784058,76.78036499023438,0.8575460452306631,5.685205617057784,-87.16193328414155,-11.600049,0.93029743,8.680311,20.50069,-17.314505,-1.2760066,-12.437451,-5.0284605,-3.0221157,27.079502,-20.734026,4.5425806,-1.999313,0.18320963,1.3772519,-7.190131,15.643541,-52.505585,59.45167,0.52329415,4.4006634,6.7584424,8.111241,-16.436485,29.804478,49.443966,8.616631,5.963168,-2.0775712
57,0.49467962980270386,1.4574652910232544,76.74409484863281,1.1371841076885019,5.705362321460858,-87.19037979988059,-11.479875,0.5751861,8.822602,20.25987,-17.214998,-1.1990575,-12.898307,-5.3960023,-2.8290405,28.012451,-21.126232,4.590054,-2.0032415,-0.0921838,1.3668282,-7.1636157,15.646053,-52.520195,59.45152,0.4992162,4.4040074,6.8098783,8.146302,-16.461498,29.721952,49.429253,8.569114,5.9570346,-2.0768363
58,0.533680260181427,1.4418953657150269,76.70453643798828,1.4379003056330013,5.7243220516005975,-87.21866082304084,-11.356829,0.19865432,8.967956,20.014145,-17.101526,-1.1190957,-13.379197,-5.7829022,-2.6218185,28.986856,-21.533447,4.6300406,-2.0081518,-0.39528582,1.3618367,-7.148606,15.652791,-52.554165,59.458958,0.49318978,4.4310656,6.863011,8.192319,-16.482254,29.601902,49.388226,8.680023,5.991798,-2.0346065
59,0.551228404045105,1.4176900386810303,76.65644836425781,1.7428765773415673,5.741563259673686,-87.24936192395009,-11.233877,-0.17855963,9.117257,19.772549,-16.989378,-1.0419714,-13.876612,-6.1694846,-2.3997598,29.99012,-21.923464,4.685547,-2.0148554,-0.7076275,1.362148,-7.1393785,15.663315,-52.589375,59.46987,0.5096964,4.4668765,6.900529,8.237759,-16.49368,29.461262,49.339573,8.856679,6.0411553,-1.9771166
60,0.5753809809684753,1.404276967048645,76.60804748535156,2.0352354380910342,5.756697153649242,-87.28525989430426,-11.110183,-0.5356691,9.271666,19.535183,-16.888254,-0.9767333,-14.3905945,-6.535461,-2.1614373,31.01804,-22.268303,4.77908,-2.0133586,-1.0089247,1.3707665,-7.1332994,15.678835,-52.616333,59.47475,0.5536293,4.496802,6.9047766,8.283728,-16.49767,29.300632,49.28614,9.003989,6.07958,-1.9274552
61,0.6005932688713074,1.3884018659591675,76.5597152709961,2.3111635124077106,5.771979158259425,-87.3274681647621,-10.989037,-0.8673485,9.435324,19.303385,-16.803684,-0.9286821,-14.925076,-6.8774085,-1.9127331,32.074688,-22.567476,4.9098616,-2.0135572,-1.2929577,1.3843073,-7.127671,15.696753,-52.62224,59.473793,0.6351161,4.519351,6.864341,8.321812,-16.494581,29.127197,49.231594,9.103216,6.117125,-1.8890904
62,0.6283283233642578,1.364305019378662,76.50923156738281,2.5793351789870216,5.786687684443104,-87.3745687989217,-10.871692,-1.1841508,9.606353,19.079046,-16.73082,-0.8925555,-15.480157,-7.2043986,-1.6528053,33.16428,-22.83579,5.0687957,-1.9850698,-1.5764763,1.4109224,-7.1332707,15.740851,-52.65182,59.44764,0.7387351,4.54375,6.788869,8.377422,-16.478445,28.889421,49.15323,9.185023,6.162163,-1.8438498
63,0.6537950038909912,1.346574068069458,76.46231842041016,2.840668172512131,5.796828478316746,-87.42503636469245,-10.752283,-1.489283,9.777336,18.860945,-16.66208,-0.8584913,-16.045967,-7.514314,-1.3709067,34.27363,-23.064062,5.2666984,-1.9828924,-1.8511609,1.4409167,-7.1305647,15.773994,-52.641632,59.435352,0.86460614,4.5628104,6.698834,8.408636,-16.462255,28.691496,49.093124,9.296901,6.1850286,-1.8079364
64,0.6702209115028381,1.326283574104309,76.4172134399414,3.0967146266376933,5.797866389078468,-87.47767148261798,-10.625231,-1.7866877,9.941075,18.650238,-16.591814,-0.8166043,-16.612808,-7.805305,-1.056362,35.391163,-23.244362,5.515044,-1.9530216,-2.1327121,1.4902743,-7.1297145,15.838834,-52.656143,59.40009,0.97743607,4.577599,6.609125,8.448673,-16.429506,28.473942,49.0347,9.426158,6.1561394,-1.7763616
65,0.6855344772338867,1.3091254234313965,76.37355041503906,3.3511153378868586,5.787499714718987,-87.53190687692201,-10.494757,-2.0800624,10.096589,18.460938,-16.52389,-0.760425,-17.18568,-8.085979,-0.726473,36.534184,-23.380424,5.8077245,-1.9342226,-2.4141204,1.5544205,-7.1264853,15.898033,-52.6465,59.377182,1.0920533,4.5787086,6.5153656,8.475825,-16.401075,28.299454,48.995014,9.622382,6.023191,-1.7593505
66,0.6944699883460999,1.2904967069625854,76.33123016357422,3.6021552623667756,5.768453061828278,-87.58864485532212,-10.361299,-2.3666644,10.247695,18.286745,-16.458975,-0.6964922,-17.767467,-8.352448,-0.3805696,37.70362,-23.4765,6.1436424,-1.9082073,-2.6980386,1.6351906,-7.1233006,15.972318,-52.635845,59.345005,1.208188,4.571346,6.4108114,8.502258,-16.36874,28.129898,48.96062,9.858681,5.816606,-1.749409
67,0.6939799785614014,1.263251543045044,76.28646087646484,3.84180127185751,5.744348829118931,-87.64850061497357,-10.225977,-2.6365325,10.3931675,18.12518,-16.401154,-0.63475686,-18.343382,-8.582792,0.015947377,38.86023,-23.524448,6.5426154,-1.8824767,-2.9728367,1.723658,-7.1141553,16.05371,-52.619835,59.310585,1.3200264,4.564974,6.31501,8.52601,-16.335363,27.973352,48.925358,10.090836,5.633147,-1.7419262
68,0.7006118297576904,1.2393722534179688,76.2490005493164,4.061384858854109,5.718654828209616,-87.71213690167164,-10.091056,-2.8794792,10.531877,17.975178,-16.355085,-0.5836241,-18.899874,-8.753768,0.49742466,39.966747,-23.51762,7.024744,-1.8624077,-3.2226942,1.8081232,-7.105775,16.107813,-52.59732,59.310486,1.4217379,4.567646,6.2492604,8.550762,-16.311768,27.83697,48.87849,10.276655,5.570125,-1.733185
69,0.6988256573677063,1.2143844366073608,76.21389770507812,4.260812507230803,5.6927669933609755,-87.78131303675806,-9.957627,-3.0950031,10.664894,17.83641,-16.322445,-0.5433401,-19.437963,-8.855238,1.0752107,41.033344,-23.437529,7.635387,-1.8282417,-3.4630766,1.8961993,-7.084913,16.196165,-52.59164,59.285637,1.5036718,4.5906177,6.217041,8.575666,-16.268599,27.693722,48.824623,10.39968,5.69221,-1.7179698
70,0.6966951489448547,1.186212420463562,76.17866516113281,4.443454687928148,5.664616916388259,-87.85526825154201,-9.824345,-3.287327,10.792455,17.709972,-16.300636,-0.50981975,-19.96252,-8.896595,1.7286185,42.076725,-23.299156,8.353831,-1.7980043,-3.6887164,1.9847809,-7.0583344,16.28195,-52.578457,59.27218,1.5778832,4.624255,6.209667,8.593185,-16.220617,27.572332,48.77133,10.494408,5.935014,-1.7031875
71,0.6850364208221436,1.1456011533737183,76.14584350585938,4.607166711948116,5.63283234468406,-87.93062246402302,-9.690892,-3.4529967,10.912866,17.600681,-16.290762,-0.48708057,-20.4661,-8.886685,2.4440837,43.07082,-23.146347,9.099639,-1.7706872,-3.8953297,2.0726047,-7.0238366,16.364933,-52.567608,59.266586,1.6372474,4.6591234,6.219137,8.604959,-16.169796,27.45864,48.721336,10.541769,6.1975193,-1.692572
72,0.6694818735122681,1.0950586795806885,76.11611938476562,4.750759688529692,5.596055048496634,-88.00396384216444,-9.556945,-3.5893846,11.024637,17.513357,-16.293468,-0.47902146,-20.94093,-8.838578,3.208832,43.988106,-23.01955,9.790947,-1.7506621,-4.0783787,2.1572282,-6.9764366,16.4448,-52.56246,59.265625,1.6761224,4.685517,6.2375164,8.608026,-16.121178,27.347118,48.680267,10.526308,6.3785295,-1.6904078
73,0.6573863625526428,1.0564913749694824,76.08888244628906,4.873454278235613,5.5482267989739675,-88.08160354233131,-9.414258,-3.6938157,11.136032,17.449476,-16.311626,-0.48965234,-21.381626,-8.715737,4.079635,44.833996,-22.916641,10.441273,-1.7368295,-4.2361,2.241887,-6.9106355,16.521091,-52.567833,59.270035,1.6898166,4.700303,6.270152,8.598161,-16.079966,27.244661,48.650463,10.340762,6.4511685,-1.6935968
74,0.6359530091285706,1.0100818872451782,76.06853485107422,4.9764307157122,5.491843586366679,-88.16292222413372,-9.2661085,-3.7686126,11.245341,17.406872,-16.343884,-0.5158283,-21.789623,-8.525085,5.0415654,45.619034,-22.821548,11.083604,-1.7274265,-4.369462,2.3270288,-6.8322086,16.590736,-52.579895,59.283382,1.6831784,4.7084293,6.3189864,8.582164,-16.048542,27.151184,48.62209,10.029188,6.4698462,-1.7002972
75,0.5894947052001953,0.942022442817688,76.04953002929688,5.060819516675317,5.438197441010866,-88.23387494889278,-9.12826,-3.8190804,11.335994,17.383324,-16.384968,-0.55043346,-22.17105,-8.3457155,5.976406,46.320984,-22.746977,11.660561,-1.729301,-4.475671,2.4051967,-6.755033,16.638477,-52.5882,59.31599,1.6634858,4.7119803,6.371717,8.5757065,-16.02961,27.055048,48.580406,9.8050375,6.4561696,-1.7176522
76,0.5580343008041382,0.8871878385543823,76.03274536132812,5.129137625214779,5.39845505787292,-88.28050998798375,-9.015314,-3.851888,11.391797,17.373652,-16.427952,-0.58624023,-22.537142,-8.257388,6.7683992,46.91645,-22.700787,12.110725,-1.7352026,-4.5660553,2.475322,-6.678318,16.705498,-52.60139,59.322784,1.6287831,4.7171187,6.413015,8.590125,-16.00396,26.922176,48.520077,9.869338,6.429417,-1.7509149
77,0.520298957824707,0.8251847624778748,76.02179718017578,5.1791154819388545,5.373198654751769,-88.29944976825512,-8.930581,-3.8645468,11.405017,17.383633,-16.476051,-0.6220953,-22.891497,-8.274088,7.3991213,47.403156,-22.703337,12.401016,-1.7585658,-4.6340203,2.5333383,-6.6052985,16.772049,-52.603806,59.322628,1.5693485,4.720113,6.446117,8.630556,-15.975798,26.758013,48.431587,10.426446,6.3849273,-1.8052706
78,0.4738059341907501,0.7651998400688171,76.00889587402344,5.211236160976742,5.357356649812881,-88.29789284167178,-8.866687,-3.8557103,11.385959,17.414663,-16.532047,-0.6615233,-23.233393,-8.361158,7.9301224,47.791977,-22.738201,12.564451,-1.7941222,-4.6803265,2.5816891,-6.5341787,16.833107,-52.601463,59.323338,1.488599,4.7201424,6.4763074,8.68979,-15.945955,26.57009,48.323475,11.315948,6.314375,-1.8755898
79,0.41984742879867554,0.6986993551254272,76.00251007080078,5.230195311466084,5.352898436158529,-88.27782857731341,-8.8216,-3.8317697,11.344417,17.45222,-16.585876,-0.7043104,-23.570942,-8.5276165,8.366804,48.077896,-22.755886,12.63817,-1.8466557,-4.7063313,2.6155074,-6.470106,16.872526,-52.588806,59.343113,1.4179463,4.7209687,6.4959126,8.74898,-15.924443,26.386974,48.219738,12.217551,6.2336187,-1.9580328
80,0.35248085856437683,0.6199109554290771,75.99879455566406,5.24085708884355,5.362133468585775,-88.2412149786313,-8.794817,-3.7993104,11.290394,17.486195,-16.630419,-0.750371,-23.911545,-8.781691,8.714706,48.256184,-22.708202,12.66012,-1.899838,-4.722738,2.6367083,-6.411963,16.908846,-52.58123,59.363686,1.3858224,4.730125,6.4953413,8.796436,-15.906065,26.205708,48.141956,12.797726,6.158739,-2.0464642
81,0.2859165370464325,0.5389559268951416,75.99564361572266,5.245108086702104,5.392207702032316,-88.18428655200734,-8.793344,-3.7633426,11.223704,17.5082,-16.657246,-0.8044089,-24.270363,-9.154672,8.938976,48.327034,-22.579185,12.611246,-1.956666,-4.730545,2.639549,-6.3592257,16.949429,-52.583088,59.380157,1.4151279,4.754514,6.459914,8.822469,-15.891925,26.032827,48.104042,12.904778,6.087071,-2.1513548
82,0.2222009301185608,0.4735528826713562,75.99723052978516,5.240039724745388,5.439905370668889,-88.10748389059626,-8.814897,-3.7193387,11.139958,17.524809,-16.672092,-0.8649333,-24.64133,-9.635414,9.050074,48.293194,-22.395979,12.480071,-2.0338082,-4.722403,2.6224413,-6.307709,16.978899,-52.574295,59.405266,1.4885473,4.787934,6.399325,8.829494,-15.888244,25.88315,48.095085,12.743725,6.0133047,-2.2747962
83,0.17366963624954224,0.4300752282142639,76.00041198730469,5.2244221727066105,5.4916224048303155,-88.01883917700661,-8.84548,-3.6598244,11.0429325,17.549473,-16.688889,-0.9223658,-24.999825,-10.160668,9.119617,48.15327,-22.174276,12.316404,-2.1064339,-4.702279,2.6057804,-6.259783,17.011745,-52.567974,59.41881,1.5616742,4.8203464,6.337477,8.8454275,-15.892668,25.719658,48.07893,12.498881,5.951133,-2.391008
84,0.09877685457468033,0.3383873999118805,76.0042724609375,5.1964112637977955,5.5338146791134015,-87.92641420568583,-8.869285,-3.5773425,10.936224,17.591589,-16.71913,-0.9671684,-25.321754,-10.669479,9.219076,47.908916,-21.931595,12.170625,-2.183077,-4.6703634,2.5963762,-6.208469,17.03439,-52.541,59.43137,1.6000389,4.8392415,6.300974,8.868507,-15.900481,25.557377,48.051025,12.371876,5.9114122,-2.4825268
85,-0.030261889100074768,0.20786221325397491,76.00741577148438,5.1518411576784535,5.558663205855273,-87.82767000452397,-8.8791275,-3.4662914,10.816185,17.657066,-16.7671,-0.990961,-25.589018,-11.158127,9.348623,47.53947,-21.66282,12.059956,-2.2488887,-4.624655,2.6080701,-6.155159,17.060144,-52.502537,59.42449,1.5782713,4.8388786,6.2986665,8.923625,-15.912494,25.355167,47.978977,12.384155,5.8989196,-2.5320623
86,-0.13866528868675232,0.11812611669301987,76.01091766357422,5.092652005381554,5.574786398842387,-87.71992043367271,-8.884691,-3.3316586,10.682275,17.740509,-16.826557,-1.0008147,-25.818655,-11.654439,9.4749365,47.052406,-21.362774,11.956843,-2.3201056,-4.566173,2.626211,-6.098231,17.081873,-52.44681,59.412167,1.5213666,4.8257375,6.3170547,8.98617,-15.924572,25.144026,47.896404,12.446002,5.9055514,-2.5579112
87,-0.2091810554265976,0.056438446044921875,76.02367401123047,5.026508827440289,5.59357844931286,-87.61094296427969,-8.894441,-3.1819038,10.542768,17.8325,-16.892872,-1.0103942,-26.037348,-12.14625,9.619467,46.487617,-21.045929,11.844069,-2.3806229,-4.502331,2.6454558,-6.04527,17.103018,-52.395073,59.393852,1.4601945,4.810813,6.343271,9.0518875,-15.938639,24.935022,47.816616,12.55661,5.92765,-2.5746596
88,-0.2935132086277008,-0.015106848441064358,76.03758239746094,4.96095029205797,5.626015118895698,-87.50855636577442,-8.920834,-3.0246408,10.406103,17.931948,-16.965916,-1.0333364,-26.272366,-12.618817,9.804022,45.885204,-20.726984,11.704386,-2.4281542,-4.440518,2.6544013,-6.0028534,17.120964,-52.36158,59.379993,1.4209659,4.804018,6.365673,9.101094,-15.953045,24.761602,47.770374,12.722777,5.960427,-2.6011634
89,-0.40223848819732666,-0.10657414048910141,76.05455017089844,4.900577952368187,5.678757451339906,-87.41555880290936,-8.969986,-2.8650513,10.274276,18.035686,-17.044506,-1.0662637,-26.535027,-13.078833,10.031729,45.243046,-20.425879,11.528734,-2.445673,-4.3855615,2.6533654,-5.9762926,17.143087,-52.369816,59.362934,1.4074794,4.8084483,6.395308,9.143408,-15.976032,24.619312,47.749302,12.989451,6.0115027,-2.635005
90,-0.5252939462661743,-0.2009773552417755,76.0625228881836,4.84043069342817,5.7446200420342715,-87.32755127329729,-9.0345545,-2.6976042,10.142709,18.14579,-17.129622,-1.1041917,-26.809233,-13.529383,10.291078,44.543194,-20.12938,11.327781,-2.4541826,-4.332423,2.6412406,-5.9547415,17.161716,-52.390854,59.348732,1.4099802,4.818041,6.4348736,9.168936,-16.00021,24.518118,47.759876,13.3462105,6.078965,-2.6733797
91,-0.65459144115448,-0.3034839332103729,76.07240295410156,4.774081920316245,5.814107722077157,-87.24162361594146,-9.105503,-2.5154262,10.010056,18.265343,-17.22164,-1.1587573,-27.082472,-13.953019,10.582895,43.802578,-19.802792,11.1138735,-2.4534001,-4.2719946,2.629369,-5.9405084,17.180973,-52.415062,59.32853,1.4234279,4.8315897,6.455432,9.192261,-16.029755,24.422346,47.77887,13.689404,6.149796,-2.7163026
92,-0.7906193137168884,-0.39902427792549133,76.08036041259766,4.695174656330977,5.8777528040298295,-87.15489086174813,-9.17181,-2.3113818,9.8749,18.392977,-17.318817,-1.2415019,-27.341267,-14.334003,10.907734,43.037407,-19.411034,10.899309,-2.4619365,-4.1993747,2.6190913,-5.927977,17.192926,-52.409397,59.311924,1.4522148,4.846913,6.4292393,9.197593,-16.049702,24.326536,47.82245,13.921452,6.2077737,-2.7706861
93,-0.9357723593711853,-0.5003076791763306,76.09103393554688,4.5988406511424795,5.930542514917051,-87.06873825783912,-9.227024,-2.080435,9.739683,18.526775,-17.420324,-1.3620849,-27.576761,-14.671066,11.256853,42.236694,-18.95054,10.683712,-2.4562416,-4.1029706,2.6291318,-5.9224877,17.213825,-52.380993,59.26732,1.5013123,4.868069,6.3210235,9.222944,-16.085012,24.183039,47.83368,13.994632,6.264349,-2.8227997
94,-1.0859755277633667,-0.6126684546470642,76.10107421875,4.489712877625383,5.978452696754314,-86.98400685102919,-9.278083,-1.8274359,9.60425,18.667675,-17.527576,-1.5117743,-27.798092,-14.971457,11.631536,41.397892,-18.438765,10.461487,-2.4622705,-3.9972246,2.6351862,-5.9170547,17.225452,-52.32253,59.232258,1.5683415,4.8932066,6.1584415,9.218675,-16.104425,24.058239,47.8854,13.980181,6.3173885,-2.8869467
95,-1.2437193393707275,-0.7239148616790771,76.10908508300781,4.374162239252477,6.028341432897829,-86.89716203580235,-9.3341465,-1.5595881,9.463181,18.817833,-17.639984,-1.6759788,-28.017029,-15.23364,12.047632,40.54662,-17.870125,10.236938,-2.450467,-3.8766196,2.6572104,-5.917797,17.25505,-52.269814,59.16035,1.6406419,4.918281,5.991035,9.246973,-16.14936,23.893904,47.89637,13.903971,6.357562,-2.9506862
96,-1.4088841676712036,-0.8245082497596741,76.11321258544922,4.259487222729706,6.087197989039037,-86.80474378642863,-9.403141,-1.285682,9.311122,18.97723,-17.756035,-1.8386102,-28.245146,-15.454469,12.521116,39.707973,-17.238422,10.013922,-2.4475849,-3.7578225,2.6664696,-5.916131,17.291725,-52.241974,59.08468,1.6859434,4.9368143,5.8822246,9.274783,-16.19399,23.757248,47.92633,13.835337,6.360871,-3.0378144
97,-1.5763030052185059,-0.9433236718177795,76.12284088134766,4.149627412657229,6.156607455117164,-86.70590432639224,-9.484745,-1.010471,9.147107,19.14231,-17.871405,-1.9931467,-28.490599,-15.636725,13.062449,38.895412,-16.5262,9.781436,-2.4507065,-3.649401,2.6587145,-5.920314,17.320898,-52.247246,59.026237,1.7058105,4.9489584,5.8571663,9.290302,-16.220263,23.648298,48.007854,13.748762,6.3145127,-3.1612725
98,-1.7645256519317627,-1.0677741765975952,76.12542724609375,4.040027517537849,6.233059442052118,-86.6025555122161,-9.575055,-0.72864765,8.973955,19.313274,-17.987875,-2.1472876,-28.746096,-15.77939,13.660444,38.09522,-15.742374,9.540918,-2.4435363,-3.5422075,2.6484356,-5.9282236,17.366148,-52.288063,58.948532,1.7044894,4.9586425,5.880332,9.320852,-16.249172,23.53507,48.093964,13.625434,6.2337146,-3.306615
99,-1.9627904891967773,-1.185126781463623,76.123291015625,3.9244726899969713,6.315415088989937,-86.49545375710987,-9.678841,-0.4329186,8.790964,19.498234,-18.114073,-2.3114302,-28.997967,-15.884155,14.300757,37.29012,-14.91905,9.315515,-2.4456012,-3.431299,2.6283069,-5.9418473,17.403255,-52.328312,58.888042,1.6945595,4.9607296,5.9202824,9.338318,-16.265593,23.433212,48.201412,13.516469,6.132316,-3.4575827
100,-2.162010908126831,-1.3090510368347168,76.12242126464844,3.7966000421285933,6.402722157875072,-86.38511522911145,-9.79905,-0.115967825,8.597313,19.702091,-18.257149,-2.4952295,-29.23319,-15.951621,14.969549,36.46468,-14.089211,9.128457,-2.4454827,-3.3081512,2.6067102,-5.963362,17.444723,-52.366474,58.830902,1.6768284,4.952851,5.943401,9.363012,-16.278677,23.311676,48.285423,13.464861,6.028419,-3.586699
101,-2.3850598335266113,-1.421291708946228,76.11491394042969,3.644552461904119,6.499712614599684,-86.27867930693421,-9.9481125,0.23776458,8.394621,19.93866,-18.4295,-2.7034225,-29.45412,-15.958672,15.6826105,35.60591,-13.232733,8.983073,-2.4382205,-3.1615646,2.582936,-5.9895234,17.501947,-52.39867,58.764915,1.6531835,4.9287357,5.937421,9.395435,-16.29267,23.168455,48.341423,13.49093,5.8880816,-3.682869
102,-2.593920946121216,-1.5545662641525269,76.11442565917969,3.4749462809089713,6.605222102002484,-86.173454998659,-10.121067,0.62007105,8.182085,20.202164,-18.624414,-2.9302187,-29.662905,-15.9159565,16.441011,34.722874,-12.340165,8.868478,-2.435718,-2.9974976,2.5526597,-6.01811,17.563314,-52.420425,58.70141,1.6245633,4.8911138,5.921275,9.423742,-16.304276,23.025103,48.39199,13.571107,5.714437,-3.7622905
103,-2.80369234085083,-1.698862910270691,76.10448455810547,3.3094471468522966,6.709203329329205,-86.0555789343195,-10.291014,1.0012357,7.956065,20.460852,-18.817116,-3.1691852,-29.848434,-15.864796,17.209309,33.836136,-11.463631,8.785328,-2.440687,-2.8363848,2.5251663,-6.049161,17.631577,-52.442398,58.63455,1.5848974,4.853555,5.9071803,9.45919,-16.31232,22.867876,48.421364,13.677565,5.5813665,-3.8358371
104,-3.023291826248169,-1.8238270282745361,76.09489440917969,3.169623576488199,6.801823485970961,-85.91082201971001,-10.439669,1.3533508,7.712806,20.700275,-18.992453,-3.413825,-29.996937,-15.851157,17.952139,32.95751,-10.649027,8.734717,-2.460932,-2.6982327,2.5071106,-6.0838766,17.701958,-52.470406,58.56761,1.528993,4.828727,5.907756,9.506271,-16.312414,22.69096,48.42167,13.784955,5.562351,-3.916352
105,-3.2634384632110596,-1.9629021883010864,76.08101654052734,3.0704571049309264,6.874589793531608,-85.73361965226066,-10.543215,1.657119,7.4537826,20.896736,-19.135733,-3.6615121,-30.097927,-15.887382,18.688768,32.08348,-9.886108,8.737884,-2.495457,-2.599262,2.505904,-6.1232862,17.776983,-52.514854,58.49295,1.4284436,4.826152,5.9393973,9.57293,-16.300283,22.48145,48.377758,13.915245,5.735054,-4.0136805
106,-3.5097885131835938,-2.1160247325897217,76.06291198730469,2.9976873084100286,6.9346135797512884,-85.53184894020748,-10.618761,1.931159,7.1807685,21.067108,-19.260136,-3.9158847,-30.160341,-15.951018,19.430565,31.207676,-9.156834,8.787022,-2.5401826,-2.5264635,2.5157397,-6.1674924,17.857687,-52.570915,58.4128,1.2950022,4.8369875,5.9910703,9.653439,-16.274132,22.245243,48.30098,14.072036,6.0404415,-4.1199718
107,-3.759030342102051,-2.274566888809204,76.04367065429688,2.9300244655483754,6.995223555497616,-85.31195702798932,-10.703526,2.2032669,6.8908753,21.246384,-19.386074,-4.1801267,-30.204088,-16.0343,20.131115,30.344353,-8.499637,8.839249,-2.5958588,-2.4578397,2.5243225,-6.2164145,17.942368,-52.627796,58.342037,1.1793799,4.846783,6.0340757,9.731291,-16.238647,22.001137,48.223778,14.200645,6.3471365,-4.2202225
108,-4.012571334838867,-2.440617561340332,76.01651763916016,2.8457541508543565,7.070180103587897,-85.08032553113284,-10.833756,2.5010412,6.5808406,21.46669,-19.532356,-4.45754,-30.248451,-16.12622,20.741735,29.505764,-7.9521737,8.851449,-2.665145,-2.3678694,2.519244,-6.273879,18.02478,-52.676487,58.300846,1.1277622,4.840547,6.0400114,9.794386,-16.202034,21.770262,48.17155,14.247375,6.5249267,-4.298037
109,-4.259966850280762,-2.589489221572876,75.99419403076172,2.7270678190182314,7.173194579497516,-84.8345587120644,-11.046838,2.8465917,6.2441144,21.759867,-19.713009,-4.755236,-30.30283,-16.205812,21.254885,28.674232,-7.517345,8.8078575,-2.7522223,-2.2379737,2.4958916,-6.3449883,18.108477,-52.71202,58.295532,1.1864313,4.804411,5.9822435,9.834249,-16.166864,21.553177,48.150738,14.163262,6.514038,-4.3458104
110,-4.52099084854126,-2.772458076477051,75.96835327148438,2.5895488116522993,7.293823140073976,-84.57268523532713,-11.313706,3.2196426,5.883491,22.09984,-19.91469,-5.069769,-30.355827,-16.283855,21.693405,27.85033,-7.176692,8.733407,-2.8583393,-2.0817938,2.4613147,-6.4280953,18.188374,-52.7368,58.320805,1.3189734,4.7486844,5.8827424,9.861184,-16.136099,21.344816,48.14255,13.990834,6.393327,-4.3730254
111,-4.7975029945373535,-2.960634469985962,75.93213653564453,2.4616783671057023,7.409442586132302,-84.30171527947863,-11.571246,3.5834649,5.5104704,22.433,-20.116423,-5.387897,-30.391874,-16.387772,22.050499,27.06672,-6.9355826,8.646684,-2.9693983,-1.9286327,2.4246006,-6.509518,18.26378,-52.759315,58.356396,1.4522604,4.6973896,5.7845397,9.895677,-16.109665,21.142868,48.13369,13.808683,6.2397246,-4.3869877
112,-5.117829322814941,-3.056593894958496,75.87743377685547,2.372762034670531,7.497204798997502,-84.02858834619504,-11.758271,3.9022214,5.1374173,22.70938,-20.29863,-5.696092,-30.400671,-16.546116,22.322065,26.366928,-6.8002996,8.565802,-3.0730977,-1.807856,2.393657,-6.57641,18.331972,-52.787937,58.385426,1.511977,4.6746483,5.7306995,9.955431,-16.087746,20.948084,48.11346,13.696363,6.1301827,-4.3945866
113,-5.390958786010742,-3.252124309539795,75.83413696289062,2.3416423826192254,7.543261408232954,-83.76042685254619,-11.835545,4.149838,4.7698846,22.896658,-20.449217,-5.9876037,-30.368181,-16.791842,22.50069,25.743206,-6.795134,8.50411,-3.157213,-1.7405248,2.3728182,-6.6183524,18.397337,-52.826656,58.392334,1.4574093,4.6974177,5.738712,10.051073,-16.069792,20.75397,48.07991,13.682309,6.0937624,-4.381182
114,-5.683086395263672,-3.4774792194366455,75.79399108886719,2.3489526992342764,7.5618629738455105,-83.49174749340229,-11.84375,4.351914,4.4014935,23.02956,-20.581581,-6.2704344,-30.302801,-17.101227,22.590755,25.176699,-6.907211,8.451374,-3.23358,-1.7050428,2.356164,-6.6458917,18.45383,-52.868687,58.395477,1.3348624,4.748757,5.78387,10.170246,-16.057247,20.566553,48.038914,13.723726,6.086702,-4.3486414
115,-6.008245944976807,-3.672603130340576,75.73651123046875,2.366131530589724,7.572866478139436,-83.210150855281,-11.841404,4.5499096,4.027302,23.155476,-20.71214,-6.5532475,-30.23269,-17.414448,22.607584,24.703585,-7.0943375,8.38839,-3.315518,-1.6733612,2.338826,-6.672532,18.503462,-52.911594,58.407063,1.2052133,4.8045726,5.8449283,10.302058,-16.047031,20.386942,47.98765,13.784609,6.076438,-4.3268027
116,-6.3160223960876465,-3.8829405307769775,75.67359161376953,2.3643490466211508,7.596421085622447,-82.90354632417065,-11.882678,4.7848296,3.6423185,23.313208,-20.854965,-6.8449078,-30.186016,-17.67394,22.567463,24.360172,-7.313568,8.294061,-3.426151,-1.6147395,2.3133907,-6.707396,18.537235,-52.937885,58.4485,1.1366049,4.8401723,5.900898,10.426877,-16.03761,20.23126,47.9318,13.833318,6.0298553,-4.347706
117,-6.621993541717529,-4.113776683807373,75.61763000488281,2.3190320625709924,7.650087539261667,-82.55029838529768,-12.030767,5.084863,3.224148,23.565647,-21.031096,-7.1430335,-30.174944,-17.863012,22.433027,24.153526,-7.5548916,8.155208,-3.5618317,-1.5058838,2.280422,-6.7663097,18.581575,-52.978767,58.49911,1.1421913,4.8506045,5.955594,10.561634,-16.016932,20.060623,47.84781,13.845627,5.923795,-4.439994
118,-6.9583048820495605,-4.348725318908691,75.55084228515625,2.2512642537529834,7.719494181487042,-82.16305641086272,-12.237788,5.421569,2.7819178,23.868082,-21.225344,-7.4448752,-30.183428,-18.013752,22.210835,24.068073,-7.8419456,7.98422,-3.7255692,-1.3714614,2.2401323,-6.829262,18.635597,-53.014984,58.553917,1.1938908,4.8488927,6.0168066,10.691756,-15.980478,19.898365,47.761024,13.845808,5.7789707,-4.5838847
119,-7.34561824798584,-4.518515110015869,75.4719467163086,2.2014383928673578,7.776861355922737,-81.78146796557104,-12.404402,5.7506747,2.3580837,24.12565,-21.403263,-7.7579536,-30.196217,-18.140032,21.982967,24.105427,-8.182282,7.796925,-3.8858614,-1.2574246,2.201453,-6.8800607,18.691721,-53.040188,58.613655,1.2634985,4.840969,6.067371,10.81363,-15.936879,19.761417,47.68584,13.8499,5.6317105,-4.7227306
120,-7.7180705070495605,-4.727458953857422,75.39898681640625,2.2099756470186347,7.793850555069136,-81.44453357224887,-12.430013,6.0292745,1.9965408,24.242151,-21.529213,-8.089348,-30.196718,-18.255945,21.83103,24.263975,-8.581597,7.6091814,-4.0056663,-1.2086434,2.175246,-6.9015756,18.7443,-53.04922,58.672634,1.326213,4.8331437,6.0899982,10.93356,-15.897666,19.658564,47.624947,13.873398,5.519255,-4.797994
121,-8.072957992553711,-4.974272727966309,75.33351135253906,2.296999491413364,7.757227091103073,-81.16508313683022,-12.268081,6.2355103,1.7156788,24.168386,-21.589525,-8.440948,-30.187525,-18.375355,21.776167,24.571747,-9.048455,7.4115043,-4.071224,-1.243014,2.163305,-6.8942714,18.776093,-53.03498,58.74512,1.3881923,4.827128,6.0603156,11.062775,-15.879284,19.605568,47.572605,13.910785,5.4179716,-4.7951136
122,-8.437996864318848,-5.251079559326172,75.26490783691406,2.437807710385342,7.683103854855491,-80.92129793230502,-11.978655,6.3966727,1.4908539,23.965183,-21.605278,-8.808272,-30.174097,-18.487963,21.774988,25.018484,-9.576166,7.199422,-4.095945,-1.336955,2.1628852,-6.865847,18.806044,-53.010975,58.816948,1.4554732,4.820531,5.993513,11.20126,-15.868726,19.581266,47.522923,13.953106,5.3194566,-4.7429156
123,-8.769967079162598,-5.574967384338379,75.19512939453125,2.605747653984463,7.586980811816205,-80.70041582156045,-11.622015,6.544202,1.3014681,23.702497,-21.59364,-9.188614,-30.142416,-18.568846,21.810242,25.541574,-10.145832,6.9966226,-4.1062374,-1.459515,2.1721044,-6.811254,18.84512,-52.976166,58.87392,1.5115042,4.809542,5.933687,11.334201,-15.86171,19.571949,47.47471,14.027832,5.286074,-4.650612
124,-9.22520923614502,-5.811760425567627,75.09947204589844,2.77344315026467,7.484787758490261,-80.49000925164653,-11.258334,6.7093425,1.1271336,23.449532,-21.571074,-9.579603,-30.081635,-18.593222,21.865494,26.083424,-10.741186,6.826875,-4.120434,-1.577224,2.1862855,-6.743229,18.87993,-52.944782,58.932106,1.5330852,4.789149,5.9268646,11.454141,-15.854654,19.556541,47.424286,14.162486,5.3804483,-4.5272827
125,-9.675172805786133,-6.055047512054443,74.99554443359375,2.951971721201622,7.366220541385419,-80.29289803042819,-10.857723,6.8819366,0.98106813,23.179178,-21.528648,-9.986748,-29.980503,-18.564934,21.949507,26.663239,-11.421725,6.651755,-4.135356,-1.7053925,2.2107515,-6.652038,18.917963,-52.9338,58.98812,1.4963878,4.7472305,6.015951,11.55585,-15.840374,19.528399,47.37427,14.425992,5.7167544,-4.341424
126,-10.1013822555542,-6.344700813293457,74.89830017089844,3.1495233188218084,7.227675093286955,-80.11393889569544,-10.404046,7.0508323,0.8679236,22.870972,-21.460701,-10.409082,-29.846972,-18.494026,22.0665,27.299025,-12.174402,6.473345,-4.139313,-1.8556129,2.244679,-6.5402465,18.958736,-52.938416,59.04328,1.4175212,4.689896,6.1666822,11.644069,-15.815716,19.494738,47.32953,14.780112,6.2296185,-4.1024337
127,-10.51921558380127,-6.660269737243652,74.81464385986328,3.3352528450211416,7.095402242915198,-79.94364146157231,-9.976521,7.247481,0.75496197,22.600582,-21.393257,-10.835623,-29.702494,-18.357492,22.190382,27.939243,-12.877581,6.3757935,-4.141054,-1.9931304,2.2769418,-6.426238,18.99998,-52.928837,59.094826,1.3396666,4.6410227,6.307175,11.719532,-15.781122,19.454372,47.29445,15.086311,6.710619,-3.8776116
128,-10.897937774658203,-7.024501323699951,74.73768615722656,3.4784454390494894,6.9961928670849325,-79.77241195227947,-9.660642,7.502847,0.6091545,22.455618,-21.35367,-11.255334,-29.570879,-18.135054,22.296461,28.534023,-13.41188,6.444224,-4.150268,-2.0900118,2.2963643,-6.319977,19.058832,-52.874508,59.122593,1.3047196,4.626319,6.364582,11.775077,-15.7234,19.406908,47.283493,15.204808,6.947934,-3.7317586
129,-11.331541061401367,-7.332736015319824,74.65113067626953,3.560884890251044,6.946066183103762,-79.59950868949016,-9.479972,7.8390245,0.41605118,22.433657,-21.349655,-11.677697,-29.456726,-17.78877,22.399084,29.065432,-13.700595,6.6785336,-4.1704774,-2.110442,2.293717,-6.239237,19.101454,-52.75265,59.150417,1.3332828,4.6550164,6.272012,11.829366,-15.6747265,19.34798,47.28026,15.031581,6.798447,-3.688616
130,-11.78955078125,-7.61590576171875,74.55424499511719,3.6030635899363985,6.928472377682628,-79.42953432933547,-9.389841,8.234387,0.19484724,22.495855,-21.364872,-12.1047125,-29.353287,-17.33846,22.507135,29.571053,-13.825966,7.0417423,-4.2025003,-2.0904953,2.276277,-6.158235,19.159874,-52.573868,59.155167,1.403919,4.7145905,6.081923,11.855622,-15.603501,19.286417,47.312733,14.657725,6.39997,-3.7160125
131,-12.273703575134277,-7.9088544845581055,74.46652221679688,3.628881956946762,6.921672597968259,-79.26160885771374,-9.37516,8.658002,-0.03875512,22.676825,-21.39194,-12.51449,-29.263565,-16.854996,22.581944,30.075954,-13.911448,7.563595,-4.2382455,-2.055843,2.2590837,-6.075576,19.226881,-52.377678,59.144367,1.4891301,4.7892976,5.909116,11.868145,-15.520581,19.22951,47.344784,14.27058,5.976609,-3.777
132,-12.802173614501953,-8.178215026855469,74.35299682617188,3.6623236125515573,6.904321081633226,-79.09478897046277,-9.420827,9.079476,-0.26914397,23.011332,-21.423685,-12.884756,-29.194979,-16.409,22.585567,30.613997,-14.080403,8.270981,-4.2718706,-2.033624,2.2573948,-5.9850054,19.298141,-52.193607,59.12126,1.5690211,4.8641977,5.867733,11.875408,-15.431946,19.185822,47.34621,14.054965,5.7513657,-3.8303604
133,-13.279136657714844,-8.526398658752441,74.26187133789062,3.724918513524335,6.868397041413293,-78.9291556280362,-9.486673,9.472319,-0.4854917,23.451916,-21.468988,-13.206266,-29.1227,-16.05829,22.505873,31.137978,-14.343946,9.354348,-4.300333,-2.0479956,2.2694583,-5.8802347,19.376007,-52.05297,59.07591,1.627232,4.948949,6.0266476,11.882824,-15.335914,19.16446,47.30321,14.080472,5.8279233,-3.8741078
134,-13.805272102355957,-8.830153465270996,74.1593017578125,3.7966921947401575,6.827738425980805,-78.76639626231106,-9.597166,9.862105,-0.69990087,24.000834,-21.52504,-13.490692,-29.070004,-15.752883,22.364298,31.685915,-14.648631,10.731329,-4.3247237,-2.0760138,2.2882335,-5.765812,19.461212,-51.931774,59.008953,1.678772,5.0474367,6.312133,11.887149,-15.230831,19.156843,47.23113,14.241412,6.072646,-3.926129
135,-14.34643268585205,-9.108619689941406,74.04581451416016,3.838975777472504,6.792422959237552,-78.60777770678158,-9.8245535,10.2961855,-0.9320989,24.750998,-21.56933,-13.747242,-29.097061,-15.400749,22.166758,32.38218,-15.008811,12.020857,-4.348957,-2.0776074,2.320419,-5.651523,19.552588,-51.777878,58.940056,1.7475327,5.136078,6.6245728,11.873601,-15.118275,19.149242,47.155754,14.460357,6.3507905,-3.9742622
136,-14.901751518249512,-9.383625984191895,73.95035552978516,3.8130531198274706,6.771416638805973,-78.45285896880374,-10.240499,10.818985,-1.2054399,25.798166,-21.580132,-13.9859705,-29.245935,-14.912979,21.917202,33.314205,-15.4376955,12.848318,-4.379501,-2.0114145,2.3743672,-5.5458255,19.647518,-51.536377,58.88801,1.8595257,5.1913795,6.8639784,11.830067,-15.000603,19.129622,47.09896,14.659784,6.528303,-4.004635
137,-15.485137939453125,-9.652563095092773,73.85801696777344,3.70474651172219,6.776875585836311,-78.29552449364255,-10.880062,11.444644,-1.5160943,27.185814,-21.568382,-14.222763,-29.59525,-14.234524,21.62039,34.62031,-15.987017,13.018852,-4.426054,-1.8575642,2.4565346,-5.4651546,19.745434,-51.19639,58.85886,2.035753,5.197877,6.981686,11.742374,-14.87903,19.083946,47.07318,14.832349,6.566488,-4.012764
138,-16.041711807250977,-9.902054786682129,73.78246307373047,3.5333355859020417,6.7993525872706355,-78.13658587725028,-11.6910095,12.146349,-1.8632653,28.842474,-21.534212,-14.450941,-30.082043,-13.423127,21.2655,36.17749,-16.623533,12.768094,-4.485573,-1.6370302,2.563855,-5.3997655,19.846247,-50.78351,58.841938,2.2589695,5.170958,7.038257,11.621131,-14.753177,19.024412,47.062336,15.015873,6.538459,-4.0058846
139,-16.62276268005371,-10.16579532623291,73.70137023925781,3.30996373115905,6.815112856643785,-77.98550742862288,-12.6026325,12.904796,-2.271397,30.670376,-21.429182,-14.6522045,-30.54442,-12.554668,20.845312,37.698868,-17.25358,12.370015,-4.545413,-1.371704,2.6886234,-5.322811,19.947407,-50.301163,58.836838,2.4947584,5.133621,7.0978365,11.488024,-14.626929,18.976292,47.05135,15.199989,6.476844,-3.9866238
140,-17.194995880126953,-10.402972221374512,73.64295959472656,3.0459544114153023,6.801083028968471,-77.8526875508813,-13.54612,13.70023,-2.7618425,32.577366,-21.206646,-14.810245,-30.830812,-11.70299,20.358765,38.918766,-17.79351,12.096193,-4.5935607,-1.081652,2.8233008,-5.2042384,20.043886,-49.746765,58.84039,2.7131789,5.109161,7.224475,11.366471,-14.505898,18.967455,47.02154,15.376308,6.414946,-3.957734
141,-17.78916358947754,-10.649151802062988,73.59516906738281,2.716942573782424,6.751029434461007,-77.75736391559808,-14.487008,14.559109,-3.3576562,34.535717,-20.886425,-14.98,-30.88763,-10.857036,19.793535,39.73299,-18.208305,12.027722,-4.621753,-0.7444515,2.974222,-5.0234094,20.130714,-49.102703,58.84884,2.889338,5.0946465,7.4348493,11.257153,-14.394731,19.006395,46.96868,15.536144,6.33825,-3.8903449
142,-18.388185501098633,-10.912681579589844,73.55532836914062,2.360045224433519,6.67859295693912,-77.67973618019495,-15.445084,15.408746,-4.0269713,36.557743,-20.461893,-15.000033,-30.815582,-10.021701,19.181978,40.30826,-18.556313,12.028107,-4.6484385,-0.38756293,3.1388352,-4.8013215,20.205307,-48.3729,58.86661,3.0457969,5.080653,7.694995,11.15315,-14.293747,19.08065,46.89689,15.688498,6.2375546,-3.7923796
143,-18.993356704711914,-11.190720558166504,73.53154754638672,1.9831244827338232,6.587318235031875,-77.59525073386038,-16.46826,16.260353,-4.7377334,38.67838,-19.884802,-15.000033,-30.657938,-9.193851,18.523598,40.742477,-18.862568,12.011616,-4.6766224,-0.01916878,3.3067973,-4.5734506,20.265825,-47.5935,58.907135,3.2188148,5.081225,7.992744,11.064254,-14.204504,19.182936,46.80569,15.849334,6.153764,-3.721859
144,-19.596649169921875,-11.47082805633545,73.51329040527344,1.6105627989320708,6.481215102067561,-77.47556434989336,-17.603727,17.08906,-5.4712496,40.91945,-19.094316,-15.000033,-30.462734,-8.388936,17.82958,41.142975,-19.15997,11.8977375,-4.7116604,0.3378552,3.4667099,-4.3737144,20.310408,-46.798714,58.982254,3.4478254,5.1111207,8.315963,11.002859,-14.127142,19.304968,46.690826,16.034733,6.127821,-3.736757
145,-20.213165283203125,-11.747265815734863,73.5124740600586,1.253080945221993,6.354732912116668,-77.30474370095148,-18.868908,17.859587,-6.295896,43.29877,-17.99303,-14.996644,-30.227331,-7.6192813,17.093699,41.526268,-19.457314,11.656565,-4.7546086,0.6725828,3.6173034,-4.2101727,20.337114,-45.970505,59.116486,3.7883685,5.168876,8.645933,10.980006,-14.057398,19.450464,46.532867,16.287014,6.1959124,-3.902227
146,-20.8226375579834,-12.031085014343262,73.53050231933594,0.9593986311019533,6.211728229748496,-77.08373043813538,-20.22354,18.488615,-7.1477995,45.766853,-16.611027,-14.690741,-29.949326,-6.943081,16.355066,41.864807,-19.756624,11.353473,-4.8164816,0.93937606,3.7553027,-4.0675397,20.344229,-45.100616,59.301174,4.205727,5.2493744,8.993874,10.986533,-13.993896,19.62062,46.341763,16.584648,6.3261886,-4.1719384
147,-21.42017364501953,-12.309988975524902,73.55781555175781,0.7035916906597345,6.063516492832115,-76.83916742998943,-21.65626,19.054474,-7.914829,48.286736,-15.104761,-14.165647,-29.637009,-6.328541,15.620475,42.139767,-20.039185,11.018163,-4.889322,1.1633197,3.8809714,-3.9495294,20.331047,-44.24871,59.50216,4.5936294,5.3615394,9.393073,11.004974,-13.944703,19.801262,46.15635,16.847223,6.4588375,-4.435095
148,-22.015954971313477,-12.593799591064453,73.59491729736328,0.5015544695004677,5.923568965494687,-76.58651071114294,-23.152288,19.584085,-8.453745,50.807446,-13.618148,-13.279956,-29.31362,-5.788885,14.920696,42.35055,-20.297647,10.692968,-4.9685035,1.3333085,3.9898045,-3.8615062,20.297405,-43.478664,59.684063,4.8473682,5.513312,9.877397,11.026911,-13.922831,19.9696,46.00548,16.992788,6.5362864,-4.577856
149,-22.597827911376953,-12.860092163085938,73.6491470336914,0.35808420088047194,5.793743657510205,-76.31024787935814,-24.800617,20.080816,-8.787521,53.439312,-12.050928,-11.805168,-28.976574,-5.3396745,14.243908,42.488403,-20.534328,10.386999,-5.077631,1.447611,4.0803437,-3.8113978,20.23935,-42.7976,59.852596,4.9342265,5.7315483,10.484464,11.040137,-13.93873,20.138807,45.899017,17.03345,6.555694,-4.560754
150,-23.180076599121094,-13.154397964477539,73.71696472167969,0.26124926231298934,5.666921494678226,-76.00943017107748,-26.593645,20.582224,-8.945264,56.168346,-10.371616,-9.830507,-28.615866,-4.9625154,13.575499,42.55471,-20.748955,10.077063,-5.19906,1.5193689,4.1568823,-3.8020456,20.15645,-42.189373,60.023487,4.9047985,6.0016675,11.188151,11.0694065,-13.994451,20.300936,45.80105,17.001204,6.545994,-4.443391
151,-23.727182388305664,-13.416070938110352,73.79429626464844,0.1994200301465919,5.542718615254088,-75.72296139279953,-28.37419,21.172167,-8.81508,58.777134,-8.851398,-7.682365,-28.241468,-4.621192,12.943819,42.560883,-20.929758,9.756888,-5.306085,1.5612063,4.220725,-3.805929,20.04998,-41.629555,60.17491,4.7966423,6.267243,11.926929,11.121253,-14.084532,20.451778,45.70725,16.853424,6.496538,-4.269105
152,-24.232467651367188,-13.697393417358398,73.88929748535156,0.16343301465859356,5.420640601646476,-75.48967375217129,-29.972239,21.911192,-8.315947,61.06044,-7.77742,-5.710361,-27.864391,-4.2845235,12.377711,42.52133,-21.066406,9.422099,-5.3683343,1.5811809,4.272573,-3.795993,19.923626,-41.09711,60.28395,4.6494126,6.4730263,12.638416,11.203118,-14.200097,20.581995,45.616142,16.545135,6.3950667,-4.081349
153,-24.734786987304688,-13.965253829956055,73.99085998535156,0.17476927073281373,5.300478944566392,-75.31215713727508,-31.344229,22.839252,-7.368359,62.995125,-7.2157555,-3.951596,-27.495268,-3.9727576,11.891214,42.458942,-21.166313,9.072385,-5.3795023,1.5546378,4.307821,-3.7680056,19.779934,-40.59692,60.34224,4.4898076,6.592862,13.293084,11.322977,-14.334967,20.68149,45.53345,15.95119,6.18505,-3.8660479
154,-25.225845336914062,-14.241888046264648,74.09852600097656,0.23089887827324865,5.180814910842182,-75.17433019806874,-32.554443,23.924892,-6.054855,64.70746,-7.0624995,-2.2372737,-27.12236,-3.6941755,11.468402,42.361164,-21.233131,8.71015,-5.3530307,1.4830915,4.32744,-3.7337503,19.620678,-40.137318,60.36122,4.292534,6.659011,13.928335,11.470508,-14.48827,20.757357,45.46543,15.132573,5.887043,-3.6128838
155,-25.711593627929688,-14.527241706848145,74.20972442626953,0.29153673064806385,5.060873957391355,-75.08422604196655,-33.593674,25.075956,-4.5586014,66.22668,-7.3303046,-0.6535021,-26.728943,-3.4062269,11.095051,42.198586,-21.256067,8.337433,-5.2915087,1.4106948,4.3397093,-3.6889324,19.45026,-39.702778,60.34529,4.017883,6.7039876,14.581941,11.626631,-14.658246,20.827312,45.40963,14.323052,5.607107,-3.368226
156,-26.181087493896484,-14.819453239440918,74.33733367919922,0.31751712544074245,4.941291765794874,-75.04787539221901,-34.469215,26.181381,-3.06408,67.57551,-8.00818,0.7007368,-26.299395,-3.0672448,10.757991,41.939537,-21.223692,7.9561257,-5.200895,1.3802631,4.3521633,-3.6274595,19.275715,-39.276863,60.295555,3.6246629,6.7589355,15.291351,11.770079,-14.842719,20.911196,45.363617,13.755383,5.454395,-3.1736112
157,-26.631742477416992,-15.107342720031738,74.47372436523438,0.30359860569104613,4.822248600831563,-75.08097086425396,-35.152596,27.226368,-1.5562637,68.74269,-9.289435,1.7718289,-25.834333,-2.665729,10.466629,41.579544,-21.132729,7.568779,-5.0737185,1.3931515,4.3655744,-3.5319116,19.103085,-38.833965,60.186817,3.0152924,6.8420725,16.139238,11.884019,-15.044297,21.025457,45.326668,13.522789,5.499432,-3.0193498
158,-27.060991287231445,-15.396584510803223,74.61138916015625,0.2743371865603596,4.705294525576488,-75.17227287554198,-35.642654,28.218185,0.037426487,69.72464,-11.095357,2.5753205,-25.343103,-2.2315338,10.225012,41.13775,-20.992214,7.175438,-4.9166603,1.4247136,4.37542,-3.4017422,18.93623,-38.38545,60.013897,2.2395418,6.926319,17.081062,11.980721,-15.263916,21.16002,45.299343,13.490745,5.672246,-2.887913
159,-27.502117156982422,-15.696676254272461,74.75346374511719,0.23198404004200018,4.593442403427311,-75.28800542558855,-36.011642,29.091288,1.6293331,70.54981,-12.992471,3.1396961,-24.825151,-1.7804272,10.012093,40.617702,-20.8076,6.773169,-4.7535186,1.4796307,4.38144,-3.2588198,18.778677,-37.970222,59.81101,1.4809387,6.9803634,17.962965,12.082795,-15.494193,21.291975,45.28467,13.548192,5.871899,-2.806726
160,-27.929359436035156,-15.970407485961914,74.91072845458984,0.17667068087480295,4.488865283988067,-75.39585556421648,-36.340096,29.798952,3.131846,71.247765,-14.551021,3.5082264,-24.279345,-1.3260808,9.805718,40.022537,-20.583645,6.358558,-4.604713,1.5623543,4.3830476,-3.1278865,18.632637,-37.630394,59.616695,0.92349124,6.9824514,18.63031,12.210531,-15.722925,21.396023,45.291317,13.5829525,5.995962,-2.803389
161,-28.337568283081055,-16.25258445739746,75.07233428955078,0.10360764413447132,4.393623739826427,-75.49610148971088,-36.64184,30.371016,4.5736823,71.804504,-15.688836,3.6873522,-23.703497,-0.86070013,9.607755,39.34099,-20.31159,5.9172497,-4.4672313,1.6778665,4.3765635,-3.0129077,18.499432,-37.39183,59.44141,0.66441184,6.9321885,19.008318,12.367553,-15.939983,21.467224,45.33616,13.559804,6.010774,-2.9322472
162,-28.733417510986328,-16.53516387939453,75.24092102050781,0.013009395759365907,4.305782079928649,-75.60348678385324,-36.888824,30.825195,5.995685,72.2098,-16.614828,3.6662169,-23.09858,-0.38008317,9.427284,38.574467,-19.99119,5.4548473,-4.3285465,1.8194889,4.3619866,-2.905288,18.379368,-37.23339,59.26917,0.5883656,6.8470545,19.190477,12.538795,-16.142925,21.514532,45.420788,13.536781,5.9719267,-3.1639566
163,-29.141748428344727,-16.82954216003418,75.41567993164062,-0.08754306668029628,4.221167548751609,-75.7077411498214,-37.106853,31.103115,7.320217,72.501434,-17.340488,3.467062,-22.468557,0.09844029,9.251839,37.745785,-19.640257,4.9980216,-4.1960516,1.9750061,4.3443437,-2.8095863,18.272167,-37.121456,59.09903,0.56397134,6.735203,19.274265,12.717877,-16.332329,21.534119,45.527897,13.540904,5.9108577,-3.400221
164,-29.521564483642578,-17.113426208496094,75.58089447021484,-0.19076701334668184,4.135763876607534,-75.79839881752686,-37.326294,31.146904,8.46505,72.71688,-17.878996,3.1123667,-21.81742,0.5587954,9.069279,36.878433,-19.277773,4.573663,-4.077243,2.1335578,4.32964,-2.729233,18.17672,-37.02132,58.92795,0.46114752,6.6034045,19.356558,12.900321,-16.510126,21.52281,45.637733,13.60061,5.8592777,-3.5421734
165,-29.89588165283203,-17.39312171936035,75.74122619628906,-0.2940391871076731,4.050673689614741,-75.87554365383954,-37.55842,30.94124,9.4303875,72.845406,-18.184818,2.5915272,-21.141655,0.994833,8.882937,35.962353,-18.895723,4.1927056,-3.9732544,2.2945795,4.3177285,-2.6667721,18.092588,-36.9312,58.7586,0.24041286,6.4427433,19.475103,13.084805,-16.679815,21.468502,45.7534,13.783285,5.8056483,-3.5444908
166,-30.25897979736328,-17.68135643005371,75.89689636230469,-0.4017485004056348,3.9671273691821933,-75.944041893169,-37.801685,30.517986,10.248082,72.87216,-18.267323,1.9016911,-20.439245,1.4168811,8.697238,34.989506,-18.488499,3.8396866,-3.8809423,2.46459,4.306818,-2.6191344,18.019743,-36.865765,58.590454,-0.026681438,6.2528787,19.573568,13.27581,-16.842083,21.377214,45.87933,14.054703,5.74054,-3.4656894
167,-30.613929748535156,-17.95693016052246,76.04720306396484,-0.5181394566417654,3.8814099347500335,-76.00095976708211,-38.066704,29.890501,10.879599,72.82158,-18.221384,1.0723622,-19.714922,1.8334453,8.501275,33.98199,-18.075321,3.5026646,-3.8014991,2.6425867,4.299723,-2.583696,17.958273,-36.816967,58.419334,-0.30693394,6.053751,19.60826,13.473686,-16.995129,21.274143,46.00277,14.291945,5.6974044,-3.3634186
168,-30.95911407470703,-18.223600387573242,76.19849395751953,-0.647383305949895,3.78974081567678,-76.04315561520481,-38.363598,29.072702,11.289301,72.72095,-18.145327,0.13489312,-18.97372,2.2535698,8.28407,32.962223,-17.675314,3.169064,-3.737624,2.8270497,4.2989864,-2.5596282,17.909498,-36.780254,58.242893,-0.5726152,5.8656263,19.535961,13.67595,-17.136478,21.185835,46.1138,14.371449,5.708737,-3.2963517
169,-31.304819107055664,-18.503725051879883,76.32921600341797,-0.784055507884412,3.685825366226717,-76.05592804855733,-38.706535,27.99181,11.398286,72.562355,-18.06733,-0.94263256,-18.20347,2.6639557,8.026682,31.930094,-17.302246,2.834251,-3.699208,3.0095532,4.3060346,-2.5412428,17.875418,-36.73922,58.052193,-0.8394366,5.695904,19.3307,13.886349,-17.261637,21.118076,46.21278,14.210907,5.814487,-3.2822275
170,-31.645998001098633,-18.785120010375977,76.44692993164062,-0.9285581449637765,3.573079331019059,-76.0457777923006,-39.084614,26.667358,11.252131,72.33491,-17.94912,-2.164187,-17.405855,3.0670738,7.741297,30.875343,-16.94263,2.5044246,-3.68279,3.192146,4.3197107,-2.529136,17.8573,-36.69952,57.84995,-1.1146377,5.534697,19.020266,14.100141,-17.370129,21.05913,46.309635,13.89202,5.986145,-3.2891746
171,-31.9879093170166,-19.055757522583008,76.55337524414062,-1.0944432700438762,3.4622125388777865,-76.04166542251505,-39.468487,25.253502,11.001103,72.0627,-17.78679,-3.4573338,-16.604631,3.4940057,7.46339,29.799707,-16.571814,2.1840777,-3.6704183,3.3821633,4.3345356,-2.533926,17.855694,-36.690136,57.65897,-1.3564653,5.376176,18.643112,14.285893,-17.438236,21.014095,46.435158,13.532812,6.150285,-3.3057313
172,-32.329627990722656,-19.341236114501953,76.65756225585938,-1.2956962055660106,3.3646049758069934,-76.07208660580484,-39.835144,23.902588,10.788828,71.76982,-17.567734,-4.750885,-15.824019,3.974881,7.2279167,28.705225,-16.165815,1.8776633,-3.6444304,3.61977,4.3619666,-2.5546727,17.86567,-36.735294,57.464153,-1.5245466,5.2126136,18.234701,14.4854555,-17.53547,20.972164,46.504913,13.269873,6.245398,-3.3055947
173,-32.65629959106445,-19.598966598510742,76.74281311035156,-1.536460789252739,3.2827681432806073,-76.14197202145375,-40.18894,22.609276,10.606793,71.4471,-17.266638,-6.0760937,-15.063888,4.513991,7.0412,27.57812,-15.709081,1.6029615,-3.60735,3.8965263,4.392174,-2.6013637,17.885075,-36.837425,57.289692,-1.5964093,5.035672,17.786129,14.661987,-17.622269,20.950583,46.572426,13.108563,6.231012,-3.2964652
174,-32.982425689697266,-19.86005401611328,76.81780242919922,-1.8075946681546033,3.2105799506410553,-76.23680749067746,-40.536175,21.3034,10.392375,71.08573,-16.90211,-7.4569664,-14.310615,5.0932455,6.8878856,26.416056,-15.214484,1.352194,-3.5634987,4.204992,4.4279037,-2.6701424,17.914515,-36.98656,57.125027,-1.5986185,4.850279,17.28444,14.832071,-17.70832,20.94062,46.623093,12.991241,6.1514826,-3.283107
175,-33.31120300292969,-20.11844825744629,76.87673950195312,-2.1024229454853027,3.146188265502296,-76.35507221262716,-40.864155,20.03918,10.203045,70.714165,-16.517405,-8.812094,-13.574734,5.7079234,6.7698927,25.254171,-14.708503,1.0923139,-3.5107503,4.537279,4.468608,-2.7582285,17.951307,-37.18411,56.974968,-1.5586771,4.6683226,16.76507,14.992486,-17.789337,20.932497,46.661594,12.933877,6.0527573,-3.263813
176,-33.631343841552734,-20.3896541595459,76.92012786865234,-2.4123497129175506,3.087680138976905,-76.49603241116318,-41.159008,18.87002,10.099482,70.35466,-16.145407,-10.058593,-12.861684,6.3521276,6.690004,24.117058,-14.210276,0.790263,-3.444016,4.8848,4.5147033,-2.86271,17.992464,-37.432766,56.842304,-1.5027425,4.5021853,16.263475,15.144301,-17.86344,20.91421,46.687492,12.95346,5.981402,-3.2359807
177,-33.95405578613281,-20.63681411743164,76.95438385009766,-2.7439394538311124,3.0348011477021264,-76.65903394474817,-41.42105,17.811592,10.092533,70.006615,-15.762563,-11.208788,-12.166836,7.0331144,6.6468663,22.998117,-13.722186,0.42427835,-3.35355,5.2562747,4.568217,-2.9977486,18.034952,-37.751244,56.73401,-1.4152917,4.354953,15.778414,15.293554,-17.929602,20.864136,46.693016,13.120214,5.942054,-3.192004
178,-34.27263259887695,-20.906362533569336,76.96855163574219,-3.0973100903055184,2.9882612514583924,-76.84449081226342,-41.65686,16.831509,10.150289,69.65711,-15.353063,-12.2964735,-11.486958,7.74872,6.6403766,21.887383,-13.233544,0.017203279,-3.2421265,5.6514587,4.6261625,-3.165626,18.077127,-38.137566,56.65286,-1.2918962,4.2190685,15.295164,15.439454,-17.988258,20.791681,46.681572,13.402229,5.912594,-3.1353834
179,-34.586788177490234,-21.159563064575195,76.97655487060547,-3.4553837995275134,2.947709375657,-77.05335212666728,-41.865437,15.914775,10.269413,69.31505,-14.958738,-13.269034,-10.829123,8.479624,6.673316,20.804897,-12.753098,-0.3967104,-3.1298785,6.048309,4.680828,-3.3376453,18.115767,-38.547684,56.593227,-1.1643046,4.0917654,14.828591,15.5645895,-18.03541,20.739714,46.676674,13.66397,5.8986917,-3.08162
180,-34.89354705810547,-21.40047836303711,76.96961975097656,-3.800814460240739,2.912810352722549,-77.28671963074697,-42.045135,15.04765,10.447983,68.9892,-14.619553,-14.072275,-10.201264,9.206613,6.748186,19.770731,-12.289689,-0.7837162,-3.0339067,6.4247026,4.7259793,-3.4865668,18.151354,-38.943474,56.547855,-1.068395,3.9710813,14.393009,15.655949,-18.071466,20.745712,46.69611,13.768814,5.906029,-3.045208
181,-35.204227447509766,-21.6564884185791,76.95008850097656,-4.130740862672709,2.887571472565771,-77.54869870522262,-42.20633,14.236161,10.690917,68.69937,-14.335704,-14.6587,-9.623275,9.931509,6.8725777,18.81321,-11.855955,-1.1562574,-2.9622033,6.776978,4.7585444,-3.6078773,18.184822,-39.31696,56.519882,-1.0286752,3.8500826,13.98728,15.705527,-18.097448,20.831327,46.743675,13.631487,5.9499617,-3.0349572
182,-35.51754379272461,-21.910276412963867,76.92597961425781,-4.453200163763641,2.8709592686075376,-77.8373960202113,-42.345753,13.489745,11.01584,68.43535,-14.080714,-15.000033,-9.086485,10.660238,7.0419235,17.91984,-11.447153,-1.524254,-2.885618,7.1165366,4.783807,-3.714074,18.23403,-39.71685,56.489754,-1.0357306,3.734258,13.606027,15.750304,-18.123823,20.951885,46.779037,13.342558,6.024468,-3.0372248
183,-35.82486343383789,-22.16111946105957,76.89186096191406,-4.756846254180611,2.8606867722466056,-78.13484582902494,-42.439484,12.79411,11.468663,68.14761,-13.847079,-15.000033,-8.57038,11.364371,7.234798,17.06495,-11.05327,-1.8470318,-2.8350272,7.4343214,4.8060613,-3.789495,18.28975,-40.095352,56.449898,-1.0303667,3.6368966,13.252733,15.761083,-18.142195,21.110456,46.83426,13.027805,6.099306,-3.042856
184,-36.113468170166016,-22.412397384643555,76.85548400878906,-5.039576969415327,2.8508346768395834,-78.4297563359606,-42.469646,12.106026,11.975542,67.792244,-13.634666,-15.000033,-8.043595,12.030916,7.433103,16.207428,-10.655699,-2.0905938,-2.813901,7.7307134,4.827303,-3.8416798,18.326462,-40.438206,56.41545,-0.9629402,3.5695817,12.934584,15.738538,-18.149431,21.284334,46.9185,12.812026,6.1454625,-3.0402515
185,-36.39965057373047,-22.66851806640625,76.80449676513672,-5.322151089840098,2.8248147502784273,-78.74295307535407,-42.42053,11.470966,12.548621,67.39833,-13.468669,-15.000033,-7.4399104,12.681485,7.6573315,15.236143,-10.18548,-2.2050078,-2.7782166,8.024916,4.864536,-3.8712592,18.358517,-40.772617,56.366222,-0.7929912,3.546822,12.680224,15.712631,-18.149027,21.445587,47.005665,12.756651,6.157993,-3.018857
186,-36.711063385009766,-22.92327880859375,76.74873352050781,-5.6025711992693035,2.786429195641294,-79.08020087518909,-42.303158,10.884166,13.174453,66.97977,-13.343527,-15.000033,-6.7818904,13.321517,7.918178,14.187286,-9.662508,-2.225735,-2.7266858,8.311779,4.911651,-3.8827856,18.390045,-41.109707,56.310516,-0.56177586,3.5580657,12.478502,15.679451,-18.138279,21.607609,47.098198,12.785604,6.151214,-2.9885197
187,-37.013648986816406,-23.19864845275879,76.68921661376953,-5.869509803432351,2.7468106577066624,-79.42871598489947,-42.12962,10.287933,13.804716,66.48918,-13.226869,-15.000033,-6.1315246,13.943931,8.2000885,13.177415,-9.162993,-2.251102,-2.6865034,8.582582,4.955808,-3.874874,18.413136,-41.431118,56.25956,-0.3502758,3.5796616,12.274599,15.625193,-18.120481,21.784138,47.2031,12.816557,6.128409,-2.9595668
188,-37.298954010009766,-23.463613510131836,76.62654876708984,-6.1174945209760425,2.717322226992783,-79.77596844409602,-41.91633,9.630666,14.383975,65.883286,-13.088794,-15.000033,-5.554789,14.549031,8.481748,12.326623,-8.764979,-2.3808568,-2.6574123,8.825761,4.9732733,-3.8575792,18.435572,-41.77921,56.225643,-0.27421913,3.5906384,12.021132,15.557391,-18.08951,21.978191,47.320408,12.775417,6.091206,-2.9473827
189,-37.606082916259766,-23.750263214111328,76.55889129638672,-6.354202988598662,2.6979993972648786,-80.12148934234848,-41.659748,8.906276,14.894769,65.151985,-12.938689,-15.000033,-5.080401,15.150395,8.75539,11.694328,-8.5059395,-2.6689491,-2.6459792,9.047518,4.9652276,-3.8220549,18.457758,-42.138317,56.20365,-0.41316566,3.586173,11.701912,15.469073,-18.040257,22.197819,47.460815,12.621163,6.017371,-2.9634929
190,-37.895423889160156,-24.016887664794922,76.48814392089844,-6.585641786343012,2.6833291989285373,-80.47096086364472,-41.355503,8.142736,15.357465,64.319756,-12.787392,-15.000033,-4.6760697,15.751216,9.026667,11.2126,-8.338848,-3.0556562,-2.6559725,9.261834,4.9464245,-3.7622712,18.473486,-42.48521,56.185486,-0.6856457,3.5788708,11.342737,15.362632,-17.989908,22.4421,47.610165,12.402859,5.9151025,-2.9960723
191,-38.166927337646484,-24.29129981994629,76.4127426147461,-6.804562266814399,2.6760293175272127,-80.82039885440588,-41.016087,7.339171,15.77234,63.39077,-12.60612,-15.000033,-4.3081994,16.337294,9.294799,10.799737,-8.210758,-3.469519,-2.6753733,9.457065,4.910198,-3.698107,18.487717,-42.856895,56.18483,-0.9631872,3.5738473,10.958061,15.239511,-17.925755,22.692266,47.76785,12.16946,5.8275537,-3.027442
192,-38.451995849609375,-24.561485290527344,76.34928894042969,-7.001200388232209,2.6790919791012073,-81.16599028711941,-40.653214,6.4942417,16.142834,62.36778,-12.3650465,-15.000033,-3.9457092,16.891623,9.559633,10.38492,-8.077647,-3.8368843,-2.694103,9.620828,4.854091,-3.6490505,18.502857,-43.27693,56.213505,-1.1068163,3.5743256,10.559464,15.095248,-17.829754,22.92189,47.936905,11.960834,5.797808,-3.036993
193,-38.74934768676758,-24.841724395751953,76.28301239013672,-7.177492851293926,2.693875210238623,-81.50002776035535,-40.267975,5.5997033,16.461437,61.254658,-12.046429,-15.000033,-3.5640838,17.410574,9.817912,9.919455,-7.9161153,-4.1472497,-2.7282567,9.767466,4.7859282,-3.617845,18.515043,-43.739525,56.272083,-1.1165012,3.5682983,10.118068,14.939267,-17.728159,23.132763,48.09376,11.751978,5.859684,-3.021891
194,-39.044586181640625,-25.121971130371094,76.20747375488281,-7.3374039111042,2.7189300544531974,-81.82720604213672,-39.852604,4.659773,16.726963,60.04559,-11.668252,-15.000033,-3.1823697,17.903244,10.071329,9.4518795,-7.756358,-4.434929,-2.7786005,9.902022,4.706815,-3.5920877,18.523201,-44.232307,56.350388,-1.0526078,3.556708,9.638129,14.778743,-17.63142,23.336206,48.230724,11.536175,5.9840035,-2.9899073
195,-39.3169059753418,-25.420766830444336,76.13390350341797,-7.473085383156693,2.753141304729933,-82.1622171137196,-39.404915,3.6915035,16.954414,58.728428,-11.25399,-15.000033,-2.8226798,18.369576,10.331518,9.033915,-7.625963,-4.6940475,-2.8355463,10.014992,4.6179276,-3.55369,18.527283,-44.728893,56.424824,-0.8525468,3.558688,9.176381,14.618677,-17.552307,23.531775,48.33211,11.389233,6.1251473,-2.9286442
196,-39.596405029296875,-25.717782974243164,76.05488586425781,-7.578451302810058,2.7950455775334815,-82.5195895592453,-38.92248,2.7112792,17.156256,57.29006,-10.826754,-15.000033,-2.52964,18.81455,10.602036,8.758656,-7.5673275,-4.9201326,-2.8418307,10.075408,4.4978614,-3.5214534,18.52474,-45.275143,56.514206,-0.47498846,3.5941923,8.7954,14.456931,-17.42911,23.680372,48.4366,11.367901,6.2299185,-2.8338249
197,-39.8825569152832,-26.004785537719727,75.9742431640625,-7.642585986515782,2.8405607121325054,-82.8928995931914,-38.38169,1.7000175,17.347939,55.703785,-10.37058,-15.000033,-2.2847183,19.223183,10.881715,8.603087,-7.5718884,-5.0896,-2.8522575,10.088493,4.362217,-3.452855,18.5145,-45.82318,56.591373,0.25755745,3.682337,8.526876,14.302302,-17.31883,23.811567,48.502384,11.577651,6.285371,-2.6748676
198,-40.16111755371094,-26.296775817871094,75.88736724853516,-7.673587049963185,2.89152422522904,-83.27830913729437,-37.786823,0.656492,17.512142,53.977657,-9.877802,-15.000033,-2.0937223,19.604347,11.161766,8.570856,-7.6422634,-5.2128377,-2.8529,10.062052,4.2081156,-3.3682427,18.49461,-46.39834,56.672974,1.2599242,3.8064847,8.3331785,14.158304,-17.210295,23.914692,48.53563,11.9524975,6.318573,-2.4654582
199,-40.44602966308594,-26.62246322631836,75.81322479248047,-7.694336889419573,2.9551109168932137,-83.69387158987948,-37.174526,-0.37365997,17.614384,52.15223,-9.385869,-15.000033,-1.9566895,19.985174,11.460992,8.627441,-7.7515845,-5.3370094,-2.839568,10.028452,4.0515714,-3.2618556,18.474102,-46.924126,56.720093,2.2504797,3.9300954,8.155413,14.00548,-17.132233,24.025183,48.527298,12.346031,6.3553724,-2.2519352
200,-40.73139953613281,-26.924640655517578,75.73323822021484,-7.726663895292138,3.0386779320514727,-84.15702318695196,-36.582127,-1.3439864,17.625736,50.271503,-8.933473,-15.000033,-1.8998828,20.396278,11.789068,8.790283,-7.9003797,-5.5088825,-2.7449272,9.995978,3.88194,-3.1876245,18.439713,-47.416214,56.76405,2.9211962,4.017386,7.9435806,13.823796,-17.032564,24.117258,48.523262,12.584478,6.4120703,-2.0860498
201,-41.02606964111328,-27.201995849609375,75.64478302001953,-7.777765705336292,3.1513207830900147,-84.68135381661594,-36.01998,-2.2584422,17.5259,48.320324,-8.531424,-15.000033,-1.9659286,20.853506,12.14807,9.111188,-8.107803,-5.75206,-2.5974443,9.982534,3.7131698,-3.115011,18.403957,-47.800076,56.757027,3.1479924,4.059252,7.681905,13.590934,-16.949434,24.233582,48.501133,12.649445,6.5331154,-1.9748191
202,-41.313899993896484,-27.489227294921875,75.56454467773438,-7.8365786924007,3.2867171369496666,-85.25499631170513,-35.461697,-3.1320517,17.337677,46.281834,-8.157731,-15.000033,-2.1332633,21.342093,12.529535,9.571069,-8.370841,-6.0359635,-2.4085293,9.9775,3.5451891,-3.0345674,18.374315,-48.10717,56.696537,3.102611,4.0776873,7.3993697,13.331583,-16.89132,24.361744,48.440567,12.622646,6.695949,-1.8917292
203,-41.61501693725586,-27.777103424072266,75.48175811767578,-7.89896927959835,3.429353320365507,-85.85566102845361,-34.887455,-3.9348042,17.099365,44.19482,-7.7997904,-15.000033,-2.2984335,21.841854,12.9391985,10.016389,-8.613992,-6.327125,-2.1868763,9.968048,3.3762763,-2.9493787,18.343672,-48.362743,56.614174,2.9730015,4.082325,7.1055193,13.053111,-16.83875,24.49629,48.376842,12.513073,6.8208404,-1.8382716
204,-41.913631439208984,-28.076160430908203,75.39856719970703,-7.959817759861818,3.564592804192587,-86.46071700061626,-34.282307,-4.6375012,16.85407,42.10221,-7.445988,-15.000033,-2.3927372,22.334583,13.371577,10.362542,-8.802848,-6.593202,-1.9597553,9.946764,3.210588,-2.8487532,18.310596,-48.568172,56.5251,2.9525332,4.080369,6.807788,12.759522,-16.786623,24.649626,48.33498,12.336347,6.8300548,-1.8151436
205,-42.22358322143555,-28.381383895874023,75.30584716796875,-8.020357489664919,3.687064148728786,-87.06144158357402,-33.63248,-5.2379208,16.613544,39.990498,-7.1006937,-15.000033,-2.3787463,22.81368,13.834473,10.555248,-8.91155,-6.828553,-1.739455,9.920568,3.057448,-2.7090309,18.291916,-48.69979,56.39518,3.1267538,4.06211,6.469053,12.475499,-16.75941,24.823,48.28757,12.034113,6.6641893,-1.8320377
206,-42.53993606567383,-28.695276260375977,75.2283935546875,-8.083221216285601,3.8056010190067173,-87.67040091514353,-32.95066,-5.750983,16.366232,37.845963,-6.7658463,-15.000033,-2.311077,23.290247,14.3242655,10.675019,-8.978326,-7.0499086,-1.5098519,9.888321,2.9077582,-2.5457895,18.278955,-48.76946,56.238083,3.3783374,4.0263166,6.0999584,12.183684,-16.740923,25.014668,48.246128,11.619775,6.376534,-1.8895521
207,-42.859371185302734,-28.992198944091797,75.13660430908203,-8.145584559895257,3.92713967641978,-88.29591286481805,-32.259007,-6.175693,16.119532,35.705456,-6.4335246,-15.000033,-2.2105522,23.76099,14.8375435,10.744586,-9.01493,-7.259794,-1.2736318,9.847563,2.761619,-2.3710985,18.269173,-48.792065,56.065193,3.610352,3.994084,5.771977,11.853014,-16.725266,25.23511,48.225246,11.223482,6.0657964,-1.9629927
208,-43.18436813354492,-29.295434951782227,75.03767395019531,-8.20433946405963,4.058872685066792,-88.94651778182676,-31.583975,-6.509979,15.880059,33.613266,-6.0972986,-15.000033,-2.1341288,24.232277,15.355679,10.856184,-9.070023,-7.4600763,-1.0105594,9.797002,2.6221151,-2.209791,18.265312,-48.80634,55.881935,3.7206833,3.988865,5.555117,11.480075,-16.716434,25.457645,48.209538,10.963696,5.831919,-2.0185113
209,-43.5198860168457,-29.59730339050293,74.9465560913086,-8.26400683476886,4.204930966626681,-89.6231705922618,-30.937563,-6.761595,15.6160345,31.563328,-5.762326,-15.000033,-2.0950823,24.708935,15.867811,11.02306,-9.14771,-7.6453853,-0.69696176,9.7420435,2.4905427,-2.0824575,18.266647,-48.84616,55.680805,3.6429799,4.0318694,5.4946537,11.079757,-16.716911,25.644644,48.174908,10.880599,5.7089696,-2.0375748
210,-43.84733963012695,-29.916748046875,74.85269927978516,-8.326109259919324,4.360992367166846,-90.32156975594253,-30.308949,-6.92801,15.342354,29.54507,-5.434957,-15.000033,-2.074882,25.191383,16.380007,11.222469,-9.237925,-7.8163314,-0.3869418,9.681782,2.3617754,-1.9433668,18.275976,-48.851776,55.454838,3.4450855,4.106291,5.5474052,10.61062,-16.724659,25.880299,48.175247,10.931763,5.637876,-2.0504024
211,-44.180057525634766,-30.21828269958496,74.7646255493164,-8.382958470667793,4.520755118275549,-91.04341582763308,-29.69283,-6.993086,15.135193,27.599,-5.111086,-15.000033,-2.0312054,25.666681,16.922024,11.3924,-9.311641,-7.982855,-0.020752102,9.608243,2.2404332,-1.8308959,18.287628,-48.86501,55.23738,3.2148058,4.1795936,5.641499,10.146143,-16.737467,26.07969,48.151066,11.022178,5.590553,-2.0548832
212,-44.52313232421875,-30.505271911621094,74.65718841552734,-8.423589565108816,4.679516502132102,-91.78957456088948,-29.088682,-6.9434776,15.073288,25.773941,-4.791763,-15.000033,-1.9534955,26.125391,17.510218,11.532527,-9.377343,-8.155361,0.38439748,9.509619,2.122981,-1.7288296,18.300985,-48.862015,55.05135,3.0415852,4.2194605,5.710392,9.684595,-16.752876,26.281246,48.11827,11.105921,5.533095,-2.0701005
213,-44.85855484008789,-30.831953048706055,74.56644439697266,-8.446121017686169,4.8340240838919515,-92.5600118313965,-28.471094,-6.7705636,15.207477,24.02859,-4.459681,-15.000033,-1.8258952,26.565367,18.159485,11.627662,-9.429244,-8.347382,0.7853214,9.387234,2.016098,-1.5969368,18.329742,-48.78555,54.875202,2.9590104,4.2122073,5.7270184,9.197342,-16.781012,26.555792,48.0975,11.22195,5.4539156,-2.1085763
214,-45.222801208496094,-31.155353546142578,74.46895599365234,-8.453618779523936,4.988384899062116,-93.35393720995843,-27.85671,-6.4917226,15.496054,22.367952,-4.1303396,-15.000033,-1.6487167,26.983751,18.86348,11.667192,-9.45822,-8.549997,1.2453591,9.239205,1.9157679,-1.4901142,18.359282,-48.712093,54.72908,2.907655,4.1767483,5.729974,8.725245,-16.8089,26.803642,48.056686,11.356726,5.372237,-2.150246
215,-45.58131408691406,-31.451107025146484,74.36668395996094,-8.439458768613287,5.151823914091026,-94.16940938075122,-27.31477,-6.128893,15.8774805,20.923716,-3.8618386,-15.000033,-1.4893059,27.383713,19.580973,11.758081,-9.513602,-8.739443,1.7419565,9.058302,1.8142147,-1.400877,18.38645,-48.638786,54.61121,2.8707037,4.1302896,5.751145,8.24855,-16.83403,27.03896,48.012066,11.466038,5.298259,-2.194937
216,-45.942203521728516,-31.77950668334961,74.28298950195312,-8.385604529995314,5.340964227722264,-94.98683315899886,-26.901196,-5.740148,16.299202,19.778616,-3.683029,-14.794775,-1.4062699,27.746967,20.263174,11.970984,-9.629241,-8.887759,2.2079573,8.833233,1.7067351,-1.292173,18.425123,-48.5246,54.48586,2.8411903,4.0907664,5.819033,7.73388,-16.864523,27.308876,47.97875,11.515945,5.242849,-2.2439597
217,-46.28517150878906,-32.12371063232422,74.20089721679688,-8.261437526710889,5.5839140285659505,-95.77665753071447,-26.5964,-5.394226,16.835342,18.82218,-3.4453158,-13.670992,-1.5342991,28.060709,20.831373,12.513399,-9.9279175,-8.9757595,2.6550276,8.539929,1.5693191,-1.1985166,18.46153,-48.432236,54.37109,2.8179846,4.0580025,5.9640985,7.2067184,-16.891088,27.543741,47.949017,11.436928,5.205442,-2.2945974
218,-46.64874267578125,-32.445396423339844,74.10575866699219,-8.091389742873348,5.8599381509698,-96.57733487628418,-26.410076,-4.9832644,17.457243,18.145323,-3.2423694,-12.348643,-1.74812,28.342632,21.37179,13.19257,-10.300072,-9.026413,3.084114,8.194181,1.4216797,-1.0867366,18.51287,-48.30819,54.244873,2.8146887,4.0238466,6.161388,6.645379,-16.920965,27.805,47.93145,11.286603,5.18153,-2.3537405
219,-47.0221061706543,-32.76504898071289,74.01963806152344,-7.870719317252772,6.1578065083939695,-97.3611429733922,-26.362831,-4.5905604,18.06151,17.79346,-3.2659476,-10.938131,-2.0139766,28.579977,21.871307,13.952484,-10.715602,-9.046899,3.505448,7.783047,1.2771269,-0.980748,18.576036,-48.16901,54.13196,2.800024,3.995671,6.3642054,6.0806274,-16.947483,28.06532,47.89782,11.131546,5.1761556,-2.407029
220,-47.394351959228516,-33.06123352050781,73.9477310180664,-7.59800871347484,6.464046236047663,-98.10181952166687,-26.469727,-4.2978487,18.531393,17.799974,-3.689756,-9.550963,-2.2944329,28.761112,22.319641,14.732685,-11.141546,-9.045728,3.9170976,7.2993107,1.1478662,-0.90193594,18.634975,-48.016598,54.071075,2.7465599,3.9800825,6.5277534,5.5280514,-16.965021,28.319231,47.83632,11.045172,5.1934695,-2.4438813
221,-47.78426742553711,-33.396728515625,73.8777847290039,-7.26758644146521,6.779707758667705,-98.80993634022568,-26.765162,-4.1364684,18.766342,18.246876,-4.7018433,-8.191923,-2.582954,28.87966,22.723835,15.526625,-11.584352,-9.03663,4.309611,6.7388787,1.0313257,-0.8283913,18.697866,-47.817043,54.048058,2.6232655,3.9750118,6.6179285,4.9690022,-16.976902,28.608633,47.753975,11.149895,5.247615,-2.4481294
222,-48.17686462402344,-33.70915985107422,73.81454467773438,-6.8844115356242215,7.108663455908541,-99.49579992201758,-27.22971,-4.0624113,18.829756,19.081936,-6.1327744,-6.798853,-2.8883443,28.943602,23.093218,16.349798,-12.049617,-9.01253,4.7046227,6.108191,0.9236047,-0.7748785,18.755018,-47.599663,54.071697,2.4498386,3.977682,6.6680074,4.415533,-16.98321,28.902836,47.648487,11.366579,5.3321953,-2.4285204
223,-48.563255310058594,-34.02434539794922,73.75746154785156,-6.463565806520074,7.440960492541448,-100.13221092982606,-27.792067,-4.0340977,18.854084,20.13295,-7.6211424,-5.38982,-3.200566,28.963753,23.418312,17.181467,-12.505507,-8.95147,5.0653977,5.426791,0.84803724,-0.73939514,18.809166,-47.362743,54.135803,2.291782,3.9941351,6.726629,3.8690212,-16.984411,29.192066,47.522045,11.498324,5.42044,-2.4212406
224,-48.96489715576172,-34.34404754638672,73.70435333251953,-6.01883535130769,7.766890452080639,-100.69093265880761,-28.374731,-4.0032725,18.983622,21.221561,-8.8183155,-3.9946663,-3.5154674,28.950989,23.685556,18.009272,-12.925867,-8.83043,5.2903285,4.714063,0.8326325,-0.6469671,18.912367,-47.016846,54.15679,2.2367554,4.0326786,6.835586,3.2694113,-16.97012,29.547451,47.419994,11.366505,5.482768,-2.4698853
225,-49.37947082519531,-34.6624755859375,73.6556396484375,-5.542053727584916,8.094442859619964,-101.16359086059829,-29.00294,-3.9394066,19.30041,22.380093,-9.644723,-2.5796113,-3.8491144,28.906605,23.893246,18.847229,-13.311117,-8.706924,5.5025487,3.9504302,0.8644261,-0.625875,19.01067,-46.72496,54.240116,2.2905014,4.1048408,7.0282707,2.715382,-16.93924,29.808395,47.280235,10.667871,5.53057,-2.59586
226,-49.792152404785156,-34.962974548339844,73.62490844726562,-5.033323581231033,8.422347968504743,-101.56683317103032,-29.6928,-3.8638566,19.722534,23.662952,-10.282253,-1.148435,-4.196674,28.828806,24.049393,19.696453,-13.672925,-8.572159,5.7056184,3.1452312,0.93299645,-0.6775125,19.073698,-46.46773,54.414494,2.4150362,4.2019777,7.2766023,2.20202,-16.907438,30.005972,47.10096,9.58749,5.575833,-2.772625
227,-50.22012710571289,-35.25491714477539,73.60700225830078,-4.513419954057968,8.72873525380553,-101.90817412095527,-30.34628,-3.7998164,20.154188,24.920383,-10.785366,0.20848547,-4.5102334,28.713396,24.160107,20.496782,-13.988825,-8.302524,5.8163395,2.3250792,1.044789,-0.69281477,19.159327,-46.138313,54.587326,2.5660665,4.30374,7.542394,1.6494901,-16.848104,30.23535,46.954124,8.599395,5.588926,-2.9483945
228,-50.63414764404297,-35.547428131103516,73.5900650024414,-4.003005033183762,8.993347371886168,-102.19421137310617,-30.875479,-3.7784524,20.495583,26.01696,-11.215326,1.4022058,-4.750746,28.558216,24.22471,21.20222,-14.247158,-7.773395,5.900463,1.519895,1.1962676,-0.72050583,19.232887,-45.8289,54.81101,2.6490111,4.385178,7.802743,1.1418506,-16.790703,30.405514,46.772305,8.142754,5.543613,-3.0510652
229,-51.04584503173828,-35.830169677734375,73.58551788330078,-3.508430953079366,9.207896416353018,-102.40110194062227,-31.284676,-3.802211,20.69867,26.977114,-11.574701,2.3873472,-4.884728,28.376623,24.261133,21.764128,-14.467904,-6.9930496,5.928844,0.7434178,1.4048892,-0.7608104,19.28658,-45.513756,55.09774,2.6274023,4.4251227,8.068483,0.685276,-16.74601,30.509933,46.538315,8.52867,5.3925233,-3.048322
230,-51.4674186706543,-36.11957931518555,73.58711242675781,-3.01825810609495,9.384099779293491,-102.53323474282766,-31.616343,-3.8542404,20.824385,27.86449,-11.847465,3.220317,-4.9544387,28.170763,24.251947,22.241673,-14.666889,-6.0140157,5.911283,-0.018484998,1.6616706,-0.8228125,19.318422,-45.197372,55.44714,2.5467439,4.4401884,8.34908,0.27729368,-16.716837,30.556875,46.25163,9.45408,5.1653633,-2.9761925
231,-51.88132095336914,-36.413204193115234,73.59333801269531,-2.523796947060262,9.533065695406284,-102.63854129345653,-31.842487,-3.9431005,20.934374,28.602531,-12.064744,3.963144,-5.0105085,27.911081,24.155058,22.704885,-14.815648,-4.775653,5.875168,-0.7748071,1.9280169,-0.8825433,19.333914,-44.891026,55.828117,2.470717,4.4624176,8.611812,-0.1065021,-16.700918,30.595688,45.946136,10.462883,4.94593,-2.8792446
232,-52.27817916870117,-36.71775436401367,73.6085205078125,-2.016634244448807,9.667028772176758,-102.76480913847583,-31.935265,-4.078438,21.089886,29.113508,-12.255453,4.675885,-5.109546,27.574093,23.92502,23.240427,-14.898189,-3.2145667,5.8516483,-1.5328679,2.1673508,-0.9216879,19.332441,-44.611217,56.215492,2.463231,4.5241218,8.824331,-0.48281452,-16.701393,30.66736,45.645752,11.096959,4.81561,-2.8056765
233,-52.67821502685547,-37.01313781738281,73.63360595703125,-1.485755546585426,9.796541221244244,-102.90309073447108,-31.872358,-4.2849574,21.294891,29.327396,-12.402805,5.3641777,-5.277093,27.175573,23.586468,23.881582,-14.968509,-1.3567156,5.8613515,-2.3111334,2.3707094,-0.9628244,19.312653,-44.39131,56.641094,2.5426965,4.6327553,8.976394,-0.8226171,-16.720844,30.747082,45.3212,11.268909,4.798842,-2.7588093
234,-53.08351516723633,-37.31865692138672,73.67073059082031,-0.9407165303345351,9.914169729355693,-103.03483247112376,-31.67946,-4.550428,21.518469,29.310055,-12.50313,5.997853,-5.483175,26.735523,23.141863,24.595577,-15.052959,0.78372854,5.8340764,-3.0778863,2.5566082,-0.9919494,19.23813,-44.144825,57.120888,2.6997154,4.76777,9.08407,-1.148971,-16.792456,30.88563,44.96331,11.232523,4.853149,-2.7211487
235,-53.4498405456543,-37.638694763183594,73.71537017822266,-0.40478767974730456,10.00603577600328,-103.19334056591596,-31.397295,-4.8229656,21.766909,29.18635,-12.604059,6.580521,-5.693942,26.235632,22.52436,25.356607,-15.07937,3.2888806,5.851396,-3.8136616,2.730091,-1.0307546,19.12385,-43.97031,57.61326,2.8688357,4.9292855,9.164666,-1.4341434,-16.9016,31.004522,44.58396,10.975294,4.953879,-2.6945484
236,-53.809349060058594,-37.96004104614258,73.77849578857422,0.09615348699047589,10.058741408936504,-103.41242501766733,-31.069023,-5.046361,22.044706,29.086117,-12.756536,7.1158195,-5.8880157,25.664492,21.670504,26.162992,-14.969255,6.2390294,5.892218,-4.4772334,2.8956926,-1.0320395,18.975286,-43.82473,58.044125,3.0283606,5.114394,9.228815,-1.7305022,-17.041336,31.152666,44.23973,10.516388,5.0764017,-2.6910906
237,-54.15400314331055,-38.2989387512207,73.83470153808594,0.5884327667409771,10.06124130246914,-103.7038691307955,-30.673668,-5.2447715,22.374475,28.992117,-12.959177,7.6184897,-5.9539256,24.995983,20.666416,26.81541,-14.552189,10.130798,5.9505777,-5.0942216,3.0629716,-0.98093027,18.793259,-43.69281,58.41191,3.1804245,5.340513,9.281477,-2.0650516,-17.211147,31.365887,43.946396,9.64311,5.2641497,-2.7344537
238,-54.498416900634766,-38.629188537597656,73.89451599121094,1.0587971158728413,10.026776116266868,-104.0504674019564,-30.207588,-5.4179683,22.734257,28.866745,-13.196984,8.077436,-5.9742417,24.304861,19.511478,27.466084,-13.966508,14.755865,6.0213246,-5.656056,3.2226577,-0.8912764,18.577871,-43.579292,58.741077,3.3380785,5.602829,9.315013,-2.4215398,-17.410603,31.631403,43.685482,8.421736,5.514091,-2.8087714
239,-54.889095306396484,-38.97309875488281,73.91893768310547,1.1097365940604986,9.79928484101365,-104.3246006607171,-29.92096,-5.026445,22.748404,29.714201,-13.944898,8.353507,-5.638779,24.33217,17.84839,27.95719,-13.112121,15.000033,6.0210595,-5.778626,3.4908667,-0.7424886,18.41745,-43.508987,58.928493,3.4808521,5.8701468,9.314234,-2.758884,-17.617634,31.87982,43.43218,7.280398,5.7328367,-2.8691874
240,-55.27933883666992,-39.266090393066406,73.95401000976562,1.0752528213201895,9.65623072627199,-104.71444354375397,-29.67116,-4.52705,22.818136,30.46394,-14.654587,8.546179,-5.9423156,24.23617,15.635594,29.48989,-12.659127,15.000033,6.0781517,-5.7785215,3.6317146,-0.6021837,18.14389,-43.439213,59.11562,3.6370564,6.0957937,9.288539,-3.0851655,-17.849684,32.11221,43.23517,6.658533,5.820107,-2.8815253
241,-55.62561798095703,-39.57377243041992,74.0107421875,0.997500005842795,9.603634050849328,-105.24419515031614,-29.418556,-3.970589,22.998962,31.013985,-15.281806,8.646628,-7.0156455,23.803019,12.781355,32.33837,-12.616356,15.000033,6.255237,-5.717812,3.6566422,-0.43633652,17.85747,-43.438053,59.179844,3.8244946,6.3011994,9.218206,-3.3721821,-18.093351,32.27156,43.079693,6.8008475,5.6979704,-2.8054032
