unveil-humanoid-operators/unveil-humanoid-operators.github.io/feature-analysis-animation/data/feature_matrix_instances/gender_shoulder_mean_vel_jogging_A069_jog_ff_stop_270_001__A069.csv
Frame,root_translateX,root_translateY,root_translateZ,root_rotateX,root_rotateY,root_rotateZ,left_hip_pitch_joint_dof,left_hip_roll_joint_dof,left_hip_yaw_joint_dof,left_knee_joint_dof,left_ankle_pitch_joint_dof,left_ankle_roll_joint_dof,right_hip_pitch_joint_dof,right_hip_roll_joint_dof,right_hip_yaw_joint_dof,right_knee_joint_dof,right_ankle_pitch_joint_dof,right_ankle_roll_joint_dof,waist_yaw_joint_dof,waist_roll_joint_dof,waist_pitch_joint_dof,left_shoulder_pitch_joint_dof,left_shoulder_roll_joint_dof,left_shoulder_yaw_joint_dof,left_elbow_joint_dof,left_wrist_roll_joint_dof,left_wrist_pitch_joint_dof,left_wrist_yaw_joint_dof,right_shoulder_pitch_joint_dof,right_shoulder_roll_joint_dof,right_shoulder_yaw_joint_dof,right_elbow_joint_dof,right_wrist_roll_joint_dof,right_wrist_pitch_joint_dof,right_wrist_yaw_joint_dof
0,2.182504415512085,0.26362574100494385,77.88031005859375,1.8035515769863437,1.462861581954131,-170.61858543072304,6.753195,-17.855589,25.089573,27.130642,3.966921,-15.000033,-23.588993,6.733168,-23.564383,37.351746,11.162345,5.1831026,-10.729106,0.5569798,4.484434,2.9136012,29.834255,-28.256008,36.32019,19.86574,0.22863196,1.4116491,10.44457,-23.698557,6.5642877,47.85059,24.724632,4.5529447,-12.85867
1,2.30385160446167,1.946632742881775,77.8573989868164,1.809982505569351,1.1475387472039353,-170.92977443030338,7.147104,-17.29967,25.763632,26.671104,4.64748,-15.000033,-22.875793,9.235593,-19.850964,34.66209,13.24212,13.255216,-10.783742,0.0873363,4.7914824,2.8952794,29.811886,-27.14464,36.889034,18.828758,0.47290173,1.4026939,11.119859,-23.395382,7.19398,48.460953,25.00022,4.377302,-11.969453
2,2.415229320526123,3.722444534301758,77.72663879394531,1.5383740404592396,0.9616161872634333,-171.61507344323664,6.9899635,-16.174818,26.967836,27.126324,4.974065,-15.000033,-21.53403,11.633473,-18.45252,31.015757,15.75786,15.000033,-10.53573,-0.19150664,4.990763,2.8758352,29.789183,-25.95633,37.477226,17.777224,0.72178394,1.3931279,11.754712,-22.979496,7.947914,49.192383,25.248846,4.169264,-11.097654
3,2.5078368186950684,5.468043327331543,77.52680969238281,1.12786018133662,0.7781814615080113,-172.41986062059053,6.605727,-14.702403,28.10244,28.19124,4.662824,-15.000033,-20.182798,13.704109,-17.866457,27.779467,18.090439,15.000033,-10.138236,-0.37831128,5.2118654,2.842816,29.787426,-24.815462,38.188667,16.848467,0.96529865,1.3854092,12.277427,-22.481077,8.654759,49.955734,25.46746,3.9643471,-10.302
4,2.602128505706787,7.204947471618652,77.29049682617188,0.665798806341357,0.5146530365469986,-173.0935864932637,6.212547,-13.034639,28.614613,29.62155,3.4141715,-15.000033,-19.495518,15.022649,-17.536053,26.586346,19.151741,15.000033,-9.766013,-0.5209878,5.5581846,2.7921267,29.801262,-23.83386,39.13501,16.184914,1.1918722,1.3835596,12.598196,-21.94648,9.15637,50.668934,25.657686,3.7986069,-9.639046
5,2.7232344150543213,8.933959007263184,77.11046600341797,0.07266174199798417,0.1848162622406762,-173.59718766921398,5.6656065,-11.012045,28.254274,31.640621,0.9233742,-15.000033,-19.798666,15.493483,-17.610855,28.10389,18.43893,15.000033,-9.43896,-0.5410727,6.041697,2.7190256,29.808863,-22.959415,40.412193,15.866409,1.3966976,1.3770835,12.692831,-21.35853,9.373602,51.305077,25.808533,3.6900313,-9.120072
6,2.911820411682129,10.580849647521973,76.87014770507812,-0.22108996204672968,0.12187883265528587,-173.58352488927432,4.8876095,-9.313193,28.081497,33.467278,-2.0323992,-10.172677,-21.527594,14.605518,-18.133322,32.302223,16.076809,15.000033,-9.503016,-0.7782702,6.270268,2.611347,29.800934,-22.18532,41.94243,15.797068,1.5878613,1.3695846,12.629042,-20.723417,9.36978,51.88803,25.92315,3.6198225,-8.707176
7,3.096944808959961,12.201825141906738,76.56927490234375,-0.4758768056332659,0.07398581180778158,-173.48706089010878,4.073981,-7.7559595,27.544292,35.28888,-5.4461117,-5.4754725,-23.452873,13.295205,-18.562101,37.101753,13.221554,15.000033,-9.568363,-1.0332832,6.506829,2.4880872,29.800858,-21.638716,43.57882,15.876178,1.7689875,1.3818302,12.416781,-20.089233,9.253933,52.442127,26.025616,3.5625482,-8.399765
8,3.287440538406372,13.816746711730957,76.19947814941406,-0.7179458801789903,0.05427862338124119,-173.42663668427758,3.3893752,-6.350789,26.92518,36.85461,-8.929883,-2.1278741,-25.214874,11.893408,-18.74352,41.522865,10.570348,15.000033,-9.544893,-1.2566026,6.736046,2.381952,29.840157,-21.444828,45.149822,15.991746,1.9440167,1.4341758,12.073574,-19.527452,9.130663,52.977127,26.14619,3.4971175,-8.18898
9,3.4873411655426025,15.432080268859863,75.76881408691406,-1.0078812819237115,0.05784421331054876,-173.42132257120804,2.9393466,-4.998189,26.26376,38.118843,-12.652101,-0.59814245,-26.846455,10.456982,-18.721989,45.607468,8.097767,15.000033,-9.435302,-1.3693565,6.979754,2.3020291,29.952198,-21.73439,46.644833,16.14469,2.1158185,1.5772508,11.595338,-19.085943,8.986213,53.441055,26.325493,3.446975,-8.079139
10,3.685192108154297,17.00537872314453,75.32072448730469,-1.3102706391661962,0.0792441267350363,-173.41469717199845,2.637778,-3.6690912,25.506964,39.183754,-16.700403,-0.23866512,-28.502436,8.840884,-18.520168,49.774513,5.5068192,15.000033,-9.28417,-1.4131002,7.247563,2.260723,30.132545,-22.394224,48.10032,16.368895,2.2812622,1.7781612,10.995462,-18.757221,8.780367,53.808674,26.551645,3.4232128,-8.0598
11,3.89178204536438,18.5152645111084,74.88262939453125,-1.5449647339797494,0.13612345230947204,-173.42739721473393,2.3801417,-2.360285,24.898325,40.07794,-20.60374,-0.4738628,-30.123045,7.0926313,-18.06053,53.796597,2.981782,15.000033,-9.062102,-1.4786682,7.5028634,2.2983596,30.343086,-23.170664,49.425037,16.611744,2.4339855,1.9340154,10.29886,-18.526884,8.594287,54.149845,26.777735,3.3836374,-8.104023
12,4.091363430023193,19.995986938476562,74.48851776123047,-1.6385101354689444,0.24613445162928982,-173.48209614085886,2.0635023,-1.1098351,24.613787,40.83019,-23.898684,-0.71240693,-31.665302,5.266887,-17.28154,57.461613,0.69901204,15.000033,-8.747254,-1.6469128,7.7095695,2.4640725,30.530651,-23.793835,50.530636,16.832846,2.5662987,1.9440184,9.521051,-18.383987,8.519606,54.543297,26.958988,3.2849026,-8.187725
13,4.2894062995910645,21.46048355102539,74.13189697265625,-1.5231529570954943,0.43883091136213337,-173.60408234115917,1.6720846,0.03631825,24.811512,41.41377,-26.426048,-0.8582102,-33.224518,3.4023833,-16.006464,60.781025,-1.361262,15.000033,-8.314476,-1.9777122,7.835095,2.7471755,30.663778,-24.243635,51.445477,17.062906,2.6740887,1.740505,8.627519,-18.334116,8.610759,55.027977,27.083466,3.1025813,-8.33167
14,4.477479457855225,22.92116355895996,73.80091857910156,-1.2512887915161992,0.6987920164277194,-173.77764098979725,1.270031,1.1214553,25.388405,41.849777,-28.456968,-1.189855,-34.828487,1.4930041,-14.3151245,63.869656,-3.269558,15.000033,-7.794054,-2.4102437,7.901485,3.1142628,30.736942,-24.634222,52.239014,17.327887,2.7603161,1.3975484,7.6093855,-18.383677,8.82384,55.57052,27.17741,2.8613176,-8.54541
15,4.631950378417969,24.363021850585938,73.49529266357422,-0.9363416206780479,0.9734697866658051,-173.9624111769476,0.87833524,2.206498,26.064064,42.215446,-30.174887,-1.6684067,-36.331627,-0.49528277,-12.542023,66.67498,-4.9458013,15.000033,-7.2419825,-2.838106,7.960715,3.5982432,30.755747,-24.90387,52.857735,17.570906,2.8267298,1.0231124,6.531825,-18.530012,9.098705,56.126972,27.25668,2.5951974,-8.782744
16,4.773001194000244,25.780576705932617,73.20983123779297,-0.6932344271282112,1.2058850137528605,-174.11476860239173,0.51142526,3.3506324,26.550869,42.58328,-31.757406,-2.2620804,-37.585896,-2.637507,-11.030892,69.15027,-6.3232403,15.000033,-6.7290354,-3.1547024,8.060341,4.2355103,30.712685,-24.974247,53.261944,17.747175,2.8758779,0.72773874,5.4332037,-18.75732,9.396129,56.68428,27.330704,2.3335075,-9.002969
17,4.9077982902526855,27.16642951965332,72.93724060058594,-0.5721930129936954,1.3728400174988262,-174.21909264889527,0.15422805,4.60536,26.777113,43.000362,-33.278423,-3.007364,-38.551666,-5.031521,-9.921206,71.29612,-7.3716273,15.000033,-6.2683063,-3.3141072,8.230232,5.061015,30.60099,-24.779804,53.39873,17.892084,2.9308438,0.5505634,4.2940335,-19.07148,9.758588,57.2868,27.414127,2.0792065,-9.193468
18,5.027217388153076,28.547460556030273,72.69401550292969,-0.5039339561475454,1.4998736713661278,-174.29254161590305,-0.19977568,5.9257903,26.893177,43.41612,-34.62559,-3.9113917,-39.32275,-7.657842,-9.018328,73.15388,-8.157319,15.000033,-5.839577,-3.3786411,8.439915,6.056971,30.417116,-24.369146,53.30134,18.017572,2.981974,0.4294018,3.0875478,-19.47304,10.215387,57.94105,27.49928,1.8184018,-9.375524
19,5.136052131652832,29.920185089111328,72.48304748535156,-0.42410722672421686,1.6004350329121046,-174.33890295650482,-0.528877,7.2237725,26.936155,43.758892,-35.699455,-4.8906746,-39.942932,-10.431042,-8.1753645,74.73759,-8.761037,15.000033,-5.4519343,-3.407731,8.6483965,7.170443,30.171871,-23.85563,53.058853,18.033037,2.9847486,0.3223183,1.850772,-19.93565,10.694202,58.573677,27.561419,1.5547296,-9.55925
20,5.2034831047058105,31.269622802734375,72.31185150146484,-0.2677802380518811,1.6873441112297765,-174.36257352602422,-0.8035765,8.405347,26.937843,43.95824,-36.410103,-5.855077,-40.45279,-13.2546625,-7.247929,76.05819,-9.258855,15.000033,-5.10174,-3.4690883,8.818067,8.337993,29.888496,-23.366663,52.765198,17.844408,2.8959324,0.18742982,0.6276047,-20.42031,11.100525,59.107967,27.567606,1.2891715,-9.758725
21,5.253496170043945,32.62665939331055,72.17832946777344,-0.014076770044027163,1.7520443862569637,-174.37499172511457,-1.0078701,9.4361,26.896036,44.021614,-36.757736,-6.756197,-40.855747,-16.175865,-6.212623,77.131454,-9.688377,15.000033,-4.759727,-3.5939608,8.960188,9.5733595,29.582985,-22.883728,52.381947,17.408981,2.687829,0.003571769,-0.5835049,-20.910233,11.37181,59.554146,27.48001,0.9968714,-9.980333
22,5.25998067855835,33.98725509643555,72.1053237915039,0.288350968184709,1.7859354872083946,-174.37167158377275,-1.1635273,10.381908,26.78229,43.996624,-36.799835,-7.643767,-41.129627,-19.227732,-5.178548,77.94397,-10.008634,15.000033,-4.423224,-3.7429376,9.096646,10.896455,29.259893,-22.37028,51.871075,16.774809,2.3918078,-0.2086744,-1.8013041,-21.406294,11.555246,59.948013,27.316132,0.6821992,-10.220287
23,5.253788471221924,35.403106689453125,72.09322357177734,0.27438859020338824,1.9169922531346189,-174.55307861128148,-1.491332,11.834163,26.680199,44.191124,-36.673714,-8.689433,-41.276146,-22.364414,-5.2046366,78.34465,-10.087583,12.827001,-3.924069,-3.5747397,9.120396,12.247651,28.928127,-21.92777,51.337814,15.986767,2.0533385,-0.42667657,-3.0070767,-21.89498,11.710703,60.25361,27.121841,0.38767743,-10.479534
24,5.228399753570557,36.815486907958984,72.11248016357422,0.26109973190932334,2.059520839144847,-174.67745009464767,-1.810323,13.259924,26.482798,44.229725,-36.224762,-9.821288,-41.290833,-25.426994,-5.3865633,78.4805,-10.0475,10.456291,-3.4943573,-3.3938768,9.072549,13.55639,28.603628,-21.671177,50.90031,15.087576,1.7172453,-0.6259785,-4.1735907,-22.354733,11.887862,60.432644,26.940111,0.1556331,-10.759589
25,5.168630599975586,38.254539489746094,72.18727111816406,0.24718900631543828,2.2292830671288795,-174.73321930069977,-2.1417494,14.655786,26.15252,44.115437,-35.4465,-11.075227,-41.19018,-28.427662,-5.692338,78.397224,-9.82618,7.9340515,-3.1526093,-3.201575,8.9266,14.839565,28.296925,-21.60459,50.58915,13.934931,1.3482031,-0.7970683,-5.3106627,-22.773859,12.093983,60.487312,26.787954,-0.013665422,-11.08985
26,5.089437007904053,39.712913513183594,72.29084014892578,0.23450308379902055,2.4168722215046547,-174.7404756741175,-2.4729164,16.0157,25.68989,43.8643,-34.35569,-12.418845,-40.948223,-31.41518,-6.1672206,78.10164,-9.477159,5.2441535,-2.8711433,-3.0044258,8.700666,16.126064,28.01357,-21.675869,50.341354,12.555192,0.9393638,-0.95964676,-6.4294314,-23.152927,12.298603,60.440792,26.636965,-0.14174698,-11.462836
27,4.967412948608398,41.18883514404297,72.44013214111328,0.22637328598689738,2.5945216971016527,-174.7098329182077,-2.7595646,17.325611,25.138103,43.45121,-32.97852,-13.792275,-40.482677,-34.25454,-6.8136034,77.53234,-9.106644,2.7241075,-2.620265,-2.810896,8.437036,17.36185,27.766472,-21.914598,50.137177,11.245642,0.5762317,-1.1252997,-7.5054126,-23.488705,12.492291,60.29039,26.460907,-0.2203449,-11.824288
28,4.839114189147949,42.666259765625,72.63007354736328,0.25347504551037614,2.7461422670089077,-174.63902403650638,-2.9794302,18.511415,24.52821,42.829685,-31.321016,-15.000033,-39.733276,-36.823853,-7.594201,76.62672,-8.78321,0.74112225,-2.3782177,-2.6554534,8.165977,18.489244,27.572042,-22.353655,49.958096,10.302125,0.34322867,-1.298215,-8.511028,-23.775017,12.663037,60.03234,26.233805,-0.24129176,-12.119704
29,4.704300403594971,44.156463623046875,72.85150909423828,0.53393597734432,2.934120650049032,-174.40082955025966,-3.2435021,19.088297,23.731604,41.80763,-29.266779,-15.000033,-38.811623,-39.41525,-8.391266,75.37558,-8.453338,-0.60016227,-2.2562723,-2.7357464,7.813544,19.480904,27.449034,-23.063572,49.815784,9.781199,0.3118052,-1.4798671,-9.421665,-23.996408,12.772566,59.65041,25.925125,-0.19391999,-12.336882
30,4.544346809387207,45.66915512084961,73.10298919677734,0.8352853823265968,3.0904611968107285,-174.1236104241792,-3.410227,19.618317,22.916906,40.600662,-26.930859,-15.000033,-37.51466,-41.79293,-9.454218,73.79377,-8.080028,-1.5339268,-2.1367235,-2.8451898,7.4493146,20.37218,27.403688,-24.009245,49.70854,9.526411,0.41968757,-1.6635233,-10.254514,-24.1534,12.827463,59.15414,25.5537,-0.087066874,-12.503772
31,4.361786842346191,47.202796936035156,73.37481689453125,1.1291217012190062,3.2261528913288124,-173.85768345017595,-3.4957633,20.168055,22.136055,39.279427,-24.372885,-15.000033,-35.940487,-43.76245,-10.62319,71.937744,-7.655669,-1.9879886,-1.981015,-2.972497,7.0862703,21.1974,27.429796,-25.054585,49.602726,9.519514,0.5478153,-1.8414443,-11.037972,-24.260303,12.888983,58.56473,25.170912,0.0600252,-12.62688
32,4.159669399261475,48.75792694091797,73.66972351074219,1.385020951067443,3.352738298555851,-173.65159320560366,-3.5285904,20.802141,21.434013,37.92365,-21.651968,-15.000033,-34.213642,-45.137787,-11.706774,69.85164,-7.178934,-1.9043732,-1.7589357,-3.1006546,6.7373133,21.997976,27.511965,-26.05642,49.460003,9.7456875,0.5770815,-2.0061777,-11.805037,-24.336092,13.029204,57.90281,24.832035,0.22929886,-12.712286
33,3.953979969024658,50.34349060058594,73.96902465820312,1.6016146972115646,3.4720903276830786,-173.48665782035587,-3.5000541,21.486715,20.794952,36.438248,-18.679192,-15.000033,-32.26425,-45.859627,-12.68708,67.382645,-6.6715503,-1.0261129,-1.4958712,-3.2144732,6.388595,22.77888,27.644197,-27.043808,49.261215,10.382646,0.47323427,-2.149719,-12.539459,-24.38123,13.262681,57.132572,24.574709,0.44944564,-12.755087
34,3.7472338676452637,51.95448303222656,74.26292419433594,1.790890851008852,3.578364773111981,-173.34527134325458,-3.413382,22.212633,20.202356,34.83977,-15.460006,-15.000033,-30.082218,-46.047253,-13.610383,64.5548,-6.1456137,0.49597326,-1.2050241,-3.3206735,6.0396395,23.519266,27.823418,-28.0659,49.031376,11.380928,0.29889047,-2.275392,-13.231987,-24.390108,13.559006,56.25266,24.366095,0.7199621,-12.753277
35,3.5352137088775635,53.580482482910156,74.54896545410156,1.9420229405398641,3.6732534024340198,-173.27783705896127,-3.332026,23.068804,19.698666,33.364517,-12.168826,-15.000033,-27.920206,-45.79078,-14.3264,61.674385,-5.5795374,2.1261382,-0.84483635,-3.430543,5.721818,24.23041,28.033201,-29.00218,48.794613,12.388745,0.08041806,-2.3926754,-13.930827,-24.377579,13.931057,55.337994,24.157812,0.97973317,-12.717005
36,3.3211634159088135,55.243988037109375,74.82437133789062,2.036851735237698,3.7605466000901027,-173.33625493351752,-3.3399212,24.137676,19.31268,32.250942,-8.97493,-15.000033,-26.031132,-45.164333,-14.685366,59.054195,-4.9309535,3.3577468,-0.3800988,-3.5426066,5.4646597,24.932674,28.248207,-29.722942,48.573296,13.0582695,-0.1557249,-2.5135815,-14.690976,-24.365843,14.405633,54.465126,23.906395,1.1686151,-12.654987
37,3.11977481842041,56.94614791870117,75.0844955444336,2.0590804984314413,3.8422568536143054,-173.55619576164338,-3.4715223,25.4088,18.918789,31.49811,-5.8269596,-15.000033,-24.608135,-44.063766,-14.414744,56.782303,-4.058779,3.7991068,0.22244151,-3.6398506,5.2699995,25.62413,28.448343,-30.193607,48.380795,13.308647,-0.44363987,-2.640498,-15.4929495,-24.358063,15.003336,53.61123,23.623074,1.254023,-12.56231
38,2.9218409061431885,58.671630859375,75.32286834716797,2.0045967938464955,3.9157720145740624,-173.90458876386836,-3.7275994,26.839867,18.4997,31.021738,-2.6852794,-15.000033,-23.478653,-42.49657,-13.65318,54.70015,-3.026179,3.8029995,0.93055546,-3.7015653,5.120859,26.288157,28.620924,-30.48258,48.225323,13.327933,-0.78390455,-2.7649486,-16.32053,-24.350355,15.716138,52.748863,23.327198,1.2745119,-12.436216
39,2.7180252075195312,60.4128303527832,75.55071258544922,1.8658499068125602,3.977538347859102,-174.33323193439867,-4.1556287,28.472143,18.224478,30.962294,0.24277903,-15.000033,-22.349922,-40.671394,-12.8675785,52.737137,-2.073967,4.0065403,1.7106435,-3.7089,5.0215635,26.86738,28.729246,-30.64868,48.1743,13.174836,-1.0990976,-2.8786185,-17.199343,-24.361227,16.477348,51.922546,22.963833,1.2806649,-12.282035
40,2.5298900604248047,62.177520751953125,75.7339096069336,1.6370881100202457,4.020894779517124,-174.79748916048106,-4.7542315,30.353394,18.283512,31.409784,2.7779205,-15.000033,-20.954075,-38.767746,-12.484404,50.786633,-1.4508654,5.0525203,2.424623,-3.646838,4.9668374,27.575138,28.85737,-30.602043,48.010815,12.888605,-1.3101226,-3.0119703,-18.291773,-24.405863,17.436968,51.262733,22.586445,1.3140526,-12.121729
41,2.3392105102539062,63.97577667236328,75.874755859375,1.2680338980340602,4.04086804957897,-175.32511522726568,-5.483674,32.74738,18.954395,32.452538,4.9797606,-15.000033,-19.135845,-36.691902,-12.622505,48.661114,-1.0165272,7.481646,3.2114782,-3.4772592,4.9753294,28.180313,28.931515,-30.463308,47.9539,12.401866,-1.3684835,-3.1509507,-19.456606,-24.482586,18.39351,50.67479,22.055468,1.3863939,-11.934803
42,2.147531270980835,65.80167388916016,75.954345703125,0.751199983124324,4.017016462736508,-175.95619131674476,-6.2607646,35.572765,20.039865,33.96719,6.8204436,-15.000033,-17.076422,-34.31427,-12.991165,46.385815,-0.66773534,10.824395,4.0621505,-3.183262,5.053028,28.783358,28.971188,-30.165617,47.90697,11.715736,-1.3242633,-3.3029528,-20.728281,-24.593811,19.457623,50.160362,21.451176,1.473209,-11.722832
43,1.972294569015503,67.59746551513672,75.93338775634766,0.19412152868632612,3.9350773165228565,-176.63985587017817,-6.9911723,38.39803,21.389032,35.713657,8.058212,-13.978123,-15.026198,-31.841787,-13.426466,44.160717,-0.7009271,14.207446,4.8911715,-2.8163307,5.2131176,29.44066,28.957275,-29.71082,47.828243,11.012543,-1.2508875,-3.442029,-22.16002,-24.778967,20.68068,49.736103,20.884647,1.589194,-11.488214
44,1.8527480363845825,69.37401580810547,75.85446166992188,-0.14224624047218967,4.116408687106938,-177.21982537357343,-7.9936876,40.71035,23.029545,37.408127,8.654905,-11.025773,-13.59443,-29.840115,-14.336267,42.282898,-1.399133,15.000033,5.607825,-2.656872,5.1595283,29.992,28.873447,-29.276003,47.875664,10.43747,-1.2220178,-3.5151415,-23.695513,-25.029781,21.915022,49.398304,20.371979,1.743874,-11.231153
45,1.7491003274917603,71.13077545166016,75.71077728271484,-0.3885694958559599,4.2332611663999264,-177.74834536923927,-9.0270605,42.309273,23.7403,39.051548,8.5497265,-8.42939,-12.3913145,-27.934488,-15.183646,40.776722,-3.195047,15.000033,6.232971,-2.5325425,5.188769,30.528597,28.711973,-28.79067,47.97236,10.051847,-1.2636173,-3.5365334,-25.410683,-25.372551,23.25741,49.1634,19.928478,1.9770272,-10.924828
46,1.6647040843963623,72.83446502685547,75.53178405761719,-0.4632392391309759,4.283456110736395,-178.19843502869097,-10.089591,43.28151,23.891893,40.751278,7.917846,-5.9846854,-11.349155,-26.185734,-15.885066,39.600876,-5.8702464,15.000033,6.754169,-2.5203695,5.327005,31.027187,28.470194,-28.246199,48.12825,9.765856,-1.3365518,-3.5194616,-27.269615,-25.801666,24.709452,48.990265,19.530771,2.2744472,-10.573333
47,1.5927847623825073,74.50389862060547,75.33513641357422,-0.38014174997770683,4.283808770974146,-178.57454237027878,-11.16294,43.793987,23.88334,42.61817,6.939788,-3.7734427,-10.554453,-24.672184,-16.421894,38.879444,-8.915439,15.000033,7.1998744,-2.600221,5.5749607,31.420156,28.144175,-27.734367,48.3945,9.528972,-1.4159707,-3.4372623,-29.218632,-26.303608,26.207815,48.873276,19.227537,2.5728505,-10.220638
48,1.5420430898666382,76.14376068115234,75.10533905029297,-0.16786220694909662,4.249681783568704,-178.8855571274297,-12.198034,44.07231,24.145334,44.768345,5.722935,-1.852023,-10.059624,-23.455683,-16.80548,38.71092,-11.798608,15.000033,7.602398,-2.739399,5.929933,31.637161,27.730766,-27.349667,48.827038,9.2887945,-1.4768738,-3.2618413,-31.205957,-26.866606,27.67853,48.81259,19.060314,2.8093357,-9.91315
49,1.5091493129730225,77.74578094482422,74.85472869873047,0.202481897736025,4.141795003996986,-179.1435522058136,-13.0975685,44.236965,24.944899,47.451168,4.102805,-0.2586928,-9.967433,-22.65985,-17.016275,39.42311,-14.53442,15.000033,7.9597955,-2.9625926,6.4662147,31.66805,27.218403,-27.04769,49.472927,8.952546,-1.5545036,-2.9346862,-33.333374,-27.508081,29.17469,48.820778,19.118227,2.9683979,-9.645573
50,1.504828929901123,79.3228988647461,74.58870697021484,0.718867409530706,3.9686572366237165,-179.34477627008226,-13.930465,44.177387,25.968061,50.611935,2.0312881,1.0352379,-10.19051,-22.232044,-17.1343,40.883133,-17.364014,15.000033,8.262073,-3.2547846,7.1599627,31.538452,26.603163,-26.801634,50.303146,8.57746,-1.6501853,-2.485679,-35.596638,-28.23083,30.717527,48.881283,19.349562,3.0862298,-9.40132
51,1.5299320220947266,80.85269927978516,74.33216857910156,1.288026959972344,3.8160555723036307,-179.47535690259446,-14.875507,43.803635,26.808992,53.883747,-0.22615834,2.0916045,-10.487276,-21.952112,-17.299398,42.474644,-20.087194,15.000033,8.526934,-3.5316842,7.8571963,31.24652,25.907272,-26.723053,51.247845,8.332239,-1.6847745,-2.0181403,-37.80866,-28.999855,32.19242,48.98443,19.601254,3.1729636,-9.212412
52,1.5614341497421265,82.3445053100586,74.09869384765625,1.817251514178046,3.769756652402879,-179.52238979852012,-16.11231,43.006134,27.095621,56.84997,-2.3525422,2.967417,-10.63029,-21.599394,-17.643091,43.58837,-22.501032,15.000033,8.771466,-3.7225122,8.398902,30.808006,25.173765,-26.918556,52.22037,8.375413,-1.5746388,-1.6370827,-39.79457,-29.77055,33.48186,49.15454,19.720385,3.2337856,-9.111392
53,1.5675891637802124,83.8006591796875,73.90611267089844,2.2664788693827562,3.8712230742185127,-179.50362050122666,-17.680876,41.84261,26.908024,59.56553,-4.3589716,3.7632632,-10.614424,-21.10691,-18.186153,44.106247,-24.582943,15.000033,9.01888,-3.7828817,8.74315,30.20388,24.425179,-27.51018,53.242447,8.781491,-1.2319015,-1.3053788,-41.515697,-30.502892,34.4653,49.44,19.49252,3.253092,-9.151268
54,1.530097246170044,85.25038146972656,73.78125,2.5678279115004856,4.108185257189661,-179.47997454456043,-19.561522,40.4941,26.372215,62.226017,-6.3416514,4.3777905,-10.58844,-20.334785,-18.856737,44.243923,-26.382038,14.373391,9.26117,-3.6885927,8.894577,29.528843,23.666407,-28.347664,54.278625,9.435544,-0.71523315,-1.0015125,-43.288673,-31.260042,35.54083,49.97927,19.342667,3.2138288,-9.303071
55,1.4470765590667725,86.68661499023438,73.72142028808594,2.778139226262879,4.419168663129682,-179.4064277113447,-21.695704,38.762123,25.335169,64.54865,-8.105032,4.6260667,-10.494326,-19.338589,-19.62449,44.03409,-27.877949,13.240641,9.546599,-3.5022044,8.922664,28.771917,22.910015,-29.28007,55.24798,10.230623,-0.16680863,-0.84731156,-44.75392,-31.98962,36.283012,50.512844,19.061522,3.1687467,-9.473378
56,1.334734559059143,88.12660217285156,73.70805358886719,3.0467139428943977,4.7090700527181895,-179.1921973389449,-23.916883,36.326565,23.743763,66.2129,-9.457878,4.3554115,-10.236987,-18.37181,-20.49436,43.58511,-29.092058,12.086556,9.813311,-3.402838,8.907963,28.017584,22.20037,-30.098713,56.01936,11.053896,0.26815203,-0.9639632,-45.84347,-32.663994,36.666214,50.996277,18.815428,3.1457863,-9.569798
57,1.1942731142044067,89.57598876953125,73.7481689453125,3.4219053177371497,4.983082993682118,-178.78591292076624,-26.171278,32.963795,21.56464,67.10512,-10.391901,3.4298544,-9.781129,-17.499275,-21.541761,42.862103,-30.06728,10.897978,10.019256,-3.4552581,8.820181,27.296225,21.578465,-30.827848,56.515717,12.049376,0.6050487,-1.4599497,-46.557995,-33.27332,36.69659,51.540607,18.657118,3.1364849,-9.53275
58,1.0212799310684204,91.03548431396484,73.84786224365234,3.862430182284069,5.257673259439055,-178.22602185312627,-28.361599,28.836405,19.013716,67.3919,-11.024177,1.9864708,-9.157668,-16.661844,-22.743744,41.855774,-30.801344,9.675533,10.176113,-3.6094422,8.650622,26.61395,21.056145,-31.538181,56.765675,13.217043,0.8914372,-2.256004,-46.965214,-33.823547,36.42685,52.184982,18.543043,3.1233568,-9.42416
59,0.8213314414024353,92.48631286621094,74.01268768310547,4.278568052044536,5.490891367779065,-177.6083517411144,-30.336096,24.348013,16.31523,67.18395,-11.34135,0.25008082,-8.4111,-15.729474,-23.963114,40.638832,-31.198992,8.442709,10.356521,-3.772463,8.47436,25.997103,20.628277,-32.105408,56.808983,14.230819,1.0345532,-3.1792,-47.066257,-34.300373,35.840393,52.758057,18.435915,3.124329,-9.332862
60,0.5973578691482544,93.93495178222656,74.23405456542969,4.586677693535454,5.647458471673439,-177.02640521973737,-32.009335,19.887535,13.614223,66.584854,-11.310329,-1.5640994,-7.598486,-14.592746,-25.060429,39.296864,-31.165567,7.220363,10.565927,-3.8712742,8.338391,25.531258,20.280775,-32.347107,56.662926,14.762538,0.9572769,-4.052944,-46.979183,-34.729046,35.190193,53.126316,18.53038,3.1429827,-9.3519
61,0.3495396375656128,95.37976837158203,74.51282501220703,4.770823723726,5.713181139877395,-176.46914951185693,-33.418705,15.338556,10.653608,65.520905,-10.8582535,-3.4772766,-6.708469,-13.233089,-26.02232,37.82048,-30.660328,5.966164,10.817035,-3.8650262,8.272238,25.202675,19.9975,-32.21099,56.292885,14.662838,0.5742952,-4.8935843,-46.652172,-35.090977,34.33216,53.236877,18.827791,3.193464,-9.536963
62,0.08089720457792282,96.84001922607422,74.8357162475586,4.869509271597673,5.708314843040497,-175.90225356251827,-34.504,10.572808,7.3843794,63.95041,-10.049733,-5.586638,-5.7220764,-11.712965,-26.921669,36.171646,-29.729866,4.683339,11.092523,-3.7916577,8.242919,24.976767,19.778152,-31.788437,55.709103,14.124022,-0.03651014,-5.775304,-46.064995,-35.366146,33.22401,53.17618,19.253149,3.2666173,-9.829106
63,-0.20921272039413452,98.32767486572266,75.20382690429688,4.884410750003848,5.6570487750016865,-175.3799156343645,-35.152653,5.959102,4.1895485,62.003284,-9.017916,-7.7898498,-4.6774945,-10.053576,-27.753653,34.366768,-28.394135,3.4630275,11.376034,-3.6939766,8.216646,24.87054,19.62867,-31.136038,55.01342,13.334021,-0.70181847,-6.6051793,-45.3617,-35.58736,32.20775,53.0095,19.832674,3.3400755,-10.149199
64,-0.5331025719642639,99.81190490722656,75.61428833007812,4.818710052687638,5.585369449272564,-174.95296934992143,-35.35639,1.8702916,1.4399787,59.80263,-7.869833,-9.975469,-3.6093087,-8.274116,-28.513113,32.413628,-26.6705,2.3975902,11.735733,-3.5859084,8.195824,24.806559,19.547834,-30.389433,54.35081,12.489565,-1.2585247,-7.281859,-44.481937,-35.717403,31.1704,52.713993,20.184547,3.4173143,-10.40783
65,-0.8999244570732117,101.29959869384766,76.06246185302734,4.659628758745169,5.491514374144381,-174.62593010121427,-35.164665,-1.6290609,-0.91767853,57.23166,-6.5931225,-12.151165,-2.4570127,-6.3211927,-29.25559,30.173544,-24.482367,1.3894804,12.171177,-3.4785779,8.174335,24.80867,19.53479,-29.461838,53.72601,11.563301,-1.6896954,-7.8086014,-43.428806,-35.754128,30.156742,52.27256,20.336178,3.4962993,-10.600575
66,-1.2858909368515015,102.82254028320312,76.52411651611328,4.411897121002855,5.3676187489244915,-174.37159060898873,-34.628407,-4.7144003,-3.1206024,54.23574,-5.1104393,-14.356363,-1.2084769,-4.2007055,-29.967293,27.649994,-21.829182,0.43585175,12.66042,-3.3592973,8.157795,24.8906,19.58555,-28.331331,53.07673,10.479464,-2.0736396,-8.23225,-42.203194,-35.68994,29.137209,51.691154,20.379078,3.5806415,-10.766941
67,-1.6780294179916382,104.3348159790039,76.99760437011719,4.283115583615299,5.201293949418058,-174.16538661554307,-33.74705,-7.399483,-4.460005,50.875076,-3.3245864,-15.000033,-0.065803416,-2.3423934,-30.500757,25.412111,-19.005426,-0.16816844,13.140787,-3.3872821,8.192436,25.040867,19.699844,-27.164806,52.41418,9.363668,-2.3985322,-8.506609,-40.909977,-35.51553,28.232588,51.074284,20.316767,3.6624672,-10.891288
68,-2.087867021560669,105.83710479736328,77.46493530273438,4.20560792630163,5.013628295939877,-174.0447886241061,-32.64701,-9.699216,-5.1318913,47.437145,-1.2669042,-15.000033,0.89918345,-0.69813895,-30.732485,23.570572,-16.079218,-0.22625136,13.58394,-3.4957469,8.237104,25.268417,19.8799,-26.11077,51.743305,8.341286,-2.6560683,-8.581053,-39.744762,-35.249023,27.701029,50.582397,20.278746,3.728612,-10.962833
69,-2.5049889087677,107.32733917236328,77.9212646484375,4.065662376730988,4.8472642125850305,-174.04217352766847,-31.41607,-11.5867605,-5.379253,43.905594,1.2442137,-15.000033,1.6312665,0.9248366,-30.64646,22.048086,-12.888379,0.0052813482,14.039255,-3.595656,8.245594,25.571667,20.123087,-25.168875,51.042965,7.3710313,-2.8457055,-8.335945,-38.624416,-34.87382,27.500479,50.183617,20.130156,3.7951667,-10.98797
70,-2.944615364074707,108.823486328125,78.3558120727539,3.859256940285788,4.695836877606406,-174.1399611538455,-30.048897,-13.08146,-5.255309,40.169018,4.1622806,-15.000033,2.2137787,2.5732393,-30.297802,20.662142,-9.390406,0.5419939,14.494948,-3.6927748,8.214399,25.967173,20.42628,-24.255503,50.311558,6.4131317,-2.9825861,-7.8288717,-37.54074,-34.392944,27.602299,49.85488,19.906815,3.8585136,-10.973655
71,-3.390057325363159,110.30329132080078,78.74849700927734,3.648577877469833,4.545008314123568,-174.28279560874165,-28.618536,-14.271167,-4.7133536,36.48967,7.0513787,-15.000033,2.8088303,4.19355,-29.617105,19.192669,-5.7770343,1.9660606,14.866005,-3.804263,8.135362,26.43182,20.779846,-23.447327,49.615788,5.597148,-3.0794632,-7.276702,-36.572468,-33.813408,27.921268,49.628155,19.667873,3.8911555,-10.900632
72,-3.823716163635254,111.79721069335938,79.08756256103516,3.513991469405384,4.382786889338615,-174.41865913102666,-27.194313,-15.28014,-3.6889055,33.12996,9.486497,-15.000033,3.5764225,5.726431,-28.471426,17.462261,-2.287922,4.836581,15.073368,-3.9659457,8.002993,26.933321,21.172604,-22.823938,49.031143,5.051741,-3.1400135,-6.894099,-35.8143,-33.157635,28.40344,49.541965,19.515394,3.865588,-10.749491
73,-4.250010013580322,113.29821014404297,79.3464584350586,3.5868013021339578,4.243528290369869,-174.55199110684038,-25.788765,-16.300663,-1.9967889,30.03608,11.412477,-15.000033,4.6527553,7.1855073,-26.411072,15.040524,1.1817576,10.205063,15.124338,-4.297929,7.8077145,27.46367,21.607626,-22.458698,48.589417,4.7993145,-3.146279,-6.668845,-35.252525,-32.431023,29.089777,49.57869,19.472883,3.7543118,-10.4785
74,-4.653049468994141,114.80030059814453,79.49192810058594,3.634147954857426,4.2895961425511056,-174.8950849183577,-24.724855,-17.018713,0.4056078,27.435413,12.878605,-15.000033,5.937376,8.984565,-23.736929,11.737814,4.746241,15.000033,15.22792,-4.668144,7.3790994,28.0355,22.091677,-22.286818,48.249985,4.7761555,-3.0988288,-6.5069385,-34.840702,-31.640203,29.99994,49.72293,19.512844,3.5813916,-10.110007
75,-5.000301361083984,116.34122467041016,79.519775390625,3.2011864027552925,4.635024088214107,-175.63350771146736,-24.56854,-16.808428,3.3915453,26.27313,13.501131,-15.000033,7.324995,11.461057,-21.617882,7.8190174,8.440157,15.000033,15.567467,-4.6970468,6.531921,28.59979,22.613127,-22.214264,48.008602,4.981711,-3.0266054,-6.501621,-34.524376,-30.788544,30.891796,49.939777,19.535461,3.4017718,-9.716846
76,-5.36548376083374,117.82652282714844,79.5016860961914,2.5352553033082903,4.707652933990902,-176.11424132085162,-24.225193,-16.254436,6.2999353,25.719156,13.823536,-15.000033,8.087332,13.252317,-20.600546,6.7031007,10.577349,15.000033,15.562225,-4.3696938,5.806708,29.088165,23.131113,-22.189512,47.89588,5.4126387,-2.9595609,-6.7371273,-34.21883,-29.901695,31.516739,50.182312,19.420603,3.2608972,-9.372694
77,-5.743230819702148,119.27174377441406,79.48809814453125,1.5800648531611372,4.4720780725329305,-176.29274058833568,-23.55334,-15.178319,9.457441,25.850752,13.855147,-15.000033,7.7658086,14.259844,-20.96239,9.376715,10.821736,15.000033,15.173389,-3.5834641,5.2184105,29.467232,23.617182,-22.248556,47.986736,6.1721873,-2.8841872,-7.289092,-33.914993,-28.9983,31.812738,50.418728,19.08163,3.1696186,-9.063719
78,-6.135169506072998,120.71548461914062,79.50849151611328,0.4880070556174334,4.045760484471827,-176.3150949819486,-22.631714,-13.691909,13.009002,26.56312,13.573245,-15.000033,6.8600245,14.617335,-22.168747,14.33596,9.950817,15.000033,14.541365,-2.535547,4.726775,29.75136,24.076338,-22.420794,48.273415,7.2346435,-2.804755,-8.089871,-33.652252,-28.091417,31.916916,50.658173,18.613115,3.1060307,-8.757843
79,-6.546889305114746,122.1536636352539,79.49107360839844,-0.5525996105986648,3.5095514454592944,-176.3224970119999,-21.571226,-12.117847,16.321507,27.546154,13.029845,-15.000033,5.811781,14.31724,-23.69021,20.32408,8.554997,15.000033,13.832984,-1.4809903,4.356208,29.934847,24.525919,-22.643738,48.660496,8.404675,-2.7771964,-9.010677,-33.407944,-27.191143,31.83941,50.889446,18.137838,3.074395,-8.498879
80,-6.979038715362549,123.60028076171875,79.41365814208984,-1.4915808171908271,2.9185442394713306,-176.4163638399375,-20.59652,-10.646517,18.683147,28.69433,12.182302,-15.000033,5.0213957,13.585475,-25.097242,26.146282,7.179056,15.000033,13.177431,-0.5345946,4.099697,30.006897,24.987947,-22.863028,49.05595,9.482448,-2.8468184,-9.920712,-33.13657,-26.311316,31.577526,51.0911,17.770653,3.0765746,-8.333253
81,-7.422908306121826,125.03973388671875,79.28931427001953,-2.408821657653912,2.2371311413486636,-176.59232326366336,-19.854353,-9.216902,19.77329,30.18996,11.120628,-15.000033,4.5923934,12.523045,-26.431837,31.750494,5.8286724,15.000033,12.574741,0.38415796,3.9635422,29.953468,25.471651,-23.115444,49.468414,10.499655,-3.0597012,-10.893735,-32.798485,-25.459717,31.033379,51.196163,17.519775,3.1363842,-8.299263
82,-7.865200042724609,126.4725570678711,79.13160705566406,-3.3201103164909145,1.4235652899968951,-176.78384925603345,-19.196007,-7.741985,20.011477,32.023895,9.874596,-15.000033,4.477325,11.094011,-27.696716,37.43857,4.3096476,15.000033,11.959056,1.3151592,3.9739501,29.785873,25.98236,-23.422201,49.919273,11.526761,-3.3834622,-11.961341,-32.397152,-24.642246,30.21598,51.196434,17.32193,3.2478454,-8.361681
83,-8.268269538879395,127.8537368774414,78.91048431396484,-3.931663629066245,0.6621013711373451,-176.73743886468156,-18.378662,-6.4366407,20.698538,33.50751,8.517177,-12.230958,4.30128,9.012634,-28.822567,43.33629,2.498392,15.000033,11.092015,1.9458629,4.042259,29.549303,26.52862,-23.707327,50.32907,12.422563,-3.727117,-12.929522,-31.968838,-23.886152,29.331789,51.182457,17.224155,3.3643966,-8.457261
84,-8.686083793640137,129.24859619140625,78.59102630615234,-4.325355681537618,-0.03396677214411835,-176.5705530991684,-17.398457,-5.20086,21.805548,34.73598,6.485275,-7.4908147,4.123748,6.6461663,-29.492273,48.84925,0.7131484,15.000033,10.103591,2.3242981,4.154546,29.259336,27.121658,-23.889818,50.643517,13.05378,-3.9915824,-13.610948,-31.537014,-23.219166,28.57501,51.227276,17.279839,3.43909,-8.529553
85,-9.1121826171875,130.6536102294922,78.22490692138672,-4.68058288099034,-0.7232160088352882,-176.3919629651628,-16.35338,-3.9076846,22.595888,36.000458,3.152623,-2.2201855,4.0008435,4.3617487,-29.560925,53.792545,-0.9410337,15.000033,9.072943,2.6178873,4.3053174,28.938698,27.778744,-23.99935,50.842754,13.33486,-4.1555514,-13.99431,-31.087345,-22.65193,27.964674,51.315907,17.618128,3.4625022,-8.556345
86,-9.540900230407715,132.02645874023438,77.81021881103516,-4.982753825191137,-1.4129408794978433,-176.1832251247824,-15.369796,-2.6922646,22.829067,37.35925,-1.2602173,3.545861,3.8825593,2.0593889,-29.184267,58.41082,-2.5842714,15.000033,7.9932203,2.8188014,4.5009475,28.570494,28.502235,-24.066921,50.953773,13.355912,-4.259821,-14.173625,-30.587627,-22.18597,27.39751,51.39331,18.176685,3.4593456,-8.57023
87,-9.973101615905762,133.4123077392578,77.3364486694336,-5.120383480370726,-2.0629932390619414,-175.9468972256815,-14.496016,-1.8155378,22.533297,38.607906,-5.9482093,8.645685,3.6978462,-0.46009204,-28.513605,62.70659,-4.1901355,15.000033,6.9293985,2.8078506,4.760156,28.102293,29.273445,-24.016508,51.002586,13.250532,-4.2968707,-14.118838,-30.044239,-21.831335,26.884382,51.48547,18.717108,3.4339252,-8.596468
88,-10.369227409362793,134.83155822753906,76.79753875732422,-4.975706079543358,-2.639313525958717,-175.68721398030402,-13.702688,-1.395924,21.951784,39.537815,-10.028845,11.999597,3.3860629,-3.4189487,-27.679718,66.67825,-5.7511344,15.000033,5.9409394,2.4675207,5.104114,27.470451,30.057741,-23.769453,51.027905,13.15596,-4.2614913,-13.7978115,-29.461708,-21.593895,26.434011,51.613712,18.99251,3.39249,-8.661038
89,-10.73401927947998,136.22930908203125,76.26254272460938,-4.4299667050674705,-3.1418476538361126,-175.3880848497936,-12.900192,-1.4599637,21.238434,40.020992,-13.300509,13.0714035,2.8678877,-7.0323386,-26.64349,70.47163,-7.335808,15.000033,4.99873,1.6669847,5.5487666,26.645676,30.83832,-23.277416,51.067738,13.081964,-4.1275964,-13.11193,-28.887167,-21.486124,26.09637,51.815784,18.826118,3.3393126,-8.759107
90,-11.017823219299316,137.6552276611328,75.75853729248047,-4.032376622796152,-3.3975587437931747,-175.3642545909266,-12.611926,-1.0079199,20.440418,40.88407,-16.478527,12.439019,2.1326523,-11.163468,-26.402563,73.912384,-8.817259,11.838992,4.364812,0.9443326,5.8258834,25.645552,31.60896,-22.600384,51.122936,12.967358,-3.9080184,-12.10425,-28.301706,-21.508636,25.858114,52.07173,18.386833,3.2728333,-8.881931
91,-11.234447479248047,139.08599853515625,75.27803039550781,-3.611146936477642,-3.5432753240404775,-175.41451538565096,-12.538564,-0.38985556,19.71443,41.833538,-19.363506,11.053888,1.1994983,-15.483524,-26.20225,76.886734,-10.288344,8.151565,3.8883867,0.2001496,6.08383,24.475025,32.351307,-21.812067,51.18377,12.845664,-3.6557271,-10.95405,-27.644442,-21.639751,25.651897,52.34172,17.961164,3.1910007,-9.049629
92,-11.409659385681152,140.5183563232422,74.812255859375,-3.1673369656086985,-3.640620573032686,-175.46891888327326,-12.59635,0.28263134,19.133497,42.824543,-21.882404,9.811934,0.11725985,-19.68605,-25.793825,79.21181,-11.653185,5.0103865,3.5283833,-0.5134222,6.370056,23.142246,33.04035,-20.979593,51.246174,12.753695,-3.421995,-9.838782,-26.871733,-21.84798,25.424377,52.606224,17.835722,3.0871005,-9.281047
93,-11.579296112060547,141.93722534179688,74.35273742675781,-2.7084529420778876,-3.68486036828474,-175.51431989983004,-12.825217,0.99022126,18.68433,43.91096,-23.995964,8.795319,-1.1342827,-23.825176,-25.196402,80.88763,-12.820983,2.4825654,3.2713792,-1.1743994,6.6902137,21.581944,33.66754,-20.09753,51.422493,12.608174,-3.223739,-8.708444,-25.988304,-22.11941,25.18346,52.914074,18.076115,2.9308958,-9.649353
94,-11.731450080871582,143.3491668701172,73.91645050048828,-2.1840042234901067,-3.6692040553162664,-175.55809521115438,-13.200973,1.7028573,18.345293,45.052677,-25.740572,7.6037607,-2.647262,-27.995546,-24.414772,82.02453,-13.831226,0.3513382,3.0995626,-1.8526376,7.041833,19.811382,34.236385,-19.129677,51.701702,12.424788,-3.0347033,-7.495164,-25.044073,-22.454723,24.96494,53.298084,18.527372,2.7281253,-10.123445
95,-11.862112998962402,144.7461395263672,73.5075912475586,-1.6362118577377291,-3.6107975415089,-175.62375955649395,-13.64225,2.4423146,18.096542,46.165024,-27.214924,6.37473,-4.427188,-31.912708,-23.426985,82.55704,-14.687684,-1.3389775,3.0181925,-2.5124328,7.4107513,17.960312,34.734695,-18.093523,51.89385,12.38887,-2.8330638,-6.350076,-24.059156,-22.83882,24.75534,53.709934,19.139385,2.525327,-10.5643835
96,-11.97054672241211,146.11476135253906,73.11388397216797,-1.1090843778114736,-3.5269628615258353,-175.7350376033391,-14.067034,3.232878,17.911417,47.15518,-28.507034,5.2442822,-6.4356637,-35.29921,-22.221703,82.439735,-15.3873205,-2.5419223,3.0307884,-3.115944,7.7807684,16.14388,35.13681,-17.01133,51.823444,12.683943,-2.5903964,-5.4242992,-23.055641,-23.245153,24.540195,54.108864,19.858341,2.372465,-10.834748
97,-12.0619478225708,147.48387145996094,72.74630737304688,-0.581573621016037,-3.4251870573667156,-175.93029172447896,-14.431989,4.053423,17.843603,47.975094,-29.646936,4.301064,-8.682228,-38.2452,-20.787817,81.67269,-15.971803,-3.3002737,3.169921,-3.6769896,8.164582,14.3336735,35.40912,-15.793664,51.494766,13.496659,-2.2663653,-4.7700152,-22.053236,-23.664719,24.348063,54.537495,20.731895,2.3284779,-10.866072
98,-12.141007423400879,148.85992431640625,72.4241943359375,-0.04812312044110974,-3.2963166776328983,-176.18204598570046,-14.781653,4.8979864,17.867304,48.676765,-30.58522,3.4532485,-11.149702,-40.836796,-19.14028,80.290855,-16.39989,-3.6322885,3.3991756,-4.1940055,8.559208,12.476134,35.547142,-14.442428,51.01995,14.693396,-1.8810813,-4.300715,-21.068295,-24.094677,24.198746,55.03996,21.764547,2.3536067,-10.748048
99,-12.206589698791504,150.24269104003906,72.15918731689453,0.42660668586689837,-3.1342137679324993,-176.41891836379125,-15.162587,5.8128104,17.8401,49.302357,-31.277279,2.5668583,-13.667288,-42.819588,-17.360102,78.31847,-16.56559,-3.4655313,3.6286643,-4.6151543,8.923763,10.648732,35.575737,-13.12939,50.369137,15.967671,-1.4972332,-3.9588234,-20.117123,-24.512093,24.064783,55.58245,22.845842,2.350883,-10.578844
100,-12.272438049316406,151.625244140625,71.95288848876953,0.7832648791091258,-2.934276354387232,-176.57012313302883,-15.628773,6.8389254,17.620583,49.89357,-31.674955,1.5087615,-16.004831,-43.98001,-15.573508,75.79592,-16.383982,-2.732446,3.7800882,-4.90295,9.217273,8.94207,35.534355,-12.034994,49.48906,17.004581,-1.1779855,-3.684436,-19.208744,-24.883732,23.90634,56.13065,23.862751,2.2183402,-10.452275
101,-12.32325267791748,153.03256225585938,71.79518127441406,1.0077781724593242,-2.6874364324356947,-176.61590223558383,-16.264183,7.985791,17.129065,50.55616,-31.73221,0.22988074,-18.009415,-44.251934,-13.846587,72.56369,-15.880226,-1.2284175,3.8461723,-5.059196,9.426035,7.3727527,35.433556,-11.177912,48.292427,17.699629,-0.9399787,-3.4818408,-18.341373,-25.187664,23.733896,56.694576,24.790234,1.8868126,-10.369986
102,-12.381756782531738,154.4704132080078,71.68463134765625,1.1385429749586227,-2.402945124381196,-176.593320203979,-17.025976,9.207073,16.434393,51.219395,-31.470037,-1.1870948,-19.661516,-43.888138,-12.17163,68.68072,-15.17317,0.888876,3.868571,-5.1208673,9.571523,5.9087496,35.269604,-10.471447,46.81027,18.2177,-0.75333226,-3.375646,-17.518145,-25.417284,23.55713,57.30515,25.680489,1.421264,-10.285931
103,-12.46051025390625,155.9325408935547,71.6104736328125,1.1937405695447454,-2.1012168895228474,-176.5193092437884,-17.78042,10.463968,15.6236725,51.666443,-30.948292,-2.681636,-20.952766,-43.130264,-10.5725355,64.522064,-14.304781,3.1651316,3.8505826,-5.106485,9.668056,4.5834002,35.066307,-9.937168,45.14176,18.646854,-0.61050683,-3.3389065,-16.746195,-25.561403,23.327873,57.947826,26.53633,0.91808975,-10.221012
104,-12.539346694946289,157.43862915039062,71.58049774169922,1.1882771631873612,-1.7999143961907489,-176.41340008562818,-18.384403,11.733131,14.795138,51.68524,-30.239859,-4.204482,-21.932549,-42.1473,-9.0640745,60.462025,-13.256584,5.1980696,3.810199,-5.037148,9.729634,3.4181187,34.863525,-9.617136,43.38682,19.066185,-0.5038694,-3.3498688,-16.014841,-25.60642,22.977467,58.594933,27.35583,0.47310188,-10.197707
105,-12.640389442443848,158.972412109375,71.60438537597656,1.071602454170342,-1.4916316107631065,-176.2916663576698,-18.833685,13.084849,13.931402,51.27131,-29.381962,-5.8164215,-22.585468,-40.651043,-7.4490695,56.343204,-11.933041,7.1307354,3.7626507,-4.8649726,9.747203,2.4661767,34.673798,-9.552896,41.476574,19.431757,-0.45606986,-3.4237812,-15.319729,-25.531633,22.44611,59.237,28.139557,0.09987324,-10.2580805
106,-12.745586395263672,160.53958129882812,71.68042755126953,0.8565233942413957,-1.1705814061274809,-176.14125314023298,-19.175272,14.508177,12.981986,50.515438,-28.35198,-7.5237904,-22.884474,-38.705956,-5.756511,52.045227,-10.398013,9.088949,3.7037776,-4.6127386,9.719369,1.7020481,34.49358,-9.724279,39.375607,19.710535,-0.46400893,-3.5706828,-14.666485,-25.32786,21.774437,59.892246,28.882328,-0.25274038,-10.378836
107,-12.846144676208496,162.1322784423828,71.80459594726562,0.6469798658543586,-0.8514457849228553,-175.94296739740335,-19.348473,15.876571,12.012393,49.356983,-27.127337,-9.197445,-22.954187,-36.882423,-4.3575907,48.002842,-8.769052,10.731061,3.6270118,-4.405904,9.668565,1.0376846,34.343674,-10.075447,37.22232,20.001875,-0.4825111,-3.765852,-14.057006,-25.007818,21.043898,60.56847,29.578617,-0.58519465,-10.485844
108,-12.9368257522583,163.771240234375,71.97269439697266,0.5421020314433281,-0.5464537708131383,-175.68000095659966,-19.315893,17.06464,11.099061,47.742126,-25.66298,-10.708054,-22.973091,-35.6562,-3.6599092,44.66991,-7.102872,11.770291,3.5316653,-4.367552,9.6185255,0.3859481,34.256798,-10.550305,35.146793,20.401575,-0.46796414,-3.989211,-13.477537,-24.596817,20.327505,61.249683,30.22682,-0.8937269,-10.5031595
109,-13.030472755432129,165.43264770507812,72.17659759521484,0.5833075269518057,-0.24676949239618118,-175.35487143799432,-19.016756,18.01546,10.325862,45.44652,-23.753925,-12.303554,-23.125818,-35.156223,-3.9157584,42.246567,-5.063374,11.825043,3.4330049,-4.5562882,9.590302,-0.246454,34.249035,-11.16445,33.110325,20.949612,-0.41268346,-4.224073,-12.905605,-24.084194,19.551197,61.897083,30.908075,-1.1775873,-10.40699
110,-13.12232494354248,167.137451171875,72.40879821777344,0.708916727372877,0.052783031684885455,-174.97710953157917,-18.497343,18.792875,9.63142,42.56339,-21.466255,-13.960026,-23.345343,-35.03485,-4.9226565,40.51664,-2.7092998,11.1967535,3.3341832,-4.902882,9.566565,-0.81842285,34.31753,-11.941012,31.05108,21.58172,-0.34117836,-4.4913087,-12.354784,-23.460209,18.703457,62.519947,31.598902,-1.4369717,-10.236771
111,-13.233823776245117,168.87384033203125,72.65962982177734,0.8901986916186023,0.3395988236139016,-174.5263221558524,-17.899508,19.407515,8.91752,39.50146,-19.13772,-15.000033,-23.428562,-35.04828,-6.377462,39.28067,-0.6533065,10.6534395,3.2017925,-5.360146,9.514489,-1.3713429,34.465015,-12.833183,29.065851,22.238907,-0.26033577,-4.829102,-11.839464,-22.77089,17.942884,63.138546,32.1458,-1.6620045,-10.015016
112,-13.3333101272583,170.60598754882812,72.89492797851562,1.049766264935296,0.5908681071810655,-174.0057469887777,-17.383064,19.988394,8.09406,36.738163,-17.153791,-15.000033,-23.134502,-34.87393,-7.920176,38.26729,0.550936,10.984024,3.0209978,-5.8267026,9.4191475,-1.9369092,34.691135,-13.781731,27.232878,22.862257,-0.17865025,-5.27851,-11.345918,-22.093956,17.423664,63.73616,32.40382,-1.840646,-9.760629
113,-13.448426246643066,172.35232543945312,73.1227798461914,1.0629851691462304,0.7858277982250703,-173.41277839123444,-17.01554,20.780407,6.959227,34.276253,-15.631585,-13.883287,-22.227808,-34.25501,-9.612676,37.393196,0.7486895,12.80678,2.8091304,-6.1824937,9.303416,-2.5347025,35.002472,-14.800515,25.535166,23.473267,-0.08932174,-5.9043226,-10.813779,-21.474068,17.200832,64.22957,32.337605,-1.9533602,-9.454014
114,-13.561847686767578,174.07937622070312,73.36331176757812,1.0389017652962174,1.0117223543128533,-172.74920405230583,-16.861498,21.529314,5.738067,31.987349,-14.459529,-11.279691,-21.023016,-33.44455,-11.708041,36.762638,0.2640738,15.000033,2.5649886,-6.5367203,9.117432,-3.1470883,35.391117,-15.908681,23.922787,24.088717,0.0025261126,-6.6701307,-10.222243,-20.912876,17.174267,64.59072,32.0356,-2.0043497,-9.087795
115,-13.709781646728516,175.8706817626953,73.53137969970703,0.6467900710062034,1.3658597258160803,-172.3165305358364,-17.108738,22.714895,4.6784577,30.476221,-13.816986,-8.762264,-19.888725,-32.06657,-14.494873,36.202797,-0.65310603,15.000033,2.5138667,-6.5520096,8.752844,-3.7399583,35.82017,-17.050083,22.421171,24.648912,0.07616443,-7.459862,-9.623034,-20.440655,17.27208,64.89587,31.540298,-2.0180447,-8.698234
116,-13.887107849121094,177.62301635742188,73.59300231933594,0.4708759560995793,1.6057866704704613,-171.8642514653656,-17.2624,23.504496,4.1264095,29.72285,-13.5060005,-7.2539062,-18.9667,-30.928707,-16.739365,35.91772,-1.983814,15.000033,2.400849,-6.7245445,8.450998,-4.2829595,36.24683,-18.160017,21.06688,25.102379,0.11227352,-8.164197,-9.064194,-20.098434,17.425375,65.210304,30.900946,-2.0106263,-8.320455
117,-14.073356628417969,179.28858947753906,73.60828399658203,0.534758083319899,1.6577528832531416,-171.31673961548316,-17.14933,23.886255,4.024074,29.593729,-13.382959,-7.277138,-18.119514,-30.166557,-18.47939,35.98279,-4.0429482,15.000033,2.184765,-7.047147,8.240169,-4.831629,36.668743,-19.323744,19.885313,25.47076,0.10195972,-8.824071,-8.526414,-19.9308,17.67016,65.54156,29.960743,-1.9630961,-7.8915215
118,-14.254215240478516,180.87051391601562,73.60623931884766,0.7363998242941944,1.572964697603202,-170.70016105285276,-16.863949,24.01918,4.2287383,29.990938,-13.474101,-8.171155,-17.276379,-29.622139,-19.989086,36.397976,-6.7869906,15.000033,1.9104091,-7.4343085,8.090943,-5.4078317,37.080696,-20.554714,18.867565,25.77519,0.058536798,-9.4721985,-7.9630227,-19.947565,18.010683,65.8179,28.756926,-1.8699981,-7.4087605
119,-14.411433219909668,182.37203979492188,73.592529296875,1.0423155882992914,1.4396930524114262,-170.1614829201695,-16.499884,23.993433,4.8775153,31.052244,-13.817857,-9.204822,-16.670313,-29.217113,-21.188923,37.08382,-9.563385,15.000033,1.6529608,-7.859313,8.00506,-5.9146457,37.426476,-21.658337,18.005278,25.970835,0.00078255706,-9.979952,-7.414597,-20.13398,18.35363,66.01744,27.627354,-1.7672157,-7.0030484
120,-14.514737129211426,183.7722930908203,73.63584899902344,1.4151572464949327,1.3510109345499557,-169.8557313554098,-16.137516,23.906958,6.102232,32.87802,-14.415677,-9.648268,-16.5191,-28.84165,-21.953688,37.914207,-11.717403,15.000033,1.4836305,-8.283279,7.9723167,-6.2349463,37.628597,-22.416832,17.298061,26.035393,-0.05279535,-10.217838,-6.945019,-20.46507,18.62576,66.14627,26.910963,-1.6854318,-6.8121676
121,-14.557465553283691,185.09988403320312,73.73429870605469,1.9250282910535168,1.3559408411164575,-169.86993312394867,-15.815217,23.71931,8.0679865,35.7126,-15.312204,-9.314344,-17.044895,-28.559351,-22.058155,38.99524,-13.073842,15.000033,1.4584987,-8.751785,7.974589,-6.428735,37.639267,-22.840797,16.819578,25.93478,-0.099624306,-10.078981,-6.6572,-20.954382,18.86614,66.272896,26.769508,-1.6278795,-6.9388514
122,-14.52184772491455,186.38763427734375,73.85382080078125,2.3924945418541097,1.4824315434833282,-170.2224888218485,-15.571386,23.635105,10.650121,39.463917,-16.49617,-8.650954,-18.116556,-28.073994,-21.74288,40.20066,-13.908821,14.109075,1.6240668,-9.086768,7.9292173,-6.557476,37.44891,-23.024715,16.609278,25.719011,-0.15072685,-9.652251,-6.5051527,-21.613789,19.113802,66.399864,27.000326,-1.5797534,-7.293163
123,-14.441701889038086,187.6205596923828,73.99079895019531,2.7965915986418626,1.6030653994466355,-170.70828062812421,-15.185929,23.557854,13.564286,43.504684,-17.811447,-7.7324715,-19.253788,-27.44654,-21.299347,41.34694,-14.430268,13.012502,1.812781,-9.2829895,7.9077277,-6.522384,37.049477,-22.891758,16.635838,25.47797,-0.20882589,-9.105518,-6.337936,-22.39824,19.295105,66.449615,27.392754,-1.5432498,-7.727226
124,-14.372112274169922,188.83148193359375,74.1604232788086,2.998982463355915,1.6421445633604592,-171.20239467314275,-14.511332,23.599827,16.510443,47.295876,-19.14257,-6.6546354,-20.035652,-26.545744,-21.086218,42.164837,-14.793637,11.87585,1.9159207,-9.236907,7.921567,-6.193449,36.439285,-22.35691,16.846584,25.307566,-0.27418107,-8.608681,-6.0328946,-23.234085,19.342432,66.382706,27.73239,-1.5223022,-8.096672
125,-14.312479019165039,190.0414276123047,74.35255432128906,2.921545344852327,1.564344278200923,-171.74116457272572,-13.440353,24.05694,19.711042,51.059017,-20.70403,-5.0763206,-20.361374,-25.253094,-21.155144,42.54161,-14.999968,10.662816,1.9392315,-8.8919115,8.004563,-5.4387784,35.571205,-21.200174,17.266277,25.21994,-0.37215605,-8.168803,-5.607422,-24.072279,19.228666,66.21308,28.032368,-1.5313253,-8.405835
126,-14.268372535705566,191.22801208496094,74.5580825805664,2.663633094774399,1.4039995489620336,-172.36313576391393,-11.9610405,24.781515,23.199257,54.95437,-22.540346,-3.0251987,-20.440025,-23.692081,-21.32263,42.635185,-14.985159,9.384284,1.9122467,-8.337278,8.124613,-4.3984337,34.428642,-19.555502,17.956099,25.182058,-0.4950301,-7.714519,-5.1605062,-24.911379,19.013115,66.03392,28.379456,-1.5753509,-8.726436
127,-14.238585472106934,192.39303588867188,74.7709732055664,2.3320948985817767,1.2011258523573551,-172.9600034410133,-10.201491,25.2376,26.40879,58.39616,-24.226803,-1.1885008,-20.350626,-22.05892,-21.59734,42.56967,-14.7938385,8.114041,1.7838402,-7.6701603,8.195786,-3.3463254,33.09141,-17.880743,18.896929,25.200901,-0.5883498,-7.2900047,-4.6646614,-25.743435,18.72567,65.89661,28.661816,-1.6372055,-9.01357
128,-14.233183860778809,193.53773498535156,74.98823547363281,2.0324237196547714,1.0014699816010761,-173.42345290167444,-8.449608,24.877272,28.796019,60.804924,-25.239197,-0.2909713,-20.188118,-20.550188,-21.987127,42.47978,-14.469528,6.9251313,1.5108459,-7.001613,8.1486,-2.4591,31.70927,-16.599241,19.971075,25.271404,-0.5897225,-6.933441,-4.079646,-26.556067,18.380163,65.830574,28.762348,-1.6988558,-9.220588
129,-14.250044822692871,194.68621826171875,75.2331314086914,1.7894954839861674,0.8057679158216555,-173.69962590180256,-6.8924026,23.472025,30.12689,62.032772,-25.371805,-0.57690895,-19.929804,-19.225931,-22.553293,42.365074,-14.022965,5.8140316,1.0436417,-6.3912764,7.984412,-1.653439,30.39086,-15.718923,21.103382,25.393015,-0.4068356,-6.642312,-3.3655496,-27.325676,17.983953,65.8109,28.56091,-1.7672571,-9.308173
130,-14.273598670959473,195.84506225585938,75.4952392578125,1.5472564537817028,0.5980779349109244,-173.85203890897677,-5.478827,21.328915,30.721073,62.3843,-24.891432,-1.6821188,-19.562386,-17.978554,-23.270077,42.16616,-13.4243765,4.7491746,0.42027837,-5.8052692,7.756682,-0.7834157,29.154583,-15.019314,22.246056,25.520462,-0.091144666,-6.401571,-2.5376816,-28.031065,17.505735,65.80455,28.142487,-1.8477963,-9.306543
131,-14.298454284667969,196.9927215576172,75.78376770019531,1.28635416397017,0.40279673632223784,-173.94934283994044,-4.1839147,18.722404,30.869232,61.961033,-23.95295,-3.4244642,-19.18918,-16.75108,-24.02556,41.922142,-12.648497,3.7624795,-0.27443793,-5.2105737,7.4765763,0.110799335,28.026548,-14.5622,23.30726,25.575912,0.20432416,-6.2276297,-1.6413034,-28.667896,16.908485,65.824265,27.696857,-1.9183776,-9.271982
132,-14.323195457458496,198.13198852539062,76.08998107910156,0.9881653462575591,0.24288993245193977,-174.06137836717926,-2.961549,15.928506,30.844618,60.867588,-22.702879,-5.6122203,-18.906992,-15.49023,-24.711071,41.672672,-11.671492,2.8859856,-0.933513,-4.5757823,7.1575627,0.9583997,27.03306,-14.442417,24.221144,25.4776,0.32552406,-6.13206,-0.68711936,-29.23951,16.128931,65.85612,27.411442,-1.9529926,-9.257701
133,-14.333215713500977,199.27015686035156,76.39979553222656,0.6233042519244444,0.1304492291435189,-174.18227390349523,-1.7777841,12.897619,30.575201,58.927795,-21.005281,-8.504431,-18.699688,-14.155747,-25.33121,41.361526,-10.453656,2.1269796,-1.554927,-3.869463,6.773087,1.7512823,26.196787,-14.728488,24.974594,25.184725,0.22716221,-6.1509986,0.37139317,-29.739826,15.078496,65.847206,27.31122,-1.952897,-9.2916355
134,-14.344779968261719,200.41714477539062,76.712646484375,0.20346817421541522,0.05322380664877268,-174.28101165631585,-0.6211651,9.532434,29.896347,56.119843,-18.925592,-12.091938,-18.528303,-12.779755,-25.942738,40.97418,-9.008287,1.4744946,-2.1735296,-3.1165829,6.325079,2.5158055,25.523977,-15.376675,25.61643,24.730625,-0.0071244757,-6.2703714,1.5561311,-30.155672,13.803391,65.80538,27.30281,-1.9263288,-9.336525
135,-14.325507164001465,201.5360870361328,77.0055160522461,-0.09503207565588577,0.058425667000409624,-174.30479399655184,0.46875942,5.862979,29.063662,52.68314,-16.77156,-15.000033,-18.584589,-11.647853,-26.487211,40.777138,-7.4578795,0.9723746,-2.82932,-2.496436,5.8012667,3.2334948,25.008282,-16.303892,26.175411,24.152464,-0.3390993,-6.427719,2.803087,-30.485172,12.452025,65.81599,27.396217,-1.8584613,-9.349305
136,-14.307461738586426,202.59805297851562,77.30458068847656,-0.015229526805171032,0.23199725662965137,-174.1433019113213,1.4257665,1.8037752,28.469383,48.759155,-14.670962,-15.000033,-19.15116,-11.196415,-26.889322,41.170227,-5.980172,0.6871934,-3.622297,-2.2541692,5.1446447,3.8979251,24.634363,-17.413948,26.668333,23.494299,-0.7320121,-6.5594664,4.032774,-30.737392,11.175145,65.964096,27.603329,-1.734666,-9.287996
137,-14.258930206298828,203.68373107910156,77.56011962890625,-0.01805298660507849,0.3429581087834262,-174.12712519642477,2.539197,-2.0375016,27.691076,44.521755,-12.822368,-15.000033,-19.755205,-10.633674,-27.244217,41.65382,-4.37515,0.4149159,-4.2647266,-1.9426391,4.58311,4.497547,24.422165,-18.880297,27.048866,22.75902,-1.2036453,-6.622352,5.194669,-30.943003,9.970598,66.29982,27.97141,-1.5464543,-9.124237
138,-14.19359302520752,204.79510498046875,77.76939392089844,-0.10146028120394934,0.42341014632632584,-174.20274542418494,3.837021,-5.7699327,26.618208,39.76292,-11.025214,-15.000033,-20.395926,-9.980346,-27.577587,42.18824,-2.6226866,0.18317842,-4.7990317,-1.5665525,4.075355,5.0263643,24.368818,-20.691225,27.328869,21.921106,-1.7663575,-6.665049,6.3486667,-31.104946,8.767003,66.75112,28.4823,-1.2976217,-8.883097
139,-14.119979858398438,205.94775390625,77.94293212890625,-0.31623633305419563,0.4751740865382589,-174.34940648552322,5.2687926,-9.080576,25.36548,34.890198,-9.308499,-15.000033,-21.03079,-9.156665,-27.916897,42.679806,-0.72923636,0.101254046,-5.1990275,-1.1251348,3.661465,5.524998,24.405905,-22.436705,27.586582,21.001585,-2.372809,-6.7576942,7.515752,-31.190128,7.644913,67.267044,29.048868,-0.9988852,-8.609232
140,-14.055686950683594,207.0921630859375,78.07369232177734,-0.6860302602482605,0.5051799934226316,-174.54072596801825,6.7091556,-11.691274,24.148623,30.400795,-7.711161,-15.000033,-21.641476,-8.116062,-28.265774,43.059673,1.2886764,0.2898321,-5.4758387,-0.6385791,3.3634174,6.0675464,24.441755,-23.664398,27.904076,20.047249,-2.9735627,-6.9664073,8.648176,-31.158434,6.7415385,67.857445,29.58638,-0.67099965,-8.357005
141,-13.962774276733398,208.2787322998047,78.15882110595703,-1.2134924808149392,0.5228114874306674,-174.80366681347908,8.089413,-13.574193,23.130161,26.386662,-6.319083,-15.000033,-22.258614,-6.879654,-28.683071,43.375744,3.49666,0.69245017,-5.6262064,-0.10476642,3.1722016,6.6784787,24.414106,-24.234016,28.323427,19.105436,-3.6387122,-7.3840146,9.686495,-31.00502,6.1696405,68.6464,30.021975,-0.2868402,-8.149834
142,-13.866218566894531,209.49864196777344,78.18896484375,-1.8603332338289784,0.5339343491259898,-175.12451676839345,9.399653,-14.905986,22.28474,22.691086,-5.0797324,-15.000033,-22.909885,-5.498547,-29.130182,43.666607,5.871377,1.2861587,-5.690364,0.46786904,3.050289,7.3053837,24.31895,-24.366161,28.850643,18.16964,-4.362695,-7.948201,10.613473,-30.757376,5.884073,69.639305,30.42075,0.14578278,-7.9711695
143,-13.782288551330566,210.7357940673828,78.19246673583984,-2.5502985573206347,0.5334711149772703,-175.42527556485223,10.539254,-15.760582,21.619213,19.525938,-3.8733437,-15.000033,-23.595753,-4.000396,-29.409397,43.89671,8.239283,2.2671282,-5.726485,1.0070318,2.9825273,7.911043,24.163431,-24.159065,29.502892,17.203762,-4.9847126,-8.487689,11.449638,-30.416883,5.779353,70.67367,30.90643,0.54678935,-7.807706
144,-13.651247024536133,212.02194213867188,78.14847564697266,-3.1913280807679105,0.5096080512449275,-175.6388898473039,11.419806,-16.217329,21.125196,17.102165,-2.5863092,-15.000033,-24.31736,-2.4122221,-29.292505,44.050114,10.409972,3.8490138,-5.785036,1.4168044,2.9605422,8.462598,23.96722,-23.703943,30.292759,16.177282,-5.3488274,-8.827247,12.20387,-29.968372,5.757667,71.596375,31.60082,0.83574265,-7.6499925
145,-13.511384963989258,213.32754516601562,78.06715393066406,-3.7355243909103426,0.4921667425581575,-175.73420062250037,12.018106,-16.31278,20.917257,15.375204,-0.8994429,-15.000033,-25.153921,-0.75886875,-28.693216,44.204357,12.341076,6.187945,-5.8863525,1.6328615,2.9626925,8.981317,23.725927,-22.888065,31.21191,15.083403,-5.342674,-8.972333,12.899657,-29.377762,5.8232946,72.397095,32.62866,0.9629015,-7.504018
146,-13.360188484191895,214.656494140625,77.9429931640625,-4.189692852631799,0.46348365600720465,-175.7694862872275,12.337328,-16.06463,21.017525,14.325592,0.99323773,-15.000033,-26.091684,0.9614829,-27.668571,44.430763,14.052382,9.178525,-5.9739156,1.6549135,3.0055087,9.454798,23.437344,-21.718382,32.269726,13.9414215,-5.078127,-8.987715,13.530701,-28.643341,6.0138535,73.149185,33.89021,0.9771455,-7.3771033
147,-13.217218399047852,216.03985595703125,77.77594757080078,-4.541617688373383,0.3376299643352286,-175.81305862351607,12.350134,-15.511055,21.242306,14.194727,2.4312968,-15.000033,-26.979029,2.759877,-26.21239,44.70851,15.431876,12.645509,-5.9749374,1.4852276,3.1459715,9.817086,23.142784,-20.466038,33.481033,12.756751,-4.742159,-8.786336,14.072708,-27.804432,6.267807,73.812485,35.171764,0.948575,-7.255486
148,-13.076173782348633,217.46990966796875,77.5637435913086,-4.7968858561560905,0.03314288586712705,-175.9328528414895,12.011156,-14.651189,21.393454,15.268644,2.7363446,-15.000033,-27.539871,4.4088764,-24.938328,44.98208,16.40562,15.000033,-5.8113194,1.1442488,3.4481215,10.023739,22.909176,-19.410465,34.823963,11.5202465,-4.524874,-8.287501,14.526223,-26.914131,6.4958153,74.31697,36.257988,0.95403713,-7.1203885
149,-12.95141315460205,218.98883056640625,77.34636688232422,-5.115620371711562,-0.4605175154521599,-176.53431707524354,10.702011,-12.986418,21.761805,18.742395,1.3801577,-15.000033,-27.448013,6.0958858,-24.443197,44.652813,17.412079,15.000033,-5.08221,0.78003764,3.9013047,10.107874,22.79323,-18.587273,36.28145,10.063535,-4.4950657,-7.400909,14.938518,-25.984549,6.6544437,74.58076,37.10679,1.0378606,-6.944609
150,-12.819595336914062,220.53289794921875,77.06702423095703,-5.257745595020325,-0.9879178806142044,-177.0337383632156,8.963669,-11.137158,22.14612,23.226873,-0.57341295,-12.898275,-27.291166,7.5832376,-23.827051,44.379856,18.101887,15.000033,-4.330632,0.1673461,4.3983555,10.085264,22.795763,-17.88585,37.83194,8.434183,-4.56476,-6.19337,15.298711,-24.941442,6.7593026,74.66845,37.815388,1.1344252,-6.7549953
151,-12.636956214904785,222.015380859375,76.68376922607422,-5.076336381068636,-1.2313601208594325,-177.09634533859213,7.2370143,-9.820574,22.74666,27.120941,-2.6663551,-6.56221,-27.741684,8.078743,-23.395117,45.12539,17.993858,15.000033,-3.9070375,-0.74607515,4.6824007,10.005418,22.9164,-17.306297,39.3334,6.9114776,-4.690185,-4.8518033,15.595853,-23.885946,6.83788,74.59142,38.41717,1.236336,-6.548781
152,-12.439743995666504,223.4822540283203,76.26150512695312,-5.098236234144571,-1.4035228629562482,-177.0153916099677,5.9440985,-8.449893,22.996948,30.345566,-5.441532,-1.8069617,-28.418312,8.176706,-23.345667,46.561176,17.212751,15.000033,-3.5354693,-1.4411025,4.9765925,9.887747,23.136314,-16.836836,40.696793,5.7894235,-4.807268,-3.5555453,15.786006,-22.883722,6.940695,74.40025,38.94249,1.3244536,-6.3378277
153,-12.238935470581055,224.93255615234375,75.7768325805664,-5.353533592477491,-1.5223935002490179,-176.78496365114088,5.296238,-7.095926,22.759178,32.64342,-9.291482,0.8180584,-29.380348,7.7653203,-23.74121,48.94893,15.516632,15.000033,-3.2351847,-1.8741473,5.3045135,9.729315,23.448048,-16.492315,41.908318,5.2110457,-4.8902144,-2.253258,15.865522,-21.968819,7.079384,74.03917,39.4186,1.4205531,-6.0766044
154,-12.024967193603516,226.34010314941406,75.22748565673828,-5.71902717671113,-1.6158619097654119,-176.43937840098633,5.0113797,-5.7422576,22.16621,34.478832,-14.08469,2.2160137,-30.501379,6.9334884,-24.332283,51.99509,13.081053,15.000033,-2.9761992,-2.1776276,5.6748843,9.5290785,23.841198,-16.256918,43.018272,4.999665,-4.9596868,-0.8833746,15.853966,-21.13388,7.240625,73.49622,39.830128,1.5378594,-5.767146
155,-11.820582389831543,227.696533203125,74.65106964111328,-6.026066462648902,-1.650750775166225,-176.04008203079482,4.823488,-4.4956055,21.471308,35.995625,-18.998283,2.9193654,-31.69207,5.7608175,-24.792429,55.27413,10.340891,15.000033,-2.6995435,-2.5086844,6.032559,9.29733,24.282833,-16.07857,44.044037,4.96897,-5.007137,0.39367467,15.744515,-20.38949,7.4320316,72.88957,40.14278,1.6421729,-5.490529
156,-11.616449356079102,229.01063537597656,74.08595275878906,-6.117781865960646,-1.593704189277537,-175.65289548397953,4.484172,-3.4828484,20.886072,37.327866,-23.200222,3.4771235,-32.906616,4.354542,-24.83584,58.385033,7.7344656,15.000033,-2.3499599,-3.004764,6.321104,9.046887,24.725458,-15.897271,45.00692,4.938276,-5.03272,1.4176024,15.525509,-19.75816,7.668743,72.33841,40.326363,1.700993,-5.3245463
157,-11.423399925231934,230.2906951904297,73.56361389160156,-5.8814987567352,-1.4147388275143844,-175.3015085100458,3.9723558,-2.8152666,20.511898,38.398155,-26.482597,3.9057589,-34.25923,2.708401,-24.24321,61.349342,5.2517858,15.000033,-1.9060955,-3.7599745,6.508537,8.756729,25.140547,-15.698475,45.922325,4.9498363,-5.012183,2.1290524,15.181771,-19.259584,7.953876,71.84319,40.350574,1.7256969,-5.2852407
158,-11.242637634277344,231.53851318359375,73.06958770751953,-5.405440758164612,-1.143967330892204,-174.94768241874675,3.4077578,-2.3864338,20.287659,39.210415,-29.304905,3.9787447,-35.752224,0.80205476,-23.174332,64.3217,2.721386,15.000033,-1.4154472,-4.6854057,6.6361456,8.422154,25.523283,-15.500758,46.798985,5.080484,-4.950492,2.6247535,14.720327,-18.897919,8.28623,71.34906,40.243427,1.729571,-5.32995
159,-11.068476676940918,232.75213623046875,72.59329986572266,-4.846815945657154,-0.8375441116106201,-174.5678348863007,2.770348,-2.0310419,20.108269,39.981857,-31.820494,3.876979,-37.198753,-1.2796437,-21.956894,67.12998,0.31871495,15.000033,-0.92104757,-5.6325965,6.753302,8.081388,25.862257,-15.2939415,47.648197,5.204734,-4.899552,2.9786587,14.159242,-18.674685,8.670427,70.89588,40.05789,1.6816058,-5.448189
160,-10.875748634338379,233.91665649414062,72.13322448730469,-4.372525173051886,-0.5508614371829008,-174.13683378434098,2.0407462,-1.5826769,19.846245,40.926968,-34.175087,3.7682514,-38.40793,-3.4775612,-20.938828,69.61999,-1.8045334,15.000033,-0.46697143,-6.4409666,6.9036765,7.766352,26.141745,-15.070329,48.485786,5.198096,-4.913183,3.2643228,13.512291,-18.591307,9.118092,70.52864,39.848206,1.5507339,-5.629976
161,-10.683457374572754,235.0452117919922,71.6943130493164,-4.026205331864684,-0.2838201215025559,-173.62533858432738,1.1800216,-0.99419993,19.460396,42.116558,-36.391464,3.6846597,-39.341583,-5.8518667,-20.231386,71.772156,-3.6449785,15.000033,-0.059397243,-7.061867,7.087881,7.4408836,26.344975,-14.833005,49.364742,5.0431957,-5.034193,3.4482837,12.7731695,-18.661789,9.715163,70.286934,39.616325,1.2796706,-5.9111567
162,-10.511838912963867,236.146240234375,71.289794921875,-3.7149850382419487,-0.01772378605549246,-173.0460549917663,0.21325062,-0.35723662,19.014572,43.42752,-38.39664,3.529809,-40.1012,-8.443099,-19.648808,73.680374,-5.294868,15.000033,0.30724767,-7.5775576,7.286262,7.103284,26.46656,-14.574842,50.267044,4.807486,-5.2259235,3.5105731,11.9261875,-18.888815,10.441151,70.140526,39.339535,0.9045961,-6.285289
163,-10.357097625732422,237.2427215576172,70.90859985351562,-3.4125940819103455,0.22142524586822265,-172.4386007529891,-0.78157365,0.29179525,18.524961,44.77682,-40.180508,3.2786748,-40.690445,-11.173342,-19.12581,75.349266,-6.7491355,15.000033,0.6201294,-8.016594,7.508201,6.821909,26.513823,-14.288775,51.11051,4.4923215,-5.423597,3.5452597,10.982172,-19.24948,11.140598,70.02909,39.03209,0.5308039,-6.679731
164,-10.218475341796875,238.32533264160156,70.53907775878906,-3.0954643391606123,0.40969880201924236,-171.84560363911393,-1.7283245,0.91920304,18.012585,46.08882,-41.736366,2.9083395,-41.121433,-13.956841,-18.599344,76.78683,-8.000211,15.000033,0.8810592,-8.412916,7.763032,6.654098,26.504553,-13.982417,51.8178,4.0959635,-5.5629754,3.646703,9.964382,-19.708893,11.647877,69.8902,38.705597,0.2600564,-7.0239477
165,-10.099458694458008,239.39175415039062,70.19585418701172,-2.7625458982371707,0.5419690615964834,-171.26005574234404,-2.6486602,1.5181355,17.462576,47.407715,-43.042294,2.4002876,-41.357048,-16.884861,-18.169636,77.984856,-9.02996,15.000033,1.0914515,-8.779237,8.060084,6.597448,26.453547,-13.670918,52.383514,3.5635264,-5.6336155,3.8544638,8.859207,-20.25713,11.901586,69.750786,38.346615,0.12167029,-7.2962637
166,-9.983421325683594,240.43080139160156,69.87609100341797,-2.4284464345394814,0.6266103975312999,-170.66290754348444,-3.5728507,2.111278,16.867636,48.76331,-44.109818,1.7797004,-41.404945,-19.9755,-17.861021,78.94654,-9.862191,15.000033,1.2614477,-9.104254,8.394351,6.6143785,26.364977,-13.365411,52.848473,2.907172,-5.668953,4.1123996,7.6661696,-20.896368,11.993797,69.63494,37.950016,0.0573456,-7.53679
167,-9.881036758422852,241.50953674316406,69.59601593017578,-2.183965847859871,0.7111745862083819,-170.17140067680526,-4.5132866,2.8599823,16.31703,50.13681,-45.027256,1.0499718,-41.34363,-23.031664,-17.786757,79.64334,-10.49988,14.367956,1.484682,-9.306446,8.700241,6.7087517,26.243433,-13.0673485,53.20564,2.2267673,-5.6698413,4.372834,6.427535,-21.605808,11.986871,69.48089,37.539494,0.032704417,-7.7685766
168,-9.816701889038086,242.5751190185547,69.35289764404297,-2.0705576129264354,0.8281813738434991,-169.8601877418545,-5.440284,3.8441298,15.873294,51.445118,-45.843452,0.2271656,-41.26345,-25.859785,-17.935974,80.08353,-10.98228,12.664789,1.8213031,-9.3564625,8.93154,6.8792787,26.097189,-12.78295,53.451557,1.6226279,-5.6352086,4.5896096,5.182917,-22.355093,11.934037,69.233345,37.135696,0.00881594,-8.018033
169,-9.775816917419434,243.630126953125,69.14513397216797,-1.9956364560133113,0.9235252330492164,-169.65888473273293,-6.2233877,4.9019036,15.513796,52.537655,-46.525574,-0.6416598,-41.232147,-28.345413,-17.820663,80.33151,-11.357168,10.753577,2.2230763,-9.346908,9.1443,7.141182,25.930109,-12.490228,53.545723,1.1152438,-5.5323977,4.7726574,3.9317718,-23.13773,11.803065,68.875046,36.75296,-0.020103633,-8.2995825
170,-9.720465660095215,244.6825714111328,68.96881103515625,-1.9537838875795737,0.9962302904225854,-169.5405353775862,-6.9005537,6.018061,15.206384,53.47481,-47.04693,-1.5722128,-41.209698,-30.59679,-17.54151,80.38626,-11.618338,8.696273,2.6647155,-9.285794,9.3440275,7.489297,25.7455,-12.1952,53.503834,0.6517476,-5.3715496,4.94014,2.6492598,-23.957588,11.585945,68.44869,36.375305,-0.039249826,-8.599705
171,-9.704387664794922,245.7536163330078,68.8342056274414,-1.9295458334487334,1.056707380554988,-169.45715638542455,-7.5104594,7.161511,14.898683,54.277332,-47.38455,-2.567039,-41.175274,-32.634117,-17.154943,80.24644,-11.776025,6.7279243,3.092434,-9.186461,9.517005,7.891461,25.553814,-11.946522,53.404747,0.22402571,-5.2134767,5.0572057,1.3429068,-24.793139,11.360589,67.98588,35.975178,-0.056338284,-8.905503
172,-9.718988418579102,246.83116149902344,68.7394027709961,-1.9064299670250537,1.115003280519433,-169.3609001843739,-8.092684,8.297343,14.536674,54.967316,-47.516666,-3.6267269,-41.097576,-34.47993,-16.716507,79.907234,-11.822556,5.0890045,3.45394,-9.068269,9.6497555,8.316912,25.371729,-11.794205,53.327145,-0.17659377,-5.1184235,5.088857,0.0062303436,-25.607613,11.205338,67.53866,35.52403,-0.0870126,-9.204014
173,-9.745296478271484,247.9113311767578,68.67537689208984,-1.8868904570081542,1.1722612458221324,-169.24177556253383,-8.676649,9.42742,14.08152,55.59684,-47.412186,-4.7846255,-40.96195,-36.135487,-16.22488,79.37003,-11.707806,3.8095386,3.734387,-8.94319,9.736655,8.777865,25.216053,-11.730257,53.264763,-0.5716921,-5.109356,4.999192,-1.3900257,-26.380365,11.123718,67.14771,34.997044,-0.1558493,-9.5037985
174,-9.796016693115234,249.0048370361328,68.63999938964844,-1.8774967812907208,1.2242449414721752,-169.1248908084016,-9.23034,10.558816,13.563987,56.135483,-47.09757,-6.03029,-40.77511,-37.59635,-15.664066,78.64365,-11.42884,2.7672148,3.9641976,-8.813251,9.7842245,9.290767,25.092915,-11.732769,53.178345,-0.9525246,-5.149227,4.8131957,-2.8457968,-27.11015,11.079087,66.79449,34.41112,-0.25431022,-9.812766
175,-9.869857788085938,250.08900451660156,68.63998413085938,-1.867473239547871,1.2722050575550643,-169.01510408480732,-9.701639,11.665871,13.036598,56.482494,-46.63931,-7.2989583,-40.525875,-38.87418,-15.067835,77.72283,-11.043811,1.9799463,4.160989,-8.681418,9.797578,9.82433,25.002241,-11.835407,53.104366,-1.2829438,-5.2084713,4.5885973,-4.3198547,-27.787514,11.085731,66.43258,33.80025,-0.34358677,-10.120502
176,-9.956147193908691,251.17233276367188,68.67990112304688,-1.846262023010985,1.3176343153145322,-168.91767331105459,-10.040222,12.729493,12.556227,56.54133,-46.102184,-8.5247755,-40.202023,-39.978107,-14.469064,76.60376,-10.612848,1.4679855,4.3432803,-8.550733,9.779642,10.344518,24.941523,-12.073087,53.084244,-1.5246708,-5.258855,4.385638,-5.776717,-28.399784,11.161089,66.02298,33.198433,-0.38669792,-10.4170885
177,-10.076314926147461,252.27072143554688,68.7423324584961,-1.8099428073246109,1.3646154057498576,-168.83735847294426,-10.228895,13.748715,12.140075,56.281765,-45.51541,-9.685737,-39.784595,-40.91107,-13.871068,75.26462,-10.126481,1.3055518,4.509032,-8.42079,9.716293,10.852252,24.913761,-12.483765,53.135185,-1.6877385,-5.2987714,4.2104125,-7.2302527,-28.938236,11.307992,65.588455,32.588123,-0.3820294,-10.709796
178,-10.194635391235352,253.37881469726562,68.83317565917969,-1.763856957699973,1.4112913917637586,-168.77170982537044,-10.289402,14.739759,11.75964,55.76375,-44.849804,-10.819214,-39.268723,-41.672024,-13.257575,73.72355,-9.558767,1.4579928,4.6549506,-8.293848,9.608852,11.356055,24.923845,-13.042827,53.240993,-1.7867308,-5.341871,4.035782,-8.695436,-29.402569,11.516736,65.14546,31.95944,-0.34849444,-11.001635
179,-10.348777770996094,254.4639892578125,68.95805358886719,-1.7133766922280056,1.4503033471469216,-168.7118882633285,-10.233668,15.706437,11.403447,55.01621,-44.06556,-11.941008,-38.652634,-42.264595,-12.6408825,72.02079,-8.940016,1.7816886,4.7906275,-8.172342,9.483047,11.839328,24.967968,-13.685255,53.387875,-1.7865608,-5.383689,3.8716211,-10.135605,-29.79172,11.782972,64.64027,31.354815,-0.27977636,-11.2752495
180,-10.518208503723145,255.5746307373047,69.12358093261719,-1.6634258325222275,1.473975448175347,-168.64999160303552,-10.077328,16.648401,11.060022,54.067898,-43.120483,-13.068202,-37.939102,-42.694702,-12.030753,70.199234,-8.304093,2.1351216,4.924154,-8.058507,9.364408,12.287503,25.037352,-14.342726,53.56093,-1.6500026,-5.4200583,3.7288284,-11.518304,-30.105362,12.108761,64.021545,30.821178,-0.17030321,-11.514117
181,-10.695758819580078,256.6977844238281,69.3182144165039,-1.609721442902588,1.4749460369420537,-168.58955587475344,-9.810247,17.552826,10.734356,52.908142,-42.015213,-14.196196,-37.12474,-42.92351,-11.36911,68.23538,-7.62748,2.542537,5.0470567,-7.9492683,9.257662,12.708024,25.127003,-15.050352,53.76534,-1.3254415,-5.449488,3.6304395,-12.8473835,-30.334354,12.490585,63.271374,30.397919,-0.018119331,-11.704524
182,-10.896858215332031,257.8414306640625,69.53057861328125,-1.4835208790773349,1.4731526870134803,-168.50473817117654,-9.44956,18.253605,10.390605,51.490105,-40.741417,-15.000033,-36.252472,-43.0497,-10.597642,66.12479,-6.900318,3.0721753,5.128065,-7.910219,9.14116,13.103107,25.239231,-15.823525,54.01089,-0.8440719,-5.4749494,3.5654643,-14.137913,-30.476343,12.9306555,62.42204,30.05314,0.17129733,-11.860323
183,-11.094643592834473,258.969482421875,69.77827453613281,-1.1937671341865708,1.5004826325975997,-168.34704712280706,-9.04794,18.527418,9.957351,49.789906,-39.24318,-15.000033,-35.395866,-43.28404,-9.737489,63.93647,-6.1759076,3.6497076,5.1356745,-8.040343,9.003946,13.456393,25.362858,-16.553404,54.28767,-0.2872457,-5.5000486,3.4946675,-15.375481,-30.537586,13.435605,61.494484,29.717234,0.39264724,-12.005543
184,-11.299302101135254,260.1128845214844,70.05240631103516,-0.9126202690935747,1.5331457659666987,-168.17390208961513,-8.585514,18.807373,9.517021,47.92998,-37.555378,-15.000033,-34.414055,-43.527176,-9.08845,61.72798,-5.5461783,4.12349,5.152897,-8.183421,8.864328,13.766107,25.506075,-17.150305,54.558395,0.2436783,-5.5267644,3.371343,-16.53247,-30.548668,14.013445,60.497948,29.33919,0.6449272,-12.155378
185,-11.523082733154297,261.2917785644531,70.34379577636719,-0.6454111691751867,1.5680562910460214,-167.99075810650768,-8.01965,19.09259,9.080273,45.83707,-35.67074,-15.000033,-33.278687,-43.780037,-8.708439,59.46681,-5.054531,4.471147,5.1786695,-8.334533,8.72291,14.054589,25.660889,-17.576384,54.808434,0.80503076,-5.5698557,3.1795464,-17.599695,-30.504112,14.681482,59.388226,28.93172,0.9693354,-12.309972
186,-11.75489330291748,262.4753112792969,70.65277862548828,-0.38803640432214503,1.600108176648589,-167.8020482282386,-7.3488297,19.379688,8.651225,43.520126,-33.601463,-15.000033,-32.00465,-43.992794,-8.526347,57.13894,-4.659488,4.747874,5.2049427,-8.485808,8.580787,14.314374,25.811764,-17.884111,55.06135,1.4251163,-5.625785,2.9470043,-18.584595,-30.40103,15.428356,58.16553,28.516304,1.3554031,-12.45977
187,-11.995001792907715,263.697509765625,70.97624206542969,-0.1320177851044432,1.639932607659397,-167.59513400518532,-6.6645594,19.678452,8.205299,41.125443,-31.347672,-15.000033,-30.670813,-44.179066,-8.470303,54.836487,-4.288162,4.9746113,5.2188206,-8.649705,8.438583,14.530921,25.961037,-18.075771,55.313065,1.9789381,-5.6677146,2.690101,-19.51663,-30.252672,16.236307,56.9278,28.046272,1.720302,-12.610009
188,-12.245475769042969,264.9532165527344,71.3038101196289,0.13201121396615956,1.698497807016408,-167.35567295186073,-6.06125,20.00006,7.7215276,38.803047,-28.911608,-15.000033,-29.355413,-44.35345,-8.465934,52.646748,-3.86845,5.1739154,5.208381,-8.836491,8.300521,14.688068,26.112198,-18.155083,55.55459,2.3411984,-5.6672783,2.4231987,-20.418413,-30.078754,17.08086,55.762325,27.474642,1.9836295,-12.763946
189,-12.4992036819458,266.2315673828125,71.63150787353516,0.4218854900940728,1.7774002666677706,-167.0769968184984,-5.5154757,20.319769,7.1999264,36.498245,-26.210035,-15.000033,-28.04759,-44.548264,-8.547952,50.55055,-3.3815928,5.3566427,5.1794267,-9.06888,8.170429,14.784943,26.26758,-18.099768,55.789734,2.4220116,-5.6143594,2.150479,-21.26732,-29.89502,17.99496,54.614277,26.785875,2.1371205,-12.9250965
190,-12.753020286560059,267.5113525390625,71.952392578125,0.7280787677379003,1.871563133682029,-166.76676535214605,-4.99969,20.64384,6.650399,34.17184,-23.275036,-15.000033,-26.722565,-44.736893,-8.735792,48.514793,-2.8649762,5.517187,5.1386538,-9.330484,8.048248,14.826359,26.424467,-17.920582,56.017387,2.3055732,-5.5228815,1.8623515,-22.049826,-29.70271,18.972853,53.448067,26.009106,2.2231934,-13.089081
191,-13.011651992797852,268.8122863769531,72.24980163574219,1.0198789484034059,1.9832374401406063,-166.432154369551,-4.6081095,21.03299,6.0825653,32.000397,-20.26582,-15.000033,-25.44789,-44.84586,-8.916384,46.614494,-2.3317044,5.6512914,5.079865,-9.573368,7.932196,14.799584,26.578468,-17.674839,56.225006,2.1302204,-5.4003534,1.5527822,-22.796509,-29.497534,19.924055,52.378246,25.160048,2.2370331,-13.248466
192,-13.25544548034668,270.13568115234375,72.53292083740234,1.266911780981433,2.115380651259801,-166.0780187278442,-4.44035,21.53807,5.496026,30.164248,-17.34582,-15.000033,-24.288355,-44.81454,-8.975977,44.92113,-1.7946723,5.746759,4.997748,-9.751084,7.8201222,14.685835,26.72714,-17.427067,56.40529,2.0308568,-5.2556505,1.2160695,-23.536972,-29.276583,20.755888,51.52214,24.253744,2.1730053,-13.395748
193,-13.494667053222656,271.4686279296875,72.78665161132812,1.4649464269457277,2.2804681259564448,-165.6883495630148,-4.549464,22.146408,4.8189096,28.690683,-14.467424,-15.000033,-23.2908,-44.672134,-8.926063,43.487377,-1.3025903,5.587072,4.884616,-9.854151,7.704921,14.470611,26.867067,-17.170238,56.56299,2.0377588,-5.0791864,0.8375702,-24.271261,-29.042017,21.440039,50.910755,23.167799,1.974335,-13.536786
194,-13.727799415588379,272.807861328125,73.00843811035156,1.6302957818068757,2.474758886688096,-165.2633854412671,-4.8932076,22.82972,4.062541,27.506872,-11.577199,-15.000033,-22.417267,-44.4447,-8.807487,42.265472,-0.8347741,5.2443852,4.746842,-9.905694,7.5890656,14.157377,26.999714,-16.887257,56.708122,2.0798583,-4.87093,0.4256535,-24.983702,-28.798893,22.023453,50.483353,21.933859,1.6625248,-13.677596
195,-13.950973510742188,274.1628112792969,73.19768524169922,1.7620271650646098,2.6774275383471258,-164.83228971720465,-5.433463,23.60739,3.343283,26.642126,-8.828065,-15.000033,-21.601748,-44.06453,-8.546921,41.1719,-0.29588476,5.1352453,4.601737,-9.907779,7.485345,13.761101,27.132637,-16.623356,56.83387,2.1428025,-4.6547327,0.007974709,-25.678951,-28.549484,22.523182,50.21873,20.797777,1.3476026,-13.806503
196,-14.173325538635254,275.5278015136719,73.34684753417969,1.8555458094858766,2.866790033871067,-164.42446295277387,-6.1315036,24.498755,2.772552,26.126257,-6.376898,-15.000033,-20.763899,-43.45852,-8.069169,40.103287,0.41822934,5.67876,4.4704266,-9.861414,7.407036,13.294836,27.277609,-16.428534,56.93327,2.2087052,-4.4539447,-0.38816196,-26.355633,-28.29556,22.946789,50.091003,20.000278,1.1385285,-13.9048815
197,-14.394543647766113,276.9122009277344,73.45960998535156,1.9101581752602772,3.040113481072308,-164.0309654964318,-7.011595,25.473528,2.263621,25.90528,-4.119405,-15.000033,-19.92865,-42.567444,-7.185852,39.075333,1.6372396,6.980927,4.360534,-9.763074,7.367978,12.734493,27.441166,-16.323288,57.003395,2.2850964,-4.2687774,-0.773367,-26.995647,-28.032146,23.246904,50.095337,19.602585,1.0788176,-13.99012
198,-14.619893074035645,278.27874755859375,73.53988647460938,1.919380895162496,3.2078791561761517,-163.64440751833104,-8.090176,26.524572,1.7624066,25.974741,-2.0217814,-15.000033,-19.103107,-41.42188,-5.969405,38.112843,3.1907566,8.835847,4.267155,-9.609027,7.3585644,12.083729,27.624752,-16.282976,57.042515,2.3731768,-4.0882607,-1.1579542,-27.605553,-27.761536,23.430443,50.244015,19.477467,1.103509,-14.060565
199,-14.841869354248047,279.69091796875,73.57453918457031,1.868821563307498,3.3642481133605138,-163.29907051628058,-9.303133,27.712805,1.4332201,26.433823,-0.3445887,-15.000033,-18.18311,-40.091038,-4.744788,37.11565,4.4352903,11.178618,4.1955714,-9.396997,7.361748,11.4011965,27.830437,-16.285292,57.040134,2.4486277,-3.9186945,-1.5147799,-28.215372,-27.49849,23.58381,50.529568,19.582224,1.1593108,-14.066751
200,-15.05270004272461,281.14697265625,73.51485443115234,1.746668151986595,3.4979579302765704,-163.03224445390467,-10.558198,29.109222,1.4549953,27.356752,0.65572405,-15.000033,-17.08301,-38.673878,-3.8697622,35.97582,4.746227,13.903097,4.153367,-9.124739,7.367304,10.744477,28.058437,-16.308523,56.985878,2.4868486,-3.7663147,-1.8169116,-28.850609,-27.262897,23.794436,50.936848,19.877956,1.1944841,-13.958314
201,-15.265335083007812,282.6662292480469,73.37693786621094,0.9857151644189956,3.7538501718587307,-163.09815965071962,-12.06458,31.59163,1.8868358,28.870842,0.7915388,-15.000033,-15.773858,-36.562775,-4.325134,34.358784,3.9211931,15.000033,4.3581123,-8.275275,7.198704,10.113141,28.308033,-16.368965,56.865047,2.4465666,-3.6263535,-2.0547147,-29.514145,-27.071087,24.063099,51.454487,20.514887,1.226287,-13.681703
202,-15.4957857131958,284.188720703125,73.19324493408203,-0.20711772065192383,4.028739804325389,-163.39475457517952,-13.662702,34.845554,2.5877213,30.7264,0.28942686,-15.000033,-14.282833,-33.83837,-5.4800506,32.29193,2.4179316,15.000033,4.742361,-7.0316453,6.9685335,9.480723,28.57605,-16.473793,56.68342,2.3534808,-3.4971013,-2.245159,-30.186089,-26.92704,24.34992,52.077724,21.46463,1.2810564,-13.274208
203,-15.707412719726562,285.6554870605469,72.9765625,-1.102298956091452,4.241113338268989,-163.6445434898145,-15.06592,37.75171,3.751428,32.670357,-0.5561769,-13.983339,-12.941804,-31.414244,-6.4287786,30.326868,0.5349462,15.000033,5.058767,-6.064069,6.813926,8.850618,28.851875,-16.593428,56.473167,2.2816572,-3.3894417,-2.393967,-30.836977,-26.82896,24.675777,52.782875,22.421041,1.3103305,-12.827125
204,-15.90466022491455,287.0462646484375,72.74478149414062,-1.411015035645145,4.378158826735154,-163.72915917457206,-16.10366,39.746067,5.3132834,34.61556,-1.5028582,-11.874276,-12.098151,-29.823547,-6.953687,29.185898,-1.5689518,15.000033,5.1864552,-5.629328,6.7923574,8.240882,29.111273,-16.68456,56.25979,2.3101048,-3.314749,-2.502409,-31.444345,-26.77514,25.070875,53.553947,23.071774,1.2552483,-12.430311
205,-16.07432746887207,288.3660888671875,72.49885559082031,-1.4162267030361184,4.313026333335456,-163.78353475510096,-16.554667,41.207325,6.928386,36.645737,-2.5743752,-10.773873,-11.720049,-28.785957,-7.229349,29.191776,-4.1475835,15.000033,5.2525682,-5.445649,6.999959,7.6444182,29.325115,-16.73012,56.05526,2.4637163,-3.3000712,-2.5748718,-32.057785,-26.780804,25.611315,54.456787,23.259022,1.0752295,-12.070417
206,-16.234045028686523,289.6304016113281,72.22867584228516,-1.2227892223586316,4.111826930996171,-163.8446487073056,-16.581474,42.36655,8.715167,38.890144,-3.9002132,-10.301009,-11.68583,-28.108686,-7.445446,30.017263,-7.2480197,15.000033,5.2820716,-5.426793,7.3658447,7.080453,29.519464,-16.731878,55.82088,2.7001686,-3.3311846,-2.611443,-32.67932,-26.843513,26.262457,55.469498,23.176989,0.8056688,-11.714628
207,-16.380224227905273,290.8479919433594,71.93939971923828,-0.9551286276387161,3.8588951230278585,-163.94659771811794,-16.388441,43.266956,10.4195,41.331875,-5.368848,-10.068861,-11.947094,-27.606985,-7.5952578,31.36574,-10.429086,15.000033,5.300381,-5.443905,7.7856965,6.5211797,29.645199,-16.72935,55.630646,3.0120285,-3.3607607,-2.575757,-33.257027,-26.93793,26.914259,56.52505,23.032803,0.49785817,-11.415239
208,-16.49544906616211,292.02392578125,71.65702819824219,-0.7386684307558713,3.6367896126487254,-164.1233753622589,-16.188646,43.939648,11.76153,43.91744,-6.8620453,-9.6973505,-12.424147,-27.081846,-7.6336255,32.89615,-13.255243,15.000033,5.3252378,-5.386704,8.164925,5.9867406,29.699617,-16.735157,55.497242,3.3843908,-3.3380914,-2.4444702,-33.73604,-27.021585,27.45248,57.548836,23.026838,0.20332369,-11.220229
209,-16.586244583129883,293.1587219238281,71.38533782958984,-0.606681130613161,3.4489344657917984,-164.41203632151593,-16.059877,44.36133,12.540927,46.718777,-8.380079,-9.122496,-13.15756,-26.512693,-7.5398498,34.647152,-15.681641,15.000033,5.336734,-5.1914945,8.527159,5.547748,29.68998,-16.681513,55.349533,3.8302934,-3.2577012,-2.224295,-34.18249,-27.154074,28.0184,58.557423,23.281384,-0.10996975,-11.174621
210,-16.652849197387695,294.23712158203125,71.15839385986328,-0.49779226592358566,3.2563323682974192,-164.7843067108481,-15.905037,44.499447,12.941713,49.72291,-9.960315,-8.552151,-14.147088,-25.979626,-7.355741,36.723083,-17.892593,15.000033,5.360737,-4.926911,8.895367,5.081982,29.57713,-16.63705,55.30397,4.3660164,-3.143682,-1.9027997,-34.58951,-27.302027,28.547462,59.61291,23.60981,-0.4574387,-11.238147
211,-16.704225540161133,295.2705078125,70.98638153076172,-0.39942221362031916,3.0809703427217183,-165.1786150428789,-15.675584,44.380955,13.2449,52.72927,-11.536852,-8.011741,-15.242941,-25.447748,-7.1242647,38.8792,-19.805464,15.000033,5.3474483,-4.6252875,9.205896,4.653438,29.378773,-16.603228,55.30339,4.938422,-2.985149,-1.5043365,-34.85818,-27.438082,28.96442,60.58652,23.997637,-0.7485522,-11.341041
212,-16.767927169799805,296.2572021484375,70.87355041503906,-0.2997320145943599,2.9456646832996043,-165.5364781038904,-15.309487,44.05981,13.73238,55.532104,-13.046334,-7.5132923,-16.300627,-24.89389,-6.878012,40.894363,-21.362295,15.000033,5.2658286,-4.3201427,9.404915,4.3132825,29.112349,-16.59151,55.291714,5.498432,-2.7719588,-1.0529702,-34.839306,-27.536846,29.114353,61.31173,24.36636,-0.88760173,-11.409066
213,-16.86756706237793,297.1986083984375,70.81730651855469,-0.18745054484912496,2.879093427439871,-165.86730397977237,-14.801982,43.53406,14.434513,58.12251,-14.501258,-7.069615,-17.386248,-24.325504,-6.5447955,42.839325,-22.502285,15.000033,5.124911,-4.0367317,9.460101,4.0948925,28.78082,-16.568024,55.270905,6.0769687,-2.4725554,-0.48021334,-34.483356,-27.579937,28.951824,61.75901,24.768612,-0.82726103,-11.458
214,-16.955774307250977,298.114501953125,70.78983306884766,-0.07298756298423376,2.862162775183068,-166.19557595124147,-14.185585,42.79271,15.204329,60.588863,-15.922514,-6.663207,-18.520582,-23.751637,-6.124949,44.78404,-23.280571,15.000033,4.93405,-3.7574859,9.405299,3.9796941,28.386578,-16.53244,55.25168,6.6801186,-2.0981748,0.19650644,-33.878647,-27.56417,28.55588,62.02797,25.207277,-0.6285707,-11.517975
215,-17.05352020263672,298.97698974609375,70.80973815917969,0.024785505982384333,2.846169347231134,-166.48714993618535,-13.443933,41.882217,16.06199,62.85756,-17.257282,-6.253916,-19.504068,-23.165257,-5.758166,46.519802,-23.8205,15.000033,4.6677766,-3.463596,9.281921,3.939405,27.956326,-16.553934,55.19633,7.2180195,-1.7071183,0.8268523,-33.11064,-27.502708,28.040358,62.163242,25.62602,-0.3603847,-11.539847
216,-17.176332473754883,299.79534912109375,70.88787078857422,0.08677802832594593,2.7826902333617554,-166.70789970086753,-12.573716,40.837055,17.023882,64.85694,-18.447374,-5.807214,-20.148428,-22.56562,-5.5944853,47.8311,-24.22962,15.000033,4.3081503,-3.1391392,9.136363,3.9486961,27.529608,-16.707367,55.055904,7.5991154,-1.3621252,1.2600403,-32.240017,-27.418715,27.486101,62.190243,25.944895,-0.09284626,-11.468246
217,-17.29669189453125,300.5785217285156,71.01759338378906,0.09638041642833789,2.650081060987444,-166.81548693368268,-11.60478,39.65474,18.065428,66.61607,-19.463196,-5.277276,-20.360664,-21.960543,-5.730822,48.62822,-24.523563,15.000033,3.8171394,-2.780363,8.981744,4.028931,27.131668,-17.030394,54.807976,7.7116594,-1.0776109,1.4878372,-31.225431,-27.329563,26.883663,62.01277,26.199799,0.19222546,-11.229617
218,-17.417617797851562,301.34832763671875,71.19560241699219,0.06799555868654755,2.476594758939191,-166.84022334927988,-10.546,38.30734,19.176418,68.143715,-20.328611,-4.6949887,-20.27335,-21.354193,-6.0623984,49.04409,-24.650208,15.000033,3.2324233,-2.4033709,8.8058405,4.194817,26.762869,-17.484116,54.45561,7.6285005,-0.8242356,1.5760517,-30.005363,-27.232512,26.149197,61.595154,26.393717,0.52479273,-10.868061
219,-17.543684005737305,302.07623291015625,71.42915344238281,0.02837639331263502,2.2892155381411223,-166.85649197644113,-9.373193,36.77679,20.391108,69.33243,-21.059925,-4.1460614,-20.036503,-20.73553,-6.446302,49.184074,-24.602667,15.000033,2.6385171,-2.030668,8.609287,4.4179964,26.428165,-18.02028,53.990948,7.53823,-0.5996237,1.4857875,-28.65497,-27.139666,25.37519,61.07819,26.512177,0.8546132,-10.510904
220,-17.67325782775879,302.7992858886719,71.70500946044922,0.004236498922245936,2.1148320933211693,-166.94001651408252,-8.067219,35.04292,21.742466,70.0713,-21.671432,-3.7162242,-19.795452,-20.094652,-6.7370057,49.162468,-24.385296,15.000033,2.1176686,-1.6807535,8.392447,4.6701417,26.129175,-18.586597,53.401184,7.63154,-0.40165317,1.1756365,-27.244547,-27.065207,24.639711,60.59986,26.522165,1.1315188,-10.283912
221,-17.811969757080078,303.4796142578125,72.03386688232422,-9.412353919672491e-05,1.9615817281282226,-167.102715717133,-6.624966,33.041073,23.236908,70.31035,-22.158096,-3.4285586,-19.539837,-19.429209,-6.9192815,48.93822,-23.985355,15.000033,1.6760529,-1.3512132,8.135975,4.9560466,25.86857,-19.208532,52.644608,7.9852343,-0.2333527,0.53149605,-25.75153,-27.022615,23.97711,60.120045,26.385386,1.3267325,-10.223185
222,-17.938447952270508,304.1379089355469,72.3978271484375,0.0011413601150293286,1.8153348683337285,-167.308643661763,-5.0992312,30.782055,24.822489,70.09577,-22.499474,-3.2380989,-19.20586,-18.74382,-7.06362,48.478558,-23.411661,15.000033,1.2807287,-1.030109,7.8473125,5.283649,25.644733,-19.904453,51.735676,8.49145,-0.10074584,-0.3934308,-24.135,-27.010822,23.337587,59.57244,26.130535,1.4751315,-10.25711
223,-18.04196548461914,304.7574157714844,72.79031372070312,0.0051253034152836646,1.669810838768728,-167.5606286066871,-3.5504353,28.362967,26.445127,69.466385,-22.689613,-3.1308746,-18.850965,-18.040054,-7.1568756,47.904953,-22.697617,15.000033,0.94795024,-0.72076195,7.562869,5.6310406,25.449804,-20.607615,50.747375,9.063908,-0.005347027,-1.388389,-22.459238,-27.02052,22.694664,59.077316,25.843195,1.6187503,-10.351782
224,-18.14827537536621,305.3612365722656,73.20427703857422,0.010006146856563187,1.5186761956527128,-167.86115790805314,-2.0198672,25.884943,28.066145,68.46826,-22.728878,-3.0942287,-18.536549,-17.319403,-7.183704,47.340374,-21.87387,15.000033,0.6837561,-0.4267882,7.317651,5.985259,25.272959,-21.238802,49.752415,9.617132,0.05708232,-2.240901,-20.808355,-27.035942,22.031763,58.772736,25.608776,1.7970555,-10.475519
225,-18.24698257446289,305.96044921875,73.6319808959961,0.03528635555322462,1.3613791458647024,-168.2349984540665,-0.43481547,23.322145,29.80982,67.02939,-22.658575,-3.0962546,-18.278095,-16.593727,-7.10547,46.783672,-20.924446,15.000033,0.50675255,-0.16552873,7.1134524,6.358292,25.105082,-21.759985,48.7312,10.211948,0.08525306,-2.935259,-19.201077,-27.047482,21.34051,58.714664,25.341307,2.0592048,-10.650638
226,-18.33518409729004,306.5766906738281,74.06583404541016,-0.04465479660420947,1.2260965730193119,-168.7253068874979,1.1494137,20.793507,31.624556,65.205536,-22.479162,-3.2011588,-18.046131,-15.651784,-7.0246696,46.102737,-19.786427,14.402859,0.44537145,0.18411599,6.903793,6.756588,24.945309,-22.208878,47.664143,10.868159,0.077604495,-3.5674794,-17.619999,-27.054758,20.64596,58.85247,25.031664,2.368686,-10.88556
227,-18.408767700195312,307.1546630859375,74.51866912841797,-0.14255186261450883,1.0853460404512643,-169.2270350384624,2.6396527,18.196348,33.27363,63.070755,-22.083286,-3.4279435,-17.8227,-14.7016945,-6.9368286,45.41327,-18.5457,13.833839,0.39501044,0.537328,6.7156835,7.160957,24.798506,-22.616581,46.62133,11.439318,0.04584353,-4.093828,-16.08912,-27.050499,19.971663,59.156532,24.876406,2.634924,-11.130325
228,-18.484516143798828,307.7290954589844,74.97015380859375,-0.29711640512608123,0.9382400395879749,-169.69140827856648,3.9169757,15.633289,34.52657,60.779057,-21.38965,-3.833849,-17.596594,-13.72952,-6.9103837,44.75136,-17.23663,13.310933,0.30153057,0.92585003,6.5497622,7.557984,24.671497,-23.01007,45.66794,11.779994,0.005304381,-4.4712586,-14.6392975,-27.024029,19.34857,59.605465,25.070843,2.764047,-11.337162
229,-18.541608810424805,308.29644775390625,75.40876770019531,-0.5144017575086032,0.7771603201238023,-170.12111875018374,4.984594,13.086889,35.33043,58.293873,-20.33373,-4.4246755,-17.36457,-12.73548,-6.950165,44.117397,-15.833907,12.860113,0.1502122,1.3598094,6.4152474,7.9647975,24.568735,-23.39846,44.79715,11.812562,-0.061347067,-4.643191,-13.281007,-26.970184,18.830765,60.24803,25.735561,2.6640034,-11.551305
230,-18.60153579711914,308.89862060546875,75.83295440673828,-0.7757814454342524,0.6045089856986796,-170.53596923171534,5.932935,10.54068,35.826122,55.559658,-18.986006,-5.165585,-17.133175,-11.725048,-7.023802,43.490917,-14.328522,12.468933,-0.03743737,1.8178729,6.307082,8.390282,24.490557,-23.758408,43.97802,11.627695,-0.150816,-4.648368,-12.00907,-26.889181,18.395454,61.091824,26.739666,2.401336,-11.77822
231,-18.650630950927734,309.48284912109375,76.2475357055664,-1.0824939550188126,0.4342643766893643,-170.91230313356587,6.7837563,8.11109,36.089283,52.7193,-17.476208,-6.0514035,-16.905146,-10.689966,-7.1434407,42.87209,-12.776882,12.091088,-0.25812003,2.2854052,6.207105,8.802012,24.43762,-24.075907,43.241943,11.329464,-0.2166637,-4.587411,-10.824325,-26.775904,17.955652,62.045666,27.902636,2.124054,-11.911968
232,-18.70223045349121,310.0908508300781,76.63905334472656,-1.4351274571950088,0.2802708216256115,-171.2270733943286,7.5504127,5.9108925,36.198856,49.922302,-15.93627,-7.079303,-16.684519,-9.622187,-7.320404,42.262836,-11.236398,11.679164,-0.5043999,2.7461874,6.0970745,9.1631775,24.411495,-24.342062,42.623272,11.020383,-0.21226385,-4.5599327,-9.727015,-26.622663,17.41975,63.018963,29.043564,1.9854776,-11.852303
233,-18.739704132080078,310.7013854980469,77.01763153076172,-1.8539987839959344,0.14170278880375972,-171.4822302831525,8.253516,3.9698837,36.161938,47.146496,-14.348036,-8.330471,-16.456516,-8.493644,-7.5656815,41.642567,-9.695255,11.197498,-0.7741484,3.2194855,5.978031,9.468341,24.413668,-24.566364,42.129467,10.719917,-0.071225755,-4.5407352,-8.752685,-26.416231,16.72591,64.06329,30.248901,2.067954,-11.502702
234,-18.777721405029297,311.31756591796875,77.37092590332031,-2.331713369059072,0.013043459126041124,-171.68689174031263,8.901467,2.232791,35.944393,44.337738,-12.677049,-9.777763,-16.225964,-7.31825,-7.8713036,41.0109,-8.127317,10.679159,-1.0664059,3.7025092,5.857549,9.7291355,24.446693,-24.756983,41.747078,10.373842,0.16330923,-4.4921327,-7.891466,-26.154648,15.931716,65.20738,31.56624,2.2859929,-10.946158
235,-18.80223846435547,311.9638671875,77.7021484375,-2.828207822427052,-0.0982498143459168,-171.82883751331056,9.474598,0.68539715,35.57259,41.617203,-11.021635,-11.259353,-16.026802,-6.1524463,-8.220502,40.40447,-6.570076,10.180369,-1.3763037,4.150043,5.7296066,9.938452,24.511543,-24.90068,41.470463,9.975639,0.3756484,-4.496831,-7.070212,-25.849136,15.126485,66.31413,32.761684,2.5399926,-10.352844
236,-18.823646545410156,312.62298583984375,78.00225067138672,-3.3021301718444516,-0.18443835230153635,-171.89661046959904,9.947444,-0.6865982,35.082233,39.11201,-9.469381,-12.616336,-15.890771,-5.0516925,-8.595372,39.863445,-5.0649047,9.756655,-1.6988833,4.5174828,5.5887604,10.088954,24.608358,-24.983006,41.29467,9.519286,0.45068622,-4.6391726,-6.212226,-25.521194,14.400787,67.24328,33.606606,2.7189796,-9.885917
237,-18.835142135620117,313.28448486328125,78.26734161376953,-3.7610117213299277,-0.23538821669946547,-171.88888167408555,10.277479,-1.8583546,34.469902,36.900955,-7.9674435,-13.853926,-15.857769,-4.0040355,-8.961899,39.418537,-3.536739,9.4569235,-2.0356648,4.808479,5.4240966,10.184579,24.733551,-24.977741,41.2157,8.946546,0.3134853,-5.002894,-5.2953787,-25.187895,13.799575,67.96161,33.999886,2.7902663,-9.564793
238,-18.84645652770996,313.9504089355469,78.5028076171875,-4.207971992917288,-0.25102903753047634,-171.805917146153,10.484532,-2.8457801,33.739044,34.916855,-6.4937806,-15.000033,-15.911876,-3.0050476,-9.33493,39.059227,-2.0021966,9.244202,-2.3962433,5.03585,5.238249,10.229773,24.883526,-24.896046,41.23355,8.279107,0.043923717,-5.5273,-4.3580303,-24.849297,13.274901,68.53686,34.08311,2.8093066,-9.3039875
239,-18.825044631958008,314.6189270019531,78.7033462524414,-4.481985918209814,-0.1647837900756567,-171.55338673355237,10.590917,-3.9058576,33.038113,32.917347,-5.0734067,-15.000033,-16.132767,-2.3030984,-9.767094,38.900166,-0.705169,9.0857115,-2.8629675,5.063718,4.9747877,10.213791,25.059967,-24.786274,41.350975,7.6310806,-0.24169719,-6.0783863,-3.4050243,-24.502436,12.771448,68.96947,33.99317,2.7955682,-9.109591
240,-18.803258895874023,315.30584716796875,78.86048889160156,-4.716942792279918,-0.1005687884609564,-171.25366849971482,10.740236,-4.826895,32.30631,31.016632,-3.9582262,-15.000033,-16.257776,-1.6756139,-10.318397,38.705883,0.27422383,8.840018,-3.3153737,5.0245733,4.7550597,10.125923,25.267704,-24.69882,41.567863,7.1183696,-0.43172687,-6.5185843,-2.4421575,-24.143488,12.229041,69.262184,33.865395,2.7672741,-8.986079
