unveil-humanoid-operators/unveil-humanoid-operators.github.io/feature-analysis-animation/data/feature_matrix_instances/gender_shoulder_mean_vel_jogging_A063_jog_ff_stop_360_004__A063.csv
Frame,root_translateX,root_translateY,root_translateZ,root_rotateX,root_rotateY,root_rotateZ,left_hip_pitch_joint_dof,left_hip_roll_joint_dof,left_hip_yaw_joint_dof,left_knee_joint_dof,left_ankle_pitch_joint_dof,left_ankle_roll_joint_dof,right_hip_pitch_joint_dof,right_hip_roll_joint_dof,right_hip_yaw_joint_dof,right_knee_joint_dof,right_ankle_pitch_joint_dof,right_ankle_roll_joint_dof,waist_yaw_joint_dof,waist_roll_joint_dof,waist_pitch_joint_dof,left_shoulder_pitch_joint_dof,left_shoulder_roll_joint_dof,left_shoulder_yaw_joint_dof,left_elbow_joint_dof,left_wrist_roll_joint_dof,left_wrist_pitch_joint_dof,left_wrist_yaw_joint_dof,right_shoulder_pitch_joint_dof,right_shoulder_roll_joint_dof,right_shoulder_yaw_joint_dof,right_elbow_joint_dof,right_wrist_roll_joint_dof,right_wrist_pitch_joint_dof,right_wrist_yaw_joint_dof
0,0.2811586856842041,-2.641019344329834,76.95648193359375,-1.4123662045817813,-7.467727156574636,99.12932064367541,-19.708136,1.6488118,-12.758205,13.6656885,10.811055,-15.000033,15.261234,-4.6262574,-10.112769,42.848125,-8.957931,7.203822,6.1311927,4.618121,11.09346,31.40067,23.1563,-23.205881,-38.437035,-1.7926804,-6.217209,7.857655,-11.064053,-16.90644,28.043972,-23.626701,14.965261,-17.963709,1.3344884
1,0.4255353510379791,-3.9799838066101074,76.7239761352539,-1.054762195942586,-7.490100304963039,99.07585297924264,-21.17737,1.2673224,-12.908534,17.584333,8.630128,-15.000033,15.059875,-4.714193,-9.243881,41.557465,-11.372979,7.0631256,6.3872423,4.258089,11.518172,30.782776,22.950554,-23.586695,-38.41073,-1.7810409,-6.2366395,8.100112,-10.090265,-16.823353,27.902311,-23.490189,14.401794,-18.033417,1.0413685
2,0.5502370595932007,-5.335430145263672,76.44563293457031,-0.636913009020097,-7.553529112179116,99.02350512899845,-22.463947,0.84125155,-12.831331,21.16297,6.584262,-14.202167,14.957849,-4.861707,-8.301435,40.190594,-13.811668,6.9125957,6.5949826,3.8939652,11.95176,30.115753,22.546621,-23.965439,-38.22991,-1.7305235,-6.2471876,8.296589,-9.245267,-16.667662,27.827734,-23.206936,13.835694,-18.09396,0.7854809
3,0.6632154583930969,-6.691900730133057,76.13201141357422,-0.25125454198700703,-7.654836961631746,98.9394024030132,-23.662165,0.45912674,-12.677336,24.768822,4.6065664,-13.204547,14.777888,-5.032549,-7.423144,39.033325,-16.25275,6.7954783,6.735009,3.5918427,12.396223,29.344837,22.00263,-24.339577,-37.899006,-1.6330607,-6.259649,8.478243,-8.5181055,-16.45837,27.848545,-22.710566,13.2429495,-18.14791,0.4810925
4,0.7619383931159973,-8.055298805236816,75.79729461669922,0.11864882499808943,-7.827380170517748,98.7951442696347,-24.721941,0.12932375,-12.4691725,28.556686,2.744431,-12.517011,14.362818,-5.328966,-6.7384753,38.44618,-18.728554,6.793422,6.79331,3.323564,12.894778,28.386843,21.36588,-24.729767,-37.39535,-1.4743217,-6.283924,8.680149,-7.8977847,-16.21356,27.976812,-21.921494,12.601973,-18.194231,0.04884126
5,0.8498420715332031,-9.428336143493652,75.4233169555664,0.5289250215116346,-8.10839971830162,98.6020195994482,-25.62616,-0.19153455,-12.140836,32.626286,1.0632222,-12.312701,13.665499,-5.878171,-6.34773,38.632263,-21.388533,6.996121,6.781406,3.0352263,13.506615,27.19324,20.671759,-25.156103,-36.70274,-1.2908465,-6.337265,8.919397,-7.3538995,-15.941704,28.197731,-20.83832,11.962897,-18.237667,-0.56837904
6,0.9382195472717285,-10.804794311523438,75.02412414550781,0.9662232668037223,-8.466899102953331,98.37160150706003,-26.417738,-0.47574145,-11.722181,36.904556,-0.49284336,-12.434738,12.760751,-6.609856,-6.1726575,39.38069,-24.183714,7.343437,6.7237115,2.732216,14.198189,25.838957,19.94056,-25.597168,-35.882572,-1.0889109,-6.410924,9.188572,-6.86106,-15.651072,28.48238,-19.544456,11.322138,-18.274849,-1.3164904
7,1.0129351615905762,-12.173279762268066,74.61990356445312,1.3347456577747148,-8.836015168170217,98.07530054578334,-27.119745,-0.6097303,-11.312023,41.263187,-2.0501876,-12.568102,11.681611,-7.3235846,-6.066427,40.421,-26.841238,7.6940284,6.6213436,2.4874942,14.875429,24.418577,19.184313,-26.011578,-35.016754,-0.80559105,-6.4747825,9.482437,-6.413304,-15.35942,28.82591,-18.095087,10.57623,-18.290556,-2.110569
8,1.0501569509506226,-13.515311241149902,74.22091674804688,1.542703916491469,-9.151134305347114,97.68309138116292,-27.737913,-0.5003357,-11.017962,45.54317,-3.7236478,-12.415732,10.461423,-7.8091683,-5.8695645,41.478653,-29.083914,7.902631,6.4709454,2.376575,15.445753,23.021816,18.409859,-26.35949,-34.17895,-0.37620172,-6.4976444,9.792974,-6.0075164,-15.0911045,29.22665,-16.546001,9.623738,-18.268867,-2.867664
9,1.0620005130767822,-14.849111557006836,73.837646484375,1.5070012458246966,-9.415927173288821,97.16107327884082,-28.29591,-0.089447506,-10.95133,49.83234,-5.6250086,-11.870632,9.080183,-7.959143,-5.5525546,42.55861,-30.848421,7.9113426,6.269346,2.4827836,15.91091,21.681206,17.610363,-26.623468,-33.39073,0.28709316,-6.4565983,10.164741,-5.7055054,-14.867472,29.719814,-14.825652,8.316225,-18.208775,-3.6393213
10,1.0605682134628296,-16.172060012817383,73.49708557128906,1.2978322071295505,-9.66138748328518,96.5356054484978,-28.764336,0.54025453,-11.04437,54.15193,-7.658123,-11.114017,7.534248,-7.8920374,-5.1923294,43.77097,-32.275753,7.808995,6.0147758,2.7482073,16.317984,20.341635,16.787813,-26.820793,-32.614937,1.1260282,-6.3695936,10.583791,-5.4702344,-14.696377,30.293219,-12.964739,6.7542915,-18.109133,-4.4504604
11,1.0657798051834106,-17.48954963684082,73.20417022705078,1.0501540924757562,-9.86158754870016,95.86694914800812,-29.075218,1.2626762,-11.133886,58.2472,-9.633612,-10.288009,5.8827224,-7.7376432,-4.7845592,44.99466,-33.389275,7.6702986,5.7161226,3.0350919,16.641771,18.959064,15.970246,-26.976433,-31.846865,1.9841928,-6.2700367,10.957242,-5.142873,-14.578094,30.864906,-11.167486,5.20992,-17.964048,-5.1763663
12,1.0760034322738647,-18.785991668701172,72.96107482910156,0.8967414242785484,-9.985836087489261,95.2153325035703,-29.181158,1.9672381,-11.048327,61.893307,-11.3712015,-9.522403,4.1859326,-7.6308455,-4.3230457,46.109753,-34.213608,7.5681896,5.3955083,3.1986635,16.853994,17.49758,15.204202,-27.127522,-31.09119,2.7013662,-6.196563,11.19975,-4.5601454,-14.511356,31.341923,-9.643647,3.953266,-17.777811,-5.6891665
13,1.0778194665908813,-20.056047439575195,72.77397918701172,0.8809331855446758,-10.002938186272482,94.56358820160703,-29.087305,2.6890628,-10.690951,65.06143,-12.854545,-8.812938,2.3868935,-7.603532,-3.7700825,47.16124,-34.732998,7.517632,5.106683,3.1890352,16.930117,15.947178,14.526,-27.302605,-30.36149,3.2852063,-6.158743,11.28013,-3.6234117,-14.492986,31.665575,-8.450842,2.9852052,-17.536375,-5.916732
14,1.059441089630127,-21.298194885253906,72.64171600341797,0.9298424009619737,-9.93383981692792,93.89071871633577,-28.824022,3.4727242,-10.170409,67.89233,-14.184654,-8.096731,0.4821346,-7.5796075,-3.1416776,48.17896,-34.937897,7.4850316,4.845715,3.0768049,16.892956,14.344679,13.948656,-27.500097,-29.688658,3.7940128,-6.140063,11.260124,-2.4214022,-14.52699,31.870924,-7.497813,2.1842527,-17.25461,-5.935291
15,1.0248454809188843,-22.51123046875,72.56538391113281,1.0008042170425653,-9.823138310829506,93.25141393191872,-28.392628,4.2287464,-9.613557,70.42255,-15.360334,-7.40835,-1.3922296,-7.540042,-2.5102427,49.02997,-34.8679,7.467749,4.551295,2.8968046,16.784044,12.723419,13.481754,-27.720146,-29.104992,4.142953,-6.141555,11.194543,-1.070207,-14.625371,32.002655,-6.7707467,1.6364232,-16.987392,-5.8433986
16,0.9833714962005615,-23.714569091796875,72.53916931152344,1.0515347706128486,-9.716725831961156,92.70033579645074,-27.79578,4.8621864,-9.144317,72.68054,-16.375479,-6.786852,-3.1008768,-7.4747744,-1.9480238,49.583225,-34.563347,7.4625397,4.161999,2.6856594,16.646395,11.1131,13.132833,-27.965103,-28.64061,4.247117,-6.1631217,11.136876,0.32116503,-14.805001,32.105743,-6.265589,1.4292463,-16.786194,-5.74255
17,0.9341832399368286,-24.90767478942871,72.55836486816406,1.0826299347600057,-9.632668666276272,92.26210699710639,-27.014769,5.349922,-8.76619,74.67421,-17.216652,-6.252055,-4.619108,-7.3981986,-1.4720112,49.835785,-34.02702,7.4716134,3.6556835,2.432745,16.493387,9.489359,12.913488,-28.261265,-28.322191,4.0381765,-6.203263,11.102138,1.7666397,-15.082471,32.19459,-6.042568,1.7459033,-16.666382,-5.653678
18,0.8668451309204102,-26.090314865112305,72.62968444824219,1.113286169851236,-9.544194104111117,91.90403828506149,-26.061554,5.738998,-8.416533,76.39719,-17.891216,-5.779416,-6.0170956,-7.3171926,-1.0453691,49.848892,-33.241577,7.495171,3.07621,2.1252708,16.307417,7.846478,12.825822,-28.624271,-28.143555,3.5696707,-6.261878,11.064286,3.3363514,-15.462982,32.229496,-6.1252627,2.4904723,-16.59818,-5.5283833
19,0.7901054620742798,-27.267711639404297,72.75666046142578,1.129167357591157,-9.430633219464044,91.59449631510913,-24.989601,6.033262,-8.115415,77.85286,-18.4196,-5.3452215,-7.3024435,-7.2177405,-0.65909797,49.589695,-32.21804,7.5273805,2.454353,1.7990015,16.084248,6.2406096,12.855199,-29.032797,-28.0761,2.9434738,-6.341093,11.012418,4.9998884,-15.940335,32.180634,-6.4452877,3.3328524,-16.565105,-5.362775
20,0.7005385160446167,-28.438838958740234,72.93806457519531,1.1156849013486265,-9.271104526437826,91.30205829751954,-23.851103,6.233195,-7.8800273,79.03962,-18.819492,-4.9272795,-8.482314,-7.086963,-0.3048416,49.02645,-30.968513,7.5636706,1.8101296,1.4919567,15.81679,4.7284365,12.9773245,-29.450783,-28.083326,2.2663174,-6.442883,10.931953,6.710444,-16.499237,32.029423,-6.9099483,3.9402885,-16.55218,-5.152934
21,0.5952997207641602,-29.596343994140625,73.17386627197266,1.0519534198885323,-9.057015269204692,91.05577821794039,-22.653353,6.3051863,-7.760042,79.96137,-19.081337,-4.5152917,-9.54138,-6.9219027,-0.024069749,48.127277,-29.488678,7.5908227,1.1051958,1.2235925,15.484296,3.2924743,13.179257,-29.8783,-28.139622,1.4947776,-6.5897875,10.80707,8.468717,-17.128376,31.781408,-7.5081177,4.242946,-16.577387,-4.901256
22,0.46901845932006836,-30.742210388183594,73.4595947265625,0.9503000891201421,-8.800555341614135,90.85970912514001,-21.375364,6.254082,-7.725701,80.618095,-19.19767,-4.1254177,-10.481909,-6.738807,0.19312426,46.918694,-27.77671,7.6157913,0.33466896,0.9783145,15.0936,1.902754,13.456237,-30.330303,-28.254667,0.59998554,-6.771682,10.643841,10.288356,-17.821377,31.443016,-8.265685,4.410754,-16.642235,-4.6069665
23,0.3332895338535309,-31.888072967529297,73.78842163085938,0.8482391464395126,-8.512869558607791,90.64499130751656,-20.029915,6.1336575,-7.6741295,81.01027,-19.184626,-3.775284,-11.332674,-6.5499115,0.4310836,45.45126,-25.845095,7.6642933,-0.43902162,0.74341315,14.676853,0.59926134,13.794038,-30.778538,-28.43381,-0.2876959,-6.9429555,10.459307,12.133317,-18.56419,31.005136,-9.131887,4.470407,-16.708664,-4.2635207
24,0.1783614307641983,-33.037872314453125,74.15426635742188,0.7838387508419533,-8.205559337200825,90.34330492345514,-18.627216,5.9942174,-7.502335,81.13434,-19.059498,-3.4823668,-12.119955,-6.359996,0.77312505,43.768707,-23.701752,7.761276,-1.156526,0.50326616,14.261625,-0.57909757,14.1731415,-31.189507,-28.672726,-1.0335364,-7.0590816,10.270874,13.956535,-19.337523,30.464233,-10.040451,4.4468184,-16.738674,-3.8648584
25,0.007202305365353823,-34.18988037109375,74.5435791015625,0.7639563210663821,-7.8704916244594845,89.93634005280859,-17.158163,5.830268,-7.174204,80.98186,-18.80547,-3.24011,-12.848896,-6.15219,1.2413818,41.845078,-21.331476,7.924455,-1.816913,0.25330392,13.831405,-1.6274903,14.579904,-31.541637,-28.933708,-1.5644902,-7.102324,10.058509,15.727589,-20.12966,29.808563,-10.943583,4.2718587,-16.714945,-3.3657682
26,-0.18027421832084656,-35.34412384033203,74.95096588134766,0.7690383953045162,-7.505144552907589,89.46158255843541,-15.623944,5.610726,-6.7472997,80.557274,-18.417364,-3.0423265,-13.501294,-5.925587,1.789978,39.661896,-18.732521,8.136841,-2.4524531,0.005158825,13.371248,-2.5772614,15.010732,-31.850687,-29.205122,-1.9583483,-7.098604,9.818244,17.468388,-20.933073,29.044487,-11.860278,3.9539766,-16.663525,-2.784202
27,-0.37343624234199524,-36.497379302978516,75.37616729736328,0.7927155134237613,-7.128700437509025,88.93523806468914,-14.050217,5.345017,-6.2606473,79.877975,-17.935852,-2.9093556,-14.076893,-5.6992455,2.4014282,37.288033,-15.938324,8.368809,-3.055127,-0.23647645,12.9088745,-3.4412253,15.463066,-32.134678,-29.514263,-2.3078501,-7.070173,9.592351,19.202143,-21.731464,28.202955,-12.815234,3.631148,-16.60794,-2.2096803
28,-0.568695068359375,-37.64970779418945,75.8077621459961,0.8334039173651931,-6.760180631958937,88.37269865288873,-12.463657,5.044898,-5.753109,78.965,-17.399761,-2.8611238,-14.578832,-5.489013,3.0548973,34.79354,-12.980752,8.590317,-3.6179595,-0.47056937,12.469674,-4.231086,15.935657,-32.409485,-29.890476,-2.706816,-7.0389395,9.422895,20.938375,-22.502882,27.321207,-13.815857,3.440003,-16.570501,-1.7314662
29,-0.7712725400924683,-38.808372497558594,76.23308563232422,0.8894135606040747,-6.389548845522019,87.75074560493698,-10.858218,4.7082915,-5.213372,77.786026,-16.815863,-2.9030533,-15.016426,-5.244067,3.8245468,32.117588,-9.68742,8.779844,-4.1299453,-0.6986769,12.042358,-4.9391913,16.428629,-32.66733,-30.32444,-3.173151,-7.0052066,9.314691,22.647861,-23.23073,26.398567,-14.830832,3.4058704,-16.555534,-1.3587513
30,-0.9615018963813782,-39.966514587402344,76.6474609375,0.9620035647578615,-6.010569853666391,87.07106547783025,-9.226622,4.325004,-4.63193,76.34161,-16.16445,-3.022381,-15.389381,-4.9623523,4.684567,29.251629,-6.0996695,8.955718,-4.5981083,-0.92812705,11.612695,-5.5661526,16.942953,-32.901333,-30.793234,-3.657802,-6.959244,9.247295,24.31299,-23.90797,25.428175,-15.833761,3.4549644,-16.549946,-1.0473669
31,-1.1513253450393677,-41.136390686035156,77.03350067138672,1.0534751119994785,-5.647600993447088,86.38629200301361,-7.591567,3.8968613,-4.051141,74.70233,-15.44939,-3.2141502,-15.694731,-4.7275863,5.469102,26.350842,-2.5723093,9.147591,-5.044746,-1.1677173,11.201218,-6.13009,17.479052,-33.127712,-31.314985,-4.153445,-6.908051,9.22482,25.955463,-24.526821,24.445602,-16.83584,3.5748959,-16.546288,-0.80799466
32,-1.3406519889831543,-42.302467346191406,77.3818130493164,1.1682938750303078,-5.325877868694398,85.749320353795,-5.9731927,3.4272337,-3.51187,72.93697,-14.672772,-3.4731266,-15.914514,-4.626875,6.016248,23.537302,0.55443627,9.386232,-5.4919734,-1.4297462,10.828095,-6.6507936,18.036875,-33.36408,-31.901224,-4.6528983,-6.8586397,9.251318,27.595583,-25.080482,23.486303,-17.851114,3.7523556,-16.537153,-0.6504969
33,-1.5252635478973389,-43.46772003173828,77.68236541748047,1.329859930894409,-5.053755847409806,85.15237949250127,-4.3419814,2.8940103,-2.9994917,71.008606,-13.785808,-3.847354,-15.980198,-4.710485,6.2980685,20.609257,3.417739,9.740722,-5.930867,-1.7422222,10.49151,-7.1302495,18.619286,-33.620274,-32.562435,-5.1387,-6.79628,9.347491,29.257288,-25.567106,22.541721,-18.892096,4.019099,-16.50592,-0.60346806
34,-1.698263168334961,-44.63500213623047,77.92786407470703,1.5373600649859325,-4.8179925890715545,84.57638141927308,-2.6945372,2.294545,-2.5082898,68.89342,-12.803339,-4.3218627,-15.912984,-4.904749,6.398343,17.55243,6.1434374,10.183013,-6.353723,-2.1021383,10.181956,-7.560341,19.227797,-33.8882,-33.28909,-5.6195526,-6.7236423,9.505446,30.917461,-25.98625,21.603577,-19.947409,4.3683577,-16.461422,-0.6517577
35,-1.8717375993728638,-45.8002815246582,78.11097717285156,1.7569570882645353,-4.612966536108169,84.05671206300835,-1.086837,1.6679882,-2.088855,66.68085,-11.823241,-4.799091,-15.8384905,-5.1360235,6.3314333,14.797729,8.36528,10.597707,-6.7851806,-2.475923,9.90709,-7.9479723,19.858307,-34.158005,-34.057796,-6.1289973,-6.6736865,9.684925,32.520237,-26.33482,20.711863,-20.97393,4.725911,-16.435791,-0.73997974
36,-2.040728807449341,-46.98281478881836,78.24689483642578,1.9490703152940014,-4.432604931559221,83.62693721107973,0.42359737,1.066624,-1.786098,64.466576,-10.945771,-5.182675,-15.883676,-5.3570156,6.1108975,12.781661,9.703534,10.860872,-7.248915,-2.8232079,9.672704,-8.303749,20.502722,-34.41777,-34.84343,-6.699489,-6.6786504,9.844082,34.00148,-26.607557,19.91398,-21.922556,5.017566,-16.459858,-0.81231624
37,-2.207915782928467,-48.165077209472656,78.31912994384766,2.100952582511944,-4.274407029085878,83.29498320928757,1.8491391,0.5017916,-1.6153198,62.21244,-10.19631,-5.4901733,-16.070847,-5.615809,5.6267323,11.566979,9.839534,10.898674,-7.7465997,-3.137458,9.46443,-8.64637,21.15954,-34.680042,-35.642914,-7.3737464,-6.7582526,9.978769,35.373,-26.805214,19.22104,-22.792074,5.2424407,-16.5542,-0.87382
38,-2.3812918663024902,-49.35844421386719,78.33324432373047,2.225257464692079,-4.141189932452443,83.04155108917199,3.2118554,-0.030246794,-1.5512812,59.89738,-9.527828,-5.759847,-16.341196,-5.934205,4.9113164,10.94883,9.038337,10.795228,-8.262137,-3.4297051,9.28368,-8.974838,21.82795,-34.949398,-36.458252,-8.1222515,-6.891526,10.106709,36.65036,-26.931023,18.616713,-23.594692,5.4314055,-16.698082,-0.94556534
39,-2.5572426319122314,-50.59025192260742,78.30296325683594,2.3054254139442913,-4.031499529193972,82.85242069734022,4.464515,-0.486909,-1.5650133,57.64219,-8.931314,-5.931417,-16.744816,-6.231602,4.196568,11.039547,7.7630568,10.640553,-8.783074,-3.676256,9.156946,-9.274461,22.496088,-35.203323,-37.25813,-8.867345,-7.0487504,10.218384,37.768623,-26.984772,18.105455,-24.295925,5.5546956,-16.860088,-0.99476576
40,-2.72882080078125,-51.84482955932617,78.22429656982422,2.329889453665823,-3.942464236849553,82.71370823058442,5.5556273,-0.8327386,-1.6206746,55.57251,-8.399175,-5.946903,-17.338415,-6.4301343,3.7100468,11.960732,6.4747467,10.510723,-9.296692,-3.8565001,9.108919,-9.53461,23.144806,-35.418385,-38.00388,-9.529305,-7.199503,10.303743,38.66116,-26.963123,17.693684,-24.858532,5.581945,-17.0085,-0.9899437
41,-2.91300368309021,-53.12516784667969,78.08909606933594,2.314727546795997,-3.88951658698748,82.62921738512541,6.469469,-1.1104387,-1.7346252,53.741245,-7.752796,-5.803861,-18.172873,-6.508824,3.569445,13.894798,5.210385,10.387866,-9.799509,-3.988242,9.16049,-9.784793,23.759533,-35.592167,-38.676723,-10.072967,-7.350394,10.3425865,39.328777,-26.862722,17.380695,-25.285316,5.480135,-17.155125,-0.9187525
42,-3.1092562675476074,-54.423587799072266,77.8984146118164,2.2777676759433234,-3.8712247996152693,82.60588929778206,7.2347026,-1.3414274,-1.9006044,52.078224,-7.053656,-5.528459,-19.196068,-6.5104775,3.6356728,16.712523,3.75961,10.253219,-10.291057,-4.0942473,9.293235,-10.0406885,24.334074,-35.744495,-39.273476,-10.542878,-7.5104423,10.343047,39.807095,-26.68452,17.162603,-25.592981,5.271815,-17.31,-0.7992096
43,-3.310971736907959,-55.731136322021484,77.65692138671875,2.2026277182694436,-3.860708588830581,82.63453749241602,7.868041,-1.4630823,-2.0495625,50.518486,-6.6610003,-5.109816,-20.301064,-6.456414,3.742248,20.046572,2.2268286,10.176456,-10.761305,-4.160908,9.47439,-10.272793,24.86133,-35.888187,-39.7676,-10.977973,-7.6529984,10.339006,40.087162,-26.434078,17.033642,-25.769873,5.009491,-17.438126,-0.6440346
44,-3.516232967376709,-57.05168914794922,77.36922454833984,2.0550968196726522,-3.825755791056046,82.70113759457293,8.379517,-1.396129,-2.1179593,49.00082,-6.935485,-4.5457077,-21.416002,-6.3759294,3.7237477,23.594063,0.68467236,10.205831,-11.198348,-4.152306,9.670487,-10.447997,25.333084,-36.03499,-40.135612,-11.416762,-7.7525706,10.364645,40.157375,-26.120468,16.987576,-25.79969,4.7470613,-17.504965,-0.4660339
45,-3.718048334121704,-58.39255905151367,77.02201080322266,1.7969439306591677,-3.731335848975826,82.80099291834104,8.7888565,-1.0518636,-2.0404668,47.415726,-7.9753785,-3.621338,-22.587624,-6.2613974,3.525268,27.401037,-0.85072213,10.418888,-11.604682,-4.0198436,9.860933,-10.5507145,25.737976,-36.178623,-40.38055,-11.887348,-7.794878,10.427869,40.009235,-25.749014,17.02897,-25.675108,4.464751,-17.482756,-0.25186098
46,-3.9210453033447266,-59.74440002441406,76.6272201538086,1.4542659753017049,-3.6021522781127167,82.94048052967288,9.082248,-0.5199961,-1.8827044,45.83071,-9.599922,-2.4364996,-23.83956,-6.1119576,3.2300541,31.605545,-2.4282384,10.764038,-11.983223,-3.7904153,10.0691595,-10.606366,26.07004,-36.320053,-40.501957,-12.360891,-7.7960143,10.509463,39.662186,-25.321478,17.151814,-25.412693,4.146954,-17.396847,-0.0010017612
47,-4.116568088531494,-61.11041259765625,76.18194580078125,1.082985606201998,-3.4926066101614253,83.12018721683553,9.22074,0.040867917,-1.7790521,44.43493,-11.7293415,-1.444657,-25.064882,-5.987123,2.8902771,36.044422,-4.074311,11.074071,-12.323809,-3.5294619,10.326348,-10.642373,26.332682,-36.478794,-40.471794,-12.793535,-7.7764473,10.604302,39.146687,-24.840675,17.335371,-25.041677,3.8548677,-17.291323,0.25437468
48,-4.305767059326172,-62.487266540527344,75.67613983154297,0.7326148966058307,-3.4582185170046498,83.34386272168645,9.166742,0.50957954,-1.8436927,43.40435,-14.262261,-1.0638016,-26.143322,-5.944089,2.565377,40.538742,-5.802099,11.179975,-12.618227,-3.3018134,10.664106,-10.68214,26.53619,-36.67331,-40.272804,-13.142096,-7.7566075,10.707909,38.493298,-24.310148,17.555984,-24.59388,3.650064,-17.209244,0.48197383
49,-4.4818525314331055,-63.8509521484375,75.15076446533203,0.36727832588841364,-3.5350194965496424,83.60897176552508,8.95724,0.95669997,-2.0954113,42.72638,-17.495842,-1.5605974,-27.045181,-5.9715757,2.244696,45.15974,-7.661062,10.989374,-12.871995,-3.0829415,11.128628,-10.724004,26.68774,-36.907104,-39.903843,-13.457957,-7.7671523,10.814581,37.703606,-23.737072,17.810907,-24.081568,3.5914788,-17.15353,0.7228481
50,-4.653540134429932,-65.21177673339844,74.60023498535156,-0.028210177608350432,-3.6864427266402746,83.91610166697707,8.58318,1.4701802,-2.413024,42.331425,-21.375114,-2.621767,-27.812006,-6.0669594,1.9248196,49.945946,-9.620656,10.592713,-13.093255,-2.8494987,11.692466,-10.745752,26.789337,-37.165504,-39.387577,-13.744165,-7.7890115,10.929052,36.770683,-23.12193,18.104488,-23.495209,3.6346607,-17.10333,0.9757024
51,-4.8029866218566895,-66.5826416015625,74.03311920166016,-0.36602082809816344,-3.8595640679923284,84.27275123578374,7.9412856,1.9471791,-2.7188878,42.31522,-25.2684,-3.7924974,-28.430647,-6.2857876,1.6788713,54.670113,-11.56924,10.102295,-13.2714,-2.669423,12.276632,-10.74332,26.846327,-37.442284,-38.7422,-13.885512,-7.7678804,11.062617,35.71089,-22.455744,18.417948,-22.830656,3.6841228,-17.066328,1.1467915
52,-4.929759979248047,-67.94657135009766,73.46807098388672,-0.5570349968004606,-4.002384839889461,84.68557234266744,6.9474645,2.238827,-3.0129468,42.758884,-28.539522,-4.6365714,-28.894852,-6.6692324,1.5687802,59.109238,-13.398276,9.63945,-13.389401,-2.609437,12.803005,-10.714843,26.865622,-37.735012,-37.984486,-13.766292,-7.6490235,11.227714,34.53852,-21.72271,18.730822,-22.079535,3.6432035,-17.050915,1.1446443
53,-5.031268119812012,-69.31123352050781,72.92636108398438,-0.5337303687178961,-4.115924783864877,85.1938468392875,5.5158806,2.214033,-3.3845453,43.790905,-31.084564,-5.0433764,-29.22815,-7.3017597,1.6300516,63.30795,-15.131399,9.228832,-13.453071,-2.7337852,13.274111,-10.7174,26.85221,-38.06467,-37.062172,-13.35532,-7.397093,11.41293,33.252506,-20.890493,19.025173,-21.212221,3.4872487,-17.082432,0.88926995
54,-5.120304107666016,-70.68185424804688,72.42697143554688,-0.3572130769446411,-4.227299455667648,85.77958948010665,3.7234595,1.9495553,-3.830997,45.334282,-33.234695,-5.2530456,-29.425587,-8.131178,1.8298731,67.36034,-16.81475,8.812877,-13.448303,-2.995746,13.72617,-10.742791,26.80727,-38.440727,-35.98038,-12.716511,-7.0465493,11.615846,31.843603,-19.948412,19.29459,-20.230824,3.259792,-17.14771,0.45489928
55,-5.200969219207764,-72.0290756225586,71.97853088378906,-0.13461781431563788,-4.321754079292984,86.36407414569277,1.7487936,1.5935671,-4.2588167,47.126892,-34.99015,-5.364243,-29.45088,-8.983544,2.1095462,71.129036,-18.368511,8.393208,-13.338767,-3.2884152,14.130992,-10.685944,26.73288,-38.83002,-34.85341,-11.880281,-6.6462774,11.860441,30.311829,-18.929522,19.542116,-19.181076,2.9707685,-17.198454,-0.023024056
56,-5.290551662445068,-73.33944702148438,71.59712982177734,0.025975551190290453,-4.380801003901148,86.8705100331842,-0.23450093,1.3077624,-4.577964,48.90414,-36.344997,-5.471202,-29.271078,-9.684611,2.4045868,74.47538,-19.71154,7.973927,-13.110061,-3.50016,14.459162,-10.423013,26.634348,-39.178875,-33.806366,-10.87657,-6.2443094,12.171235,28.659683,-17.897589,19.783283,-18.12484,2.6396518,-17.187084,-0.41621247
57,-5.382439136505127,-74.61822509765625,71.27336120605469,0.10463020875164167,-4.363335554963602,87.3097583174204,-2.2970774,1.121596,-4.7617984,50.723534,-37.217094,-5.5708942,-28.903666,-10.226955,2.683408,77.38,-20.813107,7.524936,-12.812904,-3.5955582,14.672822,-9.849919,26.514534,-39.442764,-32.876713,-9.492324,-5.803266,12.609925,26.865189,-16.88893,20.042786,-17.056337,2.2416558,-17.069677,-0.74182683
58,-5.44589376449585,-75.84851837158203,71.00668334960938,0.1553104169561593,-4.289323345311787,87.71410361306047,-4.48965,0.9561763,-4.8666873,52.672104,-37.629562,-5.629105,-28.365992,-10.688036,2.9757774,79.92487,-21.719412,7.056549,-12.465291,-3.626231,14.798152,-9.026254,26.379444,-39.63006,-32.023544,-7.7875857,-5.304607,13.135975,24.946938,-15.913573,20.310059,-15.986976,1.7915974,-16.879404,-1.0620916
59,-5.487216472625732,-77.0453872680664,70.79313659667969,0.18335677813733525,-4.229645837644061,88.03832811185673,-6.6097765,0.8227682,-4.9307685,54.5262,-37.72913,-5.6886516,-27.625906,-11.027024,3.3047423,82.11932,-22.459675,6.6299243,-12.016571,-3.6098428,14.897599,-8.058808,26.243517,-39.75394,-31.258802,-6.1970797,-4.834584,13.631191,22.957457,-15.007649,20.568117,-14.990073,1.370752,-16.691526,-1.3189644
60,-5.5255303382873535,-78.21300506591797,70.62606048583984,0.1915502083682234,-4.25512184449206,88.2371706708796,-8.46068,0.7336509,-4.9905457,56.07548,-37.664684,-5.7920947,-26.65001,-11.200995,3.6919684,83.96683,-23.06286,6.3060846,-11.42826,-3.5590363,15.034687,-7.0341854,26.127096,-39.81052,-30.615255,-5.150022,-4.493574,13.989484,20.950201,-14.223732,20.822863,-14.146594,1.0642618,-16.581995,-1.4595848
61,-5.569849967956543,-79.3585205078125,70.51101684570312,0.14928360848517808,-4.414401318254103,88.2888728455887,-9.99587,0.7112819,-5.087386,57.344654,-37.42318,-5.961705,-25.356874,-11.136875,4.140573,85.43404,-23.530212,6.130329,-10.706504,-3.4388323,15.261905,-5.8943944,26.048086,-39.746513,-30.160143,-4.8462276,-4.339348,14.201317,18.904387,-13.601926,21.12409,-13.502551,0.9007418,-16.592722,-1.4436642
62,-5.611817359924316,-80.48322296142578,70.44490814208984,0.06491125860087632,-4.659192478380081,88.22210423388266,-11.321095,0.74244606,-5.1974134,58.42161,-36.942425,-6.1710553,-23.792397,-10.88334,4.6395764,86.536,-23.84578,6.061126,-9.904019,-3.2404835,15.534255,-4.562985,26.016869,-39.5332,-29.923866,-5.027113,-4.3189826,14.327176,16.80463,-13.149884,21.507898,-13.030249,0.8511638,-16.676079,-1.3189875
63,-5.648667335510254,-81.59228515625,70.42390441894531,-0.00016165900266104066,-4.915167480675179,88.06611763740449,-12.467387,0.7906901,-5.2561245,59.19108,-36.301796,-6.38697,-22.116058,-10.5755,5.187359,87.34962,-24.006897,6.029319,-9.048072,-3.0175676,15.771445,-3.1049001,26.040401,-39.205032,-29.870977,-5.433588,-4.370583,14.370615,14.710257,-12.863169,21.966124,-12.695706,0.9122943,-16.7741,-1.1639829
64,-5.678614139556885,-82.66864776611328,70.4544448852539,0.014084216672021097,-5.107642339443199,87.84917117375862,-13.465346,0.82281417,-5.197708,59.53664,-35.582546,-6.57151,-20.48699,-10.34437,5.776611,87.95205,-24.0127,5.967294,-8.150373,-2.8311036,15.896001,-1.6043289,26.120207,-38.81469,-29.945532,-5.8070464,-4.4300814,14.335548,12.685463,-12.732507,22.471218,-12.46627,1.0747797,-16.829336,-1.0533438
65,-5.692695617675781,-83.72158813476562,70.53832244873047,0.1410648391213652,-5.22513341923718,87.52570210317134,-14.281892,0.8414457,-4.942958,59.386517,-34.815254,-6.704436,-18.926023,-10.191937,6.461671,88.35387,-23.820019,5.8876605,-7.1554036,-2.711794,15.883112,-0.061881352,26.256905,-38.37905,-30.161144,-6.166888,-4.500015,14.199493,10.701034,-12.764392,23.05255,-12.3277645,1.3604969,-16.833918,-1.0256691
66,-5.700047492980957,-84.76133728027344,70.67401123046875,0.34191862822197044,-5.3031566949395055,87.098026949818,-14.914463,0.8674147,-4.546443,58.816776,-33.95371,-6.8052106,-17.356552,-10.05734,7.2222757,88.51968,-23.441963,5.8171115,-6.0758834,-2.6264052,15.780439,1.5695978,26.44891,-37.865475,-30.551752,-6.6239476,-4.6062713,13.968194,8.736978,-12.956267,23.73466,-12.306235,1.7701918,-16.81647,-1.034864
67,-5.699078559875488,-85.78550720214844,70.86131286621094,0.5712837087623872,-5.3381918022324095,86.66525121553202,-15.440467,0.8930007,-4.1396594,57.937344,-32.965878,-6.8947372,-15.792119,-9.977671,7.9346313,88.45666,-22.962872,5.708105,-5.008154,-2.5464902,15.621207,3.255422,26.688871,-37.271683,-31.07464,-7.0559244,-4.720548,13.689333,6.8776665,-13.275427,24.458157,-12.4298725,2.2554753,-16.77298,-1.0259645
68,-5.686548709869385,-86.80271911621094,71.09378814697266,0.7843815516041808,-5.327851944944348,86.3265928799723,-15.935064,0.90594053,-3.8522,56.853592,-31.81614,-6.994288,-14.248801,-9.983426,8.47452,88.17098,-22.465637,5.5110598,-4.03256,-2.448923,15.432991,4.937383,26.96364,-36.616005,-31.656044,-7.336961,-4.815832,13.413173,5.203599,-13.675581,25.137737,-12.705775,2.756691,-16.700575,-0.93773806
69,-5.6552019119262695,-87.81743621826172,71.37065887451172,0.9893749507714625,-5.260040015341669,86.0911532677944,-16.402395,0.8793047,-3.679369,55.53825,-30.515654,-7.0964985,-12.746235,-10.126439,8.816538,87.67738,-21.956465,5.1486554,-3.1359317,-2.3514977,15.185393,6.582418,27.262556,-35.919346,-32.23243,-7.403854,-4.894886,13.135179,3.7064412,-14.133859,25.744383,-13.099213,3.2644048,-16.585579,-0.7295178
70,-5.602405071258545,-88.82810974121094,71.69027709960938,1.2035075868860778,-5.140353029058776,85.91149965169377,-16.801453,0.8176052,-3.5556877,53.944904,-29.073442,-7.1946955,-11.2737465,-10.368455,9.018049,86.97144,-21.396221,4.664529,-2.2690895,-2.2716026,14.86899,8.199854,27.578516,-35.186714,-32.817726,-7.3318305,-4.9694214,12.8362055,2.3366315,-14.648599,26.308424,-13.581186,3.7937465,-16.432692,-0.43492037
71,-5.528027534484863,-89.8374252319336,72.05323028564453,1.3915530403681073,-4.9947072238036805,85.8017646874051,-17.14567,0.7529763,-3.5214856,52.157978,-27.45356,-7.310485,-9.80482,-10.6060095,9.084903,86.03433,-20.802908,4.191367,-1.4527559,-2.1834536,14.539628,9.783638,27.901798,-34.420643,-33.44436,-7.201315,-5.026284,12.54522,1.1201643,-15.204808,26.819078,-14.180063,4.319411,-16.26497,-0.10308503
72,-5.433941841125488,-90.85814666748047,72.4525146484375,1.518570627340393,-4.849079555791792,85.77584031492783,-17.451376,0.7214203,-3.6219928,50.261795,-25.620573,-7.4640074,-8.3117895,-10.73287,9.028903,84.84431,-20.193367,3.8623369,-0.70401907,-2.0605378,14.25044,11.318304,28.221176,-33.63059,-34.131718,-7.092888,-5.0512986,12.290861,0.08051431,-15.77929,27.25882,-14.912911,4.814064,-16.106817,0.21889323
73,-5.319269180297852,-91.88140869140625,72.88864135742188,1.5707306098102325,-4.715852829615307,85.85226594904859,-17.719606,0.72539717,-3.9039536,48.275364,-23.571888,-7.6436977,-6.757208,-10.734653,8.827238,83.36574,-19.58242,3.6856835,-0.032734517,-1.8925158,14.006843,12.78666,28.531239,-32.822918,-34.865284,-6.9993367,-5.015683,12.08816,-0.77199185,-16.359034,27.60096,-15.778969,5.247372,-15.954172,0.5589523
74,-5.185514450073242,-92.91471862792969,73.35797882080078,1.5703646944916645,-4.57941205740368,86.01826540762343,-17.947042,0.74068797,-4.331449,46.15451,-21.324095,-7.844188,-5.16864,-10.655522,8.49091,81.62501,-18.962,3.5967412,0.5758823,-1.6970173,13.775539,14.185065,28.829147,-31.999886,-35.614464,-6.8847513,-4.93439,11.918939,-1.4657352,-16.94399,27.850576,-16.743116,5.633899,-15.797583,0.93264496
75,-5.035762310028076,-93.95755767822266,73.84913635253906,1.530849695171221,-4.423539963901233,86.23988325889465,-18.146914,0.7721707,-4.8344965,43.898167,-18.863993,-8.092043,-3.6144676,-10.476992,8.090147,79.68382,-18.31449,3.6217284,1.1434036,-1.4859701,13.550794,15.516045,29.105692,-31.16854,-36.37421,-6.7863874,-4.858133,11.761535,-2.030798,-17.528385,28.036297,-17.771227,6.0133476,-15.654644,1.2738758
76,-4.867456436157227,-95.02202606201172,74.35753631591797,1.4691040282637364,-4.231846939620571,86.48339577393503,-18.331694,0.8304328,-5.349758,41.504955,-16.176853,-8.41474,-2.1647635,-10.183205,7.6969075,77.60572,-17.620466,3.7884846,1.6905999,-1.2726102,13.324993,16.77674,29.346674,-30.339542,-37.13065,-6.740846,-4.8371344,11.5937395,-2.5004473,-18.101723,28.189148,-18.823736,6.425429,-15.543558,1.5165445
77,-4.691571235656738,-96.09480285644531,74.88385009765625,1.3773084692559157,-3.994791015815213,86.75221687559466,-18.503666,0.94635296,-5.9038115,38.95606,-13.239539,-8.8442,-0.832276,-9.747891,7.3258247,75.36427,-16.858429,4.127871,2.2222915,-1.0509797,13.090633,17.94137,29.540699,-29.513365,-37.853687,-6.765688,-4.891619,11.394132,-2.8731763,-18.654707,28.301685,-19.888853,6.8559303,-15.4655695,1.6297123
78,-4.50300407409668,-97.17835998535156,75.41168975830078,1.2536907631586602,-3.722321925448046,87.05937140709976,-18.656673,1.1120368,-6.5339265,36.258442,-10.067318,-9.360649,0.4174562,-9.187589,6.955096,72.9352,-16.04719,4.616117,2.7252042,-0.81597084,12.846939,19.00287,29.683208,-28.693363,-38.53457,-6.835799,-4.9910026,11.177051,-3.1478398,-19.184898,28.362759,-20.96409,7.2892885,-15.413159,1.6549314
79,-4.3109588623046875,-98.28437042236328,75.93486022949219,1.1173164678737961,-3.4285524788404866,87.3860908120031,-18.78828,1.288968,-7.1955323,33.44497,-6.696524,-9.916869,1.586159,-8.5650625,6.599358,70.38171,-15.228314,5.198509,3.1933024,-0.58167005,12.597567,19.985462,29.77042,-27.89683,-39.185997,-6.923223,-5.1093583,10.974115,-3.3533885,-19.691723,28.399103,-22.025002,7.761482,-15.391528,1.6340412
80,-4.120154857635498,-99.40438842773438,76.44644165039062,0.9870489732529346,-3.1277762542450107,87.71396274726968,-18.896515,1.4419328,-7.839546,30.549904,-3.1613035,-10.466611,2.6769295,-7.940005,6.268202,67.76794,-14.441791,5.8241816,3.6192496,-0.36193907,12.347163,20.915989,29.798983,-27.138718,-39.8252,-7.000506,-5.2211146,10.816421,-3.5196288,-20.175264,28.440254,-23.05124,8.308984,-15.405042,1.6086197
81,-3.927560567855835,-100.52995300292969,76.9390640258789,0.8713598826192431,-2.808381323443532,88.05879473044745,-19.016687,1.580568,-8.445481,27.518545,0.8699677,-10.933737,3.6865253,-7.310742,5.9510994,65.06008,-13.703243,6.532945,3.9887593,-0.16712895,12.096286,21.784966,29.764326,-26.417171,-40.45179,-7.064784,-5.3224993,10.721372,-3.6517925,-20.633858,28.490767,-24.040325,8.98914,-15.468595,1.5771748
82,-3.736459493637085,-101.66100311279297,77.40152740478516,0.7633664636203522,-2.4675956015747236,88.42422684301428,-19.149359,1.7342726,-9.052287,24.373608,5.298668,-11.376568,4.6175365,-6.6616616,5.650731,62.23285,-12.988609,7.3337436,4.305513,0.012015083,11.842548,22.577438,29.6653,-25.729057,-41.051945,-7.1273384,-5.4256988,10.6670475,-3.7401361,-21.065859,28.540134,-24.995949,9.766123,-15.57567,1.5227375
83,-3.5443906784057617,-102.7936782836914,77.82809448242188,0.6523144800519829,-2.1358690079742693,88.77117498568975,-19.217264,1.9033736,-9.702725,21.225725,9.453508,-11.946758,5.486937,-6.0144057,5.38755,59.360413,-12.274194,8.12901,4.591904,0.19778016,11.588706,23.31677,29.506802,-25.08528,-41.622086,-7.1805253,-5.529407,10.626475,-3.7937207,-21.473562,28.594889,-25.903074,10.537391,-15.697637,1.4635906
84,-3.3579423427581787,-103.92343139648438,78.20067596435547,0.5129736848494191,-1.8479468352149009,89.05555610254372,-19.118618,2.1004474,-10.446393,18.148365,12.676915,-12.786056,6.3167024,-5.372951,5.181259,56.519474,-11.534131,8.821987,4.87549,0.42865804,11.341005,24.031677,29.297997,-24.494562,-42.167324,-7.217971,-5.6322517,10.573408,-3.819886,-21.86239,28.661121,-26.74841,11.200994,-15.805289,1.4171332
85,-3.183076858520508,-105.0500717163086,78.50575256347656,0.27421747450981926,-1.6286509086843384,89.2565298586413,-18.651508,2.4104748,-11.417889,14.725136,14.826074,-14.128046,7.1731367,-4.623889,5.0663195,53.62459,-10.768508,9.470257,5.177089,0.78321534,11.0991745,24.762484,29.04898,-23.953226,-42.71583,-7.2509394,-5.7443643,10.496651,-3.7950835,-22.24155,28.743238,-27.56162,11.721925,-15.881066,1.3718358
86,-3.0293526649475098,-106.17741394042969,78.75762176513672,-0.06870771678847669,-1.4773483390599598,89.38352200294038,-17.855059,2.8931353,-12.315587,10.943667,16.287333,-15.000033,8.065173,-3.7649512,5.040947,50.638714,-9.970372,10.100538,5.494799,1.2705872,10.880175,25.500214,28.764767,-23.454453,-43.280624,-7.279773,-5.8626513,10.413046,-3.7144642,-22.61707,28.833904,-28.352823,12.159439,-15.942409,1.3237575
87,-2.9009971618652344,-107.27323150634766,78.9178466796875,-0.2961734683495151,-1.4188104987401107,89.45272927186309,-16.7495,3.351933,-12.755009,7.064193,17.431719,-15.000033,8.940138,-3.1258414,5.071651,47.797337,-9.1782675,10.610765,5.8045473,1.6744263,10.759306,26.20131,28.44544,-23.003191,-43.8445,-7.280362,-5.9659567,10.338618,-3.613937,-22.988255,28.92173,-29.089548,12.552511,-16.011497,1.3016301
88,-2.7648684978485107,-108.35736083984375,78.9980697631836,-0.4547812747960024,-1.3346441070836252,89.49234044389874,-16.715864,3.540893,-13.054296,5.933138,17.286415,-15.000033,9.586181,-2.6926317,5.0053415,45.233738,-8.299698,10.79468,6.07927,2.005523,10.650232,26.784445,28.088192,-22.608723,-44.346325,-7.230143,-6.03564,10.287605,-3.5378718,-23.33988,28.996368,-29.722578,12.937433,-16.11478,1.3301897
89,-2.6233906745910645,-109.49005126953125,79.07164001464844,-0.45827005800530335,-1.1770784886483998,89.52256919820137,-17.032867,3.5314758,-13.0156355,5.9535837,16.798647,-15.000033,9.886903,-2.597074,4.761731,43.06032,-7.1453204,10.584309,6.2936625,2.163267,10.520866,27.254757,27.684278,-22.269798,-44.790005,-7.0943913,-6.056808,10.266284,-3.526482,-23.6572,29.065584,-30.226389,13.364559,-16.283695,1.4487435
90,-2.4805545806884766,-110.6745834350586,79.1298599243164,-0.3423384720052937,-0.9723327227305064,89.54070455224756,-17.210735,3.4451654,-12.699418,6.02732,16.293863,-15.000033,9.9119835,-2.7527797,4.3726707,41.202744,-5.820001,10.081775,6.450122,2.190875,10.37537,27.630442,27.231356,-21.983152,-45.17382,-6.893565,-6.043082,10.263917,-3.5678096,-23.932533,29.139006,-30.602293,13.799069,-16.495699,1.6348419
91,-2.330645799636841,-111.88080596923828,79.1418685913086,-0.13497701063239317,-0.7559638209356228,89.55807084852108,-17.409658,3.2631102,-12.311483,6.4738464,15.593889,-15.000033,9.7713785,-3.0638485,3.9021266,39.5927,-4.7537446,9.409984,6.5448575,2.1242988,10.242445,27.853779,26.740223,-21.753088,-45.441933,-6.689077,-6.01827,10.271116,-3.631553,-24.1573,29.20933,-30.83531,14.14698,-16.696959,1.8220084
92,-2.1684558391571045,-113.09516143798828,79.09111785888672,0.12540167444005543,-0.5690424394996749,89.58057551425385,-18.469444,2.8284237,-12.092699,9.097189,13.736301,-15.000033,9.591339,-3.4205961,3.4396534,38.13701,-4.3568015,8.696989,6.58274,2.0128174,10.155431,27.873753,26.230888,-21.582914,-45.5509,-6.543174,-6.006567,10.28097,-3.6808941,-24.322565,29.264761,-30.913666,14.31398,-16.834873,1.942482
93,-1.9969048500061035,-114.32263946533203,78.9869155883789,0.404511052359513,-0.41056622116219676,89.60757812278102,-19.645432,2.366858,-12.078354,12.308119,11.499336,-15.000033,9.390367,-3.7813952,2.990319,36.78958,-4.707272,7.788181,6.5653653,1.8812163,10.113431,27.698622,25.7177,-21.467352,-45.510075,-6.4860296,-6.0194435,10.296283,-3.7182505,-24.419996,29.30012,-30.838661,14.233169,-16.885061,1.9704943
94,-1.823974609375,-115.56324005126953,78.83271026611328,0.7358713136256312,-0.302024093465403,89.62119615304739,-20.886707,1.8420577,-12.1164465,16.099688,8.906845,-14.990106,9.144671,-4.2113233,2.5542095,35.626114,-5.61739,6.6929774,6.5049024,1.7014952,10.140449,27.37591,25.205238,-21.399473,-45.36787,-6.4826536,-6.042019,10.324607,-3.760622,-24.448814,29.319824,-30.610683,13.96813,-16.876768,1.9482204
95,-1.6841908693313599,-116.81289672851562,78.63771057128906,1.165494293362174,-0.29009923865026604,89.60783285954766,-21.969261,1.1912669,-11.785406,20.023157,6.312777,-13.516939,8.9069805,-4.7625194,2.2164738,34.67679,-7.047274,5.78646,6.4203672,1.4560415,10.275512,26.904284,24.70063,-21.378773,-45.12225,-6.4978127,-6.0603166,10.366502,-3.7888188,-24.415245,29.324913,-30.227676,13.619963,-16.84068,1.9080724
96,-1.5486642122268677,-118.08794403076172,78.3853988647461,1.5629823123714501,-0.3535731583955894,89.5468515363228,-22.87755,0.5794801,-11.519866,23.894432,3.9110796,-12.454167,8.6833935,-5.250565,1.9965607,33.849335,-8.850318,5.3459964,6.341432,1.2607847,10.481084,26.27102,24.213541,-21.405552,-44.762646,-6.4978724,-6.0612,10.422346,-3.7775545,-24.327837,29.313364,-29.6901,13.289201,-16.809813,1.8798423
97,-1.414089560508728,-119.35846710205078,78.09146118164062,1.9815819370878396,-0.49514672807687793,89.46193648561452,-23.601294,-0.06524298,-11.32838,27.718945,1.7629426,-11.974775,8.555407,-5.7551613,1.8605903,33.01993,-11.21964,5.578265,6.262798,1.0697849,10.766016,25.43543,23.755722,-21.495415,-44.26073,-6.512369,-6.0417924,10.504431,-3.6940722,-24.18886,29.274073,-29.012215,13.024147,-16.80085,1.878025
98,-1.282289981842041,-120.624755859375,77.76166534423828,2.4354845394859463,-0.7024202889835534,89.35469684887369,-24.220016,-0.74961436,-11.168137,31.679564,-0.29565802,-11.830919,8.473894,-6.316939,1.7601947,32.232574,-14.121053,6.257468,6.1796904,0.8604966,11.125269,24.419088,23.331736,-21.640709,-43.640446,-6.54923,-6.0102596,10.6124115,-3.5454948,-23.998905,29.203442,-28.206072,12.764831,-16.79486,1.8836578
99,-1.1627191305160522,-121.89427947998047,77.39871215820312,2.8652070285001403,-0.9577288533299866,89.18783548926942,-24.75599,-1.3616886,-10.969166,35.73183,-2.3211913,-11.775628,8.2535,-6.8609805,1.7200775,31.744276,-17.145672,7.0605564,6.102796,0.6747572,11.538889,23.301262,22.936102,-21.805445,-42.962654,-6.5418854,-5.969664,10.725814,-3.370419,-23.766214,29.111013,-27.266043,12.451147,-16.771437,1.874995
100,-1.056543231010437,-123.15540313720703,77.01283264160156,3.2090340053905066,-1.2469751795022335,88.92372752127802,-25.21674,-1.7822801,-10.683986,39.80931,-4.359046,-11.566638,7.7174525,-7.2808957,1.8114867,31.814224,-19.893934,7.6667852,6.039049,0.56628793,11.990048,22.159317,22.556618,-21.95301,-42.287872,-6.422309,-5.92239,10.821316,-3.2069314,-23.504026,29.01034,-26.192558,12.023129,-16.710783,1.8289531
101,-0.9621937870979309,-124.4139404296875,76.60707092285156,3.451647656982156,-1.615339941847893,88.53996539655276,-25.580006,-1.9932947,-10.337405,43.981762,-6.465474,-11.158238,6.813712,-7.5321794,2.139703,32.622284,-22.377508,8.037744,6.0011573,0.5620324,12.532428,20.982315,22.180836,-22.076948,-41.606743,-6.169462,-5.8735228,10.873537,-3.072548,-23.220297,28.897282,-24.963114,11.488687,-16.605019,1.769143
102,-0.8899933695793152,-125.67979431152344,76.19054412841797,3.6272974299000067,-2.0561187082706667,88.06357385228843,-25.839006,-2.0399034,-9.963776,48.251522,-8.602667,-10.667407,5.6348553,-7.6521688,2.6484416,34.01484,-24.794035,8.328378,5.9736423,0.63667357,13.157545,19.733349,21.805506,-22.191763,-40.884815,-5.8183217,-5.8196936,10.896907,-2.940634,-22.91864,28.771097,-23.59418,10.873156,-16.465773,1.6965777
103,-0.8306676745414734,-126.94390106201172,75.77027893066406,3.7395052261214063,-2.478050603628947,87.53113996095075,-26.022203,-1.9036636,-9.541303,52.4441,-10.669928,-10.100176,4.2349744,-7.6481695,3.202239,35.728504,-27.012377,8.515923,5.922275,0.7661487,13.757852,18.45199,21.434023,-22.294744,-40.156166,-5.3844886,-5.7507606,10.927038,-2.7793498,-22.60655,28.647905,-22.142193,10.144015,-16.301262,1.5529741
104,-0.7776167988777161,-128.2074737548828,75.34972381591797,3.789298079859826,-2.7886848762280616,86.97893285542858,-26.161802,-1.5729324,-9.043761,56.38543,-12.571262,-9.463918,2.6664488,-7.545155,3.6710927,37.494484,-28.88997,8.578767,5.8141227,0.92062324,14.22564,17.18194,21.07451,-22.38298,-39.455368,-4.8854537,-5.6562405,11.000553,-2.5559475,-22.294773,28.543766,-20.668667,9.26971,-16.117962,1.2795491
105,-0.7397226691246033,-129.45040893554688,74.95601654052734,3.746746771218944,-2.935048776104966,86.3537583453991,-26.324253,-0.93481904,-8.397534,60.122505,-14.330003,-8.720739,0.819017,-7.3101864,4.0398693,39.3778,-30.368174,8.45923,5.6753383,1.1262373,14.524357,15.957196,20.721205,-22.430986,-38.808117,-4.2454925,-5.513545,11.141685,-2.3165412,-21.992641,28.488241,-19.112446,8.1615715,-15.888298,0.8353383
106,-0.7109447717666626,-130.67221069335938,74.60855102539062,3.6198249057374166,-2.977047425559573,85.65749575463404,-26.468918,-0.0298001,-7.652615,63.72665,-15.992749,-7.8751864,-1.2860707,-6.9385643,4.374343,41.456776,-31.516527,8.200151,5.509175,1.3863946,14.715469,14.749738,20.37172,-22.444113,-38.193798,-3.48249,-5.3330665,11.322893,-2.0532713,-21.703348,28.466845,-17.478256,6.8671126,-15.610736,0.26003817
107,-0.6787824034690857,-131.8704071044922,74.30992889404297,3.475299040626242,-2.988414444028352,85.00857237857191,-26.48529,0.9090613,-6.9511123,67.08176,-17.495733,-7.0025053,-3.402181,-6.521999,4.6694856,43.483395,-32.38062,7.924251,5.2600656,1.6325076,14.837928,13.506883,20.049593,-22.477568,-37.585667,-2.7576616,-5.1553288,11.509109,-1.6436514,-21.428974,28.418911,-15.930312,5.55798,-15.332162,-0.38565263
108,-0.6371520757675171,-133.0319366455078,74.06083679199219,3.381847054926901,-3.040275670726129,84.52569211151197,-26.27428,1.6374422,-6.4190173,70.07274,-18.77021,-6.1825047,-5.2867126,-6.156254,4.924621,45.21787,-33.012424,7.7470155,4.8834753,1.7898518,14.932832,12.179422,19.795439,-22.599388,-36.969112,-2.2355003,-5.0236373,11.673988,-0.95203996,-21.172552,28.271877,-14.649843,4.4044566,-15.105873,-1.0430988
109,-0.5923764109611511,-134.16250610351562,73.85289001464844,3.3787104989656545,-3.1502110348793515,84.23574843459957,-25.808117,2.076475,-6.051319,72.68633,-19.777037,-5.411019,-6.9007463,-5.8776383,5.172714,46.646614,-33.403717,7.705412,4.390575,1.8163184,15.024548,10.740374,19.640875,-22.857712,-36.356297,-1.9622167,-4.946328,11.843932,0.12662211,-20.931154,27.97269,-13.714225,3.3546467,-14.940891,-1.7782125
110,-0.5383390188217163,-135.2575225830078,73.68637084960938,3.4221880380889145,-3.2785503291306726,84.07622050513466,-25.151663,2.3492508,-5.776847,74.99107,-20.559538,-4.656653,-8.365291,-5.638681,5.4068255,47.879616,-33.533527,7.731755,3.820172,1.7484651,15.090485,9.229525,19.591787,-23.233856,-35.78187,-1.8603275,-4.90395,12.038632,1.5280108,-20.704214,27.55031,-13.053646,2.3525443,-14.809957,-2.594917
111,-0.485074520111084,-136.3249969482422,73.56111907958984,3.4642454085244174,-3.4087163796493556,84.03251756569587,-24.353178,2.5085652,-5.6135473,76.99475,-21.166481,-3.962841,-9.682766,-5.4208307,5.56962,48.87477,-33.442646,7.7817492,3.1655855,1.6299211,15.102082,7.6997223,19.646017,-23.695576,-35.26751,-1.9094391,-4.899754,12.221383,3.1307688,-20.4995,27.058086,-12.627363,1.5612922,-14.723777,-3.3470035
112,-0.4363805651664734,-137.3674774169922,73.48222351074219,3.451395489958758,-3.5251050336033543,84.09064029656163,-23.460443,2.604814,-5.578366,78.70316,-21.645283,-3.3760746,-10.856115,-5.2074294,5.602889,49.589912,-33.17151,7.8113694,2.4169948,1.5084703,15.033363,6.20205,19.797428,-24.206009,-34.833244,-2.087035,-4.9364743,12.352112,4.8160095,-20.33006,26.549881,-12.400383,1.1437672,-14.699027,-3.8903723
113,-0.384999543428421,-138.38668823242188,73.45206451416016,3.3698596109398444,-3.6389647809560963,84.29326195604216,-22.463102,2.5968084,-5.7261143,80.11982,-21.984844,-2.9194365,-11.86677,-5.0098886,5.452458,50.031094,-32.714935,7.812969,1.5258247,1.3961419,14.881325,4.7204027,20.049568,-24.776121,-34.485447,-2.4532824,-5.0260515,12.428205,6.6030664,-20.204191,26.035023,-12.415483,1.2985998,-14.772288,-4.180728
114,-0.3365887701511383,-139.37945556640625,73.47489166259766,3.247217429606441,-3.752452402751206,84.63251592022192,-21.348719,2.4707358,-6.0219297,81.246185,-22.163925,-2.5706296,-12.721604,-4.8369493,5.164242,50.216923,-32.05673,7.80367,0.510541,1.2733346,14.662665,3.2397323,20.400887,-25.426926,-34.226433,-3.0016947,-5.1640797,12.467982,8.550181,-20.119259,25.488934,-12.696111,1.891548,-14.931966,-4.298676
115,-0.28684550523757935,-140.35997009277344,73.55770874023438,3.095960493044488,-3.8362215717539994,85.0187739995484,-20.160494,2.3158672,-6.3464293,82.07957,-22.207844,-2.3066688,-13.458988,-4.671722,4.8231645,50.118412,-31.220835,7.7846136,-0.54355437,1.1448241,14.381318,1.809354,20.8317,-26.12544,-34.06173,-3.605798,-5.327584,12.45747,10.583428,-20.07049,24.917288,-13.15818,2.584507,-15.123306,-4.2878237
116,-0.24918778240680695,-141.31259155273438,73.69072723388672,2.9308591730381366,-3.861639617098465,85.36212634316001,-18.941694,2.218095,-6.580615,82.616806,-22.146048,-2.1047823,-14.11607,-4.49463,4.5150414,49.703445,-30.229158,7.7563453,-1.5593508,1.0175692,14.037916,0.47830138,21.313032,-26.82477,-33.982838,-4.13448,-5.492717,12.37779,12.615293,-20.052425,24.333822,-13.699428,3.0352662,-15.290299,-4.1964273
117,-0.21181362867355347,-142.26072692871094,73.87506866455078,2.742169713283975,-3.81135375458778,85.67645660453103,-17.705465,2.2023077,-6.712892,82.86055,-21.953913,-1.936448,-14.68474,-4.304915,4.211831,48.9245,-29.096266,7.705696,-2.5529046,0.90575594,13.596418,-0.78200483,21.831625,-27.527554,-33.952393,-4.555471,-5.6638885,12.18512,14.645385,-20.064735,23.7363,-14.308057,3.1636174,-15.420335,-3.9984617
118,-0.1913318932056427,-143.1952667236328,74.1116714477539,2.526874317013494,-3.70378316499903,85.99669473892911,-16.430792,2.2147827,-6.7953033,82.81348,-21.625486,-1.8225138,-15.149555,-4.1132417,3.8824732,47.809566,-27.807962,7.6379285,-3.5593562,0.8142647,13.065638,-1.9973184,22.384325,-28.248983,-33.963985,-4.932673,-5.8481507,11.89568,16.706623,-20.104103,23.123337,-15.020904,3.1484413,-15.541014,-3.6834183
119,-0.18449366092681885,-144.12152099609375,74.39584350585938,2.3126160732673817,-3.564176833096752,86.265314401834,-15.109544,2.2210248,-6.806011,82.471695,-21.21818,-1.8131036,-15.535376,-3.913782,3.6066236,46.440296,-26.34209,7.5823164,-4.534811,0.73276,12.5100565,-3.1110075,22.955904,-28.951149,-34.05467,-5.2733707,-6.0259576,11.578558,18.743336,-20.159983,22.513248,-15.78274,3.0313988,-15.6612,-3.325602
120,-0.19146621227264404,-145.04551696777344,74.72132110595703,2.124867210841111,-3.418634736452853,86.42548275173353,-13.7337675,2.1847348,-6.7256403,81.82928,-20.788372,-1.957577,-15.866312,-3.6975138,3.463743,44.89568,-24.674541,7.5674453,-5.4389086,0.6455192,11.988837,-4.0697513,23.525446,-29.590885,-34.244884,-5.5826654,-6.178027,11.2998495,20.687311,-20.219109,21.929602,-16.521036,2.8502994,-15.789808,-2.9994256
121,-0.1996975839138031,-145.9763946533203,75.08258819580078,1.9572197343734365,-3.2725518548672334,86.45546521913067,-12.269374,2.1268306,-6.52769,80.84534,-20.382164,-2.2845814,-16.133942,-3.4371645,3.471676,43.155323,-22.777794,7.5683775,-6.2586927,0.55024797,11.49828,-4.873916,24.079105,-30.162281,-34.50614,-5.8378925,-6.303355,11.058259,22.520088,-20.278063,21.364212,-17.199528,2.5284293,-15.93458,-2.7053134
122,-0.2319498509168625,-146.901611328125,75.47598266601562,1.8013954820533502,-3.1131843074123444,86.38866319141464,-10.732842,2.0483027,-6.2336135,79.53478,-19.961552,-2.7586644,-16.32715,-3.140583,3.5837827,41.185402,-20.669785,7.580501,-7.0150886,0.45348692,11.006089,-5.566149,24.61451,-30.687174,-34.803627,-6.0380497,-6.4103484,10.819948,24.271212,-20.338596,20.80409,-17.843225,2.0692177,-16.090212,-2.410692
123,-0.27019715309143066,-147.8431854248047,75.8897476196289,1.6755218262419218,-2.9410570872858215,86.25094743083272,-9.192276,1.8844721,-5.9001365,77.977165,-19.455013,-3.3324008,-16.466526,-2.8511627,3.7870739,39.04301,-18.391743,7.6627007,-7.7180066,0.3462422,10.525894,-6.157183,25.13011,-31.162159,-35.15002,-6.2214456,-6.493407,10.603326,25.939283,-20.39582,20.267603,-18.47365,1.6288424,-16.24393,-2.138384
124,-0.3178107440471649,-148.790283203125,76.31671142578125,1.6006331453178502,-2.755731885397338,86.06857057419158,-7.716056,1.5741459,-5.588316,76.24991,-18.791258,-3.960838,-16.57442,-2.613658,4.074661,36.785446,-15.982454,7.8741403,-8.379856,0.21726757,10.070086,-6.6523757,25.62603,-31.581509,-35.559082,-6.424641,-6.546795,10.426116,27.513884,-20.441418,19.778812,-19.09993,1.3619182,-16.380718,-1.9100056
125,-0.38114264607429504,-149.74684143066406,76.75373840332031,1.5726670334023534,-2.5441158448671835,85.82972989055828,-6.3121734,1.0849303,-5.3235946,74.31548,-17.931692,-4.705674,-16.686506,-2.3933823,4.52052,34.432537,-13.363164,8.08162,-8.994861,0.0671896,9.632,-7.0427327,26.102047,-31.93259,-36.03402,-6.64416,-6.5541916,10.27745,28.974665,-20.472647,19.340132,-19.703722,1.3286189,-16.492111,-1.7407696
126,-0.4555058777332306,-150.7179412841797,77.18684387207031,1.5846907523166223,-2.310350199355825,85.52775019899553,-4.949196,0.45760322,-5.0887794,72.14859,-16.926971,-5.5633287,-16.78205,-2.1842346,5.1065636,31.9514,-10.54201,8.303877,-9.556468,-0.10488322,9.206426,-7.333384,26.559195,-32.224163,-36.558434,-6.863021,-6.523355,10.152993,30.330656,-20.49288,18.935863,-20.2807,1.4363897,-16.58573,-1.6134489
127,-0.5320966839790344,-151.69937133789062,77.60697937011719,1.651290634326936,-2.081898139872433,85.19682160555412,-3.6313117,-0.260867,-4.877251,69.84229,-15.834801,-6.393664,-16.78805,-2.0689385,5.710347,29.298372,-7.6731834,8.830406,-10.076039,-0.31673467,8.807165,-7.556166,27.001463,-32.482624,-37.118526,-7.103788,-6.4846187,10.080538,31.614195,-20.502522,18.564617,-20.861536,1.6103629,-16.670938,-1.5003309
128,-0.6137667894363403,-152.68807983398438,78.00790405273438,1.7960818580938724,-1.8875717238187497,84.87278753068935,-2.3594084,-1.0317571,-4.6730065,67.489105,-14.704997,-7.0579815,-16.615803,-2.1273973,6.2307963,26.401012,-4.893214,9.954197,-10.566728,-0.5937807,8.448149,-7.739004,27.434504,-32.735435,-37.705315,-7.387841,-6.468381,10.088215,32.857735,-20.499237,18.225166,-21.474539,1.7748257,-16.757765,-1.3738157
129,-0.7088840007781982,-153.68508911132812,78.37091827392578,2.0723690229659733,-1.7347473191572491,84.55302210840915,-1.1153246,-1.9360132,-4.476878,65.05319,-13.483266,-7.562505,-16.149193,-2.4357166,6.7159243,22.979605,-2.0477524,11.9315605,-11.027183,-0.9948747,8.125514,-7.8725233,27.86237,-32.991085,-38.340893,-7.725946,-6.470999,10.221173,34.071117,-20.483973,17.914734,-22.135334,1.9258919,-16.846443,-1.2349839
130,-0.8018383979797363,-154.69113159179688,78.6880874633789,2.4914244712751583,-1.6172022964459078,84.23177467502734,0.11513954,-3.0043616,-4.298018,62.48144,-12.146826,-7.960137,-15.413873,-2.9646266,7.249047,19.059967,0.9303038,14.564978,-11.4596,-1.5349923,7.834637,-7.94303,28.28781,-33.234802,-39.028923,-8.105484,-6.481006,10.452183,35.246964,-20.457226,17.633055,-22.835655,2.0970304,-16.932379,-1.0956392
131,-0.8528512716293335,-155.6909942626953,78.93550872802734,2.723820666262416,-1.5825380247979715,83.88551153969917,1.3574532,-3.7702122,-4.2091837,59.994785,-10.93766,-8.30298,-14.256414,-3.2174687,7.2470512,14.568163,4.0484,15.000033,-11.825238,-1.9259269,7.680521,-7.97947,28.717846,-33.463608,-39.733063,-8.516352,-6.5151668,10.6995125,36.40215,-20.415981,17.378626,-23.58318,2.266636,-17.016197,-0.9428806
132,-0.9094101190567017,-156.69302368164062,79.11138153076172,2.954697536185763,-1.609905372831383,83.58542663657242,2.5676146,-4.4090943,-4.089263,57.581444,-9.85548,-8.431242,-13.016647,-3.4780686,7.021505,10.263794,6.833227,15.000033,-12.177307,-2.3271537,7.6072593,-8.006813,29.159107,-33.67322,-40.419376,-8.9464655,-6.59126,10.883557,37.533596,-20.353373,17.154795,-24.360483,2.4136147,-17.10014,-0.7633085
133,-0.9728890657424927,-157.69940185546875,79.22434997558594,3.246568274591477,-1.6919590960091597,83.33757052916565,3.756758,-4.9903336,-3.9032001,55.179302,-8.867415,-8.286231,-11.932037,-3.7986193,6.555698,6.6014853,8.9474745,15.000033,-12.519032,-2.7948024,7.5929217,-8.030687,29.618305,-33.86315,-41.094955,-9.420577,-6.7283125,10.981263,38.66602,-20.263605,16.954391,-25.187769,2.5294447,-17.190834,-0.54046607
134,-1.0227434635162354,-158.73629760742188,79.28961181640625,3.570797368800763,-1.8146537399919522,83.1130777906119,4.9146175,-5.513039,-3.660737,52.780575,-7.9474635,-7.9311485,-12.405782,-3.9605021,6.002029,6.4902906,8.920656,15.000033,-12.829181,-3.3015022,7.6344895,-8.034949,30.097496,-34.035904,-41.782326,-9.9371805,-6.912646,11.03763,39.782894,-20.147331,16.777466,-26.052153,2.624754,-17.28605,-0.2829629
135,-1.0753272771835327,-159.79409790039062,79.32254028320312,3.766470242258683,-1.9290576722196144,82.90194016371706,5.9434195,-5.806467,-3.3597171,50.509686,-7.1554894,-7.453895,-12.782731,-4.0415297,5.4455476,6.3896694,8.770945,15.000033,-13.115883,-3.6398532,7.701824,-8.111982,30.41996,-34.198803,-42.277107,-10.422454,-7.1052265,11.039175,40.791454,-20.054113,16.652895,-26.85739,2.7132826,-17.3751,-0.03639865
136,-1.1522777080535889,-160.8663330078125,79.31214141845703,3.8588524941399616,-1.9865944995388178,82.70138082867953,6.7696447,-5.911521,-2.9592075,48.39985,-6.489511,-6.905772,-13.129203,-4.1075573,5.131112,6.416034,8.580457,15.000033,-13.3259945,-3.8700798,7.8061833,-8.104356,30.894255,-34.367527,-42.873486,-10.858207,-7.2993903,11.0977545,41.612137,-19.889402,16.552446,-27.557173,2.809071,-17.451998,0.22195937
137,-1.268069863319397,-161.95724487304688,79.2777328491211,3.7571777445720778,-1.9727027286947603,82.51833803515612,7.3641505,-5.7133503,-2.4337718,46.469734,-5.893261,-6.3436666,-13.410698,-4.0790076,5.211095,6.506592,8.332852,15.000033,-13.53692,-3.8354154,7.900963,-8.163998,31.18995,-34.493515,-43.245766,-11.210051,-7.480849,11.12053,42.20536,-19.764706,16.537853,-28.09331,2.9115338,-17.507324,0.43213353
138,-1.4072527885437012,-163.07559204101562,79.21981048583984,3.45614681565245,-1.9082270859177182,82.3444403903125,7.758133,-5.2206583,-1.7899399,44.714,-5.4059815,-5.7432585,-13.601052,-3.9253278,5.507868,6.6033792,8.014972,15.000033,-13.6648035,-3.607596,8.066257,-8.140822,31.660944,-34.62071,-43.74162,-11.535385,-7.6872177,11.195922,42.593643,-19.522757,16.554956,-28.493628,2.9999056,-17.553415,0.6671817
139,-1.5578396320343018,-164.21424865722656,79.12261199951172,3.040809447436445,-1.8076850377822247,82.16583709675383,7.970527,-4.567399,-1.0772119,43.15864,-5.184839,-5.0454803,-13.726376,-3.7050235,5.724801,6.7605963,7.7413473,15.000033,-13.752262,-3.2478757,8.249164,-8.114438,32.07162,-34.719856,-44.118847,-11.79703,-7.864246,11.247363,42.76035,-19.277699,16.64395,-28.740225,3.08295,-17.589523,0.8898245
140,-1.707110047340393,-165.3647918701172,78.96929168701172,2.544613201857863,-1.6985500117783068,81.97864303738606,8.024626,-3.8260617,-0.37498027,41.851818,-5.399579,-4.199784,-14.496864,-3.3529959,5.57869,8.545208,6.803691,15.000033,-13.78374,-2.8124793,8.4614525,-8.077309,32.425472,-34.82442,-44.361946,-11.973692,-7.980852,11.283346,42.71384,-19.039751,16.794466,-28.842592,3.1670742,-17.621054,1.1050432
141,-1.8496639728546143,-166.53306579589844,78.7566909790039,1.980140736964949,-1.5785534003581925,81.77950743702318,7.913833,-2.987185,0.35597855,40.76775,-6.002051,-2.960197,-16.349506,-2.8861601,4.903168,12.920039,4.7220664,15.000033,-13.761059,-2.317582,8.699901,-8.01872,32.724007,-34.92565,-44.478256,-12.031821,-8.010566,11.293572,42.448853,-18.817839,17.018845,-28.808815,3.271098,-17.651678,1.313852
142,-1.9925047159194946,-167.72186279296875,78.48086547851562,1.4011242353295523,-1.459291374419598,81.5919348796179,7.6642942,-2.1093805,1.108417,39.864544,-6.926954,-1.4251243,-18.166704,-2.552664,3.8724623,17.533503,2.6550875,15.000033,-13.708571,-1.8086035,8.96163,-7.94192,32.97099,-35.018417,-44.478584,-11.99195,-7.975298,11.281695,41.99857,-18.61258,17.312046,-28.666206,3.3898182,-17.677137,1.5115587
143,-2.1340699195861816,-168.91871643066406,78.15449523925781,0.8851619409903805,-1.3864266747897944,81.45423709312726,7.3533096,-1.3402277,1.7194453,39.13723,-8.280813,-0.055749495,-19.92986,-2.4320846,2.7823927,22.403101,0.53582585,15.000033,-13.659433,-1.3747718,9.259428,-7.848707,33.17475,-35.114872,-44.363815,-11.921007,-7.9149823,11.26663,41.39457,-18.4201,17.65158,-28.423933,3.487803,-17.690895,1.693764
144,-2.269059896469116,-170.1252899169922,77.77177429199219,0.46808026454603213,-1.394373624710331,81.39550691577942,7.040516,-0.7629022,2.0367746,38.584267,-10.149838,0.69096893,-21.53794,-2.5103223,1.9031818,27.345089,-1.5889024,15.000033,-13.636201,-1.0586268,9.609124,-7.746425,33.344864,-35.226757,-44.1312,-11.889864,-7.870621,11.269014,40.658474,-18.232428,18.013536,-28.080126,3.530494,-17.686823,1.8571593
145,-2.398428440093994,-171.34774780273438,77.32441711425781,0.09792090330761831,-1.4941084136570573,81.40726683792823,6.7792525,-0.31728056,1.9947608,38.165844,-12.821329,0.5647302,-23.006536,-2.7175963,1.2265085,32.452354,-3.7318234,15.000033,-13.631077,-0.82047,10.034848,-7.638301,33.488274,-35.36257,-43.772243,-11.966689,-7.884326,11.298159,39.770046,-18.050968,18.398909,-27.622383,3.508215,-17.663227,2.0329843
146,-2.5279088020324707,-172.5501251220703,76.85052490234375,-0.2463512241838481,-1.663799800376428,81.48112572666354,6.5089936,0.078032695,1.7202737,37.90216,-16.14646,-0.124195166,-24.350548,-3.0390804,0.6562863,37.740295,-5.894511,15.000033,-13.640236,-0.6305075,10.527851,-7.512259,33.60744,-35.50939,-43.30145,-12.099285,-7.9252157,11.343904,38.719074,-17.874367,18.817713,-27.048706,3.4404702,-17.624376,2.2125254
147,-2.6466221809387207,-173.75497436523438,76.34818267822266,-0.5174950282639726,-1.8795413291480745,81.63354156777795,6.104292,0.40285516,1.3535538,37.903725,-19.56716,-0.99295163,-25.495968,-3.457253,0.29486227,42.930004,-8.008662,15.000033,-13.67231,-0.5190772,11.053975,-7.35542,33.702915,-35.656006,-42.749165,-12.172261,-7.925115,11.399157,37.53793,-17.686495,19.250938,-26.371922,3.3339653,-17.573187,2.336488
148,-2.7579705715179443,-174.9498748779297,75.83067321777344,-0.6675137704406935,-2.115246676286254,81.87540728877974,5.4481955,0.60589343,0.9847495,38.276928,-22.532265,-1.6719543,-26.394909,-3.9433846,0.22185439,47.782677,-10.019935,15.000033,-13.723278,-0.51597863,11.577158,-7.1651635,33.773346,-35.799763,-42.13781,-12.071422,-7.815489,11.457285,36.2584,-17.461735,19.674633,-25.596312,3.1925657,-17.512796,2.3487296
149,-2.8450136184692383,-176.15708923339844,75.30747985839844,-0.6824629161532018,-2.4001134473991286,82.23003204515761,4.4830136,0.6488712,0.545677,39.166958,-24.989094,-2.1232672,-27.057684,-4.4619575,0.49099356,52.380848,-11.988199,15.000033,-13.798068,-0.64825004,12.131698,-6.9955945,33.819473,-35.968628,-41.42818,-11.790789,-7.54727,11.523346,34.863594,-17.173027,20.073545,-24.675745,3.0323858,-17.44707,2.248821
150,-2.910781145095825,-177.36209106445312,74.78673553466797,-0.6027825561613039,-2.731891888635889,82.67404437906228,3.27104,0.5663495,0.018391768,40.504097,-27.227493,-2.5254574,-27.528183,-4.9863586,1.0157756,56.85041,-13.936034,15.000033,-13.868695,-0.8845487,12.719478,-6.8512974,33.840332,-36.175354,-40.60706,-11.384475,-7.1669717,11.598247,33.337673,-16.811447,20.44614,-23.604744,2.840068,-17.373055,2.070014
151,-2.9777398109436035,-178.5620880126953,74.29285430908203,-0.4629124087781542,-3.0368181769499585,83.14872183318852,1.8904616,0.40109655,-0.47600594,42.041485,-29.196526,-2.8449938,-27.8288,-5.513474,1.653485,61.04663,-15.758428,15.000033,-13.886505,-1.1618595,13.255695,-6.6498613,33.82941,-36.391365,-39.747868,-10.825667,-6.748964,11.666907,31.71823,-16.385881,20.790932,-22.463963,2.5766006,-17.282255,1.8044897
152,-3.0459375381469727,-179.74380493164062,73.84396362304688,-0.3730192873010626,-3.238317899839173,83.57098765675325,0.40040967,0.31164134,-0.8203071,43.58018,-30.871138,-3.072799,-27.973192,-5.983727,2.1648924,64.78089,-17.322346,14.750472,-13.78746,-1.3397405,13.672708,-6.3023233,33.777473,-36.57926,-38.924324,-10.085949,-6.3675723,11.714311,30.043415,-15.919477,21.110382,-21.336882,2.2067783,-17.165438,1.4409114
153,-3.1027519702911377,-180.90414428710938,73.45368194580078,-0.25498679089288945,-3.2705252219754044,83.97992737174884,-1.2700771,0.20657018,-0.98022175,45.083576,-32.158184,-3.1355176,-28.04573,-6.5299554,2.5577025,68.09864,-18.633793,14.198042,-13.613082,-1.4738688,13.88801,-5.7775025,33.67238,-36.728542,-38.110935,-9.029419,-6.0252204,11.729105,28.303762,-15.421402,21.412846,-20.196638,1.6465102,-16.995245,0.8864511
154,-3.137023687362671,-182.02236938476562,73.1240234375,-0.07000174407710366,-3.189434432489542,84.40574233132891,-3.1147854,0.02672773,-1.0295349,46.623596,-33.080967,-3.05966,-28.032091,-7.1534295,2.9875324,71.10925,-19.76986,13.727191,-13.3874,-1.6154534,13.955598,-5.1308937,33.509876,-36.859016,-37.271187,-7.7130265,-5.687763,11.715809,26.497646,-14.894715,21.681955,-19.03092,0.9452039,-16.778355,0.17532624
155,-3.155134916305542,-183.101806640625,72.8455810546875,0.10970224317328826,-3.1026612323198366,84.7890732107324,-4.933903,-0.14096425,-1.0325489,48.086815,-33.73,-2.9552948,-27.82972,-7.736902,3.4219162,73.78828,-20.747507,13.304555,-13.069898,-1.71902,13.988031,-4.3840156,33.297077,-36.96755,-36.482788,-6.394969,-5.375449,11.688355,24.671553,-14.361141,21.904062,-17.952034,0.2688655,-16.562597,-0.5182338
156,-3.1628901958465576,-184.1615753173828,72.61595916748047,0.21254157991428435,-3.116389840712577,85.06975605535305,-6.5276666,-0.211687,-1.0557301,49.36232,-34.19781,-2.9310122,-27.334812,-8.1638155,3.8261485,76.10793,-21.582293,12.893989,-12.629959,-1.7356095,14.097902,-3.5418441,33.051414,-37.03396,-35.83698,-5.337244,-5.1088223,11.664746,22.864197,-13.856554,22.085608,-17.06701,-0.21606556,-16.40348,-1.0251597
157,-3.1690073013305664,-185.2010040283203,72.4307861328125,0.1900015298765854,-3.282964325719373,85.23469006371299,-7.8426933,-0.14207762,-1.1385195,50.475376,-34.49171,-3.0201564,-26.458385,-8.382287,4.1664257,78.03739,-22.272675,12.514902,-12.0817375,-1.6174525,14.350517,-2.5310276,32.78613,-37.01371,-35.409046,-4.584218,-4.8860655,11.682709,21.066837,-13.40515,22.254345,-16.421253,-0.48625126,-16.329483,-1.2915655
158,-3.1812868118286133,-186.2266082763672,72.29629516601562,0.08911638953371234,-3.536430552264825,85.31600996501302,-8.986015,0.015662042,-1.2437633,51.465866,-34.567074,-3.1610036,-25.280928,-8.469818,4.467583,79.60733,-22.814262,12.175176,-11.457639,-1.3930209,14.674053,-1.3338307,32.50773,-36.899765,-35.17562,-4.0071173,-4.700037,11.726805,19.261951,-13.012936,22.431,-15.963221,-0.6148602,-16.31088,-1.4191275
159,-3.192063331604004,-187.22962951660156,72.21460723876953,-0.0199121668569945,-3.8047260098720757,85.32150010372538,-9.99916,0.20273444,-1.3216174,52.247097,-34.439888,-3.3207843,-23.955763,-8.498782,4.7817197,80.885895,-23.21193,11.819953,-10.757048,-1.1268733,14.976111,-0.030583905,32.22522,-36.72245,-35.086357,-3.605707,-4.5638247,11.738787,17.4695,-12.6872015,22.622204,-15.647891,-0.5806836,-16.319836,-1.4739166
160,-3.186624050140381,-188.210205078125,72.1830062866211,-0.06873081647127334,-4.016396147291452,85.25769081495466,-10.9244585,0.3609065,-1.3203679,52.736115,-34.129402,-3.4665396,-22.634724,-8.541025,5.1593103,81.93615,-23.47396,11.397725,-9.973605,-0.887286,15.167018,1.295153,31.94804,-36.5157,-35.0884,-3.3788183,-4.490999,11.66072,15.715785,-12.436836,22.82696,-15.43678,-0.3633198,-16.327772,-1.520879
161,-3.174255132675171,-189.1729736328125,72.20291900634766,-0.037689296505703324,-4.162041845744208,85.08003363156203,-11.752114,0.49411,-1.1865101,52.908092,-33.633167,-3.5878217,-21.336546,-8.573377,5.659722,82.76199,-23.588278,10.899757,-9.057974,-0.686656,15.232115,2.6583974,31.68124,-36.27369,-35.22064,-3.3893766,-4.4984546,11.459361,13.994015,-12.275694,23.050554,-15.359182,0.11469535,-16.336363,-1.5609058
162,-3.159599781036377,-190.11700439453125,72.27479553222656,0.0356342257484544,-4.2762779257160375,84.80018662066738,-12.4675455,0.6301461,-0.96049434,52.81129,-32.94437,-3.7025309,-19.993786,-8.574575,6.2386165,83.34129,-23.553038,10.351734,-8.034573,-0.49189782,15.218648,4.1066194,31.425735,-35.973392,-35.5165,-3.619141,-4.5742593,11.173825,12.2987585,-12.206487,23.306843,-15.435571,0.82412726,-16.357275,-1.5670017
163,-3.1341724395751953,-191.05238342285156,72.39810943603516,0.13986855451691385,-4.352585845247751,84.50821052031287,-13.099836,0.747123,-0.72765666,52.45731,-32.073357,-3.8232136,-18.623095,-8.611664,6.7843328,83.684395,-23.395046,9.752918,-6.999825,-0.3088358,15.132565,5.5944166,31.18433,-35.63118,-35.90315,-3.9455197,-4.688326,10.854792,10.657701,-12.21588,23.59746,-15.609954,1.6208264,-16.377928,-1.5601245
164,-3.0964419841766357,-191.9754180908203,72.57363891601562,0.2611601577455793,-4.385312311488597,84.29426255171617,-13.675614,0.8207202,-0.5727941,51.854362,-31.030561,-3.962227,-17.24261,-8.751862,7.1848516,83.80344,-23.141567,9.102546,-6.042192,-0.14560866,14.979871,7.0653706,30.960068,-35.273098,-36.29508,-4.2453394,-4.8117805,10.554288,9.098088,-12.280692,23.912855,-15.818604,2.3561347,-16.386957,-1.5583446
165,-3.041311740875244,-192.8937225341797,72.79895782470703,0.4174514378141878,-4.362380637748723,84.1575566159192,-14.191798,0.8304168,-0.48741332,50.968525,-29.81389,-4.1207485,-15.863844,-9.050022,7.4139733,83.70363,-22.79351,8.370893,-5.149948,-0.02331644,14.736269,8.513436,30.756723,-34.9177,-36.681515,-4.532597,-4.966898,10.2847595,7.5997562,-12.388793,24.262068,-16.027628,3.0203283,-16.380291,-1.5814276
166,-2.9711050987243652,-193.8033447265625,73.07220458984375,0.6085879583079683,-4.290656336613647,84.05806670386896,-14.634479,0.7910787,-0.43450838,49.80376,-28.41982,-4.2926784,-14.47848,-9.456291,7.5230336,83.383606,-22.34052,7.5667734,-4.281244,0.059015,14.408476,9.962741,30.575005,-34.55249,-37.101585,-4.8583846,-5.158259,10.019502,6.1498857,-12.537434,24.64342,-16.264801,3.6774561,-16.364864,-1.6110483
167,-2.8800644874572754,-194.7128143310547,73.3910903930664,0.7953565802373022,-4.1929754478479015,84.02733088960444,-15.018255,0.72859925,-0.4558396,48.429783,-26.848269,-4.478975,-13.067922,-9.864803,7.5134706,82.83724,-21.793776,6.745681,-3.4749982,0.12859893,14.048927,11.392568,30.411877,-34.163277,-37.53213,-5.153925,-5.3322253,9.752882,4.789072,-12.713862,25.023142,-16.554626,4.287476,-16.345106,-1.60789
168,-2.770449161529541,-195.62661743164062,73.74694061279297,0.9399869883630293,-4.092273046089436,84.09640367005474,-15.35963,0.67027944,-0.59480274,46.919712,-25.100033,-4.6808867,-11.615329,-10.1707535,7.391927,82.06406,-21.158192,5.9637475,-2.7664587,0.2148654,13.7070465,12.774328,30.261318,-33.740894,-37.94233,-5.3499274,-5.4357333,9.480362,3.555401,-12.899241,25.361843,-16.918842,4.807765,-16.325106,-1.5308881
169,-2.6486570835113525,-196.53948974609375,74.13929748535156,1.0359399587579903,-3.9969372258012976,84.28118766584188,-15.642597,0.6145204,-0.8762143,45.255356,-23.168034,-4.8914332,-10.096428,-10.377753,7.1296,81.05482,-20.39425,5.1633797,-2.1738005,0.32062277,13.382707,14.112081,30.121044,-33.276283,-38.309036,-5.4142375,-5.4324265,9.191306,2.4498727,-13.082537,25.646675,-17.343605,5.200279,-16.301723,-1.3427117
170,-2.508496046066284,-197.45901489257812,74.55579376220703,1.103378721344312,-3.8940621662538453,84.56211386107856,-15.864826,0.5481237,-1.2731537,43.409725,-21.054115,-5.1129127,-8.52601,-10.52331,6.7309723,79.81732,-19.514128,4.336177,-1.6722287,0.4306063,13.051157,15.410627,29.990774,-32.779335,-38.643154,-5.3869214,-5.3586216,8.891855,1.4445149,-13.262085,25.893946,-17.8051,5.490939,-16.273432,-1.0707722
171,-2.354435682296753,-198.3907928466797,74.99526977539062,1.1423972304643841,-3.7750109867291606,84.91696078131166,-16.066402,0.47960103,-1.7550106,41.445103,-18.772718,-5.3603525,-6.949687,-10.554848,6.2643723,78.37841,-18.598846,3.6148505,-1.2306045,0.5464152,12.720728,16.637644,29.86531,-32.27479,-38.9525,-5.304018,-5.2699337,8.603035,0.53223395,-13.435504,26.103941,-18.306631,5.7321596,-16.245525,-0.76986325
172,-2.187145471572876,-199.3336181640625,75.44670867919922,1.1527244254380293,-3.630781051456629,85.32292829741114,-16.286627,0.41999307,-2.2931807,39.421593,-16.336395,-5.6490874,-5.4117346,-10.415662,5.805844,76.75686,-17.727827,3.1337368,-0.81565386,0.6713085,12.397644,17.752127,29.735893,-31.793129,-39.23482,-5.201303,-5.2213774,8.345482,-0.29355812,-13.600615,26.275343,-18.845703,5.976235,-16.223423,-0.49446025
173,-2.009941339492798,-200.2897491455078,75.90158081054688,1.129106599776313,-3.454274552264053,85.79410057078574,-16.525915,0.3796287,-2.9117486,37.315872,-13.710903,-5.9983144,-3.9035459,-10.051237,5.385505,74.91336,-16.893717,2.946432,-0.42983684,0.8136082,12.073391,18.727695,29.59665,-31.346533,-39.456806,-5.073457,-5.2365975,8.12724,-1.0155184,-13.753622,26.394253,-19.429161,6.2097716,-16.21485,-0.24205597
174,-1.8258143663406372,-201.25677490234375,76.35201263427734,1.0729549493031691,-3.2510599231816983,86.3352075151963,-16.765886,0.35140258,-3.623116,35.10696,-10.901189,-6.3971477,-2.4125497,-9.50259,4.981607,72.84815,-16.06424,2.9727118,-0.08500151,0.9717841,11.744035,19.578455,29.44558,-30.92382,-39.61069,-4.9039187,-5.2827897,7.9354925,-1.6399227,-13.894539,26.461733,-20.045263,6.4122868,-16.214539,0.012073498
175,-1.6394439935684204,-202.23977661132812,76.79088592529297,1.0008158198294488,-3.0309085015313424,86.90902355467782,-17.020355,0.32215765,-4.381728,32.862087,-7.9778366,-6.8169103,-0.9753692,-8.860829,4.5923276,70.63585,-15.279991,3.1456647,0.23639257,1.1340948,11.422951,20.324234,29.27936,-30.519087,-39.734493,-4.7124996,-5.3296957,7.7588263,-2.2079008,-14.02934,26.501808,-20.67321,6.6261864,-16.209078,0.24604803
176,-1.4535107612609863,-203.236083984375,77.21034240722656,0.9304918758037463,-2.8038543960126585,87.47858232361781,-17.301613,0.28074,-5.139572,30.645517,-5.0087247,-7.2292852,0.37367198,-8.217616,4.2088976,68.352264,-14.581331,3.4040658,0.55139285,1.2905049,11.124672,20.985643,29.09319,-30.126867,-39.870304,-4.5186424,-5.3470325,7.585157,-2.7566302,-14.166767,26.540081,-21.294651,6.895109,-16.184587,0.4361849
177,-1.2676130533218384,-204.2479248046875,77.59699249267578,0.8531886253493216,-2.569024245322036,88.06484504371386,-17.622828,0.22772054,-5.917683,28.416395,-1.8085388,-7.638801,1.6505833,-7.531416,3.8390791,65.960175,-14.020807,3.8197887,0.8504949,1.4501028,10.85594,21.544558,28.884794,-29.745005,-40.017952,-4.3277526,-5.3143606,7.4039326,-3.2684178,-14.311867,26.572603,-21.938507,7.228407,-16.128412,0.56247246
178,-1.084171175956726,-205.2722930908203,77.95159912109375,0.7671486914958159,-2.3219192464666536,88.67687965558044,-17.974052,0.17177553,-6.735965,26.157629,1.5956389,-8.063002,2.8663607,-6.783918,3.4919453,63.42876,-13.562669,4.390126,1.1280309,1.6167095,10.608874,21.995352,28.65385,-29.376223,-40.155437,-4.128123,-5.2516975,7.222227,-3.7289271,-14.4665365,26.59105,-22.609829,7.6048074,-16.051239,0.63996965
179,-0.9021261930465698,-206.30386352539062,78.26899719238281,0.6896449749756031,-2.0687540468603287,89.26000485256428,-18.334444,0.1176569,-7.5382795,23.977856,4.8098006,-8.488985,3.9865322,-6.086764,3.1442614,60.847603,-13.113276,4.95037,1.4073746,1.7747705,10.377539,22.376545,28.397614,-29.02252,-40.287624,-3.9136379,-5.1901727,7.054517,-4.1778474,-14.634189,26.615923,-23.257181,8.023423,-15.973974,0.6974387
180,-0.7214638590812683,-207.3404541015625,78.53978729248047,0.6335816716755919,-1.8171216773209675,89.7592687330022,-18.674406,0.07631584,-8.263458,21.969223,7.444467,-8.897957,4.980706,-5.537664,2.7633808,58.310318,-12.575942,5.346514,1.7105807,1.9119775,10.155892,22.727856,28.11122,-28.68385,-40.42005,-3.6788437,-5.160614,6.914727,-4.657019,-14.819278,26.670027,-23.83205,8.483506,-15.91742,0.76398766
181,-0.5423243045806885,-208.38299560546875,78.75377655029297,0.5892171734175782,-1.558096652186816,90.17554457615455,-18.958153,0.058649458,-8.923421,19.973328,9.517364,-9.339734,5.8394184,-5.135107,2.3107765,55.80981,-11.896238,5.5626955,2.0417602,2.035378,9.930409,23.05104,27.791775,-28.362234,-40.55082,-3.4107013,-5.1765957,6.8200293,-5.1641016,-15.026937,26.7658,-24.341436,8.998061,-15.884946,0.82692415
182,-0.3702293038368225,-209.43048095703125,78.9217529296875,0.545084710173809,-1.295074263713537,90.5304679413582,-19.200233,0.07752612,-9.540665,17.98455,11.203701,-9.801177,6.5900183,-4.815277,1.8007746,53.30626,-11.131345,5.684286,2.3912208,2.1600747,9.711204,23.326195,27.438267,-28.056156,-40.674934,-3.1151738,-5.219415,6.7572374,-5.678514,-15.25861,26.89201,-24.811415,9.56422,-15.866349,0.8764626
183,-0.21575863659381866,-210.49359130859375,79.03768157958984,0.5114122855754192,-1.0520499382976463,90.80259936204602,-19.462593,0.12733275,-10.054465,16.354223,12.342328,-10.161436,7.2552624,-4.586435,1.2733006,50.84909,-10.3610325,5.716622,2.7586799,2.2804255,9.526909,23.55854,27.047806,-27.76173,-40.79233,-2.8150482,-5.271866,6.6951823,-6.2171817,-15.509666,27.035051,-25.211306,10.158829,-15.860694,0.9460596
184,-0.05122102051973343,-211.5428009033203,79.08065795898438,0.5106380348940663,-0.848572463216544,90.97533347855784,-19.820917,0.1735281,-10.395691,15.451799,12.76633,-10.299144,7.8497353,-4.471906,0.7665335,48.49434,-9.667934,5.6660376,3.1383452,2.3771493,9.401291,23.75217,26.616024,-27.474447,-40.89852,-2.5333908,-5.3169923,6.6022515,-6.801718,-15.771087,27.182426,-25.502974,10.756223,-15.866684,1.0700814
185,0.10820718854665756,-212.59524536132812,79.05924224853516,0.5480022318780381,-0.6855327309569597,91.02946580827073,-20.299046,0.19505675,-10.538236,15.390202,12.282205,-10.162624,8.361291,-4.5139446,0.24370264,46.24028,-8.867974,5.50086,3.540154,2.4470527,9.332161,23.934168,26.13672,-27.177612,-41.007362,-2.260217,-5.347259,6.4487753,-7.4682627,-16.040192,27.342585,-25.662943,11.387058,-15.900934,1.2765229
186,0.2538609206676483,-213.6771240234375,78.9958724975586,0.6198235974342459,-0.5495398519068392,90.98446318414007,-20.873531,0.18799645,-10.51878,15.993441,11.0196495,-9.822273,8.776734,-4.6887574,-0.3181964,44.079544,-7.998803,5.2390833,3.955714,2.4907167,9.305272,24.089096,25.607672,-26.87668,-41.106422,-1.9880391,-5.373021,6.2570314,-8.202158,-16.314743,27.522518,-25.708166,12.051782,-15.957132,1.5418861
187,0.39454466104507446,-214.77984619140625,78.89044952392578,0.7406485752023444,-0.43653861466638827,90.88196470732399,-21.547539,0.13693574,-10.362359,17.19352,9.295185,-9.342422,9.111535,-4.9301543,-0.8504248,42.048195,-7.4680104,4.9617925,4.3528233,2.4913924,9.325086,24.156904,25.033232,-26.60274,-41.15896,-1.7421172,-5.40379,6.073672,-8.951254,-16.582321,27.702143,-25.652893,12.677861,-15.999617,1.824469
188,0.532524585723877,-215.90289306640625,78.73828125,0.91817465454566,-0.3440448206025117,90.76171755077986,-22.320631,0.036493998,-10.089922,18.91884,7.4288745,-8.784318,9.386327,-5.1755433,-1.2706369,40.166077,-7.6674623,4.7502227,4.703277,2.4343464,9.396579,24.07923,24.422632,-26.386845,-41.12585,-1.54873,-5.448522,5.9471154,-9.665008,-16.824144,27.856834,-25.511272,13.191137,-15.994424,2.0835776
189,0.6772416830062866,-217.0432586669922,78.52345275878906,1.1691609929704083,-0.25419086999466606,90.61609528814769,-23.242361,-0.12390958,-9.705034,21.259726,5.3660703,-8.088071,9.650959,-5.435082,-1.5534705,38.2924,-8.792949,4.5707064,5.0142922,2.299146,9.507998,23.864038,23.780468,-26.232237,-41.01537,-1.441016,-5.5073915,5.8979254,-10.380067,-17.026611,27.981382,-25.26162,13.56573,-15.915463,2.3238976
190,0.8211489915847778,-218.18783569335938,78.26234436035156,1.4700191333150705,-0.177206883703795,90.42485606789664,-24.276854,-0.30878198,-9.214565,24.186369,2.993327,-7.250869,9.886676,-5.721604,-1.7332854,36.44065,-10.587394,4.4030266,5.3002677,2.109609,9.662961,23.54314,23.108257,-26.118954,-40.847527,-1.3967583,-5.5754495,5.8996634,-11.120416,-17.185755,28.086086,-24.885094,13.839487,-15.786547,2.565801
191,0.9621116518974304,-219.3468017578125,77.95301818847656,1.782904229302953,-0.15223001183781257,90.20746281334979,-25.303576,-0.4552867,-8.626096,27.462551,0.53277504,-6.4092135,10.017411,-5.999331,-1.8148657,34.848793,-12.749671,4.331499,5.5454574,1.9119189,9.88872,23.098228,22.413681,-26.041222,-40.605965,-1.3595355,-5.654332,5.9313045,-11.814737,-17.29805,28.168129,-24.395552,14.0335,-15.64896,2.7916965
192,1.1023461818695068,-220.50396728515625,77.61734771728516,2.0727333963924446,-0.21674066777891435,89.98535551309617,-26.20543,-0.5087203,-7.9355226,30.861895,-1.7884802,-5.694891,9.956646,-6.2517977,-1.8082175,33.779125,-14.994882,4.426347,5.7344875,1.7439935,10.210961,22.51179,21.709063,-25.994524,-40.278072,-1.2735249,-5.745813,5.9731407,-12.388074,-17.360973,28.22089,-23.8079,14.170469,-15.543773,2.984157
193,1.236839771270752,-221.66412353515625,77.25099182128906,2.36494417591634,-0.41829340864219994,89.77324372278801,-26.933666,-0.4702187,-7.084403,34.420414,-3.9245777,-5.169908,9.719571,-6.519283,-1.7073679,33.31883,-17.44555,4.7647085,5.8575263,1.5884058,10.678955,21.77824,21.005306,-25.975838,-39.870167,-1.1596117,-5.8663464,6.0105886,-12.8303,-17.3709,28.232174,-23.143234,14.314192,-15.481285,3.1787405
194,1.3668909072875977,-222.83316040039062,76.8577651977539,2.6655630811031767,-0.7255200999058543,89.5558442091271,-27.543827,-0.33929467,-6.0929303,38.216125,-5.9863997,-4.740633,9.32511,-6.8141065,-1.5245532,33.35275,-20.206179,5.2677064,5.9276505,1.4311197,11.26683,20.919485,20.306805,-25.982212,-39.3998,-1.0382613,-6.01016,6.060957,-13.175745,-17.326435,28.204388,-22.389791,14.433267,-15.439997,3.3728642
195,1.4862269163131714,-224.00135803222656,76.44737243652344,2.924276766528877,-1.0579830818086875,89.31288898419238,-28.080084,-0.0722836,-5.07171,42.09991,-7.991624,-4.3070345,8.688917,-7.0745096,-1.2893264,33.85585,-22.978086,5.769921,5.9580865,1.3102783,11.885578,19.960033,19.615019,-26.00799,-38.874474,-0.85175115,-6.145664,6.1521783,-13.420755,-17.232803,28.156815,-21.511332,14.407259,-15.4141445,3.4919014
196,1.587684988975525,-225.1609344482422,76.0300064086914,3.0887317441495252,-1.3346791013625565,89.02522759805134,-28.587032,0.35785156,-4.133282,45.922005,-9.957429,-3.7767324,7.7369905,-7.2289777,-1.0121832,34.783222,-25.451834,6.111177,5.9609566,1.2633464,12.446835,18.919317,18.929092,-26.048662,-38.29646,-0.5424232,-6.240709,6.3114867,-13.553486,-17.098759,28.108154,-20.484211,14.116304,-15.398203,3.459722
197,1.6709195375442505,-226.31336975097656,75.61074829101562,3.127954310529192,-1.5516681719513052,88.6593503629416,-29.101332,1.0121739,-3.271129,49.76855,-11.945254,-3.0995305,6.3736343,-7.223244,-0.6328047,36.284008,-27.61544,6.246766,5.961281,1.3230653,12.958558,17.78539,18.23805,-26.106556,-37.650787,-0.0648115,-6.2852936,6.572804,-13.595879,-16.928972,28.060806,-19.270113,13.594618,-15.409109,3.259646
198,1.749130129814148,-227.47129821777344,75.19566345214844,3.074459379822512,-1.748719623851327,88.23754148409343,-29.578613,1.8555608,-2.4525046,53.674812,-13.929062,-2.3315465,4.6695786,-7.081202,-0.16194542,38.324966,-29.614763,6.272192,5.9393115,1.4641951,13.45749,16.546867,17.538013,-26.178907,-36.931652,0.541486,-6.2943635,6.9105334,-13.5409975,-16.725403,28.008131,-17.89858,12.884558,-15.440843,2.9292486
199,1.8238548040390015,-228.63027954101562,74.801025390625,2.975941285506968,-1.9083001924900358,87.82358871135321,-29.957157,2.7502298,-1.7377641,57.426323,-15.80212,-1.5483814,2.8043725,-6.8583593,0.2947383,40.571888,-31.365927,6.2422686,5.844466,1.6310191,13.8991375,15.227689,16.8464,-26.255259,-36.170345,1.2048837,-6.273992,7.263461,-13.328684,-16.494629,27.95072,-16.452011,11.8805485,-15.4508705,2.4729664
200,1.902859091758728,-229.7720184326172,74.44478607177734,2.885023171560685,-2.0102891952796456,87.48056809690388,-30.190353,3.5502863,-1.1719956,60.82326,-17.45458,-0.8283864,0.9528076,-6.6320176,0.6367655,42.695606,-32.784626,6.204546,5.633082,1.7616037,14.240636,13.862088,16.19584,-26.328268,-35.41171,1.8504196,-6.2328653,7.57477,-12.89174,-16.24715,27.884764,-15.023978,10.477837,-15.394151,1.8958305
201,1.9845658540725708,-230.87765502929688,74.13494873046875,2.7993865597340055,-2.0074357557185953,87.19828154278788,-30.321144,4.2490473,-0.74936277,63.8536,-18.853647,-0.16627258,-0.93361104,-6.4121575,0.84261,44.684093,-33.80545,6.152493,5.311256,1.8487989,14.449394,12.486346,15.608115,-26.389576,-34.697807,2.5338843,-6.159219,7.844996,-12.185359,-15.9832945,27.812025,-13.606952,8.426963,-15.217247,1.1164781
202,2.0610146522521973,-231.93264770507812,73.8731689453125,2.6984569457494727,-1.9226357632944806,86.95147191217079,-30.368382,4.8990726,-0.43448117,66.62548,-20.059948,0.46716425,-2.9155526,-6.1728973,0.96604687,46.677223,-34.480953,6.076326,4.9026346,1.9131961,14.558209,11.096183,15.090723,-26.446001,-34.031326,3.263152,-6.0537066,8.105352,-11.240455,-15.7038555,27.731108,-12.18268,5.8636928,-14.930209,0.16751948
203,2.125742197036743,-232.94410705566406,73.65242767333984,2.607320917990983,-1.8393355717026598,86.780434457284,-30.257326,5.440919,-0.21795647,69.121254,-21.102995,1.0274969,-4.8362613,-5.952508,1.0267808,48.57537,-34.903652,6.0060177,4.3995533,1.9322029,14.623767,9.661122,14.657909,-26.526762,-33.394417,3.891508,-5.9469,8.347837,-10.091149,-15.426169,27.624424,-10.839812,3.2613134,-14.600758,-0.7800269
204,2.1869595050811768,-233.9243927001953,73.46632385253906,2.5509635070260996,-1.8407420676057382,86.72528532215101,-29.910625,5.817092,-0.0899172,71.31845,-22.011402,1.4704593,-6.538276,-5.78821,1.0464944,50.279514,-35.166477,5.966101,3.80394,1.8810043,14.705929,8.143324,14.327711,-26.674088,-32.76941,4.2706637,-5.8708167,8.567679,-8.753951,-15.180125,27.4626,-9.692216,1.0890197,-14.323867,-1.5690068
205,2.253286838531494,-234.8924560546875,73.31031036376953,2.557412236405479,-1.9696584889346624,86.81296763117471,-29.266659,5.968727,-0.04919341,73.187614,-22.769651,1.7552825,-7.9774003,-5.7125044,1.0386043,51.816128,-35.254375,5.9617248,3.113857,1.7299864,14.850391,6.503585,14.11637,-26.944504,-32.15505,4.300529,-5.833386,8.784719,-7.157681,-14.987457,27.215353,-8.808073,-0.65427524,-14.133224,-2.2358909
206,2.321854591369629,-235.8394317626953,73.1892318725586,2.607185812027649,-2.1736991691479033,87.01576481938618,-28.387552,5.9408336,-0.09314976,74.75728,-23.369167,1.9135693,-9.238934,-5.7029867,0.9950614,53.221783,-35.12902,5.9746857,2.3530965,1.4953399,15.0212345,4.76845,14.025022,-27.337027,-31.580532,4.0721536,-5.8203435,9.003884,-5.272514,-14.855058,26.885828,-8.177155,-2.171768,-13.989742,-2.847659
207,2.3934147357940674,-236.76104736328125,73.10680389404297,2.6527116312135894,-2.3934588439978683,87.2925012286543,-27.379023,5.8321905,-0.21127965,76.08182,-23.844717,2.0091112,-10.3579445,-5.713357,0.9039292,54.40889,-34.853592,5.991345,1.5593059,1.2241237,15.159034,2.9923816,14.042146,-27.806442,-31.063515,3.7247524,-5.830849,9.195218,-3.1857781,-14.789833,26.494576,-7.7840204,-3.3040004,-13.906682,-3.3039372
208,2.459174156188965,-237.65318298339844,73.06488800048828,2.6491669835887977,-2.5694394077610037,87.60246348943245,-26.34657,5.73909,-0.39089277,77.213974,-24.231468,2.104989,-11.370658,-5.698714,0.75066245,55.29318,-34.489166,5.99868,0.7622658,0.97080666,15.206299,1.2297107,14.150209,-28.297085,-30.622847,3.4015784,-5.862889,9.324114,-0.99016637,-14.797464,26.06653,-7.604395,-3.8918676,-13.901254,-3.5047688
209,2.5148632526397705,-238.51513671875,73.06791687011719,2.5811676819432394,-2.702438207572483,87.968749600814,-25.286503,5.650351,-0.66429853,78.16322,-24.508211,2.2125683,-12.265316,-5.6563916,0.5034662,55.867115,-34.031044,5.9910784,-0.06193209,0.7540497,15.151482,-0.5426219,14.342879,-28.807991,-30.244425,3.1158447,-5.926627,9.350669,1.3392034,-14.881501,25.595505,-7.6704454,-3.6721387,-14.016532,-3.3379977
210,2.567992925643921,-239.36033630371094,73.10737609863281,2.4734023532128266,-2.8180866299007676,88.40196849616709,-24.155201,5.5264225,-1.0231036,78.90485,-24.664648,2.2978609,-13.029948,-5.6111484,0.17779873,56.17164,-33.45324,5.973198,-0.92053837,0.553592,15.028666,-2.346761,14.616027,-29.372704,-29.926561,2.7991838,-6.019272,9.30037,3.8472486,-15.037173,25.072218,-7.9964333,-2.7965174,-14.231346,-2.8838785
211,2.6245486736297607,-240.18496704101562,73.18189239501953,2.3415523526268878,-2.8934360316255496,88.84289477700652,-22.995966,5.4164762,-1.3896908,79.43687,-24.752804,2.3556757,-13.700702,-5.5550766,-0.16845936,56.19832,-32.7868,5.9460435,-1.7686272,0.36815226,14.847318,-4.125805,14.951847,-29.971691,-29.688433,2.4785151,-6.119204,9.233177,6.4539165,-15.253953,24.521523,-8.506387,-1.7332401,-14.468476,-2.3315363
212,2.6714346408843994,-240.9984893798828,73.29448699951172,2.2003323439932276,-2.9066454491497398,89.23217624590355,-21.853481,5.3670554,-1.6856738,79.759155,-24.825764,2.3811696,-14.313019,-5.4787254,-0.47817415,55.938095,-32.063145,5.9108086,-2.569611,0.19710313,14.612223,-5.8243694,15.325573,-30.57106,-29.540697,2.1841092,-6.2051,9.205256,9.059438,-15.519119,23.97422,-9.09915,-0.9584491,-14.662925,-1.8784311
213,2.703873872756958,-241.79559326171875,73.44835662841797,2.0429463189964494,-2.842538764775097,89.5710681774366,-20.73408,5.4098663,-1.8928009,79.86823,-24.889862,2.3751023,-14.850271,-5.36691,-0.7660404,55.328514,-31.31572,5.8665934,-3.3261635,0.053633712,14.28953,-7.4616976,15.722859,-31.17524,-29.460857,1.9459622,-6.2623434,9.229051,11.669058,-15.829314,23.43949,-9.761822,-0.5529301,-14.810614,-1.569514
214,2.721376895904541,-242.58180236816406,73.64392852783203,1.8646125085332685,-2.715972272400372,89.88541110256841,-19.617428,5.5092244,-2.0479982,79.7677,-24.919355,2.339361,-15.298438,-5.2245026,-1.0575962,54.391357,-30.519466,5.814061,-4.060934,-0.057767622,13.884821,-9.068409,16.139328,-31.78927,-29.428684,1.745992,-6.3054175,9.270111,14.3138895,-16.181046,22.897594,-10.520578,-0.28184277,-14.94482,-1.3045422
215,2.7352232933044434,-243.36288452148438,73.87747955322266,1.6884515365521235,-2.550587051417101,90.15291133911845,-18.506891,5.607761,-2.155974,79.46402,-24.917286,2.2714863,-15.695376,-5.071285,-1.3129175,53.238674,-29.615904,5.7573137,-4.7725883,-0.153407,13.457073,-10.602419,16.565521,-32.370632,-29.453587,1.5464582,-6.3566785,9.313117,16.920412,-16.55843,22.340569,-11.3169565,-0.15437223,-15.068156,-1.0689728
216,2.732372760772705,-244.1454620361328,74.14859008789062,1.5365105975179814,-2.370494135717779,90.35150716018846,-17.405838,5.6482124,-2.2229965,78.96431,-24.887007,2.1699038,-16.080936,-4.927758,-1.4910032,51.984608,-28.548275,5.6989627,-5.46135,-0.25628465,13.058403,-12.026342,16.991087,-32.872925,-29.530396,1.3093274,-6.438152,9.340775,19.400606,-16.940016,21.76605,-12.072172,-0.18456551,-15.18308,-0.8475691
217,2.725895404815674,-244.94561767578125,74.45167541503906,1.4069885384661391,-2.1724794492847326,90.47284310879903,-16.312155,5.638863,-2.2476966,78.25404,-24.864689,2.0435224,-16.461012,-4.7837486,-1.5875618,50.624535,-27.3086,5.625408,-6.121188,-0.3733463,12.679596,-13.353165,17.411682,-33.286057,-29.619076,1.0430834,-6.5719986,9.334866,21.740011,-17.315474,21.155445,-12.754174,-0.48322043,-15.287614,-0.6268844
218,2.698537826538086,-245.73617553710938,74.79359436035156,1.2904916202815484,-1.9476117172448377,90.52984981303365,-15.226178,5.6006856,-2.229073,77.33698,-24.838406,1.8940398,-16.814074,-4.625948,-1.6293219,49.105453,-25.925589,5.5404377,-6.75141,-0.4964973,12.293238,-14.610245,17.827307,-33.63503,-29.707388,0.7649704,-6.7401643,9.3064375,23.97326,-17.683811,20.509325,-13.387625,-1.0147161,-15.383611,-0.4180218
219,2.652439594268799,-246.53236389160156,75.16429138183594,1.2003188017612845,-1.7110015432615981,90.53254440017515,-14.155757,5.496843,-2.1778445,76.2459,-24.73904,1.7084789,-17.144958,-4.474413,-1.6171081,47.47913,-24.392235,5.470193,-7.360328,-0.62873894,11.920935,-15.782794,18.235128,-33.924835,-29.827827,0.4501802,-6.9038258,9.281624,26.079325,-18.038313,19.858875,-13.972529,-1.5753239,-15.477143,-0.24160467
220,2.591773509979248,-247.34271240234375,75.55970764160156,1.1500933249098089,-1.4777124702315962,90.49103885478445,-13.109275,5.290375,-2.1066527,75.012856,-24.497616,1.4722282,-17.461952,-4.3553495,-1.54572,45.800434,-22.700436,5.439416,-7.9572773,-0.775454,11.582683,-16.857323,18.631414,-34.15884,-30.005344,0.073604405,-7.0245223,9.286226,28.028618,-18.369501,19.240644,-14.500185,-1.9627002,-15.572796,-0.117223285
221,2.5155527591705322,-248.16058349609375,75.9747314453125,1.1452649544581306,-1.2462484432992713,90.40468066003477,-12.082478,4.947938,-2.0337076,73.612686,-24.12794,1.1865077,-17.771751,-4.2884564,-1.4008769,44.075695,-20.827787,5.4479694,-8.546044,-0.9469265,11.276312,-17.827162,19.013866,-34.32688,-30.246286,-0.39110556,-7.0928717,9.294758,29.810293,-18.676222,18.650534,-14.946965,-2.1518593,-15.669443,-0.05350799
222,2.4300742149353027,-248.98558044433594,76.40205383300781,1.1768349978741244,-1.0103394644324624,90.2694322093824,-11.075129,4.499705,-1.9563107,72.03927,-23.659498,0.8602748,-18.073664,-4.25793,-1.1840637,42.28527,-18.787619,5.4834394,-9.114094,-1.1410581,10.99158,-18.712648,19.382557,-34.436054,-30.521864,-0.9232868,-7.128738,9.304033,31.441896,-18.963232,18.066957,-15.32282,-2.2456105,-15.764228,-0.036379416
223,2.3188066482543945,-249.81832885742188,76.8433609008789,1.2353021832806061,-0.7770402146693657,90.09070697723325,-10.099578,4.0011053,-1.855635,70.351746,-23.044893,0.4860573,-18.360222,-4.243322,-0.9110428,40.436874,-16.62005,5.5526357,-9.646687,-1.3456297,10.73607,-19.537495,19.737108,-34.515923,-30.810663,-1.4763947,-7.138243,9.373971,32.93037,-19.22864,17.50623,-15.6637945,-2.2336593,-15.858368,-0.05078805
224,2.2000176906585693,-250.66448974609375,77.28872680664062,1.311692511139608,-0.5537642908253164,89.87363425057664,-9.168605,3.5034804,-1.7101508,68.60918,-22.235003,0.051822137,-18.624882,-4.225059,-0.5954943,38.541965,-14.366297,5.663055,-10.129142,-1.550775,10.516555,-20.324179,20.076654,-34.5971,-31.094042,-2.0030615,-7.12858,9.564374,34.27787,-19.465406,16.98906,-15.998768,-2.106746,-15.953403,-0.08114471
225,2.067593574523926,-251.52430725097656,77.72694396972656,1.4061334558316678,-0.32497107644356815,89.59925603869705,-8.288471,3.0195808,-1.4766259,66.77994,-21.141687,-0.54270226,-18.905499,-4.198951,-0.22214329,36.6104,-11.947692,5.7589154,-10.541029,-1.7543544,10.332443,-21.088493,20.39793,-34.692028,-31.359945,-2.4758005,-7.0958996,9.926775,35.459312,-19.668615,16.514412,-16.314953,-1.8136593,-16.052885,-0.13719895
226,1.9322023391723633,-252.39779663085938,78.15655517578125,1.519717312017969,-0.09174310686358747,89.27163590782534,-7.4503837,2.5144763,-1.1858637,64.843544,-19.81465,-1.2654334,-19.194864,-4.1831784,0.21626425,34.637863,-9.372349,5.8576503,-10.888819,-1.965641,10.181422,-21.8219,20.697908,-34.791332,-31.611982,-2.922387,-7.040375,10.4183035,36.48134,-19.839443,16.07263,-16.600063,-1.3788824,-16.155523,-0.21966796
227,1.7889400720596313,-253.27496337890625,78.57059478759766,1.6508031859367216,0.11234223713026616,88.93052575930601,-6.641437,1.9723095,-0.9218107,62.87771,-18.414442,-1.9303379,-19.41424,-4.1866627,0.7000615,32.610584,-6.8126197,6.077361,-11.199545,-2.1912801,10.067236,-22.516478,20.978792,-34.888004,-31.853422,-3.387135,-6.975313,10.95641,37.392517,-19.978392,15.676024,-16.88334,-0.9064087,-16.255857,-0.3012481
228,1.6434756517410278,-254.16256713867188,78.95748901367188,1.8014935263001894,0.2529049367715861,88.61596572264985,-5.8481665,1.3845953,-0.7606728,60.961464,-17.100433,-2.3468468,-19.47922,-4.2149234,1.2156786,30.503136,-4.4362063,6.5357533,-11.501229,-2.440703,9.993879,-23.164034,21.247295,-34.973377,-32.090958,-3.917316,-6.9138103,11.459066,38.240894,-20.085928,15.3366375,-17.19368,-0.5005311,-16.347248,-0.35502616
229,1.498987078666687,-255.05007934570312,79.3065414428711,1.9980752897672833,0.3080865728785656,88.32545966429898,-5.0550237,0.6790617,-0.74926794,59.096077,-15.866609,-2.4194922,-19.311869,-4.2954607,1.794267,28.125166,-2.1323483,7.2868867,-11.794794,-2.747441,9.976201,-23.757792,21.509892,-35.04279,-32.33675,-4.528981,-6.8382044,11.905325,39.03544,-20.165745,15.056588,-17.547567,-0.17649692,-16.425564,-0.38263607
230,1.3527361154556274,-255.92752075195312,79.60919952392578,2.2378876183495526,0.29908741791886473,88.04327168449582,-4.272608,-0.1089129,-0.83270705,57.24999,-14.641747,-2.2601588,-18.965311,-4.4234476,2.4502542,25.531328,0.14520751,8.263488,-12.069761,-3.1020145,10.009613,-24.299133,21.769571,-35.099533,-32.59487,-5.198653,-6.74956,12.340123,39.752773,-20.220837,14.832491,-17.929008,0.11688399,-16.495684,-0.39607137
231,1.208037257194519,-256.79559326171875,79.8538818359375,2.471973594406551,0.2546269098274559,87.7898790414993,-3.52285,-0.83107775,-0.92518747,55.453793,-13.490949,-1.9883467,-18.54346,-4.555339,3.140212,23.049797,2.1330009,9.3997755,-12.337171,-3.454957,10.069849,-24.785103,22.027485,-35.15143,-32.853073,-5.905301,-6.68841,12.7798395,40.393448,-20.250172,14.667113,-18.323847,0.37438932,-16.561998,-0.38331735
232,1.063198447227478,-257.6623229980469,80.04608917236328,2.653745832182883,0.20358744582736776,87.58558421206436,-2.82736,-1.3487823,-0.9383797,53.7349,-12.476337,-1.7278211,-18.157011,-4.6431036,3.806588,21.022362,3.5683727,10.626371,-12.605463,-3.7559192,10.131412,-25.220747,22.284273,-35.20537,-33.094315,-6.6332893,-6.695228,13.239195,40.957764,-20.24974,14.562331,-18.714783,0.59006613,-16.629015,-0.3318797
233,0.9328356981277466,-258.53515625,80.19239044189453,2.7833677966313792,0.14495159534338867,87.4439890092675,-2.1678872,-1.6276727,-0.81244445,52.07279,-11.612783,-1.5282779,-17.762016,-4.6732497,4.473829,19.362154,4.354537,12.117685,-12.8863325,-4.0081725,10.188356,-25.615215,22.542831,-35.277626,-33.324013,-7.4110365,-6.797238,13.758894,41.46976,-20.214144,14.521062,-19.118437,0.76402855,-16.700502,-0.22588654
234,0.8046191334724426,-259.4126892089844,80.2840805053711,2.8865522987633208,0.06524506591953802,87.3515247011177,-1.5370115,-1.7593236,-0.59571546,50.456345,-10.866208,-1.3246839,-17.325014,-4.6830745,5.135391,17.946978,4.6391006,13.838759,-13.169293,-4.239541,10.25387,-25.96512,22.80419,-35.36236,-33.550034,-8.235814,-6.969401,14.317511,41.92072,-20.142199,14.542992,-19.534517,0.8967408,-16.77313,-0.07512538
235,0.6823008060455322,-260.2989807128906,80.31910705566406,2.916628798727986,-0.021628544214939312,87.2798401708804,-0.9844121,-1.7487313,-0.3702088,48.95246,-10.2482605,-1.0831255,-17.001982,-4.628037,5.6006885,17.12052,4.507162,15.000033,-13.423187,-4.402477,10.337049,-26.253845,23.063442,-35.43212,-33.751297,-9.04101,-7.1716523,14.835731,42.257584,-20.038576,14.62403,-19.916214,0.9842278,-16.841242,0.09488042
236,0.5723339915275574,-261.1927490234375,80.3039779663086,2.7227091071103016,-0.10904106846943429,87.17904915761409,-0.57790285,-1.4686563,-0.23691455,47.71357,-9.8309765,-0.7945745,-16.850695,-4.3453135,5.6730847,17.04407,4.148001,15.000033,-13.595412,-4.3469825,10.480026,-26.458109,23.310936,-35.458817,-33.9134,-9.754101,-7.3604026,15.235006,42.4277,-19.91124,14.7631,-20.21984,1.0244997,-16.89894,0.25699618
237,0.4549345374107361,-262.0966491699219,80.24270629882812,2.5042221568149836,-0.17042541166857197,87.09978631219785,-0.35965464,-1.1529689,-0.1298172,46.660877,-9.36573,-0.19600753,-17.171951,-4.0856323,5.708922,18.33263,3.268413,15.000033,-13.737279,-4.2385654,10.612969,-26.59082,23.540485,-35.428013,-34.025024,-10.392132,-7.540705,15.494079,42.432213,-19.762222,14.958669,-20.445702,1.0014486,-16.943205,0.40936318
238,0.32337892055511475,-263.0118103027344,80.1338882446289,2.260957110173783,-0.2192333595082549,87.04721500073813,-0.2895074,-0.7789776,-0.019855868,45.76322,-8.915683,0.6229716,-17.82544,-3.841548,5.694283,20.683233,1.8983119,15.000033,-13.854864,-4.0860157,10.742187,-26.65841,23.750235,-35.35711,-34.092308,-10.97821,-7.725886,15.653326,42.300198,-19.592157,15.210855,-20.618362,0.9231823,-16.977661,0.56309575
