unveil-humanoid-operators/unveil-humanoid-operators.github.io/feature-analysis-animation/data/feature_matrix_instances/gender_shoulder_rom_walking_turning_A144.csv
Frame,root_translateX,root_translateY,root_translateZ,root_rotateX,root_rotateY,root_rotateZ,left_hip_pitch_joint_dof,left_hip_roll_joint_dof,left_hip_yaw_joint_dof,left_knee_joint_dof,left_ankle_pitch_joint_dof,left_ankle_roll_joint_dof,right_hip_pitch_joint_dof,right_hip_roll_joint_dof,right_hip_yaw_joint_dof,right_knee_joint_dof,right_ankle_pitch_joint_dof,right_ankle_roll_joint_dof,waist_yaw_joint_dof,waist_roll_joint_dof,waist_pitch_joint_dof,left_shoulder_pitch_joint_dof,left_shoulder_roll_joint_dof,left_shoulder_yaw_joint_dof,left_elbow_joint_dof,left_wrist_roll_joint_dof,left_wrist_pitch_joint_dof,left_wrist_yaw_joint_dof,right_shoulder_pitch_joint_dof,right_shoulder_roll_joint_dof,right_shoulder_yaw_joint_dof,right_elbow_joint_dof,right_wrist_roll_joint_dof,right_wrist_pitch_joint_dof,right_wrist_yaw_joint_dof
0,0.0958574041724205,-1.7047299146652222,78.04144287109375,-0.3101786898794702,1.3375548799188393,89.91949987957656,-6.1758904,10.801194,16.695307,14.020396,-9.16833,-6.6872635,0.96016437,-9.344411,-22.05728,7.626717,-8.173158,9.070301,-1.8237419,0.7595505,6.829576,-26.603607,21.311064,-0.6519809,59.755806,-18.332047,9.788546,-15.144603,-25.672697,-28.439219,14.851932,54.6038,27.290386,16.492771,10.257817
1,0.08183997869491577,-1.702966332435608,78.0356216430664,-0.32857392018857545,1.3582804830901605,89.90954129999369,-6.3239756,10.840049,16.660542,14.311418,-9.391595,-6.63583,0.90080565,-9.352643,-22.02911,7.698731,-8.195264,9.095013,-1.7908584,0.7625624,6.812491,-26.57741,21.29865,-0.6475969,59.648033,-18.33021,9.830083,-15.139142,-25.64188,-28.456528,14.830996,54.59022,27.308167,16.498043,10.257702
2,0.06482959538698196,-1.7032690048217773,78.02975463867188,-0.3472158224786577,1.380544462946315,89.90030253442049,-6.46921,10.88042,16.62767,14.592536,-9.606884,-6.588688,0.8408909,-9.358719,-22.002548,7.7695317,-8.2173605,9.118309,-1.7532923,0.7702455,6.7966566,-26.553993,21.283611,-0.6473089,59.539303,-18.331032,9.872042,-15.133702,-25.633196,-28.472322,14.807134,54.598,27.322384,16.505386,10.258499
3,0.043996673077344894,-1.7026180028915405,78.02251434326172,-0.36372172300740135,1.3995447546300372,89.88989998306756,-6.6137257,10.915393,16.59124,14.879426,-9.834651,-6.532744,0.7806169,-9.37023,-21.972788,7.8469563,-8.241674,9.144574,-1.7278781,0.7676448,6.777175,-26.528992,21.278116,-0.6433932,59.43872,-18.333889,9.913013,-15.128016,-25.612633,-28.478037,14.797318,54.598206,27.341717,16.50626,10.257222
4,0.020013490691781044,-1.7035616636276245,78.01471710205078,-0.376225543216856,1.4112722463623488,89.87660461635821,-6.7584977,10.937442,16.545784,15.183979,-10.095215,-6.454807,0.72301465,-9.393208,-21.936281,7.932696,-8.26757,9.178213,-1.700174,0.76451254,6.773474,-26.489119,21.26566,-0.63410586,59.304787,-18.334595,9.957533,-15.121295,-25.596737,-28.48997,14.771669,54.594006,27.348513,16.507154,10.261164
5,-0.009107082150876522,-1.706896185874939,78.00662231445312,-0.3858168402610117,1.4141830510369253,89.86322289391502,-6.9076924,10.956177,16.504902,15.524845,-10.409034,-6.3439107,0.66933787,-9.427571,-21.893572,8.028032,-8.29674,9.220877,-1.6755912,0.7579909,6.7823467,-26.449503,21.249989,-0.62710613,59.157673,-18.338993,10.003306,-15.111321,-25.577406,-28.504122,14.73696,54.583115,27.344833,16.502333,10.268138
6,-0.041820626705884933,-1.7091916799545288,77.99925231933594,-0.3926198679797536,1.410617870713635,89.84989262882061,-7.0602055,10.97187,16.465849,15.89162,-10.760955,-6.2095795,0.6181073,-9.470188,-21.846506,8.131558,-8.329048,9.269997,-1.6610808,0.74423933,6.7971187,-26.406029,21.242178,-0.6196937,59.003284,-18.350101,10.050614,-15.100957,-25.566977,-28.509563,14.708784,54.579197,27.338814,16.491598,10.275552
7,-0.08599341660737991,-1.7120333909988403,77.9924545288086,-0.39421112897974714,1.4015683861906398,89.82960836564716,-7.2028723,10.961238,16.400492,16.242939,-11.11301,-6.069405,0.5664379,-9.525342,-21.79112,8.244596,-8.362281,9.324161,-1.6462139,0.72224617,6.8180957,-26.370571,21.238058,-0.61436564,58.85342,-18.365623,10.100513,-15.091779,-25.573181,-28.511478,14.687621,54.589024,27.336317,16.47999,10.284064
8,-0.13635264337062836,-1.7136507034301758,77.98493957519531,-0.38840734090319895,1.3885921740769815,89.79578277195127,-7.327613,10.902981,16.280083,16.546373,-11.4311905,-5.941285,0.5069756,-9.597129,-21.723223,8.376552,-8.398536,9.381657,-1.6226016,0.6900255,6.845671,-26.305628,21.227648,-0.60081476,58.66535,-18.37301,10.157786,-15.079983,-25.547302,-28.519737,14.649878,54.565296,27.330555,16.471922,10.29934
9,-0.1897481083869934,-1.7163077592849731,77.98110961914062,-0.37024125795593704,1.3677847179069986,89.74625354610758,-7.4257054,10.7895155,16.123678,16.79665,-11.712699,-5.8248873,0.44416335,-9.691186,-21.641266,8.526743,-8.437209,9.443859,-1.5932148,0.6432498,6.8749065,-26.268272,21.223543,-0.5994975,58.51741,-18.394001,10.214971,-15.07159,-25.543724,-28.526974,14.642767,54.563293,27.35466,16.466848,10.316062
10,-0.2601575553417206,-1.7148343324661255,77.97730255126953,-0.34312716027499107,1.340601304151651,89.68438096004911,-7.5046544,10.632756,15.938019,17.01056,-11.973495,-5.7123737,0.3778793,-9.8035965,-21.547337,8.6927395,-8.477994,9.510989,-1.5591556,0.58764756,6.914686,-26.205236,21.219707,-0.5918417,58.334103,-18.41639,10.280773,-15.064108,-25.547457,-28.541601,14.644154,54.558895,27.39199,16.467098,10.33895
11,-0.33485710620880127,-1.7098764181137085,77.97713470458984,-0.31384004817867894,1.3128583414699082,89.6125579144324,-7.575038,10.436553,15.677746,17.184435,-12.205242,-5.609825,0.30217892,-9.926151,-21.442919,8.873905,-8.521115,9.579877,-1.5297334,0.5309453,6.9535284,-26.140894,21.21747,-0.57774365,58.15026,-18.44071,10.352136,-15.05952,-25.532179,-28.571798,14.660605,54.531635,27.440752,16.466917,10.36166
12,-0.41346779465675354,-1.7081191539764404,77.97575378417969,-0.2886820812051582,1.2910606032942928,89.53310044900078,-7.645913,10.205038,15.297885,17.31098,-12.397972,-5.5234604,0.21055487,-10.050291,-21.329319,9.068691,-8.565793,9.647471,-1.4970485,0.471213,6.9874873,-26.079315,21.217304,-0.57024837,57.957565,-18.46498,10.431733,-15.051299,-25.532953,-28.59222,14.668462,54.52583,27.47015,16.46257,10.378142
13,-0.5000779628753662,-1.706771731376648,77.97349548339844,-0.2751222335989437,1.2723304784876708,89.44697202603876,-7.7208104,9.920621,14.6977215,17.38041,-12.55028,-5.4749537,0.10967912,-10.165215,-21.209816,9.272236,-8.610569,9.709463,-1.4683484,0.41493937,7.0117445,-26.014555,21.219223,-0.56573445,57.757915,-18.486675,10.521272,-15.036075,-25.517588,-28.605228,14.67632,54.512882,27.480194,16.44858,10.380571
14,-0.5907487273216248,-1.6997032165527344,77.96150970458984,-0.2682346373356447,1.2549382443759673,89.35270151786965,-7.789108,9.58644,13.932285,17.393286,-12.666354,-5.454162,0.0007123357,-10.277845,-21.082905,9.485346,-8.655729,9.76867,-1.439775,0.3610846,7.033419,-25.948025,21.223278,-0.56326467,57.549442,-18.508863,10.619401,-15.018158,-25.507427,-28.615688,14.685852,54.506935,27.477783,16.43015,10.375218
15,-0.6880834698677063,-1.6948226690292358,77.95745849609375,-0.25405867796243026,1.246623174443467,89.24922764073982,-7.850311,9.240409,13.187728,17.380577,-12.748553,-5.4197106,-0.13373366,-10.407658,-20.941776,9.7203045,-8.704506,9.832684,-1.4163146,0.298097,7.05172,-25.86255,21.233316,-0.5557212,57.310722,-18.536608,10.725534,-15.002014,-25.495613,-28.630085,14.694642,54.49591,27.472822,16.412968,10.372836
16,-0.8006933331489563,-1.692354679107666,77.95453643798828,-0.2187367222152826,1.2550779357906963,89.13512251678026,-7.9003077,8.918669,12.650538,17.360144,-12.79452,-5.3305664,-0.3093312,-10.573275,-20.779589,9.986727,-8.759715,9.909098,-1.3889714,0.21027179,7.056317,-25.791052,21.240751,-0.5551358,57.0815,-18.568863,10.830018,-14.986401,-25.493979,-28.636856,14.688831,54.508183,27.462337,16.397314,10.381473
17,-0.9213137626647949,-1.6904305219650269,77.95578002929688,-0.1551118717772109,1.2849310092502142,89.01365210430326,-7.94474,8.623821,12.368137,17.339289,-12.799725,-5.1549325,-0.53223747,-10.785329,-20.595482,10.287906,-8.82234,10.003048,-1.3653878,0.095612235,7.048625,-25.708557,21.247597,-0.55530626,56.830944,-18.612394,10.938112,-14.9746475,-25.509361,-28.640327,14.668059,54.542637,27.448412,16.391783,10.409516
18,-1.0496745109558105,-1.6923494338989258,77.95318603515625,-0.0716416120868159,1.3313254514972213,88.88410114564282,-7.9839272,8.338701,12.242281,17.306934,-12.767809,-4.921757,-0.7948145,-11.032099,-20.39157,10.621223,-8.8927765,10.109597,-1.3415133,-0.047014173,7.0351954,-25.616804,21.263697,-0.55659837,56.55627,-18.66261,11.052346,-14.969682,-25.508821,-28.644115,14.615826,54.564114,27.420399,16.39382,10.456049
19,-1.1841074228286743,-1.6887849569320679,77.95328521728516,0.022992041178136403,1.387893804360108,88.73983816892557,-8.006361,8.070247,12.239649,17.249086,-12.706245,-4.681223,-1.0842803,-11.296224,-20.16732,10.967458,-8.960411,10.22208,-1.3132862,-0.20344122,7.0102925,-25.528774,21.277824,-0.5669389,56.281555,-18.72039,11.165059,-14.957905,-25.500612,-28.645319,14.56445,54.587563,27.394218,16.388687,10.498189
20,-1.3161700963974,-1.6967939138412476,77.95036315917969,0.11953802193003682,1.4484613522037046,88.5741716668463,-8.003414,7.825851,12.326628,17.155573,-12.622624,-4.4836698,-1.3916539,-11.562227,-19.921856,11.317098,-9.020403,10.33391,-1.2699745,-0.36862496,6.985529,-25.433268,21.291924,-0.5887708,55.98342,-18.783566,11.275593,-14.933103,-25.490673,-28.645386,14.5133705,54.609875,27.367678,16.369036,10.523237
21,-1.4502025842666626,-1.7037965059280396,77.9505844116211,0.21751099877072014,1.51184191261103,88.37656344711574,-7.9655633,7.619395,12.534552,17.018806,-12.507488,-4.349091,-1.7235339,-11.828222,-19.646128,11.679519,-9.0753565,10.442168,-1.1941774,-0.5471483,6.9644976,-25.340012,21.317438,-0.6449571,55.662464,-18.868885,11.3849945,-14.891198,-25.45873,-28.644855,14.447189,54.610687,27.334814,16.331406,10.524856
22,-1.5957025289535522,-1.7114653587341309,77.94711303710938,0.32079615656326,1.5814259870636596,88.15369375332368,-7.898707,7.4419346,12.86776,16.840176,-12.359264,-4.2483983,-2.0789735,-12.099833,-19.343697,12.049937,-9.123708,10.550949,-1.1049794,-0.72966164,6.939871,-25.233421,21.339106,-0.710969,55.316082,-18.966099,11.492636,-14.83526,-25.441673,-28.643599,14.394344,54.627537,27.30465,16.279226,10.508392
23,-1.7550525665283203,-1.7161571979522705,77.94688415527344,0.42825934011392913,1.657427807216117,87.92385297804523,-7.823708,7.268593,13.251101,16.63863,-12.1986,-4.1586204,-2.4452937,-12.376174,-19.031332,12.413034,-9.161957,10.664956,-1.0140398,-0.9249211,6.915586,-25.122908,21.360523,-0.7780789,54.95281,-19.059336,11.598796,-14.774918,-25.422853,-28.641203,14.336587,54.643047,27.276001,16.220934,10.489451
24,-1.9220296144485474,-1.7258310317993164,77.94452667236328,0.5381236798705216,1.739878545978095,87.70532858231192,-7.757125,7.074505,13.60963,16.423195,-12.045885,-4.056854,-2.8088896,-12.65575,-18.725903,12.751526,-9.1855955,10.788139,-0.94090044,-1.1370394,6.890194,-25.012676,21.38445,-0.83522964,54.584274,-19.137543,11.702792,-14.717925,-25.368502,-28.639069,14.265421,54.62559,27.251095,16.162289,10.480603
25,-2.084650754928589,-1.7378607988357544,77.94035339355469,0.6522361171673059,1.8273328227492418,87.5037639801828,-7.6975784,6.854277,13.931965,16.19026,-11.903348,-3.9457219,-3.1661,-12.941261,-18.431723,13.066769,-9.197381,10.9221525,-0.8826296,-1.3671886,6.874975,-24.908752,21.40989,-0.8815774,54.20135,-19.196936,11.806562,-14.667988,-25.336138,-28.633959,14.1807785,54.624878,27.229734,16.108097,10.485015
26,-2.250026226043701,-1.754655361175537,77.93792724609375,0.7706534332100099,1.9201073222538496,87.30920482766942,-7.6392093,6.621645,14.254867,15.937581,-11.761844,-3.8347232,-3.5253558,-13.232524,-18.139292,13.369035,-9.200181,11.064602,-0.83862644,-1.6167362,6.8599987,-24.80231,21.441355,-0.9198595,53.805805,-19.245157,11.90997,-14.619799,-25.271267,-28.62683,14.082288,54.594093,27.208498,16.050875,10.49476
27,-2.417757749557495,-1.7733415365219116,77.93438720703125,0.88863119209048,2.0211621421385595,87.11676867088609,-7.5888777,6.380118,14.575558,15.6712675,-11.62066,-3.7112615,-3.8858857,-13.522679,-17.846954,13.644883,-9.183653,11.213964,-0.80499387,-1.8770313,6.8445697,-24.690733,21.47528,-0.94705296,53.399845,-19.28057,12.01063,-14.574127,-25.198252,-28.617727,13.9786825,54.552334,27.192295,15.992722,10.512862
28,-2.5884199142456055,-1.7940753698349,77.93329620361328,1.0052478657683621,2.133381678450638,86.92170032084381,-7.5522985,6.133189,14.891954,15.397078,-11.479696,-3.5627985,-4.2408295,-13.802866,-17.554138,13.866389,-9.133645,11.36869,-0.7760411,-2.1377332,6.8265257,-24.575495,21.505709,-0.9659059,52.991375,-19.305439,12.105484,-14.528901,-25.1446,-28.607151,13.879973,54.52449,27.186172,15.934462,10.540901
29,-2.777597188949585,-1.8161792755126953,77.93583679199219,1.1227360053858542,2.2608013386978776,86.72218780560024,-7.524727,5.8709383,15.204381,15.097354,-11.33541,-3.379078,-4.6005363,-14.080612,-17.256176,14.044792,-9.053082,11.528454,-0.75570285,-2.4097042,6.7957373,-24.450855,21.539972,-0.9741342,52.583206,-19.317265,12.192284,-14.487518,-25.05394,-28.595587,13.775152,54.460125,27.188995,15.876912,10.586808
30,-2.9677340984344482,-1.8422584533691406,77.93580627441406,1.24103985263825,2.400789415789632,86.52112703592005,-7.505529,5.595647,15.513855,14.777696,-11.190853,-3.1694458,-4.9640613,-14.356965,-16.954847,14.187917,-8.947687,11.693921,-0.738474,-2.6884947,6.762492,-24.323265,21.572596,-0.9744871,52.16845,-19.316563,12.272923,-14.449582,-24.992905,-28.582434,13.6743555,54.419155,27.20479,15.821629,10.647291
31,-3.14152455329895,-1.869938850402832,77.93236541748047,1.3508210298037828,2.545916010337213,86.32026398494679,-7.5020823,5.3264923,15.81973,14.469725,-11.050669,-2.9504237,-5.314333,-14.616964,-16.657713,14.278567,-8.810695,11.864722,-0.73280597,-2.9655118,6.728131,-24.191584,21.604113,-0.9642093,51.7528,-19.30573,12.35151,-14.408618,-24.89422,-28.56904,13.565448,54.340145,27.219446,15.760992,10.707526
32,-3.333538770675659,-1.8990453481674194,77.93213653564453,1.4434063760702998,2.688830805672467,86.12117734327329,-7.52459,5.08361,16.121164,14.210609,-10.921838,-2.7382371,-5.6370783,-14.847126,-16.371977,14.304738,-8.638136,12.040832,-0.72003466,-3.2447226,6.718176,-24.087322,21.656311,-0.9730386,51.341312,-19.303566,12.435653,-14.363206,-24.808435,-28.541788,13.422235,54.264503,27.21801,15.694908,10.758757
33,-3.52974796295166,-1.9330108165740967,77.93270874023438,1.5152372191198842,2.825872294255902,85.92859369773032,-7.5795956,4.873588,16.414133,14.018275,-10.808271,-2.5372596,-5.9285674,-15.045982,-16.104044,14.268698,-8.428685,12.215639,-0.7151521,-3.5024161,6.7249904,-24.000376,21.697422,-0.97950315,50.943604,-19.29218,12.520424,-14.303471,-24.729973,-28.509766,13.268639,54.189915,27.204853,15.618589,10.789581
34,-3.713775396347046,-1.9715245962142944,77.93355560302734,1.5731569739761864,2.961339695321881,85.74017546701114,-7.661996,4.686126,16.700605,13.87395,-10.707168,-2.3385339,-6.1970983,-15.221923,-15.848379,14.177219,-8.186066,12.391531,-0.71865815,-3.7480257,6.7394657,-23.924982,21.731428,-0.983536,50.558205,-19.271656,12.604332,-14.233317,-24.608768,-28.478025,13.092153,54.07163,27.176569,15.534074,10.808606
35,-3.906298875808716,-2.0276222229003906,77.9330825805664,1.61893968976859,3.0999255589475823,85.54708742223065,-7.7622943,4.5156503,16.988338,13.752989,-10.611899,-2.1380575,-6.442912,-15.37542,-15.595539,14.020097,-7.910499,12.581424,-0.71529347,-3.993579,6.7617164,-23.856312,21.768785,-0.99795675,50.16492,-19.257109,12.691229,-14.159096,-24.487568,-28.44195,12.903899,53.953346,27.147379,15.443221,10.823866
36,-4.098846435546875,-2.077518939971924,77.9337158203125,1.6592867287391524,3.246195644894859,85.34062640789763,-7.8721886,4.3571053,17.284943,13.634137,-10.517761,-1.9318011,-6.665488,-15.506485,-15.336448,13.786395,-7.6024423,12.798248,-0.70831573,-4.2423615,6.781547,-23.768137,21.81308,-1.0145096,49.73805,-19.258688,12.784464,-14.08754,-24.368752,-28.40694,12.731863,53.840126,27.131893,15.345204,10.839638
37,-4.291479110717773,-2.1261651515960693,77.9375,1.6892781865697009,3.3982124979881445,85.11754469195994,-7.989496,4.214329,17.591763,13.518896,-10.426605,-1.7197701,-6.864598,-15.612049,-15.062337,13.477803,-7.261921,13.030885,-0.6947761,-4.4931417,6.8042607,-23.653116,21.860117,-1.0248232,49.26229,-19.27138,12.8866205,-14.018434,-24.266191,-28.377893,12.588298,53.744164,27.147057,15.238573,10.859451
38,-4.483208656311035,-2.161327838897705,77.94117736816406,1.7110712760384326,3.5542647590235465,84.88302467622145,-8.11835,4.087523,17.905174,13.416775,-10.340656,-1.5032692,-7.039195,-15.694759,-14.78018,13.097206,-6.888537,13.276964,-0.6754343,-4.7543716,6.8348823,-23.527466,21.925722,-1.0393952,48.753586,-19.298912,12.997037,-13.951772,-24.172905,-28.3444,12.452393,53.656403,27.179121,15.124347,10.881165
39,-4.665663719177246,-2.2228121757507324,77.94314575195312,1.7304104033379195,3.719373547595679,84.64037040285343,-8.258423,3.9664435,18.225718,13.313912,-10.25182,-1.2819544,-7.184464,-15.764183,-14.504538,12.627899,-6.4797816,13.563409,-0.6629858,-5.0146103,6.8586993,-23.382252,21.998922,-1.0518962,48.223125,-19.343485,13.111041,-13.88939,-24.072369,-28.311945,12.327102,53.55992,27.207556,15.006019,10.899537
40,-4.849473476409912,-2.2925031185150146,77.94384002685547,1.752170588874068,3.8985022386250763,84.39333274898074,-8.408513,3.8391218,18.55405,13.194215,-10.151536,-1.0532225,-7.300226,-15.829038,-14.248908,12.061927,-6.032654,13.91633,-0.65051407,-5.2735496,6.8754106,-23.231092,22.079266,-1.0787548,47.684277,-19.413118,13.224719,-13.833661,-24.044878,-28.277426,12.224321,53.527473,27.231588,14.889979,10.911143
41,-5.0369954109191895,-2.3559021949768066,77.94481658935547,1.7843368450610944,4.094894488445938,84.14094565767182,-8.569934,3.698367,18.897093,13.050587,-10.033303,-0.8113398,-7.383493,-15.894527,-14.019299,11.373882,-5.5281625,14.36283,-0.64840966,-5.536726,6.8749847,-23.060846,22.171375,-1.1192864,47.12551,-19.517902,13.342561,-13.790957,-24.021885,-28.241682,12.127613,53.497726,27.224857,14.772539,10.909668
42,-5.223052978515625,-2.4138379096984863,77.94575500488281,1.8238082720180346,4.304375368778225,83.8823333526017,-8.741998,3.5491068,19.253462,12.892562,-9.903393,-0.55879045,-7.4285913,-15.957102,-13.807791,10.563857,-4.9681587,14.882186,-0.65481746,-5.8069344,6.862177,-22.87208,22.27663,-1.1694732,46.545597,-19.65202,13.465378,-13.7582245,-23.98856,-28.20538,12.033234,53.457108,27.195051,14.65284,10.899338
43,-5.39753532409668,-2.4707717895507812,77.94786071777344,1.818660505989128,4.542039421510853,83.59157292060786,-8.995163,3.4847085,19.616943,12.853016,-9.83117,-0.32353124,-7.4105535,-15.897999,-13.608556,9.529013,-4.3131475,15.000033,-0.6376405,-6.033567,6.8205414,-22.680746,22.37754,-1.2241814,45.980198,-19.793776,13.580174,-13.721892,-23.959303,-28.171776,11.943442,53.41904,27.160475,14.53601,10.889195
44,-5.574136257171631,-2.5344302654266357,77.94544982910156,1.8019035304314366,4.785209332502814,83.29497449746083,-9.26122,3.442245,19.969652,12.834311,-9.77624,-0.10357331,-7.331238,-15.808137,-13.416552,8.384035,-3.6440237,15.000033,-0.6267166,-6.2519064,6.767729,-22.492374,22.495968,-1.2720085,45.455616,-19.935865,13.680256,-13.67663,-23.926958,-28.12732,11.854599,53.36931,27.130201,14.427705,10.891845
45,-5.7527995109558105,-2.595494270324707,77.94026947021484,1.7900917366286015,5.0362258935916095,82.9998610343022,-9.532082,3.3934236,20.306343,12.811546,-9.728933,0.10467123,-7.167817,-15.683516,-13.120451,7.0203667,-2.8858843,15.000033,-0.6245742,-6.4674635,6.694027,-22.308664,22.608181,-1.3224492,44.982464,-20.079561,13.756184,-13.607224,-23.893099,-28.078337,11.770871,53.316467,27.111021,14.327474,10.909581
46,-5.919704437255859,-2.6527652740478516,77.93386840820312,1.7846878320747508,5.294549557425908,82.70465387134178,-9.80734,3.33787,20.634174,12.78265,-9.6845255,0.305823,-7.545622,-15.671508,-12.589912,6.7622194,-2.7405086,15.000033,-0.62902987,-6.682093,6.603072,-22.127789,22.713491,-1.3783323,44.547123,-20.228155,13.814246,-13.521206,-23.861149,-28.029293,11.693097,53.26528,27.096155,14.233205,10.936313
47,-6.080260753631592,-2.7032501697540283,77.9354476928711,1.7712154172415935,5.541700304014302,82.41244206755223,-10.055242,3.2830784,20.954842,12.721542,-9.62802,0.49930355,-7.922968,-15.714962,-12.207591,6.655008,-2.7434125,15.000033,-0.6411228,-6.8796825,6.5165567,-21.954706,22.80783,-1.4171633,44.15205,-20.353716,13.862309,-13.433983,-23.831284,-27.980188,11.618802,53.212147,27.077494,14.145068,10.965716
48,-6.256156921386719,-2.75817608833313,77.95380401611328,1.7318472798914784,5.7619716768941895,82.12422809370224,-10.250418,3.2439845,21.269989,12.610127,-9.547915,0.68357086,-8.166925,-15.838518,-12.247199,6.586215,-2.8681772,15.000033,-0.65700436,-7.027348,6.4510474,-21.795496,22.865377,-1.4148529,43.803913,-20.421764,13.9053,-13.356789,-23.806913,-27.944687,11.552571,53.15988,27.050583,14.062769,10.98973
49,-6.433915138244629,-2.8082222938537598,77.9823989868164,1.6553788983642646,5.95518235116412,81.84265061398985,-10.393222,3.2300143,21.577515,12.44709,-9.440975,0.8566986,-8.253359,-16.052122,-12.853616,6.5520105,-3.1539657,15.000033,-0.68081266,-7.1288066,6.4115353,-21.654272,22.908472,-1.3697228,43.507504,-20.427422,13.946943,-13.294093,-23.779608,-27.90835,11.479009,53.09741,27.003334,13.980029,11.008058
50,-6.609272003173828,-2.8533432483673096,78.01506042480469,1.5489252040257613,6.129796778507914,81.56469769271243,-10.49947,3.2376547,21.876793,12.247461,-9.316402,1.0191582,-8.218949,-16.324177,-13.870714,6.5388045,-3.561859,15.000033,-0.7110654,-7.1876903,6.386245,-21.527206,22.932636,-1.2921855,43.260334,-20.38496,13.982701,-13.238078,-23.753418,-27.87422,11.406146,53.0308,26.944662,13.898668,11.023234
51,-6.79913330078125,-2.8942339420318604,78.04667663574219,1.4183281393404492,6.283945897963323,81.28192141634888,-10.565704,3.2625256,22.171766,12.014086,-9.179845,1.1724321,-8.078611,-16.631063,-15.1058655,6.5422163,-4.0135865,15.000033,-0.7457141,-7.212565,6.37449,-21.402851,22.943579,-1.1814259,43.04237,-20.310816,14.014031,-13.192716,-23.738747,-27.837772,11.345242,52.96892,26.879425,13.830104,11.037076
52,-6.985469818115234,-2.9280316829681396,78.0842514038086,1.2716363565919688,6.415629673246445,80.98635635543135,-10.585824,3.298192,22.466942,11.742781,-9.034732,1.318426,-7.852808,-16.951889,-16.36376,6.5621347,-4.4310765,15.000033,-0.77312285,-7.205308,6.372446,-21.290709,22.938805,-1.055642,42.857044,-20.229776,14.038685,-13.158523,-23.739359,-27.810904,11.312115,52.919704,26.8267,13.786996,11.051637
53,-7.170365810394287,-2.9604008197784424,78.13197326660156,1.1032538316508291,6.517762002400499,80.68431457090621,-10.550934,3.3458083,22.752096,11.431061,-8.879341,1.4582678,-7.5163136,-17.296354,-17.701887,6.5989337,-4.8190665,15.000033,-0.818778,-7.1558094,6.387002,-21.154463,22.90833,-0.8635409,42.674454,-20.116947,14.055353,-13.144125,-23.778534,-27.782642,11.331372,52.88816,26.784126,13.777339,11.058116
54,-7.369106292724609,-2.9862000942230225,78.18297576904297,0.9125694084505215,6.590282742502633,80.38011002454859,-10.463273,3.406108,23.026436,11.080492,-8.713363,1.5903555,-7.061505,-17.67077,-19.193378,6.662718,-5.2214932,15.000033,-0.8550611,-7.0701857,6.4205303,-21.048546,22.863575,-0.66550475,42.54409,-19.993124,14.0617,-13.140767,-23.812042,-27.772697,11.365407,52.846375,26.754646,13.796598,11.063738
55,-7.568075656890869,-3.012860059738159,78.23638916015625,0.7137001922160267,6.643255436998508,80.06220113222764,-10.343404,3.4734914,23.308508,10.7147,-8.546659,1.7133558,-6.53687,-18.04553,-20.663385,6.748912,-5.604047,15.000033,-0.91233444,-6.932488,6.4584208,-20.900259,22.761612,-0.4015154,42.401096,-19.833113,14.067178,-13.146364,-23.914602,-27.777086,11.468544,52.867104,26.736362,13.8238125,11.069763
56,-7.761050701141357,-3.031343698501587,78.28421020507812,0.52083750897397,6.689223154649431,79.7163539256172,-10.215039,3.5426598,23.619385,10.358584,-8.388661,1.8258679,-5.9977317,-18.396559,-21.93126,6.848422,-5.9265194,15.000033,-0.9293169,-6.791716,6.499171,-20.788633,22.659763,-0.19172662,42.29035,-19.705309,14.080809,-13.149279,-24.009977,-27.800713,11.5502405,52.9076,26.718128,13.849641,11.102056
57,-7.952824115753174,-3.0531320571899414,78.33104705810547,0.33763010930927473,6.726884143589024,79.33183830586306,-10.073796,3.6145482,23.97126,10.011381,-8.239076,1.9277228,-5.452634,-18.723894,-22.974115,6.9623704,-6.173831,15.000033,-0.90943813,-6.6482906,6.54413,-20.69222,22.56009,-0.011952417,42.189888,-19.601849,14.114321,-13.155442,-24.125938,-27.835777,11.620319,52.998894,26.694218,13.870383,11.1755295
58,-8.141570091247559,-3.091101884841919,78.37727355957031,0.12534356086685566,6.781103105327983,78.88280374460977,-9.994706,3.7673376,24.368984,9.7854185,-8.14971,2.006809,-4.931019,-18.948715,-23.827097,7.0622363,-6.3472342,14.600266,-0.83490944,-6.473864,6.5680094,-20.60797,22.46263,0.15246403,42.10405,-19.512573,14.160836,-13.168061,-24.261467,-27.877573,11.689643,53.12957,26.668484,13.892938,11.277506
59,-8.323630332946777,-3.122164487838745,78.41883850097656,-0.0758939934866182,6.832953674080721,78.41764987244177,-9.908855,3.9103582,24.784634,9.555476,-8.062447,2.0771697,-4.675136,-19.283829,-24.416847,7.7704678,-6.790858,14.167249,-0.75401485,-6.30353,6.587778,-20.532156,22.373266,0.2955827,42.036415,-19.448555,14.204679,-13.183318,-24.402987,-27.923529,11.77106,53.26782,26.650908,13.917117,11.379542
60,-8.495914459228516,-3.1464879512786865,78.45514678955078,-0.25950269618833766,6.892922470799234,77.94966295761677,-9.832345,4.0341454,25.205791,9.322459,-7.977436,2.1398132,-4.575455,-19.68462,-24.758362,8.803858,-7.366266,13.743727,-0.6834192,-6.14254,6.5927973,-20.46118,22.29679,0.4108841,41.99019,-19.420103,14.230325,-13.197245,-24.536453,-27.97461,11.877721,53.381523,26.652931,13.94294,11.452694
61,-8.676736831665039,-3.1732943058013916,78.48343658447266,-0.4185628100638433,6.962512787800745,77.47667685910767,-9.761067,4.128644,25.63533,9.075876,-7.891431,2.1927981,-4.506945,-20.092897,-24.824387,9.85942,-7.918003,13.33208,-0.62307835,-5.9935403,6.578675,-20.391052,22.233389,0.49135253,41.965584,-19.440495,14.237831,-13.208062,-24.662893,-28.035666,12.022952,53.462383,26.678766,13.9796715,11.482758
62,-8.853752136230469,-3.2093570232391357,78.50576782226562,-0.553479121362137,7.036403076395901,76.99366022200115,-9.68392,4.1935205,26.079674,8.807338,-7.800149,2.237252,-4.471936,-20.515388,-24.64442,10.959784,-8.448551,12.931366,-0.56261516,-5.8691063,6.551525,-20.333776,22.1969,0.53105634,41.96912,-19.507782,14.2350025,-13.217861,-24.781527,-28.091248,12.18404,53.524994,26.715456,14.023323,11.487921
63,-9.0277738571167,-3.245283365249634,78.52269744873047,-0.6745833180628674,7.115673549801361,76.50841154952687,-9.610593,4.2406397,26.530565,8.530376,-7.706233,2.2781186,-4.4446797,-20.942696,-24.357693,12.069458,-8.930056,12.5371475,-0.5167014,-5.750115,6.517882,-20.276028,22.168184,0.56732124,41.98446,-19.589119,14.216724,-13.232817,-24.901852,-28.154575,12.366404,53.579945,26.773935,14.057766,11.486683
64,-9.198478698730469,-3.2774221897125244,78.54015350341797,-0.7923364152562936,7.201391205009028,76.02873422115434,-9.551049,4.2844925,26.979256,8.258522,-7.6122136,2.3200111,-4.397214,-21.368082,-24.1046,13.15596,-9.336204,12.144855,-0.4839907,-5.6373353,6.483799,-20.23089,22.14675,0.60577375,42.016117,-19.659613,14.177161,-13.253793,-25.006893,-28.212593,12.535012,53.62672,26.845873,14.064198,11.498211
65,-9.372367858886719,-3.3087339401245117,78.55867767333984,-0.907764461940621,7.296304616448653,75.55774401978772,-9.510867,4.328832,27.423136,7.997738,-7.5201316,2.3622851,-4.324076,-21.779058,-23.870377,14.201564,-9.655673,11.75848,-0.47264153,-5.5239606,6.446741,-20.189539,22.127077,0.655388,42.064873,-19.719517,14.104715,-13.283223,-25.107822,-28.276062,12.719984,53.675503,26.95978,14.028882,11.527573
66,-9.534544944763184,-3.3437376022338867,78.57144927978516,-1.0191617331320426,7.399248399953277,75.0909039978933,-9.485295,4.3692646,27.866016,7.7427897,-7.429571,2.4028924,-4.23671,-22.176931,-23.600857,15.221478,-9.899578,11.379821,-0.4775525,-5.4106646,6.404949,-20.151644,22.10921,0.7079599,42.129833,-19.778685,14.005348,-13.31898,-25.20448,-28.347101,12.921704,53.72116,27.107677,13.964754,11.564609
67,-9.697636604309082,-3.37571382522583,78.58079528808594,-1.1283358033958293,7.505365773392947,74.62398235060621,-9.471409,4.4094567,28.308615,7.497896,-7.3432803,2.444373,-4.133764,-22.577314,-23.377512,16.240124,-10.081099,10.9996805,-0.48465472,-5.304675,6.3624277,-20.136795,22.098251,0.74974656,42.212936,-19.82618,13.8994465,-13.353914,-25.279558,-28.3972,13.075957,53.754234,27.228912,13.891331,11.603252
68,-9.864404678344727,-3.4268596172332764,78.5887451171875,-1.2368931273000001,7.609759819300656,74.15324245516915,-9.458486,4.448079,28.752134,7.2492933,-7.2544103,2.4894166,-4.0052814,-22.999763,-23.284214,17.269442,-10.207964,10.608156,-0.5096062,-5.1813912,6.326665,-20.117228,22.08185,0.82117254,42.27503,-19.844818,13.810919,-13.395232,-25.3547,-28.445366,13.188716,53.773315,27.30199,13.833966,11.639539
69,-10.025540351867676,-3.4764976501464844,78.59746551513672,-1.3470691144127254,7.715937317061131,73.67787087323455,-9.507653,4.5200024,29.191086,7.1313367,-7.2325263,2.5359552,-3.8627274,-23.449606,-23.329874,18.334606,-10.282948,10.183412,-0.5348274,-5.0512166,6.29674,-20.125149,22.065763,0.8990784,42.341106,-19.828691,13.740926,-13.43677,-25.407328,-28.464237,13.188995,53.770817,27.275063,13.797403,11.680616
70,-10.198278427124023,-3.527629852294922,78.60739135742188,-1.4616934748551096,7.825178731062886,73.20029398748673,-9.604545,4.61896,29.624792,7.1079173,-7.2581086,2.5829675,-3.6976883,-23.91651,-23.47971,19.411455,-10.297502,9.735015,-0.56765723,-4.9108996,6.2516274,-20.147966,22.058247,0.9554022,42.425644,-19.813183,13.675062,-13.469455,-25.453478,-28.46604,13.149856,53.776245,27.21041,13.765554,11.719673
71,-10.361469268798828,-3.5834426879882812,78.61808013916016,-1.5704311161435174,7.927795545402865,72.7188935543183,-9.693298,4.711784,30.062286,7.0806293,-7.2832165,2.633796,-3.4957678,-24.406816,-23.736717,20.480597,-10.263846,9.299273,-0.6185616,-4.763566,6.2506742,-20.152897,22.02013,1.1054972,42.445282,-19.714005,13.628089,-13.527358,-25.486917,-28.461811,13.039347,53.727406,27.079308,13.744178,11.756944
72,-10.520602226257324,-3.623792886734009,78.6288833618164,-1.671540075692977,8.015749618862033,72.23578060996715,-9.763633,4.8002844,30.50201,7.052709,-7.3105893,2.6897063,-3.223339,-24.910828,-24.117678,21.489841,-10.182694,8.910625,-0.66358995,-4.626231,6.2231827,-20.181477,21.994793,1.1756837,42.504917,-19.65881,13.581055,-13.556471,-25.50673,-28.456955,12.998365,53.70433,27.016174,13.708666,11.752119
73,-10.67057991027832,-3.6745176315307617,78.63623809814453,-1.7627145351510203,8.086546118124998,71.759969625951,-9.809979,4.8765025,30.936752,7.019175,-7.341831,2.754082,-2.8647661,-25.44044,-24.657019,22.447426,-10.060143,8.585058,-0.7166699,-4.505158,6.1982303,-20.210464,21.978165,1.2235376,42.551525,-19.588985,13.544764,-13.576194,-25.493223,-28.457088,13.01726,53.64885,27.015461,13.661978,11.683418
74,-10.82054328918457,-3.730912446975708,78.64176940917969,-1.8478339087987494,8.145062296531592,71.2887503671379,-9.841545,4.9450684,31.367683,6.9839344,-7.373917,2.82494,-2.4342332,-25.993975,-25.340565,23.373528,-9.895493,8.298805,-0.7797516,-4.3907833,6.1732817,-20.243916,21.967888,1.2546201,42.59352,-19.513126,13.517589,-13.589146,-25.462204,-28.461214,13.074826,53.577473,27.057158,13.609084,11.569771
75,-10.974305152893066,-3.7835679054260254,78.64922332763672,-1.9305705119905114,8.192805547467424,70.80181527522245,-9.858212,5.0177445,31.81235,6.9463024,-7.4054255,2.8956165,-1.9663222,-26.553844,-26.096645,24.276558,-9.693035,8.028282,-0.841626,-4.27124,6.1539435,-20.269566,21.959663,1.277773,42.61849,-19.456703,13.498298,-13.597845,-25.432875,-28.467096,13.127595,53.517986,27.086836,13.556595,11.470143
76,-11.127056121826172,-3.821338415145874,78.6533432006836,-2.0144076062029193,8.231188815787748,70.28023087354273,-9.860149,5.103602,32.288013,6.907179,-7.434483,2.96002,-1.4972659,-27.103174,-26.854076,25.161839,-9.455831,7.7504716,-0.9235702,-4.12035,6.1353016,-20.257183,21.942211,1.3430609,42.622055,-19.430258,13.483863,-13.616836,-25.47154,-28.4755,13.194398,53.53425,27.08286,13.50886,11.431528
77,-11.266810417175293,-3.881025791168213,78.66490173339844,-2.104018909161645,8.261099481394904,69.71843606792537,-9.850195,5.2085595,32.79814,6.870118,-7.4619503,3.0145888,-1.0335623,-27.639915,-27.60963,26.032766,-9.192088,7.451506,-0.9758902,-3.957239,6.1391497,-20.223211,21.923689,1.4027255,42.57688,-19.454906,13.478336,-13.636652,-25.521223,-28.46715,13.119463,53.598827,26.939573,13.472155,11.508859
78,-11.415033340454102,-3.946941614151001,78.67748260498047,-2.1948997092000497,8.281295108021192,69.12668541284752,-9.826891,5.325592,33.334244,6.8335776,-7.488445,3.0633261,-0.55926263,-28.177383,-28.394613,26.89402,-8.901323,7.1441126,-1.0114081,-3.7855754,6.148096,-20.194765,21.911737,1.4407198,42.530827,-19.53025,13.478275,-13.653202,-25.581997,-28.447302,12.975679,53.70911,26.725431,13.439185,11.656204
79,-11.55573558807373,-4.010393142700195,78.68744659423828,-2.285793178523399,8.290177669888992,68.50924106964548,-9.785979,5.4505763,33.89389,6.793641,-7.512849,3.1105592,-0.072366,-28.7071,-29.195406,27.73607,-8.5717,6.84373,-0.99952567,-3.6373718,6.178099,-20.186954,21.89657,1.4440259,42.47169,-19.593533,13.482396,-13.65938,-25.576933,-28.398119,12.720496,53.773346,26.444216,13.40986,11.81949
80,-11.68812370300293,-4.069616317749023,78.6928482055664,-2.3763756482972664,8.286959623395783,67.87149837429361,-9.728194,5.580374,34.473503,6.7552304,-7.538894,3.1610684,0.41974542,-29.231398,-29.992886,28.57066,-8.192469,6.5673885,-0.9899967,-3.4991658,6.1921945,-20.181206,21.894087,1.42025,42.439747,-19.666636,13.482772,-13.656146,-25.590439,-28.349064,12.574027,53.84818,26.268808,13.377058,11.927909
81,-11.825820922851562,-4.13081693649292,78.70594024658203,-2.468452414068085,8.267279842177063,67.20989967162414,-9.648015,5.7193775,35.07284,6.721848,-7.570275,3.2160494,0.9325711,-29.74822,-30.813147,29.38647,-7.7413554,6.328595,-0.9897395,-3.3554928,6.2099137,-20.14867,21.896786,1.4115479,42.39079,-19.723135,13.485288,-13.660428,-25.608316,-28.343616,12.57621,53.882584,26.24934,13.349128,11.968884
82,-11.955232620239258,-4.191455841064453,78.71961975097656,-2.5568849295571496,8.23290680784524,66.52380499487737,-9.554297,5.868268,35.693798,6.709831,-7.6150904,3.2735162,1.4579736,-30.265253,-31.652508,30.196083,-7.2326355,6.113926,-0.9837805,-3.221603,6.2293005,-20.095184,21.907888,1.3921309,42.322865,-19.779245,13.490144,-13.660247,-25.627848,-28.345299,12.6472435,53.905617,26.307556,13.322517,11.974447
83,-12.089179039001465,-4.25273323059082,78.73257446289062,-2.642833086283596,8.191824369608835,65.82218929232947,-9.451275,6.0185566,36.334385,6.6971197,-7.657964,3.3324447,1.9739734,-30.769901,-32.46161,30.9999,-6.705388,5.899644,-1.0037329,-3.078177,6.2424154,-20.008518,21.92754,1.3888544,42.24248,-19.852999,13.497355,-13.66359,-25.698898,-28.362587,12.802368,53.958313,26.416756,13.299584,11.966677
84,-12.225666046142578,-4.332892417907715,78.74504852294922,-2.721932840526212,8.15221447466942,65.11315342280163,-9.350756,6.1644707,36.993748,6.6814194,-7.6942453,3.3919084,2.4529316,-31.254711,-33.187042,31.805014,-6.2007427,5.6649776,-1.0068301,-2.9467804,6.2664914,-19.959124,21.933481,1.3753202,42.18814,-19.913465,13.504146,-13.664719,-25.712904,-28.369701,12.855793,53.94616,26.44316,13.290143,11.96933
85,-12.351081848144531,-4.3977885246276855,78.75931549072266,-2.7908621642889666,8.118449144981136,64.40273103638842,-9.260041,6.30137,37.675037,6.6649437,-7.7219543,3.454652,2.8858857,-31.724865,-33.825047,32.618694,-5.7180686,5.4065313,-1.0661597,-2.7952805,6.261845,-19.85855,21.960081,1.3627279,42.1288,-20.04822,13.51369,-13.657652,-25.811045,-28.40303,13.013242,53.99632,26.490005,13.289629,11.978569
86,-12.507798194885254,-4.4879608154296875,78.76604461669922,-2.8514584581034863,8.086335919490017,63.685466059235914,-9.182541,6.4402223,38.376965,6.6741614,-7.757233,3.5204027,3.2839286,-32.18353,-34.39909,33.43688,-5.239134,5.1375675,-1.1168764,-2.656455,6.2647085,-19.782122,21.980936,1.3381627,42.08405,-20.182543,13.526465,-13.644948,-25.870836,-28.42783,13.103219,53.997513,26.478533,13.300422,11.99174
87,-12.627503395080566,-4.56712007522583,78.77833557128906,-2.908146303270075,8.050168141821848,62.95131979334044,-9.093687,6.5776515,39.094135,6.6724772,-7.787683,3.5835097,3.6506505,-32.614693,-34.896244,34.243347,-4.776435,4.8642793,-1.159298,-2.522445,6.2678733,-19.715399,21.99494,1.3094788,42.057404,-20.306503,13.532766,-13.634668,-25.920607,-28.444427,13.163547,53.987026,26.443687,13.316988,12.0047655
88,-12.746268272399902,-4.646359920501709,78.79059600830078,-2.962058779771708,8.005140731953547,62.19100323200244,-8.983349,6.717179,39.820152,6.6568227,-7.8174667,3.6386034,3.9867837,-33.008114,-35.301186,35.025917,-4.3442283,4.594088,-1.1981626,-2.3872542,6.2708507,-19.646158,22.016737,1.2908394,42.049644,-20.418552,13.526256,-13.644927,-25.983328,-28.473848,13.23858,53.98231,26.433718,13.338501,12.019952
89,-12.875364303588867,-4.737639904022217,78.79669952392578,-3.015659692099253,7.944560950988349,61.4020812946441,-8.84159,6.8619447,40.548298,6.625969,-7.8500886,3.6812115,4.29726,-33.351772,-35.58992,35.77527,-3.9532092,4.3359966,-1.2222645,-2.253294,6.2883353,-19.57334,22.029783,1.3004173,42.05335,-20.472261,13.504189,-13.691933,-26.034824,-28.502213,13.278058,53.957005,26.423103,13.364355,12.035883
90,-12.995990753173828,-4.818828582763672,78.80299377441406,-3.0664231131957282,7.873081177436328,60.589219861533294,-8.678571,7.0104027,41.28376,6.586118,-7.8840947,3.7150311,4.5746646,-33.65359,-35.77356,36.501453,-3.5935297,4.0869117,-1.2329689,-2.1225471,6.30752,-19.507334,22.030485,1.3165606,42.08323,-20.487396,13.467403,-13.7567425,-26.082146,-28.517542,13.288372,53.930794,26.400246,13.391642,12.048535
91,-13.108867645263672,-4.902074337005615,78.81037139892578,-3.115605803838525,7.803565891430763,59.757092321354975,-8.511872,7.159634,42.03443,6.5374312,-7.912794,3.746633,4.807935,-33.92909,-35.897305,37.21494,-3.2463343,3.8345978,-1.2355778,-1.9983215,6.316325,-19.464672,22.029362,1.3242352,42.144096,-20.504524,13.422757,-13.812273,-26.119581,-28.52168,13.288114,53.90295,26.36948,13.421301,12.058866
92,-13.221762657165527,-4.988775730133057,78.82100677490234,-3.1482757814038136,7.744212353347873,58.89872067465221,-8.334577,7.279886,42.826824,6.437566,-7.912043,3.782766,4.9733796,-34.21708,-35.983875,37.94449,-2.9001653,3.5685186,-1.2357218,-1.8814464,6.321555,-19.39372,22.022707,1.3495408,42.164642,-20.55386,13.3771925,-13.843661,-26.194414,-28.53448,13.302804,53.90292,26.323908,13.464013,12.082442
93,-13.350799560546875,-5.081255912780762,78.81928253173828,-3.1762144529234484,7.708782320622109,58.02077876321463,-8.2036915,7.4144063,43.6476,6.3917656,-7.93096,3.8270884,5.062124,-34.503674,-36.044617,38.687405,-2.5556974,3.2711093,-1.2295371,-1.7753923,6.303993,-19.358027,22.019346,1.3607287,42.20752,-20.656681,13.329975,-13.823267,-26.248262,-28.540342,13.314647,53.889236,26.252068,13.527283,12.109089
94,-13.46171760559082,-5.185657501220703,78.81956481933594,-3.1907939063846404,7.687972596965739,57.10888851174897,-8.073186,7.5296206,44.51175,6.316493,-7.933367,3.87521,5.065357,-34.795937,-36.037914,39.45031,-2.2244358,2.9549115,-1.2212698,-1.6687799,6.273613,-19.294123,22.007793,1.3909011,42.221745,-20.798742,13.277088,-13.775397,-26.367243,-28.557407,13.363369,53.930523,26.170465,13.611934,12.148506
95,-13.581693649291992,-5.282576084136963,78.82901763916016,-3.1971918104784836,7.667604629047863,56.190435144250394,-7.9443145,7.640556,45.387432,6.247679,-7.9354405,3.9225218,5.043885,-35.07899,-36.025017,40.195744,-1.8829987,2.6458027,-1.2472991,-1.5351785,6.239705,-19.191513,21.96104,1.4736415,42.205406,-20.926678,13.225511,-13.732635,-26.524805,-28.611212,13.488171,53.990547,26.132397,13.684289,12.186178
96,-13.706262588500977,-5.375890731811523,78.83344268798828,-3.184992127570289,7.634244211195888,55.27567881947374,-7.7914352,7.7295966,46.268097,6.1595254,-7.9261966,3.9639454,5.0294647,-35.36188,-36.034924,40.91549,-1.5151762,2.3719923,-1.2506075,-1.4460486,6.209461,-19.143982,21.93341,1.5002021,42.23298,-21.034697,13.175468,-13.706878,-26.611395,-28.644312,13.543116,54.01092,26.097837,13.711734,12.223236
97,-13.816385269165039,-5.474019527435303,78.82491302490234,-3.1508443263412254,7.584617343448672,54.37756379142555,-7.6161823,7.794606,47.144855,6.064532,-7.9104285,3.9987166,5.0451756,-35.65084,-36.09805,41.613358,-1.1305645,2.126531,-1.2671827,-1.3907429,6.1861987,-19.110098,21.916937,1.509281,42.27324,-21.096764,13.130786,-13.71966,-26.666502,-28.669882,13.58032,54.015923,26.105093,13.669023,12.260604
98,-13.914505958557129,-5.579620361328125,78.8256607055664,-3.09786038600363,7.526598106510223,53.48491358534948,-7.4265676,7.840586,48.02636,5.9618454,-7.8873816,4.029069,5.06615,-35.942497,-36.1873,42.29591,-0.73374534,1.900324,-1.2939296,-1.3566059,6.1652393,-19.083323,21.90428,1.5108818,42.31996,-21.13204,13.08904,-13.755225,-26.705008,-28.699308,13.614815,54.01289,26.145134,13.579833,12.29996
99,-14.0195894241333,-5.685184001922607,78.82628631591797,-3.033260721549167,7.46414632847073,52.5773945028537,-7.222771,7.872761,48.924095,5.8460345,-7.8580484,4.0549955,5.0602074,-36.2199,-36.256023,42.943546,-0.29786712,1.7191111,-1.3154372,-1.3388947,6.145679,-19.065481,21.899555,1.5054857,42.370457,-21.17359,13.050223,-13.794543,-26.73275,-28.721268,13.642354,54.004665,26.186731,13.483815,12.335931
100,-14.114262580871582,-5.795969009399414,78.81822204589844,-2.9656337063806544,7.401340720603215,51.634846933129005,-7.0070825,7.899304,49.84918,5.715199,-7.8241563,4.0767617,4.9933763,-36.460995,-36.25732,43.53403,0.20477973,1.6098812,-1.3200685,-1.3126397,6.127537,-19.04678,21.894423,1.5026765,42.412304,-21.258266,13.014163,-13.823231,-26.764988,-28.76132,13.690798,53.991734,26.23006,13.425844,12.365933
101,-14.215083122253418,-5.899325847625732,78.80628967285156,-2.897591782336796,7.341416324286406,50.64886862430148,-6.7824507,7.9258184,50.80524,5.5728936,-7.7897887,4.09179,4.8620853,-36.67171,-36.20221,44.07015,0.7985224,1.584182,-1.3013821,-1.290305,6.1064825,-19.030193,21.893656,1.4999702,42.44873,-21.41328,12.979724,-13.827455,-26.802288,-28.778479,13.734333,53.98482,26.2318,13.419595,12.38048
102,-14.326262474060059,-6.006485939025879,78.79656219482422,-2.8267851226675114,7.28205552896749,49.63086019934299,-6.546243,7.9451914,51.78624,5.4130063,-7.749002,4.100721,4.679924,-36.853203,-36.105213,44.55867,1.463853,1.6301824,-1.28507,-1.2502422,6.0803094,-18.99643,21.892078,1.5120081,42.47395,-21.627504,12.947831,-13.825455,-26.87486,-28.820177,13.843267,53.99934,26.25853,13.444614,12.385361
103,-14.428940773010254,-6.117445945739746,78.7901611328125,-2.7430080450539274,7.218856180056877,48.590342881953724,-6.296888,7.948692,52.78947,5.2403283,-7.7019076,4.10774,4.4377775,-36.9945,-35.91918,44.99257,2.1593368,1.7433391,-1.26117,-1.2180315,6.0603514,-18.958366,21.888311,1.5368772,42.483414,-21.81828,12.920608,-13.826221,-26.943356,-28.86625,13.952376,54.005028,26.283072,13.475389,12.390008
104,-14.540102005004883,-6.232606887817383,78.77786254882812,-2.638782661420767,7.147397059596458,47.53662231736803,-6.0291767,7.9243183,53.81233,5.0493703,-7.644444,4.1171002,4.1290736,-37.082726,-35.59903,45.36266,2.844207,1.9184995,-1.2284132,-1.2100822,6.044237,-18.929396,21.8853,1.5599092,42.49173,-21.923174,12.896921,-13.833994,-27.002428,-28.903252,14.046906,54.012768,26.307415,13.482906,12.399543
105,-14.643033981323242,-6.3430376052856445,78.7584457397461,-2.51019754050281,7.063509465772871,46.46442928959961,-5.7369347,7.868223,54.859844,4.842301,-7.5802894,4.12939,3.73795,-37.105602,-35.091377,45.66925,3.5207522,2.1691096,-1.1832204,-1.2284753,6.0360065,-18.90762,21.883095,1.5868064,42.49132,-21.887928,12.884535,-13.8516445,-27.053888,-28.931839,14.128888,54.027187,26.335722,13.444103,12.416085
106,-14.772582054138184,-6.4810028076171875,78.7366714477539,-2.3625540349643144,6.972043165289176,45.37113929875897,-5.425055,7.7855844,55.9314,4.616909,-7.5078125,4.14254,3.2733657,-37.06832,-34.431725,45.915886,4.2034335,2.4987338,-1.1377463,-1.255202,6.0352106,-18.874426,21.878523,1.6358107,42.469574,-21.760773,12.8824005,-13.879715,-27.117016,-28.97012,14.2322,54.050613,26.380602,13.380679,12.436707
107,-14.868391036987305,-6.602487087249756,78.71915435791016,-2.200552491616204,6.881776585624278,44.26952179475871,-5.109116,7.6826997,57.014256,4.3756843,-7.4223437,4.1570015,2.7677839,-36.980858,-33.712578,46.093365,4.872992,2.8822954,-1.0842721,-1.3031647,6.031271,-18.858065,21.876896,1.6689843,42.461227,-21.629097,12.872575,-13.908719,-27.162867,-28.995138,14.312748,54.066853,26.418024,13.327295,12.458617
108,-14.943148612976074,-6.7091169357299805,78.70051574707031,-2.0313517577032867,6.801342947174246,43.172481311345805,-4.806279,7.57037,58.095455,4.125365,-7.320854,4.173976,2.2508707,-36.858826,-33.02561,46.199566,5.5083165,3.2908275,-1.0591679,-1.3508642,6.019943,-18.825176,21.878473,1.7149578,42.450195,-21.582514,12.844413,-13.948756,-27.225023,-29.027441,14.425158,54.08091,26.478207,13.324355,12.481162
109,-15.028162002563477,-6.833274841308594,78.67501831054688,-1.8542315265717957,6.740281241202496,42.077116089679784,-4.528563,7.4493456,59.17974,3.8687773,-7.2022038,4.196787,1.6365176,-36.62372,-32.154934,46.216877,6.2565184,3.7997339,-1.0462977,-1.4143877,5.99167,-18.801563,21.886307,1.752729,42.464054,-21.6617,12.783731,-13.996395,-27.279356,-29.055637,14.543558,54.076355,26.553255,13.406451,12.513149
110,-15.133852005004883,-6.982672214508057,78.64745330810547,-1.6673591813505624,6.692259097329914,40.97879394444891,-4.2656207,7.3150816,60.270782,3.6013758,-7.0676017,4.22476,0.9465534,-36.291706,-31.133545,46.153076,7.073796,4.3986893,-1.0506645,-1.4895412,5.953254,-18.76896,21.901974,1.7956376,42.479645,-21.817627,12.703123,-14.054219,-27.346815,-29.082851,14.684949,54.071754,26.65007,13.545245,12.552357
111,-15.227230072021484,-7.128552436828613,78.62440490722656,-1.46727469911854,6.641036345502988,39.887842753895626,-3.9998112,7.16429,61.355606,3.3271985,-6.9239492,4.252358,0.36440396,-36.040764,-30.429192,46.038357,7.666986,4.911427,-1.0505644,-1.5829257,5.91993,-18.757004,21.914026,1.8114296,42.507416,-21.983845,12.617533,-14.107615,-27.37573,-29.095303,14.769455,54.042526,26.714897,13.680985,12.58005
112,-15.305235862731934,-7.277566909790039,78.59719848632812,-1.250190689991173,6.569816019448553,38.81583065966292,-3.7115276,6.989748,62.420803,3.037641,-6.7694917,4.274596,0.06585952,-36.062057,-30.5117,45.9038,7.7507105,5.14991,-1.1154747,-1.6703641,5.9049854,-18.699345,21.960426,1.8569294,42.497635,-22.138521,12.555966,-14.17719,-27.448841,-29.120691,14.917829,54.03423,26.8059,13.757069,12.57821
113,-15.393182754516602,-7.430953502655029,78.55593872070312,-1.0015971135935036,6.471731688342646,37.760567935853125,-3.3970933,6.7836156,63.46698,2.751626,-6.6188946,4.2932835,0.13280384,-36.465527,-31.613976,45.78038,7.0917597,4.975261,-1.1620642,-1.7866825,5.916366,-18.676413,21.99874,1.8426906,42.493416,-22.224041,12.513444,-14.227607,-27.451096,-29.122955,14.9394245,53.98869,26.809504,13.744571,12.524417
114,-15.467172622680664,-7.597962856292725,78.51683807373047,-0.7294707360292315,6.358061395637279,36.716274665527116,-3.0673306,6.553838,64.49992,2.4634671,-6.465088,4.310136,0.47754893,-37.105713,-33.45678,45.637333,5.8929024,4.541126,-1.2148626,-1.9227799,5.940926,-18.667276,22.051573,1.7945565,42.493675,-22.291025,12.483265,-14.273596,-27.366293,-29.10338,14.8629875,53.874626,26.735254,13.680233,12.435432
115,-15.529367446899414,-7.769683837890625,78.48524475097656,-0.4633708556230387,6.238869590395793,35.68965409792656,-2.733934,6.3339944,65.51215,2.174881,-6.301011,4.3184395,1.0144688,-37.792416,-35.7468,45.421227,4.525158,4.0898814,-1.2746766,-2.05968,5.9728746,-18.67222,22.106424,1.721064,42.498547,-22.357454,12.455775,-14.313965,-27.315369,-29.077982,14.794173,53.808037,26.687487,13.593059,12.347102
116,-15.59032917022705,-7.944672584533691,78.4588394165039,-0.23052766306525194,6.120930318182374,34.68860808186092,-2.405388,6.152709,66.495964,1.8820406,-6.1165304,4.312061,1.6441435,-38.365265,-38.196003,45.084877,3.3713672,3.8283455,-1.3590375,-2.1785781,6.00553,-18.680777,22.173353,1.6410788,42.50692,-22.457888,12.425907,-14.358765,-27.248379,-29.046951,14.724357,53.740093,26.663923,13.518436,12.30165
117,-15.648131370544434,-8.127097129821777,78.43922424316406,-0.04825473729267378,5.996199167455852,33.72305810452395,-2.074261,6.0255175,67.44207,1.5784432,-5.9043517,4.286332,2.3884358,-38.801125,-40.854057,44.591442,2.5569336,3.8037715,-1.4803922,-2.2592492,6.0509586,-18.681705,22.240559,1.5646781,42.501827,-22.616814,12.395268,-14.406829,-27.228601,-29.026424,14.712488,53.72749,26.722872,13.455116,12.319731
118,-15.699182510375977,-8.30952262878418,78.42616271972656,0.10047605049752291,5.861791122917255,32.78629051716506,-1.7359822,5.931557,68.35766,1.2572627,-5.6651726,4.2455688,3.2900887,-39.154964,-43.843765,43.975853,1.8779781,3.909697,-1.6418216,-2.3062778,6.1074314,-18.666622,22.313211,1.4978931,42.480064,-22.817318,12.36903,-14.462689,-27.143547,-29.004236,14.666804,53.659863,26.766563,13.3931465,12.3802395
119,-15.753536224365234,-8.49477481842041,78.41535949707031,0.2419316390644976,5.731943797262439,31.86324634566542,-1.4352626,5.930972,69.25531,1.1092273,-5.501279,4.1964536,4.2590847,-39.41613,-46.9819,43.301384,1.2296115,4.09223,-1.8111031,-2.3532655,6.1569467,-18.661648,22.393982,1.423304,42.468803,-23.003511,12.338599,-14.524752,-27.019417,-28.977646,14.5927515,53.562553,26.804356,13.342142,12.451194
120,-15.797688484191895,-8.700166702270508,78.40097045898438,0.4014831290212038,5.622627839022781,30.93856379311156,-1.1539208,5.9160585,70.1556,0.9565655,-5.326752,4.1485796,5.2022867,-39.588123,-50.07986,42.629616,0.50346977,4.2972183,-1.9604557,-2.4428675,6.1809335,-18.693745,22.50631,1.3202057,42.49791,-23.13006,12.29802,-14.593986,-26.89377,-28.938993,14.508136,53.47098,26.856312,13.310663,12.501538
121,-15.834906578063965,-8.915332794189453,78.38056182861328,0.5897960145079089,5.542020430985193,30.011355515637128,-0.8991236,5.8720407,71.05983,0.7930751,-5.139997,4.104252,6.1240525,-39.68483,-53.186005,41.964348,-0.33576468,4.5327315,-2.1007543,-2.5408607,6.1620502,-18.723215,22.573105,1.2285924,42.544468,-23.129612,12.231034,-14.670114,-26.800472,-28.915144,14.459737,53.416534,26.94583,13.300162,12.5136795
122,-15.86563777923584,-9.13511848449707,78.35905456542969,0.7917970562243366,5.481770788977966,29.088173416906788,-0.6649959,5.820663,71.96049,0.631523,-4.944899,4.0592604,7.053602,-39.69278,-56.36095,41.266068,-1.2204531,4.8226953,-2.2261944,-2.664526,6.115496,-18.78384,22.647364,1.1088006,42.628086,-23.066668,12.147416,-14.752727,-26.701612,-28.890972,14.406755,53.369545,27.064842,13.30608,12.510818
123,-15.902754783630371,-9.360784530639648,78.33294677734375,0.9956099310289478,5.434409154657229,28.166152400550555,-0.44240412,5.772434,72.85977,0.46553525,-4.736545,4.01272,7.928916,-39.593876,-59.42868,40.52835,-2.1070979,5.1353106,-2.3413887,-2.801691,6.054938,-18.868011,22.7379,0.9776902,42.736313,-22.9839,12.065607,-14.834835,-26.535208,-28.852411,14.291924,53.263237,27.12369,13.330097,12.504681
124,-15.93822956085205,-9.600135803222656,78.30940246582031,1.1901721793539548,5.391876205615465,27.242222827682603,-0.2227361,5.738305,73.759926,0.2932507,-4.5132093,3.9638212,8.684456,-39.383244,-62.2105,39.74944,-2.9558272,5.4342966,-2.4538124,-2.9207547,5.992437,-18.951107,22.802347,0.874923,42.84325,-22.893274,11.998339,-14.899277,-26.423845,-28.8234,14.218586,53.19945,27.162613,13.366317,12.4960165
125,-15.962532043457031,-9.844062805175781,78.29570007324219,1.3683642592400795,5.358185034669085,26.311649109708565,-0.009601807,5.7228127,74.667656,0.105878726,-4.267611,3.9089682,9.291196,-39.05764,-64.674515,38.91842,-3.7945464,5.6464915,-2.5583181,-3.0180316,5.9267073,-19.042786,22.85068,0.8027809,42.955933,-22.800999,11.9531765,-14.949325,-26.3041,-28.79555,14.132899,53.116653,27.096088,13.424659,12.489914
126,-15.997944831848145,-10.094009399414062,78.27859497070312,1.5377810423400726,5.335759775498972,25.37732838010223,0.19358458,5.7197556,75.58013,-0.090591095,-4.004346,3.8504384,9.77644,-38.640057,-66.901245,38.03869,-4.6343017,5.8097615,-2.6643376,-3.0917742,5.8526382,-19.1247,22.86858,0.7710455,43.06164,-22.681429,11.920234,-14.989382,-26.237364,-28.78414,14.095356,53.070217,26.997667,13.501548,12.479198
127,-16.032323837280273,-10.357837677001953,78.25836181640625,1.7102626985440106,5.311164345620315,24.44737646248045,0.40117446,5.7150855,76.486206,-0.29464763,-3.730116,3.7952387,10.166912,-38.170544,-68.88822,37.125378,-5.414299,6.0452123,-2.7403638,-3.1910336,5.7786226,-19.265297,22.904486,0.69066554,43.219173,-22.579306,11.891243,-15.01049,-26.126076,-28.758642,14.00052,52.99745,26.889906,13.58361,12.469329
128,-16.059823989868164,-10.629100799560547,78.22980499267578,1.8980590283093612,5.272203455007379,23.531798080605334,0.630228,5.6748376,77.3735,-0.5440599,-3.4309819,3.7510586,10.494751,-37.69289,-70.64137,36.196167,-6.070022,6.4675283,-2.8258095,-3.3030384,5.7122865,-19.388412,22.943945,0.59973377,43.36432,-22.500984,11.862946,-15.013823,-26.006067,-28.726023,13.8911915,52.92088,26.84652,13.656723,12.459215
129,-16.08053970336914,-10.911757469177246,78.19527435302734,2.115452810865445,5.204748221047549,22.642158221062818,0.88874865,5.6105986,78.233025,-0.7804387,-3.1384246,3.7135258,10.835702,-37.212822,-72.27038,35.206623,-6.541415,7.2150035,-2.9309106,-3.439909,5.6617193,-19.494122,22.984797,0.48971057,43.495358,-22.448433,11.835031,-14.987034,-25.885683,-28.688173,13.775107,52.850605,26.918594,13.715402,12.448081
130,-16.098468780517578,-11.195413589477539,78.16124725341797,2.353772417775025,5.117953576548278,21.770479505906398,1.1717119,5.511363,79.07312,-1.049452,-2.826309,3.6805923,11.156664,-36.72478,-73.745964,34.166447,-6.875173,8.176582,-3.0327673,-3.6170883,5.6196876,-19.62274,23.049908,0.3326545,43.64728,-22.426027,11.809477,-14.93156,-25.759035,-28.628408,13.633407,52.79139,27.062302,13.765047,12.436303
131,-16.1138916015625,-11.483895301818848,78.12957763671875,2.591066811250966,5.034776999065503,20.898069537230935,1.4543371,5.4089465,79.9049,-1.3379949,-2.50213,3.663015,11.333949,-36.259438,-74.87024,33.1809,-7.1760993,9.088627,-3.1571186,-3.7612147,5.578711,-19.695644,23.084215,0.23796868,43.76033,-22.397148,11.786293,-14.883294,-25.681591,-28.593706,13.551624,52.75643,27.241022,13.816287,12.419922
132,-16.13581085205078,-11.786060333251953,78.09843444824219,2.805191587943036,4.976745076167389,20.005553959631598,1.7150695,5.3261003,80.741165,-1.6520408,-2.163658,3.6707544,11.25682,-35.857147,-75.44798,32.363304,-7.5599,9.688868,-3.2388456,-3.9010887,5.520949,-19.810843,23.13496,0.120030284,43.928284,-22.39182,11.758139,-14.850951,-25.594252,-28.541548,13.447204,52.726032,27.363245,13.869759,12.399305
133,-16.157550811767578,-12.098809242248535,78.07249450683594,2.993505687608763,4.950063246472929,19.08241777466404,1.9496014,5.259291,81.59695,-2.0011861,-1.807165,3.7028322,10.851392,-35.566067,-75.30819,31.799799,-8.091125,9.848914,-3.299275,-4.0075765,5.44431,-19.919424,23.180183,0.04494715,44.115883,-22.39719,11.726321,-14.852703,-25.538889,-28.492615,13.374775,52.720764,27.435696,13.941635,12.370082
134,-16.19232749938965,-12.401313781738281,78.04439544677734,3.1659877312007354,4.9410781535259325,18.141181920418592,2.1700373,5.2007246,82.46184,-2.3775814,-1.43612,3.7544932,10.207196,-35.362373,-74.59777,31.431791,-8.714244,9.71834,-3.3453252,-4.100251,5.3557277,-20.0256,23.229347,-0.008825279,44.321236,-22.417784,11.692235,-14.872395,-25.526361,-28.439247,13.336567,52.75658,27.498384,14.022525,12.332725
135,-16.221834182739258,-12.716486930847168,78.02027130126953,3.316528019326168,4.940548315566801,17.19783988348162,2.3813796,5.1513944,83.30969,-2.7963219,-1.0408553,3.8308702,9.456966,-35.16854,-73.597404,31.150084,-9.360892,9.456313,-3.3902264,-4.1581717,5.267564,-20.110577,23.26106,-0.033102836,44.514114,-22.43327,11.658919,-14.903455,-25.524113,-28.402246,13.31648,52.785084,27.537241,14.091506,12.296481
136,-16.236770629882812,-13.044881820678711,78.00172424316406,3.4444239821617733,4.940988927783372,16.268552519256765,2.584029,5.136179,84.11498,-3.2133644,-0.6426222,3.9375918,8.728546,-34.91325,-72.592026,30.844498,-9.964558,9.225983,-3.4410982,-4.2056937,5.1833024,-20.187037,23.300316,-0.061131638,44.69702,-22.444208,11.629342,-14.932875,-25.511822,-28.353561,13.285814,52.789715,27.534029,14.11974,12.266815
137,-16.254898071289062,-13.380159378051758,77.98887634277344,3.6094612368917787,4.961558348996998,15.361698471058142,2.7347927,5.360116,84.913956,-3.0607996,-0.54477215,4.102504,7.9936013,-34.69412,-71.58122,30.574244,-10.550607,9.017655,-3.5050597,-4.2929435,5.0838337,-20.243706,23.336329,-0.07566051,44.85778,-22.426792,11.601055,-14.96445,-25.460045,-28.300627,13.227681,52.73251,27.471073,14.082021,12.249668
138,-16.281726837158203,-13.720401763916016,77.9765625,3.785591890121514,4.990319544796165,14.45910607975812,2.8819933,5.5859118,85.715744,-2.884384,-0.4663122,4.3114023,7.207409,-34.503323,-70.4267,30.37998,-11.146036,8.76547,-3.5599525,-4.401044,4.9791374,-20.305153,23.371328,-0.088153,45.026054,-22.393206,11.571949,-14.998562,-25.398495,-28.244436,13.159173,52.65462,27.366379,13.995704,12.242071
139,-16.297473907470703,-14.073141098022461,77.97088623046875,3.928207918324223,5.00706233003105,13.574965975615891,3.033118,5.8707404,86.4192,-2.6896617,-0.38896307,4.517944,6.4610853,-34.231613,-69.25298,30.144547,-11.684219,8.551506,-3.6306753,-4.5162725,4.883115,-20.36365,23.45107,-0.12784864,45.190956,-22.390799,11.551184,-15.02917,-25.334398,-28.12471,13.062196,52.578846,27.20547,13.902792,12.22798
140,-16.308250427246094,-14.440740585327148,77.97490692138672,4.017770485084782,4.989915680657279,12.722579146068743,3.1976287,6.2451606,86.92712,-2.4732847,-0.30511254,4.674533,5.8425374,-33.82365,-68.18293,29.784132,-12.108383,8.459332,-3.729786,-4.56952,4.825122,-20.390942,23.5246,-0.18117496,45.31052,-22.437523,11.5433,-15.055759,-25.299639,-28.035662,13.0016,52.51307,27.06454,13.861353,12.202966
141,-16.319114685058594,-14.815080642700195,77.97915649414062,4.0500422535734195,4.923859516406872,11.916837149064198,3.3946948,6.7165236,87.290245,-2.2343247,-0.2019997,4.7829733,5.3992085,-33.25629,-67.26088,29.247791,-12.3808775,8.548166,-3.8694415,-4.6008425,4.812739,-20.404627,23.658646,-0.2977965,45.393593,-22.584566,11.559432,-15.074859,-25.250906,-27.90571,12.902102,52.430588,26.87308,13.890398,12.166275
142,-16.31992530822754,-15.197931289672852,77.99310302734375,4.036661855325325,4.821055269796827,11.146272446683115,3.61434,7.2697377,87.53668,-1.9725163,-0.088188656,4.862775,5.0821304,-32.56706,-66.42403,28.587318,-12.540605,8.759097,-4.0351167,-4.60102,4.838751,-20.402128,23.820978,-0.45075533,45.43968,-22.796354,11.592973,-15.090103,-25.22667,-27.78038,12.81679,52.35507,26.682365,13.96315,12.123575
143,-16.31682586669922,-15.59935474395752,78.00403594970703,3.9845927420765412,4.699965230578512,10.383938591956461,3.8204362,7.89236,87.53502,-1.7026379,0.023932675,4.891489,4.834503,-31.800858,-65.63406,27.878641,-12.648471,8.998182,-4.1984215,-4.5579033,4.887209,-20.393204,23.969347,-0.6050311,45.474632,-23.01647,11.627407,-15.104971,-25.207798,-27.679586,12.74981,52.276703,26.509047,14.0500145,12.074266
144,-16.311389923095703,-16.01106834411621,78.01008605957031,3.898397011212822,4.579545110326867,9.603041989081731,3.973068,8.57538,87.15156,-1.4417759,0.11962567,4.846392,4.596798,-31.000353,-64.84952,27.203386,-12.765849,9.171517,-4.349541,-4.520722,4.9388638,-20.400984,24.167591,-0.75322723,45.54042,-23.232346,11.656275,-15.132384,-25.181334,-27.543186,12.687163,52.198997,26.348913,14.113678,12.017758
145,-16.302446365356445,-16.428112030029297,78.02079010009766,3.763811089311786,4.458390575642979,8.82076811149294,4.028808,9.348892,86.229744,-1.18923,0.22584735,4.6909146,4.3889437,-30.139635,-64.101295,26.54222,-12.89196,9.2735,-4.500596,-4.435026,4.992694,-20.407593,24.351215,-0.8743951,45.629005,-23.419222,11.667718,-15.172852,-25.149836,-27.407692,12.657308,52.13176,26.222408,14.14341,11.950664
146,-16.300334930419922,-16.850515365600586,78.02954864501953,3.5794508761350823,4.328116856552742,8.043800480867652,4.00662,10.210799,84.87469,-0.9357884,0.33669838,4.443715,4.2287993,-29.202616,-63.396687,25.86005,-12.995138,9.346286,-4.6323996,-4.2717776,5.058831,-20.422602,24.466103,-0.9861487,45.734184,-23.572859,11.661664,-15.210753,-25.1486,-27.331463,12.688742,52.10227,26.167559,14.15998,11.872784
147,-16.278770446777344,-17.268678665161133,78.04756927490234,3.3713783425541854,4.196492902047497,7.229264668101374,3.961558,11.102095,83.34665,-0.68250525,0.39237002,4.166778,4.0601697,-28.242334,-62.662514,25.202692,-13.090629,9.368967,-4.7335634,-4.093349,5.12938,-20.438572,24.582848,-1.0693523,45.849476,-23.70312,11.655698,-15.248938,-25.115908,-27.246544,12.69704,52.033417,26.085258,14.178685,11.787339
148,-16.271129608154297,-17.682022094726562,78.06068420410156,3.167126097759175,4.071311153069405,6.333751216380938,3.9545295,11.964914,81.91106,-0.43444645,0.33897647,3.926519,3.832456,-27.308523,-61.828506,24.608313,-13.191946,9.322053,-4.7826705,-3.9402933,5.1944137,-20.44283,24.70551,-1.0889161,45.96463,-23.780828,11.657874,-15.275094,-25.150034,-27.147057,12.74221,51.99971,26.009306,14.207282,11.686895
149,-16.264598846435547,-18.10819435119629,78.07575988769531,2.9638851760426412,3.9632194638797285,5.34550009455651,3.976603,12.809183,80.5808,-0.18599072,0.14664996,3.7498505,3.518771,-26.408098,-60.875053,24.107956,-13.301598,9.189052,-4.774768,-3.7805257,5.245158,-20.412739,24.789331,-0.99313146,46.063095,-23.756536,11.668811,-15.279702,-25.200186,-27.042925,12.788683,51.93556,25.893106,14.255424,11.557603
150,-16.256664276123047,-18.512454986572266,78.09452819824219,2.7507613036218572,3.8635611773235934,4.2873987058094825,3.998483,13.659273,79.233604,0.061992627,-0.14774346,3.600865,3.155021,-25.514557,-59.84188,23.67509,-13.411797,8.985889,-4.723169,-3.6023328,5.283619,-20.357182,24.82763,-0.8068373,46.156956,-23.646233,11.681221,-15.265505,-25.290203,-26.935814,12.863617,51.882233,25.767174,14.311884,11.401065
151,-16.240375518798828,-18.91429901123047,78.1093978881836,2.5443470532478036,3.7511460789062516,3.167575418550655,4.0615506,14.478361,77.93649,0.29029903,-0.49528298,3.452739,2.7786908,-24.642254,-58.741837,23.292818,-13.527653,8.743384,-4.6209283,-3.4143288,5.3276954,-20.294445,24.820705,-0.58745146,46.253517,-23.509613,11.691101,-15.249108,-25.390383,-26.849909,12.940942,51.831284,25.619947,14.377054,11.250972
152,-16.23578453063965,-19.318405151367188,78.11729431152344,2.363220174790549,3.604891360774331,1.9934474315233028,4.2083707,15.256845,76.75816,0.5376347,-0.8781695,3.279065,2.4258926,-23.808796,-57.58591,22.946657,-13.655981,8.491886,-4.4711304,-3.2447846,5.39443,-20.236954,24.79499,-0.3893622,46.356613,-23.411882,11.697146,-15.248229,-25.52846,-26.797514,13.042216,51.826748,25.479105,14.446005,11.137526
153,-16.22868537902832,-19.716392517089844,78.12130737304688,2.2164955300258202,3.416021693864423,0.7412815325219789,4.488552,15.954708,75.775734,0.7444629,-1.2797745,3.0559561,2.0872874,-23.027918,-56.337437,22.649464,-13.799392,8.230272,-4.2643523,-3.0973136,5.4926586,-20.169401,24.756151,-0.18555301,46.45708,-23.359795,11.704528,-15.280246,-25.649702,-26.761759,13.113581,51.809853,25.260197,14.524019,11.073055
154,-16.217565536499023,-20.110048294067383,78.12201690673828,2.0956415944042646,3.196551697322103,-0.5854493329425926,4.874528,16.601395,74.9386,0.9337371,-1.7244991,2.803602,1.7507484,-22.288324,-55.001556,22.409399,-13.956595,7.9465685,-4.00905,-2.9704764,5.611839,-20.085588,24.699139,0.04648311,46.551575,-23.317694,11.712608,-15.330058,-25.833246,-26.737867,13.22176,51.848946,25.028421,14.605621,11.035467
155,-16.183698654174805,-20.493967056274414,78.11991882324219,1.9931007156456044,2.9556585907551076,-1.9404322828975165,5.312544,17.221605,74.13005,1.1286464,-2.1861746,2.5607042,1.4453379,-21.57282,-53.647663,22.205265,-14.128948,7.6538944,-3.736755,-2.855978,5.744518,-20.005856,24.63664,0.253069,46.65069,-23.309113,11.716118,-15.383294,-26.02085,-26.726786,13.338216,51.900154,24.808851,14.689948,11.019141
156,-16.154020309448242,-20.87576675415039,78.1158447265625,1.9001887837248501,2.701664854493507,-3.275002437919352,5.744593,17.839308,73.228424,1.3556113,-2.6409628,2.3663054,1.2011237,-20.8636,-52.34777,22.009607,-14.315145,7.365048,-3.5252662,-2.7257776,5.88411,-19.843113,24.558428,0.4614134,46.669807,-23.321243,11.713833,-15.428381,-26.307394,-26.726227,13.544334,52.054264,24.675793,14.766364,11.010192
157,-16.1242618560791,-21.265933990478516,78.10350036621094,1.8186753082761704,2.410645456186038,-4.595807791880723,6.205995,18.449839,72.24987,1.6086818,-3.0792627,2.2041912,1.0418814,-20.166765,-51.106373,21.835867,-14.529891,7.081671,-3.2915883,-2.6365511,6.0627003,-19.74851,24.527676,0.5151307,46.717617,-23.430105,11.710025,-15.4567585,-26.557169,-26.736954,13.72173,52.211597,24.631538,14.845653,11.030156
158,-16.086284637451172,-21.648408889770508,78.08854675292969,1.7530751598408665,2.083354168213052,-5.92473941709738,6.7131705,19.054176,71.24486,1.9055516,-3.5298584,2.0618107,0.9453693,-19.488768,-49.885265,21.690989,-14.768355,6.796745,-3.0956204,-2.5416517,6.2636204,-19.610159,24.501844,0.55052423,46.73533,-23.59931,11.705489,-15.485108,-26.88144,-26.762619,14.006444,52.44808,24.679878,14.922947,11.062338
159,-16.04764175415039,-22.041522979736328,78.06896209716797,1.701847553716241,1.7637424947338989,-7.241414373303892,7.1919565,19.636814,70.14852,2.2219882,-3.9802132,1.9831711,0.8686247,-18.822144,-48.685287,21.549318,-15.007042,6.5105066,-2.9413595,-2.4503684,6.4527636,-19.432495,24.487118,0.58661485,46.723396,-23.782677,11.687871,-15.51533,-27.251446,-26.804024,14.344463,52.722263,24.788528,14.993829,11.099443
160,-16.005786895751953,-22.440258026123047,78.05514526367188,1.6625258518676251,1.4959850547354736,-8.526655514427901,7.5590067,20.198395,68.89165,2.5693471,-4.434716,2.011914,0.76885974,-18.160688,-47.50672,21.387827,-15.22364,6.223391,-2.795745,-2.3930614,6.595313,-19.296522,24.485077,0.5939819,46.748196,-23.925533,11.637757,-15.538231,-27.504377,-26.838451,14.569138,52.875237,24.853003,15.060237,11.127931
161,-15.952469825744629,-22.830337524414062,78.04495239257812,1.6299672902185558,1.3021091201979464,-9.773482505351712,7.775557,20.752405,67.457535,2.9629958,-4.926793,2.1937044,0.62485284,-17.501139,-46.35419,21.206676,-15.417417,5.9399247,-2.671287,-2.3644965,6.6694517,-19.190615,24.48602,0.57630014,46.80272,-24.015017,11.546716,-15.544805,-27.611422,-26.849098,14.64062,52.878098,24.82603,15.126295,11.141741
162,-15.912257194519043,-23.22732925415039,78.03050994873047,1.6036310732830927,1.151776934022264,-10.994851759841815,7.887511,21.292084,65.8762,3.3991346,-5.442916,2.493485,0.46848378,-16.844517,-45.225887,21.01144,-15.597525,5.659066,-2.5908449,-2.3449602,6.687397,-19.067055,24.489277,0.5445011,46.863598,-24.094074,11.422317,-15.536201,-27.725937,-26.860434,14.728838,52.885048,24.828415,15.182944,11.140542
163,-15.862351417541504,-23.609786987304688,78.02294158935547,1.6019726487639128,1.019697761130282,-12.198560229701371,7.927772,21.769522,64.14747,3.8588283,-5.9108424,2.8340309,0.3170939,-16.220858,-44.108707,20.821093,-15.772316,5.376228,-2.5289326,-2.3606787,6.681542,-18.958233,24.490868,0.52588606,46.947605,-24.13262,11.277083,-15.534993,-27.776937,-26.8645,14.763348,52.82923,24.806622,15.226278,11.132669
164,-15.809898376464844,-23.996288299560547,78.01624298095703,1.6341903846696035,0.8725776231678047,-13.394499820865065,7.941194,22.155672,62.276207,4.3344536,-6.2679915,3.1330986,0.2077373,-15.638048,-42.992485,20.626886,-15.938229,5.085995,-2.469997,-2.4139025,6.6762576,-18.861649,24.488438,0.53243506,47.057575,-24.135424,11.12004,-15.554011,-27.761616,-26.8613,14.743842,52.723434,24.751192,15.246034,11.122755
165,-15.750807762145996,-24.386394500732422,78.01795959472656,1.706339251080849,0.7293164935263372,-14.580449530415407,7.906517,22.445494,60.219765,4.828495,-6.4833674,3.391813,0.118383236,-15.105604,-41.87555,20.44028,-16.09983,4.7785583,-2.410976,-2.5225284,6.6583376,-18.782581,24.47671,0.57825,47.205807,-24.074886,10.939718,-15.599769,-27.678438,-26.845667,14.649143,52.56611,24.651657,15.220973,11.113135
166,-15.676204681396484,-24.77516746520996,78.0334243774414,1.8062295344002963,0.5870728653213256,-15.758039215941317,7.8256297,22.65533,57.99716,5.350605,-6.595707,3.634826,0.06263547,-14.601219,-40.762215,20.239002,-16.249342,4.461104,-2.3305836,-2.6896367,6.65954,-18.7056,24.430807,0.6710684,47.332268,-23.905901,10.738742,-15.653581,-27.446182,-26.784523,14.362053,52.26462,24.416098,15.168897,11.102285
167,-15.59001350402832,-25.158388137817383,78.05504608154297,1.9438999331498104,0.4291336420758559,-16.92897650296578,7.7273316,22.741663,55.69852,5.8685384,-6.637291,3.8282332,0.039725505,-14.154855,-39.647163,20.064552,-16.407328,4.1554174,-2.2650306,-2.8859386,6.6494546,-18.660814,24.394556,0.76370215,47.510212,-23.74654,10.5370455,-15.721026,-27.229115,-26.736197,14.126202,51.99845,24.239096,15.115147,11.083856
168,-15.513627052307129,-25.536823272705078,78.07478332519531,2.122634053956463,0.22375303617216008,-18.101463565773482,7.663155,22.681473,53.420444,6.3630066,-6.6490517,3.9372828,0.07543493,-13.77517,-38.522694,19.924326,-16.578505,3.881633,-2.1602366,-3.1390016,6.6948895,-18.65158,24.342176,0.85947496,47.6569,-23.544039,10.364523,-15.781293,-26.970343,-26.665321,13.822316,51.713837,24.049496,15.099553,11.0673485
169,-15.44537353515625,-25.90377426147461,78.09597778320312,2.354959515834481,-0.03827663470969832,-19.27107428245785,7.653282,22.44942,51.147854,6.82401,-6.629836,3.9389687,0.17950696,-13.477271,-37.389217,19.819351,-16.76783,3.6461427,-2.0252712,-3.4553704,6.7884417,-18.699728,24.275843,0.95070964,47.812584,-23.323051,10.219846,-15.835183,-26.700191,-26.571844,13.48863,51.446735,23.883532,15.142786,11.03798
170,-15.357370376586914,-26.26895523071289,78.12238311767578,2.640809073806373,-0.33900910582911925,-20.438681256423667,7.6794767,22.060596,48.851463,7.2666497,-6.5686255,3.852909,0.32943267,-13.261678,-36.24466,19.759617,-16.976439,3.4398963,-1.8896242,-3.823483,6.918734,-18.772196,24.221752,1.0649805,47.965466,-23.097029,10.098412,-15.9043,-26.424314,-26.493338,13.176115,51.17323,23.77175,15.226111,11.002176
171,-15.269891738891602,-26.625892639160156,78.14873504638672,2.963314607411976,-0.6629260634841788,-21.614225130590274,7.7337008,21.549627,46.601402,7.68533,-6.4809256,3.7155545,0.50405425,-13.109503,-35.086113,19.74412,-17.199339,3.2580101,-1.7328024,-4.2251906,7.0788655,-18.861727,24.16705,1.1693825,48.09557,-22.8602,9.998954,-15.970235,-26.146158,-26.411158,12.863078,50.920406,23.68954,15.310797,10.974558
172,-15.18254566192627,-26.988086700439453,78.1740951538086,3.3039853022252004,-0.9945335706815703,-22.80701566976263,7.806346,20.956423,44.465584,8.074017,-6.3792796,3.5678117,0.6812348,-13.000536,-33.91084,19.772627,-17.43051,3.09433,-1.5480924,-4.634059,7.248872,-18.960665,24.111717,1.2274925,48.199764,-22.619955,9.91973,-16.014734,-25.888771,-26.321495,12.57816,50.738945,23.628761,15.353622,10.96716
173,-15.08985710144043,-27.339231491088867,78.20220184326172,3.6544377961243053,-1.342069077168074,-24.022965331359575,7.9139204,20.292269,42.41704,8.433782,-6.2626615,3.4055123,0.87518406,-12.919214,-32.716965,19.828531,-17.660532,2.9465656,-1.3716606,-5.017792,7.4318757,-19.031712,24.08566,1.2541398,48.255383,-22.418776,9.872604,-16.052422,-25.709297,-26.27474,12.4357815,50.66762,23.682587,15.345356,10.998271
174,-14.994072914123535,-27.667539596557617,78.2308120727539,4.028423820066828,-1.706736387406804,-25.256412305952928,8.059624,19.54092,40.434208,8.767097,-6.1247087,3.2166653,1.0853242,-12.882057,-31.505102,19.918678,-17.895351,2.8170524,-1.1538366,-5.422417,7.6451645,-19.127909,24.057224,1.2364757,48.281704,-22.196583,9.849631,-16.068966,-25.513624,-26.213545,12.271109,50.630394,23.736172,15.306012,11.0602665
175,-14.9022216796875,-27.981361389160156,78.2582778930664,4.43113020039855,-2.0472225729282325,-26.485353311688453,8.183182,18.71491,38.576088,9.071968,-5.970741,3.0362763,1.2572474,-12.904433,-30.290833,20.066795,-18.145763,2.7047317,-0.9676641,-5.8261623,7.835928,-19.194498,24.050442,1.2231674,48.273567,-22.009214,9.848911,-16.099651,-25.378284,-26.195002,12.22409,50.65529,23.88788,15.252843,11.115484
176,-14.88608169555664,-28.075265884399414,77.24945831298828,-4.334699835404537,0.5441665482961413,-24.970599327882994,-11.386399,35.81006,24.772528,38.746243,-19.361324,1.3508484,3.9173284,0.6947536,-33.77923,7.3196445,-12.321972,0.981908,-4.009168,3.5512207,4.8019876,-19.67443,23.73685,1.247119,49.278828,-22.074497,10.009802,-16.096907,-26.27726,-26.44727,12.926413,52.02543,23.925888,15.367691,11.493383
177,-14.791105270385742,-28.359407424926758,77.25917053222656,-4.201025049393835,0.42219452602673324,-26.002304814261795,-11.840094,34.923172,23.126333,39.30184,-19.322636,1.1756692,4.0086613,0.8829983,-32.77968,7.283487,-12.435835,0.82993037,-3.9555864,3.619101,4.778779,-19.738184,23.46005,1.2493497,49.230957,-21.870485,10.012617,-16.139328,-26.125013,-26.708622,13.003788,52.009937,24.251194,15.355934,11.451868
178,-14.689423561096191,-28.6467227935791,77.27574920654297,-4.04321510689163,0.3121667167248257,-27.034267397036803,-12.253622,34.021034,21.703465,39.8462,-19.273994,1.0271294,4.0911813,1.0268795,-31.778578,7.2570047,-12.540179,0.6925639,-3.8628287,3.5980978,4.7567954,-19.888212,23.294498,1.141765,49.22919,-21.744081,10.039447,-16.20452,-25.90476,-26.91445,13.011956,51.95716,24.59041,15.342047,11.375834
179,-14.576005935668945,-28.929420471191406,77.29425811767578,-3.8715292256994456,0.2153148885773816,-28.071905958152325,-12.644182,33.12685,20.47819,40.374046,-19.23236,0.92761946,4.1638737,1.1429147,-30.773825,7.2384515,-12.639244,0.5664235,-3.7798123,3.5374331,4.732845,-20.038311,23.193783,1.028929,49.230263,-21.649862,10.07764,-16.279808,-25.69002,-27.077776,13.025938,51.911423,24.926516,15.312507,11.29451
180,-14.470532417297363,-29.21012306213379,77.3067626953125,-3.696341662567195,0.1324766314251255,-29.12022450468061,-13.02976,32.26191,19.42583,40.879307,-19.214771,0.89818734,4.2241535,1.2459977,-29.763159,7.228994,-12.737629,0.44766808,-3.7091284,3.4603176,4.701697,-20.167824,23.12668,0.9434553,49.23598,-21.555658,10.111963,-16.343632,-25.473627,-27.200527,13.023077,51.86103,25.201603,15.256686,11.244816
181,-14.353376388549805,-29.49354362487793,77.32501983642578,-3.516867190740834,0.06693533520213195,-30.18755418557171,-13.407925,31.44298,18.585106,41.37678,-19.225334,0.97384244,4.2692695,1.3373483,-28.741304,7.224785,-12.832577,0.3356383,-3.6441636,3.3721576,4.656892,-20.270494,23.079187,0.8937508,49.246037,-21.452263,10.138196,-16.387508,-25.257544,-27.28509,13.011903,51.81695,25.404415,15.154681,11.247644
182,-14.242103576660156,-29.76401710510254,77.3411865234375,-3.3291872072584434,0.01795506213780124,-31.269149393795736,-13.777122,30.657549,17.948484,41.858692,-19.253168,1.1366241,4.3012853,1.4102355,-27.710638,7.2264595,-12.922379,0.23181532,-3.587514,3.2714233,4.6007795,-20.348976,23.04927,0.87125117,49.25466,-21.347303,10.161993,-16.419806,-25.052402,-27.3326,13.007656,51.790264,25.56288,15.017148,11.276956
183,-14.122584342956543,-30.026981353759766,77.36206817626953,-3.137340445848103,-0.02018851977649165,-32.350715042981555,-14.15056,29.875933,17.42836,42.278015,-19.287813,1.3271586,4.3292017,1.4684968,-26.680267,7.23426,-13.009695,0.13604444,-3.5444317,3.1658301,4.5405774,-20.41149,23.029026,0.86631835,49.264935,-21.240892,10.18285,-16.442663,-24.857279,-27.355974,12.993304,51.764427,25.68808,14.881173,11.301912
184,-13.997742652893066,-30.284236907958984,77.37612915039062,-2.9445305744602797,-0.05376497374309493,-33.41816878578911,-14.538602,29.066776,16.93958,42.588055,-19.318491,1.4847847,4.3619757,1.5154347,-25.65904,7.2470856,-13.096887,0.04853523,-3.5148559,3.0624843,4.4837527,-20.471758,23.00596,0.8652556,49.283497,-21.129826,10.199271,-16.456844,-24.664558,-27.369526,12.946387,51.717762,25.793129,14.7842045,11.291153
185,-13.871174812316895,-30.54111671447754,77.39360046386719,-2.74843930172989,-0.08463761893569631,-34.46876276896995,-14.941492,28.22235,16.488718,42.78801,-19.354216,1.6115048,4.4015326,1.54619,-24.648321,7.2659054,-13.182901,-0.03405052,-3.510257,2.9608192,4.432936,-20.517914,22.98475,0.8741011,49.302303,-21.012047,10.208943,-16.455635,-24.489037,-27.368814,12.871405,51.652863,25.896196,14.741181,11.210602
186,-13.7372465133667,-30.800992965698242,77.40821075439453,-2.547550774491407,-0.10910045533099114,-35.51063587594299,-15.353057,27.357248,16.113043,42.894375,-19.394705,1.7336535,4.4429364,1.5597026,-23.642979,7.291021,-13.2674265,-0.109717876,-3.5085046,2.8577397,4.3843765,-20.56663,22.955654,0.8823314,49.331535,-20.882263,10.210851,-16.436083,-24.296175,-27.354792,12.745173,51.55134,25.972164,14.732709,11.086452
187,-13.604516983032227,-31.05838966369629,77.42433166503906,-2.3472156022888027,-0.12553304032409057,-36.54410802117463,-15.775103,26.474173,15.772303,42.889565,-19.416578,1.8258504,4.4872346,1.5656701,-22.644081,7.3138685,-13.349691,-0.17059138,-3.507819,2.753911,4.3305387,-20.62353,22.919308,0.8862621,49.38055,-20.753872,10.211171,-16.413486,-24.111856,-27.327477,12.597549,51.457962,26.007015,14.735455,10.974117
188,-13.459624290466309,-31.32149314880371,77.44432830810547,-2.1540252364592214,-0.1329800249160269,-37.570278963761176,-16.208498,25.57651,15.426743,42.754707,-19.395294,1.86234,4.530867,1.5726736,-21.652386,7.335478,-13.434421,-0.20930614,-3.5152712,2.6548293,4.269776,-20.684406,22.88564,0.897671,49.447243,-20.641645,10.219297,-16.411783,-23.941711,-27.29433,12.453429,51.3861,25.975637,14.730439,10.931399
189,-13.312058448791504,-31.579166412353516,77.4579849243164,-1.9680960961447727,-0.12805842650722774,-38.587437665095656,-16.659178,24.655542,15.071308,42.479637,-19.32541,1.8307306,4.5730147,1.5811765,-20.67024,7.346863,-13.519032,-0.21454301,-3.5269296,2.5584588,4.1966057,-20.75866,22.853104,0.91793,49.542732,-20.552202,10.236864,-16.444555,-23.784418,-27.256985,12.303651,51.342243,25.841059,14.706595,11.002693
190,-13.169641494750977,-31.84256935119629,77.47079467773438,-1.7875904439943044,-0.1131201850257298,-39.596056056399966,-17.122313,23.712698,14.726181,42.07063,-19.216978,1.7463809,4.6109257,1.585431,-19.696367,7.3598843,-13.608188,-0.19328083,-3.5353148,2.46341,4.1118126,-20.85014,22.81057,0.93593353,49.66891,-20.47315,10.257269,-16.493006,-23.620604,-27.201424,12.116772,51.308308,25.603565,14.675209,11.146402
191,-13.018756866455078,-32.09498977661133,77.47926330566406,-1.616655010515858,-0.09660608002761151,-40.60008634630278,-17.584534,22.770378,14.387023,41.537598,-19.071316,1.6252035,4.6541877,1.5936801,-18.725998,7.372487,-13.699412,-0.16644628,-3.5471475,2.3735268,4.0285144,-20.944372,22.769756,0.94892174,49.804794,-20.397058,10.281263,-16.538074,-23.482315,-27.14369,11.952268,51.29704,25.374104,14.651621,11.293653
192,-12.863590240478516,-32.350948333740234,77.48532104492188,-1.4595917840047314,-0.08666156469229101,-41.60306688113708,-18.034462,21.850634,14.048284,40.893974,-18.891333,1.4832839,4.714499,1.6144584,-17.754416,7.380026,-13.788819,-0.15512681,-3.5623426,2.2947009,3.9650877,-21.031002,22.740368,0.95274675,49.92579,-20.315605,10.310358,-16.563942,-23.363066,-27.10177,11.829733,51.281494,25.234138,14.656175,11.380934
193,-12.705443382263184,-32.61632537841797,77.49339294433594,-1.3174012185016994,-0.08590481042545357,-42.60552176765769,-18.4707,20.950417,13.706608,40.124367,-18.672962,1.3182113,4.7923474,1.6508207,-16.779528,7.3868012,-13.880604,-0.16870108,-3.5748289,2.2258184,3.9229436,-21.118736,22.71992,0.93119633,50.036263,-20.22029,10.344368,-16.55378,-23.263493,-27.075409,11.752158,51.255905,25.219147,14.704116,11.372302
194,-12.544795989990234,-32.876827239990234,77.49738311767578,-1.1882846713034603,-0.09067750254997949,-43.60600855646978,-18.89681,20.06225,13.363951,39.22324,-18.414846,1.1242368,4.883534,1.6987351,-15.803925,7.392303,-13.974334,-0.19513114,-3.5774977,2.1643977,3.8932614,-21.2195,22.699684,0.8814645,50.152813,-20.116194,10.381194,-16.517609,-23.169502,-27.0549,11.689863,51.222958,25.2699,14.781867,11.30889
195,-12.390877723693848,-33.14312744140625,77.49312591552734,-1.0707742356428795,-0.09963833080211357,-44.60535015218516,-19.308004,19.19976,13.023583,38.218502,-18.123539,0.9128079,4.942533,1.7413598,-14.830964,7.4959006,-14.118559,-0.22264084,-3.5944128,2.1169236,3.8812103,-21.292517,22.691248,0.85289925,50.241436,-20.01489,10.424409,-16.48656,-23.103506,-27.049057,11.669358,51.203026,25.35637,14.866251,11.239843
196,-12.229897499084473,-33.41455841064453,77.48799133300781,-0.9629370332648567,-0.11106172668390003,-45.60439248953054,-19.69913,18.37552,12.689631,37.13872,-17.805668,0.6946841,4.9828906,1.7797624,-13.862585,7.664102,-14.291249,-0.24001473,-3.5781574,2.0680451,3.8686612,-21.403217,22.669346,0.7862946,50.367554,-19.926147,10.46065,-16.454681,-23.03351,-27.042866,11.636609,51.22293,25.425364,14.92582,11.206944
197,-12.052922248840332,-33.688106536865234,77.48246765136719,-0.863003539580448,-0.1283305455355878,-46.59914935917283,-20.065935,17.58082,12.353212,35.96756,-17.46411,0.47698233,5.033117,1.8181847,-12.9007635,7.843303,-14.458838,-0.24461518,-3.5654562,2.0288177,3.866892,-21.494316,22.64249,0.7366062,50.476524,-19.844154,10.501665,-16.445152,-22.983133,-27.041569,11.619846,51.291622,25.462416,14.961892,11.241231
198,-11.864860534667969,-33.97803497314453,77.47714233398438,-0.7723392158477351,-0.15165616447683775,-47.59122912026822,-20.409155,16.811897,12.0151825,34.692684,-17.092503,0.25225875,5.098099,1.8613768,-11.94321,8.021119,-14.618272,-0.24252632,-3.551476,1.9976187,3.8743038,-21.577656,22.61028,0.6907778,50.57973,-19.764687,10.545604,-16.444073,-22.956118,-27.046,11.625453,51.404987,25.495861,14.985299,11.311086
199,-11.690171241760254,-34.25270080566406,77.4615707397461,-0.69440506571058,-0.17506570857593523,-48.58905916707034,-20.732906,16.088924,11.6934595,33.349373,-16.683943,0.00952131,5.168535,1.9134974,-10.985394,8.202115,-14.782707,-0.2356445,-3.5289886,1.9784199,3.8898766,-21.654526,22.575619,0.65193504,50.68008,-19.69573,10.582628,-16.443502,-22.950052,-27.055973,11.655744,51.540756,25.544998,14.992462,11.375853
200,-11.517444610595703,-34.52372741699219,77.4416275024414,-0.6332489522544984,-0.19234483499296162,-49.601193172945045,-21.043898,15.43411,11.404738,31.974176,-16.232683,-0.26168355,5.242777,1.9808627,-10.022383,8.373131,-14.955236,-0.22610089,-3.4869344,1.9845937,3.9069653,-21.7302,22.525204,0.6217705,50.789284,-19.640955,10.600068,-16.430832,-22.955912,-27.075289,11.708149,51.677326,25.620789,14.979471,11.393697
201,-11.33153247833252,-34.7999267578125,77.42237854003906,-0.5877865494996743,-0.20496200910970894,-50.636473155403905,-21.349693,14.857011,11.150585,30.572598,-15.734332,-0.55933183,5.3158317,2.0610914,-9.050813,8.546713,-15.147076,-0.20945853,-3.420728,2.014112,3.9334798,-21.801249,22.463108,0.60758,50.903748,-19.609331,10.594986,-16.401136,-22.981707,-27.107521,11.801173,51.817833,25.760206,14.930074,11.336949
202,-11.140942573547363,-35.07870101928711,77.39856719970703,-0.557650302484492,-0.21605790514176026,-51.68886934228419,-21.64486,14.346728,10.920986,29.122324,-15.191573,-0.878897,5.3926353,2.1532087,-8.073398,8.720979,-15.351346,-0.18641596,-3.3366036,2.0647738,3.96999,-21.865759,22.392277,0.6085714,51.019398,-19.595045,10.57407,-16.36245,-23.02916,-27.15277,11.9319,51.970184,25.948015,14.851567,11.234165
203,-10.95770263671875,-35.36207580566406,77.36842346191406,-0.546605335538728,-0.2232628892656816,-52.744322789990896,-21.919376,13.895757,10.713915,27.623356,-14.611719,-1.2264438,5.4800186,2.2629778,-7.0949254,8.877293,-15.552739,-0.166841,-3.2485104,2.1224625,4.0094113,-21.925838,22.340565,0.61261463,51.130764,-19.593197,10.546009,-16.329834,-23.077862,-27.188787,12.054657,52.10837,26.109278,14.775877,11.13095
204,-10.756974220275879,-35.64718246459961,77.33910369873047,-0.5593089006454608,-0.22387511437306765,-53.78923053781272,-22.163906,13.497662,10.526903,26.07587,-14.000804,-1.6076237,5.585461,2.396423,-6.1197147,8.995411,-15.735352,-0.16022642,-3.1698184,2.2188215,4.040542,-21.96016,22.266644,0.6364838,51.216087,-19.572844,10.512843,-16.308681,-23.127762,-27.237213,12.160126,52.223717,26.19,14.737003,11.067391
205,-10.553747177124023,-35.94141387939453,77.30365753173828,-0.6010042937799718,-0.21760476514010174,-54.82380705216054,-22.385284,13.159114,10.346965,24.480316,-13.342905,-2.0147257,5.70374,2.5600917,-5.143085,9.081981,-15.900068,-0.1744767,-3.091166,2.3360858,4.0628304,-21.985283,22.196442,0.6589023,51.292454,-19.531153,10.474258,-16.308842,-23.163427,-27.28136,12.216756,52.29652,26.12772,14.763145,11.064166
206,-10.351247787475586,-36.23368835449219,77.2641372680664,-0.6697252103364805,-0.20779935778598924,-55.85541865709249,-22.58647,12.886097,10.176612,22.837511,-12.640967,-2.446908,5.836693,2.7501807,-4.163127,9.139981,-16.05159,-0.2028706,-3.0102935,2.4754112,4.0812297,-21.999784,22.129324,0.6858234,51.360924,-19.47897,10.428678,-16.323519,-23.185324,-27.317177,12.235894,52.3331,25.959335,14.830391,11.095761
207,-10.144780158996582,-36.531333923339844,77.21810150146484,-0.7602848605147275,-0.19815329046051752,-56.88137793946673,-22.73718,12.670303,10.040615,21.122824,-11.924946,-2.9210262,5.9973264,2.9561443,-3.1876957,9.15521,-16.184805,-0.23351735,-2.9342031,2.636725,4.097878,-22.003942,22.061638,0.7186147,51.408875,-19.436062,10.381879,-16.338676,-23.212126,-27.354,12.246116,52.366863,25.790104,14.891159,11.139181
208,-9.921072006225586,-36.83559036254883,77.16964721679688,-0.868095709573495,-0.1928151954372096,-57.900029492068654,-22.806969,12.50365,9.964542,19.311672,-11.22368,-3.4543889,6.200347,3.169052,-2.2240164,9.110825,-16.29334,-0.25511688,-2.8694508,2.8197386,4.118406,-21.997816,21.997145,0.75929606,51.42139,-19.4249,10.341004,-16.344414,-23.240002,-27.393167,12.253352,52.407036,25.707785,14.900137,11.17378
209,-9.690863609313965,-37.14954376220703,77.11823272705078,-1.0011093432582443,-0.19779657756670838,-58.915660554574494,-22.759382,12.391668,9.964314,17.32588,-10.529989,-4.095804,6.4629955,3.3961282,-1.2712765,8.984606,-16.365639,-0.27105474,-2.8202627,3.036411,4.152017,-21.973745,21.937387,0.8144443,51.380196,-19.474796,10.3104725,-16.326794,-23.277048,-27.436562,12.261512,52.46632,25.760628,14.829136,11.18361
210,-9.472174644470215,-37.452125549316406,77.05501556396484,-1.1665087453171639,-0.2146416064339232,-59.93369058919785,-22.60736,12.34635,10.026373,15.184456,-9.823241,-4.822669,6.783557,3.6465135,-0.3197873,8.779617,-16.402077,-0.28727192,-2.7787776,3.2863872,4.198185,-21.936611,21.889265,0.87867796,51.300747,-19.570307,10.286759,-16.296556,-23.32651,-27.477652,12.268983,52.539574,25.896086,14.70755,11.184016
211,-9.230741500854492,-37.764102935791016,76.99371337890625,-1.3570470809272936,-0.23877898274206025,-60.95192873253885,-22.38957,12.362961,10.135594,12.995838,-9.111496,-5.5457025,7.1467957,3.9112027,0.6358782,8.515514,-16.412853,-0.29580176,-2.732505,3.5648148,4.246459,-21.895855,21.835785,0.9490867,51.209824,-19.652693,10.263191,-16.277557,-23.3712,-27.527754,12.274552,52.603813,26.046688,14.579093,11.200561
212,-8.987892150878906,-38.09675216674805,76.93199157714844,-1.5572557841765164,-0.26150295997477846,-61.96319897135279,-22.164783,12.427668,10.274135,10.901915,-8.409892,-6.174468,7.5245066,4.171901,1.5953096,8.230335,-16.418222,-0.28722146,-2.6764913,3.8337262,4.2800484,-21.8737,21.796127,1.0048,51.1487,-19.678646,10.235311,-16.295366,-23.396187,-27.567167,12.269057,52.644737,26.137695,14.483547,11.256856
213,-8.738195419311523,-38.42866897583008,76.86158752441406,-1.7613493927402184,-0.2712031688452739,-62.96144217795054,-21.938198,12.530062,10.457738,8.877599,-7.706117,-6.674249,7.9082975,4.4211836,2.5579686,7.9133706,-16.413208,-0.2524497,-2.6027737,4.114426,4.2891364,-21.861898,21.722958,1.0612415,51.101364,-19.601799,10.198407,-16.36754,-23.390446,-27.646404,12.257469,52.639896,26.164856,14.442499,11.38822
214,-8.480550765991211,-38.76527404785156,76.78573608398438,-1.970410571232669,-0.2726959110876649,-63.94779783581137,-21.839153,12.694625,10.659372,7.192623,-7.167356,-7.0959835,8.30319,4.658177,3.5205145,7.566496,-16.399168,-0.19755499,-2.5295863,4.3707156,4.275538,-21.867992,21.677773,1.1007897,51.077415,-19.47861,10.158506,-16.479,-23.37533,-27.701189,12.235158,52.62612,26.147932,14.423423,11.56809
215,-8.22247314453125,-39.114967346191406,76.71014404296875,-2.1737399120213574,-0.27632816612818745,-64.92058174338248,-22.438309,13.010638,10.718964,7.1005716,-7.432821,-7.4756756,8.623213,4.8758426,4.4654026,7.397798,-16.485558,-0.13354535,-2.4583242,4.613657,4.2574883,-21.878279,21.638792,1.1347805,51.064,-19.336264,10.116205,-16.597086,-23.344078,-27.750254,12.208412,52.590862,26.113077,14.412067,11.74034
216,-7.975264549255371,-39.4547233581543,76.6324462890625,-2.362608083772134,-0.29219873537696023,-65.87768231554357,-22.96342,13.32281,10.77346,7.0271726,-7.64908,-7.85234,8.88972,5.066938,5.382946,7.3890176,-16.66239,-0.07249499,-2.3818116,4.850283,4.252795,-21.89419,21.588568,1.1576259,51.060696,-19.20714,10.0717945,-16.687141,-23.288568,-27.812714,12.178661,52.524143,26.094088,14.393936,11.849642
217,-7.713613033294678,-39.803401947021484,76.5560302734375,-2.535332686938004,-0.3202935366482168,-66.81497760439386,-23.413849,13.62733,10.847477,6.968354,-7.8009396,-8.255295,9.176975,5.225509,6.2728443,7.3860817,-16.851301,-0.01955252,-2.3084302,5.0707636,4.2577505,-21.917439,21.541119,1.1606821,51.079918,-19.098295,10.020887,-16.73957,-23.215452,-27.872753,12.162296,52.42969,26.102116,14.358718,11.869535
218,-7.446024417877197,-40.160179138183594,76.47966766357422,-2.6916680839398412,-0.35197172551864214,-67.73010786942766,-23.803251,13.923127,10.94495,6.920855,-7.8989606,-8.65818,9.475607,5.351362,7.1363688,7.387464,-17.051641,0.032869052,-2.248076,5.267966,4.2625084,-21.942085,21.50538,1.153646,51.114857,-18.99329,9.965674,-16.774351,-23.127844,-27.91788,12.153118,52.312035,26.113138,14.315129,11.832397
219,-7.183833599090576,-40.52601623535156,76.40008544921875,-2.8264351286050564,-0.38431451968391944,-68.62335013727672,-24.128977,14.193774,11.009575,6.885539,-7.960207,-9.015495,9.777913,5.437441,7.974505,7.395568,-17.257729,0.0925012,-2.193904,5.441817,4.2681003,-21.97186,21.468878,1.1378703,51.155167,-18.899899,9.914234,-16.795544,-23.041763,-27.963024,12.142347,52.200794,26.12938,14.272683,11.766982
220,-6.907767295837402,-40.88916015625,76.32667541503906,-2.9335966187551237,-0.4147369320015377,-69.49571977041158,-24.387451,14.423749,10.98591,6.8621926,-8.001804,-9.281368,10.078738,5.476697,8.788762,7.409291,-17.462717,0.16704051,-2.1474178,5.5856724,4.274361,-22.003948,21.430834,1.1216418,51.18883,-18.827047,9.876225,-16.809528,-22.967684,-28.002975,12.112556,52.121727,26.134182,14.239524,11.701074
221,-6.63214635848999,-41.25811004638672,76.25331115722656,-3.007452268275206,-0.44086702287263213,-70.34226573127283,-24.580946,14.606782,10.854986,6.8533416,-8.023867,-9.422375,10.374959,5.463834,9.572942,7.4292006,-17.66793,0.25828055,-2.1279154,5.6878514,4.28305,-22.026825,21.406137,1.1147928,51.20732,-18.788963,9.858671,-16.821142,-22.932922,-28.019022,12.065713,52.10619,26.114845,14.214136,11.632405
222,-6.358283042907715,-41.630855560302734,76.18693542480469,-3.0519757898166024,-0.4626644043063824,-71.16282297299355,-24.710947,14.74921,10.648867,6.8559885,-8.017156,-9.470078,10.6676445,5.404188,10.325448,7.4570403,-17.87741,0.3624002,-2.1240783,5.756669,4.2918606,-22.04957,21.384342,1.1063547,51.221012,-18.774708,9.853782,-16.823597,-22.920467,-28.02459,12.0085335,52.129635,26.089348,14.194139,11.548684
223,-6.088410377502441,-42.01194763183594,76.12149047851562,-3.0738087286376357,-0.48190520387203756,-71.96687276458402,-24.773308,14.854405,10.390326,6.8656373,-7.9880323,-9.475997,10.959723,5.304066,11.056331,7.490469,-18.08763,0.47907978,-2.1251845,5.7981067,4.295363,-22.078156,21.367989,1.0971956,51.237583,-18.765875,9.854847,-16.817764,-22.903591,-28.02354,11.949249,52.159668,26.061026,14.180498,11.461464
224,-5.803821086883545,-42.38735580444336,76.04823303222656,-3.08122116744682,-0.5008357266326149,-72.76103151749648,-24.764181,14.925665,10.0990305,6.877968,-7.942854,-9.491444,11.113207,5.200565,11.760281,7.832949,-18.456285,0.6067698,-2.1164958,5.8208246,4.289439,-22.11323,21.343502,1.0807965,51.256065,-18.746122,9.854081,-16.800713,-22.873869,-28.019466,11.891746,52.185,26.043324,14.1729965,11.381867
225,-5.511737823486328,-42.77427673339844,75.97688293457031,-3.0697075822859503,-0.5243980729672084,-73.54198782225035,-24.674988,14.954662,9.743561,6.8921227,-7.871874,-9.5283785,11.257929,5.067405,12.45469,8.223809,-18.851887,0.7505921,-2.112845,5.821133,4.2761307,-22.14473,21.323366,1.0706896,51.267986,-18.710733,9.853844,-16.773361,-22.842846,-28.017357,11.876541,52.213013,26.062258,14.17687,11.302613
226,-5.204229831695557,-43.177860260009766,75.90938568115234,-3.035919464649177,-0.5497250300307571,-74.30771901855513,-24.509966,14.943626,9.3262205,6.910897,-7.775901,-9.559885,11.393113,4.9009047,13.13371,8.656643,-19.270609,0.9101376,-2.1122503,5.805901,4.251842,-22.174545,21.284035,1.0645478,51.279842,-18.66181,9.853371,-16.729753,-22.816425,-28.017323,11.890436,52.25865,26.104218,14.188843,11.216955
227,-4.890622138977051,-43.577171325683594,75.84430694580078,-2.98903867297287,-0.5669597974061144,-75.0710145353827,-24.282993,14.91375,8.920098,6.9337635,-7.6770954,-9.578795,11.505929,4.7103744,13.791936,9.126092,-19.69763,1.0775527,-2.1170053,5.7862377,4.212829,-22.188251,21.237473,1.0752726,51.288773,-18.612381,9.850871,-16.682703,-22.819363,-28.024458,11.945091,52.330624,26.161793,14.197849,11.143088
228,-4.575992584228516,-43.979244232177734,75.78131103515625,-2.9381691332377176,-0.566544894581869,-75.84469132759641,-24.009487,14.8838825,8.598273,6.9618134,-7.598084,-9.577925,11.583191,4.505176,14.42395,9.628191,-20.118563,1.2451624,-2.114465,5.771595,4.1532164,-22.18624,21.18572,1.0989895,51.302402,-18.572334,9.843038,-16.637678,-22.835035,-28.038551,12.013963,52.40539,26.20727,14.194066,11.097093
229,-4.242338180541992,-44.397701263427734,75.72102355957031,-2.890247399279871,-0.5461751053040629,-76.63952136359038,-23.683542,14.865869,8.3701315,6.995774,-7.5595174,-9.560181,11.621886,4.2918773,15.035476,10.164067,-20.534765,1.4127057,-2.0872078,5.761912,4.067221,-22.18382,21.1361,1.1237878,51.33486,-18.548119,9.830007,-16.601362,-22.849686,-28.057053,12.085033,52.47812,26.240437,14.165732,11.091706
230,-3.9062273502349854,-44.81435775756836,75.66242218017578,-2.8384766064455715,-0.5112846221170627,-77.44772192450938,-23.30104,14.847123,8.201031,7.037655,-7.5460005,-9.527742,11.632459,4.0651846,15.628495,10.732141,-20.951347,1.5843209,-2.041361,5.75833,3.9575868,-22.175241,21.073362,1.1545036,51.37794,-18.528307,9.811238,-16.56534,-22.873875,-28.085886,12.173218,52.56255,26.274578,14.121021,11.1140375
231,-3.566781520843506,-45.238975524902344,75.60602569580078,-2.7720496795752676,-0.4644474873842791,-78.25499084543976,-22.876059,14.806749,8.1004925,7.087433,-7.5250583,-9.472543,11.621672,3.8147278,16.193155,11.324476,-21.359093,1.759679,-1.9902602,5.7713895,3.8315365,-22.144459,20.95862,1.2041312,51.417534,-18.497347,9.782062,-16.511913,-22.932684,-28.148882,12.295667,52.66825,26.309942,14.080905,11.144922
232,-3.2227046489715576,-45.673038482666016,75.5547866821289,-2.6789814205370837,-0.4083480931682626,-79.0465297476606,-22.411598,14.721364,8.08061,7.122972,-7.451928,-9.38684,11.59383,3.5290954,16.719341,11.938661,-21.751314,1.9381909,-1.9385916,5.738129,3.7086337,-22.12726,20.871717,1.2288086,51.472992,-18.486717,9.7486925,-16.444075,-22.974216,-28.20212,12.374466,52.731995,26.301268,14.068225,11.176219
233,-2.8768715858459473,-46.115150451660156,75.50440216064453,-2.572715477083574,-0.33939401633494715,-79.82622051591859,-21.894342,14.604578,8.178143,7.1689105,-7.407241,-9.260245,11.5548935,3.2206082,17.19578,12.557841,-22.122759,2.1114306,-1.8894109,5.6960826,3.580557,-22.10054,20.771397,1.2494698,51.535175,-18.473545,9.705721,-16.3413,-23.037834,-28.269037,12.454609,52.789574,26.265034,14.086957,11.207475
234,-2.5362796783447266,-46.56205749511719,75.4544677734375,-2.4535035988637306,-0.25853194200701884,-80.6008035311841,-21.323074,14.458469,8.37657,7.220483,-7.378763,-9.099688,11.500911,2.8884418,17.632626,13.190603,-22.478983,2.2830694,-1.8426722,5.6253467,3.447382,-22.073338,20.69551,1.2587138,51.61144,-18.475218,9.65782,-16.219587,-23.114456,-28.322577,12.525735,52.83865,26.19712,14.124606,11.246023
235,-2.1843454837799072,-47.01459503173828,75.42213439941406,-2.291516380454242,-0.1720636140235532,-81.35789121491004,-21.091131,14.295218,8.51482,7.9795847,-7.5970416,-8.921466,11.426023,2.4997978,18.05264,13.856101,-22.820824,2.4718225,-1.8059791,5.5057797,3.3182619,-22.042479,20.624943,1.2668947,51.688644,-18.490229,9.605381,-16.09784,-23.207043,-28.372566,12.590605,52.88232,26.110962,14.177042,11.275181
236,-1.8201967477798462,-47.459476470947266,75.41814422607422,-2.0537266464351887,-0.08368926593816292,-82.0838440321279,-20.850266,14.022998,8.620333,8.602549,-7.4687476,-8.745453,11.3231,2.0194702,18.476927,14.574393,-23.15062,2.6967504,-1.7849358,5.306365,3.2023664,-22.01445,20.555775,1.2731373,51.759827,-18.526503,9.5498495,-15.998396,-23.298578,-28.417768,12.628928,52.905792,26.0071,14.24114,11.280084
237,-1.4558825492858887,-47.91049575805664,75.42868041992188,-1.686811415557447,0.007043529650811159,-82.78158716637414,-20.548534,13.555275,8.648527,8.9302025,-6.7821035,-8.532954,11.186404,1.3825165,18.918844,15.3641205,-23.500385,2.973183,-1.7913566,4.9559503,3.1056738,-21.98579,20.523926,1.2664816,51.82078,-18.626791,9.494971,-15.932894,-23.404827,-28.437452,12.64461,52.911884,25.885923,14.324968,11.257863
238,-1.0869060754776,-48.369659423828125,75.44450378417969,-1.2172155740103894,0.1064119568803211,-83.45492353296491,-20.200819,12.934352,8.648074,9.055294,-5.6933556,-8.291068,11.0235615,0.61833274,19.365894,16.203289,-23.856817,3.2900465,-1.8208519,4.4904833,3.020609,-21.952219,20.51128,1.2572912,51.873516,-18.768162,9.438183,-15.88747,-23.527122,-28.4447,12.647099,52.903152,25.748562,14.428038,11.214838
239,-0.7340729236602783,-48.83651351928711,75.45454406738281,-0.7354562599239821,0.2175142416822244,-84.09152430994544,-19.8707,12.3058815,8.702778,9.161383,-4.501694,-8.105141,10.848583,-0.16290078,19.799734,17.050444,-24.153751,3.626718,-1.8670144,4.0072646,2.935884,-21.928078,20.502083,1.2536969,51.933624,-18.893675,9.377504,-15.853618,-23.647446,-28.444803,12.62826,52.889862,25.596167,14.5291,11.153134
