unveil-humanoid-operators/unveil-humanoid-operators.github.io/feature-analysis-animation/data/feature_matrix_instances/gender_shoulder_rom_jogging_A063_jog_ff_loop_225_003__A063.csv
Frame,root_translateX,root_translateY,root_translateZ,root_rotateX,root_rotateY,root_rotateZ,left_hip_pitch_joint_dof,left_hip_roll_joint_dof,left_hip_yaw_joint_dof,left_knee_joint_dof,left_ankle_pitch_joint_dof,left_ankle_roll_joint_dof,right_hip_pitch_joint_dof,right_hip_roll_joint_dof,right_hip_yaw_joint_dof,right_knee_joint_dof,right_ankle_pitch_joint_dof,right_ankle_roll_joint_dof,waist_yaw_joint_dof,waist_roll_joint_dof,waist_pitch_joint_dof,left_shoulder_pitch_joint_dof,left_shoulder_roll_joint_dof,left_shoulder_yaw_joint_dof,left_elbow_joint_dof,left_wrist_roll_joint_dof,left_wrist_pitch_joint_dof,left_wrist_yaw_joint_dof,right_shoulder_pitch_joint_dof,right_shoulder_roll_joint_dof,right_shoulder_yaw_joint_dof,right_elbow_joint_dof,right_wrist_roll_joint_dof,right_wrist_pitch_joint_dof,right_wrist_yaw_joint_dof
0,-0.7545883059501648,-1.8616269826889038,76.39671325683594,1.426927386889318,5.26961455354145,65.51709771091762,6.1135116,1.5018585,-3.045019,30.97787,-15.989054,-4.062807,-41.535046,-7.471951,-0.84320366,67.36503,-13.875305,4.160107,-8.422889,0.57260513,11.925995,-21.460466,24.847837,-26.151203,43.366203,1.8469425,-4.1342816,23.820646,19.858355,-16.051046,12.77806,55.132908,-12.002485,-4.4770503,-1.9745209
1,0.2659052014350891,-0.8823676705360413,76.77381896972656,1.5390814735578926,5.379550159777821,65.54825051043126,6.907244,1.7503797,-3.3037217,30.590376,-13.1525345,-4.5259643,-41.30075,-7.330209,-0.4778001,63.10568,-12.44801,4.4340568,-8.743127,0.70021695,11.612412,-21.186083,24.947636,-26.261358,42.11416,1.6926738,-4.399999,23.987267,20.452538,-15.872601,12.530049,55.08187,-11.874399,-4.557401,-1.8601426
2,1.2840362787246704,0.10850704461336136,77.12202453613281,1.6473416005560249,5.498403212948107,65.57454815409633,7.7158813,1.9953071,-3.5716944,30.166178,-10.251165,-5.0235972,-41.05884,-7.18431,-0.09392366,58.778896,-11.058831,4.7121506,-9.027875,0.78875494,11.285665,-20.946482,25.081629,-26.416449,40.869526,1.5275929,-4.6640706,24.17005,21.018866,-15.580822,12.263211,55.10482,-11.780536,-4.641861,-1.7694007
3,2.313673734664917,1.1150718927383423,77.43984985351562,1.7849895135918652,5.588428287088062,65.60471248882482,8.521748,2.1896749,-3.8783066,29.821705,-7.4921837,-5.5445857,-40.73305,-7.098739,0.28113064,54.48529,-9.59918,4.959668,-9.279707,0.8224054,10.9729395,-20.713049,25.239555,-26.627842,39.646416,1.3571403,-4.9211965,24.317863,21.526464,-15.227892,11.996677,55.174507,-11.706016,-4.7185717,-1.6968861
4,3.339742422103882,2.137253761291504,77.7191162109375,1.9828216926639857,5.613584879119454,65.64540013443059,9.299718,2.2898216,-4.2446694,29.684565,-5.0860496,-6.0668254,-40.2589,-7.1293344,0.6169999,50.344963,-7.9710565,5.145194,-9.487677,0.7826144,10.698851,-20.469362,25.4119,-26.922167,38.467724,1.1846974,-5.165828,24.38054,21.946903,-14.852481,11.737216,55.267628,-11.642763,-4.776245,-1.6385722
5,4.367439270019531,3.1632165908813477,77.94864654541016,2.263018403258577,5.556348203741852,65.69747765307216,10.0959635,2.2851956,-4.6760883,29.695616,-3.0729375,-6.6280646,-39.609756,-7.278327,0.97391397,46.28165,-5.988015,5.2457614,-9.659226,0.6585194,10.472492,-20.199951,25.591415,-27.3035,37.32071,1.0056821,-5.3914185,24.32806,22.289637,-14.4767065,11.474693,55.36628,-11.585644,-4.8090343,-1.5866863
6,5.3897809982299805,4.188321590423584,78.12711334228516,2.6001414165788694,5.440464890170357,65.7569690247453,10.901241,2.2081983,-5.15775,29.821007,-1.3402838,-7.2105203,-38.84165,-7.519161,1.337701,42.279724,-3.76196,5.284355,-9.805886,0.47977322,10.2797785,-19.916435,25.773827,-27.748468,36.200237,0.8185508,-5.6035337,24.193182,22.580803,-14.108616,11.2106905,55.462265,-11.530442,-4.824033,-1.5373532
7,6.410747528076172,5.214987277984619,78.25592041015625,2.952286012576442,5.292509454204695,65.82329247060336,11.60821,2.0864966,-5.671291,30.215563,0.13429491,-7.7003593,-38.02303,-7.8431373,1.5598446,38.569103,-1.6408544,5.306127,-9.91965,0.28434268,10.109575,-19.633787,25.953348,-28.23792,35.135006,0.6437822,-5.814084,24.019644,22.809538,-13.75561,10.968075,55.55657,-11.473328,-4.828983,-1.4951316
8,7.42733097076416,6.236933708190918,78.3280258178711,3.2780731322900776,5.138416047103767,65.89680896586341,12.110789,1.9489752,-6.1945486,31.033339,1.3722359,-7.9819293,-37.21216,-8.223466,1.4911336,35.367485,0.035999227,5.363673,-9.993704,0.11060733,9.951404,-19.373543,26.124846,-28.756948,34.159813,0.49514547,-6.0356646,23.851603,22.966295,-13.423233,10.771757,55.64998,-11.409976,-4.831715,-1.4646735
9,8.445568084716797,7.252811431884766,78.34551239013672,3.588007476619446,4.979651473986031,65.99238430274774,12.367001,1.8190306,-6.6924386,32.353493,2.3710923,-7.9707303,-36.34391,-8.715618,0.9906699,32.556107,1.1908579,5.59126,-10.03718,-0.049347896,9.80106,-19.145975,26.287994,-29.320023,33.284603,0.38779625,-6.287834,23.69642,23.05695,-13.113084,10.622256,55.738503,-11.32619,-4.8282104,-1.4541872
10,9.46626091003418,8.251368522644043,78.31427764892578,3.897315851653367,4.803116796976293,66.10519775947786,12.436025,1.7003955,-7.1770277,34.082302,3.1203775,-7.718578,-35.404675,-9.27528,0.1649447,30.05685,2.016604,5.9426527,-10.052035,-0.2090126,9.6653385,-18.93951,26.442114,-29.92763,32.493774,0.31070912,-6.559153,23.53232,23.086525,-12.825534,10.508605,55.82104,-11.227488,-4.816403,-1.4579669
11,10.486532211303711,9.239921569824219,78.23234558105469,4.17066534353424,4.614862259546233,66.20538095525016,12.359634,1.5815383,-7.696219,36.123146,3.6262233,-7.325449,-34.53739,-9.747602,-0.75269526,28.167208,2.566732,6.1827254,-10.017408,-0.33817032,9.549789,-18.740238,26.58086,-30.54284,31.782764,0.24131489,-6.8158503,23.36079,23.039927,-12.567143,10.435742,55.904247,-11.13848,-4.806954,-1.4605604
12,11.491402626037598,10.211097717285156,78.09254455566406,4.371438672517029,4.424170225560987,66.26042280133163,12.186368,1.433895,-8.298392,38.369743,3.8995707,-6.91437,-33.908443,-10.009461,-1.5170577,27.223015,2.8648393,6.051111,-9.911298,-0.40199512,9.45741,-18.53493,26.695496,-31.12691,31.149837,0.15625449,-7.0245833,23.183289,22.90324,-12.349643,10.409364,55.993526,-11.082739,-4.8107057,-1.4456426
13,12.485254287719727,11.180511474609375,77.90213012695312,4.486882901236377,4.235936178717889,66.25846741683884,11.895042,1.2171158,-9.022767,40.90017,3.920376,-6.44886,-33.648678,-10.023533,-2.0301833,27.476316,3.1549623,5.3653655,-9.721067,-0.38185087,9.386231,-18.33317,26.779839,-31.683767,30.60531,0.046679944,-7.18132,22.99992,22.67477,-12.182983,10.437474,56.095787,-11.069417,-4.8357687,-1.3855555
14,13.48166275024414,12.159475326538086,77.65369415283203,4.544256202735197,4.041518808124889,66.21890612224922,11.481464,0.93658924,-9.837457,43.736336,3.688375,-5.8986363,-33.638023,-9.890134,-2.4305482,28.6841,3.3505018,4.2878833,-9.46476,-0.3017788,9.335734,-18.137035,26.832476,-32.2252,30.151943,-0.07261144,-7.30306,22.810186,22.364952,-12.068171,10.51719,56.202393,-11.081546,-4.8746195,-1.2943261
15,14.470833778381348,13.137014389038086,77.34270477294922,4.563746439176161,3.8320613352519106,66.15653928262563,11.014263,0.6182108,-10.68397,46.708237,3.2398827,-5.414729,-33.677475,-9.688553,-2.8115618,30.457127,2.967048,3.0715554,-9.168301,-0.18620747,9.310555,-17.9177,26.851862,-32.719967,29.773623,-0.18675986,-7.387705,22.61476,21.975962,-12.005005,10.640378,56.294914,-11.102757,-4.914469,-1.2181998
16,15.426559448242188,14.021660804748535,77.00971221923828,4.5599870005465295,3.604419386527134,66.08012756210344,10.555357,0.29458562,-11.49567,49.64814,2.6110718,-5.149661,-33.59003,-9.480689,-3.2350578,32.45292,1.4841914,1.9663849,-8.866867,-0.049103845,9.318085,-17.621197,26.846613,-33.10229,29.426886,-0.27377126,-7.432527,22.405426,21.493671,-11.997691,10.803628,56.362526,-11.122353,-4.9425006,-1.2031472
17,16.398319244384766,14.930447578430176,76.60076904296875,4.570234434701311,3.350944909733865,66.01976720829103,10.1406145,-0.09362102,-12.281504,52.539764,1.7340966,-5.198265,-33.338757,-9.326059,-3.6938012,34.835907,-1.7588183,0.96455115,-8.537532,0.051354267,9.318064,-17.311537,26.823387,-33.487453,29.151861,-0.3818593,-7.4280734,22.191858,20.985819,-12.008889,10.988148,56.36914,-11.17039,-4.951122,-1.2529083
18,17.41269302368164,15.94980525970459,76.10210418701172,4.576993648795218,3.0769516338827074,65.9599426943499,9.726345,-0.5579842,-13.054218,55.490955,0.5964156,-5.47372,-33.03089,-9.144183,-4.114861,37.73088,-6.3330226,-0.0336522,-8.175817,0.14837004,9.319628,-16.989138,26.757214,-33.847694,28.961985,-0.49120376,-7.3797517,21.969036,20.431467,-12.055278,11.199269,56.33469,-11.245592,-4.9484797,-1.34528
19,18.367820739746094,16.82965087890625,75.62500762939453,4.502803451323796,2.8035503360474796,65.83665463118078,9.254827,-0.9731793,-13.745756,58.498142,-0.6631311,-5.8465567,-32.711323,-8.799336,-4.4789414,40.74444,-11.1266575,-0.926296,-7.764505,0.32278836,9.37746,-16.603064,26.655561,-34.089172,28.836292,-0.55548453,-7.3045197,21.753988,19.728266,-12.148414,11.459824,56.325253,-11.271025,-4.945175,-1.4954362
20,19.292102813720703,17.661418914794922,75.1379165649414,4.272634412632713,2.551023201960712,65.58800937455652,8.672233,-1.2158705,-14.301756,61.543964,-1.903096,-6.1904573,-32.42249,-8.191308,-4.7942724,43.486008,-15.032642,-1.6138257,-7.268728,0.65269995,9.533906,-16.14026,26.51011,-34.168205,28.791616,-0.54345334,-7.2207475,21.577084,18.801918,-12.303033,11.789569,56.38755,-11.156689,-4.9521036,-1.7150502
21,20.190000534057617,18.480878829956055,74.6392822265625,3.8111758408022762,2.3112440093238766,65.16384290927314,7.9990587,-1.2171649,-14.707763,64.66605,-3.1269803,-6.543246,-32.2107,-7.246186,-5.084273,45.94639,-17.734379,-2.0169854,-6.6510186,1.2249663,9.831869,-15.602084,26.307545,-34.02985,28.80332,-0.4219455,-7.13637,21.419636,17.623257,-12.532157,12.184195,56.502453,-10.829644,-4.9780726,-2.0135942
22,21.06940269470215,19.29598045349121,74.15373229980469,3.1762559078698374,2.075018206488753,64.60949933306149,7.259142,-1.0600988,-14.9887705,67.852005,-4.3986845,-6.9551578,-32.044945,-6.0711718,-5.3546057,48.326145,-19.846226,-2.213862,-5.9492445,1.9893552,10.224706,-15.001376,26.0429,-33.7139,28.878777,-0.21882054,-7.0422897,21.275068,16.236916,-12.835652,12.647154,56.64677,-10.345475,-5.0183907,-2.3771474
23,21.951372146606445,20.13548469543457,73.68987274169922,2.4943803167813203,1.8606115646294559,64.0071239725516,6.399883,-0.84504944,-15.168119,71.008385,-5.653649,-7.3146124,-31.843214,-4.8397493,-5.5998316,50.52933,-21.658278,-2.3390446,-5.2443504,2.8156843,10.627385,-14.32754,25.71602,-33.300236,29.073536,0.020096233,-6.930903,21.18803,14.671492,-13.203501,13.20847,56.86565,-9.812191,-5.0635285,-2.7834811
24,22.844465255737305,20.986400604248047,73.24007415771484,1.8909869851345138,1.689725683147705,63.43840007284846,5.3608613,-0.6639055,-15.280061,74.04455,-6.8210945,-7.503374,-31.525946,-3.7003803,-5.8165,52.438698,-23.447578,-2.5195215,-4.608161,3.5668328,10.964314,-13.572631,25.332241,-32.873547,29.44643,0.24628758,-6.793588,21.203798,12.957594,-13.619793,13.895211,57.205036,-9.339805,-5.1017284,-3.212867
25,23.73100471496582,21.82693862915039,72.81710052490234,1.3625337815046514,1.587608338463113,62.89911720400727,4.101585,-0.4957501,-15.336972,76.98849,-7.848463,-7.478805,-31.090271,-2.624902,-6.0242558,53.990093,-25.242561,-2.785545,-4.0388174,4.233423,11.2142,-12.687521,24.882896,-32.38003,29.998991,0.5059527,-6.614042,21.345552,11.044214,-14.076419,14.798316,57.742916,-8.891233,-5.1252437,-3.7287405
26,24.5887451171875,22.634788513183594,72.43730926513672,0.8533950898309121,1.5364948557770373,62.35423870747074,2.658842,-0.29885644,-15.336299,79.87012,-8.775861,-7.300694,-30.576221,-1.5402229,-6.22627,55.242607,-26.90311,-3.0721407,-3.502316,4.876991,11.423002,-11.696258,24.364462,-31.800352,30.705503,0.80575526,-6.4001536,21.583336,8.932636,-14.562024,15.885146,58.426506,-8.4273205,-5.1427054,-4.3186564
27,25.425662994384766,23.443933486938477,72.11508178710938,0.40960830415152916,1.4978256462206434,61.83922081022462,1.0801706,-0.12850183,-15.293844,82.60263,-9.667709,-6.999642,-29.970554,-0.514489,-6.395274,56.261036,-28.443747,-3.3605392,-3.006571,5.4597254,11.622525,-10.706929,23.800549,-31.287712,31.589493,1.0348625,-6.1795006,21.88686,6.7396736,-15.050441,16.978819,59.107697,-8.063808,-5.1618576,-4.8529553
28,26.26592254638672,24.268611907958984,71.85733032226562,0.07588948309264312,1.4340147589336982,61.388784536924256,-0.5881452,-0.036646347,-15.220882,85.09908,-10.590477,-6.606122,-29.254177,0.3799803,-6.5033245,57.112293,-29.883295,-3.6309216,-2.547971,5.9371614,11.843354,-9.827219,23.23038,-31.012438,32.67177,1.0781604,-5.9796414,22.230343,4.5816445,-15.513797,17.88318,59.65182,-7.927258,-5.1876016,-5.207125
29,27.114131927490234,25.08222198486328,71.65393829345703,-0.10550971572165989,1.3299020376442061,61.042394814330486,-2.3644357,-0.07046202,-15.134994,87.37052,-11.538751,-6.1095567,-28.400373,1.0770645,-6.5439067,57.813477,-31.243513,-3.8734853,-2.1448553,6.249396,12.104498,-9.091219,22.684818,-31.039621,34.022194,0.8891595,-5.814072,22.702425,2.4206724,-15.948701,18.5931,60.115482,-8.1244335,-5.21714,-5.298497
30,27.955801010131836,25.87236976623535,71.48477172851562,-0.16967983284261187,1.209750115677771,60.77081673417577,-4.2700963,-0.18808973,-15.024585,89.45496,-12.481128,-5.495756,-27.422228,1.6307003,-6.535197,58.326847,-32.506626,-4.1033273,-1.7797902,6.4226856,12.39175,-8.427156,22.173513,-31.287743,35.588005,0.524683,-5.667244,23.289658,0.21910058,-16.35772,19.175106,60.544834,-8.573643,-5.248309,-5.214686
31,28.798416137695312,26.65862464904785,71.3551254272461,-0.18550617674077563,1.0950700444971992,60.50810577063373,-6.260193,-0.31105885,-14.857174,91.296326,-13.4413805,-4.792642,-26.351654,2.141844,-6.48316,58.636078,-33.635002,-4.3357887,-1.3994825,6.536345,12.678287,-7.7868567,21.705744,-31.708492,37.220276,0.022165518,-5.5229216,23.81534,-1.9203565,-16.730064,19.544,60.820713,-9.122828,-5.286884,-5.091254
32,29.635623931884766,27.440933227539062,71.26729583740234,-0.22235661545684876,1.006577591760852,60.18643723548315,-8.291306,-0.35995612,-14.602518,92.84049,-14.446016,-4.0311127,-25.226492,2.7108264,-6.3880467,58.7283,-34.58986,-4.5847864,-0.9413291,6.669333,12.931383,-7.131078,21.287672,-32.263733,38.778893,-0.5813593,-5.3609576,24.103708,-3.8957574,-17.049393,19.61083,60.83628,-9.624143,-5.3368917,-5.064081
33,30.472841262817383,28.2198486328125,71.22090911865234,-0.3033350915092086,0.951212820317303,59.78416460885271,-10.387707,-0.2943124,-14.241899,94.099495,-15.57172,-3.200989,-24.056538,3.369238,-6.25027,58.598793,-35.378105,-4.8615417,-0.38670364,6.8421774,13.143557,-6.453587,20.92644,-32.955246,40.26257,-1.3830144,-5.153922,24.12475,-5.7192545,-17.308111,19.283173,60.588093,-10.178267,-5.4013157,-5.1473064
34,31.309276580810547,28.99530792236328,71.21856689453125,-0.3896527358041688,0.9164459912790837,59.33742370598063,-12.553939,-0.1689658,-13.796694,95.088974,-16.784052,-2.304032,-22.818901,4.057478,-6.061488,58.25639,-36.016537,-5.1567883,0.23133418,7.006394,13.323775,-5.7715054,20.628365,-33.79956,41.742912,-2.3699887,-4.914849,23.968998,-7.4517813,-17.51589,18.63407,60.16231,-10.822778,-5.4773674,-5.2803664
35,32.15950393676758,29.796863555908203,71.27574920654297,-0.45852720460950297,0.8934709749031389,58.86424850757735,-14.720094,-0.040749602,-13.289864,95.7601,-17.936962,-1.3792661,-21.504267,4.7369995,-5.807624,57.713047,-36.477924,-5.4502807,0.891112,7.1397276,13.464555,-5.075364,20.393883,-34.7718,43.184254,-3.3378465,-4.6800704,23.638672,-9.067335,-17.6836,17.834389,59.58414,-11.311377,-5.557687,-5.4853787
36,33.007755279541016,30.592382431030273,71.38934326171875,-0.48784797295403587,0.8739500367812751,58.383161510132105,-16.817816,0.03635809,-12.740348,96.06469,-18.885265,-0.4643904,-20.10255,5.3687057,-5.4779716,56.980507,-36.74158,-5.722895,1.5677747,7.2217526,13.562208,-4.354871,20.219809,-35.84332,44.547424,-4.0811453,-4.487461,23.132101,-10.536145,-17.819448,17.060455,58.870018,-11.393197,-5.6359677,-5.7829685
37,33.86273193359375,31.406661987304688,71.5575180053711,-0.4745444943732821,0.8649781256996294,57.8763258601861,-18.86889,0.1022937,-12.0934105,95.98883,-19.608234,0.46902287,-18.610971,5.957518,-5.043472,56.044632,-36.812126,-5.969555,2.2672415,7.2545996,13.611154,-3.60857,20.109838,-37.051785,45.822567,-4.6435237,-4.369539,22.369736,-11.850919,-17.917389,16.28909,57.973373,-10.921905,-5.6851954,-6.1846814
38,34.7336540222168,32.224082946777344,71.77755737304688,-0.4293286067054875,0.8678349430325746,57.34041212013031,-20.88404,0.17031085,-11.342331,95.55278,-20.182547,1.4238664,-17.031544,6.5099115,-4.515874,54.90857,-36.7012,-6.199409,2.993938,7.2450666,13.61706,-2.840241,20.06506,-38.389988,47.02994,-5.1032147,-4.294006,21.374708,-13.036019,-17.975294,15.455782,56.90578,-10.054697,-5.722042,-6.6771183
39,35.61565399169922,33.0721435546875,72.048828125,-0.35090646376153317,0.8664242721482495,56.81618181482095,-22.783504,0.14675087,-10.580123,94.76052,-20.60763,2.3235528,-15.363207,6.9942074,-3.948819,53.612213,-36.392895,-6.416681,3.7165596,7.181895,13.596547,-2.0396693,20.07249,-39.75217,48.168716,-5.298848,-4.2114863,20.297977,-14.099844,-18.011772,14.678361,55.757244,-8.996187,-5.807069,-7.24093
40,36.50822830200195,33.929344177246094,72.36234283447266,-0.23879387244404224,0.8448044549177507,56.34524534449618,-24.49609,-0.06144796,-9.904613,93.61758,-20.876184,3.0959668,-13.605185,7.3827,-3.4000213,52.191505,-35.87356,-6.6255937,4.3949404,7.0620894,13.569013,-1.190108,20.111149,-41.0215,49.2349,-5.0619884,-4.082091,19.290041,-15.045531,-18.054579,14.087487,54.608265,-7.9450626,-5.9978523,-7.853082
41,37.41769790649414,34.80033874511719,72.71858978271484,-0.08915355122682439,0.7853921132687502,55.94371089987834,-26.014948,-0.4990986,-9.349143,92.11478,-20.986387,3.7649393,-11.711751,7.6563478,-2.8914845,50.607845,-35.152077,-6.846439,5.0122337,6.892177,13.553184,-0.29256713,20.16665,-42.21439,50.23863,-4.1887474,-3.9155457,18.338408,-15.853611,-18.119276,13.72183,53.402184,-6.8318753,-6.2742014,-8.492565
42,38.33891677856445,35.677940368652344,73.10832977294922,0.09465107660490396,0.7015996510349072,55.58868428813379,-27.372618,-1.1053755,-8.859288,90.249245,-20.941881,4.3574195,-9.700809,7.83225,-2.3979144,48.862247,-34.236702,-7.0703115,5.5902214,6.685792,13.538135,0.6411825,20.233232,-43.37428,51.186905,-2.8152633,-3.748438,17.376505,-16.512457,-18.203722,13.514035,52.09961,-5.584296,-6.6221285,-9.168008
43,39.269107818603516,36.58181381225586,73.53263092041016,0.30037992670885494,0.6240019762847636,55.26248741775093,-28.563908,-1.8108479,-8.410271,88.036285,-20.740715,4.810683,-7.670612,7.940027,-1.9084344,47.057297,-33.10204,-7.2555637,6.1476226,6.4532537,13.499852,1.6137862,20.302387,-44.42439,52.067146,-1.2792684,-3.576054,16.473974,-17.031109,-18.305342,13.432705,50.803665,-4.4003797,-7.103573,-9.899422
44,40.21171951293945,37.49143981933594,73.97710418701172,0.5166147699151779,0.5833578654034272,54.947734479025044,-29.584833,-2.5448964,-7.9802327,85.48931,-20.37944,5.062805,-5.719314,8.009982,-1.4101185,45.293365,-31.719181,-7.358794,6.695919,6.202366,13.414366,2.6321344,20.364882,-45.2791,52.863968,0.084173106,-3.3794901,15.701564,-17.430887,-18.420286,13.456274,49.628506,-3.4790049,-7.776602,-10.710433
45,41.17605972290039,38.42116165161133,74.43896484375,0.7533604143881732,0.5838203200884711,54.650742213210606,-30.439331,-3.3606296,-7.624578,82.584465,-19.857916,5.067796,-3.8440564,8.031815,-0.9069194,43.562305,-30.05873,-7.4035206,7.230904,5.9166737,13.278295,3.7067711,20.411621,-45.926968,53.579285,1.3228557,-3.118538,15.100878,-17.710703,-18.551538,13.6331625,48.59528,-2.8460906,-8.731298,-11.682868
46,42.151371002197266,39.36505889892578,74.90953063964844,1.0097387382222007,0.6103343082746877,54.378013423742416,-31.125328,-4.258524,-7.3543315,79.31623,-19.178158,4.8789587,-2.0054057,7.998175,-0.4083535,41.82665,-28.146183,-7.3987184,7.74554,5.6013145,13.1048975,4.8281813,20.437923,-46.408222,54.22629,2.5739756,-2.8089871,14.624553,-17.866035,-18.69871,13.959726,47.650803,-2.4164033,-9.908617,-12.782772
47,43.139991760253906,40.3083610534668,75.3808822631836,1.2582443442002775,0.6651907515403113,54.1120671498771,-31.632244,-5.095717,-7.0774083,75.72123,-18.336308,4.5798335,-0.24338785,7.945568,0.09797879,40.136265,-26.03364,-7.278917,8.248014,5.2914686,12.894669,5.9700866,20.44368,-46.71872,54.806427,3.633361,-2.505635,14.214074,-17.915955,-18.849075,14.332963,46.80149,-2.2188215,-11.135848,-13.867663
48,44.13572692871094,41.257164001464844,75.84815979003906,1.473956094085048,0.7510420534219473,53.835267339167146,-31.95302,-5.7398357,-6.6926427,71.83617,-17.328989,4.247127,1.4033583,7.910968,0.6316385,38.541416,-23.772858,-6.9780293,8.745289,5.01472,12.645942,7.108767,20.433182,-46.85244,55.319298,4.2961593,-2.2622967,13.81567,-17.885542,-18.984875,14.650613,46.061382,-2.2743704,-12.2380705,-14.7976675
49,45.14409255981445,42.22591018676758,76.30774688720703,1.6723193405813024,0.8942957726952454,53.53757058588303,-32.07545,-6.160247,-6.1563816,67.5383,-16.185606,3.8402212,2.876099,7.8891287,1.2211341,37.091408,-21.322964,-6.5575995,9.252868,4.7444353,12.339404,8.261785,20.407927,-46.775974,55.744884,4.420074,-2.0928102,13.439239,-17.778511,-19.084793,14.890697,45.46045,-2.6983128,-13.226629,-15.602511
50,46.16197967529297,43.19790267944336,76.748046875,1.8565489444845897,1.0849031434435574,53.22983892903135,-31.997997,-6.436416,-5.5326695,62.83322,-14.88885,3.3330972,4.218991,7.873881,1.8612463,35.736538,-18.671093,-6.019498,9.767416,4.4700403,11.980731,9.433352,20.3708,-46.512268,56.08369,4.138107,-1.9596157,13.11019,-17.585886,-19.15478,15.0954,44.990623,-3.4482253,-14.166019,-16.349127
51,47.19232940673828,44.1908073425293,77.1663818359375,1.9857589287976436,1.2710219489255514,52.92569777976579,-31.742094,-6.604963,-4.8765078,57.96318,-13.371059,2.8229477,5.5533767,7.906566,2.5390797,34.369045,-15.907086,-5.2098145,10.245343,4.2447915,11.605646,10.594139,20.321741,-46.11068,56.360756,3.6678083,-1.8421392,12.797773,-17.328775,-19.208717,15.28654,44.61575,-4.2889886,-14.967089,-16.94609
52,48.2296257019043,45.18014144897461,77.55298614501953,2.032118179879076,1.4009798880017634,52.638273450603556,-31.33191,-6.7002797,-4.237484,53.15717,-11.560104,2.414926,7.0093975,8.018315,3.2560365,32.860123,-13.10836,-3.9746802,10.645272,4.1055546,11.2468605,11.707196,20.255661,-45.6209,56.61854,3.227158,-1.7225064,12.472517,-17.033096,-19.245596,15.480531,44.310097,-4.988556,-15.548762,-17.292385
53,49.27812957763672,46.177310943603516,77.9010238647461,1.9954324423006469,1.4634596675219531,52.358810190989104,-30.75247,-6.7348843,-3.6666772,48.34219,-9.214667,2.1947746,8.653454,8.229264,4.106497,31.088848,-10.179227,-2.1870756,11.029093,4.043921,10.903027,12.755259,20.202728,-45.08545,56.859375,2.7380633,-1.5891391,12.128918,-16.648926,-19.241344,15.585132,44.057873,-5.595537,-15.866468,-17.319613
54,50.34635543823242,47.17988586425781,78.20690155029297,1.896524643782016,1.4865845150864165,52.08265983022975,-30.014797,-6.6802683,-3.1204815,43.447342,-6.4518485,2.0967155,10.429442,8.522465,5.1166773,29.113914,-7.118636,0.0579553,11.377711,4.0346584,10.559915,13.781745,20.162369,-44.439938,57.041283,2.136582,-1.4517012,11.7800865,-16.20126,-19.196434,15.647701,43.887592,-6.1849923,-15.979048,-17.089207
55,51.42766189575195,48.186424255371094,78.47074127197266,1.7375244743941605,1.4797602359216913,51.82841928061177,-29.192757,-6.5154347,-2.5032382,38.722603,-3.7402909,1.9959959,12.274859,8.877387,6.1732035,27.081781,-4.141981,2.5695004,11.675349,4.0718045,10.213751,14.745132,20.14484,-43.761005,57.183308,1.5964644,-1.3215394,11.436845,-15.708109,-19.118357,15.691992,43.782265,-6.627078,-15.966489,-16.675491
56,52.52404022216797,49.188499450683594,78.67809295654297,1.517216149962305,1.4516115651890908,51.61188307314982,-28.3441,-6.2396193,-1.7200576,34.394833,-1.5329324,1.7593343,14.106332,9.275964,7.1311517,25.17138,-1.4448158,5.142884,11.912847,4.1572194,9.862676,15.599721,20.159754,-43.130207,57.306732,1.2904654,-1.2129382,11.109219,-15.179374,-19.027708,15.739145,43.713947,-6.7879124,-15.904047,-16.152718
57,53.62278366088867,50.17961120605469,78.8147201538086,1.2035504026305226,1.3877950720062682,51.42479357251608,-27.39181,-5.825692,-0.7027498,30.347687,0.0398958,1.2920074,16.010502,9.743735,7.991291,23.248465,1.0120142,7.9082327,12.083354,4.3206325,9.499249,16.381987,20.224886,-42.517826,57.381557,1.3225805,-1.1325802,10.772473,-14.618924,-18.915396,15.818129,43.684032,-6.576529,-15.758387,-15.481432
58,54.711265563964844,51.170921325683594,78.87946319580078,0.8086023065223894,1.2927590661427284,51.24933382854667,-26.317389,-5.3085485,0.5038973,26.467257,1.2527685,0.6759966,17.983158,10.275079,8.829141,21.300087,3.3262916,10.904728,12.224764,4.554808,9.1259165,17.096817,20.344149,-41.914288,57.397144,1.5751396,-1.0745755,10.429022,-13.997431,-18.792639,15.891628,43.6779,-6.08243,-15.499315,-14.638978
59,55.79686737060547,52.150672912597656,78.87586212158203,0.38476871574968163,1.1983244146016157,51.09507606937178,-25.273968,-4.7805724,1.8093053,23.01638,2.2477937,0.035814743,19.78001,10.825692,9.556594,19.734526,5.3838906,13.778612,12.327047,4.804019,8.757722,17.7093,20.514807,-41.35347,57.368824,1.9111807,-1.0331227,10.125817,-13.35271,-18.665113,15.951139,43.714664,-5.4433093,-15.20655,-13.737681
60,56.880218505859375,53.09813690185547,78.80778503417969,-0.06616247400847192,1.132988452000319,50.990793518884125,-24.498753,-4.2649693,3.0666587,20.44246,3.0721946,-0.52490956,21.175404,11.431044,9.791711,18.905445,7.1072283,15.000033,12.367001,5.0549097,8.4030075,18.169813,20.726282,-40.88077,57.328194,2.1913607,-1.0013791,9.910568,-12.713724,-18.54099,15.980456,43.806896,-4.792489,-14.9650545,-12.886267
61,57.960968017578125,54.00251770019531,78.69295501708984,-0.6407213675901736,1.1301153356222087,50.96641899207862,-24.152973,-3.6477506,4.3041234,19.006893,3.7166634,-1.2372193,22.12776,12.168754,9.44798,18.768957,8.633506,15.000033,12.320585,5.400354,8.018913,18.444931,20.973532,-40.522877,57.300804,2.425273,-0.98931944,9.793856,-12.085535,-18.42524,15.970561,43.955395,-4.0880065,-14.814882,-12.062351
62,59.00586700439453,54.885196685791016,78.53895568847656,-1.1971911970131064,1.153407445670139,51.023625560382385,-23.96257,-3.0898104,5.6292753,18.207651,4.2764573,-2.0307589,22.632118,12.86884,8.786181,19.467949,9.794427,15.000033,12.183259,5.723898,7.652644,18.55539,21.252499,-40.262882,57.28046,2.669982,-0.996493,9.7523,-11.443062,-18.322086,15.927044,44.146545,-3.2818105,-14.701612,-11.2228
63,60.04035568237305,55.76450729370117,78.35669708251953,-1.6613965747217845,1.1650402908524604,51.152983714028906,-23.96119,-2.6644998,6.8345356,18.191198,4.53407,-2.4250991,22.740686,13.426139,7.9043283,20.977707,10.442369,15.000033,11.964832,5.9661174,7.3517046,18.525047,21.554497,-40.075,57.262047,2.8613732,-1.0006905,9.781107,-10.77267,-18.229683,15.856263,44.36931,-2.4933455,-14.576272,-10.44338
64,61.082969665527344,56.638248443603516,78.14806365966797,-1.9529760530884401,1.1302840657183224,51.33425919498124,-24.172346,-2.4363043,7.7280965,19.070818,4.2765174,-1.9434321,22.522953,13.737972,6.9268913,23.233646,10.440489,15.000033,11.682618,6.057523,7.1585913,18.378529,21.868187,-39.930313,57.243885,2.9353802,-0.9804435,9.875941,-10.068683,-18.144358,15.767593,44.62108,-1.845772,-14.39483,-9.8017645
65,62.115787506103516,57.52268600463867,77.89405059814453,-2.002630082943922,1.0511632673462987,51.575970552006844,-24.748411,-2.491392,8.1964655,21.140629,3.5446925,-0.011308074,21.954086,13.756094,5.8898087,26.32649,9.602344,15.000033,11.329768,5.930354,7.0848756,18.08936,22.186623,-39.851715,57.257885,2.8538299,-0.9392331,10.050056,-9.324945,-18.058392,15.652795,44.91322,-1.3740164,-14.147352,-9.340573
66,63.13670349121094,58.407188415527344,77.59182739257812,-1.87907682369443,0.9363736070475129,51.8479493250813,-25.56468,-2.7619052,8.389492,24.105488,2.5114603,2.9668217,21.105509,13.549133,4.817928,30.088768,8.121894,15.000033,10.931795,5.6468782,7.103094,17.655184,22.508085,-39.843662,57.303543,2.6591134,-0.8867287,10.303072,-8.556444,-17.97184,15.516162,45.256294,-1.01343,-13.861931,-9.011154
67,64.0709228515625,59.27522277832031,77.2894515991211,-1.6944296171672122,0.765011383598363,52.088332951203256,-26.256016,-3.1069,8.475254,27.253016,1.1025783,5.9953613,20.164783,13.194023,3.7895958,34.118877,6.4030457,15.000033,10.538351,5.3173394,7.1999435,17.13537,22.828445,-39.84795,57.32856,2.4087598,-0.8109738,10.609153,-7.7820745,-17.892475,15.385296,45.63776,-0.7347685,-13.553999,-8.754896
68,64.9749526977539,60.14037322998047,76.94596862792969,-1.5328681076174024,0.5284255743010278,52.26214447651258,-26.51917,-3.3867028,8.575618,30.019756,-0.8909778,8.087915,19.256693,12.740514,2.8284974,38.11584,4.7965336,15.000033,10.17171,5.0237775,7.361407,16.586155,23.141808,-39.80327,57.28433,2.1620505,-0.7000121,10.941775,-7.0202727,-17.830233,15.290011,46.04266,-0.5065962,-13.238012,-8.514315
69,65.96440124511719,61.03200912475586,76.49249267578125,-1.4023006475793547,0.21312477024976,52.3682333964747,-26.237995,-3.5251184,8.672891,32.4201,-3.9646957,8.891065,18.410444,12.181896,1.9023649,42.109188,3.3215432,15.000033,9.828504,4.7731466,7.582576,16.042828,23.44349,-39.658073,57.1358,1.9551597,-0.51903623,11.294315,-6.263657,-17.797037,15.286385,46.45604,-0.30379328,-12.899457,-8.327099
70,66.93952941894531,61.92459487915039,76.00787353515625,-1.2397045729942369,-0.16523891385965686,52.439359016115354,-25.624924,-3.5815833,8.705577,34.79472,-7.9282904,8.947427,17.55729,11.492754,1.0017153,46.235054,1.8039024,15.000033,9.478744,4.5048947,7.87033,15.468465,23.731236,-39.449917,56.919334,1.7523853,-0.2859677,11.680469,-5.5079703,-17.793736,15.349797,46.886646,-0.14277284,-12.537359,-8.2058735
71,67.80643463134766,62.78922653198242,75.55046081542969,-1.0215179981014322,-0.5669038447607517,52.49665999097224,-24.917,-3.6030846,8.732321,37.17895,-12.024309,8.634997,16.640667,10.680194,0.16464917,50.41341,0.27592158,15.000033,9.105279,4.196471,8.225183,14.800863,24.003334,-39.262283,56.701603,1.4981595,-0.06786697,12.104746,-4.7696686,-17.80697,15.381025,47.351406,-0.059062842,-12.186159,-8.05535
72,68.6520004272461,63.63500213623047,75.06397247314453,-0.7324024242755777,-0.955226419282404,52.556532151971666,-24.335804,-3.689825,8.789554,39.577194,-15.49429,8.359314,15.601951,9.749132,-0.56233966,54.574493,-1.2322228,15.000033,8.69926,3.8312147,8.646909,13.976465,24.258907,-39.17992,56.550415,1.1392809,0.06767818,12.572346,-4.067264,-17.817139,15.276989,47.872467,-0.092821255,-11.88017,-7.779857
73,69.50652313232422,64.4649887084961,74.55699157714844,-0.3481186272690499,-1.359295829348885,52.61020057721343,-23.96158,-3.9170587,8.91421,42.123543,-18.1484,8.189835,14.453995,8.65255,-1.1569352,58.80684,-2.7502246,15.000033,8.257547,3.3818989,9.184952,12.972888,24.49807,-39.226486,56.477753,0.57847196,0.07191769,13.130088,-3.4260197,-17.811203,15.003524,48.460857,-0.27927563,-11.671731,-7.273901
74,70.35690307617188,65.27315521240234,74.05487060546875,0.11695475063460291,-1.785777259813046,52.65295314507551,-23.67272,-4.21856,9.089797,44.78756,-20.39626,7.9435034,13.223037,7.404407,-1.6248313,63.124763,-4.2907877,15.000033,7.7950373,2.8571446,9.817274,11.819343,24.720736,-39.361176,56.455757,-0.12772372,-0.013344353,13.760172,-2.8316932,-17.78828,14.6096,49.111282,-0.595728,-11.531865,-6.615191
75,71.21671295166016,66.06626892089844,73.58504486083984,0.5286411070018178,-2.1593142518463733,52.68874837874738,-23.41958,-4.439865,9.215849,47.37874,-22.425444,7.6346416,11.853993,6.1755657,-1.9821626,67.319084,-5.7649856,15.000033,7.3413663,2.3900926,10.421496,10.532065,24.925104,-39.57144,56.487522,-0.80686736,-0.116946064,14.370565,-2.2389102,-17.743824,14.121261,49.815765,-0.993889,-11.371351,-5.981407
76,72.066650390625,66.83968353271484,73.16609954833984,0.865894947209795,-2.4162983880891398,52.739069838039654,-23.078539,-4.5769124,9.258754,49.55401,-24.345787,7.289892,10.291092,4.987229,-2.317104,71.24183,-7.1363025,14.691821,6.904635,2.0018315,10.904776,9.12492,25.10747,-39.845123,56.578274,-1.2865303,-0.1618814,14.871517,-1.604949,-17.674393,13.562666,50.57019,-1.4281574,-11.098142,-5.550011
77,72.89949798583984,67.59203338623047,72.79830932617188,1.1581880219922338,-2.518498155700554,52.80547129620585,-22.621233,-4.685069,9.258191,51.159904,-26.1276,6.900194,8.46077,3.7682552,-2.681706,74.938515,-8.432913,13.7981205,6.4850483,1.6711332,11.239256,7.5415187,25.264702,-40.274494,56.794575,-1.55126,-0.10769312,15.268385,-0.92280686,-17.56883,12.853259,51.411247,-1.946464,-10.705243,-5.3157887
78,73.7248306274414,68.33807373046875,72.48127746582031,1.4319090781809738,-2.509992296693581,52.88320070016256,-22.091587,-4.8141847,9.255905,52.34699,-27.708078,6.4652367,6.397318,2.5572639,-2.916848,78.49125,-9.684503,12.834183,6.0746236,1.3751485,11.482757,5.7912364,25.391113,-40.834545,57.108345,-1.6855136,0.0026243476,15.600393,-0.21499178,-17.425406,12.002831,52.33235,-2.5568697,-10.235002,-5.198575
79,74.56747436523438,69.10181427001953,72.2125244140625,1.6726677926334204,-2.452318836936775,52.9886853674971,-21.473362,-4.955569,9.216909,53.221,-29.141943,6.0179677,4.2100086,1.3751546,-3.0638077,81.8086,-10.853008,11.844956,5.6499724,1.116735,11.676595,3.9926143,25.47924,-41.328873,57.38709,-1.6663523,0.123196326,15.828733,0.513302,-17.257751,11.189006,53.26346,-3.1449637,-9.66443,-5.2646384
80,75.41895294189453,69.8709487915039,71.98319244384766,1.867750313994295,-2.4074707708781107,53.13720416704668,-20.750502,-5.091587,9.0986805,53.89544,-30.478031,5.5880036,2.0056353,0.23726496,-3.1708558,84.80229,-11.899597,10.877892,5.178038,0.89550155,11.861002,2.2722995,25.526873,-41.548367,57.506878,-1.4621472,0.20622858,15.914038,1.2494231,-17.089888,10.606311,54.139248,-3.5885992,-8.9685955,-5.5836697
81,76.26984405517578,70.63691711425781,71.79212951660156,2.0075204337822643,-2.3976978532323985,53.329621046373795,-19.900595,-5.201254,8.88167,54.393417,-31.746334,5.181437,-0.22225255,-0.84341264,-3.2427022,87.492615,-12.788959,9.929911,4.6404037,0.7191257,12.055618,0.6555568,25.536715,-41.391647,57.447693,-0.94843674,0.25771332,15.775527,1.9658289,-16.941854,10.36343,54.995285,-3.7876031,-8.058532,-6.316956
82,77.10930633544922,71.40005493164062,71.64845275878906,2.101378627059962,-2.3883318027672384,53.55872339024218,-18.936903,-5.2916813,8.586121,54.65847,-32.91377,4.7846913,-2.532013,-1.872152,-3.2655845,89.92086,-13.54686,8.984418,4.038394,0.58816355,12.236537,-0.90660757,25.515738,-40.96246,57.27146,-0.17334339,0.29179886,15.455834,2.6666584,-16.819351,10.364162,55.85387,-3.8027391,-6.974034,-7.3818574
83,77.92611694335938,72.1579360961914,71.5554428100586,2.165217265686018,-2.3561577820607775,53.82806094343032,-17.894033,-5.3750305,8.220821,54.683365,-33.930996,4.3920197,-4.892567,-2.8702407,-3.267992,92.02226,-14.218589,8.065376,3.382577,0.49265736,12.378955,-2.409945,25.471832,-40.37515,56.98198,0.63662726,0.27611765,15.101812,3.4035182,-16.718477,10.478223,56.616447,-3.7639263,-5.8830824,-8.481161
84,78.7363052368164,72.91077423095703,71.51780700683594,2.2154840316320996,-2.2781051941677095,54.141378641977646,-16.806494,-5.4639635,7.7935376,54.460045,-34.749844,3.996233,-7.2718835,-3.8579102,-3.2757816,93.7307,-14.850787,7.202976,2.6843648,0.42258346,12.458729,-3.8504062,25.41344,-39.747032,56.579075,1.2506176,0.18487364,14.861608,4.226579,-16.62756,10.574471,57.184814,-3.8181818,-4.9489436,-9.314626
85,79.55699920654297,73.66525268554688,71.5406723022461,2.262998793185857,-2.1311183920217616,54.522937534431655,-15.704771,-5.5784607,7.290483,53.982204,-35.364162,3.5972326,-9.715009,-4.867319,-3.3101926,95.03964,-15.449086,6.429402,1.9362652,0.368062,12.457465,-5.24993,25.344307,-39.08307,56.05294,1.5900503,-0.015601567,14.745145,5.163738,-16.53736,10.626529,57.494137,-4.0267763,-4.1309724,-9.849197
86,80.39779663085938,74.43888092041016,71.63191223144531,2.2985878558197936,-1.9339162120125009,54.96438670406913,-14.562156,-5.699888,6.705064,53.25462,-35.79656,3.1940877,-12.225129,-5.878382,-3.361597,95.98058,-15.984933,5.726081,1.1476703,0.3361702,12.39309,-6.612482,25.268646,-38.346474,55.408474,1.7782164,-0.29925573,14.684329,6.1917024,-16.448244,10.687081,57.606262,-4.3168583,-3.369268,-10.227154
87,81.25175476074219,75.20988464355469,71.77620697021484,2.3071194136115034,-1.7263958234673127,55.42066688231078,-13.330097,-5.7830167,6.056231,52.29367,-36.037685,2.7783513,-14.704167,-6.8312683,-3.4153557,96.54346,-16.457445,5.0486083,0.3440663,0.33967414,12.293885,-7.903366,25.187263,-37.5798,54.674866,1.892383,-0.598905,14.710721,7.2683744,-16.35242,10.758456,57.62883,-4.6481023,-2.795925,-10.415491
88,82.12047576904297,75.98429870605469,71.97315979003906,2.2722642261455395,-1.547912695069279,55.84609622776028,-11.959865,-5.782446,5.3648257,51.11461,-36.079662,2.343682,-17.05257,-7.6638517,-3.4622312,96.71995,-16.86894,4.353704,-0.42980117,0.39321908,12.193062,-9.094207,25.110819,-36.850945,53.865414,1.9999273,-0.84614563,14.854774,8.37698,-16.252419,10.815969,57.6426,-4.983041,-2.5443509,-10.376941
89,83.00460052490234,76.7737045288086,72.22551727294922,2.175629675365089,-1.4050497613452178,56.239853336027096,-10.412953,-5.6806436,4.597546,49.656654,-35.952507,1.8876424,-19.262829,-8.3542595,-3.5300403,96.478905,-17.251968,3.60279,-1.1738415,0.5105166,12.095974,-10.17575,25.041073,-36.160164,52.95951,2.068799,-1.0179696,15.141302,9.545037,-16.149612,10.860484,57.6463,-5.3070555,-2.7744963,-10.022582
90,83.91746520996094,77.57939147949219,72.53108978271484,2.028625636232093,-1.277951426485067,56.6224909998135,-8.725949,-5.4946575,3.7558033,47.93534,-35.651207,1.4132625,-21.371885,-8.931253,-3.636181,95.83251,-17.60056,2.8361297,-1.9051089,0.6814604,11.990093,-11.162722,24.978088,-35.483963,51.949112,2.07575,-1.1512879,15.547209,10.776018,-16.043276,10.899451,57.59941,-5.6401315,-3.3774223,-9.401422
91,84.8373794555664,78.38947296142578,72.88276672363281,1.8590520362098266,-1.1664044973642846,56.98033376176479,-6.966774,-5.235794,2.9141994,46.090145,-35.12141,0.9244522,-23.34523,-9.409904,-3.7559495,94.83734,-17.859438,2.1276655,-2.6132658,0.87901086,11.880039,-12.053516,24.926348,-34.837963,50.866066,2.1126535,-1.2674848,16.031988,12.00517,-15.927394,10.927502,57.53564,-5.9980574,-4.083054,-8.687186
92,85.77653503417969,79.2159652709961,73.27528381347656,1.6959587878868587,-1.0705044858600625,57.29957969158957,-5.2014523,-4.9230204,2.145754,44.25782,-34.302197,0.42544565,-25.151375,-9.808495,-3.8609204,93.55124,-17.971142,1.5473611,-3.283696,1.0769888,11.7720175,-12.845228,24.894526,-34.242725,49.73305,2.2682428,-1.3863255,16.55531,13.177323,-15.802617,10.931809,57.475376,-6.403874,-4.620038,-8.048314
93,86.7293930053711,80.04289245605469,73.70061492919922,1.5351454846522807,-1.0063996000613196,57.56584967554216,-3.3727324,-4.547462,1.4613526,42.37708,-33.165184,-0.11526516,-26.768959,-10.125706,-3.9614382,91.96329,-17.938833,1.10341,-3.9170113,1.2612132,11.675624,-13.519841,24.881424,-33.6736,48.54156,2.6010454,-1.4874817,17.124374,14.253236,-15.636532,10.941083,57.45964,-6.9133525,-4.9418983,-7.4864163
94,87.68864440917969,80.87991333007812,74.1502456665039,1.3645200275621607,-0.9688275266274365,57.78907890388129,-1.474295,-4.1093407,0.8236983,40.412888,-31.74739,-0.6885584,-28.211174,-10.351348,-4.0778604,90.05015,-17.790455,0.7652337,-4.509855,1.448153,11.58908,-14.083447,24.892256,-33.142536,47.266537,3.04413,-1.5644474,17.754772,15.285973,-15.446816,10.938874,57.446293,-7.499321,-5.1868186,-6.9209194
95,88.6642837524414,81.72859954833984,74.62287902832031,1.204414601515044,-0.9261764219089493,57.991681224838004,0.35606903,-3.6479168,0.23134439,38.53997,-30.097357,-1.2273313,-29.501474,-10.497416,-4.1883254,87.85085,-17.503275,0.5389405,-5.0755515,1.626873,11.485669,-14.567498,24.930796,-32.67671,45.95502,3.529968,-1.6589231,18.418766,16.269968,-15.230532,10.899254,57.438732,-8.083107,-5.356994,-6.4298954
96,89.64202117919922,82.5750732421875,75.10640716552734,1.07568603407422,-0.8471475337652303,58.196417732913304,1.9835536,-3.204962,-0.3187785,36.932457,-28.2603,-1.6662265,-30.665926,-10.581686,-4.2636523,85.40284,-17.053001,0.42657048,-5.6199026,1.7859323,11.339009,-15.005059,25.00135,-32.31059,44.653667,3.9916775,-1.8146892,19.089224,17.204407,-14.983653,10.788053,57.436253,-8.587578,-5.452016,-6.090375
97,90.62711334228516,83.43959045410156,75.59786987304688,0.9864484119700435,-0.7167924460419103,58.40381096884796,3.3858013,-2.7937067,-0.8236603,35.617104,-26.200203,-1.9962637,-31.728628,-10.605598,-4.2776475,82.70502,-16.452534,0.4394122,-6.1457133,1.9232428,11.135928,-15.393623,25.108906,-32.064743,43.35377,4.445843,-2.0660987,19.785606,18.090933,-14.69559,10.590853,57.43424,-9.012456,-5.4339437,-5.9437513
98,91.62177276611328,84.30073547363281,76.0881576538086,0.9274160882373698,-0.5546509787971607,58.602731014148716,4.632129,-2.3994536,-1.2846408,34.511948,-23.910915,-2.2545915,-32.665745,-10.570127,-4.242019,79.737724,-15.71007,0.5671442,-6.644806,2.0398042,10.893621,-15.719073,25.254,-31.921976,42.032948,4.9160643,-2.381156,20.514654,18.925293,-14.362227,10.324242,57.43738,-9.396304,-5.3123255,-5.9420953
99,92.62464141845703,85.17123413085938,76.57720184326172,0.8930500897277359,-0.3800890964214642,58.798423684730196,5.7260523,-2.0207198,-1.7095249,33.6289,-21.480396,-2.4476135,-33.437893,-10.495594,-4.1806474,76.51647,-14.794514,0.77674013,-7.1112056,2.1336,10.63152,-15.990087,25.4303,-31.852304,40.71308,5.35141,-2.7073338,21.230135,19.69963,-13.991922,10.004722,57.455166,-9.717071,-5.157143,-6.0267863
100,93.63523864746094,86.04670715332031,77.06603240966797,0.8760163775176107,-0.2122075172233913,58.99662534712361,6.6717157,-1.6542466,-2.1056402,32.976696,-18.991426,-2.5832071,-34.00754,-10.401122,-4.119441,73.05278,-13.672774,1.0359288,-7.5401154,2.2077978,10.368211,-16.223005,25.62793,-31.830055,39.42431,5.6926,-2.9945555,21.885366,20.41107,-13.60047,9.64923,57.4922,-9.950652,-5.039286,-6.1384087
101,94.65296173095703,86.9264907836914,77.54174041748047,0.8593983502847564,-0.03454474423293988,59.20155913982855,7.431225,-1.2779638,-2.4561193,32.577785,-16.35785,-2.659739,-34.36598,-10.287831,-4.0817904,69.27646,-12.281731,1.3809345,-7.941316,2.2875743,10.096135,-16.423115,25.842281,-31.856277,38.17474,5.9390607,-3.2570748,22.503952,21.064823,-13.192675,9.233777,57.545097,-10.054015,-4.9736414,-6.312565
102,95.6800308227539,87.8097152709961,78.00251770019531,0.8510745925379559,0.15694303721433597,59.40994476904703,8.023466,-0.902556,-2.762381,32.405914,-13.556461,-2.6956878,-34.531456,-10.151594,-4.040855,65.19921,-10.657286,1.8098549,-8.316358,2.3701625,9.808604,-16.584116,26.071354,-31.940117,36.95288,6.1168737,-3.5157726,23.098417,21.663082,-12.767312,8.759016,57.607937,-10.049748,-4.923793,-6.562146
103,96.7092056274414,88.70872497558594,78.44220733642578,0.8804726543845065,0.3248231849938639,59.616093327709144,8.538381,-0.5745841,-3.0590134,32.392975,-10.7620325,-2.7200594,-34.514755,-10.00725,-3.9452837,60.959557,-8.919633,2.2349625,-8.646879,2.4154105,9.525752,-16.703287,26.306078,-32.06391,35.75994,6.211896,-3.7322996,23.603855,22.200447,-12.341244,8.274771,57.678497,-10.011754,-4.883677,-6.7942815
104,97.74288940429688,89.6135025024414,78.85202026367188,0.9766113096803543,0.4312362373952152,59.81337138609728,9.061722,-0.34069583,-3.379165,32.47601,-8.154594,-2.74751,-34.331326,-9.879388,-3.744021,56.697704,-7.1896763,2.5620162,-8.919922,2.3872416,9.267509,-16.769482,26.532871,-32.199173,34.59268,6.213778,-3.8687778,23.955006,22.676668,-11.941491,7.835678,57.748665,-10.010502,-4.8466387,-6.913168
105,98.78682708740234,90.53314971923828,79.22481536865234,1.1576522080664942,0.4557529436742188,59.996701322960206,9.624492,-0.22786455,-3.7374196,32.61055,-5.6490717,-2.759414,-33.964554,-9.734825,-3.3080664,52.334206,-5.461081,2.6567502,-9.139115,2.272128,9.040136,-16.768082,26.741552,-32.33373,33.441174,6.1033907,-3.8882802,24.105211,23.100735,-11.588146,7.448117,57.81713,-10.041846,-4.8046417,-6.8678927
106,99.83709716796875,91.47318267822266,79.55674743652344,1.401360106488251,0.42319295608385915,60.171429576588736,10.179861,-0.20731664,-4.113607,32.82498,-3.1788821,-2.7565012,-33.42662,-9.615884,-2.6964297,47.855354,-3.691913,2.578387,-9.318403,2.1021621,8.830207,-16.70431,26.928535,-32.471382,32.313164,5.8960886,-3.821929,24.099154,23.476538,-11.284872,7.08926,57.878822,-10.069331,-4.763392,-6.712805
107,100.88619995117188,92.417724609375,79.84333801269531,1.6765541883465933,0.3633341954049775,60.34210285042057,10.697476,-0.23974937,-4.483348,33.174046,-0.9665815,-2.760924,-32.780476,-9.626946,-2.1471632,43.49037,-1.9523934,2.5434473,-9.453859,1.9087757,8.6284895,-16.608593,27.092775,-32.618507,31.240625,5.6224546,-3.7337096,24.009558,23.796944,-11.034064,6.767119,57.921448,-10.115758,-4.736391,-6.51041
108,101.92752838134766,93.3710708618164,80.07664489746094,1.9527709908573578,0.30453370467249163,60.51515394773285,11.144527,-0.28283197,-4.822798,33.722275,0.7551892,-2.781069,-32.080902,-9.822045,-1.9058496,39.433765,-0.29516336,2.8004513,-9.544463,1.7219273,8.428148,-16.504229,27.234226,-32.77549,30.25038,5.3176928,-3.6875527,23.908045,24.05312,-10.83621,6.492246,57.933147,-10.20334,-4.7372694,-6.323194
109,102.97264862060547,94.33043670654297,80.25055694580078,2.246190519502042,0.24421941954204543,60.70399893175297,11.530418,-0.34677514,-5.169841,34.466515,1.8982471,-2.821329,-31.25282,-10.19158,-2.036717,35.496098,1.3825669,3.6321507,-9.599828,1.5217113,8.2248335,-16.397831,27.3555,-32.957165,29.345629,4.948541,-3.705928,23.788664,24.26035,-10.69311,6.263065,57.89445,-10.358286,-4.7851796,-6.1269093
110,104.01274108886719,95.27603149414062,80.3578872680664,2.568475200540893,0.1671410086237255,60.904337355051275,11.863102,-0.44048223,-5.52473,35.392384,2.5887523,-2.8526905,-30.279514,-10.660392,-2.411159,31.589556,3.1096764,4.8680305,-9.621971,1.2964332,8.025626,-16.276619,27.45693,-33.157433,28.513607,4.5097604,-3.7519495,23.621103,24.417501,-10.604338,6.0760684,57.817337,-10.561297,-4.868158,-5.901764
111,105.0374526977539,96.20513916015625,80.40209197998047,2.8818376532253276,0.08323562406562905,61.09529807443027,12.105638,-0.51469344,-5.806486,36.551815,2.9105437,-2.8270652,-29.303074,-11.165561,-2.9971027,28.06394,4.722809,6.086095,-9.596287,1.0868686,7.841098,-16.132874,27.533857,-33.34552,27.755892,4.0815024,-3.802096,23.439655,24.491192,-10.56823,5.93653,57.73883,-10.768201,-4.952799,-5.717972
112,106.04235076904297,97.09247589111328,80.37730407714844,3.142316111765219,0.006874351722420665,61.25200725132471,12.21895,-0.5125246,-5.9310665,37.992046,2.948113,-2.697766,-28.493238,-11.6608515,-3.772105,25.33587,6.0204067,6.851602,-9.506029,0.9413889,7.676007,-15.971667,27.566376,-33.4894,27.097107,3.7480502,-3.834739,23.278519,24.443417,-10.58205,5.854533,57.70224,-10.934006,-5.00417,-5.6493235
113,107.03531646728516,97.97611236572266,80.30014038085938,3.332036930343242,-0.025843758083260275,61.354244140764685,12.14106,-0.37746015,-5.8240666,39.793938,2.6180844,-2.4249265,-27.942251,-12.207372,-4.9560666,23.587004,6.8815427,7.0017395,-9.310642,0.875324,7.5179873,-15.801799,27.572983,-33.59725,26.51201,3.5215447,-3.8509672,23.137602,24.255299,-10.63118,5.8192306,57.720722,-11.063635,-5.0216618,-5.7206197
114,108.01707458496094,98.87252807617188,80.18064880371094,3.4725907875250774,-0.030068659368933073,61.41606147227091,11.897699,-0.11976478,-5.556883,41.932922,1.8895222,-2.024611,-27.558632,-12.8031,-6.497399,22.615808,7.4052105,6.7807536,-9.045015,0.8848415,7.365631,-15.603156,27.541586,-33.660576,25.995583,3.360771,-3.8628325,23.003542,23.957323,-10.7681675,5.8409657,57.756355,-11.159749,-5.021939,-5.8758006
115,108.99312591552734,99.75859832763672,80.00750732421875,3.578310094765088,-0.06531147581567917,61.46071692549033,11.581838,0.20616265,-5.259989,44.294125,0.92950183,-1.5437285,-27.26398,-13.34124,-7.959493,22.307987,7.687759,6.347176,-8.738768,0.9318503,7.245939,-15.37539,27.468803,-33.69749,25.587385,3.2584252,-3.8581913,22.890568,23.564842,-10.952825,5.9140615,57.814667,-11.224426,-4.993866,-6.1042953
116,109.9681396484375,100.64917755126953,79.77769470214844,3.6638767221722075,-0.19144465712563533,61.51333772755283,11.291869,0.5239351,-5.0549345,46.74991,-0.08061883,-1.0396909,-26.984879,-13.720421,-8.900347,22.53037,7.850095,5.8570313,-8.419469,0.9949399,7.189466,-15.109317,27.358948,-33.737686,25.303669,3.189554,-3.8249094,22.82004,23.119036,-11.182704,6.0177693,57.86868,-11.250162,-4.929408,-6.3735094
117,110.94686126708984,101.52854919433594,79.49596405029297,3.7403956530674143,-0.44912525496005506,61.582868142145074,11.076366,0.7875509,-4.9604278,49.316376,-1.1456076,-0.4688869,-26.771467,-13.909082,-9.080443,23.41307,8.276203,5.2221003,-8.09112,1.0591639,7.2165623,-14.794515,27.210083,-33.789806,25.154997,3.16479,-3.7579887,22.804768,22.63499,-11.456603,6.1627517,57.920727,-11.232672,-4.816103,-6.6922708
118,111.92579650878906,102.4241943359375,79.15776824951172,3.8075609449643606,-0.8050029481944383,61.660660270731036,10.886904,1.0251628,-4.926181,52.038902,-2.3426652,0.17329518,-26.610035,-13.970918,-8.784883,24.905323,8.832374,4.413163,-7.741057,1.128064,7.3102264,-14.443566,27.021194,-33.84626,25.133888,3.1892436,-3.6645577,22.831871,22.094036,-11.774751,6.3517866,57.97931,-11.176752,-4.6623673,-7.070727
119,112.89904022216797,103.31710815429688,78.76370239257812,3.855432616249313,-1.2022006844376312,61.74172832819766,10.675109,1.2616034,-4.9500775,54.828564,-3.585103,0.7615145,-26.355711,-13.925631,-8.343463,26.629122,8.851371,3.6674664,-7.377346,1.2173171,7.4422393,-14.067409,26.80032,-33.895638,25.218567,3.2366192,-3.550081,22.881437,21.477003,-12.129611,6.565318,58.03494,-11.088224,-4.491459,-7.4817667
120,113.88174438476562,104.22309875488281,78.31776428222656,3.8647775842882672,-1.5758640263141896,61.81451716313182,10.380875,1.5291538,-5.015508,57.605682,-4.7873416,1.1692595,-25.917168,-13.805961,-8.0557995,28.304653,7.596815,3.187089,-7.000558,1.350098,7.5797157,-13.671814,26.560728,-33.925,25.379192,3.2818851,-3.419668,22.934233,20.761055,-12.509484,6.782793,58.07969,-10.974928,-4.3265033,-7.898897
121,114.82719421386719,105.01768493652344,77.88087463378906,3.8499832456021132,-1.9360372003267128,61.902431832553255,10.044241,1.8057905,-5.112835,60.347717,-5.897484,1.2912629,-25.193537,-13.6407385,-7.937389,29.948507,4.301291,3.1029146,-6.6236506,1.5051702,7.7092333,-13.25711,26.318113,-33.959755,25.598019,3.2920177,-3.2505062,22.99583,19.971992,-12.90197,6.987802,58.087505,-10.848884,-4.1506157,-8.328722
122,115.78929138183594,105.86732482910156,77.35130310058594,3.804771234869558,-2.2991029461071038,61.99744052531564,9.669855,2.0788128,-5.22993,63.10801,-6.972782,1.2091283,-24.323345,-13.407673,-7.8546247,31.782324,-0.52080655,3.2533867,-6.233999,1.6850766,7.8449287,-12.815726,26.077778,-34.00006,25.879393,3.2838488,-3.0468662,23.07341,19.105125,-13.304234,7.195293,58.07427,-10.70564,-3.9595587,-8.783237
123,116.77285766601562,106.7688217163086,76.75688934326172,3.6811337059714972,-2.6086492943980364,62.03809753913368,9.148311,2.393645,-5.3440557,65.9159,-8.083297,1.0763643,-23.59052,-13.082484,-7.844582,33.875515,-5.6977925,3.4031458,-5.7924256,1.9473393,7.993019,-12.338557,25.833647,-33.99114,26.22474,3.3103611,-2.8546436,23.14954,18.090141,-13.72644,7.431032,58.094402,-10.5282755,-3.7956567,-9.243298
124,117.71192932128906,107.59928131103516,76.18186950683594,3.433290536852259,-2.814366578563509,61.96913775877993,8.375383,2.7938137,-5.447711,68.80037,-9.301259,1.047045,-23.227024,-12.621335,-7.911173,36.21911,-10.027422,3.342832,-5.271304,2.3515737,8.161295,-11.818845,25.573141,-33.875053,26.640306,3.4244983,-2.720257,23.205498,16.856035,-14.187019,7.7257924,58.200558,-10.297077,-3.7014556,-9.687487
125,118.59723663330078,108.37332153320312,75.61106872558594,2.9919357165107248,-2.861500375739779,61.754825810974154,7.266506,3.3384764,-5.570584,71.86567,-10.693325,1.1424547,-23.410189,-11.938905,-8.080903,38.95342,-13.213614,2.9576147,-4.63686,2.9861922,8.327082,-11.268163,25.28666,-33.60347,27.102564,3.6850777,-2.6525514,23.204908,15.370169,-14.701176,8.08787,58.379475,-9.950226,-3.7125251,-10.120041
126,119.4346923828125,109.11091613769531,75.03693389892578,2.399185670644896,-2.795324613064167,61.43224952720178,5.9101973,3.9721348,-5.712618,75.05764,-12.202487,1.2736632,-23.955383,-11.08998,-8.322565,42.015114,-15.889028,2.3890262,-3.927221,3.8040433,8.48671,-10.681142,24.970604,-33.206802,27.613424,4.051814,-2.629066,23.166645,13.668628,-15.269686,8.512608,58.608547,-9.511105,-3.8002021,-10.543165
127,120.2588882446289,109.82119750976562,74.49549102783203,1.7884050144662635,-2.7175322569330906,61.05909723246135,4.456217,4.567704,-5.8304343,78.17694,-13.719726,1.4389716,-24.531206,-10.228001,-8.5473385,45.049744,-18.244265,1.8189414,-3.2210748,4.6513553,8.680533,-10.032691,24.620092,-32.753666,28.225204,4.426778,-2.648654,23.155537,11.789925,-15.882995,9.010828,58.924988,-9.089269,-3.9097214,-10.933281
128,121.06480407714844,110.52476501464844,73.99495697021484,1.2935679501401631,-2.7271569822850874,60.69528652200116,3.0434072,5.01257,-5.877908,81.02749,-15.135901,1.6474237,-24.8165,-9.488704,-8.67654,47.700027,-20.45725,1.4360484,-2.5907733,5.37399,8.95682,-9.302082,24.230297,-32.318237,28.998507,4.7134666,-2.709234,23.236925,9.775826,-16.524498,9.592094,59.366055,-8.795472,-3.9838178,-11.269704
129,121.87764739990234,111.2481460571289,73.54072570800781,0.9447592209995759,-2.863461284955724,60.32009899075398,1.7204603,5.2922063,-5.825245,83.58903,-16.454975,1.9200469,-24.735506,-8.876902,-8.679951,49.881954,-22.497683,1.3218774,-2.026989,5.936588,9.365922,-8.461124,23.784176,-31.865362,30.002998,4.9763265,-2.8439116,23.454256,7.571401,-17.19215,10.335882,60.020264,-8.653232,-3.997792,-11.587515
130,122.65542602539062,111.98190307617188,73.13514709472656,0.6742641970059354,-3.0694986781333022,59.91614490545212,0.40325844,5.4717765,-5.703744,85.96009,-17.722155,2.2546113,-24.450722,-8.315303,-8.629425,51.762775,-24.287186,1.3650521,-1.4984107,6.424669,9.872786,-7.540309,23.275803,-31.38061,31.205513,5.2410884,-3.041816,23.764242,5.176296,-17.876984,11.222819,60.838165,-8.602435,-3.9826524,-11.88348
131,123.37659454345703,112.72962188720703,72.78116607666016,0.46921873280308296,-3.297026818652709,59.5490090275143,-0.9765871,5.566359,-5.5550337,88.12411,-18.886698,2.631887,-24.001192,-7.8150105,-8.595441,53.360886,-25.921911,1.4666355,-1.0278088,6.8564315,10.403256,-6.6110086,22.727919,-30.983873,32.515366,5.3547697,-3.2351935,24.103746,2.7261229,-18.54368,12.092427,61.64942,-8.638116,-3.963465,-12.085303
132,124.10591888427734,113.48043823242188,72.49130249023438,0.3157723813412406,-3.49775531610967,59.28366617699122,-2.4872203,5.5881333,-5.4191647,90.059204,-19.894413,3.0304446,-23.42336,-7.3971395,-8.635255,54.691822,-27.497824,1.5254173,-0.6237001,7.235686,10.881786,-5.7497525,22.182962,-30.813038,33.84146,5.1545386,-3.3571103,24.411892,0.36196983,-19.15103,12.757399,62.290905,-8.767882,-3.9663906,-12.127765
133,124.84664916992188,114.2328109741211,72.24563598632812,0.2307831022421964,-3.6749011248742414,59.17582125644802,-4.1779656,5.515855,-5.321007,91.79887,-20.68302,3.4868004,-22.687975,-7.1301937,-8.773858,55.7573,-29.045696,1.5329974,-0.31852195,7.5168567,11.3125105,-4.9679675,21.678648,-30.912687,35.190907,4.526978,-3.3625364,24.749432,-1.9270353,-19.684042,13.149122,62.790028,-9.070071,-3.9822507,-11.933876
134,125.59928894042969,114.96533203125,72.04508972167969,0.21391148990030953,-3.8485601637913986,59.17790166508273,-6.004173,5.3521852,-5.226847,93.33677,-21.289661,4.000812,-21.781643,-6.986754,-8.972971,56.54568,-30.510426,1.5333996,-0.082471415,7.6902914,11.732097,-4.218768,21.229952,-31.222624,36.584923,3.5692453,-3.299182,25.126616,-4.196504,-20.149477,13.343022,63.218964,-9.529467,-4.0059752,-11.566932
135,126.37000274658203,115.67884826660156,71.8918228149414,0.22144745546581993,-3.9958322680424425,59.1974732400249,-7.8960724,5.1480536,-5.0882916,94.59664,-21.813404,4.4929066,-20.775234,-6.8509865,-9.178698,57.067474,-31.854614,1.5067965,0.16636887,7.8143454,12.109971,-3.4891014,20.845392,-31.71702,37.9581,2.4339135,-3.2368624,25.406324,-6.3850093,-20.548046,13.374085,63.50015,-10.013087,-4.0689545,-11.175113
136,127.1365737915039,116.37013244628906,71.77975463867188,0.21294890734310787,-4.092861415857006,59.141327263323326,-9.78583,4.9545217,-4.859977,95.502266,-22.351748,4.8810444,-19.743355,-6.612794,-9.330816,57.33479,-33.039402,1.4361864,0.51462054,7.947399,12.411255,-2.7734845,20.52716,-32.376488,39.25195,1.273663,-3.237164,25.449106,-8.432818,-20.878399,13.278035,63.56147,-10.390527,-4.1986146,-10.907175
137,127.90792846679688,117.07592010498047,71.71666717529297,0.15872591997516114,-4.124521139047655,58.980942353761115,-11.696785,4.810689,-4.534201,96.048325,-22.96883,5.110849,-18.709133,-6.216494,-9.408568,57.331196,-34.063274,1.2996839,0.9835429,8.122376,12.622823,-2.0743253,20.282711,-33.212704,40.441406,-0.070761785,-3.3328302,25.201126,-10.36299,-21.136986,13.01249,63.402397,-10.653349,-4.4313364,-10.777291
138,128.65167236328125,117.77519226074219,71.70384979248047,0.08716808429540975,-4.106627648674339,58.76586065407184,-13.648805,4.6876397,-4.1316247,96.26387,-23.59515,5.234277,-17.630169,-5.737519,-9.431088,57.05641,-34.94426,1.1202006,1.5244095,8.297973,12.760767,-1.3901573,20.117596,-34.22288,41.563225,-1.6183715,-3.4723423,24.736742,-12.208789,-21.330528,12.580671,63.07512,-10.863626,-4.741456,-10.718277
139,129.385986328125,118.50603485107422,71.7479248046875,0.04221694196380599,-4.063839544174755,58.52091188763664,-15.57218,4.532886,-3.6513147,96.13103,-24.131685,5.3274,-16.483246,-5.2624106,-9.400025,56.54661,-35.671494,0.94633406,2.1155858,8.427708,12.83536,-0.707315,20.022095,-35.36315,42.647427,-3.0042374,-3.5899823,24.11101,-13.923435,-21.471811,12.095046,62.578995,-10.993758,-5.0596633,-10.753069
140,130.10757446289062,119.24870300292969,71.84598541259766,0.07029208207654694,-4.019291674892216,58.271140182397616,-17.393944,4.2915945,-3.0899384,95.62874,-24.48001,5.465111,-15.247174,-4.8754783,-9.323381,55.838097,-36.23541,0.82059926,2.7309096,8.468235,12.858175,-0.009156399,19.975897,-36.584896,43.72653,-3.8574297,-3.6309485,23.383894,-15.462058,-21.57473,11.677733,61.912453,-11.01166,-5.316622,-10.902801
141,130.84681701660156,120.00900268554688,71.99981689453125,0.20071708085007356,-3.963261471047618,57.99957981401638,-19.126648,3.9604943,-2.385962,94.736275,-24.631512,5.68323,-13.926884,-4.6052876,-9.1823635,54.91687,-36.668118,0.7492742,3.3835437,8.402951,12.814261,0.6950628,19.964901,-37.938732,44.83492,-4.0628853,-3.5991073,22.49865,-16.817465,-21.635557,11.327069,61.057407,-10.864691,-5.4855957,-11.203647
142,131.5876007080078,120.78660583496094,72.20586395263672,0.4037063312626178,-3.888052922977396,57.7005846475817,-20.787035,3.5682087,-1.5542945,93.46155,-24.637667,5.9308543,-12.53009,-4.406146,-8.983655,53.771267,-36.96484,0.7115627,4.0784864,8.25973,12.7035475,1.3953927,19.983028,-39.4265,45.963688,-3.8189383,-3.5294628,21.449835,-18.015604,-21.652353,10.99397,60.022934,-10.582175,-5.6064744,-11.63318
143,132.3311767578125,121.58296203613281,72.46011352539062,0.6354647949076553,-3.8204154492388747,57.416614310771045,-22.313925,3.103106,-0.70875996,91.83409,-24.493788,6.155218,-11.0407095,-4.250247,-8.776969,52.445026,-37.05827,0.70346373,4.774462,8.068854,12.563975,2.1138923,20.019354,-40.92227,47.06958,-3.2203853,-3.4235826,20.373661,-19.0509,-21.642052,10.731593,58.835083,-10.250427,-5.7100763,-12.120796
144,133.08189392089844,122.3974380493164,72.76663970947266,0.8516939049207983,-3.7876931836848504,57.19043165561392,-23.651115,2.5521424,0.030029463,89.88407,-24.192974,6.308379,-9.442943,-4.107174,-8.6108,50.9853,-36.877724,0.718069,5.4230566,7.8678584,12.434286,2.8788638,20.06024,-42.290134,48.102314,-2.3563936,-3.2792437,19.40441,-19.91587,-21.627754,10.601871,57.513577,-9.95139,-5.8259587,-12.593509
145,133.83164978027344,123.21361541748047,73.116943359375,1.048939531839541,-3.8099018846558477,57.0451595938209,-24.799341,1.8768704,0.6146698,87.61911,-23.729095,6.428276,-7.681161,-3.980124,-8.501432,49.340973,-36.422806,0.76286525,5.9761143,7.672008,12.338542,3.7072566,20.09051,-43.5082,49.05397,-1.008748,-3.073293,18.534794,-20.61074,-21.617655,10.655911,56.01269,-9.667671,-5.9215918,-13.040491
146,134.58963012695312,124.04712677001953,73.51335144042969,1.2473050336532048,-3.8682593148321667,56.95452197564684,-25.78027,1.0963539,1.10462,85.02134,-23.113026,6.528785,-5.780414,-3.8779037,-8.422696,47.511307,-35.726803,0.8323436,6.528281,7.465213,12.242468,4.5325217,20.114426,-44.72333,49.9827,0.77032554,-2.829274,17.709324,-21.063288,-21.612928,10.771901,54.28304,-9.380344,-5.9949994,-13.489946
147,135.36367797851562,124.90223693847656,73.94684600830078,1.4369849483418813,-3.932912032387802,56.887665998895216,-26.573177,0.28630778,1.5310117,82.084465,-22.36383,6.5298195,-3.8422027,-3.7771165,-8.358021,45.614944,-34.772926,0.90082365,7.03724,7.253033,12.131588,5.4180884,20.12475,-45.765945,50.84065,2.5760815,-2.6027856,16.962795,-21.382692,-21.613398,11.029412,52.480995,-9.105687,-6.1177974,-13.94083
148,136.14942932128906,125.76766204833984,74.41414642333984,1.6084511473854657,-3.973156088314671,56.813664883389905,-27.159082,-0.47833326,1.9224916,78.79559,-21.498198,6.35134,-1.9706827,-3.656458,-8.291374,43.77114,-33.54456,0.9459612,7.565568,7.033927,11.971025,6.3439426,20.123701,-46.619514,51.633266,3.9497137,-2.4333265,16.35556,-21.574232,-21.625687,11.378026,50.705563,-8.890219,-6.36327,-14.387803
149,136.94956970214844,126.6463623046875,74.90394592285156,1.764945436425132,-3.9804464246261886,56.73531399051713,-27.533388,-1.2112166,2.250679,75.09985,-20.480404,5.9119253,-0.16249074,-3.513815,-8.224611,41.95407,-32.000984,0.97493637,8.101166,6.7985773,11.761175,7.3247437,20.10979,-47.246357,52.351486,4.828343,-2.3446639,15.923168,-21.647999,-21.65845,11.86743,48.93545,-8.780292,-6.713248,-14.8419285
150,137.75460815429688,127.54368591308594,75.40435028076172,1.9071982945544521,-3.9716169993410544,56.66614934414649,-27.700283,-1.9343174,2.4895735,71.01118,-19.316784,5.2851195,1.6254053,-3.357631,-8.16497,40.12455,-30.16627,0.9962871,8.62424,6.557097,11.517928,8.360155,20.077719,-47.678684,52.994373,5.4319115,-2.2984393,15.632733,-21.592852,-21.717503,12.503619,47.127205,-8.736449,-7.140243,-15.301824
151,138.58114624023438,128.44491577148438,75.91249084472656,2.022537137014509,-3.9539659879226616,56.59211945274917,-27.65882,-2.5869606,2.676741,66.6188,-18.084887,4.621414,3.3476532,-3.183913,-8.105785,38.38176,-28.118496,0.9917651,9.127632,6.334473,11.247804,9.45108,20.022646,-47.911892,53.54567,5.761437,-2.2359345,15.432309,-21.436407,-21.792704,13.228615,45.371113,-8.671816,-7.703819,-15.744018
152,139.40823364257812,129.354736328125,76.4210205078125,2.097432855908398,-3.934328112900492,56.50088422749761,-27.414354,-3.111148,2.8577974,62.01398,-16.862837,4.067643,4.9580564,-2.9891982,-8.043529,36.82859,-25.936255,0.94367117,9.612358,6.1452913,10.952175,10.595252,19.950983,-47.952602,53.991932,5.8120117,-2.099114,15.2725,-21.20526,-21.85557,13.966588,43.767834,-8.513848,-8.465734,-16.146397
153,140.24264526367188,130.28164672851562,76.92597198486328,2.142560137506227,-3.8979562424727754,56.383742233705696,-26.948973,-3.5004263,3.0574248,57.084793,-15.614421,3.6785612,6.4279,-2.7924001,-7.98087,35.489334,-23.581419,0.8208684,10.082967,5.968577,10.621189,11.822329,19.8636,-47.72882,54.30569,5.490013,-1.8591079,15.166294,-20.910122,-21.90074,14.742577,42.36,-8.199666,-9.5592375,-16.53854
154,141.09243774414062,131.22271728515625,77.41576385498047,2.161911102416534,-3.8471663406533523,56.249256331256014,-26.260973,-3.777914,3.2479515,51.809624,-14.310397,3.3791018,7.7845764,-2.5945039,-7.9254575,34.31505,-21.031582,0.6431221,10.532521,5.795262,10.258941,13.126737,19.75752,-47.255684,54.493633,4.828457,-1.5484483,15.135367,-20.550344,-21.930702,15.583752,41.10527,-7.792933,-10.915157,-16.91893
155,141.9476318359375,132.18362426757812,77.88482666015625,2.125264562187208,-3.814148592505844,56.11066549663035,-25.396275,-3.9331825,3.4065645,46.430386,-13.036875,3.1115906,9.065991,-2.3547025,-7.877336,33.292328,-18.381235,0.46732765,10.943923,5.6662946,9.884794,14.4554405,19.638557,-46.669235,54.591568,4.0092716,-1.2026734,15.143555,-20.136265,-21.930607,16.423307,39.980614,-7.4025807,-12.290202,-17.22261
156,142.81504821777344,133.15232849121094,78.32411193847656,2.002669462987941,-3.8313550028413856,55.97830329853881,-24.398834,-3.9643252,3.517253,41.175846,-11.8771925,2.809707,10.319296,-2.028206,-7.8272433,32.390068,-15.714751,0.35029995,11.306711,5.6209784,9.515337,15.755584,19.521725,-46.108837,54.637226,3.2118547,-0.8566243,15.153042,-19.671776,-21.878155,17.186583,38.959694,-7.137817,-13.438739,-17.391273
157,143.69174194335938,134.13600158691406,78.7347640991211,1.774140056510439,-3.9251098231034516,55.836808289998245,-23.19138,-3.8703415,3.5319555,35.907314,-10.800103,2.4076416,11.577016,-1.586227,-7.745026,31.589687,-12.964329,0.23909271,11.635886,5.6818595,9.159485,17.053135,19.42095,-45.556423,54.606415,2.3654804,-0.49190965,15.181879,-19.139677,-21.75974,17.866756,38.057243,-7.039572,-14.361115,-17.457983
158,144.57373046875,135.11997985839844,79.10578155517578,1.4522113360304598,-4.074295121466502,55.68397228537338,-21.772717,-3.652512,3.4859345,30.526327,-9.756984,1.9460717,12.816954,-1.0477908,-7.639601,30.889833,-10.097921,0.12650178,11.932444,5.8258905,8.805287,18.373722,19.341722,-44.945805,54.470222,1.4117392,-0.09822555,15.243474,-18.548304,-21.576012,18.497793,37.287895,-7.049134,-15.165946,-17.443573
159,145.46759033203125,136.1158905029297,79.43482208251953,1.0569186371124224,-4.238895350175302,55.54949434199284,-20.308376,-3.3237267,3.4938388,25.336784,-8.8086405,1.5098681,14.006623,-0.43580157,-7.5452175,30.281212,-7.2521987,0.13484088,12.16678,6.023416,8.435456,19.665257,19.289597,-44.348316,54.268135,0.54777265,0.27813226,15.288742,-17.940018,-21.329504,19.068369,36.626392,-7.1215563,-15.770317,-17.272142
160,146.37612915039062,137.12051391601562,79.71870422363281,0.6133680316369586,-4.376846316675747,55.463095356295284,-18.97876,-2.9091582,3.6730976,20.684126,-8.033934,1.1821814,15.112885,0.22542833,-7.487151,29.75391,-4.569351,0.38205954,12.316456,6.240499,8.032273,20.869886,19.270437,-43.847446,54.048267,-0.0290158,0.59173185,15.265073,-17.350096,-21.026672,19.55737,36.04018,-7.2125983,-16.091543,-16.863949
161,147.28598022460938,138.10546875,79.96003723144531,0.11009875818091974,-4.464212803517324,55.43160159737292,-17.842857,-2.3912091,4.1232443,16.647835,-7.487473,1.0132709,16.140522,0.9566278,-7.4524455,29.255516,-2.0561292,0.94097817,12.379462,6.4834414,7.5662217,21.996593,19.291655,-43.448753,53.8004,-0.256602,0.8358013,15.149437,-16.771326,-20.664684,19.95227,35.50133,-7.3591666,-16.021757,-16.145596
162,148.1767578125,139.08531188964844,80.15876007080078,-0.4550274415822156,-4.524165801829862,55.4385798083351,-16.821999,-1.7898864,4.7748876,13.074365,-7.1306705,0.9355615,17.100317,1.7595961,-7.4117427,28.815351,0.35440043,1.7290598,12.372047,6.7607713,7.054635,23.072252,19.358446,-43.116207,53.5012,-0.24358383,1.0332328,14.968458,-16.18811,-20.242058,20.263945,35.029133,-7.5748296,-15.63711,-15.174907
163,149.0639190673828,140.05325317382812,80.313232421875,-1.031084404995388,-4.58224933120969,55.482072364428724,-15.888252,-1.1975718,5.4870253,9.958638,-6.9007254,0.86235845,17.953962,2.5668085,-7.3731093,28.571976,2.6189942,2.6327953,12.300614,7.033316,6.5514216,24.058578,19.47181,-42.882687,53.1879,-0.051110286,1.1828319,14.742326,-15.614771,-19.769361,20.499943,34.651237,-7.7736425,-15.127198,-14.068428
164,149.92852783203125,141.0010223388672,80.42139434814453,-1.5680362340055567,-4.66444440378805,55.56219646869211,-14.982627,-0.7009101,6.1116433,7.234115,-6.6986847,0.71320224,18.65837,3.3100307,-7.3588214,28.66926,4.6868343,3.5407202,12.175123,7.2651334,6.110977,24.909332,19.628647,-42.789627,52.904728,0.2588043,1.2825998,14.491535,-15.051525,-19.264557,20.660048,34.381706,-7.86143,-14.677495,-12.94162
165,150.78817749023438,141.92921447753906,80.48565673828125,-2.067806435573293,-4.771785894450847,55.69327227549983,-15.070182,-0.18747117,6.6541095,6.9657755,-7.603102,0.4235544,19.190561,3.9929783,-7.3941336,29.160364,6.540863,4.4998336,11.980345,7.460098,5.7379355,25.60178,19.829329,-42.897057,52.6661,0.7013303,1.3073436,14.198027,-14.4916,-18.73536,20.724428,34.213608,-7.802986,-14.300821,-11.736884
166,151.65283203125,142.84817504882812,80.50163269042969,-2.5379744792345886,-4.88912132018397,55.87782410017253,-15.120262,0.2536515,7.1595497,6.9191246,-8.466456,0.06025256,19.551546,4.622942,-7.4789395,30.019024,8.182299,5.5447764,11.718408,7.6213055,5.409079,26.152664,20.075108,-43.18048,52.457462,1.2968134,1.2631745,13.858516,-13.92272,-18.182959,20.69176,34.124363,-7.6507115,-13.905089,-10.421931
167,152.51300048828125,143.75584411621094,80.46509552001953,-2.9415477532271552,-5.019351917361798,56.097745944071974,-15.045544,0.57407403,7.570155,6.9053144,-9.192614,-0.27301946,19.751785,5.145195,-7.6050353,31.225813,9.596584,6.5515313,11.424121,7.7143407,5.1358743,26.575321,20.359955,-43.552685,52.28062,1.9928068,1.195831,13.515913,-13.339823,-17.618868,20.591566,34.105835,-7.431218,-13.515575,-9.150353
168,153.37344360351562,144.65391540527344,80.38189697265625,-3.2404317636542053,-5.16529298468709,56.33256425778993,-14.84462,0.7362283,7.828093,6.918654,-9.782548,-0.4726168,19.810173,5.509445,-7.7634325,32.73567,10.780461,7.402205,11.132831,7.70555,4.9291754,26.88214,20.671988,-43.924835,52.140465,2.738783,1.1519914,13.212079,-12.734488,-17.059467,20.454763,34.145893,-7.1661444,-13.159273,-8.074825
169,154.2172088623047,145.53482055664062,80.25275421142578,-3.4110505337416437,-5.324643365296425,56.58371494002744,-14.506939,0.70157003,7.8843575,6.96334,-10.221985,-0.530563,19.722473,5.6856756,-8.005048,34.549263,11.809183,8.0736265,10.847482,7.574377,4.793427,27.045382,21.00293,-44.32493,52.06831,3.6130528,1.1364427,12.943679,-12.09649,-16.511753,20.27151,34.240402,-6.82576,-12.83561,-7.227881
170,155.05455017089844,146.40643310546875,80.0731201171875,-3.473579886817839,-5.497826298420535,56.85915644821613,-14.035449,0.49577543,7.7802773,7.037361,-10.515217,-0.49035957,19.493877,5.7054596,-8.32293,36.6557,12.671001,8.636344,10.553883,7.3384905,4.7215867,27.059597,21.34883,-44.79014,52.06325,4.6130366,1.1250879,12.692908,-11.424316,-15.97497,20.030497,34.383327,-6.4028172,-12.530877,-6.5303946
171,155.857177734375,147.2689666748047,79.84280395507812,-3.4494767620890787,-5.687777760733354,57.14485655388022,-13.45634,0.18139417,7.5917726,7.144667,-10.702611,-0.3274508,19.163954,5.6205425,-8.618874,38.98113,13.234178,9.120353,10.260663,7.021778,4.706041,26.974503,21.702007,-45.23897,52.08203,5.569153,1.1238928,12.479,-10.732056,-15.4582405,19.76509,34.569855,-5.9511395,-12.255692,-5.9661603
172,156.65391540527344,148.11634826660156,79.56255340576172,-3.370421938106478,-5.900260180717068,57.42564060587033,-12.784216,-0.17824233,7.3949018,7.2666,-10.812689,-0.020563735,18.774687,5.4972706,-8.796054,41.451466,13.366343,9.556441,9.97383,6.6600733,4.7409806,26.841616,22.051998,-45.585163,52.080494,6.314146,1.140525,12.320673,-10.031516,-14.973435,19.51505,34.79236,-5.521251,-12.02122,-5.5186296
173,157.44371032714844,148.97134399414062,79.24579620361328,-3.283148941639368,-6.173631291754753,57.70980342070078,-12.701799,-0.43647173,7.1971183,9.015968,-11.856673,0.40967992,18.372967,5.4543543,-8.778313,44.057293,12.981293,9.916883,9.691098,6.3055954,4.848856,26.660702,22.394115,-45.817867,52.06079,6.837329,1.1831352,12.210555,-9.303482,-14.527439,19.288147,35.044262,-5.0715213,-11.842344,-5.2210917
174,158.21620178222656,149.82054138183594,78.88400268554688,-3.180320219714122,-6.498060925052107,57.99321358072897,-12.807445,-0.6765853,6.9617534,11.517444,-13.300134,0.95463306,17.9432,5.477432,-8.638026,46.80509,12.177398,10.206188,9.416603,5.9532886,5.0261683,26.40769,22.725304,-45.979286,52.04707,7.218788,1.2475281,12.142726,-8.546248,-14.121799,19.069239,35.326843,-4.587052,-11.711117,-5.067788
175,158.99278259277344,150.66452026367188,78.47789764404297,-3.0265720187912835,-6.811966256347297,58.24706735923125,-12.964721,-0.97455853,6.697415,14.166851,-14.513402,1.6420163,17.428452,5.4275513,-8.503991,49.66347,11.091749,10.49263,9.160267,5.561029,5.226182,26.096325,23.034288,-46.0615,52.032146,7.426196,1.3236406,12.139289,-7.7983084,-13.760882,18.86436,35.647053,-4.1605287,-11.604336,-4.982631
176,159.77685546875,151.50357055664062,78.01976776123047,-2.7727302136343805,-7.047708363974665,58.44542803601663,-13.285777,-1.3719683,6.420895,16.884394,-15.142612,2.4997518,16.76967,5.132527,-8.497609,52.61137,9.858358,10.835409,8.924129,5.077836,5.3989167,25.74013,23.303816,-46.051018,52.01491,7.4292397,1.4005693,12.223387,-7.1045113,-13.451236,18.685514,36.018154,-3.884821,-11.4975815,-4.8901644
177,160.5733184814453,152.32943725585938,77.5135726928711,-2.3500435666770882,-7.154119288380222,58.58926028151762,-13.794933,-1.9412588,6.095142,19.549685,-14.7502365,3.714456,15.930237,4.470232,-8.647848,55.677937,8.448794,11.31536,8.702477,4.430708,5.5020638,25.343662,23.5157,-45.915276,52.00257,7.1951447,1.4871219,12.416059,-6.4572706,-13.199379,18.551388,36.422398,-3.7679145,-11.390128,-4.8095603
178,161.3137969970703,153.1598358154297,77.01261901855469,-1.80981216113883,-7.177951016702824,58.68906586710561,-14.431571,-2.6157615,5.7677717,22.224604,-13.624203,5.207073,14.963752,3.548248,-8.880331,58.8571,6.814553,11.86433,8.489564,3.6825736,5.5680532,24.89347,23.661097,-45.66611,52.01577,6.750231,1.5823467,12.703632,-5.8425746,-13.006387,18.458908,36.86442,-3.7626562,-11.292944,-4.7669888
179,161.98631286621094,153.9917755126953,76.51910400390625,-1.2731234336043378,-7.199478999126008,58.73676346392603,-15.173796,-3.2418604,5.549977,25.089312,-12.504584,6.6289096,13.935748,2.4988172,-9.155951,62.097584,5.060403,12.311716,8.286772,2.966452,5.660464,24.373716,23.739656,-45.357426,52.073425,6.1520734,1.6603029,13.056376,-5.2914486,-12.867184,18.381956,37.385796,-3.8806067,-11.19869,-4.6982164
180,162.6403045654297,154.81065368652344,75.95651245117188,-0.8504992360059793,-7.296373991959792,58.72535419586343,-16.010517,-3.6832206,5.4877076,28.366177,-12.1658,7.648743,12.9018755,1.448996,-9.432842,65.35542,3.285407,12.497045,8.10601,2.4097579,5.8471107,23.756119,23.752884,-45.059654,52.193764,5.4541335,1.6954092,13.44334,-4.812154,-12.796389,18.285202,37.999317,-4.1276674,-11.099372,-4.5363865
181,163.2891387939453,155.6134033203125,75.33213806152344,-0.55767041225481,-7.473371747246223,58.6219900965487,-17.170517,-3.8875923,5.6003203,32.5729,-12.99183,8.207913,11.847756,0.3682002,-9.7026205,68.72053,1.4744022,12.397476,7.9696975,2.0145962,6.1281886,23.119612,23.732086,-44.67536,52.278843,4.6359262,1.6731758,13.884071,-4.4518094,-12.77096,18.170609,38.728474,-4.5266237,-11.021264,-4.21767
182,163.9379425048828,156.38157653808594,74.6405258178711,-0.30736508241627636,-7.687784193577472,58.44631640165357,-18.626694,-3.9093733,5.8110666,37.56321,-14.584497,8.532312,10.745988,-0.83601886,-9.963026,72.20184,-0.42413446,12.097074,7.8037767,1.674175,6.4828234,22.480616,23.631233,-44.104317,52.363384,3.7273688,1.6026504,14.377901,-4.249505,-12.761158,18.096565,39.60346,-5.074985,-10.9630375,-3.7922857
183,164.59046936035156,157.14865112304688,73.924072265625,-0.05804140375487613,-7.945425400278713,58.26942143484506,-19.991188,-3.816973,6.013302,42.562218,-16.537907,8.67052,9.624275,-2.1166532,-10.183494,75.63335,-2.3664086,11.601949,7.6407766,1.3667221,6.912974,21.643888,23.475775,-43.695812,52.62397,2.7136583,1.5066874,14.885379,-4.0769544,-12.780611,17.97905,40.590004,-5.7447042,-10.875014,-3.3824074
184,165.23898315429688,157.91748046875,73.2630615234375,0.21530693787110672,-8.2574339845393,58.15924652320859,-20.846107,-3.74365,6.1418037,46.712223,-18.393728,8.607556,8.50954,-3.406986,-10.341665,78.844635,-4.3031774,10.915194,7.462736,1.0607698,7.4370375,20.472616,23.302433,-43.675255,53.187508,1.6348516,1.4102659,15.354005,-3.8643782,-12.793381,17.758198,41.696674,-6.5275974,-10.708817,-3.096856
185,165.89442443847656,158.6431884765625,72.6783218383789,0.5433409890881304,-8.652624461926933,58.14966858662558,-21.00692,-3.8098345,6.2485423,49.68911,-20.061243,8.1703825,7.419762,-4.7180867,-10.41789,81.83257,-6.2760315,9.955993,7.2616997,0.7172068,8.1025715,18.85727,23.133484,-44.221504,54.17077,0.2957011,1.3006226,15.816468,-3.6092665,-12.760012,17.330488,42.979347,-7.473893,-10.475854,-2.8995373
186,166.53695678710938,159.33204650878906,72.1425552368164,0.9017118451303823,-9.117444103841269,58.19729924745361,-20.720512,-3.9703825,6.3985295,51.971638,-21.766008,7.381315,6.3274107,-6.059192,-10.411497,84.672966,-8.2980175,8.759021,7.0654335,0.3475112,8.886555,16.910957,22.971355,-45.16627,55.428177,-1.2622906,1.1709576,16.280624,-3.3502655,-12.678637,16.729033,44.43093,-8.588553,-10.195959,-2.748459
187,167.1773223876953,159.9965057373047,71.63970184326172,1.2285684033153053,-9.600881038115118,58.25207080067612,-20.200668,-4.1347594,6.5556335,53.872173,-23.493607,6.4974856,5.187201,-7.3596973,-10.344304,87.32115,-10.271957,7.492898,6.893662,0.009408008,9.698783,14.834762,22.810236,-46.213886,56.704647,-2.6469312,1.0633405,16.660938,-3.0867286,-12.578585,16.130947,45.97136,-9.781364,-9.825252,-2.749301
188,167.8366241455078,160.65682983398438,71.17748260498047,1.46067277915151,-10.053238261694158,58.26637442784172,-19.649252,-4.195471,6.655068,55.687656,-25.220219,5.7770114,3.9572594,-8.558645,-10.249254,89.72971,-12.098312,6.3185716,6.7530165,-0.2309774,10.450085,12.823631,22.64515,-47.07062,57.770092,-3.4610507,1.0269364,16.876017,-2.8142345,-12.505772,15.730254,47.511925,-10.951455,-9.313695,-3.007196
189,168.4868927001953,161.33343505859375,70.75982666015625,1.5546420518643844,-10.499136774378034,58.20143306836751,-19.031439,-4.070428,6.665037,57.45341,-26.983227,5.2771444,2.661419,-9.639587,-10.15235,91.89117,-13.717938,5.234025,6.661151,-0.3025949,11.154542,10.896506,22.476562,-47.7213,58.61545,-3.4663055,1.1454403,16.855734,-2.5285194,-12.489966,15.614408,49.07765,-12.121897,-8.548925,-3.6819613
190,169.11944580078125,162.01513671875,70.36793518066406,1.550907484170118,-10.953867668722593,58.09271179903108,-18.25969,-3.8341334,6.6223598,59.01285,-28.772976,4.867054,1.3053155,-10.639471,-10.0411415,93.83289,-15.195246,4.1605535,6.590886,-0.24565402,11.85268,8.970554,22.304243,-48.28927,59.33601,-2.9126954,1.3741558,16.656874,-2.2273283,-12.533235,15.689362,50.681427,-13.299969,-7.5731792,-4.6598015
191,169.74351501464844,162.6990203857422,70.00442504882812,1.5171445980906517,-11.35012505307294,58.00361528239135,-17.4633,-3.5987275,6.541026,60.39009,-30.487535,4.5175,-0.18178615,-11.57375,-9.896354,95.55925,-16.60757,3.1450582,6.4862256,-0.15892138,12.4932785,7.0746446,22.127245,-48.70125,59.887264,-2.131523,1.5688888,16.39226,-1.9003141,-12.632233,15.872017,52.212795,-14.368896,-6.5775146,-5.644704
192,170.3599090576172,163.36563110351562,69.66110229492188,1.5240184618804795,-11.61814470896521,57.99654034386716,-16.777523,-3.4705703,6.4269323,61.614594,-32.02602,4.197273,-1.8720132,-12.458122,-9.697375,97.07194,-18.024036,2.2370634,6.285079,-0.1447242,13.023768,5.242477,21.94836,-48.87458,60.22543,-1.4541608,1.5887804,16.18011,-1.5443045,-12.778833,16.090628,53.567066,-15.226909,-5.7668824,-6.355028
193,170.9722442626953,164.00328063964844,69.34549713134766,1.5969208649723243,-11.713448222266198,58.069108505828865,-16.272902,-3.4757848,6.2915936,62.700382,-33.361145,3.9205656,-3.8578243,-13.299863,-9.420697,98.391495,-19.472086,1.4395099,5.9831247,-0.24445643,13.402622,3.489656,21.774473,-48.74018,60.32298,-0.88957065,1.35426,16.04306,-1.1877761,-12.976081,16.420393,54.746536,-15.875413,-5.1380477,-6.76217
194,171.5855712890625,164.64170837402344,69.07292938232422,1.699034521682781,-11.680788692644619,58.19472410223671,-15.870641,-3.5487468,6.112592,63.636936,-34.546135,3.6950178,-6.082823,-14.08296,-9.088886,99.508514,-20.898388,0.72902423,5.605607,-0.40142375,13.66321,1.7969322,21.61441,-48.356647,60.216576,-0.28608727,0.9533916,15.925946,-0.8299979,-13.226075,16.87265,55.80676,-16.367178,-4.6108656,-7.0123024
195,172.1876678466797,165.25238037109375,68.85127258300781,1.7970616930570857,-11.59073508470346,58.40150686008404,-15.482387,-3.6592865,5.8457923,64.41482,-35.60098,3.4793694,-8.391767,-14.793743,-8.748542,100.37453,-22.247026,0.12197345,5.1434145,-0.5729475,13.865616,0.14115493,21.475636,-47.839153,59.95889,0.26652575,0.5020503,15.83192,-0.41755128,-13.512187,17.269638,56.717655,-16.6919,-4.282482,-7.093164
196,172.7944793701172,165.85662841796875,68.68221282958984,1.857478263365049,-11.513383301698424,58.717027719452545,-15.018316,-3.7797728,5.4529753,65.02296,-36.546253,3.2327435,-10.6270275,-15.4232235,-8.454105,100.94464,-23.466242,-0.36926097,4.5963964,-0.71908355,14.069984,-1.5055653,21.363049,-47.312534,59.603443,0.676144,0.116962984,15.760198,0.108701825,-13.807332,17.421747,57.448563,-16.844435,-4.249489,-6.992378
197,173.4303436279297,166.45513916015625,68.5580825805664,1.8681181101893747,-11.469109008374515,59.188527929111835,-14.459506,-3.927222,4.892377,65.46381,-37.38655,2.9511836,-12.742748,-15.972506,-8.258427,101.17787,-24.602604,-0.7027289,3.931943,-0.8412726,14.293993,-3.1706154,21.282604,-46.812107,59.140686,0.8688818,-0.16917372,15.70913,0.7801998,-14.090371,17.24525,57.97677,-16.772467,-4.6759987,-6.586779
198,174.08766174316406,167.05056762695312,68.47813415527344,1.8470360312705871,-11.420986315895396,59.7892092718438,-13.848354,-4.1086235,4.194709,65.74031,-38.111423,2.6549952,-14.816822,-16.459967,-8.132744,101.10678,-25.661272,-0.9028202,3.1737409,-0.9622024,14.500933,-4.8396587,21.237312,-46.290966,58.55339,0.90529865,-0.4173668,15.677143,1.5654925,-14.354149,16.835796,58.33182,-16.497725,-5.4635267,-5.9224215
199,174.75460815429688,167.64022827148438,68.44202423095703,1.8079377254637408,-11.351102943793713,60.43395601605109,-13.189152,-4.2799754,3.433453,65.84314,-38.719757,2.3414593,-16.878067,-16.900415,-8.009235,100.7983,-26.531376,-1.0538645,2.3980963,-1.071323,14.671652,-6.4747086,21.222794,-45.743256,57.88268,0.89465976,-0.6520002,15.66171,2.4241028,-14.591814,16.28242,58.56514,-16.128256,-6.3146176,-5.2411704
200,175.4364776611328,168.22109985351562,68.45742797851562,1.7640746718169191,-11.242314113081088,61.03722012426209,-12.486854,-4.397419,2.6821468,65.76031,-39.210682,2.007095,-18.955967,-17.300138,-7.8196883,100.31684,-27.101156,-1.2391449,1.683093,-1.1567515,14.788066,-8.04414,21.228338,-45.16693,57.17977,0.9437345,-0.898038,15.661794,3.3127522,-14.80021,15.671412,58.72953,-15.786797,-6.9367204,-4.793031
201,176.12179565429688,168.8031005859375,68.5218276977539,1.7196957256428864,-11.080216600371246,61.58469552253838,-11.754282,-4.457788,1.9475293,65.4863,-39.59246,1.6479387,-21.093943,-17.67074,-7.5578985,99.67845,-27.335192,-1.5066928,1.0438651,-1.2140805,14.838925,-9.571337,21.245789,-44.566826,56.47321,1.0739021,-1.1663464,15.667097,4.2375607,-14.978475,14.986927,58.800175,-15.547401,-7.2669477,-4.640444
202,176.81304931640625,169.40789794921875,68.63442993164062,1.6678079983187342,-10.877550262911498,62.11924879892598,-10.984856,-4.479886,1.1930563,65.0275,-39.86522,1.2680085,-23.257656,-18.000639,-7.2630997,98.84612,-27.298407,-1.8025132,0.43760592,-1.2459433,14.836254,-11.06766,21.271486,-43.941532,55.74381,1.2325219,-1.4427187,15.682397,5.213245,-15.1233425,14.20083,58.76676,-15.334961,-7.458707,-4.65418
203,177.51516723632812,170.0104522705078,68.79827117919922,1.6043739675348518,-10.658269275942123,62.640982676100506,-10.157758,-4.452664,0.42800924,64.39512,-40.008286,0.8746833,-25.358126,-18.257114,-6.93829,97.80707,-27.033194,-2.060287,-0.14723697,-1.2535714,14.796225,-12.48766,21.299414,-43.279785,54.98046,1.4126644,-1.7152449,15.7305565,6.2009697,-15.226376,13.3833,58.711967,-15.057928,-7.5470395,-4.8037224
204,178.2238006591797,170.606689453125,69.00990295410156,1.527705230849261,-10.44498090995692,63.1488550785185,-9.253662,-4.365591,-0.33726138,63.601658,-40.002632,0.47492388,-27.308561,-18.412775,-6.582367,96.5531,-26.582558,-2.2124407,-0.7235637,-1.2398484,14.735166,-13.782173,21.323727,-42.564148,54.16932,1.6119,-1.9715883,15.83458,7.1596804,-15.28515,12.607476,58.717762,-14.62244,-7.5671253,-5.0582237
205,178.94540405273438,171.21755981445312,69.2766342163086,1.4397874729168187,-10.239684280933773,63.627174310045106,-8.255599,-4.211977,-1.0893648,62.62408,-39.857513,0.07243699,-29.112167,-18.454222,-6.1778035,95.07667,-25.966213,-2.2507992,-1.284529,-1.203509,14.652485,-14.944652,21.339136,-41.77328,53.310104,1.8380604,-2.2172961,16.0038,8.082916,-15.298462,11.8780155,58.792072,-13.991777,-7.493454,-5.4835415
206,179.68589782714844,171.82713317871094,69.59175109863281,1.3401693955757314,-10.031267353953801,64.08079916494508,-7.1802077,-3.996583,-1.8367058,61.466187,-39.581085,-0.3369792,-30.799088,-18.39867,-5.7338724,93.38604,-25.163263,-2.2078562,-1.825868,-1.1362478,14.548766,-15.997701,21.34997,-40.913258,52.398853,2.0959,-2.4553404,16.222538,8.997149,-15.281067,11.151517,58.880474,-13.222247,-7.325801,-6.067598
207,180.4452362060547,172.45542907714844,69.9527587890625,1.223739156731464,-9.821912173651151,64.5402048033807,-6.0574017,-3.7261963,-2.6023555,60.173275,-39.14303,-0.75879484,-32.321598,-18.268877,-5.2873535,91.49021,-24.155542,-2.0775056,-2.3717816,-1.0482773,14.425774,-16.942204,21.35974,-40.01677,51.448174,2.370118,-2.6699514,16.480757,9.883662,-15.229235,10.459436,59.012756,-12.354735,-7.132259,-6.6777554
208,181.20993041992188,173.07398986816406,70.3553237915039,1.083999797614517,-9.613462396232269,65.03544973322502,-4.9172044,-3.4076111,-3.4100428,58.792454,-38.51567,-1.1977111,-33.638863,-18.087067,-4.8705153,89.402885,-22.919786,-1.8523616,-2.9383092,-0.95022047,14.264964,-17.789553,21.361868,-39.17187,50.495804,2.6088035,-2.845422,16.784779,10.751382,-15.15963,9.868194,59.20587,-11.39021,-6.9752803,-7.179641
209,181.99269104003906,173.70025634765625,70.79720306396484,0.9119748079536285,-9.403007627816553,65.56915872333293,-3.741223,-3.0284965,-4.269344,57.285946,-37.711395,-1.6592548,-34.74706,-17.843672,-4.481065,87.12159,-21.450113,-1.5245569,-3.5418775,-0.83783865,14.081956,-18.524836,21.35985,-38.305424,49.52095,2.8574615,-2.9725368,17.125513,11.560989,-15.04358,9.337026,59.498997,-10.285259,-6.8767366,-7.5811973
210,182.79176330566406,174.32803344726562,71.27142333984375,0.715238665449002,-9.188641340280736,66.12554072813408,-2.5246842,-2.5881588,-5.1662893,55.647842,-36.7404,-2.1380184,-35.665833,-17.534744,-4.0951967,84.64424,-19.762926,-1.0976732,-4.1587024,-0.7181391,13.862839,-19.163046,21.350069,-37.451206,48.540596,3.0962534,-3.059882,17.516293,12.334197,-14.881368,8.877809,59.874233,-9.028194,-6.800526,-7.945912
211,183.60540771484375,174.96937561035156,71.77899169921875,0.5107384914537609,-8.976018988268612,66.70809779217268,-1.3143309,-2.1127996,-6.0934772,53.97243,-35.574463,-2.623026,-36.385323,-17.196823,-3.7123544,81.979614,-17.87356,-0.58280146,-4.7744884,-0.59325147,13.621192,-19.721855,21.332363,-36.655914,47.54917,3.3047028,-3.1216717,17.934805,13.098225,-14.70535,8.502461,60.273697,-7.8087177,-6.720872,-8.210832
212,184.4365997314453,175.61630249023438,72.3157730102539,0.3163390434342223,-8.771016582999552,67.32032314289269,-0.1533173,-1.6313989,-7.0452137,52.348034,-34.181667,-3.1052556,-36.8988,-16.864065,-3.3304944,79.135315,-15.795498,0.009490615,-5.3779817,-0.4809017,13.3647,-20.214518,21.308937,-35.95975,46.549557,3.4723299,-3.1720276,18.359451,13.858786,-14.521731,8.235967,60.66852,-6.8205194,-6.606395,-8.325664
213,185.28363037109375,176.2629852294922,72.87755584716797,0.1262877889882967,-8.568026131792868,67.9647722432704,0.96754307,-1.1393458,-8.046425,50.74444,-32.526737,-3.6343985,-37.206066,-16.517637,-2.932189,76.08769,-13.452907,0.7263109,-5.9712873,-0.3760308,13.092595,-20.634495,21.28001,-35.36401,45.53875,3.5959778,-3.2129633,18.80252,14.608207,-14.333824,8.083288,61.067856,-6.0687118,-6.4344363,-8.253373
214,186.14271545410156,176.91064453125,73.45559692382812,-0.06521735481314654,-8.36591533509723,68.63779429145512,2.0660963,-0.6268427,-9.097198,49.13282,-30.639069,-4.200906,-37.31312,-16.147316,-2.5007622,72.843506,-10.870849,1.5638641,-6.559893,-0.27260932,12.802887,-20.974314,21.244633,-34.8455,44.510075,3.6830752,-3.2379298,19.268644,15.341451,-14.143015,8.032233,61.484695,-5.4671345,-6.2200866,-8.029652
215,187.009521484375,177.57774353027344,74.05033874511719,-0.23823378399384967,-8.176931085502066,69.33438126544357,3.1042416,-0.11882031,-10.153179,47.619576,-28.57918,-4.7102013,-37.22405,-15.805566,-2.047452,69.45161,-8.208953,2.427335,-7.136324,-0.18470466,12.500704,-21.243114,21.203821,-34.412098,43.45765,3.7350204,-3.2482476,19.726389,16.07455,-13.951114,8.0828905,61.88885,-5.0689144,-5.9889393,-7.7102084
216,187.88882446289062,178.2435302734375,74.64520263671875,-0.37483011547450745,-8.014406783832806,70.05032726225105,4.043254,0.35825074,-11.164347,46.30975,-26.401068,-5.0698586,-36.948414,-15.549898,-1.5963053,65.962906,-5.6240225,3.214952,-7.691864,-0.12778814,12.190873,-21.451366,21.159742,-34.07466,42.37524,3.7519226,-3.2453067,20.144236,16.824512,-13.761275,8.233054,62.248833,-4.926857,-5.768626,-7.3500166
217,188.77969360351562,178.9277801513672,75.241943359375,-0.4803873937734886,-7.877011481615919,70.78541583107913,4.873904,0.8080071,-12.125956,45.213318,-24.04271,-5.253928,-36.472733,-15.392271,-1.1773032,62.322624,-3.073237,3.915288,-8.230428,-0.094151065,11.872486,-21.581923,21.113308,-33.827694,41.241016,3.7081218,-3.214332,20.514538,17.588774,-13.580469,8.514002,62.57804,-5.110378,-5.5709066,-6.9638357
218,189.67620849609375,179.62405395507812,75.83577728271484,-0.5603864569124518,-7.7592981988085965,71.54198048703925,5.612399,1.2377748,-13.055108,44.282574,-21.493404,-5.3205395,-35.80644,-15.308951,-0.77323306,58.531036,-0.4998196,4.5740466,-8.754227,-0.084714726,11.541506,-21.637392,21.062395,-33.668613,40.06888,3.6137602,-3.1601355,20.853518,18.355438,-13.399787,8.917247,62.892906,-5.574623,-5.382448,-6.524632
219,190.5725860595703,180.32479858398438,76.41236114501953,-0.6024854776988735,-7.6700982730195895,72.31685249727205,6.2604065,1.6297592,-13.928611,43.53921,-18.888273,-5.303428,-34.998966,-15.305482,-0.35013297,54.729443,1.9558052,5.1721945,-9.255696,-0.10839621,11.204591,-21.64137,21.012703,-33.60776,38.87588,3.512382,-3.1138244,21.165703,19.144863,-13.227153,9.375925,63.14355,-6.1953864,-5.1998324,-6.0083485
220,191.47401428222656,181.04241943359375,76.96763610839844,-0.5899877153116596,-7.617481031072109,73.10650743011003,6.8217707,1.9646841,-14.725505,43.00034,-16.359426,-5.232349,-34.10167,-15.388243,0.12110062,51.05902,4.1565614,5.689079,-9.724488,-0.18021376,10.866084,-21.629608,20.971443,-33.665565,37.69174,3.4418142,-3.1061788,21.455225,19.97258,-13.060602,9.82259,63.288822,-6.851311,-5.0188947,-5.3970017
221,192.3795166015625,181.77297973632812,77.49845123291016,-0.5089939174266728,-7.620530078024444,73.91906038807927,7.300892,2.2028859,-15.473245,42.66134,-13.777421,-5.0487056,-33.07834,-15.600693,0.60599136,47.466778,6.0728607,6.098273,-10.166075,-0.31998986,10.535595,-21.589727,20.941721,-33.86251,36.501648,3.39379,-3.1427574,21.728634,20.844408,-12.897504,10.254244,63.32487,-7.5890646,-4.8361864,-4.6589932
222,193.27664184570312,182.51019287109375,77.99934387207031,-0.37654502159291736,-7.670465564872288,74.75343228083746,7.6937532,2.3677504,-16.162464,42.50904,-11.11467,-4.758144,-31.935455,-15.922337,1.085406,43.92045,7.77256,6.414437,-10.582362,-0.5149849,10.207178,-21.51037,20.92321,-34.186558,35.29372,3.3515298,-3.2077456,21.98144,21.755747,-12.736164,10.69954,63.263462,-8.449648,-4.6580615,-3.812378
223,194.18069458007812,183.2469940185547,78.45777130126953,-0.2176393085363369,-7.731790769019377,75.59337362914741,7.9996347,2.5321712,-16.728374,42.53522,-8.656811,-4.4802065,-30.78474,-16.270107,1.6145582,40.58499,9.266013,6.6782417,-10.960539,-0.7296548,9.865349,-21.418716,20.916378,-34.59937,34.092648,3.3504448,-3.2988334,22.200497,22.69592,-12.575391,11.139089,63.108788,-9.302476,-4.5047736,-2.91618
224,195.09324645996094,183.99169921875,78.8648681640625,-0.06154652712788407,-7.770658671218796,76.42408263347524,8.221601,2.7639208,-17.118496,42.729797,-6.6956244,-4.3302665,-29.728596,-16.561861,2.2536314,37.614315,10.570014,6.928432,-11.287752,-0.9291407,9.495543,-21.3408,20.921223,-35.06207,32.92322,3.4278824,-3.413614,22.373018,23.65847,-12.41482,11.553362,62.85443,-10.0164,-4.3844576,-2.0293584
225,195.99301147460938,184.74034118652344,79.21231079101562,0.10494992024879293,-7.782704871477012,77.24752179906139,8.383994,3.0461025,-17.355576,43.042713,-5.3013854,-4.40002,-28.765652,-16.789986,3.0536063,34.999794,11.669045,7.183494,-11.563628,-1.1185184,9.087907,-21.278612,20.938698,-35.586395,31.78762,3.6213157,-3.5719461,22.485619,24.669302,-12.258016,11.932062,62.463505,-10.589372,-4.2842484,-1.1400911
226,196.89796447753906,185.48255920410156,79.49958801269531,0.28834279587803846,-7.786006741400968,78.07111019032361,8.481174,3.3516204,-17.46693,43.490177,-4.3190007,-4.5998764,-27.852867,-16.995651,3.9700058,32.66813,12.564937,7.4172735,-11.789239,-1.3165066,8.652969,-21.230211,20.971113,-36.19762,30.68008,3.8965962,-3.7678351,22.549599,25.722214,-12.0918255,12.282477,61.95473,-11.083063,-4.2018995,-0.23036797
227,197.8051300048828,186.2254638671875,79.7234115600586,0.45767361805048773,-7.777436453629958,78.88858449937207,8.471926,3.7360573,-17.410604,44.162495,-3.7065005,-4.770325,-27.019386,-17.170664,4.9214287,30.665525,13.305776,7.6024714,-11.975976,-1.4932623,8.211314,-21.181713,21.012718,-36.835835,29.588818,4.202922,-3.9609716,22.585941,26.766218,-11.925966,12.627028,61.386856,-11.451026,-4.154915,0.66059214
228,198.71170043945312,186.9507293701172,79.8804702758789,0.5798295581244036,-7.753585436662936,79.6940613592793,8.313492,4.259575,-17.143684,45.15152,-3.4249077,-4.748802,-26.289131,-17.301016,5.8246226,29.034426,13.942124,7.7151966,-12.131498,-1.621675,7.782026,-21.123493,21.05669,-37.447296,28.50765,4.4881487,-4.1108017,22.6161,27.747507,-11.76476,12.987338,60.82615,-11.6473875,-4.1597886,1.4913821
229,199.60556030273438,187.66329956054688,79.97784423828125,0.6520178198925801,-7.69774985760756,80.48971947548378,7.9546256,4.989249,-16.56899,46.53328,-3.554918,-4.4557686,-25.673306,-17.383507,6.6794066,27.785309,14.509585,7.7701106,-12.252639,-1.6899886,7.3517427,-21.072027,21.103006,-38.046062,27.424335,4.746306,-4.194719,22.635534,28.679615,-11.612559,13.35649,60.249416,-11.60054,-4.223603,2.2769082
230,200.49891662597656,188.3685302734375,80.02141571044922,0.6926224572296396,-7.6184222347516055,81.27854754304792,7.433053,5.893802,-15.753774,48.248215,-4.0988603,-3.9782012,-25.145683,-17.42123,7.5205894,26.873835,14.985955,7.776852,-12.339347,-1.7166378,6.918067,-21.023212,21.151993,-38.64766,26.345287,5.0053744,-4.238591,22.635786,29.583153,-11.469665,13.728984,59.63317,-11.351716,-4.3294168,3.0322418
231,201.3896026611328,189.0654754638672,80.00764465332031,0.7034835498052248,-7.547686291492746,82.05579236002319,6.84104,6.882579,-14.900059,50.176888,-4.8941965,-3.4069927,-24.663563,-17.412067,8.313893,26.246922,15.341719,7.704693,-12.403895,-1.7154512,6.5146065,-20.94924,21.19628,-39.204765,25.305252,5.253619,-4.2758207,22.631681,30.415442,-11.341332,14.128159,59.043724,-11.022803,-4.459107,3.7168221
232,202.28147888183594,189.75537109375,79.9358901977539,0.6860701725814032,-7.517284092179308,82.81710757057512,6.2687197,7.850986,-14.198928,52.195614,-5.769249,-2.8394997,-24.194172,-17.354868,9.026164,25.874365,15.541232,7.5203257,-12.459707,-1.7005786,6.174477,-20.81592,21.22558,-39.66567,24.33624,5.4869533,-4.338937,22.638721,31.133204,-11.231678,14.578189,58.549053,-10.736746,-4.5986686,4.289287
233,203.1718292236328,190.4375,79.81368255615234,0.6362830358534024,-7.533590626805218,83.5642416054831,5.715263,8.796945,-13.648367,54.33638,-6.734427,-2.275399,-23.734955,-17.2524,9.654369,25.78786,15.520227,7.150138,-12.502501,-1.67669,5.902135,-20.624483,21.236526,-40.02189,23.4461,5.688875,-4.4571414,22.641003,31.732952,-11.133454,15.099029,58.15796,-10.46738,-4.7651663,4.7328672
234,204.06333923339844,191.11734008789062,79.63294219970703,0.55587431153998,-7.5810731018407935,84.30037544910631,5.142796,9.758226,-13.171156,56.646313,-7.865894,-1.6769935,-23.289112,-17.107502,10.212584,25.973227,15.326098,6.633808,-12.531411,-1.6368312,5.681289,-20.387768,21.226881,-40.292614,22.621305,5.8721027,-4.605995,22.636585,32.23651,-11.053971,15.673735,57.835533,-10.167559,-4.960282,5.074148
235,204.94253540039062,191.80043029785156,79.40367889404297,0.4587854063232666,-7.657276765026196,85.02188216830382,4.5831146,10.6770315,-12.82803,59.018528,-9.076878,-1.0899204,-22.829193,-16.925629,10.692936,26.321667,15.092107,6.1085505,-12.550671,-1.5811416,5.514711,-20.10751,21.202047,-40.494144,21.868723,6.057716,-4.7408853,22.664907,32.63759,-11.000284,16.256044,57.588757,-9.937685,-5.150086,5.332146
236,205.82125854492188,192.4765167236328,79.12833404541016,0.35699536309343666,-7.759885105460874,85.72538759505551,4.0667386,11.492118,-12.671986,61.34644,-10.276937,-0.56056035,-22.33221,-16.708294,11.086172,26.731956,14.947236,5.7108846,-12.571969,-1.5432986,5.3831234,-19.819155,21.149746,-40.659523,21.268818,6.26639,-4.8153443,22.769062,32.89397,-10.934945,16.862848,57.48786,-9.854917,-5.2976394,5.4975896
237,206.70272827148438,193.13473510742188,78.80146789550781,0.23645498747869764,-7.885776494603385,86.41022030324538,3.5976107,12.179031,-12.745756,63.62115,-11.451126,-0.11000881,-21.907953,-16.42245,11.378164,27.345276,15.216231,5.151868,-12.581648,-1.4848195,5.305151,-19.498737,21.078878,-40.78107,20.767996,6.5114374,-4.8098803,22.98702,33.02202,-10.879745,17.449192,57.505756,-9.992162,-5.4070354,5.562179
238,207.58299255371094,193.79261779785156,78.43207550048828,0.09816530997976249,-8.037207766527821,87.07910342075053,3.163333,12.75533,-12.998835,65.89361,-12.639008,0.28068787,-21.521482,-16.083265,11.568645,28.139135,15.744123,4.4651814,-12.58111,-1.4127238,5.281299,-19.139029,21.003345,-40.853325,20.346355,6.7726274,-4.749632,23.288874,33.03083,-10.837044,18.033146,57.626194,-10.287042,-5.493471,5.528372
239,208.45819091796875,194.44358825683594,78.01136016845703,-0.02941572594095837,-8.217014068211318,87.73154439654823,2.7682176,13.232743,-13.339745,68.145836,-13.8392105,0.62730473,-20.950254,-15.754164,11.697959,28.803339,15.921563,4.282265,-12.58041,-1.3699077,5.288382,-18.786392,20.87365,-40.883488,20.099201,7.0468006,-4.660407,23.601135,32.908504,-10.780954,18.620163,57.87059,-10.658098,-5.542139,5.4364133
240,209.32981872558594,195.09828186035156,77.53821563720703,-0.1130002152965598,-8.424946761322275,88.36305566597864,2.4105396,13.630522,-13.678921,70.36073,-15.051005,0.94904697,-19.994461,-15.494179,11.817277,29.069382,15.112483,5.2343283,-12.551829,-1.3610705,5.3441577,-18.424025,20.75202,-40.907146,19.931963,7.2878933,-4.564529,23.859945,32.71033,-10.736903,19.10104,58.144913,-11.066517,-5.54557,5.3714375
