unveil-humanoid-operators/unveil-humanoid-operators.github.io/feature-analysis-animation/data/feature_matrix_instances/gender_ankle_rom_walking_A341.csv
Frame,root_translateX,root_translateY,root_translateZ,root_rotateX,root_rotateY,root_rotateZ,left_hip_pitch_joint_dof,left_hip_roll_joint_dof,left_hip_yaw_joint_dof,left_knee_joint_dof,left_ankle_pitch_joint_dof,left_ankle_roll_joint_dof,right_hip_pitch_joint_dof,right_hip_roll_joint_dof,right_hip_yaw_joint_dof,right_knee_joint_dof,right_ankle_pitch_joint_dof,right_ankle_roll_joint_dof,waist_yaw_joint_dof,waist_roll_joint_dof,waist_pitch_joint_dof,left_shoulder_pitch_joint_dof,left_shoulder_roll_joint_dof,left_shoulder_yaw_joint_dof,left_elbow_joint_dof,left_wrist_roll_joint_dof,left_wrist_pitch_joint_dof,left_wrist_yaw_joint_dof,right_shoulder_pitch_joint_dof,right_shoulder_roll_joint_dof,right_shoulder_yaw_joint_dof,right_elbow_joint_dof,right_wrist_roll_joint_dof,right_wrist_pitch_joint_dof,right_wrist_yaw_joint_dof
0,-0.30485889315605164,-1.5987879037857056,79.60286712646484,-0.4460614747538095,6.006339044171159,88.23531388506261,-1.652327,3.847033,3.2791717,6.9521837,-9.544749,-4.261184,-4.793723,-0.5014742,3.2188642,9.4402275,-8.05181,0.22961867,1.1320113,-0.32442737,0.75045514,-3.5970442,17.979033,-24.118856,59.43536,6.2190638,0.31659922,-4.516789,-14.402225,-15.360725,52.39339,70.284874,2.921451,1.2649846,2.486596
1,-0.31734156608581543,-1.5975605249404907,79.60165405273438,-0.4377702191678919,6.03101564027661,88.26093244778437,-1.6800377,3.8163369,3.2560148,6.9515853,-9.549319,-4.2457595,-4.8004856,-0.53428113,3.197958,9.421285,-8.07009,0.25403944,1.1577952,-0.335398,0.81086445,-3.6389744,17.987679,-24.171625,59.40922,6.314396,0.2939588,-4.5647798,-14.344301,-15.37524,52.687187,70.25878,2.8020272,1.2602055,2.331829
2,-0.338553249835968,-1.5875520706176758,79.59972381591797,-0.43056494076134844,6.055048974726544,88.28616665933826,-1.7068402,3.7858615,3.2332869,6.950729,-9.55378,-4.230474,-4.8076134,-0.5668778,3.1774163,9.403995,-8.089568,0.2782331,1.169902,-0.3387216,0.86833715,-3.6768324,17.981989,-24.196093,59.391033,6.430377,0.26879674,-4.6197677,-14.292589,-15.39064,53.00796,70.2342,2.6830835,1.2572986,2.1732743
3,-0.3623100221157074,-1.577517032623291,79.59780883789062,-0.42260641899908413,6.080157470728709,88.31222290580882,-1.7337829,3.7546499,3.2098541,6.9479556,-9.557573,-4.21477,-4.814395,-0.60013384,3.1560893,9.384027,-8.106971,0.30298796,1.1754261,-0.33702618,0.9249001,-3.7217832,17.966326,-24.232254,59.385727,6.5226636,0.24368249,-4.6566577,-14.247633,-15.406286,53.332424,70.22377,2.584024,1.2522022,2.0219932
4,-0.3828856647014618,-1.5735642910003662,79.59518432617188,-0.4133071334165248,6.107875085878802,88.34033147443361,-1.7661779,3.722346,3.1843188,6.9489903,-9.563711,-4.1982346,-4.825614,-0.6348574,3.1328888,9.3672495,-8.1242285,0.32894242,1.1766406,-0.33277556,0.98314995,-3.7819443,17.945684,-24.313904,59.397133,6.548172,0.22043799,-4.650962,-14.211964,-15.420841,53.645046,70.23882,2.5281818,1.240644,1.8892049
5,-0.4071435332298279,-1.5682790279388428,79.59281921386719,-0.40351337699845996,6.136404340441642,88.37201834768007,-1.7991513,3.687198,3.154983,6.9482346,-9.569716,-4.180504,-4.8367114,-0.6725984,3.1063106,9.348655,-8.138147,0.35737288,1.1629195,-0.32126087,1.0438238,-3.8552513,17.914328,-24.454235,59.429615,6.4747863,0.21479008,-4.5692387,-14.186469,-15.438137,53.952,70.28043,2.539721,1.2221332,1.7678926
6,-0.42605894804000854,-1.5628777742385864,79.59109497070312,-0.39290871841975245,6.165542851031681,88.40622865329999,-1.8337921,3.6504583,3.1228845,6.947674,-9.5758095,-4.162141,-4.846822,-0.71234334,3.0772612,9.326973,-8.148753,0.38748452,1.1560501,-0.31716946,1.1154723,-3.9421716,17.896029,-24.6459,59.46232,6.3334293,0.22175616,-4.4400587,-14.166814,-15.448482,54.20883,70.34248,2.5736778,1.1968855,1.6577837
7,-0.44753989577293396,-1.5558288097381592,79.58817291259766,-0.38292689906090954,6.199647876228286,88.44031840294262,-1.8731859,3.6139388,3.0916424,6.9466662,-9.582623,-4.1431217,-4.861223,-0.7519117,3.0484927,9.302682,-8.1570215,0.41706857,1.1484581,-0.30674523,1.1731676,-4.043396,17.866394,-24.87495,59.520634,6.1549244,0.20892411,-4.307885,-14.148655,-15.462542,54.493675,70.424,2.647319,1.1666194,1.5701725
8,-0.4672773778438568,-1.5441125631332397,79.58575439453125,-0.3736595127162208,6.2421993895131545,88.47167205313453,-1.92163,3.5797608,3.064697,6.9460907,-9.590159,-4.123675,-4.8844304,-0.7892217,3.0226777,9.277112,-8.164764,0.44393638,1.1539528,-0.2970112,1.2255471,-4.163562,17.833973,-25.095947,59.591568,6.0084157,0.14440075,-4.2368207,-14.138954,-15.476612,54.783447,70.522095,2.7086368,1.1305575,1.526159
9,-0.48701655864715576,-1.5368391275405884,79.58383178710938,-0.36514119340740603,6.297974549090992,88.49838879494726,-1.9828765,3.549252,3.0453932,6.9451814,-9.599249,-4.1037455,-4.9197984,-0.82316864,3.001881,9.245709,-8.169871,0.46571845,1.1687411,-0.28382614,1.2615414,-4.2953,17.790785,-25.297735,59.682053,5.912772,0.008564729,-4.2818666,-14.131315,-15.491358,55.099136,70.63244,2.7635324,1.0948405,1.5389651
10,-0.5081153512001038,-1.5284690856933594,79.58130645751953,-0.3566974531786772,6.3636401556227495,88.52229593031187,-2.0535042,3.5208614,3.031097,6.9432425,-9.609109,-4.0832677,-4.9661565,-0.855024,2.9842148,9.213531,-8.174399,0.48407724,1.1893682,-0.27464938,1.291589,-4.4268303,17.75885,-25.494196,59.767643,5.836167,-0.1767341,-4.403836,-14.131369,-15.499321,55.422867,70.75885,2.8177602,1.0566449,1.596928
11,-0.5288424491882324,-1.515708327293396,79.57913970947266,-0.35001560645118185,6.431194290426316,88.54616083424692,-2.1270118,3.492756,3.0165126,6.942591,-9.6192665,-4.062489,-5.0138254,-0.8865145,2.9666593,9.180234,-8.177352,0.50318146,1.2146444,-0.27021,1.3270588,-4.569946,17.740423,-25.695086,59.84384,5.753935,-0.3823045,-4.5068164,-14.150525,-15.502785,55.745514,70.90951,2.8645234,1.0054445,1.6769559
12,-0.5480154156684875,-1.5093300342559814,79.5772705078125,-0.3433769582558609,6.492762879325913,88.57320389576329,-2.1942341,3.462826,2.9962516,6.941773,-9.628539,-4.0414557,-5.053817,-0.9194384,2.9457798,9.145532,-8.177937,0.52714574,1.2289014,-0.26026577,1.3668386,-4.736508,17.718346,-25.912561,59.928234,5.6315002,-0.5808319,-4.487035,-14.203584,-15.504979,56.106907,71.1014,2.9296796,0.93086094,1.7531079
13,-0.5705081224441528,-1.4994136095046997,79.57426452636719,-0.3380447839169155,6.543041978133132,88.6028049763337,-2.2488112,3.4306831,2.9689271,6.940548,-9.637644,-4.0212183,-5.079398,-0.9537003,2.921733,9.108525,-8.17589,0.55882305,1.2455158,-0.25196525,1.4276547,-4.9226723,17.700829,-26.148188,60.0074,5.4093957,-0.7711793,-4.3291206,-14.280059,-15.506769,56.45383,71.32501,2.9976892,0.8273338,1.8484856
14,-0.5959353446960449,-1.489479660987854,79.57148742675781,-0.3339226857451883,6.587570475741218,88.6338528615253,-2.2964451,3.3969457,2.9373636,6.9391227,-9.647034,-4.001302,-5.098679,-0.988932,2.8960516,9.072784,-8.173193,0.59551007,1.2617565,-0.24203835,1.4950328,-5.1270795,17.680534,-26.404829,60.09377,5.113768,-0.96768045,-4.0792747,-14.375778,-15.508647,56.814922,71.57982,3.083761,0.7016156,1.9648532
15,-0.6230462789535522,-1.4786999225616455,79.56938171386719,-0.3298634223189335,6.63330773488771,88.66811450621918,-2.3477335,3.3619475,2.9030113,6.9393,-9.654885,-3.9797692,-5.120727,-1.0252209,2.86747,9.039813,-8.169959,0.6326606,1.2825896,-0.23390086,1.5699565,-5.373344,17.667654,-26.670996,60.18071,4.8883862,-1.1621798,-3.7524476,-14.509203,-15.512383,57.18278,71.864624,3.1432786,0.56097996,2.0564077
16,-0.6528576016426086,-1.4703370332717896,79.5680160522461,-0.32383153291457756,6.687871279050158,88.7073321864037,-2.4110372,3.3253517,2.8673255,6.938169,-9.657117,-3.9545486,-5.1528673,-1.0634712,2.8349333,9.006464,-8.163794,0.6659394,1.2974439,-0.2216606,1.633465,-5.679523,17.657282,-26.950487,60.28046,4.8540325,-1.3452008,-3.35271,-14.69818,-15.5202465,57.612103,72.18825,3.1727273,0.4131508,2.0723426
17,-0.6824839115142822,-1.460041880607605,79.56795501708984,-0.3171597185328159,6.752084316231327,88.75561962164628,-2.4894023,3.2868729,2.8279157,6.937013,-9.653088,-3.9246953,-5.1985297,-1.1043097,2.7955883,8.977913,-8.156257,0.69344646,1.3063567,-0.21025683,1.6957604,-6.042743,17.656746,-27.236034,60.37135,5.149627,-1.5089148,-2.8819067,-14.945743,-15.5334215,58.09764,72.544785,3.157349,0.25461265,1.9794188
18,-0.7083092331886292,-1.4510102272033691,79.56748962402344,-0.3099142863602008,6.822500754487068,88.81081586783911,-2.5779908,3.2465777,2.7849004,6.935682,-9.644078,-3.891507,-5.2505183,-1.147286,2.7508614,8.9471445,-8.144042,0.71782196,1.3042423,-0.19782174,1.7578881,-6.446124,17.666836,-27.525627,60.44995,5.6695075,-1.6552474,-2.3344905,-15.244298,-15.553737,58.642975,72.92787,3.1194587,0.084000625,1.8099418
19,-0.7370794415473938,-1.446502923965454,79.56793975830078,-0.30155282659837496,6.899117142484306,88.86534577959398,-2.6738083,3.2054672,2.7436464,6.9338784,-9.632512,-3.8562076,-5.3111324,-1.191384,2.7063072,8.918531,-8.131851,0.7410777,1.3025541,-0.1849508,1.8204904,-6.9051576,17.69288,-27.809454,60.53417,6.2059803,-1.7903602,-1.7197244,-15.5987625,-15.582213,59.203484,73.336655,3.035975,-0.08977115,1.6193746
20,-0.7632524371147156,-1.4498757123947144,79.56832885742188,-0.2929249236698511,6.9822312331502845,88.91160701249767,-2.7751865,3.164248,2.7093542,6.932698,-9.620863,-3.8200967,-5.3781776,-1.2351925,2.6672816,8.885927,-8.118698,0.7651251,1.3034387,-0.17134908,1.8845664,-7.4200106,17.750769,-28.072989,60.624577,6.5459185,-1.9243685,-1.0487083,-16.013672,-15.628954,59.754482,73.7578,2.8960092,-0.2566407,1.462959
21,-0.7820513844490051,-1.4469950199127197,79.56889343261719,-0.28218259590918676,7.074999906673677,88.94574260979645,-2.8840926,3.122739,2.6857758,6.931046,-9.609458,-3.7829266,-5.4549246,-1.2792958,2.6359856,8.84778,-8.104662,0.7896956,1.3255129,-0.16143748,1.944784,-8.006316,17.83711,-28.324217,60.74083,6.563285,-2.0551608,-0.29298636,-16.486698,-15.687199,60.264355,74.196556,2.6320667,-0.3990223,1.3970872
22,-0.8126564025878906,-1.430788516998291,79.5673599243164,-0.2717033053898946,7.176358257874322,88.97238455698049,-3.0002067,3.0806935,2.6693485,6.928411,-9.597036,-3.744237,-5.5399227,-1.3237462,2.6092641,8.804011,-8.088481,0.8138743,1.3575567,-0.15418518,2.0033984,-8.650479,17.952715,-28.563797,60.865677,6.3937817,-2.1840713,0.5410492,-17.018036,-15.758294,60.761925,74.65266,2.2758596,-0.52688843,1.3779296
23,-0.8452663421630859,-1.43056058883667,79.56522369384766,-0.2606453725414447,7.279599974957141,88.99677497748735,-3.1190608,3.038614,2.6545424,6.926826,-9.583525,-3.7047315,-5.627686,-1.3679053,2.5847003,8.760235,-8.0714445,0.83915246,1.3929263,-0.14697978,2.0695155,-9.352016,18.100256,-28.805883,60.986443,6.216148,-2.3268783,1.3927206,-17.605232,-15.845174,61.2565,75.12357,1.9422617,-0.67365664,1.3098838
24,-0.8774080276489258,-1.4255646467208862,79.56370544433594,-0.25201105329771617,7.377698642352335,89.02410378643812,-3.2341132,2.997117,2.6357348,6.924829,-9.567415,-3.665263,-5.710349,-1.411135,2.5600457,8.716461,-8.051509,0.86674476,1.426051,-0.13747472,2.1527877,-10.110549,18.282747,-29.064987,61.089195,6.2097936,-2.493829,2.201736,-18.242163,-15.951771,61.752056,75.60196,1.740876,-0.8719802,1.0975913
25,-0.9076066017150879,-1.4197509288787842,79.56422424316406,-0.2455768145770033,7.472185524996472,89.05375980870696,-3.3471403,2.9591556,2.612734,6.922403,-9.548663,-3.628705,-5.788087,-1.4503192,2.5360992,8.669365,-8.026339,0.89763975,1.4599534,-0.12550122,2.2524598,-10.929801,18.502413,-29.352894,61.17466,6.4335165,-2.6804135,2.9620652,-18.925406,-16.081656,62.26521,76.09577,1.7109811,-1.1549975,0.69541514
26,-0.9397516250610352,-1.414337158203125,79.56391906738281,-0.24017083167949266,7.56552742503243,89.08362538559037,-3.4591827,2.923185,2.5882003,6.9176254,-9.526679,-3.593721,-5.8610015,-1.4869541,2.513636,8.613405,-7.9943466,0.93085444,1.4962103,-0.11291947,2.365445,-11.807417,18.759003,-29.660133,61.24462,6.7886257,-2.87896,3.7027678,-19.656479,-16.236475,62.78829,76.597855,1.7877285,-1.4977149,0.1621961
27,-0.9656697511672974,-1.4136368036270142,79.5633316040039,-0.23485694702655022,7.652964935260052,89.11669150932975,-3.5679781,2.8841069,2.5604377,6.917534,-9.505097,-3.5548089,-5.9319487,-1.5263697,2.4901564,8.566304,-7.9649997,0.964996,1.528053,-0.0999994,2.4973946,-12.737832,19.05124,-29.974625,61.29033,7.2145944,-3.0922556,4.417238,-20.438335,-16.41695,63.29568,77.0775,1.9320551,-1.8458306,-0.44041443
28,-0.9973201751708984,-1.416196346282959,79.56375122070312,-0.22575703986247922,7.729498427235529,89.15599615742325,-3.665924,2.8368554,2.527926,6.915764,-9.478947,-3.5065053,-5.9943457,-1.5732225,2.4627452,8.5290785,-7.9403753,0.9985833,1.5485848,-0.0865826,2.6528418,-13.713559,19.376947,-30.281109,61.302876,7.6547093,-3.3249714,5.098723,-21.273584,-16.623886,63.758827,77.50762,2.1027398,-2.1447196,-1.0512446
29,-1.039397120475769,-1.4099467992782593,79.56627655029297,-0.21253213588229578,7.791097441338893,89.20696998542789,-3.7482846,2.7778115,2.4862437,6.9133544,-9.450759,-3.4480443,-6.0433955,-1.6306206,2.4273024,8.504433,-7.9237185,1.029238,1.553773,-0.070966035,2.8340185,-14.738663,19.735426,-30.582663,61.285152,8.1208105,-3.5966678,5.7442937,-22.162706,-16.858276,64.1655,77.887726,2.3217828,-2.3743634,-1.6685345
30,-1.0813542604446411,-1.4087512493133545,79.56744384765625,-0.19627572153101464,7.841376580489438,89.26645278508472,-3.819985,2.710438,2.4375906,6.9118404,-9.420955,-3.3821092,-6.0836716,-1.6952562,2.3864467,8.491789,-7.9136643,1.058385,1.5488963,-0.0538999,3.0370517,-15.8162775,20.125784,-30.886452,61.241646,8.636847,-3.8980947,6.3588467,-23.102993,-17.121254,64.53393,78.22872,2.6009638,-2.5676699,-2.3194232
31,-1.122689962387085,-1.413431167602539,79.5704574584961,-0.1780476892784641,7.886766724485387,89.3245930822077,-3.8878694,2.639705,2.3905008,6.9109974,-9.387085,-3.308221,-6.122375,-1.7627076,2.3473861,8.482578,-7.9014707,1.090269,1.5408523,-0.038020775,3.257656,-16.942629,20.546019,-31.192915,61.170364,9.153215,-4.1928396,6.9466987,-24.09235,-17.413157,64.884674,78.5189,2.8891373,-2.7468607,-2.9867778
32,-1.1662286520004272,-1.4192842245101929,79.5735092163086,-0.16004981822556552,7.934284213848636,89.37150381789107,-3.958558,2.5703118,2.3535125,6.909368,-9.345536,-3.2259204,-6.166702,-1.8289243,2.3173568,8.468574,-7.8785496,1.129024,1.5366337,-0.025964994,3.4919174,-18.113787,20.993515,-31.500889,61.06893,9.621047,-4.445372,7.511145,-25.126009,-17.732508,65.22864,78.74358,3.1257236,-2.9323483,-3.654044
33,-1.2104054689407349,-1.4270703792572021,79.57862091064453,-0.1423157555099171,7.984328411207224,89.40210337448904,-4.0326867,2.5033917,2.3295386,6.9081607,-9.2955885,-3.1292582,-6.216215,-1.892565,2.2997293,8.443446,-7.8405848,1.1800379,1.540172,-0.018160356,3.7393496,-19.335173,21.466276,-31.803665,60.936287,10.028278,-4.6405387,8.027501,-26.208647,-18.077938,65.57493,78.899506,3.31822,-3.1154635,-4.30467
34,-1.2558188438415527,-1.4368196725845337,79.5848617553711,-0.12348185096040482,8.033744069788805,89.42247594439488,-4.10674,2.4362392,2.3138263,6.9064255,-9.238168,-3.0203393,-6.2707458,-1.9562335,2.2903643,8.419368,-7.7962966,1.2396522,1.5463407,-0.013056039,4.0002236,-20.60807,21.963531,-32.10661,60.77593,10.399218,-4.800837,8.501333,-27.339739,-18.448143,65.9105,78.994576,3.4831514,-3.2888608,-4.9513874
35,-1.3013883829116821,-1.4477285146713257,79.59097290039062,-0.1057971377040066,8.083546658884135,89.43952563617617,-4.1824117,2.3691704,2.3034067,6.9039254,-9.176164,-2.9106505,-6.326453,-2.019888,2.284244,8.3897915,-7.7423086,1.2982601,1.5508235,-0.009985535,4.272722,-21.923176,22.483189,-32.42534,60.59302,10.743049,-4.947585,8.98072,-28.516163,-18.842505,66.25002,79.03579,3.6127694,-3.4757054,-5.621788
36,-1.3437533378601074,-1.464987874031067,79.6003646850586,-0.08820752060931318,8.13462928988378,89.46022935185856,-4.262036,2.3018248,2.295146,6.902297,-9.11298,-2.811752,-6.388446,-2.0841072,2.2769496,8.368721,-7.6868052,1.3465775,1.5483817,-0.008655366,4.555063,-23.27009,23.022242,-32.772778,60.391594,11.070869,-5.1011677,9.514132,-29.732126,-19.260036,66.59322,79.02885,3.682701,-3.6983073,-6.343652
37,-1.3953375816345215,-1.4790220260620117,79.6082992553711,-0.07209382853774698,8.18648790785973,89.48823259249616,-4.3458285,2.2351687,2.2878466,6.8996596,-9.046269,-2.7284856,-6.4576936,-2.1488729,2.2657754,8.360258,-7.6306086,1.3783804,1.5358683,-0.0075762067,4.8464656,-24.655125,23.57892,-33.16697,60.175507,11.373623,-5.2704062,10.141216,-30.991917,-19.701517,66.94881,78.973816,3.6766803,-3.975549,-7.1329904
38,-1.4464789628982544,-1.493910551071167,79.61742401123047,-0.057080098179228066,8.238898954181076,89.51926181106262,-4.4324784,2.1685684,2.2832613,6.8952947,-8.974727,-2.654221,-6.53428,-2.214223,2.2537985,8.363185,-7.5733867,1.4000614,1.5170681,-0.007926571,5.14731,-26.083143,24.150623,-33.597866,59.94259,11.651175,-5.443176,10.826975,-32.297256,-20.167122,67.31831,78.86745,3.611969,-4.2892857,-7.972683
39,-1.496926188468933,-1.5176914930343628,79.6282730102539,-0.04265177072099512,8.292926520839414,89.54813245834258,-4.522668,2.1023612,2.282808,6.8923626,-8.902688,-2.5836687,-6.6120014,-2.2797153,2.2445607,8.359954,-7.5085015,1.4210236,1.4973038,-0.01085608,5.4567657,-27.546165,24.733187,-34.041862,59.692257,11.921336,-5.6081805,11.509039,-33.63966,-20.653553,67.6875,78.71308,3.512591,-4.6066403,-8.840691
40,-1.551635503768921,-1.5403985977172852,79.6377944946289,-0.028248349547435683,8.349803678255842,89.56967883847236,-4.614045,2.0350347,2.2884347,6.887876,-8.831551,-2.5111244,-6.6920915,-2.3459342,2.2421803,8.349613,-7.4382095,1.4506928,1.483038,-0.019364756,5.7737117,-29.032724,25.320354,-34.466156,59.4239,12.212002,-5.7541347,12.125064,-35.01784,-21.156391,68.08166,78.51857,3.4464445,-4.8978853,-9.714472
41,-1.6052887439727783,-1.5628447532653809,79.64924621582031,-0.011941545124594843,8.410024215746544,89.58302100569186,-4.7076716,1.9656289,2.3012226,6.8834667,-8.761389,-2.436177,-6.7759757,-2.4135842,2.2472088,8.332646,-7.3629904,1.4930383,1.4767436,-0.03464408,6.0972333,-30.556387,25.91014,-34.868282,59.142258,12.512731,-5.8701215,12.653914,-36.436096,-21.670782,68.51219,78.28267,3.4466019,-5.139706,-10.600442
42,-1.6603062152862549,-1.5845394134521484,79.6595458984375,0.005021660967257407,8.472824573424726,89.59075335900583,-4.8045344,1.8952535,2.319918,6.8793683,-8.690725,-2.36163,-6.8592453,-2.482473,2.2574573,8.301872,-7.2775884,1.5425692,1.4738773,-0.05460425,6.4265094,-32.11711,26.501945,-35.258747,58.84929,12.819887,-5.965493,13.130464,-37.894844,-22.19285,68.95864,78.008965,3.465656,-5.3546333,-11.506339
43,-1.7191386222839355,-1.6089961528778076,79.66947937011719,0.02043173613009196,8.537533922434017,89.59301283806896,-4.9022107,1.8258954,2.3428473,6.874511,-8.622364,-2.2863479,-6.9465322,-2.5499883,2.2733953,8.271962,-7.1907535,1.5942833,1.471098,-0.075401895,6.7596564,-33.69718,27.093908,-35.64837,58.55193,13.146789,-6.059595,13.5773945,-39.387375,-22.719671,69.40268,77.713745,3.4559062,-5.5804405,-12.411464
44,-1.7776211500167847,-1.632124900817871,79.67688751220703,0.03279054367592556,8.60322626580349,89.589834372979,-4.999669,1.7597271,2.3683193,6.870578,-8.560312,-2.209094,-7.036243,-2.6137834,2.2951357,8.242773,-7.10259,1.643161,1.4647821,-0.09214876,7.0949025,-35.281364,27.68387,-36.051434,58.258606,13.502684,-6.1714215,14.018116,-40.905575,-23.249105,69.818954,77.41431,3.3605711,-5.852788,-13.295763
45,-1.8373934030532837,-1.657092571258545,79.68511962890625,0.03918027742842968,8.668284083756705,89.58290903750029,-5.0943704,1.6967075,2.3924272,6.86745,-8.5073805,-2.1285615,-7.125494,-2.6732988,2.3217978,8.215261,-7.0148463,1.6874795,1.4509904,-0.10181986,7.430971,-36.869926,28.270292,-36.468025,57.97093,13.894621,-6.3155665,14.444635,-42.44598,-23.77998,70.17924,77.12634,3.1509666,-6.2097583,-14.167553
46,-1.905045509338379,-1.6753164529800415,79.69096374511719,0.04216650485497858,8.733545285266482,89.57166640928907,-5.185431,1.6352342,2.4174395,6.86027,-8.458881,-2.0454962,-7.216325,-2.7298806,2.3536644,8.189387,-6.9267035,1.7300962,1.4350586,-0.1070445,7.7680454,-38.48071,28.85359,-36.90872,57.692234,14.302187,-6.479142,14.8504095,-44.006065,-24.310026,70.474174,76.83936,2.8319001,-6.6187983,-15.03512
47,-1.9664949178695679,-1.697995662689209,79.69758605957031,0.04241635747352864,8.802438219849362,89.55271250974006,-5.2830954,1.5767242,2.4501157,6.861352,-8.416811,-1.9618754,-7.311274,-2.7833362,2.392252,8.1588125,-6.833166,1.7728777,1.4233581,-0.112671316,8.107687,-40.10584,29.43032,-37.36937,57.422066,14.725359,-6.638263,15.259991,-45.590378,-24.837929,70.745094,76.533325,2.4330168,-7.0095954,-15.878782
48,-2.0367674827575684,-1.721605896949768,79.70556640625,0.04201649017149474,8.878372050046277,89.52274920226019,-5.386043,1.5207145,2.4979322,6.8581004,-8.369305,-1.8796046,-7.4187284,-2.8348486,2.439743,8.128937,-6.7346263,1.8178723,1.417117,-0.12496305,8.454899,-41.707993,29.987623,-37.786728,57.141926,15.2182665,-6.7674704,15.695863,-47.19317,-25.358212,70.9673,76.18317,1.9184562,-7.308956,-16.678108
49,-2.1040329933166504,-1.743014931678772,79.71382141113281,0.038702361479509874,8.963824429527365,89.48005975539864,-5.498856,1.4714397,2.563566,6.8545814,-8.31764,-1.8028504,-7.531796,-2.8816688,2.4954703,8.07798,-6.617909,1.8639609,1.4262897,-0.13549584,8.8017235,-43.343903,30.532135,-38.263653,56.892906,15.702184,-6.858969,16.187553,-48.81722,-25.864864,71.13137,75.78623,1.2201211,-7.4490294,-17.389784
50,-2.166224241256714,-1.7740795612335205,79.72262573242188,0.032280463152423174,9.056403152167503,89.42665324505808,-5.618732,1.4272263,2.6428964,6.850226,-8.263542,-1.7294699,-7.6553493,-2.9244852,2.559176,8.024533,-6.4944453,1.9106115,1.4416621,-0.14784637,9.151017,-44.981728,31.056479,-38.734814,56.652985,16.235516,-6.923746,16.713375,-50.465347,-26.35562,71.2408,75.35903,0.37033346,-7.4821796,-18.035995
51,-2.2321243286132812,-1.8003480434417725,79.73056030273438,0.027378781119681592,9.152401097355678,89.36495811781911,-5.741852,1.3818144,2.7325366,6.8458276,-8.208043,-1.652008,-7.7858195,-2.9681828,2.6313944,7.970875,-6.368278,1.9606266,1.4645115,-0.1666201,9.505015,-46.623924,31.55716,-39.205235,56.423283,16.77535,-6.974574,17.230911,-52.1194,-26.829779,71.31292,74.93559,-0.4880176,-7.518482,-18.695036
52,-2.3076725006103516,-1.8273217678070068,79.73878479003906,0.0256730151290595,9.24836146795284,89.29727779758228,-5.8647575,1.3294986,2.8289099,6.841765,-8.151579,-1.5630505,-7.917338,-3.0172029,2.712419,7.9159155,-6.242624,2.016615,1.4994363,-0.19729733,9.866257,-48.27857,32.032047,-39.691463,56.206127,17.271025,-7.0258274,17.698387,-53.765232,-27.288363,71.382416,74.548996,-1.1945143,-7.669099,-19.448088
53,-2.379122018814087,-1.8552769422531128,79.74710083007812,0.031191921408682377,9.344266636701885,89.22335226306812,-5.9863873,1.2665858,2.93079,6.837403,-8.0949545,-1.4575768,-8.047636,-3.0740888,2.8046248,7.855386,-6.1165495,2.0811632,1.5314013,-0.24852197,10.235008,-49.901814,32.459805,-40.088696,55.984573,17.800571,-7.078379,18.091702,-55.39906,-27.742367,71.48017,74.19466,-1.6677829,-8.012636,-20.366297
54,-2.4504027366638184,-1.8807437419891357,79.75408172607422,0.04054532718947016,9.441575455772307,89.1423457800238,-6.1096206,1.1970339,3.0400174,6.8341393,-8.038061,-1.3403203,-8.182032,-3.1355383,2.906979,7.7951484,-5.9909472,2.1523933,1.6051086,-0.30538058,10.595496,-51.59996,32.868164,-40.640503,55.804462,18.171274,-7.1332946,18.448895,-57.005672,-28.19233,71.56023,73.88525,-2.013399,-8.474044,-21.392866
55,-2.532043695449829,-1.905536413192749,79.76232147216797,0.05091873033817098,9.53943997119134,89.05550991327387,-6.230376,1.1252987,3.1584632,6.8241744,-7.9752846,-1.2190049,-8.320338,-3.1987095,3.0151322,7.7374444,-5.8653827,2.225561,1.6720045,-0.36171556,10.964818,-53.293728,33.253403,-41.190563,55.63897,18.524353,-7.187143,18.789183,-58.599453,-28.637154,71.57003,73.56671,-2.3929684,-8.941841,-22.417118
56,-2.6093428134918213,-1.9425047636032104,79.77252197265625,0.05848036048926206,9.636723601527256,88.96412753508656,-6.356965,1.0567149,3.2876716,6.8253045,-7.915129,-1.1012707,-8.460633,-3.2604892,3.1243618,7.6782036,-5.735205,2.296194,1.7118919,-0.40599316,11.354698,-54.985798,33.62015,-41.732216,55.50455,18.874659,-7.240058,19.137003,-60.22194,-29.0665,71.551865,73.223724,-2.856191,-9.300891,-23.326286
57,-2.697173833847046,-1.96573007106781,79.77486419677734,0.06165388955893782,9.728232987450845,88.86891055709654,-6.476431,0.9922639,3.4266422,6.821638,-7.8486085,-0.98939884,-8.595244,-3.3204997,3.2321959,7.615768,-5.6009464,2.3603332,1.7047436,-0.4266949,11.773722,-56.685917,33.98084,-42.276608,55.412586,19.208076,-7.2976127,19.506107,-61.87929,-29.46763,71.45909,72.85071,-3.5179076,-9.514201,-24.105824
58,-2.7782037258148193,-2.001704692840576,79.78291320800781,0.06344481514327265,9.81599626043287,88.76908744250915,-6.591892,0.92955667,3.5748422,6.8170238,-7.779242,-0.87923837,-8.73284,-3.3800373,3.3417976,7.563695,-5.470287,2.4213967,1.6800684,-0.4348139,12.206906,-58.382473,34.353397,-42.86603,55.327152,19.486776,-7.36008,19.884258,-63.548664,-29.835163,71.29785,72.47788,-4.293264,-9.644869,-24.81021
59,-2.8551480770111084,-2.0458595752716064,79.79485321044922,0.06570702543788443,9.910641870940356,88.66361294456682,-6.716117,0.86654043,3.735338,6.8118715,-7.704921,-0.7689277,-8.876344,-3.4402661,3.4563556,7.499672,-5.328207,2.4859426,1.6365631,-0.44519842,12.647508,-60.067482,34.727726,-43.45541,55.24647,19.738148,-7.4151516,20.244526,-65.211555,-30.16517,71.0664,72.09867,-5.0838623,-9.7284355,-25.428024
60,-2.9413657188415527,-2.084723949432373,79.80709075927734,0.06848993317299483,10.022890062227212,88.5513785842215,-6.861524,0.8020999,3.9109278,6.8066506,-7.6241198,-0.656816,-9.034315,-3.5015824,3.579086,7.414039,-5.166297,2.560566,1.6038176,-0.4766587,13.077002,-61.757713,35.089493,-44.082077,55.178932,19.935406,-7.453675,20.568647,-66.899315,-30.461382,70.956505,71.74618,-5.5883126,-9.806189,-25.948315
61,-3.030350685119629,-2.128970146179199,79.81849670410156,0.07412535573488481,10.155557751678229,88.43295844646545,-7.0312686,0.73522234,4.1029744,6.7999854,-7.533632,-0.5402222,-9.213449,-3.5652387,3.7113564,7.313797,-4.989121,2.6515534,1.594922,-0.5277183,13.4801035,-63.41028,35.433804,-44.730133,55.095985,20.079657,-7.5037575,20.870794,-68.56429,-30.726772,70.85436,71.40737,-5.8698115,-9.88237,-26.340504
62,-3.1159849166870117,-2.171504259109497,79.83072662353516,0.08059494886099396,10.302779996554705,88.30867737468787,-7.218582,0.6671725,4.309745,6.792058,-7.4350057,-0.4209268,-9.403353,-3.6306894,3.8510191,7.1922555,-4.794502,2.753893,1.5916408,-0.5901583,13.872863,-65.06716,35.75529,-45.413944,55.035355,20.162003,-7.5606713,21.153864,-70.230125,-30.9625,70.7721,71.07694,-5.982772,-9.942418,-26.618074
63,-3.2001171112060547,-2.219125747680664,79.84376525878906,0.08769012720850608,10.461637104879053,88.17729819098064,-7.4187036,0.5999457,4.52928,6.781493,-7.332095,-0.30369782,-9.60502,-3.6953986,3.9972398,7.0577765,-4.5840793,2.8576448,1.5926951,-0.65727973,14.259697,-66.715294,36.050354,-46.099823,54.993,20.235613,-7.570453,21.395151,-71.87305,-31.1694,70.67184,70.77675,-6.0307794,-10.00054,-26.842026
64,-3.293159246444702,-2.261838436126709,79.8566665649414,0.09030047265874276,10.629477349300391,88.03741270074202,-7.6317883,0.5359489,4.7596717,6.7763243,-7.2336726,-0.19332993,-9.818335,-3.756708,4.1490645,6.9171195,-4.3596764,2.9527757,1.5890299,-0.72115254,14.650335,-68.403564,36.31549,-46.814434,55.007374,20.295055,-7.4778085,21.568142,-73.49772,-31.34715,70.57581,70.529076,-6.0646024,-10.069031,-27.071692
65,-3.3867645263671875,-2.3072588443756104,79.86947631835938,0.09055215651719656,10.80340620336619,87.88886197810518,-7.851034,0.4735752,5.0033007,6.768575,-7.136527,-0.09582668,-10.049218,-3.814658,4.3092537,6.788676,-4.1307063,3.030232,1.5980158,-0.79270893,15.043889,-70.02277,36.54781,-47.433273,54.98678,20.498468,-7.2273455,21.681683,-75.0913,-31.499182,70.48696,70.3445,-6.0873218,-10.161661,-27.36735
66,-3.477081298828125,-2.3557982444763184,79.88459777832031,0.08996177347736835,10.985489148670784,87.73223160751697,-8.079827,0.41332883,5.260043,6.7593174,-7.0387754,-0.0073387725,-10.3105135,-3.8688545,4.4781957,6.694658,-3.9098647,3.097517,1.6123673,-0.8670075,15.44088,-71.62644,36.747627,-48.0198,54.973118,20.757814,-6.86199,21.741356,-76.66661,-31.625017,70.40982,70.2055,-6.0660686,-10.267755,-27.681488
67,-3.5729029178619385,-2.4070122241973877,79.89745330810547,0.08453421808572696,11.180016593635395,87.56751424302615,-8.3228445,0.3583537,5.524581,6.750617,-6.9412704,0.08253359,-10.627743,-3.9157426,4.6527166,6.6811023,-3.7207954,3.1694717,1.6269946,-0.9380017,15.831096,-73.23632,36.914745,-48.613316,55.022858,20.981415,-6.4773407,21.731333,-78.22422,-31.72297,70.340355,70.10483,-5.9844184,-10.366171,-27.917114
68,-3.675144910812378,-2.4670207500457764,79.9117660522461,0.07126543328328516,11.390817262252728,87.3946943567312,-8.583143,0.31234014,5.791536,6.7419634,-6.8434677,0.18428782,-10.9654045,-3.9569345,4.825752,6.662635,-3.517207,3.2612565,1.640268,-1.0031649,16.201834,-74.83542,37.049374,-49.209587,55.168736,21.122843,-6.1693683,21.63859,-79.770134,-31.792313,70.29873,70.039635,-5.797349,-10.435997,-27.978039
69,-3.7756662368774414,-2.5200910568237305,79.9262466430664,0.05340441487881325,11.620140521683023,87.21798580456625,-8.864698,0.2716632,6.0605373,6.73329,-6.739825,0.30990958,-11.32908,-3.9986336,4.988312,6.644341,-3.2997594,3.37853,1.647184,-1.0656661,16.54896,-76.418655,37.15355,-49.796764,55.420345,21.155457,-6.012067,21.462532,-81.3127,-31.83284,70.2957,70.007866,-5.472566,-10.469971,-27.839663
70,-3.8765034675598145,-2.5724105834960938,79.93887329101562,0.033809655804112486,11.864431182585061,87.03711154199875,-9.163265,0.23357186,6.3338666,6.724606,-6.6326084,0.450841,-11.722047,-4.0414195,5.1461887,6.6421723,-3.0786524,3.5130556,1.6512662,-1.1200645,16.878275,-77.976715,37.21848,-50.350567,55.756817,21.131227,-5.9390073,21.21099,-82.85329,-31.84264,70.33813,70.02099,-5.028903,-10.477873,-27.552355
71,-3.9785032272338867,-2.625448703765869,79.9510726928711,0.0032751732388703655,12.120872368172929,86.84281782792957,-9.473131,0.2088834,6.610309,6.7171574,-6.5327244,0.5863719,-12.128472,-4.070872,5.315421,6.6336355,-2.845745,3.6583517,1.6624863,-1.1679972,17.195353,-79.51007,37.259823,-50.901012,56.158897,21.086466,-5.8327374,20.882418,-84.3612,-31.830353,70.37387,70.06655,-4.5366955,-10.464601,-27.134863
72,-4.087595462799072,-2.676677703857422,79.96122741699219,-0.04336503313905963,12.385414419186205,86.62696216643857,-9.7862215,0.20628011,6.888013,6.7089977,-6.4489765,0.696116,-12.540993,-4.0735254,5.51234,6.6187735,-2.606443,3.8084126,1.6914815,-1.1947192,17.504429,-80.99291,37.27965,-51.429527,56.598736,21.089575,-5.5784082,20.475084,-85.82444,-31.801805,70.402435,70.147804,-4.034582,-10.434563,-26.603962
73,-4.187567710876465,-2.7226459980010986,79.97341918945312,-0.11198391133782186,12.661982050262193,86.38137735487405,-10.105823,0.23428182,7.1675277,6.701543,-6.388035,0.76941246,-12.967289,-4.0376415,5.757302,6.599301,-2.3503015,3.9603348,1.7373053,-1.2365427,17.80143,-82.49854,37.270443,-52.05295,57.137444,21.10703,-5.1050835,19.971828,-87.22706,-31.721716,70.35532,70.28371,-3.5462487,-10.392849,-25.93579
74,-4.288686275482178,-2.772174835205078,79.98426818847656,-0.19948062720492402,12.949996476074526,86.11256228930733,-10.433341,0.2866325,7.4486785,6.694539,-6.343159,0.8191257,-13.407281,-3.9732702,6.0357537,6.5759144,-2.0801091,4.118377,1.7997409,-1.2412461,18.085014,-83.94965,37.226875,-52.628536,57.727745,21.181257,-4.4917164,19.375486,-88.59907,-31.60625,70.31195,70.48011,-3.0342913,-10.329489,-25.125933
75,-4.39136266708374,-2.808955192565918,79.99372863769531,-0.29314063123067385,13.23950656385499,85.83357962589878,-10.758447,0.34763938,7.730018,6.686822,-6.3064575,0.85979086,-13.845356,-3.9022982,6.3135524,6.5490503,-1.8191185,4.2871847,1.8718653,-1.2395649,18.36116,-85.357475,37.151596,-53.186306,58.376816,21.273502,-3.8363428,18.73031,-89.92767,-31.461172,70.27575,70.72227,-2.504786,-10.241374,-24.24322
76,-4.500333786010742,-2.8420050144195557,79.99945831298828,-0.3818262654362844,13.520655779246527,85.55774253232939,-11.073043,0.40076876,8.010441,6.6805696,-6.271479,0.90614384,-14.265828,-3.8467896,6.5568104,6.51843,-1.5898963,4.470933,1.9475013,-1.2451246,18.635466,-86.70892,37.043972,-53.71421,59.07724,21.362598,-3.2376807,18.07994,-91.205215,-31.292162,70.261536,71.00194,-1.9673215,-10.126254,-23.354618
77,-4.605423450469971,-2.873169422149658,80.0063705444336,-0.4718385979328866,13.794346143745617,85.28409400848027,-11.3784485,0.4514958,8.292171,6.673755,-6.233062,0.96131736,-14.672953,-3.7984037,6.779325,6.481968,-1.3631966,4.6558623,2.032945,-1.2492623,18.90954,-87.99851,36.90087,-54.199345,59.832138,21.473778,-2.6990094,17.42296,-92.43107,-31.105803,70.26988,71.31799,-1.4186333,-9.981745,-22.464382
78,-4.7092061042785645,-2.906768321990967,80.0155258178711,-0.5663057907233648,14.064297606263972,85.00702442554014,-11.677844,0.5042028,8.575365,6.6674166,-6.1969566,1.0179952,-15.072611,-3.7514398,6.9922185,6.439688,-1.137572,4.844626,2.1306512,-1.250091,19.180708,-89.23364,36.72128,-54.64906,60.646072,21.610378,-2.175753,16.740284,-93.60905,-30.906315,70.29647,71.66866,-0.85557616,-9.808262,-21.541502
79,-4.812488079071045,-2.9369070529937744,80.02197265625,-0.6462686840481093,14.326036395009776,84.73395940326864,-11.964983,0.5415523,8.855046,6.6608157,-6.167095,1.074728,-15.455447,-3.7293737,7.1560936,6.4077835,-0.98690754,5.063929,2.2285411,-1.2653787,19.449312,-90.42105,36.509876,-55.08219,61.509113,21.709925,-1.6930685,16.050005,-94.73218,-30.695417,70.337944,72.04343,-0.29554617,-9.608139,-20.601175
80,-4.91925048828125,-2.9582815170288086,80.0237808227539,-0.6998611416191255,14.575012802435072,84.47088250100028,-12.233822,0.5492462,9.126634,6.65391,-6.1476808,1.1303607,-15.8076315,-3.7529643,7.231466,6.391165,-0.9775771,5.340673,2.314332,-1.3123127,19.715881,-91.56338,36.276043,-55.513046,62.408146,21.715038,-1.2746589,15.370718,-95.79726,-30.472847,70.3938,72.4326,0.24489221,-9.384511,-19.657343
81,-5.013664722442627,-2.9729888439178467,80.01655578613281,-0.7201574402053103,14.808918389871875,84.21404777353793,-12.480208,0.5200138,9.395316,6.6467724,-6.1435037,1.1789664,-16.127642,-3.8237116,7.2438684,6.3794146,-1.1367306,5.6671777,2.3843012,-1.3998054,19.983622,-92.65909,36.028637,-55.93654,63.348274,21.572153,-0.93443847,14.691311,-96.8065,-30.236197,70.46623,72.837006,0.76603377,-9.129015,-18.700783
82,-5.104610919952393,-2.9860591888427734,80.00444030761719,-0.7159631103708554,15.0305297138392,83.9620623942957,-12.709166,0.46344608,9.661571,6.6401677,-6.1511393,1.2231547,-16.422022,-3.9304702,7.201137,6.3724627,-1.4232033,6.0344024,2.4425924,-1.5171198,20.25229,-93.702156,35.772896,-56.34485,64.32471,21.324415,-0.6535787,14.007527,-97.762276,-29.984758,70.55137,73.26035,1.2678779,-8.84342,-17.728075
83,-5.196805953979492,-2.9910807609558105,79.98968505859375,-0.691110903124807,15.242297984801793,83.7244382702031,-12.924491,0.38325188,9.916406,6.632733,-6.1639485,1.2752091,-16.67666,-4.083168,7.03852,6.367667,-1.7904661,6.468351,2.4893289,-1.657606,20.517992,-94.69669,35.513786,-56.762337,65.31051,21.04493,-0.40663955,13.34751,-98.66218,-29.72117,70.65526,73.69644,1.7573445,-8.545687,-16.762497
84,-5.290005207061768,-2.99074649810791,79.96672058105469,-0.650431666036448,15.446789303325664,83.51020039450243,-13.131215,0.28507373,10.150813,6.6256337,-6.1772203,1.3474663,-16.87846,-4.2900934,6.69096,6.363222,-2.1900306,6.9958053,2.5258877,-1.8126698,20.776894,-95.64938,35.255463,-57.21603,66.27918,20.80393,-0.17023571,12.739226,-99.50272,-29.451279,70.78336,74.13726,2.242269,-8.254346,-15.826717
85,-5.373668670654297,-2.986928701400757,79.93984985351562,-0.5797009484327286,15.639505767050107,83.3262668377854,-13.325015,0.15067889,10.361826,6.618152,-6.1888356,1.4533134,-17.032433,-4.5825253,6.092256,6.3568716,-2.6286337,7.724878,2.5464122,-1.9969563,21.035374,-96.56761,35.00176,-57.729656,67.23601,20.608625,0.06318993,12.193781,-100.283005,-29.180307,70.92756,74.576645,2.7251303,-7.969052,-14.909639
86,-5.447450637817383,-2.9769392013549805,79.91334533691406,-0.4807784068038461,15.821139681481633,83.16589122054404,-13.506527,-0.015640933,10.555055,6.611506,-6.202638,1.5827693,-17.142294,-4.94521,5.2897396,6.3503957,-3.1161776,8.611864,2.5530183,-2.2094867,21.293488,-97.44614,34.75495,-58.284275,68.18661,20.423407,0.27977663,11.694168,-101.005196,-28.911736,71.09303,75.01344,3.2075331,-7.6816206,-14.004263
87,-5.515606880187988,-2.9682376384735107,79.88636779785156,-0.3858931902397723,16.003362602004863,83.01690756727156,-13.686565,-0.1759954,10.734356,6.60529,-6.2190905,1.7132137,-17.193844,-5.31868,4.391063,6.3484654,-3.6147916,9.453425,2.5601676,-2.4179387,21.536938,-98.271385,34.51601,-58.84136,69.10229,20.254602,0.47032702,11.224985,-101.66754,-28.649483,71.28413,75.446144,3.6691685,-7.4001465,-13.13765
88,-5.578252792358398,-2.955899238586426,79.86514282226562,-0.3249722131281704,16.19802475673716,82.8669108455992,-13.876363,-0.29333225,10.904045,6.598992,-6.238301,1.8222438,-17.171469,-5.645283,3.507298,6.3519216,-4.0958915,10.043407,2.5822031,-2.5910058,21.751604,-99.031044,34.28525,-59.36391,69.95705,20.107695,0.62511325,10.7708,-102.27116,-28.398165,71.51612,75.87352,4.1008906,-7.133264,-12.336504
89,-5.637583255767822,-2.933291435241699,79.85074615478516,-0.3058616525264864,16.406643147607628,82.71408141067235,-14.079807,-0.35605654,11.063017,6.5970883,-6.2625213,1.9011726,-17.068676,-5.917118,2.6272352,6.3673973,-4.575512,10.301259,2.6236172,-2.719147,21.936121,-99.72598,34.06401,-59.857117,70.74525,19.977123,0.7326134,10.305184,-102.81516,-28.162497,71.79795,76.29356,4.503438,-6.8833456,-11.607275
90,-5.692545413970947,-2.907238245010376,79.83528900146484,-0.3140015798603456,16.62415037669087,82.56442282118905,-14.290439,-0.38565257,11.209691,6.597055,-6.290167,1.9630684,-16.892557,-6.1612587,1.7080597,6.3899927,-5.067889,10.343951,2.677684,-2.8191352,22.097553,-100.363335,33.853832,-60.3383,71.47931,19.858932,0.8007359,9.843277,-103.299065,-27.945724,72.1222,76.702675,4.883454,-6.6474648,-10.934677
91,-5.744664192199707,-2.8819754123687744,79.81907653808594,-0.3373811450624066,16.851226596612005,82.41769661000426,-14.507674,-0.39496112,11.347242,6.5976663,-6.3215094,2.0184813,-16.652132,-6.372593,0.8150301,6.4149747,-5.554317,10.258888,2.742056,-2.901461,22.234539,-100.937805,33.654903,-60.77965,72.161705,19.772064,0.8480425,9.432629,-103.72555,-27.749683,72.47808,77.097595,5.2379246,-6.4268413,-10.312654
92,-5.798334121704102,-2.848979949951172,79.8033447265625,-0.36359986951772644,17.088931909634532,82.27383195320273,-14.732348,-0.39704722,11.478774,6.59816,-6.3565598,2.077865,-16.360552,-6.5476103,0.013133039,6.4402847,-6.014542,10.133466,2.814319,-2.9752693,22.346075,-101.44561,33.466812,-61.157463,72.7975,19.730083,0.8907612,9.12163,-104.094826,-27.574253,72.8473,77.47625,5.556625,-6.2230597,-9.735166
93,-5.839731216430664,-2.807278871536255,79.78992462158203,-0.3926616516613312,17.336066949036876,82.1325235641373,-14.963346,-0.39185596,11.606453,6.5999126,-6.3974295,2.1489801,-16.011969,-6.68309,-0.6876249,6.4665136,-6.4638596,9.948419,2.8945937,-3.0408893,22.43294,-101.88081,33.289505,-61.460743,73.381386,19.787048,0.9626238,8.916249,-104.40672,-27.419516,73.2306,77.842094,5.8776627,-6.0254836,-9.088102
94,-5.871877670288086,-2.7659833431243896,79.78260803222656,-0.4400171502165497,17.5955889939558,81.99685378258313,-15.203891,-0.36291477,11.7199135,6.6021852,-6.4417343,2.2219303,-15.616542,-6.767406,-1.3233387,6.518687,-6.9202194,9.666272,2.9783156,-3.0839086,22.49557,-102.23979,33.149773,-61.70327,73.888084,19.916538,1.0448462,8.79238,-104.6598,-27.307135,73.63604,78.17024,6.1916704,-5.835868,-8.412437
95,-5.903597354888916,-2.718857765197754,79.77547454833984,-0.4974875744459354,17.86668269499471,81.86732806195629,-15.455538,-0.31908593,11.818441,6.60631,-6.48784,2.2868817,-15.181633,-6.8088126,-1.8893299,6.577629,-7.3375726,9.353674,3.0698159,-3.108492,22.52944,-102.54823,32.998245,-61.8985,74.37768,20.022915,1.0783894,8.756798,-104.86129,-27.19705,74.06611,78.50486,6.428715,-5.682473,-7.933732
96,-5.932647705078125,-2.656175374984741,79.76608276367188,-0.5630097221076827,18.150124364798437,81.74303582301691,-15.718939,-0.26548,11.900365,6.6119614,-6.5347004,2.3335295,-14.717148,-6.814274,-2.3828628,6.6281157,-7.671119,9.0776615,3.170052,-3.1208687,22.535482,-102.81192,32.854153,-62.06087,74.83723,20.005362,1.0074712,8.809286,-105.00749,-27.105042,74.50597,78.82561,6.51251,-5.5948157,-7.875894
97,-5.954675197601318,-2.5978569984436035,79.75524139404297,-0.6421339078096202,18.446583064735545,81.62219242972138,-16.001825,-0.19371045,11.961603,6.6335855,-6.5894036,2.3555734,-14.219107,-6.7841787,-2.814057,6.675253,-7.928227,8.832911,3.2814338,-3.1144583,22.513504,-103.02575,32.725548,-62.196846,75.26516,19.823133,0.820453,8.8502865,-105.08374,-27.038645,75.00211,79.133385,6.3921976,-5.5852294,-8.275276
98,-5.974976539611816,-2.529754400253296,79.740478515625,-0.7355615523049459,18.75347592377084,81.50735689426126,-16.29382,-0.10577804,12.002507,6.6555176,-6.6449227,2.35916,-13.67995,-6.7188997,-3.1816409,6.7184415,-8.122764,8.590526,3.3971486,-3.092812,22.466696,-103.18186,32.630424,-62.30001,75.64032,19.533548,0.54667646,8.908262,-105.0941,-27.005224,75.53429,79.417274,6.112055,-5.6358643,-9.019042
99,-5.989346504211426,-2.451840877532959,79.72657775878906,-0.8325673231735246,19.072622123498643,81.39853806763242,-16.597555,-0.011710527,12.031431,6.678126,-6.6996336,2.3548021,-13.122339,-6.624277,-3.4630778,6.7567773,-8.240312,8.38598,3.5143526,-3.0636578,22.392815,-103.29116,32.559414,-62.363148,75.96309,19.183853,0.1892588,9.18255,-105.07165,-26.993706,76.02647,79.66212,5.764779,-5.719036,-10.110835
100,-5.9971771240234375,-2.3766210079193115,79.71414947509766,-0.9233117626061257,19.405685990105297,81.29473704413229,-16.914803,0.079955935,12.057313,6.700017,-6.7514515,2.3529577,-12.568662,-6.503548,-3.6368814,6.788263,-8.265345,8.254642,3.6268413,-3.0414686,22.290504,-103.36234,32.516735,-62.38239,76.22259,18.826876,-0.25087047,9.870891,-105.04329,-26.99563,76.37725,79.84206,5.427262,-5.808223,-11.555728
101,-6.001274108886719,-2.302377462387085,79.7018814086914,-1.007619683551442,19.757141334913282,81.19815991108227,-17.249502,0.16588333,12.078378,6.721331,-6.7992606,2.3538885,-12.021655,-6.3503737,-3.6717784,6.8090286,-8.158971,8.22313,3.735455,-3.022256,22.152311,-103.37842,32.490414,-62.313942,76.44155,18.36181,-0.85760546,11.171284,-105.01622,-27.003286,76.569275,79.960304,5.1620793,-5.9229503,-13.507776
102,-5.998377323150635,-2.2255289554595947,79.68678283691406,-1.0887791347757971,20.12491357938906,81.10765758996072,-17.599167,0.2528271,12.091179,6.740933,-6.846011,2.3525004,-11.470372,-6.1658063,-3.588021,6.82036,-7.93975,8.267073,3.8548446,-2.97802,21.979408,-103.33308,32.46245,-62.13772,76.62197,17.83055,-1.6162283,12.931208,-104.97937,-27.02183,76.6853,80.040886,4.922094,-6.062902,-15.912362
103,-5.990381717681885,-2.1423964500427246,79.66683959960938,-1.1697159102331125,20.501637386715444,81.01772157764819,-17.95811,0.34224355,12.104346,6.762036,-6.891596,2.3517685,-10.917448,-5.9664426,-3.440212,6.827905,-7.678981,8.346032,3.972958,-2.9476156,21.784044,-103.28466,32.450264,-61.990208,76.74347,17.445538,-2.3661118,14.818711,-104.92761,-27.044176,76.71161,80.07788,4.610653,-6.1755056,-18.468159
104,-5.979237079620361,-2.055009365081787,79.65424346923828,-1.249830639471212,20.87993697136846,80.92283395641583,-18.319576,0.43603358,12.125864,6.7845592,-6.9354835,2.3548124,-10.36476,-5.7676597,-3.283688,6.835142,-7.44641,8.419208,4.0947485,-2.9237468,21.580332,-103.27465,32.451138,-61.94421,76.77977,17.42164,-2.9284105,16.517118,-104.87584,-27.058214,76.71949,80.094215,4.178129,-6.203693,-20.867498
105,-5.963023662567139,-1.974794864654541,79.63702392578125,-1.3303915901636703,21.265259684018798,80.82337588873794,-18.689932,0.53435695,12.156668,6.8093047,-6.9740663,2.3670084,-9.816964,-5.56639,-3.1140957,6.8405395,-7.2461424,8.485945,4.234441,-2.8840935,21.362244,-103.283905,32.469547,-61.964382,76.66505,17.918135,-3.1897383,17.97848,-104.80588,-27.10214,76.68416,80.046165,3.5668433,-6.099058,-23.075676
106,-5.94371223449707,-1.8938785791397095,79.6161880493164,-1.4109204294367061,21.65912129401602,80.72091881844418,-19.069677,0.63615936,12.193435,6.8345094,-7.0080476,2.3851025,-9.272379,-5.3569326,-2.907838,6.8433895,-7.045953,8.564886,4.375065,-2.8589497,21.130054,-103.32328,32.50774,-62.08074,76.4496,18.74522,-3.2454612,19.359398,-104.72363,-27.157358,76.57258,79.940025,2.834773,-5.8922787,-25.240852
107,-5.921041011810303,-1.8203785419464111,79.59440612792969,-1.4914017130841208,22.04934287810472,80.61382223278484,-19.445425,0.7410103,12.236354,6.862605,-7.0470505,2.3996894,-8.7205,-5.149666,-2.6938255,6.845186,-6.85979,8.643701,4.5155783,-2.8490884,20.89327,-103.38438,32.567593,-62.273563,76.1903,19.692516,-3.2236764,20.664625,-104.64764,-27.225796,76.476105,79.80705,2.0722375,-5.6444426,-27.32762
108,-5.893155097961426,-1.7376118898391724,79.5718994140625,-1.5699638960206148,22.423405922421004,80.50054874451534,-19.801994,0.8476268,12.285726,6.8936453,-7.10039,2.4014595,-8.151131,-4.9553547,-2.5010586,6.847496,-6.7011714,8.70988,4.6530185,-2.8620856,20.66865,-103.45742,32.68759,-62.53438,75.908516,20.547567,-3.2625177,21.89677,-104.59273,-27.349245,76.48235,79.633965,1.3706346,-5.422359,-29.302326
109,-5.858637809753418,-1.6595773696899414,79.54267120361328,-1.6482229320005697,22.77758438868009,80.3759928321277,-20.132793,0.95618725,12.346671,6.9270043,-7.1767817,2.3837693,-7.558457,-4.774517,-2.3266737,6.850194,-6.5840254,8.759204,4.8028817,-2.8771176,20.453989,-103.543945,32.832275,-62.84081,75.63354,21.30673,-3.3985019,23.06047,-104.571556,-27.485655,76.669716,79.48193,0.77765995,-5.2464857,-31.197563
110,-5.8219709396362305,-1.5705015659332275,79.50788116455078,-1.7254288853967066,23.118796490262476,80.24269150370253,-20.446362,1.0665222,12.41769,6.962593,-7.2694683,2.3532875,-6.9491153,-4.6020017,-2.159026,6.852784,-6.4975715,8.798407,4.9601064,-2.900475,20.2432,-103.648224,32.996925,-63.205475,75.34571,22.069021,-3.561107,24.154127,-104.57153,-27.63049,76.96709,79.33509,0.23100075,-5.0864143,-33.020767
111,-5.787161350250244,-1.498426914215088,79.47857666015625,-1.8013723550401044,23.450521419789748,80.11141465705852,-20.75318,1.1772242,12.488369,7.003464,-7.3638086,2.3209252,-6.331299,-4.4396253,-2.014985,6.854655,-6.4181523,8.83144,5.105751,-2.930041,20.035456,-103.75753,33.19335,-63.60336,75.050446,22.803041,-3.7378724,25.187778,-104.59884,-27.795582,77.33071,79.17953,-0.31073615,-4.940994,-34.695717
112,-5.737859725952148,-1.4302414655685425,79.4486312866211,-1.8727094960588597,23.776610550068245,79.99307006697586,-21.065372,1.2866642,12.548011,7.0550957,-7.4457912,2.2976413,-5.71504,-4.2900043,-1.9113176,6.8570123,-6.321768,8.862635,5.2223725,-2.9624448,19.827494,-103.86459,33.40964,-64.00488,74.77854,23.482033,-3.9179726,26.173351,-104.663315,-27.971981,77.72819,79.025566,-0.8806758,-4.809638,-36.145695
113,-5.6882100105285645,-1.379096269607544,79.41236877441406,-1.9401007985473102,24.10384950724802,79.89791996992845,-21.388462,1.3908705,12.5883875,7.1071796,-7.5018396,2.2874327,-5.1025114,-4.15601,-1.8687803,6.858774,-6.225292,8.880106,5.3005733,-2.9951339,19.615229,-103.961716,33.641754,-64.3929,74.54165,24.09626,-4.110639,27.127253,-104.76512,-28.15852,78.15477,78.87911,-1.5141898,-4.673957,-37.37363
114,-5.633975505828857,-1.3137253522872925,79.37354278564453,-2.0026724380748844,24.428809847806473,79.81859139166917,-21.721306,1.4925505,12.616164,7.1717257,-7.5472116,2.28435,-4.48919,-4.0359526,-1.873899,6.8605523,-6.1338997,8.88578,5.352031,-3.0301278,19.400406,-104.058495,33.888355,-64.78629,74.33042,24.661472,-4.320554,28.039536,-104.9005,-28.355198,78.62833,78.740326,-2.1866689,-4.5442314,-38.413784
115,-5.583193778991699,-1.2538132667541504,79.32720947265625,-2.065739585157529,24.73925748304827,79.73907918830135,-22.04422,1.5985798,12.64338,7.245214,-7.5937295,2.2838447,-3.8714023,-3.9231904,-1.8930256,6.8602815,-6.004422,8.904144,5.3901467,-3.0691507,19.189884,-104.172874,34.14883,-65.20887,74.14138,25.18841,-4.534739,28.8835,-105.06846,-28.560604,79.13986,78.60102,-2.8473191,-4.4637604,-39.236824
116,-5.547541618347168,-1.203452467918396,79.27342224121094,-2.1319300914396293,25.022989502386153,79.643558229967,-22.791222,1.8215013,12.667218,8.308849,-8.167654,2.276256,-3.2445834,-3.8112948,-1.8922523,6.8556356,-5.7939076,8.959708,5.427752,-3.1152902,18.99024,-104.32219,34.423183,-65.68835,73.96437,25.685389,-4.736176,29.629875,-105.26925,-28.772453,79.68321,78.45456,-3.443464,-4.4784846,-39.813572
117,-5.511162281036377,-1.1613439321517944,79.21017456054688,-2.2054220521162238,25.27371767168971,79.52695000493931,-23.62657,2.0877693,12.699347,9.651317,-8.895635,2.2658458,-2.5973377,-3.6983516,-1.878805,6.846879,-5.514567,9.063623,5.4657044,-3.1718972,18.804594,-104.523796,34.712936,-66.25171,73.79701,26.154613,-4.936495,30.240662,-105.514244,-28.990261,80.273895,78.30209,-3.9849405,-4.6234655,-40.084488
118,-5.426905155181885,-1.1124967336654663,79.14521789550781,-2.2854907284288273,25.497839664712746,79.39698812786958,-24.455755,2.372359,12.735469,11.046872,-9.655378,2.254861,-1.9340092,-3.583899,-1.8649018,6.834347,-5.1812806,9.200485,5.4977417,-3.233756,18.629969,-104.76508,35.017612,-66.878876,73.64109,26.59154,-5.14224,30.74062,-105.80062,-29.21351,80.91319,78.145515,-4.4889035,-4.8743596,-40.084858
119,-5.353342533111572,-1.0718578100204468,79.06983184814453,-2.373178014880589,25.702162913498793,79.25686802018389,-25.277025,2.6721697,12.771585,12.4723015,-10.431321,2.239088,-1.2746953,-3.4640963,-1.8238955,6.8163724,-4.7550044,9.356029,5.5261126,-3.2910275,18.463697,-105.0205,35.33325,-67.53221,73.4974,26.988796,-5.3293376,31.194721,-106.10874,-29.438292,81.56325,77.981926,-4.92926,-5.187281,-39.926758
120,-5.298458576202393,-1.0307066440582275,78.99237060546875,-2.4718801445195413,25.893487886269593,79.10958995968626,-26.080727,2.9815829,12.804632,13.887441,-11.202246,2.2144501,-0.6391178,-3.3347335,-1.7289271,6.7893615,-4.195534,9.516984,5.5535064,-3.334467,18.303005,-105.26586,35.653194,-68.17472,73.37164,27.337914,-5.4729447,31.667849,-106.41822,-29.658195,82.18547,77.81189,-5.2785225,-5.5161533,-39.72134
121,-5.249366760253906,-1.000029444694519,78.90666198730469,-2.5824364451400834,26.07337311406763,78.96185618468483,-26.868767,3.2996566,12.826947,15.288109,-11.9656315,2.1786778,-0.027577622,-3.1860359,-1.5647516,6.7544913,-3.4812965,9.660909,5.570544,-3.354903,18.143232,-105.498764,35.972588,-68.81975,73.27583,27.646576,-5.5585213,32.17378,-106.73342,-29.868538,82.79317,77.64003,-5.523808,-5.887341,-39.42887
122,-5.192406177520752,-0.9678833484649658,78.8155288696289,-2.7064887408510385,26.23725036713088,78.8091451645137,-27.647327,3.6301796,12.842351,16.70132,-12.736314,2.1334753,0.57007444,-3.0197363,-1.3471373,6.7118263,-2.6371531,9.804811,5.580597,-3.358216,17.987377,-105.732956,36.28888,-69.47909,73.21129,27.915417,-5.6032596,32.67892,-107.06041,-30.066605,83.39324,77.47223,-5.683638,-6.313871,-39.012203
123,-5.136066436767578,-0.944823145866394,78.71190643310547,-2.839183839374355,26.383092322822456,78.63783040817836,-28.41579,3.9769688,12.864427,18.139357,-13.521455,2.08066,1.1465983,-2.849263,-1.0951242,6.661869,-1.6969781,9.994853,5.604719,-3.3593702,17.842583,-105.96769,36.598473,-70.11357,73.172325,28.127361,-5.6294346,33.177334,-107.38728,-30.248604,83.953354,77.31219,-5.768201,-6.727254,-38.586185
124,-5.071242809295654,-0.9140425324440002,78.59609985351562,-2.976377282213345,26.509404932930696,78.43417536869053,-29.173792,4.3448787,12.906319,19.614286,-14.32769,2.0222077,1.6990155,-2.6879494,-0.82640284,6.5957103,-0.6899037,10.275591,5.6640334,-3.3729544,17.715538,-106.202324,36.89736,-70.6846,73.15416,28.264948,-5.6600223,33.66369,-107.702156,-30.409868,84.442825,77.16457,-5.7872195,-7.058665,-38.26581
125,-5.007882595062256,-0.8936564326286316,78.4729232788086,-3.11893376889297,26.609064659090738,78.18975030835806,-29.910978,4.7358193,12.977448,21.12857,-15.162459,1.9569283,2.2340786,-2.5378852,-0.52849084,6.5165997,0.39520475,10.694346,5.7676883,-3.4057314,17.611107,-106.43405,37.182682,-71.193794,73.165535,28.332056,-5.7146993,34.145676,-107.99822,-30.545902,84.85573,77.03061,-5.7285037,-7.3029413,-38.05987
126,-4.938684940338135,-0.8721218705177307,78.33544921875,-3.268216262651879,26.685387263094334,77.91251450284534,-30.633253,5.1493483,13.068809,22.68178,-16.020714,1.88406,2.752369,-2.3904243,-0.19105671,6.4241548,1.566363,11.21856,5.903947,-3.4488142,17.52336,-106.66429,37.45275,-71.65751,73.21184,28.335917,-5.778422,34.623436,-108.28253,-30.653942,85.205315,76.91465,-5.594514,-7.4920855,-37.913418
127,-4.871166706085205,-0.8584040403366089,78.18555450439453,-3.4281048899732753,26.751627918424234,77.61272418539096,-31.356283,5.586289,13.166643,24.26348,-16.890867,1.8063023,3.231232,-2.2432084,0.1640008,6.3262095,2.7797554,11.770458,6.063584,-3.4917731,17.443457,-106.89769,37.705288,-72.05779,73.283066,28.263603,-5.8238926,35.08049,-108.55977,-30.732315,85.48685,76.8243,-5.4179215,-7.6128173,-37.84702
128,-4.794186592102051,-0.8441298007965088,78.0216064453125,-3.6001484640882624,26.821512231119648,77.30108885287424,-32.097168,6.0466146,13.256328,25.864428,-17.759964,1.7264097,3.649316,-2.0953603,0.5106578,6.2259884,3.9953809,12.270999,6.2375455,-3.5243044,17.362228,-107.137596,37.938053,-72.37558,73.36372,28.102768,-5.8196096,35.498177,-108.834755,-30.780489,85.696495,76.767525,-5.2314982,-7.6524043,-37.88173
129,-4.724044322967529,-0.8431177735328674,77.84801483154297,-3.7904325532673178,26.896235621422196,76.97774421746362,-32.868153,6.5366254,13.331313,27.504492,-18.634766,1.64425,4.0036473,-1.9377778,0.87014735,6.1249375,5.213419,12.740692,6.4283156,-3.5397904,17.2758,-107.3768,38.14768,-72.59485,73.456024,27.81369,-5.7554827,35.861782,-109.10169,-30.797144,85.83892,76.74814,-5.0424047,-7.592601,-38.055904
130,-4.648386478424072,-0.8473031520843506,77.659912109375,-3.994472625167085,26.969595458790767,76.63782424530898,-33.65664,7.052913,13.399691,29.177683,-19.516483,1.5582405,4.3045874,-1.7758542,1.247631,6.019499,6.4529476,13.209556,6.6398234,-3.545411,17.18871,-107.61545,38.332382,-72.728874,73.56966,27.41461,-5.649738,36.185135,-109.358,-30.78119,85.91132,76.76469,-4.8355694,-7.446489,-38.347897
131,-4.563187599182129,-0.8716741800308228,77.4583969116211,-4.194381251058663,27.041939031498767,76.28615600422103,-34.456974,7.57794,13.470256,30.868786,-20.400345,1.4688097,4.5367856,-1.6389993,1.5861652,5.943415,7.6912894,13.608363,6.8626766,-3.5597203,17.10675,-107.86799,38.493244,-72.801544,73.70597,26.981674,-5.5171504,36.49405,-109.61696,-30.733982,85.91054,76.81336,-4.598125,-7.247349,-38.689365
132,-4.491035461425781,-0.8972160816192627,77.24405670166016,-4.392171521472006,27.115475571145932,75.92674593737415,-35.24417,8.103663,13.54261,32.521793,-21.263668,1.3763828,4.7001057,-1.5380762,1.8236325,5.8925996,8.928858,13.8647995,7.0894246,-3.5827801,17.032158,-108.15066,38.62826,-72.83857,73.867805,26.589664,-5.3721867,36.813946,-109.89104,-30.661934,85.82983,76.88687,-4.32218,-7.0283546,-39.01137
133,-4.409193992614746,-0.9292397499084473,77.0274429321289,-4.602046262012897,27.199019997672018,75.54981647645437,-36.024815,8.64348,13.614535,34.12988,-22.104712,1.279089,4.778815,-1.4799562,1.8966262,5.8441763,10.328783,13.928175,7.3222237,-3.6076617,16.956747,-108.46332,38.7509,-72.81928,74.04183,26.248766,-5.2153883,37.135204,-110.18165,-30.560225,85.63884,76.984795,-3.9935794,-6.7665253,-39.306393
134,-4.322696685791016,-0.9690137505531311,76.80440521240234,-4.82259931440768,27.2903507931327,75.1555629992158,-36.80494,9.196923,13.685125,35.709923,-22.92928,1.1775534,4.747831,-1.4565839,1.8452361,5.866057,11.81113,13.840283,7.5657616,-3.6341894,16.880259,-108.79903,38.856026,-72.73923,74.232506,25.921959,-5.039928,37.45001,-110.481125,-30.432882,85.34806,77.10772,-3.6213682,-6.4553556,-39.608444
135,-4.250386714935303,-1.0134027004241943,76.57072448730469,-5.023266967706605,27.376529739945582,74.76361965840209,-37.560444,9.730898,13.762035,37.24448,-23.728334,1.0767593,4.4264264,-1.4559216,1.7678581,6.440695,12.825565,13.666455,7.8059964,-3.68173,16.817244,-109.158195,38.94694,-72.65125,74.44305,25.612165,-4.8485355,37.783707,-110.79716,-30.284552,85.022705,77.254486,-3.223408,-6.1517777,-39.91035
136,-4.188087463378906,-1.0657938718795776,76.32904052734375,-5.174111845118796,27.44320822089676,74.39568332110224,-38.2691,10.213078,13.853488,38.724266,-24.496735,0.9821174,4.191843,-1.4851502,1.756747,6.8754086,13.440055,13.481942,8.028722,-3.7672307,16.784668,-109.540375,39.02863,-72.60515,74.67333,25.32319,-4.6437798,38.16112,-111.13357,-30.12288,84.72216,77.420105,-2.8194535,-5.9117203,-40.20423
137,-4.118592739105225,-1.1343249082565308,76.08226776123047,-5.25690304897648,27.48830439017636,74.056103516448,-38.913654,10.625847,13.974263,40.130127,-25.227566,0.8954559,4.063784,-1.5592196,1.8549457,7.1224737,13.533336,13.332409,8.233493,-3.9086993,16.79045,-109.94299,39.104023,-72.607574,74.911606,25.054245,-4.3940806,38.612705,-111.48819,-29.953714,84.43193,77.60019,-2.3999586,-5.746032,-40.5011
138,-4.040163516998291,-1.1921896934509277,75.83716583251953,-5.288820880756847,27.519165962680724,73.73570135037104,-39.51391,10.991374,14.117221,41.482918,-25.930386,0.8139553,3.9831364,-1.6735926,2.0061104,7.2646894,13.242543,13.167937,8.426839,-4.0918283,16.8264,-110.36674,39.174698,-72.63422,75.15586,24.802475,-4.108679,39.11708,-111.8592,-29.780655,84.13128,77.78939,-1.9566474,-5.625685,-40.80077
139,-3.9708197116851807,-1.2627743482589722,75.57416534423828,-5.29726375017104,27.534746599390242,73.43650448020406,-40.097843,11.334745,14.257426,42.82572,-26.621428,0.7361466,3.934899,-1.7905943,2.1623383,7.3871098,12.716544,12.921434,8.603577,-4.285051,16.885384,-110.81532,39.24449,-72.68769,75.41924,24.569567,-3.851497,39.620697,-112.2563,-29.609558,83.86902,77.98071,-1.523803,-5.5470476,-41.076546
140,-3.90425705909729,-1.3381447792053223,75.31131744384766,-5.308227966794084,27.534019913416305,73.16034902894808,-40.692825,11.680248,14.368952,44.19905,-27.315388,0.6608232,3.9044185,-1.8724147,2.2771947,7.573829,12.104983,12.527988,8.758784,-4.4568048,16.96011,-111.292725,39.319103,-72.77188,75.71219,24.357235,-3.6856587,40.069317,-112.690346,-29.448008,83.70216,78.16426,-1.1268152,-5.5050974,-41.301983
141,-3.829864501953125,-1.4231210947036743,75.03712463378906,-5.330108552986059,27.52197486090454,72.8985220859566,-41.31379,12.038879,14.453304,45.620102,-28.018482,0.58906823,3.860152,-1.9008114,2.3761933,7.8827176,11.413851,11.908176,8.895276,-4.604749,17.046373,-111.8062,39.40465,-72.88621,76.0402,24.182096,-3.6362157,40.457577,-113.17256,-29.304062,83.66969,78.32679,-0.76452124,-5.510928,-41.467705
142,-3.7802226543426514,-1.5278799533843994,74.74608612060547,-5.346318858800831,27.49760809269363,72.65349737059769,-41.943928,12.396063,14.519807,47.065292,-28.722273,0.52185196,3.8151538,-1.8936855,2.4769294,8.265559,10.574153,11.116171,9.015745,-4.741859,17.149672,-112.34965,39.504597,-73.026566,76.38496,24.039808,-3.6651511,40.810154,-113.69421,-29.18215,83.734146,78.46457,-0.42666116,-5.561211,-41.58766
143,-3.729543924331665,-1.6477806568145752,74.44412994384766,-5.35519987043041,27.45088477756288,72.44320705718397,-42.563072,12.737053,14.555117,48.51331,-29.419024,0.457974,3.8271332,-1.8702265,2.5192194,8.634315,9.627011,10.289849,9.114185,-4.8610396,17.278923,-112.90922,39.619236,-73.19166,76.72216,23.901993,-3.7409244,41.11753,-114.23525,-29.082575,83.839195,78.583084,-0.11935859,-5.628887,-41.67023
144,-3.6643056869506836,-1.7726542949676514,74.13371276855469,-5.350734893748523,27.3712064328459,72.28612790369556,-43.15134,13.046856,14.546948,49.94516,-30.100788,0.39600548,3.961403,-1.8543986,2.4402196,8.88562,8.614315,9.569627,9.183913,-4.9556518,17.442541,-113.47088,39.746418,-73.38051,77.030716,23.739157,-3.8324049,41.370564,-114.77501,-29.00245,83.92099,78.69292,0.14196189,-5.687733,-41.724274
145,-3.6119155883789062,-1.9016510248184204,73.82091522216797,-5.33865232074628,27.24425169037657,72.18441171058498,-43.701363,13.330522,14.486205,51.37354,-30.778715,0.33446905,4.2507625,-1.8517573,2.203971,8.995002,7.508985,9.000149,9.222848,-5.0175996,17.654093,-114.039566,39.884556,-73.59735,77.31764,23.552725,-3.948484,41.566776,-115.316246,-28.939217,83.9611,78.79641,0.34157726,-5.740166,-41.73695
146,-3.5532453060150146,-2.0214829444885254,73.50056457519531,-5.318621222006755,27.07946367274104,72.12923183748163,-44.22513,13.593205,14.382706,52.80578,-31.452671,0.2748378,4.669459,-1.8521831,1.8520925,8.987556,6.3103704,8.512362,9.233213,-5.054678,17.90497,-114.621376,40.032867,-73.84362,77.59224,23.353926,-4.099836,41.710854,-115.86812,-28.892162,83.9956,78.89018,0.49362373,-5.796736,-41.70902
147,-3.4842264652252197,-2.1484713554382324,73.18465423583984,-5.27786987330615,26.901627265078726,72.12144590676625,-44.728794,13.818898,14.255077,54.206154,-32.10317,0.2199956,5.157314,-1.8596175,1.4372977,8.913144,5.0534267,8.080154,9.215662,-5.0834746,18.170412,-115.20306,40.188972,-74.108406,77.83842,23.13255,-4.2580967,41.804016,-116.41665,-28.85986,84.03305,78.97887,0.62096506,-5.8435774,-41.67
148,-3.420962333679199,-2.2744548320770264,72.87519836425781,-5.206175545511001,26.735732367405753,72.16204548308032,-45.21924,13.991908,14.121431,55.54065,-32.710964,0.17251185,5.6538587,-1.8783478,1.0117856,8.820908,3.7735674,7.6765766,9.170945,-5.120516,18.426104,-115.77271,40.34936,-74.38422,78.04228,22.875715,-4.394962,41.847816,-116.94814,-28.840435,84.085175,79.0678,0.74933213,-5.8670382,-41.649017
149,-3.349255084991455,-2.388721466064453,72.55918884277344,-5.090468949838771,26.575720688544237,72.26621306243428,-45.689457,14.097831,13.982281,56.808453,-33.274967,0.13556264,6.179844,-1.918457,0.55705243,8.703179,2.4512477,7.3038735,9.089377,-5.1709814,18.676397,-116.327484,40.51043,-74.67033,78.19791,22.569519,-4.4901595,41.825256,-117.46161,-28.832499,84.15598,79.16177,0.8856553,-5.8574443,-41.649223
150,-3.2911784648895264,-2.507819652557373,72.25238037109375,-4.93853468160275,26.413173745867642,72.42672576806467,-46.13893,14.147999,13.833395,58.02582,-33.804016,0.107219286,6.760689,-1.9797089,0.057808097,8.529132,1.0796561,6.991448,8.97568,-5.22867,18.930004,-116.87499,40.67007,-74.97009,78.31775,22.22379,-4.5625153,41.74162,-117.96218,-28.835169,84.23946,79.25966,1.018166,-5.824315,-41.656586
151,-3.230027198791504,-2.626455068588257,71.95035552978516,-4.770538260463961,26.26914342359911,72.61142663919803,-46.58506,14.165744,13.684922,59.185997,-34.29706,0.082195155,7.3465314,-2.050075,-0.43317562,8.30792,-0.2822869,6.741434,8.850189,-5.2938156,19.167562,-117.41712,40.827335,-75.28095,78.416855,21.864456,-4.642782,41.632298,-118.45307,-28.847736,84.338806,79.35849,1.1413155,-5.7830153,-41.67445
152,-3.164745569229126,-2.7341907024383545,71.65553283691406,-4.605274672256797,26.16461001965716,72.78952709403912,-47.04473,14.174103,13.544846,60.279755,-34.74953,0.05504076,7.882734,-2.1141431,-0.8653891,8.05664,-1.576638,6.5416465,8.733663,-5.362793,19.370724,-117.95513,40.98241,-75.599266,78.50885,21.51672,-4.762017,41.532623,-118.93219,-28.86926,84.44424,79.45579,1.2404032,-5.7491035,-41.706444
153,-3.0857484340667725,-2.8367276191711426,71.37037658691406,-4.433838383577721,26.104683879308716,72.97356040676245,-47.521553,14.160255,13.410688,61.30131,-35.16322,0.025939599,8.36447,-2.170294,-1.2527479,7.7795568,-2.8166838,6.377223,8.619899,-5.4384494,19.533697,-118.49249,41.13576,-75.93707,78.59354,21.169254,-4.943779,41.424652,-119.40048,-28.899752,84.56995,79.56106,1.3196161,-5.7248716,-41.747375
154,-3.0257859230041504,-2.9357922077178955,71.09542846679688,-4.250779604062145,26.07852542835385,73.17320311540307,-48.007553,14.118475,13.279893,62.25796,-35.538986,-0.0027870955,8.814883,-2.2246444,-1.6174974,7.4708376,-4.022692,6.2510633,8.501709,-5.52087,19.666424,-119.02732,41.287167,-76.291695,78.66482,20.813686,-5.166126,41.29846,-119.85823,-28.939096,84.7137,79.67287,1.3822566,-5.7026944,-41.797264
155,-2.9671289920806885,-3.0294463634490967,70.83293914794922,-4.0812532551225384,26.082913508711016,73.3546877753156,-48.50224,14.083427,13.158554,63.159992,-35.875095,-0.03321126,9.216122,-2.2704067,-1.9234593,7.1456246,-5.153573,6.16475,8.39599,-5.601624,19.773535,-119.55265,41.43638,-76.63779,78.7293,20.482159,-5.393072,41.20028,-120.30665,-28.985931,84.85853,79.77255,1.4274524,-5.6833715,-41.86747
156,-2.913895606994629,-3.1226701736450195,70.58893585205078,-3.9507847832471596,26.114310905855557,73.48459883219714,-49.0067,14.089594,13.050584,64.02021,-36.172585,-0.06738706,9.550187,-2.3008678,-2.1346967,6.8189063,-6.16763,6.1173196,8.31902,-5.671661,19.85979,-120.06123,41.58344,-76.95211,78.79481,20.205767,-5.5894628,41.17738,-120.74901,-29.038063,84.99513,79.842896,1.4605765,-5.667663,-41.96906
157,-2.8639209270477295,-3.2133121490478516,70.36138916015625,-3.8592376843501293,26.1769007595514,73.56124269557208,-49.523605,14.133826,12.960234,64.8355,-36.427433,-0.1070428,9.682076,-2.3264713,-2.235454,6.761293,-7.1977262,6.109651,8.273032,-5.7302046,19.921455,-120.54888,41.728767,-77.23884,78.86225,19.989534,-5.7499037,41.237724,-121.18271,-29.094032,85.12157,79.88361,1.4789326,-5.666668,-42.106533
158,-2.8196372985839844,-3.304844617843628,70.15574645996094,-3.7956964191075016,26.2703043966626,73.60122319676512,-50.05121,14.201386,12.882011,65.6007,-36.641174,-0.15064527,9.703904,-2.3446019,-2.2512286,6.793193,-8.17352,6.1314235,8.248696,-5.7798223,19.958092,-121.019455,41.872944,-77.50712,78.92937,19.819155,-5.8926883,41.35822,-121.60828,-29.153128,85.245026,79.90528,1.4816614,-5.6765256,-42.273365
159,-2.77608060836792,-3.3851022720336914,69.96662902832031,-3.7738644129868955,26.38406134556153,73.59878154283793,-50.585274,14.311262,12.803744,66.3286,-36.81929,-0.19623363,9.672608,-2.3378396,-2.1961365,6.821685,-9.049375,6.1641507,8.24531,-5.8147125,19.980135,-121.47745,42.016514,-77.74022,78.99756,19.69613,-6.0182285,41.540504,-122.029,-29.213451,85.36398,79.90664,1.4759567,-5.6754713,-42.46497
160,-2.7400307655334473,-3.456662178039551,69.79141235351562,-3.8062871279517223,26.507735263086683,73.5479220883346,-51.120785,14.481025,12.7127695,67.02909,-36.964207,-0.2419325,9.602357,-2.289846,-2.082101,6.845917,-9.8282795,6.190673,8.2623,-5.82851,19.997593,-121.926544,42.160267,-77.91874,79.06825,19.623993,-6.1269064,41.785877,-122.44828,-29.272106,85.47641,79.88776,1.4685671,-5.64178,-42.67644
161,-2.7012763023376465,-3.5295653343200684,69.64114379882812,-3.9120224827875245,26.637573344788226,73.43708440626142,-51.659428,14.7310095,12.601996,67.709435,-37.07459,-0.28248245,9.490471,-2.186389,-1.8902814,6.866127,-10.495487,6.2077084,8.304725,-5.809566,20.015764,-122.366264,42.30497,-78.018745,79.14603,19.619696,-6.221329,42.11556,-122.87015,-29.326096,85.591675,79.84908,1.4641057,-5.5569315,-42.929432
162,-2.670665979385376,-3.5952401161193848,69.50232696533203,-4.080257123474399,26.77834478600962,73.27294208285659,-52.20247,15.045497,12.476861,68.36124,-37.148045,-0.32080755,9.33338,-2.0387728,-1.6220037,6.8808417,-11.05417,6.2195034,8.370478,-5.7622104,20.028551,-122.79338,42.451828,-78.05438,79.2286,19.677433,-6.299847,42.52247,-123.290565,-29.37352,85.7051,79.795135,1.456946,-5.4368544,-43.21901
163,-2.6335976123809814,-3.6707022190093994,69.3862075805664,-4.278062381646292,26.932578759668203,73.076813022685,-52.74538,15.388927,12.344933,68.97499,-37.19209,-0.3669173,9.139326,-1.8697774,-1.3184949,6.894599,-11.537504,6.223114,8.446251,-5.7081194,20.028622,-123.20894,42.60248,-78.06958,79.307884,19.7645,-6.3567085,42.965706,-123.707275,-29.413559,85.80677,79.730606,1.4452453,-5.3119993,-43.499527
164,-2.595095157623291,-3.7460219860076904,69.28231811523438,-4.47674038343381,27.103395489680445,72.86973005228253,-53.283485,15.725806,12.214774,69.54026,-37.21281,-0.43081853,8.919578,-1.7024385,-1.0210949,6.906727,-11.976724,6.217254,8.519869,-5.66959,20.008945,-123.61567,42.752613,-78.10849,79.38048,19.84846,-6.386853,43.404247,-124.11393,-29.44507,85.88146,79.661194,1.4269043,-5.2125235,-43.726284
165,-2.559584140777588,-3.8115479946136475,69.19263458251953,-4.683898152741458,27.29975405180256,72.64172288454616,-53.82616,16.06614,12.083681,70.0525,-37.20619,-0.52275467,8.65899,-1.527662,-0.7092086,6.916195,-12.36053,6.2016335,8.59025,-5.645586,19.960573,-124.00791,42.91646,-78.15575,79.43316,19.944864,-6.375093,43.860317,-124.51234,-29.469889,85.90442,79.570145,1.3832754,-5.145474,-43.88312
166,-2.5271823406219482,-3.867476463317871,69.113037109375,-4.911967421796318,27.516642216378628,72.38643332333879,-54.372456,16.421875,11.948061,70.51737,-37.17114,-0.63495904,8.358206,-1.3382156,-0.3716212,6.924462,-12.679639,6.1777306,8.664512,-5.627956,19.888897,-124.38977,43.074776,-78.20051,79.487366,20.06195,-6.32901,44.345127,-124.90225,-29.484713,85.88993,79.46657,1.3225068,-5.0955405,-43.995823
167,-2.4926586151123047,-3.9256792068481445,69.04058837890625,-5.1297465484210205,27.73721654777537,72.13063610737119,-54.901447,16.760862,11.818276,70.94237,-37.116493,-0.7504227,8.051514,-1.1612843,-0.06311922,6.930637,-12.964291,6.1484594,8.737442,-5.627788,19.811134,-124.77178,43.220955,-78.28904,79.546104,20.155901,-6.2768707,44.798706,-125.28265,-29.492294,85.87935,79.37455,1.2734874,-5.058113,-44.080616
168,-2.455136299133301,-3.9760167598724365,68.97573852539062,-5.306963858149513,27.945478497603073,71.9013985360969,-55.391624,17.051188,11.705453,71.33346,-37.051453,-0.8520816,7.770984,-1.0235984,0.16141604,6.9385943,-13.247472,6.1166563,8.788775,-5.658209,19.747868,-125.16146,43.41534,-78.47878,79.55398,20.175493,-6.24588,45.156757,-125.65773,-29.497242,85.90592,79.30169,1.2637808,-5.027146,-44.15388
169,-2.422232151031494,-4.024240970611572,68.91746520996094,-5.435021635891051,28.140478966542133,71.70043154019072,-55.835354,17.285795,11.616889,71.68591,-36.97728,-0.93312514,7.5206194,-0.93576413,0.28476363,6.9475865,-13.53041,6.0872416,8.831428,-5.723285,19.697897,-125.56516,43.61846,-78.798935,79.53954,20.106104,-6.246545,45.402504,-126.02212,-29.499115,85.981804,79.25979,1.2934927,-5.003096,-44.21675
170,-2.3833343982696533,-4.068722724914551,68.86305236816406,-5.531518785630062,28.330426348259465,71.51523742072611,-56.2446,17.48189,11.546302,71.99851,-36.887768,-1.0035912,7.2851877,-0.8822391,0.33712107,6.954701,-13.797224,6.058504,8.868097,-5.8175116,19.653337,-125.97966,43.822258,-79.21891,79.5111,19.973867,-6.26399,45.568947,-126.375824,-29.499458,86.08649,79.23565,1.3519027,-4.9881015,-44.26172
171,-2.3465957641601562,-4.103940963745117,68.81058502197266,-5.5992362705687135,28.513019667042222,71.35273259670511,-56.62687,17.64415,11.485814,72.282616,-36.78708,-1.0710808,7.0654945,-0.8512586,0.3359728,6.963374,-14.057421,6.023152,8.887438,-5.9324403,19.61916,-126.399216,44.04047,-79.6833,79.462326,19.80071,-6.2896624,45.674107,-126.72536,-29.499142,86.21502,79.225685,1.4438502,-4.981454,-44.291573
172,-2.3106844425201416,-4.1358819007873535,68.76122283935547,-5.645235745018261,28.68612437552579,71.2192788868155,-56.989902,17.776896,11.426851,72.54951,-36.678104,-1.1432186,6.8651333,-0.83058393,0.2986349,6.972349,-14.318219,5.973401,8.888426,-6.053543,19.598986,-126.81416,44.257393,-80.120804,79.41093,19.616201,-6.315193,45.739773,-127.07341,-29.498398,86.369484,79.23577,1.5751348,-4.982966,-44.308186
173,-2.274900197982788,-4.169887542724609,68.7198486328125,-5.66362345097584,28.846810682069005,71.12049805940102,-57.325787,17.87536,11.373291,72.79097,-36.558407,-1.2220296,6.6885524,-0.8234409,0.20789644,6.983539,-14.587246,5.8938923,8.86915,-6.1848865,19.5963,-127.22367,44.46695,-80.5342,79.36496,19.404171,-6.336827,45.759403,-127.41985,-29.498123,86.56663,79.2679,1.7680488,-4.9947977,-44.31441
174,-2.236097812652588,-4.202960014343262,68.6810302734375,-5.6533703376584326,28.997510962110113,71.05176327126782,-57.634193,17.93961,11.327918,73.00551,-36.428356,-1.3034682,6.5336156,-0.83415663,0.062228076,6.995027,-14.858229,5.7935367,8.835086,-6.3300467,19.607655,-127.63156,44.665573,-80.94873,79.32388,19.158945,-6.35911,45.72672,-127.763504,-29.499285,86.80425,79.32001,2.0135777,-5.0164475,-44.30789
175,-2.189364433288574,-4.231124401092529,68.63633728027344,-5.628231494685183,29.143425168018297,71.00501764373702,-57.93246,17.980888,11.280741,73.2108,-36.291817,-1.3857553,6.3905187,-0.85194427,-0.09844203,7.005884,-15.119525,5.700567,8.791763,-6.4774446,19.626814,-128.03822,44.8508,-81.335495,79.28751,18.922207,-6.387098,45.66225,-128.10368,-29.50233,87.05035,79.38943,2.2730954,-5.043267,-44.284542
176,-2.1601667404174805,-4.254945278167725,68.59445190429688,-5.601459203567968,29.28958446806543,70.97190173394216,-58.23798,18.01052,11.2215605,73.42528,-36.153362,-1.4694614,6.249704,-0.8663388,-0.23383191,7.0149384,-15.359621,5.6428585,8.744473,-6.614924,19.647427,-128.44254,45.021446,-81.6645,79.254745,18.735367,-6.4260535,45.58651,-128.44167,-29.5073,87.27924,79.474236,2.511976,-5.0706177,-44.239925
177,-2.136141300201416,-4.276175022125244,68.55123138427734,-5.567223545604406,29.43708342100475,70.95767700399549,-58.551758,18.019205,11.1492815,73.64876,-36.012474,-1.5535547,6.111024,-0.88282037,-0.34274185,7.0217776,-15.575988,5.637006,8.692659,-6.7470446,19.669199,-128.84209,45.16992,-81.914925,79.23041,18.619434,-6.483522,45.493095,-128.77748,-29.514154,87.48948,79.5825,2.7223577,-5.095767,-44.153023
178,-2.1037445068359375,-4.297419548034668,68.50711059570312,-5.52142682371417,29.583282702320613,70.96433792379696,-58.86429,18.00478,11.069276,73.870766,-35.86921,-1.6390657,5.9782386,-0.9043644,-0.44348174,7.027488,-15.774434,5.664766,8.634609,-6.877896,19.694649,-129.23708,45.296875,-82.10515,79.21627,18.549782,-6.5549316,45.37515,-129.11082,-29.523323,87.693886,79.71268,2.9223602,-5.121359,-44.03294
179,-2.068607807159424,-4.310826778411865,68.46395874023438,-5.481524173756328,29.727759169554073,70.97893637834858,-59.181694,17.989561,10.979933,74.10144,-35.722935,-1.7243838,5.8493614,-0.9166602,-0.5256438,7.0316997,-15.955948,5.7011304,8.579298,-6.994832,19.720526,-129.63028,45.385063,-82.26335,79.23244,18.499899,-6.6277094,45.25426,-129.43733,-29.53309,87.88679,79.85697,3.1155326,-5.152323,-43.92025
180,-2.0302648544311523,-4.3207478523254395,68.4205322265625,-5.465016293203788,29.87011293697043,70.98834666390945,-59.50964,17.995527,10.8794985,74.35035,-35.575394,-1.807931,5.7209773,-0.90593296,-0.5791259,7.0357013,-16.121561,5.72137,8.525478,-7.084549,19.747454,-130.02643,45.47422,-82.42642,79.24791,18.436195,-6.6876626,45.148563,-129.76196,-29.547174,88.064384,79.99176,3.3067343,-5.1923347,-43.855034
181,-2.0012834072113037,-4.330394268035889,68.37863159179688,-5.478759266061974,30.012275610411244,70.99163078747142,-59.85575,18.025967,10.76204,74.62279,-35.418587,-1.8940521,5.59092,-0.8661833,-0.6009297,7.039345,-16.269096,5.716481,8.483844,-7.1401663,19.76154,-130.40207,45.50498,-82.55156,79.313194,18.3765,-6.73257,45.069515,-130.06096,-29.553762,88.20609,80.13951,3.4810774,-5.2554784,-43.859303
182,-1.9835253953933716,-4.336853504180908,68.33745574951172,-5.512356788970536,30.153119669920944,70.99518878585647,-60.21526,18.069574,10.629406,74.91416,-35.254616,-1.9823161,5.461911,-0.8052923,-0.59687066,7.0428696,-16.399498,5.700167,8.427354,-7.1771283,19.794212,-130.82321,45.577316,-82.73926,79.35191,18.255512,-6.7734895,44.983784,-130.388,-29.57484,88.37765,80.26888,3.7058642,-5.333607,-43.903515
183,-1.9640886783599854,-4.337495803833008,68.29074096679688,-5.5612475553173395,30.290287754770805,70.99482125291597,-60.57368,18.126707,10.4947605,75.2127,-35.09931,-2.063211,5.3359427,-0.73095787,-0.56881636,7.0449653,-16.51559,5.6825414,8.381928,-7.1913633,19.818413,-131.21611,45.62105,-82.88156,79.40741,18.176605,-6.802964,44.91842,-130.69429,-29.59071,88.503006,80.4031,3.8820045,-5.4054623,-43.9657
184,-1.9403986930847168,-4.334836483001709,68.2426528930664,-5.622250687768307,30.420165877373776,70.987143916786,-60.916424,18.197927,10.370259,75.508224,-34.96682,-2.12735,5.2161503,-0.64981884,-0.5189182,7.046647,-16.622501,5.6734157,8.341186,-7.1964364,19.85095,-131.61873,45.665222,-83.05192,79.4587,18.116703,-6.82232,44.864174,-131.00763,-29.610262,88.604965,80.521194,4.024817,-5.4468527,-44.017384
185,-1.9198514223098755,-4.3298468589782715,68.19441986083984,-5.704610432792393,30.542449484183443,70.96546924748974,-61.24906,18.292665,10.251616,75.807335,-34.859528,-2.1708894,5.0997133,-0.5550948,-0.43536392,7.048671,-16.719019,5.674799,8.307134,-7.187393,19.88983,-132.02876,45.712822,-83.24933,79.505806,18.101606,-6.829915,44.816696,-131.32489,-29.63452,88.64993,80.616295,4.103697,-5.44442,-44.048306
186,-1.9068771600723267,-4.3224687576293945,68.14962005615234,-5.807074834054668,30.658600551860296,70.9337254365703,-61.576557,18.407791,10.134143,76.11293,-34.769363,-2.1993096,4.986968,-0.4451227,-0.32147667,7.049288,-16.802692,5.6817513,8.278778,-7.160887,19.932215,-132.44029,45.757248,-83.45838,79.55403,18.121023,-6.8268027,44.778404,-131.6428,-29.659594,88.652336,80.69867,4.135951,-5.4132023,-44.074043
187,-1.901563048362732,-4.308381080627441,68.10070037841797,-5.909095615549227,30.7685798503533,70.90300231520004,-61.88243,18.52503,10.032132,76.40761,-34.70003,-2.2165856,4.8835206,-0.33753043,-0.200916,7.049455,-16.878685,5.6939583,8.248508,-7.134813,19.979326,-132.85486,45.799168,-83.686516,79.596504,18.134878,-6.8158193,44.76022,-131.95944,-29.686018,88.64643,80.774635,4.152439,-5.3722367,-44.108974
188,-1.8923826217651367,-4.291530132293701,68.05106353759766,-5.992906104931905,30.872458131207434,70.88455638644747,-62.14985,18.626179,9.959767,76.673225,-34.657013,-2.226226,4.7941647,-0.24904856,-0.09755344,7.04933,-16.950808,5.711007,8.224702,-7.1094427,20.027407,-133.24574,45.823936,-83.888374,79.63248,18.125755,-6.7978363,44.78186,-132.26741,-29.703863,88.686424,80.86808,4.1843286,-5.340888,-44.16523
189,-1.8799083232879639,-4.266746520996094,68.00077056884766,-6.056147958524507,30.963700115341805,70.87630759798911,-62.36561,18.716412,9.9274435,76.90638,-34.648197,-2.2239861,4.72533,-0.18193361,-0.005261235,7.048679,-17.016148,5.7368956,8.172804,-7.1275992,20.09676,-133.68425,45.86519,-84.207184,79.64682,18.01124,-6.779139,44.845654,-132.58269,-29.738897,88.74849,80.937706,4.2479033,-5.3207135,-44.26131
190,-1.8735610246658325,-4.238138675689697,67.95448303222656,-6.107277491433602,31.04481473306267,70.87393258062411,-62.540672,18.80213,9.926243,77.11438,-34.668926,-2.2093368,4.670619,-0.12820637,0.0847485,7.049502,-17.07425,5.770593,8.131651,-7.1418605,20.172842,-134.10283,45.9012,-84.508675,79.64309,17.87396,-6.751995,44.958794,-132.89313,-29.774145,88.849144,81.01116,4.315317,-5.302317,-44.38161
191,-1.8695155382156372,-4.20402717590332,67.90927124023438,-6.1430054563864545,31.128210847482173,70.88586637325137,-62.69832,18.868843,9.938885,77.30362,-34.70498,-2.1919494,4.621999,-0.088774465,0.15249608,7.0500045,-17.133175,5.803464,8.070851,-7.1762533,20.247562,-134.5334,45.95288,-84.84191,79.61553,17.716566,-6.7195916,45.066837,-133.2017,-29.832035,88.94581,81.0576,4.3889327,-5.287869,-44.506325
192,-1.8649578094482422,-4.163811206817627,67.85958099365234,-6.159886151520772,31.22705828817068,70.92024847903532,-62.858986,18.90239,9.949526,77.47476,-34.740612,-2.1817377,4.56804,-0.06501076,0.17810063,7.0508776,-17.200186,5.8274407,8.004655,-7.205857,20.298067,-134.9276,45.99633,-85.10124,79.58071,17.609745,-6.6786942,45.1402,-133.49623,-29.88753,89.04572,81.11277,4.460582,-5.2808156,-44.609463
193,-1.8608763217926025,-4.117029666900635,67.8094482421875,-6.1509939904897895,31.347674611671884,70.98538784553536,-63.02718,18.893684,9.960544,77.62113,-34.772713,-2.1823285,4.50502,-0.06032641,0.14858389,7.052427,-17.280811,5.8379593,7.927824,-7.228194,20.309345,-135.26108,46.01081,-85.23037,79.55908,17.601974,-6.612588,45.172737,-133.76532,-29.90897,89.12761,81.20988,4.5094104,-5.2867417,-44.683746
194,-1.8587943315505981,-4.064099311828613,67.75971221923828,-6.120261296021694,31.48167730290439,71.07517410103421,-63.19127,18.853945,9.97814,77.744865,-34.811638,-2.1881967,4.438984,-0.07311947,0.07699091,7.054693,-17.369339,5.840397,7.8086424,-7.2892075,20.324059,-135.65685,46.05467,-85.44972,79.512245,17.559177,-6.534876,45.151917,-134.05562,-29.985834,89.20957,81.24709,4.5962677,-5.299376,-44.742622
195,-1.8597055673599243,-4.008851051330566,67.70735931396484,-6.077089185967401,31.621423149081803,71.1757732273774,-63.351414,18.790869,9.993882,77.859055,-34.853977,-2.1949682,4.3738675,-0.09756656,-0.016894279,7.0583224,-17.460333,5.8407774,7.7072268,-7.3263106,20.301498,-135.95584,46.06446,-85.532745,79.47727,17.587421,-6.46499,45.13658,-134.29971,-30.006195,89.27907,81.346794,4.6426597,-5.3163705,-44.796005
196,-1.8643461465835571,-3.948291778564453,67.65534210205078,-6.032208853586137,31.757259194678277,71.27408046965373,-63.505627,18.717138,9.997443,77.978294,-34.902805,-2.1986103,4.3170013,-0.12692639,-0.11356123,7.060115,-17.545385,5.844971,7.6097507,-7.369532,20.288967,-136.28345,46.081997,-85.71007,79.43276,17.530476,-6.444881,45.102455,-134.55424,-30.046284,89.398415,81.426704,4.7399216,-5.3279734,-44.848595
197,-1.8710445165634155,-3.8809337615966797,67.60169219970703,-5.983519731080606,31.888346530852132,71.37212062218381,-63.655304,18.62748,9.9828825,78.10479,-34.95628,-2.1946826,4.2688985,-0.16094169,-0.21605639,7.0641236,-17.62721,5.853375,7.5162845,-7.422731,20.271078,-136.60556,46.114513,-85.958115,79.36502,17.404932,-6.4977317,45.05773,-134.78737,-30.125248,89.51517,81.466354,4.8463416,-5.335561,-44.90387
198,-1.876180648803711,-3.8093008995056152,67.54339599609375,-5.9277216704567435,32.018875120517095,71.47535762900812,-63.80049,18.518663,9.956504,78.23121,-35.014706,-2.186491,4.2277193,-0.20251544,-0.33198407,7.0664153,-17.705694,5.863337,7.432648,-7.4703927,20.239513,-136.89473,46.14577,-86.20257,79.28638,17.25865,-6.598869,45.00561,-134.9978,-30.204573,89.63982,81.50842,4.9531794,-5.3428535,-44.955856
199,-1.882908821105957,-3.7270870208740234,67.4833984375,-5.870364083143751,32.14873066105613,71.57442394901929,-63.939056,18.402111,9.928787,78.35846,-35.078697,-2.1815922,4.18978,-0.2512387,-0.44887868,7.069312,-17.780909,5.8760347,7.356172,-7.521125,20.200993,-137.1673,46.182583,-86.44774,79.18865,17.10377,-6.703049,44.94631,-135.19424,-30.301422,89.76861,81.52912,5.0616674,-5.342408,-45.01451
200,-1.8957359790802002,-3.6405842304229736,67.42668914794922,-5.816094137332822,32.277861456188276,71.66015063518505,-64.06905,18.292915,9.909472,78.48834,-35.14725,-2.187901,4.1519456,-0.30650842,-0.5542227,7.070533,-17.848679,5.892792,7.295994,-7.562509,20.150341,-137.39815,46.20602,-86.63007,79.08849,16.985743,-6.7633657,44.893288,-135.37343,-30.365496,89.90537,81.575455,5.1583376,-5.3298573,-45.087475
201,-1.9100807905197144,-3.5530030727386475,67.37096405029297,-5.765016040100431,32.40736269724697,71.73395296257371,-64.190834,18.190022,9.901272,78.619125,-35.220108,-2.2047987,4.111016,-0.36802998,-0.6489454,7.0741553,-17.909782,5.91301,7.245758,-7.606594,20.094269,-137.60611,46.233578,-86.76984,78.95835,16.89681,-6.7590246,44.8376,-135.54106,-30.443586,90.04834,81.60209,5.2519016,-5.2982707,-45.18381
202,-1.9302676916122437,-3.4598560333251953,67.31399536132812,-5.714361599684017,32.537010269651695,71.79946927789734,-64.30554,18.087627,9.8990555,78.75098,-35.296722,-2.2290306,4.0704193,-0.43654203,-0.7382678,7.0759416,-17.962921,5.936348,7.2080913,-7.6466193,20.02749,-137.77852,46.25516,-86.86003,78.81336,16.83385,-6.7171807,44.78159,-135.69176,-30.507298,90.20111,81.64643,5.341342,-5.2599926,-45.295597
203,-1.9514451026916504,-3.3581244945526123,67.25443267822266,-5.667751998198383,32.66433164423207,71.85043738369218,-64.411026,17.99026,9.900486,78.88706,-35.379936,-2.2641501,4.032863,-0.51162297,-0.8161959,7.077702,-18.013092,5.96417,7.1841583,-7.6831923,19.953438,-137.92894,46.275265,-86.93417,78.66778,16.78109,-6.6659007,44.729774,-135.82927,-30.567116,90.35174,81.67746,5.419443,-5.209453,-45.412037
204,-1.9733577966690063,-3.2551016807556152,67.19435119628906,-5.6273116566014725,32.78695118864167,71.88116119367682,-64.504166,17.905416,9.9033985,79.030014,-35.471928,-2.3139322,3.999788,-0.59373134,-0.87705284,7.079323,-18.06238,5.998038,7.1741714,-7.718021,19.870447,-138.06204,46.29123,-87.01423,78.54224,16.733717,-6.63261,44.689037,-135.9507,-30.613804,90.475494,81.70342,5.4671187,-5.161136,-45.521526
205,-1.99806547164917,-3.1427409648895264,67.12909698486328,-5.593866885179241,32.90633916515856,71.8880126338347,-64.587296,17.833752,9.91046,79.18202,-35.56717,-2.375118,3.9681544,-0.6854865,-0.9154602,7.081227,-18.110851,6.0406246,7.185959,-7.7550306,19.78745,-138.19711,46.323307,-87.13306,78.40981,16.671227,-6.6247215,44.651443,-136.06735,-30.702635,90.57699,81.66373,5.4887004,-5.1012535,-45.6233
206,-2.0235679149627686,-3.0261218547821045,67.06465148925781,-5.565061414561859,33.02352306568638,71.87493452560852,-64.66122,17.772367,9.92173,79.34096,-35.66717,-2.4471474,3.93881,-0.78541374,-0.93593615,7.0825105,-18.157745,6.0902047,7.211532,-7.7898602,19.688295,-138.30026,46.34396,-87.24377,78.29904,16.624977,-6.628731,44.6243,-136.15773,-30.756992,90.639336,81.64076,5.467152,-5.036803,-45.724586
207,-2.0519566535949707,-2.9094223976135254,67.00129699707031,-5.543074228675435,33.1335409162815,71.84601255977398,-64.72041,17.718573,9.931398,79.504166,-35.78134,-2.5377817,3.917479,-0.88878596,-0.9465779,7.0839987,-18.203114,6.14193,7.2351856,-7.8398623,19.594372,-138.42365,46.38649,-87.400604,78.17985,16.56059,-6.6357713,44.597706,-136.24774,-30.864008,90.68391,81.54881,5.4437337,-4.97895,-45.821274
208,-2.081364870071411,-2.786349296569824,66.9331283569336,-5.5295884071706904,33.232420492870226,71.80484819485253,-64.759155,17.672483,9.933868,79.66982,-35.919144,-2.6549194,3.9106536,-0.9902179,-0.9551608,7.086377,-18.248333,6.1909657,7.262672,-7.8787985,19.496502,-138.52643,46.41017,-87.51963,78.10282,16.511433,-6.63818,44.59072,-136.3286,-30.923813,90.751816,81.50065,5.4388123,-4.9538755,-45.90531
209,-2.1075515747070312,-2.6555867195129395,66.85901641845703,-5.52551268540147,33.31594444439184,71.74608071205874,-64.76977,17.636026,9.92651,79.83499,-36.087025,-2.8138552,3.9232123,-1.0898494,-0.95990247,7.088545,-18.292423,6.238124,7.2874136,-7.9200726,19.402191,-138.63112,46.430412,-87.63767,78.05941,16.463406,-6.6321263,44.604134,-136.4066,-30.975725,90.83973,81.44535,5.4622607,-4.968591,-45.97372
210,-2.13848876953125,-2.521157741546631,66.78580474853516,-5.531009100742976,33.38748061534255,71.66922910391521,-64.757164,17.608725,9.913779,80.00157,-36.278553,-3.0057864,3.9504182,-1.1906371,-0.9578459,7.0904555,-18.334846,6.28559,7.3166833,-7.9682384,19.315144,-138.74603,46.463654,-87.77006,78.02098,16.408573,-6.621469,44.630352,-136.48602,-31.06558,90.941444,81.349464,5.5054307,-5.0189486,-46.029102
211,-2.166731119155884,-2.3902626037597656,66.70858001708984,-5.542939529695783,33.45328773659265,71.58769867942901,-64.73547,17.584764,9.897934,80.1745,-36.48481,-3.2024946,3.9869745,-1.2885911,-0.9556449,7.0923843,-18.377802,6.3291283,7.3461695,-8.009939,19.225086,-138.85071,46.4909,-87.88191,77.99987,16.359402,-6.6120596,44.661846,-136.55801,-31.14725,91.04579,81.260376,5.551807,-5.077273,-46.08074
212,-2.1994757652282715,-2.242419719696045,66.62686920166016,-5.555596647520548,33.519520266448104,71.51463474802932,-64.71834,17.560642,9.881538,80.35889,-36.698715,-3.375791,4.0280933,-1.3809158,-0.9597064,7.094563,-18.4239,6.364842,7.3650436,-8.043633,19.127916,-138.94818,46.507027,-87.97736,77.99463,16.308855,-6.610054,44.684994,-136.62386,-31.202621,91.142624,81.200554,5.5938196,-5.120313,-46.137875
213,-2.2241575717926025,-2.0993399620056152,66.54338836669922,-5.574857373848151,33.586688901375155,71.44938025555678,-64.70796,17.535387,9.856677,80.55328,-36.923626,-3.5288289,4.0721493,-1.4641123,-0.9741035,7.0978394,-18.476715,6.3843126,7.3728404,-8.069994,19.026716,-139.05106,46.52082,-88.07217,78.00052,16.237349,-6.6290164,44.69111,-136.68748,-31.26046,91.23377,81.14035,5.630884,-5.1330557,-46.209625
214,-2.2437756061553955,-1.9598997831344604,66.46057891845703,-5.598943571117359,33.651876612793814,71.38633180891665,-64.697334,17.510546,9.82491,80.75573,-37.159996,-3.6731787,4.1221747,-1.5406834,-0.9947096,7.1012735,-18.533787,6.3921165,7.373309,-8.091028,18.921913,-139.15517,46.530735,-88.16265,78.02089,16.153412,-6.6616845,44.68897,-136.747,-31.319574,91.32054,81.07856,5.6655164,-5.1305985,-46.28916
215,-2.2787253856658936,-1.809733510017395,66.37139892578125,-5.622119490418786,33.71613507258898,71.33102302973174,-64.68731,17.486263,9.802271,80.97065,-37.40071,-3.7930224,4.1787395,-1.616574,-1.0152388,7.1038275,-18.588163,6.403915,7.362446,-8.10649,18.802534,-139.22646,46.53218,-88.20472,78.04828,16.107273,-6.681174,44.692703,-136.78441,-31.33409,91.371666,81.063614,5.678338,-5.134838,-46.363766
216,-2.3133296966552734,-1.6504559516906738,66.2732925415039,-5.635366944022543,33.77970973519288,71.28891500503892,-64.67892,17.461338,9.804232,81.204445,-37.636402,-3.8727217,4.242112,-1.6973015,-1.0291871,7.1060147,-18.633255,6.4352884,7.348807,-8.125653,18.699268,-139.32442,46.53384,-88.270454,78.052956,16.059887,-6.666459,44.6935,-136.84496,-31.38121,91.45693,81.03572,5.742703,-5.1617446,-46.411995
217,-2.335402727127075,-1.4904348850250244,66.17554473876953,-5.636126770106457,33.8459960546145,71.2577777198747,-64.67385,17.443157,9.844282,81.46096,-37.866238,-3.8994746,4.3083005,-1.785495,-1.0317965,7.1081815,-18.667402,6.4940767,7.3285007,-8.151706,18.58177,-139.38351,46.532677,-88.27039,78.029495,16.094524,-6.5837183,44.708836,-136.88283,-31.416157,91.48631,81.03691,5.794368,-5.2279735,-46.426144
218,-2.3632121086120605,-1.3230661153793335,66.0741195678711,-5.6286665961998965,33.913551849449696,71.23605596491974,-64.6715,17.428658,9.910199,81.736465,-38.09444,-3.8845115,4.379605,-1.8775358,-1.0277351,7.108121,-18.69292,6.5706615,7.301426,-8.180687,18.459322,-139.42822,46.529545,-88.238976,77.9888,16.171797,-6.455851,44.729485,-136.91397,-31.445189,91.49364,81.05937,5.853197,-5.319799,-46.414806
219,-2.3973238468170166,-1.1596753597259521,65.97705078125,-5.614516038111348,33.97715756267697,71.23050801595836,-64.66798,17.40428,9.981075,82.022316,-38.318348,-3.8486035,4.4612412,-1.9716209,-1.0246255,7.10802,-18.71238,6.654752,7.26659,-8.20352,18.339396,-139.46564,46.524376,-88.19355,77.94108,16.258505,-6.331718,44.7528,-136.94034,-31.473438,91.50403,81.08917,5.913433,-5.4152265,-46.403683
220,-2.4367575645446777,-0.9867810606956482,65.87747955322266,-5.596296897395449,34.031578774952635,71.24670560931357,-64.66056,17.359015,10.035321,82.312874,-38.533916,-3.812999,4.5598826,-2.06529,-1.0294282,7.1081715,-18.72781,6.7358494,7.2055683,-8.219927,18.222776,-139.5032,46.52283,-88.17673,77.90058,16.316978,-6.259481,44.778355,-136.95657,-31.480207,91.518166,81.129005,5.960264,-5.4880443,-46.42208
221,-2.4766039848327637,-0.8105189800262451,65.7752456665039,-5.570093356433538,34.07127801175206,71.29505235656494,-64.64721,17.28496,10.067582,82.610245,-38.73966,-3.774612,4.683411,-2.158171,-1.0458118,7.108869,-18.740915,6.810223,7.1326075,-8.213153,18.125385,-139.5461,46.519222,-88.14313,77.86649,16.357815,-6.2727175,44.80195,-136.97824,-31.49439,91.59232,81.17339,6.01283,-5.5403886,-46.476704
222,-2.5166327953338623,-0.6295338869094849,65.6729507446289,-5.538695133757971,34.10055508842927,71.36930537351756,-64.63034,17.190022,10.088594,82.91637,-38.937634,-3.7249322,4.827944,-2.250525,-1.0694691,7.107716,-18.750021,6.8835335,7.10145,-8.150626,18.053097,-139.56215,46.504578,-88.01741,77.821846,16.397902,-6.337179,44.837616,-137.02263,-31.549936,91.819756,81.20814,6.123535,-5.576967,-46.54445
223,-2.5630195140838623,-0.4504793882369995,65.57451629638672,-5.502780570712462,34.12802077834445,71.45340765417353,-64.61162,17.083359,10.102574,83.22407,-39.13242,-3.676629,4.977672,-2.3439693,-1.097303,7.1081614,-18.75284,6.960479,7.053011,-8.097305,17.976149,-139.5811,46.486965,-87.93392,77.779106,16.418785,-6.404511,44.871258,-137.05266,-31.613993,91.99939,81.22365,6.20041,-5.6023817,-46.621742
224,-2.609750270843506,-0.2658331096172333,65.47208404541016,-5.4679524911039685,34.162218275464056,71.53120894749729,-64.592354,16.973396,10.113322,83.52461,-39.32664,-3.642304,5.1213384,-2.4396095,-1.1262225,7.106787,-18.744774,7.0453715,7.0005693,-8.052211,17.88652,-139.59917,46.47174,-87.91281,77.732346,16.409378,-6.4255176,44.90219,-137.0744,-31.66719,92.11252,81.225784,6.237582,-5.6179533,-46.68644
225,-2.6585795879364014,-0.079252690076828,65.37135314941406,-5.433319479807952,34.203899635307614,71.6025817114668,-64.575195,16.858917,10.117161,83.81954,-39.516747,-3.6288362,5.2575345,-2.5364065,-1.1549133,7.1053176,-18.726473,7.1415095,6.9607825,-8.003267,17.784246,-139.60423,46.457455,-87.95389,77.67085,16.355793,-6.374393,44.929684,-137.08768,-31.716873,92.159134,81.205986,6.228246,-5.613809,-46.72556
226,-2.7014811038970947,0.11598911136388779,65.2650146484375,-5.397901640918437,34.249051955615435,71.67459101082164,-64.558846,16.736517,10.113656,84.112305,-39.703728,-3.6282313,5.392797,-2.634446,-1.1850808,7.1029205,-18.699144,7.2457237,6.9319386,-7.935215,17.669226,-139.57452,46.454037,-87.99563,77.59086,16.290081,-6.2802043,44.961388,-137.08958,-31.728737,92.167786,81.20384,6.175868,-5.593654,-46.748898
227,-2.743889093399048,0.30882373452186584,65.1675033569336,-5.3625030476708755,34.29868517426236,71.74254141562345,-64.53871,16.611088,10.111158,84.39739,-39.894745,-3.6308994,5.522498,-2.735697,-1.2182273,7.1019597,-18.6629,7.3528905,6.873495,-7.917121,17.557348,-139.61473,46.43059,-88.18472,77.53555,16.1648,-6.1824956,44.97803,-137.09647,-31.815681,92.117386,81.11626,6.120393,-5.5733495,-46.783447
228,-2.7908217906951904,0.5047665238380432,65.06199645996094,-5.328941923995158,34.354724391239905,71.80141144336402,-64.51183,16.486507,10.11773,84.66912,-40.097748,-3.6269732,5.645813,-2.841839,-1.2558006,7.0989437,-18.616558,7.4575768,6.8301144,-7.8839555,17.433767,-139.62029,46.4151,-88.26954,77.482185,16.11004,-6.1065545,45.012978,-137.1007,-31.86976,92.103966,81.06659,6.071397,-5.5736794,-46.832424
229,-2.847384452819824,0.7081502079963684,64.96009826660156,-5.298218232323035,34.42062616623162,71.84906792099737,-64.482735,16.364721,10.133627,84.92837,-40.31077,-3.6148036,5.756931,-2.953375,-1.298879,7.0948334,-18.557825,7.561265,6.7813306,-7.8606005,17.300333,-139.63127,46.40018,-88.31386,77.44949,16.110315,-6.065266,45.06688,-137.1097,-31.92089,92.12101,81.02394,6.043811,-5.606314,-46.91652
230,-2.903931140899658,0.9190062880516052,64.85340881347656,-5.269984321790721,34.49484606907734,71.88905092037578,-64.45215,16.24178,10.154429,85.1768,-40.52969,-3.5992951,5.857268,-3.06891,-1.3468053,7.092508,-18.489195,7.6657925,6.7283635,-7.8395543,17.154392,-139.63504,46.392067,-88.32695,77.42543,16.150492,-6.0399413,45.136307,-137.11713,-31.948444,92.149,81.004684,6.018912,-5.661373,-47.02265
231,-2.9416351318359375,1.1175369024276733,64.75155639648438,-5.241312604141084,34.56950925693877,71.9224062457024,-64.40789,16.119167,10.183169,85.41273,-40.762745,-3.5807502,5.9586377,-3.188704,-1.3967652,7.088236,-18.413387,7.766588,6.6866155,-7.820766,17.01257,-139.64383,46.378284,-88.32231,77.4054,16.196497,-6.0222692,45.198254,-137.13104,-31.99649,92.188995,80.96195,6.0040555,-5.7135997,-47.121464
232,-2.994035482406616,1.3234206438064575,64.65388488769531,-5.209399298498692,34.63866848230161,71.9532933816099,-64.33977,15.994547,10.221509,85.632225,-41.01478,-3.559054,6.066992,-3.31268,-1.4483762,7.0857162,-18.336037,7.8592353,6.6526227,-7.8089685,16.873476,-139.64505,46.362835,-88.30396,77.37379,16.236292,-6.0017447,45.236088,-137.13512,-32.04742,92.19505,80.92173,5.9677534,-5.753099,-47.187504
233,-3.041635513305664,1.539515733718872,64.54840850830078,-5.17528418529701,34.69829231856336,71.97993088521102,-64.23925,15.867911,10.267859,85.83084,-41.294987,-3.5379684,6.1883616,-3.4410443,-1.500933,7.0830097,-18.25878,7.9396625,6.624423,-7.8012357,16.741161,-139.64032,46.352894,-88.26932,77.32751,16.26447,-5.9756327,45.239983,-137.1314,-32.079327,92.14907,80.891785,5.900469,-5.7650113,-47.206352
234,-3.0982513427734375,1.7491990327835083,64.4462661743164,-5.140053807891796,34.752874405153015,72.00179908595794,-64.11441,15.738998,10.321392,86.011444,-41.598278,-3.5160825,6.3164425,-3.5738258,-1.5554664,7.080318,-18.178545,8.011311,6.6029196,-7.8079944,16.608583,-139.6285,46.332775,-88.21453,77.27744,16.300774,-5.9477935,45.22177,-137.11201,-32.138332,92.042854,80.83464,5.794525,-5.7619395,-47.198723
235,-3.145143508911133,1.9666682481765747,64.34373474121094,-5.101032294953558,34.80689742738146,72.02224688447545,-63.977833,15.610695,10.386348,86.18417,-41.90657,-3.4869683,6.446161,-3.7109807,-1.6116542,7.077917,-18.093042,8.080528,6.5815306,-7.8233852,16.478275,-139.6229,46.309227,-88.17363,77.2274,16.321323,-5.924867,45.190662,-137.09224,-32.200043,91.94246,80.78017,5.700216,-5.7597675,-47.178356
236,-3.191833972930908,2.1894726753234863,64.24386596679688,-5.058428354952239,34.86462336836701,72.0444740780203,-63.841377,15.482654,10.467992,86.35484,-42.205837,-3.4436145,6.5716896,-3.8526654,-1.6690989,7.075857,-17.999561,8.153777,6.5531254,-7.8381777,16.34712,-139.62141,46.29847,-88.15969,77.172325,16.317202,-5.911651,45.159367,-137.08044,-32.226604,91.90383,80.76812,5.6550674,-5.7743273,-47.15995
237,-3.2391791343688965,2.4092512130737305,64.14239501953125,-5.010595115804669,34.9271063270014,72.07008047171217,-63.708874,15.359617,10.570078,86.530945,-42.49325,-3.3785067,6.693052,-3.9966922,-1.726904,7.072726,-17.900208,8.229056,6.5227003,-7.8685327,16.21122,-139.62592,46.27062,-88.19158,77.12398,16.283123,-5.9143677,45.125843,-137.06293,-32.29306,91.91518,80.737595,5.6536865,-5.814131,-47.151974
238,-3.290130615234375,2.6379520893096924,64.0401840209961,-4.959791640048231,34.9918980791485,72.09709473898361,-63.5731,15.238539,10.689056,86.704735,-42.777157,-3.297323,6.8121767,-4.14348,-1.7854832,7.0697207,-17.795149,8.304347,6.497125,-7.9032087,16.077877,-139.6385,46.235043,-88.253265,77.07667,16.217966,-5.9292607,45.08535,-137.05128,-32.37517,91.98671,80.70817,5.7006536,-5.8692856,-47.141354
239,-3.3474643230438232,2.8627235889434814,63.94136428833008,-4.904369650407452,35.058921530878074,72.12382467906671,-63.433334,15.115237,10.81692,86.87309,-43.05357,-3.212845,6.9290767,-4.2974844,-1.8468839,7.0666094,-17.67924,8.385312,6.4669924,-7.9412847,15.9443035,-139.65143,46.206642,-88.312584,77.028625,16.153738,-5.9432583,45.04558,-137.04185,-32.43849,92.07388,80.69957,5.7632327,-5.9250317,-47.128654
240,-3.399705410003662,3.0877573490142822,63.85068893432617,-4.842820282638055,35.127821055370035,72.1486215817441,-63.290127,14.983366,10.945477,87.033005,-43.316288,-3.1379182,7.0437355,-4.46276,-1.9130654,7.0619054,-17.545176,8.478064,6.44067,-7.9885626,15.815509,-139.67131,46.16573,-88.34604,76.99618,16.113586,-5.9440694,45.011696,-137.03847,-32.524353,92.152626,80.67134,5.8236346,-5.9646153,-47.114376
241,-3.451890230178833,3.3187026977539062,63.75314712524414,-4.773883623370989,35.1980906234505,72.17324187115481,-63.14323,14.84123,11.076229,87.185974,-43.561085,-3.07253,7.1568875,-4.6432443,-1.9851718,7.057063,-17.394026,8.588364,6.406728,-8.042573,15.688892,-139.69315,46.13042,-88.34264,76.97269,16.107458,-5.927214,44.98342,-137.03893,-32.590446,92.209724,80.657936,5.875335,-5.9789295,-47.0926
