unveil-humanoid-operators/unveil-humanoid-operators.github.io/feature-analysis-animation/data/feature_matrix_instances/gender_ankle_rom_walking_A178_walk_ff_stop_315_103__A178.csv
Frame,root_translateX,root_translateY,root_translateZ,root_rotateX,root_rotateY,root_rotateZ,left_hip_pitch_joint_dof,left_hip_roll_joint_dof,left_hip_yaw_joint_dof,left_knee_joint_dof,left_ankle_pitch_joint_dof,left_ankle_roll_joint_dof,right_hip_pitch_joint_dof,right_hip_roll_joint_dof,right_hip_yaw_joint_dof,right_knee_joint_dof,right_ankle_pitch_joint_dof,right_ankle_roll_joint_dof,waist_yaw_joint_dof,waist_roll_joint_dof,waist_pitch_joint_dof,left_shoulder_pitch_joint_dof,left_shoulder_roll_joint_dof,left_shoulder_yaw_joint_dof,left_elbow_joint_dof,left_wrist_roll_joint_dof,left_wrist_pitch_joint_dof,left_wrist_yaw_joint_dof,right_shoulder_pitch_joint_dof,right_shoulder_roll_joint_dof,right_shoulder_yaw_joint_dof,right_elbow_joint_dof,right_wrist_roll_joint_dof,right_wrist_pitch_joint_dof,right_wrist_yaw_joint_dof
0,2.391274929046631,1.432301640510559,75.00421142578125,6.256547613920387,-7.301174644295243,-167.2922682297489,16.66926,-9.473182,9.987735,7.711359,-18.304031,1.845438,-19.968504,-5.1378407,-11.681669,28.700832,-7.48042,15.000033,-11.082864,-13.777143,19.705292,-16.130062,21.960112,-29.162697,58.051975,19.00693,-7.8932157,16.91579,9.192561,-11.061507,24.332329,63.137875,-1.3800893,-3.395935,-4.64687
1,2.911510944366455,1.622252345085144,75.12615966796875,6.291393558556421,-7.377118679697082,-167.40351454875446,16.292248,-9.406151,10.179607,7.65834,-17.764233,1.823349,-20.484867,-6.210253,-12.067646,31.95162,-8.761341,15.000033,-10.798735,-13.833458,19.903936,-15.767827,21.81497,-28.262365,58.202053,18.876842,-7.791692,17.020554,8.644163,-11.189555,25.222422,63.05827,-1.5787377,-3.6159728,-4.6381903
2,3.408092737197876,1.8271955251693726,75.25140380859375,6.352204577676894,-7.467975613877372,-167.49097861497108,15.932103,-9.377665,10.342368,7.596464,-17.215763,1.8136064,-20.933046,-7.344193,-12.397328,35.070152,-10.016396,15.000033,-10.586895,-13.875832,20.095089,-15.456143,21.558372,-27.302698,58.446457,18.785109,-7.7166843,17.125086,8.13677,-11.404507,26.175928,62.923504,-1.7145531,-3.8400533,-4.6238513
3,3.8966760635375977,2.0525636672973633,75.37374877929688,6.417414401543895,-7.566654518590065,-167.56889500363576,15.584747,-9.354888,10.495017,7.534253,-16.674322,1.8068899,-21.27741,-8.513568,-12.684589,38.09836,-11.221943,15.000033,-10.384507,-13.889709,20.268757,-15.147735,21.223463,-26.353512,58.727734,18.698977,-7.6059394,17.261389,7.6692705,-11.674385,27.110975,62.740326,-1.9015526,-4.038502,-4.592888
4,4.373042106628418,2.282118797302246,75.49146270751953,6.468908245534407,-7.667522847061357,-167.6499789660188,15.251313,-9.308091,10.653111,7.4728217,-16.152086,1.7936068,-21.477077,-9.697969,-12.940982,41.073845,-12.35424,15.000033,-10.176051,-13.866327,20.402401,-14.765154,20.836802,-25.422445,58.98202,18.60577,-7.400521,17.46072,7.2132454,-11.980572,28.001043,62.53466,-2.235929,-4.1808105,-4.5384603
5,4.848121643066406,2.510748863220215,75.60518646240234,6.4951689791616,-7.770390898468966,-167.7400294054768,14.93637,-9.221552,10.827279,7.4092307,-15.649291,1.7775779,-21.517967,-10.938094,-13.240327,44.057545,-13.431109,15.000033,-9.958734,-13.806501,20.494112,-14.265036,20.410503,-24.452257,59.173943,18.5301,-7.040259,17.758623,6.744134,-12.312353,28.861609,62.32545,-2.7895374,-4.2539396,-4.4469585
6,5.306283950805664,2.7611136436462402,75.72046661376953,6.405460077772712,-7.814233713563873,-168.00539100093198,14.568438,-8.941462,11.1929245,7.3925166,-15.201625,1.701213,-21.461605,-11.952011,-13.711498,46.877716,-14.365148,13.617245,-9.575002,-13.611947,20.53748,-13.684342,19.957779,-23.455435,59.317944,18.463594,-6.5711775,18.12631,6.263905,-12.658302,29.70525,62.111313,-3.4977574,-4.277747,-4.3299594
7,5.780202388763428,3.019697427749634,75.82262420654297,6.31404157683134,-7.856423708508119,-168.26651599937756,14.204095,-8.647642,11.547917,7.379551,-14.769424,1.6076372,-21.311022,-12.943821,-14.078224,49.618168,-15.251318,12.162966,-9.197077,-13.405743,20.547321,-13.052675,19.498373,-22.536076,59.41566,18.346764,-6.092683,18.496855,5.787103,-13.012766,30.497698,61.887062,-4.2555966,-4.2720013,-4.2141967
8,6.237056732177734,3.2780144214630127,75.92362213134766,6.245085883334916,-7.90117830423342,-168.49935053460706,13.846561,-8.37519,11.857269,7.3611217,-14.348065,1.4896144,-21.092953,-13.843723,-14.171897,52.204666,-16.055946,10.909471,-8.840618,-13.206997,20.527296,-12.398617,19.05825,-21.803326,59.47029,18.122295,-5.705179,18.805134,5.3386893,-13.369026,31.199333,61.629482,-4.9592466,-4.249477,-4.126271
9,6.699192523956299,3.5493836402893066,76.0120620727539,6.198264548696535,-7.949798158157399,-168.7015737691397,13.495285,-8.122798,12.1084585,7.3376865,-13.937134,1.3329349,-20.83402,-14.596819,-13.927036,54.655445,-16.739044,9.912332,-8.50536,-13.019852,20.476528,-11.700613,18.656021,-21.27547,59.453953,17.7192,-5.414701,19.047922,4.919954,-13.721184,31.796244,61.335274,-5.6302357,-4.195102,-4.0631833
10,7.141788482666016,3.8287558555603027,76.09515380859375,6.1616700011607355,-7.999162842727687,-168.88581561384922,13.150456,-7.874407,12.321733,7.3086066,-13.536871,1.1450373,-20.52792,-15.237439,-13.446885,57.009754,-17.318651,9.095577,-8.180023,-12.840224,20.397264,-10.936532,18.296864,-20.898207,59.355278,17.182714,-5.1754136,19.252636,4.514199,-14.065971,32.309124,61.017914,-6.3095274,-4.1075797,-4.0132356
11,7.557243824005127,4.103600025177002,76.16545104980469,6.1415435114625625,-8.046485450392003,-169.05286759081488,12.807022,-7.640055,12.514661,7.2800345,-13.152164,0.95037436,-20.158419,-15.817469,-12.832589,59.2299,-17.836887,8.423514,-7.8645806,-12.674805,20.296972,-10.132067,17.986734,-20.672096,59.20607,16.631235,-5.0095387,19.40049,4.116027,-14.401686,32.749973,60.689648,-6.9228344,-4.023655,-3.9917567
12,7.986252784729004,4.391826152801514,76.21797180175781,6.143860632810864,-8.088788549837458,-169.20312875444324,12.461933,-7.430125,12.705129,7.2531414,-12.784228,0.7734598,-19.707886,-16.39237,-12.182713,61.277073,-18.340364,7.8594394,-7.556206,-12.528916,20.18361,-9.317771,17.730988,-20.604094,59.04145,16.180079,-4.9380565,19.471174,3.7237418,-14.725832,33.128098,60.35816,-7.3952675,-3.9797575,-4.014567
13,8.410120964050293,4.6762261390686035,76.26200866699219,6.16832519091795,-8.124995560541157,-169.32824909527096,12.11385,-7.244892,12.897627,7.2289658,-12.44306,0.61401254,-19.169853,-16.939863,-11.482628,63.14813,-18.83484,7.450577,-7.257549,-12.4044895,20.049417,-8.491953,17.53828,-20.719048,58.86228,15.821268,-4.9926696,19.455305,3.3322017,-15.04045,33.46258,60.033623,-7.698789,-3.985655,-4.0967326
14,8.818716049194336,4.97015905380249,76.29773712158203,6.211664712471777,-8.15621513537915,-169.43147168829427,11.765154,-7.0784335,13.083772,7.204567,-12.124076,0.46065846,-18.5555,-17.435139,-10.702888,64.86942,-19.296244,7.205808,-6.968407,-12.30048,19.893784,-7.6385427,17.412151,-21.005182,58.651638,15.505037,-5.152281,19.361248,2.9446642,-15.345073,33.7427,59.707928,-7.876634,-4.0213656,-4.2266455
15,9.224699974060059,5.266367435455322,76.32299041748047,6.275676574862046,-8.183933890672195,-169.53009295948542,11.4150715,-6.9317484,13.262818,7.1819186,-11.809152,0.32165095,-17.870968,-17.932777,-9.916691,66.43983,-19.727432,7.0267363,-6.680907,-12.2185755,19.734161,-6.7717023,17.345976,-21.415684,58.425556,15.286847,-5.358373,19.19798,2.56507,-15.634065,33.933838,59.37377,-7.9579577,-4.0797224,-4.3819566
16,9.635498046875,5.554197311401367,76.34329223632812,6.362459427045675,-8.209492773290576,-169.64108421616297,11.063486,-6.8073053,13.433765,7.162251,-11.480365,0.20546575,-17.125288,-18.49459,-9.1921215,67.85902,-20.132214,6.812468,-6.3868213,-12.15921,19.586489,-5.908325,17.326675,-21.904232,58.205154,15.224694,-5.552777,18.976809,2.1971416,-15.898841,33.998615,59.028645,-7.9743676,-4.1537333,-4.5411553
17,10.045952796936035,5.852501392364502,76.34992980957031,6.481411490978713,-8.233383170528265,-169.7657739208395,10.712283,-6.72026,13.589925,7.142762,-11.127612,0.13365467,-16.317768,-19.14982,-8.542036,69.14106,-20.50665,6.5500565,-6.0866117,-12.127538,19.447525,-5.0550017,17.34944,-22.49627,57.995987,15.349808,-5.740174,18.685774,1.8440431,-16.133808,33.908985,58.676117,-7.9112806,-4.2526727,-4.7064996
18,10.455257415771484,6.157015800476074,76.35401153564453,6.62854452776281,-8.254781062702442,-169.89611239980155,10.360143,-6.6656103,13.735227,7.123926,-10.761929,0.09572098,-15.44501,-19.862322,-7.93534,70.282906,-20.85003,6.2889476,-5.780654,-12.120546,19.30777,-4.217015,17.414831,-23.210579,57.805958,15.626181,-5.9459834,18.327337,1.5007056,-16.33883,33.686584,58.329662,-7.7611113,-4.3775516,-4.8881645
19,10.864153861999512,6.464832305908203,76.35282897949219,6.7854264872381815,-8.273109906997835,-170.03489939191493,10.003457,-6.6159334,13.883601,7.111294,-10.396804,0.05244936,-14.513359,-20.594345,-7.3713436,71.25412,-21.168243,6.0196347,-5.4629183,-12.124939,19.17428,-3.4031653,17.514753,-23.983637,57.653637,16.016466,-6.1437573,17.935953,1.158939,-16.5123,33.372227,57.998802,-7.564178,-4.5085654,-5.0769043
20,11.276803016662598,6.760186672210693,76.34033203125,6.933721979364344,-8.287767862829467,-170.18487010126427,9.635726,-6.542564,14.04894,7.1122775,-10.045076,-0.03555046,-13.530767,-21.305767,-6.8491197,72.02754,-21.468906,5.7320585,-5.1314354,-12.127138,19.051968,-2.6191492,17.636902,-24.747028,57.558426,16.485744,-6.3066783,17.546482,0.8048955,-16.6531,33.011345,57.699078,-7.3604836,-4.6253657,-5.2643137
21,11.69973087310791,7.068679332733154,76.32359313964844,7.075147936107992,-8.299939471487404,-170.34758188273014,9.25877,-6.4487853,14.234424,7.1261473,-9.716198,-0.18593322,-12.489897,-22.002277,-6.37007,72.6031,-21.746244,5.4033647,-4.790921,-12.127562,18.939566,-1.8662479,17.77646,-25.501999,57.525402,17.078716,-6.4311967,17.160358,0.42841202,-16.759575,32.60477,57.44537,-7.136715,-4.730219,-5.451586
22,12.114073753356934,7.388839244842529,76.29531860351562,7.217561163907807,-8.30955739966253,-170.52153084760212,8.874662,-6.346827,14.432937,7.149967,-9.401133,-0.37466663,-11.391246,-22.698755,-5.935807,72.99787,-22.000229,5.0467396,-4.4433675,-12.131389,18.832579,-1.144129,17.932999,-26.274544,57.55113,17.799953,-6.532543,16.76316,0.033622384,-16.831398,32.1355,57.234543,-6.8786187,-4.831661,-5.6429057
23,12.535985946655273,7.708451747894287,76.25810241699219,7.351749465018782,-8.313669466303077,-170.70436266196006,8.304219,-6.174173,14.659447,7.568255,-9.28631,-0.582081,-10.251261,-23.370043,-5.547559,73.20395,-22.242699,4.701277,-4.0832386,-12.130279,18.73065,-0.45549515,18.099989,-27.03517,57.64173,18.550983,-6.6105156,16.365696,-0.37048897,-16.869604,31.622858,57.050842,-6.624002,-4.918194,-5.834529
24,12.958715438842773,8.041298866271973,76.2090072631836,7.466916197567228,-8.30919813166643,-170.8930436607845,7.5313,-5.909219,14.909754,8.409128,-9.3701,-0.78715885,-9.086838,-23.986471,-5.207408,73.21356,-22.486147,4.4062986,-3.7091708,-12.113711,18.631838,0.20170842,18.267447,-27.748484,57.80218,19.2366,-6.6638517,15.97832,-0.77752715,-16.876299,31.090237,56.880146,-6.409028,-4.977901,-6.023404
25,13.37264347076416,8.382193565368652,76.15050506591797,7.567866732213798,-8.298871136587007,-171.0871871402587,6.6190963,-5.5714645,15.178449,9.545829,-9.585254,-0.98723024,-7.892769,-24.54296,-4.9019403,73.03082,-22.74194,4.182037,-3.3199914,-12.083799,18.538166,0.82603526,18.429527,-28.418856,58.04008,19.84179,-6.6979103,15.601497,-1.1857443,-16.85029,30.522263,56.7233,-6.238494,-5.0016785,-6.2094946
26,13.794313430786133,8.736642837524414,76.08136749267578,7.652823228833416,-8.282190576596069,-171.28642517749356,5.5925393,-5.1674423,15.4603815,10.923301,-9.909528,-1.1949064,-6.662815,-25.049055,-4.640838,72.65992,-23.00122,4.0014544,-2.9194305,-12.03763,18.446302,1.4165815,18.584967,-29.05921,58.35605,20.415937,-6.7108946,15.231114,-1.602002,-16.791267,29.915087,56.58972,-6.093903,-4.997438,-6.394618
27,14.22889518737793,9.096004486083984,76.00174713134766,7.700469060831507,-8.250210680871238,-171.4872270813187,4.480384,-4.683694,15.738316,12.453655,-10.293979,-1.411995,-5.415709,-25.496458,-4.457796,72.09873,-23.249132,3.8375995,-2.5168347,-11.956126,18.344198,1.9780402,18.73056,-29.644188,58.742493,20.960672,-6.6895137,14.87067,-2.0335436,-16.706287,29.312376,56.477837,-5.976243,-4.9785995,-6.578583
28,14.660122871398926,9.469767570495605,75.9130859375,7.690823042335335,-8.194343921213628,-171.68662281228748,3.3066382,-4.107189,15.99518,14.059666,-10.691459,-1.6397334,-4.173225,-25.878231,-4.3824244,71.3495,-23.473362,3.6645606,-2.124011,-11.821295,18.219833,2.517777,18.861795,-30.143293,59.189323,21.480083,-6.6208954,14.523481,-2.4860249,-16.60688,28.762201,56.38043,-5.8835483,-4.958349,-6.7608805
29,15.095937728881836,9.849770545959473,75.82022094726562,7.604242527919092,-8.106134093840877,-171.8758311102334,2.0375938,-3.4103332,16.224354,15.79335,-11.11945,-1.8793013,-2.9274404,-26.174177,-4.4443517,70.39237,-23.680515,3.5029557,-1.7507067,-11.609528,18.060986,3.0364916,18.973886,-30.574938,59.70692,21.979687,-6.4983754,14.204914,-2.9508824,-16.499325,28.260096,56.291794,-5.8167214,-4.933668,-6.9463778
30,15.530204772949219,10.221717834472656,75.72357940673828,7.447877166526753,-7.991726581543843,-172.0585917084329,0.6787434,-2.6011755,16.42492,17.663967,-11.588822,-2.1342695,-1.6718895,-26.379036,-4.6223392,69.235405,-23.876135,3.35945,-1.3907684,-11.326078,17.874132,3.531924,19.0642,-30.944853,60.296608,22.458307,-6.3293557,13.907989,-3.4238431,-16.385914,27.786274,56.208267,-5.7758737,-4.898782,-7.132386
31,15.981867790222168,10.611538887023926,75.61885833740234,7.246609289497518,-7.865408020726242,-172.2517034188586,-0.6850766,-1.7262505,16.591688,19.523668,-12.041513,-2.4065795,-0.43167165,-26.508842,-4.866476,67.92106,-24.046186,3.1886113,-1.0330471,-11.000188,17.677593,4.0081944,19.132393,-31.202747,60.93186,22.907166,-6.1226096,13.60126,-3.9147606,-16.273071,27.371447,56.12222,-5.7522535,-4.863254,-7.307344
32,16.427976608276367,11.005369186401367,75.51025390625,7.030455817269683,-7.742331864838511,-172.47256052007185,-1.9742088,-0.8354154,16.726,21.23426,-12.424256,-2.6949248,0.7687744,-26.587778,-5.1245723,66.49052,-24.177582,2.9455574,-0.6712248,-10.665103,17.49249,4.4747877,19.177906,-31.290604,61.579754,23.319847,-5.8877387,13.252819,-4.429374,-16.171446,27.050505,56.017,-5.736576,-4.836083,-7.4589477
33,16.871950149536133,11.408707618713379,75.39336395263672,6.792399693841304,-7.627061745843066,-172.72948355912925,-3.1888793,0.08238705,16.82043,22.804989,-12.745521,-3.0002122,1.9253731,-26.618233,-5.4034915,64.95037,-24.295315,2.5418994,-0.30034375,-10.314729,17.32484,4.946492,19.199873,-31.178797,62.232166,23.704926,-5.615594,12.829188,-4.966873,-16.083723,26.82697,55.88419,-5.7188535,-4.8107314,-7.5786724
34,17.33246421813965,11.815889358520508,75.27693176269531,6.523637945533469,-7.512470613665393,-173.0128617128784,-4.3657665,1.0425631,16.876062,24.29604,-13.027278,-3.3214927,3.0490403,-26.584164,-5.7204766,63.285217,-24.404827,2.0336637,0.07732031,-9.934335,17.167095,5.4163785,19.197168,-30.905539,62.898247,24.062271,-5.305855,12.353902,-5.510573,-16.018505,26.681849,55.712585,-5.703377,-4.7846274,-7.6722937
35,17.791322708129883,12.235864639282227,75.15331268310547,6.255797028720614,-7.396333945881761,-173.31343342681845,-5.4825177,1.9981071,16.914492,25.649776,-13.240425,-3.6515102,4.136782,-26.492575,-6.037226,61.502174,-24.459385,1.5897051,0.46165305,-9.560041,17.017485,5.862195,19.178228,-30.517479,63.57525,24.369616,-4.980388,11.882178,-6.061198,-15.966496,26.611574,55.514336,-5.710923,-4.774509,-7.752984
36,18.257516860961914,12.653970718383789,75.03117370605469,6.022505034533637,-7.275805809423045,-173.62179811957355,-6.520491,2.902658,16.96039,26.816124,-13.353495,-3.9815762,5.1865954,-26.35647,-6.31472,59.602654,-24.404371,1.3751374,0.80570006,-9.237542,16.866308,6.291957,19.138977,-29.997427,64.25206,24.62589,-4.6604395,11.470965,-6.6647162,-15.903155,26.668793,55.34022,-5.7536764,-4.796663,-7.840088
37,18.723007202148438,13.088824272155762,74.90962982177734,5.842805152638728,-7.150423504292205,-173.94211553295943,-7.466077,3.7341352,17.036108,27.770033,-13.359851,-4.3041778,6.181459,-26.235107,-6.5663137,57.631214,-24.16028,1.2774408,1.21255,-8.965667,16.733702,6.648305,19.105936,-29.459929,64.94413,24.779156,-4.334455,11.101962,-7.218654,-15.878428,26.756592,55.093678,-5.848725,-4.863176,-7.916298
38,19.1883602142334,13.530641555786133,74.79290008544922,5.697666102065193,-7.021847825342512,-174.27711575932977,-8.339365,4.521225,17.128204,28.556515,-13.281074,-4.6225667,7.1265106,-26.107843,-6.802413,55.576984,-23.776255,1.2596511,1.558735,-8.744505,16.605368,7.0320935,19.051949,-28.722378,65.606064,24.896423,-3.9989412,10.755489,-7.8324866,-15.862548,27.017231,54.85007,-5.9581857,-4.961095,-7.989527
39,19.667339324951172,13.982722282409668,74.67982482910156,5.564669787735635,-6.888936281178497,-174.6152142180804,-9.167132,5.290483,17.20996,29.21641,-13.126097,-4.944085,8.056326,-25.86858,-6.9750323,53.341076,-23.383705,1.5962079,1.9149231,-8.539441,16.49488,7.3646827,18.993782,-27.952528,66.26819,24.943655,-3.6723232,10.485957,-8.426522,-15.862385,27.307505,54.56202,-6.1074214,-5.0729976,-8.063352
40,20.157896041870117,14.444075584411621,74.56794738769531,5.421300474826402,-6.750510774014603,-174.94493283818028,-9.981561,6.068149,17.251171,29.800076,-12.9095745,-5.276516,9.0091,-25.416393,-7.0328937,50.813084,-23.105549,2.559447,2.290968,-8.330018,16.409567,7.61769,18.95061,-27.230091,66.929726,24.912592,-3.377501,10.345264,-8.979239,-15.869484,27.557764,54.22146,-6.3061833,-5.1807775,-8.146407
41,20.659313201904297,14.9232759475708,74.45954132080078,5.2932243165201145,-6.6016283605962105,-175.27805032377296,-10.792507,6.8334737,17.263334,30.321978,-12.62368,-5.5951033,10.068155,-24.698751,-6.8593407,47.728355,-22.88069,4.607092,2.5866191,-8.151941,16.332514,7.88353,18.899479,-26.398037,67.54112,24.831404,-3.112003,10.378175,-9.579678,-15.874672,27.911007,53.874542,-6.5327783,-5.281313,-8.244859
42,21.16387176513672,15.426093101501465,74.35565185546875,5.186066596397729,-6.442579770735089,-175.61649954930738,-11.584999,7.5758677,17.259857,30.75485,-12.264751,-5.9024715,11.210837,-23.799105,-6.517238,44.173042,-22.656427,7.446597,2.9196486,-8.001702,16.27143,8.079549,18.863134,-25.59039,68.16147,24.655607,-2.8643372,10.548887,-10.151144,-15.878145,28.241453,53.48734,-6.81825,-5.386264,-8.347519
43,21.672927856445312,15.935291290283203,74.25891876220703,5.044754939259894,-6.281510858920974,-175.93504415910402,-12.342461,8.336248,17.21261,31.063334,-11.841007,-6.2488933,12.312698,-22.819117,-6.2253613,40.56302,-22.555275,10.234856,3.1952875,-7.835457,16.23473,8.251227,18.83597,-24.739326,68.73872,24.451979,-2.6522408,10.781373,-10.734721,-15.871514,28.609755,53.08983,-7.123752,-5.4877667,-8.471184
44,22.190956115722656,16.448646545410156,74.17938995361328,4.812324941912641,-6.128209568208058,-176.20776332339244,-13.053173,9.159292,17.08847,31.221994,-11.365312,-6.6861305,13.227612,-21.832981,-6.197983,37.35174,-22.70136,12.153651,3.4381208,-7.594038,16.237661,8.344462,18.831154,-23.937958,69.29046,24.241407,-2.4885578,11.002912,-11.287826,-15.848089,28.927008,52.677258,-7.449122,-5.5814095,-8.623865
45,22.725482940673828,16.9833927154541,74.12059020996094,4.4586278897549745,-5.984340119220187,-176.43727965026812,-13.738529,10.087847,16.871754,31.266241,-10.812009,-7.2216697,13.86401,-20.823782,-6.487915,34.7119,-23.267973,12.927515,3.6365168,-7.251761,16.287226,8.364381,18.858229,-23.167042,69.80699,24.017832,-2.3924813,11.219839,-11.829583,-15.803792,29.203104,52.24671,-7.8267765,-5.6593547,-8.819719
46,23.27022933959961,17.530410766601562,74.08026123046875,4.017907156680076,-5.845873178552736,-176.63472433525942,-14.403235,11.087679,16.575918,31.200674,-10.18584,-7.83102,14.308715,-19.745747,-6.9784713,32.394993,-24.1463,13.032346,3.8033235,-6.8411045,16.375969,8.322939,18.919203,-22.417147,70.28903,23.764492,-2.351912,11.461945,-12.359122,-15.739875,29.446825,51.796223,-8.2551775,-5.7261744,-9.049444
47,23.818206787109375,18.077404022216797,74.05844116210938,3.526666813223184,-5.716520269470186,-176.78531066393433,-15.004762,12.089809,16.21214,30.945612,-9.54128,-8.519236,14.672509,-18.610931,-7.622302,30.242931,-25.043997,12.785552,3.9211588,-6.4027276,16.496254,8.247676,19.014244,-21.683922,70.71374,23.520893,-2.333954,11.686497,-12.871362,-15.650285,29.671501,51.360237,-8.650924,-5.7951136,-9.292835
48,24.384258270263672,18.641971588134766,74.05525207519531,3.023934381725579,-5.599169264603312,-176.87459232960254,-15.499015,13.025922,15.798524,30.42397,-8.934554,-9.290861,15.065163,-17.443245,-8.375921,28.095005,-25.660286,12.497977,3.9970014,-5.968754,16.640009,8.128608,19.13045,-21.003939,71.09296,23.314007,-2.3041697,11.855275,-13.335993,-15.540694,29.857931,50.959297,-8.942581,-5.8803873,-9.526516
49,24.943368911743164,19.21561050415039,74.07502746582031,2.482691299773986,-5.498215734164706,-176.886606453698,-15.890207,13.909846,15.28511,29.623667,-8.320038,-10.2221985,15.529807,-16.21643,-9.34458,25.89203,-25.924484,12.147631,4.0168357,-5.5136347,16.81705,7.9471636,19.26392,-20.382786,71.44897,23.151917,-2.2567286,11.958969,-13.759538,-15.413335,30.011269,50.602448,-9.107138,-5.9970775,-9.756157
50,25.511554718017578,19.79776954650879,74.11344909667969,1.894792220798929,-5.410383665503823,-176.83339418908375,-16.192486,14.769865,14.684291,28.577608,-7.6873646,-11.285433,15.997342,-14.922064,-10.505784,23.71994,-25.995378,11.6012535,3.9868221,-5.0263953,17.030025,7.701041,19.4147,-19.810022,71.78153,23.018797,-2.2079928,12.01958,-14.146862,-15.268577,30.132378,50.274174,-9.186977,-6.1345096,-9.989298
51,26.08588409423828,20.38641929626465,74.16936492919922,1.3283674709715243,-5.326326130520996,-176.7426693059373,-16.37157,15.562876,14.118938,27.273304,-7.142076,-12.327433,16.423882,-13.6242285,-11.635738,21.609762,-25.906393,10.996518,3.927249,-4.5682993,17.258787,7.4184284,19.576962,-19.276407,72.0596,22.911615,-2.1569133,12.045132,-14.48931,-15.110104,30.225748,49.974834,-9.194596,-6.268694,-10.206926
52,26.652076721191406,20.96939468383789,74.24465942382812,0.8520677208029659,-5.237028204526913,-176.64271437096693,-16.392246,16.24688,13.72008,25.700777,-6.7876835,-13.194908,16.763416,-12.400703,-12.511836,19.614857,-25.697521,10.467277,3.8599067,-4.199293,17.48197,7.1271205,19.740551,-18.769653,72.2526,22.831942,-2.102168,12.044136,-14.773263,-14.942824,30.2925,49.69967,-9.145009,-6.374959,-10.389624
53,27.22100067138672,21.56438446044922,74.33016967773438,0.5034478590256054,-5.135055577178743,-176.5380035122286,-16.245937,16.757904,13.468422,23.813217,-6.702737,-13.865401,16.992987,-11.297658,-13.056483,17.752924,-25.361782,10.038736,3.7923102,-3.956176,17.704556,6.809014,19.901323,-18.286861,72.364296,22.805807,-2.0262125,12.012339,-15.0025835,-14.768236,30.32841,49.450283,-9.020917,-6.450837,-10.539922
54,27.79398536682129,22.15258026123047,74.42618560791016,0.23399866198771843,-5.0287816616306324,-176.41643097939155,-15.932092,17.147041,13.327416,21.606773,-6.802632,-14.413389,17.1379,-10.27368,-13.397298,16.020298,-24.89427,9.635048,3.7133458,-3.7908678,17.935087,6.4509983,20.058958,-17.839233,72.4146,22.821201,-1.9352777,11.948824,-15.181015,-14.58727,30.33687,49.227592,-8.820899,-6.508217,-10.664912
55,28.362598419189453,22.727397918701172,74.53401947021484,-0.015962890193909618,-4.932665656107569,-176.2812927768744,-15.432371,17.531694,13.404488,19.136774,-6.936258,-14.84115,17.217587,-9.285112,-13.61693,14.455637,-24.34343,9.235521,3.6157176,-3.6359122,18.15604,6.0916586,20.206354,-17.425926,72.39564,22.83356,-1.8634405,11.866983,-15.297425,-14.407127,30.333265,49.028038,-8.579572,-6.5440803,-10.75235
56,28.928083419799805,23.271615982055664,74.65320587158203,-0.28407386125380835,-4.854746644831538,-176.1175640760201,-14.7259245,17.9554,13.812728,16.410154,-6.9269233,-15.000033,17.229124,-8.322112,-13.814432,13.133183,-23.775698,8.829445,3.473301,-3.443526,18.346966,5.765125,20.332232,-17.04992,72.30453,22.793692,-1.8446474,11.781746,-15.337153,-14.23889,30.332779,48.843315,-8.332508,-6.55497,-10.789843
57,29.492401123046875,23.787521362304688,74.77665710449219,-0.6390235714699183,-4.81516270031445,-175.93136584343858,-13.659699,18.420864,14.472014,13.056524,-6.6927853,-15.000033,17.185167,-7.3146796,-13.963731,12.06637,-23.152576,8.419418,3.286445,-3.1271613,18.51661,5.4901767,20.420895,-16.708757,72.117966,22.677254,-1.8881878,11.692629,-15.287636,-14.095653,30.33318,48.654205,-8.101661,-6.509197,-10.771411
58,30.025470733642578,24.281654357910156,74.89466857910156,-1.0887364758524907,-4.812889045705924,-175.7428079138225,-12.2250805,18.91288,15.379343,9.04954,-6.2604885,-15.000033,17.091516,-6.2373657,-14.012707,11.195818,-22.438873,7.9996142,3.0797474,-2.678778,18.677132,5.24136,20.46674,-16.404,71.85278,22.516172,-1.974755,11.596139,-15.153047,-13.985226,30.33137,48.463623,-7.8618126,-6.4174314,-10.702565
59,30.538061141967773,24.77979278564453,74.9947280883789,-1.5525434289833273,-4.817504916263412,-175.5505553494673,-11.614126,19.678076,16.432533,6.9906993,-6.7176495,-15.000033,16.935854,-5.1714563,-14.034722,10.47254,-21.709356,7.551396,2.8652284,-2.1962178,18.812786,4.972879,20.478188,-16.156305,71.57122,22.341639,-2.0952744,11.5020685,-14.933599,-13.917386,30.33184,48.280434,-7.5747128,-6.339415,-10.587759
60,31.045692443847656,25.295867919921875,75.0884017944336,-1.905306155536322,-4.793056335180343,-175.34284703727306,-11.705834,20.630648,17.951086,6.7875323,-7.7327366,-15.000033,16.688818,-4.250593,-14.117966,9.890726,-21.06382,7.0591545,2.6429439,-1.837232,18.905704,4.644035,20.48078,-15.977512,71.32654,22.186796,-2.2418976,11.417662,-14.643204,-13.880329,30.340666,48.12859,-7.2041235,-6.335898,-10.435406
61,31.547224044799805,25.812101364135742,75.2041244506836,-2.0897103207864913,-4.72206080320989,-175.11788045009462,-11.581586,21.553276,20.672668,6.634211,-8.266298,-15.000033,16.312809,-3.5389,-14.29336,9.520277,-20.55534,6.5083556,2.3781366,-1.6851075,18.943287,4.2858653,20.488335,-15.811646,71.10436,22.043232,-2.4392037,11.336267,-14.326007,-13.837687,30.393728,48.050327,-6.706129,-6.443284,-10.2357435
62,32.06285858154297,26.329988479614258,75.35089111328125,-2.126222309286913,-4.627026622574038,-174.87009010460164,-11.302046,22.44581,24.327515,6.687796,-8.578521,-15.000033,15.799058,-3.0309238,-14.532096,9.440607,-20.177908,5.926282,2.089626,-1.7059729,18.941648,3.887425,20.503672,-15.694109,70.89401,21.889013,-2.6829252,11.254864,-13.95416,-13.796525,30.458582,48.016857,-6.113687,-6.6220393,-9.989977
63,32.58052062988281,26.846023559570312,75.51773834228516,-2.072026340387689,-4.514127914993327,-174.55003256370568,-10.84516,23.148056,28.121962,6.758737,-8.683892,-14.630305,15.199048,-2.657548,-14.856866,9.538751,-19.880138,5.338022,1.7393246,-1.8324082,18.900515,3.4546044,20.527725,-15.638897,70.67633,21.784893,-2.9238138,11.181257,-13.522421,-13.760852,30.523947,48.02746,-5.5037565,-6.8207803,-9.723589
64,33.09454345703125,27.362390518188477,75.6882095336914,-1.9855924256424156,-4.407924380130369,-174.16065113131876,-10.269716,23.599607,31.2814,6.8466005,-8.702614,-13.668449,14.593226,-2.3379385,-15.237617,9.667051,-19.594404,4.7603145,1.3420991,-2.01703,18.842213,3.0043662,20.593306,-15.649515,70.41628,21.78896,-3.11428,11.1173935,-13.042052,-13.699887,30.581657,48.09983,-4.9556313,-6.991202,-9.470453
65,33.61519241333008,27.895706176757812,75.86424255371094,-1.8463201708459784,-4.302820577591929,-173.69695709250493,-9.681595,23.891567,33.746666,7.25168,-8.807496,-12.106341,13.970383,-2.0862637,-15.665839,9.840852,-19.327694,4.178323,0.91447884,-2.2893007,18.774036,2.4967763,20.70107,-15.758137,70.1362,21.952908,-3.235909,11.071318,-12.496985,-13.622962,30.610386,48.2112,-4.4379787,-7.1421037,-9.214949
66,34.13206481933594,28.43433952331543,76.00138854980469,-1.778504851658111,-4.20420367848498,-173.20529840280932,-10.648293,25.271404,35.158207,11.717383,-10.910557,-10.080859,13.379947,-1.7399056,-16.103474,9.97469,-19.043333,3.557318,0.48252758,-2.5138624,18.681265,1.9694111,20.843716,-15.949105,69.82237,22.230762,-3.317203,11.033321,-11.892553,-13.533028,30.62883,48.37606,-3.9259794,-7.2924056,-8.943682
67,34.62961196899414,28.966289520263672,76.0902328491211,-1.9037801880154432,-4.173413755068559,-172.76603068026387,-11.713298,26.980604,35.908833,16.804934,-13.18015,-8.122352,12.9811535,-1.1313202,-16.486362,9.852706,-18.650738,2.902506,0.108172454,-2.5334854,18.595226,1.4700532,21.001045,-16.200735,69.45239,22.535606,-3.3781347,10.994821,-11.223553,-13.4439535,30.644053,48.602154,-3.5116029,-7.407769,-8.693365
68,35.12148666381836,29.481517791748047,76.13679504394531,-2.1444421067365793,-4.22879117013144,-172.3834151629155,-12.370619,28.453733,36.109447,21.089264,-14.872092,-6.73132,12.760567,-0.3835202,-16.83088,9.563658,-18.209146,2.2706864,-0.21174683,-2.4045763,18.530855,1.0059854,21.151514,-16.489763,69.0269,22.788277,-3.4379585,10.95427,-10.479304,-13.369984,30.651958,48.873894,-3.2870958,-7.4550633,-8.509619
69,35.58965301513672,29.974365234375,76.1617660522461,-2.460067860799451,-4.376586203754965,-172.02676532396143,-12.736274,29.630455,35.637646,24.745295,-16.01488,-6.0924635,12.700302,0.4376847,-17.17151,9.165354,-17.747852,1.6884725,-0.4914251,-2.1691964,18.488098,0.57083076,21.30119,-16.831543,68.54449,22.981346,-3.494849,10.889827,-9.628847,-13.310269,30.626263,49.17949,-3.3505685,-7.40724,-8.419731
70,36.041011810302734,30.44964599609375,76.16159057617188,-2.8217397023493804,-4.589369821227469,-171.67541254332463,-13.031944,30.601574,34.524326,28.263596,-16.875809,-5.9362926,12.753366,1.3009754,-17.515478,8.696825,-17.276892,1.1405483,-0.75125813,-1.8674529,18.455576,0.14616415,21.443655,-17.227085,68.0187,23.161121,-3.5397582,10.81446,-8.6837845,-13.269523,30.572273,49.516724,-3.6274865,-7.288808,-8.397809
71,36.4854621887207,30.901351928710938,76.1550521850586,-3.178873173612348,-4.823158511632676,-171.33733941711114,-13.28216,31.305546,32.979008,31.583452,-17.542503,-6.084283,12.836643,2.141471,-17.84879,8.225861,-16.821632,0.61993307,-0.9993309,-1.5557492,18.42089,-0.28110972,21.577866,-17.662277,67.46117,23.299791,-3.5833924,10.7709255,-7.690342,-13.248922,30.516409,49.879055,-3.9536176,-7.1455774,-8.408142
72,36.92058181762695,31.348758697509766,76.15155792236328,-3.489903445508243,-5.038265317800949,-171.02493185825003,-13.479464,31.694353,31.215988,34.612823,-18.080658,-6.349746,12.873106,2.905697,-18.156713,7.8155646,-16.405764,0.11771697,-1.2445459,-1.2797928,18.3714,-0.71765417,21.701107,-18.113045,66.88017,23.375795,-3.6359165,10.802388,-6.699361,-13.250577,30.494104,50.267975,-4.163447,-7.0236263,-8.415975
73,37.35564422607422,31.77885627746582,76.14692687988281,-3.745005047263491,-5.236881019232445,-170.7458948437968,-13.643245,31.66609,29.056862,37.306572,-18.451126,-6.781441,12.836643,3.5696235,-18.433443,7.5169916,-16.0549,-0.36299708,-1.493064,-1.0439495,18.308563,-1.1623989,21.80919,-18.573942,66.266914,23.375023,-3.6983368,10.908418,-5.7196994,-13.275795,30.51952,50.696323,-4.2327275,-6.937305,-8.428059
74,37.78676223754883,32.19420623779297,76.13626098632812,-3.9680513262835486,-5.435531553296817,-170.4903917370384,-13.76576,31.2584,26.492863,39.77142,-18.676893,-7.4736342,12.673031,4.1323166,-18.69768,7.4892054,-15.852848,-0.81681746,-1.7392974,-0.8236358,18.23619,-1.6124429,21.907764,-19.058908,65.61588,23.30962,-3.7647812,11.068944,-4.721657,-13.325564,30.570507,51.155224,-4.2431345,-6.8612614,-8.457326
75,38.22511672973633,32.597415924072266,76.12230682373047,-4.172164120804505,-5.618904769774064,-170.24846498313752,-13.782899,30.666346,23.980198,42.111046,-18.889896,-8.278691,12.486837,4.6576076,-18.955473,7.463057,-15.651782,-1.2542435,-1.9836285,-0.6138817,18.145067,-2.0680306,21.99651,-19.553783,64.95125,23.207954,-3.8399577,11.301924,-3.7132196,-13.402389,30.645588,51.629253,-4.1847277,-6.781339,-8.479634
76,38.66676330566406,32.996002197265625,76.10240936279297,-4.370927299239367,-5.772308191349919,-170.0118260906048,-13.65251,30.116652,21.94606,44.41624,-19.200172,-9.024175,12.265799,5.169388,-19.217405,7.437149,-15.446972,-1.6842934,-2.2330377,-0.406585,18.024487,-2.5274823,22.068779,-20.04314,64.29634,23.094652,-3.9226253,11.625834,-2.7116935,-13.501312,30.754145,52.11605,-4.0476317,-6.683347,-8.473348
77,39.10379409790039,33.3997802734375,76.07318115234375,-4.571639679801606,-5.8957735672428875,-169.78337504068912,-13.378504,29.652937,20.399052,46.69026,-19.600895,-9.719946,12.012101,5.6775327,-19.48486,7.41028,-15.241057,-2.1084404,-2.4840202,-0.19353138,17.871506,-2.9990551,22.126429,-20.54639,63.65755,22.958004,-4.016977,12.083108,-1.7201991,-13.6212845,30.905231,52.61383,-3.7849388,-6.553396,-8.444599
78,39.53480529785156,33.785640716552734,76.04386901855469,-4.76725077063714,-5.996916413152185,-169.5674395166064,-12.982593,29.19623,19.12998,48.897392,-20.041965,-10.416213,11.73148,6.1697097,-19.751316,7.383239,-15.035318,-2.5224361,-2.7360039,0.022337316,17.691437,-3.4807968,22.170052,-21.063122,63.023457,22.78957,-4.122414,12.651755,-0.7347898,-13.761991,31.096804,53.13118,-3.416873,-6.402275,-8.402035
79,39.96278762817383,34.16307067871094,76.01779174804688,-4.9513037761377285,-6.073542558523291,-169.35909421806028,-12.463994,28.806763,18.215254,51.044407,-20.538702,-10.983688,11.419565,6.638709,-20.014675,7.357716,-14.82375,-2.927603,-2.990186,0.23250338,17.4867,-3.953288,22.19347,-21.544271,62.387592,22.629583,-4.2315664,13.252947,0.24382614,-13.921657,31.312653,53.67513,-3.033936,-6.2523966,-8.32569
80,40.383331298828125,34.5313720703125,75.991455078125,-5.117877501412819,-6.123896290654416,-169.15364221764378,-11.822935,28.544409,17.726732,53.13359,-21.101404,-11.2920475,11.0744095,7.0789604,-20.272978,7.3334446,-14.600651,-3.325601,-3.2502954,0.43034706,17.25967,-4.398857,22.187563,-21.939972,61.75017,22.518055,-4.3374586,13.810191,1.2152319,-14.096554,31.538519,54.252186,-2.726602,-6.1261363,-8.195309
81,40.801109313964844,34.903533935546875,75.96212005615234,-5.26726887680239,-6.135564229440498,-168.957997838479,-11.049345,28.500135,17.779211,55.201454,-21.756002,-11.218653,10.683157,7.4943967,-20.516008,7.3116975,-14.365433,-3.7192407,-3.5080354,0.62140906,16.994526,-4.824787,22.148272,-22.236277,61.119102,22.479336,-4.441208,14.310409,2.177404,-14.287565,31.78146,54.878155,-2.520551,-6.040598,-7.99609
82,41.22896194458008,35.26600646972656,75.93484497070312,-5.403255954988733,-6.114967860407531,-168.7733020261708,-10.140296,28.637201,18.279673,57.22743,-22.481037,-10.843221,10.254476,7.8897524,-20.747059,7.292777,-14.122978,-4.1080594,-3.765387,0.81084406,16.694176,-5.236863,22.076366,-22.454983,60.497345,22.491814,-4.544069,14.793909,3.127249,-14.495945,32.049427,55.550682,-2.366274,-5.979479,-7.7419662
83,41.654945373535156,35.630882263183594,75.912841796875,-5.524372024806276,-6.087186609798127,-168.58529359074862,-9.103854,28.812544,18.996052,59.11765,-23.215523,-10.345398,9.818751,8.260093,-20.98386,7.2746077,-13.876058,-4.4887533,-4.040796,0.9905381,16.38717,-5.622193,21.971712,-22.609861,59.883392,22.516106,-4.637422,15.264779,4.061433,-14.716828,32.3278,56.253498,-2.243017,-5.915655,-7.4563184
84,42.06138229370117,35.99658203125,75.89529418945312,-5.628982799075066,-6.077090960628373,-168.3793227255899,-7.963015,28.877214,19.69977,60.786514,-23.892773,-9.911915,9.404304,8.5994835,-21.244131,7.2556696,-13.626175,-4.8579617,-4.3525224,1.1506605,16.10097,-5.9650507,21.833176,-22.71115,59.273773,22.517427,-4.712758,15.726687,4.9756503,-14.9411955,32.601147,56.97405,-2.1310656,-5.822454,-7.1632905
85,42.48226547241211,36.350433349609375,75.87601470947266,-5.7129691544132815,-6.087893966534925,-168.1532075555714,-6.683339,28.872301,20.475824,62.23804,-24.530893,-9.497348,9.017056,8.902376,-21.53033,7.2349586,-13.376024,-5.2112617,-4.707832,1.2845017,15.833334,-6.2534475,21.65671,-22.75042,58.662197,22.490791,-4.761551,16.208807,5.8656225,-15.1625185,32.883755,57.72875,-2.0314517,-5.697267,-6.8535304
86,42.89300537109375,36.69990921020508,75.86033630371094,-5.778319712902354,-6.1077516806660315,-167.91458877205966,-5.2669926,28.844194,21.392109,63.510536,-25.15498,-9.034843,8.643422,9.174156,-21.832682,7.2136827,-13.124655,-5.5523367,-5.0956717,1.3981143,15.569909,-6.501652,21.442448,-22.726736,58.0592,22.453735,-4.790484,16.700954,6.7295737,-15.379217,33.178818,58.528183,-1.9538126,-5.553545,-6.5207644
87,43.3079948425293,37.047828674316406,75.84085845947266,-5.834331243015606,-6.138242315021507,-167.66217321566072,-3.812451,28.649422,22.196833,64.56568,-25.694489,-8.685667,8.281166,9.425483,-22.151917,7.1928034,-12.868014,-5.8894477,-5.507017,1.5005852,15.321169,-6.731959,21.197355,-22.66425,57.482635,22.403536,-4.813719,17.145813,7.569911,-15.589255,33.45069,59.347046,-1.8929044,-5.3882537,-6.193026
88,43.73039245605469,37.396324157714844,75.81973266601562,-5.889521048404764,-6.180360025345429,-167.3948339912888,-2.4286513,28.146694,22.641909,65.36612,-26.07311,-8.612839,7.927458,9.665945,-22.488382,7.1733675,-12.60174,-6.230645,-5.930948,1.5997866,15.098354,-6.9673624,20.932142,-22.59124,56.947258,22.334455,-4.8454385,17.4854,8.3920765,-15.788427,33.662853,60.155262,-1.8423717,-5.1984,-5.897798
89,44.16194152832031,37.7437744140625,75.79491424560547,-5.947685163623069,-6.238861959690207,-167.10626736034672,-1.1218237,27.311005,22.696278,65.90402,-26.28471,-8.841514,7.588912,9.89746,-22.846981,7.153449,-12.319284,-6.5786924,-6.3702645,1.693074,14.9087105,-7.199826,20.649902,-22.488632,56.444313,22.236942,-4.8902397,17.686094,9.198837,-15.972063,33.820213,60.957592,-1.7849164,-4.986754,-5.646072
90,44.58982467651367,38.091407775878906,75.76737213134766,-6.00394257452523,-6.311021532695461,-166.7989789114748,0.14788519,26.211164,22.483938,66.2003,-26.363663,-9.294139,7.2632246,10.115251,-23.226114,7.13448,-12.025626,-6.929563,-6.828883,1.7746528,14.744368,-7.420663,20.350958,-22.351849,55.966496,22.114248,-4.9401164,17.783508,9.986878,-16.137503,33.93807,61.766464,-1.7296646,-4.7540636,-5.4218826
91,45.02312469482422,38.444610595703125,75.73943328857422,-6.055458689714818,-6.38619077991788,-166.4841782568698,1.3416133,24.850698,21.992516,66.26167,-26.297552,-9.980329,6.935425,10.3191395,-23.616758,7.1174464,-11.729741,-7.280702,-7.295627,1.8463725,14.593477,-7.647302,20.043413,-22.229591,55.52592,21.98256,-4.9906707,17.823114,10.752801,-16.285618,33.991043,62.566586,-1.7119247,-4.495657,-5.2126484
92,45.46959686279297,38.794639587402344,75.71001434326172,-6.098901040316376,-6.453512981118183,-166.1730129864708,2.4279752,23.233278,21.211296,66.09452,-26.07749,-10.9101,6.589965,10.508069,-24.010223,7.103551,-11.440038,-7.6290197,-7.756832,1.9102848,14.445805,-7.8968124,19.738743,-22.174763,55.131172,21.854921,-5.037923,17.84947,11.499252,-16.418371,33.948215,63.335495,-1.7689894,-4.206783,-5.00428
93,45.92060852050781,39.14927673339844,75.67570495605469,-6.136286705511908,-6.5202370105134735,-165.862102845636,3.4174023,21.2846,20.055376,65.68681,-25.696886,-12.179265,6.234782,10.682219,-24.40926,7.0928,-11.163423,-7.9803996,-8.212071,1.9647192,14.306154,-8.163336,19.442467,-22.19434,54.77659,21.710678,-5.081802,17.853348,12.239973,-16.535475,33.782295,64.065346,-1.9556826,-3.8650072,-4.7860837
94,46.37665939331055,39.50155258178711,75.63704681396484,-6.168792541443003,-6.588285924615601,-165.5473743029228,4.354526,19.02945,18.567657,65.045265,-25.19802,-13.7502,5.872664,10.840895,-24.816654,7.0850816,-10.892907,-8.333399,-8.66591,2.0082362,14.178955,-8.435913,19.153505,-22.264004,54.450962,21.54897,-5.124095,17.816233,12.975153,-16.633654,33.513706,64.76123,-2.2377756,-3.4815288,-4.5650744
95,46.83830261230469,39.84001159667969,75.60285186767578,-6.159300330720034,-6.617059216332215,-165.19992669998734,5.2128286,16.562765,16.955166,64.191895,-24.619122,-15.000033,5.4497514,10.921652,-25.261574,7.099522,-10.620434,-8.6584425,-9.150403,2.0137103,14.032882,-8.727283,18.874256,-22.392868,54.158054,21.40885,-5.1638865,17.770102,13.676707,-16.714964,33.181873,65.42952,-2.5198324,-3.1006238,-4.3557787
96,47.321990966796875,40.162010192871094,75.57953643798828,-6.042766775722441,-6.555524860587588,-164.7693677973828,5.9348536,13.938681,15.447587,63.132584,-23.95226,-15.000033,4.8924723,10.810344,-25.791298,7.179119,-10.346725,-8.913707,-9.719652,1.9313016,13.825521,-9.048307,18.607113,-22.58776,53.897354,21.330412,-5.200589,17.747238,14.315498,-16.784386,32.82702,66.07288,-2.7044299,-2.7647018,-4.173908
97,47.82417297363281,40.485782623291016,75.55184173583984,-5.919671285294302,-6.4631406249089505,-164.38739146390537,6.623471,11.270945,13.8690195,61.90703,-23.26173,-15.000033,4.2812176,10.686398,-26.278923,7.2669888,-10.044696,-9.139594,-10.247199,1.8528095,13.610426,-9.397684,18.35706,-22.858877,53.667637,21.308195,-5.237988,17.751223,14.901487,-16.846891,32.45283,66.686874,-2.7728248,-2.4825027,-4.0369205
98,48.33314514160156,40.808448791503906,75.52127075195312,-5.785973340057605,-6.349403381814183,-164.04363627227076,7.306527,8.509466,12.166755,60.492775,-22.532085,-15.000033,3.4998317,10.472394,-26.754646,7.6645427,-9.878782,-9.336153,-10.741723,1.7708519,13.394382,-9.764433,18.124367,-23.196365,53.460728,21.326609,-5.2755423,17.764807,15.448188,-16.902868,32.04166,67.263664,-2.7739,-2.2310548,-3.9322674
99,48.85375213623047,41.13290786743164,75.48839569091797,-5.642421627469635,-6.235222878750027,-163.73980556971404,8.046507,5.8667994,10.52495,58.877674,-21.72115,-15.000033,2.507774,10.138299,-27.222597,8.529899,-9.939197,-9.508622,-11.193439,1.6794682,13.1943035,-10.148731,17.910805,-23.58903,53.277763,21.40472,-5.305704,17.784216,15.9571905,-16.95047,31.60548,67.790634,-2.7091434,-2.0049415,-3.833567
100,49.380889892578125,41.4629020690918,75.4552993774414,-5.489392094427299,-6.136035879549316,-163.46970629408153,8.871754,3.5523996,9.124658,57.046654,-20.765385,-15.000033,1.5617661,9.8179455,-27.644638,9.307509,-9.944019,-9.672557,-11.600645,1.5696398,13.022726,-10.545929,17.718277,-24.019815,53.116016,21.568111,-5.32109,17.80495,16.425722,-16.987211,31.156387,68.25931,-2.5803695,-1.7994831,-3.7150447
101,49.92059326171875,41.79306411743164,75.41667938232422,-5.289343797772856,-6.036386492438274,-163.21071982422086,9.763626,1.5072184,8.028565,54.898643,-19.383413,-15.000033,0.58340853,9.418992,-28.050358,10.15288,-9.971384,-9.8110695,-11.992954,1.4103043,12.86092,-10.957853,17.547445,-24.503359,52.978916,21.83894,-5.3099675,17.839798,16.846495,-17.011787,30.687178,68.674164,-2.3382375,-1.6172156,-3.57216
102,50.45830535888672,42.119937896728516,75.377197265625,-5.050633179213621,-5.928448196851623,-162.96643506202378,10.69017,-0.3499962,7.1207666,52.45269,-17.667133,-15.000033,-0.42948064,8.954226,-28.43362,11.049391,-10.009881,-9.923791,-12.367124,1.2105886,12.702842,-11.385134,17.397968,-25.04175,52.86476,22.200035,-5.279429,17.885887,17.21885,-17.024267,30.19551,69.04472,-1.9973346,-1.4612753,-3.4193294
103,50.99493408203125,42.47583770751953,75.33222198486328,-4.84662413915666,-5.834571947347844,-162.755505489545,11.625218,-1.8500636,6.3233647,49.8871,-16.098349,-15.000033,-1.3315475,8.6063,-28.767359,11.688178,-9.907506,-10.043783,-12.69245,1.0271792,12.580186,-11.824037,17.272238,-25.603233,52.76467,22.607447,-5.250494,17.916319,17.557577,-17.020304,29.701927,69.35358,-1.6600469,-1.3204683,-3.256945
104,51.53596496582031,42.86109161376953,75.278076171875,-4.754467139204597,-5.775981570973681,-162.58787067795583,12.522308,-2.8166444,5.5807853,47.410156,-15.170716,-15.000033,-1.981628,8.561995,-29.042824,11.762232,-9.515083,-10.203578,-12.94798,0.9172412,12.527456,-12.264919,17.174526,-26.150558,52.664555,23.0218,-5.244654,17.904108,17.869875,-16.993044,29.229202,69.595055,-1.4281547,-1.189113,-3.0855186
105,52.05651092529297,43.290077209472656,75.21124267578125,-4.8341533629298015,-5.764557640158423,-162.4771738953081,13.337593,-3.035589,5.0083404,45.103817,-15.150219,-15.000033,-2.2617874,8.976851,-29.25908,11.010963,-8.712161,-10.4409895,-13.158716,0.9232212,12.563438,-12.664439,17.132706,-26.643744,52.532524,23.45708,-5.278205,17.826374,18.136616,-16.95424,28.832262,69.779915,-1.3121518,-1.0638793,-2.9048867
106,52.59269332885742,43.76530075073242,75.12533569335938,-5.0019692385571926,-5.786826484037259,-162.40386822250153,14.03818,-2.6399431,4.774548,42.968906,-15.796751,-15.000033,-2.300781,9.668998,-29.42875,9.722091,-7.6400204,-10.721392,-13.236798,0.98196644,12.655641,-13.126676,17.105135,-27.242071,52.449844,23.897503,-5.331082,17.715174,18.424446,-16.863916,28.365358,69.88211,-1.2992283,-0.95171565,-2.7147024
107,53.13874435424805,44.25196838378906,75.0358657836914,-5.119847547348632,-5.821465470892938,-162.3226380421407,14.599576,-2.002522,4.8816404,41.076046,-16.835325,-14.809917,-2.3563006,10.297851,-29.577549,8.473031,-6.573554,-10.963958,-13.326727,0.95626014,12.78055,-13.570708,17.112204,-27.780443,52.34777,24.349188,-5.390752,17.583948,18.63043,-16.74319,27.953363,69.9558,-1.3355086,-0.85594815,-2.5182412
108,53.743953704833984,44.670658111572266,74.96110534667969,-4.854056553059273,-5.754519499391783,-162.07197294277478,14.972064,-2.1233552,5.2263207,39.152744,-17.723156,-10.935557,-3.3499293,9.858253,-29.890951,9.217125,-6.463696,-10.988106,-13.572012,0.58778495,12.807485,-14.016084,17.13687,-28.248997,52.20878,24.775593,-5.4360356,17.464424,18.724861,-16.596766,27.560581,70.00282,-1.4132762,-0.78153235,-2.310953
109,54.36717987060547,45.103973388671875,74.8818359375,-4.529613134165103,-5.687102533525472,-161.79151936408863,15.240234,-2.3620563,5.4307556,37.4339,-18.717178,-7.577559,-4.4388127,9.2847805,-30.219242,10.154782,-6.44343,-11.017031,-13.827461,0.13105571,12.872159,-14.474482,17.178835,-28.644802,52.052567,25.205183,-5.4586253,17.358675,18.744802,-16.420986,27.178574,69.98383,-1.5556495,-0.7182078,-2.0742714
110,55.015079498291016,45.54725646972656,74.81082153320312,-4.147838835423891,-5.620928351372961,-161.4918369013849,15.404968,-2.643822,5.6089134,35.877827,-19.946243,-4.319665,-5.6059856,8.592987,-30.542732,11.256071,-6.4942136,-11.040947,-14.079603,-0.4099269,12.963895,-14.946181,17.239485,-28.98998,51.88769,25.641247,-5.4697638,17.25425,18.697441,-16.215446,26.80776,69.90616,-1.7626472,-0.66816735,-1.8155478
111,55.667579650878906,45.98112869262695,74.73945617675781,-3.6666302628101453,-5.556796459113069,-161.18820256177875,15.492781,-3.0519724,5.7816157,34.41568,-21.202879,-1.3735079,-6.854646,7.734971,-30.769608,12.530888,-6.5826263,-10.884986,-14.308006,-1.0634441,13.067037,-15.425961,17.316963,-29.306267,51.717167,26.019222,-5.4804425,17.145735,18.583097,-15.983662,26.463068,69.79977,-1.9831195,-0.6512609,-1.5761945
112,56.34101104736328,46.42107009887695,74.67344665527344,-3.050750719347327,-5.496264077490563,-160.89412513891259,15.541686,-3.6469946,5.982837,32.959934,-22.252151,1.0493877,-8.188379,6.675027,-30.807392,13.985019,-6.67108,-10.372951,-14.495633,-1.8493925,13.169659,-15.908715,17.407324,-29.613598,51.543915,26.274632,-5.501057,17.028347,18.403269,-15.730945,26.162584,69.691864,-2.1627085,-0.6862835,-1.3972617
113,57.03272247314453,46.86930847167969,74.61273193359375,-2.266771412309455,-5.428601233411299,-160.58809825764527,15.550438,-4.436679,6.2836976,31.46523,-22.989729,2.8312967,-9.648108,5.3411684,-30.760492,15.7019825,-6.8398657,-9.524095,-14.652191,-2.8009794,13.271415,-16.424934,17.511036,-29.922934,51.364506,26.378569,-5.5252843,16.876116,18.154776,-15.457052,25.902481,69.57201,-2.27847,-0.797421,-1.2795547
114,57.73772048950195,47.321014404296875,74.55680084228516,-1.3519840504139675,-5.358540605595003,-160.2649363474803,15.540011,-5.366389,6.6565886,29.912292,-23.495539,4.100603,-11.203648,3.802636,-30.623907,17.60447,-7.057952,-8.415324,-14.786819,-3.8875146,13.380385,-16.970032,17.627668,-30.222479,51.179543,26.369772,-5.5497727,16.699818,17.839165,-15.161773,25.67345,69.4289,-2.3608046,-0.96793646,-1.2046206
115,58.44411087036133,47.7677001953125,74.50827026367188,-0.38999110136499393,-5.310543382406013,-159.9619143082723,15.56741,-6.3753405,6.989383,28.281755,-23.810501,5.023289,-12.758875,2.2649875,-30.152681,19.454199,-7.1304936,-6.945644,-14.884154,-5.0199947,13.505767,-17.487724,17.749136,-30.496315,51.00218,26.284534,-5.5895934,16.549913,17.465939,-14.856133,25.481071,69.28748,-2.4398525,-1.1542795,-1.1841801
116,59.16294860839844,48.197139739990234,74.46226501464844,0.5315810341600068,-5.306977155335829,-159.71989387169606,15.669769,-7.391095,7.1639776,26.588825,-23.993528,5.7722135,-14.223732,0.9531073,-29.111162,21.01914,-6.8866935,-4.9951115,-14.9277725,-6.100889,13.660422,-17.925425,17.863665,-30.72924,50.851166,26.1556,-5.6603136,16.47824,17.0485,-14.5577755,25.334389,69.16605,-2.543913,-1.3121578,-1.2284213
117,59.87183380126953,48.610042572021484,74.41832733154297,1.3988325419563037,-5.342300150594312,-159.55395712423598,15.830733,-8.389884,7.1232605,24.835144,-24.030216,6.3398523,-15.622933,-0.06443108,-27.421812,22.285866,-6.3554635,-2.4492736,-14.909696,-7.105122,13.855451,-18.285372,17.962692,-30.91674,50.735134,25.969172,-5.7804856,16.51907,16.585102,-14.278332,25.234346,69.07107,-2.671279,-1.4396155,-1.3476763
118,60.56782150268555,49.02106475830078,74.37538146972656,2.2287857220591225,-5.405564358910429,-159.44228964470543,16.02577,-9.359759,6.93812,23.036705,-23.896221,6.6631994,-16.983995,-0.8400814,-25.232504,23.36724,-5.6904197,0.6346068,-14.8403,-8.050091,14.094004,-18.595285,18.043463,-31.063696,50.65172,25.715994,-5.9373994,16.639568,16.076824,-14.021062,25.178354,68.98111,-2.807524,-1.5553786,-1.5309064
119,61.23768615722656,49.42496871948242,74.3338851928711,2.989768788864139,-5.509708696210422,-159.37356580853245,16.258303,-10.251882,6.682324,21.267862,-23.653717,6.8363447,-18.221397,-1.3423514,-22.639244,24.242216,-4.9257545,4.1372724,-14.72992,-8.912258,14.374277,-18.830578,18.101986,-31.159718,50.598263,25.446299,-6.1004877,16.79108,15.542826,-13.792347,25.170038,68.873886,-2.964647,-1.6464057,-1.7564024
120,61.88906478881836,49.82543182373047,74.2943344116211,3.66071895339006,-5.668142942746735,-159.3367079322678,16.533445,-11.033869,6.4302487,19.594833,-23.364826,6.9532804,-19.246073,-1.5597533,-19.723076,24.88394,-4.073927,7.94161,-14.590497,-9.678124,14.690268,-18.966434,18.134344,-31.193697,50.571873,25.209496,-6.238589,16.925268,15.004086,-13.601002,25.21386,68.724266,-3.1534429,-1.6993842,-2.001972
121,62.533111572265625,50.214542388916016,74.25840759277344,4.2565210786401035,-5.910983845591245,-159.34061582118716,16.885206,-11.720126,6.1639385,18.018856,-23.025993,7.0065575,-19.931236,-1.3418512,-16.13844,24.962408,-2.8947961,12.617604,-14.425017,-10.365422,15.061695,-18.982372,18.137272,-31.143034,50.563873,25.006712,-6.348801,17.045057,14.464303,-13.4518175,25.324543,68.52675,-3.370358,-1.6828493,-2.292652
122,63.1390495300293,50.64680480957031,74.22724151611328,4.559398730348489,-6.155856172245101,-159.62479355103716,16.942501,-11.9585,6.171746,17.148066,-22.99083,6.8547425,-20.133846,-0.19239645,-12.393432,24.06043,-1.3039179,15.000033,-13.9979315,-10.747342,15.495334,-18.89483,18.114239,-31.021212,50.58336,24.815035,-6.447222,17.171368,13.934542,-13.347508,25.50294,68.27422,-3.608963,-1.6103113,-2.6268597
123,63.71977233886719,51.117454528808594,74.21082305908203,4.595924191569308,-6.423735198439405,-160.07346539401283,16.753445,-11.794088,6.4110484,16.927906,-23.2431,6.58018,-20.023909,1.2951708,-9.178808,23.12023,0.05126344,15.000033,-13.384517,-10.855787,16.003944,-18.72665,18.08131,-30.871975,50.62424,24.647093,-6.5285497,17.281641,13.428779,-13.289017,25.716621,67.94823,-3.8809304,-1.5389848,-2.9412673
124,64.29946899414062,51.54478454589844,74.22361755371094,4.642529327014204,-6.710880512992742,-160.38325213202185,16.635038,-11.668524,6.568888,16.605738,-23.336056,6.3784547,-20.176006,2.152708,-6.654792,23.602385,0.37386796,15.000033,-12.897438,-10.962117,16.479656,-18.510523,18.01579,-30.69012,50.735676,24.540066,-6.588328,17.357473,12.886526,-13.246027,25.9817,67.62633,-4.1863422,-1.5289243,-3.1898897
125,64.88973236083984,51.93117904663086,74.2679214477539,4.761816084976077,-6.966399221222218,-160.56109722649217,16.587606,-11.681083,6.658892,16.040575,-23.174864,6.278701,-20.819958,2.309524,-4.74143,25.696146,-0.3037225,15.000033,-12.49318,-11.101434,16.88451,-18.256523,17.93468,-30.531183,50.881268,24.48056,-6.620665,17.380384,12.362772,-13.247032,26.236132,67.22763,-4.5607886,-1.5936589,-3.3245726
126,65.47280883789062,52.27960968017578,74.3367691040039,4.952328563029071,-7.202167293839479,-160.66158247539315,16.603767,-11.814997,6.6977606,15.282804,-22.78894,6.2380047,-21.718796,2.0326953,-3.1202447,28.697906,-1.5012273,15.000033,-12.166679,-11.271369,17.20716,-17.960567,17.787182,-30.330748,51.115135,24.485489,-6.6322045,17.368887,11.842197,-13.300026,26.542484,66.77947,-4.974176,-1.7003564,-3.3902888
127,66.0457992553711,52.61091613769531,74.41069793701172,5.186888603038033,-7.4047175447732405,-160.71112172060816,16.637157,-12.021791,6.707969,14.406974,-22.250135,6.2424784,-22.653955,1.4200184,-1.8914573,32.075554,-2.8984132,15.000033,-11.864498,-11.452406,17.458681,-17.62184,17.611221,-30.142204,51.404266,24.513409,-6.625102,17.347942,11.356235,-13.399425,26.849798,66.266556,-5.4067664,-1.8460553,-3.431394
128,66.6227035522461,52.940940856933594,74.49451446533203,5.410557961947309,-7.567175888989791,-160.73672447304563,16.628584,-12.215548,6.7205443,13.53386,-21.65832,6.2717986,-23.439707,0.547153,-1.2027917,35.415695,-4.261257,15.000033,-11.578776,-11.600582,17.640928,-17.22995,17.412104,-29.950836,51.750973,24.55669,-6.604906,17.344572,10.8906975,-13.537422,27.173456,65.719124,-5.8168397,-2.0210106,-3.5007668
129,67.19072723388672,53.255916595458984,74.58877563476562,5.617990777555773,-7.689376085498214,-160.72800477520846,16.571222,-12.392063,6.7381043,12.676331,-21.014544,6.3471622,-24.06944,-0.77749974,-1.2696126,38.788513,-5.666558,15.000033,-11.316919,-11.714714,17.74953,-16.783318,17.191866,-29.767021,52.163754,24.619617,-6.5708055,17.369968,10.439065,-13.712308,27.533669,65.14048,-6.2037644,-2.2319279,-3.6122801
130,67.75470733642578,53.562652587890625,74.69772338867188,5.836783855560592,-7.787743179814993,-160.655603435115,16.53092,-12.605057,6.721613,11.730034,-20.25208,6.4730616,-24.589481,-2.6252303,-1.8827217,42.3226,-7.2189956,15.000033,-11.105502,-11.824207,17.791388,-16.279016,16.949783,-29.584791,52.63316,24.708239,-6.5208035,17.406675,10.001675,-13.923378,27.927158,64.52302,-6.5836463,-2.4800355,-3.7397287
131,68.30655670166016,53.87718200683594,74.8096923828125,6.042189937831417,-7.876787574975687,-160.53311661851833,16.504751,-12.814791,6.6659193,10.744465,-19.42006,6.5973268,-24.938368,-4.6965365,-2.6144438,45.79804,-8.789948,15.000033,-10.936638,-11.911139,17.79194,-15.720129,16.691984,-29.390337,53.139996,24.801584,-6.4576464,17.440958,9.5773535,-14.1658535,28.311382,63.88115,-6.949433,-2.749864,-3.8751917
132,68.84794616699219,54.18318557739258,74.92440032958984,6.209785917273304,-7.955841066926192,-160.39273201435896,16.465952,-12.975712,6.587486,9.780858,-18.575232,6.666161,-25.105621,-6.6250043,-3.0859346,49.01649,-10.209361,15.000033,-10.785441,-11.951106,17.766542,-15.108319,16.429186,-29.170673,53.661118,24.876795,-6.383946,17.459093,9.161647,-14.4326105,28.644417,63.232277,-7.293723,-3.02615,-4.010938
133,69.38050842285156,54.491329193115234,75.04717254638672,6.325707757781998,-8.010698042437298,-160.24077484858975,16.398148,-13.067313,6.489945,8.841445,-17.714996,6.6655183,-25.126389,-8.362274,-3.3045974,52.019836,-11.435401,15.000033,-10.649584,-11.932467,17.702694,-14.425777,16.16541,-28.913172,54.189827,24.93285,-6.3011885,17.468,8.741334,-14.722509,28.935999,62.591755,-7.626324,-3.3330245,-4.145964
134,69.90668487548828,54.79319763183594,75.17481994628906,6.404395235679466,-8.045001174284957,-160.06394746247324,16.318123,-13.111459,6.367302,7.894271,-16.81278,6.62405,-25.001644,-10.063754,-3.456451,54.90486,-12.565957,15.000033,-10.538534,-11.869648,17.597546,-13.672904,15.901211,-28.628128,54.729275,24.977947,-6.207585,17.470062,8.316678,-15.035899,29.202452,61.952976,-7.94836,-3.671025,-4.284899
135,70.41209411621094,55.13091278076172,75.31246185302734,6.325394619519618,-8.032695427973128,-160.06179914673038,15.925837,-12.887855,6.490711,7.5378757,-16.228397,6.481302,-24.73444,-11.425314,-3.769439,57.473827,-13.500214,13.67755,-10.253552,-11.637475,17.484665,-12.876363,15.647539,-28.332952,55.270298,25.007244,-6.102517,17.44624,7.900693,-15.360485,29.414738,61.29635,-8.236888,-3.9846447,-4.429034
136,70.90864562988281,55.477134704589844,75.44742584228516,6.250060097260358,-8.01357393219174,-160.07031662540604,15.418494,-12.644156,6.640733,7.413783,-15.751529,6.3171844,-24.356535,-12.583398,-3.8845,59.803925,-14.351548,12.292159,-9.95769,-11.409166,17.35685,-12.055078,15.414829,-28.045153,55.795143,25.014421,-5.982746,17.374178,7.5068736,-15.68452,29.539429,60.613888,-8.472912,-4.2220306,-4.577948
137,71.397705078125,55.83984375,75.5759048461914,6.188810863877364,-7.985117297262519,-160.08013453618793,14.870451,-12.404541,6.785403,7.3626924,-15.285698,6.130503,-23.884293,-13.460526,-3.6442943,61.901894,-15.089917,11.35529,-9.658151,-11.196618,17.206045,-11.199773,15.209999,-27.753897,56.29689,24.98931,-5.8390207,17.235847,7.136578,-15.99914,29.558891,59.90139,-8.657616,-4.3526673,-4.7321167
138,71.87985229492188,56.19353485107422,75.70137786865234,6.1270948502575155,-7.94160984002186,-160.09201539819767,14.31069,-12.1549835,6.919936,7.3129063,-14.792338,5.916845,-23.318924,-14.100959,-3.1507087,63.81306,-15.708173,10.755414,-9.355057,-10.987743,17.026619,-10.297199,15.034272,-27.453478,56.775738,24.936802,-5.675127,17.045444,6.775689,-16.302483,29.49372,59.17735,-8.801027,-4.410904,-4.891872
139,72.36111450195312,56.546669006347656,75.82262420654297,6.068362033896484,-7.894922720918012,-160.1114728077961,13.751276,-11.899531,7.055659,7.2672057,-14.301094,5.697808,-22.650433,-14.600261,-2.540959,65.5402,-16.246405,10.395197,-9.042579,-10.784321,16.838512,-9.369202,14.890542,-27.173813,57.234287,24.869526,-5.5080366,16.83157,6.415364,-16.594942,29.369713,58.46245,-8.894575,-4.441685,-5.0571113
140,72.83529663085938,56.91117477416992,75.93698120117188,6.012455320546627,-7.8569124103621855,-160.1434874129906,13.2041445,-11.645264,7.204857,7.2255106,-13.838969,5.4955344,-21.868773,-15.061397,-1.9462533,67.08378,-16.748798,10.17388,-8.714343,-10.58746,16.66201,-8.436791,14.782149,-26.945011,57.67488,24.801226,-5.3549795,16.622782,6.0478578,-16.878332,29.2111,57.775906,-8.929787,-4.489995,-5.2275376
141,73.30708312988281,57.277427673339844,76.04202270507812,5.955321925078905,-7.8291202799825905,-160.18695038359374,12.670694,-11.386018,7.3709927,7.188524,-13.415482,5.3184147,-20.95607,-15.445021,-1.3477421,68.43089,-17.213606,10.157611,-8.366652,-10.3917465,16.49935,-7.497758,14.712562,-26.767925,58.09693,24.733173,-5.21623,16.422094,5.679036,-17.15377,29.006466,57.112755,-8.91044,-4.5548334,-5.4051566
142,73.77796936035156,57.642120361328125,76.13578796386719,5.897413949353031,-7.8055620994796655,-160.24032832101295,12.146246,-11.119607,7.54796,7.154011,-13.014134,5.1534796,-19.920696,-15.715805,-0.70365417,69.594345,-17.62413,10.372941,-8.003626,-10.198729,16.341187,-6.5409303,14.683007,-26.62734,58.496647,24.658081,-5.0841,16.215292,5.310313,-17.420994,28.74883,56.465374,-8.838445,-4.6169505,-5.589
143,74.2545166015625,58.00629425048828,76.2140884399414,5.849977757823821,-7.787415633796199,-160.30742177640738,11.63178,-10.860707,7.7348003,7.1217146,-12.625761,4.9913673,-18.791698,-15.983436,-0.10362148,70.60128,-17.997246,10.654827,-7.6314535,-10.019326,16.18946,-5.575704,14.693384,-26.529062,58.874744,24.576147,-4.9638166,16.005487,4.9288516,-17.679712,28.467934,55.848118,-8.705383,-4.6939764,-5.7743134
144,74.72320556640625,58.37821960449219,76.2835464477539,5.826037979237697,-7.775656466828787,-160.39262827744454,11.12731,-10.622016,7.9305067,7.0944223,-12.2424555,4.822696,-17.603014,-16.358654,0.36863193,71.47768,-18.347385,10.836139,-7.2561874,-9.86654,16.045755,-4.612929,14.743114,-26.480137,59.234894,24.48682,-4.8605657,15.795918,4.519965,-17.930248,28.194456,55.278183,-8.5022955,-4.8034854,-5.9565215
145,75.1914291381836,58.74678421020508,76.33602905273438,5.827083143146409,-7.777690972600976,-160.49654650551219,10.643052,-10.409302,8.134273,7.070424,-11.865307,4.6472144,-16.34091,-16.861616,0.6966293,72.22767,-18.665396,10.905338,-6.8813043,-9.740547,15.915252,-3.6480405,14.833903,-26.484188,59.571293,24.385208,-4.7756705,15.581819,4.080278,-18.172586,27.931559,54.764927,-8.17821,-4.974063,-6.1331477
146,75.66327667236328,59.12873077392578,76.37544250488281,5.8478099219623525,-7.790685562414708,-160.61736194582153,10.175334,-10.2144375,8.347634,7.049027,-11.49716,4.4690948,-14.996762,-17.437254,0.92341727,72.839096,-18.946392,10.939439,-6.5036826,-9.636657,15.795288,-2.6787465,14.967212,-26.536364,59.886875,24.271889,-4.70632,15.363261,3.615799,-18.406979,27.66508,54.299965,-7.7549205,-5.1891203,-6.306175
147,76.13385772705078,59.50844192504883,76.40383911132812,5.8871825210849975,-7.8005931438390865,-160.75499881107743,9.704404,-10.0335865,8.574075,7.033075,-11.133995,4.285088,-13.61246,-18.076948,1.055468,73.310234,-19.208757,10.906923,-6.1187143,-9.55536,15.67742,-1.7175978,15.139958,-26.628628,60.195328,24.15983,-4.651669,15.150726,3.1294048,-18.631947,27.402227,53.869854,-7.3286066,-5.397967,-6.4780393
148,76.5999984741211,59.883731842041016,76.42428588867188,5.944835237714144,-7.793311261187315,-160.90958800802423,9.210461,-9.863387,8.816921,7.0247188,-10.771607,4.0923996,-12.23082,-18.77492,1.1007835,73.64138,-19.472929,10.776974,-5.7223916,-9.497473,15.55229,-0.77907866,15.346415,-26.751966,60.514114,24.06302,-4.610886,14.954863,2.6250596,-18.844833,27.14778,53.461216,-6.998517,-5.549325,-6.6530046
149,77.06275939941406,60.26720428466797,76.43382263183594,6.029155068179552,-7.769192391427912,-161.08341862883645,8.694779,-9.715485,9.081432,7.022259,-10.413161,3.894866,-10.849643,-19.57113,1.0318757,73.84172,-19.745678,10.512356,-5.3115406,-9.47145,15.417849,0.13175324,15.585391,-26.916998,60.849823,23.987516,-4.5941777,14.783826,2.0948143,-19.046232,26.905409,53.079067,-6.7886066,-5.615661,-6.838591
150,77.54135131835938,60.66019058227539,76.42996978759766,6.137926012612698,-7.734464451355601,-161.27634007009607,8.165717,-9.5884495,9.365706,7.0256257,-10.059793,3.6928313,-9.449614,-20.451757,0.8532273,73.910225,-20.018238,10.141542,-4.887628,-9.473623,15.279628,1.0190777,15.856994,-27.12408,61.197807,23.926699,-4.5983787,14.630612,1.5418701,-19.235216,26.670029,52.72633,-6.6474476,-5.628364,-7.03141
151,78.0238265991211,61.054534912109375,76.41513061523438,6.255320337416317,-7.683438908000602,-161.48448828763895,7.612801,-9.459704,9.662054,7.037887,-9.701322,3.4778643,-8.052176,-21.324326,0.62241364,73.83732,-20.288712,9.731775,-4.453439,-9.491309,15.135465,1.8776661,16.156391,-27.35423,61.566036,23.871328,-4.602795,14.484917,0.9754583,-19.41018,26.437222,52.40265,-6.558355,-5.625047,-7.221631
152,78.5045394897461,61.44915771484375,76.39511108398438,6.36301864036625,-7.610452759786643,-161.70442346019047,7.025084,-9.303379,9.962566,7.066757,-9.332017,3.2410302,-6.67596,-22.093922,0.39610514,73.60541,-20.550495,9.34891,-4.011381,-9.507441,14.982711,2.7021763,16.475216,-27.58638,61.963398,23.81501,-4.586627,14.336855,0.40519115,-19.56781,26.203724,52.106846,-6.5036206,-5.6432114,-7.3992
153,78.98666381835938,61.85219955444336,76.36531066894531,6.474444170624921,-7.508057310650862,-161.93989802516907,6.3051424,-9.120153,10.285719,7.3017673,-9.053361,2.978212,-5.3317623,-22.790903,0.17324173,73.22112,-20.824963,8.969533,-3.5595942,-9.535642,14.810182,3.4883208,16.810135,-27.834726,62.395844,23.74897,-4.5448074,14.187325,-0.17145596,-19.705631,25.966057,51.845848,-6.495464,-5.695024,-7.564287
154,79.47021484375,62.27540969848633,76.32281494140625,6.594925123207887,-7.380881283275425,-162.1915713180829,5.2887926,-8.8798065,10.659427,8.107796,-9.062148,2.6916885,-4.008109,-23.442879,-0.07010166,72.69134,-21.108988,8.574874,-3.096614,-9.579461,14.621317,4.234644,17.160946,-28.104763,62.8652,23.680784,-4.4879484,14.04183,-0.76034397,-19.823631,25.726934,51.623035,-6.537513,-5.7594767,-7.72219
155,79.96756744384766,62.69664764404297,76.27456665039062,6.688419714270611,-7.240932014109924,-162.4498723554765,4.1708126,-8.572261,11.0408535,9.099796,-9.148954,2.3856583,-2.6975398,-23.957523,-0.30767116,72.0056,-21.358444,8.232434,-2.6282623,-9.605993,14.432599,4.9425616,17.522383,-28.362337,63.373436,23.626492,-4.418165,13.897523,-1.3547356,-19.922054,25.48999,51.430115,-6.6030664,-5.8246326,-7.870377
156,80.46038055419922,63.134037017822266,76.2223892211914,6.715068566376044,-7.099433871995897,-162.70424691337863,2.9531767,-8.148244,11.41527,10.302613,-9.320072,2.0597625,-1.3927712,-24.237576,-0.51358294,71.15043,-21.526442,8.008102,-2.1631324,-9.578568,14.258309,5.611846,17.885908,-28.571577,63.92847,23.602503,-4.339986,13.752932,-1.9499555,-20.00204,25.26137,51.26063,-6.6646338,-5.878357,-8.006495
157,80.95951843261719,63.583229064941406,76.16537475585938,6.652929213931993,-6.955311263809704,-162.94864214780515,1.6068882,-7.5745273,11.779324,11.781475,-9.605134,1.703915,-0.08897166,-24.235447,-0.67913777,70.1126,-21.60909,7.908182,-1.7078724,-9.472203,14.0928755,6.2403092,18.245918,-28.745945,64.54828,23.609562,-4.263734,13.615918,-2.5503352,-20.06381,25.0408,51.121998,-6.7121387,-5.921386,-8.121039
158,81.45223236083984,64.02743530273438,76.10601043701172,6.517246428411723,-6.802473828478725,-163.18740510223475,0.14801034,-6.8741045,12.127754,13.494193,-9.988786,1.3161684,1.2053307,-23.999609,-0.81651026,68.901924,-21.627205,7.893714,-1.2602007,-9.300121,13.925963,6.826466,18.600534,-28.895971,65.2301,23.641829,-4.1845217,13.48602,-3.1576376,-20.108156,24.826164,51.016403,-6.7612724,-5.9588985,-8.218428
159,81.95591735839844,64.48342895507812,76.03092193603516,6.32650751203071,-6.645808424607149,-163.42567215457888,-1.35782,-6.082379,12.442603,15.306255,-10.406781,0.9083326,2.474765,-23.584297,-0.92756355,67.54279,-21.572905,7.960876,-0.81608415,-9.080962,13.7636,7.3775268,18.946491,-28.978786,65.94078,23.70656,-4.0794697,13.347112,-3.7645154,-20.138166,24.62389,50.92942,-6.821536,-5.9850802,-8.316451
160,82.46308898925781,64.96420288085938,75.94092559814453,6.103929863351649,-6.491159202026498,-163.6693505166693,-2.8447409,-5.2406945,12.710146,17.08124,-10.794732,0.49465925,3.7050922,-23.049803,-1.0125334,66.059494,-21.438234,8.107919,-0.37271538,-8.837436,13.614213,7.9056473,19.279238,-28.945448,66.642845,23.815748,-3.9258308,13.182254,-4.3625417,-20.156504,24.442387,50.84295,-6.901389,-5.993894,-8.432738
161,82.96769714355469,65.4478988647461,75.8381576538086,5.833052796158777,-6.336638933790411,-163.91564989551264,-4.3349895,-4.3260465,12.917248,18.856634,-11.16902,0.07441521,4.8948755,-22.347363,-1.0460113,64.44204,-21.210224,8.358289,0.06749257,-8.552708,13.473894,8.412579,19.595533,-28.787283,67.34815,23.998867,-3.7166367,12.966529,-4.9483614,-20.162397,24.279488,50.761745,-7.0181174,-5.979008,-8.5832815
162,83.47142028808594,65.93580627441406,75.72940826416016,5.506426452083245,-6.181031993346362,-164.16336280357095,-5.844327,-3.3291304,13.066725,20.669075,-11.547675,-0.3613994,6.049301,-21.468298,-1.0245602,62.679955,-20.89742,8.698379,0.5019664,-8.2189665,13.338161,8.894618,19.893742,-28.526016,68.07221,24.242113,-3.4671092,12.715957,-5.5293193,-20.155628,24.135864,50.69308,-7.160359,-5.944765,-8.754637
163,83.9873046875,66.42190551757812,75.61579132080078,5.1696569101741785,-6.031072784961401,-164.42281726952146,-7.3000503,-2.3199184,13.178226,22.38174,-11.868555,-0.8050337,7.1656785,-20.538551,-0.98326343,60.799328,-20.52782,9.076085,0.9355596,-7.879618,13.216041,9.358463,20.172062,-28.159355,68.77683,24.493984,-3.1822588,12.473242,-6.110496,-20.141455,24.023226,50.622208,-7.296903,-5.901463,-8.920674
164,84.49830627441406,66.90737915039062,75.49276733398438,4.871185316329528,-5.893858387328207,-164.7038824955636,-8.638405,-1.3682876,13.278107,23.873116,-12.076279,-1.2448794,8.242618,-19.684877,-0.96244544,58.82704,-20.128494,9.444275,1.3716321,-7.581016,13.118902,9.8096485,20.42854,-27.683458,69.42743,24.701939,-2.8694773,12.282791,-6.696801,-20.128887,23.955065,50.531105,-7.394341,-5.859468,-9.055071
165,85.0190200805664,67.39688110351562,75.36434936523438,4.619164589205167,-5.772421043060833,-165.00682166195142,-9.855539,-0.4869861,13.370438,25.134134,-12.166208,-1.6739213,9.28685,-18.908691,-0.9549213,56.762226,-19.600632,9.836116,1.8138025,-7.3273377,13.0510025,10.255217,20.65908,-27.077885,70.02299,24.872627,-2.5141656,12.157941,-7.275586,-20.12505,23.92685,50.397053,-7.442132,-5.8077164,-9.150801
166,85.55049133300781,67.88972473144531,75.23796844482422,4.393376240083607,-5.6629387269600135,-165.32703124133158,-10.9928465,0.3573734,13.4492,26.240675,-12.169853,-2.0951133,10.299852,-18.157745,-0.943357,54.592335,-18.968672,10.264357,2.2596505,-7.097607,13.008657,10.689959,20.860954,-26.351679,70.58056,25.027382,-2.1182525,12.074506,-7.843988,-20.131222,23.934946,50.226624,-7.4552794,-5.7451806,-9.220743
167,86.08393096923828,68.39183044433594,75.10865020751953,4.2004599736515145,-5.562213950804235,-165.6675852800534,-12.043768,1.1625896,13.531022,27.175625,-12.08241,-2.5099094,11.272501,-17.475704,-0.9625956,52.32749,-18.43469,10.653882,2.704548,-6.9003606,12.994084,11.101484,21.035522,-25.546461,71.09045,25.135113,-1.7122452,12.021128,-8.413465,-20.14466,23.987831,50.040287,-7.443639,-5.697147,-9.268209
168,86.62129211425781,68.89079284667969,74.98133850097656,4.0472310884719835,-5.466667769021957,-166.03118580984443,-13.003215,1.9272624,13.632919,27.926222,-11.899961,-2.919779,12.198797,-16.903933,-1.0547534,49.970848,-18.200245,10.931683,3.143832,-6.745656,13.009377,11.477836,21.187506,-24.70473,71.54245,25.164007,-1.326527,11.987296,-8.999303,-20.161171,24.094503,49.862667,-7.417103,-5.6888704,-9.296982
169,87.16851806640625,69.39993286132812,74.85369110107422,3.9559400040171147,-5.378916444642853,-166.43201237588502,-13.868058,2.6353946,13.780002,28.497314,-11.6161375,-3.2966187,13.109653,-16.47561,-1.2261711,47.43304,-18.33356,11.118212,3.5882797,-6.654318,13.0586815,11.825591,21.320349,-23.818405,71.9349,25.092806,-0.9510949,11.971051,-9.607599,-20.178005,24.258615,49.700447,-7.364144,-5.7404304,-9.291803
170,87.72174835205078,69.92630004882812,74.72920227050781,3.915796532626186,-5.299218641496379,-166.8638326166272,-14.645106,3.2943957,13.961486,28.898508,-11.236122,-3.646628,14.0025215,-16.150833,-1.4678034,44.735447,-18.718796,11.251232,4.037045,-6.616164,13.142104,12.151618,21.434412,-22.869753,72.269905,24.943798,-0.57554114,11.978655,-10.232198,-20.19495,24.473917,49.543297,-7.2847652,-5.83412,-9.256484
171,88.28031921386719,70.45877838134766,74.61795806884766,3.8834243800336803,-5.220931496440641,-167.2986785555048,-15.345872,3.9376793,14.138609,29.13116,-10.777217,-4.023259,14.820509,-15.854529,-1.7997829,42.04702,-19.279772,11.286946,4.474081,-6.5898614,13.256334,12.433223,21.527838,-21.903563,72.55228,24.740757,-0.22969532,12.013495,-10.858079,-20.208559,24.723833,49.381947,-7.2089005,-5.9387813,-9.223051
172,88.84980010986328,71.00663757324219,74.51663208007812,3.816453164329349,-5.137727362893814,-167.70916016149582,-15.978383,4.595335,14.271961,29.186192,-10.25106,-4.4803667,15.507312,-15.518561,-2.2374427,39.533783,-19.939442,11.17939,4.8673515,-6.542626,13.39866,12.676851,21.610062,-20.929882,72.75729,24.520596,0.055761833,12.074343,-11.485887,-20.214529,25.012337,49.21195,-7.1621375,-6.023195,-9.224954
173,89.42386627197266,71.56231689453125,74.43314361572266,3.717584778026369,-5.048418394739807,-168.1019792581994,-16.548204,5.267222,14.366051,29.064322,-9.610651,-5.0306635,16.043455,-15.149475,-2.8144088,37.21848,-20.763777,10.873577,5.2466803,-6.472591,13.570395,12.843481,21.67819,-19.984003,72.91951,24.263815,0.26777557,12.176413,-12.105963,-20.213516,25.31722,49.021435,-7.1565013,-6.07481,-9.270532
174,90.00389099121094,72.12108612060547,74.36320495605469,3.604207774369431,-4.9563655309848,-168.48742476466478,-17.052645,5.9367404,14.4370775,28.768522,-8.864207,-5.6456213,16.467186,-14.762898,-3.5143247,35.00774,-21.764286,10.423674,5.58634,-6.404943,13.776178,12.993533,21.745531,-18.996328,72.98942,23.974417,0.42183846,12.308955,-12.746688,-20.201038,25.679602,48.82065,-7.1672015,-6.1112304,-9.344576
175,90.5988540649414,72.69361877441406,74.3140869140625,3.4556491227954,-4.862717522996286,-168.84425350903587,-17.488132,6.60831,14.4644,28.29447,-8.1059475,-6.3184514,16.801697,-14.310382,-4.272917,32.906036,-22.78798,9.936113,5.8977714,-6.3099256,14.002701,13.0924835,21.79997,-18.035198,73.002144,23.66359,0.53809834,12.455053,-13.368284,-20.176418,26.04404,48.625378,-7.207574,-6.149005,-9.437974
176,91.20995330810547,73.2713394165039,74.27574157714844,3.2528485044862414,-4.76861779055797,-169.15188813580892,-17.848682,7.286324,14.429675,27.633867,-7.4295344,-7.0436378,17.070786,-13.753103,-5.026833,30.913435,-23.67503,9.507696,6.1690984,-6.162493,14.23849,13.132455,21.831156,-17.13091,72.96616,23.354486,0.63601494,12.595079,-13.947832,-20.143177,26.385754,48.452236,-7.281387,-6.2037396,-9.542253
177,91.83150482177734,73.84939575195312,74.25579071044922,2.971194801956718,-4.671894740896814,-169.41016396821828,-18.14213,8.0024605,14.324026,26.788763,-6.815464,-7.8789744,17.267544,-13.072386,-5.8206215,29.03514,-24.417818,9.150446,6.365783,-5.945291,14.488045,13.141611,21.83899,-16.232224,72.84314,23.062235,0.7282744,12.730329,-14.525348,-20.09179,26.747211,48.3207,-7.395585,-6.2857065,-9.670827
178,92.45164489746094,74.42790985107422,74.25527954101562,2.6290188952080165,-4.573011418573953,-169.63080569019766,-18.366833,8.739739,14.165124,25.750364,-6.219902,-8.810167,17.39065,-12.294309,-6.6682005,27.250933,-25.079346,8.814289,6.5245967,-5.6696863,14.751978,13.086053,21.822678,-15.370894,72.669235,22.765688,0.80345654,12.873378,-15.08618,-20.028374,27.104977,48.21702,-7.5507994,-6.3842587,-9.821963
179,93.06977081298828,75.01439666748047,74.27640533447266,2.272861923015646,-4.476857408417282,-169.81001888431794,-18.494,9.433836,13.979296,24.48362,-5.69774,-9.724727,17.469225,-11.464282,-7.458269,25.529572,-25.60909,8.491675,6.6397877,-5.3803034,15.019871,12.987204,21.780313,-14.553037,72.4576,22.470219,0.84003395,13.009187,-15.605592,-19.952673,27.452265,48.137794,-7.720534,-6.4828687,-9.972711
180,93.6854248046875,75.60968780517578,74.31552124023438,1.9483513976209488,-4.388788693693859,-169.94331177506425,-18.489883,10.024826,13.794854,22.953356,-5.3058305,-10.509559,17.523031,-10.627488,-8.07738,23.858347,-25.960056,8.16768,6.7137594,-5.118766,15.281977,12.852597,21.707363,-13.798663,72.233116,22.177687,0.8174444,13.123719,-16.055435,-19.863865,27.77655,48.081596,-7.8763227,-6.5656395,-10.09974
181,94.30630493164062,76.21101379394531,74.37054443359375,1.6619379184177954,-4.299409371090992,-170.0257877109628,-18.355253,10.481808,13.565329,21.117723,-5.1140494,-11.14734,17.51911,-9.796433,-8.4633875,22.262793,-26.100012,7.823453,6.7431197,-4.894971,15.5408325,12.660693,21.600052,-13.106355,72.011925,21.863781,0.71599686,13.213887,-16.435759,-19.759993,28.072895,48.05946,-8.013372,-6.6442633,-10.206183
182,94.9278793334961,76.80364227294922,74.43492126464844,1.3840993948741358,-4.211690837189709,-170.06405940825357,-18.087168,10.862506,13.30072,18.990086,-5.068111,-11.690358,17.459312,-8.948049,-8.683392,20.747522,-26.061836,7.4580455,6.728936,-4.6780486,15.801835,12.411309,21.45874,-12.468412,71.78085,21.535357,0.5519965,13.286963,-16.763365,-19.642624,28.353765,48.074974,-8.145211,-6.722215,-10.301334
183,95.53854370117188,77.36750793457031,74.51634979248047,1.1029988533409811,-4.149941050779061,-170.0710195119979,-17.633175,11.231891,13.116769,16.584967,-5.028103,-12.1393795,17.409481,-8.08118,-8.811577,19.278292,-25.901392,7.0785885,6.6819024,-4.444338,16.060501,12.145089,21.283396,-11.892624,71.51824,21.24628,0.35941124,13.344173,-17.023893,-19.517298,28.624498,48.10591,-8.277906,-6.7711477,-10.370117
184,96.15080261230469,77.9089126586914,74.6028060913086,0.8067044840964481,-4.137935126463485,-170.05898258487298,-16.9431,11.635793,13.132248,13.902856,-4.8442307,-12.511025,17.431414,-7.1973243,-8.917879,17.82075,-25.673115,6.6911187,6.611178,-4.1688457,16.312023,11.894479,21.0753,-11.4001465,71.20936,21.03747,0.17191052,13.387993,-17.20274,-19.392883,28.891556,48.127846,-8.415035,-6.762642,-10.396918
185,96.74488067626953,78.4365234375,74.68235778808594,0.4816037852212665,-4.20262856075935,-170.03499402814145,-15.823237,12.025396,13.311248,10.5313015,-4.385165,-12.846572,17.555555,-6.292151,-8.97685,16.367332,-25.383007,6.286663,6.530839,-3.8238099,16.567663,11.676498,20.825495,-10.987781,70.83851,20.936453,0.0027555455,13.4133835,-17.273455,-19.277365,29.14368,48.126736,-8.588901,-6.6645937,-10.372775
186,97.32193756103516,78.94989013671875,74.74922180175781,0.10929495125865281,-4.327820821758326,-169.99755375023562,-14.564375,12.445449,13.578411,7.022105,-3.9770832,-13.165277,17.7463,-5.346199,-8.94789,14.923044,-24.991549,5.849321,6.437764,-3.3952785,16.82559,11.470288,20.529734,-10.648994,70.41784,20.917475,-0.16692996,13.422477,-17.24335,-19.17554,29.381866,48.110157,-8.785405,-6.5001383,-10.304866
187,97.88260650634766,79.45925903320312,74.79544830322266,-0.28174877965723016,-4.462903093381116,-169.9323732440479,-14.774723,13.235591,13.779655,6.7866,-5.1950297,-13.438765,17.935444,-4.394475,-8.8971,13.525203,-24.516556,5.3913174,6.3065968,-2.9321706,17.062328,11.246616,20.20531,-10.402084,69.97389,20.938663,-0.3513176,13.42738,-17.14726,-19.08925,29.625578,48.081425,-8.941346,-6.323877,-10.203518
188,98.44537353515625,79.96852111816406,74.83399963378906,-0.6379388178149948,-4.555754960323959,-169.82080360089907,-14.949141,14.007004,14.4414215,6.6323223,-6.1245666,-13.614825,18.049423,-3.4938245,-8.905447,12.2234125,-23.988365,4.9339867,6.115708,-2.516943,17.259874,10.983907,19.880106,-10.250262,69.51973,20.975067,-0.5661248,13.435288,-17.012373,-19.014067,29.8828,48.034145,-8.993742,-6.190764,-10.080111
189,99.00376892089844,80.48832702636719,74.88008880615234,-0.9567945868485321,-4.607419922897676,-169.65763074471403,-15.047406,14.807943,15.826422,6.5194645,-6.689477,-13.698504,18.089314,-2.6377597,-8.998398,11.032931,-23.411434,4.493107,5.8591495,-2.1607497,17.430178,10.68636,19.568892,-10.200591,69.032715,21.000544,-0.8180032,13.425384,-16.842207,-18.94764,30.14723,47.943474,-8.921685,-6.0956154,-9.920138
190,99.56464385986328,80.98857879638672,74.9520034790039,-1.2164438282498162,-4.635335658627208,-169.43887947040298,-15.098968,15.60098,17.76105,6.534039,-7.0612993,-13.69106,18.035099,-1.8677461,-9.158117,10.036192,-22.833895,4.073918,5.5453873,-1.8829471,17.586685,10.35979,19.273605,-10.24448,68.50741,21.039158,-1.0996499,13.396492,-16.617819,-18.885695,30.40512,47.80974,-8.7597065,-6.0159802,-9.725755
191,100.12762451171875,81.48643493652344,75.05890655517578,-1.4625727392713397,-4.6265032555235175,-169.1795576810083,-15.04935,16.355461,19.801636,6.546817,-7.2255354,-13.525836,17.903196,-1.1203117,-9.358817,9.117959,-22.197786,3.6432452,5.191905,-1.6361635,17.69613,10.0031395,18.999996,-10.386828,67.98086,21.109617,-1.4049338,13.38348,-16.345457,-18.825039,30.67032,47.68886,-8.530733,-5.9805975,-9.527449
192,100.69821166992188,81.99436950683594,75.18656921386719,-1.691155906715044,-4.561344470732594,-168.88304700989207,-14.922028,16.996582,21.497482,6.5677247,-7.2506595,-13.114965,17.658081,-0.40335312,-9.593584,8.292495,-21.522491,3.18635,4.8086357,-1.4283253,17.731455,9.602571,18.758478,-10.633409,67.49621,21.230375,-1.7279793,13.421842,-16.02859,-18.758219,30.950857,47.629982,-8.259419,-6.018492,-9.358101
193,101.26738739013672,82.52880859375,75.3274154663086,-1.8889468054825107,-4.402818169414654,-168.52057692010376,-14.780677,17.508821,22.787823,6.6684422,-7.1650343,-12.291698,17.22314,0.2764393,-9.899355,7.65394,-20.834915,2.693073,4.368943,-1.2895463,17.666443,9.144521,18.56209,-11.00354,67.06662,21.399017,-2.0877917,13.534614,-15.682337,-18.677896,31.267666,47.638042,-7.907132,-6.168979,-9.228578
194,101.83271026611328,83.058349609375,75.47626495361328,-2.0327765023096043,-4.156150552458787,-168.07945158336238,-14.70323,17.907637,23.861607,7.0316787,-7.047635,-11.122986,16.447079,0.8573596,-10.304943,7.585202,-20.35246,2.189163,3.8607507,-1.2451351,17.514286,8.632638,18.413536,-11.491434,66.67134,21.603907,-2.4815052,13.696944,-15.30514,-18.577322,31.607244,47.69312,-7.476777,-6.4068017,-9.122245
195,102.3741226196289,83.58622741699219,75.60697174072266,-2.2093119045952085,-3.899414351559136,-167.64616225801205,-15.340537,18.611753,24.435703,9.209847,-7.745471,-9.917398,15.665352,1.4757733,-10.709261,7.5197296,-19.82949,1.6680397,3.368021,-1.171076,17.313131,8.117823,18.294556,-12.054965,66.2808,21.861523,-2.8696775,13.870491,-14.870614,-18.455624,31.934168,47.81477,-7.0519814,-6.664117,-9.023652
196,102.90473937988281,84.0891342163086,75.72189331054688,-2.442406674159299,-3.7202979477392555,-167.29860415819002,-16.808346,19.766243,24.387884,13.607253,-9.51911,-8.96498,14.967186,2.1393263,-11.025458,7.4559364,-19.3227,1.1458043,2.9669275,-1.0107709,17.123114,7.634335,18.180758,-12.648743,65.8781,22.190937,-3.211731,14.02132,-14.357637,-18.315796,32.2137,48.023197,-6.7159414,-6.8728557,-8.922842
197,103.42108917236328,84.57638549804688,75.81787872314453,-2.7062562091376545,-3.6389764762957726,-167.04337100094486,-17.862423,20.814322,24.107834,17.535795,-10.920556,-8.3243065,14.37117,2.814431,-11.238739,7.395895,-18.835873,0.62307614,2.668763,-0.78581697,16.950224,7.1718073,18.059475,-13.298257,65.49841,22.613615,-3.5041854,14.170012,-13.749653,-18.159157,32.450905,48.333157,-6.4659863,-7.0447826,-8.824068
198,103.92932891845703,85.06214904785156,75.89302825927734,-2.985221278736562,-3.6188930903851206,-166.84695622155792,-18.728153,21.79273,23.567753,21.400078,-12.1519165,-7.853108,13.847213,3.4973257,-11.3885,7.339091,-18.345854,0.093408525,2.4372945,-0.5234956,16.773281,6.715576,17.930222,-14.015654,65.14802,23.117313,-3.7638984,14.330088,-13.06191,-17.98737,32.6606,48.73494,-6.2681246,-7.2060328,-8.732299
199,104.4073715209961,85.51866149902344,75.96744537353516,-3.242258999724478,-3.6458758024662754,-166.68457634131178,-19.390945,22.59304,22.80718,25.033583,-13.211584,-7.4935308,13.385863,4.142393,-11.515024,7.2881956,-17.869883,-0.41884485,2.236891,-0.26329046,16.610199,6.2743726,17.79253,-14.734416,64.77312,23.66856,-3.9810903,14.457225,-12.323914,-17.802172,32.8221,49.202686,-6.153208,-7.310118,-8.644176
200,104.88465881347656,85.9643783569336,76.03398895263672,-3.448773746603174,-3.706045497276018,-166.53356418077064,-19.841331,23.124842,21.86359,28.291164,-14.1093445,-7.190072,12.973001,4.7096334,-11.654973,7.2442927,-17.416327,-0.8889854,2.0309107,-0.03629731,16.47887,5.85468,17.646702,-15.382674,64.32389,24.23554,-4.151408,14.5081835,-11.565176,-17.604904,32.915424,49.71023,-6.156718,-7.3106065,-8.556054
201,105.35778045654297,86.38610076904297,76.10721588134766,-3.5826723502246662,-3.806857565561813,-166.39018433307533,-20.083843,23.315,20.624516,31.174706,-14.831372,-6.9561596,12.61073,5.1625214,-11.814231,7.2095356,-16.98291,-1.3045175,1.8135713,0.137036,16.38911,5.462245,17.492567,-15.930688,63.77691,24.876982,-4.259732,14.434526,-10.780555,-17.392479,32.930355,50.260357,-6.359824,-7.17466,-8.473789
202,105.82546997070312,86.802490234375,76.17121887207031,-3.656498766690971,-3.9475737508905695,-166.2579825621495,-20.154196,23.216915,19.117437,33.82285,-15.415026,-6.8216333,12.293919,5.516964,-11.978094,7.1828384,-16.561567,-1.6774372,1.5930367,0.26681885,16.326221,5.0894575,17.331736,-16.415094,63.16281,25.589006,-4.316249,14.271042,-9.960279,-17.161882,32.87988,50.8625,-6.720903,-6.934486,-8.396783
203,106.29649353027344,87.21385192871094,76.22703552246094,-3.6974422270803564,-4.10235732082388,-166.12824317194685,-20.083963,22.95011,17.583767,36.297127,-15.942236,-6.7470527,11.993914,5.814908,-12.1492405,7.160581,-16.15321,-2.0191736,1.3580825,0.37340248,16.272322,4.7227874,17.169167,-16.867105,62.50211,26.242558,-4.347458,14.095843,-9.130836,-16.916681,32.782932,51.501896,-7.0856404,-6.6409516,-8.311808
204,106.76895141601562,87.61749267578125,76.28450012207031,-3.7325935617887986,-4.246119510494663,-165.99322351676864,-19.909924,22.648783,16.254053,38.655914,-16.493586,-6.6820846,11.683345,6.09848,-12.330463,7.1403346,-15.760321,-2.3411584,1.1000352,0.47796834,16.211842,4.3501215,17.010633,-17.318306,61.81169,26.70914,-4.377587,13.986301,-8.31366,-16.664,32.65799,52.156044,-7.297302,-6.3440566,-8.206869
205,107.2485122680664,88.00308990478516,76.33304595947266,-3.7537705434466,-4.368924701456873,-165.85289211093254,-19.64871,22.295485,15.092255,40.89397,-17.077145,-6.6297293,11.346954,6.3556075,-12.522727,7.125416,-15.380123,-2.6272311,0.8159611,0.57400244,16.144,3.9700322,16.857838,-17.765461,61.067974,26.952736,-4.3954353,13.936147,-7.508985,-16.407396,32.49376,52.81722,-7.320664,-6.032186,-8.075724
206,107.72994995117188,88.39437103271484,76.36997985839844,-3.7510843318548717,-4.48467510801464,-165.71065348378596,-19.28448,21.858444,13.999329,43.00999,-17.666767,-6.601302,10.99958,6.5686846,-12.723215,7.115636,-15.010183,-2.874952,0.51339287,0.6541949,16.077362,3.587561,16.71073,-18.195948,60.26673,27.043158,-4.393412,13.911339,-6.7028675,-16.147053,32.284637,53.48864,-7.235149,-5.686153,-7.92607
207,108.19740295410156,88.77751922607422,76.401123046875,-3.7510466238334197,-4.6045825456484115,-165.56383935018977,-18.80825,21.459942,13.100369,45.05513,-18.286764,-6.550147,10.659006,6.7744184,-12.930139,7.1052294,-14.655258,-3.118016,0.19693175,0.7399833,16.011522,3.1971967,16.572884,-18.632278,59.457573,27.002989,-4.3998814,13.947767,-5.892917,-15.887159,32.053993,54.163845,-7.0614095,-5.344259,-7.7687693
208,108.66899108886719,89.144775390625,76.42842102050781,-3.780159005718395,-4.73987156793194,-165.41026985566208,-18.210104,21.222757,12.518478,47.070045,-18.95658,-6.4275856,10.343179,7.0108705,-13.142486,7.089454,-14.321013,-3.3919854,-0.12660164,0.85281587,15.947316,2.7943819,16.449024,-19.097403,58.688396,26.855108,-4.444168,14.080817,-5.074739,-15.634968,31.82507,54.833153,-6.817465,-5.044566,-7.6138573
209,109.13412475585938,89.522705078125,76.4407730102539,-3.850745896574049,-4.899890588668941,-165.2429084986029,-17.478464,21.200619,12.299164,49.07582,-19.704731,-6.2080674,10.0655,7.293361,-13.364859,7.065975,-14.018597,-3.7161436,-0.46214038,1.0072546,15.894517,2.3754208,16.343416,-19.607965,57.956657,26.548086,-4.541895,14.334647,-4.2361417,-15.394604,31.584528,55.482227,-6.489167,-4.787984,-7.46396
210,109.59831237792969,89.89627075195312,76.44596862792969,-3.9475839443311562,-5.076741328301412,-165.06525811502974,-16.61997,21.33987,12.358105,51.045273,-20.516386,-5.9107704,9.814341,7.6005425,-13.596339,7.037021,-13.741666,-4.0690794,-0.80807626,1.18882,15.852455,1.9439476,16.255949,-20.151194,57.237297,26.086878,-4.6778164,14.683212,-3.3772724,-15.167546,31.324175,56.111065,-6.0724854,-4.5563693,-7.313294
211,110.05316162109375,90.26578521728516,76.44145202636719,-4.055910750338344,-5.256588450424834,-164.8905863099801,-15.652091,21.593616,12.627091,52.943527,-21.344597,-5.556547,9.570686,7.9174566,-13.8277645,7.0043907,-13.470267,-4.4268126,-1.1500272,1.3764338,15.806896,1.5090926,16.181986,-20.70214,56.542366,25.58351,-4.833867,15.087087,-2.5094955,-14.9563055,31.078281,56.728207,-5.5974073,-4.359619,-7.157742
212,110.50299072265625,90.62999725341797,76.43062591552734,-4.1602994644494355,-5.425606665077582,-164.73243333161074,-14.592934,21.905811,13.043876,54.73675,-22.141188,-5.1702695,9.315065,8.229336,-14.050367,6.971599,-13.185901,-4.765454,-1.475867,1.5504708,15.74261,1.0776235,16.114986,-21.236046,55.888577,25.147718,-4.989968,15.508774,-1.6473744,-14.764042,30.885536,57.345978,-5.0920553,-4.2075567,-6.9934673
213,110.94529724121094,90.99822998046875,76.4127426147461,-4.258122330964952,-5.587736075355864,-164.60246484402097,-13.412307,22.330755,13.711122,56.447845,-22.926939,-4.6918364,9.05419,8.537157,-14.254577,6.9405227,-12.889471,-5.082638,-1.7761648,1.7103167,15.658309,0.6490615,16.050566,-21.751688,55.281525,24.782877,-5.151716,15.982676,-0.7926351,-14.595256,30.761446,57.97238,-4.517204,-4.1167045,-6.817664
214,111.37975311279297,91.35743713378906,76.39047241210938,-4.354538373157294,-5.748641859270681,-164.49132430586067,-12.098058,22.864452,14.627312,58.082615,-23.723364,-4.1298914,8.797194,8.847039,-14.44701,6.9078526,-12.589683,-5.39083,-2.061805,1.8652275,15.56058,0.21859431,15.98819,-22.25843,54.71626,24.440742,-5.326458,16.515244,0.061205294,-14.452343,30.68872,58.600815,-3.8710892,-4.076067,-6.6319485
215,111.82212829589844,91.7210464477539,76.36197662353516,-4.4488550956078345,-5.896562654586125,-164.3802554394463,-10.711345,23.356712,15.576746,59.587673,-24.4676,-3.616774,8.527243,9.153514,-14.642963,6.8747044,-12.284263,-5.688198,-2.3511834,2.013342,15.444885,-0.21012619,15.926772,-22.744366,54.192673,24.156187,-5.4938684,17.028566,0.9123599,-14.333085,30.655035,59.22157,-3.240261,-4.0549707,-6.4385896
216,112.26567077636719,92.08914184570312,76.32669067382812,-4.545392963647493,-6.019384365480428,-164.24945689861238,-9.328776,23.661924,16.340828,60.90775,-25.089308,-3.2880387,8.221135,9.45459,-14.860488,6.851627,-11.975143,-5.9732156,-2.6657264,2.1571553,15.306523,-0.6331031,15.865384,-23.196413,53.710785,23.96326,-5.632005,17.44476,1.7552199,-14.232367,30.650055,59.82969,-2.7111893,-4.023506,-6.2410307
217,112.69696807861328,92.45401000976562,76.29566955566406,-4.647144916231212,-6.110507899596874,-164.10061592127556,-7.952908,23.79862,16.953747,62.050503,-25.598612,-3.120476,7.873415,9.755031,-15.0946865,6.8329525,-11.655674,-6.245286,-3.0072818,2.3020067,15.13421,-1.0490068,15.804216,-23.614258,53.27534,23.890503,-5.73412,17.752443,2.588723,-14.147304,30.676304,60.430286,-2.291938,-3.983535,-6.0289464
218,113.13752746582031,92.82734680175781,76.25360107421875,-4.751404462608538,-6.176837918526492,-163.94160502462802,-6.558871,23.812977,17.506168,63.037003,-26.01527,-3.0657198,7.4966574,10.054784,-15.340073,6.8128963,-11.325153,-6.505637,-3.3667223,2.445528,14.932009,-1.4607669,15.743973,-24.003948,52.887257,23.912172,-5.8101263,17.991114,3.4114974,-14.077517,30.73978,61.031013,-1.9415734,-3.948229,-5.804544
219,113.57451629638672,93.19669342041016,76.21490478515625,-4.851097235136807,-6.22638023544493,-163.76149766565618,-5.200131,23.602737,17.863111,63.840305,-26.284452,-3.222582,7.099012,10.341861,-15.612053,6.794652,-10.99239,-6.7543964,-3.7688973,2.571175,14.72848,-1.839001,15.704344,-24.330692,52.49935,23.985853,-5.866049,18.15132,4.2175565,-14.0369835,30.854805,61.606247,-1.6675454,-3.9037569,-5.5868716
220,114.01892852783203,93.56265258789062,76.17611694335938,-4.939746516868989,-6.267052998747859,-163.54965523994204,-3.9306443,23.068285,17.888855,64.431984,-26.353413,-3.6909401,6.690086,10.60484,-15.925422,6.775277,-10.661641,-6.991742,-4.163099,2.6777833,14.513029,-2.2668717,15.637203,-24.675753,52.21087,24.053286,-5.8978195,18.251625,5.0106106,-13.977795,30.956179,62.20029,-1.5006627,-3.841365,-5.407817
221,114.47068786621094,93.94140625,76.1357650756836,-5.021835781297899,-6.294856171928541,-163.29534756103342,-2.7698386,22.160522,17.515295,64.80618,-26.20956,-4.556112,6.265993,10.846586,-16.29499,6.7538877,-10.332607,-7.2231216,-4.611569,2.7559564,14.302978,-2.6750839,15.575709,-24.9432,51.938526,24.139597,-5.9071016,18.245451,5.769387,-13.925534,31.117268,62.79858,-1.4406825,-3.7610922,-5.2731586
222,114.91192626953125,94.33232879638672,76.0947265625,-5.09833033609873,-6.306749874250347,-163.00632522471471,-1.68715,20.934143,16.82901,64.98089,-25.90198,-5.7513213,5.821306,11.069658,-16.709736,6.733918,-10.0043,-7.4467654,-5.0933466,2.8132496,14.082875,-3.085061,15.511002,-25.166458,51.712368,24.256426,-5.8920445,18.148968,6.4998784,-13.871333,31.318413,63.411266,-1.4806542,-3.6692445,-5.171004
223,115.36610412597656,94.70376586914062,76.05912017822266,-5.15785802185218,-6.311793117416351,-162.69891037141963,-0.65840423,19.450367,15.923607,64.964676,-25.474232,-7.1494894,5.3652654,11.262317,-17.1438,6.714879,-9.677366,-7.6516633,-5.5940375,2.8437498,13.866586,-3.4973052,15.449574,-25.3721,51.529003,24.368599,-5.8650684,18.019972,7.205756,-13.816682,31.521112,64.01336,-1.599433,-3.558101,-5.085814
224,115.82260131835938,95.07884216308594,76.02098083496094,-5.188558652130645,-6.319327877980822,-162.39012616138945,0.3389479,17.772291,14.887117,64.76325,-24.95888,-8.621979,4.908236,11.4127245,-17.57059,6.6939983,-9.351352,-7.825741,-6.094471,2.8414605,13.666418,-3.918499,15.396151,-25.595413,51.391445,24.437372,-5.837733,17.917849,7.893567,-13.760269,31.680338,64.58227,-1.7781059,-3.4214845,-5.00238
225,116.2846908569336,95.45233154296875,75.98468780517578,-5.184546539618359,-6.342898271616198,-162.07820039036318,1.3278868,15.838088,13.654568,64.36885,-24.384876,-10.172588,4.466101,11.509279,-17.985687,6.6752377,-9.033256,-7.9679523,-6.5897765,2.7990482,13.488311,-4.349153,15.350631,-25.850552,51.306858,24.438358,-5.8081393,17.848654,8.572461,-13.699147,31.782583,65.11932,-2.0428164,-3.2494483,-4.923488
226,116.7547836303711,95.82404327392578,75.95055389404297,-5.1539432025453715,-6.373938657731962,-161.75647048183302,2.3135107,13.646209,12.202986,63.783615,-23.75606,-11.856544,4.029512,11.560589,-18.400728,6.656761,-8.719399,-8.082457,-7.09133,2.722008,13.326742,-4.7812314,15.317721,-26.117226,51.26094,24.393625,-5.771982,17.782354,9.241855,-13.638394,31.852121,65.62321,-2.3930752,-3.048199,-4.8524957
227,117.23196411132812,96.2105712890625,75.91295623779297,-5.105751842916587,-6.389362708133649,-161.43421250520097,3.279944,11.351448,10.672683,63.02305,-23.04704,-13.6234865,3.5656981,11.582625,-18.813503,6.6370997,-8.3972225,-8.165694,-7.588426,2.620507,13.168585,-5.2275906,15.293686,-26.393656,51.253162,24.34013,-5.735366,17.728327,9.882617,-13.570079,31.88636,66.0966,-2.774623,-2.8356733,-4.7803864
228,117.71874237060547,96.58866119384766,75.87725830078125,-5.024043419797125,-6.355139384058277,-161.09327282709248,4.1795683,9.062628,9.245794,62.088436,-22.201717,-15.000033,3.0238318,11.544977,-19.246006,6.631914,-8.062784,-8.200993,-8.105986,2.4850917,12.996876,-5.6906266,15.282619,-26.66775,51.266525,24.31269,-5.7054896,17.693409,10.475538,-13.495633,31.890987,66.52993,-3.1308167,-2.6285558,-4.696252
229,118.25228881835938,96.950439453125,75.8445053100586,-4.8350947430717,-6.220918685390551,-160.64398631052973,4.933327,6.6224804,8.003797,60.941193,-21.071804,-15.000033,2.3332977,11.305334,-19.772799,6.6843743,-7.732716,-8.1454,-8.745003,2.257419,12.772575,-6.1654596,15.283034,-26.922318,51.289093,24.335367,-5.684449,17.687027,11.008221,-13.428267,31.87638,66.91955,-3.4742894,-2.4195187,-4.603772
230,118.7815933227539,97.30281829833984,75.81680297851562,-4.6385057055308,-6.0545894913246405,-160.2095981786742,5.6617627,4.1708465,6.749715,59.618076,-19.778934,-15.000033,1.5767013,11.04152,-20.283197,6.769098,-7.401739,-8.053849,-9.365985,2.0214963,12.542677,-6.660874,15.295058,-27.184967,51.34321,24.38136,-5.6671977,17.702616,11.500526,-13.349364,31.824633,67.2766,-3.8306065,-2.2042735,-4.508719
231,119.31836700439453,97.66326141357422,75.77860260009766,-4.439092170433598,-5.895457780958107,-159.8275390720357,6.421761,1.864456,5.5688953,58.115795,-18.478413,-15.000033,0.8077087,10.782624,-20.740204,6.8667774,-7.063621,-7.9371653,-9.936856,1.779294,12.340694,-7.16402,15.323158,-27.44755,51.410625,24.421013,-5.654681,17.72255,11.957561,-13.269748,31.742634,67.58443,-4.145121,-2.00231,-4.394951
232,119.87081909179688,98.04637908935547,75.72785949707031,-4.241610336603377,-5.778242105843407,-159.5238161094276,7.2465496,-0.15113343,4.532742,56.431244,-17.294716,-15.000033,0.07784601,10.556416,-21.119757,6.9531083,-6.7109747,-7.805048,-10.420771,1.5282686,12.194726,-7.6724815,15.372144,-27.721792,51.482452,24.420605,-5.64633,17.73087,12.386428,-13.189292,31.619003,67.83456,-4.368692,-1.8343323,-4.2484827
233,120.42137145996094,98.43869018554688,75.67420959472656,-4.024217759866687,-5.70189064349198,-159.2857246730102,8.132151,-1.9358575,3.6599674,54.493206,-16.026476,-15.000033,-0.61434424,10.329254,-21.432314,7.0349627,-6.3465357,-7.6605716,-10.840482,1.2514042,12.1028185,-8.183773,15.435998,-28.00259,51.55887,24.35676,-5.647864,17.723253,12.788429,-13.120273,31.44353,68.015785,-4.466333,-1.6968478,-4.0437717
234,120.97500610351562,98.83232879638672,75.61456298828125,-3.788483397402967,-5.645036856329064,-159.0946043815938,9.0425,-3.5436563,2.891078,52.31423,-14.647657,-15.000033,-1.2927836,10.096246,-21.695778,7.1118684,-5.9698625,-7.4960775,-11.19145,0.9426941,12.049398,-8.706581,15.532881,-28.320734,51.635464,24.238396,-5.655665,17.70777,13.1655655,-13.037215,31.19627,68.13826,-4.481851,-1.5831221,-3.7970762
235,121.533203125,99.24927520751953,75.54690551757812,-3.5803055554668566,-5.609224061415193,-158.95172651401228,9.938922,-4.82326,2.187414,50.026814,-13.514306,-15.000033,-2.073777,9.875103,-21.938042,7.4379144,-5.7198806,-7.300443,-11.486268,0.6388919,12.042661,-9.228578,15.657709,-28.638123,51.70769,24.120426,-5.6618104,17.686737,13.509303,-12.947108,30.937948,68.21304,-4.453407,-1.5041361,-3.5548246
236,122.09280395507812,99.7038345336914,75.463623046875,-3.4440795070732366,-5.595943931032662,-158.85126877560418,10.763379,-5.615212,1.5451659,47.797462,-12.986481,-15.000033,-2.6171925,9.873208,-22.120825,7.238956,-5.2015896,-7.073508,-11.725238,0.37518045,12.092449,-9.750087,15.808556,-28.944082,51.776237,24.046753,-5.6571465,17.66436,13.821017,-12.8504715,30.70753,68.244255,-4.424711,-1.4717126,-3.3621402
237,122.63972473144531,100.21047973632812,75.36137390136719,-3.442634922359074,-5.617938705696023,-158.80709974394003,11.438633,-5.669763,1.0746222,45.75932,-13.312717,-15.000033,-3.1318738,10.092219,-22.296942,7.0097337,-4.6926875,-6.847399,-11.890418,0.19761574,12.217422,-10.272833,15.990125,-29.243296,51.849514,24.045254,-5.631037,17.645597,14.110958,-12.743871,30.504938,68.22655,-4.4046264,-1.4990654,-3.2277937
238,123.1873779296875,100.74617004394531,75.24852752685547,-3.5168714545173745,-5.678747868389323,-158.81177099925932,11.940927,-5.0782084,0.9783234,43.975494,-14.343772,-15.000033,-3.642372,10.4365835,-22.463327,6.8284693,-4.2286086,-6.606215,-11.990827,0.051448252,12.413728,-10.793112,16.204197,-29.539341,51.92115,24.088583,-5.591298,17.626585,14.3739,-12.625821,30.312956,68.161476,-4.37081,-1.5766691,-3.1292372
239,123.79625701904297,101.21112823486328,75.14385223388672,-3.2676859909804157,-5.685335218267248,-158.68179882746867,12.316429,-4.8404627,1.6921568,42.13728,-15.564105,-10.360325,-4.2929463,10.243131,-22.654663,6.84521,-3.8200848,-6.131258,-12.217811,-0.3704018,12.55892,-11.314868,16.433275,-29.818901,51.961067,24.128185,-5.5545263,17.605299,14.540097,-12.507424,30.133177,68.096016,-4.321404,-1.6853203,-3.0623183
240,124.41522979736328,101.67533111572266,75.0320816040039,-2.908926031780509,-5.686631532858327,-158.53520384241497,12.68404,-4.88802,2.3801692,40.34514,-16.875359,-6.018455,-4.9741526,9.886784,-22.799606,6.9024925,-3.3923092,-5.487618,-12.449883,-0.8943802,12.718163,-11.83846,16.676085,-30.083977,51.97677,24.124697,-5.5404196,17.567238,14.63593,-12.388804,29.9825,68.01608,-4.25306,-1.7997093,-3.0283895
