unveil-humanoid-operators/unveil-humanoid-operators.github.io/feature-analysis-animation/data/feature_matrix_instances/gender_shoulder_rom_gesture_dancing_A407.csv
Frame,root_translateX,root_translateY,root_translateZ,root_rotateX,root_rotateY,root_rotateZ,left_hip_pitch_joint_dof,left_hip_roll_joint_dof,left_hip_yaw_joint_dof,left_knee_joint_dof,left_ankle_pitch_joint_dof,left_ankle_roll_joint_dof,right_hip_pitch_joint_dof,right_hip_roll_joint_dof,right_hip_yaw_joint_dof,right_knee_joint_dof,right_ankle_pitch_joint_dof,right_ankle_roll_joint_dof,waist_yaw_joint_dof,waist_roll_joint_dof,waist_pitch_joint_dof,left_shoulder_pitch_joint_dof,left_shoulder_roll_joint_dof,left_shoulder_yaw_joint_dof,left_elbow_joint_dof,left_wrist_roll_joint_dof,left_wrist_pitch_joint_dof,left_wrist_yaw_joint_dof,right_shoulder_pitch_joint_dof,right_shoulder_roll_joint_dof,right_shoulder_yaw_joint_dof,right_elbow_joint_dof,right_wrist_roll_joint_dof,right_wrist_pitch_joint_dof,right_wrist_yaw_joint_dof
0,-0.3413347005844116,1.4262104034423828,47.94937515258789,3.4590554801046194,-3.109328409142457,-89.47739368059678,-75.796844,14.610559,2.8220987,105.20917,-24.245195,-2.7783217,-79.10987,-32.239223,-3.9312344,108.06258,-29.309631,-7.718782,1.2111305,-2.906525,23.128094,-87.60495,18.654552,-76.15017,2.3747904,23.91677,22.869318,-1.0758467,-97.34356,-15.790929,75.494804,-7.7068315,-8.292285,-1.0894141,-0.19086978
1,-0.34844452142715454,1.4239128828048706,47.966949462890625,3.5681723088156567,-3.324749773691271,-89.58839393184041,-75.537186,14.6679535,2.8783839,105.273705,-24.075603,-2.8731468,-79.09854,-32.231777,-3.8001723,108.182915,-28.932728,-7.9044085,1.4381232,-3.090878,23.297688,-87.48888,18.381372,-76.1099,2.6368504,24.064602,22.950163,-1.0989598,-97.1927,-15.468465,75.52703,-7.455853,-8.219651,-1.1177522,-0.2346645
2,-0.36412477493286133,1.4215763807296753,47.989471435546875,3.6819659808437484,-3.532379998665979,-89.69536382102444,-75.282684,14.724907,2.9424531,105.333954,-23.906893,-2.9617393,-79.07692,-32.223953,-3.6712816,108.28932,-28.595188,-8.090739,1.6586215,-3.2750285,23.466873,-87.42083,18.136078,-76.06424,2.8867834,24.180574,23.033981,-1.1204832,-97.04098,-15.189749,75.56366,-7.250231,-8.13974,-1.1433746,-0.2771506
3,-0.38358330726623535,1.4169694185256958,48.012386322021484,3.788032586503174,-3.7557538910345145,-89.81133225321895,-75.01628,14.781367,2.9894285,105.401344,-23.736633,-3.0629966,-79.073204,-32.223152,-3.5433743,108.422745,-28.182209,-8.281892,1.9176376,-3.4653249,23.641945,-87.10499,17.93457,-76.03514,3.008084,24.48602,23.11295,-1.1462787,-96.860596,-14.955296,75.58197,-7.0707436,-8.071254,-1.1728843,-0.32636106
4,-0.40080106258392334,1.4201818704605103,48.034847259521484,3.88066150648458,-4.0185037834551585,-89.9490306704017,-74.71872,14.83639,2.9956586,105.484245,-23.562584,-3.1968079,-79.114174,-32.241188,-3.418328,108.62397,-27.584576,-8.488765,2.1766677,-3.6420364,23.863102,-86.941086,17.762217,-76.03868,3.145664,24.567038,23.176514,-1.1830325,-96.692245,-14.751247,75.60782,-6.9366255,-8.007796,-1.2135916,-0.38873574
5,-0.412083238363266,1.4233880043029785,48.05731201171875,3.9588356068043073,-4.3371931125729,-90.10567666650023,-74.3767,14.883517,2.9534283,105.58643,-23.376583,-3.369906,-79.1885,-32.26546,-3.2759168,108.910095,-26.787441,-8.684776,2.4545877,-3.812599,24.140692,-86.78021,17.616858,-76.08505,3.258324,24.531904,23.219189,-1.2341858,-96.51941,-14.570587,75.637924,-6.828325,-7.961836,-1.2812046,-0.47524276
6,-0.4231787323951721,1.435700535774231,48.07893371582031,4.025087405298463,-4.696056596970805,-90.2760125354934,-74.00267,14.925246,2.876323,105.70072,-23.181833,-3.5714133,-79.28866,-32.29759,-3.1212182,109.256195,-25.844498,-8.876856,2.745627,-3.9777226,24.459671,-86.6205,17.496407,-76.162155,3.3476949,24.41306,23.247114,-1.295414,-96.34561,-14.407795,75.671005,-6.739964,-7.926429,-1.3674791,-0.5786789
7,-0.435479998588562,1.4480812549591064,48.09849548339844,4.082587656379862,-5.0711024524786055,-90.46890668149669,-73.615654,14.972583,2.7716281,105.825325,-22.9956,-3.7945333,-79.44612,-32.3739,-2.9950151,109.64236,-24.748734,-9.127488,3.047875,-4.1292768,24.791805,-86.472275,17.399202,-76.25755,3.406812,24.242996,23.269325,-1.3612206,-96.17547,-14.257855,75.695175,-6.671511,-7.895016,-1.4434197,-0.67958
8,-0.4419213533401489,1.4601709842681885,48.11357498168945,4.128497981209098,-5.438516653101564,-90.69271195774083,-73.235,15.036318,2.6469777,105.95474,-22.833231,-4.03223,-79.69324,-32.534927,-2.9387937,110.048454,-23.492563,-9.502271,3.3600273,-4.260975,25.109592,-86.346085,17.323494,-76.36016,3.4278169,24.05424,23.294415,-1.4261788,-96.02686,-14.115377,75.69851,-6.6187234,-7.849288,-1.4799781,-0.7583585
9,-0.43794679641723633,1.4693368673324585,48.129661560058594,4.160756712640255,-5.7980172569584925,-90.95090762809433,-72.860374,15.111318,2.4909565,106.09022,-22.698708,-4.299033,-80.06683,-32.797527,-2.9433897,110.53107,-21.972149,-10.102134,3.6889453,-4.3714886,25.405367,-86.23807,17.26754,-76.47987,3.4049442,23.813961,23.32912,-1.4883775,-95.88419,-13.974608,75.67271,-6.578014,-7.780455,-1.4638531,-0.81054235
10,-0.423392653465271,1.4871480464935303,48.139808654785156,4.183283363083298,-6.162744093823331,-91.23573901311424,-72.480316,15.191629,2.3061304,106.23433,-22.584305,-4.5927105,-80.54058,-33.159622,-2.9943104,111.078735,-20.226755,-10.880681,4.016816,-4.4614635,25.699816,-86.249084,17.222317,-76.61684,3.3880334,23.423868,23.366804,-1.550832,-95.75634,-13.828588,75.63469,-6.5492744,-7.696656,-1.4126289,-0.8457745
11,-0.40130773186683655,1.5122212171554565,48.14888000488281,4.198538270044233,-6.528019811870136,-91.53958496318613,-72.09869,15.28844,2.1190474,106.379135,-22.487682,-4.8812633,-81.044876,-33.62392,-3.12767,111.57629,-18.4669,-11.676948,4.350912,-4.536137,25.99009,-86.16317,17.197678,-76.74785,3.3070757,23.168663,23.39829,-1.6150565,-95.65312,-13.679845,75.57944,-6.518148,-7.6234326,-1.3431708,-0.867087
12,-0.37752586603164673,1.5457723140716553,48.15363311767578,4.209877705862303,-6.887278828182119,-91.85678481446992,-71.72199,15.415364,1.9551116,106.52191,-22.407366,-5.133421,-81.508354,-34.173817,-3.3797948,111.90809,-16.905676,-12.317647,4.6683526,-4.5925436,26.283794,-86.027275,17.200947,-76.84643,3.1811304,23.09167,23.413273,-1.6834589,-95.608055,-13.530564,75.51939,-6.4905605,-7.5778656,-1.2725049,-0.87688464
13,-0.3452368378639221,1.5879020690917969,48.15806579589844,4.2145081998018785,-7.23914926285043,-92.1869393182071,-71.350975,15.574249,1.8167711,106.6616,-22.346558,-5.3435974,-81.9084,-34.926643,-3.809323,112.15811,-15.554251,-12.752082,4.941699,-4.6197505,26.589025,-86.070015,17.22239,-76.896576,3.0844936,23.012741,23.403727,-1.7546475,-95.64009,-13.376287,75.47812,-6.490182,-7.5769267,-1.1975732,-0.873055
14,-0.29943352937698364,1.6319708824157715,48.15515899658203,4.211198444529178,-7.5874969637563705,-92.53220593822635,-70.983185,15.758941,1.6895375,106.80007,-22.304914,-5.527833,-82.27066,-35.84225,-4.385391,112.35473,-14.319261,-13.069957,5.199592,-4.6233373,26.895308,-86.110016,17.265415,-76.91673,2.9541037,23.050718,23.376947,-1.8284074,-95.7281,-13.216805,75.43567,-6.4971824,-7.603248,-1.1118124,-0.85547847
15,-0.24693185091018677,1.6882330179214478,48.15703582763672,4.204584777192081,-7.928528081675063,-92.89726559865598,-70.62455,15.975525,1.5737853,106.936584,-22.273684,-5.688578,-82.61484,-36.63697,-4.9946275,112.29741,-13.237951,-13.270944,5.4345503,-4.6085467,27.205587,-86.19649,17.329588,-76.92222,2.825949,23.128483,23.342749,-1.9083588,-95.86308,-13.052201,75.38643,-6.501214,-7.6387796,-1.0271151,-0.8279024
16,-0.19171617925167084,1.7429372072219849,48.15380859375,4.197872832489484,-8.255122144881334,-93.29020902646123,-70.28324,16.234245,1.470901,107.07172,-22.244257,-5.828766,-82.96943,-37.025654,-5.541737,111.78503,-12.349203,-13.365904,5.653499,-4.58431,27.516232,-86.2922,17.416645,-76.929436,2.7059333,23.249,23.310999,-1.9981848,-96.02955,-12.885238,75.317116,-6.486362,-7.666343,-0.9552905,-0.79453504
17,-0.1350058913230896,1.8095877170562744,48.14337921142578,4.193725724735874,-8.568221890008653,-93.71959705536271,-69.96057,16.54539,1.3834454,107.20949,-22.208303,-5.947674,-83.385155,-36.88162,-5.949285,110.826706,-11.776114,-13.365042,5.8630815,-4.553366,27.833471,-86.437935,17.526617,-76.9373,2.5995083,23.400534,23.294348,-2.1175742,-96.24806,-12.717832,75.22447,-6.4648237,-7.6740828,-0.89441687,-0.7509524
18,-0.08342031389474869,1.8921360969543457,48.134498596191406,4.194416175008857,-8.869268361092077,-94.18031538442965,-69.65253,16.9017,1.3128387,107.348526,-22.172516,-6.043909,-83.841965,-36.371357,-6.267819,109.50579,-11.462937,-13.252685,6.0626755,-4.5146546,28.154676,-86.60616,17.660965,-76.93991,2.4897377,23.614265,23.283934,-2.2584147,-96.51403,-12.551746,75.11181,-6.440418,-7.6755366,-0.83987916,-0.69688535
19,-0.023353954777121544,1.9818750619888306,48.11995315551758,4.199325845832001,-9.151355339561901,-94.65973835287724,-69.358086,17.286652,1.2606922,107.47486,-22.148964,-6.119376,-84.26487,-35.649017,-6.576834,107.72591,-11.180795,-12.993417,6.2345867,-4.4715805,28.469639,-86.79871,17.81757,-76.94662,2.39905,23.826853,23.257107,-2.3822134,-96.801,-12.386924,74.98446,-6.3894377,-7.674849,-0.7994378,-0.6423127
20,0.04555417224764824,2.078688383102417,48.10811996459961,4.20639057410384,-9.40573704238822,-95.14661274314174,-69.078285,17.686024,1.2272059,107.5756,-22.150354,-6.1767926,-84.57515,-34.86002,-6.9645605,105.38254,-10.700953,-12.548329,6.3660636,-4.427099,28.764935,-86.98758,17.993124,-76.96644,2.341631,24.003086,23.191753,-2.4502072,-97.07553,-12.223107,74.846466,-6.2872605,-7.6810756,-0.78091556,-0.59714746
21,0.1208793967962265,2.1833550930023193,48.09583282470703,4.219771277468871,-9.627023807529369,-95.65333635608513,-68.8193,18.102772,1.2164062,107.64493,-22.164036,-6.2174754,-84.77613,-34.00995,-7.4449844,102.397095,-9.941713,-11.86728,6.467459,-4.3830905,29.048359,-87.19488,18.184443,-76.995766,2.3372402,24.126163,23.068468,-2.4528363,-97.35348,-12.060678,74.697426,-6.1256385,-7.694807,-0.78724617,-0.56309336
22,0.1985064297914505,2.2911319732666016,48.08381652832031,4.242778277626752,-9.822652668852548,-96.17749534550133,-68.5744,18.538235,1.2302849,107.69194,-22.189411,-6.238715,-84.88806,-33.042526,-7.943351,98.83299,-9.053865,-10.991245,6.5377264,-4.340325,29.325504,-87.43318,18.388683,-77.03215,2.3792827,24.211699,22.903782,-2.4102998,-97.64556,-11.899791,74.53599,-5.918111,-7.71136,-0.8140301,-0.5350969
23,0.2737555205821991,2.4042768478393555,48.07144546508789,4.261541950006755,-10.001566299651529,-96.68858432423227,-68.330376,18.978964,1.2644795,107.71561,-22.253984,-6.2373524,-84.85666,-31.998997,-8.4297085,94.79293,-8.147691,-10.013186,6.5518365,-4.299661,29.578047,-87.646454,18.603333,-77.08561,2.4383595,24.286066,22.729198,-2.3283486,-97.91322,-11.73924,74.36158,-5.6694236,-7.72806,-0.8579555,-0.51328295
24,0.35218557715415955,2.5208418369293213,48.06061553955078,4.264537847691405,-10.173427565263996,-97.15635349877213,-68.07364,19.411581,1.3136814,107.71872,-22.386208,-6.211065,-84.62921,-30.918062,-8.885769,90.36717,-7.323374,-9.025993,6.4817753,-4.2605,29.788567,-87.807816,18.824577,-77.1657,2.4958563,24.34836,22.576305,-2.2126932,-98.11537,-11.57633,74.17471,-5.3858757,-7.7456303,-0.9157509,-0.49772295
25,0.43038931488990784,2.6267237663269043,48.05119323730469,4.241098473119875,-10.282237838183496,-97.59275108072059,-67.855095,19.853163,1.372788,107.679756,-22.61256,-6.1708636,-84.20713,-29.622272,-9.254409,85.30442,-6.556307,-7.985276,6.3145847,-4.227057,29.793802,-87.79626,19.047411,-77.28512,2.5712366,24.410702,22.445717,-2.038086,-98.14341,-11.4031925,73.96649,-5.0812535,-7.7576423,-1.0030859,-0.49396726
26,0.49836504459381104,2.7167809009552,48.04391860961914,4.203313814618768,-10.382897426313466,-98.00399819708863,-67.61211,20.296133,1.4540708,107.60591,-22.921307,-6.1156325,-83.55615,-28.196943,-9.529695,79.62247,-5.8273115,-6.899989,6.0727415,-4.194419,29.793802,-87.77069,19.271029,-77.43293,2.6787744,24.46638,22.33108,-1.8173147,-98.1494,-11.219536,73.74107,-4.7197413,-7.767698,-1.1074469,-0.49485263
27,0.5611621737480164,2.7902114391326904,48.035682678222656,4.155355403613203,-10.509040357477632,-98.3486193982589,-67.34504,20.703299,1.5514997,107.53345,-23.246443,-6.01829,-82.714165,-27.011421,-9.863729,73.78018,-5.1664667,-5.9105654,5.7464128,-4.1653247,29.793802,-87.71916,19.492268,-77.59251,2.7694154,24.498524,22.223537,-1.5869713,-98.11718,-11.027099,73.5118,-4.319526,-7.7800913,-1.2169986,-0.50121176
28,0.612034022808075,2.854478359222412,48.0291862487793,4.102373537027084,-10.688763252791368,-98.59179868274175,-67.061646,21.04532,1.6540573,107.504715,-23.523577,-5.853104,-81.73991,-26.344309,-10.458012,68.234375,-4.568524,-5.0832253,5.3345356,-4.1415887,29.793802,-87.61584,19.706572,-77.74772,2.7901635,24.503399,22.114737,-1.3839972,-98.03272,-10.829135,73.29083,-3.8975713,-7.796349,-1.3200738,-0.5140634
29,0.6521890163421631,2.899425745010376,48.02178192138672,4.041405239007265,-10.917682353269859,-98.7154385120709,-66.73051,21.329052,1.7992245,107.49317,-23.836464,-5.5621123,-80.513054,-26.227095,-11.562999,62.689297,-3.9525979,-4.2855077,4.825656,-4.1266274,29.793802,-87.4814,19.909132,-77.90541,2.7442973,24.452765,21.994883,-1.2225788,-97.88642,-10.6284485,73.063156,-3.4351974,-7.839895,-1.4217358,-0.53457093
30,0.6731817722320557,2.9122297763824463,48.01122283935547,3.967885721676658,-11.184765412093023,-98.74306910371818,-66.361115,21.566746,1.9704442,107.49379,-24.188469,-5.1794596,-79.03087,-26.369337,-13.094189,56.964165,-3.2654932,-3.4136734,4.2300196,-4.1153145,29.793802,-87.30735,20.09759,-78.07199,2.6550395,24.372179,21.87102,-1.0820978,-97.68738,-10.427217,72.82717,-2.93381,-7.902794,-1.525315,-0.5622099
31,0.6803160905838013,2.908889055252075,48.00031661987305,3.8787088952695608,-11.505159805506123,-98.70578047885878,-66.02656,21.745201,2.0774577,107.573494,-24.391972,-4.814316,-77.56653,-26.589018,-14.736303,51.75688,-2.5736976,-2.585606,3.5753238,-4.095763,29.793802,-87.10024,20.267714,-78.23178,2.5246568,24.266672,21.758625,-0.9467821,-97.45249,-10.226664,72.614235,-2.4434562,-7.9379754,-1.6161889,-0.5956442
32,0.6761614680290222,2.893995761871338,47.98246383666992,3.7714623338135,-11.888531750648413,-98.64093512145627,-65.80378,21.859924,2.0358884,107.798096,-24.25666,-4.572669,-76.44045,-26.822199,-16.12112,47.87256,-2.0247972,-2.0044746,2.8964033,-4.0581846,29.793802,-86.84104,20.416317,-78.36556,2.3470068,24.170025,21.67372,-0.8012241,-97.18709,-10.029632,72.46338,-2.0182867,-7.9119377,-1.6794354,-0.6328528
33,0.6638630032539368,2.8713059425354004,47.96294403076172,3.6441385396557466,-12.32727382731184,-98.55290345428861,-65.709145,21.910969,1.8315017,108.192154,-23.76351,-4.4969897,-75.756454,-27.249504,-17.301865,45.59948,-1.7274029,-1.8956593,2.1954455,-3.994735,29.793802,-86.55783,20.541386,-78.48353,2.1071677,24.071838,21.62348,-0.6357806,-96.88905,-9.83961,72.37861,-1.6799415,-7.798778,-1.6995964,-0.6756368
34,0.6418939232826233,2.8316097259521484,47.944793701171875,3.497961236926473,-12.81056169047801,-98.43211884087243,-65.70815,21.906338,1.5119972,108.7166,-23.00165,-4.5304646,-75.38868,-27.907463,-18.399076,44.58134,-1.6566501,-2.1408346,1.4690442,-3.914275,29.793802,-86.255936,20.640186,-78.5923,1.8154211,23.96177,21.598358,-0.46102157,-96.57205,-9.657841,72.33829,-1.3936954,-7.6108093,-1.6879528,-0.7244282
35,0.6048144102096558,2.7732553482055664,47.9271354675293,3.3523448886745233,-13.341510176789976,-98.29911421119223,-65.799515,21.85401,1.0913808,109.341064,-21.941511,-4.63208,-75.344795,-28.609636,-19.098291,44.71566,-1.7957653,-2.4905212,0.7396955,-3.8317628,29.793802,-85.90238,20.708836,-78.66299,1.5124182,23.85632,21.590017,-0.2912857,-96.233475,-9.4864855,72.35583,-1.1445559,-7.404433,-1.6695689,-0.77423894
36,0.5555804371833801,2.6912803649902344,47.9136848449707,3.223749418076686,-13.925198718394615,-98.17165712412991,-65.981476,21.758018,0.5825793,110.04012,-20.551481,-4.76074,-75.62924,-29.1606,-19.081907,45.876987,-2.095951,-2.688657,0.027175963,-3.7635462,29.793802,-85.479355,20.741076,-78.66921,1.2435473,23.756105,21.58946,-0.14159195,-95.88616,-9.325749,72.439674,-0.9103073,-7.219397,-1.6695933,-0.8203791
37,0.5032712817192078,2.5967016220092773,47.89651870727539,3.1133432516136845,-14.607066735418638,-98.05923417188075,-66.23332,21.60981,-0.044916216,110.86944,-18.769197,-4.9366355,-76.36071,-29.420774,-17.99557,48.32599,-2.5766518,-2.6177847,-0.67038995,-3.6955476,29.793802,-84.94729,20.729877,-78.597046,1.0186789,23.663918,21.600264,-0.018398652,-95.46771,-9.178348,72.61587,-0.702926,-7.080974,-1.6987278,-0.86637735
38,0.44318506121635437,2.508070945739746,47.88262176513672,3.0114868713822607,-15.371709552407058,-97.94245017470658,-66.55516,21.38122,-0.7796692,111.816444,-16.624483,-5.1932344,-77.47918,-29.459618,-16.109493,51.982548,-3.2223754,-2.392387,-1.3479532,-3.6384933,29.793802,-84.3364,20.666021,-78.481514,0.8176432,23.572617,21.623692,0.08555512,-95.12465,-9.032589,72.83787,-0.4639417,-6.8394465,-1.7427378,-0.9138561
39,0.38384732604026794,2.417238235473633,47.869110107421875,2.9346538521743146,-16.13811813938121,-97.79876091148888,-66.96762,21.054813,-1.545557,112.75077,-14.227161,-5.5030985,-78.72383,-29.404007,-14.038826,56.223263,-3.9316006,-2.105523,-2.0398204,-3.6130056,29.793802,-83.70328,20.552076,-78.30851,0.65954137,23.48281,21.650414,0.18191384,-94.69973,-8.90098,73.13115,-0.28626305,-6.7132254,-1.7885162,-0.95221424
40,0.31758764386177063,2.3282437324523926,47.861427307128906,2.8894891423733897,-16.821878689215264,-97.60854697251257,-67.50136,20.628046,-2.2718942,113.543724,-11.683932,-5.8256106,-79.86728,-29.490686,-12.354973,60.4757,-4.623183,-1.9194568,-2.7445824,-3.6532438,29.793802,-83.098305,20.395082,-78.0926,0.5386414,23.408815,21.670328,0.27934694,-94.2632,-8.794827,73.46089,-0.16996224,-6.713438,-1.8226129,-0.9728716
41,0.23646759986877441,2.2634077072143555,47.85602951049805,2.9027698974315417,-17.424923913868305,-97.37836144303544,-68.20451,20.026615,-2.9891078,114.262535,-8.822332,-6.139346,-80.92872,-29.811985,-11.067354,64.79787,-5.293037,-1.875642,-3.450069,-3.7907007,29.793802,-82.54734,20.192558,-77.824425,0.48340175,23.305283,21.662382,0.382586,-93.97723,-8.707613,73.799095,-0.050423406,-6.7299743,-1.8640305,-0.9771442
42,0.1517484486103058,2.2234256267547607,47.86244201660156,2.9644445260046712,-17.984435153661217,-97.11144280329498,-69.041756,19.265722,-3.7035017,114.93391,-5.642586,-6.4753757,-82.00246,-30.255169,-9.896347,69.42264,-5.978879,-1.8989435,-4.171022,-4.002168,29.793802,-82.08815,19.936518,-77.50262,0.5088531,23.119837,21.638138,0.4866771,-93.78014,-8.634404,74.16808,0.056051075,-6.7762003,-1.9123129,-0.9684055
43,0.056484486907720566,2.210092067718506,47.871253967285156,3.028567902958702,-18.469979085672186,-96.78772369347436,-69.93215,18.511698,-4.3319416,115.38567,-2.5209765,-6.839716,-82.99335,-30.85518,-8.941583,74.07945,-6.68157,-2.0483174,-4.8716273,-4.25202,29.793802,-81.47387,19.649717,-77.1869,0.45260754,23.163347,21.636915,0.5822319,-93.594,-8.587661,74.53881,0.13214062,-6.8723807,-1.9236424,-0.94264436
44,-0.05028019845485687,2.2236223220825195,47.88924789428711,3.044748696314591,-18.843453411957007,-96.39210387811482,-70.81283,17.94824,-4.8180127,115.4519,0.15899386,-7.2238026,-83.81246,-31.659595,-8.3107605,78.50768,-7.4066114,-2.3999014,-5.586562,-4.489066,29.793802,-81.048706,19.333397,-76.9308,0.36049077,23.175797,21.695333,0.66137546,-93.37683,-8.574996,74.91569,0.11751901,-7.0101695,-1.856002,-0.89418834
45,-0.169358491897583,2.2589993476867676,47.92155838012695,2.9955160344633804,-19.08760290915002,-95.89191422458217,-71.696,17.547794,-5.1863933,115.21579,2.3413634,-7.7378755,-84.449585,-32.88543,-8.141726,82.75779,-8.236508,-3.1377826,-6.3065658,-4.719403,29.793802,-80.78789,18.98641,-76.773964,0.17970261,23.21116,21.839323,0.72285753,-93.2757,-8.592727,75.25302,0.063154824,-7.0725403,-1.6840453,-0.8063718
46,-0.3063877522945404,2.31754994392395,47.95845031738281,2.9028328740555662,-19.22725517808274,-95.30559565137654,-72.6107,17.244392,-5.481704,114.73042,4.2078285,-8.340707,-84.921974,-34.50249,-8.316941,86.94742,-9.173001,-4.2131343,-7.0371914,-4.9480805,29.793802,-80.61013,18.612535,-76.669754,-0.06920111,23.30025,22.044292,0.7714352,-93.18056,-8.648562,75.58376,-0.06456145,-7.171643,-1.4348465,-0.68635154
47,-0.45517975091934204,2.418863534927368,47.99674606323242,2.775388020575155,-19.207615814560686,-94.7000352252433,-73.61624,17.17864,-5.691043,113.79399,5.748896,-8.786644,-85.26509,-36.155613,-8.6051655,90.8995,-10.07419,-5.3454556,-7.756194,-5.1638894,29.507004,-80.279686,18.209948,-76.60907,-0.34448448,23.42844,22.252058,0.81261486,-92.89006,-8.735874,75.899254,-0.29706362,-7.236029,-1.1644269,-0.57606506
48,-0.6078338027000427,2.5400564670562744,48.02925109863281,2.6178990070027828,-19.076988480534546,-94.14982537346066,-74.6435,17.498608,-5.801834,112.20849,6.9210877,-8.834255,-85.42781,-37.45081,-8.799414,94.46324,-10.796035,-6.2118964,-8.409895,-5.337464,29.048985,-79.868164,17.78027,-76.56436,-0.5890732,23.578045,22.428873,0.8382996,-92.4507,-8.849245,76.204445,-0.60477877,-7.2435374,-0.90165186,-0.50597316
49,-0.765041708946228,2.691744804382324,48.06070327758789,2.407876096869996,-18.849164526712883,-93.66161558601418,-75.697845,18.429224,-5.7240105,109.93306,7.5153027,-8.252022,-85.36971,-38.304207,-8.948603,97.61162,-11.337605,-6.688871,-8.971931,-5.443943,28.608133,-79.53783,17.330416,-76.53288,-0.8127831,23.795506,22.57096,0.82413423,-92.0259,-8.987849,76.49291,-0.94567883,-7.151936,-0.6222695,-0.47956216
50,-0.9174037575721741,2.8708572387695312,48.088966369628906,2.1660197249652096,-18.517157828688266,-93.19856922276223,-76.74862,19.81502,-5.4006042,107.06724,7.5752354,-7.224645,-85.13321,-38.89564,-9.118076,100.445145,-11.754168,-6.9222655,-9.473266,-5.5161147,28.157864,-79.26618,16.866442,-76.52307,-1.0423826,24.077112,22.700127,0.7784674,-91.60102,-9.151968,76.76363,-1.3296846,-6.9958525,-0.31528804,-0.48074955
51,-1.0750247240066528,3.084416389465332,48.10211181640625,1.949770707929521,-18.1675637836696,-92.77171848066878,-77.58928,21.231066,-4.904654,103.61743,7.427137,-6.1531687,-84.72009,-39.204166,-9.173044,103.00533,-11.986879,-6.9841056,-9.9068,-5.6002007,27.77197,-79.0557,16.394571,-76.523674,-1.2488174,24.337164,22.838144,0.7306409,-91.21911,-9.34242,77.02783,-1.7305303,-6.8165407,-0.010104355,-0.502672
52,-1.224498987197876,3.335080623626709,48.10337448120117,1.7905390907663357,-17.888782696049162,-92.3989397520439,-78.041245,22.284155,-4.398489,99.58781,7.431026,-5.4282317,-84.11309,-39.20127,-8.998475,105.324066,-11.975591,-6.9398084,-10.256447,-5.72488,27.527506,-78.902405,15.921531,-76.522644,-1.4056795,24.494686,23.007248,0.7098133,-90.922966,-9.560101,77.29817,-2.122784,-6.654432,0.2637785,-0.537409
53,-1.370205283164978,3.614866018295288,48.087345123291016,1.6814405623327586,-17.68350366303553,-92.09699218690679,-78.070625,22.895483,-3.9514115,94.79759,7.722788,-5.150299,-83.34056,-38.712906,-8.530617,107.36247,-11.522926,-6.653252,-10.505596,-5.889754,27.455196,-78.837364,15.455676,-76.53217,-1.5289997,24.51556,23.231348,0.73118854,-90.74186,-9.807034,77.57997,-2.512681,-6.54942,0.51350474,-0.58247274
54,-1.507667899131775,3.9095237255096436,48.059532165527344,1.5986528610336086,-17.507684552870675,-91.86170148167358,-77.7592,23.29478,-3.5044045,89.29031,8.09862,-5.0956206,-82.39648,-37.76432,-7.8798633,109.11541,-10.719102,-6.110076,-10.65873,-6.072529,27.509111,-78.84717,15.003025,-76.55105,-1.6352214,24.44715,23.492807,0.7774364,-90.64949,-10.084152,77.87096,-2.9141328,-6.46952,0.7496474,-0.6416829
55,-1.6317198276519775,4.214610576629639,48.017303466796875,1.539203988531894,-17.384753803654238,-91.68249208903698,-77.13379,23.582563,-3.0888987,83.38829,8.439203,-5.153672,-81.18773,-36.64919,-7.2084627,110.66161,-9.937828,-5.5925126,-10.72863,-6.2591443,27.658138,-78.86925,14.563787,-76.54526,-1.693461,24.324242,23.752352,0.8284197,-90.60317,-10.3893,78.17424,-3.3151422,-6.3502903,0.9479902,-0.7165821
56,-1.74727201461792,4.516190052032471,47.96620559692383,1.5082721303838185,-17.3416130462747,-91.54091231782057,-76.22551,23.838253,-2.681785,77.39342,8.638021,-5.2026596,-79.63377,-35.709824,-6.6531825,112.083176,-9.54291,-5.4234962,-10.737252,-6.441747,27.873274,-78.854866,14.132025,-76.47933,-1.6626731,24.172377,23.97008,0.8644042,-90.563324,-10.71685,78.49314,-3.6986923,-6.125291,1.0840049,-0.8090813
57,-1.8446646928787231,4.812440872192383,47.90718078613281,1.5273697144200704,-17.414484434983645,-91.44292482950824,-74.87241,23.984148,-2.26912,70.962204,8.665165,-5.254035,-77.58875,-35.307816,-6.270553,113.56498,-9.312924,-6.0673504,-10.680751,-6.63936,28.202444,-78.81572,13.703591,-76.3372,-1.5185889,24.005543,24.141027,0.8739651,-90.57027,-11.064138,78.851295,-4.0506353,-5.750158,1.144631,-0.9304862
58,-1.9218569993972778,5.086242198944092,47.83978271484375,1.5899874026403693,-17.587536985503217,-91.39295922175283,-73.09781,24.015501,-1.8621818,64.006714,8.606117,-5.3463902,-75.13254,-35.214317,-5.9572163,115.00399,-9.160339,-7.265282,-10.551905,-6.8523912,28.650753,-78.77895,13.276514,-76.13805,-1.2786398,23.803152,24.28442,0.8698288,-90.631424,-11.428835,79.2424,-4.380711,-5.269973,1.1440505,-1.0761455
59,-1.9839266538619995,5.335249900817871,47.76677322387695,1.6578712876058388,-17.805180394836906,-91.37351050545566,-71.23078,24.075512,-1.453752,57.22462,8.538201,-5.446847,-72.53295,-34.872623,-5.625126,116.0555,-9.634595,-8.256156,-10.3630705,-7.042471,29.120073,-78.69174,12.847191,-75.90423,-0.97258973,23.564003,24.396397,0.86673135,-90.65266,-11.804147,79.620285,-4.7000556,-4.7550645,1.0989374,-1.223206
60,-2.033628225326538,5.5350661277771,47.688926696777344,1.6816229009263222,-18.010466095314314,-91.3653829419536,-69.62215,24.280312,-1.037092,51.35543,8.530188,-5.5574956,-70.05878,-33.704903,-5.2103915,116.393456,-11.280399,-8.273858,-10.12989,-7.162726,29.512163,-78.50477,12.410067,-75.65781,-0.6270587,23.28375,24.473303,0.8796726,-90.54626,-12.179379,79.939,-5.011215,-4.269442,1.026585,-1.3485785
61,-2.0814430713653564,5.725338459014893,47.59721374511719,1.5888641711125973,-18.19630631316923,-91.3375237678078,-68.304924,24.701124,-0.608349,46.271225,8.635275,-5.734933,-67.42915,-31.01015,-4.570001,115.55704,-15.314214,-6.606235,-9.872288,-7.1645427,29.793802,-78.15128,11.956981,-75.37272,-0.22543441,22.934353,24.496307,0.90371305,-90.2482,-12.5434065,80.173515,-5.2803497,-3.7762897,0.9022875,-1.444646
62,-2.139671564102173,5.822809219360352,47.5088005065918,1.4472525854041716,-18.385428323330864,-91.21778330186862,-67.079765,25.10677,-0.08061574,41.605366,8.851176,-5.9896274,-64.64863,-27.719532,-3.6956823,113.87806,-21.23347,-4.2086697,-9.690945,-7.1414247,29.793802,-77.47937,11.479375,-75.04944,0.24717647,22.514954,24.456234,0.942036,-89.632,-12.879542,80.36021,-5.5436687,-3.2497802,0.70647264,-1.5265002
63,-2.1983139514923096,5.8705549240112305,47.45053482055664,1.3715991708283712,-18.65423308682242,-91.01786925042948,-65.98923,25.319225,0.5213189,37.96012,9.042571,-6.2399645,-62.271454,-25.238312,-2.844281,112.21697,-26.839132,-2.4072022,-9.568976,-7.1775227,29.793802,-76.76937,10.980752,-74.74286,0.7623687,22.095543,24.403254,1.0025914,-88.94052,-13.187299,80.533844,-5.8037543,-2.8057694,0.51199305,-1.595227
64,-2.202854633331299,5.921952724456787,47.42641830444336,1.443018244280714,-18.941040831128664,-90.84757940319334,-65.29639,25.344822,1.0684979,36.03275,9.044911,-6.3619456,-61.005486,-24.273266,-2.3154392,111.40566,-29.778004,-1.8940854,-9.424724,-7.2874203,29.793802,-76.14623,10.471645,-74.5132,1.2793454,21.736204,24.374306,1.1016121,-88.2809,-13.47006,80.72251,-6.1063385,-2.5415747,0.37634802,-1.6591814
65,-2.1199123859405518,5.999005317687988,47.429927825927734,1.7227301992347996,-19.204580671621862,-90.77345855887204,-65.2263,25.272545,1.5344563,36.353928,8.743658,-6.2099514,-61.272762,-25.133362,-2.4032028,111.7988,-29.069735,-3.1212127,-9.206075,-7.4988675,29.793802,-75.65493,9.960892,-74.36415,1.8051113,21.437769,24.364271,1.2657964,-87.68657,-13.732735,80.93658,-6.453051,-2.5144107,0.309796,-1.7152056
66,-1.9861228466033936,6.074504375457764,47.467254638671875,2.151105031636391,-19.470771738663053,-90.74091582291494,-65.6483,25.147089,1.9443216,38.502346,8.212098,-5.837793,-62.648247,-27.34628,-2.9008918,112.89808,-26.085032,-5.5605345,-8.954514,-7.7850347,29.793802,-75.232765,9.4537735,-74.26621,2.3426743,21.173925,24.359226,1.4797724,-87.101585,-13.978151,81.15835,-6.8298697,-2.6686738,0.28510234,-1.7619333
67,-1.809199333190918,6.124095439910889,47.5176887512207,2.603531504319751,-19.774158779710774,-90.68313781851505,-66.32211,24.930939,2.2167099,41.775063,7.559309,-5.420728,-64.57052,-30.21361,-3.3260927,114.225136,-22.018072,-8.208894,-8.720627,-8.055712,29.793802,-74.84504,8.957932,-74.23192,2.8460925,20.95985,24.383053,1.6974827,-86.530914,-14.20497,81.378494,-7.249277,-2.9053938,0.30320975,-1.8106192
68,-1.6145908832550049,6.16317081451416,47.56392288208008,2.9404299302296195,-20.12550515244436,-90.56488214228627,-67.06857,24.609587,2.2310147,45.51908,6.877995,-5.154401,-66.52906,-32.669224,-3.150503,115.28835,-17.924654,-9.759027,-8.525147,-8.187317,29.793802,-74.47582,8.483381,-74.27376,3.2669208,20.810684,24.46174,1.8727646,-85.99058,-14.409885,81.58509,-7.7188034,-3.1325927,0.36705777,-1.8719934
69,-1.419236183166504,6.178075313568115,47.61211395263672,3.117102657997161,-20.540508500627965,-90.37280063813559,-67.9376,24.072422,1.8204938,49.88403,6.1775837,-5.166823,-68.60114,-34.292747,-2.0636623,116.07784,-13.19519,-9.252124,-8.368499,-8.117426,29.793802,-74.107635,8.039314,-74.40524,3.5717587,20.756607,24.62145,2.0052602,-85.47728,-14.591023,81.8056,-8.270145,-3.335675,0.4868521,-1.9604266
70,-1.220015048980713,6.171900749206543,47.67058563232422,3.2054279146194453,-21.009486105419327,-90.13346653535781,-68.95613,23.293905,1.139859,55.07551,5.427718,-5.390328,-71.051,-35.34109,-0.25165433,116.81679,-7.4702673,-7.343225,-8.234174,-7.9152694,29.793802,-73.75086,7.632,-74.61625,3.7800808,20.778765,24.84263,2.1155503,-84.98762,-14.747443,82.03794,-8.885938,-3.559881,0.65818477,-2.065292
71,-1.0254651308059692,6.158520698547363,47.724998474121094,3.2418026557986677,-21.456613840456402,-89.93668363650575,-70.01001,22.50002,0.47648266,60.596897,4.631889,-5.708149,-73.603065,-35.529102,1.9204335,117.3485,-2.1159658,-4.9082828,-8.054504,-7.6162806,29.793802,-73.46282,7.2677374,-74.887245,3.919573,20.825094,25.086863,2.188251,-84.56726,-14.877784,82.21888,-9.489813,-3.8065856,0.8663273,-2.159985
72,-0.8294678330421448,6.147045135498047,47.766178131103516,3.257827485365732,-21.811810459306077,-89.86105606349524,-71.004425,21.982193,0.06889412,65.98402,3.79492,-5.9399543,-75.92718,-35.110588,3.871566,117.50356,1.4575013,-3.2439277,-7.7774568,-7.2640824,29.793802,-73.29632,6.9525094,-75.19733,4.0220046,20.842928,25.31467,2.2080874,-84.25443,-14.980358,82.29076,-10.008192,-4.0803094,1.0936346,-2.218032
73,-0.6525095701217651,6.135177135467529,47.79037857055664,3.255927057210694,-22.060380483239054,-89.93872551731826,-71.97599,21.864294,-0.11148288,71.29675,2.924726,-6.0392375,-77.95401,-34.439613,5.375707,117.34897,2.3768606,-3.2757587,-7.373549,-6.847475,29.793802,-73.268135,6.6926355,-75.567924,4.07702,20.811428,25.53296,2.1742392,-84.077286,-15.05104,82.23797,-10.450946,-4.4011636,1.3701756,-2.2205055
74,-0.4954354465007782,6.117588043212891,47.79032516479492,3.220197106657325,-22.235254530554244,-90.12547705969665,-72.95563,22.015377,-0.19988915,76.742325,2.005455,-6.071825,-79.78328,-33.485184,6.6278625,116.94,1.5460546,-4.270073,-6.878479,-6.352846,29.793802,-73.35051,6.4927673,-76.001434,4.067897,20.762094,25.757858,2.093871,-84.01551,-15.087614,82.093025,-10.844086,-4.7616005,1.693229,-2.184274
75,-0.3455369174480438,6.107235431671143,47.76403045654297,3.159593924885678,-22.355415816323017,-90.35518480703536,-73.84439,22.37928,-0.14795016,82.111946,1.0014663,-5.9639497,-81.38225,-32.321674,7.655692,116.08261,0.21759798,-5.3543434,-6.368976,-5.831885,29.793802,-73.516495,6.354622,-76.446365,4.015864,20.71885,25.963156,1.9636831,-84.02473,-15.090431,81.86009,-11.150959,-5.1173244,1.9968095,-2.1388795
76,-0.18984566628932953,6.084686279296875,47.73025131225586,3.0815548209109203,-22.440173016659582,-90.56184369950697,-74.54873,22.909323,0.092363946,87.20324,-0.124422364,-5.637017,-82.73417,-31.148119,8.473807,114.57353,-0.37503415,-5.7568707,-5.919195,-5.335651,29.793802,-73.7383,6.2771883,-76.85222,3.943257,20.706377,26.121584,1.7800372,-84.062996,-15.0613365,81.54513,-11.328847,-5.417928,2.2153037,-2.1150846
77,-0.031171556562185287,6.080427169799805,47.682952880859375,2.995408872796635,-22.494015800634564,-90.74888726868122,-75.07173,23.776222,0.6068877,92.063255,-1.4296919,-4.930907,-83.86923,-30.021938,9.108805,112.35533,0.11580426,-5.2236934,-5.5301867,-4.870475,29.793802,-74.0329,6.2613072,-77.21197,3.8317,20.708044,26.232937,1.511102,-84.137634,-15.001864,81.14414,-11.353018,-5.6664853,2.3310769,-2.142599
78,0.12271283566951752,6.094141006469727,47.63271713256836,2.891954078357744,-22.508405708419488,-90.94649213986267,-75.43391,24.996819,1.2902197,96.79779,-2.9140894,-3.895481,-84.77214,-28.862032,9.590979,109.52901,0.992312,-4.1863294,-5.1671205,-4.411368,29.793802,-74.40669,6.308565,-77.54962,3.674642,20.719093,26.308819,1.1687715,-84.263664,-14.912004,80.656975,-11.250115,-5.8839126,2.3794155,-2.1992705
79,0.2821376621723175,6.137248992919922,47.57959747314453,2.7635305132671593,-22.478097467831866,-91.13113755168968,-75.58324,26.270744,1.9679985,101.28607,-4.5173945,-2.7604072,-85.38552,-27.745905,9.913991,106.11525,1.9142306,-2.984434,-4.8494053,-3.9606357,29.793802,-74.81764,6.416454,-77.86151,3.5127444,20.780188,26.339897,0.8162178,-84.40923,-14.791907,80.09346,-11.063768,-6.0473948,2.3742127,-2.2387993
80,0.44146227836608887,6.210442066192627,47.52621841430664,2.5979521665330325,-22.39681166093279,-91.27058527749372,-75.49578,27.240152,2.4403856,105.392555,-6.1442947,-1.8501272,-85.662415,-26.763811,10.066997,102.11852,2.557251,-1.9635897,-4.601268,-3.5231202,29.793802,-75.22492,6.5790195,-78.14501,3.3893619,20.9326,26.315979,0.5164585,-84.546875,-14.641126,79.46029,-10.833267,-6.130617,2.329196,-2.214945
81,0.5989360809326172,6.294830799102783,47.489532470703125,2.38803889830979,-22.239182061560324,-91.35187354533406,-75.21208,27.77847,2.7296937,109.096565,-7.8426476,-1.2603354,-85.57252,-25.858013,10.073414,97.3873,2.8405335,-1.0994403,-4.4464793,-3.0933309,29.793802,-75.650986,6.791788,-78.372826,3.3238432,21.19518,26.234869,0.27128634,-84.687325,-14.458888,78.72408,-10.55726,-6.0888543,2.235682,-2.0859754
82,0.7505650520324707,6.37573766708374,47.4737663269043,2.1422070235257866,-22.015851692475632,-91.38333231137703,-74.74089,28.044653,2.9443824,112.47759,-9.628736,-0.84762764,-85.15331,-25.045654,10.002343,91.94933,2.9316285,-0.23936637,-4.3753357,-2.6763825,29.793802,-76.10942,7.0521,-78.55649,3.2961862,21.542597,26.100533,0.05332634,-84.841255,-14.244942,77.89363,-10.215033,-5.948659,2.0900974,-1.886318
83,0.8896440267562866,6.469090938568115,47.473880767822266,1.8762965913497132,-21.77149464362614,-91.36974480091517,-74.03535,28.111532,3.0696878,115.540665,-11.336606,-0.5460861,-84.46632,-24.516527,9.777283,86.06537,2.9023254,0.40720087,-4.3582034,-2.2884352,29.793802,-76.55007,7.354943,-78.750755,3.2935338,21.949068,25.912495,-0.11762241,-84.98074,-14.000266,77.03613,-9.822032,-5.79259,1.9162883,-1.6840199
84,1.0107181072235107,6.578854560852051,47.47620391845703,1.596725246304894,-21.547826338308692,-91.32443526426519,-73.058334,28.065977,3.0717535,118.28652,-12.796051,-0.2923709,-83.56224,-24.379368,9.299239,79.97428,2.8446348,0.71412855,-4.3559017,-1.938869,29.793802,-76.92469,7.69339,-79.00947,3.3055012,22.388744,25.670914,-0.22173047,-85.07861,-13.727414,76.22058,-9.392276,-5.704102,1.7354102,-1.5477449
85,1.1151376962661743,6.671647548675537,47.49751663208008,1.295967443533372,-21.339418525598425,-91.25711548229997,-71.83785,27.92822,2.8969016,120.75841,-13.733842,0.06047252,-82.30912,-24.532715,8.488178,73.38859,2.7189286,0.64801186,-4.3489547,-1.6194018,29.793802,-77.22673,8.061787,-79.356094,3.369225,22.912546,25.33599,-0.23309177,-85.11971,-13.428406,75.429924,-8.919239,-5.701063,1.5399448,-1.5002279
86,1.191569447517395,6.74950647354126,47.53184509277344,0.9688955149462405,-21.127902214413616,-91.16550339196056,-70.40344,27.661919,2.5760312,122.942085,-14.295455,0.43051317,-80.686745,-24.862167,7.334549,66.23984,2.525205,0.35084942,-4.3532715,-1.322429,29.793802,-77.482635,8.45585,-79.75894,3.4850838,23.513569,24.921835,-0.16569033,-85.118996,-13.10551,74.64016,-8.401828,-5.742614,1.3225462,-1.5039556
87,1.2525449991226196,6.7943572998046875,47.56471252441406,0.6324877739479241,-20.935162310064186,-91.04775377864458,-68.727264,27.276182,2.1936429,124.74392,-14.937461,0.5367052,-78.901855,-25.397654,5.808075,59.08353,2.4236653,0.01724989,-4.376418,-1.0548455,29.793802,-77.69178,8.870552,-80.1908,3.584236,24.083523,24.509977,-0.06288851,-85.10031,-12.761552,73.900734,-7.8609104,-5.8173437,1.104879,-1.5379028
88,1.2880339622497559,6.811768531799316,47.59089660644531,0.30416131681300673,-20.783586011109904,-90.90233511762558,-66.78131,26.78893,1.8351327,126.07329,-16.12325,0.10566753,-77.166115,-26.15186,3.8727927,52.485104,2.5841203,-0.1440805,-4.426545,-0.8240332,29.793802,-77.854164,9.300924,-80.62322,3.6001673,24.513357,24.180862,0.027970767,-85.08177,-12.3998575,73.26235,-7.320354,-5.9163785,0.90867084,-1.5807915
89,1.3041770458221436,6.799778461456299,47.60436248779297,-0.0026001779853993025,-20.67458219075317,-90.71599736252925,-64.24548,26.068893,1.4845742,126.75904,-18.257713,-1.3005717,-75.37015,-27.214489,1.2677776,46.12702,3.2152662,-0.024138747,-4.5100455,-0.6523527,29.793802,-77.966095,9.743595,-81.07698,3.5238116,24.811615,23.950886,0.0874724,-85.0456,-12.0209675,72.72515,-6.7778296,-6.0492845,0.73747206,-1.6336017
90,1.3052899837493896,6.758695125579834,47.609466552734375,-0.3097178095147525,-20.61406076498648,-90.49922315163276,-61.247616,25.261497,1.0961201,126.89886,-20.997566,-3.3436062,-73.33564,-28.350077,-2.0280378,39.75064,4.257029,0.37132835,-4.612471,-0.5216005,29.793802,-78.01473,10.195806,-81.55927,3.3917243,25.023537,23.77717,0.14114107,-84.96831,-11.624906,72.26405,-6.22796,-6.2169952,0.57917744,-1.7058214
91,1.289017677307129,6.712921619415283,47.59507751464844,-0.6385755326215136,-20.61945725758631,-90.27999041339294,-58.43872,24.715946,0.7197952,126.811485,-23.670927,-5.187326,-71.30024,-29.264978,-5.5681024,34.13015,5.4113355,0.9432995,-4.7175384,-0.38700256,29.793802,-77.99316,10.653695,-82.02117,3.2076733,25.100363,23.651276,0.2054871,-84.87721,-11.215558,71.89579,-5.6845737,-6.3922873,0.43282506,-1.7880852
92,1.2670633792877197,6.639847755432129,47.57169723510742,-0.9907666627811242,-20.682535447587384,-90.09078518426833,-56.48117,24.636784,0.4271273,126.83035,-25.601202,-6.0986457,-69.69989,-29.896946,-8.750827,30.245626,6.2467136,1.4559116,-4.806107,-0.21849523,29.793802,-77.92268,11.11268,-82.41188,2.9807336,24.992563,23.567284,0.29573113,-84.8301,-10.799841,71.6356,-5.1603074,-6.5450864,0.2996886,-1.8711456
93,1.2459478378295898,6.537363529205322,47.55535888671875,-1.3774486242021966,-20.789935223380727,-89.97437566660892,-55.521946,25.138731,0.35506588,126.93507,-26.910433,-5.747781,-68.79627,-30.438795,-11.534786,28.623323,6.5121436,1.7307634,-4.842248,0.018125847,29.793802,-77.80863,11.570378,-82.730644,2.70527,24.61203,23.547905,0.4163655,-84.857376,-10.385973,71.50911,-4.6651196,-6.7005186,0.18942629,-1.9566348
94,1.2046277523040771,6.433797836303711,47.549251556396484,-1.783774044151668,-20.923825226257758,-89.9242038934883,-55.24346,26.03269,0.4303936,126.984055,-27.848877,-4.622964,-68.456276,-31.04691,-14.097703,28.841469,6.344404,1.7978034,-4.8248863,0.29876336,29.793802,-77.66685,12.024573,-82.99861,2.388554,24.009924,23.589283,0.5578516,-84.945595,-9.979921,71.50134,-4.1967707,-6.8631973,0.10075104,-2.0481486
95,1.1107466220855713,6.340854644775391,47.549591064453125,-2.1674921751133627,-21.059626466308448,-89.90617344342299,-55.613842,27.042936,0.4122608,127.14072,-27.948767,-3.23317,-68.59801,-31.709757,-16.116888,30.526638,5.8355007,1.6978441,-4.779394,0.5615354,29.793802,-77.53134,12.470634,-83.19915,2.0566435,23.355762,23.646069,0.7131288,-85.09025,-9.586648,71.564064,-3.750752,-6.977407,0.019103792,-2.1391747
96,0.9905534982681274,6.243371963500977,47.56609344482422,-2.492206102216882,-21.181187937417086,-89.87899577905081,-56.612473,27.925291,0.045136802,127.55741,-26.720247,-2.058496,-69.121445,-32.363056,-17.282862,33.25132,5.1190596,1.4984257,-4.7374654,0.7465193,29.793802,-77.427185,12.901651,-83.31582,1.7363944,22.818676,23.672913,0.87428516,-85.277565,-9.209568,71.64771,-3.3228993,-6.987991,-0.0710084,-2.2233322
97,0.8565441966056824,6.153766632080078,47.587486267089844,-2.7554876098011065,-21.305558556289448,-89.83174923806197,-58.549355,28.536926,-0.952347,128.43056,-23.408045,-1.1529889,-70.1471,-32.94738,-17.298817,37.24868,4.1878357,1.2291186,-4.7149296,0.83242744,29.793802,-77.35075,13.3109865,-83.34357,1.4254487,22.38359,23.668327,1.0559386,-85.51403,-8.851593,71.75413,-2.9200983,-6.8331065,-0.16637492,-2.3004093
98,0.7272855043411255,6.048491477966309,47.61384201049805,-2.9831176349521416,-21.460972215270502,-89.77448590363642,-61.357204,29.044548,-2.4168158,129.60605,-18.428045,-0.23532204,-71.5901,-33.404667,-16.44504,42.457794,3.0912757,0.92420065,-4.700471,0.85619676,29.793802,-77.264694,13.693651,-83.294815,1.1167995,21.979841,23.650232,1.2564776,-85.77501,-8.515056,71.90153,-2.5478976,-6.557334,-0.26348802,-2.373257
99,0.6090449690818787,5.8882551193237305,47.661014556884766,-3.1775524647029774,-21.636323806584667,-89.71937790780791,-64.45342,29.688152,-3.9423943,130.73871,-13.090027,0.70720077,-73.120766,-33.677063,-15.251918,48.113895,1.9965624,0.63029474,-4.662902,0.845476,29.793802,-77.15852,14.044069,-83.177795,0.83613354,21.690897,23.605124,1.4427991,-86.01509,-8.201512,72.07071,-2.1974115,-6.2641773,-0.3765291,-2.4394934
100,0.47390443086624146,5.720010757446289,47.721412658691406,-3.3321499416299063,-21.81025841381203,-89.69103227593529,-67.24536,30.737185,-5.1239123,131.51779,-8.770476,1.6730504,-74.46752,-33.842957,-14.205492,53.591785,0.9904127,0.30262017,-4.5602183,0.8266267,29.793802,-77.03078,14.356256,-83.00008,0.6086579,21.603573,23.521486,1.5817239,-86.199265,-7.912118,72.24154,-1.8584764,-6.0573263,-0.5186083,-2.4969695
101,0.31417539715766907,5.563064098358154,47.78400421142578,-3.4350580927059586,-22.006164525418285,-89.74462954163474,-69.597626,32.650436,-5.838869,132.01376,-5.762766,2.713449,-75.62657,-33.93076,-13.278751,59.00573,0.005140926,-0.15700582,-4.3270283,0.8073796,29.793802,-76.871506,14.620461,-82.74688,0.45140567,21.787678,23.373356,1.6625247,-86.29679,-7.64854,72.40592,-1.5082197,-5.9532185,-0.7194463,-2.5488734
102,0.1346464902162552,5.407394886016846,47.84587860107422,-3.47403250039959,-22.240324734278527,-89.88468129514595,-71.78044,35.153942,-6.3407907,132.36113,-3.4403985,3.7618046,-76.7154,-33.91052,-12.25687,64.64567,-1.0079644,-0.7359588,-3.971202,0.76727504,29.793802,-76.67383,14.829901,-82.42228,0.3556344,22.183567,23.174423,1.7050829,-86.321785,-7.412296,72.57493,-1.1605715,-5.9004917,-0.9640265,-2.5956802
103,-0.04133956506848335,5.259923458099365,47.90699005126953,-3.437365815449944,-22.445323872603364,-90.00176118041124,-73.79353,37.41832,-6.6372952,132.3707,-1.7632453,4.6744385,-77.7273,-33.949944,-11.252362,70.229774,-1.9798918,-1.3790194,-3.6163676,0.66735804,29.793802,-76.4855,14.986165,-82.0586,0.31592724,22.670729,22.975506,1.721005,-86.337845,-7.203893,72.763,-0.8599507,-5.9026003,-1.1956247,-2.6309445
104,-0.21046169102191925,5.129744529724121,47.95233917236328,-3.339215626958937,-22.521181544182753,-89.93795068025472,-75.67776,38.62335,-6.666643,131.83679,-0.60611093,5.3757114,-78.6918,-34.25506,-10.361241,75.47772,-2.838151,-2.01639,-3.4296277,0.47933418,29.793802,-76.370255,15.099841,-81.68619,0.3181207,23.138456,22.829817,1.7196318,-86.43531,-7.0237827,72.98176,-0.6459267,-5.962533,-1.3551075,-2.6477346
105,-0.3438660502433777,5.018194198608398,47.98777770996094,-3.188560793663349,-22.401485357841878,-89.5702964756094,-77.457275,38.351143,-6.3361807,130.72536,-0.18856163,5.931786,-79.712944,-35.105743,-9.617989,80.45925,-3.6629932,-2.7436042,-3.53053,0.1731833,29.793802,-76.3754,15.182031,-81.28793,0.36617413,23.60753,22.756039,1.6914536,-86.67517,-6.8731723,73.2397,-0.53846395,-6.0977283,-1.4220386,-2.6354277
106,-0.4488023519515991,4.935633182525635,48.00351333618164,-2.9989306363538453,-22.136335955811766,-88.9848782081606,-79.0727,37.099293,-5.669028,129.12733,-0.4647842,6.340363,-80.77794,-36.38416,-8.906738,85.3109,-4.489536,-3.5956602,-3.8286226,-0.20881772,29.793802,-76.47291,15.2374115,-80.85379,0.44961116,24.120358,22.725359,1.6341392,-87.012566,-6.753116,73.531364,-0.5105855,-6.299547,-1.4280635,-2.599494
107,-0.548719048500061,4.883625030517578,48.00912094116211,-2.8079284175905426,-21.79075628500245,-88.32794568638847,-80.477684,35.447792,-4.8109517,127.02169,-0.90308523,6.4599967,-81.73731,-37.67014,-8.150944,89.8506,-5.162456,-4.3805895,-4.1823587,-0.5750815,29.793802,-76.61656,15.2691,-80.42281,0.53500116,24.599323,22.719612,1.566503,-87.38135,-6.664227,73.845924,-0.53504145,-6.5345097,-1.391495,-2.5570312
108,-0.647445797920227,4.852089881896973,48.0109977722168,-2.644134118210148,-21.41092939657105,-87.72138023367316,-81.63852,34.03878,-3.8126903,124.38913,-0.9684843,6.2599845,-82.460556,-38.534954,-7.3029685,93.89203,-5.501498,-4.865251,-4.4739985,-0.85893905,29.793802,-76.77378,15.279218,-80.03506,0.59726703,24.9667,22.723461,1.5078068,-87.731514,-6.6094084,74.17182,-0.58771455,-6.768973,-1.3295023,-2.525284
109,-0.7595033645629883,4.848935127258301,48.01321792602539,-2.521846260147324,-20.96529730001933,-87.15479101564986,-82.56306,32.98198,-2.5961888,121.14346,-0.52426666,5.636129,-82.96448,-38.815914,-6.3441463,97.390755,-5.4825587,-4.9240594,-4.707038,-1.0541227,29.793802,-76.97342,15.273139,-79.70447,0.61894786,25.194918,22.740097,1.4520228,-88.085335,-6.590413,74.511604,-0.68172663,-7.043587,-1.2168825,-2.4990702
110,-0.8655137419700623,4.8755412101745605,48.0146598815918,-2.4237679437463338,-20.43830651878312,-86.58631517866874,-83.2614,31.95624,-1.2191182,117.31524,0.11126492,4.626867,-83.29369,-38.702652,-5.3373947,100.46536,-5.1823993,-4.6351485,-4.929461,-1.183962,29.793802,-77.22014,15.253964,-79.4001,0.61408305,25.331238,22.774456,1.3891732,-88.46263,-6.601828,74.87718,-0.8215834,-7.3597617,-1.0537167,-2.475003
111,-0.9635468125343323,4.923837184906006,48.022972106933594,-2.327398590367314,-19.882851906479583,-86.06174050985483,-83.699844,30.980614,0.19448915,113.0479,0.82105243,3.4933944,-83.37297,-38.31894,-4.4112678,103.1607,-4.569486,-4.1020617,-5.1120677,-1.2675686,29.793802,-77.46483,15.228755,-79.12668,0.60964084,25.398563,22.822021,1.3459787,-88.829,-6.636051,75.23957,-0.9739533,-7.624932,-0.89586633,-2.4597332
112,-1.0622282028198242,4.985634803771973,48.019554138183594,-2.216703665234607,-19.353485189053373,-85.62151302507041,-83.84705,30.07913,1.5399896,108.480804,1.5020727,2.5061443,-83.14318,-37.79717,-3.6451066,105.51036,-3.6005378,-3.4145215,-5.2303867,-1.2971263,29.793802,-77.65455,15.180408,-78.84524,0.6405416,25.434027,22.867384,1.330409,-89.140724,-6.711264,75.61656,-1.1204178,-7.744272,-0.7951824,-2.4829953
113,-1.1567856073379517,5.055955410003662,48.014564514160156,-2.079784967368762,-18.845079518006692,-85.25986458770657,-83.66785,29.177559,2.8231575,103.50697,2.1839666,1.7356781,-82.679985,-37.227413,-3.0334399,107.55654,-1.5930213,-2.4310465,-5.28841,-1.294798,29.793802,-77.79113,15.116707,-78.58582,0.7046858,25.412518,22.935946,1.3680633,-89.410995,-6.8095083,75.98633,-1.2382729,-7.671937,-0.7700205,-2.5432453
114,-1.2328510284423828,5.124417304992676,48.01692199707031,-1.930667728965759,-18.30984123015822,-84.96941656150257,-83.21621,28.312332,4.081694,98.08784,2.9051883,1.0650105,-82.02417,-36.42158,-2.5128963,109.26097,1.2212106,-1.0711277,-5.2922673,-1.2479489,29.709572,-77.837036,15.036131,-78.34557,0.78499305,25.328743,23.01789,1.4443995,-89.59718,-6.927109,76.363106,-1.3525541,-7.4646773,-0.7958471,-2.6365893
115,-1.2919859886169434,5.187413215637207,48.021461486816406,-1.7862703873834178,-17.76328294849362,-84.77780001454376,-82.564705,27.657389,5.338304,92.4621,3.5900233,0.50327796,-81.04451,-35.238148,-2.1245878,110.54409,3.4946282,0.34415337,-5.219939,-1.1518177,29.506418,-77.76038,14.936269,-78.11469,0.90007895,25.217169,23.070707,1.5402982,-89.65081,-7.0585585,76.72667,-1.476016,-7.187539,-0.86166286,-2.7467005
116,-1.3652178049087524,5.241623401641846,48.01872253417969,-1.6677310267888343,-17.277852544028942,-84.68719832470327,-81.72615,27.317423,6.607748,86.86306,4.1781025,-0.0202806,-79.55016,-33.753674,-1.9605289,111.345116,3.8544655,1.2967814,-5.06527,-1.0059215,29.336184,-77.65209,14.818199,-77.875534,1.0759478,25.122164,23.063284,1.6299512,-89.65348,-7.199627,77.05735,-1.5938045,-6.9055624,-0.9444422,-2.8531363
117,-1.4410723447799683,5.286515235900879,48.01341247558594,-1.56736722080915,-16.853242444173663,-84.7232426683145,-80.60224,27.3554,8.068387,81.05562,4.7053885,-0.48196727,-77.34228,-31.761143,-1.9259378,111.55967,1.5541772,1.5153083,-4.805622,-0.8066867,29.21698,-77.5276,14.682677,-77.61851,1.3319323,25.02962,22.97521,1.7178922,-89.62107,-7.3470435,77.36624,-1.6862627,-6.6176023,-1.0610449,-2.9814658
118,-1.5216442346572876,5.302626609802246,47.99711990356445,-1.4784484029855387,-16.503859559131396,-84.82194154878685,-79.138214,27.562881,9.756294,74.974266,5.219101,-0.9191259,-74.59525,-29.371653,-1.876245,111.27865,-2.5598404,1.2542228,-4.498507,-0.5727115,29.170153,-77.38707,14.530854,-77.34882,1.6529237,24.930042,22.831684,1.811743,-89.561844,-7.4988036,77.66011,-1.7514431,-6.2977395,-1.2121274,-3.1299803
119,-1.5818883180618286,5.317587375640869,47.96847915649414,-1.4087737029150047,-16.275025123754368,-84.86505715492441,-77.47563,27.670439,11.476435,69.101974,5.6990857,-1.4696296,-71.72198,-27.23383,-1.8833734,110.71732,-7.4300747,0.6816302,-4.2519417,-0.3494018,29.192575,-77.197044,14.362914,-77.078835,2.0062118,24.862919,22.660162,1.8952576,-89.440346,-7.650503,77.91447,-1.8205181,-5.96485,-1.3596921,-3.2405436
120,-1.6294047832489014,5.306689262390137,47.93848419189453,-1.3666492740238734,-16.184429346015563,-84.78181699254722,-75.82867,27.525265,12.956145,63.94741,6.124478,-2.2312388,-69.11239,-25.975998,-2.1511967,110.07384,-12.002815,-0.014309753,-4.130335,-0.16505846,29.254963,-76.92312,14.178619,-76.82227,2.3578153,24.868158,22.488419,1.9528111,-89.219185,-7.795466,78.09823,-1.9223161,-5.6384864,-1.465,-3.255942
121,-1.664656639099121,5.227126598358154,47.91389465332031,-1.392046997688448,-16.256098041810652,-84.52810083471833,-74.14166,27.157383,14.190798,59.365288,6.5111003,-3.3873444,-66.59872,-25.929111,-3.0357337,109.1523,-16.6445,-0.86291385,-4.166734,0.011553062,29.340275,-76.4954,13.9745865,-76.584915,2.7052681,24.604015,22.936197,1.9836522,-88.83569,-7.925845,78.19264,-2.0581248,-5.2967157,-1.5026373,-3.1194663
122,-1.680612325668335,5.10113000869751,47.89369583129883,-1.4744833155332198,-16.459796628274166,-84.18139718655065,-72.38689,26.6759,15.257971,55.152023,6.8960485,-4.8256764,-64.01963,-26.572231,-4.3927445,107.90692,-21.702787,-1.8300428,-4.294064,0.19895189,29.454609,-75.95477,13.749022,-76.35911,3.0683188,24.163324,23.78234,2.0012507,-88.33031,-8.036342,78.21666,-2.2034452,-4.935539,-1.4968511,-2.8755016
123,-1.6719547510147095,4.955112457275391,47.87437057495117,-1.5498542148827212,-16.72098269621517,-83.85860345757123,-70.85589,26.147072,15.980091,51.807617,7.234817,-6.148121,-61.77617,-27.338717,-5.7163873,106.75494,-26.11923,-2.6423316,-4.420865,0.35226697,29.591232,-75.42032,13.508379,-76.13989,3.4388995,24.252014,23.801418,1.9898342,-87.80449,-8.1269045,78.20267,-2.3550537,-4.6131635,-1.484166,-2.6187346
124,-1.639158844947815,4.8143720626831055,47.861942291259766,-1.5415881210273765,-16.965381892899526,-83.66069673991626,-69.84047,25.652777,16.20264,49.89812,7.432023,-6.9365926,-60.334118,-27.81893,-6.44966,106.136665,-28.831963,-3.137901,-4.47157,0.40978265,29.74147,-75.01229,13.266062,-75.9207,3.8022945,25.567842,21.764174,1.9534122,-87.363754,-8.201598,78.18633,-2.513172,-4.384594,-1.5026653,-2.443227
125,-1.5885190963745117,4.704477787017822,47.862144470214844,-1.3872466395887046,-17.133804582891116,-83.62818782604099,-69.55277,25.180454,15.725301,49.783356,7.4265676,-6.935879,-60.044464,-28.037119,-6.337793,106.26464,-29.325481,-3.2576528,-4.4497175,0.31450945,29.793802,-74.70755,13.027975,-75.63999,4.132275,28.910902,16.32696,2.2255085,-86.96466,-8.260623,78.187195,-2.711619,-4.2656684,-1.5803266,-2.3765106
126,-1.5208659172058105,4.613440036773682,47.87902069091797,-1.1334119745724565,-17.276237778988957,-83.6943535930502,-69.798225,24.699617,14.702546,51.132187,7.258735,-6.4155335,-60.602306,-28.248913,-5.70483,106.88408,-28.25691,-3.1408436,-4.416255,0.115135,29.793802,-74.493866,12.788755,-75.27824,4.450373,33.67567,8.465394,3.1905081,-86.58613,-8.298089,78.2038,-2.9436088,-4.222379,-1.6918999,-2.3662333
127,-1.4396677017211914,4.530746936798096,47.90180587768555,-0.860851802308961,-17.4391519507397,-83.79737418321662,-70.28821,24.24699,13.538286,53.457516,6.98882,-5.735156,-61.574837,-28.441742,-4.8306785,107.7434,-26.315025,-2.9748216,-4.3724604,-0.103476286,29.793802,-74.36499,12.54451,-74.92555,4.7862806,38.487225,0.48279327,4.640699,-86.23215,-8.3103695,78.22356,-3.1634042,-4.2387643,-1.8075122,-2.3896337
128,-1.35483717918396,4.4242634773254395,47.931697845458984,-0.6522404168274221,-17.653320900212883,-83.8755423730765,-70.76132,23.898775,12.614876,56.287376,6.6560216,-5.23758,-62.539352,-28.613058,-4.007003,108.58693,-24.185818,-2.936487,-4.295894,-0.27430648,29.793802,-74.239784,12.3070345,-74.72987,5.1521807,41.884857,-5.4635124,5.7044396,-85.863914,-8.301709,78.20826,-3.3348243,-4.3054633,-1.8996924,-2.4264421
129,-1.2763288021087646,4.317659854888916,47.96745300292969,-0.5323735647683077,-17.94439548413728,-83.91032265155721,-71.23685,23.705788,11.962811,59.77447,6.235741,-4.976574,-63.46918,-28.764654,-3.2501006,109.432076,-21.785936,-3.0545473,-4.1636786,-0.40447545,29.793802,-74.05233,12.10844,-74.80502,5.5857697,43.20177,-8.914008,5.4382687,-85.433105,-8.282693,78.10899,-3.4504707,-4.440366,-1.9725317,-2.491789
130,-1.1962661743164062,4.215120315551758,48.00493240356445,-0.4535909329966777,-18.2934030027943,-83.9347692796411,-71.80031,23.622553,11.4045925,64.05012,5.7221737,-4.774839,-64.5644,-28.90691,-2.4241807,110.38251,-18.829906,-3.262041,-3.9879286,-0.53665525,29.793802,-73.830154,11.969603,-75.07474,6.0402575,43.22067,-11.074889,4.1796565,-84.96805,-8.260414,77.94488,-3.545552,-4.642314,-2.0368967,-2.5905674
131,-1.1158056259155273,4.108497619628906,48.05356979370117,-0.3958365841814016,-18.658322718047295,-83.96446319946867,-72.313324,23.635279,10.992476,68.65506,5.145673,-4.594295,-65.73833,-29.07065,-1.606319,111.31955,-15.710541,-3.5773597,-3.792614,-0.6656306,29.793802,-73.62189,11.8923435,-75.42024,6.4088016,42.56084,-12.485007,2.6749735,-84.5443,-8.237076,77.77005,-3.6535428,-4.881212,-2.0746434,-2.6886144
132,-1.0324499607086182,4.007602214813232,48.100311279296875,-0.3399040949701033,-18.99541857969007,-84.0157860946979,-72.65152,23.72734,10.774322,73.154236,4.5323563,-4.402496,-66.902435,-29.278206,-0.8777695,112.12673,-12.824286,-4.008092,-3.6018677,-0.77983534,29.793802,-73.48539,11.866201,-75.71384,6.5935297,41.88884,-13.689348,1.7527168,-84.2398,-8.213485,77.641594,-3.8023524,-5.1266804,-2.0674243,-2.7526295
133,-0.9414592981338501,3.91855525970459,48.13249588012695,-0.3072878143661004,-19.3081903131394,-84.0764211934365,-72.8111,23.931784,10.78271,77.56645,3.854871,-4.249209,-68.04424,-29.569578,-0.27246535,112.90567,-10.10772,-4.6270976,-3.4201887,-0.8617576,29.793802,-73.436676,11.864491,-75.94686,6.5628605,41.287205,-14.685513,1.7095561,-84.0585,-8.189869,77.56364,-3.991085,-5.3684525,-1.9945121,-2.7665293
134,-0.8396097421646118,3.854799270629883,48.14023971557617,-0.2987854135732619,-19.617251503289772,-84.13974535649263,-72.83025,24.264513,10.978711,82.09637,3.0898373,-4.1143227,-69.20515,-29.94027,0.25637442,113.67629,-7.4084992,-5.4177365,-3.2309875,-0.93176347,29.793802,-73.45014,11.879326,-76.19746,6.3937387,40.460777,-15.229635,2.0893986,-83.96328,-8.151045,77.490776,-4.1915474,-5.6271095,-1.8720512,-2.743653
135,-0.7197263836860657,3.8181822299957275,48.12279510498047,-0.26710890255925035,-19.898177100249633,-84.23830191111436,-72.667305,24.675428,11.29299,86.59925,2.2769494,-3.875318,-70.36859,-30.323145,0.734276,114.18629,-4.9929004,-6.2210975,-3.0299683,-1.0037178,29.793802,-73.526306,11.918244,-76.41728,6.1529665,39.52087,-15.549717,2.6031902,-83.98252,-8.093448,77.45578,-4.398719,-5.9068217,-1.7339851,-2.7117367
136,-0.5868216156959534,3.7982709407806396,48.08645248413086,-0.1663041466541101,-20.12262420068248,-84.41476840383612,-72.29842,25.10992,11.644819,90.92836,1.4642348,-3.4225667,-71.511696,-30.60858,1.1693196,114.18933,-3.12638,-6.853987,-2.7977078,-1.0935168,29.793802,-73.67266,11.980801,-76.5766,5.9163613,38.573322,-15.85859,2.9624784,-84.13957,-8.029577,77.47587,-4.6235943,-6.216334,-1.6140226,-2.693954
137,-0.44702276587486267,3.794416904449463,48.0335693359375,0.037550470967598046,-20.273593012617255,-84.71077003782355,-71.718834,25.70629,12.133923,95.12918,0.8215624,-2.741575,-72.651726,-30.74919,1.5806204,113.70136,-2.0258136,-7.2662044,-2.4965096,-1.2205117,29.793802,-73.93785,12.069029,-76.69198,5.6750965,37.578144,-16.153692,3.111756,-84.495735,-7.9681196,77.572685,-4.901499,-6.6032686,-1.510134,-2.697382
138,-0.2816413640975952,3.8117787837982178,47.96766662597656,0.30841225360937,-20.36410475172635,-85.10851891282842,-70.925026,26.47361,12.76036,99.26646,0.24882375,-1.8525366,-73.77229,-30.764013,1.929726,112.82356,-1.4989835,-7.529635,-2.1317475,-1.3610591,29.793802,-74.30538,12.183948,-76.77421,5.3960066,36.499123,-16.338974,3.2010844,-85.016624,-7.9124784,77.72944,-5.227947,-7.050724,-1.4072818,-2.7096193
139,-0.11630407720804214,3.845839500427246,47.891029357910156,0.5847156980818441,-20.40710003078572,-85.55834402897001,-69.94939,27.092009,13.248392,103.20969,-0.5758779,-0.7920765,-74.79712,-30.645765,2.1401598,111.446144,-1.2064991,-7.638474,-1.7496473,-1.4733015,29.793802,-74.6877,12.32125,-76.79164,5.1209264,35.4507,-16.476051,3.2466853,-85.59988,-7.862109,77.90051,-5.5437946,-7.4600296,-1.3199127,-2.722622
140,0.06906597316265106,3.896087408065796,47.80768966674805,0.809308316048595,-20.41337700185637,-85.99540872796541,-68.867424,27.17735,13.344915,106.81828,-1.940233,0.36170387,-75.6623,-30.403408,2.162287,109.4571,-0.80990905,-7.580701,-1.4108329,-1.5231022,29.793802,-75.00395,12.472197,-76.70998,4.897735,34.547493,-16.626484,3.26286,-86.14609,-7.813428,78.04239,-5.7865605,-7.7349777,-1.2622223,-2.7284176
141,0.2626182734966278,3.961763858795166,47.72366714477539,0.9860636512383103,-20.379765621838317,-86.39862216394478,-67.68617,26.546104,13.023646,110.22825,-3.8954551,1.9460475,-76.38499,-30.028997,2.0423598,106.76728,-0.26978028,-7.318858,-1.1370647,-1.5196201,29.793802,-75.24998,12.6269245,-76.47251,4.747306,33.805748,-16.790499,3.2219903,-86.66421,-7.7644987,78.15234,-5.94964,-7.8293138,-1.2367939,-2.7278183
142,0.4630993604660034,4.0430378913879395,47.648155212402344,1.15473184895544,-20.301547121435327,-86.78584754583238,-66.411606,25.286896,12.442217,113.4578,-6.241233,3.799358,-76.98556,-29.549597,1.8618993,103.45464,0.22619629,-6.8588533,-0.90868866,-1.494046,29.793802,-75.471054,12.780037,-76.11359,4.655485,33.169373,-16.939188,3.1279998,-87.19999,-7.7142634,78.251114,-6.0588293,-7.8004856,-1.2362787,-2.7245336
143,0.6648558378219604,4.147848606109619,47.57957458496094,1.2998681552125648,-20.189292972638714,-87.15220356741267,-65.10447,23.479528,11.678816,116.19179,-8.907672,5.1486154,-77.408424,-29.038513,1.6164416,99.653885,0.6747403,-6.2660966,-0.7233884,-1.4450164,29.793802,-75.658295,12.92929,-75.733406,4.616297,32.643864,-17.091814,3.0413642,-87.70343,-7.6584873,78.3213,-6.1003566,-7.7114563,-1.2606139,-2.715253
144,0.8801834583282471,4.256227016448975,47.51967239379883,1.4020836947335023,-20.056442021248728,-87.50720309909033,-63.793354,21.349518,10.804135,118.1312,-11.891789,5.3162203,-77.59078,-28.546282,1.2572677,95.48442,1.087217,-5.6078253,-0.5666535,-1.3586327,29.793802,-75.79778,13.074933,-75.43197,4.62045,32.235073,-17.268856,3.0225806,-88.121,-7.5916295,78.35021,-6.057935,-7.6263437,-1.3099731,-2.695756
145,1.1048003435134888,4.344096660614014,47.46928405761719,1.4497516414285059,-19.9071785831328,-87.8916787911464,-62.320698,18.698885,9.606553,119.02246,-15.702788,3.6565406,-77.4862,-27.946686,0.7897123,90.8029,1.4919307,-4.7764215,-0.41121563,-1.2008014,29.793802,-75.861534,13.214099,-75.19937,4.6841817,31.975014,-17.486485,3.0907576,-88.42922,-7.509031,78.33953,-5.9167085,-7.5476995,-1.388724,-2.6522636
146,1.3188872337341309,4.424314022064209,47.4287109375,1.4432898745015459,-19.75762943273713,-88.33107592443575,-60.6135,15.875249,8.173517,119.11897,-20.303574,0.9807008,-77.09259,-27.26198,0.1957959,85.57724,1.8635831,-3.8367617,-0.23382169,-0.9640802,29.793802,-75.842415,13.343454,-74.99618,4.8069816,31.851759,-17.732632,3.2149165,-88.64015,-7.4077992,78.295,-5.6832185,-7.445086,-1.4973677,-2.5908754
147,1.5063190460205078,4.4933977127075195,47.4068603515625,1.3699562237972318,-19.615782902941117,-88.77834245287679,-58.958065,13.734128,6.926645,118.86007,-24.758036,-1.3811126,-76.450096,-26.740387,-0.6413219,80.084076,2.1692898,-3.060032,-0.05731739,-0.6762314,29.793802,-75.78366,13.465414,-74.87384,4.954594,31.801888,-17.983633,3.3792577,-88.77419,-7.2854567,78.206505,-5.372672,-7.335421,-1.6282698,-2.536769
148,1.6607218980789185,4.562967777252197,47.40338134765625,1.2336529754898355,-19.468897925600686,-89.14872910937208,-57.75861,12.704495,6.228513,118.660324,-28.011856,-2.4417064,-75.64003,-26.592335,-1.8211174,74.60246,2.3998847,-2.6406944,0.06117328,-0.396575,29.793802,-75.74527,13.588036,-74.88294,5.089091,31.763868,-18.213905,3.5664449,-88.87426,-7.1409364,78.06254,-4.9976225,-7.232955,-1.7719283,-2.5145051
149,1.768830418586731,4.6345343589782715,47.42256546020508,1.0096196806892936,-19.281615531420126,-89.40408707272815,-57.22166,12.867373,6.21398,118.47263,-29.730606,-1.903902,-74.60413,-26.802305,-3.4844875,68.954025,2.534054,-2.6235476,0.0903962,-0.12099578,29.793802,-75.76001,13.721324,-75.05812,5.2101154,31.76294,-18.41663,3.7948174,-88.96717,-6.972246,77.857414,-4.5342665,-7.151396,-1.9376464,-2.5317602
150,1.847418189048767,4.701366901397705,47.46384811401367,0.7106500593095021,-19.059814777278113,-89.58120170932041,-57.156734,13.819359,6.634038,118.119675,-30.467388,-0.47360763,-73.315834,-27.164335,-5.583473,63.036713,2.6138525,-2.8009105,0.050649747,0.16615449,29.793802,-75.79962,13.870625,-75.363716,5.324881,31.81795,-18.603617,4.066407,-89.038246,-6.7780595,77.60063,-3.981727,-7.079144,-2.1256533,-2.5743215
151,1.8894484043121338,4.759665012359619,47.52078628540039,0.40012225355695474,-18.850462024432733,-89.70062634407648,-57.37422,15.135787,7.2648816,117.8173,-30.499153,1.2353429,-71.92195,-27.599073,-7.9315796,57.264816,2.730123,-2.9742532,-0.03974005,0.41355556,29.793802,-75.83164,14.038237,-75.74394,5.4038363,31.860191,-18.778046,4.338738,-89.06802,-6.559902,77.29955,-3.3899214,-6.99409,-2.3126738,-2.6350117
152,1.8971917629241943,4.802737236022949,47.58448791503906,0.14504739644753953,-18.70080010016969,-89.78181532084936,-57.70457,16.408758,7.8584847,117.77655,-30.055632,2.6238892,-70.58838,-28.080473,-10.322931,52.072525,2.9756346,-2.9800928,-0.16297115,0.5709642,29.793802,-75.824974,14.22328,-76.14363,5.421359,31.818157,-18.94375,4.56838,-89.037994,-6.3214235,76.96286,-2.8099575,-6.8716335,-2.475617,-2.7064404
153,1.8753005266189575,4.823812007904053,47.651058197021484,-0.03991691513175832,-18.616214217732203,-89.81548789203504,-58.198753,17.768131,8.486948,118.1072,-28.936335,3.7065556,-69.24644,-28.706945,-12.939558,47.314426,3.4564857,-2.8232095,-0.32176295,0.6122394,29.793802,-75.765755,14.427191,-76.57568,5.370503,31.648256,-19.10723,4.7405567,-88.92775,-6.0638433,76.56616,-2.2376416,-6.6795063,-2.6123688,-2.799301
154,1.834591269493103,4.826684474945068,47.7162971496582,-0.1953637272578012,-18.578244249511073,-89.80193869906965,-58.897095,19.419823,9.232848,118.68569,-27.111628,4.804017,-67.82805,-29.389742,-15.846059,42.820213,4.1242476,-2.5445983,-0.51529604,0.5756132,29.793802,-75.67002,14.651954,-77.06161,5.2634315,31.395622,-19.265347,4.878963,-88.75111,-5.7871184,76.11291,-1.6551113,-6.437372,-2.7346685,-2.9138126
155,1.7772297859191895,4.812445640563965,47.775447845458984,-0.3313626375632881,-18.595362737053698,-89.77003706939519,-59.660027,21.01297,9.8323,119.36027,-25.013557,5.7297683,-66.545334,-29.971004,-18.614607,39.036034,4.8052278,-2.1363308,-0.72894764,0.50209224,29.793802,-75.55499,14.894586,-77.55578,5.1074057,31.122202,-19.407988,4.99777,-88.53452,-5.4958887,75.65484,-1.0986289,-6.206726,-2.8394592,-3.0272365
156,1.7192585468292236,4.774776935577393,47.82759475708008,-0.4515818045996586,-18.66799462574344,-89.74218178579589,-60.38489,22.12855,10.017365,119.97018,-23.047964,6.2338333,-65.6664,-30.413946,-20.756613,36.48339,5.2860456,-1.6399885,-0.952386,0.42590743,29.793802,-75.44196,15.148579,-78.01233,4.911303,30.89241,-19.524736,5.1109805,-88.31221,-5.1981473,75.24031,-0.6030778,-6.046584,-2.9227114,-3.1172066
157,1.6511335372924805,4.718686580657959,47.87071990966797,-0.5401865300132829,-18.79454792697633,-89.70187713960456,-61.116127,22.449585,9.607719,120.464066,-21.2082,6.022687,-65.32096,-30.856829,-22.134388,35.39646,5.4634624,-1.0487406,-1.1981653,0.32227623,29.793802,-75.33941,15.40796,-78.44027,4.6733313,30.702166,-19.613634,5.217973,-88.071785,-4.90164,74.86158,-0.18159391,-5.9590206,-2.9834776,-3.1816363
158,1.5824470520019531,4.650894641876221,47.905303955078125,-0.591852123683015,-18.965311152786683,-89.64255405899918,-61.90026,22.190054,8.787156,120.92277,-19.301283,5.2411184,-65.40877,-31.400686,-22.959505,35.554264,5.4079504,-0.41083995,-1.4662422,0.17613234,29.793802,-75.246895,15.669213,-78.85763,4.398559,30.524872,-19.67933,5.3122625,-87.81069,-4.611329,74.49827,0.17813225,-5.9167395,-3.0225978,-3.231938
159,1.5093023777008057,4.565619945526123,47.93094253540039,-0.6336329246995351,-19.165545745177713,-89.59846702588712,-62.653835,21.721033,7.837336,121.376945,-17.445293,4.2857375,-65.85442,-31.988174,-23.26557,36.80229,5.14815,0.13588938,-1.7314281,0.03469196,29.793802,-75.17419,15.927934,-79.23023,4.1063857,30.388863,-19.721222,5.399219,-87.57636,-4.3318424,74.18254,0.47945535,-5.9370174,-3.037933,-3.2657177
160,1.4469077587127686,4.445981979370117,47.94733428955078,-0.692758630369619,-19.384646025456437,-89.60530128235106,-63.31087,21.466927,7.0215797,121.86141,-15.744565,3.5940812,-66.565216,-32.52994,-23.099377,38.95969,4.729937,0.46567017,-1.9673909,-0.048518576,29.793802,-75.12657,16.179028,-79.52374,3.8169158,30.321205,-19.739153,5.484034,-87.41141,-4.0667305,73.9499,0.72760534,-6.036102,-3.0279257,-3.2803395
161,1.3863649368286133,4.316947937011719,47.95039749145508,-0.7886087981544725,-19.64553882974176,-89.67252013295038,-63.83205,21.496454,6.347883,122.39059,-14.2536,3.262671,-67.63669,-32.93174,-22.206457,42.234085,4.135133,0.5579196,-2.1719859,-0.04162799,29.793802,-75.09524,16.417019,-79.7359,3.5239854,30.338917,-19.724041,5.578389,-87.30661,-3.8195906,73.81978,0.9046774,-6.2475176,-2.9897532,-3.271316
162,1.3205862045288086,4.182502746582031,47.93468475341797,-0.9042621349177582,-19.95185688208813,-89.7728854700405,-64.25619,21.61031,5.6932,122.94703,-12.905582,3.0775113,-69.04816,-33.172157,-20.66936,46.5482,3.399843,0.532303,-2.3628728,0.022957902,29.793802,-75.074486,16.637777,-79.88361,3.2273872,30.422915,-19.67986,5.675724,-87.234505,-3.5932765,73.769936,1.0094534,-6.5529785,-2.9256287,-3.2409203
163,1.2442710399627686,4.047745704650879,47.913944244384766,-1.0268741340654612,-20.263739899798168,-89.8953028166476,-64.66486,21.87345,5.1015615,123.509636,-11.605383,3.040947,-70.52537,-33.306927,-19.04799,51.32234,2.6375434,0.44450617,-2.5348144,0.108933225,29.793802,-75.06919,16.839407,-79.96193,2.9512553,30.548758,-19.626007,5.7537837,-87.213295,-3.3884692,73.77233,1.0768044,-6.88864,-2.841058,-3.1964288
164,1.153857946395874,3.9034180641174316,47.89201736450195,-1.1379632139614329,-20.539154145280175,-90.03344474635222,-65.14239,22.35588,4.6150484,124.05777,-10.259021,3.1579366,-71.807594,-33.50498,-17.877499,56.045395,1.9154421,0.2784187,-2.6797454,0.18043013,29.793802,-75.08909,17.021805,-79.964905,2.718403,30.690067,-19.581488,5.79046,-87.26494,-3.2031882,73.79628,1.1429553,-7.1910706,-2.7414405,-3.1458526
165,1.0521258115768433,3.762767791748047,47.868812561035156,-1.2370181182654671,-20.78289430926897,-90.21427169775681,-65.71027,23.111782,4.220696,124.62252,-8.82568,3.5127764,-72.86837,-33.888474,-17.257757,60.799335,1.1938204,-0.055678476,-2.7786791,0.24502212,29.793802,-75.1298,17.184395,-79.867584,2.5433795,30.855087,-19.552076,5.7748914,-87.407425,-3.035504,73.8485,1.2166927,-7.4615474,-2.6202683,-3.089289
166,0.9416067004203796,3.6527771949768066,47.840538024902344,-1.3340957386139634,-21.0153669706594,-90.43525420320603,-66.329254,24.116518,3.8896499,125.20307,-7.3633294,4.094221,-73.80608,-34.41376,-16.908041,65.804146,0.43135592,-0.57865804,-2.8385646,0.3196781,29.793802,-75.186485,17.325981,-79.68037,2.4118211,31.051065,-19.527676,5.7205753,-87.62297,-2.8840709,73.94111,1.2815893,-7.726754,-2.4777772,-3.022646
167,0.8074886798858643,3.546090841293335,47.812103271484375,-1.4259716834901304,-21.20367451570089,-90.64975246676907,-67.01038,25.31855,3.6409268,125.72849,-5.924275,4.7621,-74.57888,-35.07586,-16.766909,70.81252,-0.33196333,-1.2506652,-2.8898296,0.37985006,29.743462,-75.22832,17.44603,-79.454025,2.298718,31.255981,-19.506845,5.644545,-87.839226,-2.74743,74.05402,1.3280371,-7.9647045,-2.3324265,-2.9484255
168,0.6622600555419922,3.4543535709381104,47.78699493408203,-1.509624543730571,-21.247502584114105,-90.81280023101135,-67.84397,26.664,3.5037794,126.13301,-4.544203,5.378228,-75.22431,-35.83973,-16.78276,75.56362,-1.032768,-2.0146973,-2.967833,0.3901005,29.34069,-75.0538,17.53595,-79.25416,2.1752884,31.439772,-19.502422,5.573877,-87.80166,-2.6232038,74.16641,1.3072051,-8.149688,-2.219336,-2.8735552
169,0.5051922798156738,3.3756210803985596,47.77836990356445,-1.5854483039950562,-21.227834684599422,-90.92606124856344,-68.74881,28.209084,3.4719617,126.46117,-3.1793706,5.8778048,-75.62754,-36.804546,-17.067934,80.12516,-1.7505721,-2.955647,-3.0625575,0.35421094,28.91273,-74.90442,17.598892,-79.06855,2.059545,31.607727,-19.501446,5.4913397,-87.76047,-2.5116022,74.26314,1.273049,-8.263553,-2.1140273,-2.7819488
170,0.3275454044342041,3.327833414077759,47.774818420410156,-1.6541026946539346,-21.1630785358002,-91.01203678132285,-69.700714,29.952188,3.5340319,126.73353,-1.8439083,6.334727,-75.77766,-37.988815,-17.59984,84.613045,-2.5211864,-4.1007843,-3.1601038,0.28342417,28.463379,-74.77058,17.635717,-78.87444,1.9595809,31.770037,-19.504025,5.392286,-87.72497,-2.4125814,74.35913,1.2258093,-8.323812,-2.0109649,-2.676635
171,0.14190617203712463,3.3106703758239746,47.78400802612305,-1.7074662785318167,-21.0735809873834,-91.04603796739656,-70.59488,31.71969,3.7277029,126.84626,-0.7145724,6.779011,-75.70432,-39.202087,-18.099072,88.90852,-3.240917,-5.236795,-3.2721813,0.18033585,28.045889,-74.66136,17.647816,-78.677185,1.8615745,31.926878,-19.493711,5.2895026,-87.70949,-2.3286746,74.46984,1.1711637,-8.36521,-1.9168313,-2.580546
172,-0.048086654394865036,3.3214898109436035,47.803897857666016,-1.7371658196592443,-20.969048451159985,-90.99699118792313,-71.328514,33.34667,4.1202536,126.691345,0.041867454,7.255812,-75.4913,-40.224945,-18.282318,92.87992,-3.7738945,-6.1179647,-3.4131277,0.042237516,27.702679,-74.5853,17.638206,-78.486404,1.7505409,32.078915,-19.453259,5.1963654,-87.72437,-2.275621,74.61022,1.1019235,-8.422272,-1.8383355,-2.5153804
173,-0.2426888793706894,3.3611435890197754,47.83993911743164,-1.7355584539440427,-20.839939802011344,-90.86200588456843,-71.78533,35.102722,4.884944,126.40386,0.2179751,7.9436135,-75.19842,-40.958332,-18.09951,96.50522,-4.0974083,-6.6309786,-3.5820596,-0.138439,27.431023,-74.54258,17.609884,-78.30025,1.6062572,32.23933,-19.370821,5.1075835,-87.769104,-2.2436624,74.78549,1.029171,-8.5195,-1.7854198,-2.49598
174,-0.4318513572216034,3.4320316314697266,47.87647247314453,-1.6984363055640064,-20.67351177365638,-90.64708052623989,-71.99619,36.967808,6.0251813,125.98705,-0.052223753,8.772569,-74.83243,-41.493736,-17.65942,99.85829,-4.2498817,-6.8613296,-3.7789843,-0.3716927,27.20011,-74.528496,17.56365,-78.118095,1.439264,32.404285,-19.257643,5.0193057,-87.83782,-2.2359958,74.98444,0.9450075,-8.63289,-1.751607,-2.507479
175,-0.6056105494499207,3.535029411315918,47.91032791137695,-1.6362927784600203,-20.46158342942872,-90.32810803207045,-72.14924,38.337784,7.3101034,125.13402,-0.38441908,9.4176855,-74.419304,-41.8871,-16.961578,102.94283,-4.1744523,-6.871456,-4.0357203,-0.64348465,26.999163,-74.54415,17.49512,-77.93166,1.2845794,32.546654,-19.134514,4.9428415,-87.93824,-2.2561846,75.216,0.84463423,-8.724945,-1.718845,-2.531412
176,-0.7548859715461731,3.670520782470703,47.93439483642578,-1.576259762758812,-20.198517645534466,-89.88712702956852,-72.515526,38.615746,8.396763,123.52502,-0.37204412,9.540444,-73.95465,-42.194317,-16.037762,105.75472,-3.8205318,-6.7372856,-4.378689,-0.9258785,26.821444,-74.58812,17.407743,-77.735985,1.170081,32.640675,-19.020618,4.8906903,-88.07856,-2.3078985,75.482735,0.72099334,-8.7584095,-1.6694785,-2.5479271
177,-0.9018378257751465,3.847402334213257,47.94266128540039,-1.5410034347923807,-19.889928975589406,-89.25906472030178,-73.25372,37.37653,9.020218,121.05315,0.03606049,8.953972,-73.360435,-42.753117,-14.99806,108.39938,-2.5551586,-6.5344043,-4.8767014,-1.2095815,26.69086,-74.67265,17.303223,-77.5279,1.0925672,32.677876,-18.915491,4.868438,-88.28239,-2.3952372,75.804855,0.5529415,-8.732194,-1.5818049,-2.5444803
178,-1.0251188278198242,4.051094055175781,47.93901062011719,-1.5227869150012188,-19.557928604858034,-88.50816673854962,-74.166626,35.065674,9.252468,117.889824,0.5578695,7.841372,-72.634285,-43.32011,-13.785348,110.831985,-0.6026164,-6.1336346,-5.4636927,-1.4912413,26.62328,-74.793396,17.187325,-77.31163,1.0346849,32.672424,-18.810095,4.869039,-88.53873,-2.5172129,76.173874,0.3455986,-8.663133,-1.4710822,-2.533895
179,-1.1660139560699463,4.280428409576416,47.91728973388672,-1.4970178242904777,-19.203198019985575,-87.8384440695368,-75.0456,32.439865,9.205634,114.1353,1.1014953,6.446064,-71.83567,-43.10883,-12.335722,112.83353,0.7939863,-5.379568,-5.940972,-1.7309844,26.58568,-74.92423,17.061224,-77.08909,1.0082515,32.63193,-18.712614,4.8845844,-88.804146,-2.6715856,76.55243,0.13184714,-8.539894,-1.3745829,-2.5366473
180,-1.3292127847671509,4.519339084625244,47.87901306152344,-1.4651618264167652,-18.800908406149368,-87.43037701309386,-75.76621,30.22559,9.0188465,109.87656,1.6573837,5.0169563,-70.94983,-41.508408,-10.796305,114.215096,0.34416506,-4.301566,-6.1327243,-1.8744906,26.52404,-75.03931,16.924896,-76.861824,1.0273627,32.564754,-18.630762,4.907686,-89.03605,-2.8534675,76.9062,-0.05150888,-8.351233,-1.3298563,-2.572406
181,-1.5243911743164062,4.772356033325195,47.817901611328125,-1.4782124771159308,-18.30794064395854,-87.3445368370466,-76.43375,28.434082,8.567152,105.0033,2.3072937,3.4743438,-69.88325,-37.685387,-8.938682,114.884735,-2.9899693,-2.6657407,-5.9741073,-1.8550375,26.419352,-75.15224,16.779053,-76.63522,1.0919063,32.453938,-18.54976,4.9428988,-89.2538,-3.0601375,77.237274,-0.17613076,-8.0699005,-1.3623626,-2.66176
182,-1.7143629789352417,5.055103302001953,47.74176025390625,-1.5720684695451228,-17.84857637212097,-87.34556428147748,-76.886444,26.706982,7.8280716,99.50706,2.9675584,1.8354478,-68.36441,-32.476685,-6.882625,115.04423,-8.544797,-0.75231576,-5.6855755,-1.7202696,26.402458,-75.27064,16.623335,-76.402466,1.1990507,32.302143,-18.470684,4.9929533,-89.47476,-3.2908063,77.565506,-0.26524115,-7.7105174,-1.4478363,-2.7886534
183,-1.906325101852417,5.291080951690674,47.68039321899414,-1.687344931806256,-17.553210609725447,-87.22571872254501,-76.78962,25.183002,7.2057467,93.593506,3.5254047,0.436739,-66.45582,-27.80098,-5.1828613,114.89979,-14.812443,0.5811356,-5.469166,-1.604533,26.548557,-75.35614,16.45527,-76.1487,1.3563256,32.14931,-18.425722,5.047178,-89.65007,-3.5415149,77.8768,-0.35510644,-7.3247886,-1.5489032,-2.9176288
184,-2.1061289310455322,5.470552921295166,47.64374542236328,-1.7367864177900754,-17.42001148430023,-86.95039693587903,-76.06019,24.050865,7.0503645,87.44079,3.9545546,-0.5105015,-64.57331,-25.07398,-4.3332415,114.56094,-20.020365,0.87254375,-5.372656,-1.602415,26.80469,-75.371826,16.271053,-75.86293,1.57,32.03315,-18.447094,5.0940022,-89.72966,-3.8048024,78.15039,-0.4752241,-6.963931,-1.6272658,-3.0136552
185,-2.286384344100952,5.636899471282959,47.62351608276367,-1.6872505329337621,-17.403598586224014,-86.53857208351602,-74.68036,23.240355,7.5221696,80.72513,4.342373,-1.0865401,-62.827827,-24.589231,-4.6339083,113.738075,-23.951384,0.13227716,-5.370991,-1.7413086,27.128996,-75.30509,16.066454,-75.53002,1.8618975,31.958857,-18.565292,5.1338315,-89.69215,-4.073129,78.37043,-0.6042195,-6.6285076,-1.6773639,-3.0724149
186,-2.424628734588623,5.774349689483643,47.61619186401367,-1.5776066103107123,-17.458655356939104,-86.06159662755766,-72.80831,22.592373,8.446255,73.39622,4.760273,-1.4801368,-61.150475,-25.324305,-5.6992536,112.43012,-27.379215,-1.1728402,-5.395097,-1.955691,27.498205,-75.17744,15.839237,-75.16126,2.2253628,31.908108,-18.755932,5.171173,-89.56824,-4.341596,78.54894,-0.7213959,-6.2945976,-1.7177774,-3.1104987
187,-2.519618272781372,5.914375305175781,47.61246871948242,-1.4424058074816832,-17.554522607215898,-85.60547793563232,-70.710464,22.122053,9.636525,66.04551,5.1853456,-1.7404562,-59.729107,-26.501617,-7.009262,111.14246,-30.034853,-2.5811508,-5.3899555,-2.1716,27.860668,-75.00499,15.589315,-74.78499,2.6241941,31.881563,-18.968681,5.200847,-89.38077,-4.6071296,78.71425,-0.8610099,-5.98003,-1.745958,-3.1241431
188,-2.5785367488861084,6.045436859130859,47.61466979980469,-1.2975336363933812,-17.668281750436538,-85.24200553554095,-68.64041,21.858467,10.934785,59.28613,5.5855293,-1.9026686,-58.816654,-27.502647,-7.9697485,110.39367,-31.595951,-3.7668753,-5.31519,-2.333138,28.172247,-74.80344,15.318611,-74.42915,3.0200665,31.87991,-19.153275,5.218023,-89.15431,-4.868342,78.89524,-1.0593153,-5.701191,-1.7593607,-3.1097388
189,-2.6037399768829346,6.12962007522583,47.63484191894531,-1.1254852664703792,-17.775589423534367,-84.98118259628271,-66.4619,21.873222,12.590724,52.784946,5.9967446,-1.9529307,-58.587845,-28.482224,-8.538775,110.372406,-31.81603,-4.8967633,-5.1727667,-2.4422154,28.410936,-74.559265,15.0266905,-74.063545,3.4278495,31.934906,-19.316229,5.220439,-88.88095,-5.125697,79.1058,-1.331321,-5.429051,-1.7571577,-3.0494854
190,-2.59004545211792,6.177399158477783,47.67197799682617,-0.9124586692359615,-17.90302580800359,-84.78166124631198,-64.07632,21.927774,14.657343,46.258118,6.4825206,-2.0390565,-58.868168,-29.7622,-8.996968,110.79521,-30.938665,-6.130083,-4.9872174,-2.5333774,28.611242,-74.27108,14.713205,-73.68428,3.8576143,32.035473,-19.477633,5.2117443,-88.55276,-5.378326,79.329414,-1.6547343,-5.1654844,-1.7403693,-2.951125
191,-2.5584168434143066,6.204194068908691,47.716392517089844,-0.6949556575997957,-18.103593771850154,-84.63389939485495,-61.844784,21.822958,16.625437,40.545742,6.9965677,-2.2624567,-59.464592,-31.025576,-9.1638,111.4759,-29.309675,-7.184848,-4.7556753,-2.6005769,28.812725,-73.96802,14.383435,-73.35998,4.260097,32.120274,-19.607452,5.195563,-88.192375,-5.62308,79.54873,-2.0117302,-4.9750104,-1.7099063,-2.8489852
192,-2.5270838737487793,6.219102382659912,47.75209426879883,-0.5162269983494108,-18.414842770928708,-84.5228439541944,-60.207397,21.604376,17.930578,36.688843,7.388758,-2.54638,-60.21088,-31.908285,-8.852522,112.2188,-27.24632,-7.7351956,-4.4807086,-2.6326795,29.0405,-73.67902,14.047215,-73.160095,4.584574,32.126766,-19.675213,5.174957,-87.82477,-5.854938,79.74619,-2.3828115,-4.9210343,-1.6671262,-2.7770789
193,-2.495081901550293,6.212221622467041,47.77412414550781,-0.38909775139681285,-18.84657904624507,-84.44051362259869,-59.401592,21.508337,18.41219,35.300144,7.5055065,-2.69367,-61.174156,-32.201984,-7.856856,113.05274,-24.580729,-7.492525,-4.165819,-2.6256516,29.287046,-73.37747,13.713007,-73.10264,4.810524,32.030987,-19.67504,5.1430655,-87.42651,-6.067631,79.920815,-2.7676103,-5.0483346,-1.6202008,-2.7519863
194,-2.457658529281616,6.161011219024658,47.798858642578125,-0.29559174490380324,-19.36028937618247,-84.38590258821809,-59.237988,21.617056,18.337801,35.880287,7.363055,-2.673973,-62.43056,-32.05321,-6.2884407,114.045784,-21.199902,-6.622636,-3.8220828,-2.5839252,29.52581,-73.055786,13.386026,-73.15109,4.9581056,31.868557,-19.62171,5.1012826,-86.9962,-6.2570424,80.08104,-3.1684358,-5.314065,-1.5664521,-2.7522385
195,-2.4104459285736084,6.064700126647949,47.82378005981445,-0.22528042600931983,-19.912352328142454,-84.35379440628411,-59.536133,21.815536,17.786755,37.866493,7.0248137,-2.6063247,-63.819912,-31.627466,-4.492686,115.06026,-17.512672,-5.49698,-3.4635417,-2.5075886,29.74495,-72.76784,13.073699,-73.29317,5.0332694,31.667753,-19.517128,5.0650187,-86.59039,-6.4214044,80.21859,-3.5724232,-5.651045,-1.4908495,-2.7553031
196,-2.35870623588562,5.937232971191406,47.84415054321289,-0.16540158453115358,-20.42686162690849,-84.3346572583347,-60.129642,21.939308,16.855705,40.654846,6.584532,-2.6325517,-65.24935,-31.187355,-2.802243,115.95829,-13.905202,-4.5429487,-3.1167412,-2.407775,29.793802,-72.46655,12.7814045,-73.521545,5.037856,31.452433,-19.370958,5.0539436,-86.16445,-6.559356,80.32813,-3.9897025,-5.9894733,-1.3883306,-2.7404637
197,-2.2977347373962402,5.808050632476807,47.84811019897461,-0.12954590586026019,-20.973879334195257,-84.32708813436028,-61.08009,21.813665,15.233298,44.473656,6.0430794,-2.9154775,-66.6795,-30.773785,-1.22068,116.8346,-10.14982,-3.8523576,-2.770672,-2.2681322,29.793802,-72.22635,12.519159,-73.877106,4.9459352,31.216822,-19.147127,5.0862412,-85.78737,-6.669853,80.40632,-4.416118,-6.3219137,-1.2279809,-2.6912134
198,-2.21855092048645,5.702205657958984,47.81874465942383,-0.11760281421198132,-21.575306310182878,-84.34197244400099,-62.37578,21.393644,13.033951,49.419266,5.3983874,-3.459437,-68.1424,-30.230122,0.39883062,117.716064,-6.1357384,-3.1789157,-2.4124799,-2.0893624,29.793802,-72.04916,12.294647,-74.34741,4.754333,30.951786,-18.852026,5.14679,-85.469696,-6.752005,80.45658,-4.845355,-6.6801033,-1.0215888,-2.6209605
199,-2.1211659908294678,5.603181838989258,47.761390686035156,-0.08949009592741913,-22.148172793832067,-84.37070040616884,-63.721138,20.805092,10.963172,54.804394,4.678311,-4.105347,-69.60387,-29.650003,1.9473562,118.37182,-2.4441867,-2.5269568,-2.0698276,-1.9086941,29.793802,-71.96898,12.110193,-74.832535,4.5104814,30.682442,-18.544136,5.1961923,-85.25905,-6.808774,80.48284,-5.246567,-7.0621495,-0.80994904,-2.5511062
200,-2.0198776721954346,5.512440204620361,47.679176330566406,-0.007272921404911407,-22.608120163869177,-84.40415737202862,-64.8764,20.379732,9.651896,60.021267,3.8993611,-4.5500984,-71.03607,-29.18311,3.3002696,118.578186,0.32454094,-1.9560598,-1.7696074,-1.7608595,29.793802,-72.02148,11.964199,-75.23284,4.264699,30.4347,-18.28194,5.1944137,-85.20406,-6.8453946,80.48601,-5.591017,-7.4647818,-0.633209,-2.5039747
201,-1.9011269807815552,5.437063217163086,47.58700180053711,0.14407181358698878,-22.928683173206668,-84.4286317278442,-65.86945,20.335354,9.203904,65.126656,3.0688958,-4.6178803,-72.462,-28.969501,4.4460945,118.372665,1.7881266,-1.5713805,-1.5186746,-1.6591454,29.793802,-72.27139,11.858144,-75.55447,3.998457,30.176516,-18.055624,5.1280885,-85.37332,-6.867213,80.4747,-5.8796124,-7.9216485,-0.49435216,-2.50165
202,-1.7665289640426636,5.371142387390137,47.491554260253906,0.3449869391261906,-23.1570643657672,-84.4512266837796,-66.79883,20.580072,9.257522,70.40532,2.1660588,-4.407901,-73.90103,-28.970594,5.439622,117.84804,2.3311388,-1.3793639,-1.3048538,-1.5874876,29.793802,-72.679245,11.794197,-75.840576,3.6931944,29.90774,-17.842075,5.0192738,-85.71934,-6.876753,80.44644,-6.131827,-8.423172,-0.37390676,-2.5270789
203,-1.6120556592941284,5.31374454498291,47.39912796020508,0.5691923581576075,-23.31856995748852,-84.49355714176866,-67.56312,21.113428,9.679422,75.64646,1.1637983,-3.932105,-75.31607,-29.082113,6.24595,116.85427,2.4953551,-1.310084,-1.1260302,-1.5274076,29.793802,-73.123764,11.778199,-76.03865,3.39206,29.70169,-17.681328,4.876583,-86.12,-6.874397,80.39183,-6.3447013,-8.898027,-0.2783755,-2.547607
204,-1.4437458515167236,5.275702476501465,47.316734313964844,0.7931799878113189,-23.437586626466988,-84.57926314907576,-68.06444,21.903858,10.343936,80.63892,0.033852387,-3.228042,-76.6529,-29.185884,6.8287907,115.24441,2.8162875,-1.2744571,-0.9680168,-1.4689637,29.793802,-73.49758,11.779358,-76.11754,3.1758277,29.631086,-17.610197,4.7163935,-86.45247,-6.8653274,80.28608,-6.51674,-9.276702,-0.2153279,-2.5260048
205,-1.262282371520996,5.26578426361084,47.25383377075195,1.0255757188018173,-23.488942017146144,-84.70695615485177,-68.274185,23.11775,11.392988,85.42097,-1.2805418,-2.15378,-77.97624,-29.32042,7.195659,112.961815,3.382863,-1.2795666,-0.8416165,-1.4256729,29.675047,-73.70257,11.788549,-76.02906,3.0646026,29.736784,-17.670195,4.525832,-86.6057,-6.846093,80.10291,-6.662461,-9.54278,-0.20947437,-2.4454968
206,-1.0797431468963623,5.2757887840271,47.21027374267578,1.2716039043301022,-23.4895030216275,-84.87582789916573,-68.164375,24.779646,12.784395,90.11226,-2.8121376,-0.6983545,-79.2285,-29.50881,7.363273,110.08992,3.8969088,-1.3395649,-0.74143964,-1.38986,29.55368,-73.87636,11.814697,-75.79055,3.029638,29.975485,-17.8307,4.2957215,-86.730354,-6.791836,79.86441,-6.743507,-9.732188,-0.24482785,-2.3264363
207,-0.8872799873352051,5.310326099395752,47.184844970703125,1.517209595380106,-23.435603945950216,-85.10200826145305,-67.77601,26.563557,14.161413,94.59228,-4.49946,0.8556842,-80.27807,-29.630247,7.314699,106.67073,4.3362246,-1.3854282,-0.63695073,-1.3374739,29.444712,-74.029915,11.849578,-75.50599,3.058642,30.283783,-18.033339,4.069144,-86.84247,-6.7200637,79.61072,-6.7709913,-9.856737,-0.28976098,-2.1973085
208,-0.6864079833030701,5.369670391082764,47.18515396118164,1.7403202167450238,-23.316034993372075,-85.39010085055008,-67.2237,28.094187,15.206489,98.72625,-6.226915,2.2038808,-81.0081,-29.579844,7.0396957,102.734184,4.6873193,-1.3544959,-0.51058936,-1.2526455,29.341883,-74.15722,11.894572,-75.27932,3.1319509,30.598082,-18.220356,3.8869925,-86.94866,-6.63237,79.3723,-6.7476544,-9.928459,-0.31566638,-2.0773919
209,-0.4797006845474243,5.445413112640381,47.20248031616211,1.944735026475435,-23.08936841424672,-85.76695281232807,-66.58921,29.300667,15.939976,102.49646,-8.036066,3.2792563,-81.403694,-29.257215,6.542296,98.14254,4.9291697,-1.2051911,-0.35080478,-1.120416,29.221245,-74.24982,11.949491,-75.10147,3.2759526,30.937563,-18.394325,3.7513978,-87.0526,-6.530655,79.1551,-6.6786413,-9.922775,-0.3038383,-1.9569646
210,-0.27336376905441284,5.534058570861816,47.245853424072266,2.1364384042923152,-22.77276013798046,-86.20453886496097,-65.82757,30.307354,16.520367,105.974236,-9.940056,4.193541,-81.513824,-28.77647,5.8923054,92.912384,5.0616984,-0.9667302,-0.18105146,-0.96053725,29.091648,-74.3129,12.01311,-74.93046,3.4912648,31.32454,-18.579685,3.6442845,-87.148636,-6.416617,78.94203,-6.564658,-9.843746,-0.27302602,-1.8290296
211,-0.08385133743286133,5.642404079437256,47.30386734008789,2.2977922349110362,-22.442268401246224,-86.6296578011644,-64.91817,31.028435,16.874357,109.14396,-11.74158,4.9266253,-81.33473,-28.364388,5.0958467,87.2888,5.1192527,-0.7390648,-0.036972955,-0.80285686,28.99438,-74.36185,12.086869,-74.818344,3.7173247,31.698639,-18.7512,3.574827,-87.23659,-6.2915964,78.72983,-6.399646,-9.7403345,-0.25068015,-1.7200586
212,0.08992981910705566,5.752709865570068,47.369956970214844,2.4079254832526615,-22.17186816514753,-86.97691946252665,-63.852108,31.402609,16.920551,111.9846,-13.238352,5.4632406,-80.85836,-28.189598,4.1312346,81.49957,5.155424,-0.57298774,0.05327867,-0.6716365,28.968807,-74.40953,12.174678,-74.81774,3.8912225,32.00083,-18.88322,3.5519192,-87.31358,-6.1579638,78.51649,-6.1787806,-9.663736,-0.26451463,-1.656206
213,0.2445555031299591,5.870469093322754,47.43497848510742,2.454787284146815,-21.96925955848056,-87.26259879077799,-62.547516,31.661152,16.739851,114.63107,-14.076504,6.0361876,-79.96453,-28.18692,2.8725872,75.3381,5.1583166,-0.40457192,0.10486525,-0.55486315,29.039248,-74.46768,12.282288,-74.970116,4.0054283,32.236946,-18.958134,3.5909188,-87.3908,-6.018372,78.304794,-5.890664,-9.640538,-0.33086032,-1.6527206
214,0.37476927042007446,5.970096588134766,47.5015983581543,2.4492767158297584,-21.800554730502288,-87.51313050178742,-61.05605,31.761591,16.355015,117.04598,-14.4421625,6.571844,-78.67828,-28.247654,1.3235239,68.720146,5.138098,-0.20905364,0.12642077,-0.44110444,29.181446,-74.52533,12.412567,-75.23896,4.083471,32.43169,-18.992361,3.682553,-87.465645,-5.8751,78.094826,-5.5454555,-9.639241,-0.43195987,-1.6927279
215,0.4839581549167633,6.046657085418701,47.55650329589844,2.413356826657907,-21.67377332824905,-87.67931295555738,-59.58186,31.232246,15.624141,118.95171,-14.9367485,6.594752,-77.21562,-28.440695,-0.36771992,62.056854,5.191676,-0.052356314,0.07891042,-0.36056608,29.358429,-74.56426,12.563978,-75.559746,4.110713,32.55185,-19.011068,3.7980187,-87.515945,-5.7291555,77.8789,-5.170316,-9.622144,-0.54482377,-1.7545784
216,0.5687970519065857,6.104066371917725,47.59476089477539,2.3819097932957893,-21.59860102216701,-87.71648493305106,-58.299618,29.616259,14.452524,120.08983,-16.188616,5.6570826,-75.803276,-28.834387,-2.053556,55.77942,5.4080763,0.008454144,-0.0721207,-0.35067835,29.535454,-74.56845,12.731106,-75.86848,4.076668,32.563694,-19.040033,3.908503,-87.52147,-5.579721,77.64487,-4.790199,-9.550537,-0.64635205,-1.816826
217,0.6530945897102356,6.153359889984131,47.60255432128906,2.3900286485030455,-21.612212143625655,-87.60425162765472,-57.106415,26.09855,12.4345,120.1098,-18.90142,2.9967806,-74.387314,-29.409874,-3.6755407,49.709404,5.909919,0.005953798,-0.34332973,-0.45968872,29.73576,-74.52144,12.909522,-76.16706,3.9728343,32.429253,-19.086674,4.0132136,-87.45912,-5.424277,77.37919,-4.3942666,-9.414491,-0.73163325,-1.8858371
218,0.7272040247917175,6.1718854904174805,47.58812713623047,2.409771498309213,-21.69573967037946,-87.45428129845037,-55.70002,21.56862,9.895507,119.32546,-22.827335,-0.58626205,-72.83495,-29.996134,-5.4224386,43.633606,6.651789,-0.01905455,-0.6420628,-0.6318329,29.793802,-74.273735,13.092737,-76.49564,3.802621,32.170773,-19.151691,4.1339583,-87.17628,-5.259168,77.09241,-4.0038114,-9.232742,-0.82839364,-1.9738044
219,0.7987411022186279,6.143386363983154,47.562442779541016,2.3736065788479896,-21.839615399539316,-87.34092236458227,-54.17155,17.793434,7.6626973,118.41747,-26.888113,-3.4789147,-71.24627,-30.526625,-7.441672,38.031704,7.4207535,-0.08297675,-0.89846617,-0.7585996,29.793802,-73.93258,13.276089,-76.82494,3.599582,31.855864,-19.22359,4.2576942,-86.7908,-5.08512,76.80661,-3.6288886,-9.014387,-0.93176836,-2.0577357
220,0.8460423946380615,6.104085922241211,47.54316329956055,2.2447302059749554,-21.97802591677552,-87.23427472279919,-53.016987,15.888426,6.438095,117.96803,-29.651468,-4.6160088,-69.86319,-31.06738,-9.758486,33.46502,7.9893427,-0.18865013,-1.1345454,-0.7943003,29.793802,-73.633705,13.458156,-77.122734,3.3941503,31.553955,-19.288214,4.3699284,-86.4517,-4.9076643,76.5481,-3.2756917,-8.768937,-1.0336244,-2.1141362
221,0.8612250685691833,6.071732044219971,47.534027099609375,2.026035485897038,-22.051390637344728,-87.07707691757017,-52.55968,16.150795,6.6232514,118.03832,-30.612835,-3.5725162,-68.77542,-31.811146,-12.61106,30.007856,8.261313,-0.40648082,-1.3889626,-0.760828,29.793802,-73.43729,13.638323,-77.387085,3.1784673,31.27676,-19.336351,4.4676604,-86.20777,-4.7334557,76.307014,-2.9411101,-8.451412,-1.1306566,-2.1229796
222,0.8364743590354919,6.051283836364746,47.5390510559082,1.7357716184466399,-22.09101107660089,-86.87165246379992,-52.58384,17.769344,7.710401,118.30596,-30.50391,-1.1603454,-67.87338,-32.677326,-15.887326,27.434776,8.329591,-0.6865928,-1.6621724,-0.6821014,29.793802,-73.30404,13.8154335,-77.63052,2.9455767,30.991354,-19.37416,4.5562053,-86.016624,-4.566552,76.07588,-2.6223395,-8.073609,-1.2231715,-2.1003933
223,0.7727500200271606,6.021035671234131,47.554229736328125,1.4048361016412425,-22.140366778262997,-86.67904847028744,-52.887478,19.989382,9.059468,118.77853,-29.696316,1.6428647,-67.27284,-33.47477,-18.9471,25.9944,8.217607,-0.9401998,-1.9178041,-0.5604033,29.793802,-73.18974,13.986872,-77.844536,2.7233856,30.699282,-19.41239,4.6359153,-85.85877,-4.408265,75.878685,-2.3330421,-7.7298074,-1.3115824,-2.0797672
224,0.6925250887870789,5.962027549743652,47.57184600830078,1.0670951505382726,-22.239643993720243,-86.55302813143096,-53.379864,22.01253,9.966879,119.44245,-28.419899,3.8232286,-67.14122,-34.114475,-21.10882,25.970835,7.942164,-1.138892,-2.125925,-0.4022492,29.793802,-73.05361,14.149276,-78.01972,2.5407054,30.403154,-19.461699,4.706643,-85.720634,-4.2571664,75.739845,-2.0825522,-7.512895,-1.396068,-2.094602
225,0.624540388584137,5.886531829833984,47.58965301513672,0.7022314005502714,-22.396248486234807,-86.48776614030913,-54.222523,23.77521,10.241277,120.367676,-26.394659,5.1737823,-67.62442,-34.678467,-22.148071,27.691261,7.4832106,-1.2989072,-2.288757,-0.18538871,29.793802,-72.89257,14.299135,-78.14977,2.4049683,30.052776,-19.53076,4.7624154,-85.611664,-4.112517,75.675735,-1.8799595,-7.4791636,-1.4732,-2.1540387
226,0.5631306171417236,5.799027442932129,47.61533737182617,0.29699590509596835,-22.604069574982482,-86.46328705852207,-55.427277,25.711502,10.217992,121.532295,-23.58013,6.278709,-68.58653,-35.25535,-22.433382,30.90557,6.844837,-1.47711,-2.4152064,0.09263505,29.793802,-72.71213,14.433766,-78.242485,2.3032722,29.663702,-19.613325,4.805188,-85.5214,-3.974275,75.66818,-1.7174278,-7.567576,-1.5450171,-2.2411282
227,0.49020639061927795,5.686531066894531,47.64399719238281,-0.11566274300242879,-22.875421975273532,-86.48858515228169,-56.78587,27.643806,9.913845,122.74722,-20.435349,7.20084,-69.77064,-35.767834,-22.182222,34.99462,6.1046734,-1.692512,-2.5078328,0.39330956,29.793802,-72.49653,14.550798,-78.30725,2.2385669,29.334217,-19.696987,4.846714,-85.41117,-3.8412468,75.69646,-1.5792423,-7.699096,-1.6198447,-2.3493996
228,0.41629764437675476,5.5500664710998535,47.68162536621094,-0.4859563073312516,-23.20841679499761,-86.58111572773831,-58.089493,29.3689,9.376624,123.82165,-17.420048,7.9635186,-70.968445,-36.163013,-21.587973,39.41538,5.302607,-1.9872056,-2.564173,0.6733759,29.793802,-72.24209,14.648916,-78.35249,2.2133915,29.164904,-19.7679,4.89862,-85.25829,-3.711494,75.739944,-1.4464264,-7.7947745,-1.7049729,-2.4717839
229,0.3491702079772949,5.401413917541504,47.713382720947266,-0.8011965546414581,-23.63106694613386,-86.7670150548478,-59.364437,30.635572,8.440947,124.74023,-14.429831,8.386664,-72.260345,-36.322346,-20.35704,44.277634,4.42886,-2.315804,-2.5790832,0.9230859,29.793802,-71.91258,14.725363,-78.36367,2.254411,29.211248,-19.825594,4.9705153,-85.03946,-3.5818138,75.80873,-1.3036288,-7.8242846,-1.8212904,-2.628321
230,0.28405967354774475,5.250638008117676,47.73860168457031,-1.0811389830496754,-24.13248725085283,-87.0219944604782,-60.72234,31.517569,7.1185665,125.586655,-11.264795,8.441153,-73.70806,-36.204,-18.523092,49.732166,3.514669,-2.6093097,-2.563399,1.1623634,29.793802,-71.52592,14.778093,-78.34212,2.3546374,29.410004,-19.87554,5.0541825,-84.77779,-3.4503193,75.90971,-1.1584591,-7.8331165,-1.9585084,-2.8150342
231,0.20208106935024261,5.102669715881348,47.75290298461914,-1.343417872460212,-24.643584783004403,-87.2909419661081,-62.064873,32.338715,5.760296,126.327385,-8.259633,8.391564,-75.10914,-36.002872,-16.731539,55.40861,2.595437,-2.9617648,-2.5330687,1.3899465,29.793802,-71.165344,14.809398,-78.31828,2.4660037,29.685247,-19.912825,5.1351314,-84.52552,-3.3181272,76.014046,-1.0299408,-7.85622,-2.0766368,-2.9889219
232,0.11305110156536102,4.944682598114014,47.76670837402344,-1.6039637570890186,-25.10193206383262,-87.52877100202913,-63.294094,33.50605,4.7113743,126.93698,-5.7708626,8.56128,-76.25829,-36.03459,-15.592005,60.97414,1.6725852,-3.5543742,-2.4965782,1.6068411,29.793802,-70.90818,14.824589,-78.32295,2.5379763,29.960333,-19.93281,5.1988583,-84.32777,-3.1892707,76.09334,-0.94181633,-7.9275165,-2.136153,-3.1071866
233,-0.008587361313402653,4.7899861335754395,47.77325439453125,-1.8748414096330634,-25.535331530119525,-87.79243874448933,-64.29242,35.643425,4.1367526,127.57074,-3.9797974,9.305516,-77.04804,-36.52169,-15.353854,66.54626,0.65365225,-4.614924,-2.3987584,1.8478408,29.793802,-70.75048,14.828302,-78.37264,2.5570505,30.257631,-19.939932,5.2530723,-84.1649,-3.0674298,76.140305,-0.91097784,-8.031274,-2.117623,-3.148982
234,-0.14707468450069427,4.6394219398498535,47.77516174316406,-2.1328927924172274,-25.979570940722343,-88.10057487257089,-65.10078,38.416553,3.838742,128.19588,-2.7305987,10.383625,-77.55282,-37.38494,-15.615963,72.27179,-0.49729148,-6.097847,-2.2408435,2.095218,29.793802,-70.6445,14.822056,-78.449265,2.5442402,30.602732,-19.935577,5.3020926,-84.00636,-2.9545748,76.169,-0.93147576,-8.157819,-2.046511,-3.1404636
235,-0.2896690368652344,4.510036468505859,47.77028274536133,-2.3459556115988893,-26.36352674514713,-88.31651555723727,-65.8714,40.794106,3.6838708,128.50285,-1.8179218,11.264138,-77.901726,-38.54842,-15.9593115,77.893364,-1.6933581,-7.783517,-2.1454487,2.262787,29.793802,-70.6158,14.807993,-78.53023,2.503022,30.925972,-19.910152,5.3258142,-83.90085,-2.853064,76.18875,-0.99020684,-8.347573,-1.9488497,-3.1082878
236,-0.4366662800312042,4.417149066925049,47.75679397583008,-2.508873890471528,-26.585188282535917,-88.26549354635088,-66.821175,41.69217,3.545116,128.17786,-0.93372875,11.412114,-78.30202,-39.887405,-15.977923,83.14615,-2.8018696,-9.389116,-2.2643144,2.272762,29.793802,-70.71301,14.79638,-78.59217,2.4281595,31.158365,-19.851976,5.301859,-83.914085,-2.7968504,76.209854,-1.0996087,-8.642139,-1.8475354,-3.0793748
237,-0.5805883407592773,4.369158744812012,47.73246383666992,-2.6368231323622333,-26.579807756002875,-87.81322447078179,-68.04789,40.470245,3.3509438,127.19424,-0.09911233,10.525492,-78.90602,-41.547604,-15.615958,88.08179,-3.8321683,-10.924795,-2.7141967,2.0787318,29.793802,-71.00507,14.782575,-78.64091,2.321549,31.292297,-19.750309,5.2182264,-84.11524,-2.7364478,76.21881,-1.2198433,-9.138943,-1.7436813,-3.051314
238,-0.7079702019691467,4.358255863189697,47.70591735839844,-2.7355290089722053,-26.4115178650571,-87.08096916248061,-69.35362,37.844105,3.1978788,125.69367,0.51678646,8.943406,-79.61325,-43.51221,-15.024155,92.823524,-4.8457603,-12.494774,-3.3878124,1.7464069,29.793802,-71.44923,14.774298,-78.68416,2.1695583,31.359968,-19.614767,5.0863304,-84.450096,-2.6962283,76.21848,-1.3771135,-9.786827,-1.6259273,-3.0119507
