unveil-humanoid-operators/unveil-humanoid-operators.github.io/feature-analysis-animation/data/feature_matrix_instances/gender_shoulder_mean_vel_jogging_A210_jog_ff_start_180_R_003__A210.csv
Frame,root_translateX,root_translateY,root_translateZ,root_rotateX,root_rotateY,root_rotateZ,left_hip_pitch_joint_dof,left_hip_roll_joint_dof,left_hip_yaw_joint_dof,left_knee_joint_dof,left_ankle_pitch_joint_dof,left_ankle_roll_joint_dof,right_hip_pitch_joint_dof,right_hip_roll_joint_dof,right_hip_yaw_joint_dof,right_knee_joint_dof,right_ankle_pitch_joint_dof,right_ankle_roll_joint_dof,waist_yaw_joint_dof,waist_roll_joint_dof,waist_pitch_joint_dof,left_shoulder_pitch_joint_dof,left_shoulder_roll_joint_dof,left_shoulder_yaw_joint_dof,left_elbow_joint_dof,left_wrist_roll_joint_dof,left_wrist_pitch_joint_dof,left_wrist_yaw_joint_dof,right_shoulder_pitch_joint_dof,right_shoulder_roll_joint_dof,right_shoulder_yaw_joint_dof,right_elbow_joint_dof,right_wrist_roll_joint_dof,right_wrist_pitch_joint_dof,right_wrist_yaw_joint_dof
0,-0.225942924618721,1.993940830230713,78.78059387207031,0.44458798711561465,-0.13514674669968407,-84.29975442013081,-0.13969074,2.1312733,6.841322,8.840522,-7.40777,-1.9941409,1.0400072,-1.8676902,-8.047689,8.084192,-9.07701,2.329239,-2.7962859,-1.006855,7.202028,-4.474968,12.833036,-39.33995,66.74971,-2.300656,3.7940986,6.0855274,-3.510026,-10.878999,33.98032,65.39862,-3.150587,8.526567,-4.191886
1,-0.2231457233428955,1.9885022640228271,78.78218078613281,0.44281288616181097,-0.1307737662829431,-84.31336330277314,-0.13746376,2.1362703,6.8540254,8.848129,-7.425506,-1.9844974,1.0337735,-1.8641671,-8.037565,8.0965605,-9.081866,2.315393,-2.808751,-1.0162463,7.202594,-4.4732423,12.841138,-39.33856,66.74005,-2.2914145,3.806065,6.0908194,-3.50983,-10.878976,33.96742,65.383835,-3.174024,8.541823,-4.1711154
2,-0.222263902425766,1.9808862209320068,78.78291320800781,0.44018797380102404,-0.12619130090855774,-84.32727012737725,-0.13440166,2.1410916,6.867112,8.85347,-7.4422064,-1.9738567,1.0278754,-1.8606834,-8.027351,8.108054,-9.086037,2.3016593,-2.8152115,-1.0263704,7.2060738,-4.4753337,12.852682,-39.34048,66.72914,-2.281607,3.8186748,6.093915,-3.507572,-10.878448,33.93925,65.36559,-3.1981795,8.559283,-4.1506233
3,-0.2218352109193802,1.9693241119384766,78.78375244140625,0.4383457633895909,-0.12199388006959233,-84.34059411015598,-0.13056295,2.1459618,6.8796,8.858333,-7.4580097,-1.9652138,1.0228704,-1.8568666,-8.017286,8.1193495,-9.090984,2.2878475,-2.8261228,-1.0344586,7.2051287,-4.477809,12.856586,-39.342712,66.72752,-2.273141,3.8295677,6.1010504,-3.507203,-10.877985,33.927895,65.354256,-3.2273877,8.571507,-4.1286736
4,-0.22202642261981964,1.9572181701660156,78.784912109375,0.4371166764838544,-0.11868375842560523,-84.3534237183004,-0.12427859,2.1513186,6.891257,8.861514,-7.471588,-1.9617255,1.0199438,-1.8523521,-8.006844,8.129863,-9.09743,2.2737179,-2.8327587,-1.0443232,7.205078,-4.4844227,12.860231,-39.35138,66.72931,-2.2628095,3.8394063,6.1135335,-3.5048993,-10.877456,33.919735,65.34345,-3.2975721,8.572474,-4.096267
5,-0.22390244901180267,1.944995641708374,78.78582763671875,0.4351281052453388,-0.11662550875680029,-84.3646088839406,-0.113643214,2.156542,6.9013515,8.860012,-7.4801316,-1.9662254,1.020281,-1.8473531,-7.996404,8.139709,-9.107242,2.2584655,-2.8344965,-1.0556395,7.2041655,-4.4931297,12.865644,-39.373684,66.73439,-2.2493157,3.8470445,6.133523,-3.4999309,-10.876447,33.92399,65.33789,-3.4201875,8.552742,-4.050662
6,-0.22721150517463684,1.9326025247573853,78.78607177734375,0.4338543093844708,-0.1150830210059382,-84.37537038715726,-0.10028624,2.1617537,6.9108787,8.855667,-7.485386,-1.9764456,1.0225852,-1.842196,-7.9852815,8.149015,-9.119193,2.2424448,-2.8325493,-1.0705022,7.1976604,-4.5028834,12.8719845,-39.414803,66.7459,-2.2455668,3.8531673,6.161891,-3.4858465,-10.875046,33.944077,65.33147,-3.5762312,8.51875,-3.996912
7,-0.2291327863931656,1.9201008081436157,78.78572845458984,0.4338309929109959,-0.11385955619888698,-84.38558808684098,-0.08660165,2.1673849,6.919636,8.851765,-7.490956,-1.9875352,1.025424,-1.8366034,-7.9744544,8.158345,-9.131344,2.2271416,-2.8318,-1.0845277,7.1884656,-4.510126,12.878466,-39.459774,66.75676,-2.249915,3.8583014,6.1935377,-3.4739323,-10.873384,33.97298,65.33007,-3.734819,8.483757,-3.9429924
8,-0.22918754816055298,1.910110592842102,78.78585052490234,0.4330484835084278,-0.11266699790609268,-84.39574727007252,-0.07395857,2.1732886,6.927861,8.849741,-7.4988446,-1.9945889,1.0286397,-1.8302681,-7.9643836,8.166198,-9.140383,2.2140145,-2.8372388,-1.0961899,7.1845775,-4.520196,12.881496,-39.483486,66.76844,-2.2533393,3.8616354,6.222334,-3.4738576,-10.872714,33.992245,65.33234,-3.8798916,8.461236,-3.8921356
9,-0.23305189609527588,1.8972479104995728,78.78611755371094,0.43200335271184687,-0.1097583231347281,-84.40657192309632,-0.06617799,2.1799283,6.9360323,8.853192,-7.511791,-1.9950373,1.0303298,-1.8231368,-7.95482,8.171081,-9.143692,2.2047155,-2.8455849,-1.1076503,7.175287,-4.5290394,12.884578,-39.50691,66.781845,-2.2834609,3.863051,6.2534113,-3.476107,-10.872092,34.009098,65.33514,-3.9968255,8.4574995,-3.8454773
10,-0.23572440445423126,1.8837220668792725,78.7853775024414,0.43138871574367693,-0.10586874328427139,-84.41752381912492,-0.059418406,2.1868634,6.9439597,8.85681,-7.5260315,-1.9919424,1.0312896,-1.8154354,-7.945687,8.174883,-9.144214,2.1979644,-2.8523865,-1.1201625,7.161845,-4.5376253,12.890277,-39.538025,66.79578,-2.3354688,3.862763,6.2874036,-3.479155,-10.871023,34.025257,65.339,-4.099053,8.464465,-3.8002052
11,-0.23803392052650452,1.8726716041564941,78.78588104248047,0.4299377740011596,-0.10380973283182462,-84.42779546291722,-0.051334858,2.1939085,6.950964,8.862181,-7.5420847,-1.9888,1.0345155,-1.8072976,-7.937176,8.178413,-9.144757,2.1911645,-2.8619065,-1.1297773,7.1557083,-4.5472064,12.892341,-39.550552,66.80722,-2.3729603,3.862555,6.316697,-3.488508,-10.870932,34.03277,65.34442,-4.195345,8.47436,-3.7623737
12,-0.23829364776611328,1.8605915307998657,78.78495788574219,0.427894855440287,-0.1063211357063938,-84.43634236329017,-0.037680376,2.2007663,6.956018,8.866181,-7.557206,-1.989275,1.0429195,-1.7994995,-7.929929,8.184555,-9.150139,2.1816864,-2.8723743,-1.1369002,7.156677,-4.5585146,12.8946295,-39.568737,66.817535,-2.4017363,3.8626328,6.341391,-3.5004835,-10.870996,34.04409,65.35107,-4.273381,8.480217,-3.740252
13,-0.23759296536445618,1.8475029468536377,78.7840347290039,0.4234446738414535,-0.11503912758510838,-84.44310188922744,-0.016217036,2.207556,6.958537,8.868827,-7.5719795,-1.9968559,1.057704,-1.7913249,-7.923922,8.195076,-9.162161,2.1671362,-2.8744683,-1.1424145,7.161071,-4.568187,12.9028425,-39.62321,66.8235,-2.4380956,3.864516,6.364299,-3.508899,-10.871715,34.07196,65.36085,-4.3089848,8.477532,-3.748166
14,-0.23802965879440308,1.8342217206954956,78.78247833251953,0.41817232949155725,-0.12810096488429937,-84.4485313426238,0.01054642,2.214631,6.959116,8.871117,-7.5870805,-2.0088162,1.0778867,-1.7827368,-7.9188566,8.206535,-9.177085,2.1495042,-2.8803122,-1.1436644,7.176891,-4.5777574,12.909653,-39.66296,66.82415,-2.4524343,3.8674672,6.38021,-3.5214746,-10.873357,34.09542,65.36899,-4.333963,8.471495,-3.7722893
15,-0.2375088334083557,1.8232262134552002,78.78125762939453,0.4135672109556275,-0.14347994543393167,-84.45244017131435,0.039511558,2.2208521,6.9589896,8.873228,-7.6018987,-2.019241,1.1007032,-1.7750849,-7.91487,8.219037,-9.194519,2.1326134,-2.88904,-1.1432786,7.1987524,-4.5896826,12.912142,-39.68891,66.82454,-2.447109,3.8703756,6.389656,-3.5396621,-10.874596,34.115894,65.379486,-4.352248,8.467503,-3.8010893
16,-0.23607073724269867,1.8099238872528076,78.78018951416016,0.4088713097511685,-0.1583931230617262,-84.45486148717727,0.0666291,2.2255082,6.9592924,8.879136,-7.619052,-2.0222435,1.1237013,-1.7696089,-7.9118934,8.230625,-9.212171,2.1200855,-2.8964632,-1.1436737,7.218069,-4.60089,12.913981,-39.716125,66.82194,-2.4391115,3.8727524,6.3954043,-3.5580485,-10.875888,34.13976,65.39129,-4.3562946,8.4705,-3.8261847
17,-0.23353427648544312,1.7960989475250244,78.78030395507812,0.4077926670647975,-0.17276337523481733,-84.45412224449841,0.08845143,2.2279906,6.959682,8.893555,-7.6403003,-2.0131516,1.1469046,-1.7672346,-7.9110765,8.241063,-9.230431,2.1130095,-2.9044554,-1.1460437,7.228434,-4.6071763,12.918449,-39.76133,66.81363,-2.4392002,3.8751209,6.4021606,-3.5730817,-10.879421,34.183594,65.40344,-4.330923,8.48663,-3.8491461
18,-0.23402245342731476,1.782902717590332,78.77816772460938,0.40766794725281885,-0.18794522567018113,-84.45089647930394,0.10914392,2.22862,6.9598646,8.912714,-7.6642914,-1.9961463,1.1729604,-1.7668607,-7.9119816,8.248676,-9.248865,2.1093402,-2.9126885,-1.1491485,7.2468987,-4.6174808,12.921144,-39.785347,66.79991,-2.4107168,3.8774598,6.401521,-3.5927558,-10.881868,34.21045,65.413315,-4.309535,8.510452,-3.8672934
19,-0.2336520403623581,1.7709771394729614,78.77649688720703,0.40721289738982663,-0.20319398166816957,-84.44771398219068,0.114018865,2.2328794,6.959354,8.965987,-7.706157,-1.9789505,1.2001597,-1.7649122,-7.913267,8.253811,-9.2661915,2.1079762,-2.9198835,-1.1496053,7.2638535,-4.6260676,12.924621,-39.81005,66.78387,-2.380589,3.8792074,6.3934126,-3.612582,-10.885161,34.242435,65.42469,-4.2801642,8.534505,-3.8832905
20,-0.23306669294834137,1.756025791168213,78.77445220947266,0.4026754421855955,-0.2175188774309495,-84.44720905209995,0.10360149,2.2424936,6.95851,9.049379,-7.7627573,-1.9689538,1.2297002,-1.758795,-7.9135284,8.250979,-9.278258,2.1081057,-2.9252405,-1.1461341,7.2766166,-4.6313114,12.927582,-39.83155,66.7695,-2.3541229,3.8793423,6.373512,-3.6270535,-10.887986,34.276924,65.434456,-4.251875,8.551562,-3.8952742
21,-0.23141726851463318,1.7442518472671509,78.77242279052734,0.40051910420827685,-0.2310756485918397,-84.45098951576875,0.11269322,2.2467852,6.960796,9.089761,-7.7956667,-1.9681624,1.2547741,-1.7558196,-7.910174,8.253997,-9.2914,2.1120415,-2.9218385,-1.1457537,7.289334,-4.637073,12.928155,-39.83701,66.75982,-2.3075147,3.8761199,6.331396,-3.6335073,-10.888563,34.28674,65.4378,-4.248787,8.557905,-3.8957267
22,-0.2300695925951004,1.730194330215454,78.7702407836914,0.3919504760718131,-0.24979813365926096,-84.45592437925384,0.112801746,2.2593076,6.961062,9.161824,-7.845038,-1.9742082,1.2926569,-1.7456465,-7.9077954,8.24256,-9.297284,2.118185,-2.9188187,-1.1369509,7.3044925,-4.644626,12.930937,-39.845676,66.75338,-2.2562666,3.869085,6.2628803,-3.6452992,-10.891324,34.32417,65.44885,-4.2213845,8.559641,-3.89773
23,-0.22677472233772278,1.718794345855713,78.76773071289062,0.3864728772683478,-0.2644828819606342,-84.46436027955664,0.12229384,2.2672484,6.9653015,9.205227,-7.878995,-1.9813174,1.3222368,-1.7389648,-7.9016953,8.237342,-9.305065,2.1248739,-2.916159,-1.1322974,7.3149033,-4.646252,12.934468,-39.842514,66.744064,-2.2120688,3.863352,6.200461,-3.6510484,-10.894705,34.357113,65.453835,-4.208399,8.557671,-3.8931572
24,-0.2267044335603714,1.7050745487213135,78.76564025878906,0.38186838555911806,-0.2742612016839592,-84.4757352964281,0.12561156,2.2768657,6.972409,9.252407,-7.9153686,-1.9865019,1.3462391,-1.7311763,-7.892647,8.231944,-9.312486,2.128413,-2.90555,-1.1273227,7.3219805,-4.6499376,12.936714,-39.842144,66.73459,-2.1922536,3.8629994,6.1612854,-3.6554766,-10.896568,34.38266,65.46026,-4.2112865,8.554349,-3.8844845
25,-0.2255958467721939,1.6893357038497925,78.76396942138672,0.3775002926727863,-0.2777652255930669,-84.4918672938603,0.1272316,2.2865596,6.983971,9.291986,-7.948995,-1.9888355,1.3612952,-1.7231262,-7.8789515,8.230215,-9.321278,2.1270828,-2.8984523,-1.124702,7.318866,-4.647568,12.940397,-39.84627,66.723495,-2.2233367,3.871217,6.161286,-3.6583853,-10.898994,34.43111,65.47083,-4.2147517,8.547888,-3.875411
26,-0.22487792372703552,1.675688624382019,78.76309204101562,0.37510012410880267,-0.2777311386652688,-84.51243057460812,0.13193057,2.2953885,6.999872,9.319755,-7.977406,-1.9902184,1.3707412,-1.7157702,-7.860811,8.231516,-9.331102,2.1230633,-2.8763924,-1.1244826,7.3155746,-4.6526756,12.942501,-39.855087,66.71535,-2.2770445,3.8853025,6.1830196,-3.6562047,-10.899904,34.461845,65.479065,-4.2404943,8.53744,-3.8599014
27,-0.22377172112464905,1.6596410274505615,78.76097106933594,0.3705273456960402,-0.2731564316524333,-84.53398103203006,0.12352942,2.3082418,7.0163584,9.365014,-8.014305,-1.9913192,1.3759207,-1.7055578,-7.842142,8.229722,-9.338577,2.1182103,-2.8650405,-1.1219052,7.2984385,-4.6445575,12.947204,-39.866653,66.7046,-2.3529694,3.8987632,6.211315,-3.6525729,-10.900736,34.52518,65.491,-4.2505226,8.528844,-3.8477242
28,-0.22227440774440765,1.6460766792297363,78.76073455810547,0.36425906997039537,-0.2679789251377141,-84.5558158661122,0.10898306,2.3227668,7.0342097,9.421254,-8.056056,-1.9920218,1.3812937,-1.6944033,-7.8231626,8.224861,-9.344149,2.1153152,-2.8401322,-1.1173942,7.2892656,-4.648628,12.949139,-39.865925,66.69995,-2.3906977,3.9037898,6.214149,-3.6459577,-10.900637,34.548416,65.49205,-4.292479,8.526263,-3.8276484
29,-0.22380219399929047,1.6329560279846191,78.75901794433594,0.3572738080862467,-0.26042047144605407,-84.57739591825236,0.07979702,2.3414469,7.05342,9.501819,-8.108872,-1.992069,1.3838401,-1.6806922,-7.804662,8.216959,-9.347064,2.1144342,-2.8111885,-1.1088778,7.2766767,-4.65207,12.950346,-39.856148,66.69839,-2.3935704,3.899088,6.18243,-3.6357796,-10.900321,34.563656,65.484116,-4.346617,8.536346,-3.8047254
30,-0.22253583371639252,1.619084358215332,78.75706481933594,0.34420867454719745,-0.2480996686743324,-84.59835048024755,0.02304583,2.3696597,7.0717797,9.628571,-8.184179,-1.9924009,1.3867637,-1.6596161,-7.787765,8.195327,-9.341789,2.113697,-2.820758,-1.0937296,7.258683,-4.6322403,12.956098,-39.779697,66.684875,-2.354621,3.8874817,6.124883,-3.6394913,-10.897867,34.620304,65.47709,-4.4044185,8.556295,-3.7793365
31,-0.2194116860628128,1.6053099632263184,78.75464630126953,0.3331400192852906,-0.23668367165552945,-84.62055647153676,-0.02491221,2.3943443,7.0919123,9.739274,-8.251239,-1.992574,1.3885413,-1.6412603,-7.7691836,8.17742,-9.338753,2.1146564,-2.8036869,-1.0811431,7.2439866,-4.628959,12.9591055,-39.73403,66.682526,-2.3240077,3.8711462,6.0699425,-3.6322432,-10.8960905,34.6388,65.463554,-4.4729548,8.573456,-3.75221
32,-0.21744510531425476,1.5939403772354126,78.75179290771484,0.3252468277815347,-0.22795710011139259,-84.64227497639567,-0.05728121,2.4132533,7.1106024,9.822955,-8.305113,-1.9932194,1.3921707,-1.62677,-7.750419,8.1635475,-9.338883,2.1176348,-2.7979152,-1.0703996,7.2339478,-4.620081,12.962313,-39.68675,66.675514,-2.3094008,3.8509007,6.037532,-3.6311026,-10.893939,34.661915,65.45681,-4.5283227,8.579277,-3.728417
33,-0.21615545451641083,1.5800777673721313,78.75006866455078,0.3195959607889689,-0.22251150055447866,-84.66441796147097,-0.06978003,2.4250488,7.1278496,9.872055,-8.341896,-1.9946445,1.3994579,-1.6172894,-7.730519,8.152334,-9.34263,2.124681,-2.7938235,-1.0639786,7.2261186,-4.610318,12.965888,-39.655693,66.670296,-2.3279502,3.8213468,6.040121,-3.6300724,-10.892031,34.68295,65.45699,-4.564561,8.566835,-3.7095819
34,-0.2140214741230011,1.5652434825897217,78.74900817871094,0.3190217061077907,-0.21913282015702995,-84.68666323785354,-0.067627534,2.4311876,7.144402,9.894971,-8.365601,-1.9962909,1.4088099,-1.6118765,-7.70982,8.143067,-9.348721,2.1350648,-2.7816246,-1.0598954,7.220336,-4.6057897,12.967068,-39.64796,66.670296,-2.3700016,3.7842999,6.0647464,-3.6237988,-10.891601,34.687782,65.45731,-4.5932403,8.542884,-3.693115
35,-0.21384084224700928,1.552224040031433,78.74735260009766,0.3165712594390568,-0.21695352093425935,-84.70877739090412,-0.06117814,2.4363096,7.1606035,9.910917,-8.386229,-1.9982917,1.4184816,-1.6071817,-7.6890903,8.1353,-9.355397,2.1443686,-2.7752645,-1.0574054,7.2170653,-4.600352,12.969216,-39.63789,66.66956,-2.4164438,3.7498667,6.0944533,-3.618048,-10.891222,34.697342,65.457886,-4.6157436,8.517115,-3.6791866
36,-0.21224166452884674,1.541121006011963,78.74608612060547,0.31631133193177546,-0.21611510234847472,-84.72964193668868,-0.05125313,2.4411843,7.1768413,9.921303,-8.4047,-2.0001397,1.4276431,-1.6023169,-7.669492,8.130143,-9.362479,2.1486573,-2.7718017,-1.055443,7.21803,-4.596305,12.972108,-39.629025,66.66447,-2.4581718,3.7308,6.1155157,-3.6187851,-10.891152,34.71301,65.46421,-4.6331496,8.499022,-3.669107
37,-0.21202242374420166,1.5273648500442505,78.74584197998047,0.3152885134315667,-0.21730964415550783,-84.74937398023002,-0.03485026,2.4454613,7.193823,9.920946,-8.418703,-2.0026424,1.4330978,-1.5980707,-7.6507916,8.134628,-9.373516,2.1447265,-2.7696629,-1.0563527,7.2252035,-4.59959,12.975332,-39.62121,66.65882,-2.501177,3.7313411,6.121322,-3.6240191,-10.891212,34.73481,65.4737,-4.647499,8.492413,-3.6638405
38,-0.2144397646188736,1.5193034410476685,78.74578857421875,0.31530283303940443,-0.22035086127449724,-84.76826171584698,-0.013522859,2.4490635,7.210774,9.912916,-8.429774,-2.0057762,1.4377563,-1.5940573,-7.6329255,8.142855,-9.385879,2.1353424,-2.7641397,-1.0591223,7.237634,-4.611537,12.977448,-39.6193,66.65582,-2.5472076,3.7447915,6.120534,-3.6307278,-10.891338,34.75174,65.485756,-4.6619744,8.491779,-3.6618905
39,-0.21199385821819305,1.507132649421692,78.7442626953125,0.31609962814964565,-0.2235733428925392,-84.78714643557839,0.009428131,2.452345,7.228306,9.901913,-8.439362,-2.0077965,1.4430882,-1.5901225,-7.614772,8.149992,-9.396739,2.1258576,-2.7603774,-1.0620284,7.251627,-4.6223288,12.980009,-39.620415,66.65055,-2.582305,3.7654638,6.12014,-3.6378734,-10.891545,34.770588,65.49758,-4.673272,8.492427,-3.661493
40,-0.20746257901191711,1.496999979019165,78.74436950683594,0.31588564392671703,-0.22506571343038728,-84.80591368294469,0.029273722,2.4553099,7.2457714,9.895102,-8.450846,-2.0067947,1.4470344,-1.5869664,-7.596426,8.157194,-9.405811,2.1216714,-2.759802,-1.0629203,7.2642756,-4.6278405,12.981222,-39.624935,66.64454,-2.5936074,3.7862008,6.1267056,-3.6441033,-10.891854,34.78299,65.50862,-4.6847734,8.490072,-3.660366
41,-0.20488491654396057,1.4842097759246826,78.74348449707031,0.3175199245337598,-0.2288903016437792,-84.8294909825513,0.055097006,2.4573367,7.2681403,9.885441,-8.461153,-2.0002043,1.4553928,-1.5846045,-7.572351,8.161791,-9.410867,2.1257088,-2.7659905,-1.0612016,7.2815986,-4.6260457,12.982878,-39.64151,66.62984,-2.5873613,3.8163936,6.1524477,-3.6629646,-10.892662,34.810604,65.53054,-4.6821847,8.480215,-3.6612144
42,-0.20304317772388458,1.4716346263885498,78.74214935302734,0.3176859592530076,-0.2308826397465774,-84.85364522275361,0.07640306,2.4602118,7.2907996,9.882914,-8.47497,-1.9897707,1.4631577,-1.5816405,-7.5474014,8.163277,-9.411568,2.1343706,-2.775544,-1.0570145,7.2924695,-4.6135187,12.984967,-39.6704,66.61187,-2.5628676,3.8504708,6.188991,-3.6772056,-10.894606,34.84371,65.55227,-4.672002,8.468361,-3.6637802
43,-0.20125536620616913,1.4571082592010498,78.7415542602539,0.3173209885644214,-0.23148997859256376,-84.87663946948231,0.09633432,2.4623315,7.3129115,9.88009,-8.488202,-1.9800624,1.4707979,-1.5795686,-7.523783,8.164015,-9.412677,2.1439848,-2.7834938,-1.0523266,7.3050942,-4.60352,12.986533,-39.700478,66.59501,-2.5263064,3.8834908,6.221255,-3.687709,-10.897391,34.864086,65.567345,-4.666537,8.456765,-3.6649616
44,-0.19476087391376495,1.4468607902526855,78.74187469482422,0.31851706693337417,-0.22959236220971024,-84.89576180845631,0.11362549,2.4620066,7.33262,9.873325,-8.498407,-1.9757025,1.4759325,-1.5802168,-7.5046134,8.164571,-9.416126,2.1509578,-2.7889483,-1.0491264,7.315103,-4.598673,12.987816,-39.733543,66.58384,-2.4977558,3.907861,6.237609,-3.6928465,-10.901564,34.87712,65.57474,-4.6563845,8.448814,-3.6657581
45,-0.18710528314113617,1.4329665899276733,78.74193572998047,0.3198133481459812,-0.22514978767262622,-84.90874760326032,0.12711455,2.4593592,7.3480134,9.864779,-8.507215,-1.9789013,1.479667,-1.5838209,-7.4937143,8.164997,-9.423461,2.1528535,-2.8013575,-1.0471295,7.3244953,-4.5988836,12.988297,-39.753517,66.5781,-2.4685264,3.9223192,6.230647,-3.6991205,-10.904068,34.882637,65.57891,-4.644351,8.445497,-3.6653695
46,-0.18066181242465973,1.4205273389816284,78.74061584472656,0.3216616375844321,-0.2186006084527286,-84.91799083457946,0.13890186,2.4543166,7.3613024,9.8525,-8.513413,-1.9867849,1.481401,-1.5899495,-7.487826,8.166486,-9.43368,2.1521287,-2.8174448,-1.045551,7.331809,-4.5993986,12.9885235,-39.770325,66.57354,-2.4399166,3.9314158,6.210569,-3.7036076,-10.9055,34.886055,65.579865,-4.6240497,8.444657,-3.6661978
47,-0.17630121111869812,1.4101210832595825,78.74091339111328,0.32423444869545837,-0.20976996954912128,-84.92628176377211,0.14893173,2.4480731,7.374037,9.83686,-8.516821,-1.9965599,1.4814966,-1.5972102,-7.4816737,8.165922,-9.444143,2.152189,-2.8168387,-1.0440419,7.334276,-4.609089,12.989424,-39.822918,66.577324,-2.435359,3.9339437,6.1858773,-3.6956503,-10.913553,34.88079,65.56921,-4.5965104,8.445799,-3.6670976
48,-0.1733710616827011,1.396214246749878,78.7412338256836,0.3276087600276235,-0.19826553331900673,-84.93669288943686,0.15702443,2.441655,7.388246,9.819125,-8.517702,-2.0054588,1.478691,-1.6038768,-7.4695816,8.163181,-9.453347,2.1561818,-2.821502,-1.0432884,7.3410544,-4.6201644,12.990235,-39.849773,66.58333,-2.4243062,3.9282618,6.156246,-3.6934946,-10.921008,34.87308,65.55266,-4.5869937,8.447913,-3.6626887
49,-0.16759628057479858,1.3864834308624268,78.74034118652344,0.3326287987651981,-0.18370129972460042,-84.94915180883392,0.16648804,2.4336987,7.4034514,9.790256,-8.509812,-2.0123336,1.4719592,-1.6100477,-7.450862,8.159472,-9.461446,2.1633184,-2.8308318,-1.0431854,7.347131,-4.6289835,12.991075,-39.85952,66.59348,-2.4105628,3.9124298,6.1155224,-3.7005801,-10.925805,34.87018,65.539925,-4.590228,8.452379,-3.6523786
50,-0.16073240339756012,1.3743319511413574,78.74089050292969,0.3384473370360983,-0.16665179972979235,-84.96293754449071,0.17855355,2.4236388,7.4195967,9.749417,-8.493558,-2.0188205,1.4633952,-1.6170715,-7.427613,8.152951,-9.468515,2.172509,-2.838131,-1.045454,7.3537526,-4.643249,12.992408,-39.86569,66.61175,-2.4009585,3.8869414,6.0638175,-3.7085552,-10.931411,34.86621,65.521286,-4.599785,8.459838,-3.6378524
51,-0.15709654986858368,1.3654229640960693,78.74151611328125,0.3436923247410996,-0.1474004971637258,-84.97815963763628,0.18333143,2.4155128,7.4370265,9.718254,-8.482328,-2.0261827,1.4530587,-1.6227907,-7.400641,8.14232,-9.473793,2.1863847,-2.8442726,-1.0468528,7.3614445,-4.6589713,12.994476,-39.868042,66.62958,-2.4017315,3.856989,6.02074,-3.7187407,-10.93777,34.863148,65.4979,-4.613118,8.465029,-3.6236427
52,-0.1530279815196991,1.3573285341262817,78.7398681640625,0.3475564391347156,-0.1267809512495636,-84.99524516680286,0.17237166,2.4129393,7.4563265,9.7179575,-8.489765,-2.0357497,1.4443457,-1.6256989,-7.370448,8.12221,-9.475509,2.2075355,-2.8498614,-1.0459096,7.368623,-4.67098,12.995965,-39.86772,66.640366,-2.4197016,3.828129,6.0059085,-3.7283337,-10.94093,34.862225,65.47036,-4.6291814,8.463263,-3.615458
53,-0.14311864972114563,1.3502684831619263,78.7392807006836,0.3494081339953985,-0.10362453507098399,-85.01589240228222,0.14645486,2.4162917,7.481267,9.743953,-8.513307,-2.046287,1.4324093,-1.6258448,-7.333938,8.096331,-9.472564,2.231966,-2.8525546,-1.0452989,7.383521,-4.695046,13.001217,-39.867416,66.65192,-2.4687226,3.7934046,6.030037,-3.7423997,-10.950306,34.86635,65.42887,-4.64867,8.451072,-3.6096382
54,-0.1354648917913437,1.3444628715515137,78.73688507080078,0.35323663283452633,-0.07869915607276042,-85.03921256007695,0.11352297,2.4222333,7.5106277,9.780734,-8.5440445,-2.0574453,1.418698,-1.6249785,-7.2918496,8.065936,-9.466924,2.2600548,-2.8536215,-1.0444767,7.3946834,-4.714251,13.00709,-39.868298,66.65829,-2.5387974,3.7571733,6.0846286,-3.7572992,-10.958517,34.876194,65.387634,-4.6737165,8.431061,-3.6079483
55,-0.12898598611354828,1.3379169702529907,78.73481750488281,0.35092867943153766,-0.05224727879082231,-85.06218489415619,0.05741432,2.4358325,7.5363126,9.863486,-8.600755,-2.0728168,1.4125277,-1.6188711,-7.2508206,8.016008,-9.454649,2.3001833,-2.8602934,-1.03781,7.411764,-4.7251163,13.019842,-39.857525,66.64592,-2.6147044,3.722615,6.144446,-3.7689555,-10.973636,34.89266,65.32675,-4.6874623,8.411689,-3.611147
56,-0.13098452985286713,1.3367902040481567,78.73070526123047,0.3405732768619089,-0.025487726744178152,-85.0828990619502,-0.03215438,2.4589744,7.55228,10.017854,-8.696235,-2.095426,1.4192032,-1.6065867,-7.2157435,7.9420676,-9.437417,2.3611643,-2.8658934,-1.0223842,7.429068,-4.736954,13.029419,-39.83529,66.63748,-2.674777,3.6924236,6.18597,-3.7814965,-10.983987,34.88918,65.2718,-4.697038,8.394576,-3.6202023
57,-0.12231943011283875,1.3307480812072754,78.72686767578125,0.3233816764012136,0.0032850212883552762,-85.1018770729127,-0.14830172,2.491552,7.558405,10.226444,-8.826245,-2.1308873,1.4413718,-1.5903943,-7.189212,7.835983,-9.41472,2.450975,-2.8736649,-0.9970252,7.450242,-4.7412653,13.044217,-39.78513,66.61511,-2.715013,3.6663868,6.1974235,-3.7885013,-11.000595,34.867256,65.202934,-4.6993084,8.375855,-3.6354342
58,-0.11158780008554459,1.328015923500061,78.71968841552734,0.3034400887062447,0.03387726526823218,-85.12015895360904,-0.2917029,2.5313973,7.5580845,10.49112,-8.989263,-2.1754127,1.4749324,-1.5722585,-7.167541,7.704031,-9.386207,2.5633433,-2.8795726,-0.96612656,7.470559,-4.744132,13.05589,-39.720764,66.5923,-2.7469807,3.643128,6.1954684,-3.7929544,-11.014689,34.830402,65.13209,-4.6974545,8.354611,-3.658536
59,-0.09908494353294373,1.3233109712600708,78.7115249633789,0.2768221604929574,0.062049778939017954,-85.13604850770247,-0.465377,2.5790856,7.5494905,10.823962,-9.187776,-2.2180192,1.5185207,-1.5478354,-7.14712,7.5587325,-9.352529,2.6851819,-2.889152,-0.92844856,7.500092,-4.745075,13.06957,-39.64897,66.56137,-2.7654088,3.625915,6.19021,-3.7968636,-11.0320835,34.78591,65.04937,-4.686479,8.34749,-3.682552
60,-0.08488146960735321,1.3190765380859375,78.70157623291016,0.24297276401807522,0.08369151451087246,-85.1480169925979,-0.6703983,2.6340249,7.5309834,11.233763,-9.423135,-2.2477937,1.5706239,-1.5133139,-7.1242733,7.411316,-9.31318,2.8033612,-2.902699,-0.8847768,7.5436797,-4.7443304,13.088105,-39.590275,66.5201,-2.7723794,3.6187348,6.1946816,-3.8016958,-11.05621,34.742844,64.952545,-4.656257,8.371808,-3.7040207
61,-0.0700705423951149,1.3161823749542236,78.68765258789062,0.19756068908925348,0.10096092964900802,-85.15353437229942,-0.9348188,2.704281,7.493169,11.7664995,-9.711752,-2.2654946,1.6322678,-1.4611198,-7.0965524,7.2523055,-9.261732,2.9227152,-2.917951,-0.8302196,7.6024456,-4.7470894,13.113822,-39.563816,66.471565,-2.7639365,3.6276793,6.216489,-3.8030577,-11.088644,34.694893,64.832,-4.596579,8.448237,-3.7207851
62,-0.05320148915052414,1.3103561401367188,78.67467498779297,0.14259576084265801,0.11496060636478599,-85.15443843546433,-1.2489107,2.788015,7.439461,12.403097,-10.047614,-2.2747061,1.7005382,-1.3971714,-7.065865,7.0874085,-9.20427,3.047305,-2.9358032,-0.768358,7.6670346,-4.7594075,13.132731,-39.55807,66.43713,-2.7432585,3.647842,6.2494526,-3.8130493,-11.111486,34.64272,64.71725,-4.514466,8.56152,-3.7387428
63,-0.04206392541527748,1.3115988969802856,78.65296173095703,0.09660104943344186,0.12093876704691653,-85.15655472237424,-1.5627003,2.8624332,7.3906384,13.064571,-10.404178,-2.26879,1.609848,-1.3654268,-7.028646,7.285917,-9.336603,3.1636703,-2.9457898,-0.7154114,7.741889,-4.764729,13.156203,-39.55393,66.3859,-2.7197695,3.6701777,6.2815905,-3.8163142,-11.140211,34.585377,64.58839,-4.4300127,8.676716,-3.7571929
64,-0.025225553661584854,1.307136058807373,78.62953186035156,0.06252515046754423,0.11216870446963456,-85.16218039680442,-1.8178377,2.919471,7.3613315,13.6571865,-10.746264,-2.2439365,1.4821546,-1.3563523,-6.9944797,7.608604,-9.534111,3.2552145,-2.9549484,-0.67542154,7.8162374,-4.7564716,13.166661,-39.526604,66.33277,-2.7055914,3.682992,6.306596,-3.8282235,-11.154373,34.549736,64.48674,-4.3521132,8.758076,-3.7850673
65,-0.0043932488188147545,1.2988648414611816,78.6058578491211,0.04085061245543337,0.08665466563766198,-85.1672778894835,-2.0100524,2.9570036,7.353552,14.174986,-11.069704,-2.1931684,1.3197339,-1.3720168,-6.9714103,8.053579,-9.791391,3.312322,-2.9654865,-0.64291584,7.917958,-4.7187805,13.201062,-39.45697,66.21488,-2.6898408,3.6879365,6.306613,-3.82187,-11.206779,34.519405,64.34204,-4.268417,8.794306,-3.8214056
66,0.024567632004618645,1.2832465171813965,78.58450317382812,0.026838767188040034,0.04785947866362421,-85.17120924477787,-2.1634724,2.9823554,7.358708,14.65541,-11.388344,-2.1216595,1.1375723,-1.404088,-6.955199,8.579448,-10.091336,3.344157,-2.9804645,-0.6173257,8.025344,-4.669064,13.229573,-39.367428,66.08735,-2.6766486,3.6876087,6.2965693,-3.8190176,-11.255667,34.508137,64.20756,-4.1682014,8.804256,-3.8716314
67,0.0487336702644825,1.257685899734497,78.56021881103516,0.018480587008458012,-0.0020197863824187963,-85.1829533539924,-2.2676907,2.99819,7.377602,15.079761,-11.699289,-2.0438676,0.9623242,-1.4448451,-6.932221,9.125793,-10.405274,3.3636956,-2.9819047,-0.5983387,8.129514,-4.6111293,13.244635,-39.271416,65.96387,-2.6753938,3.6799426,6.291827,-3.8201733,-11.28719,34.500645,64.09597,-4.110597,8.800213,-3.9132645
68,0.08397023379802704,1.2260096073150635,78.53950500488281,0.012527065409943227,-0.060962351219095164,-85.21113590580784,-2.3123767,3.006614,7.410895,15.430433,-11.999068,-1.9742101,0.8386016,-1.4832426,-6.890268,9.596579,-10.688967,3.384741,-2.9882298,-0.5747985,8.240062,-4.5023193,13.267633,-39.127403,65.78404,-2.6762345,3.666505,6.303066,-3.8079848,-11.343907,34.528564,63.949898,-4.13624,8.801925,-3.917541
69,0.1225530207157135,1.1812111139297485,78.52002716064453,0.006195216676373843,-0.13382240820583804,-85.26149788865114,-2.2773638,3.007353,7.4622006,15.682327,-12.285705,-1.9156027,0.77148986,-1.5130146,-6.8200436,9.990729,-10.938502,3.3986204,-2.9779108,-0.5485546,8.354357,-4.355225,13.290304,-38.970448,65.56775,-2.6918802,3.6440098,6.3463736,-3.7763643,-11.417799,34.583534,63.778492,-4.3031836,8.80328,-3.8671975
70,0.16234178841114044,1.1379139423370361,78.50302124023438,0.003387007364799078,-0.21998829586533855,-85.32817830562846,-2.1753092,2.9984233,7.5303607,15.854736,-12.561627,-1.8609853,0.7431513,-1.540995,-6.73019,10.343237,-11.171012,3.4027913,-2.9520867,-0.5236135,8.470144,-4.1827106,13.304878,-38.801754,65.332535,-2.7184129,3.613362,6.4118514,-3.7345057,-11.493602,34.653847,63.601326,-4.5768337,8.798079,-3.7806983
71,0.21525737643241882,1.0782753229141235,78.48633575439453,0.006147830477870142,-0.3082797649349095,-85.40349316445776,-2.032777,2.9782915,7.61007,15.968226,-12.8236475,-1.8098446,0.7503602,-1.5755486,-6.6351013,10.638146,-11.385925,3.4206684,-2.9084935,-0.5040915,8.574884,-3.99723,13.310055,-38.619354,65.094475,-2.760606,3.5776668,6.4758887,-3.6950588,-11.552156,34.71604,63.4421,-4.862452,8.796382,-3.6890469
72,0.2697657346725464,1.0087705850601196,78.47076416015625,0.01513642834794698,-0.3874513854013583,-85.47959268794554,-1.8739891,2.9458492,7.695913,16.038908,-13.066518,-1.7616537,0.7991759,-1.6231766,-6.54976,10.840271,-11.57274,3.4758718,-2.8791451,-0.47953352,8.671041,-3.7828882,13.314593,-38.371395,64.828766,-2.808872,3.5362751,6.5095797,-3.6469567,-11.638069,34.787266,63.25299,-5.051773,8.813612,-3.6150277
73,0.32638850808143616,0.9329179525375366,78.45362854003906,0.03204048314607574,-0.46413462214210016,-85.55780165268617,-1.6884966,2.8978753,7.7885265,16.060709,-13.283562,-1.71887,0.9015051,-1.6866744,-6.477941,10.941258,-11.731291,3.5725951,-2.8313046,-0.46036598,8.759,-3.5559433,13.316432,-38.086666,64.548416,-2.888751,3.4924877,6.5029745,-3.5964713,-11.72292,34.833477,63.060497,-5.115841,8.859108,-3.5677361
74,0.38385331630706787,0.8468119502067566,78.4396743774414,0.054776043918932475,-0.540971001324194,-85.64114633425426,-1.4668736,2.8355205,7.890159,16.023817,-13.476935,-1.6810029,1.0544354,-1.7607006,-6.412561,10.95252,-11.862951,3.6991696,-2.7743223,-0.44568935,8.840632,-3.308563,13.316111,-37.760933,64.252106,-2.9911628,3.4419858,6.470514,-3.5458655,-11.807998,34.872875,62.866295,-5.1089253,8.924197,-3.5327988
75,0.4536130130290985,0.7617546916007996,78.42948150634766,0.08205150823536196,-0.6012023376643465,-85.72444158854712,-1.2430651,2.76486,7.9974256,15.955821,-13.663478,-1.643089,1.2284964,-1.8411937,-6.3520403,10.894827,-11.972208,3.855271,-2.717021,-0.4292216,8.89832,-3.0443106,13.314621,-37.413643,63.943447,-3.0886943,3.392571,6.42986,-3.4896417,-11.8890505,34.896877,62.673717,-5.078802,8.989077,-3.5075736
76,0.5354260802268982,0.6798069477081299,78.41983795166016,0.10732759771031479,-0.6275639034182819,-85.80242927291981,-1.052323,2.6922626,8.107061,15.88519,-13.860129,-1.60013,1.3899784,-1.9243573,-6.2947087,10.798068,-12.068882,4.040658,-2.672655,-0.40379483,8.91605,-2.7648988,13.3132305,-37.058052,63.626343,-3.152315,3.3485951,6.3980613,-3.4193597,-11.970827,34.90045,62.478313,-5.073254,9.034968,-3.488428
77,0.6121947169303894,0.586862325668335,78.41000366210938,0.13056056260408633,-0.6154122031117746,-85.87403291636717,-0.9007156,2.617824,8.2217245,15.814269,-14.07004,-1.5434417,1.5494841,-2.0099845,-6.2396464,10.631238,-12.139893,4.2687373,-2.6402867,-0.36908504,8.885077,-2.4682472,13.311395,-36.704346,63.29672,-3.1893044,3.3168507,6.3862243,-3.3331585,-12.048194,34.881123,62.287994,-5.095121,9.050978,-3.484415
78,0.6951107382774353,0.4815235137939453,78.40283966064453,0.15504529635245365,-0.573768691017835,-85.94216059343488,-0.77071863,2.53833,8.34208,15.729472,-14.284504,-1.4780096,1.7159315,-2.100303,-6.1879983,10.396676,-12.188595,4.534743,-2.6153443,-0.32865584,8.8155575,-2.1541295,13.308948,-36.34271,62.955006,-3.2109594,3.291952,6.382904,-3.2364032,-12.121124,34.843758,62.10248,-5.1211004,9.049104,-3.494195
79,0.782646119594574,0.3673754334449768,78.39488983154297,0.18037757130080267,-0.5065231172076368,-86.00703718841427,-0.6591805,2.4545052,8.462113,15.630274,-14.50038,-1.4190924,1.8674761,-2.194932,-6.1413836,10.144276,-12.232695,4.8117585,-2.5932977,-0.28470978,8.716736,-1.828678,13.307853,-35.969524,62.60592,-3.1944857,3.268744,6.3728833,-3.1310613,-12.1886835,34.77561,61.916126,-5.1691537,9.04351,-3.4997087
80,0.8849749565124512,0.238697811961174,78.38824462890625,0.2034652184185933,-0.41739337179038866,-86.06865585151002,-0.56186014,2.3681161,8.575723,15.515576,-14.714927,-1.3823845,1.9810153,-2.2928953,-6.101339,9.926328,-12.2907715,5.0733185,-2.548721,-0.24442402,8.5895815,-1.5140827,13.308305,-35.616596,62.275448,-3.1327724,3.2421925,6.345431,-3.0207918,-12.22385,34.63962,61.748383,-5.265094,9.046472,-3.486997
81,0.9764290452003479,0.12429141998291016,78.37952423095703,0.22420591399608555,-0.2938075074928771,-86.12708591898678,-0.4972712,2.2832658,8.683241,15.394451,-14.924854,-1.364067,2.0433166,-2.392159,-6.072057,9.739845,-12.358797,5.3179374,-2.5409784,-0.1947516,8.439612,-1.1638477,13.321837,-35.167454,61.9076,-2.9559608,3.208279,6.260906,-2.9051058,-12.283331,34.481934,61.54204,-5.40852,9.074673,-3.431934
82,1.0659794807434082,-0.0006196641479618847,78.37201690673828,0.24335657043803988,-0.1381982412658386,-86.18212973384537,-0.46119303,2.1982276,8.787272,15.265048,-15.132932,-1.3586042,2.0693183,-2.4935012,-6.0515094,9.561669,-12.428885,5.558258,-2.5132313,-0.14455111,8.2514925,-0.81357205,13.343682,-34.72507,61.541798,-2.7221837,3.1711462,6.145853,-2.7707424,-12.328174,34.253723,61.331768,-5.5980597,9.114438,-3.3541698
83,1.1729909181594849,-0.1391139030456543,78.36027526855469,0.2611666867124178,0.022253667898520908,-86.23392280999666,-0.41644323,2.1066127,8.885275,15.110859,-15.345457,-1.3788738,2.0776784,-2.5991871,-6.0321383,9.415261,-12.513546,5.789274,-2.4765067,-0.09546417,8.058554,-0.46975204,13.36323,-34.310585,61.183685,-2.4828627,3.1353002,6.0509176,-2.6382596,-12.352536,33.995228,61.137745,-5.8106036,9.144673,-3.2783115
84,1.2738550901412964,-0.2740772068500519,78.34540557861328,0.2814458675314501,0.1605857826817103,-86.28252477470015,-0.3270329,2.0026507,8.974364,14.918681,-15.570758,-1.4380388,2.0861177,-2.7108328,-6.006544,9.325808,-12.626607,6.005701,-2.4641635,-0.047119234,7.9144616,-0.10174629,13.405853,-33.90608,60.770725,-2.277671,3.1086516,6.0158935,-2.517662,-12.388113,33.764683,60.927006,-6.0188603,9.14679,-3.2203834
85,1.380182147026062,-0.41173216700553894,78.32889556884766,0.3018663515650414,0.2698514248618323,-86.32536648297821,-0.17751448,1.8880239,9.053065,14.669799,-15.798225,-1.5603579,2.1142445,-2.8237865,-5.9773846,9.269412,-12.754889,6.200623,-2.450323,0.0044366745,7.8136754,0.26315004,13.453214,-33.575386,60.342033,-2.1437013,3.0917938,6.084544,-2.3996282,-12.419136,33.542995,60.721027,-6.2464323,9.106143,-3.18684
86,1.4970968961715698,-0.5551979541778564,78.31205749511719,0.3192283148635589,0.3645434647896737,-86.36317747643098,0.011485962,1.7659838,9.123289,14.375461,-16.026762,-1.732687,2.1469815,-2.937972,-5.947229,9.24323,-12.896693,6.378566,-2.4391894,0.06074335,7.738079,0.6261091,13.499071,-33.286217,59.905727,-2.0418754,3.0812464,6.2221136,-2.2870152,-12.44416,33.3212,60.521492,-6.4942923,9.0364065,-3.1669338
87,1.617797613143921,-0.691312849521637,78.29579162597656,0.34084536514854774,0.4500704161158818,-86.40067344695244,0.21929686,1.6330179,9.18683,14.070697,-16.280535,-1.9123743,2.1523602,-3.0619392,-5.9089966,9.300858,-13.082538,6.5511284,-2.4281933,0.11429904,7.6867285,0.98789644,13.552833,-33.019955,59.454082,-1.9570948,3.076987,6.373005,-2.176426,-12.470343,33.093636,60.310528,-6.718192,8.959163,-3.163996
88,1.7311238050460815,-0.8244196772575378,78.27140045166016,0.37135423012483576,0.5317299001704555,-86.44249813271527,0.42598602,1.4857079,9.24509,13.789549,-16.583445,-2.0566974,2.0964706,-3.204669,-5.8554044,9.497861,-13.342939,6.729934,-2.4088616,0.15743786,7.6555276,1.3425297,13.61595,-32.765488,58.991646,-1.8745729,3.078542,6.4839544,-2.0672176,-12.501009,32.852154,60.078636,-6.871707,8.895821,-3.1826293
89,1.8533766269683838,-0.9750215411186218,78.2424545288086,0.40738332512050607,0.6051333578527105,-86.48085157251074,0.6350546,1.3286468,9.293527,13.5373955,-16.951849,-2.1581066,2.0042844,-3.3634512,-5.791968,9.797803,-13.679366,6.9288583,-2.3815644,0.19519512,7.6502743,1.67684,13.681717,-32.528275,58.53348,-1.7937124,3.0889504,6.551745,-1.9634099,-12.536093,32.598656,59.833553,-6.9330993,8.849143,-3.2461498
90,1.9770636558532715,-1.1057902574539185,78.21151733398438,0.4472039615874655,0.6693567245183794,-86.51589535634308,0.85378516,1.1628965,9.332379,13.298955,-17.370579,-2.239045,1.880742,-3.535329,-5.7203455,10.190592,-14.078539,7.137847,-2.3492572,0.2307294,7.670875,1.996891,13.750073,-32.311832,58.073994,-1.7207786,3.1072567,6.6014647,-1.8638366,-12.577321,32.337143,59.575817,-6.9281173,8.808713,-3.3442967
91,2.12239670753479,-1.256087303161621,78.17214965820312,0.49903620495202966,0.7348975612373636,-86.56529501032433,1.0702062,0.97883797,9.369847,13.073091,-17.814465,-2.3011434,1.6616449,-3.7306614,-5.6266036,10.773876,-14.551723,7.3325005,-2.3081586,0.2551575,7.702223,2.315091,13.822201,-32.102497,57.602997,-1.6517501,3.12573,6.6233363,-1.7576383,-12.623658,32.05755,59.288223,-6.8885775,8.776459,-3.4318283
92,2.258575201034546,-1.375781774520874,78.1302261352539,0.5716276707068776,0.812451420992184,-86.64650717265924,1.2731321,0.7649825,9.414424,12.857142,-18.25745,-2.3452702,1.2849879,-3.9591873,-5.495694,11.640756,-15.108106,7.4879274,-2.2544177,0.2581192,7.728817,2.6457496,13.900136,-31.88519,57.108585,-1.5814493,3.1366308,6.607509,-1.6366891,-12.672553,31.75085,58.95718,-6.8449473,8.754248,-3.463846
93,2.3934576511383057,-1.510663628578186,78.07711791992188,0.6697737927046513,0.9168671149043923,-86.75982805738894,1.4456717,0.5105687,9.456805,12.650749,-18.7038,-2.3505585,0.7212237,-4.2276945,-5.3137045,12.815871,-15.755461,7.638207,-2.1880307,0.23619281,7.7379117,2.9907603,13.985723,-31.656662,56.58553,-1.497272,3.140122,6.5337706,-1.5032214,-12.723163,31.408487,58.579716,-6.782518,8.747829,-3.415744
94,2.5458180904388428,-1.6617457866668701,78.01338195800781,0.790558719180677,1.039270096529008,-86.8976734785185,1.599975,0.22041956,9.496401,12.451509,-19.162155,-2.322734,0.010903425,-4.530804,-5.0890503,14.23944,-16.483482,7.782318,-2.110095,0.19180779,7.740691,3.3455372,14.079753,-31.42366,56.037113,-1.4054571,3.1396592,6.412933,-1.3605692,-12.774806,31.036467,58.16239,-6.693023,8.754802,-3.3157728
95,2.686729907989502,-1.810427188873291,77.93482208251953,0.9342673515004715,1.1556037089891327,-87.06686015359587,1.7696134,-0.09695177,9.555995,12.249566,-19.611118,-2.301812,-0.81214005,-4.863972,-4.8367667,15.896074,-17.279491,7.8433647,-2.0186377,0.118770234,7.756108,3.7129154,14.183666,-31.186478,55.466446,-1.330739,3.1327217,6.2818465,-1.2096213,-12.825971,30.651752,57.71444,-6.6138225,8.764153,-3.1990376
96,2.8232786655426025,-1.9536411762237549,77.84125518798828,1.1040175434599673,1.2423392063955172,-87.27406961869721,1.991053,-0.43670154,9.659314,12.026631,-20.024523,-2.327126,-1.7051917,-5.2236876,-4.57069,17.752241,-18.124275,7.7453923,-1.9122214,0.008677147,7.8028564,4.0973477,14.299302,-30.944614,54.8752,-1.2978429,3.117244,6.1772165,-1.0494854,-12.873381,30.271162,57.243145,-6.5828404,8.764995,-3.1006708
97,2.9656782150268555,-2.118321418762207,77.73915100097656,1.3187385250402714,1.2974372478734386,-87.52124492962454,2.2703235,-0.8240515,9.805941,11.772703,-20.396841,-2.410639,-2.6716201,-5.6172957,-4.230945,19.83177,-19.02997,7.439928,-1.7888194,-0.15622781,7.881329,4.506496,14.428303,-30.696121,54.255505,-1.3151095,3.0889595,6.0985193,-0.8783647,-12.914938,29.890898,56.748684,-6.607441,8.751712,-3.000583
98,3.104041576385498,-2.286794662475586,77.62665557861328,1.5785520460406568,1.3342423931916947,-87.80483433423447,2.5937607,-1.2635003,9.98575,11.484695,-20.733536,-2.5288756,-3.714182,-6.0431104,-3.825406,22.106314,-19.981863,6.9801784,-1.6497531,-0.3746794,7.982534,4.9387445,14.571878,-30.439297,53.605247,-1.3683451,3.0507514,6.029414,-0.7002762,-12.949864,29.505112,56.230354,-6.6683173,8.730859,-2.8903742
99,3.2321949005126953,-2.4450066089630127,77.500244140625,1.8550352410231883,1.3517288826874003,-88.12387432971809,2.9628985,-1.716064,10.2077265,11.165546,-21.030443,-2.6685994,-4.794757,-6.4888544,-3.469522,24.478945,-20.926447,6.4397173,-1.4993997,-0.62369835,8.11121,5.383604,14.731342,-30.174978,52.936756,-1.4498272,3.0107641,5.982306,-0.52293944,-12.975749,29.129276,55.69463,-6.762829,8.709631,-2.8227756
100,3.3568661212921143,-2.622708559036255,77.3583984375,2.1161728991222737,1.348114575430765,-88.47708463528598,3.372313,-2.1368961,10.481032,10.834747,-21.291952,-2.817691,-5.8821325,-6.949298,-3.2796543,26.870165,-21.824757,5.886753,-1.3431469,-0.8770724,8.271419,5.832033,14.907676,-29.902948,52.262623,-1.5495473,2.9771895,5.969704,-0.3562536,-12.990335,28.780937,55.153267,-6.888246,8.694664,-2.8509412
101,3.4666192531585693,-2.8150253295898438,77.2318344116211,2.364039519930048,1.318217348675691,-88.87251813975101,3.8339322,-2.5230746,10.823226,10.480154,-21.503075,-2.9927456,-6.998075,-7.46517,-3.309282,29.356424,-22.705542,5.294207,-1.1750499,-1.1414943,8.467161,6.289559,15.105456,-29.617018,51.569435,-1.6725513,2.9528227,5.9974933,-0.20417263,-12.988804,28.474064,54.60297,-7.069842,8.704097,-3.0062513
102,3.577420473098755,-2.9961071014404297,77.11278533935547,2.6101667551318894,1.2651742534290003,-89.30751206133309,4.3441935,-2.8947933,11.223351,10.099428,-21.66759,-3.1942415,-8.148245,-8.038187,-3.4825592,31.951347,-23.585499,4.6299853,-0.99615526,-1.4250573,8.694984,6.7634,15.32665,-29.317383,50.85177,-1.820621,2.93317,6.0575986,-0.06407338,-12.969378,28.198492,54.04565,-7.3013363,8.7293,-3.2553964
103,3.679868221282959,-3.208376407623291,76.99687957763672,2.8347878175702377,1.1980865488529946,-89.76620283618064,4.878576,-3.2377346,11.649392,9.721043,-21.815752,-3.385408,-9.293181,-8.606617,-3.724937,34.51663,-24.41814,3.9540517,-0.8204086,-1.6995401,8.947238,7.2405233,15.564974,-29.01987,50.142548,-1.9825729,2.914709,6.14186,0.068370394,-12.9362955,27.935398,53.495937,-7.5299606,8.73671,-3.5535178
104,3.7819769382476807,-3.4145150184631348,76.88455963134766,3.0161491027729244,1.12516694535889,-90.23237910118935,5.4244223,-3.5371065,12.068918,9.350346,-21.965012,-3.533738,-10.3951235,-9.099921,-3.9694386,36.91687,-25.153978,3.3320172,-0.66077536,-1.9326237,9.216127,7.7025347,15.807622,-28.742207,49.481045,-2.1466913,2.8934104,6.242899,0.20514047,-12.896202,27.661987,52.95926,-7.7050986,8.692564,-3.8548715
105,3.880314588546753,-3.6347873210906982,76.7781753540039,3.146143668887473,1.0389976346115235,-90.7256020275594,5.9690256,-3.7771273,12.497792,9.033182,-22.143066,-3.630184,-11.460466,-9.500861,-4.215455,39.1769,-25.802835,2.77366,-0.5021731,-2.1146116,9.511431,8.138527,16.046646,-28.48914,48.884228,-2.355391,2.854999,6.3705106,0.34488717,-12.855512,27.374134,52.422123,-7.8324637,8.593628,-4.161037
106,3.971745729446411,-3.851691722869873,76.68457794189453,3.236341003197538,0.9369193543544243,-91.24692486700181,6.5302362,-3.969704,12.94586,8.737567,-22.325455,-3.6934574,-12.509419,-9.848161,-4.496927,41.366905,-26.392721,2.244601,-0.34145477,-2.2570138,9.831994,8.550718,16.279448,-28.256275,48.343197,-2.598883,2.804507,6.5258503,0.49080372,-12.816169,27.08033,51.878853,-7.9332275,8.456345,-4.490624
107,4.058589935302734,-4.103488922119141,76.60934448242188,3.2930663109705196,0.8339399560692051,-91.75223303957938,7.098471,-4.130948,13.374388,8.44087,-22.500233,-3.7274458,-13.526742,-10.147677,-4.8052607,43.420696,-26.897022,1.7516096,-0.21019536,-2.3618402,10.15225,8.937677,16.49899,-28.047007,47.86337,-2.7864296,2.7674372,6.6894236,0.65595055,-12.779894,26.778229,51.355095,-7.9794545,8.27446,-4.824292
108,4.1255292892456055,-4.373838424682617,76.54204559326172,3.324319610021891,0.7451004512301073,-92.197519740846,7.672517,-4.279106,13.743695,8.103216,-22.646936,-3.7354012,-14.497141,-10.402691,-5.134424,45.2692,-27.286072,1.3050094,-0.13974984,-2.4317708,10.4459915,9.293939,16.695513,-27.865622,47.455116,-2.827841,2.7698038,6.842785,0.850357,-12.750094,26.465008,50.88047,-7.943272,8.042075,-5.1426377
109,4.211213111877441,-4.657257556915283,76.47772216796875,3.3251155188690684,0.6666358192711787,-92.56693502768421,8.108197,-4.3738246,14.050001,8.041631,-22.932806,-3.7024045,-15.405349,-10.617301,-5.5161834,46.90605,-27.540594,0.9209785,-0.15074962,-2.4560077,10.715519,9.612746,16.860392,-27.723238,47.14493,-2.672315,2.8147194,6.987081,1.0812839,-12.728646,26.137556,50.454052,-7.8191977,7.717242,-5.4643292
110,4.299897193908691,-4.953485012054443,76.41795349121094,3.293190473137799,0.5918373744566775,-92.88542882489914,8.517649,-4.434121,14.308683,8.032645,-23.240475,-3.6309774,-16.2637,-10.786815,-5.949128,48.36795,-27.678188,0.5943753,-0.22373109,-2.4338012,10.969455,9.886775,16.986164,-27.615025,46.938076,-2.3742545,2.88922,7.131897,1.3409764,-12.717476,25.799337,50.065838,-7.6218843,7.3160186,-5.790729
111,4.3836517333984375,-5.268009662628174,76.35138702392578,3.2404428151172167,0.5319540413515835,-93.17007229855702,8.91719,-4.4743667,14.535176,8.020524,-23.539656,-3.5541503,-17.100681,-10.898882,-6.378043,49.651436,-27.724398,0.30697772,-0.32523587,-2.3869379,11.19684,10.121435,17.083138,-27.52425,46.78823,-2.0063908,2.996977,7.2687545,1.6285613,-12.715779,25.449972,49.714283,-7.3548303,6.918182,-6.0744576
112,4.47400426864624,-5.5823540687561035,76.28386688232422,3.1784795235956813,0.49878524701001803,-93.437690221474,9.298717,-4.5021906,14.746793,8.002882,-23.827883,-3.5063,-17.94512,-10.939379,-6.7482553,50.75069,-27.70406,0.040817227,-0.44527742,-2.3301072,11.376194,10.313668,17.124449,-27.412651,46.684383,-1.630341,3.138201,7.3927965,1.9217584,-12.71914,25.120571,49.424915,-7.011369,6.605638,-6.2756963
113,4.546008110046387,-5.935033798217773,76.22459411621094,3.106437355180759,0.4971088674474327,-93.69078565735315,9.657449,-4.5177736,14.941851,7.980725,-24.111214,-3.4825256,-18.805445,-10.898652,-7.057265,51.659702,-27.603842,-0.22167109,-0.54588896,-2.2703145,11.508195,10.454951,17.150595,-27.327206,46.61712,-1.2559401,3.334079,7.494707,2.257268,-12.727506,24.752527,49.160824,-6.5238943,6.390413,-6.3680625
114,4.6123738288879395,-6.285387992858887,76.15741729736328,3.0188776076708326,0.5200754919107162,-93.92104024951294,9.998873,-4.5176034,15.113485,7.9545026,-24.388935,-3.4685879,-19.668055,-10.784077,-7.3341904,52.381798,-27.414223,-0.4623059,-0.657656,-2.200194,11.5982895,10.556442,17.154613,-27.256863,46.595657,-0.8499891,3.5767858,7.5796194,2.6205585,-12.738909,24.371239,48.935986,-5.909905,6.2334604,-6.3820314
115,4.691187858581543,-6.657002925872803,76.09017181396484,2.9208522613092396,0.5622898806012518,-94.128227885996,10.327513,-4.5038953,15.270828,7.9242277,-24.647984,-3.4835484,-20.529108,-10.607783,-7.57067,52.92683,-27.167023,-0.64525247,-0.79183024,-2.1260698,11.663577,10.649824,17.139284,-27.153301,46.549732,-0.44228327,3.8312607,7.654574,2.9835234,-12.751111,24.018473,48.76721,-5.3243732,6.13557,-6.3420515
116,4.776284694671631,-7.041149616241455,76.01765441894531,2.8173149747879114,0.6183193929572322,-94.312006246937,10.647782,-4.4771476,15.42336,7.8910613,-24.87883,-3.5476635,-21.383854,-10.380151,-7.757729,53.30295,-26.893488,-0.735411,-0.9287412,-2.046174,11.730164,10.726886,17.097914,-26.990664,46.438198,-0.0570297,4.0606804,7.7254577,3.3469896,-12.774297,23.683428,48.639515,-4.943977,6.0972977,-6.261132
117,4.85045862197876,-7.436336517333984,75.94180297851562,2.708979052717082,0.6899009958990292,-94.47568820258975,10.95866,-4.4375463,15.577171,7.85571,-25.078007,-3.673039,-22.229176,-10.095966,-7.898812,53.489113,-26.603125,-0.7188068,-1.1041058,-1.9572943,11.783411,10.814868,16.999916,-26.710558,46.274193,0.3156362,4.2512736,7.7770724,3.6795936,-12.823585,23.457232,48.6024,-4.8028593,6.1165648,-6.1643677
118,4.925069332122803,-7.862493991851807,75.86104583740234,2.592262993471723,0.7790035666378046,-94.61789645542706,11.258679,-4.384376,15.725646,7.817081,-25.251745,-3.8468196,-23.068535,-9.752222,-7.996375,53.48734,-26.278685,-0.6141477,-1.3234328,-1.869308,11.817682,10.922024,16.870653,-26.32987,46.055042,0.6848004,4.4242225,7.8090034,3.981758,-12.881458,23.325499,48.653698,-4.8104677,6.193737,-6.0406537
119,4.979626655578613,-8.287342071533203,75.77957153320312,2.471693743106909,0.8802506209107397,-94.7317876928902,11.550945,-4.321008,15.859061,7.7758164,-25.398617,-4.0494,-23.905655,-9.365274,-8.0369215,53.338184,-25.911234,-0.43513137,-1.5847837,-1.7789259,11.85325,11.027509,16.714924,-25.893726,45.748062,1.0349171,4.5930085,7.8615856,4.27025,-12.948281,23.213434,48.731503,-4.9118943,6.334823,-5.861983
120,5.031096458435059,-8.706685066223145,75.69374084472656,2.3525453071820865,0.9882329616516831,-94.81055076105177,11.839893,-4.251691,15.967648,7.730314,-25.515545,-4.261013,-24.743626,-8.950942,-8.007166,53.083347,-25.492764,-0.1957713,-1.8941337,-1.6857638,11.909328,11.123011,16.54266,-25.438715,45.309383,1.3499553,4.771777,7.974535,4.5568385,-13.02312,23.059357,48.77709,-5.0478406,6.545972,-5.6026177
121,5.077235698699951,-9.135004997253418,75.59516143798828,2.2288185439376567,1.1038839711563606,-94.84893706474807,12.124058,-4.167333,16.053637,7.6775565,-25.578764,-4.513855,-25.585459,-8.48088,-7.8782334,52.70483,-24.99089,0.12394936,-2.2687507,-1.586575,11.991362,11.233482,16.358973,-24.933815,44.698505,1.6055874,4.965069,8.15899,4.825164,-13.106805,22.83136,48.78802,-5.202272,6.874537,-5.165966
122,5.126978874206543,-9.593582153320312,75.49010467529297,2.1020599035369947,1.229154981303381,-94.85130840261783,12.40267,-4.0708213,16.119484,7.618643,-25.596916,-4.8056803,-26.425737,-7.958454,-7.663004,52.188126,-24.421764,0.52383685,-2.6968462,-1.4856236,12.091168,11.356633,16.165306,-24.376808,43.93978,1.813619,5.1663175,8.393373,5.079684,-13.199239,22.56338,48.785606,-5.410069,7.3002706,-4.5931377
123,5.173509120941162,-10.03982162475586,75.38865661621094,1.986786455151953,1.3599791547246194,-94.82641981296585,12.68014,-3.9835186,16.15686,7.55924,-25.617235,-5.0653973,-27.25369,-7.445423,-7.4106236,51.577183,-23.845816,0.9588597,-3.1405892,-1.3951349,12.206945,11.447147,15.968965,-23.84605,43.083908,2.0127025,5.373507,8.667611,5.3629236,-13.297276,22.29029,48.748913,-5.6890545,7.728792,-4.065829
124,5.209221839904785,-10.5132474899292,75.27949523925781,1.8977535631289408,1.4921702737765636,-94.78304431228057,12.963368,-3.9269009,16.158375,7.502992,-25.687393,-5.2215014,-28.060728,-7.003257,-7.170725,50.917976,-23.323156,1.382967,-3.558032,-1.3277823,12.336629,11.459543,15.781583,-23.42398,42.181793,2.2398825,5.585013,8.971751,5.717633,-13.396451,22.04361,48.658348,-6.053382,8.066501,-3.7664957
125,5.221024036407471,-10.998125076293945,75.15995788574219,1.842339860093815,1.621878057858154,-94.72469709619612,13.257301,-3.909353,16.121527,7.450711,-25.832407,-5.249844,-28.835657,-6.620814,-6.9209213,50.172623,-22.872778,1.8156582,-3.9389508,-1.2955905,12.485321,11.393926,15.6135235,-23.127108,41.228226,2.4750226,5.7930317,9.334539,6.148701,-13.491883,21.862358,48.54173,-6.539542,8.265871,-3.826004
126,5.263978004455566,-11.4966459274292,75.03129577636719,1.8124836798396875,1.7514654489750598,-94.6465871018402,13.557314,-3.9191217,16.050714,7.400874,-26.022127,-5.18852,-29.583597,-6.274715,-6.644319,49.33131,-22.46076,2.268703,-4.302669,-1.2943603,12.6523695,11.279502,15.467806,-22.913933,40.191174,2.7057636,6.0023737,9.749645,6.6330075,-13.581908,21.718323,48.40263,-7.126736,8.387453,-4.1204934
127,5.279201507568359,-12.005435943603516,74.89641571044922,1.7958487328321866,1.8855840680844203,-94.54570069298718,13.863027,-3.9441245,15.94915,7.346814,-26.223993,-5.0592575,-30.327585,-6.002516,-6.4018703,48.493168,-22.069557,2.685128,-4.649359,-1.3078902,12.827804,11.112763,15.348493,-22.783224,39.08089,2.9786956,6.230907,10.153676,7.1750026,-13.664746,21.538736,48.180214,-7.744795,8.500483,-4.450955
128,5.273380279541016,-12.497342109680176,74.76183319091797,1.784855232690878,2.029441000062458,-94.42036754182783,14.16844,-3.9757655,15.821424,7.2855496,-26.398287,-4.8847656,-31.090914,-5.8444777,-6.2514367,47.755524,-21.680067,3.010134,-4.975288,-1.3163635,13.001104,10.876317,15.243863,-22.740047,37.924088,3.342902,6.495462,10.484793,7.789098,-13.751516,21.245115,47.802887,-8.322963,8.670173,-4.615185
129,5.302612781524658,-13.03529167175293,74.61099243164062,1.7779399653329662,2.185632198430643,-94.27129585393843,14.470052,-4.014969,15.668858,7.223384,-26.54114,-4.6422544,-31.891552,-5.808045,-6.1948667,47.13767,-21.294432,3.236477,-5.267007,-1.3193265,13.168564,10.566032,15.161376,-22.796087,36.728214,3.8134558,6.797449,10.711489,8.4901085,-13.838969,20.776478,47.238365,-8.878764,8.940452,-4.522825
130,5.322413921356201,-13.583600997924805,74.4457015991211,1.8028046443438552,2.3439060743878755,-94.11176927167071,14.746113,-4.0832796,15.501408,7.2360106,-26.712622,-4.3266764,-32.71422,-5.882988,-6.178517,46.599945,-20.923006,3.3950007,-5.5095987,-1.3438361,13.342401,10.181574,15.096365,-22.957672,35.487263,4.362974,7.1282825,10.871199,9.283184,-13.9298725,20.176092,46.51177,-9.440303,9.264789,-4.289296
131,5.339116096496582,-14.14665412902832,74.27603912353516,1.834450858887146,2.50726813538486,-93.92853013401651,15.021541,-4.153611,15.307958,7.252463,-26.87821,-3.9937215,-33.5409,-6.0470867,-6.2467546,46.14105,-20.553886,3.4790084,-5.7382283,-1.3664337,13.522494,9.741867,15.047208,-23.203146,34.175327,4.975138,7.4921136,11.00148,10.136328,-14.023261,19.541288,45.672512,-9.950807,9.5697365,-4.028658
132,5.332920074462891,-14.708596229553223,74.11151885986328,1.8647214963385688,2.669714198684519,-93.71836363988011,15.305435,-4.2129984,15.087217,7.266428,-27.04382,-3.6960511,-34.359814,-6.290291,-6.421573,45.785336,-20.186872,3.48492,-5.981361,-1.3817973,13.71652,9.267861,15.011058,-23.506155,32.764606,5.6352205,7.893329,11.13933,11.014314,-14.1164255,18.973618,44.771313,-10.350298,9.784541,-3.8575907
133,5.336954593658447,-15.292537689208984,73.93658447265625,1.9000160985668169,2.828925521151289,-93.4843434572996,15.595118,-4.2732387,14.833478,7.279135,-27.19322,-3.4324923,-35.1751,-6.6361623,-6.7204027,45.54868,-19.807564,3.392698,-6.2427154,-1.3969146,13.928183,8.761155,14.985692,-23.863184,31.258362,6.375357,8.346535,11.283802,11.91199,-14.21343,18.499077,43.81513,-10.610491,9.885033,-3.8278692
134,5.338789463043213,-15.892653465270996,73.75666809082031,1.9409265619733047,2.9887073334566367,-93.22670264908221,15.8866005,-4.3352523,14.548871,7.290938,-27.325027,-3.1792367,-35.992462,-7.0818133,-7.1286116,45.419952,-19.423904,3.2088122,-6.53916,-1.42707,14.146624,8.241201,14.974986,-24.2456,29.652353,7.2033005,8.844986,11.409865,12.802253,-14.294855,18.106321,42.824684,-10.761839,9.913529,-3.8830414
135,5.319219589233398,-16.515687942504883,73.57113647460938,1.9707702798306865,3.1521005035406877,-92.9400257492853,16.186686,-4.3716235,14.244464,7.3063855,-27.481972,-2.9542794,-36.799385,-7.5789843,-7.6188493,45.380196,-19.06853,2.9695854,-6.82404,-1.4305096,14.373728,7.6704593,14.972387,-24.716324,27.951435,8.034565,9.362426,11.537914,13.752789,-14.384999,17.708382,41.732735,-10.845899,9.89595,-3.945645
136,5.306378364562988,-17.15496253967285,73.37625885009766,1.9728427240223156,3.32251849711247,-92.61831979313827,16.4983,-4.3525944,13.9310875,7.3245816,-27.698996,-2.777047,-37.582764,-8.08028,-8.163749,45.40825,-18.772007,2.712822,-7.1084495,-1.3904161,14.604008,7.062528,14.975997,-25.263039,26.131239,8.802645,9.872362,11.679996,14.759212,-14.487044,17.295921,40.54155,-10.891624,9.860312,-3.9546933
137,5.291651725769043,-17.810440063476562,73.1841049194336,1.9441607533917964,3.489442699568161,-92.25428618295882,16.83707,-4.2746496,13.607955,7.347849,-28.005892,-2.6487443,-38.331593,-8.604186,-8.78749,45.52024,-18.551704,2.4308436,-7.427317,-1.3217385,14.838923,6.4343414,14.987041,-25.860474,24.182308,9.49376,10.372643,11.901749,15.793532,-14.579884,16.920317,39.275814,-10.893354,9.795244,-3.9197059
138,5.250723361968994,-18.48854637145996,72.97798156738281,1.8926707924806054,3.6557686256864623,-91.85285778062482,17.19444,-4.150046,13.270959,7.373736,-28.376734,-2.5631394,-39.053577,-9.168764,-9.494437,45.721817,-18.38981,2.1089184,-7.764628,-1.2291003,15.0796585,5.777876,15.005928,-26.52196,22.114851,10.141921,10.877487,12.176335,16.864601,-14.663433,16.569021,37.930847,-10.840741,9.692254,-3.865869
139,5.218888759613037,-19.160932540893555,72.77299499511719,1.8187797234688543,3.8444781117226188,-91.42743329155576,17.539124,-3.974827,12.926651,7.401984,-28.77269,-2.5276134,-39.764435,-9.7251835,-10.226468,45.97642,-18.263552,1.7755754,-8.105164,-1.1053133,15.31111,5.1046686,15.029803,-27.223257,19.924881,10.773541,11.38011,12.36844,17.9526,-14.736561,16.205864,36.536064,-10.750603,9.586265,-3.7738087
140,5.188716411590576,-19.861404418945312,72.5582275390625,1.723261350816194,4.078502330378673,-90.99155149841435,17.84412,-3.7465122,12.580596,7.4287133,-29.153053,-2.546734,-40.48207,-10.223303,-10.926247,46.24715,-18.149385,1.4595909,-8.444505,-0.9492079,15.514974,4.430502,15.054113,-27.924091,17.612547,11.423895,11.870078,12.339852,19.017986,-14.791457,15.811199,35.14361,-10.638991,9.512393,-3.629821
141,5.147025108337402,-20.561140060424805,72.34992980957031,1.596623282616063,4.362857854822219,-90.54587589992333,18.107609,-3.4502285,12.235119,7.450426,-29.539381,-2.6327684,-41.21642,-10.650108,-11.599446,46.52694,-18.05088,1.1492759,-8.786162,-0.7514864,15.692653,3.7553875,15.078946,-28.611755,15.120977,12.192419,12.428421,11.976418,20.054811,-14.824062,15.375192,33.74309,-10.495825,9.498295,-3.3947856
142,5.06893253326416,-21.298189163208008,72.13352966308594,1.4421429986846244,4.686396603630158,-90.08463540318868,18.341648,-3.0916674,11.8881855,7.474628,-29.945696,-2.7785594,-41.9565,-11.032133,-12.270869,46.834194,-17.977196,0.8359051,-9.147405,-0.52132785,15.8481655,3.0846188,15.104288,-29.285767,12.467047,13.045728,13.023249,11.368147,21.061531,-14.834122,14.9321995,32.33576,-10.314679,9.520987,-3.0945244
143,4.996648788452148,-22.04962730407715,71.92225646972656,1.2778402334128411,5.047161307900517,-89.61052206017175,18.549618,-2.6995459,11.539024,7.4945807,-30.310572,-2.9597716,-42.691784,-11.37723,-12.913944,47.17298,-17.91319,0.55261,-9.47135,-0.25611946,15.976005,2.3902645,15.133808,-30.023317,9.777315,13.785657,13.483019,10.712165,22.084204,-14.816928,14.430971,30.920586,-10.132778,9.535774,-2.7910638
144,4.928911209106445,-22.804895401000977,71.71833801269531,1.1227908165262677,5.443054186118307,-89.12611679961152,18.729973,-2.3017879,11.187086,7.5108113,-30.574554,-3.154149,-43.41091,-11.693099,-13.501398,47.544155,-17.841288,0.3327825,-9.788834,0.014021512,16.059202,1.6960866,15.157596,-30.783834,7.1719785,14.237837,13.6386175,10.190659,23.064049,-14.764787,13.937698,29.593119,-9.971826,9.501742,-2.5736997
145,4.853677749633789,-23.581783294677734,71.52831268310547,0.9782110724549273,5.8840691638280544,-88.61653719904609,18.865643,-1.8937052,10.832024,7.5213904,-30.747908,-3.3668473,-44.119476,-11.99964,-14.068098,47.907745,-17.757233,0.21267505,-10.10644,0.29556298,16.09296,0.979813,15.168244,-31.574413,4.6554246,14.274267,13.405829,9.884124,24.024162,-14.672943,13.448458,28.343086,-9.856593,9.378952,-2.4689996
146,4.783116817474365,-24.37980079650879,71.34615325927734,0.8373489691743181,6.368378867997783,-88.08577461492446,18.963829,-1.4659795,10.477485,7.529164,-30.857182,-3.6100502,-44.821342,-12.286829,-14.614022,48.275246,-17.668583,0.16612989,-10.418133,0.595287,16.084219,0.23617664,15.163164,-32.396633,2.184173,14.013705,12.8925905,9.688072,24.963984,-14.539589,12.951067,27.149925,-9.768983,9.198898,-2.4331107
147,4.691114902496338,-25.208599090576172,71.1769790649414,0.7063911205954745,6.876230315482929,-87.5642536023853,19.055817,-1.0376786,10.128622,7.5330544,-30.857086,-3.8732882,-45.503998,-12.51608,-15.059137,48.722748,-17.57523,0.13447505,-10.700142,0.9008243,16.039974,-0.51253027,15.14099,-33.251842,-0.18668431,13.633753,12.223269,9.521533,25.835102,-14.372255,12.449292,26.050356,-9.671755,9.024303,-2.4366
148,4.601984977722168,-26.06450653076172,71.01568603515625,0.5902003537847288,7.386903928113557,-87.08276074703268,19.176023,-0.627977,9.788841,7.5298424,-30.703323,-4.143926,-46.15768,-12.647704,-15.323513,49.33032,-17.478115,0.059830975,-10.929856,1.2003764,15.967049,-1.2428927,15.101383,-34.13942,-2.4030824,13.311422,11.521449,9.304947,26.591934,-14.18534,11.947575,25.07652,-9.526439,8.919568,-2.4490445
149,4.52058219909668,-26.956064224243164,70.85954284667969,0.491694949922019,7.912063535624396,-86.62871540151896,19.305634,-0.23086362,9.44869,7.522905,-30.407116,-4.422748,-46.83174,-12.64897,-15.335296,50.153393,-17.284492,-0.061983142,-11.119604,1.4991107,15.853807,-1.9668223,15.041429,-35.074116,-4.478736,13.060881,10.805543,9.02957,27.2521,-13.984306,11.417178,24.213236,-9.289256,8.91359,-2.4503624
150,4.431654930114746,-27.87717628479004,70.71749877929688,0.409423844390624,8.456262153386536,-86.19376339841925,19.43576,0.16030484,9.108841,7.5108805,-29.983767,-4.712419,-47.513035,-12.540215,-15.155839,51.12909,-17.020771,-0.19417599,-11.275004,1.8009166,15.700846,-2.6923056,14.958148,-36.05108,-6.4302588,12.798721,10.014492,8.732991,27.829445,-13.769969,10.865666,23.45018,-8.990435,8.967468,-2.4606063
151,4.3228068351745605,-28.825838088989258,70.59101104736328,0.34199716416198256,8.987538583463964,-85.81536480636447,19.603613,0.5301537,8.787294,7.4941077,-29.394203,-5.001938,-48.097893,-12.362646,-14.9037695,52.162792,-16.860981,-0.33884263,-11.367376,2.0909207,15.533468,-3.3886287,14.853477,-37.035248,-8.209637,12.55264,9.151068,8.408004,28.276077,-13.554591,10.357621,22.823233,-8.700649,9.046094,-2.5088573
152,4.2109599113464355,-29.809200286865234,70.4626235961914,0.2953401947862171,9.457020206221856,-85.54266006681185,19.833239,0.8518152,8.511129,7.549523,-28.644226,-5.277971,-48.49161,-12.166913,-14.671118,53.196407,-16.994825,-0.5079836,-11.3637705,2.3379343,15.39174,-4.0194387,14.734029,-37.98399,-9.775877,12.349962,8.217458,8.046862,28.53999,-13.35903,9.964021,22.372751,-8.487337,9.112074,-2.6242182
153,4.097780227661133,-30.819738388061523,70.32962799072266,0.24108944061541748,9.86662947760652,-85.36252602616904,20.152134,1.1672698,8.244902,7.629642,-27.764008,-5.5472536,-48.646584,-11.961401,-14.504946,54.24892,-17.518124,-0.7345299,-11.287656,2.5750427,15.269132,-4.5804224,14.606287,-38.896297,-11.164229,12.245382,7.2189155,7.6701007,28.651987,-13.197346,9.696994,22.051989,-8.39564,9.185741,-2.8095634
154,3.988058567047119,-31.854660034179688,70.21139526367188,0.18445816177320978,10.238426099537783,-85.25732199870025,20.537031,1.47726,7.9870453,7.7187953,-26.744047,-5.811006,-48.616547,-11.723572,-14.34404,55.33713,-18.317038,-1.0084572,-11.157181,2.8056052,15.150078,-5.0792036,14.472533,-39.779938,-12.39663,12.205129,6.1518764,7.2754097,28.623787,-13.075486,9.528837,21.85581,-8.374407,9.276926,-3.0502222
155,3.8635361194610596,-32.918460845947266,70.11198425292969,0.128289693348384,10.575669640201069,-85.24132039660203,20.956442,1.7536657,7.796414,7.84019,-25.461761,-6.050765,-48.461506,-11.450083,-14.185823,56.38379,-19.259708,-1.2895881,-10.963408,3.0170681,15.051419,-5.495892,14.332351,-40.60125,-13.415891,12.12122,5.0058503,6.8181915,28.377186,-13.004144,9.4734335,21.88243,-8.344283,9.332938,-3.3472874
156,3.744375228881836,-33.999908447265625,70.02294921875,0.06963908880976276,10.884837201176586,-85.32496575678823,20.785141,2.0588815,7.7045307,9.278154,-24.460382,-6.240635,-48.244884,-11.137066,-14.039194,57.313705,-20.213352,-1.5379057,-10.7056055,3.20583,14.988506,-5.808265,14.1843,-41.321575,-14.16769,11.88475,3.7725015,6.2486377,27.832718,-12.997485,9.549128,22.228607,-8.22363,9.300866,-3.70246
157,3.6233956813812256,-35.09488296508789,69.95458221435547,-0.028717772890768014,11.200943541081056,-85.52059698857838,19.976788,2.4460006,7.682188,12.1062565,-23.809904,-6.3987126,-48.007626,-10.764171,-13.953141,58.108665,-21.164022,-1.7576059,-10.389124,3.4194152,14.930021,-6.000802,14.0268545,-41.947517,-14.6610365,11.505753,2.4144368,5.541722,26.970646,-13.070724,9.768269,22.911686,-7.9190807,9.1341095,-4.1758027
158,3.502370834350586,-36.208526611328125,69.90739440917969,-0.17901332315197452,11.519693873664316,-85.80710281297947,19.033213,2.8886225,7.707681,15.252879,-22.992624,-6.504138,-47.704975,-10.336069,-13.936416,58.79881,-22.174578,-1.966579,-10.037461,3.6786594,14.8742285,-6.0830913,13.859625,-42.481632,-14.925179,11.022081,0.95267636,4.719025,25.83338,-13.225298,10.127676,23.87243,-7.4904265,8.869198,-4.744323
159,3.3930137157440186,-37.340946197509766,69.88823699951172,-0.34969938536054374,11.790864888107325,-86.14125670064891,17.902176,3.3705196,7.8062425,18.822563,-21.947493,-6.4662075,-47.272133,-9.8837805,-13.948416,59.37414,-23.221834,-2.1464531,-9.677563,3.9446752,14.879966,-6.074216,13.683337,-42.882236,-14.935694,10.365882,-0.5339356,3.7948282,24.436956,-13.448686,10.619342,25.091383,-7.0870943,8.580327,-5.286321
160,3.2819621562957764,-38.480045318603516,69.89956665039062,-0.504324875330599,11.963618198644417,-86.48020085628465,16.564014,3.8701954,8.015185,22.866114,-20.584702,-6.196162,-46.64562,-9.438029,-13.945894,59.824577,-24.281578,-2.2800155,-9.331197,4.1733975,15.008582,-5.994631,13.500091,-43.11256,-14.661921,9.470701,-1.9646722,2.780818,22.798016,-13.721304,11.233564,26.551302,-6.859129,8.346679,-5.683253
161,3.160975456237793,-39.62203598022461,69.93404388427734,-0.6228372642274579,12.008600587390209,-86.85285334978207,15.059937,4.4017286,8.476552,27.446703,-18.700022,-5.5588484,-45.791027,-8.989263,-13.898538,60.145466,-25.369257,-2.3678427,-8.98237,4.3326335,15.296324,-5.815351,13.309821,-43.135513,-14.081364,8.148496,-3.3773637,1.4839107,20.853426,-14.025024,12.008908,28.373451,-6.976626,8.180751,-5.924093
162,3.0540239810943604,-40.75727844238281,69.97830963134766,-0.7268122627632694,11.955377839225863,-87.2714774120101,13.436393,5.0254292,9.15203,32.44455,-16.369864,-4.5717955,-44.7429,-8.521325,-13.832965,60.33625,-26.487562,-2.418619,-8.617667,4.454886,15.711342,-5.5355744,13.114649,-42.98689,-13.222312,6.477631,-4.767542,-0.06155084,18.624317,-14.3497925,12.937068,30.510836,-7.3152337,8.048252,-6.067596
163,2.9645800590515137,-41.89872360229492,70.05207824707031,-0.829476163493323,11.83827455329173,-87.67208343369876,11.6797085,5.7453837,9.813791,37.652363,-13.929504,-3.4129276,-43.545204,-8.060356,-13.780115,60.400276,-27.595716,-2.4281487,-8.254498,4.5764427,16.213593,-5.223437,12.921736,-42.74313,-12.121872,4.811965,-6.019105,-1.4809042,16.249037,-14.687353,13.934591,32.70245,-7.585143,7.9564586,-6.0988092
164,2.8741555213928223,-43.036739349365234,70.13151550292969,-0.9361791300093182,11.691025474841183,-87.99150395210893,9.75424,6.4999247,10.214686,42.902893,-11.716315,-2.322884,-42.24745,-7.638078,-13.763165,60.349472,-28.6555,-2.3908155,-7.906695,4.719279,16.7604,-4.952017,12.740974,-42.482445,-10.810972,3.527835,-7.0540395,-2.3725088,13.855085,-15.035042,14.913298,34.702408,-7.5016723,7.9098096,-6.001987
165,2.7812705039978027,-44.170780181884766,70.23169708251953,-1.0289197539884312,11.49310939164615,-88.22187343527764,7.580353,7.233427,10.287866,48.411667,-9.523342,-1.4652501,-40.829124,-7.2711716,-13.764003,60.18292,-29.664913,-2.28758,-7.582634,4.858961,17.385807,-4.762125,12.571024,-42.229748,-9.119453,2.6450016,-7.877476,-2.5232792,11.383204,-15.391476,15.898673,36.601345,-6.8505726,7.964927,-5.705435
166,2.6939406394958496,-45.29570770263672,70.33818054199219,-1.096535017355889,11.23222038554871,-88.4004599082308,5.1917386,7.946189,10.169373,54.22372,-7.2769456,-0.7138278,-39.27547,-6.9434958,-13.7641945,59.899315,-30.64244,-2.1289275,-7.2583323,4.974396,18.102345,-4.612777,12.411952,-41.94856,-7.0869193,2.0146112,-8.554002,-2.1590893,8.795458,-15.7519455,16.911942,38.474194,-5.832983,8.105628,-5.240431
167,2.604795455932617,-46.407779693603516,70.4376449584961,-1.1538130158277307,10.95607136481577,-88.52628239179039,2.6857536,8.595824,9.889365,59.971325,-5.5321884,0.04897266,-37.653328,-6.6455827,-13.78919,59.52037,-31.583607,-1.950692,-6.9120364,5.089409,18.82712,-4.4461555,12.283189,-41.618233,-5.065627,1.7648274,-9.106795,-1.5207008,6.2389107,-16.110943,17.869766,40.076057,-4.788499,8.222403,-4.7452326
168,2.5188944339752197,-47.50718688964844,70.53071594238281,-1.2175909863212655,10.714245688551705,-88.59410714789274,0.15331328,9.12044,9.470128,65.28831,-4.8480234,0.9207419,-36.03345,-6.369732,-13.866258,59.070274,-32.48275,-1.7860919,-6.5271435,5.2292128,19.47407,-4.195565,12.2178,-41.22053,-3.4206338,2.0153613,-9.547355,-0.84604275,3.8554888,-16.467974,18.692339,41.17557,-4.0592346,8.195554,-4.3531437
169,2.4388930797576904,-48.56935119628906,70.60832214355469,-1.2924814839208003,10.525855545724028,-88.58320579155567,-2.444961,9.361182,8.783188,70.21408,-5.71726,1.9475763,-34.447647,-6.126897,-14.013543,58.572742,-33.351818,-1.6433225,-6.126057,5.398748,20.027367,-3.8499832,12.24187,-40.723347,-2.1916928,3.1598027,-9.839041,-0.012590899,1.649036,-16.828388,19.380861,41.7661,-3.5983694,7.894402,-4.0887914
170,2.3544578552246094,-49.65837860107422,70.6939468383789,-1.359984679814905,10.364474888978771,-88.49831385081006,-5.1567802,9.268117,7.851529,74.95048,-7.7292194,2.9813948,-32.861412,-5.928293,-14.210029,58.018787,-34.192326,-1.5009762,-5.722947,5.570629,20.527433,-3.4111054,12.367811,-40.13952,-1.2465646,5.0078526,-9.959302,1.0557002,-0.46200448,-17.199522,19.984976,41.97342,-3.270437,7.4109435,-3.8823287
171,2.278748035430908,-50.7631721496582,70.78545379638672,-1.3985713733071485,10.211709864284416,-88.38118156281807,-7.898327,8.991834,6.938589,79.35397,-10.07767,3.863107,-31.249199,-5.765417,-14.413048,57.38556,-34.98379,-1.3471466,-5.284786,5.71789,20.968515,-2.8262699,12.609595,-39.51425,-0.69445986,6.79663,-9.964012,2.0423918,-2.4632955,-17.58625,20.50714,41.771397,-3.285943,6.9524784,-3.727136
172,2.2025489807128906,-51.88372039794922,70.87874603271484,-1.3828468047152478,10.049356512561662,-88.26657305125633,-10.575988,8.763415,6.3040257,83.23154,-11.950285,4.4741387,-29.569925,-5.6361637,-14.583176,56.63451,-35.703217,-1.1691446,-4.7828717,5.8108773,21.344849,-2.043038,12.982829,-38.89246,-0.6450206,7.7659774,-9.951126,2.6321762,-4.339696,-17.992847,20.9521,41.13394,-3.8563366,6.7257323,-3.6181278
173,2.1291840076446533,-52.99058532714844,70.98439025878906,-1.3175911653854828,9.86585803651374,-88.15868630331563,-13.1953125,8.717098,6.001284,86.56482,-13.183012,4.7230678,-27.81868,-5.5345054,-14.717988,55.787415,-36.358715,-0.96509415,-4.2057567,5.855187,21.668377,-0.9975038,13.505575,-38.241226,-1.2539928,7.599135,-9.961345,2.638637,-6.092862,-18.42305,21.33247,39.999252,-5.3727856,6.8211575,-3.6304579
174,2.0630133152008057,-54.12392044067383,71.10425567626953,-1.214918286149703,9.672669142484208,-88.03944296076838,-15.799144,8.763797,5.8971925,89.451126,-14.1959715,4.724774,-26.009073,-5.4633884,-14.842548,54.848015,-36.956944,-0.7404805,-3.5868275,5.8635817,21.940315,0.3053385,14.187959,-37.53151,-2.466838,6.73349,-9.946728,2.256828,-7.740291,-18.880777,21.670551,38.406544,-7.611887,7.1201224,-3.7297685
175,2.000481367111206,-55.28948974609375,71.24510192871094,-1.0646736413517737,9.485617018219571,-87.91471633923379,-18.358591,8.842758,5.9602838,91.85533,-15.051776,4.6776953,-24.134394,-5.4286013,-14.956595,53.757904,-37.47205,-0.49673384,-2.956115,5.821824,22.14136,1.8043965,15.026147,-36.811993,-4.068495,5.5444884,-9.890215,1.7500647,-9.279557,-19.366909,21.97834,36.467384,-9.863181,7.5092144,-3.748837
176,1.9393030405044556,-56.46293258666992,71.4036865234375,-0.8565112037494235,9.320593741605034,-87.79015065372396,-20.846415,8.878239,6.160051,93.73042,-15.802296,4.7672734,-22.187502,-5.4356146,-15.059446,52.458275,-37.879726,-0.2366092,-2.3341238,5.713439,22.25165,3.4205568,16.003572,-36.136314,-5.8214726,4.409271,-9.788674,1.3855958,-10.69862,-19.881247,22.250652,34.28322,-11.41888,7.864738,-3.5373502
177,1.8809623718261719,-57.664154052734375,71.5843734741211,-0.5895468406621469,9.17185984251494,-87.67820524427796,-23.286081,8.894884,6.5286546,95.06339,-16.431389,5.076389,-20.160473,-5.4868836,-15.144907,50.94266,-38.218517,0.050704617,-1.7123731,5.536167,22.268244,5.1667643,17.109476,-35.50807,-7.728929,3.2538319,-9.631887,1.2468015,-12.002432,-20.432493,22.459951,31.794992,-12.052976,8.18794,-3.0076969
178,1.8318991661071777,-58.885807037353516,71.78776550292969,-0.2704223644929766,9.03287360326378,-87.57366542274214,-25.682535,8.931523,7.069489,95.87318,-16.910372,5.4934406,-18.054646,-5.5784774,-15.219817,49.236187,-38.488014,0.36276662,-1.0834745,5.2987,22.20744,7.0856137,18.338116,-34.879288,-9.897832,1.9360336,-9.426783,1.1905451,-13.187317,-21.026726,22.610928,28.95512,-12.156399,8.538059,-2.2608125
179,1.7912099361419678,-60.15449905395508,72.0120849609375,0.10051580457197382,8.917391577461578,-87.45535443228827,-27.975801,8.923134,7.717193,96.14256,-17.277187,5.9081783,-15.879936,-5.7094316,-15.302804,47.336617,-38.602386,0.6805058,-0.46078646,4.996629,22.075626,9.121405,19.67196,-34.234596,-12.221361,0.73164046,-9.208897,1.1438034,-14.225468,-21.653831,22.73267,25.885092,-11.945116,8.875806,-1.445978
180,1.7519276142120361,-61.448402404785156,72.25816345214844,0.522909381169251,8.839144633662631,-87.30148985753357,-30.104568,8.80265,8.411084,95.85536,-17.574696,6.214249,-13.643007,-5.8782673,-15.414348,45.23481,-38.47754,0.9908748,0.14862864,4.624155,21.872808,11.196149,21.083399,-33.570145,-14.560445,-0.08044603,-9.0140505,1.0305184,-15.093436,-22.294128,22.848396,22.720972,-11.633542,9.1549225,-0.71304417
181,1.7189366817474365,-62.77400207519531,72.52582550048828,1.0086401785079684,8.798556382686886,-87.11283276300775,-32.05583,8.604728,9.212969,94.97846,-17.845524,6.4221797,-11.294609,-6.0804195,-15.5594635,42.819992,-38.136055,1.2869631,0.7522638,4.168442,21.576632,13.291309,22.55739,-32.885757,-16.86955,-0.3290257,-8.8515415,0.80645967,-15.802345,-22.940418,22.94397,19.471357,-11.160876,9.348444,-0.077089176
182,1.67850661277771,-64.14096069335938,72.81236267089844,1.5541588507109974,8.788137222305913,-86.89860519372918,-33.849323,8.342994,10.137027,93.520355,-18.061375,6.5686398,-8.846781,-6.316533,-15.731665,40.13512,-37.608257,1.5812593,1.3534052,3.6312559,21.192062,15.438662,24.085775,-32.17103,-19.194138,-0.19038092,-8.706744,0.5156712,-16.360594,-23.594398,22.999067,16.079384,-10.451401,9.492601,0.525353
183,1.642372965812683,-65.54088592529297,73.11708068847656,2.1347395625038357,8.809210956092452,-86.64932409976547,-35.478565,7.9099784,11.040685,91.52515,-18.149517,6.5788684,-6.399688,-6.583448,-15.928923,37.39378,-36.826187,1.8881953,1.9436641,3.0291517,20.75217,17.610651,25.64611,-31.42202,-21.500418,0.095243484,-8.577101,0.21547176,-16.732645,-24.248545,23.020823,12.588357,-9.705532,9.624506,1.063825
184,1.6284749507904053,-66.96479797363281,73.44327545166016,2.724448503473627,8.862443845461978,-86.35565937162187,-36.94114,7.2052317,11.774485,89.036316,-18.036232,6.386839,-4.0573654,-6.8747873,-16.145273,34.81196,-35.716934,2.2232342,2.5154438,2.3826582,20.284962,19.762085,27.20571,-30.645327,-23.736797,0.29101565,-8.456362,-0.03517219,-16.884083,-24.888618,23.016644,9.055159,-9.127206,9.773705,1.5074036
185,1.616163730621338,-68.42424011230469,73.77958679199219,3.3528329131255163,8.968356049731092,-85.98909739413227,-38.280247,6.129653,12.282467,85.98359,-17.645054,6.0118666,-1.7828112,-7.2029753,-16.377985,32.275837,-34.238438,2.6327324,3.0604115,1.6589367,19.753428,21.833473,28.74956,-29.8641,-25.839087,0.43231532,-8.337386,-0.22371022,-16.82702,-25.51371,23.00016,5.516229,-8.871485,9.949386,1.793721
186,1.6030348539352417,-69.91197967529297,74.122802734375,4.01876858563893,9.115736549231874,-85.5624334057238,-39.46291,4.771049,12.632128,82.35313,-17.043797,5.4911003,0.4511303,-7.5506244,-16.623882,29.728027,-32.431538,3.095209,3.5817485,0.86590534,19.153597,23.837742,30.271906,-29.07707,-27.81347,0.62187964,-8.2255,-0.38238043,-16.566652,-26.126902,22.953047,1.9399657,-8.802571,10.12847,1.9564196
187,1.6033493280410767,-71.42259216308594,74.47137451171875,4.646814521255096,9.258522054356346,-85.12889344083241,-40.376118,3.3142374,12.850351,78.26677,-16.368889,4.792798,2.5199997,-7.8724813,-16.866463,27.489727,-30.359127,3.511095,4.093669,0.0879764,18.556862,25.813429,31.748268,-28.266367,-29.675682,0.72265863,-8.129936,-0.51535565,-16.065285,-26.716581,22.838066,-1.7049098,-8.687963,10.293769,2.1074562
188,1.6186397075653076,-72.93403625488281,74.82523345947266,5.15935307980447,9.353157796213704,-84.74125092923806,-40.91967,1.9407102,12.963934,73.846985,-15.750822,3.8844202,4.2975817,-8.136922,-17.0878,25.90071,-28.101173,3.7722201,4.611205,-0.5870397,18.026981,27.787188,33.139923,-27.424162,-31.428413,0.6024855,-8.058889,-0.62598205,-15.290779,-27.261513,22.625105,-5.4326897,-8.299658,10.429719,2.355689
189,1.657145619392395,-74.47560119628906,75.16838836669922,5.5605764659224555,9.402419893699975,-84.39063585561486,-41.039368,0.6299791,12.952653,68.94434,-15.155394,2.6414576,5.770677,-8.370943,-17.296013,25.035328,-25.625551,3.8816962,5.1340675,-1.157792,17.551243,29.710587,34.422302,-26.575586,-33.01349,0.17201677,-8.007523,-0.741343,-14.266887,-27.752823,22.323647,-9.240755,-7.6854796,10.597143,2.7177196
190,1.705045461654663,-76.05374908447266,75.50270080566406,5.879997798286769,9.423087028056466,-84.05826677152189,-40.771564,-0.6783818,12.78819,63.511986,-14.522371,1.1425395,7.0000286,-8.589931,-17.484215,24.734291,-22.924967,3.8625524,5.650202,-1.6522202,17.096413,31.542921,35.587234,-25.746328,-34.399673,-0.46938083,-7.971509,-0.8542906,-13.014309,-28.18893,21.957705,-13.097851,-6.9389057,10.783479,3.136519
191,1.7565008401870728,-77.65299224853516,75.83000946044922,6.073847145301236,9.39748811271894,-83.786459054923,-40.168823,-1.8632582,12.499713,57.829937,-13.930594,-0.34800965,7.9749475,-8.754481,-17.625134,24.977896,-20.09855,3.6426358,6.1642046,-2.0235517,16.686428,33.30858,36.615612,-24.93782,-35.61208,-1.1752275,-7.9607267,-0.9154775,-11.513815,-28.554384,21.531363,-16.952085,-5.8969254,10.870553,3.6096144
192,1.805327296257019,-79.26528930664062,76.14859771728516,6.094872298773094,9.310883811572774,-83.61873091297934,-39.309128,-2.798829,12.1275215,52.209343,-13.469959,-1.5751414,8.690809,-8.822433,-17.706753,25.728392,-17.231127,3.1598732,6.679545,-2.220963,16.338055,35.02261,37.48122,-24.154533,-36.663654,-1.8036286,-7.986783,-0.876351,-9.76529,-28.822006,21.062496,-20.727472,-4.394834,10.742747,4.1384015
193,1.8679909706115723,-80.89889526367188,76.44766998291016,5.898478182663933,9.167409926197152,-83.59598949617246,-38.167797,-3.4440756,11.64494,46.550488,-13.199276,-2.4403355,9.133214,-8.759899,-17.757753,26.988733,-14.211033,2.3697531,7.2179337,-2.200168,16.035875,36.6919,38.15585,-23.419085,-37.521343,-2.363694,-8.085565,-0.70513624,-7.791218,-28.961376,20.579723,-24.42297,-2.2194486,10.340423,4.714315
194,1.9398523569107056,-82.55170440673828,76.7143783569336,5.517249896530454,8.973557960328076,-83.69383096109706,-36.71031,-3.8414283,11.057165,40.714794,-13.03605,-3.0786862,9.344478,-8.607662,-17.819101,28.69601,-10.984517,1.3148553,7.7597938,-1.9914799,15.754875,38.27872,38.628044,-22.753016,-38.14947,-2.9097514,-8.240838,-0.44121554,-5.6680074,-28.958006,20.13477,-27.991873,0.47651646,9.750205,5.365959
195,2.012507915496826,-84.21930694580078,76.95291900634766,5.020652619468762,8.718869102459074,-83.85269831167315,-35.02708,-4.020508,10.467495,34.991035,-12.876342,-3.6115332,9.40471,-8.430563,-17.902164,30.717049,-7.7207003,0.0748809,8.242818,-1.6578559,15.497786,39.75562,38.90171,-22.15429,-38.574512,-3.3607566,-8.385382,-0.13998882,-3.48563,-28.811737,19.782598,-31.287329,3.314727,9.079418,6.1518626
196,2.08740496635437,-85.89164733886719,77.1518325805664,4.476538776737287,8.393502098956107,-84.00948899054791,-33.227287,-4.034658,9.982606,29.697842,-12.627053,-4.1834364,9.388869,-8.282084,-18.003141,32.931465,-4.5957613,-1.262899,8.60339,-1.2624694,15.27487,41.10311,38.99277,-21.608557,-38.835487,-3.6412854,-8.450451,0.14507508,-1.317829,-28.533155,19.564346,-34.176315,5.9257283,8.432055,7.1160645
197,2.1589202880859375,-87.56982421875,77.30645751953125,3.850684209168056,7.973732315479091,-84.17991154324767,-31.279959,-3.8588343,9.645993,24.81205,-12.295293,-4.8797727,9.305321,-8.130625,-18.12585,35.388588,-1.4754986,-2.7730324,8.846197,-0.7709676,15.104966,42.363575,38.90391,-21.103329,-38.95267,-3.6552916,-8.4178505,0.41663787,0.86259496,-28.115955,19.517378,-36.663086,8.457535,7.802835,8.319993
198,2.2458677291870117,-89.2476806640625,77.40894317626953,3.106816299926195,7.467469900047191,-84.3812474352967,-29.179478,-3.4875946,9.416839,20.233574,-11.932655,-5.644956,9.149044,-7.939963,-18.310894,38.065132,1.7272531,-4.4663854,8.98353,-0.15039973,14.973855,43.55128,38.63494,-20.643692,-38.917732,-3.470723,-8.32026,0.69567025,3.0372622,-27.555153,19.651814,-38.781357,11.034466,7.1720004,9.737527
199,2.3374722003936768,-90.921142578125,77.4669418334961,2.336276263509288,6.925056442562449,-84.54065377945389,-27.105072,-3.0426922,9.272016,16.217546,-11.535982,-6.4128594,8.925679,-7.7736316,-18.565346,40.825954,4.712065,-6.138203,8.961691,0.50519896,14.84856,44.603195,38.209934,-20.238047,-38.732216,-3.2579963,-8.16689,0.9579369,5.0978074,-26.878798,19.930914,-40.46804,13.257857,6.597557,11.256032
200,2.415179491043091,-92.5834732055664,77.48175048828125,1.6642190257161094,6.410477254167131,-84.57718353968704,-25.244377,-2.6784086,9.178795,13.028504,-11.105985,-7.0996513,8.60468,-7.7202497,-18.855053,43.59903,7.1324434,-7.5599985,8.73241,1.0701108,14.701939,45.449177,37.66919,-19.899202,-38.408855,-3.188619,-7.9710326,1.1838917,6.980618,-26.131271,20.281988,-41.69975,14.734452,6.106026,12.741068
201,2.493513584136963,-94.22472381591797,77.44605255126953,1.1116059507654679,5.9365206451972,-84.44591633894618,-23.56751,-2.4354239,9.240347,10.636248,-10.631668,-7.8361826,8.134643,-7.794784,-19.183186,46.50412,9.00609,-8.709035,8.264549,1.5330896,14.531351,46.095573,37.040867,-19.623188,-37.981205,-3.361017,-7.704238,1.3731254,8.757144,-25.337023,20.696638,-42.52092,15.317192,5.645523,14.243433
202,2.5712180137634277,-95.83502197265625,77.34327697753906,0.6689585329929818,5.4938798025112305,-84.17642925017475,-22.058697,-2.3093524,9.434945,9.006967,-10.153804,-8.608908,7.493254,-7.9777374,-19.517393,49.61237,10.445048,-9.635156,7.5866423,1.8997781,14.35212,46.572487,36.33469,-19.40382,-37.45262,-3.6757238,-7.3737216,1.5437621,10.474551,-24.496635,21.181688,-42.9715,15.249583,5.1751304,15.777992
203,2.645136833190918,-97.41543579101562,77.17881774902344,0.431589467895359,5.114099087886651,-83.80097288692312,-20.990402,-2.3818758,9.528931,8.538768,-9.833091,-9.101006,6.653755,-8.312464,-19.729261,52.865208,11.189268,-10.202292,6.7453737,2.0551808,14.164316,46.828735,35.567284,-19.254684,-36.77636,-4.0095553,-7.047949,1.7051816,12.054265,-23.618294,21.662184,-43.038967,14.721838,4.7211633,17.148802
204,2.744577169418335,-98.95034790039062,76.99153137207031,0.4852531046124161,4.820731288340533,-83.36062756788286,-20.591438,-2.7222755,9.296476,9.548593,-9.787458,-9.000882,5.5936313,-8.831764,-19.686052,56.210648,10.966456,-10.28944,5.803975,1.8977954,13.968278,46.811058,34.761215,-19.195553,-35.91313,-4.237493,-6.794637,1.8671713,13.444734,-22.716059,22.043692,-42.735245,13.919761,4.325041,18.162428
205,2.8445260524749756,-100.4439926147461,76.79644012451172,0.902933430517352,4.666093762174446,-82.84782637934107,-21.003777,-3.4520016,8.517554,12.256323,-9.773596,-8.037414,4.2432313,-9.524284,-19.266333,59.720467,9.316503,-9.703434,4.767365,1.3452656,13.705766,46.50938,33.928528,-19.22414,-34.87261,-4.300313,-6.6079926,2.0539937,14.657628,-21.799345,22.295021,-42.06727,12.660643,3.9810119,18.776505
206,2.9314186573028564,-101.90397644042969,76.55530548095703,1.5401059095794118,4.5871297695091915,-82.28198719451338,-21.893187,-4.4816833,7.412564,16.099007,-9.597741,-6.510331,2.6726058,-10.267471,-18.577955,63.40077,6.4724813,-8.616364,3.652101,0.5609568,13.399286,45.97028,33.076015,-19.328405,-33.69475,-4.275325,-6.4594297,2.25778,15.764092,-20.873138,22.437737,-41.071407,10.920383,3.666074,19.080328
207,2.9823989868164062,-103.3957748413086,76.22257232666016,2.1835100751246093,4.444554167608141,-81.73656242607392,-22.80835,-5.556541,6.3840523,20.286005,-9.513699,-4.9166355,1.0625267,-10.978593,-17.83024,67.09941,3.2188199,-7.451103,2.536101,-0.21969616,13.175243,45.2113,32.222404,-19.514326,-32.38625,-4.2465158,-6.3830338,2.4412496,16.820322,-19.945683,22.444483,-39.83522,9.121438,3.4173005,19.084938
208,3.0447967052459717,-104.86085510253906,75.83309936523438,2.7262728520159953,4.133863162678354,-81.25752091911066,-23.375257,-6.4565907,5.7730584,24.15321,-9.904413,-3.6460266,-0.46411586,-11.682685,-17.165916,70.6921,0.35922003,-6.5444984,1.4791815,-0.8809787,13.15117,44.22912,31.394085,-19.791693,-30.932467,-4.301919,-6.4152036,2.5716858,17.881123,-19.02352,22.281376,-38.445942,7.6884923,3.2735927,18.807787
209,3.10945987701416,-106.28588104248047,75.40350341796875,3.2273544978005893,3.596629791500621,-80.75981332755845,-23.627962,-7.1668925,5.6346316,27.867058,-11.028342,-2.720346,-1.8405628,-12.518205,-16.617775,74.22577,-1.9172938,-5.8727617,0.4301802,-1.4754466,13.415205,42.990047,30.613224,-20.166632,-29.283913,-4.642804,-6.651977,2.595567,18.973755,-18.11065,21.887135,-36.859356,6.7980895,3.2748117,18.258934
210,3.163174629211426,-107.68977355957031,74.93218231201172,3.743344827839728,2.9088089919400115,-80.24536534345364,-23.752493,-7.7314997,5.7353125,31.75512,-12.71343,-1.8908798,-3.1505215,-13.470653,-16.08928,77.744064,-4.023766,-5.276236,-0.60472846,-2.0842319,13.88539,41.505318,29.886147,-20.636206,-27.475431,-5.1738157,-7.046492,2.5527043,20.095724,-17.20564,21.269268,-35.094273,6.208215,3.3984182,17.43186
211,3.22529673576355,-109.09148406982422,74.45834350585938,4.240717888372606,2.191076556739071,-79.87004917984045,-23.652891,-8.092277,5.97638,35.444744,-14.737444,-1.1153344,-4.545422,-14.407725,-15.469458,81.135345,-6.0511594,-4.8365946,-1.5039605,-2.7075422,14.41396,39.834652,29.20926,-21.187176,-25.618448,-5.5383415,-7.422568,2.5528467,21.23913,-16.300507,20.506876,-33.30267,5.715679,3.587057,16.321815
212,3.31459379196167,-110.46631622314453,73.99207305908203,4.6922910818076655,1.565870228266447,-79.78740269872024,-23.242146,-8.272203,6.3020325,38.54638,-16.85267,-0.38577458,-6.187917,-15.198507,-14.642156,84.2881,-8.0856285,-4.641024,-2.1558623,-3.3355265,14.857045,38.046448,28.571075,-21.793766,-23.830048,-5.374692,-7.604833,2.7095776,22.389502,-15.386018,19.68663,-31.61988,5.1125603,3.7905328,14.924775
213,3.4053704738616943,-111.87235260009766,73.54766845703125,5.135772570268026,1.0857537039826848,-80.11087164236585,-22.506853,-8.299287,6.8323293,41.002396,-19.148983,0.30369017,-8.207547,-15.827286,-13.465398,87.26789,-10.221351,-4.8071814,-2.476252,-4.0199895,15.15192,36.161083,27.956371,-22.442081,-22.012375,-4.5332165,-7.5317006,3.1641386,23.53041,-14.44072,18.821815,-29.929365,4.397689,4.0341463,12.997123
214,3.4348175525665283,-113.22553253173828,73.0775146484375,5.593248810553561,0.6879939425905449,-80.72911862131802,-21.510214,-8.240393,7.5822225,43.01847,-21.698925,0.9347969,-10.515396,-16.350967,-12.005134,90.10353,-12.374867,-5.2549696,-2.5536106,-4.7626567,15.390968,34.15677,27.357857,-23.118845,-20.156796,-3.224254,-7.2894897,3.8156629,24.656487,-13.465396,17.869644,-28.174967,3.6607516,4.350572,10.63203
215,3.3083417415618896,-114.82518005371094,72.69114685058594,6.0125288655294,0.32008151503169285,-81.4575859437467,-20.278587,-8.189143,8.362044,44.58859,-24.216702,1.4703084,-12.943327,-16.757044,-10.477573,92.620964,-14.360567,-5.784675,-2.5326974,-5.4684076,15.664625,32.02901,26.776386,-23.808142,-18.505707,-1.6244816,-6.9297147,4.4148507,25.784758,-12.501918,16.830624,-26.610102,2.8269172,4.70058,8.324205
216,3.2781195640563965,-116.30355072021484,72.34646606445312,6.341312750389618,-0.07500829522425227,-82.11047657694229,-18.834848,-8.1968155,8.967953,45.711514,-26.42859,1.86367,-15.313352,-17.067818,-9.116209,94.647285,-15.992911,-6.2020583,-2.5573921,-6.0345335,16.056992,29.762506,26.215124,-24.51078,-17.298101,0.0898404,-6.5209208,4.714081,26.950813,-11.6106615,15.709212,-25.528547,1.826162,5.03283,6.554193
217,3.3451695442199707,-117.66162109375,72.0623779296875,6.58443672846934,-0.5791116683661355,-82.64713771717219,-17.09538,-8.284354,9.343769,46.36794,-28.30771,2.0729291,-17.580433,-17.324678,-7.9209394,96.18062,-17.16806,-6.474026,-2.6482499,-6.428691,16.684727,27.250158,25.675833,-25.27589,-16.606823,2.0919313,-6.0444484,4.582534,28.210321,-10.824178,14.399286,-25.110971,0.40966666,5.3901243,5.4394355
218,3.4816627502441406,-119.0205307006836,71.83209991455078,6.771051111136367,-1.1414727269982496,-83.16031464864155,-15.080946,-8.393638,9.594494,46.5785,-29.992989,2.1182678,-19.840363,-17.523691,-6.7990794,97.299286,-17.993015,-6.7025247,-2.7346714,-6.7012954,17.47703,24.541529,25.145735,-26.087534,-16.325583,4.3980308,-5.4993644,4.1655407,29.561466,-10.138278,12.929506,-25.227123,-1.2914453,5.773689,4.716642
219,3.595707654953003,-120.38053131103516,71.65313720703125,6.876000167520606,-1.6230118955964248,-83.66300937047554,-12.968845,-8.434811,9.758552,46.404663,-31.464539,2.0421932,-22.11304,-17.648386,-5.8574266,97.94086,-18.611998,-6.9008565,-2.8409224,-6.8715944,18.229137,21.8423,24.601982,-26.863825,-16.393208,6.604118,-4.984438,3.634346,30.942507,-9.551923,11.522866,-25.696766,-2.7819488,6.0490093,4.2810616
220,3.678077459335327,-121.7912826538086,71.54634857177734,6.873719641860237,-1.8855638830955077,-84.16732330764474,-10.938878,-8.342609,9.888661,45.904778,-32.70198,1.9022242,-24.413826,-17.68153,-5.209925,98.040215,-19.168646,-7.0806446,-3.0060372,-6.9529576,18.73272,19.344852,24.022356,-27.53462,-16.72298,8.308017,-4.5790277,3.1655085,32.29007,-9.075743,10.411898,-26.33628,-3.5676382,6.079813,4.0163093
221,3.7465929985046387,-123.2386245727539,71.49925231933594,6.751311931650983,-1.8853645498385168,-84.70761649414467,-9.042927,-8.093731,10.0313425,45.104164,-33.740093,1.6997172,-26.8014,-17.608757,-4.888013,97.57109,-19.724993,-7.2363195,-3.2276928,-6.9492188,18.929525,17.073383,23.390944,-28.100986,-17.320568,9.437041,-4.320796,2.728438,33.62264,-8.730978,9.657193,-27.160963,-3.3230681,5.729282,3.9628303
222,3.8051459789276123,-124.69667053222656,71.51371765136719,6.516787451800229,-1.7023786141009096,-85.26513163720244,-7.1866612,-7.7303643,10.166196,43.974327,-34.580315,1.4187883,-29.220665,-17.441776,-4.86483,96.5555,-20.197617,-7.352432,-3.5174177,-6.8397465,18.923176,14.915937,22.70407,-28.621172,-18.180616,10.201188,-4.157704,2.2576804,34.96517,-8.527766,9.14092,-28.243528,-2.369229,5.0980186,4.155398
223,3.853686809539795,-126.16291046142578,71.5966796875,6.171488291697668,-1.3832092964257066,-85.77476570002261,-5.3323135,-7.287835,10.246263,42.496227,-35.152157,1.1002222,-31.51304,-17.207138,-5.164395,94.999985,-20.5151,-7.4225693,-3.9222426,-6.5996475,18.748604,12.844902,21.967373,-29.126602,-19.18299,10.619997,-4.0162363,1.882892,36.26701,-8.46342,8.817264,-29.47701,-1.1876086,4.410213,4.468349
224,3.9122653007507324,-127.64534759521484,71.74615478515625,5.722068108896394,-0.9726582269594884,-86.17178738000692,-3.4428596,-6.795296,10.220798,40.64699,-35.386246,0.77802205,-33.52958,-16.942736,-5.7936926,92.917206,-20.609598,-7.4444933,-4.4829206,-6.2103586,18.44632,10.84285,21.193548,-29.629759,-20.222675,10.711023,-3.8217106,1.731873,37.46933,-8.530218,8.643315,-30.750563,-0.26797426,3.88159,4.7625523
225,3.9671287536621094,-129.1480255126953,71.9563217163086,5.133410014917905,-0.4341324776652832,-86.41684659455092,-1.4953396,-6.232027,10.049457,38.26333,-35.308624,0.42020524,-35.26406,-16.714235,-6.8640876,90.259186,-20.473211,-7.423406,-5.229526,-5.6337333,17.989288,8.932517,20.381405,-30.145027,-21.342594,10.39578,-3.5215812,1.9584196,38.55292,-8.739681,8.651137,-32.091354,0.2745876,3.5914443,5.023474
226,4.039077281951904,-130.70570373535156,72.23934173583984,4.4098699561359025,0.24284819212762634,-86.55759672831923,0.48227152,-5.576514,9.770999,35.413105,-34.946236,0.025117792,-36.76262,-16.48143,-8.341231,87.02405,-20.145798,-7.3382874,-6.1221905,-4.8784995,17.377913,7.1202235,19.52847,-30.671179,-22.572327,9.689678,-3.1675074,2.4635887,39.54774,-9.100505,8.841413,-33.527534,0.6951239,3.4174416,5.315726
227,4.101236820220947,-132.30361938476562,72.57437133789062,3.630743499111236,0.9753429670937247,-86.65791903081549,2.4470117,-4.868485,9.45307,32.41459,-34.220684,-0.3389439,-37.98201,-16.132849,-9.986176,83.298706,-19.630096,-7.1619477,-7.0894814,-4.0081306,16.69559,5.3625655,18.655478,-31.183039,-23.8028,8.750826,-2.8401484,2.9923928,40.4633,-9.586896,9.125887,-34.940388,1.0520334,3.2632213,5.6101675
228,4.166263580322266,-133.92892456054688,72.94725799560547,2.875389969199224,1.678186169495283,-86.77904983715182,4.3527975,-4.163898,9.163483,29.587975,-33.053997,-0.6108702,-38.893764,-15.567151,-11.541341,79.16238,-18.929943,-6.8813834,-8.049563,-3.104369,16.022232,3.6080706,17.800488,-31.660677,-24.933235,7.736041,-2.6103675,3.2857585,41.31258,-10.147315,9.411721,-36.218163,1.3964545,3.031564,5.8836384
229,4.230501174926758,-135.57284545898438,73.34876251220703,2.1192608193182347,2.356451741254635,-86.93428059351784,6.237896,-3.4569373,8.889829,26.851427,-31.384901,-0.75004613,-39.4868,-14.730143,-13.00465,74.509995,-17.969229,-6.577325,-8.983643,-2.1453688,15.363552,1.8288732,16.99512,-32.1042,-25.984192,6.55625,-2.4920993,3.2639613,42.069977,-10.751973,9.693614,-37.335476,1.7098594,2.660602,6.1692924
230,4.303854465484619,-137.23648071289062,73.76459503173828,1.346403306166987,3.0433938471518927,-87.09568851986032,8.09169,-2.7460768,8.612946,24.114128,-29.281395,-0.801685,-39.788464,-13.696911,-14.447273,69.32197,-16.778744,-6.2440534,-9.904173,-1.1269677,14.691666,0.059440207,16.251877,-32.53913,-27.02016,5.163355,-2.4401903,3.0726016,42.72969,-11.394642,10.007202,-38.34087,1.9633721,2.2126877,6.478044
231,4.338292598724365,-138.93539428710938,74.17900085449219,0.6548843818407194,3.6933984578560883,-87.25830296669552,9.8003025,-2.1072338,8.379119,21.680117,-26.858582,-0.8253401,-39.841854,-12.566925,-15.704896,63.802383,-15.497397,-5.745773,-10.783566,-0.1700355,14.025614,-1.6584246,15.582397,-32.981224,-28.010273,3.7769415,-2.4301252,2.7853043,43.335194,-12.044866,10.330877,-39.233864,2.1898158,1.7752802,6.7520003
232,4.3431077003479,-140.65089416503906,74.58826446533203,0.13964933947774086,4.261025902304327,-87.41133335493384,11.26732,-1.6090589,8.21985,19.834234,-24.217293,-0.872491,-39.67887,-11.438984,-16.632744,58.139313,-14.254711,-4.9483385,-11.591925,0.60397005,13.37922,-3.292786,14.998352,-33.454037,-28.911667,2.617614,-2.4416854,2.4753416,43.932755,-12.657349,10.638247,-40.013233,2.413514,1.4357917,6.938126
233,4.341047286987305,-142.3804473876953,74.98734283447266,-0.17701798067199603,4.73018331531085,-87.56029635632034,12.484845,-1.2723763,8.111308,18.65994,-21.257977,-0.96574694,-39.19709,-10.268908,-17.194643,52.061646,-13.047008,-3.7293453,-12.314712,1.1605734,12.749931,-4.8833327,14.520363,-33.99959,-29.732515,1.7459399,-2.458309,2.1593533,44.537666,-13.201748,10.932212,-40.67985,2.6581419,1.2189063,7.00757
234,4.336246490478516,-144.12631225585938,75.3663558959961,-0.33274375322654715,5.117828887346054,-87.69669850914072,13.508992,-1.0723304,8.017295,18.005548,-17.966242,-1.0415014,-38.363922,-9.053888,-17.450314,45.47707,-11.774369,-2.2152452,-12.964048,1.5365034,12.130674,-6.4320207,14.158359,-34.617317,-30.503927,1.0382168,-2.4933994,1.8011504,45.11695,-13.668059,11.224483,-41.224895,2.8901024,1.0764621,7.0050154
235,4.31572961807251,-145.8961181640625,75.7176284790039,-0.3291210280303645,5.4317978208678435,-87.78325432392606,14.348905,-0.9932911,7.9522395,17.790293,-14.551323,-1.02982,-37.31859,-7.9501195,-17.428692,38.860054,-10.425283,-0.63359636,-13.559912,1.7279782,11.52441,-7.858327,13.90095,-35.258965,-31.215353,0.44182035,-2.5756679,1.3910712,45.64888,-14.041995,11.503768,-41.638256,3.0462725,0.9866403,6.98755
236,4.287744045257568,-147.67381286621094,76.03627014160156,-0.174086799462839,5.684437644644176,-87.78212683413123,15.015516,-1.0094533,7.945093,17.915037,-11.204651,-0.8821824,-36.237045,-7.104001,-17.178091,32.751328,-9.00921,0.8041144,-14.121462,1.7447363,10.93037,-9.097814,13.72379,-35.8714,-31.835226,-0.09101185,-2.7330556,0.915601,46.114357,-14.309073,11.75368,-41.908875,3.0619144,0.92864347,7.0133634
237,4.249825954437256,-149.45814514160156,76.3192367553711,0.16705818087077615,5.886044212429663,-87.64413010350141,15.525139,-1.1238016,8.065096,18.311121,-7.8499746,-0.6143432,-35.171986,-6.567414,-16.626057,27.183937,-7.463354,2.117353,-14.6752205,1.5621233,10.313797,-10.206817,13.618204,-36.465595,-32.315086,-0.46534035,-3.0221148,0.35040626,46.558983,-14.450081,11.974005,-42.04813,2.9386964,0.875658,7.077145
238,4.1989569664001465,-151.24781799316406,76.5657958984375,0.6949262092882472,6.021472928261182,-87.3812215587846,15.901987,-1.341717,8.276381,18.98621,-4.3851476,-0.24520452,-34.027267,-6.3012257,-15.800718,21.926872,-5.818535,3.4014878,-15.220567,1.1752398,9.683043,-11.219817,13.587334,-37.066013,-32.663258,-0.6909979,-3.4120066,-0.29580253,46.98053,-14.460661,12.170415,-42.057148,2.6980884,0.8469269,7.161213
239,4.129414081573486,-153.03219604492188,76.78131866455078,1.3238203093706047,6.082159371117976,-87.07034362298526,16.14257,-1.6124171,8.483263,19.981602,-0.9768948,0.24285851,-32.853268,-6.268725,-14.917605,17.276564,-4.2870874,4.57088,-15.708555,0.66057533,9.091041,-12.061,13.604617,-37.63973,-32.90957,-0.965111,-3.7969527,-0.98794943,47.297348,-14.35497,12.327035,-41.913467,2.30941,0.8896771,7.302451
240,4.064060211181641,-154.82017517089844,76.96578979492188,1.932171149719832,6.081039556730184,-86.8126156291155,16.210754,-1.8521124,8.613758,21.366934,2.1905472,0.85343486,-31.733044,-6.3658032,-14.203306,13.545093,-3.0810637,5.537906,-16.084051,0.13489267,8.584877,-12.644544,13.643498,-38.12642,-33.087612,-1.4819857,-4.067435,-1.6983896,47.408146,-14.167292,12.437027,-41.58309,1.7453662,1.0504519,7.5325356
