unveil-humanoid-operators/unveil-humanoid-operators.github.io/feature-analysis-animation/data/feature_matrix_instances/gender_shoulder_mean_vel_jogging_A224_jog_ff_stop_180_R_002__A224.csv
Frame,root_translateX,root_translateY,root_translateZ,root_rotateX,root_rotateY,root_rotateZ,left_hip_pitch_joint_dof,left_hip_roll_joint_dof,left_hip_yaw_joint_dof,left_knee_joint_dof,left_ankle_pitch_joint_dof,left_ankle_roll_joint_dof,right_hip_pitch_joint_dof,right_hip_roll_joint_dof,right_hip_yaw_joint_dof,right_knee_joint_dof,right_ankle_pitch_joint_dof,right_ankle_roll_joint_dof,waist_yaw_joint_dof,waist_roll_joint_dof,waist_pitch_joint_dof,left_shoulder_pitch_joint_dof,left_shoulder_roll_joint_dof,left_shoulder_yaw_joint_dof,left_elbow_joint_dof,left_wrist_roll_joint_dof,left_wrist_pitch_joint_dof,left_wrist_yaw_joint_dof,right_shoulder_pitch_joint_dof,right_shoulder_roll_joint_dof,right_shoulder_yaw_joint_dof,right_elbow_joint_dof,right_wrist_roll_joint_dof,right_wrist_pitch_joint_dof,right_wrist_yaw_joint_dof
0,-0.2836208939552307,1.3047319650650024,79.47421264648438,-0.539591507003243,6.104482412653563,-87.93894111375572,-20.506119,-2.6126535,-6.843855,6.670976,-1.2061037,-2.9433327,13.599705,0.85813415,-2.0791392,24.258514,13.084017,5.391392,8.671589,3.1488109,6.6540794,39.183167,15.593906,-5.6880016,-34.93028,14.344534,7.946778,5.8370013,2.7021227,-27.118765,23.627897,-29.128813,-5.879039,6.538712,-1.4253861
1,-0.271389365196228,-0.10700296610593796,79.25587463378906,-0.5610268598320513,5.793336250003423,-87.89887415720729,-20.171442,-2.6498795,-6.355807,6.6372976,-1.5847247,-3.4792893,13.091963,1.6417346,0.32173067,27.367205,12.312774,5.203218,8.238249,3.093354,6.9609833,39.158485,15.623774,-5.338502,-35.365814,13.972711,8.224191,7.3611617,3.3782723,-27.197186,24.120989,-29.980858,-5.9446735,6.157929,-0.85539854
2,-0.24552789330482483,-1.5268607139587402,78.99043273925781,-0.6716357579728505,5.4739219485639445,-87.86548739015731,-19.872066,-2.6054845,-5.9033475,6.603183,-2.0860665,-4.084916,12.638374,2.6615686,2.8205945,30.45853,11.563361,5.0302787,7.804214,3.11497,7.2493615,39.206646,15.637101,-4.9637437,-35.828907,13.579246,8.502037,8.92224,3.973674,-27.264147,24.673576,-30.780882,-6.0414457,5.7617745,-0.26137492
3,-0.22734420001506805,-2.9533636569976807,78.6638412475586,-0.6777065492193746,5.15312635411753,-87.77212218496459,-19.496645,-2.6713693,-5.454868,6.5820565,-2.3463702,-4.563958,12.164392,3.5215805,5.0381646,33.68122,10.745091,4.9719563,7.245192,3.0454144,7.556714,39.179134,15.642083,-4.573562,-36.260895,13.198425,8.746693,10.411612,4.57176,-27.328674,25.243423,-31.535372,-6.0732164,5.3946457,0.26333347
4,-0.21331582963466644,-4.372243404388428,78.2848892211914,-0.3850987660016417,4.834887939044206,-87.55540698416023,-18.933468,-3.049907,-4.9831605,6.588176,-2.004674,-4.721032,11.587981,3.8077645,6.603262,37.15282,9.774141,5.110437,6.5264864,2.7227826,7.9044385,38.819496,15.671537,-4.275798,-36.518764,12.90512,8.933696,11.727248,5.312505,-27.342188,25.660303,-32.23617,-5.977584,5.0964212,0.69144267
5,-0.2086486965417862,-5.786225318908691,77.86572265625,0.3056396377863648,4.519277425624336,-87.17376349515965,-18.14053,-3.857741,-4.4648643,6.605707,-0.55330294,-4.4942746,10.941986,3.3500257,7.404554,40.8439,8.655236,5.584294,5.549617,2.02072,8.288205,38.182808,15.760819,-4.0173855,-36.683975,12.678298,9.073391,12.878353,6.1603627,-27.299606,26.021456,-32.888374,-5.631141,4.8857136,0.9399489
6,-0.15371645987033844,-7.147634983062744,77.4794921875,1.2663646604689565,4.186552545461056,-86.69118935910701,-17.181908,-4.986713,-3.912152,6.6350737,1.6843146,-4.0256267,10.283747,2.355857,7.678816,44.659134,7.4381967,6.284906,4.4508896,1.0475783,8.6785145,37.31934,15.948317,-3.8286588,-36.765446,12.491275,9.185223,13.927317,7.105183,-27.16445,26.29115,-33.484783,-5.124136,4.7360663,1.0862445
7,-0.11006233096122742,-8.530004501342773,77.02909088134766,2.3505520742262913,3.816153152261787,-86.20131151384732,-17.437134,-6.382104,-3.2179897,9.532005,2.3326333,-3.4017851,9.567731,0.95359576,7.593389,48.583675,6.1280885,6.909696,3.3296223,-0.040022254,9.074952,36.230873,16.208744,-3.7015014,-36.714527,12.328145,9.242981,14.825715,8.143214,-26.948088,26.421766,-33.97006,-4.6540017,4.631852,1.2014178
8,-0.026888756081461906,-9.876757621765137,76.56376647949219,3.4315904435023765,3.4033688991702267,-85.78556749878567,-17.832912,-7.8119636,-2.5047321,12.961136,1.7534906,-2.66679,8.722474,-0.75252306,7.3196044,52.617355,4.727964,7.155183,2.2700627,-1.1148132,9.48065,34.931152,16.534191,-3.612714,-36.497303,12.160976,9.220433,15.528997,9.261412,-26.652386,26.378456,-34.28534,-4.4171724,4.557344,1.3483187
9,0.08829401433467865,-11.194165229797363,76.07036590576172,4.58392457823635,2.9358419838244285,-85.4058259327799,-18.425852,-9.411012,-1.821726,17.139654,-0.5514448,-1.6267534,7.728009,-3.0442638,6.721809,56.900013,3.194429,6.9275374,1.232824,-2.243963,9.904045,33.42116,16.930948,-3.545804,-36.157047,11.87403,9.041184,16.018398,10.465744,-26.286144,26.162693,-34.46573,-4.288162,4.478298,1.5689297
10,0.1857312023639679,-12.51187801361084,75.51233673095703,5.822682297183506,2.41738963570774,-85.0456658554521,-19.244123,-11.162391,-1.1869293,22.133326,-4.106921,-0.31074375,6.648644,-5.923792,5.8447127,61.360775,1.5506936,6.354283,0.20485905,-3.4499063,10.3429575,31.700024,17.400116,-3.5151172,-35.708145,11.516225,8.743597,16.320837,11.764719,-25.847105,25.794554,-34.546154,-4.214169,4.4126134,1.8145655
11,0.2623770236968994,-13.810282707214355,74.93766784667969,6.9818640556939195,1.8895491192144231,-84.79969339452745,-19.930277,-12.756462,-0.63734525,26.992374,-7.939738,0.9366507,5.4747424,-8.882778,5.106457,65.72196,-0.12931083,5.4898877,-0.71154094,-4.5802965,10.791794,29.765154,17.913668,-3.5451841,-35.04885,11.313203,8.473754,16.459343,13.144682,-25.307209,25.269373,-34.4588,-4.5025706,4.4199147,2.013667
12,0.3444618880748749,-15.09576416015625,74.42717742919922,7.921422900594805,1.404397782857413,-84.7532787134504,-20.108425,-13.933106,-0.14020224,30.72069,-11.043309,1.7759385,4.1410823,-11.383818,4.8826685,69.73535,-1.7757535,4.417316,-1.4399947,-5.506152,11.243828,27.626516,18.428303,-3.6495008,-34.07748,11.498261,8.376324,16.454317,14.559032,-24.62462,24.600992,-34.0897,-5.4685187,4.5603294,2.102415
13,0.4093886911869049,-16.35699462890625,74.02587127685547,8.639903880602338,0.9825398038239296,-84.93879065919602,-19.637203,-14.638753,0.37809756,32.997547,-13.156783,2.05789,2.528219,-13.31658,5.2863946,73.45598,-3.4624085,2.993484,-1.9759461,-6.21405,11.72816,25.226,18.92636,-3.8352196,-32.70834,12.128906,8.399391,16.394112,15.994231,-23.74008,23.761292,-33.286556,-7.1058984,4.8602653,2.0285769
14,0.42317864298820496,-17.583139419555664,73.73596954345703,9.226685659271979,0.6072041267329421,-85.29733228123297,-18.733007,-15.060351,0.9225212,34.378063,-14.821671,1.9971815,0.6442231,-14.91898,6.118936,77.00259,-5.2119827,1.2523137,-2.3866603,-6.79951,12.233745,22.623123,19.406826,-4.0653405,-31.047863,13.093776,8.493636,16.235216,17.396055,-22.635904,22.784456,-32.050816,-9.290204,5.2930093,1.8689958
15,0.39548346400260925,-18.832059860229492,73.5204849243164,9.676972653885384,0.2749417540702837,-85.77594892282006,-17.555183,-15.288519,1.4544977,35.19688,-16.243574,1.804403,-1.3937546,-16.15144,7.2281795,80.23132,-6.858528,-0.44521952,-2.715732,-7.2878113,12.698735,19.992365,19.842934,-4.28241,-29.26036,14.380493,8.798553,15.784428,18.672543,-21.359497,21.780762,-30.529852,-12.1685,5.8365154,1.7529399
16,0.3404166102409363,-20.1101131439209,73.35993957519531,9.982774251233367,-0.021038225066475215,-86.32301793771451,-16.257854,-15.397417,1.9188415,35.785286,-17.616554,1.6833384,-3.450701,-17.007324,8.430536,82.99968,-8.228145,-1.7509449,-3.0114815,-7.6874366,13.068102,17.473673,20.192791,-4.4343762,-27.475784,15.994607,9.437592,14.824903,19.768732,-20.002577,20.863384,-28.927544,-15.895895,6.458292,1.794999
17,0.2931438386440277,-21.417335510253906,73.24211120605469,10.113448863686465,-0.30122384535311036,-86.97754870177405,-14.819925,-15.31873,2.3144944,36.21635,-19.042402,1.6639638,-5.498975,-17.444876,9.711784,85.289566,-9.228504,-2.5595458,-3.2601805,-7.9414015,13.372391,15.002047,20.415445,-4.4999676,-25.64284,18.08583,10.607295,13.028717,20.717419,-18.626583,20.04459,-27.260656,-21.294651,7.274099,2.0073452
18,0.27804136276245117,-22.711589813232422,73.16375732421875,10.085553425588559,-0.5591643801397739,-87.7479691663042,-13.173655,-15.024206,2.6687376,36.327793,-20.40666,1.6479793,-7.5892053,-17.473738,11.092924,87.18551,-9.952416,-3.0637834,-3.4726267,-8.03931,13.635733,12.516685,20.499525,-4.4897885,-23.692053,20.680128,12.100794,10.519479,21.571518,-17.25412,19.272688,-25.495714,-28.050251,8.234177,2.3837483
19,0.2718813419342041,-23.99827766418457,73.13070678710938,9.958974720586111,-0.7626979350258327,-88.53636450005206,-11.406766,-14.635691,2.955903,36.10355,-21.574696,1.6340612,-9.6939335,-17.200773,12.440967,88.69092,-10.499134,-3.3642187,-3.7205708,-8.055393,13.798219,10.130336,20.459934,-4.425166,-21.703032,23.566633,13.455594,7.783895,22.345188,-15.931889,18.556568,-23.81482,-34.56544,9.04344,2.9245126
20,0.27534061670303345,-25.286161422729492,73.1446533203125,9.795204303945116,-0.8773604525885446,-89.24420328418111,-9.611552,-14.271482,3.1443505,35.53034,-22.412296,1.624,-11.789342,-16.735758,13.633461,89.80379,-10.969605,-3.5603037,-4.0714397,-8.066637,13.805728,7.9660473,20.324797,-4.3331885,-19.781158,26.454758,14.281025,5.37782,23.076735,-14.720749,17.90639,-22.436655,-39.207634,9.444852,3.5236232
21,0.2564607560634613,-26.587026596069336,73.21598815917969,9.62263596187547,-0.8747093546652337,-89.87793833118184,-7.7815537,-13.968956,3.2371247,34.50895,-22.906963,1.6178112,-13.928826,-16.037481,14.744979,90.539764,-11.347556,-3.611288,-4.5292974,-8.112809,13.614781,6.0543494,20.084888,-4.172873,-17.86686,29.364748,14.4628105,3.3589542,23.831022,-13.654895,17.290081,-21.49699,-41.41871,9.316018,4.215906
22,0.2360105961561203,-27.89882469177246,73.35116577148438,9.405227551323513,-0.781419649939609,-90.47739263465398,-5.881691,-13.649929,3.24662,33.085167,-23.125963,1.6066107,-16.081718,-15.084619,15.782096,90.88886,-11.589366,-3.4841168,-5.0712256,-8.134191,13.271099,4.3236017,19.731113,-3.947313,-15.940612,32.36547,14.222363,1.515165,24.612719,-12.741997,16.722536,-20.913029,-42.0832,8.852701,4.972639
23,0.18605223298072815,-29.218212127685547,73.55997467041016,9.101821422487028,-0.6437119685450208,-90.99492298344697,-3.9633946,-13.263941,3.153236,31.463873,-23.054705,1.5775245,-18.120317,-14.039495,16.543573,90.806885,-11.756935,-3.2919827,-5.711646,-8.062912,12.857678,2.7490025,19.306099,-3.7620757,-14.165534,35.196964,13.769273,0.037005983,25.380812,-11.997039,16.276495,-20.585487,-41.750183,8.317358,5.5706644
24,0.12863697111606598,-30.55803108215332,73.82289123535156,8.67418601558893,-0.5074175732036958,-91.38421400026161,-2.082606,-12.757532,2.9398112,29.854094,-22.681274,1.5179504,-19.930958,-13.069468,16.837828,90.25153,-11.913545,-3.1488502,-6.45538,-7.8431134,12.461878,1.3167902,18.879667,-3.7274654,-12.718925,37.599686,13.351802,-0.9032373,26.10335,-11.435963,16.017168,-20.424261,-40.966564,7.954711,5.778063
25,0.06630166620016098,-31.903066635131836,74.13766479492188,8.086876261302038,-0.40122765331565563,-91.60697912840908,-0.22328323,-12.105913,2.5540245,28.275133,-22.001518,1.438627,-21.463705,-12.213084,16.563955,89.16709,-12.08249,-3.047414,-7.3334737,-7.462988,12.118472,0.05259251,18.494242,-3.869758,-11.646044,39.59524,13.046655,-1.146748,26.758362,-11.078539,15.992698,-20.456366,-39.546684,7.8260517,5.461823
26,0.003225481603294611,-33.27322769165039,74.50801849365234,7.37731463407343,-0.294824631026398,-91.69845283411385,1.612819,-11.333433,2.031478,26.650032,-21.034426,1.3388026,-22.78674,-11.409558,15.852636,87.581764,-12.232642,-2.930944,-8.333005,-6.9682155,11.784855,-1.0249548,18.143484,-4.131221,-10.870219,41.269547,12.791591,-0.8194003,27.370972,-10.921246,16.160545,-20.714294,-37.29604,7.7841716,4.771724
27,-0.07844336330890656,-34.65105056762695,74.91410064697266,6.603467077655027,-0.14609955840568348,-91.7250805386437,3.3447995,-10.475606,1.4850088,25.043728,-19.802351,1.196903,-23.963102,-10.664146,14.858092,85.58004,-12.344283,-2.835059,-9.383757,-6.388285,11.4322,-1.9473598,17.820333,-4.5018725,-10.373295,42.470993,12.618504,-0.19515525,27.975756,-10.928751,16.44493,-21.10342,-34.75908,7.750357,3.8854647
28,-0.16196444630622864,-36.06633758544922,75.3519058227539,5.8297223036267365,0.08604790813549587,-91.7537129604175,4.9018054,-9.570404,1.0193139,23.519405,-18.324148,0.99574023,-25.05256,-9.974421,13.731168,83.24425,-12.396937,-2.7960749,-10.400283,-5.754121,11.029391,-2.762003,17.522156,-4.98562,-10.126151,43.046303,12.538123,0.4534097,28.607502,-11.046637,16.759932,-21.528091,-32.492626,7.6684914,2.98744
29,-0.2656792402267456,-37.50091552734375,75.81478118896484,5.041096139094454,0.41126402710884513,-91.78771847251994,6.3088965,-8.603357,0.61623764,22.04036,-16.557144,0.7267532,-26.058544,-9.364907,12.408085,80.554756,-12.41677,-2.8721445,-11.359428,-5.056887,10.56644,-3.476276,17.24923,-5.6096506,-10.157711,42.84786,12.608592,1.1430522,29.25048,-11.245124,17.109306,-21.959745,-30.604765,7.524183,2.0722659
30,-0.3786424994468689,-38.95283508300781,76.29022216796875,4.220748177618322,0.8067819581088367,-91.80254556558992,7.5774355,-7.5750065,0.22592488,20.621365,-14.520293,0.40730473,-26.927996,-8.810688,10.842669,77.47301,-12.406714,-3.0000865,-12.281644,-4.292932,10.061261,-4.077464,17.005089,-6.3806677,-10.45656,41.994953,12.790304,1.9892199,29.876007,-11.518306,17.515173,-22.417154,-28.830841,7.3366523,1.0689224
31,-0.5137956738471985,-40.3857307434082,76.76394653320312,3.418154236403296,1.2647210149366748,-91.82154363993874,8.644252,-6.5537753,-0.105786845,19.371824,-12.319363,0.060324162,-27.648838,-8.237223,9.212589,74.0484,-12.312447,-3.0523522,-13.145629,-3.4984825,9.520437,-4.5878954,16.796843,-7.2742844,-10.933631,40.73408,12.941205,2.8667393,30.506899,-11.841031,17.920902,-22.889898,-27.1682,7.129477,0.06216491
32,-0.6361443400382996,-41.81085968017578,77.22603607177734,2.6821261507476515,1.7781773894845396,-91.86449493190968,9.463709,-5.601619,-0.33774403,18.378822,-10.046661,-0.2975898,-28.229414,-7.5850554,7.7031064,70.32664,-12.074674,-2.9234297,-13.927126,-2.7109807,8.945872,-5.039844,16.63402,-8.275211,-11.492639,39.318783,12.931325,3.642516,31.166962,-12.176205,18.26447,-23.3614,-25.618982,6.930232,-0.862322
33,-0.7776370048522949,-43.27000045776367,77.68760681152344,1.9883804243124985,2.4058580982500555,-91.9357440571936,9.96915,-4.684327,-0.46085125,17.654455,-7.6441593,-0.6709708,-28.745895,-6.843847,6.2985253,66.25025,-11.648443,-2.6410177,-14.613368,-1.8956649,8.285832,-5.4609685,16.52981,-9.424625,-12.101758,37.684605,12.757921,4.3459563,31.858067,-12.49794,18.536327,-23.808306,-24.174185,6.7413764,-1.7212679
34,-0.9095625281333923,-44.73139190673828,78.13080596923828,1.3218062216887176,3.1326008866214323,-92.0239601735505,10.227707,-3.778636,-0.5262068,17.142708,-5.08628,-1.0860461,-29.171364,-6.04483,4.931319,61.793804,-11.064006,-2.2509532,-15.203932,-1.0546944,7.550134,-5.840842,16.490377,-10.73306,-12.803246,35.74253,12.474993,5.018959,32.562237,-12.797858,18.757729,-24.228733,-22.84657,6.5542297,-2.5431495
35,-1.050239086151123,-46.192161560058594,78.54888916015625,0.7413806572932877,3.842003745361841,-92.1185594741741,10.40483,-2.963427,-0.57503706,16.794638,-2.4903662,-1.5536383,-29.379839,-5.210018,3.7212417,57.04206,-10.369006,-1.699121,-15.703376,-0.2791906,6.828714,-6.164233,16.511496,-12.136073,-13.604675,33.714684,12.053257,5.5405517,33.27445,-13.067231,18.914545,-24.640219,-21.670912,6.3871126,-3.261657
36,-1.195544958114624,-47.66362762451172,78.93843078613281,0.3070746521648318,4.417247398249857,-92.20646689590903,10.65813,-2.3282027,-0.63218766,16.553741,0.03298165,-2.0689778,-29.256744,-4.3746834,2.7978623,52.084377,-9.619638,-0.94643664,-16.122757,0.3396533,6.210507,-6.420547,16.582615,-13.565966,-14.513982,31.824308,11.475066,5.789792,33.98855,-13.298615,18.993542,-25.06003,-20.682384,6.262064,-3.8112009
37,-1.3347045183181763,-49.15047836303711,79.29214477539062,0.03592215665947247,4.831828609792781,-92.27141627565186,11.001026,-1.9142184,-0.72010064,16.408085,2.5354986,-2.590853,-28.71067,-3.532534,2.2831504,46.729794,-8.786357,0.07778803,-16.482643,0.7888965,5.710115,-6.6304474,16.706411,-15.051899,-15.542379,30.062922,10.738586,5.735036,34.72999,-13.488531,18.973152,-25.498173,-19.922077,6.1979094,-4.1612515
38,-1.4670789241790771,-50.65516662597656,79.60860443115234,-0.09282334909578539,5.146648890933975,-92.31282535409726,11.384168,-1.6872118,-0.82432646,16.320187,5.0888453,-3.1398246,-27.820286,-2.7358468,2.1103685,40.9592,-7.8524804,1.2818584,-16.781698,1.097838,5.273632,-6.814423,16.885403,-16.61697,-16.669725,28.331625,9.871841,5.429799,35.494003,-13.634642,18.864128,-25.942848,-19.360804,6.1893716,-4.353378
39,-1.588863730430603,-52.162628173828125,79.8725814819336,-0.09894813987970147,5.375697293095191,-92.33877436687978,11.842358,-1.6057798,-0.9058502,16.237259,7.594796,-3.7819676,-26.71989,-2.0815575,2.0948627,35.109512,-6.871294,2.4693668,-17.004738,1.2625597,4.8957233,-6.960091,17.1036,-18.180695,-17.862785,26.71492,8.906571,4.8851647,36.226837,-13.735819,18.701653,-26.37849,-18.928951,6.2218747,-4.4294896
40,-1.702250361442566,-53.69419479370117,80.08831024169922,0.00026261472656503545,5.533634323992131,-92.35812153238753,12.393499,-1.6307352,-0.9249096,16.141264,9.936404,-4.5700574,-25.563437,-1.6299212,2.035667,29.559124,-5.9015336,3.4742408,-17.139479,1.2814872,4.570055,-7.0490847,17.336771,-19.6568,-19.081373,25.301231,7.868192,4.1147404,36.873966,-13.795336,18.5241,-26.78705,-18.55817,6.279462,-4.431792
41,-1.8130087852478027,-55.20722961425781,80.24028015136719,0.2586135151272627,5.610069729127874,-92.37254790217106,13.11209,-1.7970487,-0.8389037,15.909979,12.161502,-5.5957046,-24.348873,-1.4122171,1.9311844,24.27144,-4.936199,4.299122,-17.170408,1.0986747,4.288158,-7.1166353,17.57593,-21.053951,-20.312374,24.187109,6.701233,3.0370913,37.467297,-13.814628,18.318241,-27.195066,-18.253939,6.368574,-4.3366747
42,-1.935464859008789,-56.7059440612793,80.32437896728516,0.6934083274432228,5.596468011814856,-92.36451060600875,13.965347,-2.1380527,-0.6940674,15.597941,14.318939,-6.7757015,-23.002182,-1.4241025,1.8577516,19.078768,-3.9497786,5.0224915,-17.123854,0.70789146,4.0513315,-7.171629,17.82154,-22.406364,-21.560843,23.28661,5.4166555,1.6746714,38.028576,-13.793962,18.073809,-27.609001,-18.045061,6.496583,-4.134766
43,-2.0607268810272217,-58.1650390625,80.34626007080078,1.219035022469361,5.514774882730342,-92.32283712025793,14.7944145,-2.5873623,-0.5627532,15.479703,16.276545,-7.89381,-21.623058,-1.604869,1.7160326,14.270335,-2.9975913,5.6262417,-17.04118,0.1989159,3.8668747,-7.1465898,18.062231,-23.665613,-22.828773,22.425941,4.134398,0.19760855,38.486034,-13.742219,17.828796,-27.9758,-17.898188,6.6477003,-3.8886313
44,-2.195944309234619,-59.62842559814453,80.32014465332031,1.7186291617795881,5.395554472716578,-92.25540919257966,15.411967,-3.0385342,-0.48230562,15.873201,17.867804,-8.741163,-20.304409,-1.8297982,1.4071985,10.110099,-2.114769,6.1033397,-16.946602,-0.30329573,3.742307,-6.971628,18.28145,-24.778814,-24.116354,21.44959,2.9747849,-1.2291569,38.76329,-13.678828,17.620438,-28.241339,-17.778286,6.806216,-3.6624954
45,-2.3208179473876953,-61.101226806640625,80.25557708740234,2.126513901435904,5.278125853413957,-92.17005494794127,15.694107,-3.4095736,-0.42455325,16.963535,19.077053,-9.275056,-19.174923,-1.9783108,0.8753648,6.8069324,-1.3589213,6.443013,-16.84354,-0.72075063,3.658252,-6.628842,18.465954,-25.715214,-25.443142,20.432533,1.9097246,-2.6577196,38.8271,-13.615438,17.461403,-28.38137,-17.668194,6.974164,-3.4652328
46,-2.4523816108703613,-62.57151794433594,80.15083312988281,2.460436460683263,5.152688938589997,-92.09587820406425,15.709067,-3.6797626,-0.3184514,18.639412,19.931202,-9.579781,-19.358435,-2.022456,0.21971436,6.6945486,-2.0160081,6.6618943,-16.690733,-1.071402,3.6166084,-6.1598644,18.61214,-26.503843,-26.789087,19.42569,0.893337,-4.14509,38.715454,-13.557748,17.330782,-28.42139,-17.58327,7.158216,-3.2692907
47,-2.5868091583251953,-64.02195739746094,79.9997329711914,2.7114866757251086,4.982689864713741,-92.07918402465779,15.569609,-3.8258836,-0.13001195,20.736925,20.33439,-9.660001,-19.330019,-2.0001488,-0.53235507,6.6300097,-2.4781911,6.8093085,-16.440765,-1.3489983,3.6563845,-5.581511,18.71503,-27.176548,-28.093138,18.253763,0.022965752,-5.538917,38.457,-13.520851,17.216854,-28.382395,-17.534136,7.350037,-3.0866687
48,-2.713764190673828,-65.4690170288086,79.79490661621094,2.881732145379601,4.729388186937085,-92.15855681283996,15.400771,-3.858249,0.15202262,23.074396,20.201208,-9.548747,-19.039368,-1.9214525,-1.3070521,6.605462,-2.7938437,6.9233804,-16.077028,-1.5566316,3.813248,-4.896519,18.757269,-27.731829,-29.292255,16.753357,-0.6058101,-6.702203,38.057583,-13.525839,17.131271,-28.265757,-17.537079,7.54402,-2.9331145
49,-2.846198320388794,-66.91060638427734,79.5420913696289,3.0425724544380537,4.345063594057608,-92.34066692378782,15.295673,-3.9056993,0.5037886,25.598637,19.419586,-9.196068,-18.397402,-1.8670663,-2.1573977,6.61377,-2.9749098,7.2771826,-15.548207,-1.7737905,4.1205645,-4.0899,18.772167,-28.223803,-30.428997,14.711182,-0.91244954,-7.5748243,37.574417,-13.557648,17.04242,-28.114632,-17.618034,7.7306657,-2.8162992
50,-2.971709966659546,-68.33728790283203,79.23422241210938,3.162720404140557,3.8651884605827838,-92.60702595032947,15.173077,-3.924798,0.90610874,28.401997,18.059574,-8.632162,-17.44888,-1.7810656,-3.0999684,6.652812,-2.9894006,7.7584147,-14.839431,-1.9402596,4.5642595,-3.170078,18.766396,-28.696749,-31.54258,12.283864,-0.9614591,-8.192816,37.075935,-13.660907,16.908144,-28.015297,-17.727064,7.9135566,-2.7300541
51,-3.085759162902832,-69.76836395263672,78.87721252441406,3.094770443325805,3.3681923126267015,-92.94667910973186,14.923529,-3.6935399,1.3622323,31.483292,16.335064,-8.02619,-16.34364,-1.4766662,-4.004943,6.733286,-2.8376791,7.825257,-14.077038,-1.9067757,5.092394,-2.1218953,18.717325,-29.011873,-32.574055,9.847025,-0.8913317,-8.621868,36.37788,-13.819468,16.833055,-27.807434,-17.841215,8.106435,-2.6538806
52,-3.1803290843963623,-71.2042007446289,78.47402954101562,2.7007676031054766,2.924339390563976,-93.33772328700094,14.468471,-2.9964168,1.8752943,34.800182,14.487883,-7.53649,-15.22968,-0.7759097,-4.7338443,6.865267,-2.5242958,6.944859,-13.267487,-1.5228261,5.66554,-1.0081075,18.632114,-29.227491,-33.466305,7.766788,-0.82554644,-8.853652,35.495472,-14.035642,16.782999,-27.520697,-17.888361,8.312165,-2.5554292
53,-3.2869350910186768,-72.62379455566406,78.08064270019531,1.8666131654767182,2.545450213629314,-93.8038117359576,13.839039,-1.7123654,2.4485266,38.3343,12.522526,-7.227034,-15.6477785,0.34476998,-5.1823583,10.289327,-3.5360703,4.459383,-12.395845,-0.6731138,6.282684,0.1832496,18.515348,-29.356083,-34.26986,5.9813914,-0.74370074,-8.854928,34.41132,-14.298727,16.76045,-27.155981,-17.828539,8.531104,-2.4122138
54,-3.403216600418091,-74.04083251953125,77.66645812988281,0.8352005664416375,2.152187119839855,-94.29935085732986,13.188863,-0.16327636,3.0319874,41.9436,10.432054,-6.990247,-16.76302,1.6746439,-5.488038,15.403302,-5.029045,0.8809613,-11.494346,0.38744095,6.945889,1.4661114,18.370037,-29.399553,-34.994545,4.341752,-0.6134909,-8.630719,33.177914,-14.605512,16.77352,-26.752092,-17.703087,8.762203,-2.2452917
55,-3.5671956539154053,-75.41213989257812,77.22747039794922,-0.08663280508072556,1.7041271941622191,-94.72309547041573,12.555015,1.3229482,3.5808837,45.49408,8.384435,-6.733654,-17.747221,2.924269,-5.756066,20.436644,-6.4884734,-2.6043067,-10.646968,1.3358063,7.6267314,2.809061,18.204054,-29.351097,-35.533768,3.0826097,-0.5426011,-8.257599,31.83894,-14.94892,16.827417,-26.326265,-17.57698,9.006139,-2.0873318
56,-3.735694408416748,-76.76837158203125,76.73535919189453,-0.7928702015332727,1.205468389074564,-95.02119992097727,11.862894,2.6651502,4.0667734,49.01187,6.4470387,-6.4030457,-18.282885,3.9292002,-6.0438967,24.705198,-8.092689,-4.895537,-9.894174,2.0597014,8.315943,4.1790395,18.020685,-29.201263,-35.778606,2.4419205,-0.6334623,-7.8081207,30.40172,-15.321476,16.91858,-25.859602,-17.514364,9.260826,-1.9689125
57,-3.8865461349487305,-78.09375,76.16875457763672,-1.3723782752131597,0.6571427829953573,-95.22840464807334,11.064687,4.0476704,4.530872,52.680424,4.551511,-6.084108,-18.456926,4.724231,-6.3191357,28.493622,-10.270158,-5.564271,-9.209703,2.6387901,9.033031,5.5824647,17.819525,-28.912636,-35.70398,2.3899932,-0.98185116,-7.32799,28.845362,-15.722782,17.051884,-25.338068,-17.477589,9.497871,-1.9001013
58,-4.030191421508789,-79.41340637207031,75.58717346191406,-1.9511864480846421,0.08634830876225041,-95.38798841874623,10.150177,5.584777,4.9770365,56.52167,2.629644,-5.7894106,-18.523867,5.373187,-6.541275,32.33685,-13.007832,-5.3038797,-8.563336,3.212703,9.781205,7.039341,17.594557,-28.496517,-35.380127,2.8321793,-1.5050253,-6.7603507,27.147411,-16.151604,17.227598,-24.755503,-17.44823,9.726419,-1.8642853
59,-4.178570747375488,-80.71900177001953,75.06105041503906,-2.5155802054058634,-0.4564296895314806,-95.46668619149452,9.0769005,7.1379204,5.3076434,60.327744,0.74162513,-5.3592153,-18.400343,5.8263993,-6.74981,35.879704,-15.8546715,-4.705378,-7.971365,3.7927752,10.528834,8.520922,17.33463,-28.02236,-34.82755,3.9113512,-2.0265856,-6.0204144,25.318005,-16.597189,17.423998,-24.101614,-17.522879,9.9988,-1.8480668
60,-4.339120388031006,-82.00962829589844,74.64010620117188,-3.0211281903469906,-0.9277053376501426,-95.42148925727464,7.802642,8.521224,5.4240284,63.87046,-1.0409021,-4.6276374,-17.93163,6.1394362,-6.9876227,38.585808,-18.287088,-4.323863,-7.4446564,4.3533735,11.24359,9.9872465,17.027727,-27.571062,-34.04846,5.773384,-2.3578951,-5.026996,23.379942,-17.0405,17.61352,-23.371752,-17.802118,10.367657,-1.834432
61,-4.466753959655762,-83.28702545166016,74.32154083251953,-3.4660781082347603,-1.3363526747664267,-95.22653372616247,6.2780004,9.711272,5.2834005,67.1678,-2.7101378,-3.3898315,-16.951357,6.40617,-7.307278,40.115482,-20.145817,-4.243635,-6.987892,4.891048,11.968876,11.436788,16.64712,-27.169367,-32.913864,8.736943,-2.4106905,-3.571144,21.258852,-17.47898,17.791996,-22.481853,-18.301926,10.833586,-1.8910637
62,-4.542494773864746,-84.5566635131836,74.08070373535156,-3.866384911336142,-1.697653003124491,-94.90766637212451,4.517604,10.771983,4.9266524,70.30963,-4.3030715,-1.7832072,-15.569166,6.653468,-7.7136745,40.760292,-21.681936,-4.1879272,-6.5783963,5.4142327,12.699647,12.858694,16.184774,-26.78549,-31.423565,12.632457,-2.2063067,-1.7761859,18.991594,-17.909214,17.957914,-21.476606,-18.976957,11.3741665,-1.9973483
63,-4.593569755554199,-85.83232879638672,73.89977264404297,-4.195722663415927,-1.9800263087962424,-94.49921819612253,2.5708518,11.628666,4.399504,73.179985,-5.7985244,-0.16398457,-14.014915,6.875005,-8.158776,40.873566,-22.975567,-4.1562533,-6.183451,5.8984594,13.333135,14.212196,15.6761265,-26.41572,-29.795134,16.871105,-1.766474,-0.06668937,16.757511,-18.301477,18.085863,-20.530378,-19.843086,12.004079,-1.9958804
64,-4.649248123168945,-87.12980651855469,73.77339172363281,-4.427566998202054,-2.153501525928591,-94.03611690700889,0.495482,12.218363,3.7711048,75.66716,-7.1692204,1.1140431,-12.509795,7.027854,-8.579015,40.81851,-24.112432,-4.1228843,-5.767965,6.3057437,13.770011,15.469119,15.187333,-26.058985,-28.262903,20.876978,-1.2064759,1.1590432,14.711062,-18.614254,18.147312,-19.786715,-20.930359,12.729777,-1.7176359
65,-4.738269329071045,-88.4395980834961,73.69062042236328,-4.549261110064082,-2.206017535637294,-93.47035034776927,-1.7451675,12.519541,3.022652,77.78659,-8.387314,1.9403529,-11.069424,7.0564437,-8.9875965,40.648266,-25.14239,-4.0649343,-5.361609,6.5957284,13.982669,16.6727,14.773051,-25.746609,-26.875546,24.823624,-0.49413854,1.9174771,12.815981,-18.814972,18.141266,-19.212536,-22.256254,13.61862,-1.0930697
66,-4.849525451660156,-89.70777130126953,73.64464569091797,-4.574591744526975,-2.1569271373517878,-92.8038505337622,-4.1600924,12.55679,2.1711204,79.58882,-9.463333,2.511463,-9.585828,6.97402,-9.403028,40.191494,-26.01453,-3.9889994,-4.958634,6.77087,14.031534,17.858723,14.454836,-25.467531,-25.566046,28.911625,0.3641173,2.3712106,10.984008,-18.898699,18.069305,-18.712471,-23.835703,14.621853,-0.18950817
67,-4.957320690155029,-90.98127746582031,73.66169738769531,-4.515113619633889,-2.0245939073234953,-92.14440656936443,-6.635348,12.343735,1.3419222,81.00054,-10.40774,2.9209094,-8.080424,6.8230877,-9.764857,39.467827,-26.662943,-3.8953357,-4.483176,6.856752,13.952152,19.000496,14.249274,-25.148228,-24.41337,32.62431,1.1092721,2.3998313,9.273441,-18.8707,17.925053,-18.32458,-25.689054,15.565509,0.9513456
68,-5.079735279083252,-92.2481689453125,73.72774505615234,-4.378231962163417,-1.82685103141288,-91.59955828459476,-9.056953,11.904066,0.65318716,81.94608,-11.231924,3.2592204,-6.577794,6.649247,-10.013159,38.500008,-27.024044,-3.7918441,-3.863971,6.881382,13.781482,20.079107,14.169488,-24.711655,-23.508148,35.43741,1.4703635,1.922524,7.743986,-18.744133,17.71177,-18.094233,-27.825415,16.277418,2.2745924
69,-5.193551063537598,-93.50594329833984,73.85162353515625,-4.162559368193242,-1.5404251566354297,-91.19190111020015,-11.468724,11.19927,0.10306198,82.420555,-11.94186,3.5113213,-5.088978,6.469155,-10.1322565,37.2383,-27.116295,-3.7057235,-3.0683486,6.859648,13.498312,21.108612,14.230778,-24.090546,-22.932098,37.122906,1.2350578,0.74975383,6.4443064,-18.509792,17.377596,-18.077642,-30.457611,16.678785,3.9354806
70,-5.281634330749512,-94.78121185302734,74.03772735595703,-3.8664857647182824,-1.1680008030422302,-90.86570427081867,-13.889476,10.250301,-0.3395746,82.44778,-12.523772,3.6398127,-3.600429,6.2543488,-10.157793,35.692642,-26.963669,-3.6215684,-2.1427312,6.767512,13.10158,22.131609,14.438261,-23.330757,-22.661573,37.970757,0.57124346,-0.98126197,5.3076534,-18.163527,16.95095,-18.222479,-33.50308,16.817087,5.8938284
71,-5.355034828186035,-96.08631896972656,74.2961196899414,-3.499622455556297,-0.7642758011365086,-90.61059811648697,-16.178833,9.180469,-0.61787856,82.003654,-12.964969,3.7007265,-2.102302,5.9842963,-10.1052475,33.978466,-26.514603,-3.4924493,-1.140484,6.5815287,12.66008,23.1675,14.777903,-22.524487,-22.618813,38.2373,-0.19834846,-2.859803,4.2389054,-17.740017,16.558641,-18.42948,-36.504753,16.75804,7.780427
72,-5.414803504943848,-97.40502166748047,74.60442352294922,-3.07177904384009,-0.382898824252995,-90.41584768320428,-18.198135,8.109947,-0.6832088,81.06119,-13.255721,3.7490404,-0.58613116,5.637377,-9.988474,32.212536,-25.71848,-3.2753074,-0.121330835,6.287873,12.243795,24.219837,15.22274,-21.761484,-22.707699,38.207943,-0.75709003,-4.4775515,3.171729,-17.299473,16.327854,-18.628506,-39.00402,16.634972,9.231093
73,-5.4649481773376465,-98.74812316894531,74.965576171875,-2.5670083014239347,-0.052085764372271366,-90.2993434213802,-19.889843,7.0489297,-0.47962204,79.56948,-13.3926935,3.8059716,0.98881924,5.19387,-9.776514,30.37929,-24.54174,-2.9582746,0.9206747,5.887126,11.889477,25.258554,15.756692,-21.042784,-22.93184,37.784756,-1.0312343,-5.8591385,2.1370423,-16.885065,16.274254,-18.870193,-41.045406,16.520672,10.20592
74,-5.508131980895996,-100.09676361083984,75.36749267578125,-1.9927173168423562,0.26217951830301217,-90.25788141659953,-21.33137,5.957042,-0.061650787,77.54755,-13.387437,3.8359792,2.594552,4.6710134,-9.471097,28.450552,-23.029205,-2.5693574,2.001359,5.4083705,11.563905,26.287197,16.369606,-20.326832,-23.319967,36.886093,-1.1579024,-7.1897216,1.1971668,-16.50417,16.33966,-19.220623,-42.79451,16.387962,10.866286
75,-5.550909996032715,-101.47477722167969,75.80207061767578,-1.3914055892992765,0.6000280641880306,-90.24883454903728,-22.588001,4.864436,0.45207834,75.08139,-13.250837,3.8061926,4.1380367,4.1041756,-9.130209,26.523485,-21.247765,-2.1277995,3.0730126,4.879237,11.227677,27.341394,17.03888,-19.637646,-23.79938,35.845898,-1.1684161,-8.291213,0.3380062,-16.163967,16.538729,-19.628647,-43.986755,16.261595,11.166909
76,-5.590204238891602,-102.87022399902344,76.26012420654297,-0.8035824780583902,1.0008319048668957,-90.22961311739267,-23.722101,3.7951262,0.94727015,72.25424,-12.990258,3.684319,5.5287895,3.5301006,-8.808465,24.694916,-19.261728,-1.6519233,4.0845695,4.3258257,10.837863,28.444637,17.73295,-18.997847,-24.282621,34.998154,-1.1170722,-8.985601,-0.45556864,-15.870468,16.889212,-20.043535,-44.357292,16.163635,11.063527
77,-5.617167949676514,-104.28634643554688,76.72516632080078,-0.21370864351589608,1.4951922310084365,-90.1792754616565,-24.748484,2.7234144,1.4450407,69.01811,-12.586079,3.44445,6.7596316,2.929142,-8.498379,22.921997,-17.01628,-1.1273468,5.0183406,3.7341337,10.362187,29.561937,18.436743,-18.4323,-24.718275,34.452385,-1.0109355,-9.189801,-1.1789895,-15.630998,17.415707,-20.44304,-43.68579,16.125095,10.432277
78,-5.649080753326416,-105.72018432617188,77.19215393066406,0.3855030738688716,2.053129562945984,-90.12000814291203,-25.61478,1.6373421,1.9800363,65.329216,-12.033757,3.0997155,7.868923,2.3002002,-8.160169,21.197113,-14.514282,-0.5505572,5.891668,3.1092029,9.830877,30.67294,19.146193,-17.921873,-25.135227,34.032722,-0.8411814,-9.012773,-1.8168639,-15.449769,18.107122,-20.863953,-42.162342,16.112968,9.335813
79,-5.676314830780029,-107.1491928100586,77.64462280273438,0.9333547726614215,2.624319974498743,-90.07625226122067,-26.289307,0.5818113,2.4588478,61.282646,-11.365503,2.6831822,8.853793,1.7098771,-7.800636,19.633026,-11.893417,0.047205877,6.709164,2.503104,9.290117,31.816286,19.843132,-17.422441,-25.561161,33.643982,-0.64661956,-8.566643,-2.3733406,-15.324774,18.925287,-21.326874,-40.138203,16.046888,8.011147
80,-5.685848236083984,-108.5752944946289,78.08396911621094,1.3741374290605612,3.1602219972143373,-90.07584401991531,-26.747545,-0.39114103,2.7875197,56.972717,-10.615625,2.2375164,9.721655,1.2221084,-7.431884,18.314789,-9.27309,0.6369222,7.4780817,1.9644854,8.780962,33.02648,20.499851,-16.887814,-26.012112,33.194874,-0.46479973,-7.964531,-2.8609257,-15.2509165,19.834337,-21.848997,-37.970417,15.867034,6.7003508
81,-5.697411060333252,-110.01055145263672,78.49760437011719,1.723833768242378,3.6891993552130873,-90.14084224305994,-26.989885,-1.2933162,2.969797,52.28385,-9.74533,1.810943,10.411038,0.824489,-7.0162907,17.28131,-6.613988,1.2009518,8.212546,1.4687978,8.278718,34.3132,21.096102,-16.310526,-26.46927,32.688477,-0.31593472,-7.1514044,-3.3050807,-15.230752,20.859968,-22.404547,-35.522865,15.564694,5.345476
82,-5.723423480987549,-111.46526336669922,78.88829803466797,2.001816777569657,4.224498279390232,-90.25768966052075,-27.011967,-2.1379507,3.037106,47.180374,-8.737737,1.3762442,10.958722,0.49477753,-6.5471416,16.44555,-3.8603902,1.774359,8.902502,1.0083629,7.7693577,35.64586,21.626118,-15.70959,-26.914879,32.171883,-0.18442534,-6.099722,-3.700927,-15.266746,22.017084,-22.986315,-32.691452,15.136936,3.8715658
83,-5.7626800537109375,-112.95354461669922,79.24762725830078,2.1532034671931206,4.695587539648549,-90.40437377231737,-26.795197,-2.8579872,2.9344022,41.879013,-7.6665335,0.87236184,11.508647,0.29060426,-6.092888,15.7141285,-1.0911999,2.400345,9.525607,0.6600351,7.302518,36.997772,22.086685,-15.078501,-27.369228,31.619858,-0.051995568,-4.9633574,-4.02612,-15.352663,23.25288,-23.620375,-29.884918,14.582791,2.4973278
84,-5.813501834869385,-114.44996643066406,79.56184387207031,2.119531573696932,5.0301025030410464,-90.55871190849741,-26.333477,-3.3777115,2.606828,36.61263,-6.611948,0.23998992,12.216331,0.28011206,-5.7281723,14.96278,1.6285033,3.1085923,10.061535,0.5047842,6.9248734,38.343807,22.478128,-14.411589,-27.85501,31.006792,0.10204544,-3.8949106,-4.261983,-15.4757,24.512527,-24.333311,-27.5074,13.938229,1.4335313
85,-5.862127304077148,-115.94717407226562,79.83074951171875,1.8435404121583387,5.184966614843433,-90.7441379854902,-25.539165,-3.6341803,1.9495037,31.237684,-5.544205,-0.62795234,13.188958,0.5315143,-5.4750237,14.0471115,4.382376,3.9208553,10.52722,0.59775627,6.654478,39.730396,22.799135,-13.696297,-28.391933,30.301102,0.2867357,-2.8841963,-4.4399705,-15.633035,25.823538,-25.124022,-25.639458,13.226273,0.7321476
86,-5.913649082183838,-117.4581298828125,80.05033111572266,1.3557809868907156,5.200777177004573,-90.97761586823522,-24.423891,-3.6239269,1.0263474,25.638964,-4.4109616,-1.656389,14.360014,1.0176957,-5.2717633,12.986238,7.2261357,4.8060746,10.940513,0.9017168,6.459222,41.160522,23.048414,-12.935608,-28.97187,29.524397,0.48773935,-1.8657295,-4.5766096,-15.825167,27.202965,-25.967113,-24.071264,12.456813,0.2813331
87,-5.978072166442871,-118.97837829589844,80.20762634277344,0.7332213540464468,5.132887507371627,-91.22891863030395,-23.161463,-3.3768585,0.052906107,20.146225,-3.2812133,-2.641577,15.614894,1.6559871,-5.0733676,11.916354,10.048113,5.705221,11.284967,1.3511745,6.3085656,42.54454,23.23157,-12.150425,-29.572634,28.731613,0.6952564,-0.9085537,-4.635493,-16.042522,28.57915,-26.857351,-22.767227,11.663388,0.036957286
88,-6.054665565490723,-120.49801635742188,80.30900573730469,0.06866312452670692,5.044767020006362,-91.46370622853122,-21.960922,-2.9727254,-0.744872,15.151647,-2.2498832,-3.3912132,16.761023,2.3349693,-4.853709,11.124715,12.657707,6.563589,11.542502,1.8600103,6.170757,43.787975,23.362583,-11.367015,-30.164904,27.976871,0.90365267,-0.081270956,-4.579141,-16.270306,29.876015,-27.78302,-21.695875,10.873874,-0.044070024
89,-6.126058101654053,-122.00003814697266,80.35479736328125,-0.6298295138004449,4.958552591963472,-91.66318097264187,-20.914,-2.430529,-1.3322121,10.757752,-1.3830478,-3.793463,17.768974,3.0158534,-4.7106113,10.637563,15.1129265,7.459606,11.688495,2.414414,6.025022,44.898895,23.44808,-10.585193,-30.757017,27.228039,1.1328542,0.6006729,-4.4227157,-16.499462,31.094763,-28.753288,-20.90983,10.091646,0.09092849
90,-6.192042350769043,-123.49302673339844,80.35456085205078,-1.3651208753148896,4.850537170975834,-91.82913798552954,-19.93422,-1.7799051,-1.7950959,6.7783847,-0.62294394,-3.9781969,18.650688,3.7069445,-4.6517963,10.474767,17.404406,8.392378,11.724769,3.0126667,5.8890824,45.90668,23.490923,-9.800674,-31.3468,26.468605,1.3833562,1.1764123,-4.1933656,-16.726723,32.265182,-29.752998,-20.399364,9.309485,0.43478572
91,-6.244953632354736,-124.97511291503906,80.3214111328125,-2.0510308529144905,4.718101841374606,-91.93465765926557,-20.59165,-1.2230759,-2.0818293,6.641344,-1.7052157,-4.1112113,19.325993,4.3571706,-4.565253,10.811095,19.279184,9.189309,11.649607,3.577047,5.7905536,46.744923,23.507038,-9.034866,-31.889666,25.775894,1.6233923,1.6576886,-3.8679812,-16.945204,33.354225,-30.724686,-20.047958,8.532217,0.85699093
92,-6.301807403564453,-126.4469985961914,80.24380493164062,-2.6188445942311724,4.557331041801015,-91.96417904196362,-21.040453,-0.80795443,-2.2462013,6.547989,-2.5367227,-4.365204,19.720003,4.9270835,-4.343686,11.814162,20.4903,9.670377,11.475494,4.042952,5.755796,47.35615,23.523998,-8.309225,-32.351635,25.225922,1.8231876,2.0565264,-3.4136937,-17.147089,34.322365,-31.623894,-19.742739,7.7636075,1.2314845
93,-6.363508224487305,-127.90245056152344,80.11786651611328,-3.071870798573341,4.377730895488785,-91.91968722829053,-21.26566,-0.5195209,-2.204915,6.486561,-3.1110873,-4.840211,19.774027,5.4593177,-3.8572023,13.588421,20.943026,9.730924,11.211605,4.4085755,5.7786055,47.730618,23.563482,-7.620924,-32.748993,24.834963,1.9877437,2.3363853,-2.8149192,-17.327269,35.15699,-32.451004,-19.571417,6.965383,1.554567
94,-6.428066730499268,-129.3644256591797,79.94246673583984,-3.4368418423229543,4.183753642443535,-91.79730281340301,-21.295628,-0.320145,-1.9948796,6.452531,-3.4650104,-5.4271154,19.556911,5.9445333,-3.2329323,15.991054,20.793697,9.473095,10.85043,4.6974254,5.8419986,47.88876,23.631975,-6.974074,-33.08277,24.560532,2.1364543,2.5087554,-2.0952122,-17.471992,35.86707,-33.207485,-19.556906,6.144561,1.884137
95,-6.488016128540039,-130.8235626220703,79.7090835571289,-3.679553328629013,3.9635974424822984,-91.58588972306329,-21.130713,-0.26287243,-1.7624228,6.4371953,-3.5677774,-5.977293,19.209719,6.267421,-2.729201,18.752817,20.20179,9.03048,10.378085,4.8711457,5.9681654,47.87294,23.742632,-6.3620367,-33.362194,24.377676,2.255632,2.6515732,-1.2541335,-17.598383,36.465076,-33.901806,-19.490732,5.378363,2.1802428
96,-6.551604747772217,-132.28509521484375,79.42628479003906,-3.7639749143199284,3.705995234977079,-91.27777038310263,-20.772682,-0.40503597,-1.6522238,6.4341493,-3.396647,-6.341624,18.849106,6.3079805,-2.5948129,21.653381,19.305857,8.541169,9.804034,4.896698,6.166768,47.677586,23.910255,-5.8173075,-33.546524,24.271461,2.336141,2.8495796,-0.29809064,-17.700375,36.937504,-34.510292,-19.171318,4.7428193,2.4208896
97,-6.614667892456055,-133.7349395751953,79.08391571044922,-3.7397179065519457,3.3704569012008214,-90.86811000248159,-20.166626,-0.71309173,-1.7697912,6.437027,-2.8731318,-6.7591753,18.573324,6.161802,-2.7921193,24.611961,18.077715,7.9760237,9.1249485,4.8232546,6.4607005,47.321068,24.149889,-5.3433514,-33.65404,24.25125,2.355719,3.1360142,0.8018113,-17.76819,37.28873,-35.036095,-18.48161,4.2417216,2.5981133
98,-6.674431800842285,-135.19557189941406,78.6908187866211,-3.607534943222961,2.9745079176851017,-90.36757184162236,-19.330652,-1.1866534,-2.015483,6.454207,-2.0445316,-7.2285886,18.308304,5.851858,-3.1946099,27.742472,16.46621,7.293501,8.353005,4.641554,6.8304806,46.794415,24.469797,-4.935316,-33.69397,24.315985,2.328997,3.466206,2.046789,-17.798643,37.5158,-35.48966,-17.553644,3.8402207,2.7293866
99,-6.740302085876465,-136.65159606933594,78.25509643554688,-3.243303061019345,2.589366755160107,-89.8016070727593,-18.377735,-1.9434422,-2.2150052,6.5029225,-1.0538476,-7.240437,17.941368,5.122046,-3.9041483,31.077993,14.593374,6.611642,7.518696,4.218085,7.2218103,46.058777,24.858488,-4.605303,-33.6192,24.43934,2.2995203,3.8035464,3.3713,-17.791668,37.607384,-35.84382,-16.557568,3.5577555,2.830143
100,-6.748315811157227,-138.0601806640625,77.86734008789062,-2.527948996664224,2.278380600056186,-89.2039597630788,-17.422554,-3.0909534,-2.1957276,6.60106,-0.02509312,-6.27749,17.391285,3.703229,-5.0092688,34.62808,12.595992,6.0377874,6.655313,3.4318638,7.578704,45.080772,25.291346,-4.3615065,-33.388252,24.59935,2.3094556,4.1088357,4.70392,-17.748514,37.55976,-36.067966,-15.661165,3.4143248,2.912861
101,-6.779804229736328,-139.47933959960938,77.45132446289062,-1.302152634364697,2.0730554297979893,-88.54636521922934,-17.180798,-4.8533235,-1.8295745,8.202636,0.49205375,-3.6323917,16.709984,1.2852827,-6.6909547,38.40314,10.466469,5.689489,5.7323937,2.124206,7.863037,43.848656,25.75301,-4.1997046,-33.013134,24.78827,2.3804204,4.3684072,6.029673,-17.668907,37.411217,-36.190224,-14.74981,3.4531898,2.9358702
102,-6.819192409515381,-140.89981079101562,76.9937744140625,0.21707640370628745,1.8853557162813477,-87.86791026917679,-18.67781,-7.0195684,-1.0497056,13.579068,-0.66048664,0.19395195,16.09273,-1.8228222,-8.763274,42.247265,8.238763,5.453129,4.7793217,0.5237636,8.115913,42.420876,26.23653,-4.112376,-32.550953,25.024534,2.4860024,4.6005535,7.384969,-17.551615,37.166023,-36.22264,-13.782542,3.6521885,2.9037488
103,-6.787930488586426,-142.27528381347656,76.54751586914062,1.6509778976149856,1.6308297903301001,-87.27866420883626,-19.952833,-9.049227,-0.13580967,18.623661,-1.7447889,3.9517987,15.581349,-5.0305696,-10.809477,46.012466,6.044542,5.09481,3.8924778,-0.97912323,8.398283,40.84431,26.72531,-4.1026444,-31.993776,25.32741,2.5943556,4.8134904,8.773851,-17.394732,36.769947,-36.10116,-13.036816,3.9332654,2.8956966
104,-6.744854927062988,-143.63626098632812,76.03458404541016,2.806371263382355,1.2781038387480719,-86.83921270887733,-20.732203,-10.685862,0.66221356,22.828793,-3.0051873,6.458018,15.051197,-7.9408193,-12.452298,49.70621,3.9077802,4.4265704,3.1214316,-2.1897008,8.759263,39.12353,27.200855,-4.1746745,-31.288439,25.717667,2.6712723,5.0143266,10.193536,-17.189184,36.17099,-35.755295,-12.791234,4.217155,2.9888973
105,-6.723349571228027,-144.97312927246094,75.47505950927734,3.7907111383538226,0.825469637282064,-86.52843565273753,-21.049555,-12.025996,1.2812055,26.38313,-4.8182664,7.2630024,14.386715,-10.73072,-13.67605,53.567516,1.7056456,3.3641753,2.4237156,-3.218381,9.218969,37.265064,27.663786,-4.3245606,-30.41335,26.122702,2.6918638,5.3159833,11.641024,-16.92141,35.32521,-35.10352,-13.012205,4.4605203,3.26798
106,-6.714414119720459,-146.32229614257812,74.94178771972656,4.759403114644075,0.3220248024577181,-86.29490568380994,-21.177725,-13.209361,1.822917,29.83083,-7.185613,7.102934,13.591779,-13.625152,-14.6471195,57.59947,-0.6017,2.048003,1.7654624,-4.2316957,9.733379,35.244305,28.114538,-4.547599,-29.376604,26.558207,2.679955,5.678721,13.106103,-16.580177,34.27312,-34.187717,-13.586776,4.7080345,3.6702309
107,-6.699497222900391,-147.62246704101562,74.51731872558594,5.634931233337864,-0.17503846552122382,-86.14065539259987,-21.097868,-14.135897,2.26461,32.98821,-9.712687,6.5715046,12.638111,-16.33209,-15.270659,61.493885,-2.886574,0.6450072,1.1855627,-5.1628084,10.25963,33.021656,28.525251,-4.837556,-28.165224,27.179146,2.6711438,5.8770366,14.564565,-16.15659,33.100605,-33.11866,-14.675927,5.01083,4.0565367
108,-6.705210208892822,-148.869384765625,74.21456909179688,6.306457732943553,-0.6164314343512891,-86.07482177528661,-20.727285,-14.773641,2.5668297,35.50842,-11.940679,6.2306056,11.492261,-18.511374,-15.479075,64.9375,-5.0053997,-0.68858844,0.70791984,-5.9016123,10.768907,30.576887,28.84776,-5.1746473,-26.780409,28.147636,2.6934648,5.678566,15.984366,-15.646798,31.909956,-31.995428,-16.445496,5.4246645,4.294662
109,-6.728952407836914,-150.1041717529297,73.99687194824219,6.705674077607063,-1.0167623074159104,-86.11674864351745,-19.92078,-15.122662,2.6983175,37.13857,-13.759537,6.150195,10.098316,-20.010977,-15.219964,67.90455,-6.9468627,-2.0365438,0.32308528,-6.363267,11.329223,27.831356,29.04729,-5.5674524,-25.13648,29.58523,2.734365,5.1082587,17.356493,-15.025941,30.685247,-30.718157,-19.466942,6.1196575,4.364056
110,-6.769131660461426,-151.3407745361328,73.83887481689453,6.900856760649528,-1.392168778182154,-86.25244899253632,-18.743374,-15.256381,2.715388,38.065025,-15.382423,6.05715,8.437346,-20.990124,-14.561269,70.56807,-8.776475,-3.439452,-0.013464188,-6.6162252,11.936519,24.866882,29.110043,-5.971542,-23.285429,31.390902,2.7589424,4.2510824,18.645185,-14.286351,29.41416,-29.212212,-23.49445,7.0231113,4.3824053
111,-6.8274102210998535,-152.58084106445312,73.7278060913086,6.962098608579521,-1.6975004503284743,-86.4478030584494,-17.399986,-15.269981,2.6848288,38.546165,-16.827974,5.989523,6.548252,-21.567348,-13.645303,72.90783,-10.443927,-4.680814,-0.33184704,-6.7637777,12.46167,21.89445,29.02028,-6.2845483,-21.419928,33.40192,2.7394493,2.9541852,19.798746,-13.479961,28.206532,-27.65219,-27.457655,7.8263874,4.3793683
112,-6.894318580627441,-153.83106994628906,73.65474700927734,6.967482768575166,-1.8884592329618628,-86.66760890736872,-16.099522,-15.231958,2.6524634,38.84282,-18.110306,5.9606285,4.4788547,-21.879457,-12.62039,74.90362,-11.894949,-5.5449486,-0.6637443,-6.903079,12.781837,19.095076,28.766357,-6.4207635,-19.711065,35.46515,2.6323283,1.0577052,20.81245,-12.70375,27.168894,-26.29019,-30.269402,8.220606,4.3040104
113,-6.946445941925049,-155.07705688476562,73.62975311279297,6.915481976905254,-1.9253383513572704,-86.93954567076645,-14.9133415,-15.104155,2.6307864,39.023132,-19.28067,5.960203,2.1397254,-21.88947,-11.426707,76.59449,-13.098117,-5.9419947,-0.9721953,-7.0287776,12.85015,16.437939,28.31633,-6.312397,-18.118895,37.641914,2.2308261,-1.7797801,21.790714,-12.043092,26.28566,-25.28863,-31.659828,8.050312,4.049718
114,-6.967643737792969,-156.29527282714844,73.64926147460938,6.774903923935611,-1.8426034060026013,-87.2693144150958,-13.7278185,-14.845948,2.5885074,38.958534,-20.320137,5.9776597,-0.43827036,-21.538994,-10.066507,77.98131,-14.070196,-5.99491,-1.279548,-7.0762,12.752511,13.823847,27.664999,-6.004477,-16.556553,39.965645,1.5176861,-5.368347,22.770468,-11.534355,25.521046,-24.600298,-32.18007,7.5157585,3.6217408
115,-6.977936744689941,-157.51490783691406,73.72793579101562,6.571182078379073,-1.707296346353935,-87.58719009618524,-12.474043,-14.514977,2.4961705,38.618942,-21.138317,6.0076995,-3.0216806,-20.978735,-8.787253,78.98534,-14.861671,-5.8341527,-1.6761606,-7.054875,12.564892,11.297074,26.866697,-5.63027,-15.11459,42.260715,0.79227537,-9.080862,23.675894,-11.20057,24.92449,-24.17741,-31.97981,6.838546,3.117656
116,-6.976916790008545,-158.73175048828125,73.87113952636719,6.330181038906196,-1.5848897543782432,-87.8233250513783,-11.084863,-14.174774,2.3267348,37.97591,-21.645315,6.0498686,-5.393625,-20.37744,-7.81332,79.5251,-15.522672,-5.5914364,-2.23247,-6.986432,12.36553,8.919827,26.004496,-5.33863,-13.902108,44.390236,0.43658185,-12.312664,24.442688,-11.049259,24.535591,-23.981804,-31.20104,6.238159,2.6370857
117,-6.984416484832764,-159.96047973632812,74.07852172851562,6.067127789547763,-1.480508513860842,-87.96051313951754,-9.514022,-13.845965,2.0791597,36.94247,-21.834774,6.133073,-7.5513387,-19.769094,-7.1536565,79.56731,-16.044643,-5.2026677,-2.945228,-6.909917,12.152121,6.7019815,25.112127,-5.1695457,-12.963673,46.377907,0.70334697,-15.096768,25.062748,-11.088559,24.39971,-24.071903,-29.473324,5.7234693,2.161618
118,-6.999554634094238,-161.18885803222656,74.34603118896484,5.768226867653968,-1.36370705599633,-88.03520623632978,-7.8121915,-13.491417,1.771044,35.56839,-21.7532,6.2452197,-9.590336,-19.104097,-6.7017417,79.152596,-16.4128,-4.63633,-3.765884,-6.816295,11.892845,4.607199,24.181427,-5.075551,-12.238621,48.307476,1.3844918,-17.723476,25.597034,-11.315158,24.470055,-24.467836,-26.8437,5.1760283,1.6725374
119,-7.033596038818359,-162.44796752929688,74.66780090332031,5.423856903482922,-1.2445396884698463,-88.05831758591486,-6.056497,-13.086744,1.402993,34.026905,-21.389832,6.328312,-11.4580145,-18.432003,-6.4888783,78.311485,-16.663885,-4.0706177,-4.679883,-6.6606917,11.620559,2.6391065,23.239012,-5.085175,-11.685845,50.147743,2.2366638,-19.981264,26.080519,-11.701082,24.636978,-25.060368,-24.083513,4.639762,1.2528974
120,-7.066733360290527,-163.73660278320312,75.03926849365234,5.0247335378362745,-1.1329918639220082,-88.04135148583855,-4.32393,-12.608851,0.97526294,32.48869,-20.732473,6.3252664,-13.10072,-17.790174,-6.54552,77.07303,-16.827707,-3.6744025,-5.6546154,-6.4054856,11.371347,0.79695654,22.334614,-5.238138,-11.267622,51.824917,3.0392475,-21.631449,26.55464,-12.197245,24.783514,-25.742788,-21.964993,4.1730185,0.9680635
121,-7.095828056335449,-165.03411865234375,75.45271301269531,4.553981308852921,-1.0619440358117735,-87.96058170301282,-2.5774581,-12.051738,0.42372575,30.953228,-19.745592,6.219961,-14.447705,-17.206955,-6.9748015,75.40278,-16.903126,-3.4974947,-6.698496,-6.0603337,11.179812,-0.91513455,21.501001,-5.578411,-11.008077,53.39652,3.889947,-22.598557,26.986662,-12.76944,24.908033,-26.490107,-20.70844,3.7994719,0.8473821
122,-7.122377872467041,-166.33151245117188,75.89389038085938,4.026823934396724,-1.0149431301037994,-87.82056320680927,-0.80879384,-11.427113,-0.22539718,29.360348,-18.454847,6.0423403,-15.544459,-16.654957,-7.721724,73.29348,-16.877754,-3.4336677,-7.800364,-5.6643996,11.017215,-2.499939,20.737368,-6.099564,-10.908764,54.846676,4.9152513,-23.015615,27.355827,-13.401336,25.05493,-27.323292,-19.902403,3.4931507,0.84628975
123,-7.159065246582031,-167.6488800048828,76.36119842529297,3.473482328718974,-0.9276402609339398,-87.67653214399054,0.8612701,-10.742129,-0.8409064,27.798775,-16.94305,5.8067403,-16.506508,-16.073774,-8.591517,70.81639,-16.765682,-3.4196284,-8.893185,-5.219265,10.827397,-3.9715805,20.04548,-6.7646422,-10.901965,55.965057,5.946388,-22.927666,27.725094,-14.064692,25.174967,-28.21568,-19.371092,3.2425756,0.90920496
124,-7.20061731338501,-168.97247314453125,76.84326171875,2.9252394554816696,-0.7371561445051494,-87.58369807806008,2.3224277,-10.011515,-1.2965908,26.347294,-15.284776,5.528443,-17.444765,-15.399227,-9.393275,68.03397,-16.575968,-3.3923826,-9.904242,-4.721795,10.553177,-5.35269,19.431406,-7.542172,-10.918294,56.53916,6.804738,-22.364176,28.153942,-14.725097,25.211628,-29.130547,-18.944422,3.0339565,0.9855433
125,-7.250148773193359,-170.31759643554688,77.33169555664062,2.353861174803005,-0.4054345271489738,-87.55570034754187,3.5647368,-9.200702,-1.5878718,24.955399,-13.445414,5.188001,-18.383543,-14.605522,-10.196951,64.90678,-16.31747,-3.4182248,-10.822717,-4.1357775,10.163546,-6.646258,18.905624,-8.447369,-10.928369,56.502968,7.423096,-21.185843,28.624784,-15.3571825,25.153284,-30.047325,-18.701632,2.8690593,1.0959405
126,-7.296493053436279,-171.6754608154297,77.82740783691406,1.757185371624832,0.024936768842149425,-87.56735548910906,4.6367188,-8.328569,-1.783707,23.626022,-11.412416,4.786391,-19.2437,-13.698718,-11.076733,61.398205,-15.9773245,-3.4805026,-11.670733,-3.4799676,9.693577,-7.8437862,18.471117,-9.502163,-10.972552,55.952736,7.893717,-19.407589,29.097155,-15.950181,25.02816,-30.95504,-18.700975,2.7513149,1.2591702
127,-7.341732025146484,-173.03750610351562,78.304443359375,1.204760189390499,0.49547773512742815,-87.61294859711565,5.5467887,-7.491405,-1.8754874,22.466713,-9.274386,4.3691344,-19.985794,-12.677218,-11.841015,57.56498,-15.522407,-3.4122045,-12.43166,-2.828339,9.183541,-8.948167,18.121992,-10.679794,-11.092968,54.92918,8.25853,-17.286964,29.599798,-16.492653,24.842302,-31.847036,-18.741062,2.6695645,1.4216421
128,-7.40437126159668,-174.37643432617188,78.74829864501953,0.7584434386033998,0.9484289534147985,-87.6822104807554,6.310456,-6.7797246,-1.8531909,21.571169,-7.1104383,3.979507,-20.576752,-11.564977,-12.285102,53.460518,-14.920037,-3.070605,-13.095231,-2.2532544,8.669427,-9.965861,17.848125,-11.951124,-11.326022,53.476955,8.559938,-15.079397,30.160885,-16.974583,24.601013,-32.714973,-18.620478,2.614144,1.5302076
129,-7.47691535949707,-175.72801208496094,79.17100524902344,0.4139988415776001,1.4070708129261575,-87.7773223794141,6.8845377,-6.188679,-1.7009202,20.964134,-4.865448,3.6678612,-21.018978,-10.3174095,-12.280931,48.935368,-14.11881,-2.4071572,-13.6604805,-1.7361535,8.124036,-10.906553,17.653748,-13.357524,-11.655455,51.47366,8.807628,-12.6723795,30.788206,-17.388102,24.298325,-33.55248,-18.296177,2.582114,1.5690591
130,-7.534374237060547,-177.1141357421875,79.56367492675781,0.1462048683713616,1.8886758786507485,-87.89456722696585,7.292461,-5.6817183,-1.441495,20.57745,-2.5078995,3.387768,-21.29324,-8.966482,-11.943139,43.97059,-13.136778,-1.5274062,-14.136351,-1.2589803,7.5347843,-11.7688055,17.543638,-14.901833,-12.071924,48.943375,8.907337,-9.989301,31.459692,-17.728125,23.935005,-34.35592,-17.874743,2.5784068,1.568512
131,-7.581948280334473,-178.50958251953125,79.92406463623047,-0.016028377182722958,2.326799199996494,-88.01225099544,7.6800017,-5.2924075,-1.1235851,20.29087,-0.12690915,3.04032,-21.35063,-7.666649,-11.426011,38.818825,-12.03931,-0.5383534,-14.537963,-0.8830527,6.9622183,-12.538375,17.50397,-16.489784,-12.620377,46.16376,8.786446,-7.3477645,32.156857,-17.993898,23.52792,-35.12804,-17.381336,2.606003,1.5443093
132,-7.633398532867432,-179.90426635742188,80.23934936523438,-0.03745891376058386,2.655974475677279,-88.11095531202821,8.185045,-5.068243,-0.792347,19.99317,2.1866705,2.5360208,-21.17926,-6.5821586,-10.880364,33.76917,-10.907709,0.45633554,-14.883124,-0.6693639,6.464246,-13.204213,17.512003,-18.022072,-13.343463,43.421505,8.42412,-5.0710926,32.860115,-18.190638,23.095695,-35.870804,-16.840918,2.6688414,1.5105127
133,-7.6772541999816895,-181.30386352539062,80.50162506103516,0.13737862961794092,2.8535822774837443,-88.18634890813193,8.867725,-5.0850077,-0.4517194,19.593758,4.4850492,1.8708453,-20.75391,-5.800725,-10.284358,28.754242,-9.714791,1.4763073,-15.180291,-0.6659734,6.04151,-13.792324,17.563654,-19.528673,-14.231688,40.696682,7.8106933,-3.1480598,33.592377,-18.326,22.6328,-36.587025,-16.200357,2.7623377,1.4547749
134,-7.705549716949463,-182.71278381347656,80.70925903320312,0.4904989875769276,2.95355572249323,-88.23868162063812,9.669181,-5.324339,-0.09772755,19.120262,6.8211184,1.0889004,-20.085623,-5.2834277,-9.564783,23.64261,-8.433494,2.53738,-15.437452,-0.8436424,5.663266,-14.3153305,17.66058,-21.03487,-15.254955,37.890343,6.974181,-1.4676067,34.351883,-18.402082,22.138275,-37.277233,-15.467356,2.8872356,1.3712258
135,-7.727479934692383,-184.1231231689453,80.868408203125,0.9480975714732667,2.975234314386764,-88.25707946679142,10.546246,-5.694038,0.23887035,18.643818,9.10424,0.18733418,-19.25357,-4.9854383,-8.810794,18.673384,-7.159307,3.5485156,-15.65009,-1.1422962,5.3434696,-14.749349,17.791819,-22.46589,-16.430922,35.156647,6.018288,-0.17971328,35.120598,-18.422188,21.610107,-37.974197,-14.750951,3.053543,1.2868148
136,-7.749287128448486,-185.53126525878906,80.97759246826172,1.4318006030407493,2.940208210925612,-88.2338899301213,11.433214,-6.0889378,0.5384685,18.284996,11.221019,-0.82785964,-18.366777,-4.8317213,-8.120627,14.142054,-5.998343,4.435666,-15.841499,-1.4937315,5.0872164,-15.054353,17.930182,-23.69883,-17.767384,32.65527,5.0537243,0.5623019,35.825657,-18.388393,21.084627,-38.652386,-14.173129,3.2770116,1.2240535
137,-7.773295879364014,-186.9275665283203,81.03265380859375,1.9337704735375931,2.8664081749356165,-88.1600904227856,12.321421,-6.4550486,0.8605553,18.047846,13.180263,-2.0533996,-17.464006,-4.791126,-7.5074697,10.066546,-4.965665,5.1997547,-16.006256,-1.8781655,4.882804,-15.2495575,18.061815,-24.706724,-19.283133,30.392517,4.099408,0.60663116,36.495266,-18.298178,20.541616,-39.34251,-13.754343,3.5917718,1.1866719
138,-7.8102827072143555,-188.3246612548828,81.03611755371094,2.4669240998378332,2.747708568291208,-88.05419071919516,13.174763,-6.810903,1.2118672,18.008598,14.981032,-3.4350512,-16.803623,-4.9016323,-6.920573,6.943724,-4.3383417,5.8790517,-16.127552,-2.3003795,4.7235746,-15.36311,18.185137,-25.548513,-20.941256,28.278788,3.1568692,0.07591908,37.141308,-18.153183,19.975952,-40.02972,-13.435764,3.9810486,1.1616038
139,-7.8492431640625,-189.70632934570312,80.99830627441406,2.9633773182805063,2.5768573051677404,-87.96346905339612,13.87819,-7.1282697,1.5207933,18.400782,16.481035,-4.748576,-17.313118,-5.1705136,-6.314146,6.8076115,-5.1393495,6.46918,-16.174475,-2.7046134,4.627472,-15.373418,18.29464,-26.25991,-22.677378,26.326817,2.3108878,-0.7444467,37.702465,-17.97007,19.418385,-40.65342,-13.211285,4.381675,1.150034
140,-7.889602184295654,-191.08203125,80.91049194335938,3.36913801441535,2.343918904534399,-87.93197576574498,14.355693,-7.4016476,1.7169966,19.378195,17.558199,-5.7840953,-17.576664,-5.345318,-5.842375,6.7214756,-5.762747,6.976769,-16.120821,-3.0474691,4.613524,-15.254127,18.38407,-26.87284,-24.4277,24.56303,1.6239883,-1.565964,38.126102,-17.777437,18.898495,-41.16828,-13.073126,4.730682,1.1515148
141,-7.930492401123047,-192.45864868164062,80.78492736816406,3.66412118626384,2.0450229066991428,-87.97588447412899,14.575274,-7.6265173,1.8086208,21.028975,18.214905,-6.494153,-17.562624,-5.3916464,-5.5421247,6.6742105,-6.1749034,7.4221997,-15.948012,-3.3066118,4.69815,-14.989095,18.444117,-27.35701,-26.221851,23.005892,1.1154159,-2.450115,38.422142,-17.594847,18.411245,-41.586166,-13.037788,5.031637,1.1755139
142,-7.979266166687012,-193.8269805908203,80.61306762695312,3.86653105139317,1.6925703042033189,-88.08082498115681,14.585897,-7.7797675,1.8521359,23.233452,18.503607,-6.990906,-17.298685,-5.327424,-5.387355,6.6560025,-6.395618,7.8105164,-15.666904,-3.486371,4.8680134,-14.589786,18.471558,-27.70201,-28.080303,21.640104,0.7518868,-3.491913,38.62132,-17.429216,17.942787,-41.93998,-13.096839,5.31202,1.2147499
143,-8.028580665588379,-195.19418334960938,80.38172149658203,3.9876824974433203,1.2984924219207554,-88.23585669106849,14.465623,-7.858853,1.8343315,25.770525,18.404234,-7.327243,-16.824974,-5.174876,-5.3258033,6.6580777,-6.447007,8.125226,-15.316145,-3.5892842,5.0985556,-14.063811,18.473663,-27.953415,-29.930721,20.449415,0.49345633,-4.455864,38.70512,-17.31382,17.515152,-42.220905,-13.201711,5.547174,1.2372996
144,-8.073627471923828,-196.5643310546875,80.09609985351562,4.037484193605297,0.8735923076333136,-88.4290010668672,14.290139,-7.8740783,1.7369765,28.428627,17.89276,-7.5668273,-16.184256,-4.951635,-5.306017,6.6774216,-6.3567014,8.346865,-14.899514,-3.6273139,5.3701215,-13.444943,18.467146,-28.20215,-31.693022,19.41484,0.29627568,-5.096869,38.665516,-17.2342,17.118437,-42.414577,-13.3100195,5.707066,1.230885
145,-8.135342597961426,-197.9334716796875,79.75963592529297,4.1122700341615035,0.3753577405137521,-88.65737470387803,14.1599045,-8.031768,1.4364433,31.104366,16.915289,-7.6992064,-15.310587,-4.7681603,-5.322616,6.7188835,-6.191938,8.760526,-14.4517355,-3.7026324,5.680355,-12.690907,18.459146,-28.423012,-33.390724,18.576035,0.17058757,-5.354177,38.500233,-17.217894,16.790901,-42.51418,-13.428656,5.766863,1.1611252
146,-8.202101707458496,-199.30010986328125,79.37255096435547,4.170448978869249,-0.18929622065499196,-88.92422417192549,14.020577,-8.290292,0.9780128,33.91266,15.504687,-7.724838,-14.204254,-4.5655704,-5.406007,6.786075,-5.9237995,9.2804,-13.921921,-3.7628715,6.0565014,-11.814318,18.45135,-28.63245,-35.07038,17.92605,0.12212959,-5.3347282,38.266735,-17.251642,16.468227,-42.577145,-13.561662,5.741461,1.061681
147,-8.257987022399902,-200.6679229736328,78.94075775146484,4.022716947028069,-0.7427828972589788,-89.21691751908627,13.733492,-8.289443,0.5840339,36.95237,13.78088,-7.7171817,-13.013002,-4.1115284,-5.549868,6.8891807,-5.439923,9.337217,-13.363361,-3.606518,6.4881573,-10.835796,18.448168,-28.78661,-36.684822,17.38596,0.081963696,-5.1057153,37.870693,-17.344017,16.194885,-42.548756,-13.69268,5.6849437,0.955019
148,-8.301100730895996,-202.04432678222656,78.48182678222656,3.4949910105894166,-1.2159040285488627,-89.51175901581766,13.194217,-7.6632833,0.45386097,40.27266,11.887526,-7.7360954,-11.885386,-3.197198,-5.7330866,7.0365567,-4.612989,8.36979,-12.823187,-3.0486078,6.9665704,-9.776261,18.462664,-28.863178,-38.208923,16.869884,-0.013349009,-4.727425,37.25949,-17.509317,15.98544,-42.41642,-13.792872,5.6484075,0.869168
149,-8.389466285705566,-203.379150390625,78.0770263671875,2.449987597249685,-1.5828942954365683,-89.82340103036886,12.413339,-6.1889315,0.62614924,43.881874,9.799765,-7.87081,-12.946731,-1.8475718,-5.841694,11.625967,-5.3581066,5.655626,-12.2863455,-1.9668393,7.4844604,-8.678179,18.50427,-28.894503,-39.677753,16.354502,-0.13807218,-4.1565714,36.38508,-17.691946,15.853054,-42.159756,-13.872999,5.649028,0.8450227
150,-8.463470458984375,-204.7188720703125,77.61918640136719,1.1587377063236566,-1.916664324898429,-90.12019328322562,11.555083,-4.256012,0.9419017,47.592934,7.557485,-8.031613,-14.228761,-0.20221204,-6.0944448,16.625128,-5.652646,1.7506251,-11.764093,-0.64986837,8.028966,-7.52131,18.579609,-28.894188,-41.097683,15.87835,-0.27247906,-3.3823814,35.32726,-17.884144,15.786002,-41.826576,-13.946577,5.657929,0.8612244
151,-8.592924118041992,-206.00997924804688,77.1626968383789,-0.05716666302802035,-2.2711127151783743,-90.33292417225226,10.670046,-2.2629304,1.3088944,51.264175,5.3415904,-8.029362,-15.370465,1.3411927,-6.535529,21.3845,-5.887688,-2.0582118,-11.305128,0.56185997,8.583054,-6.2726593,18.681221,-28.82859,-42.340786,15.453698,-0.4887733,-2.5177047,34.132767,-18.08036,15.777362,-41.39535,-14.024213,5.6543393,0.872909
152,-8.747766494750977,-207.27749633789062,76.64651489257812,-1.0377381272333879,-2.6696763937438055,-90.4221918030063,9.715816,-0.4181613,1.6419212,54.885143,3.2471416,-7.7090445,-16.00739,2.577967,-7.063962,25.311007,-6.600578,-4.5673313,-10.932906,1.5079929,9.148324,-4.9030128,18.786821,-28.661,-43.269337,15.099566,-0.8593426,-1.6710743,32.813095,-18.280363,15.815602,-40.81094,-14.114982,5.6161356,0.835549
153,-8.870062828063965,-208.51905822753906,76.03831481933594,-1.8644158361242276,-3.0987749116457954,-90.38205242703606,8.589194,1.456588,1.9412944,58.68132,1.1811712,-7.044897,-16.20881,3.5595999,-7.604328,28.691929,-8.393036,-5.3056917,-10.645059,2.2687283,9.727634,-3.4164903,18.876812,-28.360157,-43.84588,14.710441,-1.5324937,-0.8588945,31.374517,-18.488234,15.87995,-40.041615,-14.187771,5.4857445,0.73291427
154,-8.974349975585938,-209.75453186035156,75.43621826171875,-2.6921647784710676,-3.5240670547321784,-90.25882188089064,7.2802777,3.5407248,2.2083266,62.65837,-0.93111324,-6.1287956,-16.254036,4.3887525,-8.150668,32.054207,-11.056164,-5.029217,-10.410503,3.010849,10.3242035,-1.8375466,18.939154,-27.950459,-44.126785,14.325659,-2.4284985,-0.02798128,29.795681,-18.704334,15.975804,-39.10822,-14.246995,5.291559,0.5877872
155,-9.110410690307617,-210.97703552246094,74.95072174072266,-3.472050857886379,-3.9392788239864327,-90.09195331327324,5.860844,5.613647,2.3729572,66.49529,-2.9730897,-4.98132,-16.0903,5.004946,-8.657098,35.16072,-13.949537,-4.3696327,-10.204106,3.7027845,10.940299,-0.1691645,18.956745,-27.48614,-44.112637,14.181201,-3.271283,0.8237833,28.050926,-18.919788,16.129269,-38.035423,-14.3530855,5.1410866,0.41370174
156,-9.245973587036133,-212.1884307861328,74.60720825195312,-4.122677956160134,-4.347839740504554,-89.91214836453928,4.410238,7.3972754,2.3985968,69.8636,-4.8140254,-3.621637,-15.589351,5.448176,-9.075447,37.558117,-16.347399,-3.9353247,-9.996837,4.275529,11.576848,1.5776712,18.910686,-27.032976,-43.793076,14.504449,-3.7770982,1.7029014,26.125357,-19.115852,16.360954,-36.856842,-14.566014,5.1424556,0.22502361
157,-9.325305938720703,-213.3771209716797,74.37190246582031,-4.6180803681363445,-4.7914171761552495,-89.71169166937123,2.9355032,8.813386,2.2806475,72.73781,-6.413166,-1.8413988,-14.560065,5.801846,-9.431902,38.892075,-18.019236,-3.8198347,-9.7890415,4.693386,12.301484,3.4331667,18.768555,-26.609127,-43.037636,15.387735,-3.8409717,2.6576242,23.917385,-19.281027,16.66912,-35.46015,-14.821092,5.374634,-0.012178203
158,-9.35843563079834,-214.5577850341797,74.19927978515625,-4.993983786800815,-5.257978265882423,-89.4780087295196,1.3790637,9.975662,2.0526733,75.28685,-7.860294,0.30266196,-13.103272,6.1003914,-9.780274,39.40203,-19.320843,-3.7207491,-9.5709505,4.9920497,13.085058,5.3470607,18.51566,-26.208164,-41.83994,16.689913,-3.6048515,3.6568298,21.506327,-19.40274,17.013544,-33.89609,-15.111579,5.763948,-0.29265332
159,-9.359427452087402,-215.74703979492188,74.07477569580078,-5.239991689227009,-5.673804170502584,-89.23049418995765,-0.26191044,10.872741,1.7763088,77.4677,-9.194336,2.392735,-11.497926,6.3365345,-10.089115,39.466908,-20.40289,-3.6431472,-9.298934,5.1906843,13.782894,7.1972227,18.17771,-25.862545,-40.384422,18.28642,-3.1560483,4.590616,19.130867,-19.456362,17.358795,-32.425217,-15.590612,6.1898723,-0.5333455
160,-9.371493339538574,-216.93804931640625,73.9940414428711,-5.34854650974814,-5.96571438058863,-88.99152912397757,-1.9843669,11.503787,1.5189161,79.24148,-10.432645,4.0007668,-10.022393,6.465716,-10.309269,39.485455,-21.421309,-3.5681915,-8.935374,5.3042183,14.253309,8.892409,17.810389,-25.591337,-38.896072,20.058754,-2.5906668,5.3618765,16.98791,-19.41492,17.690548,-31.259272,-16.419785,6.530517,-0.6425946
161,-9.390503883361816,-218.1251983642578,73.95051574707031,-5.278049833266318,-6.101932236054963,-88.75315285806691,-3.829461,11.845831,1.3276658,80.62225,-11.577302,4.9830523,-8.772207,6.3971295,-10.411686,39.6145,-22.45966,-3.4701285,-8.484868,5.2791543,14.443322,10.474707,17.455902,-25.399588,-37.38862,22.308372,-1.7845819,5.972839,15.056163,-19.258116,18.04021,-30.3789,-17.805952,6.7755756,-0.56477314
162,-9.417753219604492,-219.2948760986328,73.94816589355469,-5.046885047484176,-6.1281672908396825,-88.51009652624953,-5.7715306,11.908536,1.2017499,81.6264,-12.596799,5.5720882,-7.587421,6.1469383,-10.421765,39.634995,-23.42538,-3.3550043,-7.96127,5.1112523,14.441507,12.013056,17.130354,-25.265455,-35.81113,24.981552,-0.7316093,6.448304,13.211259,-18.98162,18.412485,-29.648968,-19.62115,6.974069,-0.34410554
163,-9.445385932922363,-220.4549560546875,73.99931335449219,-4.7298292321423725,-6.0870823125307085,-88.28975277909825,-7.7051516,11.761504,1.1425782,82.22114,-13.458639,5.9177084,-6.365987,5.816307,-10.368364,39.39616,-24.216867,-3.2308178,-7.3521843,4.885318,14.318463,13.473993,16.858156,-25.153563,-34.303196,27.435894,0.27388,6.765743,11.469305,-18.59659,18.776255,-29.090136,-21.526653,7.0932164,-0.042149343
164,-9.475345611572266,-221.60865783691406,74.1066665649414,-4.406240242105258,-6.019836810881469,-88.11921383327743,-9.530474,11.473315,1.135525,82.37376,-14.13213,6.1664476,-5.0015798,5.5165243,-10.280141,38.737812,-24.728151,-3.1102064,-6.6490226,4.6876864,14.145866,14.83177,16.669224,-25.02873,-33.01901,29.028593,0.9297423,6.949328,9.856607,-18.124418,19.10348,-28.740711,-23.177156,7.106805,0.2715602
165,-9.485559463500977,-222.7783660888672,74.27848052978516,-4.089872758308423,-5.922362075477211,-87.99510262217193,-11.2659025,11.030519,1.1479954,82.06425,-14.611344,6.325305,-3.4344244,5.2816596,-10.1668415,37.525322,-24.960304,-3.0051553,-5.846188,4.5412145,13.929678,16.085693,16.590254,-24.87574,-32.0192,29.491844,1.0936351,7.005096,8.4339485,-17.568562,19.370916,-28.70324,-24.525078,6.9723,0.6153072
166,-9.487750053405762,-223.9678192138672,74.51309967041016,-3.745203810005528,-5.778033734525675,-87.90631756415192,-12.946793,10.426363,1.1985354,81.31109,-14.904876,6.3284397,-1.7341326,5.0516887,-10.015748,35.874077,-24.958609,-2.8971207,-4.955197,4.393494,13.6435,17.282629,16.632215,-24.70747,-31.259865,29.195614,0.94062287,6.952653,7.166123,-16.930416,19.61637,-28.929384,-25.733496,6.714139,1.0025122
167,-9.468381881713867,-225.17208862304688,74.79704284667969,-3.3702561697160527,-5.607784459766098,-87.8688426968573,-14.497904,9.740879,1.3389784,80.13202,-15.0221615,6.2174125,0.014849419,4.8002152,-9.819713,34.001472,-24.686888,-2.7625365,-4.001416,4.2203717,13.308304,18.469938,16.79432,-24.52436,-30.742407,28.452559,0.64633715,6.848014,5.9418254,-16.238672,19.90516,-29.244629,-26.769514,6.416828,1.3560421
168,-9.4329833984375,-226.39305114746094,75.11611938476562,-2.9621244492663656,-5.432082721550743,-87.89809677136269,-15.844539,9.046903,1.6209869,78.54471,-14.970833,6.029674,1.7221568,4.497544,-9.569386,32.14009,-24.118317,-2.5874135,-3.0165474,4.0048857,12.947636,19.69911,17.066317,-24.320543,-30.472935,27.57622,0.3836121,6.747752,4.66274,-15.536837,20.300995,-29.493702,-27.59332,6.170574,1.5982051
169,-9.393040657043457,-227.625732421875,75.47543334960938,-2.5117174658859875,-5.265918927503708,-88.00208173315349,-16.947954,8.357995,2.0899472,76.50857,-14.719984,5.769596,3.4190342,4.1360173,-9.242964,30.265162,-23.207401,-2.3866603,-2.004619,3.7521825,12.580055,20.980907,17.444536,-24.087715,-30.508127,26.492678,0.1375698,6.6166835,3.3432853,-14.850776,20.826609,-29.692114,-28.198557,6.0056095,1.6887013
170,-9.34367561340332,-228.86627197265625,75.86209106445312,-2.030186347377827,-5.0944682900719656,-88.16919824901069,-17.8531,7.649961,2.6939092,74.02591,-14.285846,5.4222937,5.123589,3.7317245,-8.85227,28.307436,-21.99696,-2.167721,-0.9614533,3.480062,12.1944685,22.302526,17.924662,-23.824148,-30.839901,25.08352,-0.16129045,6.4324837,2.0518773,-14.18263,21.458265,-29.93766,-28.59182,5.881358,1.667624
171,-9.283293724060059,-230.1167755126953,76.25737762451172,-1.5396486658240607,-4.892960002382414,-88.38521776515498,-18.6109,6.922659,3.33586,71.17489,-13.734559,4.9834585,6.7380967,3.29443,-8.430852,26.409569,-20.580118,-1.9144074,0.09310174,3.1913984,11.771085,23.672962,18.48629,-23.532925,-31.361734,23.601051,-0.4289934,6.2819347,0.7689858,-13.540487,22.182335,-30.186111,-28.752985,5.782065,1.5810072
172,-9.21161937713623,-231.39002990722656,76.66384887695312,-1.0653776791310166,-4.636245624286057,-88.63660509860665,-19.26923,6.175523,3.9270535,68.02943,-13.133777,4.4543166,8.163875,2.8338795,-8.009715,24.715715,-19.048864,-1.6088568,1.1390085,2.8894176,11.28949,25.090727,19.09744,-23.215004,-31.95691,22.30182,-0.5891997,6.2571096,-0.5258236,-12.935633,22.982012,-30.401487,-28.659489,5.691163,1.4737738
173,-9.13901138305664,-232.6649932861328,77.07300567626953,-0.5848737484462787,-4.303404835365409,-88.92911670333068,-19.825594,5.389474,4.50514,64.52554,-12.47672,3.828606,9.3915825,2.326441,-7.567401,23.203505,-17.363789,-1.2115413,2.1872425,2.560181,10.726365,26.522875,19.739483,-22.888592,-32.59715,21.280277,-0.61068726,6.4060473,-1.8389827,-12.374477,23.857876,-30.577837,-28.26833,5.615093,1.358529
174,-9.069137573242188,-233.95033264160156,77.47488403320312,-0.10032822222969326,-3.9121166284063675,-89.26418521078924,-20.252277,4.5738616,5.085308,60.637405,-11.734073,3.1106873,10.46332,1.783914,-7.0847316,21.831474,-15.506012,-0.74596584,3.2395556,2.214566,10.09948,27.96219,20.404903,-22.548277,-33.318604,20.397419,-0.54566824,6.6725955,-3.1441243,-11.85723,24.818113,-30.744524,-27.599741,5.558839,1.2090275
175,-8.996376991271973,-235.241455078125,77.87185668945312,0.33174831236839664,-3.4959025269369497,-89.62581962230583,-20.554596,3.769211,5.5532346,56.481033,-10.930918,2.3221269,11.379306,1.2679216,-6.5943465,20.671934,-13.581049,-0.28658754,4.2660723,1.8895128,9.445946,29.442802,21.074062,-22.157246,-34.09435,19.561619,-0.4459566,6.9949455,-4.4222116,-11.388149,25.85382,-30.914791,-26.725601,5.502944,1.0135173
176,-8.920016288757324,-236.53741455078125,78.23934936523438,0.6648878567957728,-3.0881874255406143,-90.00093536375317,-20.738857,3.0199034,5.797551,52.170105,-10.095339,1.4889948,12.140702,0.8361157,-6.134825,19.793564,-11.688613,0.09446634,5.238898,1.6244915,8.798057,30.994287,21.718657,-21.679455,-34.891163,18.683645,-0.36224377,7.3081784,-5.661665,-10.9758415,26.956768,-31.095165,-25.71835,5.4278903,0.7607733
177,-8.844033241271973,-237.8369598388672,78.58253479003906,0.8974855720273134,-2.6649639577542796,-90.42135341522946,-20.805826,2.304442,5.778063,47.601044,-9.170808,0.58099675,12.704118,0.48722816,-5.678509,19.210209,-9.797307,0.37850815,6.1897664,1.4213716,8.127286,32.622765,22.316355,-21.10389,-35.695873,17.70855,-0.3015785,7.6209598,-6.9091263,-10.634912,28.16869,-31.272509,-24.469492,5.3404293,0.38536018
178,-8.761585235595703,-239.15298461914062,78.89981079101562,1.0549699568357067,-2.218228508115307,-90.88959733825389,-20.731394,1.6291649,5.5534973,42.71774,-8.152544,-0.38553852,13.088532,0.19462939,-5.210713,18.878248,-7.8662395,0.61405015,7.125251,1.2672079,7.4243383,34.29833,22.856665,-20.452002,-36.508785,16.70032,-0.24211995,7.9543114,-8.153647,-10.36923,29.486164,-31.456059,-22.97868,5.2414284,-0.08818817
179,-8.685690879821777,-240.46435546875,79.17644500732422,1.113222833053547,-1.8074165758539165,-91.34771246490567,-20.504728,1.0819536,5.165329,37.74255,-7.150324,-1.319465,13.41214,-0.01157492,-4.7996564,18.728294,-5.9539924,0.82786584,7.9834447,1.1894425,6.744971,35.99015,23.330961,-19.739964,-37.310497,15.7500515,-0.18741998,8.26156,-9.30323,-10.168155,30.827944,-31.687979,-21.485533,5.107975,-0.5317995
180,-8.619089126586914,-241.78411865234375,79.41851806640625,1.051358628319486,-1.492573025904656,-91.73690673757724,-20.128544,0.7376374,4.667268,32.918312,-6.2778997,-2.140592,13.778405,-0.10159183,-4.517365,18.719769,-4.1298766,1.0414717,8.701065,1.2165494,6.1419177,37.66804,23.73448,-18.98244,-38.081104,14.949516,-0.13820429,8.496431,-10.281281,-10.015416,32.10928,-31.987577,-20.23346,4.925821,-0.81319004
181,-8.542196273803711,-243.11061096191406,79.62214660644531,0.8252392196003261,-1.2942726759184457,-92.05897993152509,-19.556484,0.6271168,3.9759388,28.141422,-5.5316367,-2.9303641,14.2249975,-0.021047123,-4.385196,18.804626,-2.3542316,1.2451015,9.274484,1.3942733,5.6167336,39.373924,24.057825,-18.155823,-38.828815,14.299299,-0.11144755,8.638796,-11.127942,-9.906493,33.33723,-32.335133,-19.29877,4.7007656,-0.88657546
182,-8.467583656311035,-244.44686889648438,79.77900695800781,0.45127324234810096,-1.1830997443976707,-92.3471346767056,-18.797102,0.730272,3.1114275,23.316088,-4.847604,-3.6999683,14.71046,0.21863425,-4.3623114,18.975794,-0.5832796,1.4340624,9.738905,1.712978,5.1388993,41.104176,24.296198,-17.26098,-39.555714,13.761032,-0.09764375,8.714758,-11.89104,-9.8434105,34.54889,-32.702705,-18.552038,4.4446435,-0.82122236
183,-8.399826049804688,-245.77755737304688,79.88914489746094,-0.0020369396355223134,-1.1430534217041892,-92.58580627941687,-17.963259,1.0094101,2.2943885,18.741585,-4.2643566,-4.286211,15.217702,0.54331666,-4.4306726,19.253986,1.1163406,1.6276768,10.08614,2.1136901,4.7150598,42.763176,24.461477,-16.348898,-40.234955,13.368463,-0.05644331,8.747464,-12.507907,-9.817826,35.699066,-33.096397,-17.928137,4.1557026,-0.6567708
184,-8.339025497436523,-247.0981903076172,79.95713806152344,-0.44754152487061083,-1.1528605715138867,-92.75206829415596,-17.204527,1.3746516,1.7478462,14.788535,-3.8456063,-4.5373063,15.714909,0.85129106,-4.5797963,19.691816,2.6581032,1.841421,10.302635,2.5116832,4.353737,44.257683,24.581402,-15.470543,-40.84247,13.1537285,0.052503955,8.763003,-12.918005,-9.816522,36.738632,-33.52003,-17.365913,3.829532,-0.43015856
185,-8.273309707641602,-248.41644287109375,79.98724365234375,-0.8396295798918727,-1.1934890667431963,-92.81148567412782,-16.649132,1.7682824,1.5867785,11.686603,-3.7143648,-4.2293863,16.159569,1.0716333,-4.8604636,20.364988,3.971038,2.0793593,10.358491,2.8541796,4.0519853,45.579018,24.673838,-14.628207,-41.372227,13.162584,0.25170243,8.766804,-13.12279,-9.831922,37.646458,-33.97862,-16.90194,3.4273639,-0.10155959
186,-8.211294174194336,-249.7335968017578,79.98066711425781,-1.1878138297851137,-1.2684588360201787,-92.76879442975718,-16.240194,2.149057,1.686043,9.265476,-3.839092,-3.5264544,16.541245,1.2133608,-5.2791142,21.290657,5.0803967,2.3271036,10.256565,3.1435382,3.808666,46.77878,24.7485,-13.791934,-41.84867,13.358725,0.5168285,8.749574,-13.164137,-9.861528,38.445557,-34.453846,-16.553453,2.9635072,0.33362988
187,-8.153764724731445,-251.04541015625,79.92857360839844,-1.4822215243639674,-1.3890734173323618,-92.65910632091668,-15.8301935,2.4550781,1.9028436,7.2621827,-4.0289474,-2.849988,16.857107,1.2848859,-5.7602386,22.481134,6.027105,2.5671973,10.030501,3.3736105,3.6368194,47.861633,24.82685,-12.960825,-42.295403,13.650812,0.81650686,8.714211,-13.034935,-9.90368,39.152477,-34.92302,-16.231245,2.5116968,0.7855435
188,-8.103119850158691,-252.36447143554688,79.8245849609375,-1.7404403874061494,-1.5738072174110966,-92.52407939034333,-15.933481,2.7003272,2.0596638,6.833662,-4.8308096,-2.6094863,17.12806,1.3245051,-6.2220902,23.908327,6.8716474,2.7773948,9.7480755,3.5790863,3.5391514,48.7705,24.92696,-12.192004,-42.682743,13.962834,1.1246885,8.674682,-12.728861,-9.951866,39.748196,-35.340614,-15.847662,2.1443577,1.1776977
189,-8.049604415893555,-253.68212890625,79.65957641601562,-2.020352878372737,-1.8472986322603302,-92.37297637836154,-15.94626,2.9410284,2.1729026,6.7883344,-5.7186046,-3.0277512,17.379007,1.4039911,-6.643276,25.574238,7.753837,2.9514122,9.412157,3.8145056,3.528079,49.546883,25.070206,-11.469831,-43.055504,14.309267,1.4535892,8.624289,-12.211743,-10.0020075,40.231762,-35.722538,-15.430043,1.8691937,1.5144778
190,-7.994028091430664,-255.000732421875,79.42736053466797,-2.301396469497975,-2.1923396808944213,-92.17785836673727,-15.728811,3.1610088,2.317744,6.7654734,-6.49265,-3.838559,17.583258,1.4587443,-7.0763087,27.519375,8.584194,3.0721157,8.997055,4.0473876,3.5957022,50.20093,25.265987,-10.78273,-43.412956,14.716562,1.8124883,8.565306,-11.493977,-10.053485,40.59853,-36.082916,-15.011773,1.6501673,1.8316014
191,-7.937558174133301,-256.3063659667969,79.14081573486328,-2.48134454130462,-2.5665016302594403,-91.92906916659912,-15.349786,3.238397,2.4503284,6.756122,-6.9121075,-4.7131763,17.699781,1.3375006,-7.5455675,29.744919,9.091652,3.1186335,8.502109,4.171104,3.7246091,50.69598,25.518337,-10.140301,-43.71996,15.113086,2.165845,8.516914,-10.636355,-10.10851,40.857174,-36.386833,-14.5144825,1.4962775,2.0882456
192,-7.888985633850098,-257.6144104003906,78.80651092529297,-2.451926257136525,-2.9292395913223674,-91.6224078493169,-14.875466,3.0475144,2.5178318,6.7505083,-6.735218,-5.3266797,17.706095,0.9113491,-8.065618,32.215637,9.0214205,3.097745,7.930842,4.0788174,3.8956947,50.988396,25.82791,-9.556138,-43.936356,15.428594,2.4785953,8.498148,-9.699007,-10.169791,41.018524,-36.60372,-13.859739,1.4164971,2.242726
193,-7.847628593444824,-258.9102783203125,78.4200668334961,-2.203788275585738,-3.2936225017344043,-91.24515947030922,-14.281797,2.5633628,2.440218,6.7294803,-5.722602,-5.772452,17.664354,0.21689403,-8.61606,34.893314,8.222258,3.030585,7.2676153,3.7619078,4.116265,51.07522,26.203827,-9.036516,-44.070953,15.639652,2.7489295,8.523437,-8.659989,-10.235583,41.09228,-36.736958,-12.919562,1.4246402,2.2498536
194,-7.806060314178467,-260.19915771484375,77.98773193359375,-1.7890550584739833,-3.6784565092575554,-90.80899871267623,-13.551518,1.8411813,2.2559018,6.7131557,-4.0691223,-6.1802554,17.588654,-0.68250465,-9.183458,37.77627,6.868881,2.9308672,6.5238476,3.2674098,4.386038,50.974285,26.652048,-8.580142,-44.13901,15.784272,2.993621,8.581506,-7.49615,-10.303645,41.06976,-36.80372,-11.770478,1.5084645,2.1397562
195,-7.692996978759766,-261.4322204589844,77.6119613647461,-1.1868128556225201,-4.055294086241027,-90.35231217341654,-12.747169,0.8799867,2.0975375,6.724606,-2.1614962,-6.2806554,17.392637,-1.8650565,-9.780155,40.878986,5.209687,2.805544,5.7466288,2.5766156,4.6724334,50.66777,27.161915,-8.191762,-44.100437,15.885814,3.2058418,8.651617,-6.2683325,-10.376577,40.93735,-36.789024,-10.638567,1.6392947,1.9839084
196,-7.585440635681152,-262.6798400878906,77.18301391601562,-0.3867477000029184,-4.396309815263138,-89.91411585167482,-12.473627,-0.2934446,2.1075823,7.9333224,-0.9817562,-5.7916617,16.999634,-3.4154305,-10.411192,44.20124,3.5011523,2.652302,4.9794307,1.6812513,4.944149,50.138054,27.711044,-7.876328,-43.915577,15.972287,3.3777194,8.709705,-5.0380044,-10.459589,40.686325,-36.676254,-9.748915,1.7924719,1.8551036
197,-7.50031852722168,-263.9344787597656,76.704345703125,0.6882356317251305,-4.673258269163495,-89.47773627548158,-13.582854,-1.7443181,2.3875587,12.089373,-1.2971091,-4.278755,16.408653,-5.494552,-11.140299,47.79791,1.7494415,2.549327,4.1886897,0.50748247,5.1674237,49.401367,28.282888,-7.6244254,-43.612885,15.988851,3.4590738,8.775143,-3.826882,-10.562675,40.33986,-36.4899,-9.007489,1.9991463,1.7601836
198,-7.392671585083008,-265.15484619140625,76.21666717529297,1.9027315843327082,-4.927984239126026,-89.0518970744698,-15.028667,-3.347854,2.8794327,17.027185,-1.8234715,-2.044363,15.725441,-7.8903418,-11.907691,51.560493,-0.109648004,2.4488678,3.3758774,-0.7972996,5.365214,48.47794,28.871546,-7.44077,-43.222393,15.948224,3.4689207,8.847199,-2.5919702,-10.688877,39.904915,-36.24196,-8.341359,2.2623353,1.6625367
199,-7.239976406097412,-266.3079528808594,75.73028564453125,3.04874370015017,-5.2190579959175505,-88.69860440861187,-16.39688,-4.8357453,3.4889803,21.931501,-2.544407,0.14169127,14.974496,-10.246014,-12.540339,55.317715,-1.9697458,2.1756659,2.6227925,-2.0109923,5.596378,47.333683,29.469208,-7.3520722,-42.678047,15.979319,3.5030766,8.871586,-1.3050995,-10.826397,39.348244,-35.88118,-8.006583,2.5166051,1.5720702
200,-7.135075569152832,-267.4280700683594,75.15333557128906,4.040621995440396,-5.584125256998828,-88.4604699970364,-17.292194,-6.0774703,4.09677,26.052446,-3.512424,1.5539827,14.1152935,-12.341688,-12.869568,58.970123,-3.7682903,1.5851502,1.995575,-3.0429869,5.9166484,45.911728,30.068869,-7.386687,-41.888687,16.210505,3.6567068,8.794067,0.054274876,-10.948523,38.63966,-35.344917,-8.262366,2.695177,1.4999392
201,-7.050289154052734,-268.5380859375,74.56250762939453,4.974433827278709,-6.023328002928933,-88.33812082653051,-17.702713,-7.152139,4.701034,29.442154,-4.997869,1.9012599,13.03705,-14.275345,-12.788089,62.680607,-5.56728,0.5207054,1.4817041,-4.002813,6.340381,44.18997,30.682247,-7.543894,-40.77683,16.470705,3.8023384,8.806531,1.4725525,-11.0219555,37.755455,-34.533863,-9.146725,2.7254806,1.4574808
202,-6.952282905578613,-269.62518310546875,74.06571197509766,5.928953663994473,-6.5026855253468305,-88.3000221897643,-17.884378,-8.126561,5.332276,32.61755,-7.007264,1.6484052,11.734039,-16.171732,-12.377442,66.47338,-7.399655,-0.8781239,1.0544258,-4.978234,6.826475,42.18946,31.309227,-7.8183413,-39.39735,16.754625,3.9416473,8.875832,2.926869,-11.029225,36.71644,-33.467182,-10.534173,2.6617103,1.4369268
203,-6.878937244415283,-270.681396484375,73.67961883544922,6.790533898376797,-7.006206986539827,-88.33596813369994,-17.850315,-8.894349,5.916961,35.54519,-9.211371,1.1948886,10.3131,-17.867235,-11.77759,70.05419,-9.171378,-2.3164837,0.7430311,-5.849774,7.3574266,39.92151,31.909403,-8.223354,-37.853615,17.44253,4.3586135,8.59943,4.4219804,-10.969712,35.568226,-32.259136,-12.440091,2.6278136,1.4220594
204,-6.845859527587891,-271.712890625,73.38375091552734,7.432682031535273,-7.523133386752268,-88.43958530636816,-17.575735,-9.390646,6.3777275,38.08181,-11.238647,0.9192451,8.8990135,-19.196066,-11.159159,73.13587,-10.784142,-3.5067072,0.5550772,-6.470745,7.9285183,37.40698,32.415146,-8.756331,-36.25615,18.938099,5.317735,7.545061,5.959655,-10.857714,34.371067,-31.0366,-14.883843,2.7486513,1.4041653
205,-6.798733711242676,-272.7200927734375,73.14728546142578,7.784583181866519,-8.102709426089424,-88.62116879347577,-16.908735,-9.6019945,6.6778097,40.034473,-13.003757,0.886663,7.5839157,-20.084354,-10.586608,75.63235,-12.180507,-4.384268,0.48291826,-6.7332892,8.624119,34.567493,32.771652,-9.434828,-34.55823,21.433823,7.0223484,5.5742245,7.57352,-10.69553,33.10462,-29.7615,-18.402248,3.1412265,1.3959385
206,-6.754702568054199,-273.7215881347656,72.94596099853516,7.922865277410259,-8.734854159327442,-88.87990819831666,-15.885516,-9.612772,6.884129,41.477715,-14.673351,0.899328,6.2823634,-20.632328,-9.998081,77.71949,-13.424757,-5.106472,0.4877368,-6.721199,9.424927,31.445263,32.952312,-10.210013,-32.724415,24.783783,9.163562,2.8097486,9.224974,-10.482026,31.773003,-28.378565,-22.81686,3.7128727,1.4297028
207,-6.7289886474609375,-274.71551513671875,72.7578125,7.924367682173078,-9.322324029494387,-89.19367989151377,-14.753327,-9.502831,7.061543,42.639896,-16.25128,0.9329592,4.869324,-20.933157,-9.396994,79.495674,-14.596619,-5.7277074,0.5193872,-6.570221,10.176907,28.261076,32.93399,-10.957636,-30.88809,28.924015,11.188676,-0.81917757,10.811326,-10.239059,30.482214,-26.998278,-27.063726,4.2695923,1.5040045
208,-6.710967540740967,-275.6893310546875,72.5844497680664,7.867718565865267,-9.766565478605692,-89.54095589194098,-13.767644,-9.320898,7.2567143,43.7607,-17.74791,0.9534795,3.216946,-21.072409,-8.778704,81.0537,-15.770704,-6.294827,0.52339846,-6.420518,10.729131,25.228727,32.707447,-11.552576,-29.171505,33.7723,12.531147,-5.346379,12.244666,-10.007348,29.346582,-25.756632,-30.073547,4.621238,1.5683919
209,-6.703912258148193,-276.635009765625,72.42762756347656,7.715514059442748,-10.015284197810468,-89.9535861328212,-13.038417,-8.977482,7.472125,44.964855,-19.227293,0.94542503,1.2011323,-20.9519,-8.086381,82.452614,-16.96249,-6.810969,0.5300845,-6.249996,11.026742,22.33729,32.256065,-11.914921,-27.562805,39.91728,12.707298,-11.422943,13.573683,-9.81966,28.363243,-24.732403,-31.47396,4.7086263,1.5790486
210,-6.677105903625488,-277.5719299316406,72.29798889160156,7.445952251590208,-10.131734375747554,-90.42912447158399,-12.418408,-8.453757,7.676427,46.114635,-20.669226,0.9250449,-1.0640454,-20.549566,-7.373548,83.62724,-18.119316,-7.2488484,0.51970434,-6.010374,11.170118,19.5178,31.594616,-12.049267,-26.020823,47.09001,11.573789,-18.708313,14.828053,-9.691014,27.504229,-23.886198,-31.85907,4.641442,1.5439092
211,-6.655153751373291,-278.4866027832031,72.2090072631836,7.153530302904885,-10.188363910769242,-90.89511807715486,-11.781918,-7.895845,7.857515,47.061085,-21.962261,0.8987803,-3.3570771,-20.071743,-6.7883554,84.47676,-19.215889,-7.612429,0.39798784,-5.79399,11.239655,16.852505,30.789507,-12.031551,-24.626308,53.85887,9.541129,-25.671618,15.91885,-9.644836,26.818203,-23.185017,-31.621971,4.4877715,1.4733222
212,-6.637465953826904,-279.3907775878906,72.17048645019531,6.93081479702315,-10.255082327766647,-91.27858121185761,-11.002471,-7.4675145,8.009298,47.652252,-22.992403,0.8758358,-5.469464,-19.739296,-6.4571066,84.90378,-20.232204,-7.9055557,0.10589508,-5.68796,11.309395,14.404115,29.917692,-12.007253,-23.442944,59.062325,7.642067,-31.038246,16.793411,-9.7080765,26.332785,-22.614286,-31.150715,4.3157954,1.3758034
213,-6.6392741203308105,-280.2911682128906,72.1909408569336,6.834190837915475,-10.334784781845203,-91.57243147963523,-10.031974,-7.239238,8.163636,47.78932,-23.71918,0.8644737,-7.396337,-19.657448,-6.397123,84.88601,-21.221546,-8.100132,-0.32346588,-5.760179,11.374742,12.166788,29.008625,-12.085111,-22.505081,62.605175,6.579864,-34.865334,17.470186,-9.904921,26.058619,-22.241817,-30.282326,4.107877,1.229199
214,-6.649928569793701,-281.1900634765625,72.26588439941406,6.803763799023155,-10.394018327204524,-91.8108308980123,-8.945271,-7.1212654,8.312946,47.5753,-24.207062,0.8575864,-9.234209,-19.708847,-6.539397,84.469574,-22.17335,-8.200097,-0.83458245,-5.9488125,11.402705,10.079437,28.05535,-12.239034,-21.760944,65.19771,6.085037,-37.86602,18.027311,-10.240362,25.94938,-22.103342,-28.885677,3.8370345,1.0388166
215,-6.676387786865234,-282.0854797363281,72.39228820800781,6.767465367839222,-10.447192402197693,-91.98317386803768,-7.799208,-7.03635,8.394922,47.163074,-24.500706,0.8440202,-10.928832,-19.784678,-6.8720684,83.6613,-22.97927,-8.2560005,-1.4389364,-6.1490493,11.414093,8.119137,27.068724,-12.439204,-21.125849,67.132225,5.9846854,-39.967644,18.510239,-10.700682,25.942987,-22.136944,-27.398033,3.5595515,0.84916353
216,-6.717357158660889,-282.9927673339844,72.56502532958984,6.649294253684503,-10.509542748484504,-92.0783753158849,-6.650012,-6.9036984,8.349549,46.70444,-24.644136,0.8135129,-12.421459,-19.771812,-7.389296,82.466255,-23.532106,-8.317473,-2.1430082,-6.2615366,11.433715,6.266104,26.07477,-12.65063,-20.524992,68.628174,6.073315,-41.027542,18.959682,-11.259099,25.973442,-22.276276,-26.260132,3.3347106,0.6995289
217,-6.755395412445068,-283.8960266113281,72.78119659423828,6.419019547964595,-10.595043956746656,-92.05563987997056,-5.503112,-6.7028494,8.126025,46.22631,-24.639015,0.77894664,-13.666172,-19.686127,-8.19088,80.85644,-23.819063,-8.434763,-2.990703,-6.2817645,11.47261,4.535375,25.090681,-12.8821335,-19.945086,69.68753,6.4827375,-40.739113,19.331488,-11.901175,26.060713,-22.506495,-25.601973,3.1798205,0.59569955
218,-6.812453269958496,-284.7985534667969,73.02626037597656,6.1192095285339505,-10.691111497550402,-91.93316696882285,-4.3335333,-6.4708276,7.7703576,45.655235,-24.467514,0.742095,-14.69462,-19.569084,-9.252504,78.83704,-23.897617,-8.558494,-3.9567945,-6.266972,11.511471,2.9343433,24.114113,-13.157305,-19.422632,70.205475,7.351574,-39.28565,19.61296,-12.621275,26.225874,-22.84133,-25.187847,3.0631163,0.51826364
219,-6.874861717224121,-285.68792724609375,73.30387115478516,5.790438736073223,-10.77391624454428,-91.79049218818325,-3.1543903,-6.2140274,7.369707,44.995243,-24.145514,0.67615944,-15.569147,-19.345581,-10.38051,76.46534,-23.765486,-8.594319,-4.941631,-6.208106,11.534154,1.4262927,23.146584,-13.460294,-18.961754,70.20201,8.431747,-37.21636,19.893864,-13.397714,26.400768,-23.258888,-24.912012,2.9721675,0.46452418
220,-6.9365105628967285,-286.5882568359375,73.61075592041016,5.474648769381627,-10.820599374122263,-91.7062484707489,-1.9770197,-5.9427795,7.0098333,44.24632,-23.686728,0.553489,-16.357508,-18.947437,-11.37307,73.79362,-23.415897,-8.455444,-5.8420916,-6.097329,11.525433,-0.030021198,22.19466,-13.779198,-18.56546,69.72011,9.456093,-35.07574,20.261211,-14.199021,26.51009,-23.726652,-24.672203,2.892954,0.43450192
221,-6.999968528747559,-287.48956298828125,73.9345703125,5.167700346676127,-10.820172489462347,-91.69748216536036,-0.79878527,-5.6479087,6.6939297,43.379364,-23.0842,0.3422704,-17.084478,-18.35956,-12.204417,70.793274,-22.80592,-8.147049,-6.6445675,-5.9269643,11.480605,-1.426178,21.261202,-14.097663,-18.234076,68.62163,10.398146,-32.785233,20.69435,-15.003949,26.543953,-24.22533,-24.516256,2.8218586,0.45383105
222,-7.063236236572266,-288.40740966796875,74.28343963623047,4.853420042556225,-10.787144651528582,-91.7236038082896,0.3830312,-5.330207,6.381639,42.404125,-22.333368,0.06520669,-17.711515,-17.61793,-12.958623,67.44276,-21.953968,-7.7112303,-7.393384,-5.7077937,11.406269,-2.7509096,20.35036,-14.432049,-17.963856,66.90861,11.318267,-30.099504,21.146912,-15.805656,26.534475,-24.747524,-24.48182,2.764877,0.518274
223,-7.136411190032959,-289.341064453125,74.6557846069336,4.556871184751968,-10.737885669597318,-91.77722446572685,1.559343,-5.02024,6.0925508,41.379013,-21.451742,-0.22318806,-18.217579,-16.744495,-13.590057,63.80024,-20.946522,-7.1311555,-8.070416,-5.4608817,11.30448,-4.0422735,19.475115,-14.822669,-17.753325,64.87591,12.108,-27.332275,21.674034,-16.592035,26.463793,-25.294662,-24.449883,2.7219024,0.5830736
224,-7.216210842132568,-290.2922668457031,75.03746795654297,4.307683912559709,-10.688661444592814,-91.85108921036709,2.7223074,-4.7491684,5.846228,40.360752,-20.455334,-0.4679317,-18.582775,-15.769894,-14.050281,59.9185,-19.87036,-6.3948197,-8.654364,-5.2108226,11.177643,-5.3379083,18.650122,-15.316473,-17.598177,62.83628,12.708221,-24.812767,22.332169,-17.34705,26.309717,-25.864319,-24.302166,2.6923008,0.60437274
225,-7.3027262687683105,-291.2447814941406,75.4189224243164,4.098286949107589,-10.642198881948756,-91.96182791757664,3.893655,-4.511294,5.651112,39.319977,-19.32284,-0.6456533,-18.782928,-14.663264,-14.309744,55.70274,-18.695076,-5.486809,-9.125092,-4.9464703,11.031244,-6.649677,17.885391,-15.943066,-17.511063,60.75821,13.1542,-22.565115,23.134146,-18.05558,26.055376,-26.450956,-24.012497,2.6660795,0.5695722
226,-7.38302755355835,-292.210205078125,75.79736328125,3.923489785918512,-10.591271646657034,-92.10676712102101,5.0699825,-4.300421,5.4944754,38.243027,-18.054188,-0.7872582,-18.825785,-13.4499655,-14.369475,51.143246,-17.400145,-4.441448,-9.494114,-4.671924,10.863193,-7.953782,17.181267,-16.680153,-17.49488,58.522316,13.462419,-20.441282,24.044674,-18.709154,25.71154,-27.044975,-23.64545,2.6448643,0.5047827
227,-7.469400882720947,-293.1954040527344,76.16173553466797,3.806633928344307,-10.5383251735382,-92.24803414966806,6.2124414,-4.147202,5.361952,37.20474,-16.697506,-0.9196121,-18.733335,-12.2461815,-14.238174,46.405342,-16.0862,-3.3221788,-9.792699,-4.432402,10.662535,-9.235263,16.533808,-17.495214,-17.531967,56.322613,13.599689,-18.52815,25.047188,-19.302814,25.30174,-27.649069,-23.218819,2.6465073,0.42315167
228,-7.555572032928467,-294.1884765625,76.50164794921875,3.7699176800893346,-10.484834561143128,-92.34735075451557,7.2827325,-4.0822706,5.2371716,36.2754,-15.296447,-1.0693069,-18.530878,-11.161221,-13.938772,41.65531,-14.846177,-2.1853702,-10.054025,-4.2711067,10.417524,-10.478645,15.936335,-18.357735,-17.602137,54.360443,13.550964,-16.918346,26.125961,-19.83467,24.850147,-28.265244,-22.750044,2.6891055,0.33701116
229,-7.645771026611328,-295.2028503417969,76.81680297851562,3.836597685117458,-10.431839406225425,-92.40264673339279,8.299561,-4.1387367,5.125285,35.418026,-13.806215,-1.2451217,-18.16227,-10.203025,-13.454612,36.745937,-13.645985,-0.9587032,-10.283239,-4.2042623,10.116566,-11.687605,15.3892145,-19.28519,-17.699009,52.770702,13.309132,-15.717194,27.300333,-20.30364,24.348406,-28.897173,-22.22314,2.7767205,0.24826063
230,-7.7393951416015625,-296.2221374511719,77.0947494506836,3.9983439570021164,-10.380689613193645,-92.42802950825391,9.28333,-4.3041034,5.0234547,34.599903,-12.213996,-1.4301968,-17.60345,-9.356228,-12.778293,31.600708,-12.44218,0.3384618,-10.470432,-4.2164187,9.768479,-12.866969,14.891984,-20.291796,-17.832335,51.430313,12.923399,-14.860684,28.569294,-20.707378,23.788681,-29.54266,-21.636171,2.8999827,0.14902492
231,-7.843197822570801,-297.2552490234375,77.33223724365234,4.226951893323929,-10.333015836578989,-92.40962945044024,10.193149,-4.539754,4.904341,33.906567,-10.615536,-1.6137673,-16.943043,-8.673689,-11.968693,26.510115,-11.301654,1.533789,-10.62843,-4.301696,9.391706,-14.004904,14.435285,-21.337656,-17.998043,50.153286,12.459474,-14.187196,29.884142,-21.043081,23.20267,-30.199892,-21.028183,3.0573955,0.0363041
232,-7.950858116149902,-298.28997802734375,77.53311920166016,4.4929447473146995,-10.289327265274844,-92.33486679710467,10.98911,-4.803918,4.744049,33.420597,-9.106007,-1.7872235,-16.292269,-8.184536,-11.097877,21.801723,-10.298881,2.474824,-10.770888,-4.4507565,9.002392,-15.088843,14.005746,-22.37861,-18.195265,48.758663,11.968678,-13.536562,31.19002,-21.310343,22.626331,-30.856983,-20.43931,3.2482255,-0.09217179
233,-8.078486442565918,-299.3302307128906,77.70427703857422,4.8077943304916575,-10.240351511694636,-92.20130411754015,11.651628,-5.1116786,4.5380764,33.148273,-7.675534,-1.9193335,-15.721281,-7.8859296,-10.140026,17.562593,-9.516516,3.069527,-10.891976,-4.6705256,8.587221,-16.129927,13.597902,-23.422752,-18.40998,47.239483,11.436623,-12.910665,32.500824,-21.504686,22.066378,-31.518633,-19.862217,3.4899602,-0.25558352
234,-8.206305503845215,-300.363525390625,77.8410873413086,5.187048403516173,-10.190814121486008,-92.01394339289241,12.21082,-5.486698,4.2988887,33.042004,-6.280264,-2.0283577,-15.189479,-7.7656984,-9.091432,13.671467,-8.90828,3.434974,-10.990281,-4.970073,8.141192,-17.135223,13.211939,-24.488588,-18.640835,45.682465,10.8482895,-12.385638,33.831406,-21.624113,21.51114,-32.184345,-19.282772,3.777016,-0.44718453
235,-8.348001480102539,-301.4034423828125,77.95023345947266,5.5991784010705175,-10.159096947991884,-91.77492501513835,12.692484,-5.883781,4.03104,33.11245,-4.9702234,-2.1829917,-14.659743,-7.80123,-8.064026,10.164604,-8.350142,3.750032,-11.082927,-5.326713,7.6931095,-18.09425,12.843265,-25.542719,-18.89272,44.04582,10.242129,-11.912935,35.126984,-21.678194,20.970428,-32.827824,-18.730215,4.074353,-0.6298793
236,-8.50112247467041,-302.447509765625,78.02499389648438,6.001434132597635,-10.16037007393827,-91.48897218746279,13.116072,-6.247231,3.740509,33.38084,-3.8026855,-2.4515393,-14.098565,-7.953422,-7.168339,7.0805707,-7.7185087,4.1957393,-11.186364,-5.7045884,7.2719297,-18.996105,12.485791,-26.546976,-19.173107,42.28906,9.651861,-11.443007,36.335316,-21.685623,20.454054,-33.430344,-18.231926,4.348419,-0.7673072
237,-8.653684616088867,-303.48931884765625,78.05168914794922,6.377912883106087,-10.181393129689841,-91.14849517180532,13.462357,-6.5636387,3.4155731,33.86436,-2.8086317,-2.855009,-14.70152,-8.325651,-6.2831326,6.928065,-8.273925,4.8979974,-11.307053,-6.083933,6.863413,-19.845013,12.138259,-27.496012,-19.486914,40.353107,9.072507,-10.965545,37.46921,-21.659529,19.958279,-34.004353,-17.79403,4.601677,-0.8483521
238,-8.80087661743164,-304.5250549316406,78.03413391113281,6.722140378545709,-10.211000581807582,-90.76311176953827,13.708933,-6.830102,3.0679839,34.577885,-1.97269,-3.3657408,-15.139189,-8.7013445,-5.537021,6.806824,-8.566946,5.7462482,-11.430886,-6.446937,6.45969,-20.646559,11.801438,-28.402067,-19.830439,38.277218,8.487159,-10.508598,38.54878,-21.605038,19.482506,-34.560246,-17.397951,4.849795,-0.8952065
239,-8.942292213439941,-305.5653991699219,77.97742462158203,6.994626014655914,-10.262929422301738,-90.36655427645647,13.857832,-6.9913044,2.7403502,35.562614,-1.2985479,-3.979373,-15.415194,-9.022006,-4.8854847,6.747714,-8.69209,6.5570235,-11.537625,-6.7487097,6.0991325,-21.396366,11.471011,-29.255037,-20.202463,36.167713,7.910361,-10.076562,39.531166,-21.535135,19.032866,-35.07089,-17.03552,5.078834,-0.9195212
