unveil-humanoid-operators/unveil-humanoid-operators.github.io/feature-analysis-animation/data/feature_matrix_instances/gender_ankle_rom_walking_A446_walk_ff_start_180_R_normal_pace_001__A446.csv
Frame,root_translateX,root_translateY,root_translateZ,root_rotateX,root_rotateY,root_rotateZ,left_hip_pitch_joint_dof,left_hip_roll_joint_dof,left_hip_yaw_joint_dof,left_knee_joint_dof,left_ankle_pitch_joint_dof,left_ankle_roll_joint_dof,right_hip_pitch_joint_dof,right_hip_roll_joint_dof,right_hip_yaw_joint_dof,right_knee_joint_dof,right_ankle_pitch_joint_dof,right_ankle_roll_joint_dof,waist_yaw_joint_dof,waist_roll_joint_dof,waist_pitch_joint_dof,left_shoulder_pitch_joint_dof,left_shoulder_roll_joint_dof,left_shoulder_yaw_joint_dof,left_elbow_joint_dof,left_wrist_roll_joint_dof,left_wrist_pitch_joint_dof,left_wrist_yaw_joint_dof,right_shoulder_pitch_joint_dof,right_shoulder_roll_joint_dof,right_shoulder_yaw_joint_dof,right_elbow_joint_dof,right_wrist_roll_joint_dof,right_wrist_pitch_joint_dof,right_wrist_yaw_joint_dof
0,-0.062206607311964035,1.7930021286010742,77.87918090820312,-0.37890190020286285,-0.8178999196394734,-90.02214978967287,1.2534287,8.340935,5.6045637,10.319387,-10.643009,-7.828023,1.4204897,-6.2288427,-6.808377,11.43447,-11.908193,6.723029,0.20496306,-1.1447128,5.1951995,-2.4800432,13.738341,-27.875828,67.99267,4.066347,-8.59408,6.1799164,-7.3284783,-15.727684,55.726925,66.28979,11.14644,0.48967972,-3.8209963
1,-0.05036783218383789,1.7851325273513794,77.87411499023438,-0.41283600405540966,-0.7807242546580977,-90.0214763971979,1.1780063,8.398917,5.667269,10.441238,-10.8283825,-7.925589,1.4357513,-6.1916456,-6.8039474,11.325028,-11.860623,6.719454,0.24972288,-1.1294256,5.168555,-2.4251194,13.745619,-27.777407,68.099785,4.0884833,-8.5608015,6.05411,-7.283353,-15.752888,55.72362,66.29245,11.172064,0.5242626,-3.8061008
2,-0.036016885191202164,1.7764421701431274,77.86935424804688,-0.4490377052851127,-0.7447177131671938,-90.01797546464186,1.0999777,8.460111,5.727633,10.568859,-11.01551,-8.028413,1.452004,-6.151649,-6.8026304,11.217021,-11.81163,6.710903,0.2776922,-1.1099406,5.1445637,-2.3663878,13.750308,-27.658636,68.21072,4.1194367,-8.527531,5.919813,-7.2469482,-15.779237,55.7374,66.297,11.202081,0.5594867,-3.791072
3,-0.018867023289203644,1.7689509391784668,77.86495971679688,-0.4797892438118512,-0.7066500498668655,-90.02063967324627,1.0252811,8.513134,5.79404,10.690213,-11.201792,-8.120388,1.4651382,-6.1192117,-6.794165,11.109221,-11.767149,6.712883,0.31278938,-1.0957732,5.115942,-2.3065155,13.751051,-27.543839,68.316414,4.1447167,-8.497796,5.8026185,-7.21153,-15.799434,55.749058,66.311905,11.230367,0.5935882,-3.7766666
4,-2.2681733753415756e-05,1.759103536605835,77.86132049560547,-0.49690109612120836,-0.6633943984440591,-90.03842772832655,0.9586704,8.54713,5.8744965,10.797392,-11.38763,-8.185415,1.4711373,-6.1036787,-6.7684016,11.000512,-11.733197,6.740789,0.35363185,-1.0931429,5.0819144,-2.2343953,13.747688,-27.41903,68.39693,4.162597,-8.480256,5.7258463,-7.1833806,-15.818244,55.767998,66.338036,11.258389,0.6260072,-3.7627873
5,0.02361523173749447,1.7450402975082397,77.85887145996094,-0.500555416490163,-0.6155828660450897,-90.07043399098065,0.9009754,8.561575,5.9689627,10.890503,-11.576318,-8.221579,1.4772736,-6.1050367,-6.725697,10.878006,-11.70875,6.801824,0.3978456,-1.1025364,5.042549,-2.1514013,13.739475,-27.29246,68.45503,4.1665015,-8.4810915,5.707913,-7.1623282,-15.836322,55.79379,66.3747,11.286159,0.65577805,-3.7487824
6,0.048786718398332596,1.7287025451660156,77.85391235351562,-0.49427857789690915,-0.564480277365635,-90.11281328713729,0.8494642,8.561761,6.0734873,10.973855,-11.76722,-8.236677,1.4850333,-6.1185784,-6.670909,10.741806,-11.6886015,6.886947,0.4331357,-1.1165304,5.000883,-2.0554225,13.720814,-27.14502,68.49471,4.169423,-8.495673,5.732201,-7.149289,-15.861709,55.836662,66.41252,11.315412,0.6846988,-3.7344425
7,0.08116336166858673,1.7116600275039673,77.84771728515625,-0.4770007943848823,-0.5073381481973878,-90.17034449419708,0.80360085,8.544864,6.190291,11.043582,-11.952249,-8.229035,1.4729186,-6.148021,-6.5995436,10.628139,-11.682636,6.9867587,0.48890695,-1.1399069,4.9508386,-1.9611143,13.694031,-27.002106,68.524185,4.161685,-8.51341,5.7723093,-7.134513,-15.887881,55.87557,66.45916,11.343898,0.7140478,-3.7219543
8,0.1192263588309288,1.6950825452804565,77.84324645996094,-0.4465594744446186,-0.4419836022393286,-90.24728496807784,0.7634139,8.508101,6.3213544,11.09414,-12.122542,-8.197197,1.422404,-6.197556,-6.5075746,10.567102,-11.697095,7.0919514,0.57581174,-1.177996,4.8913097,-1.8666825,13.669804,-26.86596,68.53187,4.138119,-8.52396,5.799599,-7.1164465,-15.905655,55.90149,66.51881,11.365446,0.7459234,-3.7127664
9,0.1617506891489029,1.6724239587783813,77.84127807617188,-0.4012790784250875,-0.36140251800891293,-90.34781311895763,0.7223883,8.445983,6.469464,11.125213,-12.276573,-8.12777,1.314588,-6.273456,-6.389273,10.578654,-11.740283,7.203211,0.68324494,-1.2308218,4.8163786,-1.7676396,13.639831,-26.706944,68.51488,4.0999413,-8.524671,5.8064055,-7.1049967,-15.923553,55.94487,66.592865,11.388455,0.78300554,-3.7115207
10,0.21369212865829468,1.6447538137435913,77.84203338623047,-0.3416690060592309,-0.2687433177858336,-90.46830951402,0.6817251,8.362329,6.6321993,11.141453,-12.42021,-8.026129,1.1648499,-6.3711066,-6.2485337,10.641507,-11.806485,7.324283,0.8042226,-1.2946391,4.729033,-1.6634876,13.600215,-26.525875,68.47847,4.052308,-8.521425,5.8083344,-7.0981016,-15.943491,56.00349,66.675964,11.411997,0.8240467,-3.7158139
11,0.2633422017097473,1.620072364807129,77.84092712402344,-0.27610297763912256,-0.17760216468291085,-90.60198242400838,0.6569557,8.267748,6.804299,11.138457,-12.55211,-7.9188433,1.0043182,-6.478697,-6.095368,10.7271,-11.882254,7.450281,0.92943597,-1.356901,4.6428714,-1.55538,13.547034,-26.332327,68.429634,4.011042,-8.517972,5.8128467,-7.0949926,-15.967183,56.066704,66.76721,11.439014,0.86489224,-3.716756
12,0.3177575469017029,1.5920658111572266,77.84002685546875,-0.2148461737048882,-0.10111718341591783,-90.74193023942551,0.6615103,8.173055,6.9802914,11.11568,-12.673118,-7.832495,0.8623546,-6.584722,-5.9396887,10.811202,-11.957226,7.576281,1.0572518,-1.4111128,4.5721536,-1.4423633,13.488719,-26.146212,68.367935,3.9872632,-8.517428,5.825739,-7.088976,-15.991307,56.1096,66.8568,11.465667,0.9055951,-3.7059135
13,0.37928515672683716,1.559656023979187,77.83891296386719,-0.1599385699801366,-0.04420460512588845,-90.89176665459458,0.7071847,8.079588,7.1633587,11.061761,-12.77815,-7.78032,0.74260026,-6.687557,-5.779186,10.89622,-12.032766,7.701445,1.1825955,-1.452201,4.5228457,-1.3200753,13.422293,-25.963005,68.28936,3.987244,-8.521483,5.8557506,-7.084633,-16.017876,56.134224,66.948296,11.493573,0.9473525,-3.6751256
14,0.4461497962474823,1.5253456830978394,77.83729553222656,-0.1050537143716261,0.0008035153859043141,-91.05328078214662,0.7847651,7.981995,7.354917,10.979223,-12.867705,-7.7463264,0.6306252,-6.7927237,-5.610416,10.99291,-12.113863,7.82824,1.3125699,-1.4870405,4.487008,-1.1891286,13.350302,-25.779715,68.19127,4.0033774,-8.527843,5.8964114,-7.080152,-16.046335,56.143574,67.04173,11.520702,0.9904384,-3.6308396
15,0.5151850581169128,1.4880812168121338,77.83303833007812,-0.050895451745942046,0.039303058744312926,-91.21718089793698,0.8744825,7.88121,7.546624,10.892042,-12.952297,-7.713037,0.53003436,-6.899387,-5.4414473,11.085209,-12.19181,7.956725,1.4428738,-1.5194182,4.4586835,-1.0560472,13.276445,-25.599205,68.08238,4.026683,-8.534707,5.9327602,-7.0723453,-16.075666,56.144035,67.13045,11.549241,1.0299112,-3.586038
16,0.5873074531555176,1.445318579673767,77.82814025878906,0.00021063815052126757,0.07676262253308798,-91.37397846144897,0.9583506,7.777888,7.7304983,10.819041,-13.039015,-7.6627975,0.44436908,-7.0073495,-5.2803845,11.156717,-12.256976,8.08683,1.5702724,-1.5546259,4.4323444,-0.92574584,13.20745,-25.42463,67.96848,4.0483932,-8.540075,5.9491463,-7.0573263,-16.103342,56.139957,67.208244,11.5801,1.0606209,-3.5537171
17,0.6609518527984619,1.4010090827941895,77.81982421875,0.05111230435874477,0.11013441766944981,-91.52504805574661,1.0345042,7.6719813,7.9064813,10.772573,-13.134361,-7.584036,0.37641224,-7.1175756,-5.1268435,11.208621,-12.311293,8.222624,1.6952317,-1.59147,4.410044,-0.80154437,13.136002,-25.243511,67.85287,4.067068,-8.542713,5.929451,-7.0311027,-16.132135,56.131275,67.26904,11.614302,1.0785277,-3.5405116
18,0.7380571365356445,1.3525859117507935,77.81027221679688,0.10265988361361555,0.13804384802681763,-91.67409071058486,1.113877,7.5625505,8.078513,10.734964,-13.230039,-7.488268,0.32556912,-7.2299275,-4.9776134,11.243924,-12.35591,8.362704,1.8198396,-1.6293517,4.3942356,-0.67870814,13.063315,-25.056416,67.73206,4.089644,-8.546542,5.885589,-6.996759,-16.161486,56.114613,67.31762,11.650238,1.0870055,-3.538422
19,0.820667028427124,1.3001048564910889,77.80113983154297,0.15183274343530176,0.16816607079713927,-91.81571238137049,1.1870856,7.4512424,8.242972,10.703973,-13.325681,-7.3924184,0.27974993,-7.343807,-4.8347874,11.270556,-12.393345,8.499157,1.9373896,-1.6685771,4.3777475,-0.5555017,12.999941,-24.889837,67.603035,4.111617,-8.549111,5.84576,-6.960674,-16.187109,56.09535,67.36203,11.685675,1.0932589,-3.5384548
20,0.9061042070388794,1.2469021081924438,77.79299926757812,0.19641662592205014,0.20812546182388342,-91.94457469715461,1.2447602,7.339284,8.396379,10.677171,-13.4204645,-7.313146,0.22740495,-7.4583273,-4.700585,11.295962,-12.425398,8.623889,2.035188,-1.7002846,4.3523173,-0.44008383,12.934214,-24.760532,67.48384,4.1352863,-8.551292,5.8419657,-6.928379,-16.214134,56.08633,67.40619,11.719796,1.1055433,-3.5318089
21,1.0056257247924805,1.1859205961227417,77.78668212890625,0.23594124821257137,0.26174680481772644,-92.05790600190267,1.2801629,7.22769,8.536105,10.656789,-13.515172,-7.259191,0.16239552,-7.572705,-4.575765,11.322123,-12.451966,8.73442,2.110133,-1.7250012,4.3159246,-0.33212352,12.870206,-24.685722,67.37306,4.1571174,-8.553518,5.899807,-6.901474,-16.241009,56.082504,67.45045,11.748464,1.1306987,-3.5117579
22,1.0959099531173706,1.1334105730056763,77.78201293945312,0.2714300966641382,0.3243078166070841,-92.15910746986708,1.2991875,7.1154957,8.66472,10.643734,-13.609962,-7.2201114,0.091795266,-7.687835,-4.458889,11.345768,-12.472616,8.835173,2.168475,-1.7443224,4.2724442,-0.23165509,12.805889,-24.651651,67.269295,4.1783447,-8.555649,5.9976344,-6.875992,-16.268959,56.079666,67.49205,11.77264,1.1630918,-3.4844487
23,1.1935572624206543,1.0778651237487793,77.77889251708984,0.30383547712559816,0.39063856265516567,-92.2517768301789,1.3131329,7.0010247,8.786529,10.631379,-13.702319,-7.1835947,0.024231507,-7.8049746,-4.3490973,11.363107,-12.486361,8.928654,2.2210085,-1.7608708,4.2234907,-0.13751414,12.744249,-24.640553,67.169945,4.2020125,-8.55578,6.0927553,-6.847109,-16.297308,56.080837,67.531006,11.796822,1.1910743,-3.460261
24,1.3031786680221558,1.01186203956604,77.7736587524414,0.33490111871187017,0.455743190665789,-92.33952169873659,1.3317574,6.8833423,8.905472,10.615926,-13.791342,-7.137583,-0.034638725,-7.92539,-4.2452245,11.376595,-12.495856,9.017187,2.2772253,-1.7807009,4.1719513,-0.04094893,12.697474,-24.63187,67.061646,4.231638,-8.551513,6.140308,-6.8106546,-16.31939,56.087906,67.56761,11.823893,1.2028702,-3.4495022
25,1.4180476665496826,0.9415279030799866,77.76896667480469,0.3603422918672711,0.5195850014177829,-92.42275600132612,1.3573378,6.765792,9.024475,10.592334,-13.872353,-7.082999,-0.08134984,-8.045955,-4.14823,11.379528,-12.494675,9.095614,2.340811,-1.7909788,4.1117415,0.039671704,12.637111,-24.622654,66.97174,4.278096,-8.538171,6.122719,-6.7601132,-16.349777,56.110817,67.59652,11.861558,1.1909845,-3.4605181
26,1.5321146249771118,0.8695019483566284,77.76226043701172,0.3828201141970472,0.5845250217447082,-92.49963313182324,1.3846121,6.6475534,9.140838,10.563875,-13.947081,-7.0248003,-0.12066612,-8.167288,-4.058103,11.374636,-12.484223,9.164556,2.4059212,-1.7980183,4.0453434,0.11418727,12.579358,-24.622715,66.88474,4.3343825,-8.51798,6.063147,-6.7001624,-16.381424,56.14333,67.619316,11.904,1.162779,-3.4858165
27,1.6538817882537842,0.7902042865753174,77.75214385986328,0.4056168633701427,0.6484327326843381,-92.57104457336278,1.4144809,6.5215373,9.250175,10.535305,-14.022779,-6.9571967,-0.15255949,-8.2956,-3.973251,11.367364,-12.474239,9.2352705,2.4675033,-1.8089128,3.9792335,0.19080187,12.534089,-24.629408,66.79312,4.38797,-8.502052,5.9924273,-6.6377897,-16.407597,56.17471,67.64217,11.942113,1.1313655,-3.5123146
28,1.7762398719787598,0.7110681533813477,77.74250793457031,0.4341662652909396,0.7091624007528043,-92.63761187538542,1.4483078,6.3807125,9.348161,10.510873,-14.106065,-6.874211,-0.17756972,-8.436974,-3.8919718,11.364277,-12.474675,9.3190365,2.5215278,-1.8155764,3.9162114,0.2590305,12.475466,-24.634531,66.72194,4.4376707,-8.5034075,5.948418,-6.568936,-16.44338,56.19291,67.6572,11.964682,1.1121162,-3.5270371
29,1.9072761535644531,0.6172089576721191,77.73076629638672,0.4712510711769272,0.7627222405199858,-92.69756267266858,1.4908849,6.2207723,9.431994,10.491706,-14.203863,-6.7671685,-0.18375392,-8.595433,-3.8183582,11.352594,-12.485116,9.424368,2.5644884,-1.8345162,3.8651493,0.3422107,12.438266,-24.633818,66.63706,4.472866,-8.531976,5.9311953,-6.5011415,-16.466352,56.188374,67.67599,11.959323,1.1073488,-3.5251522
30,2.039557456970215,0.5235015153884888,77.71690368652344,0.5134165973282344,0.8112860514715744,-92.7512149353071,1.539063,6.0470138,9.504133,10.478799,-14.312929,-6.6415195,-0.17472506,-8.766471,-3.751948,11.333828,-12.50135,9.543426,2.6050262,-1.8418714,3.8162985,0.39989704,12.369277,-24.635895,66.595345,4.505948,-8.581868,5.934586,-6.417427,-16.512075,56.168312,67.67622,11.937355,1.1129932,-3.5141587
31,2.180480480194092,0.4320998191833496,77.70082092285156,0.5577709316496827,0.8623513911363004,-92.80247226081433,1.5853946,5.8643107,9.568813,10.46485,-14.417427,-6.5129,-0.17354605,-8.945142,-3.6842337,11.331383,-12.524905,9.663046,2.6421344,-1.8507844,3.765574,0.45869547,12.307096,-24.646408,66.5528,4.536996,-8.630408,5.94769,-6.33465,-16.55737,56.14517,67.677315,11.915336,1.1219621,-3.4989517
32,2.325289726257324,0.3345906138420105,77.68452453613281,0.6007742301675139,0.9232938248028,-92.85531485272922,1.6236492,5.6776395,9.630546,10.442003,-14.502073,-6.3968554,-0.2016285,-9.125761,-3.6067939,11.364771,-12.554894,9.7700615,2.6800773,-1.8566964,3.7042074,0.51227635,12.245862,-24.674366,66.514656,4.5733957,-8.658019,5.968268,-6.254864,-16.605211,56.128857,67.67986,11.910977,1.1304824,-3.4847758
33,2.474980354309082,0.23318511247634888,77.6688232421875,0.6381650924641005,1.0000977789205292,-92.91046355234381,1.6456233,5.492621,9.688309,10.412085,-14.563404,-6.304764,-0.26180047,-9.301888,-3.5181766,11.42577,-12.581345,9.8575735,2.714344,-1.8589016,3.6249409,0.57005984,12.196187,-24.727652,66.46841,4.6189346,-8.653068,6.00154,-6.1850266,-16.644999,56.13172,67.69502,11.933071,1.139657,-3.4715838
34,2.6353774070739746,0.12636269629001617,77.65545654296875,0.6729663586362676,1.087472096804138,-92.96586322759026,1.6566905,5.3050294,9.7406435,10.378551,-14.609672,-6.2259736,-0.3445888,-9.478372,-3.4222255,11.510237,-12.608937,9.933786,2.7412822,-1.8620232,3.534704,0.6348116,12.161997,-24.796844,66.41159,4.6678395,-8.628168,6.0454054,-6.1279917,-16.671844,56.150185,67.727036,11.972708,1.1501884,-3.456999
35,2.7926831245422363,0.02227797918021679,77.64234161376953,0.712620238456926,1.1760540446745016,-93.02172264572482,1.670521,5.1060495,9.791061,10.3362,-14.643252,-6.142922,-0.4498342,-9.6651325,-3.3189073,11.639399,-12.656928,10.008105,2.7807999,-1.8584512,3.4408479,0.67260224,12.101977,-24.880041,66.391,4.7159057,-8.600228,6.0936093,-6.0576057,-16.719807,56.150936,67.74425,12.013691,1.1594949,-3.443363
36,2.947803497314453,-0.07856547832489014,77.62576293945312,0.7657454541080877,1.2565723085804614,-93.07803383152938,1.7004211,4.885856,9.843019,10.279978,-14.666325,-6.0380826,-0.5806236,-9.873341,-3.207591,11.840526,-12.748119,10.089889,2.822437,-1.8717685,3.3614779,0.7056294,12.048583,-24.940613,66.374,4.7535706,-8.583499,6.122789,-5.9895945,-16.764875,56.129303,67.75749,12.043061,1.1600636,-3.4319851
37,3.114454507827759,-0.18581873178482056,77.60551452636719,0.8265540167851539,1.3315634648343044,-93.13265894822094,1.738808,4.6516013,9.894629,10.219492,-14.678968,-5.908509,-0.7245777,-10.095196,-3.093927,12.085313,-12.87442,10.177397,2.871095,-1.898779,3.2914474,0.7343123,12.003049,-24.974405,66.36286,4.7749395,-8.5836935,6.1201057,-5.9189115,-16.803637,56.080173,67.76928,12.0638075,1.1466964,-3.4249527
38,3.280489444732666,-0.2910618782043457,77.5819320678711,0.8934838615879529,1.404306351934386,-93.18618536140103,1.7836288,4.404404,9.945079,10.150354,-14.678169,-5.7628307,-0.88388693,-10.328263,-2.9763067,12.369609,-13.027665,10.267172,2.9293814,-1.9310186,3.22521,0.7476593,11.951478,-24.998484,66.371994,4.78575,-8.5927305,6.0999517,-5.8405013,-16.848673,56.00574,67.77345,12.078824,1.1244395,-3.4205441
39,3.4519758224487305,-0.4027749300003052,77.55510711669922,0.9802840635232718,1.4668007441150452,-93.24308795218735,1.8504499,4.1281705,9.998602,10.058296,-14.667962,-5.6013174,-1.0836862,-10.590902,-2.8431199,12.757684,-13.230886,10.365976,2.9889188,-1.9798743,3.1770551,0.7521536,11.899422,-25.017872,66.386116,4.7922597,-8.603705,6.081237,-5.7660685,-16.897411,55.91155,67.77013,12.079347,1.1010728,-3.4162886
40,3.621933698654175,-0.507479190826416,77.52191925048828,1.1009042874515296,1.5112340220936105,-93.30799023867854,1.9582928,3.805005,10.059517,9.923307,-14.650084,-5.423967,-1.3497089,-10.901042,-2.6825829,13.314637,-13.50771,10.481013,3.032247,-2.064689,3.1616766,0.76968825,11.869781,-25.029348,66.371414,4.7986226,-8.609229,6.079333,-5.722377,-16.92678,55.817547,67.77994,12.062951,1.0824897,-3.4098854
41,3.793239116668701,-0.6169719099998474,77.48340606689453,1.2600730661365753,1.5393028797942925,-93.3821337050458,2.11021,3.4273543,10.126586,9.736456,-14.626501,-5.2290235,-1.6697844,-11.262615,-2.4974093,14.015028,-13.866908,10.630886,3.085883,-2.172427,3.1773334,0.764111,11.823853,-25.05858,66.37069,4.8048015,-8.608443,6.109283,-5.680011,-16.978416,55.686787,67.76711,12.006418,1.0769908,-3.3973758
42,3.9688661098480225,-0.7219164371490479,77.43946838378906,1.4494580009086395,1.5541989378556567,-93.46293383074155,2.2975311,3.0056036,10.197004,9.507744,-14.595102,-5.0170856,-2.0354795,-11.664371,-2.2923083,14.837139,-14.2953615,10.80704,3.1280656,-2.305126,3.2191198,0.76138884,11.784818,-25.078554,66.357834,4.8071494,-8.604376,6.1545577,-5.654945,-17.029577,55.547962,67.75149,11.925189,1.0777507,-3.3816426
43,4.147336483001709,-0.8249167203903198,77.39129638671875,1.6640602381386975,1.5499512577807153,-93.54885956384807,2.5194204,2.5497296,10.272033,9.248422,-14.551721,-4.7916903,-2.4683697,-12.099338,-2.0595365,15.830834,-14.770768,10.976654,3.1717598,-2.4622161,3.2926273,0.7476924,11.751135,-25.108957,66.34318,4.812434,-8.598968,6.209408,-5.6402745,-17.084522,55.392597,67.72432,11.8420725,1.0776786,-3.3675568
44,4.331298828125,-0.9270884990692139,77.338623046875,1.899760931859236,1.5206540670213076,-93.63858176913716,2.7758124,2.068469,10.353441,8.969189,-14.493018,-4.556137,-2.987357,-12.56049,-1.7906091,17.039278,-15.269197,11.107691,3.2200913,-2.6462517,3.403644,0.71741956,11.728898,-25.162317,66.32793,4.82398,-8.594106,6.266312,-5.6362495,-17.139761,55.22258,67.684105,11.780341,1.0692432,-3.360265
45,4.511753082275391,-1.024487018585205,77.28136444091797,2.1732175330170564,1.4659098331677274,-93.73602583978384,3.075946,1.540319,10.44624,8.648435,-14.402925,-4.3088293,-3.6050322,-13.065846,-1.474892,18.488268,-15.838858,11.162646,3.271126,-2.8775883,3.553031,0.6763786,11.722235,-25.230425,66.30578,4.842822,-8.588811,6.3341126,-5.6536207,-17.181194,55.04771,67.64905,11.758793,1.04798,-3.3601015
46,4.687757968902588,-1.1217249631881714,77.21772766113281,2.482082181698021,1.3889378214248331,-93.84054017238442,3.4204957,0.96596295,10.546622,8.280344,-14.28415,-4.047916,-4.300042,-13.608744,-1.1190627,20.131075,-16.464766,11.171293,3.3430705,-3.149271,3.739916,0.61310995,11.726543,-25.332796,66.28582,4.8616467,-8.582272,6.4138527,-5.6727266,-17.228893,54.840805,67.594215,11.75601,1.0196375,-3.3639927
47,4.861495494842529,-1.2099385261535645,77.14990234375,2.7934273795849647,1.2889930805873644,-93.94396404252372,3.7911685,0.38902476,10.643005,7.909787,-14.166505,-3.7791474,-5.049126,-14.146281,-0.73927724,21.919277,-17.032425,11.201747,3.4168997,-3.4271352,3.9633157,0.537589,11.747408,-25.463032,66.26046,4.8832703,-8.576623,6.4823294,-5.6951914,-17.286411,54.61288,67.51205,11.7481985,0.98919606,-3.373949
48,5.0326738357543945,-1.3006188869476318,77.08519744873047,3.074299966456133,1.1648432197974794,-94.03872434234589,4.1690416,-0.14668839,10.72561,7.582973,-14.080046,-3.505738,-5.836306,-14.639343,-0.35075846,23.818903,-17.434813,11.320693,3.4622586,-3.6754856,4.2187867,0.45925108,11.783317,-25.603422,66.229965,4.9116764,-8.574848,6.5175014,-5.739242,-17.336645,54.394485,67.42149,11.719308,0.96010333,-3.3927543
49,5.206395149230957,-1.3890621662139893,77.02334594726562,3.3221041350270544,1.007849079159064,-94.12269964619477,4.5205007,-0.63139105,10.791794,7.3918924,-14.072926,-3.2105095,-6.6717734,-15.091041,0.058045037,25.869696,-17.66414,11.54016,3.4954038,-3.8952947,4.5203023,0.37114897,11.844587,-25.774734,66.18734,4.948407,-8.578466,6.49987,-5.7937484,-17.391012,54.161915,67.30281,11.651229,0.9345661,-3.4171689
50,5.377170085906982,-1.482824683189392,76.965087890625,3.5521695603550123,0.8210062044946748,-94.20055378022651,4.8217235,-1.0781215,10.848781,7.380312,-14.165617,-2.8978112,-7.5631447,-15.517276,0.49297065,28.079086,-17.775389,11.8238735,3.5110881,-4.1007123,4.8630347,0.27857825,11.925194,-25.959929,66.13288,4.9971333,-8.586283,6.4456716,-5.866474,-17.440819,53.926537,67.17026,11.560431,0.9096787,-3.4475555
51,5.542497634887695,-1.572940707206726,76.91093444824219,3.757463117436004,0.6206260611467939,-94.27423099179724,5.1388955,-1.4906517,10.900601,7.371633,-14.268547,-2.6043863,-8.502016,-15.903825,0.9328626,30.390676,-17.764557,12.1634,3.510663,-4.2856874,5.224683,0.18381752,12.025434,-26.167746,66.07424,5.037728,-8.593943,6.3840756,-5.951017,-17.485329,53.69178,67.02721,11.466797,0.88325775,-3.4898698
52,5.705300331115723,-1.6698728799819946,76.86347198486328,3.931100125067885,0.42309367911640233,-94.34558300653045,5.457467,-1.8573565,10.951676,7.3622017,-14.382837,-2.367348,-9.476356,-16.236021,1.3543556,32.742622,-17.62665,12.550485,3.4913955,-4.4440002,5.582477,0.09309119,12.1449,-26.399067,66.01557,5.0551133,-8.597163,6.344064,-6.040603,-17.522976,53.46156,66.87575,11.387496,0.8534628,-3.5502238
53,5.858358860015869,-1.7649859189987183,76.81362915039062,4.0740380897607755,0.22467177136704752,-94.41838821026285,5.7810297,-2.1779802,11.008672,7.3522987,-14.513651,-2.2093892,-10.490117,-16.51522,1.7697368,35.155468,-17.336565,13.034716,3.4505394,-4.5773964,5.9435697,0.0024806415,12.285097,-26.659176,65.95297,5.018783,-8.592569,6.3496556,-6.1476126,-17.553625,53.256012,66.72153,11.326695,0.8214409,-3.6263201
54,6.009986877441406,-1.8709388971328735,76.76966857910156,4.189696268842873,0.019520687191518754,-94.49045369733516,6.114075,-2.4577994,11.067986,7.343303,-14.658341,-2.1060991,-11.553884,-16.746344,2.1889627,37.66673,-16.912592,13.595869,3.3892808,-4.688117,6.31539,-0.08837633,12.446169,-26.944614,65.88379,4.946506,-8.583239,6.3797207,-6.2695518,-17.576262,53.065166,66.56033,11.273474,0.787627,-3.7162728
55,6.158565521240234,-1.976609468460083,76.7298355102539,4.270192629402133,-0.1793670168114119,-94.5539191013391,6.4438276,-2.6925716,11.118662,7.334831,-14.807779,-2.0246341,-12.66016,-16.929073,2.5828083,40.23161,-16.409365,14.123588,3.3105974,-4.7716107,6.6751165,-0.17222597,12.625277,-27.246767,65.82046,4.891722,-8.574333,6.3960614,-6.3865113,-17.589699,52.85736,66.39029,11.231507,0.7494995,-3.826936
56,6.300850868225098,-2.09055233001709,76.69534301757812,4.312325943640295,-0.3591815711593114,-94.60076865288966,6.756056,-2.8793778,11.15017,7.3306284,-14.955159,-1.9319396,-13.797445,-17.06336,2.9185698,42.796185,-15.876685,14.50927,3.2189612,-4.823389,7.0006585,-0.24585627,12.818021,-27.561811,65.77879,4.9042153,-8.571216,6.3610854,-6.479774,-17.591715,52.604362,66.21229,11.210564,0.7011792,-3.9645221
57,6.438030242919922,-2.2118935585021973,76.664306640625,4.312002692916332,-0.5262223726387001,-94.62964157211924,7.058708,-3.014841,11.159916,7.3282027,-15.099157,-1.8204885,-14.971695,-17.179445,3.1368349,45.40986,-15.270344,14.748586,3.1159842,-4.8375573,7.2968326,-0.31167087,13.0222225,-27.896246,65.76057,5.0315857,-8.581108,6.2494774,-6.5470695,-17.580956,52.297375,66.0252,11.212594,0.6379548,-4.136575
58,6.5662970542907715,-2.3480257987976074,76.64178466796875,4.272801651276885,-0.6844692168128227,-94.64413803888563,7.355363,-3.102718,11.154107,7.329377,-15.245429,-1.7072213,-16.18391,-17.278086,3.2713225,48.07948,-14.581152,14.88078,2.9997232,-4.8188815,7.5718756,-0.37522468,13.237734,-28.253487,65.76359,5.232986,-8.599792,6.087282,-6.5970526,-17.557234,51.94926,65.832245,11.230873,0.56314486,-4.33779
59,6.683686256408691,-2.4935977458953857,76.62706756591797,4.204610662934707,-0.8177912681497084,-94.6443981731187,7.6294627,-3.1499324,11.135396,7.3315263,-15.388897,-1.596242,-17.409668,-17.305712,3.419419,50.67588,-13.905915,14.877715,2.8695889,-4.77843,7.8081036,-0.43077847,13.462086,-28.612312,65.79261,5.439343,-8.614877,5.913421,-6.6269035,-17.520065,51.566875,65.635,11.262998,0.48788098,-4.555976
60,6.797856330871582,-2.6523728370666504,76.62042236328125,4.114598671032236,-0.9098218285399513,-94.63080678900913,7.864469,-3.162421,11.106468,7.3349934,-15.52674,-1.4936386,-18.62327,-17.19539,3.6723535,53.067234,-13.34037,14.727692,2.7247014,-4.7255845,7.9876623,-0.47145838,13.691222,-28.949451,65.85241,5.5837655,-8.613474,5.767093,-6.6325035,-17.468258,51.154785,65.43463,11.303954,0.42315128,-4.77906
61,6.899693489074707,-2.823972463607788,76.62066650390625,3.9977665500193975,-0.9522156844307088,-94.60017854288749,8.050434,-3.134811,11.06687,7.340257,-15.655106,-1.3926655,-19.851643,-16.905025,4.067906,55.295067,-12.893438,14.326442,2.5598128,-4.656749,8.096529,-0.50045127,13.924618,-29.272635,65.95346,5.6351724,-8.587515,5.653868,-6.611493,-17.399502,50.708748,65.231346,11.352834,0.37759563,-5.0095563
62,6.999183654785156,-3.0076355934143066,76.62660217285156,3.8522507449353953,-0.95502004894597,-94.55389084452496,8.19835,-3.065838,11.01608,7.3484893,-15.77741,-1.2939707,-21.089842,-16.463972,4.5373755,57.394726,-12.511495,13.73408,2.3772063,-4.5673776,8.147318,-0.51961267,14.162221,-29.587269,66.09108,5.6363254,-8.545277,5.5548167,-6.5673394,-17.31245,50.228798,65.0269,11.412446,0.34315386,-5.252156
63,7.094048023223877,-3.199296712875366,76.63634490966797,3.686594105817161,-0.9304464071497393,-94.49959874168758,8.323793,-2.9684117,10.958253,7.3552127,-15.898163,-1.2074002,-22.26987,-15.911727,5.0187697,59.238144,-12.195807,13.190322,2.18566,-4.4664507,8.1612015,-0.52568716,14.400418,-29.874966,66.25532,5.6202784,-8.497839,5.4730053,-6.506728,-17.20918,49.726273,64.82899,11.48036,0.3058436,-5.497831
64,7.1822381019592285,-3.393772602081299,76.64729309082031,3.512103838160341,-0.8905599418023592,-94.44504235504643,8.439298,-2.8560488,10.897668,7.362182,-16.02547,-1.1424478,-23.326086,-15.290597,5.4571285,60.69922,-11.957489,12.928406,1.9937065,-4.362621,8.159245,-0.5133836,14.633275,-30.111795,66.43544,5.6254616,-8.456507,5.411395,-6.4345384,-17.093426,49.21398,64.64058,11.556007,0.25217554,-5.7377806
65,7.259617805480957,-3.6028006076812744,76.65959930419922,3.328304384730665,-0.8298484652635447,-94.38537902752621,8.540137,-2.7272718,10.827013,7.3653016,-16.156729,-1.1087784,-24.234709,-14.573983,5.881539,61.72723,-11.865896,13.057479,1.7960477,-4.254033,8.132312,-0.48436904,14.856645,-30.302017,66.64765,5.659994,-8.4269905,5.3797226,-6.3423715,-16.967321,48.680737,64.4609,11.645276,0.17284073,-5.966417
66,7.329781532287598,-3.817929983139038,76.66934967041016,3.1295319411277642,-0.7451067160030515,-94.318701766928,8.622206,-2.5770938,10.746433,7.36534,-16.289522,-1.0987837,-25.034483,-13.754686,6.309682,62.40092,-11.901842,13.434698,1.5910536,-4.1355247,8.074007,-0.44246292,15.069532,-30.453575,66.895874,5.7067013,-8.402681,5.374209,-6.2290955,-16.831532,48.12425,64.28547,11.746684,0.077173784,-6.1894264
67,7.3975324630737305,-4.042770862579346,76.67766571044922,2.9245102546953254,-0.6511716615577371,-94.25654035296655,8.701836,-2.4137893,10.671002,7.366052,-16.42936,-1.0967436,-25.758692,-12.921668,6.679516,62.792137,-11.949144,13.91057,1.3905951,-4.01111,8.009198,-0.38704726,15.271184,-30.552202,67.15363,5.759552,-8.376465,5.377816,-6.112527,-16.688972,47.573105,64.115456,11.847553,-0.021071238,-6.4146266
68,7.4600725173950195,-4.283287525177002,76.68341064453125,2.7197302298131385,-0.5631850501769541,-94.21060867065566,8.798096,-2.2461586,10.616029,7.364482,-16.57787,-1.0867416,-26.439993,-12.159942,6.9303956,62.96695,-11.883539,14.337297,1.204152,-3.8849428,7.9622893,-0.31576338,15.460982,-30.580236,67.392624,5.8137045,-8.341367,5.37317,-6.00787,-16.543928,47.053562,63.945736,11.930799,-0.104600094,-6.6507325
69,7.51397180557251,-4.523471832275391,76.68950653076172,2.510399626176814,-0.4840015828119534,-94.18212719936575,8.9149065,-2.0682917,10.585463,7.3608236,-16.73726,-1.0624862,-27.07774,-11.480961,7.040849,62.91287,-11.664086,14.713516,1.0325468,-3.751932,7.938456,-0.22583376,15.637034,-30.519718,67.61568,5.8782144,-8.294254,5.358733,-5.913299,-16.399502,46.566525,63.76883,12.001038,-0.16945727,-6.914358
70,7.560619831085205,-4.762116432189941,76.68913269042969,2.294786167926834,-0.406156945475479,-94.16562233782719,9.04198,-1.876179,10.571321,7.3570933,-16.90605,-1.0342917,-27.66024,-10.855258,7.0250154,62.599625,-11.355713,15.000033,0.86966777,-3.6117015,7.9253473,-0.11787901,15.798347,-30.380457,67.8337,5.9550104,-8.239354,5.342504,-5.8212733,-16.257067,46.101143,63.584652,12.064668,-0.22367197,-7.196246
71,7.607976913452148,-5.017962455749512,76.6895523071289,2.062946051070218,-0.3304058656395866,-94.17729991092467,9.182046,-1.6545337,10.58461,7.3562994,-17.085333,-1.018075,-28.197325,-10.281909,6.862697,62.05363,-10.979569,15.000033,0.7299318,-3.4560277,7.924208,-1.7942793e-05,15.947468,-30.194714,68.035515,6.0206723,-8.182556,5.322297,-5.7402444,-16.117994,45.66759,63.402885,12.110035,-0.2708604,-7.4659214
72,7.656791687011719,-5.27482795715332,76.68932342529297,1.8427831103546872,-0.2559434045290864,-94.2070508931433,9.332594,-1.4455751,10.611715,7.354825,-17.270258,-1.0121429,-28.698534,-9.763596,6.67714,61.321133,-10.574885,15.000033,0.6026884,-3.310105,7.9324636,0.12537335,16.089201,-29.993353,68.20039,6.053139,-8.125135,5.295096,-5.679339,-15.984693,45.27629,63.236065,12.125159,-0.3148987,-7.6921782
73,7.702269554138184,-5.536412239074707,76.68408203125,1.6540570494086808,-0.1835169905273818,-94.24774663663771,9.49376,-1.2758496,10.643691,7.3492627,-17.45639,-1.0145173,-29.170671,-9.323805,6.4836483,60.408985,-10.143702,15.000033,0.477775,-3.1957743,7.9520288,0.26659688,16.225714,-29.758066,68.316574,6.0517845,-8.061648,5.2558703,-5.640635,-15.859985,44.923416,63.077633,12.112704,-0.35846618,-7.868712
74,7.742761135101318,-5.798380374908447,76.67403411865234,1.4878611830144206,-0.112524224219664,-94.29908777788043,9.664769,-1.131806,10.683147,7.339277,-17.64642,-1.0225533,-29.604969,-8.953801,6.2594733,59.296604,-9.671089,15.000033,0.35657635,-3.102938,7.9827156,0.42462754,16.357204,-29.480953,68.39171,6.025833,-7.9923215,5.206896,-5.6173224,-15.745327,44.604485,62.920498,12.076373,-0.39857468,-8.011131
75,7.7870354652404785,-6.069391250610352,76.66030883789062,1.3340273974531185,-0.038983009558682884,-94.35539995354819,9.839762,-1.0024607,10.727208,7.328029,-17.840439,-1.0331949,-29.994709,-8.638076,6.0060406,57.99964,-9.176531,15.000033,0.23952655,-3.020213,8.019232,0.58531487,16.48557,-29.207018,68.437805,5.9712434,-7.9310317,5.1564765,-5.605071,-15.640873,44.330494,62.773697,12.009412,-0.4300073,-8.121403
76,7.822730541229248,-6.3427300453186035,76.64096069335938,1.1846001497027534,0.04096182995941455,-94.41099719948464,10.01052,-0.8755627,10.773079,7.3222094,-18.044798,-1.0433993,-30.331577,-8.361915,5.724646,56.530415,-8.678606,15.000033,0.12756357,-2.9354866,8.0557375,0.7316718,16.614021,-28.988173,68.46985,5.877403,-7.8915524,5.1133056,-5.5986147,-15.546083,44.108284,62.64755,11.899834,-0.44759402,-8.201664
77,7.855541229248047,-6.619572639465332,76.60800170898438,1.0338919860434344,0.1295903723537315,-94.46616462739254,10.176084,-0.7464342,10.821593,7.3174043,-18.257765,-1.0548365,-30.611273,-8.121514,5.394246,54.867027,-8.158355,15.000033,0.024291905,-2.8448489,8.091891,0.86454713,16.744398,-28.8277,68.482445,5.7181373,-7.8812146,5.0817866,-5.5970726,-15.460126,43.935947,62.53649,11.718013,-0.43823057,-8.243058
78,7.884340763092041,-6.911933422088623,76.5783920288086,0.8882981111591416,0.22411621565005696,-94.52310770020003,10.339402,-0.6211283,10.873821,7.314389,-18.47895,-1.0677973,-30.831446,-7.918781,5.01651,53.002087,-7.610438,15.000033,-0.07103363,-2.7552679,8.130459,0.9915464,16.877111,-28.70314,68.46961,5.5057964,-7.89118,5.0563087,-5.6033497,-15.38348,43.809864,62.439423,11.478511,-0.40892255,-8.247436
79,7.909635543823242,-7.2128005027771,76.53639221191406,0.7507948546752012,0.3209661962329297,-94.57889356711185,10.506408,-0.5039899,10.926055,7.312259,-18.707415,-1.0796828,-30.98979,-7.7399898,4.6272993,50.9734,-7.075595,15.000033,-0.16299738,-2.6691911,8.172191,1.1078745,17.012766,-28.625357,68.44247,5.2913713,-7.9113846,5.030115,-5.6139283,-15.315682,43.733624,62.365818,11.238751,-0.38379973,-8.232843
80,7.931674957275391,-7.520789623260498,76.48697662353516,0.6291927008862821,0.4166913540381077,-94.6306246460933,10.682719,-0.40354365,10.975473,7.3103247,-18.941977,-1.085318,-31.08796,-7.576417,4.2672772,48.82385,-6.5931354,15.000033,-0.25411743,-2.5927088,8.2177105,1.2089983,17.151688,-28.603477,68.41206,5.1290126,-7.931584,4.9966063,-5.6261964,-15.255668,43.712772,62.326088,11.059985,-0.38725486,-8.217414
81,7.945880889892578,-7.833888530731201,76.43002319335938,0.5271378049942056,0.5060882184327309,-94.68168082600842,10.874591,-0.32327688,11.025819,7.309434,-19.185482,-1.0739286,-31.106277,-7.4286466,3.93586,46.516243,-6.185726,15.000033,-0.344522,-2.5290182,8.272683,1.2958623,17.295088,-28.642117,68.37335,5.0320387,-7.9517503,4.950126,-5.6443315,-15.203565,43.763268,62.327885,10.9648,-0.4386188,-8.215815
82,7.958667755126953,-8.158890724182129,76.37104034423828,0.441516683026109,0.5915945731376651,-94.7312685539444,11.07972,-0.2604811,11.076155,7.3068514,-19.435896,-1.051052,-31.042734,-7.2980437,3.6152894,44.029736,-5.8205247,15.000033,-0.4341824,-2.476604,8.335869,1.370356,17.443602,-28.73631,68.32237,4.9708576,-7.9764557,4.895431,-5.6690564,-15.159312,43.87849,62.364864,10.919463,-0.5206657,-8.215139
83,7.968732833862305,-8.486766815185547,76.30464935302734,0.3709591189036086,0.6810197188120929,-94.77025725418146,11.281125,-0.21247025,11.11633,7.316166,-19.695911,-1.0346675,-30.924362,-7.1833205,3.3195198,41.424747,-5.4552603,15.000033,-0.5249162,-2.4344723,8.397106,1.4313359,17.595325,-28.876385,68.271095,4.9414244,-8.002493,4.8412476,-5.691283,-15.120682,44.026466,62.42668,10.897111,-0.60280466,-8.192335
84,7.97786283493042,-8.823198318481445,76.2381591796875,0.3113337782448205,0.7832725585983774,-94.78918205045706,11.471533,-0.17543428,11.13561,7.324153,-19.951777,-1.043219,-30.779795,-7.084436,3.057011,38.76251,-5.048969,15.000033,-0.6198694,-2.3989038,8.443966,1.472718,17.74723,-29.060848,68.23763,4.930798,-8.0270605,4.796971,-5.703476,-15.0855665,44.173313,62.50848,10.867385,-0.65479505,-8.124634
85,7.977967739105225,-9.167301177978516,76.1680679321289,0.26402285251796004,0.9055813690624198,-94.7894157772479,11.643136,-0.15263823,11.132008,7.3273063,-20.200201,-1.0915575,-30.631105,-6.9981728,2.8429348,36.055923,-4.586218,15.000033,-0.71668416,-2.3709579,8.471013,1.4875087,17.898525,-29.309753,68.22785,4.9490056,-8.050975,4.7743173,-5.7081447,-15.052061,44.31847,62.613297,10.82614,-0.67231107,-8.004109
86,7.986093521118164,-9.519253730773926,76.09117126464844,0.23229503016944594,1.0404788170646189,-94.77250932549461,11.803959,-0.14651082,11.108689,7.3292384,-20.445917,-1.1659938,-30.45202,-6.931788,2.6596525,33.262398,-4.086532,15.000033,-0.8159733,-2.3533673,8.485704,1.476379,18.04933,-29.622543,68.236946,4.994279,-8.075602,4.7656884,-5.708402,-15.019742,44.474762,62.746323,10.786061,-0.6704365,-7.8438163
87,7.9881110191345215,-9.8809814453125,76.01080322265625,0.21463260922439178,1.1739927530443597,-94.72909547949791,11.971771,-0.15284504,11.062322,7.3305974,-20.69114,-1.241988,-30.197815,-6.8988,2.4672766,30.359848,-3.5626137,15.000033,-0.9238113,-2.3451571,8.496433,1.4515381,18.196226,-29.952608,68.258965,5.0534015,-8.097625,4.751275,-5.6983695,-14.988582,44.635044,62.901188,10.751288,-0.64818275,-7.6516666
88,7.980574131011963,-10.258410453796387,75.92240905761719,0.21151588606016072,1.2908596526715967,-94.64808488673762,12.164867,-0.16905391,10.9878235,7.3326125,-20.93825,-1.2946347,-29.81692,-6.909993,2.229038,27.313461,-3.01952,15.000033,-1.0488913,-2.3460438,8.513038,1.4224795,18.334663,-30.25688,68.292496,5.1081567,-8.114315,4.7118764,-5.6684594,-14.957557,44.789597,63.06803,10.7218895,-0.6038973,-7.436032
89,7.97202205657959,-10.643730163574219,75.83210754394531,0.23069133607276507,1.3803468959698209,-94.52262155866191,12.395496,-0.20443952,10.879265,7.3367453,-21.195894,-1.3077102,-29.266092,-6.9661574,1.932073,24.052214,-2.443305,15.000033,-1.1982043,-2.3623433,8.542894,1.3909692,18.461742,-30.533092,68.3421,5.169207,-8.124638,4.632763,-5.620828,-14.926804,44.936268,63.252335,10.695138,-0.5291658,-7.1884613
90,7.949565887451172,-11.047783851623535,75.73219299316406,0.28305837648489807,1.4442538751030918,-94.34784112609873,12.659768,-0.27182752,10.727642,7.340781,-21.459219,-1.29483,-28.553188,-7.072553,1.5954869,20.572248,-1.8140004,15.000033,-1.3781636,-2.4048684,8.585926,1.3495035,18.578049,-30.803442,68.412125,5.2383456,-8.130593,4.5278907,-5.557989,-14.895641,45.081837,63.456375,10.672781,-0.42711964,-6.908217
91,7.923543453216553,-11.47012996673584,75.62234497070312,0.37576692899243164,1.4851464022220302,-94.11521236470725,12.9526615,-0.37713164,10.52222,7.343318,-21.71364,-1.2754126,-27.702385,-7.2457676,1.2298151,16.941498,-1.1284773,15.000033,-1.5970979,-2.4836905,8.639347,1.2989676,18.681435,-31.050148,68.49943,5.297643,-8.13405,4.4204826,-5.476603,-14.864089,45.232418,63.67408,10.66149,-0.31399503,-6.6151047
92,7.888974189758301,-11.897066116333008,75.50139617919922,0.5121172191044231,1.508066630549578,-93.81949919325508,13.267076,-0.52060187,10.255985,7.342913,-21.944164,-1.2697175,-26.734167,-7.4974947,0.8382468,13.21496,-0.38120827,15.000033,-1.8607801,-2.6027822,8.697674,1.2382267,18.764973,-31.252913,68.60503,5.331556,-8.136844,4.334752,-5.3736596,-14.835103,45.39513,63.89979,10.668992,-0.20578098,-6.3289046
93,7.847080230712891,-12.33398151397705,75.37611389160156,0.6875365263113674,1.5155666890005393,-93.45455340168884,13.60032,-0.69745654,9.922238,7.3382235,-22.15688,-1.2802801,-25.577723,-7.82473,0.43872824,9.209634,0.5091244,15.000033,-2.173074,-2.7565536,8.760236,1.16008,18.82544,-31.411327,68.73795,5.3241215,-8.141796,4.2786093,-5.2476006,-14.81164,45.570847,64.13257,10.696045,-0.103398964,-6.0483274
94,7.801430702209473,-12.791117668151855,75.2474594116211,0.8976545007468086,1.5066169619289156,-93.02839165608938,13.952487,-0.9008694,9.529027,7.3331633,-22.357052,-1.2989241,-25.123638,-8.194057,0.12969165,6.795205,0.5431801,15.000033,-2.5320609,-2.9576647,8.826853,1.1071186,18.916422,-31.530706,68.840096,5.2779284,-8.143923,4.23133,-5.109772,-14.768332,45.76787,64.38871,10.744289,-0.0018572623,-5.767734
95,7.743640422821045,-13.254286766052246,75.1236572265625,1.1267475824826683,1.4903697634103779,-92.57276287995813,14.315935,-1.1095294,9.108488,7.3282094,-22.525806,-1.3324047,-25.664696,-8.576974,-0.10765509,6.616439,-0.56776655,15.000033,-2.899521,-3.1718042,8.888444,1.037094,18.979387,-31.613604,68.96288,5.2322974,-8.142154,4.194083,-4.947757,-14.733731,45.961002,64.642914,10.804545,0.098831415,-5.491313
96,7.6828932762146,-13.727675437927246,75.00023651123047,1.37170658702723,1.4754357977891919,-92.11460677073195,14.684206,-1.3186389,8.687778,7.322765,-22.645203,-1.3839414,-26.155195,-8.975378,-0.47948864,6.506886,-1.6260732,15.000033,-3.2557547,-3.4029143,8.932977,0.9781395,19.040838,-31.660576,69.06456,5.20052,-8.13001,4.1558375,-4.7707963,-14.694871,46.159874,64.89971,10.885392,0.19485006,-5.229543
97,7.615633964538574,-14.21481990814209,74.88501739501953,1.6027594922399977,1.4718283851683136,-91.66242372248144,15.048137,-1.4935356,8.286735,7.3177276,-22.713377,-1.457481,-26.58964,-9.373514,-0.999404,6.393625,-2.6240046,15.000033,-3.5815277,-3.6178913,8.952494,0.9176561,19.090368,-31.671347,69.161766,5.19392,-8.103133,4.1100655,-4.5665607,-14.658531,46.341084,65.15131,10.999216,0.2810631,-4.9816694
98,7.538599491119385,-14.704805374145508,74.77344512939453,1.8339859952149111,1.4871510253255644,-91.21162218510854,15.39808,-1.6523405,7.897615,7.3127365,-22.73848,-1.549438,-27.004435,-9.776554,-1.6169343,6.3124876,-3.5866337,15.000033,-3.8942466,-3.831773,8.939409,0.87482,19.138615,-31.635235,69.2361,5.198908,-8.063157,4.062402,-4.3492036,-14.616111,46.529564,65.41313,11.148797,0.36021185,-4.7451816
99,7.449857711791992,-15.214048385620117,74.66938781738281,2.03229758481918,1.523397727201874,-90.80877712260146,15.7381315,-1.7574953,7.5558467,7.308938,-22.725853,-1.6773361,-27.367054,-10.1002445,-2.3357432,6.2974014,-4.4412866,15.000033,-4.1437745,-4.00997,8.904506,0.82087064,19.175846,-31.57658,69.30212,5.2046156,-8.021421,4.0261083,-4.1211557,-14.575549,46.72267,65.67175,11.286815,0.4401253,-4.520639
100,7.355825424194336,-15.732574462890625,74.56846618652344,2.1928536260698235,1.582411537965693,-90.47491827829386,16.063505,-1.8062731,7.2678356,7.3066235,-22.67295,-1.8475016,-27.610952,-10.323156,-3.1639733,6.309763,-5.079425,15.000033,-4.3184667,-4.145702,8.85316,0.7658714,19.203161,-31.50327,69.33538,5.205184,-7.98387,4.01705,-3.8978872,-14.53771,46.935898,65.93358,11.374636,0.5243506,-4.3075066
101,7.250053405761719,-16.243572235107422,74.4687728881836,2.3948617600665107,1.6172188713305937,-90.17538584419123,16.415602,-1.8944005,6.9782405,7.305186,-22.578213,-2.0420063,-27.64931,-10.544928,-4.2134123,6.325624,-5.4946012,15.000033,-4.45964,-4.334615,8.811328,0.7161767,19.229727,-31.406834,69.34819,5.1968136,-7.9558234,4.046576,-3.6685092,-14.491309,47.2031,66.20036,11.395396,0.61987,-4.1121826
102,7.13437032699585,-16.754268646240234,74.36333465576172,2.6292937355629933,1.6451364051565132,-89.90579269241027,16.776596,-2.0120945,6.6946597,7.304741,-22.441616,-2.2594333,-27.524876,-10.772033,-5.4431314,6.3272586,-5.716727,15.000033,-4.5493417,-4.5611696,8.76676,0.6555612,19.250706,-31.30518,69.35065,5.1803427,-7.9318113,4.104731,-3.4182081,-14.446054,47.48069,66.45983,11.362341,0.72207,-3.9304116
103,7.0200324058532715,-17.25666046142578,74.27960968017578,2.8024683146546265,1.7040488463989423,-89.69240396362828,17.107967,-2.0600367,6.470011,7.3005824,-22.252249,-2.5079787,-27.318192,-10.926507,-6.6388383,6.310071,-5.7120447,15.000033,-4.5781283,-4.7177405,8.703852,0.5889818,19.264761,-31.18653,69.320244,5.1625967,-7.909426,4.1649284,-3.1790962,-14.403978,47.76518,66.713936,11.321764,0.82360196,-3.7560537
104,6.921455383300781,-17.763351440429688,74.23258209228516,2.819750982753828,1.8229474543990538,-89.55350470963641,17.383419,-1.9373288,6.3502107,7.2873044,-22.001608,-2.7969387,-27.10651,-10.938847,-7.580677,6.2867446,-5.458204,15.000033,-4.5689683,-4.6973133,8.612155,0.54062426,19.269674,-31.013695,69.22596,5.152281,-7.886605,4.2016525,-3.0031743,-14.358577,48.08482,66.985504,11.327318,0.91691697,-3.5843682
105,6.84787130355835,-18.267383575439453,74.23865509033203,2.6004813193096155,2.0302132934127375,-89.52692409581691,17.57883,-1.562954,6.384959,7.263159,-21.697754,-3.149308,-26.907785,-10.73931,-8.198949,6.2759647,-4.8530483,15.000033,-4.4576797,-4.4063916,8.502061,0.47345027,19.257553,-30.804562,69.066505,5.155877,-7.8576345,4.199174,-2.8973906,-14.325683,48.390686,67.256325,11.377929,0.9995895,-3.4083757
106,6.778184413909912,-18.77212905883789,74.29936981201172,2.1745547690762796,2.305438842974338,-89.61281938380718,17.725603,-0.96689755,6.565378,7.229308,-21.348505,-3.5670726,-26.717983,-10.305735,-8.584325,6.3202505,-3.9449441,15.000033,-4.2382855,-3.8863685,8.376751,0.38548237,19.22615,-30.563555,68.86155,5.1675797,-7.824708,4.174431,-2.8352637,-14.307158,48.69496,67.516624,11.4516945,1.0765272,-3.2358942
107,6.682178974151611,-19.301010131835938,74.3788070678711,1.6231485135359842,2.565232403274825,-89.79411831822736,17.91569,-0.21161132,6.8679147,7.2068224,-20.959347,-4.043528,-26.528818,-9.542488,-8.737885,6.389294,-2.899528,13.937747,-3.980816,-3.2435188,8.256584,0.34599823,19.170826,-30.259874,68.61909,5.1860924,-7.8037214,4.15695,-2.8072913,-14.294945,49.066998,67.78752,11.55942,1.1534173,-3.0670955
108,6.55845308303833,-19.859947204589844,74.4444580078125,1.0649243749966228,2.747416544726774,-89.97877635395673,18.205048,0.581121,7.192127,7.2034073,-20.514395,-4.53467,-26.28303,-8.615158,-8.794182,6.4014397,-1.8884667,12.108505,-3.7047935,-2.6164064,8.153808,0.31439018,19.104927,-30.001617,68.39777,5.1658416,-7.8012924,4.1652102,-2.7176645,-14.286563,49.42696,68.02254,11.654005,1.2363648,-2.9139166
109,6.4223713874816895,-20.434497833251953,74.5015640258789,0.5934953393781528,2.8520311360631534,-90.07012478903158,18.5744,1.2910495,7.440782,7.2241087,-20.002934,-4.985427,-26.004236,-7.798317,-8.727344,6.429355,-1.0157144,10.59803,-3.5197227,-2.0741339,8.047045,0.30875427,19.015877,-29.780054,68.19437,5.084146,-7.8280897,4.2129345,-2.5763748,-14.276683,49.805885,68.24217,11.753636,1.3372711,-2.7753716
110,6.278561115264893,-21.023414611816406,74.56153869628906,0.11704563831004194,2.909799219208896,-90.12103535573765,19.003006,2.0187473,7.6751103,7.2548513,-19.426514,-5.4322515,-25.680355,-6.9656677,-8.538039,6.4367948,-0.14108968,9.16336,-3.324348,-1.53354,7.9450154,0.303224,18.943647,-29.64611,67.97611,4.93323,-7.8729734,4.279154,-2.3783822,-14.269001,50.13017,68.42606,11.840801,1.4483862,-2.6460655
111,6.129093170166016,-21.633682250976562,74.61563873291016,-0.3238336678929179,2.940914768442986,-90.12332636194964,19.456007,2.7188249,7.8636417,7.296623,-18.773876,-5.8768783,-25.320581,-6.194838,-8.343061,6.4314203,0.76445496,7.9955206,-3.1605344,-1.0325737,7.8305717,0.31918207,18.88295,-29.542383,67.739624,4.7804008,-7.9206285,4.350842,-2.1446807,-14.262458,50.42837,68.58661,11.904864,1.5446209,-2.5261204
112,5.978964805603027,-22.270263671875,74.6629409790039,-0.6908440260843961,2.9692482829551943,-90.06827707800109,19.893774,3.349967,7.973156,7.3501077,-18.038855,-6.3240814,-24.932756,-5.5638146,-8.254933,6.4225497,1.7079295,7.280579,-3.0623538,-0.6006524,7.678252,0.35384846,18.808216,-29.432978,67.51249,4.684946,-7.955033,4.4194174,-1.8934479,-14.255213,50.71942,68.74787,11.932789,1.6001264,-2.4163759
113,5.820617198944092,-22.914134979248047,74.70134735107422,-0.9511943341548246,3.0092767645534675,-89.92123861185694,20.26265,3.884979,7.968205,7.4795103,-17.258492,-6.7771726,-24.5142,-5.137774,-8.276223,6.400523,2.7520123,7.2179675,-3.0065877,-0.28130874,7.4749584,0.38566828,18.761957,-29.399414,67.285484,4.627237,-7.97162,4.4697595,-1.5766964,-14.251761,50.924812,68.87564,11.868748,1.5887073,-2.3154464
114,5.6525774002075195,-23.567134857177734,74.74323272705078,-1.1367352230262853,3.0566474071404124,-89.70052231335485,20.104551,4.4215746,7.8397784,8.689038,-16.967072,-7.238641,-24.063011,-4.866794,-8.340845,6.3690557,3.8551724,7.6335144,-3.0275278,-0.03107259,7.2192354,0.43599674,18.70605,-29.378855,67.06777,4.605212,-7.9800076,4.5172744,-1.226958,-14.2492485,51.1242,68.99722,11.757356,1.5303673,-2.225588
115,5.492603302001953,-24.22459602355957,74.78996276855469,-1.305749728131589,3.104092841652344,-89.47579803062013,19.903864,4.946406,7.673597,9.976944,-16.621225,-7.713299,-23.583408,-4.6523933,-8.461781,6.3477254,4.8640423,8.159693,-3.0485609,0.20359822,6.9410787,0.5023495,18.643585,-29.349472,66.84236,4.6263256,-7.982871,4.5723844,-0.8687383,-14.248871,51.29535,69.105415,11.645584,1.4683844,-2.1434548
116,5.3323073387146,-24.882919311523438,74.83429718017578,-1.513988254929728,3.1400170858985623,-89.30823730611755,19.645943,5.5161448,7.5143747,11.416309,-16.2445,-8.205208,-23.080484,-4.3967824,-8.667936,6.359079,5.6089005,8.449944,-3.0295193,0.47742572,6.6700134,0.5950605,18.562225,-29.253313,66.597885,4.7104816,-7.984501,4.6482677,-0.53771853,-14.252493,51.453976,69.19983,11.591799,1.4471159,-2.0658646
117,5.166735649108887,-25.55023765563965,74.87952423095703,-1.7708728525778767,3.1670636391223708,-89.20407454472694,19.333183,6.1388707,7.3616304,13.000794,-15.832625,-8.723617,-22.55641,-4.0949836,-9.034908,6.415829,6.017639,8.457986,-2.960989,0.79812217,6.4036465,0.7224425,18.46871,-29.083275,66.32106,4.8929234,-7.9818773,4.7527313,-0.22876464,-14.262085,51.580276,69.26698,11.620368,1.4887738,-1.9925176
118,4.990825653076172,-26.219881057739258,74.92731475830078,-2.045968655356229,3.188342615651918,-89.12847066163746,18.981934,6.7788186,7.187416,14.6770935,-15.364655,-9.269316,-22.280682,-3.8216534,-9.512777,7.079304,5.8850064,8.366519,-2.864736,1.1304803,6.1322694,0.88230443,18.384792,-28.877762,66.004585,5.1427903,-7.9725757,4.8742456,0.07528684,-14.2750025,51.667645,69.305565,11.696089,1.5660142,-1.925044
119,4.805057525634766,-26.892602920532227,74.98147583007812,-2.332432478302607,3.188878350273529,-89.07692663666893,18.617529,7.4224396,6.991221,16.416199,-14.825458,-9.831374,-22.472395,-3.5864398,-9.962351,8.805012,5.032792,8.180706,-2.7774081,1.4764947,5.873428,1.0690739,18.26804,-28.589365,65.67988,5.4243608,-7.965327,5.004256,0.34695414,-14.299196,51.780792,69.34211,11.792356,1.6509467,-1.8626324
120,4.6104278564453125,-27.563323974609375,75.04122161865234,-2.6270126238350255,3.155697175288717,-89.04770735567138,18.247152,8.063973,6.7741156,18.224705,-14.211949,-10.397004,-22.537306,-3.2680528,-10.295449,10.305421,4.2087836,7.894703,-2.6830335,1.8181944,5.65119,1.2861773,18.15473,-28.241962,65.317406,5.6617227,-7.9634204,5.1218576,0.57898104,-14.327272,51.92203,69.386665,11.865521,1.712465,-1.8037509
121,4.41640567779541,-28.233455657958984,75.10609436035156,-2.938575090685174,3.0747078676056865,-89.06365050301761,17.897017,8.707705,6.53369,20.090702,-13.511861,-10.949103,-22.507391,-2.8499653,-10.439425,11.674911,3.3397942,7.4701715,-2.5835946,2.1668367,5.4757357,1.560776,18.032309,-27.771103,64.900276,5.8607893,-7.965412,5.2181983,0.76021045,-14.360525,52.142174,69.45524,11.92755,1.7362071,-1.7491673
122,4.220189571380615,-28.90937042236328,75.17156982421875,-3.2618799905031546,2.9547754061461284,-89.12024146973698,17.558588,9.347827,6.2709312,22.00984,-12.726906,-11.5009575,-22.427727,-2.3690317,-10.45995,13.017796,2.3472464,6.919258,-2.475681,2.5176792,5.3356643,1.8831251,17.904854,-27.198954,64.4339,6.0448475,-7.9691443,5.3031273,0.8981714,-14.39693,52.41559,69.53855,11.992761,1.7398404,-1.6992786
123,4.024791717529297,-29.58991241455078,75.24140930175781,-3.5757190895172712,2.81785851271196,-89.1765729250881,17.185303,9.968562,5.992704,24.000431,-11.875401,-12.082365,-22.261253,-1.8745507,-10.436526,14.214296,1.3581405,6.3104014,-2.3859673,2.8492606,5.2201653,2.2101257,17.777702,-26.604425,63.954437,6.2000833,-7.9816365,5.3907404,0.99615157,-14.4345455,52.689034,69.61701,12.032072,1.7433498,-1.6523205
124,3.8293986320495605,-30.26199722290039,75.32011413574219,-3.85975291883223,2.6865870760494936,-89.1940482468374,16.726028,10.556515,5.705597,26.091572,-10.981652,-12.720175,-21.97969,-1.4103158,-10.45189,15.155891,0.4952278,5.711592,-2.3343978,3.1392863,5.1182685,2.4957924,17.661179,-26.078459,63.501842,6.3049297,-8.010841,5.495503,1.0571795,-14.471456,52.904583,69.672874,12.015193,1.7663742,-1.6066028
125,3.6322247982025146,-30.92237663269043,75.40641784667969,-4.114223673089997,2.566586083656061,-89.16396476435793,16.168436,11.113228,5.392845,28.303099,-10.048791,-13.469137,-21.55566,-0.96388096,-10.519972,15.766077,-0.19049187,5.1022644,-2.3191953,3.3774126,5.0262704,2.7438662,17.56965,-25.637697,63.064354,6.3548403,-8.051592,5.6174192,1.0787206,-14.502446,53.051468,69.70672,11.909692,1.8258172,-1.5420915
126,3.434962749481201,-31.586091995239258,75.4986343383789,-4.348485741245627,2.445814306444841,-89.11115360888537,15.5286,11.644191,5.0536113,30.63814,-9.0793495,-14.295125,-21.0163,-0.5170641,-10.594,16.130583,-0.778251,4.4597535,-2.3374279,3.5790403,4.951987,2.9788961,17.489511,-25.222631,62.630077,6.365746,-8.105098,5.750598,1.0549933,-14.531003,53.171513,69.72713,11.743059,1.9075091,-1.4660376
127,3.2395734786987305,-32.23229217529297,75.59259796142578,-4.553741004027917,2.321715983606556,-89.0459633695572,14.792112,12.140779,4.72801,33.110954,-8.090871,-15.000033,-20.415213,-0.10177737,-10.671413,16.375196,-1.330862,3.8480115,-2.3528042,3.741571,4.898207,3.177917,17.437767,-24.883116,62.207394,6.3184657,-8.175663,5.894129,1.0062141,-14.55247,53.216988,69.72646,11.556071,1.9817438,-1.4174664
128,3.061030864715576,-32.87044906616211,75.68704223632812,-4.62817586523161,2.2107639130017236,-88.96657341193902,13.941892,12.484205,4.534917,35.66527,-7.050708,-15.000033,-19.91839,0.12409003,-10.707437,16.815096,-1.9993489,3.3547168,-2.3815713,3.7875211,4.8489656,3.3311362,17.400352,-24.612597,61.81695,6.217208,-8.273665,6.050502,0.9341994,-14.576313,53.192177,69.69947,11.4049425,2.0211112,-1.4356576
129,2.8778369426727295,-33.506492614746094,75.77458953857422,-4.68034127526804,2.0937951610130905,-88.88347667216905,12.969237,12.86258,4.394109,38.43051,-6.0151725,-15.000033,-19.389893,0.31008768,-10.780543,17.217268,-2.6788094,2.9670706,-2.3997498,3.8130865,4.81873,3.4271474,17.385704,-24.457657,61.468052,5.9978137,-8.41714,6.2477593,0.85242915,-14.596139,53.074257,69.64609,11.28677,2.0130377,-1.5471544
130,2.697543144226074,-34.13740158081055,75.85870361328125,-4.715779738457516,1.9714121461572405,-88.79328942970007,11.8832035,13.275769,4.2812557,41.38658,-4.972927,-15.000033,-18.809578,0.47858337,-10.888089,17.527906,-3.3375914,2.6470942,-2.4205782,3.8243957,4.814715,3.4758706,17.383335,-24.381746,61.15069,5.6942186,-8.5983925,6.4743757,0.75639886,-14.6359215,52.8766,69.54637,11.176926,1.9770445,-1.7236243
131,2.5080227851867676,-34.755592346191406,75.94384765625,-4.758546965159137,1.8312001576415593,-88.70361601278215,10.718658,13.735959,4.177436,44.437737,-3.9231758,-15.000033,-18.168928,0.6673526,-11.009228,17.739061,-3.9549615,2.3636427,-2.4326317,3.8437665,4.8487077,3.4845705,17.394077,-24.360098,60.861423,5.404464,-8.781945,6.675873,0.6357128,-14.679626,52.612312,69.42113,11.097,1.9256968,-1.9284127
132,2.3262269496917725,-35.369014739990234,76.02429962158203,-4.833601322484474,1.6606328220234068,-88.62170321772233,9.509216,14.252362,4.0617666,47.49147,-2.8700292,-15.000033,-17.448524,0.9107655,-11.12046,17.82315,-4.50063,2.089012,-2.411768,3.8998585,4.9458694,3.4488673,17.41619,-24.365978,60.590996,5.235828,-8.931783,6.79552,0.5056672,-14.758704,52.262596,69.22826,11.053805,1.8762354,-2.1201825
133,2.1540136337280273,-35.976524353027344,76.0977783203125,-4.958698160860772,1.4464451163593721,-88.54917236639562,8.204375,14.86842,3.915208,50.665836,-1.6505653,-15.000033,-16.615274,1.2289189,-11.2177105,17.741194,-4.958857,1.8308786,-2.3880699,4.016251,5.124246,3.3757803,17.435768,-24.369171,60.345715,5.252796,-9.039038,6.795144,0.33968708,-14.857368,51.827065,68.9831,11.057747,1.8454431,-2.2846553
134,1.9800305366516113,-36.57155990600586,76.16802215576172,-5.12264939821627,1.1983382030061362,-88.48489933150232,6.8073134,15.559066,3.71245,53.954838,-0.3141836,-15.000033,-15.677935,1.6065784,-11.308787,17.49676,-5.3379526,1.599355,-2.352848,4.1811323,5.3671045,3.2538264,17.451794,-24.399897,60.13735,5.385241,-9.122729,6.71441,0.14732,-14.979516,51.30495,68.68748,11.100427,1.8206619,-2.4439971
135,1.8152283430099487,-37.15406036376953,76.23037719726562,-5.3028429825021615,0.9385213392671183,-88.43132059730496,5.4315286,16.232012,3.4547722,57.084644,0.81993157,-15.000033,-14.705405,2.011355,-11.384989,17.181604,-5.6761756,1.374217,-2.2980049,4.3679814,5.639552,3.1013238,17.462017,-24.435099,59.95571,5.5650682,-9.189036,6.616496,-0.06432731,-15.125731,50.77552,68.37032,11.186062,1.7705612,-2.6164043
136,1.6636250019073486,-37.730281829833984,76.28540802001953,-5.441516321828071,0.696724298287639,-88.3819729248655,4.179939,16.775682,3.1943045,59.786507,1.4355441,-15.000033,-13.814823,2.3577454,-11.4328785,16.977404,-6.05626,1.1438369,-2.2291582,4.5153112,5.898692,2.9375896,17.464037,-24.448301,59.79161,5.7224255,-9.244147,6.5644164,-0.29655272,-15.294152,50.328537,68.070694,11.324664,1.6629248,-2.820301
137,1.5220555067062378,-38.29451370239258,76.32608032226562,-5.572131635678032,0.4698679607990615,-88.33790006088833,3.1234562,17.274187,3.03819,61.989433,1.3417269,-14.962751,-12.995258,2.6844494,-11.469315,16.863714,-6.463461,0.88688844,-2.1465158,4.660371,6.1489263,2.7637336,17.455847,-24.427835,59.641537,5.8672514,-9.28413,6.571071,-0.5517273,-15.483525,49.98651,67.794044,11.544958,1.4672991,-3.0727391
138,1.392336368560791,-38.85453796386719,76.36158752441406,-5.719900684390484,0.24383793960773786,-88.30292293992596,2.1895769,17.770521,2.9481583,63.861065,0.7306249,-14.892164,-12.187233,3.025544,-11.496564,16.74942,-6.858017,0.6159101,-2.0508757,4.8283668,6.4093294,2.5726242,17.437029,-24.38428,59.51175,6.0282836,-9.307617,6.6043377,-0.83373463,-15.693645,49.710167,67.52667,11.835495,1.2075323,-3.3590715
139,1.2665499448776245,-39.4183235168457,76.39804077148438,-5.851860242981617,0.022831429066950404,-88.28047607971129,1.2783535,18.139643,2.7796197,65.50227,-0.15588802,-14.795756,-11.383496,3.3478105,-11.499988,16.618778,-7.2411118,0.3603132,-1.940317,4.983918,6.6705437,2.3741634,17.408031,-24.321548,59.402718,6.1683226,-9.323845,6.6587048,-1.139728,-15.920395,49.489815,67.275215,12.139976,0.9306988,-3.6496806
140,1.1469032764434814,-39.97140121459961,76.4367904663086,-5.933247481094259,-0.18883075596046348,-88.27395614737914,0.2925122,18.275747,2.445278,67.0085,-1.0730411,-14.518393,-10.578627,3.616214,-11.466631,16.457415,-7.6129737,0.14983654,-1.8148072,5.090683,6.9230556,2.1789908,17.370216,-24.242876,59.315277,6.2489443,-9.342388,6.728683,-1.4699193,-16.15777,49.317245,67.047646,12.402433,0.68856233,-3.917103
141,1.029970645904541,-40.53461837768555,76.4876937866211,-5.952020638802153,-0.39408220840967184,-88.28455246700943,-0.8014706,18.096884,1.8747014,68.40756,-2.0608091,-13.919865,-9.766873,3.8214202,-11.393131,16.258154,-7.971903,-0.008183283,-1.6703647,5.136357,7.1712294,1.985481,17.324186,-24.146433,59.2489,6.251382,-9.366124,6.8241673,-1.8334,-16.400887,49.2091,66.8531,12.628592,0.47988102,-4.158359
142,0.9135403633117676,-41.08537292480469,76.53864288330078,-5.928511441078022,-0.5941733802684162,-88.31056260171411,-1.944783,17.654154,1.1361706,69.64875,-3.2062213,-13.127952,-8.954264,3.9817092,-11.289686,16.033573,-8.319929,-0.12984408,-1.5088545,5.140555,7.4175186,1.7904452,17.270313,-24.03073,59.203453,6.1987696,-9.390069,6.944315,-2.2320185,-16.647642,49.164757,66.69372,12.841955,0.2822578,-4.3875074
143,0.8082548975944519,-41.63351058959961,76.59326171875,-5.875727728117013,-0.7823843469870673,-88.35066980552621,-3.09346,17.051062,0.35346535,70.70386,-4.335728,-12.382819,-8.149961,4.10703,-11.165031,15.790581,-8.657814,-0.22214408,-1.3370073,5.116319,7.651495,1.6042553,17.209486,-23.898808,59.176674,6.117403,-9.411549,7.0670433,-2.6496012,-16.894064,49.146927,66.56135,13.013178,0.11392105,-4.6033435
144,0.7159485220909119,-42.15862274169922,76.6415023803711,-5.805567791883485,-0.9516283452641507,-88.40358356069541,-4.206547,16.408688,-0.3481215,71.54324,-5.2847505,-11.919071,-7.365524,4.207224,-11.027603,15.539327,-8.987699,-0.2923878,-1.1600635,5.0758977,7.8613153,1.435744,17.143261,-23.756054,59.16774,6.0331173,-9.427776,7.170513,-3.071057,-17.135923,49.11865,66.45143,13.114473,-0.0071691717,-4.8046823
145,0.6216697096824646,-42.70750427246094,76.69608306884766,-5.716129136774786,-1.1040601372122516,-88.46802331686237,-5.2642627,15.741208,-0.94357306,72.13857,-6.008444,-11.82804,-6.59503,4.2796245,-10.876652,15.273878,-9.307767,-0.33631155,-0.9756707,5.014192,8.0458765,1.2850262,17.071583,-23.598892,59.184708,5.936588,-9.440309,7.241467,-3.4983344,-17.370495,49.08233,66.37586,13.121041,-0.06909816,-4.9957423
146,0.5254465341567993,-43.25551223754883,76.74921417236328,-5.603302965834853,-1.242147363824645,-88.54516407597633,-6.2900815,15.005429,-1.4905255,72.51086,-6.598801,-11.968077,-5.837082,4.3219438,-10.710768,14.995136,-9.618338,-0.35410383,-0.7814651,4.9270945,8.210635,1.1468596,16.994644,-23.42865,59.226814,5.8176713,-9.449802,7.2941046,-3.9398441,-17.596283,49.05395,66.33783,13.054812,-0.08354622,-5.17609
147,0.4401390552520752,-43.78947830200195,76.79957580566406,-5.476644004703438,-1.3588718702720035,-88.63727799480299,-7.3103485,14.242967,-1.9899478,72.69879,-7.0996118,-12.223365,-5.1010823,4.345756,-10.535401,14.704647,-9.9188795,-0.35942,-0.5821949,4.826538,8.353397,1.025745,16.914654,-23.254412,59.275116,5.705811,-9.4518795,7.347351,-4.388005,-17.811388,49.01236,66.318214,12.953506,-0.067869395,-5.3374524
148,0.3600988984107971,-44.323951721191406,76.84797668457031,-5.34750748255412,-1.4469601631317321,-88.74672391349425,-8.352393,13.491738,-2.4447272,72.74182,-7.5530267,-12.479425,-4.398136,4.36154,-10.355507,14.407327,-10.210308,-0.36489892,-0.38144404,4.7238684,8.471702,0.92389923,16.835564,-23.089857,59.31211,5.6269035,-9.442176,7.420165,-4.8356833,-18.014725,48.93497,66.299164,12.853991,-0.0398872,-5.471536
149,0.2854921519756317,-44.857032775878906,76.89712524414062,-5.217820088244018,-1.4985269185274694,-88.88004726298595,-9.427139,12.75256,-2.8506892,72.63262,-7.939804,-12.760895,-3.7391322,4.3703947,-10.170672,14.103979,-10.489082,-0.3782629,-0.17740093,4.620426,8.557847,0.8489697,16.75914,-22.935482,59.32928,5.593006,-9.411894,7.529935,-5.2850437,-18.204203,48.813953,66.28475,12.743584,0.006630986,-5.569136
150,0.21144656836986542,-45.3936767578125,76.94022369384766,-5.083314623463596,-1.519294856162779,-89.03421609325385,-10.5186,12.012843,-3.2096183,72.35322,-8.2484865,-13.1097145,-3.1178966,4.367084,-9.979161,13.796808,-10.758598,-0.39128056,0.031809747,4.5090647,8.615396,0.7971509,16.685848,-22.787678,59.336685,5.5860567,-9.365674,7.662174,-5.7416325,-18.37972,48.66354,66.28653,12.6116705,0.077145524,-5.636803
151,0.139414444565773,-45.92498016357422,76.97981262207031,-4.9433987262765,-1.5225289120889924,-89.19693069657811,-11.613294,11.28878,-3.5324087,71.92377,-8.525901,-13.435266,-2.5121078,4.352794,-9.782313,13.476917,-11.020596,-0.39148104,0.2438368,4.3887763,8.660157,0.7600443,16.617147,-22.647507,59.336746,5.5942497,-9.319234,7.7870803,-6.190614,-18.541292,48.483513,66.280525,12.491453,0.15356702,-5.6895676
152,0.06803051382303238,-46.45537185668945,77.01698303222656,-4.797478001924327,-1.521719521880333,-89.3558334110536,-12.698459,10.594128,-3.8314047,71.365685,-8.819035,-13.648492,-1.9027587,4.328298,-9.582252,13.140726,-11.279907,-0.36627716,0.45708147,4.258287,8.707609,0.7272127,16.555662,-22.518469,59.333714,5.603398,-9.288244,7.875042,-6.6217875,-18.690924,48.279724,66.24772,12.423003,0.21713862,-5.7426705
153,-0.0001411086559528485,-46.98783874511719,77.04826354980469,-4.640794420989624,-1.5180647332530897,-89.51135449757263,-13.783344,9.911891,-4.120012,70.68439,-9.158291,-13.696094,-1.2852451,4.2890115,-9.375912,12.781039,-11.536934,-0.300175,0.67243266,4.111599,8.761154,0.70055145,16.504877,-22.4036,59.320427,5.616211,-9.275934,7.918649,-7.0301876,-18.829054,48.036842,66.17817,12.417669,0.27252823,-5.796338
154,-0.06120024621486664,-47.522796630859375,77.07508850097656,-4.473906024477417,-1.5051622570658767,-89.66905542077684,-14.869334,9.242149,-4.3893437,69.86537,-9.509586,-13.634275,-0.669547,4.2355485,-9.163534,12.401052,-11.788916,-0.203467,0.89134014,3.9500701,8.813715,0.68565285,16.465473,-22.30089,59.293888,5.6372533,-9.27417,7.932869,-7.420316,-18.955503,47.755543,66.080696,12.453343,0.3264165,-5.843682
155,-0.1345527023077011,-48.04964828491211,77.0937728881836,-4.308279616716983,-1.484383321632816,-89.82431597312521,-15.930895,8.620923,-4.620173,68.90324,-9.82813,-13.542545,-0.058544617,4.174809,-8.95245,12.013327,-12.038242,-0.10172925,1.1117123,3.7834818,8.864586,0.67908067,16.434498,-22.203756,59.264927,5.657278,-9.281479,7.921835,-7.7968287,-19.073074,47.465614,65.964966,12.518687,0.36273175,-5.889579
156,-0.19401316344738007,-48.584896087646484,77.111572265625,-4.151042547901974,-1.4569338546366664,-89.97247007748284,-16.943966,8.08712,-4.7892375,67.79148,-10.065314,-13.496158,0.54154044,4.11477,-8.749239,11.63815,-12.28607,-0.021005167,1.3303657,3.6236136,8.913277,0.67773956,16.405846,-22.103586,59.24427,5.668889,-9.296594,7.8898473,-8.160875,-19.185383,47.195217,65.83497,12.600608,0.3662741,-5.9388094
157,-0.25088462233543396,-49.11801528930664,77.12454223632812,-4.004455432391728,-1.425727254744822,-90.11379493210536,-17.899174,7.6425486,-4.8911924,66.51439,-10.212824,-13.545316,1.1330234,4.0568347,-8.552874,11.276662,-12.5332775,0.02868622,1.5482152,3.4743226,8.959846,0.67939705,16.376219,-22.000498,59.23658,5.6784134,-9.327526,7.8176455,-8.512402,-19.296495,46.94086,65.69044,12.717385,0.32512254,-5.989845
158,-0.3005870580673218,-49.65518569946289,77.13530731201172,-3.862831065377968,-1.3892132748051864,-90.25010027055293,-18.808468,7.266881,-4.937529,65.076355,-10.295349,-13.643059,1.7171527,3.9970205,-8.360773,10.922122,-12.779743,0.06279461,1.7659554,3.3315027,9.004542,0.68447137,16.34492,-21.89703,59.238186,5.6889114,-9.372455,7.7102885,-8.846727,-19.407776,46.68939,65.52309,12.867303,0.25086296,-6.0409193
159,-0.34697583317756653,-50.191856384277344,77.13678741455078,-3.7262552327340206,-1.3425426044984172,-90.37906005056848,-19.67767,6.9620924,-4.9281955,63.499023,-10.313601,-13.721052,2.2869785,3.933621,-8.17642,10.577196,-13.026705,0.093454316,1.9794,3.192454,9.045459,0.69120896,16.309448,-21.790281,59.251923,5.6857147,-9.415138,7.60963,-9.168253,-19.519917,46.464767,65.337555,13.015847,0.1618976,-6.0965347
160,-0.38878753781318665,-50.73115921020508,77.13534545898438,-3.5931028140202943,-1.2807113300088033,-90.49828852606409,-20.51342,6.728389,-4.8655415,61.806618,-10.272277,-13.713955,2.8345666,3.8649955,-8.004139,10.247434,-13.277008,0.13297628,2.1826422,3.0549324,9.080316,0.69877255,16.266157,-21.674768,59.28124,5.655595,-9.439332,7.5575843,-9.483721,-19.632725,46.29363,65.14158,13.128983,0.07656416,-6.161316
161,-0.4281468689441681,-51.26761245727539,77.12522888183594,-3.463266500331017,-1.1991309292002428,-90.60312957450687,-21.326584,6.5644097,-4.7430644,60.00085,-10.175898,-13.599249,3.3542526,3.7870011,-7.848664,9.931175,-13.526914,0.18993677,2.3712265,2.9165838,9.107483,0.7026141,16.21241,-21.546394,59.329773,5.582762,-9.440142,7.572054,-9.795747,-19.745695,46.183212,64.933304,13.203327,-0.004096935,-6.238703
162,-0.46576640009880066,-51.80722427368164,77.10834503173828,-3.335669582018411,-1.101457526213198,-90.69624624580611,-22.106218,6.4629426,-4.557716,58.06541,-10.021213,-13.419155,3.851121,3.7012303,-7.7065797,9.627284,-13.777005,0.2565602,2.5479133,2.779422,9.127627,0.7044285,16.147573,-21.406475,59.397083,5.480399,-9.426582,7.6289434,-10.101708,-19.858618,46.11966,64.71237,13.253546,-0.08866052,-6.3256707
163,-0.4906165897846222,-52.34828186035156,77.0844955444336,-3.2141950017887133,-0.9958183533839674,-90.78614053212958,-22.829899,6.418335,-4.3182864,56.00397,-9.804747,-13.20363,4.334646,3.6154046,-7.5697565,9.339026,-14.0344305,0.31987816,2.7185357,2.648583,9.142783,0.70811385,16.071316,-21.26364,59.482693,5.373647,-9.403622,7.707674,-10.399814,-19.970469,46.101143,64.48509,13.277881,-0.17281559,-6.4175544
164,-0.5107906460762024,-52.890716552734375,77.05064392089844,-3.104284519428201,-0.8903729274409574,-90.88132305523166,-23.476175,6.425188,-4.035766,53.818924,-9.522713,-12.981866,4.811132,3.5356784,-7.4306684,9.076288,-14.309888,0.36759648,2.888638,2.5281782,9.154711,0.71986604,15.983163,-21.123705,59.584175,5.2903695,-9.375954,7.78741,-10.689969,-20.080038,46.12709,64.26109,13.275312,-0.25265133,-6.509792
165,-0.5302132368087769,-53.432518005371094,77.01237487792969,-3.0083635812139455,-0.7834442645927302,-90.98493745958235,-24.048576,6.4916697,-3.7062268,51.507442,-9.165037,-12.748599,5.2730765,3.4652367,-7.284481,8.851118,-14.61162,0.38881317,3.0616384,2.4208982,9.163803,0.7362036,15.881833,-20.982063,59.704205,5.2405953,-9.341926,7.871276,-10.97833,-20.18717,46.20462,64.04419,13.238418,-0.33302006,-6.605801
166,-0.5438050031661987,-53.98396301269531,76.97075653076172,-2.9236926113801984,-0.6723167852871889,-91.09227303566001,-24.55433,6.613301,-3.3237429,49.069298,-8.736087,-12.494,5.720749,3.3998785,-7.1359367,8.654061,-14.931517,0.39288393,3.2334409,2.323928,9.168574,0.7557639,15.766855,-20.836752,59.8436,5.2094064,-9.299935,7.9676714,-11.263123,-20.291945,46.331455,63.828182,13.168657,-0.4123417,-6.707081
167,-0.5470225811004639,-54.54037094116211,76.92716979980469,-2.8467236355502945,-0.563047832444748,-91.20017636471012,-24.9712,6.7711177,-2.8967516,46.49469,-8.251908,-12.244103,6.1768236,3.3380818,-6.9899254,8.454399,-15.25226,0.39656982,3.3996816,2.2354307,9.169195,0.7832023,15.640536,-20.702753,60.00001,5.182731,-9.25486,8.063784,-11.533454,-20.391953,46.49221,63.61411,13.080363,-0.48295823,-6.8046665
168,-0.555689811706543,-55.102027893066406,76.8761215209961,-2.774890217687903,-0.46188677533154865,-91.30576891908103,-25.277075,6.944802,-2.4334755,43.77204,-7.7257795,-12.024959,6.666645,3.278739,-6.851465,8.215793,-15.553339,0.41680482,3.5566146,2.1524932,9.165369,0.82209045,15.507508,-20.597412,60.1716,5.144495,-9.21142,8.146827,-11.782968,-20.484642,46.6763,63.407463,12.992514,-0.5370299,-6.8897557
169,-0.5586042404174805,-55.67070388793945,76.8187255859375,-2.70775953951285,-0.3711857484539733,-91.4061948054011,-25.458117,7.1266227,-1.9212203,40.86787,-7.130671,-11.851874,7.2028766,3.221465,-6.722639,7.914738,-15.823078,0.45935282,3.703383,2.0711577,9.161647,0.8721324,15.371076,-20.526358,60.35488,5.0892906,-9.164205,8.225005,-12.009301,-20.567213,46.878544,63.204,12.901717,-0.5687301,-6.965648
170,-0.5575554370880127,-56.24695587158203,76.75518035888672,-2.64718242986733,-0.28821865530363405,-91.50499246864901,-25.52125,7.321919,-1.3573456,37.784153,-6.463065,-11.713444,7.7724295,3.1678905,-6.599739,7.571202,-16.071995,0.5155314,3.844097,1.9933392,9.157151,0.9326623,15.232057,-20.481834,60.550068,5.024126,-9.112779,8.300828,-12.219184,-20.638912,47.108124,63.006817,12.804451,-0.58406353,-7.035106
171,-0.5513239502906799,-56.82898712158203,76.68214416503906,-2.5987607999620628,-0.21225489501493836,-91.60998483569728,-25.46907,7.5299425,-0.76284367,34.54547,-5.761541,-11.596161,8.272315,3.1102269,-6.4817758,7.4075584,-16.41547,0.5794467,3.9823647,1.9266272,9.144653,1.0110339,15.090334,-20.457037,60.75636,4.9550166,-9.069117,8.352104,-12.407522,-20.699121,47.35762,62.82063,12.6997385,-0.5917285,-7.088244
172,-0.5431035161018372,-57.425697326660156,76.60385131835938,-2.5676233138703375,-0.14321138871103595,-91.7297207353611,-25.303156,7.748745,-0.1589494,31.172838,-5.064408,-11.489161,8.71748,3.0560384,-6.3614354,7.395383,-16.836206,0.644645,4.1235466,1.878903,9.117269,1.1135796,14.945466,-20.44662,60.97427,4.887662,-9.045375,8.3568125,-12.573539,-20.748354,47.627697,62.65326,12.596839,-0.60089165,-7.115224
173,-0.5282080173492432,-58.037574768066406,76.51148986816406,-2.563309461420286,-0.0871608611388682,-91.86194479660973,-24.990656,7.971685,0.45532316,27.583292,-4.353822,-11.413142,9.187761,3.027265,-6.23381,7.383604,-17.256826,0.70774215,4.2656903,1.8624353,9.075844,1.2427882,14.796778,-20.4534,61.210056,4.8132567,-9.053662,8.299919,-12.713087,-20.787403,47.92096,62.507122,12.4971695,-0.615022,-7.107955
174,-0.5067583918571472,-58.65388488769531,76.41050720214844,-2.5911590026451536,-0.04803177807134068,-92.01182485187199,-24.51304,8.203624,1.094548,23.742498,-3.592286,-11.3778105,9.687279,3.029002,-6.093818,7.3680253,-17.675344,0.77032834,4.415099,1.880872,9.026782,1.3971258,14.643624,-20.477818,61.459282,4.733538,-9.083493,8.196104,-12.828002,-20.81691,48.238113,62.378456,12.397979,-0.6290223,-7.073116
175,-0.48085251450538635,-59.283477783203125,76.30046081542969,-2.651586098896892,-0.023419590258310835,-92.19923345071514,-23.900234,8.461747,1.7618597,19.756847,-2.7949302,-11.355238,10.204626,3.0585742,-5.924758,7.3544965,-18.088425,0.82815033,4.589088,1.9331757,8.972366,1.5718837,14.4858265,-20.515182,61.714207,4.664348,-9.116397,8.068033,-12.922663,-20.837143,48.571342,62.262375,12.294834,-0.6388062,-7.022502
176,-0.45164361596107483,-59.92939376831055,76.1764907836914,-2.7409458775185835,-0.011030835577744699,-92.44404874147989,-23.186163,8.760284,2.4617734,15.74073,-1.9844872,-11.321851,10.7316675,3.1145034,-5.7096167,7.343778,-18.4908,0.8763522,4.8049355,2.0190556,8.914393,1.7642815,14.323752,-20.561222,61.961964,4.621301,-9.130402,7.9383197,-13.005464,-20.849232,48.91798,62.15825,12.187811,-0.64068216,-6.967811
177,-0.42138391733169556,-60.57883071899414,76.0428237915039,-2.8591816055591956,-0.007216117694462918,-92.76227882386144,-22.345068,9.096689,3.1720285,11.579319,-1.1159455,-11.20295,11.260474,3.1956892,-5.437307,7.340441,-18.892048,0.9021976,5.076951,2.137642,8.849732,1.9752985,14.157853,-20.621838,62.19902,4.611205,-9.117182,7.8073277,-13.077431,-20.85315,49.281906,62.064274,12.082184,-0.6356557,-6.9102407
178,-0.39000001549720764,-61.24040603637695,75.89958190917969,-3.021548962983161,-0.022115013049488055,-93.150570681692,-21.202845,9.449402,3.939742,6.91806,-0.017833663,-11.06028,11.807964,3.3202143,-5.1051536,7.337404,-19.290459,0.90716517,5.402997,2.3051598,8.782408,2.2077823,13.988007,-20.69842,62.43022,4.6230226,-9.08783,7.6647525,-13.135535,-20.850342,49.664455,61.983917,11.975928,-0.6250937,-6.8433986
179,-0.3464541733264923,-61.9058837890625,75.74597930908203,-3.2317167289269455,-0.06200564898813519,-93.58059700278763,-22.018364,9.947781,4.452203,6.613141,-1.2078134,-11.042777,12.378711,3.4859567,-4.730337,7.340831,-19.666239,0.9145596,5.7637205,2.51781,8.722035,2.466222,13.830324,-20.781094,62.644093,4.646393,-9.054807,7.5137687,-13.16947,-20.843273,50.04472,61.900253,11.856601,-0.6055487,-6.768415
180,-0.2956832945346832,-62.575531005859375,75.58687591552734,-3.4779151868853724,-0.1267821616905355,-94.0185103542075,-22.744663,10.472051,5.094712,6.479035,-2.40653,-11.308299,12.97833,3.6774702,-4.336982,7.3443127,-20.00573,0.9492116,6.1158857,2.7782218,8.661891,2.7297623,13.642433,-20.845016,62.87813,4.6851745,-9.02757,7.370179,-13.190446,-20.830103,50.43717,61.833412,11.723265,-0.57329273,-6.688751
181,-0.23062820732593536,-63.25709915161133,75.41979217529297,-3.811906450738887,-0.22849934179176162,-94.4929498224486,-23.327953,11.133455,5.9739356,6.416132,-3.6886363,-12.030376,13.618797,3.9539847,-3.8955333,7.346582,-20.307575,1.0060129,6.495417,3.127153,8.596699,3.0317893,13.454865,-20.89315,63.09773,4.7289805,-9.006905,7.2340117,-13.178854,-20.815403,50.83193,61.762302,11.558475,-0.5159451,-6.5961375
182,-0.15497972071170807,-63.949405670166016,75.24010467529297,-4.144139401109542,-0.3456244277167602,-94.97419279771093,-23.776175,11.811662,7.049912,6.3577795,-4.9826913,-13.062926,14.282258,4.2039685,-3.4459515,7.3577647,-20.592602,1.0986053,6.898707,3.4458086,8.539682,3.379525,13.3337345,-20.954971,63.25318,4.76771,-8.985646,7.0874653,-13.113478,-20.805408,51.184505,61.64066,11.359615,-0.43915257,-6.4936304
183,-0.08388586342334747,-64.64439392089844,75.04781341552734,-4.450794839855577,-0.4460655846869753,-95.40201583021694,-24.161911,12.424392,8.087695,6.410758,-6.039258,-14.08867,14.931218,4.409722,-3.042606,7.373051,-20.84339,1.2245468,7.214783,3.7536626,8.468005,3.7055354,13.16668,-20.989618,63.450092,4.8280263,-8.969953,6.941345,-13.060043,-20.786963,51.569134,61.550766,11.1722355,-0.36710802,-6.397809
184,-0.029280461370944977,-65.32794952392578,74.87305450439453,-4.585801882115245,-0.49372138324264203,-95.68706943129413,-24.400843,12.721103,8.92388,6.397473,-6.5032063,-14.727654,15.525417,4.4097667,-2.7823572,7.396205,-21.051205,1.4072158,7.410853,3.8720438,8.418025,3.9651396,13.025054,-21.054735,63.660946,4.890371,-8.956608,6.771094,-12.993332,-20.764637,51.873405,61.44461,10.983374,-0.3230437,-6.319265
185,0.016200080513954163,-65.99927520751953,74.7242202758789,-4.559612788966481,-0.46051336779285745,-95.7995298961373,-24.5391,12.69181,9.448728,6.3981094,-6.2744303,-14.938775,16.034702,4.2257705,-2.6931975,7.4275317,-21.22513,1.6498959,7.4297514,3.8285,8.372307,4.124947,12.855253,-21.12599,63.931946,4.9685245,-8.953331,6.580781,-12.959307,-20.725334,52.140995,61.369152,10.800404,-0.32035595,-6.2619057
186,0.07130646705627441,-66.64287567138672,74.61974334716797,-4.406397698203419,-0.37318562218688867,-95.78236605352768,-24.548492,12.418644,9.78662,6.3711,-5.519091,-14.8678,16.488596,3.8981838,-2.7377892,7.4654827,-21.365616,1.9451289,7.33549,3.6371622,8.343994,4.2308264,12.715617,-21.2176,64.20247,5.050129,-8.95514,6.364561,-12.921896,-20.6795,52.338806,61.279438,10.60352,-0.34356543,-6.2158203
187,0.14578264951705933,-67.27386474609375,74.55982208251953,-4.137942867729324,-0.2585608503692465,-95.67230352174414,-24.458979,11.949367,10.018982,6.3419657,-4.484679,-14.444567,16.92298,3.434237,-2.8922858,7.510116,-21.455067,2.283778,7.1541686,3.3353784,8.3044615,4.2864494,12.552393,-21.337576,64.534,5.1332393,-8.954277,6.1482344,-12.870919,-20.605642,52.503963,61.232765,10.425597,-0.37712246,-6.1871657
188,0.23771825432777405,-67.9119644165039,74.52957916259766,-3.734196419465474,-0.12601650033099793,-95.48371406936761,-24.348284,11.285047,10.224969,6.4005623,-3.4480462,-13.589556,17.363142,2.7989163,-3.161117,7.570531,-21.490831,2.6702826,6.9157777,2.8771951,8.254163,4.35041,12.438678,-21.500647,64.85672,5.199333,-8.937823,5.9258895,-12.740922,-20.535368,52.599342,61.15118,10.27276,-0.4008589,-6.1776905
189,0.33102670311927795,-68.57150268554688,74.51144409179688,-3.1639519728098873,-0.0002434437552068686,-95.19270581871845,-24.139479,10.381804,10.451929,6.472377,-2.3489392,-12.029293,17.8401,1.9684079,-3.5795114,7.645332,-21.48285,3.09401,6.6129813,2.26594,8.1866255,4.346598,12.284405,-21.758747,65.30646,5.2436743,-8.907388,5.7251606,-12.548941,-20.403854,52.613533,61.140423,10.132101,-0.41384035,-6.2030315
190,0.41212669014930725,-69.25431823730469,74.4961166381836,-2.432351337268128,0.12043508457633822,-94.80876902798035,-23.844625,9.226188,10.669062,6.5748124,-1.0639623,-9.911799,18.23471,0.94507754,-4.135771,7.981536,-21.564894,3.564008,6.2388854,1.4767504,8.13547,4.3323736,12.171692,-22.06885,65.76506,5.2686486,-8.864792,5.515333,-12.294925,-20.262121,52.55484,61.10972,10.004396,-0.42149368,-6.2532845
191,0.49707937240600586,-69.95848083496094,74.4823989868164,-1.6626170128355005,0.21512709554713758,-94.46595401260572,-23.49484,8.009001,10.864106,6.679288,0.33145562,-7.8027434,18.132046,-0.1763791,-4.66386,9.457098,-22.15296,4.074076,5.908902,0.64792573,8.06887,4.3505955,12.081373,-22.393791,66.20651,5.2888637,-8.808486,5.301895,-11.990257,-20.107136,52.47609,61.10297,9.920817,-0.43045273,-6.30068
192,0.5972223877906799,-70.68524169921875,74.47127532958984,-0.9845093507301408,0.2822259740912074,-94.28473056976361,-23.466309,7.0104275,10.960532,7.497475,1.3289937,-6.246017,18.087336,-1.2167882,-4.99922,10.8323145,-22.543863,4.6141315,5.712455,-0.079938516,7.95241,4.4538975,11.999045,-22.674925,66.589966,5.3267126,-8.737447,5.0869546,-11.65041,-19.949877,52.441982,61.148216,9.915305,-0.44631618,-6.317401
193,0.7039451003074646,-71.43707275390625,74.45341491699219,-0.4136915745870771,0.33327363988553743,-94.30668422226839,-23.879402,6.2967257,10.878135,9.267114,1.8593372,-5.4320574,18.078415,-2.1608055,-5.108063,12.113994,-22.749651,5.187382,5.6769094,-0.68480843,7.7646527,4.6539264,11.908487,-22.91213,66.92137,5.3896437,-8.643482,4.8850255,-11.276149,-19.792536,52.48189,61.252388,10.029814,-0.47858375,-6.300523
194,0.8251365423202515,-72.21844482421875,74.43840789794922,0.12176088172857073,0.38050587983227546,-94.45474194245456,-23.904242,5.598149,10.747336,10.256696,2.8567734,-5.0371585,18.06682,-3.08625,-5.0791373,13.387901,-22.834959,5.7999463,5.738301,-1.2425346,7.5203547,4.9150405,11.805231,-23.124796,67.229744,5.4722714,-8.528686,4.6934195,-10.861818,-19.634748,52.562565,61.40294,10.234736,-0.5208525,-6.26388
195,0.954094648361206,-73.00868225097656,74.43423461914062,0.6388442017789574,0.437207101067364,-94.65110123281845,-23.77944,4.93043,10.656966,10.981856,3.8305948,-4.81877,18.01423,-4.003425,-4.9722056,14.704809,-22.799494,6.4504385,5.836228,-1.7740359,7.2321076,5.2013288,11.692188,-23.299927,67.53071,5.565988,-8.415699,4.490755,-10.41723,-19.47521,52.65735,61.60114,10.467996,-0.55532694,-6.206015
196,1.0837039947509766,-73.8053207397461,74.4394760131836,1.1470128418020857,0.5107267864477302,-94.82501517129056,-23.694284,4.311365,10.714984,11.855915,4.348002,-4.538553,17.888296,-4.914057,-4.8376465,16.11503,-22.636436,7.1364093,5.9156995,-2.2929323,6.9148965,5.4860845,11.575826,-23.417505,67.82867,5.6669354,-8.325826,4.2543206,-9.948354,-19.31095,52.732357,61.84481,10.659454,-0.56417286,-6.125472
197,1.2125544548034668,-74.6139144897461,74.4481430053711,1.6445347948433258,0.6253720743568719,-94.99043295188191,-23.73017,3.7760115,10.9913845,13.031424,4.2347617,-4.147457,17.660536,-5.821319,-4.6630073,17.619629,-22.357843,7.864941,5.9843016,-2.798305,6.536193,5.792909,11.458124,-23.456469,68.097984,5.7869797,-8.264401,3.9676888,-9.45914,-19.140116,52.806274,62.150837,10.806383,-0.5527605,-6.020511
198,1.3474870920181274,-75.429443359375,74.46232604980469,2.1256876066037806,0.7719604959953325,-95.17019275144241,-23.793653,3.3154728,11.397853,14.314657,3.7157316,-3.7611618,17.3565,-6.715965,-4.4279943,19.185534,-21.95878,8.638519,6.0589004,-3.2838817,6.098191,6.129457,11.338563,-23.43097,68.340645,5.924077,-8.220496,3.6457012,-8.945979,-18.96098,52.887314,62.51447,10.9390745,-0.52706814,-5.89273
199,1.4930557012557983,-76.23262023925781,74.49163818359375,2.590066774265445,0.9028117456661123,-95.31219427868562,-23.782862,2.8730266,11.819469,15.533557,2.9953809,-3.3958101,17.024736,-7.5776277,-4.165405,20.82054,-21.413647,9.447661,6.104866,-3.7520294,5.6683264,6.4445043,11.222844,-23.378622,68.6025,6.0488167,-8.190395,3.312821,-8.4106455,-18.773018,52.932213,62.909756,11.043731,-0.47194022,-5.7457066
200,1.642500400543213,-77.02515411376953,74.53519439697266,3.0377824484733025,0.9690220933116133,-95.36561922070284,-23.598534,2.379502,12.147065,16.50933,2.28783,-3.0710475,16.711557,-8.386782,-3.908096,22.539268,-20.699257,10.282487,6.092097,-4.2050686,5.3151493,6.6840506,11.121982,-23.34341,68.928825,6.1260943,-8.169725,2.9932938,-7.8548913,-18.576963,52.899155,63.30639,11.112502,-0.37203497,-5.583152
201,1.7895530462265015,-77.81204223632812,74.59143829345703,3.4737719864819536,0.9505353405215913,-95.28977558511731,-23.223515,1.7904269,12.348149,17.218681,1.5849873,-2.7988598,16.449928,-9.137168,-3.6819794,24.335745,-19.776474,11.148827,6.001284,-4.6574507,5.056379,6.832225,11.047714,-23.33461,69.34741,6.128751,-8.170377,2.6726093,-7.255361,-18.36997,52.746147,63.69061,11.119435,-0.21069168,-5.4023023
202,1.9263215065002441,-78.60595703125,74.66729736328125,3.8938958069381786,0.8742733285036128,-95.11962856105345,-22.720118,1.1339638,12.478846,17.751663,0.7974103,-2.565201,16.20532,-9.828561,-3.4621933,26.211817,-18.673445,12.053844,5.8556476,-5.1047106,4.8559775,6.920043,11.003082,-23.334835,69.82009,6.0765896,-8.189281,2.3429441,-6.6189327,-18.15125,52.499752,64.07608,11.075527,-0.0010760573,-5.202325
203,2.0559043884277344,-79.39253997802734,74.75641632080078,4.2850734798352885,0.7616565837577717,-94.91777227525385,-22.10068,0.44949877,12.566472,18.08596,0.02494472,-2.3497553,15.925311,-10.457608,-3.2053761,28.190145,-17.465595,12.988243,5.6876764,-5.519636,4.702145,6.9682302,10.9822035,-23.33957,70.29079,6.013907,-8.199993,2.0389576,-5.9859333,-17.926567,52.214497,64.46552,11.020943,0.22866488,-4.990006
204,2.185662031173706,-80.17437744140625,74.85978698730469,4.634756499430975,0.634876801693391,-94.74660694912635,-21.370768,-0.21352865,12.636193,18.201754,-0.636474,-2.1353784,15.552698,-11.019274,-2.86814,30.30144,-16.227303,13.939512,5.52948,-5.8726773,4.584337,6.998069,10.972674,-23.34076,70.70614,5.9910626,-8.176565,1.796099,-5.392224,-17.706823,51.943604,64.86032,10.995386,0.44971538,-4.7722206
205,2.3216357231140137,-80.9482650756836,74.97241973876953,4.9406979735696765,0.4872083843635814,-94.60234285105162,-20.487623,-0.847497,12.677532,18.049494,-1.1641229,-1.9313828,15.1067915,-11.513168,-2.4504468,32.5453,-14.942097,14.974881,5.375689,-6.1507897,4.5094676,7.002382,10.962631,-23.347113,71.09123,6.027696,-8.114032,1.6231837,-4.8251333,-17.501669,51.668285,65.26866,11.01472,0.66219777,-4.560675
206,2.447106122970581,-81.70680236816406,75.10032653808594,5.0294176137908115,0.33905311578328434,-94.47165692845418,-19.668732,-1.2183187,12.586489,18.038548,-1.7931429,-1.7883124,14.593668,-11.633253,-2.0481615,34.809647,-13.504858,15.000033,5.2240176,-6.2021904,4.440177,6.9664035,10.9485655,-23.36006,71.47219,6.097568,-8.026477,1.5041704,-4.268312,-17.314451,51.369446,65.68069,11.05756,0.87667066,-4.3487697
207,2.580627918243408,-82.45594787597656,75.23612213134766,5.089126904932652,0.18003726833403008,-94.36513959939248,-18.771908,-1.5702883,12.489576,17.88241,-2.3624299,-1.628256,13.945957,-11.741634,-1.6437759,37.270092,-12.08068,15.000033,5.080025,-6.20724,4.4051337,6.902903,10.93448,-23.359644,71.79756,6.18025,-7.9162426,1.4367095,-3.7530951,-17.151165,51.103115,66.06612,11.105563,1.0925635,-4.1172795
208,2.7198872566223145,-83.20291900634766,75.37608337402344,5.148107536391069,0.02864263673928405,-94.30728850870553,-17.83881,-1.9241594,12.421059,17.617668,-2.8626056,-1.4274678,13.101624,-11.885835,-1.1924142,39.96284,-10.736036,15.000033,4.95646,-6.20228,4.3928137,6.826844,10.92801,-23.325878,72.009865,6.250007,-7.7854667,1.4173607,-3.3124704,-17.017767,50.932934,66.396324,11.145109,1.304824,-3.8459167
209,2.865492343902588,-83.93785858154297,75.51848602294922,5.211233747969553,-0.10329280434995937,-94.31357910623363,-16.859259,-2.2802815,12.386015,17.207163,-3.2751482,-1.178778,12.010208,-12.066732,-0.6275141,42.975456,-9.5019455,15.000033,4.8616014,-6.1867943,4.398058,6.7517242,10.930227,-23.23146,72.07537,6.3227015,-7.6065054,1.4471556,-2.9564595,-16.921509,50.87958,66.66149,11.191395,1.5295349,-3.512339
210,3.017092227935791,-84.66304779052734,75.66034698486328,5.267113846799745,-0.22674863158180314,-94.36735323659026,-15.804685,-2.630812,12.363353,16.629414,-3.605129,-0.90752155,10.722667,-12.256399,0.043334793,46.244587,-8.323177,15.000033,4.7880373,-6.1482973,4.430164,6.666218,10.938755,-23.096916,72.02702,6.4018655,-7.387323,1.5261835,-2.656716,-16.876251,50.90678,66.85712,11.247116,1.7648551,-3.1319196
211,3.1695384979248047,-85.37394714355469,75.801513671875,5.328571912125245,-0.3563283276340266,-94.44548672034567,-14.700916,-2.9813564,12.349223,15.958924,-3.8833995,-0.63344485,9.326819,-12.446843,0.76461756,49.578865,-7.135173,15.000033,4.724754,-6.1058526,4.4931097,6.552084,10.956247,-22.96492,71.90964,6.4523697,-7.183495,1.6507033,-2.403933,-16.864393,50.99071,67.00224,11.273293,1.9765396,-2.7421987
212,3.3176310062408447,-86.0704116821289,75.93762969970703,5.404736480153303,-0.5066593413519516,-94.52540154000336,-13.575412,-3.339816,12.341369,15.269679,-4.137634,-0.36745998,7.906267,-12.63153,1.4729992,52.79379,-5.8760595,15.000033,4.6294875,-6.08597,4.5955024,6.4264364,11.005191,-22.834026,71.7261,6.45086,-7.0508475,1.8098648,-2.2027106,-16.873468,51.148018,67.10383,11.244785,2.130958,-2.3796537
213,3.4580748081207275,-86.76033020019531,76.06436920166016,5.506451777913512,-0.6841425057303436,-94.61777494651241,-12.410068,-3.7197013,12.358012,14.534772,-4.351063,-0.100946724,6.398227,-12.806883,2.223359,55.98274,-4.296494,15.000033,4.5288215,-6.106859,4.753011,6.286781,11.104759,-22.731577,71.454216,6.3612256,-7.0033603,1.9970759,-2.048733,-16.911789,51.37308,67.143524,11.136545,2.217782,-2.0268245
214,3.598066806793213,-87.44042205810547,76.18119049072266,5.625943092033078,-0.8790753530120313,-94.72872744791661,-11.197252,-4.1172237,12.392085,13.720467,-4.509719,0.17300415,4.7881246,-12.954733,3.0506082,59.186768,-2.4981897,15.000033,4.4347887,-6.152314,4.955017,6.128726,11.242355,-22.651,71.097115,6.2067313,-7.0121255,2.2183867,-1.9433517,-16.974808,51.65913,67.13046,10.9686,2.2539058,-1.6730537
215,3.727792263031006,-88.10894775390625,76.28343963623047,5.743318339056667,-1.0826970919533463,-94.82959435277189,-9.982902,-4.5137873,12.407047,12.896878,-4.6481185,0.4449769,3.2217422,-13.070209,3.8426664,62.17385,-0.96286035,15.000033,4.3250074,-6.2053413,5.1793256,5.953195,11.418401,-22.601034,70.689865,6.026252,-7.0668797,2.4779274,-1.8613788,-17.057312,51.965313,67.06816,10.768338,2.247856,-1.3643107
216,3.8459949493408203,-88.77005004882812,76.37135314941406,5.838070759587296,-1.2875258419113664,-94.89150373806783,-8.818963,-4.8871427,12.368931,12.153404,-4.812174,0.7020656,1.8438679,-13.180557,4.4685874,64.719124,-0.17789629,15.000033,4.186405,-6.250608,5.404602,5.753681,11.631741,-22.602547,70.274956,5.8552485,-7.156693,2.780926,-1.7749659,-17.15253,52.24163,66.963875,10.561848,2.2082372,-1.1469253
217,3.951467990875244,-89.41934967041016,76.44426727294922,5.908570697640181,-1.4999057277367136,-94.90811984860737,-7.730961,-5.2254395,12.268447,11.552974,-5.02878,0.94230545,0.73426485,-13.3403,4.834898,66.733826,-0.4552327,15.000033,4.019279,-6.2888274,5.632571,5.524005,11.885049,-22.675642,69.853325,5.6858954,-7.296199,3.143991,-1.6799542,-17.254995,52.49204,66.81562,10.330158,2.1249115,-1.0319132
218,4.0478901863098145,-90.06803894042969,76.51033020019531,5.966304245182417,-1.721859407122123,-94.89569982919616,-6.683415,-5.541323,12.126602,11.032234,-5.267049,1.1692009,-0.20421089,-13.543295,5.024454,68.366234,-1.4853978,15.000033,3.832556,-6.330182,5.8722677,5.2689066,12.179055,-22.807032,69.405785,5.5061975,-7.4859476,3.5584354,-1.5941284,-17.362812,52.737423,66.629944,10.068931,1.9977329,-0.99604815
219,4.140050411224365,-90.71403503417969,76.56929016113281,6.011589832614097,-1.9395894536229192,-94.85613585513758,-5.6487207,-5.8428097,11.953302,10.51207,-5.500848,1.376862,-1.0968384,-13.732644,5.160981,69.75617,-2.8277433,15.000033,3.6222591,-6.373038,6.1123443,4.993996,12.50666,-22.970772,68.948006,5.3398814,-7.6928964,3.9928305,-1.5142342,-17.47224,52.94545,66.41917,9.8181715,1.8491125,-1.0331771
220,4.230951309204102,-91.3460464477539,76.62616729736328,6.047803145182883,-2.1388201036574803,-94.78960259275212,-4.5923805,-6.146133,11.756097,9.892201,-5.689832,1.5615586,-2.066001,-13.840011,5.3669415,71.03932,-4.0432625,15.000033,3.3832383,-6.41311,6.339644,4.7016897,12.856896,-23.141954,68.502106,5.2104936,-7.8835773,4.4177704,-1.4374343,-17.580393,53.08185,66.197075,9.615794,1.7046491,-1.1377077
221,4.325562477111816,-91.98562622070312,76.6787109375,6.076264424993969,-2.317943431104981,-94.68692375774549,-3.4854832,-6.4655967,11.527266,9.104716,-5.805603,1.7269559,-3.1414518,-13.822485,5.702608,72.2513,-5.1001015,15.000033,3.100934,-6.448632,6.547418,4.3870826,13.224156,-23.330229,68.08043,5.1256065,-8.063383,4.8495526,-1.3642873,-17.685446,53.143425,65.96503,9.465207,1.5630918,-1.3277962
222,4.420998573303223,-92.62037658691406,76.72245025634766,6.090684273789581,-2.4822592842428635,-94.54797909312671,-2.3510346,-6.7879305,11.26114,8.206882,-5.8683534,1.873788,-4.2584662,-13.716553,6.0852594,73.31731,-6.1984606,15.000033,2.7791393,-6.475832,6.7397356,4.0442886,13.607535,-23.545414,67.68095,5.071725,-8.246914,5.2984614,-1.297497,-17.787035,53.14575,65.72363,9.345711,1.4142252,-1.6001749
223,4.5162177085876465,-93.24494934082031,76.76133728027344,6.084396110611423,-2.6291543249380385,-94.3873305615904,-1.2383497,-7.080385,10.969638,7.3020377,-5.918835,1.9963923,-5.3959565,-13.580733,6.427253,74.20322,-7.2487545,15.000033,2.4415329,-6.488476,6.9208856,3.679612,14.002399,-23.758312,67.29326,5.045542,-8.407877,5.725127,-1.236246,-17.883612,53.08962,65.48318,9.269775,1.2672027,-1.9158225
224,4.608465194702148,-93.86492156982422,76.79705047607422,6.053202578160601,-2.7577443304082636,-94.22108769139699,-0.4020629,-7.275003,10.695477,6.938745,-6.234691,2.0883632,-6.5308075,-13.477473,6.644427,74.87314,-8.165212,15.000033,2.112582,-6.483019,7.0971775,3.2971358,14.402471,-23.939926,66.91203,5.0418835,-8.521709,6.0908556,-1.1813233,-17.972773,52.976437,65.25794,9.249251,1.1294948,-2.235626
225,4.68585729598999,-94.48107147216797,76.83329010009766,5.981499448393698,-2.8665491375884344,-94.06172866426141,0.25295177,-7.3690934,10.436685,6.9129906,-6.7039876,2.1426485,-7.6620555,-13.430547,6.6778755,75.30195,-8.911297,15.000033,1.8043287,-6.442507,7.2699666,2.8888097,14.805583,-24.092567,66.54331,5.073627,-8.571185,6.3952856,-1.1346954,-18.051805,52.80114,65.05543,9.301064,1.0001281,-2.5713367
226,4.760539531707764,-95.08851623535156,76.86294555664062,5.886745105379099,-2.9582824732653736,-93.89641449605521,0.88278544,-7.428195,10.171453,6.8918533,-7.158624,2.1731374,-8.796789,-13.417594,6.5909305,75.515366,-9.542423,15.000033,1.500181,-6.3849907,7.4374676,2.45512,15.211449,-24.226187,66.19057,5.141357,-8.572647,6.6563783,-1.0971366,-18.11931,52.566746,64.87284,9.415524,0.8740042,-2.935979
227,4.830041408538818,-95.69024658203125,76.89106750488281,5.779472783375556,-3.0368527090476167,-93.72164337295918,1.4904926,-7.464231,9.902217,6.8772326,-7.6059384,2.1925569,-9.929366,-13.417547,6.4235654,75.53678,-10.093303,14.89119,1.1976162,-6.3185086,7.6007257,2.005297,15.617179,-24.331371,65.853355,5.2097707,-8.552291,6.8639994,-1.0676374,-18.175215,52.286983,64.70184,9.563354,0.75974226,-3.2941792
228,4.892370700836182,-96.2945785522461,76.91419982910156,5.652548898083535,-3.105522833014383,-93.53979795720431,2.0804703,-7.469843,9.63364,6.8710995,-8.056505,2.2073622,-11.05502,-13.385097,6.225953,75.386696,-10.595401,14.627976,0.8997174,-6.234847,7.7602477,1.5521137,16.01803,-24.390152,65.52866,5.2525935,-8.536712,7.008063,-1.0464311,-18.220476,51.97756,64.53505,9.716907,0.6664061,-3.6107845
229,4.952258110046387,-96.88817596435547,76.93453979492188,5.504110706862483,-3.167550811706104,-93.34531665889347,2.6532354,-7.4433393,9.363772,6.8737087,-8.507817,2.2153513,-12.17135,-13.293388,6.0286307,75.058975,-11.057677,14.252937,0.602382,-6.130547,7.9196806,1.0898179,16.411224,-24.392576,65.22622,5.26618,-8.529607,7.0665503,-1.032705,-18.255102,51.626743,64.36901,9.890248,0.600585,-3.8817723
230,5.009303092956543,-97.48050689697266,76.94863891601562,5.337389372431674,-3.2205573760721617,-93.13923286967656,3.2079332,-7.388636,9.091717,6.8831153,-8.957548,2.213434,-13.277089,-13.161418,5.813318,74.54542,-11.464818,13.826476,0.30535138,-6.008113,8.077747,0.61268246,16.796642,-24.349264,64.94854,5.264454,-8.518199,7.0519753,-1.02609,-18.278833,51.23127,64.20864,10.090629,0.5562191,-4.1241646
231,5.064760684967041,-98.07183837890625,76.96076965332031,5.16067501459626,-3.2587917638939485,-92.93420848740683,3.7435431,-7.312379,8.8261795,6.8958387,-9.403676,2.2069125,-14.366025,-13.004637,5.5823774,73.85635,-11.808814,13.404295,0.018009476,-5.8744397,8.227363,0.13232064,17.173254,-24.27483,64.682045,5.2447605,-8.504718,7.0061607,-1.0314364,-18.293009,50.82666,64.05941,10.287424,0.5234,-4.3344684
232,5.114036560058594,-98.66305541992188,76.97081756591797,4.97978667657627,-3.277161829797577,-92.74290711009323,4.258371,-7.2204394,8.575483,6.9115567,-9.846107,2.2013752,-15.431758,-12.8397455,5.3376307,73.00222,-12.081156,13.042208,-0.2524639,-5.734696,8.361787,-0.34185183,17.540081,-24.187344,64.41565,5.198132,-8.491636,6.9712405,-1.0500171,-18.29874,50.446186,63.922527,10.446003,0.49304405,-4.509201
233,5.157823085784912,-99.25458526611328,76.9780044555664,4.790647472475395,-3.2741914746544993,-92.56444215716891,4.751176,-7.1092224,8.337176,6.929829,-10.28432,2.1980314,-16.473997,-12.6638565,5.065576,71.96898,-12.270389,12.750376,-0.5084124,-5.5850477,8.479091,-0.80961764,17.89619,-24.081734,64.14986,5.113171,-8.476655,6.947114,-1.0839466,-18.2963,50.08913,63.79923,10.560374,0.47050765,-4.6388497
234,5.197025299072266,-99.8409423828125,76.9814682006836,4.5942608767830455,-3.252596018658685,-92.39362801432785,5.2230883,-6.9778423,8.108785,6.9502378,-10.71771,2.1940317,-17.490156,-12.470101,4.765953,70.751274,-12.3832445,12.503577,-0.75299364,-5.423989,8.582885,-1.2754842,18.241392,-23.950258,63.891758,4.9981194,-8.460277,6.9155374,-1.1309692,-18.28588,49.73942,63.688198,10.645735,0.45859516,-4.7283106
235,5.234781742095947,-100.429443359375,76.98204040527344,4.397396289832736,-3.2141632835152314,-92.23680154935633,5.679081,-6.836632,7.8978353,6.971398,-11.148155,2.1887567,-18.472828,-12.263128,4.4582334,69.375626,-12.439466,12.300901,-0.97853297,-5.2597246,8.673926,-1.7346323,18.576298,-23.804918,63.634747,4.8770385,-8.4463,6.8911138,-1.190432,-18.269045,49.41757,63.58849,10.711323,0.4442202,-4.795635
236,5.2649993896484375,-101.02490234375,76.97894287109375,4.209242887818607,-3.160745239687976,-92.10041932310695,6.123629,-6.695875,7.711575,6.9898906,-11.575751,2.1810825,-19.415209,-12.049058,4.164784,67.86704,-12.457194,12.144122,-1.1783899,-5.1008983,8.753188,-2.1838145,18.90211,-23.65855,63.374447,4.7722893,-8.439995,6.8885155,-1.2612867,-18.248148,49.14307,63.498306,10.764816,0.41432542,-4.859108
237,5.294167518615723,-101.61518859863281,76.97090148925781,4.029988103657528,-3.0908268529417864,-91.98516886788099,6.5548387,-6.556852,7.5499754,7.00465,-12.001825,2.1711195,-20.314804,-11.830033,3.881201,66.21272,-12.452767,12.05592,-1.3492407,-4.9485025,8.819018,-2.619693,19.218763,-23.501482,63.104748,4.692442,-8.444425,6.9072742,-1.3398914,-18.225473,48.91348,63.413643,10.8039055,0.3578054,-4.922313
238,5.316126823425293,-102.21209716796875,76.95780181884766,3.8573599651617387,-3.004141843176437,-91.88768432074845,6.9698496,-6.413731,7.4095654,7.0181794,-12.425705,2.157726,-21.171637,-11.599851,3.5966678,64.40022,-12.410076,12.030972,-1.4959706,-4.7976494,8.871929,-3.046404,19.526667,-23.332886,62.830654,4.621908,-8.456489,6.9410925,-1.4265065,-18.201988,48.720543,63.333054,10.825463,0.28458297,-4.9759884
239,5.3373122215271,-102.80744171142578,76.94306945800781,3.688972254054769,-2.904925590923975,-91.80838810233918,7.3749537,-6.2663302,7.291964,7.0292506,-12.843919,2.1381989,-21.983698,-11.34995,3.3240447,62.456112,-12.299849,12.0253725,-1.6224062,-4.6497087,8.915279,-3.4608073,19.825893,-23.16507,62.554638,4.5616126,-8.472771,6.994866,-1.5259929,-18.177792,48.575123,63.259262,10.836341,0.21271585,-5.018503
240,5.353425025939941,-103.40364074707031,76.92214965820312,3.5258380762036756,-2.7969687203412223,-91.74769064400974,7.7768135,-6.115965,7.198943,7.0375686,-13.254304,2.1109111,-22.751526,-11.073512,3.0780895,60.409245,-12.094225,11.993134,-1.7326609,-4.5063415,8.95236,-3.8597167,20.116917,-23.011845,62.27619,4.5110536,-8.486763,7.0737,-1.6435863,-18.152065,48.487816,63.196716,10.842564,0.16023675,-5.0482745
