unveil-humanoid-operators/unveil-humanoid-operators.github.io/feature-analysis-animation/data/feature_matrix_instances/gender_shoulder_mean_vel_jogging_A023_jog_sideway_045_loop_001__A023.csv
Frame,root_translateX,root_translateY,root_translateZ,root_rotateX,root_rotateY,root_rotateZ,left_hip_pitch_joint_dof,left_hip_roll_joint_dof,left_hip_yaw_joint_dof,left_knee_joint_dof,left_ankle_pitch_joint_dof,left_ankle_roll_joint_dof,right_hip_pitch_joint_dof,right_hip_roll_joint_dof,right_hip_yaw_joint_dof,right_knee_joint_dof,right_ankle_pitch_joint_dof,right_ankle_roll_joint_dof,waist_yaw_joint_dof,waist_roll_joint_dof,waist_pitch_joint_dof,left_shoulder_pitch_joint_dof,left_shoulder_roll_joint_dof,left_shoulder_yaw_joint_dof,left_elbow_joint_dof,left_wrist_roll_joint_dof,left_wrist_pitch_joint_dof,left_wrist_yaw_joint_dof,right_shoulder_pitch_joint_dof,right_shoulder_roll_joint_dof,right_shoulder_yaw_joint_dof,right_elbow_joint_dof,right_wrist_roll_joint_dof,right_wrist_pitch_joint_dof,right_wrist_yaw_joint_dof
0,0.12448678910732269,3.1620090007781982,77.32040405273438,-1.166497888368725,0.4086112987289714,-93.13848049508191,-0.74237937,7.781235,6.374272,22.00875,-21.480621,-7.741329,-3.809335,-4.054645,-3.4579635,22.27154,-19.3589,6.2566185,-2.600209,3.8013268,5.8347325,-4.003381,17.253847,-48.15072,53.1481,0.25978798,1.491756,4.2496324,-8.708547,-14.028558,42.192154,58.510376,6.761885,11.085235,-4.2921205
1,0.11109740287065506,3.2245450019836426,77.32640838623047,-1.1862061833482656,0.4777090922134863,-93.06880307800725,-1.0537087,7.8134246,6.242509,22.31038,-21.478987,-7.7046595,-3.9586911,-4.0360346,-3.532026,22.327278,-19.2967,6.246905,-2.595374,3.8133042,5.811103,-3.944222,17.284422,-47.917492,53.0269,0.17466053,1.416052,4.327511,-8.789729,-14.042869,42.174118,58.286617,6.8028126,11.123261,-4.242942
2,0.09759395569562912,3.293552875518799,77.33238983154297,-1.208605705246361,0.5424233362543911,-93.00176597227357,-1.3523482,7.8485956,6.115178,22.602037,-21.478502,-7.6708474,-4.0997796,-4.0133576,-3.6038015,22.379051,-19.233374,6.2376037,-2.608015,3.8311806,5.795326,-3.865194,17.325588,-47.654823,52.88304,0.09863975,1.3379474,4.4017005,-8.867553,-14.074944,42.17993,58.044502,6.850504,11.168141,-4.188482
3,0.08795516192913055,3.3693149089813232,77.33819580078125,-1.2263874444289382,0.6160588076356017,-92.92942961265167,-1.6750289,7.876105,5.978818,22.910383,-21.47375,-7.632245,-4.257035,-3.9987593,-3.680574,22.43766,-19.171577,6.227604,-2.6181607,3.8470356,5.779071,-3.7917998,17.37299,-47.400936,52.73082,0.017732669,1.2642281,4.4763284,-8.9419775,-14.121968,42.179886,57.78173,6.9004345,11.20454,-4.142304
4,0.07424335181713104,3.4509193897247314,77.34538269042969,-1.2331243310192808,0.7118232568879197,-92.84398844191254,-2.0596094,7.8852353,5.819858,23.264584,-21.460642,-7.581209,-4.4547253,-4.004532,-3.76952,22.513895,-19.113909,6.2159176,-2.6217248,3.8551779,5.7553368,-3.7402484,17.420403,-47.169586,52.58159,-0.07310817,1.2007368,4.553256,-9.026274,-14.17839,42.16805,57.502853,6.9592686,11.217619,-4.1188474
5,0.05986596271395683,3.537364959716797,77.3509292602539,-1.2232683517154146,0.832762582305879,-92.74972672690951,-2.5065477,7.870208,5.6408644,23.660286,-21.439577,-7.512501,-4.6993537,-4.0362916,-3.8659544,22.609987,-19.064232,6.2016892,-2.619397,3.8505573,5.7215376,-3.7064319,17.472921,-46.960228,52.42261,-0.16475289,1.1606956,4.632993,-9.126719,-14.249263,42.1561,57.203434,7.040085,11.199391,-4.1233935
6,0.056620389223098755,3.6367721557617188,77.35760498046875,-1.2016880502599998,0.9718818605799298,-92.64870057483694,-2.9991562,7.8370523,5.447365,24.0871,-21.412819,-7.4312115,-4.9778075,-4.0872326,-3.967888,22.720272,-19.020178,6.1858354,-2.6123612,3.836865,5.6793118,-3.686042,17.528196,-46.76827,52.258713,-0.25845048,1.1368451,4.7148356,-9.223841,-14.330706,42.128548,56.87876,7.118044,11.159138,-4.147828
7,0.05338770151138306,3.7461678981781006,77.36634063720703,-1.1760225448285766,1.127363053402428,-92.52948011796822,-3.5469797,7.792166,5.230879,24.559423,-21.375977,-7.3453193,-5.285494,-4.151003,-4.0867743,22.845377,-18.975271,6.1700745,-2.6050694,3.8238444,5.6374373,-3.6834679,17.585535,-46.589214,52.101017,-0.3717954,1.1052021,4.7969937,-9.332027,-14.422787,42.093918,56.544056,7.203162,11.108011,-4.185943
8,0.050870131701231,3.864572286605835,77.37443542480469,-1.1539085067063792,1.2974258808715822,-92.38061540749895,-4.1586347,7.7412667,4.9828544,25.089838,-21.323744,-7.263028,-5.6181393,-4.221288,-4.2341037,22.986448,-18.923286,6.1561236,-2.6041994,3.8210566,5.603072,-3.700618,17.643528,-46.416065,51.961643,-0.52168256,1.0417532,4.8775125,-9.446566,-14.525858,42.042492,56.201546,7.2797074,11.057575,-4.2315784
9,0.051630958914756775,3.9915475845336914,77.38384246826172,-1.1414209940695832,1.4862784527286383,-92.20004407322335,-4.8534274,7.6929355,4.701475,25.70882,-21.267607,-7.1887865,-5.979883,-4.2899957,-4.4122505,23.144117,-18.862873,6.143275,-2.6117907,3.8347254,5.570561,-3.7383788,17.701704,-46.255577,51.843822,-0.7425425,0.9260381,4.9589834,-9.565193,-14.639583,41.976887,55.847908,7.3429637,11.007491,-4.288184
10,0.0530468225479126,4.127741813659668,77.38995361328125,-1.1330810858975842,1.6931666449591976,-91.99353838798923,-5.6157937,7.639505,4.392012,26.389938,-21.202192,-7.117756,-6.369169,-4.3630795,-4.615256,23.313932,-18.795246,6.1311064,-2.6234431,3.858546,5.538881,-3.7968004,17.759892,-46.10942,51.74277,-1.0150512,0.77521443,5.0409937,-9.696588,-14.763986,41.9058,55.48768,7.4087615,10.952478,-4.3574467
11,0.04970216006040573,4.279069423675537,77.39395141601562,-1.118202432026144,1.9090982731438775,-91.76141975325356,-6.421437,7.5649905,4.055621,27.10118,-21.112354,-7.0458913,-6.781969,-4.455882,-4.841493,23.506565,-18.727505,6.121782,-2.6377301,3.8835247,5.5208216,-3.875467,17.8162,-45.96176,51.65808,-1.2761815,0.62208104,5.1175056,-9.837846,-14.900379,41.81559,55.124302,7.4738,10.897638,-4.429986
12,0.05471290275454521,4.440405368804932,77.39939880371094,-1.0867799250584782,2.1249313697769128,-91.50369692048895,-7.2396355,7.453377,3.6946695,27.797127,-20.98061,-6.9701395,-7.2124224,-4.5837893,-5.089288,23.728857,-18.664904,6.1174693,-2.6526637,3.901605,5.5292764,-3.9746964,17.867378,-45.797195,51.59006,-1.4626272,0.49953172,5.1830173,-9.976855,-15.049464,41.68651,54.751526,7.528453,10.848498,-4.496547
13,0.06432881951332092,4.61569356918335,77.40442657470703,-1.045061164519456,2.3362348416638636,-91.218964101027,-8.084171,7.3109546,3.2964501,28.51051,-20.81231,-6.8855543,-7.6551657,-4.740981,-5.36704,23.981783,-18.60788,6.116143,-2.6658273,3.9194143,5.5711813,-4.097519,17.910448,-45.61052,51.54444,-1.5479232,0.41328615,5.2378845,-10.115227,-15.211952,41.504635,54.36892,7.5728283,10.807103,-4.5537853
14,0.07712167501449585,4.798883438110352,77.40929412841797,-0.9947432730087666,2.548266547885932,-90.90741403745578,-8.961239,7.1411996,2.8659823,29.24584,-20.611128,-6.797914,-8.113469,-4.923621,-5.672113,24.260433,-18.553265,6.117675,-2.6776514,3.9386613,5.638044,-4.24529,17.943977,-45.41109,51.52364,-1.5682158,0.34698734,5.2849965,-10.258206,-15.388607,41.28394,53.97898,7.6132298,10.770742,-4.60676
15,0.09622689336538315,4.9908833503723145,77.42155456542969,-0.9201778281773247,2.766592657474827,-90.57202237937797,-9.8357115,6.925875,2.4316108,29.92892,-20.362612,-6.720684,-8.597479,-5.1487985,-5.9857917,24.570387,-18.504364,6.1267753,-2.6908023,3.944079,5.719878,-4.4184155,17.967583,-45.207443,51.52443,-1.5573925,0.29963055,5.322982,-10.402699,-15.580301,41.04893,53.583702,7.6515565,10.736619,-4.6587534
16,0.11589605361223221,5.188659191131592,77.43701934814453,-0.8046923906180973,2.9965807352179032,-90.21558610372614,-10.67185,6.6485467,2.0216327,30.48399,-20.051989,-6.6671443,-9.11645,-5.434169,-6.288795,24.915546,-18.463182,6.148318,-2.707303,3.9192216,5.807193,-4.6170073,17.981752,-45.008198,51.54277,-1.5488734,0.27054194,5.350447,-10.563759,-15.789936,40.839443,53.1999,7.7081847,10.701583,-4.713042
17,0.13838054239749908,5.4026618003845215,77.45182800292969,-0.6460536131535987,3.235222426917995,-89.8371439226187,-11.466302,6.3109317,1.6377748,30.904285,-19.675495,-6.6442895,-9.666489,-5.7816415,-6.5762525,25.293453,-18.430595,6.1841207,-2.7275755,3.8641746,5.901911,-4.838368,17.98552,-44.8051,51.578506,-1.5512047,0.2683499,5.364097,-10.730684,-16.018541,40.65515,52.81688,7.7709455,10.666729,-4.7699685
18,0.1663336157798767,5.620216369628906,77.46914672851562,-0.45166708095694064,3.480351619736144,-89.43539466425031,-12.235923,5.922819,1.2671659,31.224016,-19.240637,-6.6464953,-10.246038,-6.183675,-6.856275,25.708004,-18.404858,6.231503,-2.7501786,3.7859552,6.008069,-5.0834107,17.978315,-44.59623,51.63378,-1.5457625,0.29051614,5.365648,-10.908269,-16.266684,40.486767,52.43552,7.8445787,10.632842,-4.827735
19,0.20048946142196655,5.854785442352295,77.49068450927734,-0.21924320483915433,3.73778826695355,-89.01252862372793,-12.978304,5.4811664,0.91545534,31.43466,-18.752062,-6.6667833,-10.859672,-6.6427326,-7.1292367,26.153538,-18.384813,6.2886677,-2.777242,3.6798565,6.1182413,-5.356765,17.962896,-44.398907,51.70686,-1.5275292,0.31919906,5.36076,-11.097718,-16.534468,40.33118,52.060623,7.9366016,10.598112,-4.8868194
20,0.23624378442764282,6.0966715812683105,77.51155853271484,0.053481077904501705,4.013342301661147,-88.57055245870373,-13.690528,4.9834414,0.58800197,31.526161,-18.213573,-6.69721,-11.513546,-7.1616616,-7.3952236,26.628462,-18.369673,6.3534636,-2.8112862,3.5412521,6.2250752,-5.6599693,17.944248,-44.228664,51.792194,-1.490338,0.3369551,5.3549075,-11.285661,-16.820297,40.17371,51.684937,8.03983,10.560919,-4.9474287
21,0.2712709307670593,6.347592353820801,77.53607177734375,0.3869077128488254,4.313477674842021,-88.10553494698048,-14.379325,4.411358,0.2926987,31.485462,-17.598557,-6.717307,-12.224021,-7.7646885,-7.651052,27.14594,-18.364355,6.4283123,-2.8466704,3.3489869,6.327131,-5.9985905,17.926079,-44.090942,51.886883,-1.4192101,0.34632188,5.347447,-11.483016,-17.124317,40.018818,51.317562,8.182109,10.516029,-5.013934
22,0.3147762417793274,6.606553554534912,77.56097412109375,0.77364343836776,4.631653232757726,-87.61719873848672,-15.045886,3.777595,0.023341661,31.321005,-16.91455,-6.7378044,-12.982891,-8.442406,-7.894189,27.702492,-18.367533,6.512631,-2.883771,3.1118987,6.428725,-6.3671594,17.909739,-43.976856,51.98857,-1.3225096,0.3546293,5.335922,-11.68441,-17.446201,39.86518,50.951977,8.349818,10.465966,-5.0845594
23,0.3555052876472473,6.871944427490234,77.59032440185547,1.174189052157537,4.95530594915728,-87.11299616798206,-15.673782,3.1256046,-0.23701441,31.04594,-16.21174,-6.7959495,-13.756335,-9.145223,-8.127965,28.263865,-18.365156,6.599669,-2.9319792,2.8687432,6.5318556,-6.7520676,17.89723,-43.88297,52.092617,-1.2297013,0.35151768,5.3230968,-11.889776,-17.785559,39.71768,50.588516,8.511095,10.41985,-5.1504526
24,0.39984482526779175,7.144016265869141,77.6182632446289,1.5486959135677287,5.272491218720301,-86.60107417998299,-16.248405,2.497436,-0.5067562,30.679972,-15.545558,-6.9277287,-14.510813,-9.823637,-8.35798,28.796913,-18.344042,6.6830482,-3.0004473,2.6584108,6.6390915,-7.140061,17.890942,-43.806244,52.193993,-1.1705027,0.3267588,5.3119407,-12.102312,-18.141542,39.58392,50.228962,8.63815,10.386887,-5.2029977
25,0.44822072982788086,7.423407554626465,77.64088439941406,1.902800525986895,5.590959386093903,-86.07532437478994,-16.787977,1.869022,-0.8138278,30.2225,-14.90768,-7.0648675,-15.258949,-10.485649,-8.5834055,29.308807,-18.300259,6.761643,-3.0931716,2.4765587,6.746707,-7.530677,17.892714,-43.74734,52.288204,-1.1652774,0.2694254,5.3049197,-12.311852,-18.511944,39.453342,49.868202,8.709344,10.374526,-5.24368
26,0.4980959892272949,7.707870960235596,77.657470703125,2.2516928940736896,5.9129311017633235,-85.53445025354462,-17.29328,1.2353356,-1.144906,29.664408,-14.277535,-7.211578,-16.01139,-11.149444,-8.802528,29.81246,-18.24145,6.8384876,-3.2042332,2.3073275,6.8557067,-7.9289927,17.903624,-43.708214,52.376144,-1.1950127,0.1878497,5.299773,-12.5296335,-18.89636,39.332886,49.51475,8.7531805,10.375807,-5.2759895
27,0.5479285717010498,7.98634672164917,77.66575622558594,2.568952997037212,6.219729258243844,-84.99465370739969,-17.719322,0.6636654,-1.4574953,29.00802,-13.694234,-7.510111,-16.734892,-11.780602,-9.0214205,30.288332,-18.174343,6.9134264,-3.3321173,2.1728494,6.9737263,-8.325866,17.92463,-43.682426,52.459007,-1.2278346,0.101093575,5.2917614,-12.75294,-19.29555,39.22791,49.16213,8.776004,10.380054,-5.2941723
28,0.6092786192893982,8.266499519348145,77.66673278808594,2.8275560313469055,6.493500341565353,-84.47242561273008,-18.02205,0.21735021,-1.709866,28.259644,-13.203288,-8.101348,-17.397379,-12.344542,-9.247762,30.719835,-18.10751,6.986194,-3.474929,2.09605,7.109448,-8.71307,17.956905,-43.66495,52.537678,-1.2328286,0.028060313,5.2763147,-12.984396,-19.711359,39.148502,48.80654,8.790727,10.376688,-5.29251
29,0.6700873374938965,8.550928115844727,77.65619659423828,3.003937030257468,6.726447792682198,-83.96643001643552,-18.12961,-0.12230128,-1.9829831,27.252113,-12.789036,-9.204881,-17.97569,-12.816264,-9.499432,31.08756,-18.038334,7.0534444,-3.638245,2.1023054,7.2751646,-9.090262,18.001345,-43.656593,52.60782,-1.2003199,-0.025166718,5.24866,-13.220656,-20.145885,39.095387,48.435062,8.771925,10.369694,-5.2595124
30,0.7388848066329956,8.834535598754883,77.63571166992188,3.1117199891322653,6.929346828747526,-83.47174548478444,-18.080538,-0.370707,-2.26891,26.03365,-12.44713,-10.677768,-18.489067,-13.21264,-9.773442,31.403238,-17.963537,7.1149383,-3.8207812,2.1780925,7.465753,-9.459889,18.058235,-43.658947,52.667812,-1.146941,-0.06884025,5.2122498,-13.464841,-20.600471,39.067326,48.05396,8.72569,10.362469,-5.201142
31,0.8102930188179016,9.116279602050781,77.60230255126953,3.184130799865923,7.114115706620642,-82.99825237082493,-18.004774,-0.47808996,-2.3848891,24.946932,-12.233479,-12.120974,-18.974628,-13.56811,-10.043928,31.705166,-17.893784,7.176098,-4.0122943,2.283408,7.6615405,-9.819077,18.127909,-43.669155,52.723045,-1.0833194,-0.1088032,5.174727,-13.707345,-21.072466,39.056046,47.67005,8.695486,10.344359,-5.1380973
32,0.8796615600585938,9.39771556854248,77.56422424316406,3.263974685445158,7.294365281161771,-82.55360189814263,-18.038517,-0.41397566,-2.1466234,24.342793,-12.190816,-13.142029,-19.475338,-13.928916,-10.278697,32.034824,-17.84099,7.2445345,-4.204257,2.368176,7.8392544,-10.164898,18.21105,-43.684185,52.780323,-1.0194991,-0.15111028,5.143855,-13.950593,-21.557657,39.060753,47.30227,8.732021,10.303948,-5.091258
33,0.9560116529464722,9.67713737487793,77.52032470703125,3.3578333039921504,7.475153538328154,-82.12797498695268,-18.23373,-0.16709813,-1.4697695,24.346228,-12.322662,-13.638078,-19.994709,-14.306563,-10.483566,32.391663,-17.809727,7.324833,-4.4076405,2.4273539,7.9923353,-10.496163,18.30879,-43.705788,52.841076,-0.960076,-0.19961381,5.125561,-14.190844,-22.05306,39.078594,46.943615,8.861145,10.228666,-5.057405
34,1.0317003726959229,9.95552921295166,77.46743774414062,3.449307984148167,7.651245546401694,-81.7195972128369,-18.511326,0.23673125,-0.46395254,24.766144,-12.598454,-13.820699,-20.51693,-14.682647,-10.668313,32.75949,-17.793745,7.4131308,-4.6244965,2.4791756,8.131118,-10.813882,18.42174,-43.734913,52.90108,-0.89886725,-0.25039116,5.114602,-14.442902,-22.558321,39.120247,46.60123,9.06161,10.127115,-5.0284853
35,1.1162011623382568,10.23210334777832,77.41161346435547,3.549848634441023,7.820945617457664,-81.34768752445355,-18.815958,0.76908916,0.759898,25.490957,-13.013571,-13.771689,-21.058954,-15.061782,-10.803403,33.159885,-17.78966,7.505218,-4.835529,2.5081024,8.255513,-11.116478,18.54991,-43.764534,52.957188,-0.8297787,-0.2975106,5.1016555,-14.692788,-23.068384,39.172783,46.280792,9.274515,10.020964,-5.0192833
36,1.1958545446395874,10.504491806030273,77.34989166259766,3.669594032108124,7.9818808514361965,-81.03190477029482,-19.091581,1.4000133,2.092402,26.404623,-13.562733,-13.573998,-21.63816,-15.446971,-10.858753,33.616062,-17.795195,7.59668,-5.0195975,2.4989436,8.366098,-11.40389,18.692867,-43.789227,53.00745,-0.747321,-0.33526635,5.077426,-14.941019,-23.575483,39.232742,46.000755,9.455146,9.931241,-5.04508
37,1.2807360887527466,10.769365310668945,77.27857208251953,3.8063740259802965,8.138639955652108,-80.78076931631134,-19.330978,2.1811633,3.6392279,27.53179,-14.289528,-13.19644,-22.260513,-15.831409,-10.830012,34.125492,-17.811405,7.6821303,-5.1733527,2.451346,8.455255,-11.673712,18.850645,-43.81282,53.05661,-0.65855336,-0.3557559,5.0356355,-15.191489,-24.075064,39.314575,45.77651,9.634797,9.846641,-5.1118803
38,1.3717745542526245,11.033509254455566,77.2052230834961,3.9488497288170183,8.289312562429197,-80.58433363396752,-19.536747,3.1271265,5.4025,28.904116,-15.183436,-12.613076,-22.911629,-16.20563,-10.734637,34.67254,-17.836416,7.7640114,-5.306761,2.378598,8.526718,-11.926481,19.023415,-43.83573,53.104942,-0.5633465,-0.36415073,4.9826303,-15.463334,-24.565655,39.42822,45.61481,9.835972,9.760382,-5.211327
39,1.4678761959075928,11.297590255737305,77.12720489501953,4.096577585416,8.421764310950454,-80.43430495561401,-19.678995,4.138274,7.1244974,30.412495,-16.151922,-11.915993,-23.581217,-16.572353,-10.573192,35.262295,-17.864283,7.8504424,-5.4229927,2.28264,8.594376,-12.163627,19.210987,-43.84399,53.14484,-0.4457692,-0.3743616,4.927958,-15.726299,-25.040808,39.523613,45.483753,9.94891,9.701558,-5.3380275
40,1.573152780532837,11.558531761169434,77.04273986816406,4.252483516423616,8.524470217301433,-80.32164642172988,-19.745691,5.103906,8.55459,31.952135,-17.100052,-11.196102,-24.260698,-16.937326,-10.344338,35.901997,-17.889534,7.950542,-5.5248575,2.1612945,8.67034,-12.38667,19.412828,-43.824173,53.170593,-0.28898895,-0.4001367,4.8813214,-15.946355,-25.492287,39.546066,45.352333,9.859098,9.699418,-5.486589
41,1.6812982559204102,11.818572044372559,76.95294952392578,4.42631434337324,8.595855885408712,-80.25684787247636,-19.746437,6.010669,9.668997,33.541397,-18.021894,-10.416496,-24.955564,-17.305258,-10.03021,36.595444,-17.914217,8.06686,-5.603883,2.0022717,8.753643,-12.599069,19.629316,-43.786716,53.188526,-0.07922723,-0.44908226,4.8409123,-16.125946,-25.914967,39.491802,45.23717,9.496884,9.766765,-5.644716
42,1.7998212575912476,12.072443008422852,76.85596466064453,4.611987226157933,8.64095512766302,-80.24137391068241,-19.684814,6.907453,10.58765,35.20692,-18.95498,-9.548066,-25.666174,-17.667305,-9.637246,37.334778,-17.93868,8.195312,-5.658259,1.8105901,8.840845,-12.801338,19.860497,-43.736774,53.200935,0.17118539,-0.51249844,4.803663,-16.308048,-26.308151,39.40335,45.174843,8.958382,9.886691,-5.81804
43,1.9283626079559326,12.328669548034668,76.75543212890625,4.791643769947853,8.658570157249196,-80.25273447018105,-19.558905,7.767903,11.282366,36.86355,-19.868568,-8.693681,-26.378832,-18.014593,-9.199238,38.114964,-17.95787,8.335721,-5.712299,1.6062654,8.931751,-12.98177,20.105513,-43.64503,53.197914,0.4386025,-0.5799829,4.7761927,-16.416937,-26.667917,39.226086,45.08754,8.286013,10.045825,-6.028485
44,2.0591156482696533,12.585451126098633,76.64491271972656,4.9500141525280945,8.648293753964063,-80.26741398344511,-19.371647,8.56357,11.727706,38.43358,-20.733547,-7.956939,-27.080841,-18.341545,-8.749646,38.931065,-17.966015,8.488398,-5.7737885,1.4068238,9.034887,-13.144517,20.362558,-43.497707,53.170208,0.69802934,-0.64094234,4.7664876,-16.521622,-26.994514,39.003235,45.00623,7.652763,10.228645,-6.297742
45,2.198014497756958,12.841202735900879,76.52513122558594,5.086920773274295,8.605910730253253,-80.29142549272615,-19.125395,9.278973,11.888904,39.92258,-21.542118,-7.3567452,-27.771017,-18.64501,-8.28345,39.788692,-17.964401,8.657928,-5.8523245,1.21229,9.150347,-13.277053,20.630535,-43.278927,53.116398,0.95858604,-0.68388075,4.7760296,-16.562885,-27.282341,38.687756,44.89225,6.9612184,10.451046,-6.6380606
46,2.3423943519592285,13.097137451171875,76.39628601074219,5.211906692563789,8.53367393973653,-80.33286381835865,-18.83021,9.925885,11.794312,41.367313,-22.308643,-6.841869,-28.457375,-18.929354,-7.786579,40.690315,-17.95624,8.8444,-5.931918,1.0115185,9.278534,-13.391531,20.90941,-43.00954,53.04398,1.2268615,-0.7171406,4.801551,-16.624899,-27.531826,38.339478,44.820606,6.246264,10.715338,-7.0336313
47,2.4958908557891846,13.355833053588867,76.25716400146484,5.32353451852126,8.440703387709389,-80.37146421582102,-18.498613,10.517044,11.514506,42.735172,-23.036617,-6.410963,-29.137999,-19.204536,-7.2798114,41.62318,-17.937914,9.041993,-6.0221224,0.80849624,9.406826,-13.490318,21.19938,-42.689495,52.95262,1.4813879,-0.76040477,4.840573,-16.661062,-27.743427,37.942436,44.738396,5.5935507,10.989925,-7.4684553
48,2.6537814140319824,13.61070442199707,76.11042022705078,5.420848251084246,8.335985998007034,-80.38671214381881,-18.14169,11.065758,11.119965,43.99391,-23.73011,-6.062448,-29.81044,-19.47763,-6.7846527,42.57285,-17.904924,9.244755,-6.1336217,0.6064846,9.520468,-13.573279,21.500763,-42.317986,52.84201,1.7015078,-0.83322597,4.890737,-16.588442,-27.920437,37.45367,44.56454,5.058728,11.241717,-7.9279947
49,2.8205976486206055,13.868570327758789,75.95474243164062,5.505037152076518,8.223411609748272,-80.37441108733282,-17.765516,11.54992,10.571151,45.135456,-24.392342,-5.822019,-30.485294,-19.753643,-6.302278,43.55166,-17.851831,9.45203,-6.262086,0.4045826,9.620495,-13.647442,21.814188,-41.903206,52.71475,1.8807106,-0.9507673,4.956456,-16.45039,-28.066225,36.88235,44.321377,4.7129464,11.477428,-8.435837
50,2.9884860515594482,14.12522029876709,75.79456329345703,5.577592885218243,8.09796647355499,-80.34468188674482,-17.367077,11.969942,9.853877,46.182747,-25.02299,-5.68288,-31.159744,-20.027687,-5.823088,44.560993,-17.782568,9.66929,-6.409646,0.20140766,9.709135,-13.7034025,22.139565,-41.436974,52.567986,2.0317209,-1.0991622,5.036843,-16.196285,-28.17918,36.194458,43.977596,4.450362,11.709177,-8.992062
51,3.1609184741973877,14.388303756713867,75.62991333007812,5.63666175842102,7.956065062357537,-80.29827883617926,-16.944984,12.373771,9.074463,47.155045,-25.623257,-5.593928,-31.81359,-20.295622,-5.3502746,45.573933,-17.708025,9.899356,-6.555599,-0.0026363083,9.797757,-13.760295,22.475576,-40.936752,52.398758,2.153655,-1.254482,5.124824,-15.967258,-28.269285,35.528282,43.650074,4.374269,11.904147,-9.547227
52,3.343040943145752,14.652420997619629,75.45284271240234,5.68007053525743,7.793731684448631,-80.23619149113956,-16.498158,12.810504,8.3374405,48.0697,-26.192966,-5.5042377,-32.42631,-20.554136,-4.8876257,46.56383,-17.639626,10.1437435,-6.703927,-0.20348153,9.885438,-13.812361,22.820415,-40.393875,52.20097,2.2500026,-1.3933513,5.211086,-15.713804,-28.34325,34.89906,43.306126,4.4263263,12.032556,-10.052686
53,3.5360708236694336,14.909368515014648,75.27104187011719,5.711182102492541,7.610465353591822,-80.15814338401044,-16.017307,13.272551,7.636051,48.922653,-26.728662,-5.3990893,-33.00588,-20.80927,-4.428567,47.544857,-17.577866,10.403305,-6.8629904,-0.40295234,9.967745,-13.845542,23.172052,-39.786648,51.968193,2.2954772,-1.5105159,5.2933416,-15.36449,-28.403105,34.25718,42.87062,4.6032047,12.088002,-10.496393
54,3.727285623550415,15.166573524475098,75.08251953125,5.7298260848769615,7.408286655933414,-80.06368086211044,-15.506772,13.741921,6.9263287,49.708275,-27.23217,-5.3068943,-33.558033,-21.060549,-3.9745846,48.523952,-17.518152,10.677586,-7.024567,-0.6017547,10.048795,-13.870941,23.530153,-39.1295,51.70805,2.2966843,-1.6183367,5.3765845,-14.996685,-28.45393,33.635063,42.404472,4.960116,12.0828,-10.903917
55,3.9292004108428955,15.428571701049805,74.8907470703125,5.727673010027803,7.187043123736857,-79.95351568989577,-14.987338,14.254688,6.257145,50.445442,-27.71217,-5.2367725,-34.060013,-21.298435,-3.5414083,49.465675,-17.463835,10.964473,-7.1845183,-0.7890059,10.131121,-13.898677,23.895466,-38.448643,51.428288,2.3097696,-1.7203097,5.4605966,-14.560882,-28.495369,33.023262,41.90044,5.3534684,12.020222,-11.282273
56,4.135633945465088,15.696503639221191,74.68807220458984,5.696778946827335,6.946815061154168,-79.82814216526202,-14.478921,14.845354,5.6776423,51.151077,-28.176357,-5.198155,-34.489544,-21.516191,-3.1446445,50.336006,-17.418734,11.260599,-7.329366,-0.95665044,10.221333,-13.94879,24.269098,-37.78046,51.13924,2.3897479,-1.8194771,5.54619,-14.08934,-28.529854,32.463196,41.417847,5.7035584,11.902956,-11.638217
57,4.344651699066162,15.966588020324707,74.48153686523438,5.631383060521436,6.681601111868211,-79.69255637901048,-13.955618,15.535538,5.2173004,51.809223,-28.621943,-5.2138605,-34.83601,-21.709135,-2.7839713,51.129684,-17.380302,11.563744,-7.457553,-1.1000011,10.324718,-14.017016,24.650051,-37.124073,50.840942,2.5118916,-1.9139715,5.640113,-13.597182,-28.561821,31.978886,40.962193,5.985434,11.718972,-11.948788
58,4.557835102081299,16.23769760131836,74.27332305908203,5.536807064123628,6.3936643904945285,-79.54442768701753,-13.417139,16.30342,4.8460336,52.41899,-29.046692,-5.272263,-35.112633,-21.88602,-2.4535818,51.864735,-17.347748,11.874374,-7.5741544,-1.2241096,10.437281,-14.098404,25.03801,-36.46642,50.531296,2.658907,-2.0030606,5.7399974,-13.078904,-28.593275,31.55385,40.515583,6.253894,11.4715185,-12.217639
59,4.773510456085205,16.514867782592773,74.0634765625,5.421056974140978,6.095244468519,-79.37301797560478,-12.920502,17.115255,4.522402,53.015358,-29.457033,-5.330654,-35.33476,-22.056564,-2.1602678,52.543236,-17.328447,12.1915,-7.6794047,-1.3335946,10.551677,-14.204387,25.435452,-35.816883,50.210785,2.9029372,-2.0910692,5.8330083,-12.498465,-28.616701,31.143888,40.07075,6.522014,11.187863,-12.49252
60,4.9913787841796875,16.7913875579834,73.84883117675781,5.292200467707739,5.79857655196818,-79.16810528839217,-12.523079,17.937168,4.203889,53.632977,-29.85899,-5.346517,-35.516438,-22.235214,-1.9107136,53.164177,-17.325922,12.513315,-7.7729,-1.4356625,10.658944,-14.349504,25.846834,-35.189083,49.882923,3.3131692,-2.182289,5.9066944,-11.83125,-28.620121,30.709496,39.633713,6.805128,10.893975,-12.821463
61,5.21466064453125,17.073673248291016,73.63459777832031,5.148688850380771,5.4968566741204095,-78.9317815032893,-12.214673,18.795898,3.9104025,54.28687,-30.25752,-5.27807,-35.655685,-22.422712,-1.7042123,53.740578,-17.34756,12.837352,-7.850724,-1.5311407,10.760563,-14.526372,26.274086,-34.567467,49.53971,3.9604244,-2.2734077,5.9438815,-11.07645,-28.596134,30.265167,39.218174,7.0748467,10.57407,-13.21364
62,5.440518856048584,17.364952087402344,73.41458129882812,4.987337823416269,5.187311775527,-78.66756748353156,-11.974165,19.69602,3.6513925,54.957497,-30.648348,-5.157971,-35.748875,-22.61466,-1.5376188,54.27094,-17.38812,13.162819,-7.9168034,-1.6192309,10.858079,-14.729053,26.718725,-33.951427,49.182133,4.7893996,-2.3637464,5.9565067,-10.253509,-28.542192,29.827042,38.827816,7.3302464,10.220719,-13.644978
63,5.665589332580566,17.67289924621582,73.19296264648438,4.813590507795545,4.888357074949612,-78.36698621982958,-11.842685,20.567465,3.3664403,55.629353,-31.022457,-5.0552964,-35.80352,-22.819576,-1.4137119,54.72598,-17.43703,13.491722,-7.9812098,-1.7042316,10.943767,-14.970828,27.185053,-33.375896,48.822086,5.682268,-2.4606853,5.975799,-9.354166,-28.449465,29.347733,38.439465,7.622015,9.872389,-14.113643
64,5.897126197814941,17.993688583374023,72.97279357910156,4.633761121316346,4.618425028857362,-78.02149651017169,-11.858625,21.338474,2.996745,56.2818,-31.374113,-5.0394883,-35.826958,-23.04526,-1.335254,55.075115,-17.483183,13.826305,-8.0520935,-1.7918887,11.008976,-15.268726,27.67835,-32.881596,48.472668,6.5179133,-2.570809,6.032882,-8.348837,-28.304445,28.763653,38.01391,7.985907,9.567236,-14.617163
65,6.129230499267578,18.32183074951172,72.7576904296875,4.447453991314706,4.371713940453201,-77.62424777752027,-12.028774,22.036217,2.5512245,56.94343,-31.72487,-5.08325,-35.83055,-23.288752,-1.2900143,55.356438,-17.53287,14.176299,-8.125824,-1.8815354,11.054817,-15.638486,28.204966,-32.497604,48.12518,7.331066,-2.6848803,6.1274405,-7.2140036,-28.090128,28.040844,37.55211,8.424544,9.319077,-15.178704
66,6.360576152801514,18.670888900756836,72.54950714111328,4.252473241049415,4.142565426456709,-77.18121555691488,-12.334306,22.679195,2.0512102,57.61584,-32.07273,-5.165737,-35.807983,-23.551023,-1.2799428,55.57092,-17.587288,14.537012,-8.198133,-1.9762123,11.083203,-16.068623,28.76576,-32.202858,47.774937,8.162414,-2.8016875,6.246135,-5.9776073,-27.79872,27.216686,37.078117,8.915459,9.104042,-15.791981
67,6.600957870483398,19.034290313720703,72.35122680664062,4.052485526835799,3.9493314856438912,-76.70354999188974,-12.777159,23.182346,1.4571757,58.246758,-32.377274,-5.3668613,-35.742455,-23.839752,-1.3288802,55.635998,-17.6296,14.889487,-8.277321,-2.0844023,11.088285,-16.538027,29.355595,-31.962564,47.442448,8.897563,-2.9389863,6.40057,-4.695987,-27.433529,26.343706,36.59145,9.467477,8.902759,-16.410269
68,6.850140571594238,19.411022186279297,72.17050170898438,3.832281799141471,3.8160595236817185,-76.2127984688627,-13.364302,23.488882,0.728785,58.78699,-32.60172,-5.775097,-35.617924,-24.136732,-1.5063546,55.4628,-17.637321,15.000033,-8.361374,-2.195426,11.062916,-17.024975,29.964506,-31.738466,47.148888,9.426049,-3.1152196,6.6024256,-3.4194102,-27.006792,25.474314,36.08676,10.092082,8.696557,-16.985634
69,7.106457710266113,19.808088302612305,72.01341247558594,3.57239438422579,3.7513103895916746,-75.70174837195155,-14.123788,23.608854,-0.1831882,59.2429,-32.75838,-6.4707685,-35.40573,-24.424187,-1.8335898,55.01801,-17.678623,15.000033,-8.4407015,-2.2868953,10.991839,-17.557589,30.59158,-31.558521,46.906914,9.781852,-3.3322227,6.8449125,-2.0999668,-26.52397,24.603909,35.53104,10.882657,8.485785,-17.551538
70,7.380163669586182,20.232919692993164,71.8821792602539,3.315769991298271,3.7332056846934494,-75.14899969355747,-15.027155,23.522694,-1.236537,59.631706,-32.8743,-7.3808317,-35.12203,-24.74761,-2.2458131,54.364693,-17.7489,15.000033,-8.533923,-2.3959508,10.887144,-18.13957,31.236332,-31.431717,46.704533,10.004618,-3.582119,7.1245646,-0.72646874,-25.983898,23.715437,34.928486,11.806317,8.276381,-18.11629
71,7.673398971557617,20.67706871032715,71.79222106933594,3.0586327885180196,3.764363875818397,-74.59918442620844,-16.024195,23.24339,-2.3434548,59.946327,-32.94846,-8.38869,-34.807293,-25.077633,-2.7047546,53.507153,-17.686235,15.000033,-8.636248,-2.5153804,10.771105,-18.713345,31.885002,-31.286182,46.533695,9.994318,-3.869948,7.4583373,0.59448135,-25.396639,22.845152,34.337074,12.685109,8.061895,-18.594557
72,7.992544174194336,21.158416748046875,71.74382019042969,2.7983289000126415,3.846900946516798,-74.09627928663328,-17.0665,22.784506,-3.4171584,60.174953,-32.966114,-9.376438,-34.501595,-25.386282,-3.172598,52.4483,-17.328506,15.000033,-8.746719,-2.6352434,10.66523,-19.221853,32.51812,-31.04482,46.39337,9.651929,-4.2030525,7.8622108,1.7549491,-24.781261,22.03409,33.81657,13.344759,7.841224,-18.903162
73,8.349163055419922,21.664377212524414,71.74333953857422,2.5423294335738813,3.995056800345084,-73.60902380514139,-18.189413,22.091846,-4.5027585,60.31379,-32.923824,-10.388813,-34.21949,-25.703192,-3.6771016,51.209908,-16.68687,15.000033,-8.882781,-2.759615,10.559759,-19.679554,33.12053,-30.682987,46.285152,8.895114,-4.600164,8.336892,2.779139,-24.148474,21.274864,33.349926,13.75404,7.6091094,-18.994333
74,8.741288185119629,22.217296600341797,71.79519653320312,2.2904297406179026,4.2024358459374245,-73.12867884827833,-19.3943,21.178858,-5.61782,60.36949,-32.831863,-11.463713,-33.935993,-26.02465,-4.229703,49.782917,-15.827494,15.000033,-9.0380335,-2.8847458,10.4465275,-20.120272,33.6897,-30.247587,46.230797,7.795233,-5.0606303,8.870477,3.7205794,-23.504086,20.552876,32.90835,14.004924,7.373795,-18.921967
75,9.165870666503906,22.81153106689453,71.89806365966797,2.0266855741616543,4.439917761710945,-72.73307732103358,-20.592602,20.160612,-6.6429377,60.34553,-32.678623,-12.470689,-33.63264,-26.283674,-4.765013,48.12282,-14.680072,15.000033,-9.173671,-2.9902685,10.353953,-20.48998,34.22218,-29.737972,46.23619,6.511479,-5.561768,9.459565,4.5157156,-22.863525,19.892513,32.52875,14.114767,7.155811,-18.755627
76,9.633625030517578,23.459575653076172,72.05318450927734,1.734493522472573,4.6782114777459425,-72.49900014711977,-21.705135,19.152058,-7.464716,60.244854,-32.44222,-13.277614,-33.2914,-26.418022,-5.2162037,46.181896,-13.171663,15.000033,-9.255717,-3.0547216,10.311653,-20.73245,34.717484,-29.151157,46.30384,5.197091,-6.0790462,10.103327,5.100267,-22.250685,19.316555,32.243984,14.100056,6.974943,-18.566368
77,10.154253005981445,24.14575958251953,72.24893951416016,1.4111564959860006,4.923452499042106,-72.43563393996638,-22.750433,18.169106,-8.031405,60.088436,-32.16863,-13.801902,-32.9063,-26.426268,-5.575875,43.914246,-11.286311,15.000033,-9.290175,-3.067211,10.335032,-20.81728,35.165947,-28.4265,46.424847,3.8101358,-6.659739,10.842514,5.4692035,-21.676653,18.80449,32.057507,13.890948,6.8444543,-18.342821
78,10.711712837219238,24.857385635375977,72.48102569580078,1.063740318827194,5.184385556669758,-72.50483107631821,-23.762213,17.15488,-8.411246,59.863564,-31.835121,-14.126479,-32.48362,-26.335234,-5.876402,41.349716,-9.060651,15.000033,-9.292859,-3.0367227,10.40916,-20.770792,35.562584,-27.57238,46.595448,2.303893,-7.3074636,11.658649,5.6651597,-21.147327,18.345293,31.938341,13.507918,6.7507496,-18.058924
79,11.314170837402344,25.60236167907715,72.73837280273438,0.6896845617334223,5.435307896670256,-72.71290985582773,-24.688816,16.12082,-8.6746855,59.518887,-31.315426,-14.37139,-32.030254,-26.134237,-6.1043253,38.561363,-6.5024233,15.000033,-9.244233,-2.9689956,10.521362,-20.63173,35.922215,-26.7017,46.823032,0.8077139,-7.924988,12.469528,5.6997213,-20.682562,17.970333,31.856005,13.104682,6.675136,-17.762163
80,11.95569896697998,26.376787185668945,73.01382446289062,0.28661272344129135,5.650681745263044,-73.06648984444463,-25.47935,15.079205,-8.897466,59.00448,-30.4871,-14.658693,-31.55528,-25.819822,-6.242744,35.622658,-3.6185193,15.000033,-9.125454,-2.8701508,10.661728,-20.413946,36.26845,-25.905312,47.087784,-0.53903115,-8.407354,13.1982355,5.5853086,-20.308208,17.71091,31.773632,12.836645,6.6014123,-17.498161
81,12.641380310058594,27.173128128051758,73.30414581298828,-0.1336127574485816,5.846943267194751,-73.58116454110808,-26.119112,13.859919,-9.184128,58.177494,-29.072414,-15.000033,-31.005512,-25.452538,-6.4398823,32.261707,0.03251553,15.000033,-8.940745,-2.7398653,10.835305,-20.099968,36.61057,-25.15903,47.36878,-1.6746567,-8.713369,13.895108,5.2923923,-20.039183,17.603287,31.698608,12.772141,6.550543,-17.332136
82,13.365997314453125,27.99260902404785,73.58344268798828,-0.534308878057077,6.028522064057111,-74.23985408688615,-26.624496,12.450466,-9.421076,57.083466,-27.201082,-15.000033,-30.42543,-25.080061,-6.6118526,28.562275,4.298778,15.000033,-8.715049,-2.6068273,11.042517,-19.65602,36.94738,-24.401577,47.64477,-2.6835487,-8.89813,14.582897,4.829689,-19.874945,17.62499,31.628323,12.825873,6.5252304,-17.219946
83,14.110198974609375,28.81041145324707,73.83438110351562,-0.9712177485664569,6.148273318008564,-75.02034291276482,-27.027597,11.262243,-9.47828,56.0019,-25.40094,-15.000033,-29.925499,-24.589615,-6.4559326,25.114735,8.277792,15.000033,-8.440605,-2.4387438,11.282195,-19.097397,37.29673,-23.696262,47.910988,-3.6750252,-8.995608,15.146316,4.26213,-19.817572,17.722143,31.513788,12.923439,6.4834456,-17.04246
84,14.855368614196777,29.622772216796875,74.03347778320312,-1.4410975379182747,6.17001205460494,-75.87988927167798,-27.360119,10.580382,-9.177803,55.207882,-24.174902,-15.000033,-29.624321,-23.939766,-5.6405787,22.494318,11.085104,15.000033,-8.123474,-2.2551591,11.538728,-18.444256,37.68556,-23.114046,48.160706,-4.7623925,-9.037898,15.468484,3.6638534,-19.865854,17.834902,31.296824,12.988502,6.3836303,-16.679081
85,15.585433959960938,30.410951614379883,74.1512222290039,-1.930594144443112,6.079211969620021,-76.8197707464575,-27.608442,10.537277,-8.371396,54.773556,-23.676756,-15.000033,-29.530558,-23.070541,-3.812859,20.661844,12.443895,15.000033,-7.7688265,-2.0668914,11.820078,-17.68237,38.135075,-22.684187,48.368607,-6.034733,-8.961433,15.499194,3.0554779,-20.011908,17.940937,30.971241,13.050702,6.189382,-16.044289
86,16.3427734375,31.191143035888672,74.21497344970703,-2.147112726254133,5.930624716573626,-77.78772646167785,-27.69288,10.521791,-6.843563,54.430546,-23.555477,-13.426218,-29.758377,-22.379837,-1.0356215,19.551641,12.793943,15.000033,-7.4412518,-2.1314762,12.068086,-16.799381,38.650333,-22.360666,48.531548,-7.423074,-8.761696,15.311608,2.392148,-20.247356,18.080193,30.565918,13.134992,5.931791,-15.218832
87,17.10309410095215,31.955585479736328,74.20670318603516,-2.3387639084950274,5.728899425570198,-78.83136009200211,-27.68361,10.68471,-5.091978,54.25811,-23.809273,-11.6384945,-30.146755,-21.659548,1.9035777,19.253794,12.502205,15.000033,-7.073748,-2.237652,12.305099,-15.800086,39.2291,-22.083265,48.663177,-8.790506,-8.556876,14.966078,1.6395508,-20.577053,18.291313,30.083317,13.15979,5.6698856,-14.330035
88,17.85639762878418,32.69645690917969,74.12114715576172,-2.5800361043950355,5.4844944226083525,-79.9451894812945,-27.63152,10.928443,-3.4536786,54.250053,-24.317984,-10.190869,-30.637236,-20.893269,4.344372,19.922745,11.884896,15.000033,-6.6492543,-2.329263,12.525452,-14.692969,39.864677,-21.797039,48.78062,-10.004389,-8.469922,14.51677,0.77165353,-21.011562,18.612637,29.5125,13.044184,5.460622,-13.5058775
89,18.602767944335938,33.43596649169922,73.98222351074219,-2.882712847311437,5.158608739652674,-81.17551992073471,-27.476896,11.272029,-1.9727032,54.41847,-25.150715,-9.221396,-31.260927,-19.9854,6.3303847,21.756449,10.890287,15.000033,-6.139985,-2.403436,12.752735,-13.471773,40.565105,-21.511345,48.904373,-11.043973,-8.537206,13.870376,-0.24051419,-21.566492,19.066164,28.832863,12.726302,5.283085,-12.666679
90,19.334484100341797,34.18796920776367,73.80854797363281,-3.2074738911981573,4.7525736013778985,-82.5040425305314,-27.214632,11.752949,-0.50980324,54.763157,-26.321047,-8.478357,-32.017757,-18.944551,8.12042,24.62161,9.37989,15.000033,-5.5738425,-2.4786081,12.9909725,-12.1154175,41.33323,-21.226017,49.006893,-11.979059,-8.6851,13.026982,-1.3788447,-22.238016,19.645763,28.038218,12.270448,5.1153464,-11.781533
91,20.03465461730957,34.937469482421875,73.60027313232422,-3.557653450876019,4.329813723112881,-83.8218471347845,-26.998083,12.305806,0.8801234,55.26279,-27.592379,-7.83698,-32.805084,-17.947182,9.387614,28.133974,7.546406,15.000033,-5.0166907,-2.5319421,13.207293,-10.621892,42.14508,-20.883419,49.04617,-12.810623,-8.880897,12.179394,-2.5974705,-23.000647,20.337492,27.143217,11.777142,5.0146265,-11.051843
92,20.714231491088867,35.68174362182617,73.37097930908203,-3.938953004502041,3.9545737278347106,-85.02147965216086,-26.98579,12.866214,2.1447296,55.89983,-28.733372,-7.164289,-33.54016,-17.182678,9.826311,31.90357,5.5917764,15.000033,-4.530183,-2.5451598,13.361586,-9.004077,42.962387,-20.437605,49.00031,-13.531665,-9.099636,11.524797,-3.8555677,-23.821404,21.120714,26.18185,11.339071,5.0406265,-10.68015
93,21.382272720336914,36.42060852050781,73.11517333984375,-4.396993009895914,3.629282451738597,-86.11968276494821,-27.225264,13.516395,3.3014073,56.726215,-29.754505,-6.4258866,-34.21682,-16.649767,9.267757,35.90664,3.508228,15.000033,-4.108046,-2.4955497,13.419034,-7.293793,43.777603,-19.965652,48.975727,-14.144137,-9.429795,11.072171,-5.233281,-24.70289,22.106192,25.201883,11.045338,5.2296114,-10.8357315
94,22.02897071838379,37.1580696105957,72.8412094116211,-4.911338402049278,3.32176397587833,-87.15632544902056,-27.632944,14.256248,4.369314,57.729664,-30.745733,-5.681928,-34.89142,-16.347187,7.936139,40.32955,1.2041678,15.000033,-3.720558,-2.4041004,13.401119,-5.4908843,44.587833,-19.473305,48.972065,-14.63962,-9.861717,10.733304,-6.734699,-25.639688,23.267824,24.179594,10.8246355,5.546595,-11.374126
95,22.638916015625,37.88676834106445,72.55904388427734,-5.391205273315854,3.0440238377735027,-88.05547359102334,-28.172766,14.894627,5.2960377,58.795666,-31.600616,-4.9392867,-35.534763,-16.448524,6.1289344,45.043144,-1.222617,15.000033,-3.3929756,-2.327357,13.34926,-3.6202707,45.356827,-18.86368,48.864796,-15.016374,-10.228787,10.566823,-8.200196,-26.588661,24.36661,23.067013,10.513513,5.949778,-12.029675
96,23.226642608642578,38.60934829711914,72.27877044677734,-5.746521831156927,2.805686227282024,-88.7342446636626,-28.804794,15.236995,6.0301776,59.808342,-32.216175,-4.2062283,-36.076443,-17.100685,4.1441994,49.886326,-3.664926,15.000033,-3.1492777,-2.327408,13.294719,-1.6819779,46.025627,-18.016102,48.52714,-15.234733,-10.365937,10.635445,-9.3530445,-27.496477,25.114405,21.761505,9.886593,6.396679,-12.532793
97,23.82103729248047,39.33259201049805,72.00881958007812,-5.993522787586244,2.612995758433582,-89.10201899250677,-29.612652,15.236247,6.4390707,60.85026,-32.563725,-3.514175,-36.452553,-18.485582,1.7880846,54.96881,-6.2015963,14.971934,-3.0406096,-2.386207,13.265498,0.20836277,46.56234,-16.964483,48.05876,-15.151888,-10.185846,11.034975,-10.483383,-28.343634,25.53276,20.577976,8.907419,6.927575,-12.875602
98,24.41106414794922,40.06062316894531,71.76641845703125,-6.398781949727341,2.48693122128297,-89.32734337554021,-30.696522,15.299995,6.4614563,62.041336,-32.73689,-2.9351401,-36.5535,-20.400131,-1.598517,60.1892,-8.81405,13.248914,-2.9584699,-2.2760842,13.183402,2.0844386,46.95373,-15.750516,47.5243,-14.803618,-9.792734,11.710978,-11.394463,-29.134888,25.673994,19.327003,7.563517,7.5490885,-13.169185
99,25.023395538330078,40.79387664794922,71.5406265258789,-6.747193345888402,2.3932128853274404,-89.47510582668309,-31.794409,15.233669,6.4412856,63.113663,-32.73861,-2.3483028,-36.326374,-22.553537,-4.9872265,65.31259,-11.399354,11.3438015,-2.8546987,-2.178293,13.054773,3.9391005,47.19611,-14.452401,46.84451,-14.531811,-9.314189,12.50791,-12.176252,-29.886116,25.632359,18.094341,6.146376,8.153774,-13.338099
100,25.659687042236328,41.52769088745117,71.3490219116211,-7.000851072378366,2.3168249748834255,-89.68925683024845,-32.72719,15.091235,6.6188703,63.876717,-32.605873,-1.6937984,-35.81335,-24.515839,-7.853752,70.01676,-13.744814,9.563436,-2.6149893,-2.1127527,12.862508,5.792523,47.28751,-13.135467,45.925694,-14.664794,-8.886538,13.278298,-12.797952,-30.614986,25.460447,16.852978,4.8974395,8.62946,-13.316332
101,26.312053680419922,42.255088806152344,71.2100830078125,-7.133420059514146,2.298818453771459,-89.9677602034895,-33.517086,14.842786,7.039223,64.30475,-32.339626,-0.9352881,-35.12182,-26.3007,-10.185218,74.32579,-15.807838,7.86166,-2.225778,-2.0959969,12.559481,7.6308074,47.21829,-11.818816,44.681015,-15.447933,-8.485497,14.081263,-13.212139,-31.326818,25.07041,15.567387,3.7792733,8.938959,-12.990651
102,26.9870662689209,42.98548889160156,71.13180541992188,-7.172834341983293,2.3344983313691374,-90.25048911419942,-34.23488,14.483029,7.5900245,64.49178,-31.928461,-0.10873635,-34.236523,-28.02988,-12.262087,78.39005,-17.682014,6.1357765,-1.737779,-2.1087432,12.163888,9.423066,46.982967,-10.500976,43.189,-16.654331,-8.073086,14.9745455,-13.386148,-32.027218,24.43905,14.208589,2.6794672,9.133617,-12.433603
103,27.679458618164062,43.697486877441406,71.11802673339844,-7.163292114223268,2.342134390282542,-90.59573868541081,-34.78003,14.1101,8.2688465,64.43059,-31.392944,0.7362756,-33.138203,-29.433668,-14.008681,82.075516,-19.311249,4.6112156,-1.1208023,-2.1080003,11.775625,11.153723,46.596443,-9.227229,41.589943,-17.90565,-7.761793,15.806983,-13.527186,-32.7303,23.777678,12.931006,1.814009,9.242126,-11.869689
104,28.385692596435547,44.39445877075195,71.16293334960938,-7.148618934087086,2.240152050657856,-91.06167416620139,-35.05725,13.819761,9.066934,64.11741,-30.751604,1.5487425,-31.839378,-30.250456,-15.339243,85.24348,-20.628862,3.5157404,-0.36435884,-2.0569258,11.480179,12.8411045,46.07757,-8.017084,40.021133,-18.819641,-7.648081,16.416054,-13.690919,-33.452774,23.271334,11.752203,1.3425509,9.304222,-11.522812
105,29.10395622253418,45.100929260253906,71.26680755615234,-7.13489525143777,1.9590469556989474,-91.70279333530641,-34.963127,13.660381,10.0322695,63.554714,-30.045277,2.3186605,-30.33219,-30.404272,-16.185955,87.858055,-21.543398,2.9193907,0.5938232,-1.9415888,11.3355875,14.525123,45.422348,-6.8340487,38.439747,-19.355644,-7.814505,16.717264,-13.996853,-34.20866,22.996984,10.750029,1.460911,9.319305,-11.45397
106,29.82236671447754,45.82395553588867,71.42593383789062,-7.0985550505982635,1.5600889388069807,-92.47537771484402,-34.57502,13.565678,11.151309,62.745235,-29.254328,3.069178,-28.692636,-30.035677,-16.614517,89.99842,-22.087198,2.7056987,1.7086854,-1.7776798,11.273927,16.21605,44.61908,-5.6669254,36.778847,-19.687595,-8.181684,16.80408,-14.278194,-34.995342,22.83277,9.784409,2.004627,9.276304,-11.548475
107,30.545124053955078,46.56041717529297,71.6405029296875,-7.040056940693625,1.1579843617494292,-93.29072290335083,-34.071884,13.462012,12.323335,61.687572,-28.306108,3.7995842,-27.06881,-29.208963,-16.72656,91.69183,-22.375793,2.8282347,2.8720484,-1.5638422,11.228729,17.828403,43.69589,-4.611253,35.13968,-19.76864,-8.595784,16.77792,-14.590523,-35.795597,22.77256,8.925272,2.729859,9.20085,-11.764893
108,31.2658634185791,47.31454086303711,71.91031646728516,-6.9634798316648565,0.867063606473522,-94.05969712689502,-33.633347,13.28245,13.450876,60.377857,-27.12627,4.510811,-25.600492,-27.983667,-16.628395,92.96624,-22.531744,3.2379255,3.9717941,-1.3173679,11.126412,19.29395,42.699615,-3.7503705,33.624023,-19.555885,-8.902262,16.739838,-14.894145,-36.579166,22.780424,8.168661,3.3603642,9.118309,-12.0616255
109,31.980510711669922,48.08668518066406,72.23015594482422,-6.873113509167982,0.7191607364241349,-94.80796431966925,-33.279373,13.036085,14.553194,58.776733,-25.740974,5.2212625,-24.333656,-26.31169,-16.286547,93.81849,-22.550362,3.9525108,5.0378113,-1.0466615,10.9322,20.622932,41.664867,-3.107183,32.2348,-18.86122,-9.044334,16.67155,-15.192329,-37.324852,22.851183,7.543916,3.8542666,9.024195,-12.4461775
110,32.69081115722656,48.88673400878906,72.59201049804688,-6.76743509111131,0.6535857904521742,-95.5655545825833,-32.923428,12.745616,15.676429,56.90107,-24.178253,5.9230657,-23.192738,-24.190321,-15.671575,94.24617,-22.398932,4.990129,6.120986,-0.763681,10.689014,21.842176,40.60239,-2.6464398,30.92618,-17.781096,-9.1078,16.531708,-15.508984,-38.024654,22.99201,7.063433,4.3402,8.904754,-12.931459
111,33.399314880371094,49.724822998046875,72.98721313476562,-6.639718414279135,0.6450513201894257,-96.24991317340168,-32.586506,12.371993,16.765738,54.826138,-22.3617,6.5809326,-22.131754,-21.75146,-14.890727,94.27624,-22.162159,6.2959504,7.1365433,-0.49847776,10.442819,22.929777,39.525425,-2.3414385,29.717901,-16.695526,-9.149389,16.385176,-15.81097,-38.670868,23.17683,6.6777472,4.7932653,8.774819,-13.483748
112,34.10319137573242,50.592594146728516,73.4139175415039,-6.482900454528071,0.6674103641506589,-96.7786461971015,-32.28976,11.878414,17.766153,52.623386,-20.21221,7.163275,-21.108744,-19.130873,-14.041917,93.934105,-21.92239,7.8085623,8.00472,-0.27771553,10.244566,23.856361,38.450928,-2.168655,28.632494,-15.986856,-9.222306,16.297615,-16.076187,-39.256145,23.377441,6.3495984,5.193936,8.650024,-14.069842
113,34.78489303588867,51.48908996582031,73.86473083496094,-6.267151438937313,0.7288501240250048,-97.13623257779162,-32.057083,11.225,18.704905,50.287994,-17.638596,7.874016,-20.1435,-16.259905,-13.027381,93.21005,-21.699831,9.564028,8.721391,-0.13116285,10.10591,24.63367,37.394264,-2.1394346,27.653141,-15.734598,-9.333811,16.289217,-16.322876,-39.773205,23.607096,6.102276,5.532091,8.546381,-14.727924
114,35.46329879760742,52.406341552734375,74.3387451171875,-5.998358841936612,0.8358931313392176,-97.35976735701611,-31.866814,10.441303,19.620209,47.787357,-14.708634,8.667534,-19.212574,-13.138605,-11.824094,92.102516,-21.503899,11.547679,9.320633,-0.049284086,10.004852,25.280382,36.36276,-2.2497997,26.778738,-15.748112,-9.455653,16.32097,-16.538443,-40.220093,23.864515,5.9375267,5.8134475,8.451853,-15.459077
115,36.141841888427734,53.34231185913086,74.82202911376953,-5.721570529638198,0.9595920092355739,-97.45009265957874,-31.676851,9.580118,20.44193,45.141365,-11.556615,9.133406,-18.240429,-10.007126,-10.61621,90.647766,-21.37007,13.621636,9.795111,0.008199576,9.949852,25.771797,35.359993,-2.4551184,26.047215,-16.003143,-9.586732,16.369516,-16.72338,-40.595146,24.114237,5.8478584,6.0592904,8.340813,-16.174187
116,36.80263900756836,54.317176818847656,75.30265808105469,-5.494293504807803,1.0726302655406448,-97.41709302332713,-31.450642,8.691857,21.046734,42.350716,-8.289502,8.843432,-17.171507,-7.178713,-9.760234,88.880325,-21.279474,15.000033,10.139496,0.08552876,9.94423,26.089897,34.38687,-2.7041347,25.492237,-16.475052,-9.725436,16.41158,-16.858252,-40.899498,24.314245,5.8065753,6.2863455,8.188044,-16.783579
117,37.41189956665039,55.33081817626953,75.77958679199219,-5.657283028006475,1.259047453994788,-97.40770670044868,-31.583431,8.23047,21.11325,39.824154,-4.905412,7.978337,-16.10511,-4.3427916,-9.589039,86.583755,-21.04413,15.000033,10.499848,0.4925518,9.853173,26.218355,33.432873,-3.0044038,25.148348,-17.286085,-9.909782,16.468464,-16.949318,-41.131325,24.447533,5.828109,6.5426383,7.9720955,-17.286762
118,37.998443603515625,56.34956359863281,76.23282623291016,-5.860638028743069,1.4534809836244154,-97.26181038401444,-31.785492,7.6847215,20.863594,37.19686,-1.2677338,6.7156916,-14.997022,-1.5219444,-9.43068,83.86272,-20.78102,15.000033,10.730527,0.9195728,9.808527,26.183447,32.49908,-3.3593678,24.987019,-18.405224,-10.129251,16.540453,-16.990871,-41.29137,24.534243,5.907471,6.8012986,7.712988,-17.722687
119,38.57953643798828,57.372135162353516,76.6500015258789,-6.079678066084753,1.590721091251479,-96.99199164827463,-31.744364,6.9972386,20.360968,34.252216,2.3700511,4.339842,-13.798463,1.1240051,-9.256727,80.88283,-20.48121,15.000033,10.831148,1.357514,9.832792,26.018072,31.605145,-3.7285016,24.94768,-19.58184,-10.30747,16.5779,-16.984715,-41.386604,24.59715,6.029159,6.9774604,7.4465065,-18.060843
120,39.160072326660156,58.3869514465332,77.02269744873047,-6.351152122940506,1.6129065963690443,-96.64500520791394,-31.160362,6.1727676,19.596386,30.754335,5.7864666,0.088865064,-12.47571,3.4819944,-9.102748,77.790726,-20.103008,15.000033,10.83908,1.8531725,9.929464,25.752728,30.778343,-4.075807,24.964592,-20.569048,-10.364366,16.534496,-16.924635,-41.42599,24.649282,6.1732574,6.989928,7.2089057,-18.271446
121,39.747169494628906,59.389381408691406,77.32256317138672,-6.840415604050589,1.4496582701163365,-96.26884444240586,-29.518826,5.269537,18.512691,25.779312,9.265393,-7.643695,-10.937254,5.6791997,-9.058746,74.517525,-19.637901,15.000033,10.812199,2.5782564,10.120343,25.406881,30.028494,-4.38511,25.03338,-21.378614,-10.220527,16.36029,-16.750189,-41.4171,24.662252,6.2976995,6.7954035,6.999293,-18.313786
122,40.37522888183594,60.36836624145508,77.52476501464844,-7.418028816064593,1.213717176975061,-95.7175506914311,-26.838266,4.1030273,18.007038,18.955114,13.200585,-15.000033,-9.299157,7.590652,-9.186586,71.10965,-19.162868,15.000033,10.61792,3.4190028,10.3637295,24.994015,29.346394,-4.682915,25.149626,-22.12517,-9.930133,16.100893,-16.450294,-41.371487,24.618242,6.399194,6.444634,6.803766,-18.20728
123,41.07727813720703,61.3360481262207,77.5768814086914,-7.687531388457625,1.1646703028253789,-94.69337911197722,-23.527964,2.147299,19.484987,10.469596,18.051617,-15.000033,-7.924853,8.703376,-9.620979,67.97806,-18.827929,15.000033,9.946929,3.996738,10.533493,24.539675,28.72731,-5.0041695,25.237059,-22.718418,-9.614653,15.853985,-16.147718,-41.314884,24.567726,6.5599165,6.0195346,6.639282,-18.007195
124,41.724525451660156,62.313507080078125,77.62300109863281,-7.9903073939743265,1.0923627267096059,-93.78985639033674,-21.294588,0.6380855,19.707163,4.7165484,21.372023,-15.000033,-6.541056,9.773522,-10.074019,64.629524,-18.113564,15.000033,9.3647785,4.5509634,10.715324,23.898548,28.190664,-5.369034,25.391167,-23.05786,-9.411568,15.694532,-15.764197,-41.23265,24.48303,6.6875067,5.541593,6.513977,-17.815002
125,42.3095588684082,63.30063247680664,77.71561431884766,-7.90333418594753,1.074263266069845,-92.96442343468831,-21.36648,-0.29826793,18.18726,4.5844054,21.04305,-15.000033,-5.215689,10.259374,-10.571028,61.095432,-16.962673,15.000033,8.842754,4.6179547,10.910711,22.94558,27.765163,-5.7983556,25.719099,-23.041735,-9.359716,15.625007,-15.324904,-41.09087,24.356232,6.813285,4.9860077,6.4223795,-17.631384
126,42.84691619873047,64.28858947753906,77.81027221679688,-7.522197761488619,1.0962099228831097,-92.14558126547976,-22.81349,-1.0947353,15.588014,7.872315,18.309744,-15.000033,-3.9400508,10.2379465,-11.2002535,57.417717,-15.49914,15.000033,8.324428,4.3113227,11.103092,21.740091,27.455807,-6.27878,26.184078,-22.758432,-9.389084,15.604052,-14.820738,-40.874058,24.181755,6.9520407,4.3342896,6.357137,-17.421211
127,43.36507797241211,65.28473663330078,77.86759948730469,-6.963144373170411,1.170188139857077,-91.29224157473952,-24.824621,-2.0031362,13.039997,12.585959,14.876559,-15.000033,-2.8230953,9.953983,-11.781968,53.851242,-13.996506,15.000033,7.767435,3.781764,11.254218,20.392097,27.250404,-6.7992077,26.665676,-22.393541,-9.475302,15.640543,-14.278052,-40.59277,23.982706,7.127496,3.663878,6.3257017,-17.227682
128,43.91273498535156,66.27315521240234,77.85585021972656,-6.287041479987826,1.2935224607421396,-90.36280752918401,-26.59932,-3.0178876,11.617207,16.978573,12.159115,-15.000033,-1.9779779,9.537689,-12.109354,50.7148,-12.774303,15.000033,7.1261935,3.1367972,11.353307,18.995773,27.126223,-7.3503776,27.057833,-22.126808,-9.595287,15.7418995,-13.71488,-40.273342,23.77962,7.347784,3.0576792,6.3374395,-17.09659
129,44.495704650878906,67.28426361083984,77.77784729003906,-5.410688738950354,1.4784079156918917,-89.27870623777032,-28.12694,-3.9675026,11.835324,21.202717,10.272382,-15.000033,-1.5315937,8.885752,-12.068793,48.166107,-11.643635,15.000033,6.327801,2.3098307,11.396014,17.526346,27.075544,-7.9643817,27.372572,-21.987991,-9.775236,15.949986,-13.151589,-39.930065,23.588432,7.6339383,2.5420282,6.3996706,-17.056076
130,45.088645935058594,68.29501342773438,77.64476013183594,-4.383391491498589,1.6867086125212278,-88.09955339283492,-29.693806,-4.7121615,13.000423,25.930387,8.590726,-15.000033,-1.4110628,7.955945,-11.834957,46.1124,-10.56582,15.000033,5.422495,1.3404902,11.3896675,15.963247,27.08983,-8.626999,27.643555,-21.88265,-10.016494,16.248089,-12.436989,-39.564476,23.349916,7.8482327,2.0296075,6.5090055,-17.076317
131,45.68156433105469,69.3076400756836,77.45121002197266,-3.4633297882867025,1.9110217692509652,-87.0295447334211,-31.35839,-5.032179,14.311462,31.044415,6.846162,-15.000033,-1.4768088,6.9619794,-11.727663,44.424618,-10.029531,14.381131,4.6214914,0.48525476,11.322247,14.338129,27.154602,-9.292314,27.82179,-21.798,-10.2624445,16.553635,-11.812191,-39.19632,23.132353,8.164637,1.6184385,6.6580505,-17.115515
132,46.27488327026367,70.34061431884766,77.1701889038086,-2.862578996151332,2.1462879285316236,-86.24150445115126,-33.144264,-4.90378,14.977311,36.295113,4.842752,-15.000033,-1.5227263,6.154059,-12.185135,42.85288,-10.526015,11.432591,4.053983,-0.057137523,11.193852,12.727559,27.237448,-9.875063,27.856472,-21.716581,-10.455762,16.781584,-11.13168,-38.842197,22.884829,8.421275,1.257845,6.8398137,-17.1406
133,46.88442611694336,71.37217712402344,76.82466125488281,-2.2210270888371904,2.32048797460297,-85.59584417877467,-34.718887,-5.002568,14.947702,41.07586,2.7963812,-15.000033,-1.4223279,5.0866303,-12.672548,41.58286,-12.776297,9.058485,3.6011689,-0.59708124,11.116413,11.111933,27.32941,-10.390351,27.733326,-21.6681,-10.584634,16.901138,-10.4297285,-38.51973,22.608295,8.650263,0.975022,7.077644,-17.14585
134,47.50127029418945,72.40512084960938,76.43360137939453,-1.5272493592675438,2.470510586157824,-85.04702493291586,-36.178555,-5.228304,14.585189,45.661938,0.7444996,-15.000033,-1.3107394,3.8364236,-13.08193,40.595768,-16.319746,6.974988,3.2186038,-1.1509272,11.056689,9.463857,27.430756,-10.862987,27.485378,-21.642359,-10.680374,16.95911,-9.675415,-38.234013,22.297466,8.83133,0.7607574,7.3682113,-17.15148
135,48.127288818359375,73.44853973388672,76.00238037109375,-0.8749735596209731,2.590036477753644,-84.61626560547242,-37.534554,-5.435721,14.003082,50.074356,-1.2874066,-15.000033,-1.3535812,2.595962,-13.300268,39.94109,-20.296755,5.3291464,2.9128046,-1.6364589,11.036651,7.8108535,27.525875,-11.249253,27.149305,-21.558117,-10.752004,16.992699,-8.924962,-37.99363,21.988537,8.984183,0.6195625,7.6626616,-17.156618
136,48.77705764770508,74.50879669189453,75.53701782226562,-0.36167122762464077,2.670217045810234,-84.32662793536565,-38.788536,-5.4539113,13.299568,54.32997,-3.278042,-15.000033,-1.7051344,1.5155699,-13.267075,39.70029,-23.8441,4.1926694,2.6800022,-1.9642553,11.081143,6.189974,27.590824,-11.493014,26.765018,-21.326975,-10.809365,17.039057,-8.231655,-37.80803,21.73021,9.123324,0.5488882,7.912608,-17.162722
137,49.44280242919922,75.59223175048828,75.04257202148438,-0.013666451306559978,2.6659754045648762,-84.17318090498779,-39.956844,-5.311394,12.350284,58.519535,-5.3059506,-15.000033,-2.3767774,0.5720584,-12.95056,39.98398,-26.906,3.6666985,2.498582,-2.086005,11.242502,4.570286,27.616114,-11.592283,26.362452,-20.850597,-10.868888,17.12213,-7.6427107,-37.697,21.547419,9.255701,0.6602999,8.10922,-17.170197
138,50.122833251953125,76.68354034423828,74.52603912353516,0.22348343224881115,2.6035117249537327,-84.14298364983314,-41.045864,-5.088636,11.145271,62.63387,-7.355324,-15.000033,-3.2948093,-0.34408203,-12.438778,40.729362,-29.870037,3.6318104,2.3531458,-2.0539708,11.491691,2.964335,27.610945,-11.547569,25.911537,-20.19296,-10.920512,17.215027,-7.141773,-37.667336,21.440521,9.381974,0.928377,8.27812,-17.185661
139,50.81401062011719,77.77294921875,74.00491333007812,0.36945234020093726,2.5752929919656196,-84.25026462846051,-42.034824,-4.6665654,9.913126,66.54309,-9.330863,-15.000033,-4.470523,-1.2081681,-11.85526,41.76399,-32.54996,3.8144262,2.3049488,-1.9237233,11.7311945,1.3849864,27.571753,-11.384971,25.436739,-19.502203,-10.941253,17.290012,-6.6416717,-37.684284,21.348814,9.509026,1.1250161,8.421526,-17.201824
140,51.5029296875,78.87448120117188,73.5066909790039,0.4431716128873069,2.6707558087279413,-84.51310510653514,-42.910576,-3.8941796,8.874112,70.1182,-11.134628,-15.000033,-5.910653,-1.9835306,-11.29689,42.900745,-34.74478,3.9528625,2.3379827,-1.737992,11.867375,-0.04055657,27.475689,-11.019302,24.87938,-18.919958,-10.903841,17.301197,-6.1330657,-37.74551,21.32827,9.652722,1.0502024,8.543522,-17.233027
141,52.18912887573242,79.98822021484375,73.06112670898438,0.4169224973613352,2.9570192934224417,-84.9974693709463,-43.766407,-2.6112442,8.06294,73.406296,-12.793501,-15.000033,-7.7358823,-2.643632,-10.798307,44.20261,-36.43551,3.9890912,2.5024507,-1.4907488,11.837865,-1.2983284,27.312181,-10.368429,24.195786,-18.464104,-10.758735,17.239702,-5.696648,-37.832237,21.438652,9.872944,0.6723416,8.638787,-17.325008
142,52.879817962646484,81.07723236083984,72.66680908203125,0.27923674102470264,3.363549242011492,-85.68177549740358,-44.594955,-0.8901782,7.3294225,76.47184,-14.371119,-15.000033,-9.88818,-3.190697,-10.30035,45.717754,-37.715862,4.062434,2.772794,-1.1537362,11.700101,-2.447226,27.080788,-9.478311,23.439535,-18.054232,-10.535526,17.125174,-5.3552313,-37.943474,21.682587,10.180828,0.08824245,8.70842,-17.46032
143,53.541725158691406,82.12771606445312,72.33353424072266,0.08057199734577475,3.7718359688687966,-86.45619707859585,-45.23292,1.0805931,6.6345797,79.21494,-15.834341,-15.000033,-12.103889,-3.6337898,-9.746618,47.231064,-38.543266,4.20908,3.0596197,-0.76789445,11.541749,-3.4922848,26.821774,-8.506775,22.702791,-17.710999,-10.327232,16.96325,-5.060894,-38.057934,22.016405,10.590266,-0.6985311,8.761915,-17.550474
144,54.18030548095703,83.14881896972656,72.07225799560547,-0.12018791225352597,4.067312567457769,-87.2076868338965,-45.513046,3.1094668,5.9692373,81.53765,-17.147589,-15.000033,-14.127392,-3.9924865,-9.083475,48.537178,-38.876247,4.469392,3.278105,-0.38929877,11.454207,-4.41272,26.598318,-7.6145473,22.045694,-17.46701,-10.221238,16.76213,-4.7394447,-38.139854,22.373016,11.097589,-1.6957035,8.805161,-17.503298
145,54.81330871582031,84.15272521972656,71.90550231933594,-0.10349973279077199,4.248667495008222,-87.85999516420281,-45.342583,5.1368318,5.6741,83.31897,-18.212893,-14.6994915,-16.097805,-4.5464454,-8.188674,49.941822,-38.714867,4.957293,3.3561668,-0.2535293,11.453568,-5.168109,26.442406,-6.7626123,21.419346,-17.341377,-10.230063,16.438591,-4.3793464,-38.16045,22.743393,11.714145,-3.0530465,8.821637,-17.217018
146,55.49020767211914,85.14131927490234,71.84721374511719,0.054040949512437035,4.374831509052587,-88.48067898980986,-44.81021,7.4938374,6.117673,84.663506,-19.105438,-12.646836,-18.096909,-5.2185783,-7.0965376,51.437206,-38.07618,5.6451044,3.3611379,-0.28651643,11.494849,-5.7692437,26.355341,-5.902175,20.790028,-17.334444,-10.3058605,16.018524,-4.052365,-38.10926,23.16564,12.4759,-4.7153406,8.800464,-16.763391
147,56.20457458496094,86.0910873413086,71.88504791259766,0.19799709070404437,4.457575582283324,-89.0474723828457,-44.046402,9.881317,6.6348076,85.65402,-19.94325,-10.553293,-19.877052,-5.818758,-6.0175657,52.554165,-37.079353,6.406187,3.2721713,-0.33351734,11.551212,-6.2502103,26.355019,-5.1753135,20.22822,-17.455523,-10.445193,15.674433,-3.7080855,-37.976482,23.599047,13.330641,-6.422439,8.761483,-16.308664
148,56.95009231567383,87.00445556640625,72.00733184814453,0.2825559038770159,4.525643563134072,-89.47954648463772,-43.16838,12.135712,7.1169105,86.31163,-20.7649,-8.468035,-21.24898,-6.3590374,-5.1575904,52.93778,-35.898857,7.1607027,3.0451875,-0.33344737,11.590414,-6.671638,26.468292,-4.757133,19.814728,-17.71945,-10.6470375,15.582094,-3.3727157,-37.76049,24.010962,14.298446,-7.872099,8.736244,-16.011723
149,57.70209884643555,87.88919830322266,72.21900177001953,0.3092913977575557,4.556377740598299,-89.71867651911776,-42.136032,14.251056,7.599333,86.61507,-21.604254,-6.3025365,-22.119846,-6.9013186,-4.592603,52.499172,-34.590584,7.890678,2.6208827,-0.2873137,11.626171,-7.0390186,26.738453,-4.7594395,19.56923,-18.223722,-10.955362,15.887646,-3.004211,-37.44973,24.387392,15.361431,-9.116213,8.757203,-15.891223
150,58.455650329589844,88.76084899902344,72.52095031738281,0.301832771343801,4.5447586708411505,-89.81941131053594,-40.909042,16.279114,8.148536,86.57023,-22.44602,-4.083622,-22.599895,-7.461331,-4.202123,51.44201,-33.07228,8.635805,2.0524857,-0.24178591,11.666688,-7.3425894,27.170387,-5.092583,19.458115,-18.946726,-11.362913,16.463516,-2.5808601,-37.03341,24.725603,16.501862,-10.278852,8.804728,-15.864092
151,59.21919250488281,89.6220474243164,72.90044403076172,0.24683631926489852,4.546090711924693,-89.86852409147026,-39.61665,18.148819,8.693779,86.236595,-23.220802,-2.0193815,-22.803488,-7.9922094,-3.9066455,49.84213,-31.300562,9.396759,1.4545743,-0.19316465,11.67212,-7.59872,27.71173,-5.6100936,19.463678,-19.71133,-11.784709,17.076315,-2.1390045,-36.51928,25.01132,17.714354,-11.17141,8.842359,-15.940225
152,59.99507141113281,90.47076416015625,73.34800720214844,0.12880836126320677,4.61568073875471,-89.95270340662934,-38.3949,19.802309,9.155253,85.67251,-23.834135,-0.30510217,-22.853529,-8.429154,-3.6313396,47.771572,-29.21864,10.175174,0.9360406,-0.11908968,11.603244,-7.8133836,28.279493,-6.1544213,19.566677,-20.326674,-12.126896,17.496202,-1.6711138,-35.93187,25.213408,18.955742,-11.623427,8.834587,-16.132996
153,60.806297302246094,91.31343078613281,73.84798431396484,-0.09790024381168914,4.792009644093365,-90.06772020284252,-37.287823,21.330389,9.555344,84.85911,-24.19284,1.0287944,-22.77167,-8.687862,-3.3877892,45.155613,-26.801477,10.908678,0.50427204,0.056608472,11.424818,-8.007468,28.827908,-6.7612896,19.799446,-20.818718,-12.367695,17.687498,-1.1542288,-35.295902,25.324402,20.227652,-11.505447,8.772005,-16.501842
154,61.652618408203125,92.14718627929688,74.39913177490234,-0.41047840804656643,5.037340729382962,-90.17570011390801,-36.224827,22.730612,9.934879,83.78286,-24.342085,2.0896678,-22.491096,-8.8255005,-3.2138937,41.972706,-24.069931,11.613047,0.10847606,0.32676524,11.168467,-8.183851,29.35665,-7.484805,20.175583,-21.237045,-12.555367,17.765623,-0.5878987,-34.625683,25.358526,21.534027,-10.932205,8.6724,-17.021933
155,62.51806640625,92.97967529296875,74.98960876464844,-0.7198718282887762,5.291333044864019,-90.31195456925947,-35.167675,23.812664,10.227885,82.500206,-24.375326,2.9027703,-22.001675,-8.967088,-3.072891,38.35091,-21.025024,12.410495,-0.23557465,0.58921796,10.8987665,-8.302697,29.847372,-8.183022,20.632965,-21.427193,-12.694518,17.729628,-0.00602282,-33.932827,25.319983,22.838034,-10.093969,8.538535,-17.58164
156,63.40748596191406,93.80717468261719,75.60729217529297,-0.9377903637426037,5.493396196273717,-90.51048667613584,-34.078346,24.391281,10.353357,81.07015,-24.389229,3.49917,-21.298504,-9.229832,-2.919458,34.41683,-17.664625,13.426749,-0.52319217,0.74258995,10.676513,-8.306321,30.273592,-8.697073,21.101263,-21.228235,-12.789517,17.576221,0.5295721,-33.232597,25.232975,24.122921,-9.174124,8.381997,-18.07215
157,64.31902313232422,94.63041687011719,76.2333984375,-1.065127722266231,5.634939191074386,-90.78274105138604,-32.94672,24.401361,10.22619,79.46471,-24.38823,3.9118826,-20.289753,-9.513677,-2.5733008,29.859222,-13.6216955,14.693272,-0.76025283,0.7913487,10.520856,-8.156321,30.605042,-8.960868,21.56914,-20.471506,-12.810304,17.237782,1.0345573,-32.529617,25.069986,25.37119,-8.077213,8.214295,-18.507816
158,65.22503662109375,95.44001770019531,76.85350799560547,-1.31019158255376,5.758414887840541,-91.17279492089055,-31.87342,24.167936,9.738347,77.73235,-24.334122,4.07255,-18.894072,-9.47537,-2.222379,24.414984,-8.838406,15.000033,-0.89408475,0.9399087,10.383525,-7.8861985,30.838364,-9.055308,22.077736,-19.271101,-12.773608,16.735027,1.5267729,-31.83116,24.83712,26.59565,-6.748884,8.025081,-18.930944
159,66.14364624023438,96.23831939697266,77.45117950439453,-1.474106936560335,5.832856135871669,-91.60788482254442,-30.754599,23.599068,9.139645,75.904816,-24.234852,4.0253196,-17.271599,-9.582798,-2.1634886,18.735445,-4.035687,15.000033,-0.9776098,0.9987995,10.269128,-7.540834,30.99781,-9.038565,22.631098,-17.897522,-12.75292,16.195583,1.9726518,-31.154438,24.595926,27.801619,-5.4375944,7.800869,-19.278646
160,67.05669403076172,97.02696990966797,78.00819396972656,-1.4371576382097127,5.849750536643245,-92.05534284178344,-29.552553,22.68986,8.608753,74.037796,-24.100918,3.7762988,-15.610598,-10.083977,-2.7098303,13.449133,0.10925714,15.000033,-1.0345248,0.84828955,10.166443,-7.145094,31.123018,-8.9533825,23.210922,-16.629257,-12.809883,15.7487335,2.3405516,-30.520641,24.411037,28.98518,-4.391692,7.5336137,-19.489624
161,67.96109771728516,97.81051635742188,78.48020935058594,-1.1289035456171714,5.804559324099725,-92.55180994062195,-28.225943,21.340612,8.152085,72.10606,-23.99682,3.2822154,-13.600814,-11.016697,-4.2620454,7.811795,3.896263,15.000033,-1.0438721,0.39962372,10.070836,-6.64711,31.233826,-8.765864,23.792707,-15.435605,-12.972268,15.405608,2.65697,-29.934195,24.272818,30.139875,-3.6822932,7.205633,-19.542923
162,68.85721588134766,98.59922790527344,78.86676025390625,-0.5908617180306094,5.719178623842742,-93.1103747036197,-26.814606,19.567003,7.698315,70.08055,-23.90276,2.585624,-13.506292,-12.33036,-6.098615,6.357009,5.223508,15.000033,-0.99758345,-0.30817357,9.983842,-6.0327425,31.330963,-8.455374,24.365076,-14.217139,-13.198475,15.103655,2.942128,-29.39114,24.151117,31.243961,-3.1700454,6.83328,-19.472944
163,69.74673461914062,99.3948974609375,79.21026611328125,-0.11546195808310122,5.651897171115406,-93.70363615284884,-25.517097,17.774471,7.132553,68.068405,-23.715736,1.7451988,-13.817751,-13.593457,-8.004601,6.045418,5.875992,15.000033,-0.89939576,-0.9470045,9.887074,-5.383758,31.412643,-8.087416,24.924162,-13.151016,-13.439674,14.870427,3.137143,-28.925713,24.080137,32.28143,-2.7759733,6.457548,-19.30182
164,70.6689682006836,100.20603942871094,79.5003433227539,0.16735626500810252,5.644134383469825,-94.28276399646346,-24.444736,16.201403,6.4852543,66.134544,-23.312752,0.83472514,-13.976813,-14.60837,-9.602928,5.931489,6.4014616,15.000033,-0.7294042,-1.3108083,9.7792845,-4.8608894,31.444431,-7.7993917,25.513166,-12.42713,-13.648833,14.738496,3.345714,-28.721054,24.025795,33.043648,-2.3719902,6.129788,-19.037165
165,71.62548065185547,101.01834869384766,79.77732849121094,0.13048745381566643,5.69755930159903,-94.84406485894235,-23.63325,14.921135,5.6298833,64.284935,-22.595943,-0.26291928,-13.820788,-15.27485,-10.895428,5.932417,6.645931,15.000033,-0.60145265,-1.3661697,9.6417465,-4.262198,31.503231,-7.3885574,25.972826,-12.04516,-13.78278,14.679194,3.1278565,-28.401104,24.1529,34.005703,-2.1160297,5.820013,-18.639582
166,72.60564422607422,101.85139465332031,80.01956939697266,-0.05765360080552327,5.781512695143592,-95.39850105028214,-22.969877,13.728583,4.64672,62.461666,-21.656326,-1.5439038,-13.44054,-15.81909,-12.069167,6.1437283,6.5103345,15.000033,-0.43160266,-1.2369844,9.487048,-3.7263005,31.550373,-7.0020986,26.444563,-11.959226,-13.884711,14.709307,2.7905362,-28.190828,24.342472,34.87577,-1.9347126,5.527335,-18.108974
167,73.59677124023438,102.69548034667969,80.21961212158203,-0.35186822790658134,5.853819221698927,-95.90466164382752,-22.393417,12.69202,3.657091,60.692142,-20.658945,-2.8249555,-12.976424,-16.256197,-13.087668,6.7586374,6.080108,15.000033,-0.25120193,-0.9725469,9.353413,-3.2260334,31.574825,-6.648175,26.940397,-12.124835,-13.978414,14.822848,2.3994644,-28.115969,24.598782,35.618248,-1.7481579,5.2815056,-17.58908
168,74.57218933105469,103.52753448486328,80.34932708740234,-0.5913005748089845,5.879181132787582,-96.32076299151616,-21.835375,11.7652,2.873183,58.97474,-19.7358,-3.8937328,-14.734411,-17.212423,-13.244311,12.414126,3.136655,15.000033,-0.10628736,-0.75730956,9.253922,-2.7315106,31.585068,-6.3364625,27.492174,-12.501999,-14.08882,15.0161495,1.9637539,-28.152794,24.973732,36.271797,-1.4721897,5.111478,-17.234293
169,75.54363250732422,104.3697509765625,80.39226531982422,-0.7840897314817199,5.8444348116126275,-96.63108391788118,-21.3341,10.87829,2.179015,57.332092,-18.891684,-4.731503,-15.848535,-18.032946,-13.321679,17.146263,0.8787063,15.000033,-0.00551217,-0.58532155,9.196769,-2.251709,31.586693,-6.084215,28.11147,-13.241814,-14.242969,15.316758,1.4435421,-28.30416,25.542479,36.864265,-1.030645,5.0299726,-17.092531
170,76.50826263427734,105.21617126464844,80.35482025146484,-0.949567924945151,5.757783468318087,-96.84677645890865,-20.894407,10.015516,1.5464181,55.744694,-18.045969,-5.4362555,-16.735226,-18.766909,-13.218439,21.888193,-1.281972,15.000033,0.060897868,-0.43075684,9.182539,-1.7939807,31.58283,-5.878424,28.779915,-14.311664,-14.425613,15.711982,0.83215594,-28.560205,26.264795,37.37987,-0.49063417,5.0185013,-17.080826
171,77.4712142944336,106.06733703613281,80.25311279296875,-1.0938979221095282,5.645156258007434,-96.99228888496987,-20.47475,9.36059,1.2439144,54.18737,-17.209173,-5.996554,-17.439896,-19.400227,-13.034512,26.590834,-3.3078933,15.000033,0.10014993,-0.28763002,9.190632,-1.3184668,31.573486,-5.67991,29.472357,-15.397915,-14.597383,16.145653,0.17900732,-28.89427,27.026094,37.79728,0.024933176,5.0558476,-17.155687
172,78.4241943359375,106.92350006103516,80.08662414550781,-1.2129204702644314,5.532266098368083,-97.090862487813,-20.034458,9.07587,1.5531726,52.6332,-16.384375,-6.4012594,-18.021742,-19.99484,-12.837475,31.264893,-5.194822,15.000033,0.124830596,-0.16325447,9.196783,-0.79887724,31.559044,-5.4616237,30.176716,-16.186615,-14.712162,16.567326,-0.46454468,-29.27402,27.70533,38.10943,0.38825434,5.121362,-17.274612
173,79.36705017089844,107.77617645263672,79.85752868652344,-1.336198126114035,5.4338135532527865,-97.12709360899487,-19.523964,9.430226,2.8332326,50.99086,-15.296987,-6.6813846,-18.533703,-20.55881,-12.547414,36.054092,-7.009167,15.000033,0.1264771,-0.03408465,9.1800375,-0.24963556,31.537563,-5.226748,30.934595,-16.591969,-14.750585,17.009626,-1.1074069,-29.683952,28.32393,38.366238,0.54446644,5.2222605,-17.479475
174,80.3102035522461,108.6309585571289,79.5643539428711,-1.4786320346453254,5.341621526087404,-97.1039918249351,-18.959885,10.239132,4.8702106,49.314266,-14.037457,-6.8483167,-18.968256,-21.072395,-12.12766,40.992195,-8.788531,15.000033,0.11162376,0.11360234,9.146208,0.31853655,31.509617,-4.9905853,31.743433,-16.77981,-14.736265,17.489202,-1.7914125,-30.121765,28.937057,38.588757,0.5657196,5.3633904,-17.777895
175,81.2422103881836,109.4791030883789,79.2059326171875,-1.5979718023737717,5.242803543775891,-97.06633500537606,-18.408178,10.992528,7.0715995,47.777668,-13.159601,-6.862889,-19.287027,-21.603865,-11.694247,45.938564,-10.499519,15.000033,0.10817299,0.2387742,9.1111145,0.9325681,31.484087,-4.747212,32.534096,-16.81753,-14.6840725,17.93271,-2.4707851,-30.578331,29.448116,38.699684,0.48495194,5.5219727,-18.07396
176,82.1578140258789,110.3207015991211,78.77921295166016,-1.6527182901870876,5.123766481239391,-97.05707956282055,-17.977514,11.22947,8.80064,46.52944,-13.202048,-6.6884646,-19.449697,-22.213217,-11.383754,50.752186,-12.099953,15.000033,0.15435313,0.2974875,9.094818,1.6062976,31.476816,-4.5047174,33.240288,-16.77552,-14.60994,18.267712,-3.1575472,-31.048088,29.787266,38.673473,0.3758826,5.67383,-18.271116
177,83.06300354003906,111.15534210205078,78.30062103271484,-1.6680772378232687,4.976367387141079,-97.10973115975064,-17.673174,10.824061,9.773108,45.519947,-14.593985,-6.289043,-19.438044,-22.945858,-11.368818,55.50491,-13.573744,14.767119,0.27142256,0.30653706,9.083112,2.3633313,31.498583,-4.2496543,33.8699,-16.572783,-14.500917,18.4555,-3.6910763,-31.524525,29.829266,38.38312,0.10207033,5.78248,-18.303963
178,83.9490737915039,112.00360107421875,77.78533172607422,-1.7797961792144144,4.843368119840859,-97.25926280887344,-17.570107,10.226756,10.29283,44.797283,-16.98722,-5.684023,-19.292866,-23.65495,-11.716053,60.22931,-14.9437275,13.722878,0.5260581,0.3895671,9.053912,3.155146,31.554165,-4.0142794,34.452847,-16.215076,-14.353194,18.543015,-4.351931,-32.020924,29.76938,38.082775,-0.17157751,5.867578,-18.236055
179,84.8348617553711,112.86565399169922,77.23109436035156,-1.8768169366314051,4.7208689033802065,-97.42511294346062,-17.750084,9.53322,10.6532345,44.48468,-19.673769,-4.8620095,-19.040468,-24.333118,-12.056877,64.83638,-16.279884,12.708646,0.8113089,0.4465736,9.021167,4.002521,31.63542,-3.7796767,34.949524,-15.892837,-14.195478,18.577404,-4.926318,-32.52733,29.539658,37.58345,-0.49372283,5.9967003,-18.162762
180,85.71685028076172,113.74115753173828,76.6437759399414,-1.9961130453632547,4.64854737380317,-97.60495482094501,-18.357124,9.039761,11.133735,44.77752,-21.994886,-3.9369717,-18.748138,-24.761726,-12.239774,69.162506,-17.590303,11.783251,1.1276189,0.51403415,8.971415,4.8790655,31.735994,-3.56711,35.333157,-15.79874,-14.058183,18.612345,-5.452281,-33.039585,29.202663,36.907837,-0.74738145,6.235891,-18.179268
181,86.59263610839844,114.64315795898438,76.02137756347656,-2.1648184583109114,4.618128282842117,-97.81779316999372,-19.506266,8.880582,11.855626,45.962917,-23.935894,-2.9278347,-18.43802,-24.94164,-12.305105,73.29206,-18.927273,10.864321,1.4904318,0.6222713,8.932206,5.7757406,31.866634,-3.39329,35.572704,-15.989103,-13.96097,18.668997,-6.1429873,-33.564568,28.8493,36.176346,-0.78625864,6.637587,-18.315853
182,87.45479583740234,115.56452178955078,75.37824249267578,-2.35804238045143,4.6155916670772,-98.05912865379726,-21.087141,8.883553,12.653358,47.85143,-25.798204,-1.8044721,-18.086252,-24.938425,-12.321359,77.29317,-20.270132,9.975446,1.8835295,0.74342984,8.892373,6.7226553,32.026257,-3.2293305,35.688362,-16.359663,-13.88375,18.716568,-6.858895,-34.09865,28.401108,35.296494,-0.74128157,7.1551924,-18.521564
183,88.2989501953125,116.51678466796875,74.73997497558594,-2.5344109418738627,4.673440286293104,-98.29030220217126,-22.882439,8.89303,13.402763,49.90621,-27.411333,-0.6480966,-17.711704,-24.614658,-12.202103,80.979996,-21.506163,9.350211,2.30162,0.8337887,8.808699,7.7038956,32.188206,-3.0658877,35.72887,-16.859663,-13.799021,18.73417,-7.495344,-34.626072,27.858133,34.29724,-0.6932763,7.7053843,-18.770899
184,89.1230239868164,117.50999450683594,74.1438980102539,-2.653225641560936,4.824610105707429,-98.4729030603221,-24.678907,8.749658,13.993359,51.597984,-28.604876,0.46329468,-17.341106,-23.830252,-11.875366,84.16441,-22.520714,9.227479,2.73982,0.8543078,8.640883,8.6977005,32.313362,-2.895405,35.74648,-17.43041,-13.679969,18.704021,-8.012228,-35.12072,27.251534,33.268562,-0.7018326,8.2048855,-19.039574
185,89.9236831665039,118.50445556640625,73.61972045898438,-2.6917423146858392,5.187158121270916,-98.56274103557152,-26.602234,8.382358,14.362776,52.861416,-29.308838,1.5226729,-17.107212,-22.501387,-11.313695,86.85074,-23.340578,9.710645,3.1578724,0.76478523,8.282261,9.70131,32.383915,-2.6807015,35.7616,-18.074837,-13.521697,18.601234,-8.378315,-35.559902,26.545403,32.165108,-0.8084551,8.676339,-19.355394
186,90.72132110595703,119.47172546386719,73.1655502319336,-2.677131867403331,5.706412118718452,-98.59116362767783,-28.691664,7.8848996,14.606507,53.950287,-29.630165,2.5691006,-16.962078,-20.694529,-10.609,89.137375,-24.031075,10.677324,3.5638764,0.5982423,7.7867446,10.724693,32.40485,-2.4334824,35.750378,-18.805595,-13.338323,18.447586,-8.692739,-35.940434,25.774088,31.035507,-0.9597806,9.149005,-19.72294
187,91.52786254882812,120.40831756591797,72.775634765625,-2.643437925127785,6.15614368571403,-98.63205219493925,-30.610403,7.3455067,14.855077,54.820137,-29.653221,3.593186,-16.659319,-18.512646,-9.8548565,90.96712,-24.537912,12.019651,4.007781,0.42434546,7.3400335,11.782771,32.36609,-2.2090633,35.703262,-19.573557,-13.132086,18.296125,-8.9677105,-36.26587,25.012775,29.99045,-1.1440512,9.5496025,-20.083431
188,92.34053802490234,121.32140350341797,72.46873474121094,-2.620909569513756,6.3111968098657565,-98.7595057089236,-32.027477,6.855955,15.227798,55.419266,-29.457222,4.583952,-15.959266,-16.070368,-9.108124,92.272,-24.7895,13.622175,4.54421,0.31733426,7.1281815,12.881585,32.250343,-2.0708656,35.61613,-20.326872,-12.908162,18.200762,-9.243116,-36.54448,24.34835,29.161495,-1.3399445,9.804631,-20.378199
189,93.17108154296875,122.21612548828125,72.25363159179688,-2.6211750408499612,6.031171266247305,-99.00044612143961,-32.786232,6.4642773,15.753146,55.78796,-29.044832,5.5326247,-14.668098,-13.353973,-8.445594,92.983215,-24.681055,15.000033,5.1964626,0.3165253,7.2715755,14.039968,32.039043,-2.0498621,35.499496,-21.081205,-12.649725,18.1764,-9.494068,-36.771843,23.730951,28.574575,-1.6278439,9.823877,-20.527472
190,93.97167205810547,123.11109161376953,72.13851928710938,-3.0926838024062984,5.54739412987038,-99.50166980004317,-33.381336,6.729058,16.09575,56.316685,-28.546017,6.321865,-13.058546,-10.070636,-8.338247,93.026115,-24.125376,15.000033,6.11332,0.821975,7.504226,15.237659,31.729475,-2.1251433,35.36387,-21.846424,-12.364703,18.200298,-9.725548,-36.94913,23.14663,28.178617,-1.9919055,9.667434,-20.585363
191,94.79029846191406,123.9979476928711,72.10021209716797,-3.555485332490045,4.967233016441632,-100.03041837335502,-33.737156,6.9946632,16.476923,56.56722,-27.830267,7.0833497,-11.329562,-6.7238603,-8.211871,92.623955,-23.450785,15.000033,7.06685,1.3741924,7.7779894,16.440363,31.339905,-2.2599804,35.18979,-22.563793,-12.093339,18.259937,-9.989173,-37.092594,22.728474,27.940077,-2.2682617,9.495765,-20.694118
192,95.62419128417969,124.86827087402344,72.12125396728516,-3.9550015927758846,4.496576791654294,-100.55027094065152,-34.055084,7.1655407,16.90631,56.42411,-26.904358,7.8307424,-9.774992,-3.5562615,-8.064372,91.90427,-22.846064,15.000033,8.002428,1.8794848,7.9169135,17.627401,30.887243,-2.4082112,34.949757,-23.178148,-11.874505,18.341457,-10.299867,-37.225716,22.601437,27.792757,-2.302215,9.467512,-20.994425
193,96.46075439453125,125.74343872070312,72.1966781616211,-4.307740082317641,4.175255965911453,-101.11380523015158,-34.353077,7.2818813,17.434742,55.85228,-25.812733,8.580297,-8.435919,-0.5084167,-7.8636527,90.82869,-22.295551,15.000033,8.973089,2.3355095,7.869526,18.82467,30.370052,-2.5677345,34.614464,-23.679464,-11.714567,18.462538,-10.67215,-37.36911,22.879917,27.754898,-1.9629806,9.659143,-21.641317
194,97.30467987060547,126.64869689941406,72.32133483886719,-4.616949031613367,3.9010475727475487,-101.71880907450725,-34.53435,7.35654,18.069542,54.91587,-24.542158,9.323203,-7.1515203,2.5004582,-7.5608354,89.357155,-21.721272,15.000033,9.976512,2.767083,7.734569,20.042452,29.778383,-2.755051,34.196507,-24.09701,-11.593709,18.618767,-11.082862,-37.520397,23.476162,27.827166,-1.3516555,9.968313,-22.524292
195,98.17086791992188,127.58409881591797,72.4952392578125,-4.832125664173903,3.675734236537256,-102.26118110404886,-34.637676,7.2812014,18.749475,53.646652,-23.004637,10.029362,-5.9328117,5.3000197,-7.171885,87.60763,-21.189295,15.000033,10.898356,3.1320338,7.564446,21.223366,29.119995,-2.9607291,33.735035,-24.436777,-11.509792,18.76331,-11.488636,-37.66443,24.195871,27.921083,-0.6627993,10.288725,-23.380577
196,99.05339813232422,128.54844665527344,72.7105484008789,-4.919004729967272,3.5057127780190824,-102.64495192369492,-34.708214,6.9618063,19.404697,52.069744,-21.111198,10.6670475,-4.806756,7.730393,-6.7397733,85.69398,-20.750994,15.000033,11.64184,3.3986115,7.41289,22.304108,28.416796,-3.1793396,33.26755,-24.710201,-11.45951,18.848783,-11.88903,-37.7818,24.853033,27.99068,-0.08758914,10.524615,-23.940933
197,99.9534683227539,129.5254669189453,72.96233367919922,-4.865300498764089,3.432686050975755,-102.86573503769344,-34.796947,6.3541636,20.02754,50.13747,-18.76258,11.434368,-3.8421657,9.8425045,-6.2448688,83.59921,-20.398932,15.000033,12.205739,3.5381043,7.250487,23.29871,27.679672,-3.4112184,32.777237,-24.867159,-11.442301,18.869585,-12.190853,-37.865368,25.400335,27.958199,0.35257268,10.664805,-24.137352
198,100.863525390625,130.51702880859375,73.24690246582031,-4.7104378768340585,3.4466910734459377,-102.97732342849619,-34.875496,5.535771,20.662872,47.85565,-16.036251,12.276917,-3.0090575,11.713872,-5.6933794,81.26507,-20.090069,15.000033,12.661138,3.5834603,7.067492,24.216208,26.915777,-3.673991,32.25296,-24.927372,-11.458051,18.848022,-12.47849,-37.919163,25.94138,27.92592,0.7638222,10.760165,-24.107965
199,101.78189086914062,131.54115295410156,73.55320739746094,-4.51283905672271,3.4785639397722745,-102.9795529374163,-34.871273,4.599002,21.278624,45.305496,-13.084273,12.777606,-2.2086275,13.239499,-5.2048783,78.73526,-19.799736,15.000033,12.981169,3.5975816,6.902298,25.035324,26.13542,-3.9475486,31.75077,-25.006859,-11.500741,18.778454,-12.61623,-37.943237,26.36368,27.776037,1.000426,10.81202,-23.89447
200,102.72203826904297,132.5871124267578,73.86734771728516,-4.338162184000038,3.458752655153009,-102.87685475695478,-34.713562,3.6197193,21.792479,42.546803,-10.031875,12.512134,-1.3468251,14.326132,-4.918161,76.04996,-19.497068,15.000033,13.201897,3.6599593,6.8304114,25.67955,25.37086,-4.251884,31.316727,-25.227825,-11.564971,18.654663,-12.879596,-37.937,26.708822,27.736088,1.0837978,10.821633,-23.532234
201,103.6756362915039,133.64169311523438,74.18157196044922,-4.176527704085156,3.3942195419639307,-102.65513864396998,-34.470604,2.544322,22.142792,39.574287,-6.7605424,11.863994,-0.42375842,14.823535,-5.039818,73.186005,-19.252283,15.000033,13.291126,3.7556207,6.832621,26.173372,24.617275,-4.5819035,30.970652,-25.672857,-11.66686,18.469059,-12.963181,-37.894493,26.791767,27.536322,0.77544534,10.784086,-22.92105
202,104.62078857421875,134.71485900878906,74.48489379882812,-4.030599985330904,3.3088488920531076,-102.32617286310128,-34.136723,1.3532455,22.30894,36.310898,-3.2270236,10.883025,0.53418237,14.881743,-5.5311837,70.11185,-19.074785,15.000033,13.281565,3.8821785,6.8933067,26.522537,23.880072,-4.9460063,30.681808,-26.267616,-11.80112,18.226124,-12.954303,-37.821335,26.682081,27.257702,0.19532618,10.693655,-22.07505
203,105.55081176757812,135.79405212402344,74.75821685791016,-3.991626004652647,3.1537571176448536,-101.9396650077364,-33.50724,0.13632612,22.178802,32.637264,0.41520068,8.618624,1.581859,14.849333,-6.1587014,66.843185,-18.785221,15.000033,13.185446,4.115624,7.0006843,26.750296,23.179361,-5.289523,30.440346,-26.899328,-11.92436,17.935658,-12.69364,-37.724827,26.396683,26.797539,-0.51986504,10.548319,-21.215878
204,106.45610046386719,136.87744140625,74.98345184326172,-4.170312778984151,2.8749392753627427,-101.55809881984598,-32.34542,-1.0166876,21.576117,28.369747,4.0653553,4.0734463,2.7784703,15.08731,-6.628779,63.37629,-18.194061,15.000033,13.10612,4.56046,7.199437,26.81557,22.568634,-5.611233,30.212835,-27.460752,-11.994469,17.608528,-12.756767,-37.623554,26.268583,26.66705,-0.9098167,10.357123,-20.55563
205,107.33837890625,137.95668029785156,75.13742065429688,-4.842976195468033,2.3733797228315914,-101.24211410113922,-30.070192,-1.9454883,20.363071,22.539673,8.039585,-4.626779,4.338531,15.881965,-6.9392147,59.411816,-17.125143,15.000033,13.068617,5.484656,7.4701376,26.801394,22.044477,-5.8398604,29.984,-27.974178,-11.976714,17.190552,-12.617063,-37.506817,26.063398,26.43613,-1.129873,10.099299,-20.135975
206,108.22554016113281,139.02597045898438,75.19651794433594,-6.027691693649657,1.6607163902047153,-100.9358854493064,-26.787987,-2.6373806,18.907278,15.214427,12.338251,-15.000033,6.303148,17.17713,-7.2015667,54.896484,-15.672017,15.000033,13.050807,6.9352975,7.8222575,26.729786,21.60171,-6.0226984,29.716648,-28.487637,-11.895097,16.701254,-12.377073,-37.38794,25.783281,26.173758,-1.2460142,9.783972,-19.834805
207,109.23228454589844,140.08628845214844,75.06526947021484,-6.855186070703028,1.127726312386851,-100.02246005488537,-22.472174,-4.531689,19.766918,5.2595987,18.052439,-15.000033,7.84836,17.993715,-7.7343454,50.97688,-14.575727,15.000033,12.411087,8.093084,8.144255,26.664665,21.230766,-6.2266793,29.332813,-28.93551,-11.790853,16.261814,-12.091836,-37.3116,25.511307,25.920837,-1.3056272,9.469581,-19.627842
208,110.16364288330078,141.14060974121094,74.92485809326172,-7.320480644494444,0.691795499487303,-99.18609782259813,-22.118967,-5.286286,19.679556,4.2245383,19.05529,-15.000033,9.045767,18.556702,-7.8373857,47.50277,-13.487212,15.000033,11.797978,8.791821,8.5113945,26.392427,21.055136,-6.4867663,28.963573,-29.298689,-11.703248,15.936422,-11.846575,-37.269566,25.327503,25.71977,-1.2774408,9.204926,-19.564373
209,111.08497619628906,142.22186279296875,74.86908721923828,-7.03871792193253,0.33601917283277977,-98.44184136978784,-21.941807,-6.594323,17.75106,3.901304,19.050905,-15.000033,9.707704,18.468666,-7.256688,44.725117,-12.160585,15.000033,11.194931,8.66727,8.997086,25.728928,20.949848,-6.8214517,28.792917,-29.502308,-11.683848,15.766814,-11.65542,-37.22727,25.231634,25.60295,-1.1503918,8.989701,-19.688871
210,111.98796081542969,143.30918884277344,74.83273315429688,-6.211076799986746,0.011391536738427112,-97.74017643366741,-21.793602,-8.388433,14.575198,4.014335,18.241146,-15.000033,9.914926,17.832468,-6.2082148,42.571312,-10.7017355,15.000033,10.615494,7.9714384,9.533767,24.63796,20.874563,-7.3025494,28.90558,-29.566689,-11.734057,15.740763,-11.526419,-37.15673,25.187433,25.658155,-0.95458174,8.798404,-19.980495
211,112.8692398071289,144.41612243652344,74.7795639038086,-5.082502138791414,-0.22877397602414984,-97.06686429677998,-21.680233,-10.356364,11.431626,4.3823824,17.345947,-15.000033,9.707342,16.742285,-5.142759,41.152836,-9.874477,15.000033,10.007477,6.934404,10.025154,23.354937,20.882233,-7.8359365,29.08639,-29.515862,-11.792957,15.79705,-11.464393,-37.0572,25.217136,25.839558,-0.82957006,8.646187,-20.348972
212,113.74848937988281,145.56651306152344,74.6783676147461,-3.9130039170555997,-0.2846493952176778,-96.4295899173221,-24.067604,-11.6716175,10.080301,9.893854,14.289357,-15.000033,9.138306,15.339011,-4.7811337,40.446983,-10.372392,13.330022,9.384564,5.8084545,10.334478,22.014505,21.003674,-8.385629,29.21348,-29.336823,-11.823601,15.903658,-11.466612,-36.942406,25.296015,26.116402,-0.9271561,8.553264,-20.694128
213,114.66439819335938,146.75111389160156,74.4945297241211,-2.640299707135814,-0.1861943969954637,-95.78995498248625,-26.695362,-12.639868,10.845876,15.935766,11.725472,-15.000033,8.30951,13.521763,-5.033038,40.580967,-12.746535,10.106958,8.687809,4.577687,10.495619,20.609684,21.205528,-8.988553,29.288887,-28.964396,-11.801589,16.091639,-11.537218,-36.858177,25.434753,26.491537,-1.3298594,8.539988,-21.00776
214,115.5859146118164,147.95262145996094,74.24222564697266,-1.336091671268623,-0.034477637003390814,-95.2048980659034,-29.58679,-13.053309,12.8114195,22.855518,9.214334,-15.000033,7.3266063,11.523394,-5.3008103,41.326836,-16.422594,6.4776964,7.999789,3.3281095,10.5781975,19.09514,21.487637,-9.6745615,29.33783,-28.431576,-11.7492895,16.371998,-11.657329,-36.80906,25.618752,26.961416,-1.9334196,8.595687,-21.327322
215,116.50648498535156,149.1528778076172,73.93401336669922,-0.24452235637114275,0.06847177772199685,-94.73773573722463,-32.360016,-12.834695,14.919366,30.013885,6.697019,-15.000033,6.339729,9.7379265,-5.439472,42.28862,-20.561739,3.081536,7.386022,2.314941,10.656662,17.5292,21.814087,-10.37203,29.326078,-27.82561,-11.7116785,16.686132,-11.774338,-36.8104,25.82157,27.439196,-2.6197405,8.697064,-21.621597
216,117.44041442871094,150.33737182617188,73.56993865966797,0.5223456262160305,0.0733391745491641,-94.3955076282756,-34.763176,-12.296052,16.272135,36.726982,4.1696053,-15.000033,5.386953,8.319018,-5.4953747,43.20967,-24.376741,0.55565995,6.8622103,1.6477935,10.786641,15.949787,22.159714,-11.013861,29.242586,-27.233513,-11.738256,16.976406,-11.840985,-36.870724,26.016155,27.84589,-3.2721858,8.8199835,-21.86357
217,118.38885498046875,151.5255889892578,73.15575408935547,0.9897885703156892,-0.04799531351285506,-94.13269907283221,-36.879906,-11.728573,16.688684,43.07288,1.52317,-15.000033,4.4868436,7.1214457,-5.671821,44.132893,-27.896225,-0.8263026,6.368908,1.3252534,11.01161,14.330025,22.529375,-11.617908,29.093426,-26.662415,-11.894416,17.238243,-11.932689,-37.006565,26.24292,28.218447,-3.8451905,8.956149,-22.039999
218,119.32279968261719,152.71412658691406,72.7106704711914,1.275690224167723,-0.23580587515590523,-93.93444216783249,-38.830738,-11.116474,16.657663,49.307053,-1.1795475,-15.000033,3.5739136,5.9715033,-5.9826922,45.21329,-31.472803,-1.4541072,5.885841,1.2222551,11.295083,12.650757,22.925335,-12.200693,28.894735,-26.064014,-12.138146,17.500267,-12.004788,-37.221592,26.484522,28.536684,-4.420697,9.118918,-22.168898
219,120.25106048583984,153.91038513183594,72.24730682373047,1.43985812725518,-0.38696284307509865,-93.82272422443836,-40.59691,-10.419835,16.420864,55.18659,-3.758168,-15.000033,2.5151963,4.8946457,-6.288224,46.407948,-34.839607,-1.6677121,5.4674244,1.2342138,11.565103,10.954404,23.3216,-12.696223,28.652788,-25.436052,-12.36091,17.75447,-11.998359,-37.499416,26.708761,28.779797,-4.996742,9.313516,-22.270796
220,121.17546844482422,155.0870361328125,71.79264068603516,1.539158320069488,-0.4003964762330796,-93.82655168754314,-42.154644,-9.532154,16.185223,60.504543,-6.0936694,-15.000033,1.1870534,3.9403346,-6.4058847,47.646084,-37.708336,-1.7980272,5.1680374,1.2631985,11.746502,9.284489,23.680777,-13.032339,28.3821,-24.769548,-12.456618,17.991137,-11.939468,-37.8111,26.932495,29.001276,-5.546376,9.544959,-22.367338
221,122.08503723144531,156.25453186035156,71.36576843261719,1.579695175908706,-0.1762345823155772,-94.00352861780324,-43.6486,-8.3501,15.988205,65.32358,-8.200816,-15.000033,-0.6078545,3.1291373,-6.24571,49.019733,-40.047256,-1.8322322,5.0141892,1.2909452,11.744667,7.6270113,23.979362,-13.15306,28.12153,-24.027485,-12.394928,18.263025,-11.788763,-38.14519,27.177498,29.14043,-6.0981493,9.859632,-22.50887
222,122.98291778564453,157.4354705810547,71.00812530517578,1.5450119815728798,0.21238610756702764,-94.31515039870588,-45.083145,-6.936519,15.714252,69.81825,-10.192881,-15.000033,-2.7592716,2.4153616,-5.9382586,50.52625,-42.003105,-1.610854,4.952852,1.3649489,11.612965,5.9596076,24.224928,-13.099136,27.884079,-23.21192,-12.236169,18.554443,-11.632224,-38.50087,27.487587,29.269777,-6.6395984,10.240294,-22.671028
223,123.8526611328125,158.6100616455078,70.72412109375,1.4530909081906949,0.6052159081382678,-94.65161097186402,-46.23854,-5.366682,15.351719,73.948006,-12.026836,-15.000033,-4.926812,1.7748612,-5.6030025,51.945,-43.538002,-1.2490138,4.8932405,1.4808917,11.475612,4.3510585,24.42445,-12.917302,27.641392,-22.3749,-12.011953,18.74929,-11.387182,-38.847775,27.77314,29.402727,-7.231118,10.596025,-22.766256
224,124.67117309570312,159.736083984375,70.50291442871094,1.3245883710582538,0.840638931678333,-94.90681016237447,-46.892605,-3.7075186,14.893293,77.65822,-13.654726,-15.000033,-6.769166,1.1804546,-5.356851,53.060818,-44.61475,-0.86762506,4.7561812,1.6314436,11.459024,2.8647983,24.586067,-12.665265,27.363958,-21.570816,-11.757291,18.734781,-10.993053,-39.140682,27.94304,29.58667,-7.930486,10.833143,-22.706432
225,125.4693832397461,160.8296661376953,70.36474609375,1.1581720038967036,0.8479003725642745,-95.0926781786588,-46.941296,-1.8712333,14.352948,80.993256,-15.075671,-15.000033,-8.200552,0.6443479,-5.2233286,53.861187,-45.188625,-0.49551424,4.557404,1.8099575,11.620407,1.5275253,24.697603,-12.265929,27.024721,-20.798231,-11.429625,18.389187,-10.367833,-39.34199,27.92625,29.829283,-8.871903,10.88998,-22.425606
226,126.25425720214844,161.875732421875,70.32354736328125,0.9385290785867191,0.7156693840044022,-95.2619153136096,-46.53488,0.19047837,13.729819,83.990814,-16.331358,-15.000033,-9.39684,0.18881989,-5.145791,54.447422,-45.29055,-0.07894167,4.336839,2.0209482,11.881121,0.28715,24.760439,-11.732586,26.667402,-20.031445,-11.036858,17.803625,-9.6088705,-39.441853,27.806997,30.170744,-9.986419,10.819344,-21.98865
227,127.03733825683594,162.8751983642578,70.37950897216797,0.667348304669156,0.521934141468013,-95.36971013108715,-45.827995,2.3490844,12.999964,86.58589,-17.465487,-15.000033,-10.401445,-0.20501582,-5.119918,54.767467,-44.99557,0.3873227,4.035287,2.2613254,12.149884,-0.88235945,24.805523,-11.24494,26.359531,-19.290876,-10.686363,17.188877,-8.792881,-39.443554,27.67105,30.59895,-11.082026,10.699777,-21.50541
228,127.80388641357422,163.8455810546875,70.51961517333984,0.3481796019167017,0.34864407905511463,-95.36656485214958,-44.982025,4.4703393,12.149005,88.71423,-18.501068,-15.000033,-11.259609,-0.562586,-5.142786,54.76809,-44.383984,0.9151068,3.6010027,2.515029,12.353034,-1.9786062,24.899134,-10.977001,26.110943,-18.615509,-10.472606,16.752659,-7.984997,-39.364166,27.577713,31.072718,-11.961651,10.616643,-21.077787
229,128.56668090820312,164.79330444335938,70.73397827148438,-0.020124310261200092,0.19903343808187288,-95.20725130426143,-44.00097,6.5352364,11.14816,90.36965,-19.460516,-15.000033,-11.986513,-0.9031929,-5.2116013,54.499683,-43.449608,1.537505,2.9935603,2.7649348,12.484881,-2.994014,25.070148,-10.965263,25.918633,-18.047558,-10.439796,16.534157,-7.160348,-39.20351,27.52911,31.561584,-12.58059,10.598427,-20.696287
230,129.33209228515625,165.71737670898438,71.01896667480469,-0.4473430265433257,0.03322733238988192,-94.92964432949202,-42.829845,8.648602,10.038211,91.60096,-20.337599,-15.000033,-12.547789,-1.2002043,-5.3257847,53.96577,-42.164356,2.2397413,2.2550037,3.0155795,12.593284,-3.9082668,25.316212,-11.121454,25.734322,-17.578583,-10.521518,16.428226,-6.276051,-38.954754,27.479815,32.06062,-13.043282,10.599329,-20.314962
231,130.1175994873047,166.61341857910156,71.37071990966797,-0.931880734470757,-0.12533350266685744,-94.60031202128795,-41.543293,10.831096,8.917455,92.42031,-21.111183,-15.000033,-12.919022,-1.4323024,-5.486391,53.047832,-40.58064,2.9702773,1.4659435,3.2870598,12.665654,-4.745135,25.626242,-11.472562,25.558008,-17.167986,-10.649682,16.438623,-5.381173,-38.623917,27.42831,32.60107,-13.366508,10.599471,-19.984575
232,130.95896911621094,167.4879150390625,71.78964233398438,-1.1603935852965814,-0.15164289643452278,-94.0807881533388,-40.248135,12.959648,8.467888,92.70324,-21.616226,-13.9099245,-13.261875,-2.0619693,-5.7134757,51.875416,-38.89363,3.7901769,0.511791,3.2993257,12.597896,-5.5326247,25.982632,-12.045474,25.398108,-16.771128,-10.7582,16.569267,-4.4751434,-38.22501,27.345703,33.17352,-13.583566,10.579139,-19.756805
233,131.8308563232422,168.34715270996094,72.2901611328125,-1.4533430507422374,-0.13568630696316342,-93.53971483136813,-38.899323,15.270642,8.305251,92.56681,-22.01101,-12.104749,-13.342736,-2.6168094,-6.031163,50.096638,-36.971592,4.5552545,-0.42445877,3.3883028,12.462009,-6.3152127,26.391842,-12.945249,25.300875,-16.402061,-10.838554,16.914513,-3.5254564,-37.760242,27.208895,33.780502,-13.65553,10.548573,-19.675032
234,132.70413208007812,169.19285583496094,72.85910034179688,-1.8018029103514044,-0.08490633705104307,-92.95604654846099,-37.49737,17.59867,8.1764765,92.01718,-22.3124,-10.438338,-13.187751,-3.1200652,-6.4170923,47.806385,-34.79444,5.2932715,-1.3698878,3.5259645,12.270376,-7.0870132,26.85299,-14.138854,25.253605,-16.076653,-10.921645,17.442575,-2.5261984,-37.22735,27.023811,34.405483,-13.579263,10.514675,-19.699495
235,133.59568786621094,170.042236328125,73.48173522949219,-2.1596261611667806,0.004941427818886439,-92.43533723355017,-36.07709,19.903622,8.155943,91.14976,-22.52771,-8.855917,-12.909111,-3.5869203,-6.74142,45.168953,-32.33351,6.0535884,-2.244831,3.6659877,12.044955,-7.7894664,27.332518,-15.428029,25.174513,-15.744677,-11.000255,17.965427,-1.5268748,-36.641373,26.816238,35.0148,-13.443601,10.454726,-19.75959
236,134.5098419189453,170.89056396484375,74.15330505371094,-2.482479414400937,0.13556464236479263,-92.0832176434175,-34.65741,22.144575,8.318214,90.05853,-22.666616,-7.2943487,-12.624152,-4.020131,-6.8760977,42.34098,-29.54819,6.8905077,-2.969738,3.7719693,11.811128,-8.361013,27.783314,-16.60553,24.983109,-15.345462,-11.070052,18.293983,-0.6511794,-36.033672,26.65323,35.63622,-13.297169,10.3473425,-19.785822
237,135.46031188964844,171.7421112060547,74.85400390625,-2.807838514779013,0.32050321025074235,-91.91137371362468,-33.23137,24.417353,8.711111,88.72036,-22.700092,-5.7261376,-12.3255415,-4.311663,-6.754975,39.219128,-26.301615,7.7095356,-3.5426457,3.8949237,11.562079,-8.785859,28.17942,-17.66224,24.664183,-14.895655,-11.124792,18.386774,0.092749044,-35.43093,26.554525,36.27111,-13.111801,10.198591,-19.793522
238,136.4393310546875,172.59869384765625,75.57052612304688,-3.1400472812249154,0.5530172538171816,-91.86743933747104,-31.765162,26.686892,9.320779,87.1119,-22.640348,-4.1921945,-11.964429,-4.491574,-6.4560494,35.756,-22.648611,8.52038,-4.018377,4.0489297,11.283538,-9.091942,28.52211,-18.669483,24.27708,-14.399652,-11.17332,18.339003,0.8444452,-34.841488,26.447523,36.831795,-12.9098,10.0183325,-19.807644
239,137.44656372070312,173.4582061767578,76.2884750366211,-3.385044131750955,0.8030803550641396,-91.95981479828748,-30.230938,28.718693,10.114981,85.33622,-22.553316,-2.7201288,-11.602778,-4.750959,-6.055329,32.183136,-18.82546,9.536982,-4.391482,4.138132,10.991743,-9.284605,28.807936,-19.548403,23.848112,-13.778523,-11.233635,18.168764,1.6209708,-34.27449,26.298347,37.283894,-12.768432,9.792669,-19.773218
240,138.47776794433594,174.3357696533203,76.99129486083984,-3.443957131018491,1.0415680317962246,-92.19580654793268,-28.604877,30.28075,11.040459,83.48839,-22.492432,-1.3291581,-11.302659,-5.2697954,-5.612852,28.72423,-15.058213,10.973103,-4.590145,4.0683303,10.744782,-9.431765,29.0329,-20.273039,23.391203,-12.953292,-11.325907,17.897442,1.8109721,-33.76809,26.418524,38.110275,-12.384402,9.50757,-19.641619
