unveil-humanoid-operators/unveil-humanoid-operators.github.io/feature-analysis-animation/data/feature_matrix_instances/gender_shoulder_rom_jogging_A063_jog_arc_cw_start_003__A063.csv
Frame,root_translateX,root_translateY,root_translateZ,root_rotateX,root_rotateY,root_rotateZ,left_hip_pitch_joint_dof,left_hip_roll_joint_dof,left_hip_yaw_joint_dof,left_knee_joint_dof,left_ankle_pitch_joint_dof,left_ankle_roll_joint_dof,right_hip_pitch_joint_dof,right_hip_roll_joint_dof,right_hip_yaw_joint_dof,right_knee_joint_dof,right_ankle_pitch_joint_dof,right_ankle_roll_joint_dof,waist_yaw_joint_dof,waist_roll_joint_dof,waist_pitch_joint_dof,left_shoulder_pitch_joint_dof,left_shoulder_roll_joint_dof,left_shoulder_yaw_joint_dof,left_elbow_joint_dof,left_wrist_roll_joint_dof,left_wrist_pitch_joint_dof,left_wrist_yaw_joint_dof,right_shoulder_pitch_joint_dof,right_shoulder_roll_joint_dof,right_shoulder_yaw_joint_dof,right_elbow_joint_dof,right_wrist_roll_joint_dof,right_wrist_pitch_joint_dof,right_wrist_yaw_joint_dof
0,-2.8144047260284424,-0.11698184907436371,77.30155944824219,-1.4235500667603633,-8.152167572312846,0.45143351887970623,11.981997,8.392062,8.019175,10.454702,-14.0101595,-8.769711,10.779841,-5.6785154,-7.342072,8.757202,-12.822156,6.2889514,-2.9855258,-0.4896256,11.381795,-8.380595,11.9581585,-53.293476,65.07454,-4.8495893,-3.0539067,8.510574,-1.3955469,-10.409343,31.408108,62.49278,-8.060135,-7.680465,3.3833895
1,-2.805076837539673,-0.11003325879573822,77.2961654663086,-1.4703974052769198,-8.092617755893727,0.4747852219175593,11.740781,8.459424,7.95477,10.84363,-14.287929,-8.679618,10.735103,-5.6344743,-7.3709793,8.749422,-12.880287,6.212768,-3.0251148,-0.43867612,11.31064,-8.35981,11.958004,-53.258484,65.06423,-4.85519,-3.0658622,8.514053,-1.3817004,-10.43339,31.34962,62.46042,-8.056741,-7.6687326,3.4024205
2,-2.796538829803467,-0.1007479578256607,77.28888702392578,-1.5160496443514193,-8.038711399907871,0.4949711644770073,11.519117,8.524391,7.894865,11.206082,-14.551582,-8.594338,10.693514,-5.590453,-7.3964677,8.746364,-12.939796,6.1360373,-3.0647147,-0.3958245,11.236644,-8.335933,11.957586,-53.231213,65.06305,-4.8730936,-3.0793092,8.52044,-1.3743987,-10.4410715,31.309315,62.445164,-8.041766,-7.6537347,3.418313
3,-2.790199041366577,-0.0929161012172699,77.27815246582031,-1.5602853541980577,-7.973560505326992,0.5200838239082717,11.258215,8.589532,7.824935,11.621226,-14.843058,-8.499662,10.643255,-5.549707,-7.426777,8.737757,-12.998039,6.0604024,-3.1043212,-0.34765115,11.16318,-8.317807,11.956372,-53.188835,65.052345,-4.8671975,-3.088863,8.522265,-1.3689461,-10.45509,31.23546,62.422894,-8.052535,-7.6447783,3.4349766
4,-2.784046173095703,-0.07724864035844803,77.26653289794922,-1.5915764861717032,-7.892058803333662,0.5508769490348032,10.961304,8.6376095,7.745645,12.068014,-15.154172,-8.378871,10.572916,-5.529356,-7.46129,8.738002,-13.066074,5.9902124,-3.1451604,-0.31241557,11.077316,-8.308763,11.954551,-53.162605,65.04239,-4.8612404,-3.0898094,8.531006,-1.3609246,-10.470335,31.16037,62.393776,-8.064054,-7.64356,3.426052
5,-2.775782346725464,-0.06259290874004364,77.24929809570312,-1.5822030423294027,-7.772388209279216,0.5778128065095358,10.589101,8.639522,7.66267,12.577269,-15.497816,-8.22192,10.244764,-5.588153,-7.469946,9.192409,-13.373302,5.9343195,-3.1875389,-0.31793824,10.952999,-8.305056,11.953278,-53.152283,65.03311,-4.8539004,-3.0768354,8.553292,-1.3610374,-10.480533,31.101173,62.370632,-8.069351,-7.649065,3.386489
6,-2.768165111541748,-0.05339139699935913,77.22737121582031,-1.551283180096566,-7.629921065982301,0.6062980564476262,10.167428,8.615765,7.5728884,13.130702,-15.864683,-8.039919,9.817703,-5.6838536,-7.4715095,9.804117,-13.76479,5.8877573,-3.2232995,-0.34175447,10.813442,-8.313916,11.951991,-53.15773,65.02166,-4.8411365,-3.053799,8.582184,-1.3600614,-10.492762,31.026413,62.33901,-8.083326,-7.660884,3.3306956
7,-2.764730930328369,-0.042868722230196,77.20169830322266,-1.511700333487522,-7.484573462760181,0.6407192708835052,9.736298,8.579299,7.476105,13.697555,-16.244354,-7.8420033,9.367763,-5.795644,-7.4754786,10.467549,-14.190245,5.8423734,-3.2541,-0.37257567,10.670131,-8.324665,11.95017,-53.173626,65.008896,-4.828488,-3.0301502,8.609345,-1.3488009,-10.508297,30.9346,62.3009,-8.10521,-7.6824164,3.2564018
8,-2.7612478733062744,-0.02703101746737957,77.1742935180664,-1.4735052644810114,-7.354607496951312,0.6836365043831155,9.334767,8.54007,7.374199,14.244961,-16.625341,-7.6370764,8.954328,-5.9081597,-7.4884405,11.108484,-14.6196165,5.789913,-3.2908947,-0.40285215,10.533886,-8.324419,11.9476795,-53.176594,64.995575,-4.815012,-3.015542,8.624308,-1.3296635,-10.522726,30.833128,62.26795,-8.136144,-7.717175,3.1615598
9,-2.7484610080718994,-0.01130602415651083,77.14725494384766,-1.4388596580371467,-7.2374733133013684,0.7341738305193154,8.952469,8.501894,7.2676625,14.787941,-17.01527,-7.421409,8.560819,-6.020558,-7.5059915,11.755124,-15.063527,5.7191963,-3.3398683,-0.4327194,10.399421,-8.30868,11.945492,-53.155766,64.98431,-4.7971478,-3.0122178,8.618564,-1.3075355,-10.530657,30.742445,62.248116,-8.180895,-7.766949,3.034879
10,-2.730555295944214,0.004970073234289885,77.11821746826172,-1.4025610862871367,-7.1259253489923,0.7916581073207716,8.575382,8.458383,7.15531,15.335568,-17.416346,-7.1922445,8.168514,-6.1394086,-7.526951,12.426247,-15.529486,5.637719,-3.3760824,-0.46127418,10.272926,-8.296984,11.940859,-53.12908,64.97303,-4.7661786,-3.014691,8.594869,-1.2749445,-10.542788,30.608585,62.224415,-8.258739,-7.832361,2.8899965
11,-2.7071142196655273,0.02433338761329651,77.08839416503906,-1.3639533322037543,-7.029240120723098,0.8583340900021973,8.232871,8.406297,7.0363,15.8527775,-17.811176,-6.9601693,7.8149767,-6.2625666,-7.5604887,13.070539,-15.997999,5.564076,-3.4312725,-0.49343184,10.1477995,-8.267395,11.936088,-53.09662,64.959,-4.747773,-3.0229964,8.576028,-1.2363702,-10.552041,30.483498,62.207603,-8.317166,-7.905012,2.7303529
12,-2.6723577976226807,0.044680915772914886,77.0587158203125,-1.3227696098270865,-6.9577875514724346,0.9353469556209263,7.9527297,8.34359,6.9109874,16.31084,-18.184958,-6.7357774,7.540927,-6.3875275,-7.615662,13.631333,-16.44644,5.5162735,-3.4725049,-0.5239485,10.050578,-8.244159,11.927139,-53.078434,64.94015,-4.736256,-3.0348742,8.569182,-1.1663549,-10.565833,30.282288,62.160713,-8.375949,-7.982697,2.585285
13,-2.630810499191284,0.06308445334434509,77.02912902832031,-1.278043626952901,-6.917613670945584,1.0215007269922654,7.7491207,8.268297,6.7799463,16.695541,-18.532887,-6.517301,7.356374,-6.516345,-7.6952047,14.101833,-16.87518,5.50702,-3.5203345,-0.5580278,9.972601,-8.212438,11.915315,-53.083485,64.92033,-4.7636194,-3.053286,8.592942,-1.0734607,-10.579733,30.045704,62.10142,-8.40112,-8.062553,2.4502902
14,-2.582340717315674,0.08664482086896896,76.99850463867188,-1.231009032033992,-6.9019705332874395,1.116518116489421,7.6014314,8.183505,6.6427326,17.031792,-18.865417,-6.300558,7.239672,-6.6494374,-7.7948213,14.509579,-17.294424,5.523366,-3.59159,-0.5950355,9.907483,-8.160997,11.905386,-53.080097,64.89176,-4.8104963,-3.077767,8.635628,-0.97615904,-10.587834,29.803696,62.047554,-8.3987665,-8.147277,2.3153257
15,-2.5266284942626953,0.10881146043539047,76.97047424316406,-1.1826987471998505,-6.9005290239867465,1.2243075969122663,7.498585,8.090287,6.4983234,17.315853,-19.181862,-6.0924053,7.1762786,-6.7853765,-7.9129925,14.864439,-17.704782,5.5452924,-3.6224763,-0.6306159,9.855564,-8.126503,11.885948,-53.124577,64.87001,-4.8634043,-3.103679,8.676965,-0.83205897,-10.598744,29.469707,61.959156,-8.405814,-8.23917,2.1840472
16,-2.4669930934906006,0.12822234630584717,76.94567108154297,-1.1343615346357805,-6.902331907241324,1.349393052200872,7.4296575,7.989411,6.345474,17.543756,-19.48178,-5.8996544,7.1496754,-6.9228773,-8.048196,15.179367,-18.10856,5.552801,-3.701196,-0.6694276,9.790267,-8.052285,11.872029,-53.11606,64.830055,-4.883571,-3.1278226,8.702736,-0.6943789,-10.603323,29.185448,61.890205,-8.379671,-8.334193,2.0344641
17,-2.3903613090515137,0.1482921838760376,76.92366790771484,-1.0847826282180506,-6.909991659326612,1.4987908014036904,7.4018507,7.8782682,6.179325,17.705038,-19.763824,-5.7218966,7.1724043,-7.065029,-8.208,15.443414,-18.50736,5.5421414,-3.75756,-0.7100525,9.724557,-7.982061,11.8519,-53.131435,64.792885,-4.871745,-3.1473837,8.6988945,-0.50685257,-10.607135,28.840172,61.790894,-8.352199,-8.435698,1.8718711
18,-2.3092434406280518,0.16623516380786896,76.90357971191406,-1.0336333398176945,-6.927071214248725,1.668519299060723,7.417672,7.7573495,6.001908,17.80467,-20.029047,-5.5561876,7.247365,-7.211731,-8.391043,15.654127,-18.89929,5.52351,-3.8389614,-0.75380933,9.654375,-7.8876257,11.832877,-53.125156,64.74568,-4.834953,-3.1653435,8.679105,-0.30504185,-10.608289,28.501795,61.693344,-8.298861,-8.54206,1.6943096
19,-2.225574254989624,0.18931065499782562,76.88384246826172,-0.9824309772904098,-6.945732324579225,1.8444245815578397,7.4589334,7.633233,5.8235173,17.863773,-20.28113,-5.405921,7.345525,-7.357863,-8.579845,15.8367605,-19.281324,5.497944,-3.9104586,-0.7964763,9.581435,-7.786915,11.811283,-53.11922,64.69082,-4.791028,-3.1840649,8.658376,-0.08594077,-10.607648,28.136763,61.583576,-8.246734,-8.65279,1.5168153
20,-2.109337568283081,0.22204174101352692,76.8665542602539,-0.9324294218559533,-6.957802489738742,2.0126544510475854,7.5078015,7.51171,5.6549897,17.901934,-20.522648,-5.2743535,7.4363375,-7.4986997,-8.756731,16.01843,-19.650003,5.466482,-3.988433,-0.83700055,9.498313,-7.666326,11.793286,-53.08396,64.61768,-4.7509775,-3.2078536,8.65346,0.12153713,-10.605722,27.788813,61.477737,-8.195913,-8.765335,1.3459072
21,-2.0048904418945312,0.244124636054039,76.85072326660156,-0.8842343119869097,-6.963534402005997,2.163940400902292,7.569767,7.3950644,5.5047607,17.91105,-20.754877,-5.1689215,7.5213995,-7.6305385,-8.913786,16.187166,-20.001312,5.4303136,-4.0203767,-0.8728073,9.41274,-7.55462,11.768848,-53.05855,64.54211,-4.724554,-3.2366738,8.664108,0.3402881,-10.603009,27.385164,61.357273,-8.158197,-8.888327,1.2056075
22,-1.9073045253753662,0.2707280218601227,76.83282470703125,-0.8369314852526559,-6.966177826528159,2.3078714830619527,7.65062,7.28013,5.365225,17.884974,-20.976149,-5.0859065,7.6111116,-7.7574005,-9.061168,16.33964,-20.339462,5.3887296,-4.0621333,-0.90629584,9.317704,-7.419801,11.747182,-52.998436,64.44942,-4.698421,-3.269889,8.685074,0.55071145,-10.599522,27.000175,61.24299,-8.104171,-9.018021,1.0780146
23,-1.8029478788375854,0.2985323369503021,76.81510162353516,-0.7901877954636982,-6.9632635797725895,2.4576472727137215,7.7336974,7.16537,5.2232757,17.848026,-21.186266,-5.0118337,7.7026463,-7.8828244,-9.209899,16.487576,-20.666441,5.3397374,-4.105668,-0.9382064,9.216278,-7.273525,11.727411,-52.929325,64.3373,-4.668317,-3.3028433,8.716913,0.7654183,-10.595587,26.614096,61.115273,-8.075535,-9.1408415,0.9359955
24,-1.6764544248580933,0.3272644877433777,76.80064392089844,-0.7435608043576003,-6.952490654750945,2.6265608619884713,7.8031893,7.049176,5.0659213,17.822258,-21.383204,-4.9331155,7.793353,-8.010372,-9.371011,16.642733,-20.98463,5.2812467,-4.1588626,-0.96892715,9.108072,-7.1176195,11.70901,-52.862453,64.20024,-4.62828,-3.3309526,8.761483,0.9883832,-10.591601,26.231493,60.96298,-8.10478,-9.242572,0.750036
25,-1.5523306131362915,0.35333943367004395,76.78386688232422,-0.6992680016577745,-6.934896146340753,2.8293057677420888,7.8579373,6.9325795,4.8804407,17.811146,-21.56754,-4.8476877,7.896681,-8.137703,-9.558602,16.794828,-21.293518,5.2084823,-4.2291822,-0.99784887,8.9915695,-6.9525547,11.69183,-52.81084,64.03877,-4.5840206,-3.350806,8.81818,1.2340633,-10.587949,25.84506,60.776665,-8.226585,-9.317602,0.4919643
26,-1.4269651174545288,0.3792886734008789,76.76431274414062,-0.656920092968263,-6.911254452500109,3.0551962965010238,7.906343,6.815788,4.6768813,17.801397,-21.738401,-4.7622685,8.009888,-8.263986,-9.763163,16.941055,-21.591675,5.12396,-4.323404,-1.0238973,8.864821,-6.767382,11.678959,-52.753742,63.848324,-4.535291,-3.3654451,8.887599,1.4879613,-10.5844755,25.474874,60.57191,-8.406889,-9.373103,0.18235366
27,-1.275888442993164,0.4141199290752411,76.7449951171875,-0.6107968445653476,-6.878595564223247,3.278923638469944,7.942643,6.6957707,4.47674,17.800835,-21.899061,-4.676177,8.103508,-8.395192,-9.959349,17.109293,-21.8826,5.036557,-4.408757,-1.0525316,8.735687,-6.579009,11.669667,-52.687412,63.636337,-4.472119,-3.3804116,8.969191,1.7378074,-10.582491,25.107397,60.345802,-8.598917,-9.41413,-0.1307749
28,-1.1356700658798218,0.444064199924469,76.72376251220703,-0.5553536911371023,-6.834049190726071,3.475386019099108,7.9637184,6.568885,4.3014774,17.811144,-22.049706,-4.588614,8.14943,-8.537489,-10.122576,17.324461,-22.167809,4.955058,-4.4748693,-1.0889899,8.606136,-6.3886824,11.664678,-52.588562,63.404457,-4.3830624,-3.401387,9.06489,1.9586415,-10.584074,24.765434,60.109703,-8.740665,-9.44571,-0.40369117
29,-1.0092415809631348,0.4740745425224304,76.69799041748047,-0.48941617002163806,-6.777076796219653,3.637609011316297,7.96533,6.4349875,4.1564636,17.839296,-22.190878,-4.4960833,8.139268,-8.691691,-10.2441,17.593508,-22.445364,4.878045,-4.4916296,-1.1308033,8.487442,-6.21449,11.6627445,-52.4703,63.153584,-4.2607527,-3.431721,9.176097,2.1566339,-10.593249,24.411564,59.849495,-8.827834,-9.465457,-0.6178953
30,-0.8808318376541138,0.5124198198318481,76.67113494873047,-0.41574143634106253,-6.7090090089735686,3.7793322853398204,7.950541,6.295264,4.0302553,17.881058,-22.32174,-4.4000034,8.088527,-8.854902,-10.337843,17.901653,-22.714338,4.801954,-4.503574,-1.1794558,8.36454,-6.0310826,11.66445,-52.31529,62.881496,-4.113452,-3.4682796,9.304977,2.325397,-10.607756,24.100723,59.58387,-8.867568,-9.470488,-0.8071959
31,-0.7510631084442139,0.5494494438171387,76.64436340332031,-0.3348664491739617,-6.630002717432048,3.9056790414415206,7.925368,6.1493177,3.9198825,17.92675,-22.443108,-4.307009,8.003827,-9.028365,-10.411635,18.24462,-22.979977,4.7324576,-4.4996586,-1.2319708,8.243297,-5.8475714,11.6703205,-52.13707,62.586174,-3.9469583,-3.5044231,9.440521,2.484762,-10.63032,23.792835,59.28977,-8.898438,-9.472423,-0.97192264
32,-0.6156553626060486,0.5864947438240051,76.61273956298828,-0.24718824819959961,-6.5396227734897225,4.022587214656142,7.8942313,5.9963574,3.8213801,17.968979,-22.55693,-4.2237134,7.890159,-9.213308,-10.47406,18.621008,-23.24873,4.675294,-4.491068,-1.2883588,8.115815,-5.6563783,11.679726,-51.940235,62.269077,-3.7742462,-3.5348902,9.57676,2.6397347,-10.658908,23.491735,58.968586,-8.9377165,-9.482095,-1.1207813
33,-0.4803621172904968,0.6233592629432678,76.57939910888672,-0.15734420300301374,-6.4385861228588865,4.133621233457016,7.858624,5.8416147,3.7339745,18.005978,-22.662508,-4.1536264,7.7581997,-9.403139,-10.529205,19.013348,-23.51405,4.629591,-4.4753904,-1.3414493,7.987421,-5.4587693,11.695169,-51.727924,61.9217,-3.5841587,-3.5543113,9.708767,2.7963104,-10.699543,23.177166,58.614952,-9.005932,-9.50773,-1.2407242
34,-0.3336937725543976,0.6601847410202026,76.5439224243164,-0.06405720028922035,-6.326547988163364,4.235122116708308,7.8153315,5.6839724,3.6595764,18.04291,-22.759823,-4.0926323,7.6022215,-9.598802,-10.571925,19.427868,-23.775187,4.5930705,-4.441727,-1.3840355,7.869593,-5.252484,11.731116,-51.50368,61.51591,-3.3770385,-3.564994,9.839774,2.9801173,-10.781705,22.84498,58.182255,-9.085016,-9.539795,-1.3244917
35,-0.19241222739219666,0.7048184871673584,76.50325012207031,0.041751942938959036,-6.202794616680458,4.32193534342932,7.764044,5.513426,3.5987773,18.07905,-22.850147,-4.036021,7.4041686,-9.813887,-10.596357,19.895626,-24.044977,4.569485,-4.4055524,-1.434634,7.7472653,-5.033072,11.777739,-51.250366,61.078327,-3.1730578,-3.5767803,9.975645,3.157327,-10.878649,22.540482,57.71289,-9.143919,-9.56799,-1.4032427
36,-0.051491301506757736,0.7476462721824646,76.4606704711914,0.16814938914197863,-6.066985149713356,4.388750852215549,7.705317,5.3203483,3.5524714,18.112234,-22.934076,-3.9791975,7.150296,-10.06035,-10.596446,20.44011,-24.33525,4.5625057,-4.3562865,-1.5045916,7.623367,-4.8115396,11.8285475,-50.96032,60.62328,-2.982221,-3.5969243,10.117,3.3238769,-10.979578,22.256973,57.201935,-9.173717,-9.580948,-1.4956545
37,0.09414926171302795,0.7931557297706604,76.41668701171875,0.3156809865414115,-5.9173463138562985,4.4367087112626,7.635834,5.1022844,3.514725,18.144632,-23.010159,-3.9168487,6.834843,-10.339419,-10.572586,21.069786,-24.646923,4.567954,-4.287648,-1.5926117,7.4983945,-4.593376,11.882621,-50.637207,60.155735,-2.8060014,-3.6319084,10.260037,3.484938,-11.088181,21.995972,56.642094,-9.161451,-9.571802,-1.6128271
38,0.24081328511238098,0.8359715342521667,76.36752319335938,0.4805346551186498,-5.754949881258066,4.468114110014978,7.5567946,4.8642454,3.4871802,18.176203,-23.078732,-3.852855,6.467588,-10.644417,-10.526759,21.768791,-24.973679,4.5858417,-4.1929173,-1.7090139,7.357711,-4.3955393,11.914124,-50.303707,59.725765,-2.6440735,-3.6778932,10.410183,3.6179595,-11.157981,21.746197,56.089783,-9.1291485,-9.549224,-1.7536786
39,0.38105764985084534,0.8863226771354675,76.30992889404297,0.6628228839285245,-5.5830608473465055,4.479548896211656,7.4745274,4.609865,3.481198,18.204355,-23.143728,-3.7964175,6.054447,-10.974585,-10.455903,22.528637,-25.314919,4.6265697,-4.1046405,-1.8225892,7.23774,-4.169738,11.975624,-49.902107,59.208107,-2.4796002,-3.7209506,10.56323,3.7702577,-11.294019,21.513813,55.428078,-9.078405,-9.520302,-1.87245
40,0.5237690210342407,0.9292470216751099,76.2486801147461,0.86383112199224,-5.404679608770797,4.467494367090358,7.3964396,4.3413115,3.5084262,18.223318,-23.207802,-3.7566917,5.600027,-11.330651,-10.356718,23.344032,-25.671469,4.700457,-4.0144205,-1.9541606,7.120042,-3.9253829,12.047048,-49.464798,58.645443,-2.3339422,-3.7520263,10.735808,3.9184802,-11.444248,21.290401,54.714054,-9.0325575,-9.495674,-1.9676248
41,0.664406418800354,0.9710734486579895,76.18036651611328,1.089563422247478,-5.212841110027784,4.429955552713231,7.3168526,4.051849,3.57552,18.227514,-23.264822,-3.734208,5.0884304,-11.723319,-10.226171,24.22821,-26.050135,4.81035,-3.9235926,-2.111938,6.9978642,-3.664789,12.123046,-48.976906,58.04841,-2.1943865,-3.7684832,10.937105,4.0466123,-11.595241,21.06898,53.963036,-9.004685,-9.473667,-2.0379758
42,0.8097983002662659,1.011165738105774,76.10551452636719,1.3366992298239224,-5.008489801010355,4.369685218661929,7.2384396,3.743049,3.6749732,18.21209,-23.314333,-3.724923,4.522272,-12.146749,-10.066084,25.180393,-26.44966,4.951329,-3.8305514,-2.2920728,6.8735204,-3.3908367,12.204578,-48.44188,57.418823,-2.061609,-3.7757125,11.15991,4.1577916,-11.749786,20.854471,53.17303,-8.983532,-9.4504595,-2.0918865
43,0.9669250845909119,1.0561408996582031,76.02717590332031,1.5921976440032406,-4.807165266069358,4.290400425807553,7.1663365,3.4313235,3.7959514,18.20608,-23.373497,-3.731152,3.9378219,-12.577663,-9.881947,26.167303,-26.854319,5.1219225,-3.7380822,-2.4846358,6.7617745,-3.1045232,12.293224,-47.872246,56.748566,-1.9518282,-3.7753434,11.385716,4.2616515,-11.909118,20.65152,52.341015,-8.962808,-9.433422,-2.1274981
44,1.1199536323547363,1.0913572311401367,75.9404067993164,1.8436366042379124,-4.624199032417491,4.195442102658904,7.112624,3.1321192,3.9284492,18.223295,-23.455797,-3.75516,3.369464,-12.992145,-9.679205,27.157766,-27.249472,5.3196177,-3.648315,-2.6802804,6.6770005,-2.8054376,12.390927,-47.27988,56.028812,-1.8799087,-3.7691026,11.596262,4.3675632,-12.073187,20.464174,51.464584,-8.936633,-9.430014,-2.1430855
45,1.2726795673370361,1.1197259426116943,75.84942626953125,2.1028050042109814,-4.465612992736398,4.076818142907741,7.1002016,2.8300357,4.0790095,18.234219,-23.552942,-3.7953553,2.824826,-13.405764,-9.451207,28.144545,-27.647413,5.5611024,-3.5517652,-2.8904533,6.623892,-2.4874537,12.499928,-46.658165,55.248997,-1.8586286,-3.7547152,11.786275,4.4763827,-12.242408,20.295574,50.53944,-8.902077,-9.43883,-2.1376128
46,1.4282969236373901,1.150559902191162,75.75349426269531,2.3704343796037675,-4.322183222001322,3.935655003431625,7.1131787,2.5240579,4.2493806,18.247538,-23.663607,-3.8514085,2.2854176,-13.822997,-9.19849,29.14346,-28.052418,5.841184,-3.451136,-3.115084,6.594984,-2.1508322,12.621641,-46.00202,54.41226,-1.8765203,-3.732033,11.965582,4.5837874,-12.418082,20.14286,49.567142,-8.862864,-9.456812,-2.1121094
47,1.5958521366119385,1.170153021812439,75.6540756225586,2.619876543789173,-4.187042222944188,3.7886182969334246,7.1129665,2.248524,4.4235997,18.320059,-23.808546,-3.927073,1.7389975,-14.210676,-8.934614,30.176327,-28.440102,6.1241126,-3.3658412,-3.3271456,6.586555,-1.8076504,12.756199,-45.329533,53.530533,-1.9152703,-3.7063634,12.138131,4.693655,-12.598141,20.001867,48.55108,-8.821775,-9.48905,-2.0674613
48,1.7617785930633545,1.1934316158294678,75.55257415771484,2.824924324724326,-4.053672852450211,3.6520208281850377,7.0594373,2.0377624,4.5864377,18.513527,-24.010899,-4.026062,1.1769804,-14.536077,-8.673349,31.257454,-28.786415,6.3737206,-3.3141081,-3.502169,6.593669,-1.4713134,12.902647,-44.660168,52.619568,-1.9567934,-3.6828544,12.308298,4.8083425,-12.78021,19.865921,47.498463,-8.783236,-9.540744,-2.0050514
49,1.9370660781860352,1.2074226140975952,75.44987487792969,2.9832922441661704,-3.923940668361867,3.527250569600238,6.956244,1.8953769,4.739164,18.82683,-24.272646,-4.154721,0.6158626,-14.794706,-8.411218,32.363564,-29.094213,6.5940022,-3.296591,-3.63982,6.6143446,-1.1315664,13.060271,-43.992466,51.678825,-2.001616,-3.666873,12.47496,4.9265065,-12.962797,19.739098,46.407738,-8.758872,-9.616094,-1.9261465
50,2.1105237007141113,1.212287187576294,75.34394836425781,3.1084572377630852,-3.8003510786976924,3.4060560356469787,6.8197556,1.8042123,4.8892612,19.234741,-24.583845,-4.309104,0.05299179,-15.005785,-8.141784,33.498863,-29.374672,6.797294,-3.3040218,-3.7530642,6.6504884,-0.78689,13.229051,-43.31928,50.70379,-2.0586882,-3.6543174,12.636767,5.0466924,-13.146028,19.622128,45.278175,-8.743265,-9.71128,-1.8300526
51,2.275481700897217,1.209552526473999,75.23456573486328,3.1988566106272356,-3.6779797150009044,3.290077654742249,6.631259,1.766827,5.0316496,19.75791,-24.946907,-4.4773464,-0.5495946,-15.171938,-7.873356,34.72335,-29.616972,6.959414,-3.3385987,-3.8365972,6.7034807,-0.4617729,13.407806,-42.65043,49.702477,-2.1189804,-3.6363533,12.797547,5.174128,-13.327954,19.502882,44.114536,-8.715356,-9.819902,-1.7148337
52,2.443636655807495,1.190714716911316,75.1201171875,3.252274567880741,-3.5515129462469957,3.1810758520948736,6.3718505,1.7862767,5.160712,20.417225,-25.364647,-4.6476583,-1.2292954,-15.294314,-7.613542,36.09739,-29.81132,7.0558734,-3.4013803,-3.886161,6.773927,-0.1829849,13.594438,-41.99889,48.68739,-2.1756878,-3.6040933,12.961552,5.3126473,-13.507133,19.366932,42.924824,-8.654932,-9.935261,-1.5786151
53,2.5968778133392334,1.167384386062622,74.9984359741211,3.251164129559271,-3.4178350172759004,3.076787673991178,6.010064,1.886032,5.2739754,21.267054,-25.853971,-4.8171883,-1.9950179,-15.349562,-7.3608537,37.62901,-29.9519,7.08184,-3.4924345,-3.8829174,6.8632627,0.041124985,13.787881,-41.374023,47.674435,-2.2284412,-3.5525281,13.129348,5.450107,-13.680735,19.213377,41.712563,-8.559946,-10.05509,-1.4234884
54,2.760838270187378,1.146153450012207,74.87533569335938,3.2018882114026344,-3.2801858205850856,2.977207043688021,5.56651,2.0577123,5.373819,22.276896,-26.406755,-4.9922557,-2.8251212,-15.345081,-7.112371,39.28918,-30.046062,7.044881,-3.6100118,-3.836163,6.9694996,0.2230761,13.987528,-40.768974,46.658012,-2.2804296,-3.4872735,13.299329,5.5880103,-13.848769,19.046583,40.476078,-8.441241,-10.182805,-1.2497402
55,2.926612615585327,1.1181552410125732,74.7396240234375,3.138161642738158,-3.143740949874908,2.8871578807834575,5.102107,2.2553558,5.4626684,23.336647,-26.98527,-5.175335,-3.7122707,-15.332362,-6.873502,41.084217,-30.104275,6.941962,-3.752843,-3.7806325,7.089496,0.36609963,14.191198,-40.17357,45.61606,-2.3309348,-3.4157987,13.471879,5.7550163,-14.012207,18.861687,39.207405,-8.295588,-10.320391,-1.0520289
56,3.096259832382202,1.081591248512268,74.59797668457031,3.0947711622527496,-3.0130786891247894,2.8114391682008124,4.6741047,2.432405,5.544478,24.343365,-27.555225,-5.3690047,-4.6479864,-15.361345,-6.649731,43.01609,-30.134268,6.773791,-3.9187627,-3.751158,7.220352,0.47214645,14.395478,-39.578255,44.528168,-2.3789964,-3.345771,13.647461,5.9809346,-14.172239,18.653522,37.896652,-8.119132,-10.46981,-0.8247988
57,3.2603085041046143,1.0346095561981201,74.4473876953125,3.0749682007226036,-2.8888868000529535,2.751511877764839,4.2871137,2.5827107,5.619624,25.289827,-28.121077,-5.5715075,-5.642312,-15.439398,-6.4539046,45.12438,-30.110132,6.535965,-4.1065574,-3.7527397,7.3601704,0.54588133,14.598294,-38.979958,43.40364,-2.4198072,-3.2796774,13.826156,6.2731533,-14.331271,18.41699,36.526966,-7.9086585,-10.6287565,-0.5570554
58,3.4451491832733154,0.9942780137062073,74.29148864746094,3.062403127377158,-2.76863883327379,2.7046401157560234,3.9106731,2.7281861,5.6872525,26.231133,-28.697212,-5.7826867,-6.692707,-15.542323,-6.2806554,47.388874,-30.034014,6.232912,-4.316814,-3.7673113,7.5107145,0.58234406,14.798837,-38.385098,42.251953,-2.454608,-3.2135127,14.007827,6.61973,-14.48919,18.155188,35.103054,-7.6655746,-10.796265,-0.25408015
59,3.6373984813690186,0.9519777297973633,74.13224792480469,3.0632441071112106,-2.6523663068697805,2.669542925153264,3.5625167,2.861694,5.7509665,27.130472,-29.262243,-6.0077715,-7.772992,-15.663636,-6.1090045,49.718456,-29.952894,5.8817396,-4.548694,-3.7981105,7.672771,0.56549287,14.995975,-37.798992,41.057148,-2.4939826,-3.1447048,14.193099,7.0168943,-14.645393,17.87348,33.655594,-7.3947654,-10.976526,0.06479451
60,3.8333563804626465,0.9007687568664551,73.96843719482422,3.0834757262500685,-2.5403660001587776,2.644933117399397,3.2570117,2.9762855,5.814245,27.958101,-29.796436,-6.2518463,-8.857963,-15.798384,-5.9168606,52.024597,-29.91498,5.5001836,-4.80145,-3.8475044,7.8470726,0.48145506,15.188048,-37.2269,39.8018,-2.5475595,-3.0707653,14.382274,7.462006,-14.797374,17.578114,32.214478,-7.1012526,-11.17406,0.38022572
61,4.03807258605957,0.8483797311782837,73.79806518554688,3.1307672020987316,-2.433762125999726,2.634281033810033,2.9949753,3.0632997,5.881902,28.71244,-30.303375,-6.5214295,-9.957178,-15.9515505,-5.684807,54.348385,-29.92902,5.0466986,-5.0780087,-3.9260314,8.03338,0.33189556,15.375552,-36.671158,38.488316,-2.6307411,-2.9993095,14.57599,7.951854,-14.944907,17.27054,30.767788,-6.76937,-11.388552,0.69263345
62,4.236618518829346,0.7859276533126831,73.6217269897461,3.199928725875434,-2.3320661460338923,2.6371493881338197,2.767066,3.1280212,5.9513226,29.412203,-30.793745,-6.8118777,-11.07823,-16.118248,-5.430828,56.714165,-29.96673,4.5332093,-5.376859,-4.029454,8.229948,0.12279488,15.558794,-36.13015,37.124588,-2.7340808,-2.928981,14.774084,8.489269,-15.088133,16.947174,29.30713,-6.402149,-11.617739,1.0111372
63,4.449081897735596,0.7174821496009827,73.44782257080078,3.2768904085628145,-2.2326670034624536,2.6457459984675036,2.5796695,3.1852815,6.0168757,30.042852,-31.2509,-7.113029,-12.192055,-16.284103,-5.186469,59.007797,-30.026077,4.0555987,-5.6910233,-4.137544,8.434766,-0.15394196,15.734619,-35.60276,35.703106,-2.8302927,-2.8442662,14.9759655,9.07701,-15.222776,16.608059,27.872004,-6.031835,-11.864272,1.3287914
64,4.681815147399902,0.6446709036827087,73.27930450439453,3.347330992849196,-2.1331092697598755,2.652524281653867,2.4369807,3.250038,6.071008,30.594786,-31.660425,-7.41377,-13.27425,-16.436779,-4.981672,61.125675,-30.106787,3.7061565,-6.013177,-4.231028,8.644672,-0.5094264,15.89785,-35.08888,34.222603,-2.8924966,-2.7295911,15.180961,9.714738,-15.343591,16.252422,26.508167,-5.692899,-12.131403,1.6377565
65,4.921182155609131,0.5668663382530212,73.12049102783203,3.405900069676432,-2.0348259806917426,2.661188032498553,2.3248637,3.3299894,6.1003804,31.097197,-32.023506,-7.7195725,-14.317644,-16.567057,-4.8150835,63.05641,-30.227383,3.541092,-6.346938,-4.30546,8.861867,-0.95648897,16.046642,-34.597286,32.697037,-2.9360483,-2.5782268,15.395773,10.396151,-15.445403,15.8796015,25.226444,-5.338313,-12.4347925,1.9647743
66,5.186686038970947,0.4823076128959656,72.97622680664062,3.460435990650652,-1.9385394828227733,2.6739266270201307,2.2454066,3.4158616,6.112251,31.546375,-32.347355,-8.033264,-15.338344,-16.684963,-4.6732645,64.858955,-30.386103,3.5000582,-6.693103,-4.3714833,9.084333,-1.4885567,16.180983,-34.12674,31.130184,-2.9675496,-2.3995776,15.618933,11.119266,-15.526636,15.489811,24.012383,-4.9697795,-12.768535,2.3044271
67,5.446683406829834,0.3921188414096832,72.84153747558594,3.516856431060402,-1.8404927179213282,2.6808856718784226,2.2323232,3.498372,6.1291785,31.874384,-32.62128,-8.339448,-16.34431,-16.808516,-4.567877,66.5276,-30.550997,3.4971704,-7.041664,-4.4310393,9.303667,-2.0868373,16.29664,-33.65975,29.504322,-2.9454892,-2.2020557,15.837853,11.891071,-15.587095,15.085346,22.868608,-4.6944957,-13.103742,2.599332
68,5.725919246673584,0.28778567910194397,72.72029876708984,3.5810475469065643,-1.7369578750074077,2.672268075124158,2.3174534,3.5691988,6.1730924,32.0164,-32.834484,-8.622036,-17.344902,-16.961153,-4.5080314,68.05783,-30.690344,3.4463518,-7.383271,-4.4848857,9.511206,-2.7343323,16.386446,-33.17762,27.804262,-2.82792,-1.9940618,16.04003,12.718229,-15.627208,14.66901,21.799538,-4.6200714,-13.41446,2.7898948
69,6.018895149230957,0.18256865441799164,72.61715698242188,3.661843331132502,-1.6338960789017616,2.655801761786656,2.5058963,3.6180744,6.2379303,31.969788,-32.99515,-8.869063,-18.341778,-17.1699,-4.5036454,69.46879,-30.799278,3.3177624,-7.724701,-4.543152,9.701623,-3.462887,16.423407,-32.68408,26.066227,-2.5721395,-1.7553931,16.230576,13.59316,-15.6329975,14.2403,20.854874,-4.786534,-13.695407,2.8483982
70,6.344346046447754,0.06324898451566696,72.53794860839844,3.7536813072082875,-1.5307426869972176,2.63345948207056,2.7813268,3.652797,6.314489,31.76459,-33.105137,-9.090668,-19.330467,-17.42032,-4.54504,70.75566,-30.8925,3.1575997,-8.068135,-4.596991,9.889877,-4.248586,16.442509,-32.18016,24.243496,-2.2150393,-1.4870292,16.408722,14.527931,-15.622472,13.790171,19.99054,-5.1275153,-13.961339,2.814812
71,6.683398723602295,-0.05200791731476784,72.47882080078125,3.841225645527879,-1.41491529548037,2.586831217287006,3.1463666,3.690827,6.419858,31.380274,-33.13996,-9.304089,-20.311476,-17.664057,-4.614299,71.876526,-30.966143,2.9921741,-8.389855,-4.6290474,10.069481,-5.0690928,16.446405,-31.653793,22.341932,-1.8147327,-1.2353523,16.558428,15.524365,-15.597002,13.312455,19.14445,-5.618329,-14.214856,2.7183921
72,7.046615123748779,-0.17167551815509796,72.44327545166016,3.9082494905437573,-1.2731630522332678,2.497745754855145,3.602342,3.7502847,6.571106,30.798056,-33.076946,-9.526881,-21.283842,-17.853104,-4.6953707,72.78676,-31.015171,2.851589,-8.687858,-4.626608,10.205464,-5.903073,16.421003,-31.110844,20.404709,-1.4408056,-1.0472115,16.692915,16.565708,-15.570525,12.878383,18.289421,-6.2116,-14.4538765,2.5483196
73,7.421807289123535,-0.2926701009273529,72.42832946777344,3.960109453633425,-1.1078847166270842,2.350804042659309,4.172554,3.8222086,6.7806234,29.98346,-32.90693,-9.763012,-22.255495,-17.988348,-4.776364,73.47797,-31.038591,2.7474282,-8.944988,-4.585996,10.309548,-6.764408,16.353798,-30.533926,18.416058,-1.0978154,-0.94145596,16.801712,17.675262,-15.554787,12.46124,17.411,-6.977332,-14.6753645,2.2950242
74,7.830288887023926,-0.42956653237342834,72.43521118164062,4.00020357854153,-0.9239979286791917,2.159695451252462,4.8497367,3.9007127,7.0363536,28.95417,-32.641502,-10.004674,-23.22347,-18.092886,-4.8712296,73.97167,-31.038004,2.6632864,-9.172332,-4.5027905,10.383812,-7.6791234,16.221218,-29.927185,16.404123,-0.7476854,-0.8936598,16.889631,18.859135,-15.558183,12.052522,16.5246,-7.9035325,-14.875405,1.955899
75,8.265052795410156,-0.565085232257843,72.46631622314453,4.009838929477815,-0.7121498164390668,1.9499805865313653,5.593518,4.0068774,7.3195324,27.759184,-32.285122,-10.251872,-24.169836,-18.141216,-5.0070767,74.26597,-31.010216,2.5837557,-9.396201,-4.3642673,10.419337,-8.614462,16.049595,-29.303207,14.385384,-0.3932041,-0.8830353,16.962955,20.094944,-15.585674,11.676158,15.598539,-8.839013,-15.056707,1.5752082
76,8.709521293640137,-0.707770049571991,72.51374816894531,3.9707336803537365,-0.4632142339681244,1.7467877599781803,6.3632073,4.162418,7.6119943,26.449951,-31.844847,-10.504197,-25.076044,-18.113789,-5.210131,74.35898,-30.952694,2.494453,-9.64269,-4.1552806,10.406696,-9.545869,15.850343,-28.672876,12.38964,-0.031693466,-0.8892291,17.024492,21.360308,-15.64342,11.353672,14.602416,-9.633745,-15.224958,1.1992329
77,9.186589241027832,-0.8540439605712891,72.57986450195312,3.8721434939158854,-0.17292897446797628,1.5453655572090155,7.1826453,4.374244,7.931293,24.97052,-31.309158,-10.76294,-25.94532,-18.001274,-5.491538,74.23807,-30.861685,2.3825505,-9.91149,-3.8614058,10.34213,-10.469731,15.622398,-28.020823,10.387169,0.3770143,-0.8921483,17.054186,22.684029,-15.737021,11.083402,13.51083,-10.322574,-15.385487,0.8019822
78,9.679821968078613,-1.0059584379196167,72.65887451171875,3.7239063927431064,0.15329698922763887,1.336239483799549,8.064501,4.628269,8.281953,23.310318,-30.675146,-11.030207,-26.782629,-17.818773,-5.8399334,73.90552,-30.73889,2.2597973,-10.193063,-3.4913907,10.234823,-11.397662,15.364648,-27.34549,8.367414,0.8170863,-0.90798086,17.057186,24.071339,-15.868723,10.852772,12.337298,-10.958172,-15.533762,0.3734099
79,10.182573318481445,-1.1699844598770142,72.74836730957031,3.5392628532402064,0.5095775182090851,1.1371782451576695,8.943209,4.9171176,8.625903,21.60407,-29.967724,-11.305733,-27.572765,-17.57569,-6.247619,73.38176,-30.590534,2.1478198,-10.501322,-3.068347,10.096666,-12.315821,15.094702,-26.679876,6.370589,1.2064824,-0.9689209,17.074682,25.462729,-16.037268,10.671152,11.110093,-11.415702,-15.666872,-0.016146043
80,10.699116706848145,-1.3509396314620972,72.84187316894531,3.332917163892013,0.8897997446197599,0.965542362355035,9.757689,5.2341886,8.924072,19.9761,-29.211714,-11.588088,-28.30239,-17.283972,-6.7041707,72.690056,-30.423737,2.0685124,-10.852058,-2.619984,9.9414215,-13.19817,14.843579,-26.057074,4.41894,1.4588786,-1.1056209,17.147518,26.795107,-16.238817,10.551853,9.858842,-11.571042,-15.784226,-0.29565862
81,11.224736213684082,-1.5422970056533813,72.93789672851562,3.0869577725202784,1.3064067792437288,0.831714883357797,10.506136,5.5996213,9.163999,18.388142,-28.398123,-11.877952,-28.983274,-16.92235,-7.2274103,71.803215,-30.238707,2.03355,-11.269753,-2.1373692,9.769821,-14.018122,14.62988,-25.4532,2.4623373,1.5469508,-1.3257089,17.261307,28.05438,-16.47563,10.518019,8.583225,-11.32961,-15.88971,-0.4277301
82,11.754040718078613,-1.7338335514068604,73.03331756591797,2.8016214776502384,1.757974287001483,0.7236787297289875,11.214292,6.008933,9.367509,16.797474,-27.519455,-12.175549,-29.616863,-16.495274,-7.814651,70.71664,-30.032036,2.029911,-11.746503,-1.6177864,9.582612,-14.772952,14.458719,-24.858768,0.46963632,1.5102121,-1.611717,17.4032,29.266542,-16.750729,10.561751,7.2703195,-10.777328,-15.98479,-0.45448145
83,12.288392066955566,-1.9352688789367676,73.12818145751953,2.5227143044806444,2.2170027489277984,0.6246506395977284,11.854352,6.4192243,9.544514,15.34279,-26.606003,-12.475294,-30.174892,-16.0496,-8.420755,69.48652,-29.804327,2.0430396,-12.247677,-1.1036323,9.3929205,-15.464859,14.344055,-24.329609,-1.5156276,1.3625873,-1.9563074,17.615007,30.425705,-17.05508,10.653749,5.9350157,-10.062329,-16.066248,-0.42505735
84,12.83756160736084,-2.163381576538086,73.22386169433594,2.2974045060270085,2.6554875126324573,0.5175641544625561,12.399204,6.787098,9.7035475,14.166002,-25.690153,-12.769537,-30.62937,-15.631044,-8.998891,68.17243,-29.557178,2.0563037,-12.734874,-0.64156234,9.212773,-16.091934,14.3055935,-23.92533,-3.4545274,1.1174397,-2.3524845,17.938126,31.521772,-17.368996,10.765907,4.59721,-9.336218,-16.132116,-0.38925427
85,13.391510963439941,-2.4004223346710205,73.3160629272461,2.1325602456465407,3.077074471982541,0.4041763404645576,12.863779,7.104881,9.835545,13.225484,-24.743292,-13.071776,-30.993082,-15.241185,-9.541739,66.75334,-29.31112,2.0618994,-13.209507,-0.25031227,9.041306,-16.6776,14.363146,-23.678041,-5.3453317,0.7451658,-2.840508,18.481869,32.5449,-17.686317,10.919661,3.2492776,-8.555789,-16.17194,-0.35391006
86,13.95267391204834,-2.642282009124756,73.40058898925781,2.0080154191009183,3.4918740982604173,0.29056844495312956,13.255601,7.3927016,9.9363985,12.473069,-23.761948,-13.375824,-31.27329,-14.857312,-10.068613,65.21005,-29.059103,2.0701332,-13.687867,0.08600047,8.8754225,-17.198357,14.521935,-23.55496,-7.2302456,0.24637894,-3.4138408,19.19012,33.490578,-18.005959,11.126895,1.8948276,-7.673776,-16.190248,-0.29423517
87,14.518906593322754,-2.899341583251953,73.4836654663086,1.9323552800070254,3.8815273833428874,0.1657224270145272,13.5296955,7.650516,10.019919,12.062395,-22.825657,-13.641911,-31.435066,-14.487587,-10.569653,63.607464,-28.761461,2.09423,-14.1483135,0.3694245,8.722021,-17.58974,14.77603,-23.5201,-9.126858,-0.32195604,-3.9924269,19.856403,34.357956,-18.310875,11.341146,0.57218075,-6.840212,-16.208418,-0.21327788
88,15.108349800109863,-3.164468288421631,73.5599365234375,1.913449545527785,4.227941343988469,0.019005078090629707,13.644941,7.881659,10.101875,12.142101,-22.014519,-13.832535,-31.445072,-14.14008,-11.0355425,62.01289,-28.379156,2.146866,-14.562491,0.6029472,8.58634,-17.799408,15.112108,-23.541914,-11.035881,-0.90510076,-4.492707,20.275953,35.149372,-18.57279,11.510525,-0.6777257,-6.2092323,-16.248713,-0.11337573
89,15.711565017700195,-3.437150716781616,73.63331604003906,1.9489742979326803,4.5408454870454555,-0.15384973149772327,13.619081,8.0882015,10.2143755,12.672773,-21.320833,-13.982312,-31.29589,-13.795028,-11.473645,60.350155,-27.771692,2.3144653,-14.915048,0.7922877,8.456209,-17.849401,15.52761,-23.632782,-12.960572,-1.5370752,-4.9152374,20.392836,35.87632,-18.77422,11.607025,-1.8486063,-5.8410463,-16.321594,0.040947635
90,16.32190704345703,-3.72780179977417,73.69793701171875,2.031452319182139,4.8267700178233515,-0.34459224288976537,13.467766,8.276495,10.339387,13.595602,-20.709496,-14.099951,-31.006933,-13.448841,-11.887771,58.616074,-27.003448,2.5611634,-15.214505,0.9367449,8.329597,-17.773369,16.021847,-23.811861,-14.883712,-2.2328086,-5.29238,20.316261,36.5299,-18.91129,11.660063,-2.948763,-5.6554246,-16.414995,0.2404178
91,16.946693420410156,-4.022493839263916,73.74734497070312,2.1540734699452764,5.065031687246671,-0.542546075890832,13.15413,8.462922,10.419925,15.005831,-20.206814,-14.113466,-30.583807,-13.130947,-12.274437,56.984646,-26.341534,2.7148228,-15.466285,1.0366367,8.226356,-17.548475,16.57872,-24.059076,-16.75736,-2.908372,-5.584177,20.092741,37.08679,-18.978708,11.693769,-3.9623232,-5.598202,-16.518547,0.41603565
92,17.587736129760742,-4.338886737823486,73.7800521850586,2.3041908971490708,5.236831597611842,-0.7352262252386119,12.637845,8.671136,10.397805,17.000742,-19.835539,-13.951267,-30.034126,-12.869334,-12.640452,55.63453,-26.054955,2.6026874,-15.674882,1.1008531,8.165059,-17.158007,17.17204,-24.354275,-18.521975,-3.4731445,-5.7528152,19.770206,37.527325,-18.970966,11.729953,-4.8755364,-5.6152544,-16.62174,0.49811643
93,18.239524841308594,-4.662639617919922,73.7878189086914,2.4762660023478458,5.334829215301362,-0.8985241062779364,11.912125,8.915511,10.245607,19.6182,-19.614344,-13.595716,-29.2944,-12.691794,-13.065815,54.609795,-26.247955,2.048206,-15.861016,1.1435544,8.136817,-16.588932,17.785574,-24.687872,-20.174442,-3.8976493,-5.7556787,19.2886,37.881382,-18.875494,11.747498,-5.6773386,-5.7839684,-16.730314,0.46528676
94,18.880970001220703,-4.993311405181885,73.77439880371094,2.6564922493592813,5.376444961794856,-1.0383089030871973,11.017967,9.194454,9.999493,22.73542,-19.487494,-13.098473,-28.383377,-12.555061,-13.542005,53.814987,-26.768572,1.1844883,-16.010431,1.182293,8.1321745,-15.88566,18.414217,-25.079865,-21.70622,-4.222878,-5.622446,18.647459,38.154713,-18.68921,11.733517,-6.376956,-6.1066966,-16.84661,0.35608676
95,19.539630889892578,-5.3308916091918945,73.72502136230469,2.823249417451841,5.378780755035165,-1.188287563362778,9.989808,9.506333,9.696487,26.206396,-19.367277,-12.485223,-27.430399,-12.387177,-13.939383,53.217533,-27.499804,0.3037958,-16.077644,1.230124,8.168749,-15.112596,19.045715,-25.550745,-23.052952,-4.4612494,-5.4273977,17.982903,38.29582,-18.427279,11.723821,-6.9959383,-6.413583,-16.954144,0.19041662
96,20.204710006713867,-5.6693902015686035,73.63887023925781,2.9622436741022287,5.357228719280282,-1.384366492718626,8.849288,9.850646,9.370734,29.923697,-19.182692,-11.770724,-26.56269,-12.131267,-14.125078,52.77867,-28.31823,-0.30150127,-16.018312,1.2950554,8.26293,-14.329856,19.663868,-26.117052,-24.151781,-4.6253276,-5.2461486,17.429422,38.258278,-18.117989,11.753307,-7.5612316,-6.5307226,-17.03664,-0.012282558
97,20.866867065429688,-6.01715087890625,73.52569580078125,3.1089396771474744,5.304122405070357,-1.6148368956745,7.5646577,10.213176,9.031571,33.98796,-18.85089,-10.920733,-25.787876,-11.813181,-14.012989,52.511574,-29.282692,-0.5023415,-15.833427,1.3565986,8.40271,-13.555397,20.261677,-26.803257,-24.97096,-4.735896,-5.087922,17.026154,38.07935,-17.763914,11.815249,-8.093415,-6.4292903,-17.088705,-0.26490325
98,21.508033752441406,-6.367103576660156,73.38864135742188,3.26439756772382,5.213563715708705,-1.870387617689776,6.1487823,10.5965805,8.662241,38.39634,-18.423283,-9.925336,-25.043087,-11.465395,-13.685934,52.425575,-30.424782,-0.47035477,-15.539559,1.4172937,8.580062,-12.768257,20.836098,-27.594183,-25.532883,-4.776085,-4.9181867,16.697159,37.774815,-17.361109,11.894148,-8.578001,-6.1917496,-17.119715,-0.57320774
99,22.127775192260742,-6.711329460144043,73.23737335205078,3.365964820608082,5.1029833612403035,-2.1918536033319067,4.6787925,11.026072,8.252498,42.920925,-18.051651,-8.832831,-24.35533,-11.047486,-13.262953,52.49125,-31.577473,-0.3656279,-15.122584,1.5208532,8.815815,-11.954819,21.375387,-28.438723,-25.85792,-4.70093,-4.7475405,16.40143,37.26811,-16.942032,12.015555,-8.994305,-5.805011,-17.137512,-0.9081084
100,22.720869064331055,-7.032567977905273,73.0638656616211,3.3514371420442592,4.989748374744737,-2.619364373273961,3.2211716,11.517806,7.785342,47.359585,-17.89794,-7.7015176,-23.754662,-10.511567,-12.858204,52.682148,-32.57469,-0.3494536,-14.584746,1.7182996,9.128587,-11.086971,21.863846,-29.268486,-25.975641,-4.466346,-4.5870423,16.095396,36.484478,-16.562403,12.213384,-9.3299885,-5.246407,-17.148748,-1.2441698
101,23.315643310546875,-7.333041667938232,72.87255859375,3.1878645706927187,4.869155870858359,-3.191509057417843,1.7523862,12.132516,7.286084,51.86986,-18.034805,-6.388082,-23.292238,-9.812091,-12.467948,53.073242,-33.357395,-0.47155222,-13.903931,2.0631144,9.539173,-10.144074,22.293041,-30.072874,-25.898003,-4.045235,-4.435234,15.743474,35.42394,-16.263638,12.498792,-9.626759,-4.4205847,-17.151691,-1.6003726
102,23.902456283569336,-7.618943691253662,72.65373229980469,2.9174749140816183,4.73213370980922,-3.877872068320344,0.24312271,12.832233,6.7371874,56.512077,-18.378553,-4.912016,-22.937347,-8.986476,-12.039196,53.65684,-34.020515,-0.6444024,-13.117128,2.5312648,10.0204935,-9.117489,22.661911,-30.855637,-25.616331,-3.462518,-4.2908034,15.370872,34.1226,-16.052431,12.870352,-9.890004,-3.3483975,-17.145868,-1.9909078
103,24.49280548095703,-7.895674705505371,72.41785430908203,2.5923474458075493,4.58861854330903,-4.614632564242222,-1.2548473,13.468451,6.065349,60.954197,-18.86449,-3.596617,-22.595375,-8.105426,-11.608379,54.269127,-34.63141,-0.8245824,-12.314974,3.0518672,10.521591,-7.990551,22.966112,-31.568954,-25.140867,-2.7521813,-4.164534,15.025345,32.55649,-15.931335,13.34151,-10.051421,-2.1812634,-17.137327,-2.382213
104,25.09308433532715,-8.177630424499512,72.16986846923828,2.2620440506305863,4.450147450673529,-5.33694469491108,-2.7014503,13.888304,5.2104473,64.89463,-19.432405,-2.7767842,-22.17567,-7.238151,-11.212946,54.748283,-35.25649,-0.96890444,-11.58953,3.5518088,10.999818,-6.74234,23.199543,-32.16336,-24.483486,-1.9476706,-4.065497,14.754347,30.701702,-15.900049,13.928246,-10.045522,-1.0700202,-17.129349,-2.7413056
105,25.700965881347656,-8.445960998535156,71.92484283447266,1.8851571820650492,4.313070233290379,-6.055686996004097,-4.0661793,14.049895,4.0981236,68.30032,-20.196468,-2.6770957,-21.668076,-6.3362865,-10.874492,55.07885,-35.91116,-1.0695066,-10.947896,4.062127,11.481124,-5.3386564,23.351988,-32.63288,-23.612862,-1.0126146,-3.9987285,14.517939,28.52049,-15.967399,14.646484,-9.8570595,0.039624542,-17.126343,-3.0359857
106,26.326480865478516,-8.707643508911133,71.7042236328125,1.4563943004844053,4.171092267301347,-6.796317590067382,-5.377565,14.015295,2.8088224,71.361374,-21.170311,-3.0911875,-21.119905,-5.385118,-10.5664835,55.338585,-36.560432,-1.149197,-10.3592205,4.6068215,11.976548,-3.7857196,23.418392,-32.992153,-22.53812,0.05521795,-3.959156,14.307129,26.0352,-16.126587,15.498025,-9.531666,1.2070668,-17.124416,-3.297431
107,26.924854278564453,-8.956144332885742,71.4998550415039,1.0783177340127634,4.035637186732111,-7.515497628818016,-6.685283,13.798823,1.5155674,74.10004,-22.13384,-3.7029169,-20.52589,-4.504987,-10.256686,55.503223,-37.197475,-1.2113384,-9.842291,5.0948114,12.432314,-2.1359606,23.403637,-33.23741,-21.34009,1.168932,-3.935927,14.217705,23.32052,-16.344095,16.459099,-9.102829,2.2812662,-17.113329,-3.5833886
108,27.546131134033203,-9.202120780944824,71.33575439453125,0.8520871984375693,3.921498166878366,-8.17032669649914,-8.045657,13.420304,0.37152627,76.521904,-22.847157,-4.191549,-19.87834,-3.8170164,-9.915375,55.547943,-37.81619,-1.2600176,-9.400506,5.42818,12.799543,-0.4535636,23.320312,-33.378475,-20.097054,2.2406733,-3.9132457,14.3469515,20.454044,-16.574497,17.491175,-8.604965,3.1009488,-17.08328,-3.9472878
109,28.18810272216797,-9.46230697631836,71.21397399902344,0.8363359805364908,3.8405328903748406,-8.721346473472428,-9.497814,12.798196,-0.6399159,78.60184,-23.18318,-4.5328646,-19.176966,-3.3994987,-9.544966,55.480335,-38.44589,-1.2925513,-9.046423,5.5200453,13.06048,1.2397505,23.170547,-33.448467,-18.716042,3.3003411,-3.881282,14.827153,17.370537,-16.791008,18.612268,-7.967901,3.55209,-17.006018,-4.451675
110,28.842973709106445,-9.732941627502441,71.13220977783203,0.9639049644789994,3.785814848910724,-9.201554943681057,-11.001842,11.9619875,-1.5770009,80.34648,-23.27945,-4.8700976,-18.423004,-3.171059,-9.163199,55.30744,-39.080536,-1.3122265,-8.746083,5.430615,13.253231,2.9548552,22.953897,-33.46215,-17.18381,4.373885,-3.8367236,15.572445,14.074255,-16.982935,19.792616,-7.2251186,3.7309015,-16.891836,-5.0479
111,29.520734786987305,-10.004290580749512,71.08792877197266,1.1474476890552874,3.745168108658637,-9.676590492450915,-12.506608,11.100147,-2.371146,81.79236,-23.281422,-5.1336527,-17.61229,-3.016959,-8.763003,55.007557,-39.66121,-1.3301886,-8.430404,5.278876,13.4103775,4.677804,22.686243,-33.404278,-15.695033,5.3700657,-3.7794974,16.35523,10.73427,-17.134663,20.924105,-6.54234,3.785069,-16.788921,-5.6178675
112,30.22245979309082,-10.264708518981934,71.07046508789062,1.299966673509783,3.704974429534467,-10.211991675448381,-13.969509,10.405707,-2.9625149,82.97537,-23.330862,-5.2504215,-16.739975,-2.8232434,-8.334238,54.557453,-40.131027,-1.3560827,-8.036388,5.184279,13.56143,6.4114866,22.395103,-33.249886,-14.465375,6.195661,-3.718662,16.95159,7.4931355,-17.232418,21.92247,-6.0502877,3.8616674,-16.749279,-6.0393496
113,30.92780113220215,-10.520662307739258,71.08280944824219,1.4015660774350467,3.652124640834763,-10.822733871285251,-15.397134,9.946929,-3.3247478,83.9013,-23.464836,-5.174025,-15.791622,-2.5682232,-7.882873,53.954674,-40.507042,-1.4005462,-7.572367,5.157338,13.727107,8.237416,22.095592,-32.92686,-13.57501,6.844303,-3.6695151,17.346066,4.238687,-17.279665,22.849884,-5.677727,3.9885762,-16.80885,-6.323688
114,31.63218879699707,-10.777481079101562,71.12589263916016,1.4970220717097877,3.597155124805693,-11.475062583603435,-16.816021,9.627591,-3.5030954,84.54883,-23.600237,-4.9458942,-14.772838,-2.312222,-7.4089856,53.20964,-40.807083,-1.456242,-7.0738597,5.134671,13.891827,10.159453,21.794071,-32.451344,-12.945393,7.3553767,-3.628674,17.64633,0.9133574,-17.280893,23.739313,-5.36515,4.087887,-16.932127,-6.5196276
115,32.35480499267578,-11.039227485656738,71.19833374023438,1.5966564558366612,3.5614896337210085,-12.16086314441897,-18.211248,9.391185,-3.5515804,84.90378,-23.714447,-4.6303673,-13.713509,-2.0659616,-6.890569,52.327286,-40.9859,-1.5050976,-6.5172048,5.1258664,14.02407,12.061365,21.508501,-31.933731,-12.543692,7.701943,-3.5862405,17.81802,-2.2750485,-17.225304,24.479029,-5.2241306,4.14712,-17.068611,-6.5542984
116,33.09260177612305,-11.294779777526855,71.30471801757812,1.7110513102382687,3.5667495434924987,-12.87221546890925,-19.565014,9.179517,-3.519498,84.95162,-23.7828,-4.2914987,-12.640516,-1.841034,-6.3062577,51.308304,-40.997147,-1.528707,-5.8691115,5.138014,14.0876255,13.8193445,21.266453,-31.49703,-12.325733,7.8563924,-3.5310788,17.830341,-5.1137366,-17.097462,24.951878,-5.3512044,4.1497207,-17.168377,-6.3491993
117,33.85805130004883,-11.550135612487793,71.45384979248047,1.8337462152916792,3.637791226085654,-13.634449529808926,-20.902666,9.035365,-3.3622081,84.686745,-23.823528,-3.9037952,-11.585687,-1.6233985,-5.6186786,50.14366,-40.84938,-1.5236591,-5.101327,5.1843777,14.061025,15.457632,21.09227,-31.139309,-12.374292,7.7443542,-3.4467664,17.629002,-7.585803,-16.88122,25.088806,-5.7825513,4.0224867,-17.222782,-5.7422433
118,34.64785385131836,-11.811903953552246,71.64483642578125,1.9613205179578437,3.757283900629135,-14.443144401145418,-22.21879,8.972218,-3.0705035,84.11473,-23.845402,-3.4502926,-10.525206,-1.4185765,-4.8466067,48.84025,-40.56423,-1.5008409,-4.2369723,5.246847,13.964685,17.04815,20.996677,-30.801094,-12.71101,7.3958344,-3.3408353,17.252537,-9.823865,-16.577965,24.97994,-6.4183517,3.7933908,-17.262863,-4.8164835
119,35.47042465209961,-12.075185775756836,71.87535858154297,2.1091363125989036,3.8829785250067133,-15.24486916612263,-23.447483,8.884756,-2.7450504,83.2359,-23.806519,-3.009329,-9.406719,-1.2671664,-4.054635,47.428326,-40.110146,-1.4617683,-3.325674,5.2889853,13.8258295,18.538021,20.985495,-30.513926,-13.192574,6.941401,-3.2385077,16.80682,-11.829385,-16.2048,24.751448,-7.1605,3.598105,-17.295147,-3.8639915
120,36.31461715698242,-12.352063179016113,72.1468276977539,2.2929030628464524,3.9731185159303655,-15.985530516690854,-24.525663,8.667399,-2.487787,82.051125,-23.662737,-2.6577263,-8.180282,-1.2068658,-3.3107033,45.937054,-39.451153,-1.4046445,-2.411484,5.2808814,13.673935,19.85981,21.05982,-30.31904,-13.662289,6.5130277,-3.1681511,16.397629,-13.578951,-15.791393,24.517376,-7.9385448,3.573752,-17.317476,-3.1763113
121,37.18317413330078,-12.641122817993164,72.45511627197266,2.522525771261631,4.015529602219986,-16.669332240226957,-25.426262,8.302767,-2.2879522,80.534164,-23.418892,-2.4034257,-6.803682,-1.2505243,-2.6116507,44.31032,-38.579872,-1.3045154,-1.4684197,5.230511,13.515459,20.955566,21.228615,-30.26247,-14.094752,6.117956,-3.1402833,16.052576,-15.004612,-15.351599,24.239996,-8.820947,3.7270312,-17.301216,-2.8130229
122,38.07560729980469,-12.941140174865723,72.79678344726562,2.78732475042459,4.033725607851034,-17.318387858827517,-26.18134,7.8435335,-2.1047502,78.69072,-23.094242,-2.2111456,-5.317572,-1.3773433,-1.9316194,42.558353,-37.516594,-1.1676675,-0.48132053,5.1543527,13.340197,21.871204,21.496567,-30.314991,-14.569986,5.6931252,-3.1382613,15.715051,-16.123167,-14.890192,23.87576,-9.845447,3.9976203,-17.252968,-2.629102
123,38.993988037109375,-13.251487731933594,73.17195892333984,3.072077453413586,4.0387021732742,-17.905345886570384,-26.816904,7.290036,-1.9975493,76.565544,-22.66568,-2.0904894,-3.7979097,-1.5699413,-1.30872,40.80944,-36.274513,-1.0362908,0.48526636,5.0383697,13.155878,22.689856,21.849232,-30.401028,-15.081585,5.267279,-3.1535103,15.362155,-17.025078,-14.430945,23.532677,-10.910693,4.4266586,-17.218227,-2.6086633
124,39.935028076171875,-13.581827163696289,73.57192993164062,3.3612104341254128,4.040662435141673,-18.40279050211939,-27.358555,6.64304,-2.026406,74.20198,-22.109837,-2.0497324,-2.3211977,-1.8074806,-0.78208274,39.191753,-34.86498,-0.9508323,1.3622373,4.874211,12.972615,23.491787,22.255785,-30.440235,-15.617071,4.8728766,-3.178771,14.967744,-17.78932,-14.006781,23.326904,-11.926399,5.0593143,-17.245323,-2.737101
125,40.89274597167969,-13.921783447265625,73.98961639404297,3.656438078544821,4.022669590119007,-18.798668606714056,-27.784842,5.86666,-2.2254925,71.568924,-21.415178,-2.115166,-0.8535979,-2.0941653,-0.368054,37.677536,-33.254852,-0.9185504,2.1493037,4.6711574,12.807956,24.23844,22.694159,-30.4396,-16.138607,4.5260034,-3.222643,14.492272,-18.39258,-13.644539,23.297066,-12.910026,6.033242,-17.369394,-3.1365576
126,41.863834381103516,-14.27295207977295,74.41256713867188,3.9617149978629267,3.983768128676612,-19.108560889163,-28.080933,4.9773145,-2.5664322,68.65039,-20.596243,-2.2706897,0.62165993,-2.42924,-0.050987456,36.226254,-31.454618,-0.9166885,2.8779411,4.445032,12.656288,24.881964,23.155914,-30.43966,-16.635324,4.2135515,-3.2864368,13.955227,-18.779543,-13.352649,23.382746,-13.929985,7.2900014,-17.567127,-3.7754004
127,42.857032775878906,-14.627342224121094,74.83589935302734,4.265595923119444,3.9582931383295636,-19.345961335632005,-28.283056,4.051823,-3.0120068,65.50931,-19.665901,-2.4612274,2.007974,-2.7844326,0.17946494,34.939766,-29.531803,-0.94060165,3.5253015,4.1937895,12.491162,25.490131,23.626448,-30.408789,-17.134075,3.9255097,-3.3523874,13.419443,-18.980768,-13.133231,23.553713,-14.975835,8.580169,-17.78922,-4.4062896
128,43.84976577758789,-14.983654022216797,75.2508316040039,4.555936649416727,3.980932533693109,-19.524947950516598,-28.432978,3.1649354,-3.520857,62.20983,-18.637968,-2.6333618,3.2116935,-3.1317923,0.3362871,33.91623,-27.550522,-0.98580426,4.062642,3.912955,12.284255,26.134245,24.086744,-30.307789,-17.658775,3.6535401,-3.405323,12.947297,-19.036577,-12.980777,23.785175,-16.023075,9.655292,-17.972258,-4.7855716
129,44.859947204589844,-15.345597267150879,75.65531158447266,4.84739147573582,4.088709043710347,-19.62823224760774,-28.566036,2.3012662,-4.097258,58.67279,-17.544,-2.7297854,4.183242,-3.4893625,0.40636122,33.175594,-25.448193,-1.0622761,4.471349,3.5792897,12.001334,26.8294,24.518705,-30.11424,-18.207504,3.4064522,-3.448183,12.529557,-18.944098,-12.893516,24.086239,-17.08089,10.531141,-18.100674,-4.8615847
130,45.88087844848633,-15.720258712768555,76.0400390625,5.141375574904369,4.252462693826113,-19.65610782847123,-28.638664,1.4345807,-4.756259,54.876797,-16.360922,-2.7924368,4.98359,-3.8623638,0.38907638,32.66297,-23.21151,-1.17032,4.765662,3.2026746,11.662743,27.525776,24.914927,-29.853472,-18.745405,3.1903112,-3.4884443,12.139504,-18.696192,-12.872761,24.470112,-18.142618,11.313502,-18.199223,-4.7601485
131,46.915836334228516,-16.102863311767578,76.40154266357422,5.405247102134603,4.408909414983195,-19.649561016245123,-28.587204,0.62416136,-5.473931,50.977844,-15.022584,-2.9179246,5.6932425,-4.2049265,0.31876627,32.34908,-20.970732,-1.2892067,4.967994,2.827909,11.321073,28.20175,25.27638,-29.557106,-19.257254,2.9917512,-3.5158856,11.813571,-18.32414,-12.911864,24.916119,-19.167753,11.887144,-18.257484,-4.5067563
132,47.95528793334961,-16.47933006286621,76.72714233398438,5.606694983156744,4.495283234524395,-19.64966051936282,-28.36232,-0.06995655,-6.2330422,47.1468,-13.462657,-3.2019606,6.395133,-4.471153,0.23078923,32.199112,-18.852192,-1.3967497,5.1013618,2.4983382,11.028979,28.841022,25.611065,-29.255348,-19.734589,2.7964478,-3.5200455,11.589097,-17.8613,-12.997992,25.40179,-20.110012,12.135695,-18.268686,-4.126465
133,49.00295639038086,-16.856691360473633,77.01615905761719,5.7483194370472095,4.507301112753527,-19.642207237215487,-27.953552,-0.65195674,-7.089914,43.317486,-11.480652,-3.6655016,7.1031165,-4.665561,0.11176876,32.18829,-16.802694,-1.5231764,5.1497407,2.207298,10.783374,29.462494,25.924883,-28.94213,-20.184654,2.5983143,-3.4916523,11.489669,-17.302633,-13.123907,25.918339,-20.967894,11.921855,-18.224094,-3.5664983
134,50.06715774536133,-17.25798225402832,77.27094268798828,5.843238759649714,4.473951025561471,-19.615268485494262,-27.392653,-1.1396953,-8.049057,39.43076,-9.169197,-4.2595344,7.786646,-4.806364,-0.04938982,32.31812,-14.770976,-1.6656685,5.1091833,1.9371231,10.560104,30.072525,26.219265,-28.604307,-20.614836,2.4047382,-3.4390295,11.492497,-16.64321,-13.287962,26.475824,-21.749273,11.339015,-18.137331,-2.8307488
135,51.129764556884766,-17.669191360473633,77.47894287109375,5.875792230384764,4.384315637249952,-19.613888420435035,-26.703087,-1.4939644,-9.014199,35.67481,-6.9077864,-4.9736404,8.456874,-4.867893,-0.2074358,32.601643,-12.885771,-1.7553535,5.0193377,1.7108686,10.378978,30.639866,26.498138,-28.258003,-21.022089,2.2210636,-3.3779895,11.564472,-15.922458,-13.485823,27.082764,-22.426935,10.617511,-18.033195,-2.0284483
136,52.1930046081543,-18.08892250061035,77.63584899902344,5.830381852133653,4.227873090097077,-19.68222965819887,-25.915575,-1.6784292,-9.879266,32.24479,-5.0751705,-5.7949286,9.122004,-4.8253026,-0.31243724,33.05747,-11.283052,-1.728728,4.9208317,1.5498186,10.25994,31.133236,26.766706,-27.920311,-21.397789,2.0525956,-3.3240201,11.673361,-15.177069,-13.711275,27.74704,-22.971985,9.986169,-17.92908,-1.2697409
137,53.255741119384766,-18.510169982910156,77.73515319824219,5.675871201983294,3.9849566042518143,-19.827178324021723,-24.986483,-1.6490364,-10.645731,29.088982,-3.8162267,-6.7805543,9.83164,-4.6397943,-0.34625593,33.644318,-10.022716,-1.5361661,4.8204083,1.4818034,10.2142725,31.569641,27.030611,-27.582062,-21.758196,1.9093424,-3.276728,11.820985,-14.418691,-13.961638,28.487093,-23.370537,9.437075,-17.828064,-0.57754034
138,54.30585861206055,-18.923845291137695,77.77094268798828,5.425778154263154,3.6666574858601217,-20.026521982539094,-23.92819,-1.4269189,-11.34902,26.133234,-2.912527,-7.9127874,10.560012,-4.337901,-0.32561216,34.382736,-9.027965,-1.2316847,4.6982517,1.4901017,10.228681,31.965286,27.291433,-27.235687,-22.107615,1.7842556,-3.2294455,12.022036,-13.630387,-14.2363405,29.292057,-23.63557,8.868361,-17.72163,0.10587645
139,55.340885162353516,-19.331836700439453,77.75283813476562,5.1367815834460915,3.310859746198595,-20.27834934146963,-22.868803,-1.092346,-11.925691,23.57449,-2.2128065,-9.06732,11.20258,-4.0011344,-0.2568357,35.381332,-8.238654,-0.907797,4.552351,1.5233487,10.283087,32.284798,27.546572,-26.902836,-22.424185,1.6574138,-3.1881545,12.262581,-12.811149,-14.533409,30.126364,-23.771553,8.370128,-17.601748,0.791293
140,56.35597229003906,-19.739200592041016,77.68439483642578,4.874467407541245,2.9575469607687124,-20.578526491899567,-21.944101,-0.74846476,-12.318452,21.635422,-1.575723,-10.1238165,11.65205,-3.7162204,-0.15451683,36.750725,-7.597441,-0.6520155,4.3785377,1.5215174,10.354698,32.48558,27.790518,-26.608778,-22.67779,1.5094528,-3.1587791,12.528946,-11.962253,-14.850398,30.95351,-23.778679,8.032739,-17.458616,1.4893612
141,57.363407135009766,-20.13482666015625,77.57024383544922,4.646134273468511,2.6079653660509132,-20.925368670348927,-21.205994,-0.42015633,-12.450895,20.419638,-0.8791987,-11.089973,11.873666,-3.472123,-0.0077344333,38.561035,-7.07648,-0.47521475,4.1634855,1.4750794,10.443562,32.57913,28.018549,-26.346802,-22.874453,1.3660995,-3.1369064,12.834031,-11.110138,-15.188045,31.800163,-23.636896,7.944937,-17.274105,2.2292802
142,58.35707092285156,-20.51932144165039,77.40682983398438,4.434843524319089,2.2466357942187543,-21.313852327108624,-20.598824,-0.09582654,-12.3699665,19.840998,-0.24906823,-12.022536,11.914565,-3.2553582,0.17910932,40.766376,-6.728073,-0.3339836,3.9044898,1.3995684,10.554096,32.573254,28.228724,-26.110476,-23.01553,1.2281544,-3.1216865,13.178661,-10.254111,-15.547362,32.67528,-23.343279,8.034678,-17.05359,2.9953415
143,59.344966888427734,-20.90462303161621,77.19532012939453,4.272024842108018,1.8887834251924465,-21.735902968920215,-20.088612,0.17646156,-12.204954,19.823826,0.08469942,-12.874977,11.797499,-3.139292,0.3634469,43.285526,-6.60755,-0.22966331,3.6178784,1.2725083,10.670223,32.415405,28.419954,-25.932486,-23.05452,1.040263,-3.1251702,13.5322485,-9.347462,-15.92326,33.512688,-22.927725,8.152401,-16.823723,3.7300582
144,60.33561706542969,-21.27935028076172,76.94230651855469,4.184554471084493,1.5495061019709735,-22.18598782281689,-19.640709,0.3595962,-12.078976,20.288017,-0.105618656,-13.596934,11.550798,-3.186803,0.5039539,46.028107,-6.7640133,-0.1592475,3.3245726,1.0757953,10.775357,32.04983,28.592737,-25.849764,-22.944212,0.7465884,-3.1597495,13.86522,-8.343003,-16.30827,34.2445,-22.41918,8.149046,-16.61514,4.3793726
145,61.318058013916016,-21.65066909790039,76.64337158203125,4.183825568593881,1.2434631352386,-22.67612684160547,-19.279196,0.43023732,-12.062993,21.330992,-0.87368983,-14.20331,11.167237,-3.4014769,0.5990269,49.03811,-7.280187,-0.12509649,3.0414922,0.79965,10.848449,31.467714,28.747072,-25.878681,-22.659136,0.33519065,-3.2376354,14.170471,-7.2189155,-16.697134,34.87873,-21.817396,8.039932,-16.40638,4.9527216
146,62.27897262573242,-21.996692657470703,76.322021484375,4.245940130948947,0.9569053936989869,-23.20846907039795,-19.000292,0.41267723,-12.065659,22.943283,-2.0983286,-14.713591,10.64748,-3.7316787,0.67012906,52.335396,-8.107771,-0.11952155,2.7571084,0.46503672,10.90342,30.696173,28.881866,-26.001827,-22.226759,-0.1655216,-3.3504882,14.464076,-6.007043,-17.087646,35.44338,-21.100897,7.886488,-16.192202,5.4726706
147,63.20719909667969,-22.31720542907715,75.98867797851562,4.347858201300548,0.663270961066657,-23.76339677750779,-18.73522,0.3438426,-11.956087,24.892397,-3.7376287,-15.000033,10.038457,-4.1623354,0.7125195,55.779312,-9.088236,-0.12311972,2.4501116,0.09809424,10.9763155,29.736658,28.997,-26.204708,-21.688698,-0.7509549,-3.4802334,14.7509575,-4.73627,-17.474537,35.9002,-20.276405,7.6140614,-16.031061,5.905658
148,64.1788330078125,-22.66887092590332,75.55738067626953,4.482839755906727,0.3353657127497193,-24.318460814184014,-18.411953,0.2576921,-11.617321,26.93193,-5.7424583,-15.000033,9.384134,-4.703714,0.7240275,59.240494,-10.067679,-0.118421,2.100033,-0.29239535,11.104467,28.587448,29.094326,-26.474518,-21.083216,-1.4169635,-3.608898,15.03733,-3.4294121,-17.850594,36.206753,-19.354156,7.148756,-15.981146,6.2186003
149,65.14679718017578,-23.024133682250977,75.08088684082031,4.595908121677817,-0.03804234532375356,-24.894082906006503,-18.067581,0.25759438,-11.037995,29.230774,-8.386992,-15.000033,8.717576,-5.3271313,0.67283535,62.73046,-11.016712,-0.09042083,1.7107741,-0.6557267,11.284632,27.292725,29.173546,-26.798708,-20.428164,-2.2623315,-3.747663,15.284397,-2.089416,-18.209972,36.386547,-18.295815,6.558578,-16.064945,6.447877
150,66.06330108642578,-23.345020294189453,74.60813903808594,4.735435602189966,-0.4474384610393972,-25.492878716680046,-17.69205,0.267424,-10.251723,31.795307,-11.573568,-14.745693,8.021286,-6.0727954,0.58388287,66.31676,-12.025878,-0.044349775,1.2862767,-1.0395293,11.506959,25.851372,29.233232,-27.177383,-19.710281,-3.2568204,-3.9018507,15.501573,-0.70590055,-18.54772,36.45536,-17.105059,5.8552756,-16.248846,6.594214
151,66.9449234008789,-23.648033142089844,74.12333679199219,4.931235766690377,-0.860134572489467,-26.075989113407175,-17.258076,0.22227262,-9.395879,34.29745,-14.783504,-14.3060255,7.2352576,-6.9117346,0.508986,69.900894,-13.073228,-0.043700688,0.82151324,-1.4754168,11.769769,24.188055,29.274607,-27.621244,-18.924152,-4.204191,-4.0458493,15.769586,0.72543114,-18.854986,36.355408,-15.864679,4.88014,-16.505236,6.568437
152,67.79927062988281,-23.96465301513672,73.63908386230469,5.223911975347081,-1.2428269582797171,-26.603418584231587,-16.740759,0.059495587,-8.60258,36.40662,-17.498095,-13.944942,6.297502,-7.822968,0.5009488,73.38297,-14.136996,-0.1454537,0.31464633,-2.0105326,12.0708685,22.225172,29.300789,-28.143074,-18.063921,-4.9087954,-4.1548166,16.173388,2.2102325,-19.120827,36.026913,-14.657341,3.473094,-16.801422,6.280385
153,68.61683654785156,-24.29110336303711,73.17420959472656,5.715666475986293,-1.6051616551317498,-27.068772605840937,-16.125204,-0.33590457,-7.836849,38.058697,-19.589155,-13.66949,5.179888,-8.91943,0.62708277,76.850426,-15.270147,-0.3949059,-0.24806021,-2.7637227,12.448033,19.926756,29.313011,-28.738712,-17.128376,-5.313957,-4.2155113,16.7899,3.7279208,-19.32838,35.452805,-13.43907,1.3952885,-17.138563,5.6148615
154,69.40431213378906,-24.619468688964844,72.75437927246094,6.358841727493135,-1.9539526126492532,-27.493057195372348,-15.43713,-0.8934277,-7.0636835,39.43598,-21.338238,-13.40866,3.920582,-10.164726,0.8552484,80.311874,-16.459435,-0.7410672,-0.85839117,-3.6868753,12.879216,17.360762,29.308012,-29.384354,-16.145287,-5.5268927,-4.2421465,17.561588,5.277697,-19.465115,34.675686,-12.176834,-1.2090968,-17.496195,4.6366434
155,70.1688461303711,-24.946508407592773,72.4013671875,6.968984904114735,-2.253104236017166,-27.874324338696695,-14.717256,-1.411336,-6.387568,40.583977,-22.843327,-13.195934,2.5464563,-11.316021,1.0807807,83.55474,-17.581318,-1.0946082,-1.4907339,-4.5722423,13.278858,14.599057,29.28136,-30.063913,-15.1494665,-5.5987687,-4.2528796,18.371096,6.9051127,-19.528185,33.72389,-10.984723,-3.922641,-17.817682,3.5312574
156,70.9095687866211,-25.285390853881836,72.12232208251953,7.360358199137724,-2.4699134696332603,-28.208010839381586,-14.005876,-1.691345,-5.8985577,41.545033,-24.198643,-13.065069,1.0779034,-12.147398,1.1851995,86.37398,-18.513409,-1.376204,-2.1211178,-5.204758,13.572038,11.6993065,29.229069,-30.771526,-14.168865,-5.5802994,-4.265138,19.100262,8.665396,-19.523556,32.617012,-9.986658,-6.32272,-18.079958,2.4953847
157,71.64805603027344,-25.663610458374023,71.92086791992188,7.436226611089685,-2.5829189277016997,-28.47608345071274,-13.347624,-1.6379783,-5.64666,42.36052,-25.431898,-13.041326,-0.5197231,-12.570969,1.0905846,88.736084,-19.206224,-1.5932126,-2.745721,-5.458816,13.739175,8.5290985,29.158394,-31.597511,-13.107887,-5.4119067,-4.2456765,19.785883,10.637007,-19.442532,31.265675,-9.1969385,-8.48969,-18.318733,1.492976
158,72.38689422607422,-26.0860595703125,71.77757263183594,7.310693383514179,-2.617015973419669,-28.68442129917554,-12.7068205,-1.3757324,-5.55841,42.996315,-26.491545,-13.098986,-2.2531996,-12.733673,0.85793096,90.75258,-19.724152,-1.7881755,-3.3760006,-5.4648795,13.834747,5.112737,29.066002,-32.497913,-12.01081,-5.0939703,-4.1927943,20.474144,12.781135,-19.274841,29.687258,-8.571301,-10.581853,-18.53543,0.4541816
159,73.1192626953125,-26.52820587158203,71.68606567382812,7.113613516165871,-2.609994983717897,-28.863010478860623,-12.00721,-1.039411,-5.541909,43.386917,-27.35328,-13.193544,-4.0624895,-12.76184,0.57037973,92.4355,-20.116861,-1.9338092,-4.023154,-5.3918157,13.895077,1.7329472,28.929848,-33.270138,-11.080385,-4.7600446,-4.1747656,21.049206,14.963698,-19.03667,28.068521,-8.140298,-12.290875,-18.696375,-0.4681672
160,73.84791564941406,-26.99582290649414,71.63966369628906,6.9752773757461375,-2.598762907522661,-29.042045217128035,-11.175017,-0.7623371,-5.5108867,43.466606,-27.99132,-13.281682,-5.8893476,-12.773405,0.31762487,93.79297,-20.433104,-1.9992136,-4.706457,-5.4098363,13.949071,-1.3454871,28.725523,-33.725613,-10.479582,-4.536543,-4.2648726,21.384258,17.049706,-18.767168,26.60131,-7.9421887,-13.304665,-18.783728,-1.1227875
161,74.56780242919922,-27.479223251342773,71.64842987060547,6.928884651053028,-2.5844139137371136,-29.21832431604699,-10.198062,-0.57755035,-5.4521527,43.200577,-28.42249,-13.365101,-7.7643647,-12.77933,0.13284239,94.841034,-20.664232,-1.9341754,-5.4405513,-5.5600243,14.007909,-4.1222305,28.4377,-33.812935,-10.23349,-4.4511104,-4.528607,21.357237,19.08807,-18.49767,25.269495,-8.102324,-13.406736,-18.789362,-1.430929
162,75.28003692626953,-27.953460693359375,71.7113037109375,6.9058537750895335,-2.5503245664945258,-29.378926817519122,-9.115681,-0.41411275,-5.411862,42.6337,-28.654097,-13.462501,-9.707048,-12.727767,-0.037374828,95.566574,-20.785463,-1.7658385,-6.220096,-5.743754,14.057886,-6.7506795,28.068237,-33.648228,-10.214896,-4.4343066,-4.9161043,21.055637,21.144821,-18.238602,23.98783,-8.609023,-12.797259,-18.742203,-1.4902687
163,75.98178100585938,-28.44301414489746,71.82713317871094,6.884459725158231,-2.5066068188296287,-29.53898325595479,-7.9308763,-0.2486661,-5.395786,41.81743,-28.64381,-13.557959,-11.641743,-12.634805,-0.2279947,95.93183,-20.821466,-1.5803989,-7.021538,-5.927929,14.086127,-9.212335,27.624573,-33.324734,-10.343576,-4.462608,-5.3289204,20.667145,23.121132,-18.007223,22.830608,-9.293254,-11.793408,-18.68168,-1.4126292
164,76.69732666015625,-28.94464111328125,72.00872039794922,6.842702017421918,-2.4633757015956808,-29.713952418978096,-6.6480727,-0.058049195,-5.4090204,40.806664,-28.351316,-13.635883,-13.48974,-12.520613,-0.4744138,95.89962,-20.797543,-1.4647603,-7.826822,-6.083524,14.078407,-11.4709635,27.122128,-32.92234,-10.554358,-4.5089874,-5.666938,20.377012,24.910446,-17.831446,21.881584,-9.969991,-10.715115,-18.6468,-1.3084844
165,77.41744232177734,-29.489442825317383,72.25541687011719,6.773369345942684,-2.4285013385074556,-29.897165622895212,-5.2313347,0.17057502,-5.4600773,39.54753,-27.770578,-13.672706,-15.240152,-12.381897,-0.8010681,95.431854,-20.725529,-1.4306073,-8.644099,-6.2160864,14.039486,-13.507079,26.564272,-32.41763,-10.884335,-4.5816836,-5.9043474,20.206612,26.506191,-17.747536,21.17511,-10.659756,-9.477918,-18.64842,-1.172367
166,78.15991973876953,-30.066064834594727,72.56669616699219,6.688669254534788,-2.395707298368522,-30.083710393418475,-3.6928504,0.42450482,-5.543294,38.03875,-26.924742,-13.684727,-16.922617,-12.2157955,-1.187918,94.5531,-20.59301,-1.4347003,-9.480516,-6.3341737,13.979089,-15.3500395,25.95102,-31.790943,-11.356623,-4.691316,-6.0943832,20.06745,27.985096,-17.773684,20.653374,-11.465285,-7.9611564,-18.659,-0.95840794
167,78.91145324707031,-30.682607650756836,72.93023681640625,6.595879377219979,-2.3542838328434548,-30.29140503917072,-2.1051898,0.68804735,-5.6419616,36.408207,-25.815075,-13.714898,-18.519606,-12.032001,-1.6059221,93.321686,-20.38917,-1.4809395,-10.3103695,-6.417007,13.890312,-17.025856,25.300385,-31.127773,-11.895996,-4.8126926,-6.253968,19.981018,29.358385,-17.90466,20.259464,-12.311122,-6.4347906,-18.666422,-0.7128365
168,79.64544677734375,-31.296920776367188,73.3183364868164,6.50269295947257,-2.2932691051450766,-30.53886725280524,-0.54066455,0.9448628,-5.7412143,34.78369,-24.44162,-13.804985,-20.01224,-11.8403635,-2.0255206,91.79457,-20.103338,-1.5724573,-11.105407,-6.447204,13.766612,-18.547544,24.64256,-30.512589,-12.442612,-4.9230027,-6.39904,19.969553,30.624807,-18.113224,19.940224,-13.108023,-5.1738977,-18.664534,-0.48160356
169,80.39482879638672,-31.937593460083008,73.74900817871094,6.408719073471133,-2.220878181049577,-30.826670242071792,1.0311683,1.1987942,-5.8441586,33.1314,-22.765738,-13.980357,-21.385672,-11.665281,-2.4739752,89.96597,-19.74799,-1.7472165,-11.867114,-6.4372096,13.611463,-19.892183,23.99878,-29.95613,-13.015227,-4.979234,-6.5094686,20.09546,31.733078,-18.385338,19.71966,-13.788427,-4.225209,-18.65656,-0.27653974
170,81.16426086425781,-32.599300384521484,74.20738220214844,6.310761784202625,-2.1395987394484886,-31.147537267975476,2.6295156,1.4549254,-5.959104,31.413456,-20.80459,-14.213223,-22.64182,-11.486147,-2.962578,87.810524,-19.332031,-1.9853374,-12.605556,-6.399965,13.429101,-21.045952,23.37581,-29.420994,-13.663472,-5.012146,-6.5829873,20.331944,32.68179,-18.720358,19.617107,-14.390771,-3.4578834,-18.647324,-0.06987065
171,81.9404067993164,-33.28994369506836,74.69072723388672,6.213211694694932,-2.0298497039704766,-31.50813063791292,4.166656,1.6972876,-6.080899,29.750141,-18.63915,-14.465546,-23.792149,-11.241979,-3.434785,85.35546,-18.838175,-2.206459,-13.299454,-6.3225,13.215349,-22.029795,22.784607,-28.922787,-14.373445,-5.1072073,-6.6655846,20.566309,33.54017,-19.104721,19.563189,-14.978927,-2.8848443,-18.637537,0.1540315
172,82.72834777832031,-34.00312805175781,75.18696594238281,6.120781827127754,-1.871948409490783,-31.914878304786836,5.554728,1.9094597,-6.2032437,28.262672,-16.348404,-14.701585,-24.85202,-10.878029,-3.8273664,82.6259,-18.246319,-2.3348973,-13.92402,-6.1929226,12.96663,-22.863619,22.236612,-28.481756,-15.135157,-5.3505087,-6.803635,20.686361,34.376465,-19.512009,19.487907,-15.614109,-2.5202646,-18.628115,0.41232407
173,83.51289367675781,-34.73126983642578,75.68733978271484,6.031646908047162,-1.651779745945118,-32.38124337572866,6.777247,2.0969558,-6.295398,26.956244,-13.849497,-14.931875,-25.848742,-10.347807,-4.0846543,79.599495,-17.564293,-2.367438,-14.465478,-6.008371,12.67262,-23.533821,21.741013,-28.097273,-15.95919,-5.83637,-7.035081,20.656624,35.175262,-19.924236,19.385305,-16.28576,-2.460109,-18.623281,0.73170364
174,84.31087493896484,-35.45840835571289,76.180419921875,5.9760887416115755,-1.3847510342952194,-32.89788064988321,7.893013,2.209517,-6.3645706,25.74992,-11.115579,-15.000033,-26.767424,-9.726757,-4.2175884,76.282,-16.8092,-2.3309207,-14.93763,-5.81139,12.333458,-24.026272,21.30175,-27.768726,-16.861902,-6.498983,-7.3244452,20.53788,35.896255,-20.337831,19.291513,-16.951504,-2.6731093,-18.62451,1.1002457
175,85.11529541015625,-36.19621276855469,76.66669464111328,5.932450234175267,-1.0932406987734313,-33.44492824403291,8.889592,2.2791908,-6.466721,24.712,-8.35664,-15.000033,-27.54432,-9.069454,-4.3279037,72.69606,-15.951228,-2.2276783,-15.345727,-5.5881476,11.977639,-24.368109,20.920427,-27.516663,-17.82562,-7.1879387,-7.6081986,20.362053,36.570095,-20.746378,19.19561,-17.620174,-2.9836,-18.62999,1.4771978
176,85.91385650634766,-36.95100402832031,77.1347427368164,5.904480925332149,-0.7995444295114215,-33.99842508043586,9.773524,2.300893,-6.6650305,23.865929,-5.757497,-15.000033,-28.127422,-8.4538,-4.494633,68.87301,-14.965687,-2.046388,-15.696057,-5.3494835,11.626846,-24.59437,20.595299,-27.365313,-18.826563,-7.7531905,-7.8245993,20.16445,37.232018,-21.140722,19.083883,-18.304865,-3.2162485,-18.634045,1.8223298
177,86.71827697753906,-37.716217041015625,77.57980346679688,5.8778034240836305,-0.4782437172639669,-34.5671964168275,10.510637,2.2812004,-6.983753,23.202028,-3.2409077,-15.000033,-28.52627,-7.853873,-4.700656,64.71521,-13.85553,-1.811854,-15.974175,-5.070054,11.267773,-24.692139,20.322132,-27.323124,-19.864395,-8.175076,-7.960785,19.936972,37.875843,-21.516317,18.94472,-19.001465,-3.4158618,-18.63853,2.137904
178,87.52677154541016,-38.48086166381836,77.99449920654297,5.85394277159686,-0.12738570501856483,-35.15838046675528,11.112367,2.2230198,-7.3887353,22.704393,-0.7418686,-15.000033,-28.75726,-7.2426467,-4.9113746,60.225628,-12.626708,-1.5217743,-16.177877,-4.754623,10.894055,-24.654987,20.098703,-27.382631,-20.94328,-8.5269785,-8.048196,19.668049,38.484867,-21.871513,18.78706,-19.700676,-3.647673,-18.645475,2.442496
179,88.34982299804688,-39.256935119628906,78.37047576904297,5.857692256026322,0.19632085385605183,-35.74469874431388,11.647919,2.1111305,-7.8588595,22.396202,1.5356022,-15.000033,-28.788887,-6.6899548,-5.1821604,55.582767,-11.252789,-1.125048,-16.332138,-4.455977,10.538164,-24.526627,19.925802,-27.544378,-22.04092,-8.7938385,-8.093581,19.389744,39.077946,-22.20077,18.62607,-20.403637,-3.7678604,-18.646557,2.7206879
180,89.16812133789062,-40.05183410644531,78.69853210449219,5.912423619567776,0.43717579323576805,-36.298582632110026,12.186804,1.932893,-8.374783,22.297842,3.3860986,-15.000033,-28.59562,-6.259182,-5.5686564,50.963142,-9.707014,-0.5691324,-16.46224,-4.2255645,10.233066,-24.351942,19.80567,-27.810936,-23.131544,-8.961295,-8.104321,19.134453,39.67428,-22.496546,18.475254,-21.114431,-3.63368,-18.631887,2.9578059
181,89.99359893798828,-40.85608673095703,78.95850372314453,6.022067632702543,0.5731086757054091,-36.81058995985918,12.773544,1.700435,-8.975919,22.396711,4.70155,-15.000033,-28.093105,-5.956219,-6.110136,46.183853,-7.854315,0.27882087,-16.572916,-4.0711713,9.995383,-24.139938,19.742664,-28.202513,-24.22967,-8.978043,-8.049623,18.920645,40.30246,-22.7568,18.33207,-21.852116,-3.1531088,-18.59387,3.1561208
182,90.81024169921875,-41.67728042602539,79.14926147460938,6.174765221192029,0.6378809136689485,-37.292596898191285,13.367605,1.4224641,-9.668113,22.677147,5.616321,-15.000033,-27.316624,-5.733625,-6.7539506,41.18567,-5.7314367,1.353751,-16.65475,-3.9678094,9.804575,-23.870817,19.737911,-28.713003,-25.340923,-8.86917,-7.9379125,18.7283,40.94295,-22.980736,18.192566,-22.607212,-2.422417,-18.53747,3.3215983
183,91.61571502685547,-42.48992919921875,79.2847900390625,6.369152220127447,0.6611817324121758,-37.748922436006836,13.907047,1.0836035,-10.382254,23.167107,6.2798605,-15.000033,-26.437798,-5.577576,-7.431012,36.372253,-3.5737016,2.4127543,-16.711662,-3.9171543,9.63767,-23.545244,19.786753,-29.305916,-26.425909,-8.730937,-7.834769,18.532936,41.537983,-23.161186,18.070148,-23.33005,-1.5809437,-18.472736,3.4452896
184,92.41707611083984,-43.305511474609375,79.36544036865234,6.601311833322329,0.6732929679905818,-38.18611482155909,14.329524,0.6682423,-11.044969,23.895359,6.841711,-15.000033,-25.643686,-5.4824576,-8.092799,32.188103,-1.631472,3.21331,-16.74355,-3.9186347,9.47069,-23.167799,19.880817,-29.94774,-27.44138,-8.658355,-7.805372,18.309471,42.028366,-23.287254,17.979069,-23.965298,-0.7696318,-18.411022,3.519357
185,93.20729064941406,-44.129459381103516,79.39305877685547,6.903551143575564,0.668485067503353,-38.59535436614028,14.636019,0.12693907,-11.65939,24.8838,7.3522954,-15.000033,-24.916542,-5.4699855,-8.715295,28.592348,0.12978803,3.9241326,-16.749815,-4.0095944,9.29739,-22.768204,20.017397,-30.661264,-28.38341,-8.669788,-7.881385,18.053324,42.42696,-23.349981,17.92323,-24.523335,0.04151107,-18.350319,3.5212355
186,93.98387908935547,-44.955406188964844,79.36148071289062,7.268130901644452,0.6366242525420418,-38.97815679233522,14.854919,-0.5077168,-12.258051,26.124365,7.7237706,-15.000033,-24.198294,-5.53362,-9.338399,25.427732,1.7994232,4.5999236,-16.72477,-4.1806817,9.128061,-22.347317,20.195131,-31.461441,-29.26097,-8.714977,-8.022827,17.776342,42.75068,-23.34596,17.897379,-25.013319,0.9023275,-18.28846,3.4636095
187,94.73989868164062,-45.7760009765625,79.27269744873047,7.621784701710753,0.6059255097293509,-39.3640544267875,14.955581,-1.1294155,-12.7992325,27.604382,7.893488,-15.000033,-23.655346,-5.6322994,-10.033894,23.054155,3.1669335,4.822523,-16.651209,-4.3507442,8.962185,-21.878325,20.405752,-32.30159,-30.034378,-8.791443,-8.187095,17.479036,42.946594,-23.27488,17.896135,-25.385176,1.7031683,-18.235836,3.392941
188,95.49478149414062,-46.58572006225586,79.13790893554688,7.882030727463507,0.608429222343262,-39.785252458635654,14.905301,-1.6318767,-13.234482,29.298878,7.8029795,-15.000033,-23.467588,-5.727295,-10.886204,21.865309,4.000353,4.1682725,-16.509418,-4.426465,8.797819,-21.331095,20.63717,-33.132267,-30.668596,-8.893888,-8.331653,17.160887,42.960854,-23.138987,17.915682,-25.587439,2.3352852,-18.201273,3.3547518
189,96.24134826660156,-47.39857482910156,78.96163177490234,7.997578131758404,0.7148158573835505,-40.26981797469398,14.602509,-2.0095723,-13.587183,31.273201,7.410496,-15.000033,-23.888027,-5.837149,-12.085101,22.23982,4.4134064,2.1917372,-16.261776,-4.337508,8.591291,-20.722715,20.883585,-33.96142,-31.141314,-9.028528,-8.468475,16.812124,42.77829,-22.932865,17.951284,-25.603533,2.8104017,-18.180271,3.3658764
190,96.99421691894531,-48.20450973510742,78.73600006103516,8.032691846434842,0.8847077177926517,-40.792656250817714,14.102991,-2.3352602,-13.871566,33.50082,6.765048,-15.000033,-24.735157,-6.0322,-13.560328,23.871817,4.4463563,-0.79459906,-15.925869,-4.161853,8.35209,-20.074038,21.142365,-34.814194,-31.45986,-9.194109,-8.6115265,16.43423,42.434803,-22.6535,18.002468,-25.463228,3.1730638,-18.16971,3.4014804
191,97.71558380126953,-49.006370544433594,78.46778869628906,8.067057225686384,0.9824673097026565,-41.30607052725134,13.59871,-2.603899,-13.999745,35.834656,5.92704,-14.902066,-25.546179,-6.3029847,-14.958279,26.137241,3.7609217,-4.056978,-15.567272,-4.011087,8.16388,-19.355083,21.404568,-35.66442,-31.63037,-9.3704,-8.721597,16.043749,41.954147,-22.314207,18.068872,-25.184418,3.3653061,-18.179651,3.4435232
192,98.3727035522461,-49.77997589111328,78.16728973388672,8.149639226647572,0.8817555832886295,-41.7703832602661,13.275374,-2.767558,-13.900313,38.129967,4.953423,-14.699599,-25.892912,-6.531728,-15.865887,28.427761,2.0418105,-6.8277617,-15.248361,-3.9577837,8.115765,-18.527527,21.658337,-36.47761,-31.65883,-9.534664,-8.760401,15.65591,41.356575,-21.940983,18.150866,-24.788036,3.3326657,-18.220417,3.4709415
193,99.0916748046875,-50.573020935058594,77.7662124633789,8.317969217555499,0.48168040319821454,-42.17991983924974,13.298031,-2.8393981,-13.561192,40.31589,3.7772489,-14.581591,-25.618664,-6.660652,-16.000893,30.862116,-1.2745866,-9.048167,-14.987649,-4.0492234,8.266261,-17.548471,21.895481,-37.249813,-31.567875,-9.7258415,-8.690745,15.252797,40.699867,-21.557636,18.230797,-24.302818,3.024131,-18.29909,3.5053008
194,99.87964630126953,-51.40106201171875,77.27083587646484,8.532370377874448,-0.127080480494167,-42.55732130203223,13.525075,-2.82758,-13.023754,42.48762,2.3907778,-14.516059,-24.967901,-6.684529,-15.535681,33.627678,-5.8318563,-11.047632,-14.756568,-4.2182274,8.559362,-16.439415,22.114273,-37.985394,-31.343678,-9.935689,-8.541601,14.831867,39.96646,-21.171227,18.312704,-23.72774,2.4882789,-18.408482,3.54182
195,100.61338806152344,-52.203369140625,76.76697540283203,8.702285220498723,-0.7733593769547125,-42.9112516667592,13.670025,-2.6630776,-12.367254,44.771034,0.9232432,-14.422439,-24.19285,-6.5558696,-14.797433,36.36441,-10.602299,-12.649647,-14.539351,-4.341805,8.909226,-15.257077,22.313406,-38.661026,-30.95097,-10.072207,-8.375698,14.4315,39.05832,-20.781143,18.42839,-23.028902,1.8179201,-18.5376,3.5199654
196,101.29328918457031,-52.99647903442383,76.27796173095703,8.735751563626994,-1.2862089030123622,-43.24824328320702,13.452541,-2.271551,-11.676161,47.284996,-0.49337822,-14.219274,-23.543152,-6.2709594,-14.187806,38.7353,-14.578912,-13.690055,-14.321968,-4.300914,9.226864,-14.060825,22.491219,-39.257324,-30.351696,-10.044337,-8.25745,14.089439,37.877987,-20.381441,18.606878,-22.170158,1.105488,-18.674187,3.3796644
197,101.94182586669922,-53.7602424621582,75.79132080078125,8.605168234600631,-1.6267775748108888,-43.56204588545623,12.799803,-1.5878451,-10.922212,50.106598,-1.837806,-13.903737,-23.104004,-5.8562117,-13.826072,40.71109,-17.55362,-13.932954,-14.1085,-4.060948,9.490293,-12.862598,22.648373,-39.774853,-29.530481,-9.844898,-8.196325,13.753564,36.41049,-19.957115,18.830732,-21.139837,0.24954276,-18.819778,3.1015608
198,102.5741195678711,-54.50347137451172,75.2985610961914,8.352601727675726,-1.8814381098990511,-43.85283562084982,11.872094,-0.6507169,-10.091924,53.14681,-3.173742,-13.512114,-22.760319,-5.359013,-13.571601,42.527866,-20.08371,-13.5439625,-13.899193,-3.6811306,9.742105,-11.637179,22.783176,-40.228325,-28.507366,-9.520081,-8.163381,13.424865,34.711205,-19.500721,19.082293,-19.960485,-0.7594549,-18.975492,2.7176774
199,103.20822143554688,-55.252967834472656,74.80128479003906,7.993988499525223,-2.0696929270248248,-44.132927217278436,10.736166,0.4549923,-9.2995,56.277103,-4.496753,-13.019006,-22.450773,-4.80422,-13.441708,44.21892,-22.305515,-12.95741,-13.678533,-3.189239,9.989746,-10.386601,22.887318,-40.622066,-27.29477,-9.057473,-8.164976,13.220534,32.79391,-19.023897,19.380613,-18.652914,-1.6901332,-19.129032,2.2456944
200,103.86357116699219,-56.005306243896484,74.29703521728516,7.548812594874925,-2.213167462565961,-44.413695170545516,9.455409,1.6362133,-8.657124,59.364613,-5.80326,-12.400003,-22.10371,-4.1852036,-13.428714,45.776634,-24.33484,-12.606239,-13.440443,-2.6123948,10.239877,-9.1071615,22.948706,-40.950947,-25.905806,-8.444595,-8.204544,13.256067,30.67391,-18.55003,19.75113,-17.247248,-2.3067997,-19.272299,1.7009789
201,104.5079345703125,-56.74797439575195,73.82176208496094,6.949120630073961,-2.297164129013251,-44.66365242700674,7.960924,2.9688907,-8.233519,62.505405,-7.120433,-11.60462,-21.726877,-3.4269357,-13.620679,47.184223,-26.135004,-12.612847,-13.220222,-1.868796,10.496388,-7.7966485,22.95176,-41.22791,-24.272795,-7.66343,-8.312014,13.605543,28.341902,-18.093542,20.1891,-15.732362,-2.5353823,-19.42421,1.0372825
202,105.13227844238281,-57.45417404174805,73.39265441894531,6.208075699197533,-2.3187963106251512,-44.886238609395946,6.2444634,4.4613585,-7.9866467,65.7175,-8.439568,-10.659494,-21.351912,-2.5343251,-13.990054,48.42522,-27.653727,-12.7452345,-13.01708,-0.96612144,10.7528925,-6.4605417,22.888544,-41.449093,-22.40333,-6.724465,-8.467132,14.192683,25.822414,-17.652725,20.668173,-14.135088,-2.4985552,-19.586357,0.25789222
203,105.7083511352539,-58.15190505981445,73.01665496826172,5.470095249493905,-2.3184956557255303,-45.1444128606603,4.4451537,5.9115267,-7.83984,68.77502,-9.708146,-9.655787,-20.933384,-1.6085238,-14.343819,49.472443,-28.97376,-12.9041395,-12.776132,-0.067322776,11.000754,-5.092239,22.764156,-41.57544,-20.444727,-5.6551075,-8.597199,14.905784,23.163727,-17.22711,21.192883,-12.528351,-2.2542024,-19.731936,-0.5473925
204,106.28157043457031,-58.85373306274414,72.7126693725586,4.878386760232448,-2.3372984168735185,-45.5001502664205,2.700012,7.1236506,-7.6919503,71.46727,-10.878787,-8.684842,-20.416359,-0.7593923,-14.493691,50.3046,-30.181528,-12.991279,-12.447527,0.66402805,11.233514,-3.675659,22.595945,-41.558254,-18.55304,-4.486419,-8.633424,15.631602,20.398445,-16.820084,21.777847,-10.977508,-1.8588884,-19.830742,-1.2884073
205,106.86272430419922,-59.560646057128906,72.47172546386719,4.470874047662327,-2.3935616421150865,-45.96658394956811,1.0254639,8.056703,-7.4966135,73.78478,-11.939378,-7.7337117,-19.76284,-0.022960754,-14.40104,50.9087,-31.289497,-12.985157,-12.047261,1.1741189,11.470655,-2.1551268,22.392715,-41.353153,-16.719215,-3.071512,-8.5256815,16.491352,17.417992,-16.4366,22.503788,-9.396473,-1.1468884,-19.861942,-1.9961574
206,107.44084167480469,-60.264320373535156,72.28539276123047,4.172579315814499,-2.4631620459137458,-46.5119861680917,-0.65072054,8.808147,-7.2927933,75.836914,-12.919509,-6.7648726,-19.000788,0.65924555,-14.166865,51.292896,-32.25322,-12.940371,-11.602268,1.5539575,11.716975,-0.5336801,22.159801,-40.97885,-14.908548,-1.451767,-8.306948,17.488699,14.239826,-16.072073,23.339746,-7.8037972,-0.1415356,-19.852713,-2.704396
207,108.01705932617188,-60.979698181152344,72.14714050292969,3.95820139184601,-2.5234525196840294,-47.130120872728334,-2.3214667,9.393357,-7.0893316,77.59455,-13.831161,-5.8371663,-18.167627,1.3104014,-13.810609,51.475983,-33.079018,-12.873866,-11.07683,1.852855,11.941591,1.1207018,21.916069,-40.483,-13.249034,0.06355495,-8.056547,18.340065,11.061719,-15.717246,24.148436,-6.3894224,0.8130977,-19.834724,-3.32166
208,108.58167266845703,-61.67390823364258,72.04434204101562,3.8021793017130423,-2.552011529963315,-47.81525309059106,-3.9788833,9.824978,-6.8954153,79.02493,-14.680975,-5.01314,-17.301065,1.9493207,-13.347966,51.47754,-33.77299,-12.8002405,-10.434815,2.1168947,12.109747,2.7449787,21.68965,-39.912003,-11.874021,1.170107,-7.8759933,18.772627,8.064686,-15.36656,24.808252,-5.3146753,1.3685285,-19.831192,-3.7513728
209,109.14776611328125,-62.392555236816406,71.99815368652344,3.713132490263987,-2.5334282799707055,-48.58173449731711,-5.652117,10.068736,-6.7051682,80.139336,-15.477061,-4.2979574,-16.419191,2.5718687,-12.755877,51.30461,-34.355732,-12.716688,-9.658324,2.3365023,12.2070875,4.391398,21.499205,-39.2026,-10.863959,1.7244072,-7.832419,18.640326,5.2058177,-15.024491,25.344337,-4.585338,1.4024875,-19.838697,-3.9653885
210,109.70183563232422,-63.129276275634766,72.00788879394531,3.698877837627425,-2.4812777254833875,-49.427850416987,-7.333308,10.129057,-6.4976153,80.94846,-16.206398,-3.667442,-15.493779,3.159332,-12.029834,50.951687,-34.820705,-12.61774,-8.779242,2.4887874,12.259546,6.1038218,21.351751,-38.33397,-10.184499,1.907859,-7.8736043,18.121464,2.3870723,-14.69482,25.838106,-4.0975795,1.1109282,-19.841928,-4.0123024
211,110.2275390625,-63.86963653564453,72.06600189208984,3.7323350813666223,-2.4170980676766725,-50.32389353659886,-8.960044,10.079811,-6.2633414,81.41485,-16.839273,-3.1392102,-14.491471,3.7092967,-11.211621,50.412888,-35.128952,-12.510681,-7.833248,2.5999231,12.287517,7.800595,21.258614,-37.42178,-9.781034,1.9064196,-7.9300437,17.433043,-0.30016193,-14.372851,26.257288,-3.8316088,0.6196829,-19.84336,-3.90786
212,110.7528305053711,-64.61248016357422,72.1801986694336,3.7872209467578712,-2.363036627419028,-51.23993036988338,-10.468553,9.994189,-5.996853,81.50073,-17.350496,-2.73181,-13.383215,4.2193747,-10.342825,49.687943,-35.244152,-12.401908,-6.841846,2.6962063,12.307506,9.384705,21.234367,-36.60331,-9.576127,1.907889,-7.9328313,16.794914,-2.7513196,-14.05081,26.547525,-3.7728212,0.050796613,-19.846678,-3.6642144
213,111.284912109375,-65.38603973388672,72.36149597167969,3.8618333342598605,-2.3183271277588573,-52.204375065855466,-11.83715,9.887311,-5.6623697,81.165634,-17.743547,-2.5132277,-12.151221,4.7043257,-9.38762,48.739296,-35.168716,-12.294027,-5.764505,2.7860706,12.315564,10.837456,21.298452,-35.91319,-9.608891,1.9501244,-7.8458676,16.228956,-4.945073,-13.721679,26.643745,-3.97449,-0.7472656,-19.865578,-3.1661294
214,111.8199234008789,-66.1629638671875,72.58951568603516,3.967961188965419,-2.2720056070650045,-53.22138410689862,-13.096815,9.727111,-5.268391,80.434525,-18.028595,-2.4537182,-10.814881,5.150965,-8.335108,47.584717,-34.921917,-12.180281,-4.5989575,2.852851,12.306406,12.221706,21.459381,-35.284443,-9.913472,1.9340149,-7.708705,15.633766,-6.9464316,-13.387386,26.593359,-4.4103413,-1.7812645,-19.904953,-2.441865
215,112.35733032226562,-66.9561996459961,72.87244415283203,4.100251104098005,-2.2316750661739295,-54.22446449037632,-14.263996,9.510643,-4.8780622,79.37279,-18.187695,-2.4246833,-9.401208,5.519453,-7.266873,46.3018,-34.48487,-12.052827,-3.4261413,2.8844104,12.290195,13.552354,21.70994,-34.70411,-10.382963,1.844892,-7.569787,15.041911,-8.775545,-13.059461,26.508184,-4.9478264,-2.7129078,-19.94574,-1.7206655
216,112.90505981445312,-67.76858520507812,73.20814514160156,4.253167933920632,-2.2053174055999016,-55.14686155551396,-15.352591,9.231038,-4.55424,78.04415,-18.206108,-2.298342,-7.938648,5.7754383,-6.2675014,44.96621,-33.839058,-11.904978,-2.3224287,2.8723204,12.277378,14.827918,22.029507,-34.166008,-10.8927,1.6695678,-7.478233,14.48569,-10.432851,-12.753067,26.496254,-5.4740934,-3.2020946,-19.953438,-1.2333562
217,113.45091247558594,-68.59254455566406,73.58265686035156,4.424453442830665,-2.213862787167965,-55.97870401595378,-16.348087,8.894968,-4.289431,76.44772,-18.092228,-2.0112696,-6.3782206,5.918969,-5.3392835,43.527843,-32.96955,-11.730084,-1.2869424,2.8266132,12.282391,16.007906,22.40764,-33.69637,-11.405495,1.3580822,-7.4646654,13.959184,-11.894933,-12.477389,26.56887,-5.9906073,-3.1594064,-19.904694,-1.0758945
218,113.9884262084961,-69.44218444824219,73.9934310913086,4.616551080321286,-2.2465402615848427,-56.752122762404234,-17.240934,8.497397,-4.0540137,74.553406,-17.855654,-1.6453534,-4.7318397,5.96689,-4.44816,41.978325,-31.895273,-11.532814,-0.28433377,2.7555442,12.295165,17.089043,22.841736,-33.29478,-11.962023,0.93557864,-7.4949923,13.446915,-13.154993,-12.2355385,26.679026,-6.562406,-2.7639802,-19.8149,-1.1178209
219,114.53219604492188,-70.30876922607422,74.43248748779297,4.831069633999905,-2.264694846431448,-57.463795908837476,-18.054724,8.013119,-3.8785846,72.379944,-17.482075,-1.2885963,-3.1162477,5.916322,-3.626461,40.448948,-30.643427,-11.322841,0.6616525,2.6448774,12.289638,18.116285,23.315277,-32.91591,-12.543677,0.50258374,-7.5232115,12.966501,-14.231736,-12.034641,26.843834,-7.1754413,-2.079218,-19.700802,-1.2500615
220,115.09113311767578,-71.18940734863281,74.88819885253906,5.068405814024861,-2.229660061291902,-58.11004109118633,-18.814013,7.4212837,-3.797168,69.942894,-16.954391,-1.0259699,-1.6475061,5.769022,-2.907059,39.069466,-29.239788,-11.11028,1.5230075,2.478312,12.239711,19.132736,23.800735,-32.510265,-13.124654,0.16212125,-7.506018,12.535107,-15.147644,-11.884551,27.085823,-7.811582,-1.1686245,-19.57855,-1.363973
221,115.64501190185547,-72.07257843017578,75.363525390625,5.340921226463459,-2.125092111992727,-58.67599509015995,-19.549282,6.685231,-3.8403163,67.21521,-16.31303,-0.8035756,-0.34335268,5.50493,-2.309036,37.83709,-27.648367,-10.891268,2.2909453,2.2410622,12.132813,20.112173,24.276472,-32.081043,-13.664065,-0.053345412,-7.4289703,12.15596,-15.894273,-11.796197,27.42529,-8.469179,0.087374575,-19.441721,-1.4915208
222,116.18743896484375,-72.96895599365234,75.84387969970703,5.641702769349396,-1.9741420909250953,-59.167447286477895,-20.229013,5.830785,-3.9849968,64.19182,-15.553236,-0.59854424,0.8486772,5.1415625,-1.8142262,36.701756,-25.872993,-10.6630745,2.9805338,1.9494313,11.985044,21.018017,24.733952,-31.657024,-14.150224,-0.19351213,-7.318696,11.817585,-16.457418,-11.775052,27.847672,-9.164336,1.6785687,-19.287092,-1.6756482
223,116.73234558105469,-73.87118530273438,76.32815551757812,5.942163116536461,-1.7976036491718361,-59.61194715479767,-20.789253,4.936434,-4.193026,60.91243,-14.582463,-0.53835654,1.928291,4.7372513,-1.3983214,35.705513,-23.988775,-10.43581,3.6011453,1.6324697,11.813195,21.879023,25.164078,-31.227087,-14.602686,-0.27872747,-7.194567,11.516312,-16.850746,-11.819603,28.318857,-9.903519,3.3449266,-19.131508,-1.8215138
224,117.28137969970703,-74.77767181396484,76.8054428100586,6.213981340667585,-1.6157755155932434,-60.03802269410948,-21.174635,4.082509,-4.4331536,57.418747,-13.309075,-0.7495914,2.8947155,4.3486333,-1.0356219,34.890877,-22.06947,-10.219417,4.1600595,1.3177111,11.6317,22.728893,25.558006,-30.776114,-15.043522,-0.32947233,-7.0756297,11.247809,-17.094353,-11.922955,28.806406,-10.689276,4.827136,-18.984573,-1.8310784
225,117.8277587890625,-75.69221496582031,77.26689147949219,6.479841809592499,-1.415679032375071,-60.43845514055392,-21.369682,3.244719,-4.7340603,53.581345,-11.657845,-1.2610352,3.7322836,3.9488127,-0.73072475,34.25536,-20.066912,-10.03902,4.656997,0.9791641,11.427599,23.557913,25.907797,-30.30264,-15.454484,-0.3331786,-6.964142,11.007138,-17.177584,-12.083873,29.307938,-11.523649,6.1472626,-18.836353,-1.6554123
226,118.36990356445312,-76.6280746459961,77.71574401855469,6.74508590570483,-1.1930660403867988,-60.80395044005561,-21.397776,2.4041111,-5.125142,49.404724,-9.687559,-2.0020933,4.451296,3.5247898,-0.49102893,33.772884,-17.957605,-9.880335,5.087687,0.61279976,11.19642,24.344336,26.209965,-29.817463,-15.81716,-0.28240725,-6.851454,10.796716,-17.102552,-12.304774,29.836584,-12.397379,7.411152,-18.678438,-1.3529013
227,118.91661071777344,-77.58036041259766,78.13633728027344,6.958569884587957,-0.9818011638743899,-61.16128284641549,-21.263239,1.6468077,-5.5800705,45.11373,-7.505153,-2.9524126,5.0988917,3.1500874,-0.29209235,33.43353,-15.843608,-9.693729,5.453951,0.276854,10.963623,25.108784,26.465275,-29.320156,-16.158981,-0.20616144,-6.739739,10.623881,-16.912672,-12.581046,30.385027,-13.284643,8.484938,-18.522276,-0.9830195
228,119.46674346923828,-78.54096984863281,78.51203918457031,7.068937274868027,-0.8157488065799842,-61.53744376931201,-20.982067,1.0568235,-6.069257,40.946075,-5.219869,-4.0947123,5.7244754,2.899497,-0.10749423,33.22156,-13.82281,-9.4299,5.7569046,0.028495131,10.753161,25.877018,26.678102,-28.806799,-16.512932,-0.13461946,-6.63083,10.496455,-16.656103,-12.902464,30.947592,-14.152044,9.234093,-18.38449,-0.6031358
229,120.01223754882812,-79.50067138671875,78.84447479248047,7.054948475273322,-0.7079817003720339,-61.93800416359744,-20.51968,0.6479217,-6.666572,36.822784,-2.6207848,-5.5587687,6.366505,2.8050184,0.07250417,33.078953,-11.853394,-9.078954,5.9960127,-0.11272284,10.56446,26.668133,26.851688,-28.267786,-16.890034,-0.07759929,-6.524685,10.42453,-16.346619,-13.261887,31.534025,-14.986104,9.551724,-18.282932,-0.21550949
230,120.54820251464844,-80.47640991210938,79.13385772705078,6.943957278329757,-0.6413910108245495,-62.35213707690532,-19.877392,0.38876107,-7.4014325,32.64165,0.2685203,-7.3183365,7.0014772,2.8301804,0.2402035,33.012016,-9.892606,-8.663487,6.170391,-0.17652202,10.385188,27.47109,26.986671,-27.703526,-17.279678,-0.019379236,-6.4200873,10.401514,-15.969977,-13.656614,32.14446,-15.793625,9.532054,-18.209385,0.21082
231,121.0896224975586,-81.44954681396484,79.37191009521484,6.758673626884799,-0.6044764603313757,-62.78092540768321,-19.141739,0.2911817,-8.137166,28.631376,2.9870532,-9.116078,7.587461,2.9455068,0.3958456,33.09712,-8.044833,-8.184168,6.2819824,-0.17933354,10.221155,28.267908,27.084503,-27.125143,-17.68368,0.048043836,-6.317213,10.411283,-15.529529,-14.0809145,32.75796,-16.570631,9.342141,-18.142538,0.66801697
232,121.60987854003906,-82.41848754882812,79.55305480957031,6.521392449817054,-0.5843818850097053,-63.225154100748554,-18.41256,0.35971898,-8.68806,25.043463,5.0822334,-10.681519,8.079517,3.11993,0.53643316,33.41419,-6.416746,-7.6455817,6.3320856,-0.13823278,10.077272,29.040007,27.14744,-26.544758,-18.103285,0.13286974,-6.21611,10.438096,-15.028495,-14.527262,33.351738,-17.31334,9.148347,-18.058805,1.1479189
233,122.13258361816406,-83.37891387939453,79.67598724365234,6.201958129115797,-0.5719848080444813,-63.68404127231973,-17.711166,0.63324344,-8.971587,21.907429,6.3183703,-11.946608,8.458287,3.3872755,0.6517126,33.99206,-5.0633016,-7.0722923,6.3137426,-0.027914241,9.938666,29.818682,27.1737,-25.945543,-18.56286,0.25450018,-6.1058474,10.48448,-14.482165,-14.993129,33.936893,-18.020609,8.916505,-17.955067,1.663332
234,122.66259002685547,-84.331787109375,79.74222564697266,5.795754059062907,-0.5771017313882324,-64.15699095245907,-17.007725,1.0881282,-9.047658,19.132895,6.9757547,-13.04624,8.7369585,3.7525134,0.74262667,34.813847,-3.9303808,-6.4597335,6.2266874,0.15595531,9.806401,30.604769,27.161945,-25.32682,-19.057201,0.40268427,-5.989018,10.557093,-13.890329,-15.477469,34.518257,-18.687681,8.582907,-17.845226,2.2150853
235,123.18846893310547,-85.270263671875,79.7508773803711,5.372988964492984,-0.6123468493197138,-64.64085672688464,-16.327852,1.6103965,-8.929643,16.798615,7.3769727,-14.015213,8.92433,4.12972,0.8194562,35.879604,-2.9620273,-5.769573,6.0797644,0.3541778,9.706875,31.329851,27.11791,-24.726873,-19.53567,0.5402063,-5.8885293,10.646365,-13.234301,-15.975214,35.065186,-19.294308,8.265382,-17.728125,2.7769268
236,123.70684051513672,-86.19732666015625,79.71244812011719,5.0121228860913005,-0.687457994228751,-65.13023419900041,-15.704767,2.0732172,-8.647492,15.00045,7.8337913,-14.893891,9.022253,4.4260397,0.8919977,37.201645,-2.1090338,-4.960865,5.8816767,0.49769303,9.664622,31.9257,27.053646,-24.185333,-19.949955,0.6292517,-5.8255067,10.74421,-12.495548,-16.479465,35.54532,-19.819368,8.080929,-17.599949,3.3229525
237,124.22631072998047,-87.10918426513672,79.63507843017578,4.784946491877003,-0.8144140303713824,-65.60641043128598,-15.091328,2.364347,-7.92595,13.673859,8.597613,-15.000033,9.017479,4.574544,0.98802865,38.864162,-1.365468,-3.8963819,5.6124277,0.518913,9.703838,32.409477,26.97539,-23.691576,-20.318457,0.66054374,-5.8147254,10.850778,-11.673902,-16.984509,35.95694,-20.272312,8.086668,-17.45012,3.8766842
238,124.7513656616211,-88.00537872314453,79.51517486572266,4.650085641523912,-0.9784278713123358,-66.06653845356854,-14.505101,2.5463498,-6.926774,12.818494,9.442103,-15.000033,8.889148,4.620446,1.0834382,40.880978,-0.78209543,-2.6450715,5.2650948,0.44594738,9.7994585,32.807606,26.885616,-23.232155,-20.658632,0.651784,-5.841776,10.971328,-10.781716,-17.487709,36.312912,-20.650724,8.209279,-17.281443,4.441834
