unveil-humanoid-operators/unveil-humanoid-operators.github.io/feature-analysis-animation/data/feature_matrix_instances/gender_shoulder_mean_vel_jogging_A064_jog_ff_stop_360_006__A064.csv
Frame,root_translateX,root_translateY,root_translateZ,root_rotateX,root_rotateY,root_rotateZ,left_hip_pitch_joint_dof,left_hip_roll_joint_dof,left_hip_yaw_joint_dof,left_knee_joint_dof,left_ankle_pitch_joint_dof,left_ankle_roll_joint_dof,right_hip_pitch_joint_dof,right_hip_roll_joint_dof,right_hip_yaw_joint_dof,right_knee_joint_dof,right_ankle_pitch_joint_dof,right_ankle_roll_joint_dof,waist_yaw_joint_dof,waist_roll_joint_dof,waist_pitch_joint_dof,left_shoulder_pitch_joint_dof,left_shoulder_roll_joint_dof,left_shoulder_yaw_joint_dof,left_elbow_joint_dof,left_wrist_roll_joint_dof,left_wrist_pitch_joint_dof,left_wrist_yaw_joint_dof,right_shoulder_pitch_joint_dof,right_shoulder_roll_joint_dof,right_shoulder_yaw_joint_dof,right_elbow_joint_dof,right_wrist_roll_joint_dof,right_wrist_pitch_joint_dof,right_wrist_yaw_joint_dof
0,0.3799060881137848,-2.7703845500946045,72.79851531982422,3.5061896151217993,-9.498447825616296,92.24800783561832,-4.2820644,-2.0714307,11.953106,49.612015,-29.939777,4.9333243,-9.130183,-23.383532,-13.268681,85.76802,-26.41824,-6.8142877,0.87695557,-1.0041555,19.74265,30.333364,6.994576,-12.128906,-22.200466,19.415993,-1.8166459,18.26494,1.2665651,-14.025011,27.454588,-19.568336,-17.876434,-6.2982683,-16.217438
1,0.37618324160575867,-4.060584545135498,73.10940551757812,3.750575453810427,-9.635559066820651,91.76621278293102,-4.6276517,-2.281858,12.3820715,48.01178,-28.274363,4.862415,-7.3840327,-22.871332,-12.782559,84.53402,-25.262127,-5.0251365,1.7509173,-0.85550296,19.799622,32.090042,7.0886927,-12.155622,-22.310654,18.81753,-1.6664842,18.81611,-0.8983311,-14.139905,28.396965,-18.712097,-17.860142,-6.466652,-16.206985
2,0.3650990128517151,-5.37050724029541,73.45655822753906,4.013678056308712,-9.793643012809179,91.27199126345194,-4.973315,-2.4997976,12.81789,46.467655,-26.667938,4.8036976,-5.5929875,-22.335802,-12.239441,83.33401,-24.180689,-3.156739,2.6458323,-0.7110141,19.882742,33.87477,7.209623,-12.195899,-22.439503,18.19451,-1.5197698,19.384104,-3.0450642,-14.252081,29.39986,-17.887812,-17.839228,-6.6386957,-16.206654
3,0.35570940375328064,-6.713037014007568,73.83927154541016,4.237728169577979,-9.901316015644202,90.79702980434303,-5.3282394,-2.6683812,13.209315,44.81218,-24.954027,4.716406,-3.8321073,-21.775341,-11.785663,82.03115,-23.083817,-1.4409606,3.523839,-0.54019946,19.918192,35.600723,7.34446,-12.236702,-22.547642,17.556704,-1.3842852,19.935354,-5.0764236,-14.340672,30.387903,-17.150719,-17.770409,-6.8014584,-16.225271
4,0.36369195580482483,-8.049373626708984,74.27913665771484,4.365168690665042,-9.888162959333055,90.37386881861804,-5.6987367,-2.7371023,13.501397,42.87408,-22.963724,4.560609,-2.1869686,-21.192118,-11.556808,80.48641,-21.869135,-0.11194088,4.3291445,-0.33030698,19.83329,37.21124,7.488705,-12.240862,-22.628405,16.902681,-1.2681665,20.43505,-6.908199,-14.393745,31.307049,-16.552282,-17.611853,-6.9390445,-16.281519
5,0.40954235196113586,-9.39252758026123,74.75952911376953,4.3981652508676525,-9.7343241575506,90.02039563286755,-6.0732226,-2.739316,13.652774,40.565445,-20.667036,4.343389,-0.67487705,-20.662664,-11.636824,78.66267,-20.448837,0.673794,5.0430255,-0.09981355,19.598341,38.69721,7.6459355,-12.194184,-22.668926,16.23308,-1.1638131,20.874414,-8.555182,-14.410551,32.138226,-16.077145,-17.316793,-7.0410852,-16.395763
6,0.48259255290031433,-10.742813110351562,75.26936340332031,4.360536263910612,-9.479192286623592,89.71705086166286,-6.450213,-2.7012448,13.695164,37.98847,-18.147106,4.0812225,0.7328177,-20.172335,-11.92622,76.641716,-18.878912,1.0700965,5.6939025,0.1397473,19.253069,40.096348,7.8161693,-12.109939,-22.68227,15.550341,-1.0686148,21.271763,-10.068485,-14.394357,32.901752,-15.6870775,-16.928143,-7.11897,-16.549728
7,0.590633749961853,-12.104289054870605,75.79876708984375,4.229442989496615,-9.14174709425045,89.4398570784594,-6.8575006,-2.5645182,13.676291,35.26563,-15.408076,3.7483761,2.0112655,-19.59051,-12.274247,74.47048,-17.270233,1.3095878,6.2939496,0.4077107,18.82806,41.42466,7.988364,-11.989918,-22.71248,14.854786,-0.99795955,21.632034,-11.429185,-14.346133,33.60111,-15.395226,-16.533876,-7.1883664,-16.70562
8,0.7075314521789551,-13.492342948913574,76.3358154296875,3.981713029732193,-8.740711453325531,89.16488673695659,-7.3267965,-2.2651117,13.636772,32.5209,-12.45316,3.3185923,3.139502,-18.783304,-12.524889,72.18578,-15.736405,1.6279967,6.853463,0.72432494,18.351902,42.69386,8.144992,-11.83691,-22.792118,14.1493845,-0.96770555,21.958637,-12.617393,-14.264895,34.242584,-15.214442,-16.222986,-7.263911,-16.825657
9,0.8328316807746887,-14.898594856262207,76.8689956665039,3.5781818347733325,-8.246460280901621,88.87936079636437,-7.8987617,-1.7265546,13.598153,29.74328,-9.203452,2.8746026,4.095506,-17.699156,-12.686032,69.72819,-14.263751,2.0889237,7.383817,1.1264691,17.789059,43.9042,8.266815,-11.627783,-22.916826,13.41398,-0.9957458,22.229263,-13.6387,-14.150167,34.834946,-15.141256,-16.019302,-7.3471813,-16.920313
10,0.9976333975791931,-16.285400390625,77.40572357177734,3.051029828943907,-7.660711748362832,88.59739822533037,-8.571207,-1.0131708,13.509741,26.916443,-5.6961246,2.3995302,4.8967814,-16.424488,-12.819448,67.09802,-12.802529,2.5723612,7.864497,1.5825913,17.134094,45.04913,8.347118,-11.364153,-23.066221,12.660869,-1.068822,22.444666,-14.520559,-14.004631,35.378056,-15.151722,-15.8781,-7.429932,-17.003407
11,1.1875760555267334,-17.73504066467285,77.9091567993164,2.4775709289252763,-7.049596098045813,88.33420173111517,-9.289948,-0.25872338,13.289112,24.121304,-2.100846,1.713802,5.594271,-15.0276,-12.851794,64.405876,-11.4109745,3.0319622,8.261388,2.020096,16.464453,46.13203,8.392887,-11.087884,-23.24969,11.940513,-1.1562921,22.643198,-15.270171,-13.831705,35.861904,-15.233191,-15.782129,-7.5116024,-17.042597
12,1.4027354717254639,-19.201190948486328,78.3669662475586,1.9285830772347092,-6.480432804467079,88.10560092276101,-9.97991,0.41386318,12.840673,21.407114,1.433302,0.62728834,6.2384286,-13.576947,-12.711459,61.770275,-10.151841,3.4140918,8.543502,2.3769276,15.862859,47.16078,8.421973,-10.840498,-23.4894,11.300228,-1.2276957,22.866095,-15.885125,-13.635127,36.273438,-15.385363,-15.713945,-7.591594,-17.005518
13,1.6159895658493042,-20.67058753967285,78.767333984375,1.3718320894675107,-5.94640657467244,87.89137595993557,-10.577053,1.0088674,12.017232,18.445786,5.246557,-1.0288132,6.810398,-11.992527,-12.322667,59.188763,-9.063104,3.7166924,8.716905,2.670872,15.334408,48.193066,8.435378,-10.609523,-23.83474,10.744312,-1.2910781,23.148708,-16.353241,-13.415663,36.599724,-15.640584,-15.689875,-7.672992,-16.846277
14,1.8311941623687744,-22.149887084960938,79.09048461914062,0.7691558231651281,-5.423507431678309,87.6890109304585,-11.085529,1.6155467,10.815092,15.253545,9.288515,-3.1557434,7.3202763,-10.259311,-11.751437,56.592125,-8.094654,3.9560525,8.795321,2.9450922,14.845853,49.214725,8.432392,-10.379966,-24.270647,10.24798,-1.356793,23.463356,-16.679096,-13.175572,36.847492,-15.989771,-15.7108,-7.7547617,-16.594324
15,2.056687593460083,-23.61751365661621,79.32969665527344,0.17349600808069163,-4.956025994134938,87.53491068916912,-11.521035,2.2438617,9.436479,12.376195,12.842557,-5.5239806,7.8486853,-8.527961,-11.132539,54.016663,-7.182362,4.099122,8.768719,3.1938155,14.428003,50.13242,8.440585,-10.18931,-24.73309,9.811054,-1.396957,23.759134,-16.877722,-12.924174,37.032974,-16.380413,-15.738476,-7.8300805,-16.328907
16,2.258183717727661,-25.105899810791016,79.51473236083984,-0.3462552731237513,-4.586114209568616,87.46698996481076,-11.924372,2.8518503,8.205778,10.373332,15.233394,-7.8589168,8.460944,-6.962372,-10.595823,51.503365,-6.26595,4.117838,8.638834,3.3926423,14.11482,50.85186,8.506724,-10.079963,-25.164404,9.426984,-1.3821704,23.988705,-16.95258,-12.676433,37.1602,-16.77001,-15.73263,-7.8919015,-16.130175
17,2.4497478008270264,-26.60408592224121,79.6178970336914,-0.7804371045784699,-4.327224429804474,87.51046378480713,-12.28676,3.404567,7.3372355,9.35322,16.151094,-10.298613,9.158283,-5.54993,-10.112239,49.066666,-5.2745733,3.9499114,8.403154,3.5228224,13.924611,51.376034,8.673945,-10.079154,-25.599293,9.050221,-1.2768013,24.181143,-16.86599,-12.447434,37.20987,-17.233667,-15.672059,-7.93175,-16.01382
18,2.65061354637146,-28.07883644104004,79.63358306884766,-1.118978621311038,-4.150351045658234,87.64741246389463,-12.649614,3.8701131,6.773608,9.114233,15.991238,-12.862467,9.892061,-4.274617,-9.629826,46.708054,-4.268444,3.6400385,8.086583,3.5507061,13.8413925,51.736042,8.956715,-10.166588,-26.059374,8.682992,-1.1027635,24.358433,-16.599665,-12.2471485,37.158684,-17.80125,-15.580617,-7.956165,-15.940209
19,2.859398126602173,-29.575897216796875,79.58509826660156,-1.2510171095035711,-4.025940663255132,87.86906528717846,-13.148609,4.13759,6.481822,9.752886,15.177464,-15.000033,10.621574,-3.3367517,-9.257703,44.48913,-3.410514,3.3370283,7.7127876,3.3899155,13.84231,51.87368,9.353769,-10.312467,-26.456108,8.392527,-0.916363,24.459852,-16.186047,-12.082028,37.00887,-18.367321,-15.488153,-7.980958,-15.906359
20,3.0241901874542236,-31.06792640686035,79.49005126953125,-1.0294105127633975,-3.9260269538912826,88.19905290490702,-13.767753,4.000635,6.6813726,11.044413,14.296136,-15.000033,11.289158,-2.9913688,-9.124803,42.531147,-2.9051468,3.22199,7.26784,2.9312358,13.906582,51.749077,9.851103,-10.491619,-26.713228,8.251218,-0.7732373,24.421906,-15.666377,-11.956949,36.770992,-18.81343,-15.422969,-8.020672,-15.90696
21,3.1743650436401367,-32.56981658935547,79.34442901611328,-0.6615403656310626,-3.877721938330063,88.58595359098663,-14.845298,3.7836177,6.54146,13.809338,13.0250225,-15.000033,12.006095,-2.9940636,-9.3453245,40.600376,-2.4353855,3.2320921,6.819586,2.3855436,14.027193,51.26235,10.454358,-10.722008,-26.73815,8.298233,-0.70479846,24.207335,-15.018472,-11.87144,36.431545,-19.130507,-15.394291,-8.079905,-15.9590845
22,3.34243106842041,-34.064517974853516,79.14630126953125,-0.2184780827670897,-3.8946075739364203,89.02764701465476,-16.221518,3.5392406,6.207875,17.775032,11.268512,-15.000033,12.774456,-3.2064323,-9.84156,38.68669,-1.9955784,3.3050368,6.364898,1.8071909,14.205676,50.47273,11.16772,-11.025794,-26.598427,8.4894905,-0.6753541,23.8572,-14.223244,-11.82822,35.987816,-19.380259,-15.384836,-8.149761,-16.057735
23,3.4883041381835938,-35.605709075927734,78.8850326538086,0.20445695928254198,-3.9507687445436837,89.40588709719778,-17.688177,3.395034,5.864476,22.382845,9.235736,-15.000033,13.504893,-3.4261026,-10.4000225,36.823685,-1.9833103,3.398371,5.979494,1.2679894,14.404578,49.54338,11.960205,-11.36565,-26.43207,8.776758,-0.64303327,23.41885,-13.330755,-11.832077,35.473476,-19.557722,-15.385635,-8.226831,-16.17197
24,3.5971038341522217,-37.16117858886719,78.54476928710938,0.5695295097578398,-4.008649945538622,89.61135774510124,-19.073435,3.4408288,5.722192,27.14911,7.0941806,-15.000033,14.088122,-3.544462,-10.804238,35.074615,-2.8151982,3.4650888,5.71536,0.77991664,14.592473,48.626293,12.77693,-11.687424,-26.362015,9.120331,-0.5679896,22.932312,-12.400781,-11.883138,34.935974,-19.649527,-15.38692,-8.308406,-16.274412
25,3.6650967597961426,-38.726829528808594,78.10807800292969,0.9566779468375736,-4.019521739500635,89.62484433015506,-20.433393,3.6622965,5.9416165,32.147785,4.782509,-14.76717,14.521255,-3.6509058,-11.016386,33.33719,-4.812525,3.4704266,5.5688977,0.2782894,14.735002,47.711258,13.581721,-11.974326,-26.39181,9.583083,-0.4319126,22.310171,-11.46075,-11.977236,34.380238,-19.606375,-15.382259,-8.409604,-16.335978
26,3.7613227367401123,-40.29031753540039,77.61691284179688,1.4801372350543054,-4.0103828611340875,89.54764638829782,-21.714378,3.9276433,6.563181,37.35127,2.3496788,-13.809523,14.812058,-3.9630637,-11.171636,31.744453,-7.7566075,3.4309947,5.4471326,-0.33655456,14.8698435,46.73051,14.3642,-12.245025,-26.452402,10.178301,-0.26679787,21.550947,-10.492554,-12.108514,33.806793,-19.433756,-15.376353,-8.525799,-16.381016
27,3.873042345046997,-41.811363220214844,77.11060333251953,1.9121192867412182,-4.06006554046787,89.33964758859385,-22.80718,4.4292746,7.190092,42.649014,-0.13936417,-12.806241,14.94259,-4.220421,-11.235934,30.449812,-11.095837,3.2965717,5.3681097,-0.86569077,15.059876,45.74814,15.103221,-12.485273,-26.55484,10.792206,-0.10503984,20.822618,-9.4993725,-12.270864,33.26635,-19.194427,-15.376133,-8.625357,-16.463614
28,4.003856658935547,-43.29289627075195,76.60102844238281,2.0941355994495336,-4.245828592312785,88.99002591865008,-23.56254,5.2554092,7.6178446,47.82221,-2.5474482,-11.960152,14.870914,-4.2320185,-11.181913,29.657616,-14.322158,3.1072812,5.3141017,-1.1801429,15.371673,44.83356,15.768278,-12.676471,-26.716305,11.31225,0.026962718,20.292686,-8.495799,-12.458159,32.81876,-18.939278,-15.387385,-8.676588,-16.637012
29,4.123616695404053,-44.761722564697266,76.05950164794922,1.9448609103424446,-4.643604853285246,88.49578369112042,-23.941467,6.5051126,7.80892,52.994305,-4.925529,-11.337322,14.644564,-3.8810225,-10.960901,29.390419,-17.526365,2.986368,5.2496023,-1.1998016,15.862376,44.03553,16.335112,-12.793883,-26.9711,11.794021,0.122938834,19.998623,-7.532081,-12.663688,32.5292,-18.622778,-15.348411,-8.653704,-16.96592
30,4.213313102722168,-46.237205505371094,75.49443817138672,1.5631488378701701,-5.20099194153709,87.86584772238038,-24.00779,8.101284,7.8644533,58.220432,-7.3233256,-10.83023,14.250526,-3.269397,-10.595336,29.572594,-20.924154,2.8971221,5.1677294,-1.0026081,16.481745,43.31142,16.791975,-12.837967,-27.29119,12.278908,0.1991417,19.847923,-6.6174226,-12.881458,32.3743,-18.20083,-15.277697,-8.579689,-17.405706
31,4.322598934173584,-47.724002838134766,74.93559265136719,1.06459624216549,-5.803013835084491,87.10852347801351,-23.791086,9.843281,7.8184123,63.206978,-9.593064,-10.391986,13.574127,-2.5200148,-10.162874,30.226406,-24.184336,2.6919723,5.0946236,-0.69676423,17.135435,42.588184,17.130398,-12.831097,-27.59064,12.631037,0.26707906,19.814373,-5.6965156,-13.107292,32.280193,-17.726988,-15.303398,-8.494768,-17.84611
32,4.448304653167725,-49.19676208496094,74.4065933227539,0.5632167514437112,-6.330583497775474,86.22938372051895,-23.339973,11.51685,7.7154803,67.67831,-11.5901785,-9.981256,12.514956,-1.7531074,-9.737101,31.347202,-26.957792,2.229544,5.0614142,-0.39307296,17.7294,41.790054,17.346394,-12.799559,-27.782316,12.713189,0.3376516,19.872782,-4.7055016,-13.339725,32.169044,-17.267487,-15.553959,-8.43717,-18.176395
33,4.574831008911133,-50.65617370605469,73.92369079589844,0.04201130778109099,-6.77398969864425,85.11810224503525,-22.62598,13.187546,7.6080365,71.650154,-13.301686,-9.600967,10.955501,-0.9422254,-9.309688,33.120747,-29.191362,1.3936938,5.1608934,-0.073392,18.269905,40.897186,17.42502,-12.745235,-27.830463,12.388244,0.35649574,20.07715,-3.6578934,-13.580118,32.039543,-16.805536,-16.143501,-8.4089985,-18.366955
34,4.672032356262207,-52.103572845458984,73.48274230957031,-0.5403625346372458,-7.196825339022143,83.80925424418415,-21.634787,14.905299,7.498176,75.26353,-14.796733,-9.285651,9.006195,-0.028737675,-8.858072,35.462166,-31.058825,0.29706815,5.339491,0.30923048,18.794111,39.945545,17.362017,-12.650035,-27.777037,11.766567,0.33385006,20.418766,-2.5872076,-13.829099,31.934797,-16.306967,-16.977196,-8.391184,-18.477238
35,4.735918998718262,-53.56296157836914,73.09902954101562,-1.105421921725503,-7.578628214612374,82.51454266920439,-20.448637,16.42529,7.3688903,78.42481,-16.044418,-9.035826,6.916957,0.8973913,-8.4313345,37.91587,-32.518684,-0.8569138,5.4297805,0.6680859,19.256863,38.945217,17.182901,-12.516461,-27.659575,11.077193,0.3790464,20.780952,-1.4461672,-14.084882,31.833998,-15.824166,-17.870676,-8.391125,-18.529594
36,4.797094821929932,-54.99932098388672,72.77867889404297,-1.5746073765545472,-7.889871892156762,81.44592568245052,-19.173578,17.512707,7.1846595,81.048195,-17.019505,-8.843508,4.919181,1.7387772,-8.079887,40.037334,-33.520813,-1.851366,5.279649,0.91144013,19.616531,37.906902,16.935247,-12.35768,-27.525043,10.540427,0.6076838,21.054691,-0.1711016,-14.3449335,31.69932,-15.424608,-18.638374,-8.416995,-18.545265
37,4.826756954193115,-56.43220520019531,72.52381134033203,-1.9178444499236385,-8.074057283872882,80.61884346642209,-17.868557,18.086477,6.938581,83.11839,-17.692318,-8.71171,2.9356506,2.4589005,-7.790653,41.842003,-33.980927,-2.636301,4.8878646,0.99156094,19.834742,36.82898,16.645254,-12.18159,-27.391346,10.175112,1.1444552,21.236612,1.2925855,-14.605534,31.497002,-15.128356,-19.302917,-8.47883,-18.494333
38,4.852138996124268,-57.80752944946289,72.35157775878906,-2.1812889257024204,-8.154833771038923,79.93124374543929,-16.497585,18.280394,6.6487026,84.70444,-18.082754,-8.6368685,0.88309216,3.0950758,-7.5627165,43.51157,-33.936405,-3.3102593,4.3472114,0.9575982,19.94245,35.706768,16.319344,-11.991442,-27.242176,9.862495,1.9000659,21.38818,2.9212086,-14.864714,31.231087,-14.917419,-19.93823,-8.572906,-18.376879
39,4.861354827880859,-59.14145278930664,72.25485229492188,-2.4049712808457167,-8.219313933893577,79.4197568741243,-15.034137,18.194326,6.299003,85.8437,-18.241268,-8.595499,-1.0287414,3.654472,-7.451305,44.86315,-33.51924,-3.8727722,3.6530147,0.86420554,20.003342,34.544388,15.983967,-11.80109,-27.074974,9.615769,2.6730866,21.496927,4.6754117,-15.121587,30.912476,-14.819698,-20.435877,-8.685106,-18.25871
40,4.8676533699035645,-60.4687385559082,72.23040008544922,-2.625666695201268,-8.35536908531091,79.12132839240964,-13.447818,17.931591,5.872533,86.570274,-18.218637,-8.564689,-2.5913253,4.1445656,-7.503072,45.720535,-32.868214,-4.3322034,2.80889,0.76327777,20.08345,33.348526,15.678514,-11.630615,-26.892576,9.445476,3.26277,21.552052,6.524735,-15.376072,30.54579,-14.868418,-20.687393,-8.800085,-18.2047
41,4.846406936645508,-61.75474548339844,72.2785415649414,-2.861909205332887,-8.625908175790835,79.11530020938972,-11.685258,17.414837,5.259686,86.87498,-17.983173,-8.535582,-3.6964111,4.547538,-7.7702518,46.043583,-32.00055,-4.6648645,1.7579563,0.6578571,20.237347,32.108578,15.437802,-11.490384,-26.68444,9.382904,3.5967581,21.55223,8.522067,-15.627834,30.120241,-15.130756,-20.575022,-8.910808,-18.228659
42,4.8403401374816895,-63.023948669433594,72.39274597167969,-3.093431773151715,-8.966909433027627,79.35898337742582,-9.784219,16.641705,4.487372,86.75435,-17.52221,-8.517176,-4.4808383,4.854118,-8.20155,45.931843,-30.855118,-4.8749385,0.54298556,0.5194182,20.417711,30.820469,15.269759,-11.390794,-26.461697,9.398158,3.7908351,21.511251,10.696874,-15.870792,29.61588,-15.603237,-20.182472,-9.027672,-18.296598
43,4.8224263191223145,-64.28450012207031,72.5733642578125,-3.301183476525251,-9.27757401245609,79.70773047275074,-7.847187,15.821177,3.7494018,86.24267,-16.913034,-8.512613,-5.0963216,5.090008,-8.687127,45.41541,-29.452976,-5.0234365,-0.68926126,0.3535001,20.53554,29.502758,15.167493,-11.346379,-26.256481,9.413027,3.9262798,21.438042,12.970611,-16.09517,29.03237,-16.197971,-19.70527,-9.160769,-18.400307
44,4.814129829406738,-65.55657196044922,72.82579040527344,-3.4615888354334565,-9.458558100807217,80.01584163144084,-5.9832854,15.149405,3.2473032,85.37294,-16.233923,-8.524675,-5.6918273,5.2832847,-9.122735,44.527493,-27.816233,-5.175359,-1.8021762,0.1711168,20.499866,28.181437,15.115374,-11.36122,-26.100819,9.354858,4.0840497,21.338892,15.248812,-16.291004,28.378065,-16.806717,-19.342096,-9.318961,-18.530779
45,4.810560703277588,-66.79710388183594,73.15672302246094,-3.590767685359495,-9.48145826258233,80.28060463454838,-4.2128744,14.676008,3.0106943,84.11854,-15.438353,-8.572049,-6.2613792,5.462154,-9.541892,43.19866,-25.945625,-5.3603325,-2.8059466,-0.0110428855,20.267109,26.851469,15.107218,-11.431476,-25.982782,9.290405,4.310461,21.21606,17.52101,-16.454561,27.652378,-17.408325,-19.10965,-9.52082,-18.690195
46,4.797329902648926,-68.06527709960938,73.54434967041016,-3.6919856017646464,-9.399406789823294,80.56767029328788,-2.4835875,14.283417,2.9412975,82.476654,-14.510405,-8.648976,-6.734968,5.6144943,-9.986376,41.43701,-23.835363,-5.546851,-3.7676423,-0.19371629,19.88633,25.506222,15.142779,-11.554505,-25.885544,9.23372,4.5534883,21.063492,19.823038,-16.580011,26.86578,-18.041538,-18.914696,-9.755733,-18.881605
47,4.751277446746826,-69.33172607421875,73.96991729736328,-3.723404904030224,-9.237542073109386,80.83312514760927,-0.799641,13.906235,3.0531502,80.515144,-13.575212,-8.725652,-7.168113,5.709434,-10.367723,39.39337,-21.493183,-5.7085295,-4.642792,-0.39236963,19.405361,24.17862,15.211162,-11.723925,-25.849651,9.035621,4.747547,20.874783,22.11459,-16.653252,26.047686,-18.672644,-18.793922,-9.987591,-19.098467
48,4.695598125457764,-70.59444427490234,74.44454193115234,-3.6427084250490456,-9.021577159664991,81.03389348674801,0.8388107,13.477249,3.359742,78.29075,-12.753782,-8.772668,-7.6155214,5.707987,-10.589969,37.21528,-18.922895,-5.818037,-5.397666,-0.6320699,18.871597,22.907806,15.291879,-11.918338,-25.916822,8.550532,4.8274736,20.639841,24.335056,-16.655071,25.235556,-19.248198,-18.788008,-10.179074,-19.335367
49,4.619542598724365,-71.85692596435547,74.94921875,-3.430776729754054,-8.752348242066445,81.1428906107463,2.4850068,13.0104685,3.9567242,75.713905,-12.110535,-8.769471,-8.072913,5.6035995,-10.5739,34.89065,-16.118109,-5.91013,-5.9965405,-0.9212389,18.268969,21.665462,15.38759,-12.170322,-26.09129,7.5757766,4.787238,20.356136,26.487333,-16.575232,24.410427,-19.728209,-18.95116,-10.306864,-19.626722
50,4.523993492126465,-73.1401138305664,75.47570037841797,-3.1137432280907067,-8.418073679844312,81.18905225493647,4.1292076,12.505738,4.809165,72.7809,-11.572438,-8.750802,-8.528531,5.424189,-10.388617,32.374065,-13.087541,-5.9866266,-6.481488,-1.2543631,17.579956,20.456993,15.495941,-12.455257,-26.361078,6.2494135,4.6623745,20.019892,28.562845,-16.410553,23.579782,-20.118362,-19.255917,-10.39219,-19.964586
51,4.413111686706543,-74.48125457763672,76.00379180908203,-2.723214140595142,-8.025171721423348,81.21383115241284,5.671051,11.889646,5.727174,69.674675,-11.046977,-8.763764,-9.026314,5.1734886,-10.145249,29.760088,-9.84836,-5.9701695,-6.8853436,-1.6140474,16.852842,19.319218,15.607082,-12.727433,-26.70825,4.9341,4.452019,19.633915,30.538359,-16.159105,22.754324,-20.482107,-19.613478,-10.470734,-20.266891
52,4.290603160858154,-75.81597900390625,76.53380584716797,-2.2907713975121413,-7.580558317315027,81.25825370473552,7.0049,11.109513,6.515841,66.57998,-10.441332,-8.844111,-9.605087,4.8476286,-9.941831,27.137594,-6.4095483,-5.781243,-7.249349,-1.9826286,16.13563,18.293179,15.702732,-12.933388,-27.116453,3.995153,4.1495037,19.19946,32.381718,-15.819525,21.955027,-20.876558,-19.93699,-10.579763,-20.453812
53,4.148168563842773,-77.1837387084961,77.04466247558594,-1.798390217299603,-7.0552361470476646,81.31734442825672,8.108715,10.148023,7.182115,63.42952,-9.763808,-9.037382,-10.382681,4.426816,-9.697538,24.568014,-2.5729527,-5.7218056,-7.5675325,-2.3660376,15.410042,17.36533,15.767427,-13.046949,-27.57805,3.553303,3.7216823,18.6541,34.12065,-15.384918,21.141296,-21.334288,-20.229958,-10.731943,-20.462507
54,3.9916038513183594,-78.5863037109375,77.52893829345703,-1.2600045769069348,-6.45155592394776,81.37543870061101,9.029496,9.065964,7.802014,60.165943,-9.05672,-9.314793,-11.330371,3.9130378,-9.38776,22.044985,1.5805118,-5.721626,-7.823975,-2.7450743,14.660763,16.508684,15.79969,-13.099617,-28.087132,3.4108298,3.177559,18.01431,35.74856,-14.856874,20.314608,-21.81213,-20.53395,-10.908345,-20.348694
55,3.8216888904571533,-80.0235824584961,77.9593505859375,-0.7191425229965932,-5.830442616911669,81.45433206174408,9.781948,7.905194,8.293436,56.96403,-8.264093,-9.581556,-12.20056,3.3342917,-9.113728,19.43371,5.6672854,-5.129708,-8.040342,-3.1026392,13.942787,15.747241,15.805311,-13.125318,-28.635117,3.4548616,2.5700696,17.401329,37.190994,-14.258186,19.557121,-22.25996,-20.819456,-11.099318,-20.209618
56,3.6128969192504883,-81.4777603149414,78.32040405273438,-0.18505561141047117,-5.264286867930249,81.5880657409517,10.395544,6.676069,8.56637,53.98866,-7.3230553,-9.730237,-12.662188,2.7308035,-8.914986,16.438084,9.380018,-3.2789526,-8.25248,-3.4579673,13.321084,15.11476,15.794824,-13.154628,-29.224527,3.5730305,1.9550154,16.934885,38.389942,-13.630146,18.949076,-22.64437,-21.055529,-11.2935,-20.1435
57,3.3993899822235107,-82.9227294921875,78.59817504882812,0.4975137216570002,-4.77046166435547,81.84447357402519,10.890336,5.167033,8.527255,51.17067,-6.138232,-9.785463,-12.319931,1.9572952,-8.852802,12.232839,13.014478,0.73383564,-8.531488,-3.9731188,12.800151,14.665174,15.777965,-13.174523,-29.92513,3.7685869,1.3025414,16.631533,39.414803,-12.996322,18.506435,-23.03489,-21.213438,-11.513118,-20.193815
58,3.1744134426116943,-84.36575317382812,78.79558563232422,1.4943860630397625,-4.3472032143885,82.22377359247557,11.336852,3.2084563,8.238869,48.323246,-4.689089,-9.727818,-11.369727,0.8518499,-8.750756,7.0952024,16.640352,6.3818736,-8.883536,-4.813614,12.353725,14.406222,15.764254,-13.158654,-30.763037,4.0874653,0.59925,16.43203,40.31827,-12.367368,18.19912,-23.486565,-21.314037,-11.752095,-20.306461
59,2.993142604827881,-85.87127685546875,78.95391845703125,2.5813410156729106,-4.016706970327574,82.62986233640784,11.763209,1.1491488,7.8350224,45.583603,-3.100382,-9.441543,-11.831881,-0.56761724,-8.453083,5.4824295,17.979624,12.10371,-9.219962,-5.762024,12.01993,14.283792,15.755624,-13.127474,-31.653011,4.481255,-0.0742502,16.348783,40.998985,-11.775567,18.023424,-23.915237,-21.393269,-11.957841,-20.433508
60,2.8100831508636475,-87.37735748291016,79.03294372558594,3.271384642248162,-3.7652585881013256,82.89614668787634,12.074397,-0.34651238,7.495047,43.33143,-1.6466544,-8.888593,-12.686819,-1.475999,-8.249249,5.3066463,18.257019,15.000033,-9.385223,-6.3395243,11.857455,14.226723,15.740394,-13.102847,-32.484806,4.9030433,-0.63953286,16.395945,41.332104,-11.265154,17.966326,-24.21723,-21.47936,-12.078239,-20.529957
61,2.6411895751953125,-88.91246795654297,79.0615234375,3.406892521062454,-3.5768478177357297,82.95883073983609,12.109495,-1.1199806,7.2250123,41.88711,-0.17883715,-7.946731,-13.299204,-1.5551723,-7.993696,5.250197,18.120642,15.000033,-9.327663,-6.370188,11.894794,14.237504,15.702384,-13.071084,-33.27867,5.3985195,-1.0649576,16.606024,41.269825,-10.87094,18.043581,-24.3993,-21.583233,-12.041032,-20.596073
62,2.4354982376098633,-90.44071960449219,79.06018829345703,3.29396945909609,-3.453620492038033,82.97973045964707,11.933381,-1.585536,6.9616747,40.948353,1.4122986,-6.6106534,-13.681898,-1.2903486,-7.227503,5.316727,17.537884,15.000033,-9.218789,-6.1359353,12.077899,14.337186,15.625167,-13.016542,-34.05576,5.977777,-1.3971184,16.96666,40.85411,-10.60361,18.246822,-24.481445,-21.671312,-11.891985,-20.66056
63,2.2202343940734863,-91.98887634277344,79.03494262695312,2.9598851806082274,-3.372573521053152,82.94963665348249,11.672929,-1.6865157,6.8942885,40.253853,2.5808883,-5.122797,-13.870671,-0.7782617,-6.378455,5.482684,16.796946,15.000033,-9.057127,-5.6739087,12.357604,14.512324,15.511239,-12.947406,-34.742493,6.5414796,-1.6716746,17.4133,40.13664,-10.473227,18.544266,-24.422201,-21.707048,-11.752793,-20.721575
64,2.006394863128662,-93.52938842773438,78.95659637451172,2.4425426414389775,-3.3180805343830198,82.86495075091315,11.472269,-1.3979385,7.1670094,39.526695,2.78267,-3.7423048,-13.875371,-0.14180192,-5.86591,5.686602,16.215849,15.000033,-8.840596,-5.036112,12.685605,14.728484,15.346421,-12.873117,-35.24311,6.9990077,-1.9273092,17.868326,39.14756,-10.453263,18.907099,-24.141521,-21.672188,-11.746574,-20.770962
65,1.7816107273101807,-95.09246826171875,78.80601501464844,1.7032082735487797,-3.2846615531129952,82.70265266307298,11.40449,-0.6348494,7.897564,38.60982,1.8213476,-2.4086173,-14.360549,0.55031925,-5.6115565,7.365132,15.062272,15.000033,-8.559468,-4.1987295,13.068646,15.008281,15.14014,-12.783614,-35.569084,7.299237,-2.1804473,18.337523,37.82353,-10.561708,19.367493,-23.564165,-21.578587,-11.96047,-20.835915
66,1.573663592338562,-96.68158721923828,78.60710906982422,0.8379530495451757,-3.2925907025406485,82.48507609084756,11.422125,0.40765476,8.939551,37.60671,0.0331342,-1.0585784,-16.408916,1.0906875,-5.398018,12.903355,11.9227085,15.000033,-8.246461,-3.2521589,13.510333,15.378295,14.892527,-12.663922,-35.77917,7.5021224,-2.4083622,18.84424,36.18028,-10.798204,19.954803,-22.758705,-21.433807,-12.308674,-20.912136
67,1.377187728881836,-98.25918579101562,78.35457611083984,-0.022061407361123785,-3.3802929307301466,82.23732736188241,11.480542,1.4919282,10.037461,36.72883,-2.3799396,0.014181063,-18.202225,1.4927675,-5.689808,18.473715,8.819603,13.961094,-7.899573,-2.3206813,14.00482,15.8268585,14.62268,-12.542883,-35.870487,7.6651783,-2.5906885,19.36226,34.418255,-11.137486,20.620737,-21.92619,-21.190746,-12.655675,-20.946394
68,1.203434705734253,-99.84131622314453,78.02924346923828,-0.7192026626931531,-3.5683829155550773,82.04237342191216,11.5297575,2.3602712,10.930884,36.096344,-5.1341834,0.60778785,-19.668964,1.5044644,-6.700523,23.947796,5.814976,11.778816,-7.5529003,-1.5420184,14.533708,16.305264,14.354147,-12.475116,-35.80828,7.8418765,-2.7081885,19.877367,32.710476,-11.53807,21.283575,-21.234991,-20.803154,-12.870477,-20.879337
69,1.0396672487258911,-101.43367004394531,77.65689086914062,-1.1911288488558058,-3.886585636833897,81.93810424321521,11.643744,2.932765,11.619132,35.653713,-8.406064,0.6291508,-20.89088,0.89006114,-8.317884,29.678905,2.70657,9.666381,-7.2131376,-0.9733718,15.1173115,16.761538,14.10599,-12.501995,-35.530605,7.976219,-2.7601998,20.38495,31.053522,-11.971464,21.904398,-20.685318,-20.213684,-12.9113865,-20.603617
70,0.8666563630104065,-102.95149993896484,77.25801849365234,-1.5229963143569374,-4.31769485971495,81.89424618226654,11.822039,3.3660858,12.242273,35.34297,-12.238258,0.25599545,-21.858839,-0.31338447,-10.345853,35.71031,-0.6030911,7.375202,-6.8557487,-0.54363865,15.763122,17.217176,13.88532,-12.608394,-35.0592,8.057082,-2.7558784,20.901693,29.359375,-12.426317,22.517513,-20.178186,-19.469786,-12.850368,-20.174501
71,0.699822723865509,-104.45716094970703,76.816650390625,-1.6955829840057908,-4.794704982170776,81.93907407013103,11.914016,3.6186905,12.735494,35.16128,-16.070845,-0.23207672,-22.50947,-1.9918153,-12.33326,41.671337,-3.928339,5.0446253,-6.5004883,-0.26425478,16.411777,17.712505,13.689608,-12.774304,-34.46653,8.205876,-2.689652,21.4468,27.665852,-12.887131,23.130701,-19.724781,-18.685379,-12.73195,-19.7755
72,0.53669673204422,-105.94483947753906,76.36212158203125,-1.6886657928727773,-5.2496591899133165,82.09696379487634,11.778145,3.6362317,12.997603,35.08788,-19.337662,-0.58966786,-22.855953,-3.941039,-13.897233,47.23977,-7.046614,2.85128,-6.160903,-0.14613941,17.002005,18.280657,13.511086,-12.982781,-33.81426,8.54624,-2.5535612,22.03715,26.010098,-13.338079,23.745098,-19.329489,-17.974667,-12.606691,-19.587269
73,0.3809521794319153,-107.41586303710938,75.92185974121094,-1.4701443201406343,-5.69895904596915,82.39432055376815,11.389279,3.3563955,12.896374,35.139633,-21.955252,-0.87160265,-22.947374,-6.1670094,-15.085234,52.53935,-9.949782,0.7865774,-5.82959,-0.21593735,17.548597,18.869545,13.34791,-13.26863,-33.031925,9.095568,-2.3235083,22.668674,24.408495,-13.767714,24.362875,-19.009277,-17.31568,-12.472356,-19.718027
74,0.23907484114170074,-108.86686706542969,75.51139831542969,-1.075540162086748,-6.168368660725231,82.80299445130454,10.815656,2.8416212,12.519003,35.337223,-24.22105,-1.1856679,-22.788782,-8.682058,-16.099632,57.713463,-12.732527,-1.2145836,-5.4865174,-0.44420934,18.074802,19.465347,13.202391,-13.636382,-32.09625,9.793411,-2.0064702,23.33228,22.831875,-14.172957,24.969498,-18.740503,-16.670202,-12.314399,-20.048616
75,0.07014430314302444,-110.30269622802734,75.13288879394531,-0.5875173570148892,-6.601903047870505,83.26578222621767,10.070147,2.208344,12.066325,35.633873,-26.128717,-1.379615,-22.39779,-11.233127,-16.864532,62.499794,-15.280256,-3.0286791,-5.1296983,-0.7571001,18.530394,20.161205,13.06994,-14.022032,-31.145266,10.646192,-1.6382203,24.035357,21.25365,-14.552769,25.546541,-18.487839,-16.125488,-12.16405,-20.41782
76,-0.0859815776348114,-111.71707153320312,74.80615997314453,-0.08753388614508789,-6.9400061503747414,83.7270966250453,9.160505,1.571024,11.731802,35.975777,-27.665535,-1.2954673,-21.821325,-13.561266,-17.320105,66.65186,-17.462358,-4.521613,-4.7629247,-1.079197,18.861721,21.050762,12.941767,-14.35977,-30.312565,11.662138,-1.2538363,24.783699,19.644823,-14.908594,26.08093,-18.21106,-15.769439,-12.047887,-20.664822
77,-0.2357957363128662,-113.12150573730469,74.54239654541016,0.430105316456979,-7.124018173058814,84.22618608799617,7.959678,0.9253227,11.550245,36.459187,-28.828707,-0.7738819,-21.141611,-15.632595,-17.471794,70.18426,-19.185822,-5.6224914,-4.42149,-1.4266821,19.006073,22.161797,12.810083,-14.659462,-29.598705,13.026749,-0.81476355,25.634916,17.96833,-15.245851,26.569656,-17.89525,-15.628317,-11.974285,-20.76211
78,-0.36685749888420105,-114.51375579833984,74.35346984863281,0.9972731184294239,-7.200306681188287,84.775462159126,6.513405,0.21798633,11.427549,37.060608,-29.623236,0.063898206,-20.347126,-17.538778,-17.423864,73.24508,-20.503119,-6.39702,-4.095378,-1.8226562,19.004642,23.431566,12.673577,-14.954772,-28.925997,14.674654,-0.30466935,26.558182,16.250729,-15.567563,27.015585,-17.562273,-15.655862,-11.925972,-20.790792
79,-0.4754362106323242,-115.84798431396484,74.22854614257812,1.5664795326076213,-7.262550126887313,85.2800845072364,5.078672,-0.49886808,11.359945,37.549637,-30.042852,0.9567291,-19.354816,-19.207127,-17.264938,75.78243,-21.498701,-6.9122763,-3.7207568,-2.2013803,18.958054,24.821905,12.533682,-15.213017,-28.31511,16.23949,0.19547111,27.433123,14.558136,-15.870234,27.421663,-17.227495,-15.831249,-11.88906,-20.751123
80,-0.5454660654067993,-117.14702606201172,74.17910766601562,2.0924160385260926,-7.401359679346814,85.64312621538035,3.9061377,-1.1651762,11.33572,37.703747,-30.077963,1.6403285,-18.080412,-20.57001,-17.073574,77.73893,-22.264498,-7.2386794,-3.2326965,-2.4984825,18.96796,26.304941,12.392854,-15.393743,-27.797184,17.357729,0.58717054,28.14897,12.949704,-16.144886,27.80131,-16.895893,-16.131786,-11.851378,-20.643373
81,-0.6330972909927368,-118.43824768066406,74.19187927246094,2.5734392105373294,-7.668524606871522,85.81273310433114,3.0744035,-1.7604637,11.361295,37.51099,-29.722656,2.0660663,-16.435741,-21.586845,-16.84745,79.092155,-22.826687,-7.3430147,-2.5925457,-2.7121217,19.078247,27.949543,12.245719,-15.460117,-27.3978,17.97493,0.82037234,28.666384,11.406878,-16.381907,28.165167,-16.525797,-16.717634,-11.799469,-20.413528
82,-0.6964327692985535,-119.7098388671875,74.28754425048828,3.0318803072136378,-8.002490476792332,85.84802549952622,2.436777,-2.3010523,11.436047,37.078575,-28.981632,2.3626063,-14.495107,-22.295378,-16.577204,79.88725,-23.12525,-7.20136,-1.8420053,-2.871409,19.225258,29.748768,12.087885,-15.441078,-27.092957,18.274279,0.9410662,29.054636,9.899806,-16.57695,28.516605,-16.107985,-17.545776,-11.748185,-20.077581
83,-0.730720043182373,-120.98580932617188,74.45362091064453,3.451080211588395,-8.323652141885656,85.81931296915428,1.904151,-2.7800267,11.527,36.36806,-27.864685,2.5315127,-12.420466,-22.746292,-16.316044,80.16859,-23.130108,-6.9008255,-1.0347263,-2.9605181,19.349854,31.566292,11.927033,-15.389757,-26.850533,18.251057,0.9878104,29.37069,8.46642,-16.730993,28.858395,-15.693752,-18.287594,-11.723593,-19.73984
84,-0.7473503947257996,-122.25521850585938,74.69320678710938,3.810879512481867,-8.55345077388467,85.79819019372857,1.3932749,-3.1946738,11.600415,35.33791,-26.38187,2.5773637,-10.37521,-22.988178,-16.108728,79.98124,-22.813816,-6.5291085,-0.2237981,-2.9680316,19.393572,33.27024,11.780223,-15.35715,-26.644823,17.89756,1.0010582,29.672014,7.1478047,-16.850943,29.188942,-15.342258,-18.614246,-11.745759,-19.506157
85,-0.7594584226608276,-123.53170013427734,75.00579833984375,4.139807788414924,-8.69957612099948,85.76268083705041,0.9576356,-3.577528,11.665971,33.906345,-24.50529,2.4762573,-8.330035,-23.033104,-15.925099,79.262726,-22.11326,-6.0453753,0.6286702,-2.9002028,19.36665,34.845444,11.664205,-15.365302,-26.498579,17.037762,0.9667311,29.9754,5.983779,-16.939495,29.488073,-15.076368,-18.336191,-11.842448,-19.414116
86,-0.772979736328125,-124.81238555908203,75.38540649414062,4.434384725598881,-8.793004016825625,85.68946467152846,0.61785644,-3.9134057,11.717412,32.118412,-22.246515,2.2337391,-6.229205,-22.84944,-15.73689,78.02322,-21.072802,-5.427375,1.5416447,-2.7663958,19.289577,36.36311,11.582746,-15.384426,-26.430906,15.728127,0.8679517,30.251894,4.952647,-16.997738,29.755905,-14.872727,-17.661074,-11.99348,-19.403873
87,-0.7840983867645264,-126.08983612060547,75.82323455810547,4.6358493088658435,-8.790629774938541,85.64774983060917,0.24543393,-4.137521,11.699279,30.122078,-19.669325,1.901115,-4.199335,-22.420982,-15.587075,76.41526,-19.825298,-4.79348,2.4352324,-2.5603848,19.120186,37.82066,11.536313,-15.389694,-26.41428,14.310185,0.7443273,30.492039,4.0094213,-17.029686,30.012505,-14.73159,-16.856361,-12.144656,-19.436245
88,-0.782645046710968,-127.41024780273438,76.30513763427734,4.6839689476603175,-8.650580776349123,85.70707791804958,-0.29066297,-4.193542,11.561819,28.072319,-16.834774,1.5294997,-2.3721519,-21.736172,-15.51697,74.59129,-18.498976,-4.260264,3.2143676,-2.2768853,18.816061,39.21997,11.506881,-15.345857,-26.422255,13.128868,0.6371028,30.684431,3.0996747,-17.051397,30.293314,-14.653345,-16.189592,-12.2397175,-19.477495
89,-0.7759188413619995,-128.7493133544922,76.82084655761719,4.557085297272754,-8.327602645272588,85.90633257537236,-1.03962,-4.085568,11.22314,25.947865,-13.702576,1.1133945,-0.79830766,-20.754267,-15.525374,72.52011,-17.049583,-3.836955,3.8525112,-1.892269,18.32304,40.534435,11.486263,-15.243728,-26.446436,12.195389,0.56983477,30.802588,2.209142,-17.0754,30.627645,-14.655041,-15.65196,-12.239042,-19.586885
90,-0.727676510810852,-130.10836791992188,77.36186218261719,4.290734958914784,-7.854043856132526,86.20022567901025,-1.9338211,-3.8625076,10.718153,23.696995,-10.259129,0.6348598,0.5871274,-19.50562,-15.566056,70.148705,-15.445169,-3.474332,4.387566,-1.4221961,17.675964,41.781307,11.468022,-15.090319,-26.508276,11.354279,0.51826686,30.856764,1.36226,-17.107576,31.002962,-14.740291,-15.125509,-12.1798115,-19.767
91,-0.670353889465332,-131.4610137939453,77.9190673828125,3.9221407378807465,-7.303368643328964,86.53100731753477,-2.925628,-3.537148,10.175605,21.419926,-6.5963545,0.123535715,1.8233039,-18.088053,-15.624478,67.59359,-13.81941,-3.197953,4.8424654,-0.912073,16.969812,43.006504,11.4448,-14.896584,-26.606508,10.704546,0.4544485,30.8975,0.57730675,-17.14554,31.360123,-14.892838,-14.7160225,-12.121392,-19.888367
92,-0.5838845372200012,-132.8618927001953,78.4607925415039,3.4879517797933097,-6.749576032539482,86.8430990801537,-3.9768758,-3.1057932,9.726005,19.23718,-2.8071654,-0.39493403,2.9515235,-16.600416,-15.698098,64.96996,-12.29999,-3.0326016,5.213316,-0.41513756,16.29939,44.273113,11.392532,-14.647465,-26.751162,10.344501,0.3467905,30.968496,-0.14749603,-17.187662,31.673815,-15.083837,-14.527668,-12.118046,-19.830883
93,-0.4859130382537842,-134.2823944091797,78.99188232421875,2.9373464766576793,-6.1765461208068215,87.13772550460473,-5.133837,-2.5347376,9.298224,17.006754,1.4931345,-0.9071477,3.948147,-14.965367,-15.805482,62.24899,-10.946027,-3.0672002,5.507063,0.10294332,15.655447,45.595886,11.305733,-14.312986,-26.919313,10.421302,0.15325937,31.091938,-0.82968885,-17.218313,31.906704,-15.311939,-14.675521,-12.202623,-19.493736
94,-0.3841446340084076,-135.71556091308594,79.49250030517578,2.2962146844527225,-5.5499121815463095,87.44150203184371,-6.4285154,-1.8473426,8.823323,14.771166,6.205253,-1.4431732,4.795849,-13.199999,-15.945601,59.39436,-9.679147,-3.2585871,5.7037163,0.6299534,14.997238,46.946514,11.178764,-13.890231,-27.113466,10.844678,-0.09795596,31.239262,-1.4845159,-17.235788,32.0987,-15.570326,-15.075895,-12.341638,-18.967781
95,-0.2606121003627777,-137.17518615722656,79.93932342529297,1.6939682531442015,-4.922291970510562,87.73510894271848,-7.7723927,-1.1127065,8.47034,12.877854,10.52524,-2.0308747,5.550917,-11.515495,-16.094591,56.507187,-8.422477,-3.4328694,5.8204865,1.0788796,14.37613,48.27401,11.019884,-13.463667,-27.354586,11.367463,-0.3280694,31.39167,-2.0722451,-17.241983,32.2567,-15.829898,-15.542479,-12.49651,-18.389133
96,-0.1187552958726883,-138.6552276611328,80.29102325439453,1.2124663121425945,-4.355716592780895,87.99906665125016,-9.036959,-0.3733823,8.442816,11.605073,13.683961,-2.6763844,6.289845,-10.059664,-16.236567,53.6624,-7.084098,-3.4229474,5.8805566,1.4126189,13.847928,49.53637,10.85043,-13.12485,-27.670937,11.740005,-0.45970446,31.529476,-2.5448508,-17.243977,32.382538,-16.074215,-15.888102,-12.623468,-17.89149
97,0.00282827066257596,-140.15074157714844,80.59056091308594,0.8165766551822016,-3.8602998920550067,88.2232903963799,-10.125577,0.42889574,8.9605,10.841714,15.41449,-3.5014727,7.0656877,-8.802122,-16.425863,50.77256,-5.524163,-3.1394262,5.889245,1.6576383,13.424817,50.811356,10.67894,-12.881649,-28.12757,11.942448,-0.44371402,31.64882,-2.8913732,-17.252895,32.469982,-16.34735,-16.093699,-12.710748,-17.45002
98,0.07161956280469894,-141.64768981933594,80.8454360961914,0.45512464154559223,-3.4155342980013366,88.41431214035396,-11.104222,1.3104872,9.909176,10.475974,16.179802,-4.4424005,7.8445,-7.644185,-16.642448,47.80775,-3.81886,-2.682564,5.8471007,1.8491971,13.089825,52.09943,10.508695,-12.693163,-28.703732,12.088629,-0.3307286,31.761143,-3.1232126,-17.274982,32.512413,-16.662489,-16.247034,-12.779915,-17.013111
99,0.16514810919761658,-143.14141845703125,81.00788116455078,0.18243126142106958,-3.0399771182880215,88.57741761864051,-12.100604,2.1883147,11.01086,10.8137,16.283895,-5.211457,8.580801,-6.622066,-16.766481,44.925323,-2.2020876,-2.1749103,5.774081,1.9720857,12.854353,53.24516,10.36397,-12.581441,-29.297493,12.127121,-0.1947347,31.869684,-3.223021,-17.307983,32.50794,-16.958792,-16.321402,-12.833264,-16.673227
100,0.25564607977867126,-144.64527893066406,81.10215759277344,0.04196509285591883,-2.7475827019316,88.72257654830935,-13.240908,2.9967978,11.959384,12.145923,16.017965,-5.515685,9.224543,-5.77717,-16.700865,42.294914,-0.9115958,-1.7470759,5.7079353,2.0070295,12.721362,54.10068,10.314019,-12.576535,-29.823904,11.992274,-0.1067501,31.98851,-3.1649172,-17.328308,32.434334,-17.167435,-16.29551,-12.874282,-16.520826
101,0.34737423062324524,-146.1652069091797,81.13726806640625,0.029549922149893784,-2.554178228791217,88.87860911848792,-14.6061945,3.8086264,12.720185,14.762529,15.27175,-5.086046,9.764556,-5.0820265,-16.383787,39.93824,0.10549278,-1.4241916,5.600637,1.9729056,12.707718,54.603428,10.320063,-12.693986,-30.267448,11.5301,-0.08978134,32.133266,-2.9374936,-17.344847,32.310898,-17.30754,-16.121311,-12.903462,-16.61438
102,0.41929665207862854,-147.69442749023438,81.11066436767578,0.09187642199643548,-2.4537603600149307,89.0269948809918,-16.059362,4.7139344,13.412152,18.34922,13.964619,-4.1223927,10.241586,-4.488073,-15.896493,37.759415,0.94711155,-1.1501822,5.532765,1.9090917,12.807545,54.830326,10.470373,-12.966982,-30.694025,10.799848,-0.097357206,32.322693,-2.48193,-17.380095,32.053905,-17.460474,-15.8257065,-12.923643,-16.881659
103,0.48304930329322815,-149.22409057617188,81.0303955078125,0.21594104600195782,-2.423136550700548,89.11141909768841,-17.431034,5.6369724,13.956509,22.337393,12.413507,-3.039292,10.670082,-4.0322084,-15.369521,35.77095,1.4350153,-0.9354601,5.512081,1.8027046,12.985934,54.871033,10.731073,-13.306486,-31.077072,10.111087,-0.1194355,32.48452,-1.8957251,-17.416523,31.734983,-17.519417,-15.49204,-12.928377,-17.255463
104,0.5338923335075378,-150.7647247314453,80.89241027832031,0.4231986381283223,-2.430136962370739,89.08423609067574,-18.61707,6.4430704,14.3104,26.284681,10.905991,-2.2603552,11.045758,-3.7933617,-14.937049,34.00441,1.3830496,-0.78368205,5.5604978,1.6241868,13.208065,54.781933,11.062931,-13.658205,-31.363373,9.7926035,-0.14168058,32.554398,-1.248117,-17.458603,31.386494,-17.405079,-15.19997,-12.91318,-17.656403
105,0.5709605813026428,-152.31097412109375,80.68660736083984,0.8156482725951311,-2.4396220147267136,88.92356524468775,-19.669077,6.9597363,14.411653,30.229076,9.4920845,-1.9620018,11.319141,-3.9509945,-14.672622,32.54522,0.7278313,-0.8134311,5.679666,1.2842277,13.454337,54.530174,11.438614,-14.017138,-31.49258,9.974206,-0.20509592,32.49658,-0.5536574,-17.504807,31.011158,-17.06364,-14.978247,-12.847213,-18.10441
106,0.6127392053604126,-153.85842895507812,80.41773986816406,1.3754823446342324,-2.4680359634565785,88.66386033690397,-20.66897,7.2615886,14.317744,34.454544,7.991414,-1.9075714,11.48696,-4.4367895,-14.499565,31.368725,-0.43362844,-0.9727674,5.839265,0.8045225,13.743774,54.09071,11.85005,-14.406227,-31.491358,10.47844,-0.30424112,32.34553,0.20977779,-17.551592,30.60554,-16.537512,-14.780498,-12.742906,-18.628397
107,0.6464731693267822,-155.40740966796875,80.05947875976562,1.945145234483742,-2.5605381743656115,88.34125626498395,-21.566063,7.581219,14.182105,38.921005,6.343017,-1.9031502,11.619701,-4.964407,-14.330908,30.334044,-2.0374494,-1.0202155,6.001315,0.31739968,14.098514,53.546677,12.281986,-14.800094,-31.438953,11.171659,-0.35599637,32.139168,1.0155089,-17.602547,30.209333,-15.884984,-14.574926,-12.658427,-19.16578
108,0.6583647131919861,-156.94430541992188,79.62992858886719,2.358230233982853,-2.7685127852479465,87.98786108541447,-22.272194,8.174805,14.140779,43.529156,4.512875,-1.7440532,11.807417,-5.2473025,-14.0907755,29.273514,-4.011277,-0.7325756,6.1251583,-0.035705052,14.542464,52.982452,12.712731,-15.171256,-31.414783,11.923057,-0.27669305,31.91031,1.8361061,-17.665073,29.867945,-15.160166,-14.329275,-12.651616,-19.654755
109,0.6717530488967896,-158.46670532226562,79.14984893798828,2.5871776493267005,-3.1287300346805518,87.61931671069142,-22.745272,9.124192,14.233184,48.34162,2.4080703,-1.3986247,12.191781,-5.2130547,-13.75291,27.954668,-6.5197864,0.15379724,6.1734,-0.22230074,15.0954275,52.43318,13.126928,-15.509199,-31.440588,12.821619,-0.016480323,31.619864,2.656267,-17.746964,29.616467,-14.327031,-13.96021,-12.777035,-20.058939
110,0.697547197341919,-159.9752960205078,78.64013671875,2.7238226392099487,-3.6066612884912788,87.21118393477121,-23.005957,10.297754,14.370762,53.349968,0.079143934,-0.9612689,12.690247,-5.0499554,-13.4098625,26.515581,-9.544908,1.4092281,6.167221,-0.3195815,15.73827,51.850895,13.517141,-15.825148,-31.468868,13.904439,0.36520723,31.254124,3.4891362,-17.849846,29.43617,-13.369633,-13.509161,-12.990808,-20.418772
111,0.74820876121521,-161.45147705078125,78.10542297363281,2.7715150236613844,-4.152506113766222,86.73569414575624,-23.043774,11.637722,14.486001,58.31697,-2.271987,-0.41976508,13.055219,-4.826655,-13.128636,25.35166,-12.736032,2.5428522,6.152324,-0.33969328,16.437561,51.19557,13.874396,-16.123476,-31.47143,14.962503,0.7928999,30.886944,4.3446856,-17.973558,29.291868,-12.377362,-13.133062,-13.2024975,-20.7867
112,0.7936220765113831,-162.92787170410156,77.55384063720703,2.718014464831292,-4.722220150799561,86.17011122642958,-22.854542,13.07817,14.513625,63.00675,-4.4368687,0.22505271,13.041003,-4.5562167,-12.909152,24.870634,-15.741065,3.1091373,6.1688585,-0.27599886,17.164522,50.425617,14.188711,-16.410995,-31.422884,15.784799,1.1966459,30.597876,5.232169,-18.116299,29.148428,-11.433996,-12.988289,-13.32053,-21.217512
113,0.8442966938018799,-164.39678955078125,76.99567413330078,2.5309428181616167,-5.387269284083542,85.4871357209023,-22.354908,14.683532,14.489711,67.46654,-6.405506,1.0526245,12.625025,-4.1871095,-12.707168,25.265398,-18.654205,2.9678395,6.232457,-0.08629667,17.988829,49.531387,14.452341,-16.693327,-31.296133,16.303202,1.5530874,30.42981,6.138603,-18.279118,29.015793,-10.5213995,-13.198539,-13.298922,-21.76309
114,0.8834660053253174,-165.88426208496094,76.42781829833984,2.2142604204171064,-6.154608213170076,84.71126306618282,-21.54814,16.445454,14.434342,71.768906,-8.259411,2.0162237,11.925157,-3.6778765,-12.478415,26.303572,-21.612062,2.3882363,6.3079624,0.23293206,18.903679,48.532104,14.6622095,-16.964895,-31.106947,16.635952,1.9047341,30.3346,7.055883,-18.464,28.911905,-9.598075,-13.651148,-13.188946,-22.381788
115,0.9378636479377747,-167.3828582763672,75.87248992919922,1.804570384876855,-6.883646350335395,83.903614040518,-20.597437,18.181845,14.26966,75.75712,-9.929565,2.919186,10.916962,-3.0380998,-12.208608,27.746176,-24.326717,1.5529212,6.3541126,0.6333517,19.767487,47.42767,14.817161,-17.214615,-30.888582,16.848738,2.2824898,30.258795,8.003175,-18.667965,28.812103,-8.724785,-14.148072,-13.044107,-22.988857
116,0.9943674206733704,-168.85369873046875,75.35904693603516,1.3405620463976786,-7.4296010440722675,83.12318609452313,-19.686483,19.707338,13.929028,79.281235,-11.34295,3.566288,9.573639,-2.2951586,-11.913785,29.352757,-26.49447,0.6458781,6.33595,1.0552804,20.43808,46.22004,14.918396,-17.430754,-30.678629,17.007505,2.7163818,30.148893,8.998448,-18.884638,28.689655,-7.957147,-14.492788,-12.92523,-23.500551
117,1.0450791120529175,-170.32504272460938,74.89404296875,0.7865552160111554,-7.724688381048533,82.3083950811381,-18.90077,21.060858,13.409514,82.3741,-12.466269,3.9199853,7.728005,-1.3945751,-11.574477,31.265291,-28.04451,-0.40708804,6.3101892,1.5223513,20.859137,44.871105,14.960743,-17.612175,-30.469599,17.066523,3.245718,30.026354,10.02474,-19.108664,28.563862,-7.2825694,-14.625478,-12.850352,-23.889776
118,1.0799834728240967,-171.80702209472656,74.48291015625,0.1377792149800907,-7.858927844616767,81.45229332641712,-18.136442,22.289091,12.781844,85.106094,-13.33146,4.067824,5.464919,-0.34472203,-11.226986,33.515606,-29.123068,-1.6604385,6.2735887,2.0428813,21.111843,43.39809,14.940902,-17.753992,-30.249937,17.01243,3.8442035,29.909597,11.068656,-19.337822,28.445606,-6.6664543,-14.654267,-12.789459,-24.202404
119,1.1120615005493164,-173.28038024902344,74.15595245361328,-0.5209252211076698,-7.916803832950003,80.69400010407274,-17.31556,23.232906,12.084079,87.39684,-13.974562,4.0121994,3.1242516,0.710308,-10.983352,35.70123,-29.748547,-2.8912191,6.107399,2.532516,21.262522,41.88164,14.868796,-17.847351,-30.047745,16.958511,4.4427576,29.739735,12.16811,-19.565365,28.2916,-6.144342,-14.634207,-12.732965,-24.466787
120,1.132314920425415,-174.73468017578125,73.88680267333984,-1.1043405500910726,-7.9772012268511805,80.17313718885916,-16.372877,23.750391,11.341674,89.17124,-14.434786,3.7651262,1.0301728,1.6173173,-10.932763,37.431828,-29.940426,-3.8690803,5.699299,2.9083989,21.378628,40.398537,14.7653265,-17.893616,-29.886894,17.016504,4.9730735,29.457907,13.368794,-19.782515,28.051006,-5.755195,-14.620842,-12.67143,-24.709831
121,1.1407347917556763,-176.17849731445312,73.68284606933594,-1.6007253827535164,-8.039333564218866,79.93911700423544,-15.302316,23.777233,10.516644,90.40974,-14.721341,3.3274727,-0.8294687,2.3062713,-11.098194,38.741077,-29.641981,-4.492365,4.9914675,3.1528492,21.454865,38.965237,14.641183,-17.900505,-29.786005,17.14825,5.443872,29.065937,14.696778,-19.983551,27.712904,-5.499857,-14.641186,-12.61663,-24.919373
122,1.1273552179336548,-177.5620574951172,73.57839965820312,-2.0525909680874244,-8.061491712681633,79.91100849873783,-14.148306,23.41876,9.607532,91.16844,-14.820273,2.7065208,-2.6063735,2.8413086,-11.429636,39.78743,-28.857626,-4.87906,4.064884,3.3092456,21.46234,37.543167,14.499415,-17.873447,-29.733095,17.313112,5.882858,28.592459,16.13239,-20.16399,27.29764,-5.3621078,-14.6615505,-12.57003,-25.086369
123,1.0841238498687744,-178.90371704101562,73.5655517578125,-2.4538455444741056,-8.057571952054321,80.03389377944704,-12.9236,22.798012,8.682956,91.478294,-14.738012,1.9301904,-4.18975,3.272506,-11.881982,40.372913,-27.701057,-5.1327667,3.0167675,3.3882573,21.43135,36.117615,14.355773,-17.820583,-29.69468,17.616701,6.2484202,28.017347,17.65915,-20.313086,26.799133,-5.360637,-14.645465,-12.505596,-25.243582
124,1.0332592725753784,-180.22349548339844,73.64043426513672,-2.8004003995160716,-8.043054836509327,80.25347217902761,-11.642839,22.035368,7.8086553,91.367035,-14.478242,1.0249615,-5.469406,3.6538646,-12.410025,40.308704,-26.289404,-5.3699174,1.9480294,3.3980396,21.388979,34.67504,14.236184,-17.756392,-29.64192,18.16185,6.496865,27.321457,19.262877,-20.414549,26.210041,-5.513763,-14.556418,-12.398321,-25.423475
125,1.0009615421295166,-181.57351684570312,73.80097961425781,-3.1216539881177887,-8.033237850536423,80.6130307861011,-10.292427,21.15512,6.937315,90.80615,-14.032263,-0.030111898,-6.359578,4.012446,-13.074098,39.48277,-24.630066,-5.628997,0.8398851,3.3530734,21.35061,33.205986,14.1660185,-17.68387,-29.559504,18.997084,6.598182,26.43773,20.976454,-20.443256,25.49586,-5.847501,-14.459912,-12.224835,-25.626184
126,0.9934455156326294,-182.9484405517578,74.03742218017578,-3.4140104378508007,-8.01357849016369,81.12121065360962,-8.87067,20.109583,6.0318074,89.79649,-13.406976,-1.2347993,-6.9413486,4.300615,-13.857302,38.02782,-22.676302,-5.8538237,-0.32129312,3.2598321,21.287172,31.69472,14.143068,-17.63637,-29.442764,20.054388,6.5721707,25.405184,22.821554,-20.390722,24.6533,-6.3538647,-14.349509,-12.007291,-25.830267
127,0.9499768614768982,-184.2901153564453,74.33877563476562,-3.6132470736388926,-7.955795942375468,81.6714700174203,-7.4159613,18.898682,5.170641,88.407196,-12.625757,-2.5352361,-7.342279,4.474607,-14.605068,36.11844,-20.46188,-6.0305967,-1.4698362,3.066895,21.158695,30.200243,14.179318,-17.600624,-29.351131,21.242851,6.4479804,24.359266,24.683249,-20.248821,23.801756,-6.9367714,-14.083964,-11.784008,-26.058382
128,0.9431058764457703,-185.66061401367188,74.70893096923828,-3.65739385015341,-7.83484277659925,82.15783657980583,-5.969231,17.517372,4.4331956,86.70386,-11.712063,-3.8767734,-7.6844645,4.510041,-15.171393,33.923992,-18.018461,-6.145287,-2.5214324,2.7398415,20.926716,28.748117,14.277005,-17.58455,-29.322168,22.481333,6.264133,23.435654,26.475468,-20.027872,23.01561,-7.530144,-13.52539,-11.596894,-26.324629
129,0.9405473470687866,-187.080322265625,75.11112213134766,-3.537207762283447,-7.65633711357724,82.56446231129507,-4.4994082,15.924059,3.8086028,84.61689,-10.642062,-5.3279667,-7.9031634,4.461422,-15.518949,31.318441,-15.335918,-6.2168036,-3.4671829,2.2655337,20.58587,27.338255,14.440042,-17.5869,-29.385845,23.911928,6.04063,22.671158,28.194494,-19.738388,22.305538,-8.156599,-12.530259,-11.445105,-26.661129
130,0.90018230676651,-188.43040466308594,75.5716781616211,-3.287222050967225,-7.43199557950281,82.94433485357948,-2.9973066,14.13704,3.230114,82.134224,-9.424798,-6.88858,-7.9669437,4.36703,-15.74135,28.271461,-12.409683,-6.2523456,-4.347066,1.6740973,20.149578,25.956255,14.6688175,-17.608755,-29.518583,25.518616,5.752845,21.99892,29.88402,-19.381523,21.6308,-8.851914,-11.206564,-11.316717,-27.052658
131,0.8114110827445984,-189.76051330566406,76.0444564819336,-2.911757723721018,-7.146414835997215,83.29414841343453,-1.5488358,12.239035,2.7018263,79.413315,-8.125723,-8.403705,-8.056173,4.179245,-15.883512,25.098366,-9.272369,-6.219225,-5.150846,0.9952954,19.612837,24.60698,14.957231,-17.653646,-29.682713,26.987955,5.3839364,21.39531,31.521683,-18.964472,20.976849,-9.569101,-9.797584,-11.233511,-27.440958
132,0.7283239960670471,-191.13973999023438,76.509521484375,-2.4103182066338062,-6.782303871256056,83.61269266857131,-0.23572841,10.308043,2.2441337,76.59658,-6.791549,-9.723129,-8.34155,3.8192606,-15.9721575,22.10895,-5.955235,-6.0867023,-5.8756094,0.25916854,18.97285,23.297234,15.294265,-17.719936,-29.840296,28.007431,4.9220667,20.833834,33.084763,-18.496237,20.332521,-10.265024,-8.544924,-11.210599,-27.767395
133,0.6199622750282288,-192.5250244140625,76.97160339355469,-1.7033991844032181,-6.308547156985431,83.90619094272299,0.9195273,8.234146,1.8760618,73.62594,-5.3955603,-10.896476,-8.916894,3.1406064,-15.989032,19.387342,-2.3929133,-5.984627,-6.5412264,-0.5978874,18.183727,22.00377,15.677243,-17.814112,-29.956232,28.513412,4.320372,20.311916,34.61883,-17.97773,19.659683,-10.968406,-7.505447,-11.251856,-28.020144
134,0.5104571580886841,-193.9329376220703,77.41065216064453,-0.8443111733676812,-5.737799533107793,84.17244432009204,1.9594486,6.0443835,1.5731878,70.44582,-3.9175828,-11.988283,-9.709023,2.2411225,-15.911743,16.82165,1.380349,-5.8873725,-7.146088,-1.5295624,17.25914,20.725073,16.104383,-17.935987,-30.056484,28.666702,3.6102057,19.838589,36.114964,-17.408073,18.968405,-11.6974945,-6.551412,-11.345482,-28.228252
135,0.38738781213760376,-195.3546600341797,77.80973052978516,-0.018857387107099832,-5.1206740483942825,84.39820171680077,2.8913608,3.998898,1.3236272,67.21424,-2.4055905,-12.865564,-10.606677,1.3718656,-15.721435,14.381022,5.2271485,-5.521143,-7.65487,-2.3698578,16.295631,19.504387,16.562532,-18.065731,-30.199745,28.495575,2.8982542,19.395903,37.46987,-16.801533,18.321026,-12.391167,-5.6502175,-11.479271,-28.393503
136,0.22227589786052704,-196.79571533203125,78.14588165283203,0.6372832110963713,-4.517241171560092,84.57763641621527,3.7289014,2.3045194,1.1376026,64.08942,-0.9018452,-13.379086,-11.431488,0.7453127,-15.370394,11.925511,9.065029,-4.591514,-8.040982,-3.0129197,15.402448,18.39223,17.033524,-18.175554,-30.447643,28.033575,2.2890258,18.962246,38.59305,-16.188349,17.782055,-12.99589,-4.7695312,-11.640192,-28.517735
137,0.026760663837194443,-198.25462341308594,78.39483642578125,1.2281730764769483,-3.91995992625298,84.76090806938143,4.4233317,0.8451554,1.0063071,61.105118,0.7214683,-13.455729,-12.321886,0.23907977,-14.654918,9.570318,13.034466,-2.6305158,-8.336278,-3.5649183,14.563264,17.368336,17.517796,-18.261316,-30.838036,27.18422,1.8536636,18.462872,39.563313,-15.5839,17.350056,-13.575402,-3.8618088,-11.841707,-28.597784
138,-0.13125908374786377,-199.71356201171875,78.56597900390625,1.9385538128183661,-3.326353142696225,84.95687040113792,5.022445,-0.608224,0.98056537,58.136024,2.4724224,-13.147907,-13.78688,-0.5095255,-13.465911,8.451789,16.486181,0.18438761,-8.572717,-4.212337,13.743812,16.441582,18.021961,-18.316645,-31.356615,25.97162,1.5298078,17.919817,40.422768,-14.996959,17.003757,-14.162745,-2.9557848,-12.080885,-28.634998
139,-0.22088009119033813,-201.20001220703125,78.7476577758789,2.5018723919563635,-2.8052744975969457,85.0911836706042,5.6405435,-1.7526587,1.1032414,55.163124,4.110814,-12.541788,-14.907498,-1.039244,-12.16043,7.115004,19.672785,3.0753694,-8.716547,-4.7156305,13.074387,15.689324,18.525795,-18.313175,-31.968893,24.610865,1.2133242,17.463436,41.01637,-14.464603,16.763367,-14.646672,-2.129567,-12.321712,-28.637283
140,-0.32806578278541565,-202.71975708007812,78.87027740478516,2.8581916405146277,-2.3998406342365532,85.07345335512139,6.3811874,-2.5159335,1.4990172,52.166412,5.376029,-11.683952,-15.685205,-1.3419504,-11.173186,6.03417,21.94675,5.1954026,-8.734777,-5.041177,12.626874,15.199987,18.993906,-18.205484,-32.64312,23.323362,0.78727955,17.215113,41.19726,-14.043243,16.660114,-14.928745,-1.4582024,-12.526486,-28.619516
141,-0.49141180515289307,-204.23681640625,78.90558624267578,3.006847107903159,-2.111783322775409,84.83781174209265,7.282023,-2.909389,2.2659466,49.079643,6.403481,-10.58528,-16.094967,-1.4107857,-10.71507,5.3235703,23.094395,6.3775806,-8.593747,-5.182226,12.414489,15.023516,19.391056,-17.94104,-33.410927,22.071228,0.16298777,17.190506,40.901726,-13.795252,16.73426,-14.991183,-0.9090058,-12.686261,-28.579094
142,-0.6903010606765747,-205.7635040283203,78.88555908203125,2.9663113502161553,-1.9063002214493858,84.42686897252256,8.262285,-2.9861453,3.3608959,45.95868,7.2339725,-9.241202,-16.424097,-1.3085556,-10.636428,5.301161,23.246706,6.977007,-8.340597,-5.1389246,12.382229,15.123976,19.703243,-17.517176,-34.27371,20.781805,-0.5921678,17.31738,40.21999,-13.743928,16.974348,-14.904427,-0.4394943,-12.818481,-28.525263
143,-0.9035589098930359,-207.3130645751953,78.81879425048828,2.7358248433465504,-1.7601683928105334,83.90717426801866,9.230055,-2.7776043,4.690719,42.991283,7.4526854,-7.688986,-16.50354,-1.0184247,-10.874043,5.3274956,23.064034,6.888883,-8.049162,-4.910517,12.481723,15.446725,19.930973,-16.976124,-35.14073,19.623892,-1.3658551,17.590874,39.233566,-13.870727,17.32747,-14.697206,-0.11533076,-12.924727,-28.489048
144,-1.1063841581344604,-208.89193725585938,78.6640853881836,2.319830502936682,-1.6484012513754316,83.3553162492559,10.073557,-2.3179252,6.127035,40.407776,6.621316,-5.9829197,-17.620052,-0.8081128,-11.309039,7.8905673,21.529583,6.0389843,-7.7843184,-4.505711,12.665628,15.917969,20.084614,-16.379877,-35.908257,18.763515,-2.0418928,18.01615,38.02168,-14.128401,17.728268,-14.384213,-0.011983466,-13.008832,-28.494812
145,-1.2955374717712402,-210.49024963378906,78.43733215332031,1.6819838904879096,-1.573009595994174,82.74719233100184,10.83419,-1.5701727,7.7237678,38.115772,4.4624043,-3.8733566,-19.120996,-0.52269655,-11.860812,11.547479,19.375925,4.0380163,-7.541763,-3.9063203,12.946145,16.588787,20.178255,-15.720879,-36.630733,18.289995,-2.590894,18.66378,36.509224,-14.4939575,18.191586,-13.888472,-0.30935857,-13.080951,-28.519007
146,-1.4729135036468506,-212.07814025878906,78.1628646850586,0.9313441527820046,-1.5685155273489784,82.08003716196316,11.582352,-0.70840275,9.434782,36.005703,1.2605546,-1.4905484,-20.756893,-0.26865706,-12.493373,15.972347,16.575283,1.0855005,-7.307076,-3.2232344,13.340546,17.479937,20.217512,-14.978652,-37.34712,18.099882,-3.0702953,19.517479,34.684555,-14.95814,18.756971,-13.220681,-0.9220511,-13.137106,-28.556479
147,-1.6587942838668823,-213.67849731445312,77.85724639892578,0.2608577226663361,-1.6593995989759134,81.45613762849652,12.286045,-0.0069144093,11.007464,34.127003,-2.4377716,0.60512626,-22.27124,-0.2503459,-13.233586,20.680513,13.452094,-2.0285344,-7.103167,-2.6265953,13.829192,18.457651,20.20401,-14.21462,-37.92922,18.067867,-3.4907484,20.450071,32.746883,-15.477459,19.376904,-12.548424,-1.5378767,-13.156498,-28.652584
148,-1.8234103918075562,-215.27134704589844,77.53914642333984,-0.22664075122539568,-1.8442572320745292,80.95743903895516,12.88112,0.42860687,12.275202,32.54649,-6.0698333,1.9155649,-23.457565,-0.60610265,-14.201062,25.262209,10.332685,-4.566397,-6.9080687,-2.1880376,14.385516,19.344233,20.135685,-13.523563,-38.206543,18.071331,-3.8655467,21.332201,30.892906,-15.987693,19.966558,-12.020489,-1.8541762,-13.121605,-28.844072
149,-1.9961031675338745,-216.8486785888672,77.20503997802734,-0.5824387642108916,-2.145239024145229,80.58483784759842,13.408691,0.7204557,13.289016,31.280888,-9.728469,2.15284,-24.247576,-1.3969886,-15.632989,29.752316,7.151449,-6.3000755,-6.6767125,-1.8433777,15.045082,20.037565,20.01441,-12.976536,-38.050396,18.066792,-4.2291656,22.247759,29.136301,-16.43985,20.47058,-11.6268635,-1.8146632,-13.040092,-29.156096
150,-2.156437635421753,-218.4347381591797,76.84783172607422,-0.8930689886282636,-2.539857701171029,80.29616816226911,13.865588,1.0063533,14.185395,30.283484,-13.597257,1.674851,-24.75028,-2.5781002,-17.40307,34.382862,3.7407987,-7.6790123,-6.392411,-1.5205346,15.80101,20.601564,19.847845,-12.5503435,-37.538193,18.128677,-4.5610657,23.226198,27.3755,-16.82078,20.90489,-11.267785,-1.5940391,-12.921047,-29.550531
151,-2.3173463344573975,-220.0206298828125,76.47415924072266,-1.1089264931583716,-2.95216954744362,80.09960999004383,14.095106,1.2400975,14.947985,29.587036,-17.28731,0.98197305,-25.076012,-4.1027174,-19.149288,39.106644,0.26776367,-9.003245,-6.065323,-1.2713903,16.56344,21.104774,19.64385,-12.197153,-36.797195,18.307678,-4.7945766,24.054071,25.634594,-17.131495,21.282951,-10.959218,-1.238315,-12.748952,-29.970383
152,-2.4756417274475098,-221.56985473632812,76.12157440185547,-1.1696351811436172,-3.3131129616392068,80.00339912454633,13.972141,1.3240092,15.4904585,29.175978,-20.398542,0.57931936,-25.336342,-5.8571887,-20.512072,43.79483,-3.052912,-10.550394,-5.7087364,-1.1639928,17.248133,21.620676,19.409073,-11.863152,-35.95871,18.649822,-4.8630433,24.518524,23.94065,-17.38227,21.624939,-10.723589,-0.7897207,-12.507275,-30.361076
153,-2.6295406818389893,-223.09901428222656,75.79822540283203,-1.014559520178064,-3.630767593866944,80.04164368215373,13.399923,1.180459,15.667535,29.176422,-22.868793,0.6117071,-25.605179,-7.883142,-21.46193,48.5566,-6.2263412,-12.5055065,-5.3219767,-1.2658451,17.871157,22.121195,19.147947,-11.536324,-34.984867,19.179628,-4.6815815,24.432894,22.330105,-17.575726,21.91454,-10.615461,-0.105461754,-12.130866,-30.751228
154,-2.7764899730682373,-224.61798095703125,75.506103515625,-0.6849402182096891,-3.939329319595317,80.19509804846778,12.471366,0.8663586,15.546118,29.567863,-24.92384,0.82863146,-25.81021,-10.174217,-22.164862,53.373035,-9.33615,-14.685073,-4.8961463,-1.5364501,18.473732,22.592457,18.86378,-11.237009,-33.839046,19.865822,-4.3141522,23.952225,20.777933,-17.712439,22.148563,-10.605858,0.7874491,-11.652353,-31.162073
155,-2.93517804145813,-226.1150360107422,75.25198364257812,-0.16564244416500482,-4.251192155495787,80.48863363477906,11.465062,0.28831193,15.24163,29.91971,-26.503716,1.1990556,-25.906061,-12.586512,-22.150122,58.031845,-12.290177,-15.000033,-4.5183473,-1.9812456,19.03865,23.133821,18.558971,-10.959697,-32.65592,20.669493,-3.9156914,23.376072,19.220154,-17.80764,22.37197,-10.597921,1.593585,-11.195859,-31.52375
156,-3.0925817489624023,-227.57620239257812,75.04827117919922,0.45764174266901636,-4.5437967985779,80.86610568252704,10.542728,-0.45951167,14.94225,29.984629,-27.622692,1.6266047,-25.784513,-14.97245,-21.855417,62.223663,-14.941325,-15.000033,-4.2268167,-2.5302055,19.531332,23.853865,18.233444,-10.694498,-31.58168,21.543367,-3.6337082,23.007719,17.59683,-17.882994,22.639273,-10.506543,2.0211825,-10.880166,-31.762587
157,-3.24293851852417,-229.011962890625,74.89982604980469,1.0366355307004216,-4.718745627540955,81.19730805365792,9.514722,-1.1185015,14.834989,30.010187,-28.40624,2.0895238,-25.491016,-17.11516,-21.49837,65.84132,-17.164316,-15.000033,-3.912295,-3.0264215,19.862688,24.800472,17.88241,-10.4453,-30.63486,22.542347,-3.4932034,22.915022,15.872831,-17.951845,22.970259,-10.319249,1.9568986,-10.738699,-31.863518
158,-3.3587682247161865,-230.41317749023438,74.82296752929688,1.6230560258720295,-4.805739306016066,81.51995407238738,8.335277,-1.7504272,14.813054,30.076962,-28.831644,2.624282,-25.06699,-19.107796,-21.070139,69.05828,-19.019299,-15.000033,-3.5762224,-3.5207806,20.069786,25.912048,17.502588,-10.220754,-29.741453,23.666454,-3.4171813,22.94232,14.09645,-18.016699,23.335953,-10.095809,1.5728135,-10.704044,-31.864733
159,-3.4760515689849854,-231.77890014648438,74.8177719116211,2.1598917145996923,-4.8463549004594455,81.78033726215035,7.129587,-2.3065205,14.8510895,30.060856,-28.904423,3.1246142,-24.483425,-20.80123,-20.571507,71.7796,-20.49337,-15.000033,-3.172229,-3.9379318,20.201689,27.13336,17.095837,-10.0189295,-28.903942,24.78125,-3.3930135,23.06117,12.331796,-18.079113,23.726543,-9.8555565,1.007457,-10.7427435,-31.771406
160,-3.5676229000091553,-233.13319396972656,74.8788833618164,2.5822395906966515,-4.879644704306373,81.92396901940533,6.0173783,-2.7330751,14.917226,29.844831,-28.633013,3.4835765,-23.716217,-22.044199,-20.005827,73.907135,-21.569162,-15.000033,-2.6530218,-4.2011,20.305061,28.413046,16.666319,-9.831473,-28.131235,25.749968,-3.4093008,23.243437,10.636805,-18.140203,24.140284,-9.6099825,0.40030727,-10.8229265,-31.58772
161,-3.6390058994293213,-234.47491455078125,75.0141830444336,2.8779787024481913,-4.918086901857388,81.90065607966383,5.029645,-3.0077035,15.003992,29.413912,-28.019796,3.691544,-22.744982,-22.76323,-19.346052,75.41998,-22.21902,-15.000033,-1.9783337,-4.2912774,20.38351,29.788078,16.207127,-9.650443,-27.433922,26.655216,-3.4629006,23.531181,8.989071,-18.19747,24.596134,-9.312587,-0.30624828,-10.982233,-31.298487
162,-3.700425148010254,-235.8071746826172,75.22293853759766,3.067874987823826,-4.932528856663913,81.74920479052372,4.080508,-3.1224933,15.1190195,28.856485,-27.075644,3.7912998,-21.5934,-23.034882,-18.643736,76.39229,-22.455372,-15.000033,-1.1816055,-4.2361703,20.402443,31.263096,15.713032,-9.490505,-26.796879,27.529907,-3.5563014,23.924475,7.3652043,-18.249428,25.100248,-8.961115,-1.1524159,-11.227506,-30.908598
163,-3.741391658782959,-237.119384765625,75.5057601928711,3.137682019503673,-4.90167726672137,81.5514588780871,3.1235662,-3.0545971,15.242905,28.202694,-25.820488,3.7567012,-20.299164,-22.940119,-18.012259,76.8608,-22.328114,-15.000033,-0.32746458,-4.0322027,20.352882,32.744423,15.195891,-9.3682575,-26.20308,28.161242,-3.691578,24.33434,5.8254886,-18.298769,25.633291,-8.639975,-1.970401,-11.477799,-30.449682
164,-3.7726428508758545,-238.4390869140625,75.85181427001953,3.0777805265061335,-4.80591773651183,81.38988103730082,2.1181145,-2.7976022,15.353657,27.476244,-24.271885,3.5650187,-18.903313,-22.563837,-17.55066,76.85929,-21.887817,-15.000033,0.5231618,-3.6820676,20.230206,34.143524,14.679199,-9.295465,-25.650154,28.332088,-3.8741126,24.672958,4.4371133,-18.350986,26.168127,-8.446231,-2.5918398,-11.648832,-29.950176
165,-3.7797470092773438,-239.74774169921875,76.24395751953125,2.8748711161941847,-4.649089729625607,81.24216348944753,1.0793197,-2.3339508,15.454113,26.665735,-22.392378,3.17191,-17.350063,-21.887142,-17.286829,76.2991,-21.132212,-15.000033,1.4157165,-3.1605737,20.037779,35.446617,14.1787615,-9.277715,-25.133074,27.874203,-4.164159,24.921696,3.2595487,-18.411276,26.686491,-8.452587,-2.9134007,-11.68959,-29.39033
166,-3.775505304336548,-241.07406616210938,76.70022583007812,2.663006517833553,-4.495603118273002,81.1725665146962,0.15508604,-1.8890998,15.457933,25.561289,-20.080748,2.642065,-15.585439,-21.053099,-17.102858,75.24454,-20.101349,-15.000033,2.2803268,-2.61552,19.825994,36.704296,13.698179,-9.307285,-24.672712,26.932993,-4.5416837,25.123318,2.261021,-18.4815,27.19642,-8.612478,-3.042331,-11.651379,-28.762331
167,-3.782902717590332,-242.36776733398438,77.1883773803711,2.57992782569666,-4.373946569483201,81.32165293989452,-0.56637233,-1.7250315,15.285889,23.990534,-17.323355,2.1071608,-13.73953,-20.128372,-16.445301,73.91536,-18.852957,-13.107559,2.963984,-2.2077696,19.62423,37.925396,13.24433,-9.367812,-24.305147,25.761436,-4.8927517,25.284786,1.3637727,-18.563013,27.708002,-8.840847,-3.1282332,-11.602834,-28.111229
168,-3.767822265625,-243.67422485351562,77.69915771484375,2.3788223023196133,-4.161365099890127,81.58021452294211,-1.4421597,-1.4313194,15.01152,22.474716,-14.447007,1.5522412,-12.009957,-18.939323,-15.786983,72.38972,-17.355562,-11.202492,3.5394182,-1.7388284,19.323494,39.102432,12.823761,-9.446313,-24.04963,24.611124,-5.1023383,25.422285,0.4808952,-18.65644,28.230385,-9.0419655,-3.3192563,-11.617209,-27.481602
169,-3.7374839782714844,-244.9994354248047,78.22663116455078,2.018375708200588,-3.8143008356849,81.9839580334451,-2.558267,-0.96581966,14.58065,21.05695,-11.401706,1.0408776,-10.42928,-17.436573,-15.198082,70.626396,-15.4690695,-9.665468,3.9871504,-1.1822252,18.88436,40.230885,12.444369,-9.543055,-23.919521,23.448626,-5.1167526,25.537874,-0.40783882,-18.76412,28.776705,-9.200271,-3.6480324,-11.725002,-26.878677
170,-3.6757047176361084,-246.33230590820312,78.74801635742188,1.5307804960855527,-3.3562475921302535,82.50054753915644,-3.850998,-0.37809226,14.004911,19.671175,-8.143099,0.5235025,-8.932449,-15.634667,-14.616792,68.56183,-13.235895,-8.298683,4.348014,-0.54800254,18.333357,41.315414,12.108068,-9.657886,-23.905262,22.170485,-5.0033903,25.630474,-1.2599154,-18.887138,29.333199,-9.366622,-4.0372357,-11.885172,-26.281199
171,-3.6020233631134033,-247.67202758789062,79.2505111694336,0.9848979590178848,-2.8539548280728937,83.06522582734348,-5.207407,0.25405934,13.357472,18.300262,-4.808183,-0.116215676,-7.5145807,-13.681948,-14.010577,66.33254,-10.922503,-7.03638,4.644674,0.10127178,17.746643,42.372032,11.811158,-9.774467,-23.99741,20.924606,-4.8290625,25.714764,-2.0618591,-19.021677,29.871752,-9.553258,-4.470162,-12.065155,-25.694143
172,-3.5163462162017822,-249.0478057861328,79.71592712402344,0.4455822850311418,-2.3790357276751037,83.61471303788028,-6.495648,0.8689009,12.707627,16.907244,-1.5303028,-1.0022252,-6.1604714,-11.727807,-13.367256,64.07376,-8.790906,-5.824541,4.895527,0.70625335,17.20204,43.417725,11.546303,-9.87612,-24.18552,19.860813,-4.6611733,25.80093,-2.8047183,-19.160728,30.367188,-9.76484,-4.9321823,-12.231822,-25.121513
173,-3.4264605045318604,-250.44305419921875,80.14037322998047,-0.11834399474532592,-1.9234196720801628,84.15466082870635,-7.7214594,1.4693744,11.960734,15.293327,1.9397429,-2.1811547,-4.8987384,-9.688767,-12.64338,61.781784,-6.8316345,-4.656587,5.087321,1.282661,16.697271,44.49294,11.304791,-9.947036,-24.503382,18.960001,-4.5012264,25.909363,-3.5250967,-19.30218,30.832169,-9.991519,-5.4791,-12.37939,-24.550491
174,-3.3198819160461426,-251.8311767578125,80.50492858886719,-0.7297778390121465,-1.4597465140939674,84.71005769568652,-8.911374,2.0990036,11.067208,13.501475,5.579139,-3.6131127,-3.7161546,-7.5411935,-11.857289,59.390842,-4.920513,-3.5684009,5.210227,1.857221,16.204004,45.583378,11.084699,-9.992988,-24.947317,18.165276,-4.319411,26.027245,-4.2238,-19.445837,31.278542,-10.226922,-6.1006317,-12.525239,-23.983515
175,-3.2087490558624268,-253.2176971435547,80.79936981201172,-1.3194500026334306,-1.0379925972188953,85.2462330657198,-9.980485,2.7622585,10.204712,11.892256,8.844228,-5.2753024,-2.5328832,-5.506749,-11.113072,56.94866,-3.1384866,-2.583335,5.2902284,2.397564,15.76183,46.62444,10.892427,-10.031928,-25.45246,17.568756,-4.133897,26.112907,-4.8412795,-19.588507,31.678562,-10.4709,-6.6860056,-12.670291,-23.44502
176,-3.1254730224609375,-254.60458374023438,81.03314971923828,-1.8182598087497144,-0.7115016168198294,85.72815725798377,-10.848403,3.4300134,9.618521,10.812612,11.220154,-7.1067595,-1.2774752,-3.8023572,-10.521261,54.514442,-1.560177,-1.72357,5.358848,2.8648682,15.410571,47.54802,10.741586,-10.08467,-25.95113,17.260933,-3.9611914,26.124968,-5.313379,-19.725548,31.99884,-10.7294445,-7.1237164,-12.811594,-22.958654
177,-3.055171012878418,-255.97720336914062,81.18407440185547,-2.24016275609453,-0.5100454836444765,86.13273262607117,-11.3874035,4.126958,9.547141,10.160347,12.55872,-9.390744,0.10573778,-2.4409516,-10.137924,52.04286,-0.19234124,-0.92522645,5.43681,3.2735991,15.162242,48.3853,10.642624,-10.153058,-26.472483,17.321001,-3.7805629,26.039541,-5.633984,-19.85853,32.2313,-11.013842,-7.3688526,-12.953909,-22.488724
178,-2.986152172088623,-257.3583068847656,81.26807403564453,-2.590147628364365,-0.40061881030748775,86.48823321991736,-11.725978,4.82584,9.900503,9.899666,13.141333,-12.008667,1.5565978,-1.3357908,-9.904098,49.529514,1.0217952,-0.190081,5.505949,3.608116,14.996205,49.151283,10.599892,-10.227147,-27.035809,17.678617,-3.5909734,25.883001,-5.8292403,-19.9891,32.38435,-11.320031,-7.4869866,-13.0940695,-22.036213
179,-2.9140663146972656,-258.7489013671875,81.29548645019531,-2.757806097989259,-0.33778902380104703,86.83979615939678,-12.183732,5.404562,10.452375,10.496905,13.092415,-14.277242,2.950675,-0.5721797,-9.777331,47.127914,2.0831974,0.36412686,5.538512,3.763767,14.899474,49.748493,10.620028,-10.31027,-27.550535,18.199368,-3.4387448,25.68949,-5.885566,-20.109554,32.44957,-11.624516,-7.5357466,-13.217057,-21.678858
180,-2.863485813140869,-260.1381530761719,81.27901458740234,-2.5814433849443126,-0.2656417652806271,87.27549852233453,-12.929726,5.6387897,11.082748,12.073008,12.676147,-15.000033,4.1266446,-0.31951234,-9.74642,45.08039,2.9315612,0.6418478,5.4649525,3.5907147,14.853376,50.092316,10.710902,-10.409367,-27.9367,18.748358,-3.3680797,25.496058,-5.7922215,-20.20919,32.41794,-11.896096,-7.5743055,-13.308293,-21.491968
181,-2.799166202545166,-261.5295104980469,81.21475982666016,-2.236341087637409,-0.22903436242921402,87.72596653591224,-14.236691,5.841489,11.271674,15.382065,11.513619,-15.000033,5.129821,-0.3741233,-9.854667,43.305614,3.8787796,0.43603867,5.36012,3.259351,14.881899,50.123066,10.886022,-10.533674,-28.149868,19.36372,-3.4200323,25.317436,-5.5345125,-20.273973,32.269417,-12.132485,-7.6064143,-13.359864,-21.522238
182,-2.7349205017089844,-262.94024658203125,81.09345245361328,-1.842596694378874,-0.25583563298610834,88.15904453491993,-15.842582,6.1279407,11.209391,19.949884,9.67789,-14.400476,6.03977,-0.59693563,-10.14227,41.69248,4.862172,-0.16228244,5.2507896,2.8897471,14.983066,49.92116,11.149092,-10.686024,-28.26419,20.08908,-3.559948,25.13894,-5.1219106,-20.302492,32.00958,-12.339101,-7.608119,-13.379579,-21.715265
183,-2.6801228523254395,-264.3575744628906,80.90247344970703,-1.3282379306560694,-0.295014313881765,88.61265561962007,-17.393513,6.3299513,11.312225,24.78582,7.697562,-12.953156,6.830827,-1.026379,-10.5800905,40.25424,5.373914,-0.8907718,5.096018,2.4019713,15.109682,49.57854,11.486621,-10.854555,-28.342953,20.797972,-3.7184577,24.95061,-4.583686,-20.304335,31.670618,-12.492026,-7.593682,-13.379221,-22.001644
184,-2.6504220962524414,-265.77239990234375,80.6252212524414,-0.8195236430151285,-0.32541286863778357,89.00269249358853,-18.814983,6.62487,11.601342,29.62495,5.719058,-11.604288,7.588764,-1.4242574,-11.083596,38.757313,5.0674767,-1.5706316,4.9694176,1.9076058,15.227349,49.16445,11.874412,-11.018269,-28.431898,21.367512,-3.8281808,24.736376,-3.9524014,-20.291103,31.289911,-12.574056,-7.5767403,-13.37179,-22.3168
185,-2.611506462097168,-267.19439697265625,80.27265167236328,-0.21248842959027212,-0.2974368240056601,89.32385867158423,-20.155184,6.9779644,12.260351,34.564377,3.6957746,-10.365033,8.302656,-1.919822,-11.706656,37.13275,3.7736218,-2.366004,4.866557,1.3039821,15.303253,48.6712,12.298561,-11.175518,-28.522192,21.834183,-3.8621733,24.47788,-3.2279937,-20.269625,30.870636,-12.566004,-7.5378466,-13.354636,-22.670834
186,-2.5820229053497314,-268.6246032714844,79.82890319824219,0.49431197548430683,-0.24153880290530283,89.59883357746361,-21.450726,7.402341,13.126722,39.80051,1.4972006,-8.979113,8.951315,-2.5477655,-12.440778,35.490032,1.7208796,-3.3168373,4.7650476,0.5984618,15.365862,48.060738,12.755394,-11.334258,-28.585327,22.246666,-3.8618016,24.182514,-2.3966196,-20.240028,30.40238,-12.491947,-7.4745746,-13.323117,-23.092302
187,-2.5560877323150635,-270.0480041503906,79.3234634399414,1.1300703926488165,-0.2336602571657256,89.83290843877462,-22.586695,7.98311,13.888026,45.115173,-0.76824886,-7.5572453,9.567169,-3.0757244,-13.1183605,33.911873,-0.8666857,-4.0363574,4.660588,-0.04071711,15.467404,47.35857,13.232255,-11.484683,-28.627367,22.500507,-3.8602946,23.870596,-1.4790976,-20.204216,29.906645,-12.382377,-7.4273386,-13.285717,-23.542809
188,-2.5292716026306152,-271.4505310058594,78.78388214111328,1.5280029294367463,-0.3473730402065346,90.02751220099735,-23.46293,8.758987,14.258938,50.271976,-2.9587605,-6.23093,10.192794,-3.278252,-13.598457,32.427677,-3.745116,-4.1485014,4.545741,-0.45049,15.662644,46.593037,13.709299,-11.613447,-28.658512,22.493185,-3.8902934,23.561596,-0.4995139,-20.16403,29.412643,-12.26598,-7.435439,-13.249918,-23.98409
189,-2.475594997406006,-272.83465576171875,78.22624206542969,1.653933609478807,-0.6212830213895447,90.20787653519497,-24.08291,9.706068,14.1824465,55.334084,-5.0810523,-5.012395,10.963381,-3.0910985,-13.867901,30.848343,-7.115068,-3.276362,4.3911448,-0.5944423,15.9843645,45.759068,14.177473,-11.704169,-28.688791,22.085348,-3.9807434,23.218626,0.5502347,-20.119633,28.932636,-12.139587,-7.465135,-13.228446,-24.399971
190,-2.4321446418762207,-274.202880859375,77.63489532470703,1.6154870411568032,-1.0014305279882159,90.36144015698767,-24.496456,10.750827,13.835518,60.372208,-7.176229,-3.856812,11.808106,-2.7015102,-14.078778,29.188423,-11.016559,-1.7700866,4.2032886,-0.5810402,16.395426,44.84872,14.63353,-11.762378,-28.710718,21.372782,-4.104392,22.840563,1.6698399,-20.069448,28.464281,-11.984368,-7.5086074,-13.212832,-24.813665
191,-2.3888115882873535,-275.5686950683594,77.02310943603516,1.4462279148773722,-1.423883376750784,90.43360163025682,-24.692114,11.851009,13.302454,65.181076,-9.142075,-2.8264618,12.464597,-2.221443,-14.290875,27.777327,-14.958643,-0.2829893,4.024159,-0.45316872,16.847637,43.885075,15.061304,-11.806064,-28.70098,20.60733,-4.212458,22.50095,2.8241627,-20.010239,28.020311,-11.805292,-7.643835,-13.178334,-25.24711
192,-2.3372998237609863,-276.9304504394531,76.4194107055664,1.1644835243505147,-1.8328044996163064,90.37474372098887,-24.660994,12.990296,12.654253,69.56661,-10.884606,-1.9846761,12.691899,-1.6949872,-14.457126,26.937683,-18.434055,0.59262335,3.8840594,-0.23468846,17.296415,42.888916,15.435586,-11.850857,-28.632526,20.044727,-4.262038,22.273922,3.9661481,-19.94053,27.61799,-11.596568,-7.9501314,-13.098846,-25.720434
193,-2.285832166671753,-278.2746887207031,75.84683990478516,0.7128045081905282,-2.261725008053954,90.13971477583706,-24.373081,14.2486105,11.867819,73.576035,-12.398139,-1.3816975,12.419072,-1.0296234,-14.427013,26.835468,-21.40936,0.71199715,3.8046145,0.13234936,17.780697,41.840546,15.733911,-11.897625,-28.454847,19.713655,-4.2591357,22.219355,5.051994,-19.859838,27.282963,-11.316066,-8.490402,-12.947036,-26.275343
194,-2.236659049987793,-279.62420654296875,75.30229187011719,0.09393641990943485,-2.7342037454975516,89.77273259534581,-23.838655,15.609221,10.938958,77.29669,-13.724031,-0.990608,11.78756,-0.19460653,-14.2083435,27.296312,-24.142542,0.43142506,3.740952,0.6547397,18.309546,40.73573,15.948723,-11.929272,-28.186604,19.499912,-4.226039,22.279009,6.093416,-19.76946,27.017769,-10.95558,-9.208936,-12.738816,-26.886847
195,-2.1861188411712646,-280.9647216796875,74.80997467041016,-0.6015852233187753,-3.1823418065975475,89.35952748064678,-23.11709,16.924454,9.958003,80.606384,-14.846098,-0.75398165,10.908671,0.7061398,-13.947656,28.072779,-26.548965,-0.08409961,3.6252584,1.2380433,18.798298,39.615013,16.08038,-11.938348,-27.89369,19.443775,-4.1456647,22.351194,7.1356344,-19.67048,26.799532,-10.571046,-10.00428,-12.512346,-27.476465
196,-2.140810012817383,-282.295166015625,74.37561798095703,-1.27682091390116,-3.5322453500485467,88.98151036125853,-22.276146,18.04808,9.014778,83.38143,-15.749017,-0.60583633,9.880619,1.5571666,-13.807683,28.913118,-28.526743,-0.6764405,3.399387,1.781957,19.162598,38.51844,16.135061,-11.921215,-27.643572,19.584057,-3.9996843,22.335817,8.228467,-19.56344,26.59988,-10.220209,-10.776111,-12.311506,-27.967646
197,-2.127448558807373,-283.58428955078125,74.01178741455078,-1.9545606948788046,-3.7387429252105675,88.61066268874923,-21.348658,18.995245,8.095466,85.62668,-16.411432,-0.555344,8.642482,2.3848004,-13.849429,29.82533,-30.048391,-1.4359518,3.0785387,2.304944,19.358788,37.46128,16.107058,-11.866975,-27.44387,20.022821,-3.7202673,22.230276,9.382202,-19.450394,26.431282,-9.895814,-11.574733,-12.1396265,-28.352007
198,-2.1385879516601562,-284.8492736816406,73.71539306640625,-2.669253392969805,-3.8499804309287606,88.2168015337096,-20.297369,19.828823,7.1859646,87.41013,-16.843498,-0.6269837,7.177031,3.2292461,-13.99171,30.898739,-31.165348,-2.4113402,2.687093,2.8435738,19.441006,36.42078,15.993309,-11.777213,-27.258867,20.710213,-3.3393846,22.075737,10.570004,-19.3326,26.304104,-9.572145,-12.428066,-11.97792,-28.667355
199,-2.1548402309417725,-286.0762634277344,73.51164245605469,-3.336744648504409,-3.9264250392382576,87.87580410445011,-19.095266,20.481644,6.3636646,88.7069,-17.078032,-0.76741064,5.6361074,3.9848013,-14.193147,32.006645,-31.881668,-3.37779,2.189381,3.3218844,19.47178,35.375572,15.815128,-11.673414,-27.095188,21.453426,-2.9888513,21.842203,11.795305,-19.208979,26.178564,-9.288128,-13.204944,-11.840453,-28.906828
200,-2.1804873943328857,-287.2818603515625,73.39299011230469,-3.8783769783207873,-4.025767242997046,87.6652792683647,-17.724667,20.892365,5.693293,89.49831,-17.14939,-0.9198293,4.1667876,4.5451083,-14.407776,33.02863,-32.196125,-4.10491,1.5581661,3.663295,19.513102,34.3033,15.611755,-11.587538,-26.96564,22.053757,-2.7984772,21.50971,13.077048,-19.075783,26.004053,-9.096413,-13.773762,-11.743261,-29.063984
201,-2.2183098793029785,-288.4554443359375,73.35901641845703,-4.255115917456836,-4.171001949302748,87.60734086986737,-16.137695,21.01277,5.2031183,89.75165,-17.028677,-1.0537649,2.7203,4.8276796,-14.619619,34.127823,-32.056454,-4.498507,0.7900962,3.8276343,19.58766,33.192535,15.406705,-11.521765,-26.884869,22.446375,-2.8543673,21.022152,14.4578495,-18.926825,25.744432,-9.032236,-14.064148,-11.707135,-29.089552
202,-2.2874155044555664,-289.6273498535156,73.38977813720703,-4.516641482313051,-4.324062844442005,87.65869988460224,-14.3756695,20.893951,4.8384147,89.49813,-16.706491,-1.1972781,1.2477939,4.8985696,-14.855576,35.292793,-31.469337,-4.682509,-0.08193846,3.8596756,19.654875,32.054092,15.205887,-11.477856,-26.847221,22.72726,-3.067355,20.41864,15.937097,-18.755524,25.42003,-9.079696,-14.156892,-11.721873,-29.003447
203,-2.389227867126465,-290.79473876953125,73.51300048828125,-4.7102635871995355,-4.450927994697413,87.79890448942606,-12.546211,20.633593,4.5459676,88.807495,-16.260218,-1.3654094,-0.11125904,4.8743176,-15.126797,36.16173,-30.531374,-4.7509575,-1.0283097,3.8114324,19.680035,30.896746,15.027706,-11.491403,-26.837189,22.937904,-3.3010924,19.82488,17.467218,-18.559364,25.058786,-9.210566,-14.14791,-11.756502,-28.901665
204,-2.4893364906311035,-291.9591369628906,73.71807861328125,-4.883866074616775,-4.518445364428726,88.00826423481371,-10.754926,20.3287,4.2744884,87.74994,-15.766291,-1.5773612,-1.2217464,4.8707056,-15.44771,36.38268,-29.344534,-4.8062506,-2.014707,3.738839,19.631496,29.733042,14.897763,-11.6026945,-26.841782,23.120413,-3.4179516,19.368084,19.009706,-18.338572,24.68188,-9.40468,-14.132885,-11.7805,-28.879961
205,-2.6001646518707275,-293.074951171875,74.00303649902344,-5.0747208262686945,-4.523532966884255,88.32880591324619,-8.998316,20.010855,3.9856482,86.296104,-15.214087,-1.8692248,-1.9967006,4.937262,-15.863697,35.787468,-27.903194,-4.873718,-3.0751793,3.6724772,19.502377,28.561438,14.835363,-11.8478,-26.86894,23.303728,-3.337331,19.114325,20.597263,-18.090746,24.279457,-9.691616,-14.128544,-11.78814,-28.976906
206,-2.7034034729003906,-294.18701171875,74.3545150756836,-5.24841743955401,-4.480651368070854,88.75486081665643,-7.2304482,19.626238,3.7051568,84.43032,-14.5778055,-2.2222652,-2.5285752,4.9950595,-16.343798,34.597187,-26.170082,-4.901669,-4.1999507,3.5831392,19.304506,27.379892,14.84339,-12.214119,-26.925938,23.450876,-3.142422,18.99132,22.251566,-17.809515,23.838003,-10.083193,-14.084052,-11.796038,-29.136824
207,-2.8046910762786865,-295.2934265136719,74.76964569091797,-5.3503790603327515,-4.383840473823885,89.19577473543124,-5.488875,19.14188,3.4837453,82.238174,-13.913863,-2.574849,-2.9527624,4.9738784,-16.79378,33.053307,-24.204433,-4.885584,-5.291613,3.4375412,19.036406,26.20031,14.9187155,-12.664365,-27.002125,23.508484,-2.942123,18.917389,23.911924,-17.491488,23.37159,-10.528731,-13.996889,-11.807307,-29.314487
208,-2.8947231769561768,-296.4064025878906,75.22859191894531,-5.327145304156478,-4.228896598589032,89.56034835144312,-3.8153448,18.524881,3.3711448,79.80958,-13.279667,-2.8639338,-3.406044,4.81994,-17.124517,31.396479,-22.060768,-4.82187,-6.256276,3.200889,18.697044,25.03307,15.054571,-13.153148,-27.087683,23.424597,-2.8464375,18.80981,25.512148,-17.13632,22.895363,-10.974895,-13.865181,-11.824405,-29.46541
209,-3.018625259399414,-297.5355529785156,75.72045135498047,-5.155441531675183,-4.0118616085229934,89.82978809650407,-2.175447,17.760473,3.4266586,77.07176,-12.705077,-3.0557208,-3.8716004,4.5441656,-17.310444,29.569126,-19.722168,-4.705495,-7.0816526,2.8495955,18.267288,23.870941,15.24944,-13.685802,-27.18054,23.15791,-2.9017813,18.6439,27.0687,-16.743834,22.391005,-11.419734,-13.686223,-11.84954,-29.585949
210,-3.1480631828308105,-298.6593017578125,76.24633026123047,-4.866076256872647,-3.737411636863189,90.05155915846417,-0.5575862,16.858904,3.600192,74.007256,-12.160716,-3.1926455,-4.2992916,4.1945677,-17.402348,27.483465,-17.168688,-4.5466185,-7.8163095,2.4090114,17.750708,22.709204,15.502765,-14.2798195,-27.286402,22.744692,-3.0430493,18.46367,28.600937,-16.313091,21.857756,-11.886344,-13.462428,-11.88078,-29.697292
211,-3.2977356910705566,-299.79986572265625,76.79313659667969,-4.487857201386107,-3.414773678366065,90.23571878451837,0.96677417,15.823328,3.7804117,70.770836,-11.604276,-3.3236806,-4.775174,3.7708414,-17.424885,25.335756,-14.45042,-4.3616433,-8.463059,1.9104549,17.181936,21.564396,15.805726,-14.90172,-27.407927,22.252298,-3.214089,18.28695,30.044567,-15.844728,21.338938,-12.358573,-13.200998,-11.914136,-29.791798
212,-3.4685871601104736,-300.9583740234375,77.34883880615234,-4.053221670356341,-3.0524684572297365,90.391940459907,2.326511,14.664921,3.8578024,67.51524,-10.989675,-3.4972262,-5.3825126,3.2585366,-17.39598,23.32638,-11.618306,-4.165465,-9.027709,1.385778,16.59784,20.453327,16.144876,-15.512174,-27.548145,21.751856,-3.3609095,18.130083,31.329203,-15.343609,20.878408,-12.815018,-12.911491,-11.944709,-29.862278
213,-3.6367616653442383,-302.1333312988281,77.88827514648438,-3.5164405252102915,-2.637873825198678,90.51208816113166,3.5290413,13.307728,3.828144,64.16741,-10.299231,-3.751024,-6.165203,2.5641167,-17.319422,21.519024,-8.636496,-4.019971,-9.514003,0.79695696,15.981493,19.360815,16.512897,-16.110008,-27.698746,21.222254,-3.4759905,18.005146,32.469288,-14.809453,20.473219,-13.254961,-12.558273,-11.966372,-29.927917
214,-3.818722724914551,-303.34332275390625,78.41614532470703,-2.8874217048842272,-2.168982718365589,90.59455555417948,4.613767,11.781041,3.7349484,60.67056,-9.553123,-4.056121,-7.0927634,1.7401356,-17.17712,19.826986,-5.501083,-3.902227,-9.920824,0.1518308,15.323168,18.277903,16.90875,-16.709475,-27.856491,20.642921,-3.5874496,17.897697,33.485493,-14.2453,20.10073,-13.686928,-12.151454,-11.982298,-29.98546
215,-4.013856410980225,-304.5764465332031,78.91487121582031,-2.277377335181478,-1.6704820004203502,90.65697656752374,5.557791,10.261673,3.5608804,57.20344,-8.773823,-4.3453326,-8.1196785,0.959406,-16.93923,18.21547,-2.312529,-3.6900086,-10.2484255,-0.45372292,14.675088,17.235645,17.32718,-17.292982,-28.035625,20.088108,-3.6955314,17.784166,34.321228,-13.667701,19.775112,-14.10457,-11.767316,-12.002759,-29.996134
216,-4.223063945770264,-305.8470764160156,79.3622817993164,-1.7821114032479406,-1.1697745606467047,90.7171345248088,6.3253813,8.918917,3.2937968,53.96343,-7.9853454,-4.548263,-9.169071,0.37010196,-16.563934,16.615744,0.84589696,-3.2473807,-10.5012,-0.93491817,14.093659,16.269144,17.760305,-17.837524,-28.25107,19.631926,-3.8009543,17.639637,34.92465,-13.105259,19.511894,-14.510415,-11.480267,-12.034974,-29.921131
217,-4.4347052574157715,-307.1397399902344,79.74996948242188,-1.4186745672291412,-0.6431949729926489,90.7830198598253,6.863169,7.7647405,2.8965888,50.967426,-7.19526,-4.700609,-10.271696,0.013258252,-15.933275,14.860182,4.2215085,-2.6212037,-10.689054,-1.2655746,13.57845,15.3780985,18.204248,-18.333637,-28.525747,19.316133,-3.9090874,17.430105,35.313732,-12.576446,19.314213,-14.938757,-11.286187,-12.082368,-29.749382
218,-4.652198791503906,-308.4489440917969,80.07563018798828,-1.1262821613875904,-0.08803870680614018,90.84516981068776,7.200007,6.7115264,2.396708,48.13181,-6.3951483,-4.8148847,-11.418269,-0.24885534,-15.057576,13.013541,7.7658105,-1.8110397,-10.816546,-1.5054978,13.110896,14.555028,18.657934,-18.784887,-28.854212,19.094881,-4.018955,17.176075,35.516804,-12.089842,19.173323,-15.394783,-11.147897,-12.138255,-29.50446
219,-4.859419345855713,-309.7718505859375,80.3423080444336,-0.8717997689806547,0.4283382589895698,90.90099441051797,7.4312463,5.7551775,1.8824043,45.48446,-5.5724363,-4.783742,-12.414413,-0.5074507,-14.098733,11.235217,10.998534,-0.62178355,-10.890152,-1.7157058,12.725114,13.831867,19.117357,-19.18292,-29.211273,18.913536,-4.1219344,16.933584,35.50449,-11.662671,19.090595,-15.841877,-11.089025,-12.195012,-29.200996
220,-5.027615547180176,-311.1125793457031,80.57029724121094,-0.6146229736564303,0.8351722484328765,90.9542801562307,7.6504807,4.8732586,1.4387264,43.05926,-4.7157774,-4.5013447,-13.118253,-0.82402664,-13.255516,9.762994,13.409518,1.1017113,-10.927976,-1.9679083,12.455805,13.244715,19.577005,-19.513119,-29.573242,18.718008,-4.2098036,16.75752,35.249294,-11.3175335,19.07198,-16.247759,-11.13167,-12.24543,-28.854767
221,-5.205080509185791,-312.4548645019531,80.71827697753906,-0.3036364685108769,1.1032359527867694,91.01395103450695,7.8467994,3.9858317,1.0228847,40.901337,-3.65107,-3.8466587,-13.398287,-1.2128239,-12.618586,8.469539,14.885096,3.7811716,-10.950005,-2.3209665,12.32213,12.814964,20.038172,-19.757553,-29.960678,18.502258,-4.2936463,16.663988,34.726173,-11.075837,19.14106,-16.610468,-11.31939,-12.292505,-28.436987
222,-5.401584148406982,-313.7940368652344,80.78154754638672,0.004164917088059659,1.2739821527754809,91.07358597929358,7.9649315,3.1508346,0.621466,39.003387,-2.4533098,-2.912277,-13.403801,-1.603379,-12.15512,7.3577313,15.682458,7.1589622,-10.956231,-2.699451,12.307276,12.53607,20.501057,-19.90874,-30.390366,18.293236,-4.374969,16.62304,33.956993,-10.945549,19.294958,-16.955124,-11.619147,-12.339221,-27.954193
223,-5.604891300201416,-315.1396789550781,80.7880859375,0.16435245502862283,1.390236367276887,91.1064417216029,8.0181,2.5710843,0.3603589,37.332016,-1.4931668,-1.925847,-13.454019,-1.8864294,-11.903739,6.9121265,15.846688,10.3407135,-10.926945,-2.94403,12.388301,12.393233,20.952898,-19.970896,-30.820482,18.086727,-4.4311547,16.62143,32.977676,-10.921768,19.500986,-17.278326,-11.938547,-12.377809,-27.475462
224,-5.796494960784912,-316.48626708984375,80.75386047363281,0.06051123304342105,1.491488092047303,91.09096343890438,8.031581,2.405448,0.35406584,35.834225,-1.1309348,-1.1161686,-13.878023,-1.9879535,-11.827317,7.655923,15.371011,12.466411,-10.840628,-2.9263585,12.537943,12.35901,21.373589,-19.95613,-31.196228,17.882013,-4.4395494,16.643223,31.826996,-10.992337,19.72244,-17.573576,-12.190008,-12.398475,-27.067722
225,-5.981947422027588,-317.8458251953125,80.66078186035156,-0.3707639547215172,1.602999110222113,91.0306863243896,7.983503,2.753637,0.6535199,34.46636,-1.3835558,-0.49463347,-14.766419,-1.8653489,-11.89002,9.761948,14.1230755,13.168245,-10.7003,-2.5781875,12.73727,12.413421,21.75061,-19.874834,-31.484243,17.651005,-4.386914,16.691801,30.469404,-11.152664,19.97497,-17.811356,-12.381231,-12.396144,-26.761501
226,-6.169946193695068,-319.19757080078125,80.51305389404297,-1.0294154719324993,1.6990866181813051,90.9339385248339,7.8712273,3.4579363,1.1924919,33.24863,-2.0754755,0.020368086,-15.904298,-1.6178069,-12.094771,12.872084,12.179577,12.958917,-10.5154295,-2.0036955,12.989509,12.562498,22.081457,-19.71927,-31.699299,17.409094,-4.2884874,16.768423,28.898584,-11.400951,20.278091,-17.999582,-12.551053,-12.375562,-26.51639
227,-6.354983806610107,-320.5715026855469,80.30197143554688,-1.7382828775609072,1.7323232416669352,90.80020859730259,7.790031,4.250077,1.8942425,32.16205,-3.2396467,0.3513507,-17.107492,-1.4143747,-12.405838,16.616,9.869974,12.33024,-10.280055,-1.3811489,13.302943,12.815035,22.362352,-19.47966,-31.856222,17.221394,-4.163258,16.85216,27.207127,-11.725801,20.598045,-18.189133,-12.663586,-12.341386,-26.29186
228,-6.532981872558594,-321.95660400390625,80.03841400146484,-2.3424072209237283,1.6585854933548323,90.62622151271255,7.831211,4.9121146,2.6847115,31.196465,-4.906383,0.44182372,-18.199333,-1.3921436,-12.813442,20.638649,7.5280123,11.758611,-9.977556,-0.86139435,13.6900015,13.168086,22.58738,-19.154463,-31.958662,17.153135,-4.0297804,16.923042,25.485617,-12.109697,20.890875,-18.429981,-12.68485,-12.29873,-26.046057
229,-6.706760883331299,-323.3255615234375,79.72501373291016,-2.8452367326567174,1.4553310334657679,90.39452668081464,8.071122,5.475875,3.64595,30.338654,-7.3008103,0.22735657,-19.136473,-1.5703627,-13.379171,24.952732,5.16867,11.292017,-9.5762205,-0.4440177,14.171977,13.595716,22.750723,-18.741682,-31.96719,17.26835,-3.9044015,16.973785,23.728415,-12.5426035,21.13924,-18.73986,-12.572721,-12.240664,-25.733358
230,-6.900443077087402,-324.6619567871094,79.37471008300781,-3.294292868676477,1.1442124840926422,90.12486744863375,8.458246,6.0182686,4.798378,29.571083,-10.311031,-0.21107127,-19.95416,-1.9271657,-14.05788,29.632702,2.6688936,10.693516,-9.096973,-0.07970638,14.733843,14.096522,22.850742,-18.253117,-31.881598,17.518183,-3.7724626,17.013222,21.896826,-13.022469,21.3655,-19.083197,-12.361707,-12.166407,-25.385284
231,-7.0963263511657715,-325.9909973144531,78.98341369628906,-3.640366771240033,0.7554898511339422,89.8600129951834,8.859148,6.44321,5.964309,28.931147,-13.500587,-0.70573825,-20.610485,-2.4774356,-14.718224,34.427998,0.15920559,10.000879,-8.588251,0.19520831,15.339444,14.695204,22.88711,-17.713102,-31.751799,17.797394,-3.6061757,17.047785,20.027012,-13.54347,21.576664,-19.428612,-12.132685,-12.092098,-25.074175
232,-7.28739070892334,-327.30426025390625,78.54823303222656,-3.840727284248477,0.3200441190456568,89.63777388174736,9.142327,6.6631474,6.9431195,28.449905,-16.437422,-1.1074419,-21.085808,-3.2161524,-15.237997,39.123024,-2.2423685,9.257962,-8.090612,0.34623554,15.954744,15.412391,22.86119,-17.149935,-31.627602,18.00101,-3.3777514,17.084242,18.152643,-14.098624,21.777864,-19.741144,-11.966944,-12.035264,-24.870535
233,-7.477034568786621,-328.6075439453125,78.08840942382812,-3.892883849956052,-0.19176666693498856,89.46934774675746,9.308266,6.667203,7.636848,28.149836,-19.114594,-1.4754128,-21.37505,-4.1653614,-15.635421,43.799625,-4.5733805,8.438633,-7.606024,0.3667593,16.615553,16.244314,22.770542,-16.568066,-31.499317,18.08353,-3.064792,17.086369,16.257877,-14.6869545,21.96386,-20.019348,-11.893792,-12.004299,-24.809725
234,-7.686128616333008,-329.90704345703125,77.61434173583984,-3.8220578758175443,-0.7829127296827434,89.32937288803514,9.393947,6.508646,8.156551,28.043068,-21.753418,-1.8483454,-21.483255,-5.3069267,-15.947224,48.521755,-6.879767,7.52852,-7.107773,0.28193063,17.328196,17.176245,22.612701,-15.962366,-31.341578,18.106503,-2.6872735,17.064325,14.328571,-15.307822,22.137682,-20.270525,-11.867542,-11.989735,-24.847383
235,-7.899343967437744,-331.18646240234375,77.14521026611328,-3.633382278238274,-1.3831202486722523,89.19695726617681,9.338732,6.198921,8.592397,28.116928,-24.254087,-2.0693836,-21.434355,-6.5542927,-16.098911,53.07493,-9.05724,6.6000247,-6.5882497,0.105242506,18.018442,18.210705,22.39232,-15.346956,-31.182007,18.124153,-2.281239,17.094883,12.400828,-15.950636,22.314379,-20.473427,-11.857648,-11.9836645,-24.934992
236,-8.109187126159668,-332.445068359375,76.69075012207031,-3.332072470345715,-1.921381294996826,89.05147426906778,9.089337,5.7499833,9.026557,28.34853,-26.502499,-1.991252,-21.265894,-7.8098164,-16.032183,57.252686,-11.000145,5.73246,-6.036627,-0.15097666,18.612263,19.3512,22.119726,-14.739207,-31.052088,18.189186,-1.8819991,17.255587,10.5111885,-16.59844,22.502182,-20.607159,-11.835899,-11.978248,-25.023056
237,-8.320435523986816,-333.6754455566406,76.25489807128906,-2.8680560470979053,-2.389858241169403,88.88482790609366,8.639406,5.0908623,9.472585,28.726957,-28.539757,-1.4809628,-21.032564,-9.105037,-15.709437,61.13988,-12.694128,4.9144053,-5.437713,-0.5457937,19.101435,20.617825,21.806034,-14.151492,-30.964699,18.339966,-1.482769,17.607626,8.638692,-17.248384,22.68354,-20.667862,-11.79912,-11.977738,-25.102995
238,-8.52319049835205,-334.8905334472656,75.86104583740234,-2.2591083625724924,-2.821667403882791,88.70548447886333,8.0282,4.238228,9.871812,29.250103,-30.404715,-0.65574855,-20.719778,-10.453737,-15.18998,64.81866,-14.191082,4.1245265,-4.7923326,-1.065956,19.52818,22.000633,21.454966,-13.584014,-30.90139,18.534637,-1.0680562,18.09832,6.7752423,-17.900524,22.85388,-20.664793,-11.764516,-11.984815,-25.19763
