unveil-humanoid-operators/unveil-humanoid-operators.github.io/feature-analysis-animation/data/feature_matrix_instances/gender_ankle_rom_walking_A093_walk_hands_on_back_loop_001__A093.csv
Frame,root_translateX,root_translateY,root_translateZ,root_rotateX,root_rotateY,root_rotateZ,left_hip_pitch_joint_dof,left_hip_roll_joint_dof,left_hip_yaw_joint_dof,left_knee_joint_dof,left_ankle_pitch_joint_dof,left_ankle_roll_joint_dof,right_hip_pitch_joint_dof,right_hip_roll_joint_dof,right_hip_yaw_joint_dof,right_knee_joint_dof,right_ankle_pitch_joint_dof,right_ankle_roll_joint_dof,waist_yaw_joint_dof,waist_roll_joint_dof,waist_pitch_joint_dof,left_shoulder_pitch_joint_dof,left_shoulder_roll_joint_dof,left_shoulder_yaw_joint_dof,left_elbow_joint_dof,left_wrist_roll_joint_dof,left_wrist_pitch_joint_dof,left_wrist_yaw_joint_dof,right_shoulder_pitch_joint_dof,right_shoulder_roll_joint_dof,right_shoulder_yaw_joint_dof,right_elbow_joint_dof,right_wrist_roll_joint_dof,right_wrist_pitch_joint_dof,right_wrist_yaw_joint_dof
0,-0.8470078706741333,-1.2678916454315186,74.10942077636719,-6.50179177339017,3.4426567346079016,83.8370224381965,-33.84517,12.637277,10.385649,6.38573,-3.0186863,-4.4402366,16.423826,10.698567,-0.114398085,7.214329,-21.175415,-3.520303,-0.6951657,6.5545177,7.2700562,18.59942,13.555164,-94.83386,14.11323,9.632406,-8.115714,8.902026,12.460206,-0.6632809,99.95592,8.417642,-19.901487,16.044914,9.9366045
1,-0.854232907295227,-0.511297881603241,74.04698181152344,-6.206867001903313,3.685371297000136,83.85591765088107,-33.565865,11.88597,9.676244,6.414885,-2.186677,-3.7086773,16.744818,10.204773,-0.17481315,7.300677,-20.98425,-3.3265007,-0.8098895,6.1483655,6.974895,18.500677,13.601504,-94.772865,14.055893,9.732183,-8.134122,8.639686,12.382636,-0.5955414,99.92639,8.446511,-19.905764,16.015013,9.983579
2,-0.8891123533248901,0.2242889702320099,74.00996398925781,-5.9176710905289704,3.918940906199116,83.87563563086874,-33.276054,11.137463,8.965285,6.4542723,-1.3946224,-3.011332,17.082619,9.732812,-0.2444408,7.3959208,-20.82971,-3.1345432,-0.9306737,5.744011,6.6919045,18.405884,13.65495,-94.70939,13.991294,9.838084,-8.152516,8.364005,12.311932,-0.5184454,99.90156,8.481123,-19.911682,15.985082,10.034123
3,-0.9504491686820984,0.9166997671127319,74.01203155517578,-5.573988179222287,4.154607141867898,83.88847793810562,-33.004055,10.34069,8.285908,6.4860935,-0.48096454,-2.2997198,17.408842,9.195221,-0.32291698,7.5080004,-20.633926,-2.9154713,-1.0460523,5.2853775,6.4016547,18.309353,13.696631,-94.640465,13.940297,9.93422,-8.172729,8.113199,12.229437,-0.4574948,99.87632,8.503764,-19.91289,15.955773,10.075648
4,-1.0167073011398315,1.62030029296875,74.02003479003906,-5.108492786567849,4.406946908295609,83.88440247313349,-32.772396,9.446069,7.686801,6.4868126,0.71741587,-1.517578,17.696905,8.494874,-0.41108268,7.643595,-20.3238,-2.6352403,-1.1463196,4.7068634,6.0827036,18.206564,13.725381,-94.55538,13.905896,10.00695,-8.196584,7.921933,12.119857,-0.41104174,99.851776,8.523637,-19.900795,15.928031,10.09357
5,-1.0820415019989014,2.352499008178711,74.0424575805664,-4.447001572617525,4.710194798644765,83.84041197627914,-32.62659,8.376062,7.1503544,6.4309072,2.4030223,-0.49846628,17.05623,7.5152893,-0.6182262,9.605769,-20.85333,-2.2260537,-1.2167351,3.9379692,5.7029943,18.09543,13.738366,-94.425446,13.869524,10.048492,-8.235012,7.7401714,11.97097,-0.38043332,99.80713,8.547678,-19.83941,15.8963375,10.096172
6,-1.1602721214294434,3.1114962100982666,74.09080505371094,-3.611101868839985,5.057637984489455,83.75924058116091,-32.537556,7.168838,6.731664,6.3318357,4.4333816,0.69676274,16.09811,6.3014765,-0.82772666,12.160952,-21.60625,-1.714932,-1.2608814,2.995561,5.274786,17.979979,13.739429,-94.26207,13.833018,10.067736,-8.2830515,7.568711,11.794571,-0.3602393,99.7515,8.577343,-19.74443,15.861891,10.08661
7,-1.2478768825531006,3.8814659118652344,74.13082122802734,-2.6874853275495725,5.3998041912347645,83.66886730798467,-32.41558,5.9473243,6.562861,6.2253685,6.443221,1.7897373,15.149186,4.976914,-1.0010853,14.744595,-22.262207,-1.1989802,-1.298765,1.9457686,4.8442492,17.868477,13.730245,-94.107025,13.842787,10.08024,-8.319722,7.5159626,11.607296,-0.34133172,99.73069,8.59572,-19.684212,15.8371105,10.04506
8,-1.3337513208389282,4.671810150146484,74.16654205322266,-1.7924391966450484,5.677551865626087,83.59866553831452,-32.167683,4.849409,6.701411,6.147183,8.065583,2.4933763,14.317499,3.693443,-1.1427318,17.247257,-22.732244,-0.7850862,-1.3325837,0.89514977,4.459802,17.758648,13.71547,-94.04002,13.940149,10.093456,-8.3209095,7.704938,11.4310465,-0.32670912,99.77478,8.583849,-19.728958,15.834859,9.948013
9,-1.4293510913848877,5.449209690093994,74.20478057861328,-0.9379622179011371,5.879954048894222,83.55206167433094,-31.769796,3.908272,7.2142,6.106189,9.227486,2.7116532,13.618152,2.4626684,-1.2466007,19.648474,-23.02611,-0.51009345,-1.3668317,-0.15071532,4.112605,17.647406,13.695926,-94.072556,14.166959,10.1087475,-8.307391,8.230131,11.266616,-0.310015,99.91711,8.531743,-19.95228,15.872192,9.747541
10,-1.4914262294769287,6.227801322937012,74.24635314941406,-0.08261117260195464,6.039835865996737,83.52497719170844,-31.269567,3.0522802,8.0015,6.0841255,10.118419,2.6177046,12.985886,1.2265745,-1.3250504,22.002335,-23.174557,-0.32196078,-1.4098102,-1.2233393,3.7763867,17.53485,13.65874,-94.17202,14.500744,10.119508,-8.282404,9.010369,11.105638,-0.27638283,100.13882,8.470973,-20.295605,15.940556,9.464372
11,-1.555600643157959,6.9961466789245605,74.30186462402344,0.7255035041070622,6.155472855499919,83.53380261644558,-30.687786,2.2708282,8.830553,6.0781054,10.769288,2.303638,12.419475,0.05350713,-1.4193355,24.29158,-23.112991,-0.20283525,-1.457396,-2.251973,3.481943,17.418951,13.636755,-94.33949,14.839782,10.125454,-8.197513,9.886144,10.946717,-0.2536067,100.36138,8.395624,-20.638935,16.005545,9.198658
12,-1.623563289642334,7.769584655761719,74.3668441772461,1.4326460147528677,6.220417855262301,83.58990943776044,-30.054562,1.5519971,9.476365,6.0803537,11.204865,1.8433907,11.922183,-0.98349607,-1.5677954,26.504663,-22.78,-0.13606045,-1.5329714,-3.1663241,3.263182,17.313437,13.616326,-94.54727,15.123816,10.127999,-8.00551,10.702331,10.796579,-0.2309837,100.56654,8.342385,-20.850422,16.03951,9.027872
13,-1.6778538227081299,8.532974243164062,74.4364013671875,1.9921113945304596,6.209684372526734,83.71380666547931,-29.367422,0.90762645,9.878826,6.0952053,11.349786,1.0811999,11.546209,-1.8196298,-1.7997571,28.593094,-22.111698,-0.15114066,-1.6429358,-3.921919,3.152401,17.207766,13.600267,-94.82885,15.36039,10.127199,-7.6174254,11.516842,10.643127,-0.21194811,100.75366,8.313338,-20.905151,16.028627,8.990499
14,-1.7360899448394775,9.295612335205078,74.51322937011719,2.4318607170830013,6.132605654336401,83.89640989565493,-28.635674,0.3222143,10.158878,6.1232047,11.201463,0.021401735,11.258099,-2.5028496,-2.1030304,30.601793,-21.16979,-0.2592,-1.7741783,-4.5509787,3.121753,17.101019,13.59,-95.188194,15.57653,10.115368,-7.0836015,12.381305,10.4901905,-0.1970882,100.93452,8.296808,-20.869284,15.989778,9.036641
15,-1.7852317094802856,10.056055068969727,74.60746765136719,2.807887533407353,6.030328781837469,84.09913290946069,-27.904572,-0.24751276,10.366459,6.1581273,10.892015,-1.0253942,10.936063,-3.1257017,-2.4472156,32.668,-20.078016,-0.4113232,-1.9006411,-5.0971026,3.1241193,17.015081,13.586057,-95.55918,15.728234,10.090293,-6.566483,13.125407,10.364426,-0.1889816,101.078964,8.289624,-20.754093,15.935191,9.125713
16,-1.830966591835022,10.787195205688477,74.70662689208984,3.1774073512335397,5.941942852782223,84.28115540969283,-27.203026,-0.8256346,10.536743,6.19013,10.582543,-1.7511469,10.472777,-3.7775435,-2.7933848,34.90791,-18.95412,-0.5514469,-2.00732,-5.608737,3.116886,16.972961,13.586285,-95.85801,15.772404,10.059035,-6.229571,13.574372,10.291075,-0.19099204,101.170166,8.290782,-20.569557,15.877694,9.215439
17,-1.8879003524780273,11.512162208557129,74.82317352294922,3.547113604538408,5.868324319626642,84.4417076600088,-26.515514,-1.396258,10.648309,6.2196136,10.31624,-2.0627043,9.84564,-4.4615183,-3.135626,37.374138,-17.785183,-0.69592017,-2.077407,-6.0893126,3.102555,16.984613,13.587893,-96.09111,15.688856,10.0454035,-6.114863,13.660317,10.29101,-0.2037866,101.18028,8.29755,-20.27908,15.833723,9.345804
18,-1.9523015022277832,12.23330307006836,74.95254516601562,3.887117235554188,5.789439157645126,84.59738085396104,-25.823624,-1.9449021,10.689243,6.249615,10.0198765,-2.1263523,9.115265,-5.136546,-3.4890776,39.994556,-16.521368,-0.86238366,-2.1315846,-6.5191565,3.1043994,17.040403,13.590187,-96.27657,15.505752,10.046319,-6.136671,13.478691,10.343437,-0.22931044,101.135,8.308462,-19.88967,15.792916,9.522093
19,-2.020250082015991,12.948967933654785,75.0892333984375,4.202710533981522,5.712305963263357,84.73244454728035,-25.140312,-2.4812307,10.695345,6.274077,9.692631,-2.028575,8.304834,-5.8187118,-3.8388057,42.69103,-15.2194395,-0.99331766,-2.149105,-6.895067,3.1142213,17.106062,13.592582,-96.45076,15.259693,10.005765,-6.2602415,13.134279,10.421872,-0.28061455,101.03584,8.308877,-19.484707,15.727012,9.652509
20,-2.104264974594116,13.672247886657715,75.23343658447266,4.501116985427222,5.646258304246318,84.83456076356192,-24.47954,-3.011154,10.7016,6.28913,9.333445,-1.8565704,7.430219,-6.528267,-4.1702724,45.400978,-13.944543,-1.0330365,-2.1656313,-7.2255993,3.1164944,17.170544,13.590109,-96.57666,14.983426,9.88399,-6.4541516,12.712073,10.498238,-0.34318867,100.95006,8.319337,-19.135586,15.60834,9.633372
21,-2.216261386871338,14.365245819091797,75.3825912475586,4.784676443525461,5.597328890663656,84.89391568622993,-23.84266,-3.5345829,10.704541,6.293725,8.92953,-1.5924038,6.4624352,-7.2737875,-4.4590006,48.191826,-12.702933,-0.97423005,-2.1587863,-7.4998903,3.1072137,17.226976,13.572173,-96.6725,14.6631155,9.599906,-6.76025,12.185959,10.568355,-0.46227401,100.85506,8.30467,-18.898832,15.392032,9.384558
22,-2.321748733520508,15.052227973937988,75.5286865234375,5.049598294352542,5.560736814007344,84.9216350558625,-23.212862,-4.039718,10.684532,6.289186,8.481065,-1.2106602,5.3973866,-8.041131,-4.7143407,51.08637,-11.473181,-0.8445677,-2.146318,-7.7227936,3.093205,17.29162,13.536056,-96.71703,14.293728,9.2001295,-7.1768284,11.516324,10.648508,-0.592792,100.76118,8.306985,-18.718922,15.105692,8.9717865
23,-2.4314184188842773,15.730175018310547,75.67467498779297,5.296013167379145,5.529692751204616,84.93790436537297,-22.586535,-4.5179143,10.655128,6.279462,8.010603,-0.78490865,4.283997,-8.822961,-4.9723268,53.962723,-10.282672,-0.64798105,-2.1360302,-7.909625,3.077508,17.35625,13.478622,-96.73947,13.944828,8.813893,-7.603034,10.803391,10.73125,-0.7423006,100.66282,8.292674,-18.524988,14.823328,8.53953
24,-2.5268611907958984,16.402015686035156,75.8106460571289,5.5222140986915695,5.496124606029612,84.96140132205355,-21.963644,-4.9639797,10.631901,6.2682285,7.541495,-0.38123947,3.1724405,-9.612119,-5.271586,56.698906,-9.157696,-0.39752147,-2.1427033,-8.074983,3.064346,17.41397,13.405034,-96.75628,13.6763,8.576372,-7.9429817,10.147525,10.810927,-0.897918,100.5678,8.250702,-18.240824,14.619975,8.227956
25,-2.6246230602264404,17.04709815979004,75.9410171508789,5.727898816744295,5.472888740373957,84.99315935104067,-21.36537,-5.3797984,10.627412,6.2544303,7.083801,0.016239434,2.0288908,-10.449331,-5.640623,59.32002,-7.9683456,-0.047695257,-2.1671593,-8.216969,3.0436206,17.450102,13.316937,-96.78165,13.490276,8.577786,-8.176663,9.542597,10.891495,-1.0532782,100.48026,8.187221,-17.75887,14.523531,8.10408
26,-2.718635082244873,17.691694259643555,76.06594848632812,5.917182600877995,5.459094740812834,85.02543797329844,-20.787182,-5.7724867,10.634272,6.236382,6.6254187,0.43532872,0.83871824,-11.337778,-6.04861,61.888237,-6.7533274,0.37265885,-2.202093,-8.331523,3.0175183,17.470734,13.214493,-96.80427,13.357058,8.729656,-8.358343,8.948105,10.975541,-1.204722,100.394936,8.116964,-17.146929,14.492285,8.082106
27,-2.8098649978637695,18.335460662841797,76.18905639648438,6.0892865993290535,5.425644475805212,85.0622472444979,-20.1927,-6.140869,10.638427,6.217141,6.1613073,0.83377767,-0.32221192,-12.219876,-6.450111,64.342224,-5.7891793,0.7489353,-2.2485824,-8.429137,3.0081742,17.501265,13.101892,-96.80409,13.284123,8.902937,-8.501258,8.414372,11.054599,-1.3493304,100.30574,8.035542,-16.59087,14.495612,8.072966
28,-2.8964943885803223,18.972335815429688,76.31023406982422,6.240502002747561,5.343974808810247,85.10633878970262,-19.546087,-6.4840684,10.625285,6.2004786,5.6861863,1.168033,-1.3764759,-13.031702,-6.806965,66.61294,-5.3539324,0.9828393,-2.3069916,-8.519272,3.0370438,17.568228,12.9864855,-96.760994,13.276157,8.9689865,-8.616546,7.991101,11.119797,-1.4844153,100.20629,7.935485,-16.276402,14.501796,7.988424
29,-2.9799649715423584,19.598787307739258,76.42152404785156,6.363028154480425,5.204700058505913,85.1583989752593,-18.835487,-6.7849,10.594651,6.187482,5.190708,1.4065078,-2.2877476,-13.770608,-7.156581,68.68984,-5.612684,1.0219405,-2.3801033,-8.597935,3.1119516,17.686789,12.8755,-96.65708,13.338809,8.8562355,-8.700293,7.687496,11.161993,-1.6077237,100.08415,7.798941,-16.355484,14.547281,7.7795596
30,-3.0441317558288574,20.227767944335938,76.51820373535156,6.459113789650773,5.023889805729563,85.21599066142714,-18.08213,-7.0496984,10.554358,6.1758995,4.682346,1.5823888,-3.1017795,-14.461681,-7.5093513,70.607956,-6.38982,0.94286233,-2.4655092,-8.661818,3.2200818,17.839914,12.772837,-96.507545,13.459397,8.647591,-8.748474,7.4778924,11.188874,-1.7174038,99.946396,7.637541,-16.694193,14.635438,7.5021214
31,-3.103116989135742,20.852252960205078,76.61160278320312,6.5423722016384165,4.81195010092089,85.2769100883733,-17.298477,-7.3032146,10.496632,6.166766,4.174137,1.7436891,-3.8654864,-15.069966,-7.7912836,72.36215,-7.4518027,0.8521382,-2.5547125,-8.717259,3.352565,18.002174,12.685005,-96.34304,13.607208,8.443681,-8.768187,7.3593407,11.219108,-1.8088295,99.8153,7.4976826,-17.051178,14.683538,7.224786
32,-3.1612958908081055,21.478073120117188,76.6986083984375,6.627295330191935,4.579262244208768,85.3380576181372,-16.496696,-7.5674033,10.412523,6.162209,3.6833181,1.9336064,-4.628653,-15.560536,-7.931049,73.9515,-8.567016,0.8523104,-2.6386569,-8.768585,3.500226,18.149254,12.612513,-96.19333,13.760598,8.344703,-8.769186,7.3290668,11.269205,-1.883159,99.71301,7.417979,-17.18564,14.605829,7.01499
33,-3.2158565521240234,22.09060287475586,76.78034210205078,6.721775533973648,4.313132396315654,85.39553254546175,-15.658177,-7.8479,10.292456,6.1639404,3.208772,2.1529994,-5.385168,-15.888473,-7.8790445,75.354164,-9.758916,0.9920687,-2.7015893,-8.820753,3.674794,18.275629,12.582596,-96.06599,13.900702,8.398357,-8.750312,7.3958855,11.352886,-1.9141508,99.641174,7.4509053,-16.967276,14.307338,6.8949666
34,-3.2744998931884766,22.721267700195312,76.85262298583984,6.834275372376025,4.011692529132563,85.45075782753203,-14.789358,-8.14217,10.150121,6.1908517,2.7297583,2.3759465,-6.1203637,-16.096857,-7.681811,76.579185,-11.119506,1.21865,-2.7578487,-8.892972,3.8763506,18.399446,12.563704,-95.935524,14.071557,8.545631,-8.710199,7.5555115,11.45239,-1.9347304,99.59274,7.530367,-16.54847,13.857196,6.833039
35,-3.321873426437378,23.34687042236328,76.91959381103516,6.9411156787111405,3.701657687935567,85.50722093533369,-13.912109,-8.426226,9.991765,6.217588,2.2563574,2.5980518,-6.8627467,-16.234417,-7.4336495,77.65019,-12.506517,1.4692038,-2.8277264,-8.959575,4.0823336,18.516203,12.546349,-95.803955,14.248307,8.723755,-8.650583,7.789815,11.55426,-1.9548451,99.5699,7.6194887,-16.10918,13.412896,6.8045626
36,-3.3850181102752686,23.96832275390625,76.98236083984375,7.034530963525785,3.4107556048527625,85.56959228902379,-13.06403,-8.695894,9.83523,6.244792,1.7863246,2.8211765,-7.6459517,-16.372843,-7.212203,78.60018,-13.783741,1.6891108,-2.904069,-9.008398,4.2697644,18.612597,12.538167,-95.71821,14.398982,8.863348,-8.572667,8.097065,11.652984,-1.9652427,99.55134,7.6941104,-15.829181,13.133502,6.778758
37,-3.442408800125122,24.580183029174805,77.03337860107422,7.115450284034666,3.14301179250379,85.64068015125272,-12.249718,-8.958265,9.685273,6.2715087,1.3233588,3.0678082,-8.47876,-16.51012,-7.011063,79.43278,-14.94219,1.8627094,-2.9992418,-9.04222,4.430011,18.691349,12.536063,-95.67573,14.522857,8.947732,-8.467077,8.516067,11.743422,-1.968133,99.53989,7.740722,-15.78292,13.091054,6.7559495
38,-3.5034234523773193,25.185972213745117,77.08370971679688,7.187216027819868,2.8844569023368845,85.7175263149999,-11.450691,-9.213526,9.532725,6.2978163,0.8664791,3.32671,-9.343827,-16.614143,-6.7972884,80.13055,-16.043032,2.019016,-3.103988,-9.063859,4.5799766,18.751392,12.537765,-95.668076,14.63579,9.009545,-8.3360615,9.037901,11.827029,-1.9663693,99.53479,7.774784,-15.864717,13.190823,6.7486424
39,-3.5566165447235107,25.79239845275879,77.13150024414062,7.244912452889056,2.6376903057970145,85.79650960863016,-10.66915,-9.4472065,9.375417,6.323781,0.40728366,3.5555358,-10.235211,-16.710869,-6.604593,80.69087,-17.052917,2.17362,-3.2098303,-9.070007,4.720807,18.799511,12.543624,-95.68373,14.7366295,9.067473,-8.201158,9.57134,11.916062,-1.9592499,99.537575,7.806211,-15.987494,13.341097,6.7464213
40,-3.609245538711548,26.381237030029297,77.17338562011719,7.279069160548562,2.4049782018161867,85.87432172070295,-9.907083,-9.644434,9.210815,6.3489676,-0.060778864,3.7170136,-11.145533,-16.82088,-6.469788,81.10903,-17.940775,2.3417933,-3.294474,-9.050078,4.868856,18.818243,12.5615225,-95.73052,14.815185,9.130778,-8.082492,10.032637,12.007214,-1.9378453,99.53475,7.851094,-16.058182,13.45008,6.7337136
41,-3.663907289505005,26.974565505981445,77.20980072021484,7.284960934042621,2.1878964361922275,85.94683585573355,-9.167029,-9.799755,9.044493,6.3726883,-0.54066306,3.798642,-12.072356,-16.940018,-6.405376,81.37248,-18.674198,2.5835035,-3.3588736,-8.998339,5.0273504,18.805002,12.585603,-95.7925,14.873139,9.204743,-7.9806914,10.405645,12.099258,-1.9125519,99.52861,7.902445,-16.047596,13.498549,6.7119675
42,-3.7082154750823975,27.558866500854492,77.23928833007812,7.265975879208708,1.9855712789449602,86.01772424681914,-8.449196,-9.92537,8.877534,6.394498,-1.0252228,3.829048,-13.018085,-17.05772,-6.395189,81.48566,-19.276972,2.8726637,-3.4085877,-8.918216,5.189366,18.764421,12.620384,-95.8796,14.909384,9.281726,-7.886254,10.736834,12.193092,-1.8804778,99.52103,7.9552,-16.00569,13.53472,6.6855445
43,-3.7609198093414307,28.13233757019043,77.26826477050781,7.229848728373738,1.796495789053924,86.09590870538241,-7.753094,-10.0300045,8.700361,6.416194,-1.5065341,3.8335028,-13.985183,-17.186794,-6.42953,81.4742,-19.800863,3.0985792,-3.4611611,-8.82477,5.3495216,18.710707,12.655334,-95.97681,14.941505,9.366759,-7.808622,11.006176,12.282898,-1.8515302,99.51553,8.001921,-15.964523,13.561609,6.6600604
44,-3.7804651260375977,28.669113159179688,77.29581451416016,7.1849839964529485,1.6190465010720854,86.18979931243136,-7.077288,-10.119693,8.502627,6.4372897,-1.9750893,3.834527,-14.975727,-17.339575,-6.4964676,81.36294,-20.298655,3.151599,-3.505575,-8.726037,5.5060215,18.645838,12.7311945,-96.104836,14.938606,9.461595,-7.75452,11.200577,12.372699,-1.7907752,99.486496,8.077061,-15.9574175,13.580982,6.6433897
45,-3.7970926761627197,29.203065872192383,77.32150268554688,7.130707859591713,1.4468554524841366,86.29138301053727,-6.4151907,-10.194226,8.2857895,6.458586,-2.4309456,3.829688,-15.992761,-17.524189,-6.600709,81.16191,-20.789093,2.9731095,-3.5707362,-8.630868,5.6597543,18.582567,12.777419,-96.228386,14.973435,9.593173,-7.736292,11.302024,12.45368,-1.7534571,99.46787,8.123117,-16.000765,13.59554,6.6398125
46,-3.8272156715393066,29.75417709350586,77.34434509277344,7.063734381907298,1.2829667592152156,86.3997844817732,-5.769053,-10.249188,8.054308,6.4785547,-2.8777728,3.8095953,-17.030846,-17.725494,-6.7477956,80.85349,-21.245525,2.6363535,-3.614904,-8.522682,5.816113,18.498045,12.858338,-96.39599,14.978862,9.746318,-7.743837,11.330608,12.538795,-1.6852398,99.418976,8.196275,-16.077423,13.60105,6.649434
47,-3.8592264652252197,30.303577423095703,77.36534118652344,6.9878051361311515,1.1399734033981093,86.53334687535265,-5.154834,-10.287288,7.803387,6.4993076,-3.3135214,3.7858145,-18.081528,-17.919416,-6.9256744,80.42378,-21.653744,2.229581,-3.6848078,-8.416474,5.958402,18.419456,12.938412,-96.55125,14.98302,9.884019,-7.76518,11.2947035,12.612025,-1.6150423,99.38139,8.268473,-16.157112,13.59963,6.6529894
48,-3.8767197132110596,30.8447322845459,77.39089965820312,6.90675447483395,1.0304868801784206,86.71054995179485,-4.586021,-10.310027,7.52721,6.5186806,-3.7341871,3.770382,-19.135744,-18.086397,-7.122029,79.85804,-21.996984,1.8394979,-3.7942808,-8.31839,6.0743313,18.359596,13.0184555,-96.67943,14.980173,9.963163,-7.785823,11.210825,12.664762,-1.5432879,99.3582,8.341149,-16.213036,13.591247,6.637342
49,-3.885187864303589,31.372570037841797,77.41270446777344,6.820464669189473,0.9709096002540087,86.9591298137427,-4.0855727,-10.31962,7.210192,6.536625,-4.1315846,3.7722702,-20.20998,-18.233343,-7.360557,79.15309,-22.272902,1.4527354,-3.9688318,-8.234328,6.1480103,18.320343,13.10086,-96.77402,14.97357,9.948605,-7.797576,11.05846,12.688526,-1.467827,99.35349,8.418135,-16.2545,13.559555,6.5765977
50,-3.8872485160827637,31.90394401550293,77.43057250976562,6.727044116404941,0.9505524630282537,87.26141478799167,-3.6399732,-10.317033,6.860847,6.5551105,-4.510828,3.785318,-21.299692,-18.36518,-7.642689,78.316505,-22.489195,1.0369155,-4.1907983,-8.15836,6.19055,18.294338,13.186627,-96.847336,14.962724,9.870473,-7.8091664,10.837928,12.69034,-1.3877865,99.36148,8.500042,-16.290653,13.509906,6.485686
51,-3.838491439819336,32.40767288208008,77.45550537109375,6.62846512440461,0.9409766963165431,87.56804771485626,-3.206468,-10.304465,6.5098267,6.573281,-4.888039,3.798393,-22.363619,-18.459642,-7.922484,77.34356,-22.649199,0.6480839,-4.4159007,-8.081302,6.228986,18.282963,13.273581,-96.903984,14.937228,9.785585,-7.8318667,10.594735,12.685638,-1.3069342,99.37841,8.577087,-16.293732,13.474998,6.411368
52,-3.814561367034912,32.93723678588867,77.47167205810547,6.526556273928436,0.9134205132695111,87.82966141382867,-2.7440674,-10.281876,6.187617,6.592276,-5.280557,3.7987018,-23.362637,-18.494987,-8.152785,76.23098,-22.753862,0.3415105,-4.6006474,-7.994187,6.2904143,18.288286,13.356692,-96.948006,14.889388,9.750882,-7.877433,10.374503,12.688798,-1.2330383,99.40128,8.634879,-16.236162,13.487786,6.4006767
53,-3.855912685394287,33.48386764526367,77.47985076904297,6.41985585246696,0.8553820396554298,88.03085337040827,-2.2369008,-10.24433,5.901579,6.612017,-5.693387,3.7801194,-24.285711,-18.459286,-8.313936,74.96363,-22.792145,0.13372456,-4.7370176,-7.894579,6.3882837,18.32143,13.401038,-96.974724,14.847497,9.804021,-7.9600763,10.178154,12.700201,-1.1989112,99.43748,8.632926,-16.05703,13.580844,6.4924626
54,-3.8242735862731934,33.99190139770508,77.49375915527344,6.3080828605779855,0.7835464149293022,88.19867758072664,-1.7101197,-10.191004,5.6359205,6.63301,-6.1174393,3.7484255,-25.15208,-18.3657,-8.434638,73.54601,-22.76561,-0.0053565707,-4.8447247,-7.786524,6.506363,18.37644,13.435046,-96.986,14.790872,9.907506,-8.069653,9.98494,12.714842,-1.1793205,99.48423,8.60055,-15.788724,13.729161,6.65212
55,-3.800548553466797,34.51003646850586,77.5006332397461,6.193499749227532,0.7128891780665906,88.34798723873529,-1.1810063,-10.12702,5.385692,6.653909,-6.548054,3.7078955,-25.969048,-18.227976,-8.53928,72.003876,-22.692064,-0.091255665,-4.93388,-7.6755705,6.6271772,18.437643,13.461743,-96.98625,14.728083,10.001871,-8.184809,9.810834,12.728331,-1.1707578,99.530396,8.556103,-15.546351,13.879393,6.819535
56,-3.795203685760498,35.02577590942383,77.50421905517578,6.079849098286472,0.6584618649017641,88.49344844557382,-0.66967916,-10.055577,5.1458764,6.6755185,-6.9798336,3.6635425,-26.74404,-18.06264,-8.651459,70.36173,-22.588825,-0.13849851,-5.0127034,-7.564032,6.7334256,18.489935,13.478966,-96.983826,14.670624,10.02755,-8.282669,9.671824,12.7363405,-1.1698471,99.56026,8.517574,-15.4450445,13.976247,6.9368987
57,-3.798177719116211,35.555015563964844,77.4987564086914,5.962083460166115,0.6251650828163289,88.6360627667284,-0.18086576,-9.971835,4.920068,6.6972227,-7.41376,3.6164203,-27.476429,-17.874771,-8.789999,68.61004,-22.461435,-0.1402788,-5.085401,-7.450072,6.820051,18.532885,13.496877,-96.96918,14.599576,9.958319,-8.358911,9.570766,12.731661,-1.1741651,99.57924,8.488463,-15.575908,13.996714,6.9785
58,-3.8068041801452637,36.100303649902344,77.49300384521484,5.841598491732851,0.6043883723063272,88.76887112467085,0.29507634,-9.87339,4.708795,6.7187104,-7.8510118,3.5627387,-28.161163,-17.657896,-8.937124,66.737915,-22.29869,-0.09150677,-5.137417,-7.3304777,6.8982606,18.570606,13.5038805,-96.95435,14.529603,9.827497,-8.424648,9.502264,12.719413,-1.1790787,99.5798,8.465317,-15.859078,13.971366,6.982516
59,-3.7919998168945312,36.610755920410156,77.4781494140625,5.726874680627977,0.5917766767921147,88.8957564823804,0.76242435,-9.775838,4.5036645,6.7404966,-8.288638,3.5016382,-28.80142,-17.40546,-9.062896,64.76977,-22.094658,-0.01643849,-5.180516,-7.214579,6.9685836,18.602627,13.50731,-96.9409,14.464515,9.671382,-8.480451,9.463665,12.713148,-1.1849586,99.57386,8.455176,-16.143852,13.930514,6.969658
60,-3.7424278259277344,37.108341217041016,77.46466827392578,5.626800130082555,0.5831456483919182,89.02038115477797,1.2263138,-9.695605,4.295808,6.7608957,-8.722073,3.4330323,-29.402002,-17.11574,-9.134612,62.73179,-21.844908,0.059781406,-5.22271,-7.11363,7.031931,18.629322,13.508037,-96.93336,14.415151,9.528102,-8.525473,9.448994,12.724551,-1.189643,99.5658,8.461091,-16.28179,13.904403,6.967452
61,-3.7407643795013428,37.64897537231445,77.44551086425781,5.538411093162461,0.5677054528157982,89.14192875051765,1.7009735,-9.631359,4.07649,6.781399,-9.158124,3.3475547,-29.95015,-16.78928,-9.149987,60.619816,-21.567019,0.11495718,-5.257774,-7.0143433,7.0953093,18.646332,13.506402,-96.93523,14.37904,9.374446,-8.56081,9.4609165,12.776201,-1.209208,99.53985,8.488187,-16.221695,13.845199,7.0137796
62,-3.7214629650115967,38.167930603027344,77.42068481445312,5.461154214445381,0.5527030124820282,89.25898147441112,2.1781797,-9.581097,3.8535259,6.8008647,-9.595357,3.2491674,-30.45151,-16.433935,-9.117275,58.424507,-21.25798,0.16475011,-5.2929444,-6.926751,7.154387,18.65836,13.504263,-96.94131,14.35279,9.204214,-8.584929,9.511556,12.849945,-1.2163725,99.52573,8.549947,-16.031746,13.761913,7.06665
63,-3.7004568576812744,38.69049072265625,77.38493347167969,5.398903767166884,0.552715683676273,89.376515104075,2.637539,-9.54172,3.6364467,6.819532,-10.021382,3.1566105,-30.919752,-16.049515,-9.033831,56.153828,-20.88031,0.236663,-5.30547,-6.8461595,7.199274,18.657938,13.487997,-96.98279,14.35289,9.0609865,-8.598968,9.580915,12.922552,-1.2529591,99.469604,8.583936,-15.806121,13.743319,7.103368
64,-3.6830358505249023,39.212257385253906,77.33969116210938,5.356806606388902,0.5829938198238506,89.49940839678924,3.0588481,-9.514592,3.4349267,6.8375163,-10.424995,3.0896742,-31.370117,-15.638439,-8.894561,53.815105,-20.398113,0.35745272,-5.343174,-6.7915244,7.2178206,18.658537,13.473897,-97.003494,14.355326,9.006046,-8.604479,9.637706,12.959292,-1.2773968,99.43005,8.610542,-15.604842,13.887801,7.0593348
65,-3.667613983154297,39.724422454833984,77.29994201660156,5.340260214724192,0.6556370476902263,89.62911136965073,3.427521,-9.505227,3.2542982,6.8526735,-10.794792,3.063864,-31.82907,-15.198478,-8.661689,51.415016,-19.766665,0.5250045,-5.3807898,-6.774455,7.2010756,18.651001,13.452995,-97.0379,14.390721,9.082634,-8.5987425,9.694549,12.941786,-1.306914,99.36086,8.589497,-15.403331,14.302105,6.9039636
66,-3.6495890617370605,40.24148941040039,77.25880432128906,5.345273329965115,0.7592997859182604,89.76416020555976,3.7586799,-9.516056,3.086981,6.8660793,-11.140434,3.0675485,-32.276768,-14.737418,-8.344921,48.942356,-19.017088,0.72243077,-5.433495,-6.7833924,7.155081,18.64102,13.433356,-97.068,14.434027,9.256151,-8.580348,9.753693,12.891006,-1.3285199,99.287605,8.560791,-15.170631,14.904993,6.660771
67,-3.629082441329956,40.76121520996094,77.20820617675781,5.3629762150366815,0.8732437984705896,89.90251352212776,4.0759206,-9.538082,2.925142,6.880791,-11.479492,3.0799742,-32.663277,-14.27326,-8.006541,46.38557,-18.222767,0.9551602,-5.4863124,-6.800444,7.103756,18.623518,13.415502,-97.09893,14.477236,9.439965,-8.558899,9.800116,12.836223,-1.3433684,99.214836,8.534357,-15.001249,15.518702,6.4052563
68,-3.596985340118408,41.27213668823242,77.15833282470703,5.38287834543303,0.9768196158490037,90.04275343478777,4.4048433,-9.55957,2.7598417,6.8941054,-11.826221,3.0795724,-32.93908,-13.822396,-7.7112703,43.728592,-17.454239,1.2293867,-5.5301147,-6.8060217,7.069543,18.595678,13.399317,-97.130936,14.508436,9.548869,-8.543735,9.817847,12.807196,-1.353936,99.153404,8.519088,-14.992109,15.965426,6.2144923
69,-3.576119899749756,41.79677200317383,77.10045623779297,5.401287303791273,1.0640879649468313,90.18810559911927,4.74924,-9.582638,2.5839307,6.9088745,-12.187382,3.0607705,-33.086113,-13.392123,-7.468148,40.94232,-16.725298,1.5550919,-5.5610485,-6.7926383,7.0614357,18.551172,13.381662,-97.168144,14.526169,9.547095,-8.5383,9.795684,12.818702,-1.364508,99.101974,8.512537,-15.246563,16.1895,6.117685
70,-3.555729866027832,42.30532455444336,77.03812408447266,5.427278261386297,1.1444877879358204,90.34044165435654,5.099655,-9.612537,2.40088,6.9221687,-12.552966,3.035441,-33.125977,-12.981379,-7.2429166,38.02797,-15.993324,1.9230565,-5.5924354,-6.77428,7.066722,18.495289,13.36576,-97.20278,14.530958,9.4856825,-8.536758,9.743004,12.852279,-1.3743988,99.06322,8.512137,-15.687318,16.289547,6.0706873
71,-3.519507884979248,42.81203842163086,76.97282409667969,5.463124014374806,1.219963284648608,90.49532774186099,5.457632,-9.650043,2.2214184,6.9347577,-12.918479,3.0091453,-33.069523,-12.591293,-7.0379877,35.014362,-15.243907,2.3114216,-5.6214314,-6.7615576,7.07856,18.437822,13.350407,-97.23765,14.536365,9.405178,-8.53669,9.680415,12.888597,-1.3844965,99.03106,8.511512,-16.149275,16.31921,6.049911
72,-3.4895360469818115,43.33588790893555,76.90192413330078,5.513887231234094,1.2921285652623387,90.64869586872634,5.825373,-9.694907,2.055068,6.946876,-13.279868,2.9875975,-32.929523,-12.22438,-6.854909,31.933645,-14.46432,2.6995142,-5.6504884,-6.7655663,7.089379,18.390207,13.332659,-97.271706,14.553068,9.346889,-8.5345335,9.62752,12.90753,-1.3957176,99.00438,8.50641,-16.464909,16.331808,6.030161
73,-3.4620237350463867,43.86906433105469,76.8212890625,5.588476317971604,1.3566739704747284,90.7974390067228,6.2097635,-9.759986,1.909797,6.957422,-13.637575,2.9831345,-32.697956,-11.884879,-6.702402,28.764853,-13.662526,3.0940018,-5.6898713,-6.7947946,7.1000776,18.359884,13.325321,-97.2907,14.5625725,9.309938,-8.524782,9.582413,12.906029,-1.3993723,99.000725,8.515391,-16.564526,16.31837,5.9988036
74,-3.38511061668396,44.37694549560547,76.7408218383789,5.685314599139053,1.4081291086251864,90.95068629805832,6.6142015,-9.848174,1.771442,6.966254,-13.993263,2.9917245,-32.35561,-11.585788,-6.5776215,25.474586,-12.830326,3.4988995,-5.7266984,-6.845046,7.1202826,18.33377,13.31562,-97.32215,14.582621,9.270529,-8.510999,9.545926,12.895246,-1.401729,98.99878,8.525744,-16.54838,16.257784,5.972586
75,-3.350839853286743,44.911376953125,76.64772033691406,5.803547821000352,1.4473741114768102,91.12593800907527,7.033346,-9.952401,1.6147791,6.974195,-14.341467,2.9954035,-31.904549,-11.341264,-6.467682,22.086407,-11.932851,3.894774,-5.791424,-6.9227066,7.1428494,18.32053,13.313912,-97.33305,14.6027355,9.261504,-8.502531,9.502346,12.879665,-1.4013814,99.0033,8.52796,-16.497082,16.187151,5.9672194
76,-3.3323559761047363,45.451499938964844,76.54734802246094,5.9324478046733375,1.4657356337866285,91.34045100406955,7.474425,-10.0547285,1.412666,6.9801683,-14.677625,2.9739845,-31.325535,-11.151555,-6.371435,18.60644,-10.92558,4.267183,-5.890589,-7.021065,7.186135,18.30207,13.3119955,-97.346306,14.63831,9.297978,-8.506599,9.470976,12.847389,-1.3976728,99.010544,8.507014,-16.4784,16.14614,5.977712
77,-3.2426133155822754,45.97944641113281,76.44873809814453,6.090615762798299,1.4703830819161,91.62114588690447,7.926947,-10.176172,1.1412617,6.983376,-14.997397,2.9127898,-30.597382,-11.017697,-6.264709,14.942892,-9.773972,4.6556473,-6.0544963,-7.170568,7.2303557,18.293745,13.314776,-97.339066,14.701314,9.427334,-8.536656,9.434669,12.805526,-1.3896939,99.01403,8.450974,-16.526161,16.142221,6.022948
78,-3.2158045768737793,46.53601837158203,76.33226013183594,6.2902618773920365,1.4460810773343336,91.9670122143124,8.410506,-10.332784,0.80307746,6.9828115,-15.304333,2.8276834,-29.665133,-10.953793,-6.1777143,11.012436,-8.450658,5.061895,-6.2852783,-7.3782873,7.2892227,18.29532,13.325332,-97.313065,14.779419,9.625679,-8.5841255,9.394579,12.7531805,-1.3754963,99.020256,8.369589,-16.596651,16.156094,6.095779
79,-3.1106553077697754,47.06964111328125,76.21709442138672,6.510248326360459,1.382388039849544,92.34017658076661,8.941443,-10.507235,0.42888334,6.9802623,-15.604588,2.7436695,-28.688244,-10.976341,-6.1440363,7.2310033,-7.1294494,5.4230843,-6.545157,-7.6106095,7.3763676,18.300945,13.347068,-97.278366,14.843713,9.81899,-8.628933,9.360011,12.702554,-1.3524458,99.03234,8.286272,-16.66497,16.183815,6.1830535
80,-3.033797264099121,47.631919860839844,76.10089874267578,6.712240961712809,1.2870103490267608,92.68372513957364,9.516693,-10.658588,0.07021299,6.980791,-15.906979,2.6814697,-29.291721,-11.200987,-5.9141235,7.0414615,-7.579949,5.671943,-6.7760496,-7.8100843,7.492998,18.302986,13.383068,-97.247986,14.858585,9.93275,-8.650267,9.338171,12.66573,-1.317972,99.04941,8.231802,-16.707005,16.21946,6.2729683
81,-2.978095769882202,48.2025260925293,75.98680114746094,6.863263325063026,1.1627700741493048,92.95499264806001,10.139909,-10.752784,-0.23461467,6.9834523,-16.22309,2.6467886,-29.792501,-11.389823,-5.80761,6.8876486,-7.902906,5.7885585,-6.9208274,-7.9323416,7.6511188,18.293808,13.415263,-97.23887,14.832631,9.930593,-8.638356,9.334256,12.653716,-1.2904747,99.07068,8.218526,-16.669622,16.21733,6.305778
82,-2.9310309886932373,48.762325286865234,75.8756332397461,6.951675343219433,1.0369987667206293,93.15818939178227,10.778162,-10.775851,-0.48064914,6.990217,-16.548958,2.619807,-30.210512,-11.497812,-5.8056717,6.735722,-8.102299,5.813516,-6.9919086,-7.9703264,7.8257027,18.27514,13.457806,-97.236435,14.760086,9.857214,-8.604705,9.3399935,12.656023,-1.2594595,99.098694,8.245624,-16.578856,16.19255,6.3038588
83,-2.87150502204895,49.33311462402344,75.76305389404297,7.031659546156259,0.9334043821333833,93.33452801185061,11.396401,-10.78421,-0.69810754,6.995104,-16.855385,2.5953093,-30.581446,-11.596257,-5.915425,6.6566873,-8.228536,5.7978992,-7.0394745,-7.9964113,7.974373,18.259575,13.478913,-97.23559,14.706581,9.752622,-8.567777,9.3593855,12.646144,-1.2447515,99.10832,8.218126,-16.541098,16.237074,6.39384
84,-2.7885897159576416,49.892356872558594,75.661376953125,7.087431787839786,0.9147126310502923,93.48940391083042,11.918309,-10.752169,-0.875416,7.0027075,-17.125204,2.5513983,-30.9145,-11.664774,-6.1625667,6.596519,-8.271776,5.7635145,-7.084005,-8.008345,8.031266,18.250143,13.501313,-97.221054,14.671783,9.657937,-8.542686,9.390769,12.599147,-1.2244447,99.08621,8.096477,-16.657007,16.438328,6.6935368
85,-2.693127393722534,50.456661224365234,75.56773376464844,7.131649483168216,0.967060754780186,93.65195020565902,12.351306,-10.689618,-1.035126,7.0117025,-17.353325,2.4857483,-31.202332,-11.767357,-6.628707,6.596893,-8.255807,5.728612,-7.16794,-8.032072,7.9939404,18.260061,13.515555,-97.18503,14.673531,9.561466,-8.534204,9.451933,12.494957,-1.2015411,99.01318,7.7968793,-17.027008,16.90816,7.3718
86,-2.577693462371826,51.01972961425781,75.4782943725586,7.188121478471004,1.0515010241660372,93.82856279821925,12.741034,-10.629934,-1.1944588,7.019835,-17.546217,2.4124136,-31.39341,-11.932961,-7.277963,6.595834,-8.143827,5.6753564,-7.2540593,-8.075384,7.9161615,18.265625,13.55056,-97.14393,14.67352,9.453113,-8.535364,9.513098,12.355864,-1.1159286,98.83372,7.434914,-17.60084,17.548882,8.36685
87,-2.4977102279663086,51.57412338256836,75.38842010498047,7.239345721278265,1.1626993401672334,93.98152802209279,13.102057,-10.559898,-1.3283609,7.027201,-17.705626,2.3335402,-31.492275,-12.088621,-7.9501305,6.5866675,-7.933503,5.56662,-7.317375,-8.104686,7.8078337,18.268263,13.592116,-97.12184,14.670118,9.361549,-8.537838,9.583613,12.225868,-0.9786974,98.67846,7.1407332,-18.188805,18.185993,9.3194895
88,-2.443882942199707,52.13945007324219,75.30123138427734,7.268997454002238,1.2933154732372751,94.07440356094574,13.451998,-10.471951,-1.4135473,7.034367,-17.833712,2.252594,-31.508833,-12.167612,-8.4821825,6.5770793,-7.630586,5.3678365,-7.3186684,-8.0894165,7.6946645,18.258968,13.622796,-97.11439,14.667299,9.32429,-8.539175,9.630042,12.130619,-0.8552377,98.60822,6.9874187,-18.61454,18.63663,9.918632
89,-2.3816444873809814,52.7076416015625,75.22256469726562,7.288584093828072,1.4479032816372033,94.08104498190275,13.786753,-10.386107,-1.432486,7.0429654,-17.936037,2.1641417,-31.44353,-12.168823,-8.82545,6.5753365,-7.214065,5.020422,-7.219743,-8.029751,7.581059,18.227465,13.642614,-97.138695,14.662788,9.368405,-8.537892,9.65636,12.081794,-0.7631444,98.65079,7.0145197,-18.822376,18.85319,9.999379
90,-2.3223352432250977,53.28233337402344,75.15003967285156,7.301458190317878,1.625303859464094,94.01771158481284,14.094478,-10.300278,-1.3921124,7.074117,-18.024008,2.0690272,-31.286295,-12.117357,-9.062127,6.563986,-6.6808057,4.5571265,-7.0466237,-7.9423904,7.4584785,18.182955,13.656262,-97.18063,14.657795,9.46998,-8.536508,9.670366,12.060826,-0.6864482,98.77089,7.159327,-18.90382,18.936,9.753912
91,-2.231302499771118,53.83447265625,75.089111328125,7.27783447308042,1.8129907010973199,93.9343091702979,14.396459,-10.167861,-1.3308129,7.1049232,-18.071949,1.9797103,-31.050554,-12.001077,-9.242201,6.5473013,-6.0813956,4.086316,-6.859133,-7.8123093,7.327073,18.137365,13.6636505,-97.22197,14.656166,9.584241,-8.535947,9.65862,12.051412,-0.62719655,98.91828,7.3400836,-18.89688,18.933613,9.399138
92,-2.143508195877075,54.426910400390625,75.03501892089844,7.186097454067294,2.0042730085644735,93.85978723703725,14.698242,-9.942764,-1.2620044,7.144888,-18.07776,1.9062022,-30.770407,-11.7954445,-9.396237,6.5540175,-5.47907,3.7116854,-6.69317,-7.6205406,7.1853757,18.10049,13.66577,-97.24745,14.660913,9.665319,-8.537785,9.607209,12.036545,-0.5845992,99.03732,7.4807277,-18.840681,18.891565,9.153595
93,-2.073730230331421,55.04090118408203,74.9854736328125,7.041503643192794,2.1887543553539097,93.80313175646296,15.019221,-9.642147,-1.1961714,7.1945095,-18.045473,1.8587607,-30.403751,-11.519195,-9.5042095,6.5853233,-4.879917,3.516614,-6.561034,-7.381041,7.0379133,18.085443,13.664414,-97.25555,14.669423,9.702771,-8.540354,9.497452,12.025259,-0.55082834,99.125404,7.587726,-18.695137,18.805122,9.076562
94,-2.01371431350708,55.68267059326172,74.94025421142578,6.852456567865149,2.3645438825175837,93.75505791092328,15.360321,-9.284026,-1.1299474,7.25003,-17.977156,1.8291318,-29.935337,-11.179206,-9.563757,6.6147876,-4.249864,3.433421,-6.440602,-7.0966845,6.892387,18.080887,13.661856,-97.2618,14.679285,9.719473,-8.543093,9.341916,12.022322,-0.5337648,99.1944,7.684945,-18.4603,18.653975,9.057499
95,-1.8910881280899048,56.2764778137207,74.94151306152344,6.600515683946393,2.5408758426350833,93.71925518691799,15.6957245,-8.842795,-1.0569646,7.320821,-17.861946,1.7992401,-29.449936,-10.7570305,-9.618571,6.634568,-3.583459,3.334711,-6.3397794,-6.752355,6.7429023,18.068048,13.658287,-97.2593,14.690761,9.722312,-8.549046,9.175499,12.007877,-0.5201568,99.24847,7.767225,-18.224703,18.466045,9.042396
96,-1.7808754444122314,56.891048431396484,74.95672607421875,6.2680014351802855,2.728419621622801,93.70341467178162,16.002707,-8.296504,-0.97519827,7.4080725,-17.687077,1.7503144,-29.024874,-10.246,-9.716556,6.6273804,-2.8762348,3.0884783,-6.2581434,-6.33487,6.5832105,18.024004,13.65536,-97.251144,14.704235,9.717672,-8.561205,9.0317135,11.959324,-0.5101748,99.26879,7.812132,-18.081947,18.26549,8.986573
97,-1.6567585468292236,57.515132904052734,74.98603820800781,5.80848939406498,2.9473346846452593,93.72432857739898,16.140274,-7.5861,-0.86573946,7.7586956,-17.597033,1.6523134,-28.702543,-9.608579,-9.897657,6.5955367,-2.136193,2.5959215,-6.204991,-5.8011165,6.4050655,17.934278,13.653238,-97.23282,14.722596,9.69898,-8.584805,8.885889,11.875426,-0.49847466,99.250374,7.808791,-18.023172,18.022646,8.841405
98,-1.5630109310150146,58.156307220458984,75.03034973144531,5.227637257845234,3.194078276159851,93.77712867370643,15.484791,-6.7262993,-0.6572704,9.723757,-18.308796,1.5125582,-28.430386,-8.85094,-10.157103,6.534052,-1.3599854,1.9412276,-6.168103,-5.1478662,6.2158184,17.80525,13.651408,-97.20915,14.745358,9.665118,-8.617944,8.724407,11.764892,-0.46980557,99.17644,7.7903504,-18.014744,17.731352,8.6549225
99,-1.442920207977295,58.817344665527344,75.08655548095703,4.585583811601842,3.4433793163084956,93.83617496496389,14.810458,-5.7902617,-0.46377307,11.751229,-18.969679,1.3759841,-28.163311,-8.036764,-10.467473,6.4590425,-0.55107975,1.2647058,-6.134058,-4.4270134,6.0197735,17.661255,13.651604,-97.20411,14.763642,9.629032,-8.648097,8.620222,11.631991,-0.42068994,99.06576,7.784258,-18.102314,17.467249,8.49462
100,-1.2995655536651611,59.49775695800781,75.13720703125,3.9562265436736386,3.664013001290546,93.87712969930297,14.172398,-4.871354,-0.2929139,13.796041,-19.521158,1.2889534,-27.851242,-7.2372255,-10.782203,6.3854966,0.2928845,0.7081072,-6.110303,-3.708787,5.824576,17.53127,13.65219,-97.2093,14.7709,9.607737,-8.665311,8.634227,11.470822,-0.38159984,98.95313,7.782265,-18.330542,17.304455,8.430654
101,-1.1676112413406372,60.1778678894043,75.18331146240234,3.3391936073800426,3.846302481484274,93.88898991045414,13.59216,-3.9686637,-0.13682042,15.843943,-19.977697,1.2653928,-27.487852,-6.4448967,-11.069057,6.3326592,1.2205974,0.27069643,-6.0509605,-2.9796987,5.6277227,17.404535,13.650026,-97.273445,14.767594,9.587399,-8.666412,8.8104,11.259607,-0.29464072,98.72671,7.85563,-18.698002,17.30377,8.576867
102,-1.048050880432129,60.88277053833008,75.22209167480469,2.7073150542398787,4.00749937211238,93.88909992335356,13.028888,-3.0433662,0.0011738414,17.933344,-20.367096,1.2814738,-27.09554,-5.6375017,-11.353078,6.298646,2.206164,-0.11731364,-6.015554,-2.2304351,5.4189095,17.291702,13.643003,-97.33153,14.754639,9.57326,-8.658267,9.099165,10.998916,-0.23332159,98.46682,7.9155354,-19.179323,17.416035,8.851731
103,-0.932278573513031,61.57994842529297,75.26542663574219,2.0916546732244323,4.152134310347788,93.88974794520537,12.465802,-2.131627,0.10572779,20.040276,-20.622904,1.330419,-26.67009,-4.8562474,-11.659921,6.2650766,3.1465552,-0.40926775,-5.9856863,-1.4905937,5.2209888,17.174036,13.632084,-97.41119,14.7488365,9.57815,-8.641853,9.449215,10.7476225,-0.17780082,98.25851,7.9701276,-19.809507,17.525755,9.090587
104,-0.8065125942230225,62.266212463378906,75.32178497314453,1.5207237145580743,4.289585063459611,93.90085260177138,11.86737,-1.268387,0.1668011,22.178259,-20.696842,1.4005734,-26.227848,-4.1386404,-12.007962,6.2352214,3.92774,-0.5548236,-5.9769435,-0.7982321,5.0494456,17.048763,13.622767,-97.49502,14.757849,9.623209,-8.6191845,9.800841,10.559085,-0.13367783,98.23504,7.999348,-20.61476,17.525452,9.1144495
105,-0.6687259674072266,62.94928741455078,75.38351440429688,1.0245903130715652,4.427088007188515,93.94007069717694,11.219512,-0.48814073,0.16802825,24.345125,-20.584467,1.502217,-25.785604,-3.5219128,-12.419221,6.206275,4.543371,-0.43765193,-5.992497,-0.17924532,4.9070015,16.89396,13.6179905,-97.605,14.791645,9.721696,-8.584453,10.185689,10.462926,-0.096859485,98.47215,8.000801,-21.732813,17.361732,8.74469
106,-0.5248510837554932,63.62670135498047,75.44842529296875,0.5927121881138875,4.559262452400983,93.99174230164515,10.5356455,0.22282436,0.12786597,26.53893,-20.308851,1.6404107,-25.340513,-2.9799733,-12.858404,6.1794467,5.050488,-0.112806946,-6.0546994,0.37229052,4.781917,16.732046,13.614228,-97.70205,14.838824,9.86599,-8.538905,10.615726,10.427822,-0.028776936,98.94123,8.021837,-23.094168,17.11944,8.096818
107,-0.3367193043231964,64.26263427734375,75.52497100830078,0.19189248679188475,4.674681999260881,94.01836572435961,9.828449,0.89649355,0.08564416,28.769257,-19.864645,1.7958628,-24.879803,-2.456061,-13.26279,6.156288,5.433693,0.21786566,-6.10322,0.8842482,4.6733165,16.581661,13.616477,-97.79305,14.884575,10.027413,-8.493352,11.010452,10.410732,0.03731981,99.44889,8.031562,-24.447552,16.869,7.4910874
108,-0.21691836416721344,64.93904876708984,75.60575866699219,-0.21071819240661382,4.760376968923919,93.98546868420449,9.116735,1.566358,0.07672614,31.039854,-19.245062,1.9449167,-24.391233,-1.894396,-13.575077,6.1409397,5.6739635,0.3526858,-6.1112375,1.3829156,4.5797777,16.474392,13.62321,-97.85731,14.9139185,10.181529,-8.459397,11.291144,10.369555,0.090130575,99.8538,8.02554,-25.528046,16.66997,7.2319713
109,-0.096621073782444,65.61865234375,75.69114685058594,-0.6277372931926599,4.802251182672602,93.87408242822902,8.417792,2.240556,0.11845913,33.360687,-18.41352,2.0867288,-23.863888,-1.2709291,-13.77818,6.1383057,5.7293506,0.22970752,-6.080919,1.8772283,4.50918,16.428425,13.633963,-97.87158,14.925907,10.332985,-8.440545,11.429586,10.27581,0.13943595,100.13186,7.9976215,-26.449345,16.513227,7.5419745
110,0.027216002345085144,66.2923812866211,75.78439331054688,-1.0367032583918847,4.807520558204442,93.70782101259236,7.7226496,2.8940217,0.18976128,35.72105,-17.382156,2.2251601,-23.311466,-0.61236316,-13.902398,6.141528,5.627459,-0.03986424,-6.0204244,2.350797,4.4604354,16.421572,13.648984,-97.86057,14.92775,10.490116,-8.430576,11.472444,10.157677,0.18492457,100.34717,7.951394,-27.289825,16.35954,8.213815
111,0.20629234611988068,66.94715881347656,75.88182067871094,-1.4218011124841494,4.795087137665444,93.51610532852128,7.004017,3.5159173,0.2662007,38.11127,-16.217628,2.3420146,-22.759468,0.054503873,-13.964878,6.149533,5.446844,-0.40013927,-5.9392476,2.7901077,4.420304,16.437145,13.667124,-97.840675,14.915439,10.639044,-8.428804,11.446072,10.060264,0.22230928,100.52921,7.9127617,-27.72856,16.230652,8.902378
112,0.3351850211620331,67.6242904663086,75.9773941040039,-1.7729765185604884,4.785514644773729,93.32633732176396,6.228796,4.098266,0.3215633,40.531513,-14.991957,2.4229715,-22.223482,0.6941372,-13.98272,6.1592546,5.2603955,-0.7938094,-5.8630624,3.179315,4.3747187,16.465687,13.70232,-97.80495,14.866539,10.771268,-8.434573,11.372155,10.032469,0.27136958,100.73704,7.934257,-27.441275,16.16632,9.255647
113,0.4626120328903198,68.30262756347656,76.07251739501953,-2.07978940614517,4.779681467184711,93.12231943600041,5.3917894,4.6347184,0.3769324,43.0036,-13.697084,2.4866068,-21.69439,1.2935864,-13.922503,6.171149,5.0648518,-1.2204529,-5.744898,3.5177736,4.3225408,16.497738,13.742093,-97.7883,14.792297,10.881184,-8.449635,11.241544,10.102438,0.3031382,100.96768,8.020929,-26.031214,16.193499,9.141923
114,0.5911915302276611,68.97248840332031,76.16788482666016,-2.353450901569206,4.768657029161199,92.89615083660271,4.502022,5.1302214,0.43439585,45.532112,-12.30929,2.5318108,-21.158566,1.8641,-13.785666,6.188586,4.8230705,-1.7043957,-5.6077423,3.8100505,4.2709303,16.547161,13.8022585,-97.7553,14.677374,10.979656,-8.474447,11.0421295,10.239502,0.32462934,101.224075,8.157231,-23.768284,16.28185,8.750708
115,0.7006887197494507,69.6326904296875,76.26220703125,-2.6087372536230116,4.758859891595558,92.6874308995531,3.5454805,5.594987,0.43712738,48.09963,-10.881434,2.5202482,-20.620499,2.4039252,-13.641811,6.2064977,4.5566025,-2.2261915,-5.483313,4.068955,4.216382,16.603933,13.885608,-97.71948,14.528549,11.058947,-8.503283,10.816103,10.394919,0.3304867,101.42681,8.282211,-21.358097,16.369762,8.255529
116,0.8535869121551514,70.29988861083984,76.34989929199219,-2.858922143284039,4.756637965327079,92.53565252196913,2.5079534,6.037102,0.32732508,50.693596,-9.469508,2.4175553,-20.0929,2.915071,-13.561936,6.228634,4.285812,-2.7680216,-5.4110193,4.3049855,4.155529,16.66287,13.972672,-97.687355,14.374611,11.111408,-8.530868,10.605799,10.522495,0.32570347,101.50995,8.341306,-19.507765,16.418766,7.8332233
117,1.0218545198440552,70.95417785644531,76.4326400756836,-3.1013163108291444,4.77639302978935,92.46085729725526,1.3416872,6.4570827,0.06961051,53.384064,-8.064789,2.2226386,-19.593044,3.3960698,-13.57189,6.248724,4.0324206,-3.3593419,-5.4191318,4.503523,4.0752563,16.727926,14.083162,-97.643295,14.197936,11.163193,-8.554132,10.4012165,10.604879,0.32120544,101.440544,8.308362,-18.422205,16.43598,7.520452
118,1.193246841430664,71.60263061523438,76.51273345947266,-3.3299229191269712,4.810588145129858,92.43887323043452,0.06525905,6.8414617,-0.30541727,56.166393,-6.652363,1.9555061,-19.112326,3.8471265,-13.632511,6.2700243,3.77971,-3.9987907,-5.4781203,4.664423,3.982693,16.799047,14.2113495,-97.59388,13.999879,11.207635,-8.576363,10.188139,10.669499,0.32352847,101.25683,8.224714,-17.719593,16.442118,7.2287464
119,1.3333690166473389,72.23310089111328,76.58357238769531,-3.5533191377518802,4.831903751839424,92.44143657512284,-1.2367424,7.181983,-0.75468117,58.921314,-5.2811117,1.6168053,-18.618784,4.2792616,-13.71644,6.2946424,3.500301,-4.6233926,-5.553403,4.8158593,3.905129,16.869902,14.352894,-97.55778,13.782726,11.1948,-8.601111,9.995487,10.739349,0.33189422,101.02186,8.144653,-17.222147,16.43758,6.943644
120,1.466964840888977,72.85912322998047,76.64401245117188,-3.779219112463075,4.813070020918096,92.44048132830223,-2.4789793,7.477386,-1.2299634,61.527016,-4.0026274,1.209033,-18.077415,4.7038064,-13.795739,6.318481,3.1697805,-5.169973,-5.6105723,4.986389,3.8697283,16.933323,14.497269,-97.554146,13.554868,11.073847,-8.631777,9.852597,10.835786,0.33978313,100.79805,8.116118,-16.75268,16.420147,6.650905
121,1.5755298137664795,73.4843978881836,76.69947052001953,-4.0173686931339985,4.759114368892556,92.42648540970204,-3.6811354,7.7191105,-1.7508839,63.999866,-2.700515,0.67777544,-17.493347,5.1241484,-13.872261,6.3450174,2.7809544,-5.635659,-5.639182,5.1936765,3.8732698,16.989988,14.632817,-97.59121,13.31321,10.7891865,-8.669547,9.780915,10.973849,0.3387141,100.58537,8.151178,-16.294529,16.379255,6.322024
122,1.6756864786148071,74.10735321044922,76.75054931640625,-4.260510015340346,4.6806212311265085,92.41525268932565,-4.876896,7.910216,-2.3295722,66.400505,-1.3956184,0.04561468,-16.879145,5.5344915,-13.957134,6.3713565,2.349221,-6.0495257,-5.6601076,5.4179707,3.9051054,17.044523,14.753323,-97.65649,13.070508,10.381257,-8.7128525,9.760469,11.137235,0.32536206,100.35767,8.214426,-15.932787,16.3203,5.9732933
123,1.7899136543273926,74.74031066894531,76.79435729980469,-4.495248836065127,4.559086180046883,92.416959627276,-6.0078273,8.083703,-2.9010403,68.68036,-0.34184635,-0.56394744,-16.215763,5.9311314,-14.03762,6.398792,1.8742322,-6.3950925,-5.6867037,5.6331596,3.9807715,17.097008,14.856034,-97.73684,12.858641,9.945267,-8.760733,9.758318,11.30116,0.30103198,100.13941,8.284036,-15.643003,16.264933,5.657508
124,1.8998805284500122,75.35594940185547,76.8336410522461,-4.708810284772562,4.3760628033763025,92.44171134863805,-7.017131,8.286585,-3.3965688,70.78835,0.20821734,-1.023209,-15.482702,6.3095016,-14.101376,6.426343,1.3572131,-6.654592,-5.733061,5.8142376,4.1155534,17.147274,14.940842,-97.818565,12.708401,9.576253,-8.813174,9.741628,11.441852,0.27125144,99.957054,8.341947,-15.400035,16.234898,5.426581
125,2.0056517124176025,75.96360778808594,76.86561584472656,-4.910311821134363,4.1054822093693595,92.50618824744808,-7.8571258,8.587577,-3.7771387,72.72035,0.11756483,-1.2918929,-14.644549,6.6738544,-14.154585,6.452579,0.7791689,-6.796466,-5.8181653,5.962859,4.336976,17.199575,15.005016,-97.9022,12.634515,9.284157,-8.880363,9.702497,11.558384,0.24377996,99.81229,8.388806,-15.189194,16.243336,5.307533
126,2.1136510372161865,76.56682586669922,76.89212036132812,-5.106592526643016,3.765101139434181,92.59879609144501,-8.575595,8.968902,-4.0823727,74.50425,-0.45430025,-1.4333415,-13.7176,7.024535,-14.199967,6.4708004,0.15229143,-6.832714,-5.9351296,6.090825,4.6303487,17.25636,15.03561,-97.983925,12.63171,9.024618,-8.959792,9.6563835,11.662554,0.22747844,99.704025,8.44959,-15.02401,16.278187,5.2651067
127,2.2036352157592773,77.16775512695312,76.9211654663086,-5.278864731467313,3.402432808497766,92.68992488428592,-9.251719,9.34131,-4.360783,76.12402,-1.3127732,-1.4797201,-12.771171,7.344187,-14.223272,6.504733,-0.49748203,-6.8129025,-6.0424547,6.191137,4.943485,17.30594,15.051185,-98.06877,12.666761,8.808964,-9.029068,9.609612,11.750934,0.21578252,99.62674,8.518703,-14.925877,16.321209,5.2645736
128,2.2933554649353027,77.76457977294922,76.95360565185547,-5.41074851247868,3.063747679038725,92.74847143675592,-9.964614,9.606966,-4.657151,77.56829,-2.2658381,-1.4651123,-11.853564,7.6245985,-14.207046,6.527789,-1.118258,-6.7935643,-6.107254,6.255061,5.22676,17.341164,15.05642,-98.14858,12.716609,8.650296,-9.063703,9.565769,11.81908,0.20626676,99.587906,8.600184,-14.914829,16.355482,5.2686644
129,2.390148878097534,78.35342407226562,76.98571014404297,-5.49107535507569,2.7461018550352674,92.77087937104477,-10.711181,9.722932,-4.986338,78.83213,-3.3609316,-1.3554579,-10.970088,7.860137,-14.147902,6.5522323,-1.714169,-6.782925,-6.1198626,6.278299,5.4767475,17.353363,15.051808,-98.23536,12.785754,8.560939,-9.052087,9.516692,11.865725,0.19416662,99.5918,8.701975,-15.023591,16.375633,5.266256
130,2.471360683441162,78.93536376953125,77.01844787597656,-5.531659190382693,2.429482714004325,92.77191750514675,-11.453928,9.737975,-5.321328,79.92115,-4.667558,-1.1558794,-10.093547,8.056776,-14.054418,6.575856,-2.302442,-6.7566795,-6.1110287,6.2619696,5.720642,17.354214,15.04388,-98.29818,12.871761,8.538672,-9.0102415,9.447248,11.889006,0.18751135,99.64035,8.824232,-15.2327385,16.388788,5.285146
131,2.5524184703826904,79.51487731933594,77.05195617675781,-5.54368774749387,2.1352343318360902,92.74842909138277,-12.2213335,9.690041,-5.641668,80.83897,-6.0237365,-0.95488507,-9.249689,8.221965,-13.9334955,6.5965214,-2.874307,-6.727627,-6.071173,6.221692,5.936998,17.351303,15.00962,-98.37655,12.985952,8.545453,-8.951009,9.419951,11.9017315,0.17079853,99.73478,8.929944,-15.478164,16.408415,5.306347
132,2.628798246383667,80.0863037109375,77.08214569091797,-5.535895842692677,1.8828974359678434,92.69798544637338,-13.0406,9.620687,-5.924569,81.5886,-7.2680135,-0.8367355,-8.464937,8.362665,-13.792298,6.6205964,-3.4268112,-6.7079973,-6.012446,6.1598077,6.124566,17.360369,14.94049,-98.41016,13.123217,8.569706,-8.896007,9.421502,11.892127,0.14498417,99.841415,8.994012,-15.711167,16.429089,5.3703527
133,2.7112889289855957,80.6496353149414,77.11209869384766,-5.5055824531546165,1.679379324863468,92.61663142042383,-13.917572,9.523809,-6.162762,82.15738,-8.376288,-0.8487487,-7.746754,8.480597,-13.631834,6.641798,-3.9548671,-6.708118,-5.9185843,6.0734544,6.273397,17.369951,14.872332,-98.42274,13.251856,8.608844,-8.834363,9.48841,11.8563,0.1237274,99.967636,9.015716,-15.935578,16.462011,5.50807
134,2.787982225418091,81.20523071289062,77.14183044433594,-5.448644929493225,1.5132501621669505,92.50674861313387,-14.836779,9.385276,-6.363772,82.54539,-9.426621,-0.93558335,-7.0814924,8.575521,-13.450624,6.6615486,-4.4632955,-6.7215242,-5.798728,5.9597325,6.3920913,17.382242,14.778428,-98.41133,13.402905,8.67316,-8.762162,9.601969,11.794844,0.09869625,100.12661,9.002454,-16.173689,16.50249,5.6998115
135,2.8673899173736572,81.74691772460938,77.16987609863281,-5.378088280983399,1.3777659472530062,92.37460348639354,-15.79517,9.235671,-6.5277185,82.775276,-10.40766,-1.0267818,-6.459263,8.655089,-13.251051,6.6812134,-4.9536576,-6.7354555,-5.6531377,5.837152,6.487238,17.402493,14.682049,-98.38141,13.541505,8.7514925,-8.700737,9.720344,11.7328825,0.07480544,100.28166,8.982321,-16.396183,16.533844,5.8730674
136,2.9370646476745605,82.28775024414062,77.19535064697266,-5.305372902821319,1.2662773725941274,92.22638340401683,-16.790125,9.101996,-6.6562386,82.8694,-11.309129,-1.0538379,-5.8690176,8.725753,-13.03518,6.6987824,-5.4249573,-6.73706,-5.4898205,5.7212605,6.5659776,17.442005,14.588165,-98.3292,13.651195,8.834415,-8.672341,9.800902,11.6932335,0.049771953,100.40536,8.977645,-16.571482,16.540443,5.952967
137,3.0012099742889404,82.83016204833984,77.21846771240234,-5.232055591145401,1.1855410048119928,92.05416068117243,-17.837484,8.969446,-6.7603116,82.83337,-12.11642,-0.9820373,-5.32064,8.790101,-12.796173,6.7164345,-5.8747997,-6.728679,-5.2998514,5.6164346,6.6223006,17.50512,14.501949,-98.252884,13.7160635,8.920017,-8.691163,9.838742,11.679521,0.020400634,100.49502,8.995661,-16.695284,16.510416,5.8965077
138,3.063462257385254,83.3641357421875,77.23858642578125,-5.152718056246056,1.1362180924586227,91.85738104090616,-18.930769,8.828524,-6.834598,82.652054,-12.838819,-0.8555726,-4.815006,8.846931,-12.536278,6.732368,-6.3028097,-6.717175,-5.0816517,5.514092,6.654757,17.584368,14.429796,-98.15516,13.738324,9.01357,-8.742362,9.854268,11.680119,-0.013529647,100.562614,9.021418,-16.782923,16.45516,5.7511272
139,3.1227235794067383,83.9002456665039,77.25553894042969,-5.068814852418547,1.1026957913804025,91.65440927332935,-20.032822,8.714693,-6.8573546,82.31777,-13.503315,-0.7254945,-4.3292756,8.895075,-12.270413,6.7467566,-6.7187934,-6.6949263,-4.8552003,5.411023,6.6772795,17.673374,14.369628,-98.03926,13.736457,9.115916,-8.804906,9.843203,11.696278,-0.0525766,100.60443,9.042342,-16.833694,16.394733,5.5781274
140,3.184654474258423,84.42811584472656,77.26605224609375,-4.981734023944444,1.0693332618317404,91.46320301029067,-21.107048,8.663467,-6.806014,81.821434,-14.135722,-0.6433192,-3.841883,8.932149,-12.014017,6.7604823,-7.1321445,-6.6539106,-4.629969,5.307082,6.7024236,17.759554,14.339825,-97.920815,13.708819,9.226252,-8.856879,9.803196,11.732102,-0.07808105,100.60493,9.062899,-16.846844,16.34773,5.4400077
141,3.2454748153686523,84.96311950683594,77.2746353149414,-4.888768718659716,1.0339640603795224,91.28499969587152,-22.14589,8.687568,-6.6617723,81.14808,-14.7770195,-0.66130704,-3.3513384,8.953028,-11.769197,6.7750673,-7.5441537,-6.582557,-4.4206424,5.1937323,6.7352533,17.852633,14.315836,-97.77635,13.675922,9.352401,-8.898626,9.718508,11.7858515,-0.10561991,100.577095,9.06244,-16.800867,16.315575,5.339035
142,3.302171468734741,85.49234008789062,77.27627563476562,-4.789936573961329,1.0041847050477604,91.11093256760803,-23.163092,8.765323,-6.4356647,80.30064,-15.401577,-0.7436022,-2.8670688,8.960527,-11.528745,6.7882433,-7.9495244,-6.48864,-4.216245,5.0738344,6.768636,17.954712,14.295866,-97.60843,13.63355,9.491788,-8.940048,9.595855,11.85527,-0.1426314,100.521034,9.042618,-16.703596,16.289114,5.2475715
143,3.3579490184783936,86.02470397949219,77.27778625488281,-4.6907332046306145,0.9789854716793858,90.94427512145197,-24.157215,8.879775,-6.1517224,79.30424,-15.934183,-0.80987674,-2.385516,8.963036,-11.292862,6.800683,-8.352503,-6.391181,-4.0135574,4.957625,6.799493,18.05497,14.290337,-97.44099,13.583173,9.631487,-8.9752,9.461438,11.940531,-0.16987914,100.43295,9.02531,-16.595304,16.273613,5.177735
144,3.4089722633361816,86.5609130859375,77.27730560302734,-4.597024586952621,0.957385299461304,90.78829151985514,-25.126057,9.014163,-5.836195,78.18271,-16.304552,-0.77824533,-1.9040848,8.967671,-11.061851,6.8140874,-8.756765,-6.308665,-3.8259926,4.8503013,6.8265166,18.151567,14.292373,-97.27632,13.542501,9.762124,-8.999382,9.336945,12.036217,-0.1889826,100.32809,9.015436,-16.513979,16.276163,5.1390734
145,3.458575963973999,87.10142517089844,77.2737808227539,-4.510220200492554,0.9368680593167086,90.64538869217009,-26.076946,9.181507,-5.4826226,76.94054,-16.48433,-0.60148644,-1.4199413,8.975746,-10.834027,6.8289113,-9.161997,-6.248068,-3.6627238,4.751837,6.8513026,18.249964,14.299733,-97.10456,13.519396,9.894584,-9.010273,9.223138,12.14528,-0.20754586,100.2027,8.999402,-16.455507,16.307339,5.1526694
146,3.504713296890259,87.64256286621094,77.26302337646484,-4.428822355176202,0.9188114697421635,90.51327567749951,-27.005077,9.382594,-5.0793657,75.56637,-16.520527,-0.33440277,-0.93593717,8.982365,-10.6096735,6.844052,-9.56567,-6.1972547,-3.5143192,4.661662,6.8730674,18.34926,14.308789,-96.93373,13.510337,10.02779,-9.010395,9.114773,12.271193,-0.2200546,100.05444,8.984577,-16.403095,16.361364,5.203344
147,3.5457212924957275,88.17706298828125,77.25251770019531,-4.351244925407382,0.9076734838225855,90.38911367329518,-27.890999,9.5838175,-4.647014,74.06152,-16.454704,-0.044568155,-0.45614183,8.984738,-10.391785,6.858658,-9.96977,-6.145676,-3.3770337,4.57624,6.8914266,18.44338,14.321719,-96.75843,13.507331,10.142858,-9.004536,9.002437,12.3971,-0.23177134,99.89505,8.971881,-16.38099,16.4179,5.2628536
148,3.591599941253662,88.71928405761719,77.23779296875,-4.273926575257394,0.908535753548659,90.2696222799761,-28.7174,9.754629,-4.2090483,72.4266,-16.32542,0.20195524,0.012521357,8.981199,-10.184052,6.874749,-10.377372,-6.083677,-3.2430308,4.4964833,6.9020987,18.523909,14.336423,-96.59395,13.505535,10.215172,-8.995893,8.893387,12.5133915,-0.24176526,99.744995,8.976364,-16.409004,16.459288,5.2880974
149,3.628204822540283,89.25861358642578,77.21823120117188,-4.195869402245063,0.9233199237873113,90.15392146798683,-29.48698,9.907433,-3.7552125,70.66026,-16.127634,0.42108136,0.47003722,8.968357,-9.98782,6.8897047,-10.78696,-6.005233,-3.1098847,4.41841,6.9045877,18.589972,14.3508005,-96.43363,13.508981,10.222353,-8.981047,8.794157,12.618258,-0.25020564,99.60127,9.005889,-16.508512,16.480566,5.265254
150,3.660910129547119,89.79563903808594,77.19239807128906,-4.1173692237301225,0.9494121237960506,90.04377382488376,-30.206036,10.05459,-3.2790916,68.76282,-15.846487,0.6388249,0.9189557,8.947687,-9.801221,6.904571,-11.1987,-5.9165554,-2.9827878,4.342135,6.900409,18.645079,14.371697,-96.27118,13.51399,10.1825075,-8.9601755,8.699614,12.716461,-0.26166388,99.45679,9.047613,-16.663305,16.49104,5.216825
151,3.694103717803955,90.33561706542969,77.16085052490234,-4.04445651402994,0.9848306010842045,89.9398675383209,-30.866203,10.168729,-2.814877,66.736015,-15.503222,0.80636173,1.3591125,8.926926,-9.623216,6.9198813,-11.613145,-5.826841,-2.8645923,4.276843,6.8877163,18.691835,14.380219,-96.13682,13.531354,10.130878,-8.937827,8.606448,12.810795,-0.26614556,99.33378,9.100081,-16.835224,16.498835,5.151266
152,3.7149152755737305,90.88439178466797,77.12703704833984,-3.983122336966847,1.0266097298598473,89.84283800337687,-31.459757,10.2231045,-2.3983676,64.5812,-15.117497,0.87607235,1.7925227,8.912932,-9.4519205,6.935116,-12.030613,-5.7447543,-2.762435,4.2223115,6.877315,18.73067,14.39172,-95.99449,13.542738,10.11806,-8.927013,8.459805,12.88393,-0.27230552,99.20986,9.139433,-17.001253,16.497494,5.1224422
153,3.7341063022613525,91.43291473388672,77.0872802734375,-3.9333425419713897,1.0750347691721043,89.75432432961524,-31.983189,10.20841,-2.0490258,62.26939,-14.685843,0.8275156,2.2182944,8.906122,-9.285833,6.9508615,-12.4545,-5.6732283,-2.679649,4.1843266,6.861331,18.764404,14.400615,-95.87658,13.552307,10.159986,-8.923208,8.27322,12.946945,-0.27741566,99.111145,9.169163,-17.152716,16.494276,5.114985
154,3.7558271884918213,91.97737884521484,77.04169464111328,-3.8925952114131936,1.1308204864431082,89.67330501358559,-32.44127,10.147021,-1.7505882,59.805878,-14.198183,0.6951581,2.637186,8.902436,-9.125551,6.966398,-12.883462,-5.606544,-2.6123695,4.158517,6.840874,18.79185,14.406045,-95.773224,13.563745,10.2328205,-8.924121,8.053373,12.998569,-0.2810784,99.02714,9.19487,-17.306995,16.48609,5.1227827
155,3.767446517944336,92.5282974243164,76.99378967285156,-3.861919212324461,1.1935077314784326,89.59585886351066,-32.840652,10.061136,-1.4871359,57.23848,-13.662048,0.51273954,3.0481765,8.904365,-8.973147,6.9824805,-13.310764,-5.541065,-2.555959,4.143298,6.8205647,18.809181,14.412124,-95.67171,13.569108,10.304875,-8.935015,7.8109956,13.032842,-0.28654844,98.95457,9.210907,-17.455841,16.472408,5.139733
156,3.7738165855407715,93.076171875,76.94313049316406,-3.8429730699861557,1.263070598542873,89.51846221666031,-33.18645,9.968739,-1.2388704,54.61213,-13.08484,0.31192166,3.4530272,8.913546,-8.830324,6.9969745,-13.729554,-5.4731526,-2.4994311,4.1416855,6.797617,18.81099,14.415047,-95.604454,13.564729,10.335115,-8.954392,7.586599,13.055132,-0.2907892,98.911316,9.220539,-17.584188,16.462574,5.1364546
157,3.782582998275757,93.61983489990234,76.88545227050781,-3.835307452829331,1.341814098105777,89.43967570240501,-33.47246,9.87439,-0.99432087,51.89978,-12.438699,0.061918363,3.8475657,8.931462,-8.702159,7.011191,-14.139047,-5.4022565,-2.4393475,4.154611,6.7714195,18.791847,14.415591,-95.56851,13.543939,10.296845,-8.983196,7.370368,13.059051,-0.29340187,98.894,9.221352,-17.697206,16.454039,5.1138597
158,3.7865660190582275,94.16999816894531,76.82445526123047,-3.839188589946793,1.4285912596582464,89.36062340048603,-33.69492,9.771326,-0.7678372,49.080093,-11.725662,-0.23895314,4.2345266,8.957126,-8.58498,7.023501,-14.541921,-5.3297706,-2.3805628,4.180777,6.743289,18.756035,14.414926,-95.55053,13.511079,10.217404,-9.021268,7.1478496,13.044862,-0.29574448,98.895164,9.214327,-17.800312,16.443562,5.0847235
159,3.7901968955993652,94.72589111328125,76.75667572021484,-3.8534543974815603,1.5174276676927234,89.28238819113145,-33.86809,9.658589,-0.57882,46.21882,-10.997531,-0.51755947,4.619728,8.9904995,-8.469311,7.036715,-14.939016,-5.2563534,-2.3318388,4.2166905,6.719934,18.713648,14.412417,-95.540665,13.476949,10.141282,-9.069584,6.933007,13.018571,-0.29976773,98.91958,9.195764,-17.881094,16.434067,5.0514774
160,3.789116859436035,95.27814483642578,76.6846694946289,-3.8798199468732117,1.6029109105048387,89.20550477473476,-34.008232,9.535402,-0.4447095,43.38491,-10.307594,-0.7003458,5.010902,9.031935,-8.345079,7.049239,-15.329382,-5.183209,-2.2858164,4.263081,6.7035074,18.672636,14.410409,-95.546425,13.45131,10.112796,-9.128794,6.7427588,12.99229,-0.30231464,98.94938,9.172867,-17.932766,16.425745,5.024097
161,3.783238410949707,95.8305435180664,76.61009979248047,-3.9154180050193768,1.684717189145956,89.13215714280439,-34.1243,9.403013,-0.36312366,40.592766,-9.643879,-0.74743414,5.408225,9.082407,-8.2078705,7.0606966,-15.717569,-5.10937,-2.2593708,4.3150816,6.699376,18.634922,14.407421,-95.561,13.437604,10.156114,-9.209637,6.585961,12.960186,-0.30671057,99.01454,9.135573,-17.935568,16.42323,4.9925113
162,3.7800230979919434,96.38653564453125,76.52989959716797,-3.962393698703882,1.7649945178253763,89.06041271343979,-34.206333,9.265912,-0.32658142,37.806194,-8.986457,-0.70215297,5.8073077,9.1430025,-8.062903,7.0732327,-16.102798,-5.0359497,-2.240485,4.3763547,6.7030964,18.596748,14.405304,-95.5878,13.429452,10.245845,-9.308949,6.448023,12.920969,-0.3111551,99.09638,9.088214,-17.904314,16.42155,4.9659653
163,3.7750120162963867,96.94134521484375,76.44039154052734,-4.022899723031047,1.8414478791855877,88.98632600453566,-34.24523,9.126939,-0.3463693,35.02129,-8.376126,-0.6160618,6.213945,9.214811,-7.9150634,7.084004,-16.475462,-4.967314,-2.2316427,4.448405,6.7122207,18.561245,14.40368,-95.61498,13.421433,10.344311,-9.405093,6.3276224,12.881351,-0.3169008,99.19578,9.035893,-17.856543,16.423504,4.931442
164,3.757300615310669,97.50125122070312,76.35185241699219,-4.099067644717403,1.910839014376863,88.90513089885883,-34.225914,8.988764,-0.43272135,32.224556,-7.849206,-0.5407657,6.633557,9.299331,-7.7687917,7.0935225,-16.827581,-4.908043,-2.2187064,4.535287,6.7272387,18.526093,14.403079,-95.63252,13.410398,10.416511,-9.477944,6.2113323,12.844,-0.32255712,99.27864,8.987409,-17.817522,16.424597,4.896802
165,3.7433061599731445,98.06293487548828,76.2587661743164,-4.19866186767971,1.9691800786979214,88.8179036941056,-34.146877,8.851444,-0.6133283,29.40764,-7.440393,-0.46186975,7.069809,9.408536,-7.625621,7.101207,-17.157658,-4.867296,-2.2033591,4.645856,6.752571,18.491982,14.403915,-95.64025,13.393117,10.461221,-9.520944,6.095824,12.8091755,-0.32824126,99.348976,8.946731,-17.782976,16.423204,4.849445
166,3.7257890701293945,98.63204956054688,76.16157531738281,-4.3223620542776535,2.0160617122234408,88.72301837576885,-34.007313,8.721938,-0.874163,26.566338,-7.115051,-0.358667,7.5218096,9.542164,-7.4793105,7.1082172,-17.470463,-4.8415885,-2.1791418,4.77989,6.7900615,18.455835,14.406315,-95.64755,13.373337,10.494158,-9.545823,5.9846573,12.774749,-0.3321524,99.40379,8.909607,-17.7469,16.418678,4.798646
167,3.708621025085449,99.20911407470703,76.06085968017578,-4.456168500455671,2.0530441001471944,88.61105391628496,-33.794273,8.6116905,-1.162531,23.697077,-6.8066797,-0.275363,7.9884734,9.682994,-7.321149,7.113801,-17.764067,-4.816035,-2.1428778,4.9235888,6.833698,18.420696,14.409603,-95.65047,13.353148,10.506065,-9.556755,5.8882613,12.74464,-0.3344283,99.447235,8.874233,-17.720337,16.419006,4.7572737
168,3.6903765201568604,99.78543853759766,75.95711517333984,-4.59247995189241,2.0805556795584494,88.47040230735804,-33.486458,8.532725,-1.4228605,20.781643,-6.4463687,-0.25919384,8.469158,9.8161545,-7.1412663,7.1184,-18.03645,-4.7756786,-2.0842314,5.066311,6.877639,18.389324,14.411785,-95.64801,13.33699,10.488587,-9.558727,5.814736,12.72443,-0.33506164,99.47251,8.834333,-17.718424,16.429064,4.7445135
169,3.6715598106384277,100.36858367919922,75.85249328613281,-4.7369728676090626,2.098186167441611,88.29319973229272,-33.070953,8.482862,-1.6671479,17.772408,-6.0258336,-0.3339506,8.965139,9.9524765,-6.9372606,7.1206527,-18.287169,-4.718903,-2.0051699,5.212991,6.9299593,18.35716,14.416867,-95.62998,13.317545,10.408144,-9.548903,5.77855,12.710903,-0.33602336,99.50115,8.787019,-17.744072,16.467396,4.7320495
170,3.647847890853882,100.95390319824219,75.7445068359375,-4.901988447785789,2.096638848962788,88.07528256237572,-32.539413,8.479405,-1.9109756,14.664096,-5.5662208,-0.47194156,9.486061,10.10888,-6.70199,7.1210933,-18.517025,-4.654059,-1.8882428,5.3800387,6.9928255,18.32983,14.420168,-95.61041,13.299089,10.2826,-9.525734,5.770357,12.709738,-0.33636004,99.50979,8.734465,-17.795103,16.523191,4.7300677
171,3.6207313537597656,101.55384826660156,75.63191986083984,-5.082755088900408,2.062874945945576,87.81493901676582,-31.87324,8.546805,-2.0994627,11.494279,-5.031949,-0.6520406,10.047135,10.274418,-6.4219427,7.11963,-18.726288,-4.5793276,-1.7451165,5.556092,7.0784993,18.305492,14.426288,-95.569954,13.280495,10.17075,-9.497086,5.7606177,12.7094965,-0.33673945,99.51291,8.683413,-17.856731,16.568813,4.777859
172,3.5873665809631348,102.16423034667969,75.51966857910156,-5.265271341881531,1.992591439492208,87.51872745104434,-31.019869,8.686318,-2.1694157,8.208861,-4.335182,-0.861005,10.654132,10.4291315,-6.092597,7.116766,-18.91524,-4.4921384,-1.5742865,5.730808,7.176763,18.290075,14.430517,-95.533485,13.273763,10.13088,-9.467727,5.739322,12.714596,-0.33626917,99.50632,8.644515,-17.915289,16.577219,4.913828
173,3.5499677658081055,102.77640533447266,75.40542602539062,-5.441092458783865,1.882156626802838,87.18391329524816,-30.969547,8.8284,-2.2541215,6.8757186,-4.5926647,-1.1426592,11.3120985,10.559339,-5.7086277,7.1148863,-19.090765,-4.383845,-1.3896917,5.887525,7.290376,18.29348,14.436928,-95.463844,13.283116,10.215268,-9.442402,5.6697497,12.710414,-0.33220962,99.478485,8.589407,-17.973106,16.569202,5.284356
174,3.5040576457977295,103.40223693847656,75.28994750976562,-5.610204413141115,1.7466984358940547,86.82110431351116,-31.391998,8.957048,-2.3334541,6.7473187,-5.4213266,-1.5019659,12.004985,10.666398,-5.2876296,7.111837,-19.250326,-4.2557964,-1.19394,6.030912,7.4078426,18.310295,14.442665,-95.378975,13.306004,10.378733,-9.416322,5.5768695,12.704831,-0.32264295,99.43398,8.527545,-18.034346,16.550186,5.8202834
175,3.450895071029663,104.033447265625,75.17953491210938,-5.762345871331665,1.6185644328763518,86.46791267916056,-31.735315,9.071628,-2.3315718,6.6459136,-6.1276746,-1.8571203,12.695418,10.743177,-4.872847,7.109164,-19.38492,-4.1186953,-1.0079046,6.1587753,7.5101743,18.320736,14.447046,-95.302605,13.33373,10.542116,-9.38837,5.499965,12.711442,-0.30961415,99.39539,8.51439,-18.091333,16.463425,6.254898
176,3.3961575031280518,104.66938018798828,75.07687377929688,-5.893745975962429,1.5246041161652621,86.15772759837353,-31.99953,9.158614,-2.255543,6.570253,-6.6471663,-2.117347,13.3491,10.786867,-4.5037093,7.106845,-19.482279,-3.983833,-0.8564014,6.2705836,7.5850034,18.308575,14.452347,-95.24264,13.349132,10.631242,-9.358471,5.46706,12.742552,-0.28816453,99.38979,8.612887,-18.137856,16.248812,6.327782
177,3.3394243717193604,105.31045532226562,74.98271179199219,-5.99445728903524,1.4742559994420996,85.90589640266937,-32.19724,9.2165985,-2.0737581,6.544494,-6.9678416,-2.2818787,13.961895,10.785794,-4.1997395,7.1073427,-19.552706,-3.8474262,-0.731742,6.367184,7.6283407,18.253263,14.45431,-95.23381,13.35799,10.60976,-9.324006,5.508669,12.8203945,-0.28341192,99.436775,8.871607,-18.110086,15.81698,5.8051987
178,3.2795016765594482,105.9599380493164,74.89407348632812,-6.07051846876353,1.4480280133894359,85.69068187598499,-32.31168,9.258821,-1.7921739,6.549831,-7.1189504,-2.3909717,14.553136,10.749682,-3.9368696,7.1074085,-19.594362,-3.706859,-0.6407808,6.4459653,7.6537714,18.176922,14.4552,-95.23959,13.357826,10.528099,-9.286112,5.596508,12.930775,-0.29071128,99.53881,9.249769,-18.036213,15.224841,4.878184
179,3.2236921787261963,106.59862518310547,74.8107681274414,-6.129001901086669,1.451952369840211,85.512764328917,-32.335648,9.273749,-1.4934361,6.550273,-7.1118817,-2.3942976,15.108113,10.693156,-3.7151258,7.114717,-19.600447,-3.563636,-0.5890579,6.501884,7.645643,18.095783,14.4546585,-95.25387,13.357355,10.417344,-9.247513,5.7046266,13.0314865,-0.3066304,99.624596,9.61113,-18.056059,14.634846,3.9314299
180,3.174750566482544,107.23851013183594,74.73031616210938,-6.1738040261259295,1.498813906491057,85.38918538202721,-32.29564,9.236594,-1.2757916,6.5490623,-6.9746065,-2.23666,15.5981245,10.626611,-3.5528982,7.160039,-19.581757,-3.4180331,-0.61359817,6.5227532,7.5844216,18.033142,14.453745,-95.25953,13.360445,10.311889,-9.209959,5.8115163,13.079803,-0.31878072,99.65105,9.832688,-18.286568,14.217416,3.328976
181,3.1322669982910156,107.87171173095703,74.6576156616211,-6.21022934461047,1.602637815810415,85.32359893586843,-32.17455,9.161312,-1.1452411,6.5497985,-6.743053,-1.8250179,16.02414,10.561824,-3.446,7.2071195,-19.51617,-3.2668622,-0.7317258,6.506874,7.442329,18.00457,14.450574,-95.27162,13.372935,10.225395,-9.166455,5.966022,13.066386,-0.34497416,99.60931,9.82941,-18.8438,14.048078,3.2062118
182,3.0841684341430664,108.49806213378906,74.59648132324219,-6.229350514543222,1.7524209311039298,85.30813605125468,-31.967756,9.053204,-1.0574291,6.5503187,-6.3936954,-1.2079734,16.397732,10.48397,-3.389194,7.254118,-19.408527,-3.1109228,-0.9077034,6.456496,7.2408214,17.989408,14.448098,-95.29299,13.392653,10.143064,-9.121215,6.1484547,13.010379,-0.35909373,99.48845,9.710642,-19.63641,14.016187,3.3754675
183,3.040372133255005,109.1447982788086,74.53888702392578,-6.1862434702109725,1.9477784496918311,85.32544715898109,-31.75194,8.856845,-1.00473,6.5784388,-5.887704,-0.5376992,16.71608,10.331302,-3.3819237,7.31093,-19.257324,-2.9453483,-1.1195211,6.3375597,6.9947014,17.966139,14.4465885,-95.30845,13.409205,10.030783,-9.083082,6.287372,12.928685,-0.3617645,99.34729,9.561565,-20.45331,14.039928,3.6412475
184,2.985442876815796,109.78541564941406,74.4962387084961,-6.054409581913072,2.1796192196305184,85.34588457472056,-31.578773,8.54761,-0.9753101,6.6305985,-5.1746607,0.030844012,16.985325,10.060841,-3.4096882,7.3872204,-19.061789,-2.7677813,-1.3047816,6.1391788,6.726564,17.902458,14.444273,-95.32247,13.416689,9.855164,-9.061139,6.303669,12.834444,-0.35947633,99.19068,9.459321,-21.092945,14.034279,3.8308735
185,2.925323963165283,110.41474151611328,74.4925537109375,-5.80092245742994,2.4547195538436206,85.35837961721322,-31.431562,8.089107,-0.9774792,6.6575885,-4.157757,0.45891714,17.193712,9.633609,-3.4740176,7.4834075,-18.827755,-2.5676777,-1.4840147,5.823121,6.440422,17.803925,14.440987,-95.28571,13.392381,9.549056,-9.061338,6.128486,12.7244,-0.35633743,99.05975,9.4243355,-21.521961,13.99564,3.8710296
186,2.8625590801239014,111.07059478759766,74.49422454833984,-5.443996937864342,2.7725068878528103,85.37081171291304,-31.287346,7.509463,-1.0011197,6.6738358,-2.8880363,0.8249599,17.34723,9.078658,-3.5750597,7.600506,-18.556818,-2.3453157,-1.6552396,5.40575,6.127642,17.676992,14.434678,-95.216415,13.351983,9.149821,-9.07703,5.811619,12.5904255,-0.35259593,98.906334,9.407462,-21.848598,13.957131,3.879635
187,2.799577474594116,111.72862243652344,74.5011215209961,-5.029885228131234,3.0911880542752,85.36508810679223,-31.12571,6.896119,-0.9806212,6.689451,-1.5077775,1.146853,16.714949,8.392589,-3.792827,9.375758,-19.088522,-2.1144176,-1.8015841,4.9279666,5.8098083,17.537567,14.423711,-95.15062,13.324084,8.791547,-9.094959,5.4711647,12.450982,-0.34896725,98.780846,9.393302,-22.050198,13.92767,3.8963494
188,2.7155048847198486,112.40556335449219,74.52067565917969,-4.605284225154516,3.368727399547308,85.32387618200869,-30.99971,6.3340054,-0.86194307,6.8672943,-0.24039148,1.4411172,16.00523,7.6765714,-3.9760835,11.416619,-19.659618,-1.9052696,-1.9145772,4.433088,5.5011506,17.409996,14.418626,-95.13336,13.318958,8.607527,-9.101412,5.240926,12.334744,-0.34803048,98.758675,9.364934,-22.098475,13.924527,3.9425144
189,2.6215403079986572,113.0909652709961,74.54949951171875,-4.157077620642604,3.6156095107503097,85.22520654775838,-31.56987,5.813085,-0.6694462,8.545305,0.29318678,1.7530788,15.295214,6.9151845,-4.0854745,13.529358,-20.1795,-1.7129481,-1.9630481,3.9035296,5.2034745,17.275196,14.404293,-95.13626,13.363841,8.712304,-9.110964,5.091228,12.223694,-0.34803027,98.81577,9.310832,-21.948118,13.923916,4.064908
190,2.53326678276062,113.77054595947266,74.56735229492188,-3.661824576385558,3.847174183568994,85.07656343300236,-32.038876,5.3080535,-0.3404089,10.032679,1.0189964,2.0497193,14.562941,6.082217,-4.134757,15.729774,-20.662941,-1.5280637,-1.9565535,3.3205907,4.897565,17.14207,14.393074,-95.1699,13.42941,9.008038,-9.123009,4.993598,12.12907,-0.3499844,98.94823,9.242204,-21.623732,13.93558,4.2202377
191,2.4617090225219727,114.45136260986328,74.57828521728516,-3.1559462315913205,4.027797802226353,84.90473107813915,-32.393234,4.8362827,0.07667723,11.42683,1.6666689,2.2436283,13.876759,5.230293,-4.145972,17.954206,-21.045181,-1.3722374,-1.9491189,2.7108047,4.628006,17.022749,14.370103,-95.22984,13.52617,9.3139925,-9.117485,4.989269,12.037036,-0.35658145,99.18018,9.167102,-21.213879,13.990025,4.3749423
192,2.3991899490356445,115.13507080078125,74.58623504638672,-2.676597429598987,4.121761115874517,84.74195176242502,-32.599907,4.4123197,0.52315795,12.789664,1.9787067,2.2549686,13.2993355,4.4147496,-4.1504364,20.148933,-21.265772,-1.2701089,-1.9289744,2.1193516,4.435936,16.902636,14.34799,-95.37333,13.650108,9.44487,-9.075633,5.113553,11.936782,-0.36412293,99.41541,9.096817,-20.828506,14.097726,4.5380406
193,2.327390193939209,115.8206558227539,74.59451293945312,-2.2416435983966845,4.108445222773195,84.58536537397545,-32.70076,4.058413,0.99659336,14.296482,1.7176627,2.0157108,12.865346,3.6540382,-4.1409855,22.287214,-21.323683,-1.2335073,-1.8967963,1.5576762,4.3343263,16.779442,14.323262,-95.641716,13.822084,9.253238,-8.981119,5.501732,11.818355,-0.37114957,99.69539,9.036357,-20.460377,14.290557,4.6922264
194,2.261096715927124,116.50994110107422,74.61595916748047,-1.8285859371163193,4.013817931102927,84.43008897249942,-32.727474,3.7508738,1.5109528,15.921643,1.0419796,1.5914056,12.524732,2.914098,-4.1177964,24.407324,-21.24875,-1.2562244,-1.8446231,1.0091629,4.2969346,16.651566,14.297997,-96.01219,14.032754,8.867119,-8.851457,6.0909686,11.688535,-0.3752378,100.01568,8.982305,-20.06817,14.547643,4.8501506
195,2.1413424015045166,117.21034240722656,74.65087127685547,-1.420336524238799,3.8729141951513766,84.30503839334438,-32.650898,3.435317,2.028855,17.465778,0.27287373,1.1063374,12.211388,2.170865,-4.1272564,26.5555,-21.02766,-1.3336151,-1.8031728,0.46819493,4.2977777,16.532276,14.271078,-96.41577,14.244122,8.516312,-8.711655,6.6395154,11.570689,-0.3757921,100.32156,8.931888,-19.69193,14.820425,5.0175858
196,2.063105344772339,117.91937255859375,74.6946029663086,-0.999535843060884,3.718279453387471,84.23594875937157,-32.42371,3.0604174,2.5068657,18.694916,-0.24826826,0.6812691,11.871601,1.4060639,-4.2120934,28.762936,-20.640198,-1.4564885,-1.8053961,-0.07050094,4.316013,16.433926,14.248551,-96.77281,14.411608,8.433088,-8.580717,6.897092,11.4865885,-0.3739413,100.55631,8.880075,-19.372467,15.058775,5.206805
197,1.982742190361023,118.6245346069336,74.73995971679688,-0.560892983150233,3.52842861448192,84.25115666791727,-31.979254,2.6201837,2.939083,19.514677,-0.41167948,0.28672045,11.539914,0.6260172,-4.406559,31.033983,-20.05748,-1.6609215,-1.8719184,-0.6139221,4.372841,16.357275,14.229874,-97.090096,14.550232,8.786974,-8.438314,6.7329273,11.45071,-0.36980343,100.70658,8.824564,-19.131956,15.277215,5.441097
198,1.9033375978469849,119.33394622802734,74.79950714111328,-0.11625330642715495,3.2949122701519067,84.33021137881545,-31.357386,2.1369069,3.3384278,20.05191,-0.40099812,-0.12047127,11.234193,-0.16342838,-4.6851926,33.347347,-19.295038,-1.9394567,-1.992064,-1.1590918,4.470602,16.300974,14.222931,-97.381584,14.665146,9.423621,-8.285871,6.291503,11.44626,-0.3651545,100.80877,8.7642565,-18.944584,15.492528,5.710288
199,1.8376035690307617,120.03337097167969,74.87039947509766,0.3259781529922737,3.069243598348105,84.42580343470753,-30.668507,1.6082902,3.683287,20.402042,-0.31203577,-0.4413418,10.874753,-0.97446615,-4.996976,35.706524,-18.396381,-2.212169,-2.1207855,-1.6839781,4.5570016,16.260677,14.223888,-97.646095,14.721135,10.0759735,-8.16645,5.7678685,11.460371,-0.36081174,100.86054,8.70872,-18.780584,15.660802,5.966398
200,1.7517338991165161,120.74256896972656,74.94975280761719,0.754948929525307,2.9035258444593204,84.4917573559785,-30.024202,1.0389566,3.9533334,20.668276,-0.24225585,-0.57597816,10.379201,-1.8151298,-5.286365,38.120804,-17.407764,-2.396817,-2.2226727,-2.1678636,4.5824256,16.235758,14.22865,-97.86563,14.682336,10.479897,-8.116364,5.3521852,11.477673,-0.35925278,100.86638,8.662045,-18.608816,15.73773,6.163475
201,1.6466964483261108,121.43046569824219,75.03675842285156,1.1676113693445942,2.814201983628899,84.52203099611066,-29.441183,0.41827777,4.1045766,20.85359,-0.19253795,-0.46573052,9.71683,-2.6847668,-5.5471063,40.616985,-16.302492,-2.479082,-2.305789,-2.6004677,4.5280046,16.233692,14.230492,-98.01678,14.515517,10.545811,-8.159391,5.0625596,11.494891,-0.36461803,100.82117,8.618347,-18.520987,15.692161,6.255659
202,1.5399713516235352,122.13224029541016,75.13013458251953,1.567278052711674,2.773051000066915,84.54149522389022,-28.862282,-0.24186848,4.155095,20.91788,-0.12120599,-0.17314838,8.934285,-3.569758,-5.8012643,43.185287,-15.069474,-2.4916728,-2.3804789,-2.9894483,4.4226074,16.248865,14.227384,-98.124344,14.254408,10.417546,-8.267892,4.811962,11.519565,-0.37917534,100.71759,8.57132,-18.50139,15.5531645,6.280442
203,1.4217004776000977,122.82290649414062,75.2264175415039,1.9550684606796769,2.7653890249814173,84.55095971385086,-28.2896,-0.9026166,4.179651,20.905035,-0.065874726,0.21932174,8.059553,-4.4596496,-6.0313954,45.792164,-13.786084,-2.425687,-2.44073,-3.3482285,4.29056,16.272554,14.216976,-98.20312,13.966793,10.191024,-8.399253,4.6221623,11.546909,-0.40876636,100.58604,8.524169,-18.353598,15.367845,6.3139157
204,1.3140525817871094,123.50647735595703,75.32109069824219,2.333154114434059,2.7764552005728724,84.55053327067989,-27.725641,-1.5277866,4.253703,20.854357,-0.06052539,0.628754,7.117973,-5.3478575,-6.2203474,48.407967,-12.531241,-2.2805452,-2.4962437,-3.69415,4.154476,16.302208,14.197265,-98.24778,13.717358,9.96547,-8.512355,4.5122075,11.571654,-0.45657292,100.480965,8.483227,-17.876884,15.186428,6.426229
205,1.1836137771606445,124.17422485351562,75.41864776611328,2.7046077589941997,2.8210336192400183,84.55079565256203,-27.19708,-2.1211421,4.3854747,20.776575,-0.109905645,1.0863943,6.0799594,-6.2376714,-6.3555145,51.085354,-11.327778,-2.0284457,-2.557585,-4.027733,4.002815,16.332878,14.169333,-98.24987,13.494417,9.718632,-8.604712,4.492561,11.599188,-0.51657385,100.416435,8.471175,-16.84287,14.992085,6.6823316
206,1.0797595977783203,124.8346176147461,75.51187896728516,3.065543666945253,2.900590905831492,84.54954723157051,-26.692625,-2.6972027,4.5368633,20.65355,-0.20225485,1.6164874,4.936506,-7.127108,-6.441503,53.835827,-10.142083,-1.6820109,-2.621293,-4.3406987,3.8297138,16.368765,14.130395,-98.21003,13.275886,9.4146,-8.6962595,4.550416,11.629663,-0.5905822,100.36855,8.476041,-15.415527,14.774704,7.0319448
207,0.9783822298049927,125.46832275390625,75.603759765625,3.413474866525629,2.9807085351890414,84.52602361381729,-26.158016,-3.2382472,4.714026,20.474112,-0.34120345,2.1257908,3.73532,-8.01239,-6.4887667,56.587902,-8.978894,-1.3112161,-2.6717143,-4.6378646,3.6671352,16.41917,14.086952,-98.13971,13.096351,9.133106,-8.779834,4.6700926,11.655365,-0.6640833,100.33393,8.484762,-13.982582,14.590632,7.3679466
208,0.876570463180542,126.07854461669922,75.69941711425781,3.7418696815207597,3.0271683457318157,84.4591955486992,-25.539522,-3.7280746,4.9229827,20.223982,-0.52440786,2.5222633,2.5253131,-8.895536,-6.5117283,59.265007,-7.836797,-0.9914921,-2.6961226,-4.9249496,3.5467627,16.495907,14.03683,-98.04717,12.999635,8.95405,-8.84748,4.835989,11.666039,-0.74035794,100.31176,8.46538,-12.932551,14.487819,7.578838
209,0.8138036131858826,126.68535614013672,75.79281616210938,4.057071750831327,3.037745468051194,84.32271126535136,-24.83039,-4.1648517,5.1896796,19.89852,-0.766335,2.8058124,1.2694169,-9.805962,-6.4851446,61.918987,-6.605698,-0.742706,-2.6709654,-5.207051,3.4727771,16.604807,13.981026,-97.934044,13.0022,8.894628,-8.905405,5.0836053,11.650396,-0.8138854,100.30278,8.410423,-12.389065,14.491998,7.6010423
210,0.736973226070404,127.28477478027344,75.89090728759766,4.359979029797544,3.0287672650036757,84.13472625996708,-24.055464,-4.560911,5.502475,19.498924,-1.0570554,3.0173488,-0.04714214,-10.743302,-6.409311,64.57293,-5.3222256,-0.54056156,-2.6091833,-5.479939,3.4307234,16.738115,13.919106,-97.796776,13.078816,8.913408,-8.95347,5.408265,11.6171255,-0.8834153,100.306885,8.338914,-12.138164,14.568315,7.5026116
211,0.5702221393585205,127.9195556640625,75.99468231201172,4.637790915177784,2.9937002705448936,83.9407321969346,-23.214842,-4.921364,5.8120747,19.022228,-1.3550571,3.1293545,-1.3398316,-11.669522,-6.349045,67.1064,-4.213,-0.39740676,-2.551153,-5.7349334,3.4241595,16.886343,13.854805,-97.63716,13.206998,9.003204,-8.978937,5.734887,11.586267,-0.9463856,100.320656,8.268073,-12.060187,14.669671,7.3676023
212,0.4854053258895874,128.5137176513672,76.08966064453125,4.8758737688977964,2.925652558596625,83.7848243984445,-22.30731,-5.2482495,6.070843,18.465359,-1.6195899,3.1158056,-2.519026,-12.544248,-6.374081,69.39655,-3.5053186,-0.3173035,-2.5356658,-5.9622345,3.4559457,17.039541,13.795571,-97.45715,13.359931,9.156331,-8.968695,5.9882507,11.578851,-0.99891114,100.3406,8.215624,-12.036267,14.749403,7.2803793
213,0.4255335330963135,129.10458374023438,76.18682098388672,5.062746270057778,2.8164377729088557,83.67917707735816,-21.313692,-5.5224247,6.2726855,17.804493,-1.8435755,2.9028034,-3.5374746,-13.398506,-6.5781264,71.41311,-3.25598,-0.3309033,-2.5755923,-6.1570063,3.5356123,17.202856,13.7550335,-97.24175,13.54636,9.432195,-8.911186,6.133125,11.601503,-1.0317062,100.378555,8.192013,-12.08465,14.805235,7.2609816
214,0.3641413748264313,129.6903839111328,76.2827377319336,5.205151265437657,2.6713388174850796,83.59965214496258,-20.240849,-5.7493567,6.4450817,17.045835,-2.0483797,2.5328696,-4.445683,-14.247206,-6.9091864,73.226616,-3.3497174,-0.42787376,-2.6469405,-6.322302,3.6583538,17.377584,13.736061,-96.997154,13.764141,9.814256,-8.815512,6.2141824,11.644138,-1.0439018,100.43006,8.191339,-12.252334,14.858782,7.265681
215,0.3158243000507355,130.26278686523438,76.37800598144531,5.320948189908727,2.504342711262854,83.53277388285102,-19.123695,-5.962112,6.5899973,16.23084,-2.2362914,2.151977,-5.2993155,-15.013747,-7.218719,74.854126,-3.7490335,-0.534515,-2.7246065,-6.458087,3.8057606,17.543766,13.733423,-96.764626,13.968032,10.179433,-8.699777,6.2777147,11.702877,-1.0422456,100.45982,8.211198,-12.464243,14.898894,7.2842164
216,0.30850550532341003,130.80967712402344,76.4688491821289,5.429030928272516,2.32999175834479,83.46498884982968,-17.999475,-6.19318,6.706701,15.406022,-2.4082415,1.9012659,-6.1599655,-15.6130295,-7.355282,76.30941,-4.412393,-0.5669426,-2.8044193,-6.571366,3.9571745,17.690384,13.738225,-96.55588,14.1142,10.408965,-8.583499,6.3631535,11.770183,-1.0344539,100.459045,8.24707,-12.641007,14.915471,7.301285
217,0.2563685476779938,131.37574768066406,76.56521606445312,5.538587035302297,2.138826368530218,83.38045499417912,-16.852808,-6.45092,6.8030534,14.5735035,-2.565149,1.8208638,-7.0293303,-15.998519,-7.255782,77.58608,-5.45545,-0.48915064,-2.8560505,-6.6613545,4.123225,17.809233,13.744582,-96.39564,14.196874,10.449492,-8.450191,6.4918694,11.847354,-1.0273294,100.39505,8.3000345,-12.783986,14.901396,7.2992725
218,0.18683850765228271,131.94049072265625,76.65962219238281,5.6399668249387425,1.9281783194330973,83.29035112809949,-15.6764765,-6.7166066,6.8756795,13.722565,-2.7102263,1.8322346,-7.8841567,-16.212948,-7.015926,78.67987,-6.854479,-0.33844462,-2.9002414,-6.7287593,4.308012,17.912966,13.750951,-96.25938,14.243939,10.373141,-8.297744,6.6372166,11.9349375,-1.0221568,100.29254,8.364802,-12.926472,14.863981,7.2891936
219,0.12017136067152023,132.5152130126953,76.754150390625,5.724547430904121,1.722383160804522,83.22046813350502,-14.507495,-6.980702,6.904432,12.859895,-2.8347862,1.8946028,-8.750203,-16.308016,-6.7220535,79.606705,-8.356584,-0.14637384,-2.9588256,-6.774858,4.487467,17.999245,13.760297,-96.14801,14.264284,10.23984,-8.165004,6.779869,12.030063,-1.017005,100.16347,8.424194,-13.048957,14.81073,7.3146644
220,0.05992509424686432,133.0878448486328,76.84635162353516,5.782462030106347,1.5464596212613195,83.19710545250852,-13.39273,-7.2280645,6.870665,12.01164,-2.94055,1.9662246,-9.653752,-16.335976,-6.45703,80.3814,-9.70904,0.056638535,-3.0537395,-6.7972426,4.632077,18.06742,13.770325,-96.08385,14.269934,10.10288,-8.087154,6.9198933,12.137488,-1.012424,100.037674,8.459209,-13.126347,14.753759,7.4006968
221,0.010371536947786808,133.64378356933594,76.93602752685547,5.808749449889966,1.4128811280386802,83.23025076489807,-12.337953,-7.457083,6.7591124,11.15642,-3.01648,2.0412188,-10.614627,-16.26655,-6.21117,80.994675,-10.87074,0.27779427,-3.179478,-6.7892437,4.7294617,18.10523,13.801165,-96.088875,14.239723,9.936812,-8.087356,7.056695,12.261003,-0.9975277,99.882385,8.464488,-13.1575165,14.684768,7.580269
222,-0.04484539479017258,134.20175170898438,77.019775390625,5.810656573971956,1.306255531270868,83.30559645782041,-11.319891,-7.6736155,6.584338,10.291049,-3.0665114,2.1355903,-11.61398,-16.09158,-5.9532638,81.44264,-11.966287,0.5264416,-3.3561635,-6.761539,4.791117,18.129976,13.827308,-96.12401,14.191539,9.728471,-8.142405,7.1949787,12.397134,-0.98337185,99.7424,8.444104,-13.14527,14.606203,7.8123894
223,-0.08193182200193405,134.74998474121094,77.09928894042969,5.798475027536234,1.2085715166362616,83.41203061372268,-10.335564,-7.874784,6.3724084,9.458921,-3.109935,2.2428782,-12.617997,-15.891538,-5.7298613,81.74311,-12.992653,0.77904063,-3.5321207,-6.715889,4.847911,18.132017,13.874599,-96.20728,14.113809,9.5436535,-8.217435,7.321604,12.541651,-0.9568045,99.5746,8.432561,-13.103237,14.525988,8.086993
224,-0.14017535746097565,135.31741333007812,77.171875,5.779774229083605,1.1020804061210334,83.53791519257736,-9.378828,-8.06213,6.1492424,8.692614,-3.1625524,2.3603408,-13.595685,-15.742029,-5.5858803,81.91649,-13.943614,1.0131027,-3.715063,-6.6669335,4.921574,18.12912,13.935714,-96.288864,14.0226345,9.458409,-8.280087,7.4161224,12.682678,-0.92311215,99.41945,8.44602,-13.031587,14.458594,8.370752
225,-0.19775328040122986,135.87168884277344,77.23782348632812,5.751118677632293,0.9776061393408152,83.68835287548245,-8.449325,-8.228542,5.915203,8.013437,-3.2332306,2.4863358,-14.533916,-15.63141,-5.517658,81.94996,-14.812052,1.248844,-3.9115257,-6.611263,5.0231967,18.116938,13.991415,-96.36704,13.936989,9.537804,-8.323091,7.4677615,12.821471,-0.89529014,99.28034,8.486465,-12.878303,14.400476,8.6733675
226,-0.2220497727394104,136.40232849121094,77.29364013671875,5.710859102578538,0.8458830525654764,83.86620618242283,-7.548447,-8.378434,5.6602826,7.395867,-3.3106306,2.6259902,-15.450256,-15.529846,-5.5043173,81.8359,-15.600881,1.490915,-4.114047,-6.5447435,5.1393857,18.088503,14.06096,-96.46628,13.834139,9.726717,-8.362702,7.4897594,12.963434,-0.8649763,99.13728,8.546252,-12.660812,14.347237,9.00618
227,-0.260444700717926,136.94967651367188,77.34403228759766,5.672789311743455,0.7193715723927214,84.05692328636802,-6.6942196,-8.524136,5.3971686,6.850814,-3.397163,2.787221,-16.361164,-15.492651,-5.558808,81.60665,-16.322325,1.6991976,-4.3230658,-6.4863896,5.255244,18.06441,14.130368,-96.56015,13.731134,9.919387,-8.403792,7.4956565,13.096196,-0.83898115,99.0066,8.599629,-12.483199,14.31171,9.339211
228,-0.2989855408668518,137.49481201171875,77.38959503173828,5.649518500009283,0.6105599097566343,84.2458439350836,-6.113168,-8.656867,5.1690564,6.828045,-3.7270794,2.9741142,-17.282068,-15.571061,-5.6947174,81.29357,-16.988403,1.8353014,-4.5333567,-6.452763,5.3567743,18.063185,14.181301,-96.62914,13.650148,10.009067,-8.450905,7.500634,13.207246,-0.8226771,98.89785,8.624542,-12.450546,14.305154,9.6439495
229,-0.32849669456481934,138.03021240234375,77.42327117919922,5.651911881571838,0.52346628204815,84.42940211648357,-5.5666676,-8.812424,4.9429975,6.812122,-4.0097475,3.219706,-18.218153,-15.800801,-5.9327264,80.897934,-17.59499,1.9181366,-4.739866,-6.453859,5.4372907,18.089743,14.220262,-96.6742,13.584053,9.940737,-8.501924,7.5076284,13.296414,-0.8121854,98.80283,8.625191,-12.569299,14.319829,9.926566
230,-0.35735613107681274,138.5585479736328,77.45354461669922,5.669646872836749,0.4508043967678313,84.6144901286672,-5.0452185,-8.982073,4.7129807,6.8006577,-4.2523265,3.5101001,-19.15706,-16.139587,-6.261588,80.40273,-18.137383,1.9648082,-4.9386387,-6.4758477,5.5062795,18.130331,14.261689,-96.71219,13.517278,9.778881,-8.555078,7.5098095,13.3696995,-0.8034815,98.7108,8.613867,-12.791774,14.35144,10.19999
231,-0.38370421528816223,139.0902099609375,77.47200775146484,5.684620472726308,0.3884524502383536,84.80299146755341,-4.540841,-9.143461,4.47692,6.793221,-4.4906907,3.7834208,-20.088318,-16.51952,-6.647063,79.81057,-18.628248,1.9348533,-5.130388,-6.5006404,5.5721016,18.178444,14.304865,-96.742935,13.453617,9.597533,-8.615427,7.5073967,13.428509,-0.79656893,98.63356,8.580273,-13.142704,14.4152975,10.443747
232,-0.4127255082130432,139.6209259033203,77.4854507446289,5.6782858859361305,0.3326572994541362,84.99698464603132,-4.0462275,-9.27364,4.2328176,6.7892427,-4.7598944,3.9780095,-21.00384,-16.8742,-7.0540686,79.12852,-19.080145,1.786492,-5.3164096,-6.5099573,5.643646,18.227283,14.340644,-96.76682,13.404789,9.470373,-8.688216,7.501025,13.472588,-0.79205817,98.58314,8.51702,-13.646682,14.526655,10.637667
233,-0.43121495842933655,140.1460418701172,77.49185943603516,5.644746016067901,0.2832126315604646,85.20127862152714,-3.5629952,-9.368652,3.9759493,6.7895136,-5.0660443,4.0764403,-21.906425,-17.207918,-7.498861,78.36427,-19.508379,1.4578876,-5.496769,-6.4971247,5.7230544,18.277279,14.376765,-96.78731,13.363611,9.423235,-8.784321,7.484001,13.502496,-0.7875808,98.55536,8.405163,-14.464361,14.722515,10.769773
234,-0.44351866841316223,140.6673126220703,77.4918441772461,5.593404317655801,0.24237329825841522,85.41337626719583,-3.0954573,-9.437547,3.7094889,6.795644,-5.3918147,4.1114182,-22.795576,-17.542784,-7.9949827,77.512245,-19.90782,0.9935847,-5.6720004,-6.4715075,5.80542,18.33128,14.41947,-96.80182,13.3218155,9.41483,-8.897691,7.457848,13.518219,-0.78183943,98.54818,8.258107,-15.531861,14.98367,10.855844
235,-0.4505256116390228,141.1836700439453,77.49261474609375,5.528108457056419,0.21018270422070237,85.62513238628516,-2.635893,-9.480363,3.4423273,6.8011565,-5.734647,4.097726,-23.656412,-17.839058,-8.505701,76.55378,-20.260021,0.50583816,-5.835356,-6.436677,5.88989,18.383991,14.440865,-96.81311,13.30872,9.416743,-9.008387,7.4384727,13.52057,-0.77842444,98.562126,8.108365,-16.539179,15.240815,10.919557
236,-0.4509607255458832,141.69851684570312,77.49230194091797,5.454607240680196,0.186451968202193,85.82809755022676,-2.1804378,-9.4977865,3.1852322,6.8080444,-6.0966177,4.050752,-24.47668,-18.06268,-8.98988,75.46936,-20.539629,0.10689876,-5.971809,-6.396219,5.975946,18.425173,14.45972,-96.83079,13.309493,9.401155,-9.096189,7.440902,13.512267,-0.775365,98.58966,7.9883423,-17.175629,15.424296,10.980966
237,-0.45525994896888733,142.20919799804688,77.48945617675781,5.369784353721192,0.17307599894838363,86.01945809169189,-1.7281712,-9.484754,2.941179,6.81546,-6.4850345,3.9614716,-25.252289,-18.21441,-9.460091,74.2405,-20.729548,-0.17803961,-6.0785847,-6.3443055,6.0639644,18.452774,14.475037,-96.856964,13.321829,9.362736,-9.1525135,7.476527,13.491144,-0.77299637,98.634186,7.9139733,-17.253113,15.502883,11.031931
238,-0.4451391398906708,142.7248077392578,77.49002075195312,5.270466010964168,0.1693870109629859,86.20390116506343,-1.2815943,-9.443376,2.7059555,6.823748,-6.8973646,3.8282013,-25.989298,-18.309784,-9.932058,72.88006,-20.843988,-0.40737405,-6.1601744,-6.284205,6.154486,18.471272,14.489261,-96.888245,13.349463,9.316187,-9.1922455,7.535102,13.456763,-0.770764,98.69611,7.8622,-16.972033,15.518884,11.064415
239,-0.42590194940567017,143.24038696289062,77.48456573486328,5.168979143348324,0.17223894663762093,86.38516438420534,-0.8392792,-9.391196,2.478238,6.831447,-7.3190203,3.6777203,-26.691397,-18.337055,-10.370397,71.4154,-20.904476,-0.59899974,-6.2227464,-6.2185383,6.2455945,18.47995,14.499541,-96.92372,13.383054,9.260882,-9.216216,7.5989895,13.41433,-0.76912916,98.76782,7.82248,-16.602201,15.514116,11.092534
240,-0.4087696671485901,143.75,77.47840881347656,5.074648622351504,0.17799479210941677,86.56654085974566,-0.39980438,-9.34318,2.2557235,6.838123,-7.7356687,3.5351095,-27.3641,-18.287477,-10.737371,69.87525,-20.933998,-0.77457136,-6.271103,-6.153215,6.335375,18.478119,14.506964,-96.96336,13.4161,9.195892,-9.227843,7.6509266,13.369213,-0.76791495,98.84329,7.780234,-16.413517,15.529967,11.130441
241,-0.3957829475402832,144.2607421875,77.46746826171875,4.989056811442336,0.17991055889933474,86.74499670500084,0.047241725,-9.29967,2.040638,6.8363357,-8.144923,3.3956835,-28.003138,-18.164755,-11.027322,68.25876,-20.947908,-0.97753257,-6.2984066,-6.087506,6.431076,18.460842,14.510303,-97.0093,13.450418,9.0993805,-9.223456,7.68734,13.31914,-0.76740754,98.92375,7.730994,-16.506737,15.5922165,11.191996
242,-0.37367987632751465,144.77523803710938,77.45288848876953,4.906503988998588,0.18175682728303375,86.91994999251216,0.49100333,-9.252638,1.8342931,6.8421793,-8.558378,3.2487164,-28.608612,-17.97516,-11.255805,66.55402,-20.93145,-1.1880622,-6.3087964,-6.019883,6.5286045,18.431124,14.512456,-97.06771,13.486695,8.976629,-9.202431,7.725401,13.264752,-0.76715136,99.03002,7.68315,-16.724833,15.6769085,11.256168
243,-0.35285863280296326,145.2918243408203,77.43611907958984,4.829119128427224,0.19552639871261132,87.09977170441805,0.92192936,-9.205625,1.6280448,6.846196,-8.966128,3.1099439,-29.1908,-17.716314,-11.415474,64.77128,-20.860943,-1.3326225,-6.315266,-5.951684,6.615493,18.398407,14.512845,-97.12508,13.517195,8.874104,-9.172964,7.7587137,13.211163,-0.76751494,99.13834,7.6424,-16.95974,15.743539,11.308704
