unveil-humanoid-operators/unveil-humanoid-operators.github.io/feature-analysis-animation/data/feature_matrix_instances/gender_shoulder_mean_vel_jogging_A201_jog_ff_loop_180_R_003__A201.csv
Frame,root_translateX,root_translateY,root_translateZ,root_rotateX,root_rotateY,root_rotateZ,left_hip_pitch_joint_dof,left_hip_roll_joint_dof,left_hip_yaw_joint_dof,left_knee_joint_dof,left_ankle_pitch_joint_dof,left_ankle_roll_joint_dof,right_hip_pitch_joint_dof,right_hip_roll_joint_dof,right_hip_yaw_joint_dof,right_knee_joint_dof,right_ankle_pitch_joint_dof,right_ankle_roll_joint_dof,waist_yaw_joint_dof,waist_roll_joint_dof,waist_pitch_joint_dof,left_shoulder_pitch_joint_dof,left_shoulder_roll_joint_dof,left_shoulder_yaw_joint_dof,left_elbow_joint_dof,left_wrist_roll_joint_dof,left_wrist_pitch_joint_dof,left_wrist_yaw_joint_dof,right_shoulder_pitch_joint_dof,right_shoulder_roll_joint_dof,right_shoulder_yaw_joint_dof,right_elbow_joint_dof,right_wrist_roll_joint_dof,right_wrist_pitch_joint_dof,right_wrist_yaw_joint_dof
0,-0.025384334847331047,-1.5788860321044922,78.6341552734375,-0.39065666146591077,0.4418354006394121,93.16183705372076,1.9899416,-0.15446708,0.67695343,9.51909,-11.746318,0.3195588,4.466499,-1.4298332,-11.739163,7.072771,-12.194271,1.9019188,-1.2429501,-0.5961685,3.7519166,-4.2082753,13.585191,-48.60893,63.50937,4.9762673,1.1807573,0.25706553,-2.2799997,-12.298584,43.27696,63.071526,-1.3427104,-0.15397641,-5.179226
1,-0.025228381156921387,-1.5607575178146362,78.63153076171875,-0.3862459995024769,0.45832220071839697,93.18144995027748,1.990062,-0.16141602,0.66230947,9.50569,-11.752662,0.31675357,4.468875,-1.4370632,-11.758658,7.0726647,-12.211724,1.9096694,-1.2832853,-0.60886806,3.7532928,-4.212133,13.59428,-48.597595,63.5048,4.9082894,1.1760925,0.28675446,-2.320189,-12.316535,43.15909,63.02743,-1.4044043,-0.08042019,-4.9864945
2,-0.02394186146557331,-1.5396379232406616,78.62842559814453,-0.3820567863624658,0.4760327218650442,93.20001577828222,1.9886143,-0.16790271,0.6488399,9.493663,-11.760561,0.31227422,4.4697742,-1.4440086,-11.777533,7.0736737,-12.2297125,1.9165612,-1.3108186,-0.6215828,3.755294,-4.2220054,13.60552,-48.599743,63.49773,4.8299184,1.1731757,0.31501716,-2.3525844,-12.338502,43.01296,62.974075,-1.4785256,-0.0009134034,-4.774165
3,-0.025274427607655525,-1.5271447896957397,78.62896728515625,-0.3772991558465774,0.4912103192159847,93.22040536818676,1.9891305,-0.17541493,0.63316125,9.481827,-11.766796,0.31110173,4.4734793,-1.4515799,-11.7975235,7.073575,-12.24755,1.9251602,-1.3253623,-0.63667405,3.7641046,-4.239695,13.620989,-48.619232,63.49254,4.7609506,1.1668562,0.34427524,-2.3739746,-12.369502,42.86791,62.907574,-1.5459052,0.06467001,-4.5949817
4,-0.025392431765794754,-1.5098329782485962,78.62773895263672,-0.3707015231077375,0.5002374608343871,93.24547162244583,1.9898974,-0.18567964,0.61187446,9.480006,-11.773768,0.31825593,4.4832487,-1.4608436,-11.8203125,7.0736456,-12.267267,1.938081,-1.3586441,-0.6555967,3.7756147,-4.257117,13.628088,-48.626617,63.511414,4.727124,1.1499825,0.3784731,-2.4129531,-12.382988,42.798477,62.873276,-1.5736307,0.094707094,-4.507157
5,-0.024568961933255196,-1.494701623916626,78.62447357177734,-0.3606750607665076,0.497295803327261,93.27834992559745,1.9925302,-0.20083684,0.58155245,9.49511,-11.781109,0.3421437,4.504954,-1.4734886,-11.847886,7.073889,-12.289599,1.958417,-1.3522707,-0.6858639,3.8158822,-4.305731,13.645615,-48.686,63.54772,4.7387924,1.1166048,0.41731998,-2.422444,-12.414224,42.729084,62.80429,-1.587432,0.0703978,-4.5343657
6,-0.019781649112701416,-1.4877305030822754,78.6236572265625,-0.34827249767646984,0.48616862836760416,93.31675101366895,1.995636,-0.21933694,0.5447102,9.523576,-11.789516,0.37777683,4.53463,-1.4885759,-11.878965,7.0745616,-12.314049,1.9840279,-1.3605573,-0.7210152,3.8642821,-4.35658,13.657217,-48.738163,63.607525,4.7909465,1.0697689,0.46199957,-2.4474213,-12.432943,42.725433,62.76077,-1.5679883,0.0062936055,-4.650622
7,-0.019165337085723877,-1.4731438159942627,78.62346649169922,-0.3363094988983366,0.47663579184645055,93.35512907570713,1.9992797,-0.23737155,0.5074703,9.547143,-11.796141,0.4098197,4.5624313,-1.5030016,-11.909737,7.0748672,-12.338301,2.0094588,-1.3576866,-0.7567811,3.9121084,-4.4106655,13.6754055,-48.80482,63.661205,4.839873,1.026108,0.50516367,-2.4578764,-12.459971,42.73272,62.70353,-1.5324364,-0.062099602,-4.803438
8,-0.01645200327038765,-1.4632527828216553,78.62338256835938,-0.32816636657099263,0.47835260909258814,93.3882458741499,1.9999245,-0.2505285,0.4751895,9.553653,-11.800836,0.4229735,4.5779753,-1.5132545,-11.937059,7.075656,-12.361054,2.0292156,-1.3651603,-0.78326,3.9418526,-4.456431,13.687017,-48.845062,63.704582,4.864399,0.99695957,0.53812104,-2.4848392,-12.475891,42.752876,62.676823,-1.4839358,-0.10596465,-4.9420733
9,-0.01360846683382988,-1.4462400674819946,78.62155151367188,-0.3241244794987464,0.4976497889170331,93.4161141223339,1.9965312,-0.25808603,0.4477324,9.531506,-11.800958,0.40688923,4.5752645,-1.5190005,-11.960824,7.074774,-12.380814,2.0428736,-1.3748653,-0.79941607,3.9457622,-4.49383,13.696595,-48.869568,63.72651,4.8445926,0.9913848,0.56055695,-2.5164905,-12.488334,42.77809,62.667885,-1.3989313,-0.11250742,-5.0747027
10,-0.013439220376312733,-1.4282399415969849,78.6194839477539,-0.32278435585088605,0.5281510700944348,93.44112539963307,1.9904476,-0.26223862,0.42267677,9.489911,-11.797029,0.37184736,4.559922,-1.5220037,-11.982558,7.074479,-12.399582,2.0530238,-1.3862743,-0.80838376,3.933245,-4.524058,13.70837,-48.8889,63.729774,4.794897,1.0000937,0.57609385,-2.5486057,-12.502839,42.822697,62.66606,-1.2761071,-0.10053103,-5.220884
11,-0.012678730301558971,-1.4136769771575928,78.61951446533203,-0.32374709056750295,0.5606733426919738,93.461318431554,1.9841374,-0.26290524,0.40232515,9.447669,-11.795419,0.33333272,4.5424466,-1.5220473,-12.001003,7.07413,-12.417133,2.0587053,-1.4021825,-0.81192815,3.9177477,-4.54464,13.723937,-48.893204,63.719,4.7405343,1.013916,0.5853541,-2.579801,-12.520728,42.874996,62.66398,-1.1738094,-0.0793251,-5.349147
12,-0.013236590661108494,-1.3970658779144287,78.61930084228516,-0.3262599893392389,0.585838627255707,93.4738015848987,1.9822409,-0.26043275,0.38960716,9.419493,-11.800371,0.30690578,4.532641,-1.5195829,-12.014367,7.0740128,-12.433444,2.059077,-1.4203179,-0.8126161,3.9157228,-4.5531816,13.753866,-48.879242,63.68934,4.7031574,1.0219697,0.58651865,-2.6011777,-12.552292,42.916798,62.6415,-1.1529042,-0.059701107,-5.425044
13,-0.013099453411996365,-1.3791972398757935,78.61686706542969,-0.33150656615219903,0.5969088652864792,93.47652310952762,1.9899563,-0.2531247,0.38660073,9.41095,-11.814317,0.29564345,4.537286,-1.5132409,-12.022357,7.074428,-12.447507,2.0502796,-1.4219065,-0.8133657,3.9258206,-4.5757456,13.766628,-48.86968,63.691742,4.685212,1.0155782,0.5772389,-2.6187477,-12.565164,42.92008,62.633686,-1.2817833,-0.043246113,-5.4199266
14,-0.011629077605903149,-1.357475757598877,78.61449432373047,-0.3395114736843643,0.6000241842196167,93.47155452492467,2.0046191,-0.24108523,0.39126524,9.412147,-11.833942,0.2916016,4.550783,-1.5027498,-12.025991,7.074564,-12.4598255,2.0339487,-1.4210835,-0.8098957,3.9484553,-4.5895143,13.787375,-48.84767,63.67727,4.679925,1.0056369,0.55793375,-2.625563,-12.585998,42.908493,62.609104,-1.5099784,-0.02125459,-5.357309
15,-0.012014040723443031,-1.3365848064422607,78.61338806152344,-0.34702812094568836,0.6060708036095128,93.46201818608573,2.0156507,-0.22910395,0.4004754,9.4175005,-11.855206,0.29385015,4.560043,-1.4925762,-12.0250635,7.075426,-12.471784,2.0175626,-1.4140489,-0.806599,3.9683752,-4.6036177,13.8073845,-48.82417,63.665276,4.6742463,0.99857897,0.53875846,-2.6291203,-12.605975,42.88754,62.5844,-1.731141,-0.003473322,-5.2878547
16,-0.01277247630059719,-1.315839409828186,78.61255645751953,-0.35091595193824354,0.6253580866675733,93.45147592950316,2.014773,-0.22159714,0.41097555,9.418491,-11.872608,0.30144477,4.555446,-1.486445,-12.019505,7.075427,-12.484751,2.0085547,-1.401151,-0.8068295,3.977377,-4.6152406,13.830002,-48.800953,63.64693,4.661102,1.0058287,0.52973545,-2.6334915,-12.628775,42.867985,62.55677,-1.8371453,0.0053474647,-5.2624025
17,-0.012126368470489979,-1.2946254014968872,78.61078643798828,-0.3499879651328329,0.6659899286004713,93.43510435727936,1.9930907,-0.2190563,0.42754734,9.417075,-11.886304,0.31922278,4.5258527,-1.4850816,-12.002881,7.075998,-12.498495,2.0089903,-1.3770205,-0.8114955,3.9622173,-4.6260495,13.848886,-48.77896,63.63073,4.626568,1.0400007,0.53580225,-2.6437094,-12.648828,42.861427,62.536404,-1.7641985,-0.006553635,-5.3143125
18,-0.013747620396316051,-1.268398642539978,78.61073303222656,-0.3460969088079918,0.7205621511836993,93.41311683140508,1.9590443,-0.21928631,0.45005912,9.413073,-11.89684,0.3459762,4.4803734,-1.4862355,-11.977446,7.0761256,-12.512206,2.0148952,-1.3494571,-0.81664413,3.9372785,-4.6239805,13.881788,-48.746563,63.58948,4.581828,1.0937774,0.5494285,-2.6481893,-12.685714,42.863792,62.496277,-1.5817715,-0.030827967,-5.4082146
19,-0.01567949168384075,-1.2440946102142334,78.60993957519531,-0.34022134370978435,0.7768034578455737,93.39589198012533,1.9222126,-0.22291403,0.4677239,9.408743,-11.906558,0.37181023,4.433935,-1.4906633,-11.956014,7.0762925,-12.527302,2.0246415,-1.3241745,-0.8243502,3.9141972,-4.624416,13.914517,-48.7174,63.55188,4.544272,1.1403408,0.56618077,-2.654394,-12.722172,42.858376,62.457863,-1.3742571,-0.05081028,-5.4968777
20,-0.016097618266940117,-1.2184810638427734,78.60830688476562,-0.3328436520625373,0.8223911034286499,93.39385171843553,1.8956469,-0.23098536,0.46993598,9.399238,-11.914127,0.38687095,4.401892,-1.4987838,-11.951378,7.076597,-12.545448,2.0365143,-1.3124743,-0.8358597,3.9069629,-4.635313,13.94044,-48.69595,63.53361,4.535105,1.1541654,0.58096737,-2.6647537,-12.747645,42.8255,62.432842,-1.2351161,-0.047525022,-5.5324974
21,-0.014977997168898582,-1.1949230432510376,78.6065444946289,-0.3237281050822581,0.8506815920387851,93.41552856740579,1.887645,-0.24530925,0.4485742,9.377812,-11.916856,0.38372824,4.393797,-1.5122459,-11.973813,7.0759096,-12.567508,2.0508823,-1.330785,-0.85170376,3.9187772,-4.65639,13.952316,-48.681995,63.547802,4.5704384,1.1147093,0.59459925,-2.6890156,-12.756359,42.77612,62.42977,-1.190329,-0.005499882,-5.483699
22,-0.017831558361649513,-1.1806681156158447,78.60575866699219,-0.3125168160074657,0.8691091285194316,93.45341378721169,1.8884044,-0.26499718,0.4110756,9.351661,-11.917396,0.36917514,4.3984075,-1.5304346,-12.014212,7.0770235,-12.593516,2.068303,-1.3388922,-0.8750655,3.962286,-4.6853256,13.99536,-48.6929,63.5354,4.6379776,1.043194,0.6023398,-2.6980925,-12.778038,42.65509,62.393166,-1.2169937,0.062476583,-5.3730245
23,-0.01773562841117382,-1.1633002758026123,78.60365295410156,-0.3003448258911921,0.8873055380531257,93.49393958462535,1.8887099,-0.28645575,0.3701502,9.325909,-11.917585,0.35475188,4.4044285,-1.5498424,-12.056399,7.076599,-12.619575,2.0876975,-1.3632185,-0.8985089,4.0033784,-4.71358,14.026918,-48.69483,63.538864,4.7061453,0.96798193,0.61197484,-2.71585,-12.786972,42.54804,62.384487,-1.2404472,0.13149352,-5.2634425
24,-0.01641424186527729,-1.142760992050171,78.60325622558594,-0.28788880401641503,0.9144084978305524,93.52354611598568,1.8795245,-0.3069915,0.33863962,9.304769,-11.918212,0.35212466,4.39779,-1.5680056,-12.084087,7.0772057,-12.644408,2.1080694,-1.3734589,-0.92205167,4.0400333,-4.7432055,14.061879,-48.695683,63.534695,4.744952,0.92189425,0.6207993,-2.7248237,-12.790488,42.435234,62.390614,-1.2291958,0.17723429,-5.203256
25,-0.014411892741918564,-1.1247020959854126,78.60356903076172,-0.27515793357273843,0.9525314891361556,93.53795494454239,1.8575089,-0.32587284,0.3217128,9.2936945,-11.919508,0.3690042,4.3755126,-1.5839673,-12.091029,7.0778384,-12.664042,2.1255426,-1.3697472,-0.94535565,4.0671773,-4.767633,14.102536,-48.684174,63.51484,4.7474313,0.9169488,0.6266359,-2.723934,-12.788162,42.339146,62.42622,-1.1631695,0.18843234,-5.2259765
26,-0.015368633903563023,-1.1018229722976685,78.60334014892578,-0.2620363980998454,0.9970279310897133,93.54448184842707,1.8248719,-0.3445375,0.31193852,9.294267,-11.923718,0.39769673,4.3446565,-1.5992386,-12.086533,7.078144,-12.680865,2.1418948,-1.3719821,-0.9633582,4.083272,-4.795389,14.119292,-48.654747,63.516712,4.7303047,0.932813,0.63384444,-2.7192159,-12.784179,42.275105,62.489403,-1.0554966,0.18056156,-5.2999187
27,-0.019097616896033287,-1.0761895179748535,78.60205841064453,-0.24885509851998291,1.0463412596870312,93.54756098497428,1.7908351,-0.36316282,0.3031585,9.288205,-11.926567,0.42650178,4.3081126,-1.6137792,-12.0778675,7.078133,-12.700631,2.1643894,-1.3622354,-0.98537296,4.109383,-4.824785,14.153656,-48.62841,63.499588,4.7057304,0.9593253,0.6389363,-2.715666,-12.769595,42.16327,62.552296,-0.95534724,0.16616921,-5.3702793
28,-0.023064710199832916,-1.0540043115615845,78.60238647460938,-0.23639384315886036,1.0997649543189474,93.55174946249947,1.7592212,-0.38165593,0.28923646,9.266535,-11.928603,0.44367698,4.2672796,-1.6279551,-12.072186,7.0777755,-12.7285595,2.2003691,-1.357844,-1.008372,4.138701,-4.85474,14.191615,-48.6147,63.487705,4.672939,0.9824059,0.65118265,-2.7236888,-12.747068,42.013683,62.60478,-0.8613673,0.16034308,-5.394058
29,-0.025109149515628815,-1.0318647623062134,78.6024398803711,-0.2267024928941705,1.1565936511474342,93.55777267817611,1.730612,-0.39831746,0.26740912,9.228022,-11.929268,0.4434915,4.222645,-1.6387042,-12.0705,7.0768003,-12.763908,2.2518547,-1.3638629,-1.0272309,4.1768875,-4.8929863,14.222943,-48.613544,63.492016,4.6266913,1.0024335,0.6783064,-2.7371325,-12.722574,41.796146,62.6265,-0.8070959,0.16648768,-5.3510766
30,-0.026714658364653587,-1.0155653953552246,78.6022720336914,-0.21857660123114614,1.2173820650445362,93.56332943946802,1.7045611,-0.41420922,0.24151284,9.17349,-11.926267,0.4328876,4.173331,-1.647244,-12.069253,7.0748525,-12.803831,2.3149364,-1.3418015,-1.0545491,4.2246737,-4.9451346,14.273605,-48.661465,63.491447,4.5553617,1.0277181,0.7138921,-2.7486537,-12.674871,41.479134,62.639996,-0.7930613,0.17453499,-5.2677
31,-0.022106235846877098,-0.9984208941459656,78.5993881225586,-0.2086525469483353,1.2831013100260371,93.56848821301479,1.6773387,-0.4324722,0.21471784,9.111524,-11.9259615,0.41915563,4.1193776,-1.6585361,-12.069127,7.0742207,-12.854117,2.3879628,-1.3321257,-1.080479,4.271541,-4.9931684,14.317809,-48.69317,63.497787,4.495933,1.0479512,0.74489605,-2.776743,-12.625306,41.176964,62.655037,-0.74021894,0.1873763,-5.1669016
32,-0.025667792186141014,-0.9768004417419434,78.59832763671875,-0.19360435424363073,1.3545616697285843,93.5729340554767,1.6500964,-0.45696592,0.19050582,9.041028,-11.929558,0.4094447,4.0621204,-1.6777878,-12.070713,7.072347,-12.916297,2.4694374,-1.3320782,-1.1044253,4.3128533,-5.0359435,14.345739,-48.693245,63.51525,4.4739566,1.0552858,0.7569733,-2.821236,-12.588264,40.940037,62.672386,-0.59268975,0.20634867,-5.068451
33,-0.03016844019293785,-0.949826180934906,78.59827423095703,-0.1711360423713524,1.4308692395444056,93.57513817390284,1.6245409,-0.48976338,0.17069331,8.961824,-11.940407,0.403014,4.0017395,-1.7086916,-12.075236,7.0727,-12.996017,2.5613797,-1.3121161,-1.1378547,4.350056,-5.0768757,14.378029,-48.68356,63.530106,4.5023212,1.0475254,0.73396593,-2.8874068,-12.538538,40.738773,62.722736,-0.33679917,0.23447461,-4.9695134
34,-0.030967749655246735,-0.9315381050109863,78.59874725341797,-0.1433680314462214,1.5119771684246837,93.5757966324477,1.6006137,-0.528822,0.15329608,8.872878,-11.956189,0.39670333,3.9386685,-1.7477419,-12.082001,7.072219,-13.088701,2.6639497,-1.2984394,-1.1758134,4.383464,-5.1066756,14.411792,-48.645016,63.542305,4.5705767,1.0284823,0.6878166,-2.979758,-12.478687,40.580658,62.79845,0.0036122478,0.27125162,-4.8636417
35,-0.033670224249362946,-0.9093077778816223,78.60096740722656,-0.11305600236792616,1.599832332497056,93.57797281565966,1.572946,-0.57121366,0.13558477,8.778501,-11.972913,0.39415556,3.8699708,-1.7893902,-12.088913,7.07184,-13.18926,2.772553,-1.2901444,-1.2161611,4.4127793,-5.1315365,14.44427,-48.60329,63.55549,4.6396008,1.0046197,0.6425421,-3.0885878,-12.41493,40.4543,62.873726,0.3877522,0.3052419,-4.762538
36,-0.03493886813521385,-0.8805520534515381,78.60599517822266,-0.08270327440718561,1.6962562653113766,93.58471936471221,1.534276,-0.6134436,0.114803255,8.687204,-11.9886055,0.39897925,3.7927372,-1.8281801,-12.093822,7.0715094,-13.291556,2.882532,-1.2833526,-1.2573522,4.4376717,-5.157688,14.47516,-48.586285,63.571095,4.6709094,0.9829905,0.62215936,-3.2021224,-12.350153,40.34349,62.92082,0.7729383,0.32469615,-4.6775594
37,-0.03896191716194153,-0.848358690738678,78.61260986328125,-0.05374684706588179,1.799145446746009,93.59820611294299,1.485816,-0.65475166,0.091088906,8.599326,-12.001544,0.4089768,3.709139,-1.8620049,-12.0947895,7.0709934,-13.392441,2.9885755,-1.2760377,-1.3060669,4.4582424,-5.185314,14.514325,-48.617393,63.586174,4.6484895,0.9641892,0.6390869,-3.326277,-12.265823,40.23862,62.957005,1.1724534,0.31906438,-4.6085
38,-0.039288029074668884,-0.8186719417572021,78.61752319335938,-0.02361124433535274,1.9082874113482393,93.61644355034586,1.4305499,-0.69636893,0.06545304,8.510881,-12.01311,0.4234579,3.619776,-1.8938729,-12.093391,7.07049,-13.495962,3.0944674,-1.2695401,-1.356869,4.476277,-5.2142134,14.55322,-48.67522,63.603806,4.596767,0.9443293,0.6787774,-3.4543815,-12.180715,40.149036,62.97096,1.6014432,0.29820865,-4.548705
39,-0.04138680547475815,-0.7851167321205139,78.62457275390625,0.007720282061936619,2.028551633311485,93.63589625547328,1.3634208,-0.74014133,0.037049077,8.423976,-12.026682,0.44835067,3.5199285,-1.9274534,-12.092595,7.0693073,-13.605634,3.2089148,-1.2600898,-1.4088274,4.488535,-5.241135,14.591942,-48.737156,63.61879,4.526784,0.9267815,0.7234437,-3.5918145,-12.094883,40.07753,62.96331,2.0126681,0.27517527,-4.505254
40,-0.044505778700113297,-0.7535675764083862,78.63214111328125,0.03989314156947286,2.1645637490968284,93.65313091792582,1.2815132,-0.787649,0.0048973053,8.33677,-12.043278,0.48937443,3.4042232,-1.9661491,-12.095451,7.0693126,-13.727057,3.3409684,-1.2459468,-1.4598249,4.492128,-5.259883,14.630138,-48.77357,63.62476,4.4549527,0.91480774,0.75534457,-3.744213,-12.008818,40.02981,62.933266,2.3601477,0.26291898,-4.4855614
41,-0.049735091626644135,-0.7200244665145874,78.6380615234375,0.07603196330123818,2.3177612772660856,93.66308301467042,1.1853259,-0.84198684,-0.030140446,8.248766,-12.067668,0.554374,3.2718165,-2.012914,-12.101416,7.0681705,-13.865737,3.5125597,-1.225985,-1.5112164,4.4853764,-5.2673407,14.667854,-48.77003,63.618675,4.380632,0.9169553,0.76400304,-3.91431,-11.922003,40.009384,62.880146,2.6485393,0.26729408,-4.502132
42,-0.05620770528912544,-0.6790255904197693,78.64447021484375,0.11322066245081722,2.4854433206673465,93.66908312257632,1.0764124,-0.9014927,-0.06787298,8.159633,-12.096672,0.6380502,3.1253464,-2.0646884,-12.109669,7.0661016,-14.017165,3.7128284,-1.2029657,-1.5633303,4.470197,-5.265481,14.705533,-48.741146,63.60345,4.2988243,0.9289237,0.76086646,-4.100542,-11.834193,40.01555,62.806133,2.8985412,0.2801579,-4.5477414
43,-0.06256389617919922,-0.6488451361656189,78.65302276611328,0.15101850284597065,2.6662589841293665,93.67992544023676,0.95278764,-0.96198225,-0.1100183,8.070885,-12.123078,0.7266027,2.965815,-2.1165807,-12.122521,7.0655856,-14.169404,3.9014244,-1.1807072,-1.6133759,4.4487395,-5.259766,14.743469,-48.708668,63.583252,4.2109437,0.9346854,0.7605457,-4.2985463,-11.746752,40.0424,62.71271,3.0819411,0.29373515,-4.6001983
44,-0.06766139715909958,-0.6100115776062012,78.6629409790039,0.18340362107643848,2.8588864128510965,93.7044170764696,0.81190735,-1.0183555,-0.15833098,7.984896,-12.1397,0.8061764,2.7957277,-2.1626475,-12.142175,7.065972,-14.309264,4.0376186,-1.1612619,-1.6568329,4.4239793,-5.256336,14.780104,-48.694374,63.56255,4.1199994,0.9180827,0.77781844,-4.500753,-11.664686,40.08404,62.59434,3.1732068,0.30079797,-4.636661
45,-0.07381288707256317,-0.576288640499115,78.67411041259766,0.21005604293904512,3.0700586121977835,93.74378754666846,0.64356,-1.0676261,-0.21266419,7.904602,-12.143705,0.87453526,2.6069164,-2.1989274,-12.165859,7.0675597,-14.430251,4.094686,-1.1453527,-1.6937222,4.3868628,-5.256467,14.818003,-48.711525,63.53185,4.018989,0.87639564,0.82390535,-4.710711,-11.582763,40.148094,62.460846,3.1273787,0.30413362,-4.646235
46,-0.08370766043663025,-0.5287429690361023,78.68277740478516,0.2315436539662959,3.298122334420417,93.79369941225181,0.45173576,-1.1129934,-0.27213937,7.8297877,-12.140324,0.93870604,2.4013393,-2.2291498,-12.193304,7.07039,-14.540996,4.0994334,-1.1272057,-1.722842,4.3410745,-5.2625084,14.8507,-48.750324,63.497036,3.9084766,0.81722164,0.88883644,-4.9205823,-11.5139885,40.23146,62.293686,2.9727926,0.30715597,-4.641107
47,-0.09594334661960602,-0.4799269139766693,78.69207000732422,0.2516720549098648,3.5291483155585537,93.85466584145092,0.25701642,-1.159032,-0.33771086,7.751396,-12.129881,0.9987559,2.196008,-2.2595608,-12.230489,7.0734897,-14.650598,4.0913734,-1.113767,-1.7499133,4.30124,-5.2632847,14.88774,-48.78679,63.46854,3.801777,0.74148893,0.9540966,-5.1423793,-11.440543,40.321796,62.111416,2.7860518,0.29970145,-4.6387544
48,-0.10750902444124222,-0.42205509543418884,78.70024108886719,0.2749118049486332,3.7493765732578925,93.92751274041312,0.077332444,-1.2093292,-0.4104567,7.6670737,-12.116569,1.0549248,2.0084128,-2.295894,-12.28348,7.0764275,-14.769004,4.110099,-1.1039001,-1.7738868,4.285888,-5.25853,14.924961,-48.803223,63.467304,3.7124689,0.64906657,1.0019678,-5.366188,-11.376263,40.39807,61.896004,2.6433015,0.27408603,-4.6532626
49,-0.1198989599943161,-0.36187979578971863,78.70515441894531,0.30118003593878284,3.951344912292257,94.02030617523573,-0.08083151,-1.2657232,-0.4959211,7.5728507,-12.095989,1.1025172,1.8480387,-2.3418207,-12.362857,7.0778294,-14.898789,4.172025,-1.0959718,-1.7902436,4.3079457,-5.2618437,14.948527,-48.81127,63.52745,3.6381624,0.51462185,1.0428498,-5.5790534,-11.343459,40.459435,61.618732,2.575023,0.22165428,-4.6956367
50,-0.13538655638694763,-0.3251335620880127,78.71149444580078,0.33000116946192154,4.143671155784099,94.13002786555862,-0.22751266,-1.3258345,-0.5917867,7.471664,-12.068219,1.1431283,1.7034605,-2.394177,-12.462352,7.079235,-15.034675,4.2542095,-1.1066041,-1.8076642,4.3518505,-5.247621,14.988813,-48.798573,63.603584,3.5756319,0.34820884,1.0794854,-5.813174,-11.300324,40.53084,61.33278,2.5364385,0.14662951,-4.7594223
51,-0.1544295996427536,-0.27014994621276855,78.7128677368164,0.3584106147666928,4.336633392842539,94.24066071283599,-0.37201038,-1.3857644,-0.68801844,7.3722353,-12.0430355,1.1862084,1.5623382,-2.446383,-12.56332,7.080945,-15.173505,4.3373327,-1.1090678,-1.8196152,4.4053392,-5.228149,15.02905,-48.767673,63.67656,3.5287838,0.19789009,1.088211,-6.0417457,-11.269923,40.58171,61.009453,2.497871,0.06874347,-4.819674
52,-0.16697829961776733,-0.19916170835494995,78.71129608154297,0.38315591563648693,4.540596670242754,94.33631859843605,-0.5204319,-1.4426464,-0.77459574,7.276871,-12.02693,1.2418488,1.4128953,-2.492614,-12.647012,7.08273,-15.312412,4.401964,-1.0906415,-1.8241991,4.452076,-5.2031927,15.063184,-48.708267,63.718018,3.501783,0.1124174,1.0447583,-6.2564654,-11.25342,40.596695,60.649097,2.4303517,0.0060085687,-4.855005
53,-0.18130023777484894,-0.12522339820861816,78.70771026611328,0.40388094466657015,4.759232296220439,94.40895257827198,-0.67755955,-1.49523,-0.84554416,7.1928844,-12.025986,1.3149015,1.2506111,-2.532046,-12.705964,7.086059,-15.452577,4.4407444,-1.0510871,-1.8238353,4.4851685,-5.1629844,15.100878,-48.59941,63.69931,3.5006487,0.12570286,0.9159962,-6.4615183,-11.245162,40.57654,60.257812,2.313958,-0.037602406,-4.8484325
54,-0.2057553231716156,-0.04632521793246269,78.70298767089844,0.424733125495158,4.986749176041872,94.4681782111878,-0.8390911,-1.5470738,-0.9073398,7.1164484,-12.035455,1.4009324,1.0825013,-2.5699143,-12.750429,7.089354,-15.594163,4.4649057,-0.9899205,-1.8200842,4.5116167,-5.1208005,15.129346,-48.463257,63.659443,3.5177088,0.20411965,0.7253931,-6.6548758,-11.246622,40.522224,59.83344,2.166957,-0.07162312,-4.8156314
55,-0.23204824328422546,0.04072146117687225,78.69857788085938,0.4459518860393734,5.219071959537862,94.52462314034379,-1.0268744,-1.5996933,-0.9682788,7.0957913,-12.077962,1.4915112,0.9120242,-2.6073198,-12.7887,7.0927467,-15.735233,4.4824257,-0.9330872,-1.8132969,4.5475883,-5.0520644,15.180108,-48.291786,63.575806,3.5575736,0.29882607,0.5250141,-6.851816,-11.261094,40.459087,59.376762,2.0274951,-0.09823684,-4.783266
56,-0.25464898347854614,0.12532351911067963,78.69401550292969,0.46659344332762964,5.452095119367508,94.58890804479658,-1.2232653,-1.6521131,-1.0380907,7.096035,-12.132709,1.5777111,0.74277735,-2.6428816,-12.829549,7.0968165,-15.874149,4.501346,-0.8664356,-1.8007727,4.5933943,-4.9871964,15.21964,-48.14618,63.51888,3.5992427,0.35803,0.37639847,-7.047329,-11.28015,40.374992,58.901062,1.9282022,-0.120908625,-4.7813563
57,-0.2720271348953247,0.22220811247825623,78.68714904785156,0.4833217359149077,5.684843881014403,94.66603501435965,-1.4197929,-1.703188,-1.1237816,7.095685,-12.186384,1.660746,0.5742044,-2.6739004,-12.876045,7.1001854,-16.005363,4.5217886,-0.80361265,-1.7784264,4.660876,-4.9140034,15.275287,-48.020107,63.46836,3.659446,0.35976964,0.28052035,-7.246509,-11.31625,40.285004,58.38875,1.9020511,-0.131927,-4.825911
58,-0.30005940794944763,0.3162428140640259,78.68101501464844,0.49688605846815886,5.919521770738856,94.74964498847261,-1.6165835,-1.7532333,-1.2190956,7.095987,-12.24172,1.7439142,0.40483558,-2.7010398,-12.923549,7.1038055,-16.13186,4.5402627,-0.7336348,-1.7490737,4.7335033,-4.8510976,15.311267,-47.913208,63.459045,3.7337868,0.33224082,0.21479937,-7.4551153,-11.34704,40.17881,57.87159,1.9213883,-0.13420881,-4.9013886
59,-0.32725220918655396,0.4122270345687866,78.67343139648438,0.5101268445926401,6.156477217575231,94.83329493439882,-1.8108728,-1.8021679,-1.3131084,7.096214,-12.300238,1.8222412,0.23728092,-2.7267268,-12.96936,7.107144,-16.261204,4.55966,-0.6582075,-1.7153267,4.8187146,-4.763279,15.363401,-47.792133,63.409794,3.804371,0.30720928,0.1846977,-7.6501565,-11.39898,40.049335,57.31118,1.9365504,-0.13936122,-4.976916
60,-0.3542918264865875,0.5163477659225464,78.66214752197266,0.5250317107392051,6.396151196548171,94.91057892107524,-1.9989568,-1.8489065,-1.3949244,7.0956345,-12.363995,1.890761,0.07418909,-2.7529643,-13.010791,7.110782,-16.402054,4.5825677,-0.57648873,-1.6821165,4.9032226,-4.644693,15.412045,-47.639328,63.320305,3.8470623,0.31350997,0.20237839,-7.840373,-11.45105,39.899265,56.745537,1.9044161,-0.16310893,-5.0292215
61,-0.3838546872138977,0.6434677243232727,78.6495590209961,0.5418390861277785,6.632893692936198,94.98068146548671,-2.1740997,-1.8944734,-1.4613876,7.095776,-12.435853,1.948858,-0.0765984,-2.7819407,-13.04801,7.115189,-16.55869,4.6073036,-0.48807228,-1.6522295,4.995595,-4.486839,15.466689,-47.458214,63.175873,3.8585076,0.36986575,0.297558,-8.018123,-11.508973,39.71886,56.16336,1.7925594,-0.21134287,-5.0411286
62,-0.41301286220550537,0.7693066000938416,78.63639831542969,0.5580843808993329,6.868347863322443,95.04675248079471,-2.339182,-1.937116,-1.5187135,7.094919,-12.513146,1.9985696,-0.21845451,-2.8101513,-13.082507,7.1189876,-16.725214,4.633041,-0.39398947,-1.6216589,5.095398,-4.2986574,15.525919,-47.25729,62.992836,3.8487525,0.45696443,0.45603564,-8.190497,-11.569249,39.513245,55.568153,1.6333034,-0.2761292,-5.0304995
63,-0.4370272755622864,0.8960868120193481,78.62136840820312,0.5740470205900841,7.113890984743853,95.10808376285306,-2.5087733,-1.9779516,-1.5687314,7.0932894,-12.591599,2.0393376,-0.3675103,-2.8385212,-13.11223,7.123778,-16.897337,4.664088,-0.29548228,-1.5894278,5.1779594,-4.09493,15.562077,-47.02436,62.80261,3.8154395,0.5465924,0.62305593,-8.372861,-11.605171,39.298378,54.998386,1.4686965,-0.35085467,-5.0255976
64,-0.4626220166683197,1.0314432382583618,78.60404968261719,0.5894066119016291,7.380591775583547,95.16402644893512,-2.697582,-2.0169086,-1.6135786,7.092186,-12.667464,2.0705907,-0.5371377,-2.8662286,-13.135537,7.127656,-17.069342,4.704607,-0.20557877,-1.5496639,5.2633204,-3.8343809,15.650331,-46.694977,62.48515,3.7816527,0.6158387,0.7275594,-8.541225,-11.681383,39.081184,54.364136,1.3363245,-0.4218373,-5.036085
65,-0.4910545349121094,1.1966679096221924,78.5831069946289,0.6013685023572667,7.688097267861086,95.20780745776908,-2.9268978,-2.0519094,-1.6473526,7.088381,-12.738941,2.0912895,-0.752199,-2.8917377,-13.144825,7.1288047,-17.233545,4.7620587,-0.118612766,-1.5021518,5.3093843,-3.5390923,15.748923,-46.291153,62.105896,3.7361465,0.6537739,0.7656427,-8.720299,-11.756059,38.881977,53.740025,1.2691475,-0.50614035,-5.075389
66,-0.537491500377655,1.3026022911071777,78.56617736816406,0.6129505521630435,8.02454823874446,95.24208388832602,-3.1829495,-2.0849967,-1.6705941,7.083837,-12.809169,2.1020355,-0.99899304,-2.9173214,-13.143073,7.1309223,-17.39639,4.831902,-0.03671555,-1.4500391,5.332306,-3.2049253,15.859782,-45.813847,61.661648,3.68309,0.67545664,0.7656336,-8.908133,-11.829157,38.68897,53.1182,1.235367,-0.60272175,-5.130062
67,-0.5750167965888977,1.4563541412353516,78.54568481445312,0.622956063801134,8.353632384504227,95.2795409991257,-3.43257,-2.1163776,-1.6964142,7.094616,-12.885418,2.1048617,-1.230195,-2.9409623,-13.145752,7.133656,-17.569534,4.899996,0.03918752,-1.3937674,5.365541,-2.8287795,15.984489,-45.277805,61.142513,3.6053925,0.69030565,0.7334636,-9.092501,-11.900345,38.48958,52.471767,1.2007741,-0.6810882,-5.2037845
68,-0.6034326553344727,1.630155324935913,78.5211410522461,0.6288082813715414,8.6400276306391,95.33309384049777,-3.638459,-2.1456084,-1.7382123,7.1259665,-12.968576,2.1020393,-1.3988016,-2.9599082,-13.168697,7.1370826,-17.765566,4.952426,0.10854679,-1.3336515,5.4420342,-2.4085288,16.124407,-44.697433,60.540203,3.486636,0.70786685,0.67521566,-9.261848,-11.97003,38.271328,51.77613,1.1315418,-0.7106426,-5.3003592
69,-0.628494381904602,1.823553204536438,78.49211120605469,0.6335603243847637,8.870595234013045,95.41113521511109,-3.777132,-2.1737754,-1.804395,7.158829,-13.055405,2.0876763,-1.4884675,-2.9780056,-13.220255,7.1429977,-17.993998,4.9837403,0.17018797,-1.2745292,5.5762672,-1.9413496,16.281181,-44.058098,59.843983,3.348878,0.74712485,0.57581323,-9.417453,-12.038456,38.034092,51.02272,1.0080914,-0.67437774,-5.444797
70,-0.6664943695068359,2.012880563735962,78.46133422851562,0.6395933109334732,9.06605983779731,95.50513456138424,-3.8724153,-2.2006683,-1.8861996,7.1938663,-13.142663,2.0629334,-1.5250719,-2.9956973,-13.290499,7.1506414,-18.247026,5.002321,0.22418569,-1.2151442,5.748922,-1.4278096,16.455853,-43.355324,59.05665,3.1923568,0.7984489,0.43743488,-9.56479,-12.105997,37.78375,50.225014,0.8522167,-0.591034,-5.626854
71,-0.69158536195755,2.198427677154541,78.42887878417969,0.644551930937049,9.242912865456598,95.60329487197956,-3.9435875,-2.2282312,-1.9715272,7.2337503,-13.221696,2.0405896,-1.5327502,-3.0134993,-13.367271,7.1594324,-18.507298,5.0159707,0.2721085,-1.1525042,5.9410458,-0.8732282,16.647858,-42.62138,58.192047,2.965887,0.8279475,0.29196185,-9.695168,-12.173139,37.5131,49.386463,0.68976,-0.48367956,-5.7972755
72,-0.742755651473999,2.358405351638794,78.3983154296875,0.6491884703366918,9.417407218573558,95.69374319839757,-4.0095735,-2.2588155,-2.0482645,7.2802353,-13.277189,2.0335577,-1.5328376,-3.031438,-13.438478,7.167544,-18.758795,5.032164,0.31783295,-1.0842876,6.1333947,-0.28408402,16.854961,-41.892353,57.266296,2.617413,0.8019389,0.17114463,-9.797941,-12.240988,37.211193,48.50938,0.5439865,-0.3757338,-5.906809
73,-0.7720301747322083,2.559347152709961,78.36034393310547,0.654132200471138,9.587953071023744,95.77707911756315,-4.268675,-2.2988536,-2.1108778,7.755826,-13.526163,2.0360832,-1.5245035,-3.0484765,-13.503111,7.1753626,-19.000317,5.0508437,0.35777533,-1.0055827,6.331304,0.35122687,17.075935,-41.16315,56.264538,2.1326704,0.70195115,0.09015254,-9.866673,-12.310183,36.838554,47.567616,0.39822546,-0.24896196,-5.901174
74,-0.8093939423561096,2.766395092010498,78.32150268554688,0.6576133645487262,9.748055254756729,95.85836625978664,-4.6066804,-2.3436506,-2.1681795,8.43345,-13.85708,2.045325,-1.4991479,-3.0658188,-13.566789,7.184139,-19.239304,5.0690036,0.39390925,-0.9197306,6.5416083,1.0303612,17.310112,-40.421574,55.185867,1.538391,0.54927003,0.02857935,-9.908117,-12.381913,36.409977,46.566692,0.2478383,-0.099290736,-5.8199935
75,-0.8598403930664062,2.982785224914551,78.28070068359375,0.6616515263523338,9.9068100098664,95.93293066981191,-4.97694,-2.3917975,-2.2143493,9.196749,-14.216358,2.0781791,-1.4658079,-3.0849829,-13.628208,7.192625,-19.47341,5.0892406,0.43730232,-0.8343588,6.7477736,1.7241856,17.554996,-39.69281,54.070995,0.8441486,0.37000948,-0.034914445,-9.927741,-12.457792,35.995018,45.55328,0.13227518,0.029494142,-5.7552233
76,-0.912921667098999,3.2119016647338867,78.23926544189453,0.6660447420268831,10.073213456134166,95.9960500692775,-5.3794637,-2.4438727,-2.2413578,10.028805,-14.603193,2.1507852,-1.435588,-3.1078749,-13.685774,7.201156,-19.699657,5.113839,0.49976552,-0.756492,6.933258,2.4029408,17.805891,-39.001953,52.963165,0.060772367,0.19023666,-0.121095575,-9.930912,-12.539307,35.665703,44.574203,0.09503331,0.0935361,-5.7992363
77,-0.9546951651573181,3.4379124641418457,78.19416809082031,0.6690333692634696,10.255941894762705,96.04128309832753,-5.825279,-2.4968321,-2.2383811,10.928447,-15.020882,2.2571745,-1.4195596,-3.1328564,-13.736163,7.209203,-19.920465,5.1436925,0.5893567,-0.6817449,7.0871587,3.0636892,18.05958,-38.350243,51.867817,-0.8669672,0.006169274,-0.24300544,-9.927999,-12.62939,35.46509,43.63546,0.11921655,0.09307607,-6.0044045
78,-1.0081111192703247,3.6731255054473877,78.14398193359375,0.6680683852745101,10.448058279905851,96.07291831886691,-6.30989,-2.5506105,-2.2131672,11.902054,-15.467803,2.3914285,-1.4101905,-3.158314,-13.781655,7.2167544,-20.135239,5.1770024,0.6968545,-0.60543036,7.220312,3.7200696,18.314198,-37.72381,50.76809,-1.9237438,-0.19150291,-0.3882966,-9.910446,-12.728353,35.34908,42.7115,0.19155926,0.04736099,-6.312585
79,-1.0672235488891602,3.9374709129333496,78.09062194824219,0.6684570899882117,10.635437508482285,96.10229119039441,-6.81269,-2.609529,-2.1848023,12.9504795,-15.938401,2.5690806,-1.3859828,-3.1847568,-13.82833,7.2251368,-20.34177,5.211091,0.80996406,-0.5342898,7.346339,4.360952,18.566849,-37.132767,49.68082,-2.9977765,-0.38549113,-0.537366,-9.859447,-12.833685,35.25879,41.80909,0.36297312,-0.059871193,-6.6498985
80,-1.1177695989608765,4.199360370635986,78.03260040283203,0.6738541344579558,10.804080196259667,96.14082351827871,-7.3073125,-2.676787,-2.1735282,14.062127,-16.423512,2.8057988,-1.3260703,-3.212101,-13.883582,7.2328744,-20.534025,5.24446,0.91781044,-0.47437555,7.4782424,4.972892,18.813354,-36.589146,48.625824,-3.9772544,-0.55996895,-0.66905344,-9.756824,-12.941081,35.132965,40.936584,0.68297577,-0.2451357,-6.9421277
81,-1.1645008325576782,4.4833292961120605,77.97062683105469,0.6770616960518384,10.947333994007884,96.19168225881614,-7.793393,-2.7505534,-2.195724,15.261885,-16.940523,3.1393905,-1.2201902,-3.2368655,-13.946798,7.2411356,-20.724598,5.2872066,1.0230428,-0.4179259,7.6139154,5.559683,19.05257,-36.11711,47.60822,-4.8808765,-0.7229485,-0.78438973,-9.600178,-13.049816,34.985138,40.069115,1.1621721,-0.50474906,-7.2171516
82,-1.2240123748779297,4.777700901031494,77.90217590332031,0.6758712364250234,11.073453215012023,96.2484927837522,-8.2781,-2.827056,-2.238804,16.537127,-17.482704,3.549156,-1.0805572,-3.257059,-14.015218,7.250592,-20.912243,5.3361306,1.1323705,-0.360956,7.74718,6.120973,19.283937,-35.70747,46.624866,-5.752431,-0.87989414,-0.8910147,-9.398103,-13.160675,34.834347,39.213646,1.7730706,-0.8344338,-7.496176
83,-1.2778466939926147,5.085270404815674,77.8291015625,0.6783583912526817,11.190206692393959,96.30815333389572,-8.751621,-2.9071608,-2.2784567,17.832727,-18.007233,3.9635,-0.9194429,-3.277716,-14.091298,7.258428,-21.070791,5.368397,1.2410978,-0.31567386,7.885244,6.6355767,19.502707,-35.32418,45.685658,-6.517471,-1.0126233,-0.97581327,-9.150847,-13.2693405,34.627235,38.42969,2.5100055,-1.2488472,-7.6943016
84,-1.3333073854446411,5.4180073738098145,77.7641372680664,0.6906670503589681,11.305585149662916,96.36809339152427,-9.2087345,-2.991035,-2.2901022,19.102406,-18.475378,4.3114276,-0.7529374,-3.3056095,-14.17682,7.2662034,-21.176134,5.359861,1.3455511,-0.29533115,8.033731,7.0789075,19.701088,-34.933407,44.80602,-7.101693,-1.1036395,-1.0245453,-8.861419,-13.36804,34.310757,37.783363,3.3694086,-1.7604618,-7.7259107
85,-1.394910454750061,5.738274574279785,77.70286560058594,0.7152739789298133,11.437889805038669,96.432605369051,-9.673863,-3.078213,-2.2650905,20.35048,-18.870152,4.5855722,-0.59843105,-3.3538566,-14.283126,7.2720003,-21.242931,5.325285,1.4463326,-0.30580312,8.169722,7.463536,19.871004,-34.51723,43.985126,-7.437597,-1.1401592,-1.0099783,-8.526897,-13.449841,33.854088,37.30409,4.3953495,-2.4197104,-7.498778
86,-1.4492496252059937,6.075843811035156,77.64106750488281,0.7449824816402598,11.577277304337585,96.50215716638073,-10.139391,-3.1628828,-2.2192414,21.592833,-19.212572,4.820332,-0.44578287,-3.4149704,-14.405114,7.2801027,-21.281574,5.266084,1.5444864,-0.33422047,8.29504,7.7886376,20.009676,-34.099785,43.230618,-7.5797772,-1.1362425,-0.9452933,-8.152505,-13.510878,33.292774,36.965725,5.5801897,-3.1965368,-7.0728827
87,-1.502238154411316,6.4227118492126465,77.58631134033203,0.76593059412328,11.688897795853698,96.5690766829737,-10.553076,-3.2327247,-2.1674218,22.804468,-19.525368,5.006776,-0.26207414,-3.460889,-14.519077,7.2867837,-21.255781,5.133853,1.636033,-0.36110786,8.453376,8.010452,20.118345,-33.709854,42.570454,-7.6361895,-1.114931,-0.8775583,-7.7520456,-13.546147,32.67288,36.748207,6.840133,-3.9845004,-6.5945973
88,-1.538230299949646,6.769742965698242,77.51235961914062,0.768762558243852,11.727731756286445,96.63577529470093,-10.917884,-3.2758772,-2.1322494,24.099548,-19.904444,5.128896,-0.040951848,-3.4699478,-14.610433,7.383074,-21.186771,4.876086,1.685445,-0.358819,8.688964,8.082369,20.16453,-33.36143,42.06267,-7.7088327,-1.1021187,-0.8499854,-7.362016,-13.54828,32.074234,36.663624,8.092575,-4.686803,-6.2256317
89,-1.5866104364395142,7.13191032409668,77.43528747558594,0.7354561033320758,11.697840657643221,96.6976875462125,-11.201241,-3.2734697,-2.1183562,25.404999,-20.324879,5.1699824,0.22250353,-3.4106252,-14.660946,7.54347,-21.089018,4.4073696,1.7448549,-0.32580042,9.019422,8.00968,20.21706,-33.099995,41.68352,-7.8602614,-1.1300063,-0.8797736,-6.928794,-13.521611,31.390312,36.657932,9.3885355,-5.295851,-5.937547
90,-1.6263222694396973,7.479730129241943,77.34481811523438,0.6925119517611295,11.620855824078168,96.75009471501164,-11.410815,-3.2533052,-2.10431,26.683973,-20.746836,5.1451654,0.5070773,-3.3280025,-14.670433,7.7589364,-20.965042,3.77593,1.7913963,-0.28839818,9.403674,7.8240786,20.251135,-32.890064,41.427914,-8.026114,-1.1784289,-0.937395,-6.483546,-13.451296,30.671284,36.78328,10.760541,-5.860879,-5.683634
91,-1.657001256942749,7.809919834136963,77.24079132080078,0.6711944962617664,11.487029701632391,96.78548337938014,-11.542676,-3.2528574,-2.0751595,27.946447,-21.16275,5.0892835,0.029440282,-3.4949224,-14.603295,9.760687,-21.653595,3.1393876,1.8347484,-0.27929184,9.856021,7.4973755,20.263704,-32.71337,41.2394,-8.130684,-1.1774261,-1.0209472,-6.0587873,-13.340455,29.969519,37.030308,12.016605,-6.369829,-5.532156
92,-1.6960524320602417,8.165246963500977,77.1131362915039,0.7105159495084769,11.285012297439133,96.79841587609117,-11.596769,-3.314137,-2.0157921,29.211771,-21.563726,5.0374975,-1.191932,-3.9690833,-14.470572,13.539633,-23.078594,2.6529043,1.8749512,-0.3301482,10.394816,7.011958,20.25555,-32.545166,41.047707,-8.100381,-1.0575368,-1.1285137,-5.6766787,-13.218337,29.353874,37.368347,12.973545,-6.8136015,-5.559109
93,-1.7380009889602661,8.517723083496094,76.96857452392578,0.8329364097112736,10.980421976724617,96.77922582553052,-11.511568,-3.468526,-1.9172776,30.439829,-21.945534,5.002382,-2.3554568,-4.575451,-14.343886,17.467756,-24.380577,2.393327,1.9354454,-0.46650183,11.065747,6.3449793,20.228916,-32.374542,40.85601,-7.9793887,-0.74687845,-1.3251963,-5.323973,-13.096603,28.80373,37.77971,13.536014,-7.1534734,-5.8178797
94,-1.773795247077942,8.84850788116455,76.81204986572266,1.0354391983347002,10.588227044247446,96.73406873375096,-11.303648,-3.711229,-1.7817774,31.627838,-22.307787,4.9675765,-3.5101502,-5.3073783,-14.199017,21.610947,-25.625128,2.2708483,2.0107408,-0.6827324,11.850886,5.5147963,20.186022,-32.212864,40.68692,-7.783488,-0.30112448,-1.5925512,-4.9813867,-12.978131,28.296423,38.260384,13.817793,-7.4091573,-6.2640724
95,-1.8178621530532837,9.180787086486816,76.6430892944336,1.288502931781993,10.170028371843978,96.6849594229129,-11.083191,-4.0072684,-1.6223271,32.842415,-22.649872,4.919884,-4.7157574,-6.121043,-13.989938,25.891285,-26.736198,2.1809585,2.0659337,-0.94357306,12.67505,4.5596213,20.131699,-32.082615,40.498898,-7.4017467,0.15807451,-1.8034503,-4.648619,-12.879141,27.879498,38.78815,13.945378,-7.659552,-6.8247304
96,-1.8488930463790894,9.481042861938477,76.44841003417969,1.563217455477824,9.788185828176656,96.65363149924823,-10.963948,-4.3212123,-1.4498487,34.156204,-22.974136,4.8450804,-6.0408263,-6.965312,-13.674427,30.24808,-27.63882,2.0247982,2.0639288,-1.2136766,13.463856,3.5190399,20.072052,-32.005474,40.24562,-6.7258563,0.51060563,-1.832231,-4.3208776,-12.825344,27.6022,39.33186,14.048794,-7.9839945,-7.4253373
97,-1.8917349576950073,9.774773597717285,76.23916625976562,1.8631140826132122,9.44769674585274,96.62858516328664,-10.985387,-4.6579986,-1.2376549,35.622086,-23.274834,4.69697,-7.5356407,-7.840776,-13.23252,34.809288,-28.274738,1.8074992,2.008382,-1.497769,14.227418,2.3880394,20.022255,-32.00598,39.920155,-5.6011915,0.72518545,-1.6322391,-4.0114307,-12.840445,27.521132,39.88575,14.117669,-8.419651,-8.144578
98,-1.9382050037384033,10.077723503112793,76.0108413696289,2.1855940749567164,9.118641268813256,96.60556477904741,-11.091525,-5.020886,-0.9923491,37.206676,-23.561943,4.491125,-9.139023,-8.727967,-12.707878,39.54671,-28.683163,1.5951519,1.9279644,-1.784677,14.998085,1.1239295,19.951353,-32.084602,39.568832,-4.1291447,0.87192297,-1.2741729,-3.6849415,-12.942202,27.577242,40.42561,14.098755,-8.914322,-8.987366
99,-1.9872488975524902,10.3767728805542,75.7720947265625,2.497121393969952,8.811663157986061,96.61692958632231,-11.252235,-5.373589,-0.77049965,38.849724,-23.859722,4.3050137,-10.768954,-9.555105,-12.156164,44.1971,-28.95039,1.3815914,1.7780606,-2.0452874,15.743178,-0.19501282,19.876396,-32.166218,39.106544,-2.5898354,0.98927623,-0.8170537,-3.3078759,-13.12022,27.696522,40.918755,14.0660715,-9.419182,-9.772817
100,-2.025649070739746,10.669076919555664,75.5263900756836,2.7638402485858684,8.537285958301881,96.69507117747095,-11.433765,-5.6788235,-0.6306306,40.4866,-24.188612,4.2164,-12.359193,-10.263245,-11.627108,48.52539,-29.17714,1.146654,1.5294439,-2.247235,16.424923,-1.5169615,19.800478,-32.200676,38.480045,-1.2648494,1.1083329,-0.31650096,-2.8376665,-13.357455,27.784044,41.33467,14.092419,-9.886952,-10.316081
101,-2.047075033187866,10.979585647583008,75.25922393798828,2.962739101747099,8.287354499321133,96.86192556956216,-11.668833,-5.915269,-0.5928891,42.200535,-24.539421,4.273506,-13.92411,-10.809293,-11.086698,52.585102,-29.383987,0.82075197,1.1535232,-2.3753188,17.050608,-2.8547912,19.730007,-32.195766,37.69962,-0.26703772,1.2254026,0.2676909,-2.296667,-13.644599,27.85065,41.73637,14.300688,-10.358904,-10.495435
102,-2.076183557510376,11.295388221740723,74.99134063720703,3.1112653531227115,8.059750001560582,97.09608256698063,-11.956324,-6.105471,-0.62384087,43.988003,-24.900959,4.4184766,-15.501486,-11.225948,-10.537236,56.50235,-29.528606,0.44761565,0.67224854,-2.4503505,17.630896,-4.224811,19.667265,-32.17565,36.783024,0.564309,1.3296517,0.94863,-1.7018385,-13.980221,27.930883,42.128746,14.6196575,-10.84285,-10.430713
103,-2.108081102371216,11.63292121887207,74.71720123291016,3.2293258963739246,7.873700401009658,97.36433713673176,-12.210393,-6.276871,-0.70583653,45.64782,-25.288593,4.5768013,-17.06873,-11.587659,-10.066707,60.160282,-29.634865,0.15098025,0.12955016,-2.4954245,18.130514,-5.581747,19.609472,-32.114605,35.69336,1.3593588,1.4349692,1.6292512,-1.0077754,-14.356436,27.968142,42.403618,14.830657,-11.2431965,-10.301991
104,-2.1203339099884033,11.991240501403809,74.43761444091797,3.339530084178463,7.748117791297971,97.63370515063514,-12.352219,-6.4519534,-0.82425094,46.99126,-25.726578,4.6815667,-18.608513,-11.984474,-9.751031,63.44865,-29.734446,0.04051054,-0.42892078,-2.5326247,18.513195,-6.8836327,19.551962,-31.987932,34.39895,2.2489243,1.5551174,2.2126153,-0.16944806,-14.761911,27.904263,42.456482,14.70944,-11.466402,-10.293507
105,-2.1491506099700928,12.374839782714844,74.16533660888672,3.4504089844794814,7.702222121469479,97.92551452988732,-12.402647,-6.6379743,-1.0083437,48.0088,-26.2504,4.7189517,-20.1421,-12.467143,-9.611131,66.36545,-29.85219,0.21662003,-1.013063,-2.5613744,18.754068,-8.134789,19.491152,-31.785145,32.87023,3.3196363,1.7225829,2.6826272,0.8273384,-15.187405,27.736626,42.28723,14.099067,-11.422638,-10.445908
106,-2.1689445972442627,12.781005859375,73.8960952758789,3.550194168439033,7.7210322194984755,98.24781098016898,-12.392768,-6.817033,-1.2588222,48.79604,-26.84277,4.7309847,-21.681324,-13.000044,-9.593001,68.989555,-29.984829,0.578085,-1.6385803,-2.5697746,18.87315,-9.357055,19.427603,-31.524136,31.141129,4.485357,1.9195201,3.0873253,1.957962,-15.628157,27.491766,41.953724,13.150539,-11.181114,-10.661932
107,-2.190315008163452,13.223573684692383,73.64246368408203,3.6344704693013457,7.772772571240668,98.54850589091855,-12.263701,-6.9700904,-1.5207746,49.32658,-27.451994,4.739308,-23.195265,-13.5511465,-9.653828,71.32307,-30.120972,0.92295283,-2.2676287,-2.5623863,18.902275,-10.536662,19.364578,-31.22403,29.275063,5.6164927,2.0819328,3.4271965,3.2108364,-16.079216,27.155289,41.43628,12.101154,-10.887746,-10.921477
108,-2.2136147022247314,13.706864356994629,73.41691589355469,3.696965098673486,7.8259285286527565,98.77539290105095,-11.957157,-7.0778546,-1.7396302,49.573437,-28.025877,4.7642665,-24.653273,-14.084823,-9.752312,73.35775,-30.239985,1.0542655,-2.8612905,-2.5453463,18.875402,-11.659442,19.307081,-30.905313,27.33154,6.582886,2.1446474,3.705935,4.5767984,-16.535965,26.710527,40.71125,11.184771,-10.690527,-11.210298
109,-2.2549636363983154,14.224536895751953,73.2215576171875,3.7331337567141283,7.867179251770467,98.91333493812334,-11.43674,-7.1258173,-1.8977914,49.516773,-28.598576,4.8070884,-26.052364,-14.629359,-9.902289,75.09984,-30.346003,0.848029,-3.4061377,-2.5165741,18.797962,-12.705674,19.25607,-30.544537,25.250303,7.4166083,2.0878887,3.8659377,6.0897846,-16.996962,26.13931,39.758488,10.456995,-10.657606,-11.580148
110,-2.2948098182678223,14.77395248413086,73.05652618408203,3.74955930277029,7.915028550248084,98.99089155906547,-10.741988,-7.1242023,-2.027227,49.176743,-29.182497,4.8579535,-27.41138,-15.20009,-10.112714,76.551994,-30.442158,0.4245759,-3.9234693,-2.473883,18.654524,-13.685918,19.213064,-30.14093,23.019999,8.164561,1.9429119,3.9291809,7.7519236,-17.45754,25.457586,38.590153,9.795156,-10.6989155,-12.02144
111,-2.306807041168213,15.376456260681152,72.92276000976562,3.7539401771895182,7.985243881041833,99.0202698820662,-9.922316,-7.091054,-2.147732,48.57401,-29.68731,4.917688,-28.731,-15.737322,-10.340167,77.6906,-30.501854,-0.044791926,-4.426586,-2.4266517,18.447962,-14.630612,19.185856,-29.748924,20.771534,8.719049,1.7225627,4.0194855,9.49721,-17.907743,24.69845,37.239197,9.162579,-10.729563,-12.431473
112,-2.325584650039673,16.01068878173828,72.8310317993164,3.7543505262971415,8.093804723122371,99.01411034391792,-9.029139,-7.044916,-2.27835,47.735153,-30.025784,4.987085,-30.012707,-16.178007,-10.543416,78.49242,-30.49924,-0.38560104,-4.9290285,-2.384875,18.182049,-15.566343,19.185118,-29.423508,18.627024,8.972566,1.4437922,4.258389,11.255553,-18.332521,23.892473,35.73982,8.523023,-10.666683,-12.7068205
113,-2.352071762084961,16.664186477661133,72.78005981445312,3.767449058663025,8.242526018013324,98.97957597792828,-8.057263,-7.0119977,-2.426796,46.641315,-30.208504,5.07254,-31.26765,-16.533817,-10.716543,78.94617,-30.438334,-0.5540088,-5.4436593,-2.3708699,17.84875,-16.490955,19.21613,-29.157413,16.561556,8.809613,1.0847397,4.682526,13.042637,-18.719118,23.00461,34.032913,7.8399143,-10.472775,-12.812334
114,-2.3657922744750977,17.34992027282715,72.77096557617188,3.7829051882855342,8.423349707567539,98.9088245171626,-6.9823933,-6.976591,-2.5793335,45.283005,-30.269306,5.163528,-32.491512,-16.826887,-10.883333,79.062874,-30.329433,-0.6420285,-5.9611545,-2.3757823,17.450624,-17.387775,19.28026,-28.9302,14.518675,8.316746,0.6418419,5.2223144,14.879037,-19.059282,22.037237,32.12992,7.140604,-10.201262,-12.804416
115,-2.370631456375122,18.070606231689453,72.80938720703125,3.7743779089030136,8.637136808500825,98.79104782314609,-5.8305693,-6.8960056,-2.7205665,43.706535,-30.159552,5.237097,-33.66531,-17.00891,-11.049109,78.8613,-30.153248,-0.6774879,-6.462228,-2.367031,17.007555,-18.260702,19.382807,-28.776344,12.576405,7.691432,0.15900917,5.839038,16.686943,-19.349482,21.075048,30.18265,6.481417,-9.90762,-12.717671
116,-2.3818774223327637,18.82183837890625,72.89148712158203,3.7135075598973124,8.884657573650987,98.61528857789841,-4.6284194,-6.7286444,-2.833469,41.95552,-29.828985,5.272524,-34.767334,-17.031038,-11.221602,78.356346,-29.890678,-0.6877093,-6.928687,-2.3133187,16.541065,-19.109385,19.531036,-28.728447,10.808213,7.130232,-0.31630927,6.496273,18.381533,-19.589869,20.203075,28.346006,5.9177327,-9.646665,-12.589027
117,-2.385529041290283,19.61175537109375,73.01900482177734,3.5982965509062783,9.157856437406913,98.38100784430426,-3.339195,-6.4774666,-2.926715,39.96484,-29.279428,5.276083,-35.781544,-16.86947,-11.402815,77.52159,-29.562166,-0.66933316,-7.3590264,-2.2166913,16.057138,-19.958391,19.732855,-28.819086,9.236707,6.622623,-0.7847879,7.239639,19.970354,-19.78492,19.393787,26.60687,5.444468,-9.422541,-12.3877325
118,-2.3797712326049805,20.42302131652832,73.1877212524414,3.443617340922299,9.457842128315688,98.09246091966335,-1.9652362,-6.169763,-2.993931,37.739918,-28.533388,5.246113,-36.715683,-16.55083,-11.595876,76.3555,-29.16843,-0.6087126,-7.7634153,-2.0931048,15.550185,-20.79105,19.988794,-29.022224,7.8051853,6.085437,-1.2700913,8.068908,21.481153,-19.93521,18.618483,24.897545,5.036764,-9.210417,-12.109507
119,-2.360255718231201,21.26864242553711,73.38542938232422,3.2426014364975755,9.798555095971711,97.74404416631404,-0.591469,-5.8026676,-2.999939,35.426804,-27.568403,5.1619067,-37.581776,-16.095436,-11.806677,74.90143,-28.661133,-0.5153535,-8.138481,-1.9344947,15.022472,-21.561083,20.296038,-29.285135,6.484833,5.5975327,-1.7526922,8.88128,22.849524,-20.042252,17.95651,23.306255,4.7151823,-9.022253,-11.833706
120,-2.33095645904541,22.1375675201416,73.62037658691406,2.990096898511522,10.193411421293746,97.33050407490686,0.6910782,-5.3692617,-2.913764,33.181732,-26.367329,5.010833,-38.388092,-15.525253,-12.047453,73.200935,-27.994604,-0.399934,-8.4842205,-1.7338004,14.474724,-22.217527,20.651876,-29.548773,5.246294,5.2398043,-2.2092283,9.574325,24.007278,-20.109911,17.492327,21.920286,4.5006413,-8.865878,-11.641559
121,-2.29103946685791,23.038475036621094,73.88174438476562,2.666031373968721,10.659598627516326,96.81788349860969,1.8952506,-4.846292,-2.725962,30.950624,-24.900831,4.8006406,-39.136707,-14.813108,-12.358607,71.21786,-27.150158,-0.24611571,-8.789734,-1.4778904,13.884018,-22.750744,21.062016,-29.803644,4.110365,5.035693,-2.6524897,10.153519,24.92477,-20.148418,17.27372,20.785929,4.440141,-8.751312,-11.588063
122,-2.2328834533691406,23.964149475097656,74.16900634765625,2.2810070327690237,11.181274764405266,96.21642301029172,3.0457568,-4.2591376,-2.4560995,28.705265,-23.196627,4.5442877,-39.80813,-13.945758,-12.726775,68.93194,-26.148851,-0.045929696,-9.061332,-1.1792085,13.259867,-23.18326,21.532423,-30.071115,3.0762715,4.9380836,-3.084894,10.663089,25.638386,-20.167809,17.248142,19.845821,4.5084143,-8.6693,-11.621268
123,-2.1734859943389893,24.899639129638672,74.4684829711914,1.876248244755727,11.724471534080157,95.58774974253029,4.076738,-3.6656885,-2.1309276,26.626772,-21.316147,4.2510257,-40.385494,-12.966362,-13.071595,66.410385,-25.001287,0.1737368,-9.323885,-0.86781025,12.650446,-23.507895,22.055748,-30.33779,2.0829446,4.926222,-3.4653535,11.060824,26.174494,-20.17042,17.350227,19.045689,4.619437,-8.603962,-11.660466
124,-2.0912833213806152,25.857696533203125,74.7875747680664,1.4920289337333381,12.257677713736166,94.99553476430336,4.924627,-3.1114292,-1.7830138,24.892673,-19.322445,3.9317188,-40.858173,-11.927159,-13.30683,63.724842,-23.72154,0.38248202,-9.600769,-0.5701721,12.101491,-23.728949,22.616796,-30.593882,1.084493,4.9778757,-3.753756,11.303697,26.560068,-20.1537,17.513622,18.334084,4.686328,-8.539061,-11.625009
125,-2.0054471492767334,26.81956672668457,75.10816955566406,1.1099155029615457,12.80680743018184,94.4310832063377,5.5579915,-2.5553567,-1.3771998,23.517418,-17.16598,3.546122,-41.255024,-10.79838,-13.415302,60.83332,-22.201675,0.545791,-9.884123,-0.26145914,11.595269,-23.859213,23.209368,-30.839245,0.098853745,5.1382446,-3.9265842,11.354485,26.78235,-20.114346,17.743513,17.72628,4.66779,-8.464808,-11.496735
126,-1.9215331077575684,27.79605484008789,75.43278503417969,0.7194843884480909,13.376826877239525,93.86940933690684,6.016067,-1.9827131,-0.9323846,22.422215,-14.841778,3.1053,-41.560772,-9.571118,-13.430388,57.70631,-20.469995,0.68590003,-10.162013,0.061126515,11.11423,-23.90559,23.83165,-31.081202,-0.8425482,5.4019957,-4.01012,11.245267,26.837261,-20.053345,18.063982,17.242914,4.614493,-8.391938,-11.317091
127,-1.8268553018569946,28.782161712646484,75.75391387939453,0.37383132223689053,13.908072819069288,93.35404962074189,6.349332,-1.4679812,-0.5578465,21.623466,-12.466016,2.6914248,-41.713078,-8.33925,-13.337424,54.44927,-18.752209,0.8523797,-10.454351,0.34275994,10.703278,-23.865562,24.468357,-31.321217,-1.7620548,5.6751842,-4.03997,11.036504,26.76574,-19.972261,18.437908,16.839521,4.5791087,-8.334858,-11.094826
128,-1.7266287803649902,29.772207260131836,76.05953979492188,0.11766929935962003,14.342905454124288,92.92954251683096,6.5999284,-1.077795,-0.35027394,21.150827,-10.1554,2.383228,-41.64979,-7.193369,-13.127858,51.16184,-17.269457,1.0940071,-10.776145,0.53670824,10.407051,-23.74488,25.09327,-31.566393,-2.6699374,5.86768,-4.051028,10.789656,26.613007,-19.873896,18.821796,16.467659,4.613644,-8.307318,-10.838218
129,-1.620581030845642,30.7791748046875,76.3506088256836,-0.036958679338648395,14.682097351444854,92.61709311966979,6.766186,-0.81817883,-0.30439788,20.98707,-7.846172,2.2052188,-41.35189,-6.1214013,-12.733336,47.752117,-16.107447,1.4360205,-11.141951,0.6433792,10.232007,-23.557764,25.68598,-31.825035,-3.547515,6.036535,-4.0160904,10.4983635,26.383507,-19.755714,19.212158,16.123562,4.7505755,-8.310876,-10.520333
130,-1.5381324291229248,31.785465240478516,76.6243896484375,-0.11608146959751751,14.953247205783034,92.39775037638273,6.8497725,-0.64863974,-0.3780562,21.082308,-5.4828224,2.087357,-40.84076,-5.1038604,-12.181236,44.19004,-15.129892,1.841056,-11.536677,0.6914121,10.151316,-23.321583,26.237223,-32.10257,-4.3626466,6.2110677,-3.930164,10.136542,26.066467,-19.615843,19.620722,15.826572,4.956359,-8.33745,-10.146028
131,-1.46040940284729,32.81107711791992,76.87389373779297,-0.12539020152918856,15.140759324508164,92.25834658777937,6.899383,-0.571171,-0.60524946,21.403496,-3.1802382,1.9754608,-40.13016,-4.215343,-11.613538,40.67049,-14.231938,2.266528,-11.93298,0.6806694,10.159462,-23.052956,26.736265,-32.402428,-5.0994425,6.253062,-3.8593526,9.736526,25.687326,-19.45898,20.027418,15.561016,5.1863184,-8.386238,-9.771653
132,-1.3757250308990479,33.86164855957031,77.09382629394531,-0.07230142023507209,15.22990671697176,92.18099912688436,6.9621654,-0.590656,-1.0151527,21.91727,-1.0583763,1.8314701,-39.254475,-3.517985,-11.1725,37.40864,-13.314096,2.674322,-12.300234,0.61215824,10.249817,-22.762394,27.16987,-32.727104,-5.746085,6.0280223,-3.8674808,9.331506,25.27216,-19.294518,20.411419,15.308027,5.3973327,-8.457045,-9.453078
133,-1.3037099838256836,34.92134475708008,77.27902221679688,0.07731677930514953,15.200300839481276,92.18208546397773,7.0566564,-0.76264846,-1.6593302,22.623253,0.86255807,1.7825205,-38.1685,-3.068469,-10.906602,34.322693,-12.305949,3.2388725,-12.651089,0.45587888,10.433612,-22.46407,27.528595,-33.112453,-6.304602,5.435738,-3.9530358,8.962898,24.833569,-19.127478,20.77117,15.063019,5.5921674,-8.560639,-9.197333
134,-1.232062816619873,35.982452392578125,77.42134094238281,0.3146742976607737,15.066774867083538,92.2627798243873,7.164875,-1.0742704,-2.4947507,23.515858,2.6609542,1.8049717,-36.893185,-2.813951,-10.742751,31.354145,-11.275521,3.9230778,-12.989383,0.22405376,10.7053,-22.156782,27.805902,-33.553024,-6.7647004,4.5746727,-4.0841694,8.600397,24.364079,-18.956394,21.112429,14.828939,5.7921515,-8.693183,-8.976797
135,-1.1673334836959839,37.053890228271484,77.52387237548828,0.5609122388144253,14.871361350490412,92.37392751891655,7.273184,-1.4248608,-3.4143877,24.562017,4.346167,1.6427838,-35.592884,-2.64589,-10.638627,28.804153,-10.359219,4.368336,-13.262528,-0.013835562,11.030234,-21.842936,27.99494,-33.99204,-7.084781,3.5957704,-4.2779493,8.167609,23.857208,-18.785223,21.422897,14.600799,5.980373,-8.833755,-8.795099
136,-1.1124402284622192,38.13569641113281,77.57915496826172,0.7311227932158487,14.66112586588909,92.46220998653729,7.3395944,-1.7114593,-4.321302,25.783615,5.8929725,1.0326318,-34.447845,-2.4560056,-10.552012,27.007542,-9.7136,4.208537,-13.418041,-0.17769882,11.37407,-21.5182,28.088253,-34.366646,-7.2285833,2.6495574,-4.5512013,7.587481,23.305447,-18.621391,21.693195,14.371224,6.142502,-8.961306,-8.656165
137,-1.0563340187072754,39.22590637207031,77.58993530273438,0.8068328585569134,14.44943608372935,92.50665639024999,7.361154,-1.9613308,-5.2785454,27.22081,7.212623,-0.16386153,-33.57683,-2.2166388,-10.448375,26.218008,-9.289482,3.0846658,-13.433339,-0.24044228,11.725517,-21.185488,28.081316,-34.727127,-7.192865,1.6335119,-4.9572554,6.8746176,22.729582,-18.470175,21.900303,14.119201,6.2709465,-9.084157,-8.555673
138,-1.004360318183899,40.29375076293945,77.56217193603516,0.8319609902411602,14.214288130748649,92.52813271783882,7.32249,-2.2259278,-6.30769,28.940298,8.276507,-1.78937,-32.90091,-1.9819225,-10.365165,26.271667,-9.048881,1.2737913,-13.329017,-0.24420628,12.099825,-20.850399,27.969812,-35.09036,-6.986957,0.5109878,-5.4639893,6.0513296,22.129324,-18.331514,22.053898,13.850458,6.3769565,-9.209228,-8.493233
139,-0.9301649332046509,41.36670684814453,77.51024627685547,0.8177603381881733,13.948327981940393,92.53842150970952,7.1535606,-2.4474063,-7.252863,31.02612,9.143719,-3.6657786,-32.286697,-1.7636304,-10.349372,26.850863,-9.16494,-0.63601905,-13.1233425,-0.21665567,12.504333,-20.505182,27.747295,-35.337475,-6.5994697,-0.4676236,-5.963732,5.056375,21.460054,-18.209475,22.197142,13.601513,6.474507,-9.313558,-8.479555
140,-0.8593755960464478,42.449886322021484,77.40228271484375,0.7705049239143789,13.645849526161033,92.54880026642559,6.801731,-2.5667434,-7.958699,33.515965,9.902132,-5.6166744,-31.589638,-1.5665516,-10.419985,27.614725,-9.8288965,-2.058193,-12.842721,-0.18009724,12.947838,-20.133333,27.408823,-35.336433,-6.0272346,-1.0510225,-6.3564806,3.8342566,20.675526,-18.112022,22.38164,13.405234,6.581052,-9.3740635,-8.526674
141,-0.7882564067840576,43.54409408569336,77.24958038330078,0.7212913510079703,13.276765555839075,92.57221560029282,6.3079214,-2.6095505,-8.344078,36.457638,10.720437,-7.827312,-30.725689,-1.4437956,-10.568832,28.591354,-11.3277645,-2.7980294,-12.499463,-0.16344199,13.444693,-19.72188,26.947775,-35.024567,-5.292358,-1.202154,-6.60367,2.0948687,19.79295,-18.041506,22.596127,13.231961,6.798954,-9.382781,-8.57957
142,-0.7074669003486633,44.61250686645508,77.05477905273438,0.6670920521387939,12.85041370033834,92.60076548542439,5.668297,-2.6281662,-8.5007105,39.867096,11.468815,-10.319679,-29.769592,-1.3747591,-10.76307,29.894938,-13.479829,-3.177256,-12.086463,-0.15662503,13.987844,-19.280827,26.362692,-34.474945,-4.3940964,-1.0461926,-6.7790723,-0.038508482,18.827768,-18.000526,22.827045,13.0698,7.0897026,-9.352876,-8.6532135
143,-0.6018553972244263,45.65192413330078,76.8233413696289,0.556505911474112,12.425837899552405,92.6122961232011,4.7819366,-2.5616481,-8.519901,43.680416,11.839424,-12.661508,-28.826063,-1.2493328,-10.985017,31.323526,-15.792919,-3.3869343,-11.601548,-0.102308236,14.554161,-18.822678,25.659609,-33.754253,-3.3027768,-0.5700206,-6.9623322,-1.995045,17.730572,-17.998968,23.122688,12.973303,7.260947,-9.293283,-8.864259
144,-0.47990986704826355,46.663047790527344,76.56309509277344,0.3258035131118384,12.062806253274937,92.58562898656146,3.5714848,-2.3063576,-8.483879,47.78144,11.569974,-14.400179,-28.00085,-0.95419383,-11.220419,32.672977,-17.772284,-3.618167,-11.048401,0.06770753,15.120696,-18.355202,24.852856,-32.92094,-1.9931645,0.23580378,-7.224633,-3.2034414,16.449718,-18.051382,23.535051,12.994725,7.121873,-9.2113905,-9.329288
145,-0.3698374330997467,47.617000579833984,76.27485656738281,-0.09759795052098841,11.792083517895785,92.50179505845396,1.9589261,-1.6520091,-8.245857,52.2801,10.508915,-15.000033,-27.386366,-0.41401806,-11.483215,33.978848,-19.30062,-3.894524,-10.415822,0.42617252,15.689897,-17.853605,23.94709,-31.911278,-0.50463027,1.6452794,-7.54278,-3.5750842,14.960626,-18.1629,24.089571,13.096918,6.530322,-9.040182,-10.115071
146,-0.2452142834663391,48.572811126708984,75.96766662597656,-0.6323526723127973,11.577149296973165,92.3794855773903,0.05094462,-0.7176228,-7.8698726,57.11234,8.88982,-15.000033,-26.9301,0.24103627,-11.75181,35.380978,-20.67084,-4.1163983,-9.71969,0.89722127,16.264656,-17.313643,22.94476,-30.70737,1.1385376,3.5674381,-7.880869,-3.3855686,13.292855,-18.329031,24.760569,13.24995,5.6289673,-8.785551,-11.145893
147,-0.08781105279922485,49.553077697753906,75.65872955322266,-1.2571690723944877,11.385257493311565,92.24858675376365,-1.9960757,0.2920328,-7.659914,61.98313,6.9713745,-15.000033,-26.442644,0.98913395,-12.054597,36.6403,-21.907654,-4.319132,-8.9964075,1.4732852,16.840446,-16.764778,21.863691,-29.434702,2.9777813,5.4696803,-8.265084,-2.6094005,11.475574,-18.548178,25.522518,13.518967,4.651105,-8.565754,-12.325859
148,0.053766265511512756,50.520057678222656,75.35105895996094,-1.833991458006915,11.175104978016934,92.14280007637784,-4.0394106,1.2076331,-7.5763483,66.530876,5.0753193,-15.000033,-25.798208,1.683801,-12.341213,37.65665,-23.098255,-4.5028367,-8.28059,2.0302496,17.40609,-16.227507,20.7325,-28.220657,5.0485272,6.8217235,-8.730693,-1.2224505,9.541084,-18.819448,26.350143,13.969665,3.8213727,-8.509425,-13.564309
149,0.19812911748886108,51.48124694824219,75.05769348144531,-2.3280660945393357,10.924058826254543,92.05496608425719,-6.0745955,2.0017827,-7.6349745,70.75372,3.2011983,-15.000033,-24.99056,2.3020864,-12.603489,38.46261,-24.281536,-4.6732445,-7.581099,2.5200238,18.006317,-15.70308,19.557756,-27.090725,7.5280166,7.5524626,-9.427486,1.3001574,7.4009843,-19.146963,27.325836,14.755919,3.2077205,-8.724139,-14.955074
150,0.3048963248729706,52.445030212402344,74.8024673461914,-2.7716513265390197,10.656081779960527,91.97633230050275,-8.188156,2.8522267,-7.64909,74.796524,1.235573,-14.489494,-24.101526,2.8752298,-12.846645,39.138977,-25.425507,-4.8155456,-6.8796797,2.979628,18.63317,-15.159064,18.345879,-25.974667,10.307653,7.9577813,-10.284376,4.779391,5.0745316,-19.521982,28.438183,15.776008,2.68018,-9.116166,-16.514128
151,0.37406638264656067,53.40122604370117,74.57574462890625,-3.1546885943409864,10.402755140244885,91.93343163108138,-10.370721,3.7285893,-7.6094065,78.55194,-0.69902956,-13.553839,-23.127117,3.3931456,-13.070763,39.622852,-26.491407,-4.9122424,-6.1678777,3.4301395,19.204212,-14.547469,17.138737,-24.855541,12.981869,8.022095,-11.051913,8.168557,2.747827,-19.921495,29.526014,16.734356,2.1619067,-9.522904,-18.030977
152,0.40211379528045654,54.34626388549805,74.37939453125,-3.4452373214973475,10.195029639028105,91.9525713648777,-12.603261,4.521646,-7.5591373,81.89545,-2.4691267,-12.510304,-22.073784,3.8182669,-13.263794,39.879147,-27.45398,-4.9426827,-5.4407887,3.8545902,19.636278,-13.814698,15.99885,-23.72198,15.13836,7.66588,-11.490483,10.416508,0.5900831,-20.324322,30.430246,17.366917,1.5790547,-9.783593,-19.2871
153,0.4541913568973541,55.31843185424805,74.2198486328125,-3.62545349304357,10.048697593917925,92.05731577021226,-14.945503,5.2311563,-7.490728,84.839966,-4.0403075,-11.338719,-20.943901,4.1182995,-13.437136,39.89846,-28.34377,-4.882929,-4.706228,4.216749,19.918243,-12.898833,14.956286,-22.469307,16.669992,6.4926205,-11.450138,11.069041,-1.4647816,-20.734154,31.206,17.767344,0.9004907,-9.884585,-20.292295
154,0.5152492523193359,56.33183670043945,74.09223175048828,-3.7185152382570594,9.944847749176244,92.22598031738852,-17.39292,5.8791375,-7.4212804,87.44035,-5.484365,-9.998325,-19.732124,4.3248644,-13.6019335,39.698395,-29.162252,-4.755011,-3.9820828,4.513029,20.102177,-11.791706,14.02071,-21.125689,17.736898,4.6296,-11.083537,10.749074,-3.5012662,-21.157663,31.937775,18.050636,0.17177199,-9.905844,-21.135489
155,0.5714049935340881,57.34843063354492,74.00662994384766,-3.7497454229654843,9.860348260690017,92.41676393471943,-19.836687,6.4484696,-7.329903,89.631226,-6.8231654,-8.557988,-18.431345,4.485154,-13.740266,39.28735,-29.84256,-4.6016707,-3.2763195,4.7704897,20.196524,-10.525608,13.232491,-19.884983,18.33883,2.7576654,-10.596486,10.024365,-5.3843794,-21.579998,32.504826,18.009853,-0.5654295,-9.832716,-21.709797
156,0.6479383707046509,58.41245651245117,73.96147155761719,-3.7431614085931395,9.772111873615973,92.58800883044238,-22.164223,6.9219995,-7.190887,91.343254,-8.073717,-7.0920196,-17.03528,4.641482,-13.829334,38.677654,-30.318405,-4.4613633,-2.5844643,5.011604,20.210052,-9.127507,12.651105,-18.955381,18.467455,1.542696,-10.236672,9.444637,-6.972846,-21.974195,32.765408,17.43821,-1.2729206,-9.655738,-21.903648
157,0.7033536434173584,59.491943359375,73.95635223388672,-3.711582086774813,9.669646096525366,92.74331411455091,-24.391577,7.292116,-7.008156,92.58584,-9.244959,-5.5527716,-15.51783,4.807247,-13.874959,37.84397,-30.600073,-4.33166,-1.9189951,5.239199,20.13157,-7.5465097,12.339887,-18.419283,18.012554,1.2554005,-10.112791,9.085468,-8.215658,-22.316849,32.5957,16.211351,-2.097045,-9.323743,-21.56282
158,0.7681188583374023,60.584632873535156,74.00369262695312,-3.6362436352563154,9.565220759041317,92.89907131621908,-26.558723,7.5613785,-6.770091,93.38422,-10.32322,-3.9325294,-13.888378,4.950518,-13.882898,36.791454,-30.71458,-4.1921387,-1.2791771,5.414981,19.96959,-5.749588,12.312494,-18.15763,16.969347,1.4838972,-10.078277,8.670276,-9.21365,-22.605055,32.09673,14.483914,-3.0145206,-8.877923,-20.77895
159,0.810388445854187,61.698944091796875,74.09423828125,-3.502498944456874,9.470322621985403,93.03312377512908,-28.586405,7.7362423,-6.4255877,93.69352,-11.290073,-2.3667533,-12.194404,5.0418134,-13.829357,35.5821,-30.621939,-4.0508184,-0.64347446,5.5053334,19.757977,-3.8027914,12.534544,-18.064901,15.510992,1.8677016,-10.032006,8.202958,-10.047995,-22.842606,31.46444,12.4645605,-3.734308,-8.437797,-19.820648
160,0.8414603471755981,62.832035064697266,74.23345947265625,-3.2922375689474834,9.396777487604215,93.12371056592741,-30.391369,7.8293447,-5.9221272,93.466774,-12.127376,-0.99018985,-10.484302,5.0514755,-13.691948,34.278492,-30.283213,-3.916079,0.018713342,5.486352,19.525343,-1.794517,12.941315,-18.043005,13.84166,2.0602126,-9.870876,7.6925106,-10.788144,-23.03954,30.888556,10.359768,-3.9592922,-8.103642,-18.964138
161,0.8582201600074768,64.0029525756836,74.4253921508789,-2.991843561773488,9.342645878402454,93.13754164206833,-31.934715,7.8612537,-5.1747246,92.65884,-12.8645935,0.14927642,-8.747267,4.9724016,-13.42104,32.85618,-29.693672,-3.8119023,0.7370123,5.364121,19.26726,0.23441856,13.502371,-18.115314,11.97135,2.071015,-9.533183,7.1114054,-11.415789,-23.198322,30.372692,8.136579,-3.4889748,-7.883912,-18.275246
162,0.8647294640541077,65.1986083984375,74.6614761352539,-2.614651451406543,9.303594777913455,93.09579127025228,-33.247795,7.823066,-4.2171206,91.29997,-13.504809,1.1158766,-6.9731946,4.810378,-13.048023,31.309002,-28.879137,-3.7226374,1.4857235,5.158337,18.96826,2.307818,14.212405,-18.303337,9.855828,2.072265,-9.087066,6.4629855,-11.909839,-23.317867,29.833366,5.7248173,-2.5193856,-7.7125373,-17.624117
163,0.8764240741729736,66.44332885742188,74.93466186523438,-2.1839479189179714,9.28774921599311,93.05947654073132,-34.35347,7.6827407,-3.1761389,89.45443,-13.989073,1.9446322,-5.2123137,4.5612297,-12.672989,29.728416,-27.84682,-3.6002126,2.2219288,4.8738904,18.638506,4.421666,15.03239,-18.51473,7.6292143,1.9648972,-8.620748,5.809095,-12.304317,-23.405224,29.31425,3.2509654,-1.3491317,-7.5729256,-16.99259
164,0.8716464042663574,67.69922637939453,75.23507690429688,-1.7224668335656996,9.30218858852491,93.08972143827596,-35.2789,7.406038,-2.179507,87.1843,-14.257456,2.6747322,-3.5109704,4.229696,-12.393175,28.199514,-26.599886,-3.3997831,2.8958678,4.5233016,18.28349,6.569459,15.902761,-18.645655,5.436834,1.6564871,-8.222511,5.2119412,-12.6402855,-23.47125,28.870924,0.85053664,-0.27577984,-7.4551167,-16.360254
165,0.8502340912818909,68.98035430908203,75.56849670410156,-1.2259372160933635,9.345686336353294,93.19839870160882,-36.0187,6.962108,-1.2106543,84.47834,-14.283164,3.2998466,-1.8430537,3.811257,-12.217781,26.680569,-25.107634,-3.0984445,3.4898992,4.1170945,17.89222,8.73435,16.790552,-18.698969,3.309971,1.0885057,-7.91704,4.697606,-12.932073,-23.526562,28.529457,-1.4588581,0.7159905,-7.3714046,-15.714396
166,0.8269034624099731,70.28744506835938,75.91895294189453,-0.6866328583152731,9.413712250916957,93.3567354138419,-36.547676,6.36217,-0.21117888,81.300316,-14.101508,3.794456,-0.2041667,3.316975,-12.097956,25.158028,-23.38232,-2.72862,4.027384,3.6639028,17.461336,10.899546,17.689562,-18.710886,1.2140865,0.33760947,-7.6557093,4.230679,-13.151075,-23.576399,28.257896,-3.7443213,1.7542403,-7.320039,-15.068057
167,0.7966437339782715,71.62210083007812,76.28180694580078,-0.13071452666185746,9.507440684221658,93.56490882273316,-36.869568,5.633884,0.7508155,77.670235,-13.743353,4.174711,1.3327819,2.7790864,-12.039234,23.755587,-21.490376,-2.330726,4.5243077,3.1740239,17.00472,13.056355,18.576807,-18.62949,-0.80096036,-0.48648405,-7.418426,3.783161,-13.273944,-23.625568,28.021051,-5.9923224,2.708999,-7.278059,-14.433738
168,0.7500110864639282,72.96350860595703,76.6586685180664,0.413179875976488,9.628370782565547,93.82262552942235,-36.991077,4.8075676,1.6038975,73.5994,-13.237854,4.4595103,2.7055347,2.229158,-12.04587,22.582167,-19.495607,-1.9437742,4.9947042,2.6605709,16.53378,15.192479,19.418295,-18.398891,-2.6771095,-1.269714,-7.187107,3.3260295,-13.280952,-23.676956,27.787828,-8.182663,3.4495938,-7.225725,-13.825469
169,0.7043803334236145,74.3303451538086,77.03430938720703,0.983329642379197,9.802192440812199,94.16530995798291,-36.915646,3.8478193,2.378164,68.98284,-12.540573,4.679081,3.8780694,1.6234713,-12.154547,21.665018,-17.360125,-1.5826832,5.445285,2.095849,16.023474,17.263803,20.192808,-18.024029,-4.333458,-1.9391246,-6.997639,2.8239555,-13.144225,-23.7373,27.530178,-10.313241,3.9168153,-7.154982,-13.255819
170,0.6642595529556274,75.71257781982422,77.39908599853516,1.577246604200461,10.015457351128466,94.58401937528683,-36.61667,2.7323534,3.0875232,63.822006,-11.643273,4.802547,4.8957148,0.97080845,-12.341548,20.955858,-15.077656,-1.2210788,5.8642225,1.4959977,15.475636,19.272303,20.89506,-17.525642,-5.8006315,-2.5602949,-6.847854,2.300605,-12.875985,-23.813604,27.267408,-12.3992405,4.188252,-7.0816784,-12.71079
171,0.6036163568496704,77.11286926269531,77.74895477294922,2.11068828721688,10.21370367773231,95.0052503201621,-36.06146,1.5333909,3.6305084,58.259823,-10.613548,4.7750025,5.831636,0.37868297,-12.517209,20.413258,-12.729549,-0.83398986,6.2462206,0.9361281,14.939257,21.272326,21.51142,-16.87572,-7.1839857,-3.2282374,-6.66379,1.8174409,-12.519287,-23.903404,27.04185,-14.436461,4.338504,-7.025103,-12.167242
172,0.5440755486488342,78.52918243408203,78.07315826416016,2.492124543207188,10.346100686786311,95.35338212908194,-35.240692,0.3574559,3.8893154,52.45092,-9.529817,4.5618253,6.7528787,-0.038783085,-12.595408,20.001741,-10.399626,-0.40015206,6.586126,0.49732882,14.456248,23.319643,22.020582,-16.04854,-8.581751,-4.036401,-6.3712745,1.4377745,-12.130281,-23.997366,26.904398,-16.404926,4.4414845,-7.0020485,-11.603274
173,0.4757896661758423,79.95315551757812,78.36778259277344,2.714333688151826,10.414276006485979,95.61994674900902,-34.085308,-0.7623809,3.7960043,46.11914,-8.32871,4.236937,7.6983423,-0.25540832,-12.546258,19.627562,-8.025546,0.071423694,6.8665056,0.18264434,14.016464,25.459675,22.400116,-15.035163,-9.9759655,-5.106054,-5.9501824,1.2371582,-11.727374,-24.083986,26.895227,-18.273813,4.471888,-7.043798,-11.00275
174,0.42239314317703247,81.40766143798828,78.61084747314453,2.8105603961013985,10.438639365113746,95.83064034016803,-32.584034,-1.8245376,3.3954098,39.197674,-6.958832,3.8195755,8.647817,-0.3119583,-12.403951,19.292288,-5.5643263,0.57992285,7.1012373,-0.030780496,13.59718,27.638569,22.635279,-13.856956,-11.308236,-6.351483,-5.4431887,1.1682847,-11.298168,-24.158875,26.991173,-20.034216,4.401753,-7.134727,-10.379825
175,0.37958836555480957,82.8785629272461,78.8050537109375,2.7458945730795743,10.397920813037798,95.95638341523623,-30.835314,-2.7359126,2.744893,32.16316,-5.510081,3.218346,9.594139,-0.19353846,-12.178346,19.064512,-3.1107306,1.1522521,7.343339,-0.1035685,13.221804,29.75396,22.716148,-12.549974,-12.60689,-7.5561686,-4.8690095,1.1106797,-10.843328,-24.223564,27.140753,-21.700975,4.3026686,-7.2193165,-9.757934
176,0.3646644949913025,84.36782836914062,78.9406967163086,2.483438985934629,10.270457571429978,95.9665491442864,-28.972963,-3.3912423,1.9100666,25.5427,-4.0952125,2.3484774,10.527336,0.119695134,-11.880218,19.018385,-0.76142937,1.809809,7.648257,0.009101475,12.914192,31.703619,22.638336,-11.155885,-13.900927,-8.501788,-4.2423134,0.9384923,-10.35917,-24.284359,27.291292,-23.293165,4.2461085,-7.240048,-9.160003
177,0.34477901458740234,85.86386108398438,79.02508544921875,1.9229281654593833,10.036342101759455,95.8244884751862,-27.01809,-3.6803596,0.72889376,19.322592,-2.7986538,1.1508272,11.545247,0.77045316,-11.453775,18.996685,1.5354834,2.5732853,8.066113,0.39396057,12.66712,33.535343,22.395739,-9.618273,-15.23459,-9.081234,-3.4610987,0.53092325,-9.844077,-24.352978,27.449677,-24.841522,4.292892,-7.184223,-8.546266
178,0.31921708583831787,87.3548355102539,79.06211853027344,1.0475965249419463,9.694042130681776,95.53160768862716,-24.922165,-3.5149646,-0.7658047,13.290842,-1.5848047,-0.27390853,12.668913,1.7742469,-10.879315,18.949862,3.8476174,3.4110897,8.584823,1.0736767,12.470464,35.26169,21.980154,-7.9614015,-16.57547,-9.421495,-2.5521624,-0.019659322,-9.292801,-24.43592,27.635763,-26.338112,4.3937607,-7.0785527,-7.9183507
179,0.2940322458744049,88.83424377441406,79.05918884277344,0.009285723673053605,9.271242934403922,95.14995297424079,-22.653872,-2.9703255,-2.194069,7.472228,-0.24798343,-1.803796,13.698042,2.883081,-10.266226,19.229313,6.0398717,4.27949,9.128496,1.933517,12.332054,36.724197,21.39745,-6.3488173,-17.826464,-9.654279,-1.7225273,-0.5266,-8.705005,-24.529453,27.820305,-27.741879,4.452839,-6.9256997,-7.3611283
180,0.2774716019630432,90.29161071777344,79.03288269042969,-0.9656957714339872,8.82242084019091,94.78026905192623,-22.419527,-2.42262,-3.0874429,6.6041827,-1.0399796,-3.3476453,14.3625145,3.7771537,-9.787168,20.275526,7.92394,5.1550794,9.582046,2.7824705,12.257319,37.763557,20.673748,-4.9412894,-18.880003,-9.917651,-1.1786348,-0.80173516,-8.086253,-24.621769,27.972254,-29.005821,4.3742566,-6.7321787,-6.959397
181,0.24402430653572083,91.72514343261719,78.98963928222656,-1.8833252831932072,8.34173997874214,94.4257164925416,-22.178686,-1.8499726,-3.3892128,6.464629,-1.5966349,-5.327016,14.609209,4.4955664,-9.442679,22.233576,9.562564,6.1336813,9.94316,3.6239834,12.256323,38.383266,19.821754,-3.7197063,-19.737423,-10.229273,-1.0075833,-0.78922945,-7.4397335,-24.70481,28.0871,-30.128986,4.0597954,-6.460576,-6.76147
182,0.1890641301870346,93.13433074951172,78.92835235595703,-2.785392846485726,7.834245246915964,94.08867671486891,-21.679445,-1.2320113,-3.3454428,6.381142,-1.6956621,-7.6758304,14.501191,5.124754,-9.226041,24.960356,10.957597,7.2219276,10.2148,4.485758,12.307119,38.657795,18.855026,-2.6108155,-20.437984,-10.525362,-1.0896727,-0.59688485,-6.7791896,-24.774101,28.187181,-31.116114,3.5843422,-6.1221294,-6.7114105
183,0.13418956100940704,94.52802276611328,78.84845733642578,-3.3830671685462015,7.366026748658005,93.851686181501,-20.951723,-0.9144956,-3.153876,6.2030816,-1.4033197,-9.566371,13.945513,5.2804375,-9.303181,28.501093,11.802041,8.267529,10.444318,5.0558076,12.392565,38.487766,18.073963,-1.7673951,-20.919903,-10.928864,-1.327663,-0.2118052,-5.978455,-24.802303,28.133318,-32.007633,3.1078074,-5.802682,-6.7358418
184,0.0865703672170639,95.88235473632812,78.72799682617188,-3.606347701128306,7.0147757855648925,93.77245626121149,-20.22739,-1.0104519,-3.1034546,6.151639,-0.9803007,-10.215714,12.967731,4.807608,-9.817052,32.632755,11.954594,9.037573,10.500712,5.2749557,12.479826,37.888336,17.446075,-1.212268,-21.178295,-11.441776,-1.6161125,0.29210144,-5.1014123,-24.798676,27.995764,-32.755592,2.7992609,-5.581277,-6.7787066
185,0.031108560040593147,97.17957305908203,78.60768127441406,-3.301817345685921,6.8028271977874155,93.86932219602699,-19.479326,-1.7017896,-3.2710822,6.207862,-0.16451721,-9.1051445,11.569893,3.4125059,-10.897514,37.494057,11.283302,9.495198,9.993132,5.093576,12.677871,36.978325,16.249132,-0.749711,-21.290941,-11.868734,-1.9776479,0.80404884,-4.541778,-24.760902,28.085005,-33.125065,2.7355328,-5.4749327,-6.784066
186,-0.0493008978664875,98.43492126464844,78.46469116210938,-2.560287526736351,6.673316653788663,94.07551551383143,-18.623959,-2.8807151,-3.4643779,6.311103,1.1030719,-6.779957,9.897469,1.197227,-12.321281,42.976704,9.980998,9.707967,9.360041,4.490752,12.908607,35.665558,15.203571,-0.545776,-21.224592,-12.48631,-2.467854,1.5265682,-3.929536,-24.658834,28.10998,-33.31549,2.803014,-5.4508357,-6.8441978
187,-0.1528840810060501,99.69331359863281,78.28168487548828,-1.5356149131042136,6.561249968878138,94.32628983447601,-17.674004,-4.3562884,-3.5202599,6.4058557,2.3336225,-4.009367,8.138901,-1.5525206,-13.699261,48.64189,8.314377,9.638764,8.671517,3.606475,13.177126,34.056194,14.300641,-0.51171094,-21.00285,-13.028122,-2.9798913,2.236329,-3.2659664,-24.499323,28.048409,-33.3284,2.9214337,-5.4710817,-6.924492
188,-0.24608846008777618,100.95022583007812,78.01947784423828,-0.4854247853318168,6.429074477238996,94.5765423295343,-16.713196,-5.826666,-3.3960304,6.5576186,2.9146814,-1.5527326,6.3996205,-4.3772554,-14.745005,54.06102,6.553199,9.251894,7.960852,2.6845553,13.442711,32.26102,13.543895,-0.5745871,-20.644068,-13.252481,-3.399504,2.733423,-2.5802042,-24.299437,27.929716,-33.138718,3.0058904,-5.4981623,-7.020847
189,-0.3572688400745392,102.18266296386719,77.71336364746094,0.652086086462503,6.296281036366441,94.84999205521837,-17.346008,-7.432159,-2.860795,10.139182,0.7384679,0.6208098,4.5839343,-7.3419747,-15.4207325,59.38056,4.611636,8.463929,7.204523,1.6599331,13.681489,30.259344,12.925061,-0.7315149,-20.150738,-13.039516,-3.663972,2.9095829,-1.8930677,-24.075195,27.764978,-32.728382,3.174124,-5.559753,-7.1295357
190,-0.4660959243774414,103.39336395263672,77.38105773925781,1.935932594035152,6.175067531620652,95.16107611841552,-17.987534,-9.1477,-2.1815298,13.8279705,-2.1044662,2.841492,2.660745,-10.533296,-15.829164,64.73587,2.410709,7.3472548,6.3979144,0.48409614,13.898499,27.998446,12.430606,-1.0206465,-19.509092,-12.539796,-3.8414974,2.8954382,-1.1654578,-23.828814,27.534637,-32.13774,3.428965,-5.6644764,-7.2574716
191,-0.5635215640068054,104.59383392333984,77.00845336914062,3.1727283193176947,6.040331811029018,95.46867209647529,-18.529112,-10.768833,-1.5531962,17.362942,-5.0922813,4.8326907,0.7117543,-13.595528,-15.98422,69.805885,0.17282242,6.1148505,5.589041,-0.6436332,14.104646,25.51446,12.06491,-1.4405059,-18.682377,-11.920707,-4.0114613,2.8543024,-0.33652288,-23.552103,27.217773,-31.429974,3.51268,-5.7469854,-7.4202156
192,-0.6656094789505005,105.76667785644531,76.60881042480469,4.181051720875291,5.872118696696961,95.73398638186232,-18.816572,-12.102942,-1.1143515,20.405113,-7.6510315,6.321667,-1.201948,-16.220835,-15.946631,74.292404,-1.9002857,4.956229,4.8271008,-1.5390666,14.319036,22.840294,11.841896,-1.9937032,-17.636923,-11.353435,-4.251046,2.9528804,0.6531962,-23.230042,26.79047,-30.663208,3.1663477,-5.7401824,-7.6321692
193,-0.7510616183280945,106.94168853759766,76.24022674560547,4.95994547588063,5.680344132916794,95.97422920193254,-18.83718,-13.14673,-0.8553291,22.896454,-9.645001,7.1413665,-3.1494198,-18.446075,-15.741531,78.23781,-3.8387756,3.8672755,4.131685,-2.1970532,14.559184,19.846312,11.768637,-2.7335196,-16.21398,-10.829666,-4.619879,3.1895967,1.8713042,-22.831741,26.195955,-29.808392,2.2235248,-5.574122,-7.934257
194,-0.8109009861946106,108.1380615234375,75.93657684326172,5.616543709891919,5.481366275012675,96.20951870534515,-18.691313,-14.004297,-0.6816376,25.076038,-11.413334,7.4772534,-5.203095,-20.428663,-15.353342,81.81858,-5.744623,2.7626388,3.4799483,-2.7414436,14.808082,16.545706,11.834126,-3.655495,-14.479119,-10.288348,-5.064432,3.5067592,3.2698667,-22.345528,25.458374,-28.836077,0.85460705,-5.2952714,-8.296514
195,-0.8388791084289551,109.33363342285156,75.70376586914062,6.129202439547975,5.264595478145818,96.4036795799326,-18.3431,-14.649096,-0.58203375,26.948616,-13.0396385,7.5854745,-7.3055367,-22.071245,-14.821303,84.94912,-7.535883,1.6930974,2.8525996,-3.1743896,15.046339,13.182691,12.020055,-4.6872363,-12.729462,-9.815197,-5.4865947,3.9775848,4.736933,-21.795715,24.67888,-27.80412,-0.6946931,-5.0140367,-8.633902
196,-0.8164364695549011,110.52396392822266,75.5186996459961,6.466057586428266,5.017566284814575,96.5181846537223,-17.743277,-15.062728,-0.5561006,28.48875,-14.5900755,7.719551,-9.382392,-23.270618,-14.206002,87.531334,-9.12449,0.7044026,2.2290719,-3.478346,15.259343,9.983067,12.308083,-5.7694545,-11.235338,-9.488563,-5.789702,4.661755,6.171755,-21.232054,23.957714,-26.796444,-2.1810484,-4.848398,-8.874922
197,-0.7963190078735352,111.75447845458984,75.37569427490234,6.56514964591145,4.694804097114931,96.53796194403647,-16.82103,-15.169819,-0.6173749,29.707325,-16.12361,7.9022064,-11.386937,-23.92116,-13.546197,89.525505,-10.468984,-0.2518824,1.6022373,-3.5759544,15.503871,6.882627,12.686823,-6.98612,-9.910441,-9.355398,-5.9502234,5.7315626,7.611226,-20.677406,23.270168,-25.793024,-3.7112706,-4.847534,-9.035242
198,-0.7923177480697632,113.00080108642578,75.26470184326172,6.461767035781718,4.317255558496621,96.48617323073836,-15.608443,-15.023893,-0.7426304,30.598396,-17.585608,8.023673,-13.364043,-24.113316,-12.854015,91.00141,-11.618335,-1.1900697,0.98255235,-3.4954035,15.784042,3.7793543,13.138467,-8.373363,-8.651442,-9.369354,-6.0223627,7.0957446,9.115059,-20.134604,22.575548,-24.808077,-5.350824,-4.9460044,-9.156154
199,-0.8104259967803955,114.25621795654297,75.1865234375,6.271872262696886,3.970610920090707,96.38082520393797,-14.216286,-14.787528,-0.89298576,31.112165,-18.869904,8.134052,-15.367652,-24.038187,-12.1509075,92.02006,-12.615022,-2.0126147,0.37305802,-3.3633583,16.000927,0.82918364,13.640698,-9.805454,-7.6711326,-9.456338,-6.0253835,8.406081,10.621532,-19.63577,21.9468,-23.978731,-6.798911,-5.096942,-9.213331
200,-0.839525580406189,115.50121307373047,75.1460189819336,6.113468776907069,3.7414276591006246,96.2399122546677,-12.767728,-14.602453,-1.0459802,31.21115,-19.875797,8.268979,-17.456343,-23.89203,-11.442899,92.63807,-13.502607,-2.6190894,-0.23309761,-3.297956,16.0498,-1.8065221,14.177185,-11.141387,-7.17043,-9.533131,-5.9737973,9.306671,12.068003,-19.2343,21.464962,-23.440619,-7.7518783,-5.2536764,-9.185269
201,-0.8930615186691284,116.7611083984375,75.14659881591797,6.041831793359844,3.6434903734536683,96.05883723108566,-11.243736,-14.513921,-1.2129256,30.793554,-20.585197,8.421859,-19.694262,-23.694574,-10.650352,92.873375,-14.287214,-2.882535,-0.84081656,-3.3412137,15.897384,-4.0964127,14.748888,-12.353874,-7.231844,-9.594643,-5.84193,9.672757,13.457603,-18.987623,21.156734,-23.297506,-8.139426,-5.3978076,-9.046711
202,-0.938585102558136,118.01528930664062,75.17768859863281,5.989510619037775,3.6328432532647428,95.83365979604066,-9.601904,-14.424594,-1.4074024,29.920397,-21.056776,8.558235,-22.017048,-23.358208,-9.815465,92.6896,-14.945838,-2.8926885,-1.4565502,-3.4068122,15.606746,-6.1266985,15.35979,-13.5196905,-7.726558,-9.676727,-5.6320477,9.6938305,14.852859,-18.915375,20.967426,-23.504864,-8.10272,-5.55321,-8.827193
203,-0.9744763374328613,119.29780578613281,75.24920654296875,5.893110948860499,3.710072157080487,95.58237537238612,-7.93716,-14.253759,-1.614714,28.803654,-21.306732,8.666189,-24.297142,-22.91745,-9.116461,92.05941,-15.480442,-2.8710837,-2.08536,-3.4151192,15.211205,-7.9167967,16.006779,-14.646013,-8.529517,-9.749188,-5.397793,9.486092,16.27171,-19.002186,20.853806,-23.963505,-7.65947,-5.735641,-8.580108
204,-0.9953073263168335,120.58961486816406,75.3596420288086,5.686670761810238,3.8759845341266526,95.32099720338937,-6.3520484,-13.926276,-1.8130885,27.660997,-21.353594,8.749017,-26.408926,-22.403698,-8.730766,90.95174,-15.89281,-3.0294886,-2.735857,-3.2931216,14.740987,-9.480951,16.685915,-15.728767,-9.518165,-9.777099,-5.1923833,9.164475,17.70267,-19.213469,20.786196,-24.540215,-6.837392,-5.9616404,-8.354205
205,-1.014534831047058,121.9072494506836,75.51424407958984,5.3386617080038095,4.154597528437474,95.05000850772551,-4.8702655,-13.414312,-2.016166,26.48618,-21.204887,8.857843,-28.353952,-21.777521,-8.734744,89.341774,-16.20736,-3.4076593,-3.4156408,-3.0171854,14.156647,-10.796269,17.40707,-16.740688,-10.725825,-9.749339,-5.03391,8.681497,19.103365,-19.538675,20.798681,-25.228363,-5.453791,-6.259005,-8.131812
206,-1.0209776163101196,123.24714660644531,75.71439361572266,4.889109883034536,4.535979384908477,94.75792781888157,-3.455512,-12.76807,-2.2127986,25.201994,-20.85838,8.972066,-30.159534,-21.023277,-9.045391,87.236206,-16.423145,-3.8717637,-4.112945,-2.625399,13.458058,-11.864305,18.183023,-17.682646,-12.1964,-9.680789,-4.894423,8.001493,20.47408,-19.979866,20.893353,-26.05894,-3.5628185,-6.603725,-7.883017
207,-1.0061955451965332,124.606689453125,75.95328521728516,4.3778560482805435,4.970561578289203,94.44153304467092,-2.1206024,-12.031228,-2.347494,23.920668,-20.32104,9.005098,-31.746563,-20.199194,-9.59777,84.65347,-16.507761,-4.364612,-4.806994,-2.1415842,12.73251,-12.726299,19.012362,-18.590239,-13.833142,-9.569053,-4.7555947,7.2585406,21.85453,-20.509727,20.996206,-26.94425,-1.554163,-6.9419923,-7.6402955
208,-0.9803721904754639,125.97135162353516,76.22238159179688,3.8399888737037586,5.409783028105736,94.0988924880619,-0.8753874,-11.244043,-2.3724263,22.75726,-19.59188,8.876236,-33.04276,-19.358166,-10.324519,81.61009,-16.425869,-4.8317637,-5.470802,-1.5921689,12.060877,-13.437259,19.88406,-19.509098,-15.518503,-9.406009,-4.598979,6.587166,23.282076,-21.081282,21.023933,-27.779713,0.17413983,-7.228324,-7.439985
209,-0.9501379132270813,127.3556137084961,76.50836181640625,3.2451964808414098,5.865415584155612,93.70584222581849,0.2859734,-10.363563,-2.2605278,21.695156,-18.647886,8.547191,-34.028347,-18.511759,-11.346698,78.06223,-16.161215,-5.3205776,-6.073434,-0.9447007,11.433426,-14.043396,20.804464,-20.471102,-17.2097,-9.200777,-4.411262,6.019869,24.746382,-21.665133,20.963062,-28.517138,1.5834874,-7.463945,-7.2728386
210,-0.9166756868362427,128.74197387695312,76.80803680419922,2.5834404277184557,6.3539387275427215,93.26644640582589,1.360529,-9.392973,-2.0495014,20.701754,-17.496758,8.077325,-34.716846,-17.570095,-12.677456,73.99627,-15.734196,-5.7938485,-6.617018,-0.2047234,10.810968,-14.526044,21.781813,-21.45462,-18.95053,-8.946594,-4.2056193,5.4871554,26.220877,-22.253368,20.84158,-29.186432,2.850457,-7.6728754,-7.1199374
211,-0.8843321204185486,130.14889526367188,77.1184310913086,1.9283857058551397,6.834819700519476,92.82590864632579,2.3380182,-8.437079,-1.7998713,19.859255,-16.183193,7.5375257,-35.105434,-16.456795,-14.065421,69.46076,-15.151396,-6.094371,-7.1350317,0.54799974,10.226578,-14.83906,22.800392,-22.417078,-20.748222,-8.6055565,-4.004041,4.9686713,27.71524,-22.825657,20.643627,-29.791405,3.8970947,-7.850691,-7.010961
212,-0.8408393859863281,131.54884338378906,77.43125915527344,1.3551861413705817,7.269043296735155,92.4344733208537,3.2210908,-7.597436,-1.5756606,19.23164,-14.748642,6.9973392,-35.210426,-15.142278,-15.231475,64.49744,-14.411971,-6.0996118,-7.6618924,1.2359651,9.708597,-14.949688,23.829222,-23.320625,-22.587318,-8.133609,-3.8298392,4.4421315,29.239485,-23.35338,20.352919,-30.326302,4.6423745,-7.9938617,-6.974879
213,-0.7954309582710266,132.9644317626953,77.73381042480469,0.8434133655372646,7.6795981793672095,92.08057388638932,4.0012736,-6.849251,-1.3603576,18.80391,-13.158201,6.4628654,-35.014805,-13.605229,-16.14721,58.890743,-13.476821,-5.8614492,-8.185445,1.8897538,9.237266,-14.869716,24.852575,-24.167795,-24.443169,-7.3918004,-3.6680837,3.8938997,30.811548,-23.816011,19.925718,-30.769901,4.8674583,-8.078201,-7.011847
214,-0.7610165476799011,134.4064178466797,78.01934814453125,0.3699296229118141,8.074474224047776,91.75237631885837,4.702354,-6.1586585,-1.1513188,18.532673,-11.400707,5.899462,-34.49582,-11.87069,-16.914072,52.624233,-12.322322,-5.427765,-8.688922,2.5296874,8.798313,-14.644784,25.869728,-24.98431,-26.28214,-6.4346323,-3.517752,3.3334212,32.417484,-24.206066,19.37934,-31.10903,4.6745453,-8.114191,-7.1076884
215,-0.7362957000732422,135.86460876464844,78.2859115600586,0.010114643096393396,8.393759330748315,91.50664413474506,5.3828506,-5.612678,-1.0305504,18.420572,-9.54088,5.3124323,-33.680523,-10.055277,-17.420338,46.045322,-10.970872,-4.7217326,-9.207965,3.0619628,8.426379,-14.291507,26.868158,-25.765736,-28.07423,-5.507526,-3.4195933,2.77518,34.016186,-24.516115,18.792152,-31.352789,4.46133,-8.15041,-7.2688107
216,-0.7017422914505005,137.33164978027344,78.51883697509766,-0.15174044163559017,8.578693109925617,91.40372451184456,6.0966134,-5.303234,-1.0767802,18.472248,-7.638649,4.7097526,-32.61547,-8.328962,-17.546919,39.524345,-9.469246,-3.6976845,-9.7813,3.3881834,8.15261,-13.831115,27.829481,-26.510042,-29.779856,-4.8541555,-3.4090905,2.2339153,35.565258,-24.741898,18.243925,-31.507538,4.6239223,-8.237219,-7.5009894
217,-0.6676015257835388,138.8073272705078,78.71619415283203,-0.04745156397999591,8.59735839789113,91.4961500111632,6.9256415,-5.3098435,-1.3140856,18.5904,-5.6291633,4.142551,-31.212767,-6.7772107,-17.133255,32.81858,-7.7172604,-2.2750032,-10.457318,3.450272,7.982213,-13.267424,28.742817,-27.232021,-31.391764,-4.533734,-3.5045693,1.7032434,37.125534,-24.877281,17.714384,-31.574726,5.365784,-8.402363,-7.809194
218,-0.6491639018058777,140.31573486328125,78.86686706542969,0.304353562431675,8.470499452120869,91.76467967269271,7.8734345,-5.610951,-1.7245636,18.725391,-3.4630885,3.5881214,-29.40555,-5.461648,-16.23787,25.731441,-5.720318,-0.5780419,-11.222539,3.2663538,7.8939157,-12.6141405,29.60533,-27.938917,-32.89847,-4.416119,-3.6771994,1.1760839,38.704266,-24.917477,17.17533,-31.555838,6.440597,-8.619608,-8.185668
219,-0.645194411277771,141.82142639160156,78.9659194946289,0.8651605571070203,8.218206562927751,92.16343459105404,8.883732,-6.153552,-2.3271706,18.928925,-1.2089722,2.9458694,-27.331892,-4.522493,-15.104524,18.805202,-3.7175148,1.1477536,-12.021032,2.8469105,7.8761606,-11.913502,30.410494,-28.622915,-34.259064,-4.463113,-3.8879967,0.66544014,40.181004,-24.868742,16.69374,-31.450544,7.5676355,-8.858848,-8.616674
220,-0.652498722076416,143.33511352539062,79.01606750488281,1.5609149458907594,7.880640335607542,92.62357076270821,9.847532,-6.851849,-3.1209874,19.324543,1.0231266,2.1035945,-25.241865,-4.0035963,-14.016641,12.735656,-1.9840983,2.6961195,-12.777302,2.2397945,7.908396,-11.204837,31.149647,-29.270988,-35.43252,-4.635413,-4.099284,0.18360777,41.42779,-24.74562,16.343548,-31.254269,8.468344,-9.085718,-9.0938225
221,-0.6551028490066528,144.8323516845703,79.02993774414062,2.3598539877519014,7.505100069436756,93.11369219348963,10.658725,-7.7022367,-4.131017,20.055077,3.1156347,1.0794245,-23.197187,-3.8305104,-13.023614,7.52254,-0.48828688,4.1319075,-13.451921,1.4797713,7.9426303,-10.512809,31.814043,-29.913477,-36.387146,-4.982969,-4.3410664,-0.2579255,42.438976,-24.55404,16.152847,-30.940718,9.090296,-9.304932,-9.70248
222,-0.6400939226150513,146.3125762939453,79.01770782470703,3.212870065951833,7.098256186332532,93.61479279561911,11.281437,-8.664996,-5.2961206,21.197336,5.0479426,-0.13250512,-22.930695,-4.270321,-11.911678,6.7357783,-1.1613522,5.534081,-14.033535,0.62872815,7.976883,-9.830062,32.395107,-30.556765,-37.13322,-5.504669,-4.617545,-0.67120117,43.25825,-24.295958,16.084078,-30.501944,9.576283,-9.53074,-10.4201565
223,-0.6023789644241333,147.77720642089844,78.99002838134766,3.962902455818097,6.668060231993748,94.04662070832538,11.667242,-9.5566435,-6.4555078,22.822641,6.8083587,-1.6927918,-22.72524,-4.6795745,-10.895277,6.6309853,-2.0054853,6.715273,-14.458082,-0.16359295,8.060386,-9.145092,32.881317,-31.146637,-37.690792,-6.086463,-4.8557863,-1.0760771,43.822464,-23.987547,16.112617,-29.956228,9.943662,-9.738296,-11.080532
224,-0.553964376449585,149.2331085205078,78.93975067138672,4.497733302598016,6.211790201225183,94.35002329360805,11.805035,-10.245542,-7.473051,24.951624,8.410918,-3.7526548,-22.266312,-4.8545904,-10.086492,6.5770006,-2.6491742,7.516382,-14.684662,-0.79038346,8.25211,-8.433318,33.261795,-31.619928,-38.09309,-6.6138983,-4.9835067,-1.4916556,44.078953,-23.657282,16.210772,-29.337559,10.212611,-9.900978,-11.520373
225,-0.5046082735061646,150.68154907226562,78.8608627319336,4.860953133231533,5.6798946598954965,94.52831867321156,11.810231,-10.84787,-8.412507,27.551374,9.977611,-6.65602,-21.43777,-4.836074,-9.533958,6.56189,-3.041136,8.143106,-14.726203,-1.3027732,8.594624,-7.6514745,33.525875,-31.975832,-38.35441,-7.141071,-4.973225,-1.9126332,44.039425,-23.32535,16.3669,-28.665842,10.326196,-10.003784,-11.671934
226,-0.4592810869216919,152.12965393066406,78.74553680419922,5.096727923150345,5.088231766906264,94.60534399077103,11.641541,-11.464219,-9.32497,30.699524,11.359208,-10.276773,-20.280445,-4.671565,-9.171532,6.582441,-3.1944985,8.625392,-14.600656,-1.733121,9.058492,-6.8239307,33.66577,-32.24022,-38.44697,-7.7003694,-4.865857,-2.3325422,43.73321,-22.997686,16.593561,-27.935059,10.304361,-10.061195,-11.638781
227,-0.42550423741340637,153.55284118652344,78.6047592163086,5.088716313550531,4.525814544672112,94.57416613947507,11.105863,-11.901173,-10.053154,34.478558,12.247368,-14.0215225,-18.988132,-4.234494,-8.924765,6.6350207,-3.1522088,8.5388775,-14.298962,-1.9404833,9.605031,-6.0118513,33.676212,-32.3815,-38.358585,-8.144058,-4.6936502,-2.7665408,43.13771,-22.682442,16.89991,-27.137854,10.283748,-10.091465,-11.514578
228,-0.4062926471233368,154.93695068359375,78.4573745727539,4.827238194212557,4.0743262012298604,94.410084089963,10.069772,-11.678452,-9.447201,38.668716,12.599457,-15.000033,-17.791039,-3.5305486,-8.625661,6.777414,-2.9656386,7.509464,-13.802179,-1.8665004,10.180159,-5.271319,33.55122,-32.35839,-38.083626,-8.327638,-4.4912896,-3.228205,42.22416,-22.393164,17.289997,-26.266638,10.402962,-10.11284,-11.391339
229,-0.40360814332962036,156.30117797851562,78.2656478881836,4.119060000120221,3.7683304741175707,94.14723446239118,8.425304,-10.598838,-8.123015,43.521496,12.411973,-15.000033,-17.11437,-2.3734837,-8.277331,7.8594623,-2.854468,4.828297,-13.1469555,-1.31913,10.806294,-4.60248,33.287,-32.11951,-37.671196,-8.275949,-4.165981,-3.840362,40.97127,-22.130848,17.775545,-25.358528,10.777566,-10.111664,-11.239485
230,-0.3666169345378876,157.64004516601562,78.03279113769531,3.1545840784133095,3.5117601457131666,93.8728108760374,6.431191,-9.016452,-6.656407,48.871796,11.861222,-15.000033,-18.565456,-1.1902843,-7.9431815,13.564349,-4.730916,0.94763833,-12.427082,-0.5118342,11.493218,-3.9589713,32.890747,-31.68859,-37.12312,-8.045337,-3.7334359,-4.5635414,39.449444,-21.893833,18.352804,-24.459393,11.307223,-10.081473,-11.034141
231,-0.26749464869499207,158.91050720214844,77.76334381103516,2.2518118388828214,3.2352606332914253,93.65883426985408,4.354672,-7.3641157,-5.352893,54.242653,11.024725,-15.000033,-19.718508,0.008168748,-7.815179,18.70781,-6.288327,-2.9025934,-11.727785,0.22688383,12.187507,-3.3124955,32.376545,-31.128984,-36.371128,-7.5377655,-3.3958924,-5.169274,37.74546,-21.689854,19.018366,-23.560465,11.810995,-10.054452,-10.877503
232,-0.1488044410943985,160.13865661621094,77.42112731933594,1.4474942557231871,2.9333941148673035,93.49874615903762,2.2990294,-5.807262,-4.445689,59.35681,9.839482,-15.000033,-20.270048,1.1512151,-7.9199634,22.611385,-7.753965,-5.5908012,-11.05951,0.85917944,12.854026,-2.646931,31.751158,-30.501997,-35.33472,-6.661186,-3.3577726,-5.4187293,35.89305,-21.53288,19.76349,-22.608015,12.114831,-10.068025,-10.869939
233,-0.0358382984995842,161.35955810546875,77.01285552978516,0.5175100823818569,2.6441128587088505,93.32004918095006,0.15564422,-4.197668,-4.1256,64.42691,8.008366,-15.000033,-20.261387,2.4132268,-8.30831,25.345556,-9.493799,-6.7446585,-10.365747,1.6157485,13.506234,-1.9461479,31.009993,-29.757797,-34.042652,-5.158539,-3.7316678,-5.2818446,33.874058,-21.428474,20.595676,-21.60574,12.158838,-10.172995,-11.036783
234,0.08029293268918991,162.59228515625,76.57693481445312,-0.6335930270684237,2.3945511614896327,93.09324739154185,-2.1305053,-2.4421318,-4.2797427,69.5596,5.6147814,-15.000033,-19.995955,3.8288882,-8.887502,27.593298,-11.57268,-7.051964,-9.620575,2.6072972,14.144704,-1.2209504,30.149263,-28.86709,-32.530014,-3.1546311,-4.3778386,-4.8513103,31.651863,-21.371119,21.516249,-20.5658,12.049971,-10.338806,-11.329085
235,0.2301592081785202,163.89080810546875,76.17573547363281,-1.8147164827433537,2.170888962967017,92.8609181317144,-4.4498577,-0.7142783,-4.659248,74.39192,3.1365123,-15.000033,-19.524784,5.185454,-9.464043,29.486044,-13.744861,-6.9936514,-8.856155,3.653129,14.724987,-0.5019983,29.172628,-27.929123,-30.717234,-1.1286243,-5.113498,-4.0779977,29.235588,-21.355856,22.504747,-19.443588,11.862738,-10.481592,-11.733042
236,0.3977615237236023,165.184326171875,75.82164001464844,-2.8011743721592626,1.95017376325804,92.67696585295751,-6.709435,0.82934165,-5.0034046,78.572754,1.0436852,-15.000033,-18.851007,6.3248816,-9.870069,30.997156,-15.683306,-7.0402493,-8.1019945,4.5330257,15.222705,0.1827947,28.087343,-27.056654,-28.527866,0.44049594,-5.76431,-2.934892,26.65189,-21.375246,23.53188,-18.2105,11.669779,-10.517072,-12.232639
237,0.5311298966407776,166.43128967285156,75.53034210205078,-3.5108495094912313,1.7339293810346066,92.527794102194,-8.953263,2.1948595,-5.2339215,82.063126,-0.5281914,-15.000033,-17.952951,7.246874,-10.064563,32.019047,-17.29895,-7.258913,-7.332401,5.1427765,15.648822,0.8091914,26.877947,-26.321146,-25.710587,1.4624321,-6.3992867,-1.1476614,23.805878,-21.431778,24.635187,-16.748545,11.464867,-10.399538,-12.8369665
238,0.6108646988868713,167.6937713623047,75.31120300292969,-4.074129925500617,1.527474735426103,92.38713161721898,-11.241852,3.467356,-5.5203776,85.06536,-1.8455328,-15.000033,-16.818567,8.084156,-10.163245,32.533115,-18.718466,-7.4200335,-6.5219593,5.615305,16.024029,1.3927696,25.539747,-25.65279,-22.380943,2.2016025,-7.0670214,1.1690195,20.751247,-21.513426,25.787588,-15.158665,11.220375,-10.179102,-13.552843
