unveil-humanoid-operators/unveil-humanoid-operators.github.io/feature-analysis-animation/data/feature_matrix_instances/gender_ankle_rom_walking_A095_walk_ff_loop_270_002__A095.csv
Frame,root_translateX,root_translateY,root_translateZ,root_rotateX,root_rotateY,root_rotateZ,left_hip_pitch_joint_dof,left_hip_roll_joint_dof,left_hip_yaw_joint_dof,left_knee_joint_dof,left_ankle_pitch_joint_dof,left_ankle_roll_joint_dof,right_hip_pitch_joint_dof,right_hip_roll_joint_dof,right_hip_yaw_joint_dof,right_knee_joint_dof,right_ankle_pitch_joint_dof,right_ankle_roll_joint_dof,waist_yaw_joint_dof,waist_roll_joint_dof,waist_pitch_joint_dof,left_shoulder_pitch_joint_dof,left_shoulder_roll_joint_dof,left_shoulder_yaw_joint_dof,left_elbow_joint_dof,left_wrist_roll_joint_dof,left_wrist_pitch_joint_dof,left_wrist_yaw_joint_dof,right_shoulder_pitch_joint_dof,right_shoulder_roll_joint_dof,right_shoulder_yaw_joint_dof,right_elbow_joint_dof,right_wrist_roll_joint_dof,right_wrist_pitch_joint_dof,right_wrist_yaw_joint_dof
0,-1.728194236755371,1.6450669765472412,76.09971618652344,0.2872251342527382,-0.9546826546610953,-53.43481016556457,-15.530842,-6.2906547,8.465942,25.692154,-11.235339,7.684202,-2.0772164,2.1541018,-12.413332,64.31184,-3.4815867,15.000033,7.0906415,-2.0411344,10.443739,-7.5113697,20.117989,-9.5740185,65.40084,-13.458968,2.774531,6.240583,-9.436355,-18.719372,37.329224,64.07051,-13.024562,-6.9384108,0.7254317
1,-1.6109552383422852,1.0097875595092773,76.28237915039062,0.27096602003867015,-1.1672144754462013,-52.7496990258788,-14.395271,-6.4161386,7.644521,24.823898,-11.185488,7.384504,-2.741586,0.0007785435,-13.844832,65.17266,-4.3110175,15.000033,6.4732075,-1.979095,10.670635,-8.122703,20.057846,-9.631736,64.70618,-13.506532,2.6047163,6.1657104,-9.289009,-18.772888,36.671494,64.21748,-13.077419,-6.8082423,0.56958544
2,-1.4826297760009766,0.3672788739204407,76.45765686035156,0.26386827310217154,-1.3997312987986414,-52.04815358007228,-13.223157,-6.550607,6.8075128,23.938457,-11.130186,7.089537,-3.3361795,-2.203914,-15.282983,66.10604,-5.197943,15.000033,5.872146,-1.9144074,10.91306,-8.781283,19.962538,-9.723509,64.06359,-13.572202,2.4213238,6.129393,-9.106054,-18.855,35.982327,64.34411,-13.166154,-6.6724734,0.41491824
3,-1.3850394487380981,-0.2670367360115051,76.62751007080078,0.2538323186696014,-1.6279733572073336,-51.326880493668945,-12.063677,-6.6691184,5.9479933,23.06507,-11.074294,6.7999167,-3.8470821,-4.398265,-16.69302,66.90503,-6.0714817,15.000033,5.2683897,-1.8396578,11.148936,-9.459484,19.847975,-9.863894,63.43275,-13.610836,2.2552705,6.045365,-8.887553,-18.956465,35.26126,64.43634,-13.1977215,-6.545423,0.2645813
4,-1.2798184156417847,-0.901016891002655,76.7952651977539,0.22675510948270516,-1.8241666013745321,-50.58702161505765,-10.972836,-6.743657,5.0643177,22.239477,-11.027411,6.5160565,-4.273691,-6.513934,-18.049873,67.36483,-6.8540425,15.000033,4.671779,-1.7445538,11.348742,-10.157616,19.726772,-10.107339,62.798294,-13.589722,2.1368191,5.832117,-8.622799,-19.065996,34.47566,64.48769,-13.091326,-6.4433913,0.12086756
5,-1.1758967638015747,-1.5450628995895386,76.95520782470703,0.08855953701056411,-1.9311381176005036,-49.89271439191961,-10.103048,-6.6306825,4.1805444,21.655066,-11.088254,6.219261,-4.673816,-8.463517,-19.427677,67.40507,-7.4751987,14.933772,4.1458297,-1.5380706,11.44848,-10.868299,19.60341,-10.480069,62.149254,-13.504773,2.0728595,5.4550953,-8.303108,-19.170975,33.586838,64.50026,-12.805729,-6.3656225,-0.02309873
6,-1.0985078811645508,-2.19914174079895,77.1005859375,-0.10332509926994166,-1.9814319304110204,-49.219874724892456,-9.363485,-6.413873,3.2967556,21.19414,-11.199032,5.914339,-5.0018697,-10.41802,-21.073933,67.1615,-7.997182,13.984391,3.6595452,-1.2862015,11.490534,-11.587966,19.478575,-10.954548,61.48967,-13.378431,2.0490744,4.9602165,-7.9415417,-19.264597,32.61915,64.486275,-12.39332,-6.306858,-0.16730756
7,-1.0213854312896729,-2.8451192378997803,77.2384033203125,-0.28607986616522346,-2.0148189645944585,-48.53117672825016,-8.656687,-6.190885,2.4144073,20.746752,-11.311258,5.612,-5.280045,-12.256035,-22.616398,66.67339,-8.46379,13.177404,3.1841018,-1.0446581,11.518411,-12.321691,19.354584,-11.491883,60.832024,-13.204256,2.0562634,4.385117,-7.560908,-19.348309,31.636686,64.45271,-11.912631,-6.276631,-0.30018765
8,-0.9513030052185059,-3.480165719985962,77.35990142822266,-0.45516098151249557,-2.04810406646906,-47.82378106443111,-7.970867,-5.9629292,1.5450265,20.329134,-11.440315,5.297518,-5.5087805,-13.949963,-24.021978,65.95724,-8.887913,12.466784,2.7174358,-0.8225818,11.553057,-13.074323,19.23494,-12.051712,60.18681,-12.976655,2.085123,3.7671487,-7.180968,-19.429268,30.706121,64.400925,-11.420065,-6.283774,-0.4094332
9,-0.8795225024223328,-4.1256489753723145,77.47736358642578,-0.6170752949064102,-2.0904304922588173,-47.09244504507768,-7.2956524,-5.722205,0.6919666,19.943266,-11.590902,4.9625916,-5.696852,-15.471679,-25.26362,64.9915,-9.267464,11.8588295,2.253047,-0.6140099,11.603703,-13.845822,19.121714,-12.620664,59.546154,-12.6720295,2.1484354,3.0523136,-6.798775,-19.512896,29.839169,64.32523,-10.860102,-6.347509,-0.48550296
10,-0.8076792359352112,-4.776149749755859,77.57499694824219,-0.7724125941910459,-2.130831483191252,-46.340641689013495,-6.6410522,-5.4708576,-0.15040098,19.58251,-11.755019,4.616391,-5.858149,-16.845728,-26.364977,63.775425,-9.587849,11.368404,1.7900496,-0.41639116,11.658437,-14.6260195,19.0145,-13.214007,58.897102,-12.298571,2.244666,2.2397146,-6.4048653,-19.599287,29.008112,64.22199,-10.223759,-6.45717,-0.5350277
11,-0.7382743954658508,-5.427021026611328,77.66633605957031,-0.9075615734552434,-2.156378164182901,-45.57867124706239,-6.021094,-5.2250404,-0.9846493,19.24299,-11.928054,4.2701325,-5.999756,-18.123785,-27.366028,62.356712,-9.84804,10.9625025,1.3358389,-0.2435674,11.707192,-15.411556,18.912298,-13.839144,58.25431,-11.902182,2.3394766,1.4459834,-6.0052743,-19.687738,28.21712,64.090614,-9.639682,-6.5760617,-0.57002795
12,-0.6609189510345459,-6.091302871704102,77.74873352050781,-1.0086327233165633,-2.1546657647357907,-44.816909977884336,-5.4537096,-5.0009775,-1.8133831,18.928778,-12.106513,3.934783,-6.1271777,-19.355015,-28.307959,60.782497,-10.048596,10.610241,0.8964448,-0.10865228,11.738686,-16.1934,18.814308,-14.500774,57.620327,-11.528785,2.4085567,0.78964883,-5.6079135,-19.77632,27.47129,63.933567,-9.237204,-6.6674786,-0.60398084
13,-0.6037868857383728,-6.751529216766357,77.81640625,-1.0721829021348412,-2.123276001400828,-44.04976540947513,-4.946054,-4.8056264,-2.645358,18.642092,-12.285818,3.611785,-6.239533,-20.553185,-29.212172,59.04688,-10.191858,10.324358,0.46539262,-0.012990868,11.749819,-16.9811,18.721682,-15.217925,57.00258,-11.198553,2.448159,0.28435507,-5.2200866,-19.866402,26.771708,63.744022,-9.072697,-6.709856,-0.62057126
14,-0.5411182045936584,-7.410079002380371,77.86521911621094,-1.106229697918052,-2.0693891230333077,-43.27434930144125,-4.489399,-4.6294765,-3.4774692,18.384523,-12.470599,3.2952535,-6.339501,-21.692823,-30.052414,57.13071,-10.275627,10.111638,0.042629726,0.051819444,11.745507,-17.775303,18.633554,-15.983524,56.394775,-10.886151,2.473531,-0.12678331,-4.8341026,-19.957954,26.115522,63.522408,-9.07004,-6.726399,-0.6197207
15,-0.4808178246021271,-8.061005592346191,77.89994049072266,-1.1120580716792727,-1.9956136460374445,-42.50504043500491,-4.071214,-4.4653254,-4.295294,18.144964,-12.664934,2.9850578,-6.437541,-22.763355,-30.798353,55.0602,-10.297974,9.93453,-0.35901055,0.08418218,11.724925,-18.55482,18.545189,-16.759083,55.78968,-10.566638,2.4850202,-0.4312633,-4.444292,-20.04652,25.505762,63.29131,-9.159609,-6.7467737,-0.6408683
16,-0.42700403928756714,-8.73235034942627,77.92493438720703,-1.0900287704956961,-1.9043853846943932,-41.756949348689716,-3.680251,-4.306937,-5.083145,17.915178,-12.874488,2.6813705,-6.5485425,-23.757301,-31.415703,52.86616,-10.257262,9.754449,-0.72702056,0.08324834,11.687008,-19.299969,18.451523,-17.506763,55.18253,-10.216307,2.4825332,-0.61584014,-4.0496583,-20.122759,24.94885,63.079514,-9.269981,-6.802936,-0.7241921
17,-0.3757361173629761,-9.420574188232422,77.93617248535156,-1.037060486358987,-1.7972231217597516,-41.027466647695356,-3.3141158,-4.1587358,-5.8417125,17.692373,-13.101063,2.389072,-6.685723,-24.666958,-31.884304,50.536472,-10.1549635,9.530252,-1.0609479,0.045118008,11.627459,-20.016792,18.351217,-18.232094,54.579803,-9.82914,2.4652972,-0.6528662,-3.6582377,-20.18335,24.474606,62.908997,-9.413571,-6.919584,-0.9032111
18,-0.32888293266296387,-10.110699653625488,77.93490600585938,-0.9534570057929831,-1.673455625724525,-40.310664955994746,-2.9747045,-4.0224075,-6.577853,17.473753,-13.33764,2.1063638,-6.8438244,-25.506212,-32.21859,48.068436,-9.996833,9.286542,-1.3689705,-0.028573431,11.545657,-20.712122,18.245275,-18.94648,53.985123,-9.414782,2.4353368,-0.55646074,-3.2781732,-20.228004,24.075197,62.771786,-9.618289,-7.0741043,-1.151081
19,-0.2822853624820709,-10.803589820861816,77.92070770263672,-0.8466955223017132,-1.5325188596299901,-39.61602901005989,-2.6718585,-3.8875117,-7.2854233,17.278502,-13.590131,1.8228773,-7.013487,-26.291027,-32.43805,45.50127,-9.789099,9.085592,-1.6509268,-0.12894474,11.444407,-21.373846,18.134825,-19.627266,53.395718,-8.9795685,2.3960168,-0.37507793,-2.9083674,-20.251003,23.697044,62.651512,-9.838788,-7.2245526,-1.417704
20,-0.24116772413253784,-11.49749755859375,77.89122009277344,-0.7244941457532463,-1.3732178304337834,-38.95262273085,-2.4135606,-3.7431479,-7.9579377,17.121761,-13.862338,1.5277913,-7.1866384,-27.032837,-32.56358,42.868614,-9.535046,8.993942,-1.9065104,-0.24816784,11.326305,-21.989222,18.021202,-20.249306,52.8093,-8.525718,2.3498387,-0.15719487,-2.549453,-20.243816,23.286938,62.5349,-10.029033,-7.3299646,-1.6528577
21,-0.21175453066825867,-12.202247619628906,77.85301971435547,-0.5837191561688004,-1.1908017460312639,-38.32342845752854,-2.208323,-3.5911925,-8.589745,17.00564,-14.154952,1.2229495,-7.380582,-27.68954,-32.54085,40.095505,-9.175731,9.085001,-2.1441946,-0.38830823,11.191106,-22.546942,17.914988,-20.788374,52.207203,-8.020158,2.2975798,0.10813535,-2.2159123,-20.202885,22.8487,62.422085,-10.193305,-7.371564,-1.8572321
22,-0.1829841285943985,-12.916275978088379,77.80914306640625,-0.42259093192307323,-0.9876135393609983,-37.72329572041449,-2.0494502,-3.4361954,-9.185144,16.921211,-14.465258,0.9118928,-7.5980735,-28.265638,-32.37304,37.18455,-8.7268095,9.302725,-2.333304,-0.55351424,11.033437,-23.096395,17.797909,-21.302896,51.63549,-7.4805818,2.2376587,0.4456693,-1.8870999,-20.121265,22.370695,62.3199,-10.361242,-7.3749466,-2.054215
23,-0.15939542651176453,-13.63988971710205,77.7552261352539,-0.24988225173404707,-0.773149163895165,-37.14945359967756,-1.9229374,-3.271132,-9.752238,16.868881,-14.793473,0.5859287,-7.8166456,-28.833553,-32.17131,34.280727,-8.297859,9.531044,-2.5043876,-0.73757017,10.859216,-23.598438,17.684177,-21.768345,51.075863,-6.96088,2.1738791,0.80760455,-1.5798243,-20.002542,21.888758,62.24465,-10.492623,-7.3638177,-2.2263372
24,-0.14260001480579376,-14.373787879943848,77.6868667602539,-0.07517974575810375,-0.5563225898347964,-36.599882427504795,-1.8133429,-3.0876603,-10.298718,16.844183,-15.1372795,0.23618798,-8.022722,-29.456018,-32.050568,31.528801,-7.9963317,9.664717,-2.6544907,-0.93564236,10.672322,-24.053808,17.576715,-22.21024,50.542175,-6.5319395,2.107009,1.1521567,-1.282403,-19.846048,21.395325,62.19815,-10.559658,-7.36276,-2.355507
25,-0.12979644536972046,-15.114584922790527,77.6069564819336,0.1090851731964288,-0.3286431721721732,-36.07505338560848,-1.7327279,-2.8932076,-10.823641,16.853354,-15.500838,-0.14538138,-8.221734,-30.122047,-32.040955,28.875378,-7.84314,9.727494,-2.7788825,-1.159204,10.460133,-24.461443,17.477028,-22.63623,50.038395,-6.211835,2.027983,1.4928893,-0.9831779,-19.6457,20.872835,62.179893,-10.535698,-7.369045,-2.4250355
26,-0.11396703869104385,-15.869855880737305,77.52131652832031,0.3027773803404659,-0.08788253503793755,-35.57690547955843,-1.6856729,-2.6866765,-11.321353,16.896654,-15.883773,-0.5523247,-8.438204,-30.779902,-32.081726,26.26163,-7.7750454,9.780445,-2.87548,-1.4066827,10.224068,-24.82669,17.386093,-23.040133,49.56059,-5.966813,1.9384445,1.8446901,-0.6935381,-19.399973,20.326014,62.19182,-10.444264,-7.3730907,-2.449243
27,-0.10595247149467468,-16.638587951660156,77.42847442626953,0.48410422788630597,0.14886315044724502,-35.10665346857156,-1.6500605,-2.448394,-11.793619,16.968624,-16.281713,-0.97444946,-8.686329,-31.41978,-32.156376,23.811396,-7.7788873,9.778423,-2.9514437,-1.65197,9.990727,-25.14865,17.30432,-23.40882,49.101334,-5.7779527,1.8544195,2.1659532,-0.43725756,-19.118456,19.788513,62.2361,-10.329482,-7.3889914,-2.4557588
28,-0.10142713785171509,-17.403820037841797,77.33499908447266,0.6312184704849025,0.36459779112924995,-34.66523793596792,-1.6057248,-2.1590812,-12.241696,17.068539,-16.692581,-1.4000368,-8.978611,-32.037083,-32.247734,21.6557,-7.8472285,9.670414,-3.014696,-1.8668784,9.787965,-25.425758,17.232471,-23.728422,48.65025,-5.6275396,1.791994,2.4145772,-0.23333816,-18.818148,19.294258,62.308105,-10.233244,-7.4306817,-2.4707372
29,-0.1007581278681755,-18.162792205810547,77.23855590820312,0.7358424259741833,0.5687110913102467,-34.25484889583984,-1.5641397,-1.8087648,-12.663828,17.195192,-17.114733,-1.8291783,-9.305422,-32.64804,-32.448578,19.781351,-7.985038,9.390343,-3.066739,-2.0403492,9.615554,-25.656744,17.173504,-23.992014,48.189426,-5.5137873,1.7628404,2.5744045,-0.07655899,-18.508696,18.832973,62.39572,-10.167605,-7.5176387,-2.4822187
30,-0.09719639271497726,-18.927120208740234,77.1463851928711,0.8020807388276691,0.7694637267998519,-33.87848442289134,-1.5359335,-1.4000807,-13.057471,17.353819,-17.552357,-2.2684197,-9.661644,-33.214222,-32.74423,18.09491,-8.183843,8.995837,-3.1020014,-2.1765077,9.462199,-25.839355,17.12873,-24.203917,47.721024,-5.4456377,1.7551591,2.6688046,0.04607904,-18.192766,18.392876,62.490448,-10.107843,-7.6351976,-2.4796422
31,-0.08665958046913147,-19.699384689331055,77.05612182617188,0.8340154120624108,0.9471830785485922,-33.53588607892435,-1.4982984,-0.94076425,-13.424463,17.552092,-18.010763,-2.71666,-10.042725,-33.67068,-32.96069,16.588037,-8.402968,8.600634,-3.119649,-2.2768958,9.341426,-25.971085,17.094917,-24.365856,47.264534,-5.4204364,1.7493174,2.714941,0.12793294,-17.877987,18.005472,62.5998,-10.038888,-7.7527347,-2.4916897
32,-0.08979792147874832,-20.477685928344727,76.9321060180664,0.9911223276612983,1.0489544000416666,-33.18206355339476,-1.3667613,-0.6138255,-13.776662,17.731524,-18.4532,-3.1501813,-10.933613,-34.471096,-32.599247,16.382591,-9.1696005,8.345849,-3.1527193,-2.5123744,9.278935,-26.064407,17.072874,-24.489557,46.862427,-5.4341936,1.7277701,2.72101,0.18606818,-17.566046,17.698769,62.715977,-9.942724,-7.8370953,-2.5441902
33,-0.09023240208625793,-21.26080322265625,76.80995178222656,1.0983018658475545,1.0836650488698434,-32.84818641299377,-1.1625391,-0.22542974,-14.123992,17.919931,-18.902517,-3.5934374,-11.686834,-35.0752,-31.974047,16.122112,-9.79603,8.183171,-3.182012,-2.692034,9.287251,-26.102873,17.056828,-24.555653,46.486603,-5.499863,1.6858851,2.6696982,0.19382524,-17.268566,17.485693,62.8636,-9.800578,-7.877904,-2.663761
34,-0.08682264387607574,-22.039655685424805,76.6849365234375,1.1651229320672485,1.0661555704859378,-32.536582246761654,-0.9079605,0.21770318,-14.460156,18.12529,-19.360825,-4.0470195,-12.338365,-35.550262,-31.167727,15.879549,-10.337291,8.047817,-3.205026,-2.8241904,9.355286,-26.088728,17.045017,-24.56388,46.13081,-5.6130643,1.632827,2.561689,0.16150507,-16.98994,17.348898,63.02846,-9.623699,-7.8932796,-2.8278656
35,-0.07825694978237152,-22.81855010986328,76.5601806640625,1.19695494552609,1.0168383270253356,-32.25717275276159,-0.63394606,0.7123804,-14.770495,18.367973,-19.829685,-4.5035853,-12.902909,-35.880146,-30.275368,15.67491,-10.758028,7.92069,-3.2102036,-2.9174297,9.460518,-26.026154,17.036379,-24.53123,45.81843,-5.7492986,1.5676608,2.4540715,0.10075906,-16.731937,17.279907,63.186924,-9.45053,-7.8969884,-2.9973552
36,-0.08032168447971344,-23.597023010253906,76.4347152709961,1.196941287547895,0.9563781736643873,-32.02000564953819,-0.3690382,1.2576154,-15.040915,18.66472,-20.3097,-4.955125,-13.385144,-36.0384,-29.399336,15.522244,-11.017502,7.782824,-3.1856868,-2.9782386,9.57958,-25.921776,17.030813,-24.477867,45.575478,-5.886355,1.4889623,2.4045837,0.021208998,-16.495224,17.270489,63.318157,-9.319436,-7.902246,-3.1337132
37,-0.09464360028505325,-24.37698745727539,76.30358123779297,1.1645538194954392,0.8835294382708997,-31.835570842157935,-0.11213636,1.8552157,-15.2561,19.019491,-20.81089,-5.3940372,-13.785714,-36.026924,-28.54309,15.462405,-11.090006,7.6361322,-3.1199613,-3.0031013,9.715678,-25.78052,17.027884,-24.413774,45.402935,-6.033749,1.3896985,2.4237597,-0.075717606,-16.282366,17.320654,63.412,-9.23303,-7.901065,-3.2255087
38,-0.11517757922410965,-25.1680908203125,76.16535186767578,1.098329915832143,0.7907658054721258,-31.696295819013027,0.15419655,2.5073154,-15.42656,19.409834,-21.325697,-5.826852,-14.100349,-35.881012,-27.659082,15.509584,-11.017527,7.476914,-3.0196633,-2.9863484,9.878491,-25.599562,17.026342,-24.329784,45.288307,-6.201248,1.2722863,2.4823341,-0.18821278,-16.10015,17.431324,63.47301,-9.171491,-7.8899283,-3.2914262
39,-0.1377793550491333,-25.9672794342041,76.0228042602539,1.0029067880099283,0.6876911039961359,-31.585193093509588,0.4166246,3.2055333,-15.578189,19.83821,-21.829443,-6.2648196,-14.332487,-35.614754,-26.772268,15.644387,-10.862047,7.282378,-2.9029787,-2.9406888,10.052571,-25.369757,17.023794,-24.209467,45.238697,-6.3563585,1.1499555,2.5785208,-0.31506157,-15.940351,17.597004,63.51615,-9.145415,-7.888717,-3.3418615
40,-0.17327949404716492,-26.77775001525879,75.87919616699219,0.8853070913936215,0.5830106602156816,-31.48385025000814,0.67016774,3.9408886,-15.73821,20.289068,-22.294807,-6.7190704,-14.495845,-35.248398,-25.900345,15.863014,-10.692198,7.0349207,-2.7875624,-2.881654,10.222322,-25.089186,17.019625,-24.044794,45.26783,-6.475101,1.0355728,2.710895,-0.45497692,-15.794705,17.811438,63.557877,-9.164686,-7.9171963,-3.3877232
41,-0.21453747153282166,-27.58876609802246,75.73396301269531,0.7410437861596851,0.476153646116122,-31.393816922820754,0.9152913,4.7192664,-15.910424,20.761028,-22.729038,-7.193891,-14.592691,-34.747906,-25.00528,16.164759,-10.475984,6.738957,-2.6795897,-2.8112981,10.383735,-24.74963,17.011875,-23.821892,45.382603,-6.531902,0.9281465,2.8982575,-0.63186646,-15.649436,18.100016,63.63695,-9.228056,-7.9942245,-3.4258785
42,-0.261457622051239,-28.425884246826172,75.59578704833984,0.5641210109271302,0.362915590586871,-31.322567477764892,1.1571038,5.548303,-16.082705,21.25405,-23.138935,-7.682419,-14.605481,-34.085693,-24.105227,16.510958,-10.159222,6.4232006,-2.5567343,-2.7126958,10.550948,-24.363047,16.999537,-23.565025,45.572453,-6.554195,0.822255,3.1360333,-0.81536233,-15.527787,18.439644,63.706333,-9.331981,-8.104875,-3.4463952
43,-0.3058757781982422,-29.259469985961914,75.4581298828125,0.36140265608246896,0.2452305580155621,-31.25925308587228,1.3925881,6.417564,-16.260515,21.766941,-23.497463,-8.17825,-14.538096,-33.305668,-23.286589,16.877974,-9.800523,6.101617,-2.4575286,-2.605602,10.703653,-23.92407,16.987803,-23.247288,45.85103,-6.555935,0.72482425,3.3845415,-1.0441972,-15.38225,18.841925,63.80899,-9.483087,-8.217315,-3.486251
44,-0.36178821325302124,-30.113298416137695,75.3063735961914,0.2307639665993137,0.104274865099625,-31.165193770868036,1.6350642,7.211929,-16.463343,22.307785,-23.781372,-8.664947,-14.717878,-32.70216,-22.427145,17.921747,-9.820919,5.794382,-2.3631694,-2.584565,10.869237,-23.471945,16.985855,-22.941816,46.209656,-6.595312,0.64433044,3.6050506,-1.2132869,-15.244751,19.202978,63.815144,-9.695412,-8.300343,-3.544277
45,-0.4241434335708618,-30.993907928466797,75.1551284790039,0.10750076934777476,-0.03781783120377299,-31.064157928431946,1.8689753,8.015186,-16.675781,22.862583,-23.998064,-9.167265,-14.83542,-32.094597,-21.818195,19.100973,-10.0618,5.4077044,-2.2832458,-2.594335,11.017996,-22.971848,16.99551,-22.596767,46.64806,-6.646077,0.57670516,3.7960029,-1.3724916,-15.086111,19.556335,63.775166,-10.009947,-8.344233,-3.6382601
46,-0.493718683719635,-31.889135360717773,75.00775909423828,-0.025849131696317966,-0.18059893296380886,-30.96440379656482,2.0964272,8.845321,-16.896322,23.426208,-24.15197,-9.681914,-14.886656,-31.412481,-21.395758,20.34974,-10.406363,4.963719,-2.1992683,-2.6118958,11.15732,-22.429813,17.014858,-22.22792,47.161495,-6.7065616,0.5200632,3.9767878,-1.5154206,-14.919666,19.902885,63.685917,-10.410659,-8.366142,-3.7533126
47,-0.5605770349502563,-32.79768753051758,74.86939239501953,-0.18745431487487896,-0.31949725192586,-30.872517010243826,2.2960377,9.706447,-17.13242,24.038187,-24.230507,-10.176,-14.940869,-30.619225,-20.953333,21.568333,-10.592687,4.588372,-2.1088023,-2.6087399,11.2928705,-21.862562,17.047165,-21.86024,47.73417,-6.808693,0.48331052,4.1415634,-1.6617543,-14.747871,20.249392,63.57349,-10.817146,-8.375411,-3.889404
48,-0.6290026903152466,-33.70204544067383,74.75331115722656,-0.3980215250600437,-0.450235962767411,-30.795455158099596,2.4480398,10.606913,-17.39309,24.730455,-24.217499,-10.616599,-15.040433,-29.685534,-20.30083,22.639202,-10.35744,4.411144,-2.0038774,-2.5541294,11.432071,-21.2903,17.09916,-21.52889,48.349957,-6.99156,0.4749894,4.2849164,-1.825244,-14.575603,20.595434,63.45583,-11.150608,-8.381768,-4.0448513
49,-0.709894597530365,-34.614830017089844,74.6676025390625,-0.6702715723281429,-0.5696989727111801,-30.72643429455038,2.559581,11.569456,-17.700102,25.46853,-24.109476,-11.02732,-15.196648,-28.578503,-19.242874,23.507109,-9.454781,4.530609,-1.8841552,-2.4293373,11.582003,-20.726011,17.179958,-21.262848,49.007015,-7.2611575,0.4918564,4.3977976,-2.0000427,-14.404704,20.90974,63.306057,-11.41888,-8.379742,-4.2289653
50,-0.7904465198516846,-35.531192779541016,74.61116790771484,-0.9911185745098944,-0.6815514337349863,-30.663989496963396,2.6366088,12.584508,-18.04861,26.240944,-23.909931,-11.412372,-15.361947,-27.336103,-17.934162,24.253197,-8.102436,4.8659644,-1.753209,-2.2561784,11.738962,-20.151514,17.28928,-21.039291,49.705536,-7.6014752,0.5318016,4.4849253,-2.1798387,-14.233584,21.200891,63.11858,-11.654581,-8.366967,-4.437696
51,-0.8658778667449951,-36.47101593017578,74.55693817138672,-1.34133565177079,-0.7915594208210304,-30.62259128583636,2.65493,13.6105995,-18.410084,27.121828,-23.617136,-11.708607,-15.500429,-26.051971,-16.704967,24.987913,-6.7402225,5.260947,-1.6122271,-2.0637937,11.892858,-19.539217,17.417166,-20.813974,50.435307,-8.01758,0.6047985,4.562098,-2.3795288,-14.063465,21.531656,62.947212,-11.812923,-8.358428,-4.6503882
52,-0.9555423855781555,-37.40947723388672,74.48746490478516,-1.7008233221697537,-0.9054447894629142,-30.616419486980483,2.593863,14.605864,-18.755148,28.18201,-23.22874,-11.85234,-15.594612,-24.82679,-15.884844,25.823486,-5.8058853,5.5378957,-1.4630883,-1.8791261,12.03266,-18.862413,17.548954,-20.540096,51.188316,-8.511772,0.72017336,4.645075,-2.613256,-13.897069,21.966936,62.84543,-11.847964,-8.369217,-4.846213
53,-1.0574185848236084,-38.34202575683594,74.4512939453125,-2.072864647523519,-1.0193326593939884,-30.65061959183371,2.4521906,15.570672,-19.098698,29.432346,-22.764757,-11.80605,-15.716314,-23.717686,-15.58014,26.932077,-5.44363,5.54651,-1.3043631,-1.6973984,12.151101,-18.129683,17.6779,-20.232944,52.001972,-9.113247,0.8625834,4.758105,-2.8826232,-13.736578,22.532858,62.825676,-11.687192,-8.418457,-5.044829
54,-1.1512409448623657,-39.2767219543457,74.45301055908203,-2.4656368188907902,-1.13212676138594,-30.716323988377596,2.2409184,16.526491,-19.451506,30.827602,-22.215885,-11.607472,-15.859104,-22.690464,-15.597677,28.238966,-5.4268203,5.3808565,-1.1361964,-1.5035658,12.252447,-17.351976,17.803492,-19.905516,52.874317,-9.806826,1.0314941,4.8877544,-3.178347,-13.581561,23.193357,62.85966,-11.373226,-8.494137,-5.2482815
55,-1.2289334535598755,-40.23426055908203,74.46611022949219,-2.866036340234986,-1.2533410330902905,-30.80626343709083,1.9561814,17.461891,-19.776806,32.36334,-21.542097,-11.303547,-15.907032,-21.70124,-15.8135605,29.488617,-5.6291695,5.231715,-0.96243805,-1.3094721,12.343296,-16.508148,17.919872,-19.509968,53.740498,-10.532293,1.2587655,4.9937067,-3.4943376,-13.430483,23.91821,62.937595,-11.034773,-8.563352,-5.409521
56,-1.3156704902648926,-41.194461822509766,74.48274230957031,-3.258919069058992,-1.3921907660928,-30.913149620476577,1.5873809,18.362139,-20.039669,34.05223,-20.705297,-10.937693,-15.748762,-20.693802,-16.103857,30.412457,-5.9116573,5.3057404,-0.78974354,-1.1298996,12.429949,-15.57469,18.01775,-18.991682,54.534946,-11.223505,1.5775568,5.03561,-3.8280737,-13.283759,24.681955,63.055183,-10.799408,-8.592013,-5.4831567
57,-1.405627965927124,-42.15892028808594,74.51040649414062,-3.6474963049372886,-1.5591039903725996,-31.05148974130586,1.1416124,19.241362,-20.219229,35.931576,-19.695885,-10.465002,-15.320621,-19.631702,-16.487823,30.874886,-6.267649,5.780081,-0.6216877,-0.96425563,12.5173645,-14.520324,18.08451,-18.288866,55.254093,-11.876196,2.0277994,5.0128164,-4.1850348,-13.13774,25.492804,63.239716,-10.665363,-8.563708,-5.4253736
58,-1.4771546125411987,-43.11425018310547,74.549072265625,-4.03515163595371,-1.7463420656092778,-31.21944559662856,0.6169518,20.106207,-20.336449,37.985096,-18.534971,-9.869218,-14.693222,-18.548351,-17.006876,31.02459,-6.7462964,6.5103693,-0.45623446,-0.80673224,12.59825,-13.372376,18.115967,-17.439936,55.935444,-12.516159,2.582327,4.9463286,-4.560801,-12.992027,26.364695,63.48963,-10.576863,-8.498331,-5.272484
59,-1.557174801826477,-44.06101989746094,74.5947036743164,-4.405677636504972,-1.936432360464254,-31.384982418467168,-0.009438346,20.928976,-20.421686,40.14568,-17.234627,-9.233401,-13.964666,-17.47717,-17.575241,31.01046,-7.285514,7.229781,-0.2886538,-0.6646201,12.663185,-12.199416,18.119068,-16.549402,56.577328,-13.129706,3.1745913,4.8274226,-4.935715,-12.855555,27.276318,63.75096,-10.579181,-8.4159,-5.097911
60,-1.6410552263259888,-44.99406433105469,74.64595794677734,-4.744663233770886,-2.11179114720526,-31.51636088978142,-0.7620802,21.680145,-20.50851,42.352695,-15.808625,-8.639994,-13.225026,-16.441029,-18.112812,30.956327,-7.827463,7.6691914,-0.11137679,-0.54267335,12.706242,-11.064707,18.108017,-15.728915,57.172134,-13.705414,3.73828,4.645755,-5.288523,-12.74189,28.19952,63.959206,-10.717646,-8.33686,-4.9726863
61,-1.7034120559692383,-45.92267990112305,74.71629333496094,-5.044537031717628,-2.268518202467105,-31.609335709389985,-1.6411844,22.3539,-20.6144,44.602467,-14.173661,-8.224848,-12.491211,-15.430865,-18.602253,30.869158,-8.392681,7.731518,0.090897016,-0.4496809,12.723938,-9.969933,18.091604,-14.990284,57.700916,-14.262141,4.3001943,4.399333,-5.605709,-12.658435,29.132828,64.08957,-11.05102,-8.256538,-4.897979
62,-1.7726216316223145,-46.85133361816406,74.7981948852539,-5.313294707923038,-2.4157833983079686,-31.6793163033075,-2.6465878,22.9662,-20.724798,46.943043,-12.359559,-7.8863316,-11.723583,-14.4204645,-19.085854,30.667046,-8.99227,7.564849,0.3131377,-0.38149402,12.725127,-8.883209,18.068945,-14.286502,58.16504,-14.800727,4.8833385,4.091651,-5.893585,-12.606215,30.083149,64.162,-11.539477,-8.167868,-4.83827
63,-1.8432104587554932,-47.76552200317383,74.90364074707031,-5.562959632165955,-2.556184350961417,-31.723866018068527,-3.8004315,23.52669,-20.817192,49.38583,-10.548017,-7.3525085,-10.925067,-13.408765,-19.573214,30.347786,-9.561536,7.267554,0.5327372,-0.31867558,12.72344,-7.815914,18.041273,-13.644844,58.58882,-15.284918,5.414731,3.7187314,-6.1654186,-12.588775,31.034777,64.17806,-12.077514,-8.08687,-4.8095026
64,-1.9065288305282593,-48.6696891784668,75.02224731445312,-5.8064926959265035,-2.6918208055523216,-31.740387825652416,-5.1219864,24.0577,-20.856333,51.929295,-8.9212475,-6.352157,-10.0914345,-12.400125,-20.074316,29.912542,-10.040192,6.94434,0.7316474,-0.23985201,12.732834,-6.7848263,18.00993,-13.098387,58.999218,-15.681893,5.820927,3.274917,-6.430382,-12.610427,31.966919,64.13413,-12.560275,-8.0293665,-4.8271265
65,-1.9711034297943115,-49.55025863647461,75.1459732055664,-6.060639034708835,-2.818587637852087,-31.69829750760797,-6.723816,24.58819,-20.848082,54.69079,-7.3885584,-4.5827227,-9.179832,-11.384916,-20.634968,29.31438,-10.40618,6.5975585,0.8902513,-0.12858132,12.756918,-5.8061705,17.981722,-12.679288,59.409725,-15.986554,6.059968,2.7146723,-6.6929483,-12.674934,32.88917,64.01145,-12.975916,-7.9914737,-4.9187636
66,-2.0306448936462402,-50.4202766418457,75.27680969238281,-6.319937701462522,-2.93642852653764,-31.609752483037255,-8.570122,25.146833,-20.776009,57.612213,-5.915233,-2.2204468,-8.197685,-10.354184,-21.234488,28.55481,-10.6871805,6.1797233,1.0105728,0.007003819,12.791739,-4.8544335,17.95646,-12.345712,59.79239,-16.212238,6.179091,2.0503476,-6.9544363,-12.788312,33.824596,63.808697,-13.368733,-7.9648776,-5.0670924
67,-2.0784902572631836,-51.26692581176758,75.41372680664062,-6.558924017736463,-3.0549849190279175,-31.536403406929306,-10.439899,25.730183,-20.590477,60.43853,-4.771023,0.24942932,-7.2078266,-9.325813,-21.783176,27.71353,-10.904747,5.729485,1.160182,0.14555338,12.833899,-3.9356167,17.925655,-12.090633,60.151703,-16.372063,6.2372756,1.3705496,-7.1974854,-12.944062,34.705387,63.556717,-13.739048,-7.964832,-5.2215996
68,-2.129478931427002,-52.0894660949707,75.53711700439453,-6.7467482845520035,-3.1845913035951185,-31.5398983304081,-12.090808,26.283484,-20.27323,62.94265,-4.215473,2.280003,-6.2775097,-8.333421,-22.191362,26.891361,-11.090838,5.288977,1.3867688,0.26229557,12.879763,-3.0432968,17.874119,-11.88064,60.491177,-16.470423,6.287788,0.7627817,-7.413066,-13.137243,35.489372,63.287205,-14.080562,-8.000845,-5.3326693
69,-2.1785671710968018,-52.88425827026367,75.64895629882812,-6.871145923482503,-3.328369283057685,-31.629211024068233,-13.420211,26.765978,-19.829926,65.07118,-4.4476714,3.579636,-5.4210515,-7.399777,-22.440887,26.12571,-11.256996,4.8712554,1.7035016,0.35382837,12.925398,-2.1946225,17.796185,-11.743175,60.8368,-16.49456,6.326988,0.20860538,-7.6026278,-13.3692465,36.169662,63.011635,-14.406518,-8.099087,-5.4048204
70,-2.209683656692505,-53.659446716308594,75.7644271850586,-6.943032809827835,-3.481309601920251,-31.773408196143624,-14.5407295,27.164558,-19.290585,66.97527,-5.281161,4.419165,-4.598274,-6.5204988,-22.579248,25.373045,-11.397101,4.461181,2.083826,0.42976552,12.972077,-1.3931081,17.694582,-11.684242,61.18735,-16.446014,6.3284388,-0.32213384,-7.773003,-13.643251,36.770462,62.71596,-14.714933,-8.244509,-5.460091
71,-2.2270853519439697,-54.42252731323242,75.88662719726562,-6.963302881006398,-3.641347354719539,-31.973552492109405,-15.519126,27.44629,-18.674707,68.72674,-6.3809366,5.07031,-3.8023067,-5.6975946,-22.617758,24.632744,-11.517317,4.0577717,2.5181782,0.48369813,13.024855,-0.6080905,17.563967,-11.637122,61.495552,-16.347221,6.3159537,-0.75839424,-7.9185452,-13.951919,37.28607,62.403008,-14.982996,-8.39545,-5.4768276
72,-2.2443695068359375,-55.170230865478516,76.00265502929688,-6.93703128754142,-3.8062220302458942,-32.23094741305203,-16.425455,27.58997,-17.995554,70.387,-7.4157066,5.822947,-3.0248573,-4.926261,-22.56843,23.89342,-11.618483,3.65644,2.99404,0.5116189,13.086592,0.19253099,17.395525,-11.535165,61.713844,-16.220758,6.3164515,-1.0272131,-8.041381,-14.281672,37.714314,62.08788,-15.18674,-8.5096245,-5.434533
73,-2.256432056427002,-55.90032196044922,76.11984252929688,-6.8476250304730595,-3.981836689268287,-32.57254545062627,-17.247889,27.57291,-17.214237,71.97421,-8.35583,6.8026304,-2.2843795,-4.2222505,-22.401897,23.188972,-11.71098,3.2484832,3.525491,0.49906433,13.159543,1.0216527,17.18097,-11.364868,61.82776,-16.045721,6.352599,-1.0731575,-8.151531,-14.624501,38.04933,61.781433,-15.333771,-8.5753,-5.3117747
74,-2.25658917427063,-56.619529724121094,76.23670959472656,-6.699199173255847,-4.166134054820232,-32.9886933629368,-17.950516,27.402,-16.328592,73.4481,-9.347325,7.8258824,-1.5796919,-3.5864856,-22.128033,22.521162,-11.795029,2.838331,4.1079354,0.4546401,13.239827,1.8606111,16.920202,-11.157153,61.868076,-15.817794,6.404664,-0.94529974,-8.2562275,-14.978802,38.299694,61.49336,-15.432185,-8.615542,-5.12686
75,-2.2586774826049805,-57.3106575012207,76.34200286865234,-6.525433097741005,-4.345296630728277,-33.42544910799131,-18.575516,27.10791,-15.4052105,74.78273,-10.326073,8.732114,-0.8767973,-2.9892187,-21.816505,21.83376,-11.856151,2.438173,4.7015266,0.4069648,13.3207,2.696632,16.617256,-10.9079685,61.85434,-15.57974,6.435614,-0.72892994,-8.353858,-15.339258,38.482697,61.23916,-15.460708,-8.6405115,-4.919
76,-2.2540478706359863,-57.999603271484375,76.45175170898438,-6.360711642452048,-4.506587951206087,-33.82903403337516,-19.166992,26.725714,-14.507092,75.95031,-11.225445,9.365183,-0.14028123,-2.3986692,-21.535072,21.064434,-11.876298,2.0595427,5.2636933,0.38166502,13.393984,3.5203695,16.279015,-10.610512,61.804085,-15.374273,6.407724,-0.50983256,-8.448544,-15.698462,38.621017,61.041485,-15.39557,-8.66051,-4.7278867
77,-2.2387728691101074,-58.67978286743164,76.56217193603516,-6.208008920515882,-4.653813266927394,-34.197163939099994,-19.71847,26.252325,-13.633742,76.93888,-12.030226,9.637296,0.6459182,-1.8088555,-21.289286,20.189955,-11.848298,1.6975695,5.7932744,0.37704602,13.461326,4.3457522,15.90598,-10.244408,61.6992,-15.187078,6.3040795,-0.27034098,-8.54553,-16.049149,38.72083,60.923042,-15.199434,-8.67634,-4.552566
78,-2.225783109664917,-59.33877182006836,76.65943145751953,-6.052537927489873,-4.791456523821721,-34.55435057438067,-20.221577,25.673094,-12.750863,77.76158,-12.76527,9.648335,1.4597801,-1.2348249,-21.048573,19.246,-11.781786,1.3454468,6.3057504,0.37980247,13.524697,5.176095,15.496766,-9.817285,61.535145,-15.003586,6.147713,0.021338457,-8.6487875,-16.387598,38.77423,60.878723,-14.89503,-8.68263,-4.3769045
79,-2.209106922149658,-59.989356994628906,76.74974822998047,-5.900690507306739,-4.9087381574175435,-34.88653257904785,-20.72009,25.007145,-11.870687,78.43569,-13.428719,9.525297,2.2803488,-0.6741762,-20.823355,18.255775,-11.680962,1.0117366,6.7854934,0.39649037,13.575644,5.9869246,15.058853,-9.364893,61.34918,-14.867314,5.960272,0.30070916,-8.758129,-16.712862,38.77906,60.885853,-14.551717,-8.680506,-4.2175307
80,-2.190796375274658,-60.62321472167969,76.83479309082031,-5.75913168833497,-4.994605621270288,-35.180338997604345,-21.254354,24.273176,-11.005659,78.97668,-14.019558,9.394032,3.08351,-0.1265155,-20.624762,17.249664,-11.55326,0.7071917,7.2186465,0.4313133,13.607023,6.7550616,14.604773,-8.925312,61.17596,-14.824621,5.763169,0.5016309,-8.871061,-17.02572,38.731174,60.916508,-14.2386675,-8.671941,-4.090672
81,-2.1686038970947266,-61.24745559692383,76.91795349121094,-5.629510686288294,-5.04077429529356,-35.42224923055068,-21.853357,23.453865,-10.175415,79.38906,-14.515118,9.264557,3.86677,0.40880728,-20.465797,16.216463,-11.38945,0.4415302,7.596467,0.48001483,13.613503,7.484441,14.141945,-8.491107,61.003498,-14.905325,5.545803,0.6059164,-8.9816675,-17.326508,38.61605,60.96289,-13.9619875,-8.659231,-4.0020013
82,-2.1399435997009277,-61.858238220214844,76.9880142211914,-5.508633936755682,-5.055222388924337,-35.62311271845827,-22.492805,22.54655,-9.3636,79.65844,-14.91945,9.078216,4.6447706,0.932155,-20.337406,15.138126,-11.185677,0.20736448,7.931024,0.53631717,13.601462,8.186085,13.670808,-8.051006,60.816082,-15.082035,5.302671,0.64590013,-9.089492,-17.614305,38.43659,61.034847,-13.689463,-8.641323,-3.9419346
83,-2.1245431900024414,-62.46605682373047,77.0511703491211,-5.3893137443682635,-5.051578710059542,-35.80566269686352,-23.132292,21.592232,-8.531813,79.7742,-15.273745,8.855519,5.414332,1.4423044,-20.216986,14.04426,-10.964284,-0.009031361,8.240091,0.6010773,13.580666,8.850218,13.194156,-7.6330295,60.638847,-15.313213,5.063975,0.63180906,-9.201191,-17.889366,38.215763,61.131912,-13.4319725,-8.615394,-3.9034805
84,-2.097381830215454,-63.056278228759766,77.10398864746094,-5.268100128598044,-5.04331750034563,-35.99251620458198,-23.730585,20.63109,-7.643699,79.7264,-15.619106,8.617048,6.1785355,1.9394176,-20.081879,12.952396,-10.7452965,-0.2216477,8.541919,0.67523164,13.561168,9.465268,12.716071,-7.2654076,60.50009,-15.557331,4.858166,0.5737099,-9.321311,-18.152943,37.973972,61.2515,-13.20241,-8.578521,-3.8796258
85,-2.067126750946045,-63.630950927734375,77.14225006103516,-5.142572736378269,-5.029718444238362,-36.18200788131093,-24.292187,19.647087,-6.707344,79.51102,-15.9707365,8.352074,6.9440384,2.4232094,-19.931398,11.84497,-10.525726,-0.43280473,8.83573,0.7593901,13.54398,10.029986,12.239018,-6.9549704,60.397808,-15.846515,4.6932144,0.450313,-9.450747,-18.406326,37.706985,61.397346,-13.024275,-8.523046,-3.8862891
86,-2.036754846572876,-64.20870208740234,77.1792221069336,-5.014747793358315,-5.004891125861656,-36.365282982600654,-24.836058,18.627714,-5.737877,79.128006,-16.30293,8.0551195,7.704226,2.8915422,-19.775694,10.726707,-10.299641,-0.6352946,9.115738,0.85131943,13.524806,10.549791,11.763415,-6.687193,60.32,-16.189249,4.5546575,0.26343825,-9.583542,-18.649109,37.403816,61.564877,-12.885308,-8.452926,-3.920981
87,-1.9944443702697754,-64.78236389160156,77.20079040527344,-4.886139920422855,-4.974178364067805,-36.553837378672,-25.342201,17.617188,-4.7121024,78.578186,-16.598505,7.7549744,8.4467535,3.3443036,-19.609814,9.637215,-10.084097,-0.8303619,9.39134,0.94780725,13.505131,11.026083,11.290879,-6.4573984,60.273273,-16.509832,4.440039,0.05963348,-9.72172,-18.881588,37.082108,61.745132,-12.739455,-8.383108,-3.949222
88,-1.952632188796997,-65.3519058227539,77.21434020996094,-4.759101063983779,-4.942705082912882,-36.75903415397943,-25.78936,16.658625,-3.6082811,77.86269,-16.840263,7.47926,9.158285,3.78161,-19.429062,8.616971,-9.894943,-1.0203094,9.671811,1.0469892,13.487033,11.460068,10.8231,-6.260673,60.2633,-16.732035,4.345953,-0.11432597,-9.863157,-19.1026,36.757042,61.924583,-12.542413,-8.328261,-3.9364974
89,-1.91135573387146,-65.91229248046875,77.21710968017578,-4.6351030499377055,-4.9165110604629625,-36.9856232167878,-26.172121,15.75834,-2.423029,76.97702,-17.018177,7.2446017,9.8470745,4.2046065,-19.231512,7.6608105,-9.726182,-1.2028444,9.958714,1.1511054,13.475993,11.853225,10.35984,-6.097355,60.291435,-16.83333,4.272314,-0.25512415,-10.010249,-19.310656,36.41768,62.102734,-12.275256,-8.291998,-3.86071
90,-1.8773818016052246,-66.46821594238281,77.20894622802734,-4.513818383406908,-4.89125668820414,-37.22694258041667,-26.501122,14.89271,-1.1723354,75.92032,-17.142933,7.0310817,10.368198,4.55999,-19.031898,7.082162,-9.745445,-1.3772242,10.247173,1.2613453,13.469195,12.2039175,9.901305,-5.9675107,60.356274,-16.854918,4.218776,-0.38435027,-10.163625,-19.505138,36.0614,62.28636,-11.963692,-8.266123,-3.7449062
91,-1.8389652967453003,-67.02345275878906,77.18846893310547,-4.396560073115289,-4.856332778855137,-37.47640117561737,-26.778315,14.059022,0.1350185,74.69945,-17.229542,6.8101616,10.653492,4.8334675,-18.840939,7.009694,-10.025346,-1.5509068,10.534966,1.3740456,13.455535,12.51429,9.450136,-5.865108,60.44832,-16.816137,4.187138,-0.4912735,-10.321052,-19.686865,35.715614,62.476685,-11.631723,-8.247779,-3.6220777
92,-1.7887372970581055,-67.57557678222656,77.16522979736328,-4.284628458589271,-4.801318208580765,-37.72715468077723,-27.004581,13.254546,1.4902656,73.31895,-17.291636,6.5539403,10.914078,5.1109705,-18.646322,6.9473624,-10.309466,-1.735349,10.819655,1.484526,13.425051,12.782568,9.009095,-5.782531,60.56912,-16.73637,4.172154,-0.5678147,-10.481172,-19.85694,35.410347,62.673233,-11.3000145,-8.234504,-3.5252483
93,-1.7402215003967285,-68.12541198730469,77.12825775146484,-4.174431753156548,-4.719418067644686,-37.97910226990139,-27.18999,12.484869,2.9009924,71.76979,-17.34255,6.244279,11.141246,5.389404,-18.447386,6.8974395,-10.602397,-1.9289851,11.104131,1.5869012,13.373176,13.006794,8.577412,-5.715194,60.719437,-16.592966,4.179944,-0.60040265,-10.6430235,-20.016207,35.147545,62.878235,-10.94912,-8.228713,-3.4586437
94,-1.7052048444747925,-68.67407989501953,77.07650756835938,-4.0661332221896,-4.618395188841523,-38.23497419716027,-27.329144,11.744186,4.366255,70.051544,-17.371532,5.8979735,11.342287,5.6674533,-18.243114,6.861042,-10.898522,-2.1284568,11.388373,1.6845527,13.307649,13.189163,8.154038,-5.666021,60.896664,-16.384073,4.211294,-0.59730756,-10.806241,-20.16377,34.913998,63.087906,-10.574354,-8.230845,-3.405987
95,-1.6610668897628784,-69.22347259521484,77.01592254638672,-3.9654248912263332,-4.508891975288357,-38.49314068861013,-27.405296,11.013465,5.865104,68.18429,-17.35841,5.542854,11.531125,5.9504533,-18.034742,6.837661,-11.199663,-2.3372872,11.664398,1.7831624,13.235342,13.33355,7.7431827,-5.6378536,61.099384,-16.161928,4.2513967,-0.5831227,-10.974367,-20.29976,34.715275,63.299725,-10.225451,-8.235866,-3.3697004
96,-1.6139934062957764,-69.76458740234375,76.94913482666016,-3.877662074100282,-4.401362100648829,-38.75177588652017,-27.4026,10.274899,7.374524,66.183754,-17.28172,5.208809,11.723897,6.244604,-17.822985,6.8204684,-11.502588,-2.559199,11.925626,1.8885323,13.163521,13.444068,7.3509636,-5.6356087,61.32459,-15.980026,4.2867637,-0.58306587,-11.147064,-20.422699,34.55695,63.50515,-9.948917,-8.2386,-3.3518763
97,-1.5694187879562378,-70.30786895751953,76.88031005859375,-3.8054346679382447,-4.296777609974337,-39.014163757780665,-27.333796,9.545718,8.899364,64.06004,-17.141253,4.970044,11.917363,6.553065,-17.601492,6.814221,-11.809609,-2.8048403,12.1762,2.0016906,13.0922985,13.519668,6.979605,-5.663368,61.576965,-15.85656,4.3108683,-0.5931351,-11.326849,-20.532007,34.4428,63.707546,-9.766649,-8.2415085,-3.3664117
98,-1.5157309770584106,-70.85205078125,76.803466796875,-3.748411773847418,-4.190126217265251,-39.27904922566686,-27.204851,8.828436,10.440667,61.8003,-16.947582,4.791005,12.106364,6.874753,-17.37134,6.8203907,-12.122073,-3.0686584,12.418225,2.1207592,13.017877,13.559636,6.6287546,-5.7179637,61.855255,-15.762831,4.332215,-0.6040127,-11.511188,-20.627285,34.367138,63.90673,-9.651057,-8.245602,-3.4075987
99,-1.4676525592803955,-71.39038848876953,76.71885681152344,-3.7025628565075195,-4.083374025376458,-39.539802004529484,-26.995005,8.083999,11.970458,59.386757,-16.696646,4.541066,12.296163,7.2034593,-17.144676,6.8375177,-12.437708,-3.330622,12.642789,2.2426524,12.942559,13.568732,6.301753,-5.791528,62.147026,-15.6798935,4.3598657,-0.6332636,-11.695581,-20.707352,34.32143,64.09763,-9.575441,-8.246918,-3.4487088
100,-1.4217255115509033,-71.93701171875,76.62853240966797,-3.665600932850948,-3.97875880784367,-39.78984516515817,-26.685236,7.2753677,13.45814,56.79771,-16.383797,4.0921836,12.49242,7.535548,-16.933697,6.86717,-12.757391,-3.5714967,12.8418,2.3644657,12.868152,13.553032,6.0036983,-5.8754754,62.43932,-15.588471,4.4027576,-0.6989642,-11.873416,-20.770504,34.295544,64.270424,-9.514768,-8.238166,-3.4624958
101,-1.356284260749817,-72.48245239257812,76.53394317626953,-3.634171014461808,-3.877770968235664,-40.025334040862305,-26.267899,6.383356,14.881658,53.981174,-16.019245,3.42856,12.696959,7.869809,-16.742643,6.903463,-13.083492,-3.784781,13.01351,2.482668,12.799084,13.5092945,5.738109,-5.9709263,62.73611,-15.480821,4.4658785,-0.81789976,-12.044283,-20.81552,34.289482,64.42383,-9.458971,-8.212107,-3.4375935
102,-1.306704044342041,-73.02754974365234,76.4363021850586,-3.607422225878323,-3.78051391558036,-40.25289071917676,-25.755432,5.4313164,16.25724,50.948936,-15.602799,2.6240761,12.903794,8.206447,-16.562466,6.955141,-13.41847,-3.9818664,13.16588,2.5959108,12.734947,13.436675,5.505067,-6.08176,63.0409,-15.368649,4.5437064,-0.97739744,-12.209641,-20.841547,34.30595,64.56106,-9.422921,-8.173858,-3.3897767
103,-1.2515661716461182,-73.58577728271484,76.32754516601562,-3.594110099327992,-3.6853319646479843,-40.480729329374725,-25.155148,4.449578,17.605658,47.75869,-15.101348,1.6855638,13.11811,8.556161,-16.384602,7.010796,-13.742465,-4.1703324,13.304223,2.710935,12.666721,13.345206,5.3040743,-6.204182,63.339687,-15.262503,4.630256,-1.1510837,-12.368166,-20.84808,34.34051,64.68358,-9.417143,-8.136325,-3.332936
104,-1.1939150094985962,-74.1509017944336,76.21265411376953,-3.6017252094328978,-3.5910609856265925,-40.71776928842945,-24.474167,3.4651382,18.949923,44.466843,-14.486952,0.61840576,13.341935,8.926766,-16.200493,7.0670586,-14.038749,-4.357461,13.434092,2.833745,12.5859585,13.244905,5.134052,-6.3342323,63.61821,-15.172448,4.7194552,-1.312638,-12.516429,-20.834301,34.38641,64.79073,-9.454202,-8.112104,-3.2807872
105,-1.127522587776184,-74.71514892578125,76.0886459350586,-3.6324333634684924,-3.502919826046628,-40.97509444252346,-23.680656,2.4787483,20.33515,41.018555,-13.720665,-0.6123499,13.581219,9.324171,-16.001966,7.121665,-14.315855,-4.540797,13.562578,2.9655879,12.495878,13.138179,4.9947987,-6.4705577,63.87699,-15.114953,4.8133235,-1.4626257,-12.653619,-20.797892,34.449196,64.88198,-9.540783,-8.100133,-3.24181
106,-1.067352533340454,-75.2783432006836,75.95893096923828,-3.6886347722012593,-3.421803063863574,-41.24912123651171,-22.772808,1.4778337,21.725878,37.369114,-12.822828,-1.9876857,13.831977,9.75312,-15.791811,7.177841,-14.576299,-4.7184014,13.68767,3.1100335,12.398165,13.02004,4.886292,-6.61475,64.12519,-15.079969,4.9118314,-1.612701,-12.783303,-20.738348,34.53093,64.96134,-9.670034,-8.095437,-3.207173
107,-0.9980572462081909,-75.85311126708984,75.8243637084961,-3.778355643861983,-3.3391323551114986,-41.52671049158562,-21.800377,0.47235194,23.030064,33.598003,-11.853491,-3.426251,14.086757,10.219916,-15.576696,7.234046,-14.800521,-4.8979344,13.810938,3.273524,12.286966,12.891712,4.821953,-6.772306,64.34452,-15.039814,5.0150867,-1.758259,-12.885868,-20.674944,34.611626,65.000435,-9.826132,-8.105996,-3.1611273
108,-0.9308541417121887,-76.43030548095703,75.68160247802734,-3.9094682382119785,-3.247099347171786,-41.79551032237562,-20.8133,-0.5230303,24.163795,29.802282,-10.875886,-4.849452,14.33695,10.729585,-15.36228,7.29286,-14.970638,-5.0869718,13.914109,3.4784982,12.140935,12.749683,4.7662697,-6.9415026,64.55081,-14.96105,5.1098394,-1.8736106,-13.003249,-20.57843,34.696507,65.06573,-10.006014,-8.136342,-3.0983868
109,-0.8547019362449646,-77.01158905029297,75.53001403808594,-4.0959811991287,-3.148546263783879,-42.061624416332705,-19.7569,-1.5276222,25.157232,25.882263,-9.855328,-6.3605623,14.589252,11.298491,-15.14528,7.352007,-15.091005,-5.2906117,14.008525,3.7324433,11.963042,12.599296,4.743135,-7.126348,64.72949,-14.831234,5.205137,-1.9774532,-13.103672,-20.476818,34.78566,65.10805,-10.200227,-8.20167,-2.9994752
110,-0.7744577527046204,-77.59907531738281,75.36468505859375,-4.358184600616951,-3.0514967941789957,-42.342209777883696,-18.609827,-2.5045376,26.035965,21.810059,-8.776671,-7.955688,14.851428,11.952988,-14.907345,7.4106703,-15.167368,-5.5081506,14.110919,4.0618687,11.761311,12.436968,4.746434,-7.3238826,64.88173,-14.664193,5.3019004,-2.073685,-13.163395,-20.402985,34.87695,65.08503,-10.410586,-8.293028,-2.868523
111,-0.6956008076667786,-78.18492126464844,75.19769287109375,-4.701914105898405,-2.953359417686554,-42.63383233920166,-17.485327,-3.3488765,26.724669,17.857086,-7.744376,-9.410967,15.117923,12.699188,-14.639192,7.462234,-15.176157,-5.735446,14.224757,4.473667,11.527886,12.261039,4.7668314,-7.5377603,65.01275,-14.486183,5.3865585,-2.1369236,-13.2131405,-20.319836,34.953472,65.04897,-10.642363,-8.384824,-2.735242
112,-0.6061099767684937,-78.77124786376953,75.02843475341797,-5.104126638863282,-2.84653147143918,-42.917264028848265,-16.499094,-3.9956198,27.159552,14.310681,-6.849448,-10.513564,15.378924,13.507754,-14.350611,7.502573,-15.097388,-5.96071,14.333961,4.9392314,11.273193,12.062386,4.8060646,-7.751607,65.1208,-14.314105,5.448033,-2.1530254,-13.260266,-20.225168,34.997818,64.996605,-10.89391,-8.449857,-2.6224656
113,-0.5222664475440979,-79.35457611083984,74.86236572265625,-5.536529503057674,-2.7124270373297894,-43.156439666117315,-15.687646,-4.4943814,27.249134,11.210189,-6.0852547,-11.17787,15.605968,14.342,-14.078465,7.5433083,-14.930868,-6.170717,14.403894,5.428975,10.99532,11.825929,4.8671446,-7.967748,65.20921,-14.139478,5.490694,-2.1266785,-13.307593,-20.116304,34.99171,64.92091,-11.196802,-8.472653,-2.5291972
114,-0.4353499412536621,-79.9380874633789,74.70420837402344,-5.980591240365238,-2.5538593682481308,-43.346691623878264,-14.926935,-4.9385405,27.061909,8.302238,-5.33041,-11.54073,15.803083,15.180492,-13.836098,7.5887246,-14.68931,-6.3628087,14.432202,5.9169974,10.699179,11.555264,4.963338,-8.19279,65.27757,-13.96023,5.5195007,-2.0660203,-13.354631,-19.981781,34.939358,64.83152,-11.547281,-8.470428,-2.447776
115,-0.35937920212745667,-80.51924896240234,74.55017852783203,-6.4020350261827454,-2.389802958607995,-43.50655765218754,-14.993509,-4.8907065,26.850939,7.552711,-5.61291,-11.746724,15.987859,15.98331,-13.614472,7.653067,-14.398019,-6.5353007,14.4237585,6.38481,10.419269,11.255977,5.0600977,-8.394628,65.33011,-13.784172,5.5198574,-1.9556462,-13.381014,-19.874058,34.88912,64.68881,-11.864461,-8.463005,-2.3831913
116,-0.28195303678512573,-81.1073989868164,74.40672302246094,-6.772769280834171,-2.2391967384592033,-43.65989708020531,-15.212456,-4.6796694,26.758677,7.473675,-6.1489367,-11.912842,15.827501,16.630608,-13.499362,8.483919,-14.460133,-6.6800947,14.421501,6.7849164,10.170111,10.947136,5.187083,-8.584017,65.359924,-13.64564,5.4832635,-1.7861372,-13.387874,-19.759947,34.842396,64.526436,-12.095639,-8.471995,-2.3512394
117,-0.20242661237716675,-81.7066421508789,74.27772521972656,-7.0830666667668085,-2.101666178154108,-43.79514397420588,-15.29598,-4.444689,26.86712,7.434557,-6.602349,-12.034068,15.614754,17.189312,-13.430959,9.459235,-14.544592,-6.8034377,14.417706,7.092301,9.958922,10.634604,5.3683305,-8.757995,65.355354,-13.558948,5.3989434,-1.5444168,-13.384759,-19.61964,34.80165,64.34525,-12.212521,-8.506564,-2.366448
118,-0.12965883314609528,-82.3137435913086,74.1580810546875,-7.334329278890119,-1.963438036485503,-43.90244990282302,-15.27576,-4.2172832,27.062363,7.424564,-6.969025,-12.061587,15.334761,17.663485,-13.418079,10.571483,-14.643991,-6.899697,14.385863,7.3291597,9.775859,10.304117,5.566147,-8.907888,65.331604,-13.498836,5.271993,-1.2344753,-13.3703375,-19.48345,34.773987,64.129524,-12.245733,-8.55231,-2.416609
119,-0.04954177513718605,-82.93030548095703,74.05508422851562,-7.520411835765721,-1.8245709852826033,-44.012636040375995,-15.181095,-4.0174294,27.208452,7.430853,-7.2527156,-12.047356,15.029697,18.059862,-13.415568,11.7336035,-14.725559,-6.9664116,14.350088,7.4930997,9.609922,9.966776,5.773258,-9.036698,65.28846,-13.451321,5.1255355,-0.89042586,-13.334693,-19.35464,34.76037,63.898438,-12.232106,-8.600245,-2.4796033
120,0.03571641445159912,-83.56484985351562,73.96391296386719,-7.636226254166464,-1.6855439707634359,-44.15523392444334,-15.040889,-3.86264,27.167318,7.44155,-7.4559956,-12.03964,14.737703,18.383024,-13.379235,12.875041,-14.765141,-7.0032496,14.338015,7.5558376,9.449997,9.650228,6.0283623,-9.150237,65.202065,-13.412513,4.9884315,-0.5585175,-13.278115,-19.200867,34.755016,63.690773,-12.210642,-8.645407,-2.5366278
121,0.12121403217315674,-84.21712493896484,73.8816146850586,-7.7020310586174014,-1.5579032645148965,-44.36158632236691,-14.816584,-3.7201805,26.852081,7.4535427,-7.5434012,-12.29102,14.519881,18.669088,-13.2566595,13.914101,-14.736317,-7.027984,14.371979,7.5441747,9.294444,9.359422,6.313849,-9.237029,65.074425,-13.370565,4.858688,-0.22103895,-13.19861,-19.026308,34.76657,63.501667,-12.167717,-8.686629,-2.5861173
122,0.1948944479227066,-84.87377166748047,73.80718231201172,-7.71077312247049,-1.4377677518911285,-44.61031472082135,-14.507739,-3.591946,26.3573,7.4742174,-7.5282283,-12.693789,14.340178,18.900106,-13.080113,14.915601,-14.662236,-7.0367126,14.434859,7.449967,9.148176,9.087097,6.6324368,-9.299773,64.90884,-13.333905,4.7258945,0.13318573,-13.105046,-18.827057,34.794178,63.33177,-12.091749,-8.728584,-2.6389194
123,0.2892760634422302,-85.5533447265625,73.74879455566406,-7.618475988084107,-1.303678023425202,-44.85231012076191,-14.198972,-3.551357,25.81471,7.506052,-7.483485,-12.755559,14.095708,19.001863,-12.929997,16.024889,-14.592367,-6.9978037,14.476539,7.2317653,9.010992,8.821744,6.9837065,-9.346728,64.7182,-13.312112,4.5971527,0.46644148,-13.010935,-18.601635,34.841484,63.204247,-12.019895,-8.763809,-2.6903207
124,0.384375661611557,-86.25344848632812,73.70403289794922,-7.379436349816219,-1.1338041464590438,-45.04178080317801,-13.976519,-3.6777842,25.356699,7.5464587,-7.470773,-11.981591,13.689572,18.900106,-12.879109,17.374544,-14.572534,-6.8786435,14.450067,6.8475184,8.882351,8.5516,7.365282,-9.383938,64.51454,-13.313367,4.47955,0.74103254,-12.928274,-18.350067,34.910545,63.139767,-11.990789,-8.784655,-2.7352803
125,0.47486141324043274,-86.97540283203125,73.6797866821289,-6.9259571543482,-0.8933584647355803,-45.18407680147243,-13.904267,-4.0539775,25.032555,7.5958076,-7.530572,-9.8951645,13.070814,18.512405,-12.9432125,19.024862,-14.686137,-6.6856127,14.35174,6.224297,8.741326,8.283923,7.777624,-9.395615,64.278435,-13.323281,4.389068,0.9365684,-12.863317,-18.07018,35.01615,63.15302,-12.017769,-8.787655,-2.7695973
126,0.5847881436347961,-87.6653823852539,73.6956558227539,-6.289051513727299,-0.6009030654492852,-45.30450572873326,-14.346813,-4.438765,24.807642,8.612511,-8.079763,-6.86958,12.315933,17.887291,-13.057437,20.872967,-14.874358,-6.429698,14.20864,5.3916607,8.593199,8.024371,8.221729,-9.380507,64.008415,-13.341535,4.317225,1.076786,-12.811171,-17.759548,35.15377,63.232296,-12.07998,-8.777209,-2.7969208
127,0.6960752010345459,-88.34334564208984,73.73726654052734,-5.57723814663866,-0.31625040454678455,-45.388344150297904,-15.25063,-4.6905327,24.657614,10.673909,-9.068045,-3.6870368,11.520057,17.156652,-13.17491,22.80513,-14.961064,-6.0831914,14.023622,4.4702816,8.474125,7.7545466,8.695855,-9.374097,63.746044,-13.403208,4.23448,1.1914049,-12.768551,-17.421846,35.300217,63.358265,-12.159674,-8.756457,-2.8234046
128,0.8115150928497314,-89.0224609375,73.78781127929688,-4.911707908931904,-0.10370705530654613,-45.42083021204365,-15.9336815,-4.9408574,24.492744,12.433797,-9.766831,-1.1269485,10.775067,16.469097,-13.260007,24.712893,-14.7741785,-5.6179137,13.802218,3.5967882,8.422632,7.449876,9.195518,-9.413068,63.540432,-13.540749,4.1070037,1.3087186,-12.725721,-17.064972,35.42599,63.50719,-12.241209,-8.732232,-2.8551195
129,0.9264090061187744,-89.71273040771484,73.85570526123047,-4.305001199681819,0.018264894100870552,-45.38209729572778,-16.408096,-5.1391225,24.284618,14.002505,-10.227844,0.583432,10.074027,15.836604,-13.368549,26.647167,-14.305041,-5.1146746,13.531762,2.7866557,8.459041,7.0950165,9.7276535,-9.5218525,63.393993,-13.808497,3.9118822,1.4257122,-12.67554,-16.693316,35.522743,63.671635,-12.330521,-8.7026825,-2.906108
130,1.0319600105285645,-90.4019775390625,73.93630981445312,-3.705746297315809,0.08163157147686834,-45.2852767267203,-16.777395,-5.3045382,24.055939,15.522858,-10.589627,1.8771732,9.385285,15.200981,-13.491426,28.626802,-13.628468,-4.556175,13.22035,1.9806454,8.558466,6.6990986,10.293174,-9.68209,63.285004,-14.174615,3.6708949,1.5283568,-12.616784,-16.308884,35.59981,63.8524,-12.432358,-8.665704,-2.9676752
131,1.122051477432251,-91.09578704833984,74.03160095214844,-3.137244028726523,0.09679058203195053,-45.161525336481915,-17.016052,-5.4363365,23.814032,16.907251,-10.900629,2.9532866,8.743808,14.609518,-13.510074,30.52984,-12.722193,-3.76019,12.896402,1.2063287,8.693581,6.275693,10.871956,-9.867504,63.223743,-14.545524,3.4219818,1.6331025,-12.550342,-15.921105,35.658703,64.03753,-12.530879,-8.621662,-3.0117962
132,1.2069447040557861,-91.78063201904297,74.13494110107422,-2.626424952652139,0.0743020520754724,-45.040258998202866,-17.100521,-5.549493,23.569468,18.053223,-11.182003,3.992036,8.180183,14.123105,-13.305081,32.24142,-11.575898,-2.5366044,12.585112,0.50161695,8.83861,5.8376336,11.433291,-10.049743,63.22602,-14.824285,3.201888,1.7604454,-12.476705,-15.545223,35.705185,64.219215,-12.60729,-8.574266,-3.0110161
133,1.299749732017517,-92.45683288574219,74.23978424072266,-2.1890359865765956,-0.00036262196700336273,-44.89854637813277,-17.005182,-5.6680064,23.299358,18.919346,-11.398815,5.0166836,7.690962,13.78301,-12.863613,33.781757,-10.171026,-0.86007375,12.268195,-0.10301076,9.00856,5.370026,11.960605,-10.241575,63.33636,-14.997793,2.9894018,1.9259278,-12.380845,-15.192597,35.72181,64.38809,-12.657484,-8.512354,-2.9542274
134,1.394814133644104,-93.12620544433594,74.35523223876953,-1.8090182656088905,-0.12690152647800787,-44.72728072714768,-16.761547,-5.7820096,23.005045,19.588305,-11.541078,5.9308615,7.250295,13.579026,-12.230385,35.220642,-8.567255,1.2062439,11.936714,-0.6229749,9.211187,4.8635945,12.453453,-10.454938,63.546047,-15.109937,2.7730303,2.1201448,-12.261463,-14.868604,35.713516,64.543816,-12.689692,-8.438253,-2.8570125
135,1.4974429607391357,-93.77922821044922,74.46835327148438,-1.469856983621007,-0.2731076819726051,-44.57617133835515,-16.432198,-5.8756585,22.73552,20.126389,-11.655753,6.7284236,6.854682,13.506469,-11.368798,36.527843,-6.884674,3.7220137,11.625175,-1.0823317,9.409617,4.3456297,12.904943,-10.653428,63.789825,-15.146082,2.6046662,2.3274045,-12.136934,-14.581172,35.7221,64.682045,-12.703905,-8.367342,-2.7302146
136,1.612980842590332,-94.4332275390625,74.58232879638672,-1.1560694112622063,-0.40637224419018264,-44.493882770501855,-16.076595,-5.9214272,22.534945,20.600489,-11.800913,7.403921,6.5001073,13.5551405,-10.244204,37.683666,-5.2444,6.7402444,11.363173,-1.5010222,9.567329,3.843949,13.304344,-10.793849,64.00449,-15.09003,2.5342493,2.53239,-12.027259,-14.339151,35.79625,64.79881,-12.696012,-8.315018,-2.5847049
137,1.734286904335022,-95.07869720458984,74.69539642333984,-0.8595461290088059,-0.5286890466269438,-44.513600136320015,-15.69312,-5.9054523,22.436073,21.02793,-12.007297,7.9452887,6.231721,13.808769,-8.639903,38.614784,-3.5554955,10.660438,11.173394,-1.8816639,9.677792,3.3730218,13.641086,-10.845741,64.18505,-14.895603,2.6089256,2.7383292,-11.928134,-14.151147,35.962486,64.88932,-12.642906,-8.284158,-2.3918164
138,1.8559329509735107,-95.71136474609375,74.80358123779297,-0.5993235225164514,-0.6544433763927783,-44.59862924168792,-15.263639,-5.8257217,22.397589,21.40065,-12.255168,8.355166,6.042749,14.281533,-6.699052,39.409527,-1.9133227,15.000033,11.025864,-2.200332,9.761332,2.913536,13.9132805,-10.832525,64.36814,-14.581669,2.7893045,2.951917,-11.829696,-14.020705,36.19705,64.95185,-12.549381,-8.266156,-2.1555264
139,1.9206467866897583,-96.38867950439453,74.89861297607422,-0.7768559091259938,-0.6679864954744007,-44.862430251990716,-15.404763,-4.9365916,22.346067,22.831133,-13.055143,8.523937,5.8941817,15.035566,-5.8794146,39.850903,-0.20651332,15.000033,11.036709,-2.1027994,9.654821,2.422156,14.111266,-10.804909,64.56484,-14.230657,2.9992056,3.1712072,-11.730821,-13.959651,36.454464,64.97508,-12.464413,-8.257171,-1.9343451
140,1.977047324180603,-97.0445556640625,74.98758697509766,-1.0157897182429152,-0.6668743607818461,-45.07517915601416,-15.495831,-4.04622,22.225327,24.100185,-13.797479,8.616415,5.595347,15.542129,-5.5155983,40.571743,1.0285238,15.000033,10.984355,-1.9331908,9.54005,1.936769,14.300712,-10.773424,64.69638,-13.935032,3.1757677,3.3715444,-11.668032,-13.926038,36.72424,64.984276,-12.43069,-8.259655,-1.7896
141,2.0574333667755127,-97.67440795898438,75.0831527709961,-1.2246344853087687,-0.6440615514860834,-45.221685689856386,-15.457537,-3.3056803,22.071026,24.993553,-14.381215,8.65993,5.090601,15.770173,-5.4789886,41.643616,1.7894145,15.000033,10.865644,-1.7583537,9.427452,1.4234338,14.4456835,-10.765432,64.79255,-13.703884,3.3123102,3.5734422,-11.644726,-13.94349,37.02225,64.98023,-12.474612,-8.283127,-1.7445837
142,2.133117437362671,-98.27809143066406,75.1907730102539,-1.4255483178226687,-0.5978729931067457,-45.341753396850315,-15.3384285,-2.640693,21.913086,25.631098,-14.875243,8.631411,4.4387884,15.810864,-5.641303,42.926422,2.2455692,15.000033,10.713074,-1.5628023,9.303799,0.89460176,14.545206,-10.754763,64.85784,-13.495113,3.4415984,3.7770064,-11.654857,-14.011077,37.356995,64.96074,-12.56673,-8.324636,-1.7649894
143,2.2227981090545654,-98.86640930175781,75.31851959228516,-1.5874047829326798,-0.5541343826324725,-45.39674934625887,-15.09621,-2.1095629,21.726143,25.968933,-15.240621,8.541329,3.6632078,15.523398,-6.100119,44.424416,2.348647,15.000033,10.508863,-1.3833846,9.206778,0.35170034,14.613301,-10.750199,64.89148,-13.319529,3.541536,3.9625123,-11.656655,-14.12528,37.639088,64.89525,-12.682419,-8.363297,-1.8206993
144,2.3240013122558594,-99.44268035888672,75.47731018066406,-1.6782902362995147,-0.5398953414689271,-45.344738449205245,-14.680931,-1.7721617,21.48143,25.954924,-15.434493,8.401134,2.8016944,14.762678,-6.9349732,46.13124,2.0444655,15.000033,10.2398205,-1.2560766,9.166549,-0.21784249,14.654218,-10.776809,64.914635,-13.19075,3.5881693,4.1167636,-11.622475,-14.258922,37.767673,64.79479,-12.805066,-8.381981,-1.8860928
145,2.443948268890381,-99.99193572998047,75.63984680175781,-1.649186311766824,-0.569690893223451,-45.142992427954155,-14.016131,-1.7325531,21.161015,25.446016,-15.389737,8.198569,1.8630599,13.367051,-8.197716,48.146935,1.0911163,15.000033,9.876325,-1.2319891,9.212599,-0.8179059,14.682005,-10.84563,64.9239,-13.131432,3.5601976,4.2254167,-11.527193,-14.426523,37.71313,64.61267,-12.960895,-8.374077,-1.9661057
146,2.575124502182007,-100.52205657958984,75.8077392578125,-1.5094625693538022,-0.6385697714586918,-44.80552759531557,-13.121654,-1.9628323,20.772125,24.482386,-15.132471,7.9394755,0.90977335,11.421054,-9.744897,50.403214,-0.446846,15.000033,9.420973,-1.3038367,9.329358,-1.443148,14.694571,-10.947821,64.91583,-13.12996,3.4753475,4.3001633,-11.401653,-14.612344,37.525448,64.38789,-13.152155,-8.3509035,-2.0733314
147,2.7092652320861816,-101.04927062988281,75.98013305664062,-1.3222380119988728,-0.7444141232636973,-44.37695140192456,-12.091184,-2.3212419,20.321093,23.28134,-14.757075,7.6617856,0.05071889,9.167483,-11.381952,52.645878,-2.1687057,15.000033,8.909755,-1.4143372,9.496535,-2.0788674,14.692734,-11.074579,64.87718,-13.1522455,3.372124,4.354012,-11.242225,-14.809693,37.221024,64.14384,-13.318961,-8.314576,-2.181487
148,2.844036817550659,-101.58042907714844,76.1482162475586,-1.161003800795755,-0.8732691439392938,-43.91614451290314,-11.048409,-2.642859,19.829111,22.097372,-14.376774,7.3997345,-0.66056263,6.883944,-12.944125,54.632797,-3.644519,15.000033,8.393019,-1.4976195,9.682526,-2.7113283,14.675922,-11.216981,64.79626,-13.161107,3.2890286,4.4005795,-11.049589,-15.00935,36.816807,63.908504,-13.3981285,-8.267947,-2.2647486
149,2.9661080837249756,-102.10248565673828,76.31396484375,-1.0386796186405483,-1.026875889919769,-43.42521308583271,-10.002336,-2.9061878,19.291056,20.956205,-14.001124,7.1632457,-1.2306529,4.566396,-14.487395,56.366405,-4.766339,15.000033,7.8724217,-1.5436645,9.884717,-3.3387678,14.641892,-11.376269,64.67713,-13.165744,3.2322435,4.4459357,-10.821178,-15.201627,36.28627,63.689907,-13.382009,-8.2024,-2.3162792
150,3.091883897781372,-102.62650299072266,76.4847183227539,-0.9200105155846163,-1.2179947784796574,-42.868491640624214,-8.884647,-3.1889281,18.686695,19.732124,-13.574344,6.933475,-1.661253,2.0996032,-16.093088,57.965977,-5.7935853,15.000033,7.3150077,-1.5852505,10.121666,-3.9671862,14.590689,-11.558633,64.52775,-13.181629,3.1825902,4.482628,-10.561894,-15.382198,35.63174,63.483265,-13.302378,-8.118549,-2.3506792
151,3.228632688522339,-103.1543960571289,76.65009307861328,-0.8141131342218323,-1.432077095624312,-42.26715271095677,-7.736215,-3.4583843,18.039387,18.48151,-13.124851,6.698592,-1.964387,-0.38353553,-17.65954,59.371853,-6.76935,15.000033,6.735666,-1.6151067,10.38086,-4.5905547,14.523995,-11.754,64.33704,-13.172352,3.140878,4.5035124,-10.290745,-15.551604,34.91425,63.306515,-13.15432,-8.039594,-2.3761632
152,3.3256113529205322,-103.68112182617188,76.80804443359375,-0.9057323668347139,-1.564856841821091,-41.7744653632231,-6.9173436,-3.3446453,17.446457,17.762686,-12.932734,6.3881197,-2.2354293,-2.6325128,-19.337,60.428093,-7.617592,14.160589,6.2702456,-1.4647714,10.545874,-5.203737,14.446262,-11.952765,64.09213,-13.106266,3.1071224,4.501704,-10.026432,-15.711753,34.19653,63.17114,-12.933569,-7.987298,-2.4015615
153,3.4036715030670166,-104.22600555419922,76.95928955078125,-1.1058234077922153,-1.6492535912616646,-41.3440272256724,-6.277262,-3.0135517,16.910864,17.309141,-12.86616,6.0205264,-2.454901,-4.749244,-21.211935,61.190365,-8.397751,12.053164,5.8636217,-1.2238164,10.668252,-5.7934494,14.354963,-12.132388,63.77869,-12.969621,3.0857816,4.4750137,-9.769392,-15.861681,33.467632,63.08336,-12.626606,-7.96991,-2.425624
154,3.487135410308838,-104.76252746582031,77.10774993896484,-1.324789178015419,-1.7280298140824735,-40.90734372036076,-5.6530538,-2.6503239,16.391241,16.862844,-12.800024,5.638475,-2.6339123,-6.7503757,-22.961613,61.74408,-9.143799,10.072547,5.4594097,-0.96470344,10.793556,-6.363536,14.248492,-12.30339,63.404255,-12.781902,3.0764284,4.4280553,-9.515897,-16.000456,32.706463,63.038353,-12.238821,-7.9749446,-2.445125
155,3.5514938831329346,-105.29216766357422,77.24224853515625,-1.541128205955146,-1.7941081554475744,-40.45963769019241,-5.0641565,-2.281019,15.869223,16.441708,-12.735994,5.254544,-2.789498,-8.630204,-24.571285,62.09098,-9.848832,8.265747,5.060448,-0.70651984,10.91482,-6.9321504,14.133493,-12.498044,62.990482,-12.554429,3.0681753,4.3602,-9.273509,-16.132181,31.957565,63.025936,-11.795045,-7.993742,-2.464294
156,3.61490535736084,-105.81617736816406,77.36835479736328,-1.7330595951543455,-1.8408926681034645,-39.996147625666744,-4.528322,-1.9332457,15.325982,16.05852,-12.672475,4.8811913,-2.940399,-10.3849945,-26.020855,62.232487,-10.502642,6.680599,4.6687613,-0.46981108,11.025199,-7.511394,14.021146,-12.750342,62.54608,-12.302459,3.0557933,4.2708807,-9.049161,-16.264915,31.26913,63.03397,-11.317482,-8.017659,-2.4870028
157,3.6807491779327393,-106.33872985839844,77.49087524414062,-1.8989026857148126,-1.866914336800191,-39.51667488642995,-4.050512,-1.6103514,14.750284,15.714384,-12.600099,4.5181494,-3.1087232,-12.017729,-27.299828,62.16923,-11.0767145,5.3215604,4.283837,-0.25601873,11.126467,-8.099808,13.916894,-13.068931,62.056705,-12.01546,3.0480542,4.145436,-8.840118,-16.404762,30.643133,63.049,-10.755641,-8.045747,-2.5078022
158,3.7460107803344727,-106.85897827148438,77.59616088867188,-2.0490064766373814,-1.8750749217774272,-39.0243164357496,-3.621131,-1.2990552,14.15342,15.402002,-12.522004,4.1598454,-3.3006797,-13.531803,-28.426168,61.900826,-11.556452,4.1629887,3.906249,-0.05684514,11.222557,-8.686876,13.819241,-13.435421,61.512543,-11.69199,3.045893,3.986712,-8.638105,-16.553154,30.055935,63.069416,-10.115614,-8.082071,-2.5249636
159,3.7975997924804688,-107.37985229492188,77.68689727783203,-2.1809004394418694,-1.8656538419346271,-38.518022668857874,-3.240785,-1.0003573,13.55085,15.131525,-12.460878,3.8103313,-3.510063,-14.925718,-29.417938,61.427753,-11.951961,3.2089455,3.5392933,0.12239509,11.309992,-9.272252,13.729037,-13.840152,60.931835,-11.35843,3.03036,3.8193958,-8.439683,-16.711147,29.518972,63.09824,-9.504282,-8.125802,-2.548185
160,3.856757640838623,-107.89917755126953,77.77499389648438,-2.292418387206796,-1.8388783846406513,-37.996931853142044,-2.909308,-0.71478623,12.9578705,14.9108095,-12.437778,3.473586,-3.7281199,-16.197418,-30.291378,60.750458,-12.275912,2.4641993,3.1852736,0.27613136,11.385601,-9.853946,13.647816,-14.270865,60.330566,-11.039222,2.9830508,3.6678205,-8.2416525,-16.87855,29.044886,63.13899,-9.027668,-8.176274,-2.5873303
161,3.9027888774871826,-108.41996765136719,77.84573364257812,-2.3862367272766476,-1.797569257520768,-37.453564189308885,-2.6239176,-0.44196966,12.373974,14.739566,-12.4566555,3.1499302,-3.9486496,-17.351124,-31.058695,59.856293,-12.514729,1.9420404,2.8400192,0.40700454,11.451696,-10.435543,13.578158,-14.735516,59.703655,-10.738643,2.8932812,3.5257652,-8.046646,-17.056583,28.6494,63.19861,-8.71208,-8.244949,-2.6466026
162,3.9626333713531494,-108.9530029296875,77.90312957763672,-2.4626170730780537,-1.740812860200744,-36.89051098802672,-2.3887606,-0.18154804,11.792201,14.620545,-12.506878,2.8371446,-4.1844225,-18.39542,-31.705109,58.751114,-12.655212,1.6287489,2.5025103,0.51686805,11.509159,-11.014465,13.519651,-15.235054,59.041756,-10.44474,2.772747,3.383723,-7.8549356,-17.2452,28.323387,63.27196,-8.500746,-8.3282795,-2.7198634
163,4.008491516113281,-109.47698211669922,77.94478607177734,-2.5148039898820866,-1.6644977677506663,-36.32186964326409,-2.19746,0.06171462,11.21821,14.534621,-12.581511,2.5352874,-4.4519672,-19.335484,-32.203506,57.460464,-12.7132,1.488723,2.1796124,0.59927636,11.551587,-11.580569,13.469144,-15.746925,58.355766,-10.157927,2.6386235,3.262436,-7.6622586,-17.440765,28.0415,63.348145,-8.377197,-8.402575,-2.802453
164,4.054952621459961,-110.0051040649414,77.9763412475586,-2.5364579442905333,-1.56424216152925,-35.76164259977123,-2.0443025,0.28292385,10.658122,14.464334,-12.672785,2.2448964,-4.765827,-20.17622,-32.52612,56.00649,-12.707066,1.4857768,1.877788,0.64845586,11.571907,-12.125278,13.422496,-16.249146,57.660145,-9.878993,2.5072868,3.1829605,-7.4653325,-17.637234,27.778774,63.41714,-8.32518,-8.443188,-2.890035
165,4.092007637023926,-110.5356216430664,77.99491882324219,-2.528662207947935,-1.4339776718181974,-35.19982589691075,-1.9485613,0.48274264,10.103372,14.430314,-12.78987,1.9721997,-5.14447,-20.900839,-32.634228,54.37599,-12.635994,1.6279265,1.5875527,0.6669489,11.563069,-12.654996,13.3791895,-16.748087,56.954098,-9.615385,2.3738499,3.1632588,-7.271968,-17.831682,27.543413,63.485184,-8.3726015,-8.43466,-2.977491
166,4.142544269561768,-111.0767822265625,78.00340270996094,-2.4935259681933934,-1.278719745359575,-34.632557420944664,-1.9047201,0.6617628,9.553322,14.432887,-12.933236,1.7152301,-5.569391,-21.527695,-32.543873,52.564507,-12.497094,1.9138714,1.3078425,0.6567265,11.528663,-13.172497,13.339828,-17.250395,56.234436,-9.36268,2.2328506,3.1889422,-7.086297,-18.024439,27.345371,63.561554,-8.517821,-8.391898,-3.0694304
167,4.1793646812438965,-111.61961364746094,78.00228881835938,-2.4255780851089277,-1.111729140383398,-34.08333728896598,-1.8720151,0.81674564,9.026336,14.429597,-13.084366,1.4620526,-6.0058765,-22.110348,-32.3086,50.613834,-12.30153,2.297627,1.0593008,0.6135995,11.4788065,-13.667952,13.30232,-17.737026,55.513664,-9.106287,2.099977,3.2321312,-6.89831,-18.210854,27.160114,63.64641,-8.69935,-8.342116,-3.1768198
168,4.212092399597168,-112.16217041015625,77.99116516113281,-2.320575801212434,-0.9458648008216334,-33.5759514303667,-1.8134412,0.94671595,8.540852,14.382919,-13.2264595,1.2004917,-6.4255934,-22.69385,-31.986017,48.565296,-12.059047,2.740289,0.8625902,0.53371817,11.42239,-14.131884,13.263392,-18.188469,54.80677,-8.829746,1.9904201,3.265676,-6.7007275,-18.38395,26.963383,63.744717,-8.856727,-8.312848,-3.3112934
169,4.240450859069824,-112.71450805664062,77.97119140625,-2.1713178013788292,-0.7817308429295561,-33.11012563076823,-1.7223647,1.0424603,8.099069,14.278297,-13.354077,0.9306941,-6.8385634,-23.247532,-31.523548,46.36513,-11.753268,3.3121002,0.7244946,0.41035226,11.357628,-14.571341,13.220869,-18.610355,54.11944,-8.518294,1.9084218,3.289436,-6.494427,-18.540598,26.76003,63.87178,-8.988957,-8.319214,-3.4943607
170,4.273386478424072,-113.28147888183594,77.93656921386719,-1.9823129728279132,-0.6144287697053168,-32.67487513461121,-1.616902,1.108023,7.692543,14.136543,-13.475734,0.658064,-7.2502103,-23.763424,-30.909725,44.01013,-11.389594,4.000896,0.63313055,0.24707165,11.279493,-14.991206,13.175442,-19.009829,53.448616,-8.18332,1.8454863,3.316419,-6.287516,-18.680994,26.56066,64.02822,-9.123865,-8.343418,-3.714981
171,4.308257102966309,-113.85911560058594,77.89614868164062,-1.7655028145414011,-0.4471877099403065,-32.27874793654906,-1.5000615,1.1621734,7.323565,13.979735,-13.599215,0.3776269,-7.6400023,-24.30931,-30.26664,41.61846,-11.002883,4.658863,0.5641822,0.047576915,11.189274,-15.362388,13.138924,-19.347912,52.78658,-7.8436947,1.7978673,3.3366957,-6.112753,-18.779291,26.372974,64.23018,-9.242332,-8.366577,-3.940759
172,4.343565940856934,-114.44500732421875,77.85211944580078,-1.5371397311496096,-0.28234728096227546,-31.93054763875652,-1.372966,1.2269249,6.994701,13.823079,-13.728876,0.08458434,-7.997226,-24.936665,-29.72188,39.30219,-10.617746,5.1494493,0.56158996,-0.16206527,11.098877,-15.714868,13.093062,-19.66413,52.159565,-7.5351276,1.7598002,3.3489857,-5.8987126,-18.879639,26.114546,64.38003,-9.333269,-8.366731,-4.123493
173,4.362786293029785,-115.03253936767578,77.80005645751953,-1.2937836290723044,-0.1156916149562045,-31.63853392229724,-1.2367939,1.3000861,6.7132015,13.662314,-13.863256,-0.22031781,-8.341301,-25.635143,-29.291138,37.039074,-10.192246,5.485614,0.5911676,-0.3924961,10.997705,-16.015131,13.052395,-19.9042,51.549854,-7.2405877,1.7312162,3.3397982,-5.704609,-18.947527,25.832947,64.541374,-9.390745,-8.332505,-4.2632422
174,4.383826732635498,-115.63311767578125,77.74264526367188,-1.0319454688809455,0.053948256479570425,-31.396964677388524,-1.0912131,1.3750082,6.4765043,13.490631,-13.999721,-0.53555524,-8.691836,-26.36454,-28.914104,34.78863,-9.726836,5.739357,0.6622717,-0.6491685,10.885782,-16.274527,13.018591,-20.08911,50.958893,-6.9546685,1.7144825,3.3161316,-5.5234556,-18.982138,25.526848,64.71805,-9.425754,-8.277613,-4.379135
175,4.409615993499756,-116.24653625488281,77.6816635131836,-0.7674782305387519,0.2195492208726117,-31.1942953920935,-0.93607235,1.4671937,6.2728596,13.3214445,-14.142517,-0.8650543,-9.050555,-27.126398,-28.60701,32.64284,-9.309112,5.871765,0.7178989,-0.9182619,10.770731,-16.452238,13.005559,-20.175491,50.3588,-6.689119,1.710277,3.286058,-5.3979125,-18.981548,25.266903,64.92926,-9.412207,-8.219417,-4.4772167
176,4.4333600997924805,-116.86568450927734,77.61498260498047,-0.5155674431582064,0.37394095647498743,-31.019227683163084,-0.7700252,1.591374,6.090733,13.165287,-14.293941,-1.2127203,-9.414776,-27.92071,-28.388683,30.68404,-9.0278635,5.8456964,0.81875926,-1.1887509,10.66844,-16.614338,12.997175,-20.256708,49.798862,-6.482526,1.7173461,3.2731087,-5.2528467,-18.959982,24.958479,65.10399,-9.371185,-8.176816,-4.5551705
177,4.448958873748779,-117.49303436279297,77.54862213134766,-0.2730932008284948,0.5213630945460981,-30.881615428771212,-0.592681,1.7464317,5.938817,13.015513,-14.4512005,-1.5781864,-9.806045,-28.759315,-28.288836,28.931536,-8.921108,5.614098,0.93523705,-1.4648713,10.5724325,-16.720022,12.996563,-20.270878,49.241962,-6.322441,1.752503,3.2721498,-5.1277337,-18.909609,24.650772,65.27651,-9.263627,-8.153119,-4.603766
178,4.466207504272461,-118.13587951660156,77.47437286376953,-0.03614436821760066,0.6659591778586127,-30.785021747093733,-0.407036,1.9274554,5.821239,12.869732,-14.613797,-1.9611999,-10.241971,-29.61047,-28.290161,27.34085,-8.945431,5.2299857,1.0635693,-1.7520685,10.4759035,-16.766706,13.009102,-20.211008,48.690147,-6.198324,1.8105567,3.2759488,-5.037487,-18.820528,24.352896,65.46742,-9.101097,-8.139239,-4.6283593
179,4.4754157066345215,-118.77704620361328,77.39413452148438,0.18313571241346677,0.7998455531238007,-30.708553659689148,-0.2149739,2.1432924,5.7205763,12.7450905,-14.788475,-2.3609118,-10.704925,-30.429218,-28.339565,25.907587,-9.061787,4.8012776,1.178287,-2.0187933,10.389489,-16.762794,13.030898,-20.104443,48.164543,-6.120601,1.8582784,3.29097,-4.966635,-18.73461,24.089582,65.635796,-8.913526,-8.132341,-4.648134
180,4.47580099105835,-119.42511749267578,77.31311798095703,0.37476408511098896,0.9135810905643418,-30.630461367001846,-0.017576223,2.4004214,5.618526,12.658399,-14.981601,-2.777013,-11.168841,-31.182325,-28.383158,24.628384,-9.224048,4.4253354,1.2970808,-2.2849326,10.316052,-16.750786,13.094359,-20.042269,47.719334,-6.114447,1.8656616,3.3292413,-4.9402547,-18.568918,23.814205,65.83808,-8.784842,-8.135857,-4.7023945
181,4.482045650482178,-120.07852935791016,77.22705841064453,0.5359970595487269,1.007654478432062,-30.547295526229153,0.18242303,2.7023087,5.513935,12.612131,-15.196069,-3.2148218,-11.6022625,-31.884312,-28.471485,23.461529,-9.422927,4.1219954,1.3931886,-2.5202756,10.261051,-16.709198,13.185162,-20.001574,47.328297,-6.2016635,1.8179072,3.4028978,-4.932687,-18.395226,23.566174,66.01792,-8.68488,-8.150168,-4.7864494
182,4.4850311279296875,-120.73921966552734,77.1431884765625,0.6727549377820048,1.0861337537713434,-30.47030914226191,0.3863654,3.0451608,5.4162726,12.597757,-15.427241,-3.6732101,-12.017672,-32.543545,-28.61582,22.405058,-9.670161,3.8441503,1.4847564,-2.7356162,10.224179,-16.636,13.303037,-19.969929,46.97783,-6.368638,1.7340178,3.5027583,-4.935693,-18.211046,23.324652,66.17003,-8.600165,-8.174856,-4.88521
183,4.475461959838867,-121.4028091430664,77.05509185791016,0.7839250792359,1.1448049222575085,-30.3988012399459,0.5950009,3.428494,5.321251,12.621756,-15.672735,-4.142381,-12.424634,-33.117767,-28.71645,21.476168,-9.934934,3.572238,1.5713542,-2.9277678,10.207882,-16.538418,13.445057,-19.944017,46.68801,-6.567799,1.6287416,3.6015782,-4.947849,-18.018637,23.094545,66.28359,-8.541715,-8.201692,-4.992626
184,4.478599548339844,-122.07417297363281,76.97084045410156,0.865657571507859,1.179699561261705,-30.33302642010592,0.8079446,3.8557107,5.224423,12.694068,-15.93309,-4.6128073,-12.8169365,-33.562004,-28.681175,20.669409,-10.175562,3.276534,1.6526798,-3.088995,10.21432,-16.42262,13.605945,-19.918543,46.47791,-6.749499,1.5171376,3.6725292,-4.9655304,-17.823326,22.879322,66.34521,-8.521625,-8.222158,-5.10228
185,4.478139400482178,-122.75780487060547,76.86972045898438,0.9673984337913948,1.1733527611630319,-30.257287550329753,1.0481677,4.2689557,5.116401,12.804551,-16.203135,-5.070523,-13.337511,-34.034023,-28.372074,20.324446,-10.576097,2.9161177,1.7172452,-3.2661302,10.261409,-16.294775,13.784824,-19.895355,46.354233,-6.904514,1.3946359,3.6971202,-4.9771223,-17.625376,22.662943,66.33724,-8.553339,-8.228307,-5.2174034
186,4.4750261306762695,-123.44659423828125,76.76168060302734,1.0873791928787253,1.1226886239406957,-30.166119200135604,1.3239855,4.6680317,4.9937277,12.938844,-16.477942,-5.5210304,-13.96691,-34.55563,-27.850996,20.425634,-11.14731,2.5114932,1.7620056,-3.4601367,10.351451,-16.155087,13.982662,-19.878256,46.312157,-7.0573783,1.2564474,3.6927013,-4.9834437,-17.423246,22.446392,66.268585,-8.626495,-8.226096,-5.338972
187,4.4659552574157715,-124.13578033447266,76.65510559082031,1.173582366410103,1.0506979177997575,-30.07649767403673,1.6044049,5.1157575,4.867857,13.111603,-16.765541,-5.9858856,-14.503518,-34.942997,-27.288929,20.53779,-11.633066,2.1149917,1.8009223,-3.6217942,10.459303,-16.00085,14.195626,-19.865215,46.35517,-7.2108965,1.1171609,3.686438,-4.998063,-17.221144,22.260796,66.16111,-8.71565,-8.227503,-5.4566965
188,4.445836067199707,-124.82263946533203,76.54434204101562,1.2311155800624036,0.9667951439132441,-29.987612120557273,1.8774366,5.609572,4.743064,13.32532,-17.066816,-6.4799604,-14.927775,-35.183517,-26.73792,20.634117,-11.98551,1.792507,1.8339443,-3.7601552,10.571789,-15.834731,14.419382,-19.855476,46.49411,-7.366292,0.99187416,3.7030787,-5.0258317,-17.023287,22.134958,66.03039,-8.794975,-8.244028,-5.558873
189,4.420456886291504,-125.5137710571289,76.42645263671875,1.2628559627036307,0.8708503269328532,-29.900068224275834,2.1486096,6.14594,4.6256547,13.568499,-17.385235,-7.008517,-15.225124,-35.27754,-26.178295,20.703316,-12.166126,1.5777887,1.8600467,-3.8774912,10.689963,-15.657929,14.651189,-19.849306,46.734436,-7.521403,0.8747803,3.7579968,-5.069221,-16.832703,22.078808,65.87518,-8.841955,-8.279114,-5.6389856
190,4.39301872253418,-126.2144775390625,76.3050537109375,1.2678265435846217,0.7590538041930475,-29.813984804147672,2.4195178,6.725087,4.512713,13.847251,-17.71949,-7.5633326,-15.410984,-35.256622,-25.589325,20.79128,-12.219889,1.4211973,1.8795906,-3.9695618,10.818812,-15.470979,14.890609,-19.846678,47.0726,-7.6763844,0.7606527,3.8353572,-5.122757,-16.65089,22.07597,65.68706,-8.875425,-8.326431,-5.70382
191,4.376808166503906,-126.92680358886719,76.17908477783203,1.2426135926952968,0.6350506824113832,-29.72769331094899,2.685869,7.3528476,4.395366,14.160351,-18.056677,-8.13953,-15.491838,-35.137043,-25.034912,20.918543,-12.202583,1.2649603,1.8950506,-4.031353,10.951707,-15.271336,15.1357355,-19.84317,47.500515,-7.831616,0.6657136,3.912809,-5.1778283,-16.477152,22.11759,65.46741,-8.927535,-8.382579,-5.7617426
192,4.354488849639893,-127.65274047851562,76.04867553710938,1.1842293398085104,0.5019565767264623,-29.639306643130173,2.9468496,8.0332775,4.264177,14.500868,-18.380552,-8.731881,-15.478461,-34.938953,-24.57519,21.111164,-12.171954,1.0537369,1.9082686,-4.060068,11.0816765,-15.058611,15.384672,-19.834974,48.013676,-7.9877553,0.6062561,3.968323,-5.229677,-16.311214,22.196081,65.2229,-9.030921,-8.444137,-5.8217797
193,4.332879066467285,-128.385498046875,75.91935729980469,1.0923294588401673,0.3546588669594114,-29.54436802072629,3.202899,8.768456,4.1171827,14.875656,-18.701786,-9.341235,-15.353742,-34.63948,-24.199818,21.363825,-12.129817,0.7978205,1.9168856,-4.053432,11.208119,-14.833198,15.636173,-19.825623,48.623943,-8.138381,0.5903268,3.9980595,-5.2719793,-16.152632,22.315023,64.9513,-9.1946335,-8.515357,-5.8855467
194,4.289180278778076,-129.1243896484375,75.78102111816406,0.996080701097191,0.1824427286932837,-29.432329020308693,3.470271,9.522424,3.9509616,15.272923,-19.018732,-9.965984,-15.220579,-34.30474,-23.821161,21.878428,-12.155968,0.53764826,1.9115396,-4.0427823,11.343659,-14.598593,15.891648,-19.817509,49.334476,-8.284433,0.60855377,4.012079,-5.304323,-15.999092,22.474674,64.648766,-9.401305,-8.595801,-5.948411
195,4.246716499328613,-129.8817596435547,75.63020324707031,0.9191457099347802,-0.006387425341252277,-29.305077052037483,3.7410977,10.2679825,3.7609005,15.694903,-19.315784,-10.602298,-15.212799,-34.0262,-23.42321,22.835436,-12.343365,0.25126013,1.8931957,-4.0565777,11.489001,-14.356289,16.15329,-19.805119,50.12429,-8.441371,0.65062034,4.0108285,-5.3367357,-15.849489,22.66513,64.32414,-9.642383,-8.675408,-6.010584
196,4.205522060394287,-130.65460205078125,75.48085021972656,0.7871093713190995,-0.18026255684793294,-29.19501135176082,3.9946,11.085891,3.5609567,16.122093,-19.561905,-11.252805,-15.160933,-33.658833,-23.191507,23.794432,-12.462392,-0.11648887,1.8868599,-4.0195074,11.624174,-14.100015,16.418558,-19.777592,50.961407,-8.62445,0.7054441,3.99799,-5.3844533,-15.706607,22.87702,63.98612,-9.912049,-8.745129,-6.0726814
197,4.160369873046875,-131.4314727783203,75.33253479003906,0.5956229937161618,-0.3426220431979024,-29.0966980179156,4.2478147,11.983736,3.3437254,16.51553,-19.753527,-11.932621,-15.071346,-33.243973,-23.2141,24.872791,-12.636717,-0.6926388,1.8890586,-3.9259632,11.752777,-13.833103,16.685753,-19.736164,51.856377,-8.845183,0.77393585,3.9675436,-5.441957,-15.572364,23.104256,63.61448,-10.229198,-8.794177,-6.1332383
198,4.101919174194336,-132.21072387695312,75.19698333740234,0.3551582859275514,-0.4999511281432037,-29.005201512651944,4.4991984,12.950562,3.1084368,16.888514,-19.899399,-12.636887,-14.948001,-32.765186,-23.426949,26.063034,-12.836923,-1.4174938,1.8966576,-3.7854862,11.876316,-13.555925,16.954103,-19.684412,52.81813,-9.09303,0.8607349,3.9211948,-5.504974,-15.448094,23.352182,63.2118,-10.590985,-8.830409,-6.192421
199,4.043478488922119,-133.00054931640625,75.0771484375,0.08712532289938325,-0.6484258894987219,-28.925902034883144,4.7205415,13.955472,2.858625,17.297956,-19.984215,-13.330449,-14.838822,-32.206715,-23.633287,27.237122,-12.868849,-2.046529,1.9140618,-3.6204448,11.993563,-13.265196,17.223186,-19.618675,53.822163,-9.349803,0.9610681,3.8710496,-5.5818357,-15.332616,23.629244,62.813347,-10.953929,-8.871827,-6.251293
200,3.996377468109131,-133.80027770996094,74.98067474365234,-0.18871613885294153,-0.7837075625958537,-28.86556302947054,4.8910284,14.969127,2.5982728,17.784395,-19.991058,-13.977775,-14.787405,-31.554926,-23.641953,28.271582,-12.55224,-2.3326988,1.9457233,-3.4520319,12.102233,-12.957089,17.493061,-19.533909,54.843754,-9.596565,1.069928,3.8289766,-5.681733,-15.222913,23.943304,62.455013,-11.276102,-8.936268,-6.3114824
201,3.9284019470214844,-134.6021728515625,74.89833068847656,-0.4608236068012714,-0.9067329542249123,-28.82081150402962,5.0171156,15.977074,2.3203015,18.325447,-19.906696,-14.589051,-14.839265,-30.815302,-23.306095,29.162802,-11.670696,-2.1068048,1.9934478,-3.2888525,12.205269,-12.650158,17.76811,-19.452038,55.89488,-9.82534,1.1963074,3.7637768,-5.808142,-15.120057,24.288918,62.133812,-11.574437,-9.040474,-6.3832936
202,3.866783618927002,-135.4180450439453,74.81261444091797,-0.7059789400838212,-1.0155075881051403,-28.78278714098042,5.1116533,16.923714,1.9962399,18.869051,-19.71801,-15.000033,-14.981136,-30.049088,-22.731684,30.012388,-10.407543,-1.5160573,2.0485702,-3.1535072,12.3007145,-12.338481,18.048796,-19.368488,56.980194,-10.048261,1.3401165,3.680469,-5.956095,-15.023031,24.663067,61.83449,-11.861682,-9.1723,-6.4630833
203,3.7957401275634766,-136.22998046875,74.72927856445312,-0.9107343545529921,-1.1044940765490472,-28.754222361915147,5.1421757,17.765406,1.6110438,19.47133,-19.434504,-15.000033,-15.167621,-29.307224,-22.113897,30.876127,-9.187145,-0.801771,2.1022432,-3.066992,12.378032,-11.981868,18.327763,-19.239325,58.069836,-10.276353,1.481962,3.645988,-6.1268587,-14.925827,25.08063,61.58042,-12.091366,-9.302446,-6.5317492
204,3.7078614234924316,-137.0469970703125,74.67324829101562,-1.1787183786646784,-1.1783767995991883,-28.761320845165063,5.0459814,18.705788,1.2235916,20.305876,-19.1284,-15.000033,-15.291531,-28.4831,-21.728367,31.737497,-8.406739,-0.2522869,2.1651368,-2.9375153,12.430372,-11.538465,18.592642,-19.017862,59.135727,-10.519163,1.6014965,3.7270718,-6.324573,-14.819232,25.559885,61.403656,-12.216302,-9.404308,-6.5706224
205,3.6136443614959717,-137.87689208984375,74.64608764648438,-1.5361205193380492,-1.2288263859291044,-28.805574609219207,4.829768,19.778091,0.83059573,21.344732,-18.801277,-15.000033,-15.3812065,-27.572592,-21.640953,32.67538,-8.216392,-0.025090601,2.2268991,-2.7403831,12.443237,-10.995971,18.833397,-18.688358,60.20267,-10.800957,1.6693834,3.973917,-6.5626097,-14.698541,26.133064,61.336227,-12.178514,-9.480784,-6.5903955
206,3.5220890045166016,-138.72744750976562,74.62738037109375,-1.9662672263176917,-1.2598788632020435,-28.880718949473344,4.5115266,20.957567,0.4217594,22.540005,-18.433363,-15.000033,-15.459169,-26.58222,-21.72866,33.658295,-8.384131,0.035655696,2.289758,-2.4867294,12.420705,-10.378628,19.04877,-18.273396,61.285637,-11.104775,1.7011985,4.340767,-6.8384485,-14.562737,26.785156,61.365215,-12.018819,-9.54296,-6.5971704
207,3.425715923309326,-139.59140014648438,74.61691284179688,-2.429768303546112,-1.2874657859134693,-28.982960706967692,4.0839705,22.193111,-0.012198773,23.918335,-18.005117,-15.000033,-15.449425,-25.533499,-21.949219,34.52912,-8.730712,0.12852934,2.3679593,-2.2143302,12.378959,-9.703956,19.242208,-17.789762,62.342827,-11.381369,1.7470517,4.751002,-7.13134,-14.408994,27.463476,61.455387,-11.836433,-9.576073,-6.5653787
208,3.323336601257324,-140.47091674804688,74.61779022216797,-2.8887683957405175,-1.3271274611441652,-29.108620796961368,3.5410662,23.434288,-0.48448098,25.505447,-17.497309,-15.000033,-15.272757,-24.445158,-22.26305,35.122593,-9.075527,0.4535018,2.4749653,-1.9607376,12.335324,-8.991701,19.4204,-17.257736,63.33249,-11.587185,1.8574141,5.128113,-7.419936,-14.233065,28.114388,61.569717,-11.731356,-9.565436,-6.4697604
209,3.209214210510254,-141.36630249023438,74.61846160888672,-3.3369623003439814,-1.379092314797703,-29.268647188721072,2.8770487,24.67519,-1.0369893,27.330978,-16.94343,-15.000033,-14.880389,-23.311914,-22.697453,35.339806,-9.385365,1.1767206,2.6221738,-1.7402451,12.286236,-8.229652,19.583569,-16.64205,64.247955,-11.680297,2.065567,5.4907827,-7.699002,-14.028313,28.712286,61.71803,-11.737991,-9.491656,-6.266839
210,3.086634635925293,-142.26638793945312,74.62467193603516,-3.7961093833668893,-1.4363278490763667,-29.461228130301492,2.1056764,25.935047,-1.6757883,29.341682,-16.3283,-15.000033,-14.3167925,-22.122925,-23.26077,35.26633,-9.736595,2.1497352,2.7989113,-1.5313451,12.224063,-7.4158244,19.729027,-15.94318,65.112656,-11.695628,2.3363643,5.865142,-7.98051,-13.793026,29.289478,61.92118,-11.803661,-9.3706045,-5.9835987
211,2.9605343341827393,-143.17608642578125,74.63861083984375,-4.268986893984827,-1.5040363366277325,-29.6636470185686,1.2462664,27.201128,-2.3599052,31.453129,-15.568997,-15.000033,-13.649369,-20.882193,-23.881304,35.01838,-10.109928,3.1040835,2.9871106,-1.3190725,12.159853,-6.577103,19.862553,-15.234719,65.9145,-11.704544,2.6272078,6.1891284,-8.271555,-13.537029,29.880806,62.15353,-11.894309,-9.23354,-5.698845
212,2.836515188217163,-144.0669708251953,74.66780853271484,-4.581422671755702,-1.574597338590173,-29.821301359634464,0.3044843,28.174784,-2.980398,33.575413,-14.561901,-14.243182,-13.037676,-19.840622,-24.394066,34.846962,-10.542511,3.8221407,3.1443086,-1.2595513,12.110519,-5.744451,19.996813,-14.595364,66.64689,-11.775432,2.889425,6.398985,-8.571951,-13.274278,30.513124,62.374535,-11.973856,-9.11264,-5.4908066
213,2.715756416320801,-144.961181640625,74.70887756347656,-4.908864222952457,-1.6619760836265152,-29.956667675544455,-0.72282743,29.174503,-3.5588067,35.74927,-13.257071,-13.477001,-12.385502,-18.738829,-24.890799,34.616302,-11.00808,4.1812463,3.298165,-1.1855326,12.079243,-4.914324,20.142569,-14.037661,67.29733,-11.912195,3.1303942,6.4933605,-8.877742,-13.014733,31.200846,62.57,-12.031097,-9.004016,-5.382079
214,2.582939624786377,-145.8491973876953,74.76097106933594,-5.238287258962155,-1.7630597437583249,-30.080963065802383,-1.8506836,30.189577,-4.117734,38.00964,-11.721245,-12.644299,-11.669534,-17.583488,-25.39351,34.261116,-11.499541,4.3271074,3.456258,-1.1141038,12.064254,-4.0703316,20.300232,-13.52465,67.86366,-12.084139,3.3697505,6.498643,-9.178979,-12.759306,31.922567,62.739315,-12.082791,-8.894204,-5.3270693
215,2.4625070095062256,-146.73155212402344,74.83442687988281,-5.559412609714563,-1.877240444597564,-30.200550815410704,-3.089496,31.200281,-4.6206017,40.358177,-10.112128,-11.608877,-10.919363,-16.403074,-25.88022,33.809532,-11.973292,4.320951,3.6157136,-1.0463548,12.0713825,-3.2161016,20.461397,-13.062573,68.353714,-12.310312,3.5797012,6.3946996,-9.478003,-12.514729,32.655315,62.88065,-12.136711,-8.802136,-5.2998476
216,2.3522889614105225,-147.61253356933594,74.92292785644531,-5.862097524524431,-2.003673555601413,-30.321959173459177,-4.4464746,32.192574,-5.023354,42.797848,-8.591802,-10.234593,-10.159355,-15.230551,-26.331152,33.295746,-12.388262,4.227259,3.777616,-0.9794405,12.106083,-2.3620486,20.611124,-12.662307,68.781525,-12.60905,3.7322435,6.1625586,-9.771957,-12.29133,33.371857,62.987072,-12.200593,-8.746628,-5.273937
217,2.244201421737671,-148.47386169433594,75.02033996582031,-6.156086722002839,-2.146218717300473,-30.435862160595526,-5.9772854,33.236477,-5.273451,45.404354,-7.0820074,-8.382632,-9.360801,-14.051124,-26.764229,32.692844,-12.729777,4.02165,3.938671,-0.89854765,12.176367,-1.5215969,20.745995,-12.356268,69.16514,-13.043663,3.7844403,5.764552,-10.059402,-12.097571,34.081783,63.04816,-12.262894,-8.743501,-5.2550745
218,2.1369826793670654,-149.31948852539062,75.12434387207031,-6.446964200657857,-2.3050346381722195,-30.544303790455356,-7.663317,34.36437,-5.3836513,48.14531,-5.5633683,-6.109244,-8.511669,-12.846613,-27.178766,31.983992,-13.016712,3.685264,4.1064034,-0.7998221,12.277737,-0.6962603,20.866104,-12.137521,69.50283,-13.583899,3.7660336,5.222817,-10.336775,-11.937224,34.79019,63.060867,-12.322443,-8.778647,-5.2518077
219,2.0344607830047607,-150.14967346191406,75.23172760009766,-6.713632965431994,-2.4745005593490315,-30.671150457149018,-9.388153,35.480522,-5.4133453,50.870598,-4.285353,-3.6038325,-7.662309,-11.657653,-27.529726,31.235277,-13.266219,3.29416,4.2976384,-0.69801706,12.396354,0.11679576,20.957376,-11.96032,69.78423,-14.109393,3.7557142,4.609419,-10.594429,-11.812787,35.46176,63.02815,-12.405286,-8.825553,-5.241818
220,1.934940218925476,-150.9506378173828,75.33399200439453,-6.930200443904413,-2.647180838937664,-30.838091731118876,-11.023732,36.442215,-5.4389443,53.442287,-3.4801366,-1.1086534,-6.867512,-10.537294,-27.77619,30.524212,-13.499586,2.9247923,4.527387,-0.6106589,12.516419,0.9186608,20.998096,-11.777251,70.00292,-14.495325,3.8274465,3.9995606,-10.82316,-11.7269125,36.063553,62.95767,-12.536172,-8.857866,-5.203641
221,1.8481073379516602,-151.72421264648438,75.42970275878906,-7.080408729000948,-2.8170371349737886,-31.047688347307567,-12.570105,37.214096,-5.4504523,55.905853,-3.2421315,1.4561179,-6.1597257,-9.5215645,-27.905275,29.90456,-13.732409,2.5929346,4.846482,-0.5399563,12.63222,1.6467875,20.982523,-11.65698,70.19769,-14.725576,4.013264,3.3655887,-10.98669,-11.703648,36.51549,62.814205,-12.77263,-8.86811,-5.1220202
222,1.7664058208465576,-152.4698028564453,75.50971984863281,-7.176642169577131,-2.988084987252416,-31.28807827036223,-14.062644,37.83334,-5.431065,58.323906,-3.4418247,4.125673,-5.502981,-8.588167,-27.94499,29.337738,-13.957123,2.2617135,5.1151133,-0.4836864,12.754883,2.4364183,20.901546,-11.44725,70.28199,-14.820921,4.2661176,2.6817327,-11.177644,-11.707736,37.00859,62.659565,-13.044319,-8.865955,-5.022626
223,1.7030084133148193,-153.1968994140625,75.58598327636719,-7.233221125913308,-3.167626165125731,-31.55697388144926,-15.425057,38.222954,-5.4595823,60.60158,-3.9383645,6.542068,-4.856788,-7.7117877,-27.918177,28.77619,-14.165104,1.9281064,5.422559,-0.42110637,12.87951,3.18999,20.74092,-11.253748,70.345474,-14.821105,4.532203,2.046313,-11.337419,-11.757875,37.44704,62.488865,-13.313301,-8.86672,-4.912312
224,1.6472814083099365,-153.89907836914062,75.6642074584961,-7.26460003088856,-3.3624686449354693,-31.851999631962393,-16.587734,38.30575,-5.6070414,62.64745,-4.570168,8.343981,-4.1823096,-6.8643136,-27.846655,28.169765,-14.34585,1.5876801,5.777909,-0.35520533,13.007674,3.919388,20.521074,-11.071503,70.38387,-14.750886,4.7653546,1.5421008,-11.450685,-11.8486395,37.845467,62.304806,-13.504308,-8.8771305,-4.8036823
225,1.6036136150360107,-154.58995056152344,75.74684143066406,-7.270442914090486,-3.5846382743344307,-32.18039249560363,-17.488865,37.9663,-5.9569707,64.43989,-5.3466897,9.287804,-3.4723861,-6.045601,-27.724478,27.52772,-14.507671,1.2317748,6.1721063,-0.28640538,13.148183,4.649886,20.238087,-10.874418,70.37423,-14.567046,4.9746633,1.1947285,-11.528227,-11.976418,38.22997,62.11605,-13.590029,-8.901233,-4.6969104
226,1.564490795135498,-155.265869140625,75.82817077636719,-7.2439293017049895,-3.825557526555883,-32.538941420495284,-18.174496,37.24577,-6.4380693,66.045975,-6.3086247,9.58018,-2.7493663,-5.27164,-27.548826,26.876541,-14.65577,0.86373264,6.596428,-0.21653347,13.297074,5.3762336,19.890457,-10.666608,70.31731,-14.273589,5.1768117,0.95577544,-11.5783205,-12.140145,38.593502,61.920116,-13.609864,-8.933484,-4.5870337
227,1.5432437658309937,-155.92788696289062,75.91192626953125,-7.191001885208977,-4.061809191709185,-32.90991746250167,-18.746187,36.320053,-6.887619,67.508965,-7.3402853,9.548004,-2.0200262,-4.535315,-27.343538,26.190605,-14.773891,0.49701503,7.0323763,-0.14481708,13.438746,6.0859647,19.484491,-10.450624,70.23309,-13.956648,5.3373923,0.8015064,-11.604162,-12.334952,38.929066,61.726826,-13.587221,-8.969437,-4.4816875
228,1.5260541439056396,-156.58045959472656,75.99872589111328,-7.116871032769778,-4.2697563719142595,-33.275548924805456,-19.307034,35.370064,-7.1524916,68.86011,-8.324034,9.523358,-1.2923597,-3.830605,-27.131676,25.446064,-14.845495,0.14545651,7.4616976,-0.074286185,13.558202,6.7691927,19.030798,-10.229264,70.13887,-13.703546,5.42293,0.70776516,-11.608427,-12.552158,39.229084,61.54559,-13.5456915,-9.004931,-4.388778
229,1.50974440574646,-157.21070861816406,76.09022521972656,-7.020146479456118,-4.44503830002063,-33.64193162559537,-19.86554,34.401047,-7.2200336,70.0984,-9.24469,9.530402,-0.5638553,-3.1544528,-26.91171,24.62005,-14.861551,-0.19542433,7.8878856,-0.013886328,13.652909,7.435037,18.533373,-10.003313,70.02482,-13.528118,5.4027424,0.7040194,-11.5973835,-12.786102,39.49464,61.382908,-13.477481,-9.045961,-4.3151274
230,1.504365086555481,-157.8319091796875,76.18901824951172,-6.899020859050636,-4.599332044583666,-34.015263325452686,-20.378185,33.33854,-7.1622562,71.20534,-10.158907,9.417405,0.16776133,-2.5100527,-26.675903,23.73391,-14.832658,-0.53160965,8.317841,0.037740998,13.731276,8.087518,17.99201,-9.770446,69.88258,-13.387974,5.3038054,0.79040354,-11.571471,-13.033764,39.72836,61.237526,-13.374846,-9.092491,-4.255668
231,1.4930176734924316,-158.447998046875,76.28624725341797,-6.761596984483819,-4.733886784609553,-34.37780627398062,-20.868223,32.24486,-6.9611855,72.17695,-11.04898,9.251716,0.9000919,-1.8984872,-26.436983,22.81125,-14.770278,-0.850357,8.736313,0.088066235,13.793349,8.712455,17.413458,-9.526696,69.730675,-13.286767,5.1788917,0.8984267,-11.532702,-13.292124,39.926052,61.119385,-13.264378,-9.132511,-4.201136
232,1.4916648864746094,-159.05760192871094,76.38375091552734,-6.6152656059313255,-4.84965386554776,-34.71167888358049,-21.358046,31.18153,-6.600731,73.01112,-11.897713,9.09941,1.6275845,-1.3213909,-26.207596,21.882627,-14.689711,-1.1388298,9.129396,0.1431256,13.840309,9.296849,16.808031,-9.267001,69.58416,-13.227609,5.081279,0.9580857,-11.479995,-13.5567465,40.08318,61.032246,-13.170025,-9.153613,-4.1418743
233,1.4994440078735352,-159.65074157714844,76.4784927368164,-6.455454254824923,-4.946662415049286,-35.01230518458894,-21.852,30.180387,-6.0396886,73.70637,-12.707964,8.975082,2.3545818,-0.783782,-25.988342,20.941942,-14.584219,-1.3861086,9.4975815,0.19576454,13.871337,9.84054,16.180105,-8.983286,69.44047,-13.209798,5.0265145,0.9584441,-11.411386,-13.824207,40.196796,60.979023,-13.09918,-9.150362,-4.077293
234,1.507714867591858,-160.2370147705078,76.56874084472656,-6.282178181785522,-5.024575644558659,-35.28922981612751,-22.33714,29.207096,-5.2997055,74.25745,-13.483277,8.845193,3.0818622,-0.28354716,-25.774456,19.977924,-14.4492235,-1.6021923,9.846848,0.24084884,13.887239,10.352378,15.529703,-8.678199,69.28938,-13.233175,4.9863396,0.93257725,-11.329625,-14.09262,40.268757,60.95997,-13.040084,-9.13032,-4.012288
235,1.5213669538497925,-160.810546875,76.65373229980469,-6.100465524375184,-5.083716909652062,-35.54570423456816,-22.809195,28.221447,-4.458646,74.65426,-14.205426,8.702736,3.8008177,0.18729731,-25.569584,19.006706,-14.3004875,-1.8038223,10.172677,0.28657535,13.891496,10.833668,14.861898,-8.361959,69.13291,-13.301489,4.948812,0.875866,-11.241071,-14.359581,40.303288,60.974537,-12.985463,-9.101256,-3.9456348
236,1.538909673690796,-161.3710479736328,76.73455810546875,-5.917574126115151,-5.1245328917765995,-35.785340548377114,-23.266333,27.18203,-3.594716,74.88639,-14.85592,8.540754,4.5027657,0.6381124,-25.377798,18.044409,-14.153622,-2.0072846,10.47104,0.34007135,13.88743,11.286578,14.184543,-8.047148,68.972466,-13.421057,4.9021206,0.78312457,-11.150899,-14.622354,40.302147,61.021725,-12.930872,-9.070843,-3.8759818
237,1.563977837562561,-161.9257049560547,76.8099365234375,-5.7327885676508545,-5.147440754953229,-36.00239614023051,-23.716963,26.075754,-2.7157507,74.9479,-15.435657,8.357339,5.1961536,1.0705495,-25.204994,17.07474,-13.999726,-2.2117105,10.740599,0.39921758,13.877236,11.712381,13.500437,-7.7224994,68.8034,-13.631664,4.8408837,0.64038855,-11.054553,-14.878134,40.25209,61.10556,-12.882714,-9.042659,-3.8002782
238,1.592341423034668,-162.47653198242188,76.87566375732422,-5.544400885430527,-5.152462442629474,-36.197562765144276,-24.16115,24.924892,-1.7853072,74.8387,-15.948884,8.155284,5.8859253,1.4826443,-25.048012,16.086637,-13.832601,-2.4088216,10.984534,0.45827985,13.858881,12.111147,12.809484,-7.3860755,68.62467,-13.918422,4.773315,0.45315844,-10.95294,-15.125665,40.156208,61.228516,-12.840925,-9.012498,-3.7204368
