unveil-humanoid-operators/unveil-humanoid-operators.github.io/feature-analysis-animation/data/feature_matrix_instances/gender_shoulder_mean_vel_jogging_A234_jog_ff_loop_180_R_001__A234.csv
Frame,root_translateX,root_translateY,root_translateZ,root_rotateX,root_rotateY,root_rotateZ,left_hip_pitch_joint_dof,left_hip_roll_joint_dof,left_hip_yaw_joint_dof,left_knee_joint_dof,left_ankle_pitch_joint_dof,left_ankle_roll_joint_dof,right_hip_pitch_joint_dof,right_hip_roll_joint_dof,right_hip_yaw_joint_dof,right_knee_joint_dof,right_ankle_pitch_joint_dof,right_ankle_roll_joint_dof,waist_yaw_joint_dof,waist_roll_joint_dof,waist_pitch_joint_dof,left_shoulder_pitch_joint_dof,left_shoulder_roll_joint_dof,left_shoulder_yaw_joint_dof,left_elbow_joint_dof,left_wrist_roll_joint_dof,left_wrist_pitch_joint_dof,left_wrist_yaw_joint_dof,right_shoulder_pitch_joint_dof,right_shoulder_roll_joint_dof,right_shoulder_yaw_joint_dof,right_elbow_joint_dof,right_wrist_roll_joint_dof,right_wrist_pitch_joint_dof,right_wrist_yaw_joint_dof
0,-0.3524336814880371,-2.138247013092041,74.77976989746094,-1.6194509998769373,1.0762227472330481,87.99750970644523,-3.6175501,-1.9780927,-8.686565,76.30951,-9.461228,-3.3910356,-19.918282,3.0196636,-2.339419,46.158043,-24.084166,-1.4881155,-5.5593753,3.4647381,14.240198,-0.29320318,18.251211,-25.858881,-1.6269262,-16.974709,3.4848711,-0.046621785,-1.328216,-20.305656,16.82952,8.035036,0.2805629,1.5490501,-4.4095664
1,-0.2880505621433258,-0.9619901776313782,74.40483856201172,-1.8065389980415225,1.013244265684789,88.19330413560319,-5.2675724,-1.7868391,-9.078508,78.141884,-10.558778,-3.4926834,-19.083443,3.0886881,-2.672918,47.079556,-25.655582,-1.555293,-5.2792296,3.6318722,14.498493,1.3677082,18.217373,-25.349201,-1.0611558,-16.905537,3.3724751,0.8789397,-3.824668,-20.473417,17.274378,8.332094,-0.25863436,1.7050233,-4.6799264
2,-0.242741197347641,0.17795050144195557,74.062255859375,-2.0095456457497316,0.9422471697158833,88.39646227342149,-6.912241,-1.6084665,-9.516593,80.06275,-11.671046,-3.6235514,-18.26908,3.1917784,-3.0303316,48.05905,-27.26706,-1.6323645,-5.0826783,3.839028,14.782535,3.0773392,18.13461,-24.78522,-0.4466293,-16.817272,3.2542377,1.8444203,-6.384255,-20.719221,17.84419,8.635921,-0.74887913,1.8856851,-5.0049224
3,-0.18982315063476562,1.3359407186508179,73.76799774169922,-2.1803187203023073,0.888234208494593,88.58887199471309,-8.560839,-1.4388098,-9.876498,81.807236,-12.761669,-3.694014,-17.405666,3.2867494,-3.3591032,48.89161,-28.783037,-1.705702,-4.8447385,4.05099,15.02091,4.800789,18.013601,-24.216005,0.018161895,-16.750824,3.1536033,2.6761057,-8.809488,-20.986347,18.349583,8.801842,-1.1956689,2.034546,-5.268772
4,-0.135350301861763,2.5109264850616455,73.53253936767578,-2.271546564014363,0.8756012347987181,88.75171413989551,-10.22451,-1.2683164,-10.036566,83.108864,-13.790478,-3.614593,-16.42149,3.325593,-3.60557,49.372612,-30.068018,-1.7616819,-4.491603,4.22895,15.144733,6.561705,17.872154,-23.62939,0.08833353,-16.745901,3.0952516,3.190241,-10.959959,-21.226128,18.667505,8.730928,-1.5979201,2.0930822,-5.3687186
5,-0.10299579054117203,3.695732831954956,73.35330963134766,-2.270216556573432,0.9167576460635228,88.88243990728431,-11.952129,-1.071785,-9.961503,83.952446,-14.777931,-3.3060207,-15.303081,3.2826755,-3.7597275,49.46442,-31.140722,-1.7843796,-4.015016,4.3565083,15.127289,8.421796,17.72519,-22.996046,-0.39863282,-16.795605,3.102739,3.2920873,-12.825579,-21.400816,18.71986,8.416982,-2.0275211,2.004037,-5.199436
6,-0.06619378924369812,4.911018371582031,73.25021362304688,-2.2015013498137677,0.9953658174276868,88.98946251688807,-13.718959,-0.8558295,-9.719078,84.45563,-15.734013,-2.8375797,-14.085527,3.1780512,-3.8471859,49.275017,-32.057953,-1.7840797,-3.4495552,4.434104,15.004873,10.364562,17.57979,-22.337112,-1.2933514,-16.891409,3.1577506,3.1006336,-14.511441,-21.50318,18.588692,7.964793,-2.483949,1.8050786,-4.839698
7,-0.02887583337724209,6.135019779205322,73.22505950927734,-2.0748260651698933,1.0925760478164626,89.07082407502628,-15.428935,-0.654929,-9.341156,84.55843,-16.599651,-2.3444657,-12.769864,3.0284145,-3.8665485,48.81971,-32.741455,-1.7846819,-2.7995353,4.453713,14.808589,12.310066,17.440386,-21.696642,-2.3894827,-17.07192,3.2220082,2.7493339,-16.054972,-21.5482,18.40831,7.435941,-2.846297,1.5826293,-4.465791
8,-0.009339053183794022,7.375816822052002,73.27803039550781,-1.8998052771609597,1.1898434870393357,89.12463883977925,-16.984753,-0.49735424,-8.85443,84.19692,-17.314966,-1.955748,-11.357477,2.8512151,-3.8159604,48.113014,-33.11214,-1.8087251,-2.0664668,4.4147916,14.572606,14.17035,17.310207,-21.116339,-3.4780288,-17.373825,3.2570481,2.3709795,-17.468363,-21.562637,18.306898,6.861269,-2.9904664,1.4289693,-4.252099
9,0.016191786155104637,8.647610664367676,73.40827941894531,-1.667995580738913,1.2775883349274468,89.11860093253325,-18.368416,-0.35526705,-8.207873,83.330734,-17.878368,-1.6862723,-9.838758,2.6450171,-3.657748,47.144863,-33.17293,-1.8849609,-1.2009325,4.31824,14.314961,15.928705,17.18911,-20.589996,-4.5661154,-17.882866,3.249323,1.944781,-18.721462,-21.55852,18.271826,6.1792817,-2.834799,1.3795106,-4.291345
10,0.03177066519856453,9.927071571350098,73.60549926757812,-1.3789195360549007,1.3671484209858245,89.06438611485656,-19.619759,-0.2133523,-7.4025807,81.99588,-18.321543,-1.4745946,-8.220231,2.3943458,-3.4067585,45.91836,-32.962418,-1.9883053,-0.21967088,4.167566,14.024328,17.635767,17.075346,-20.094267,-5.757783,-18.554176,3.2250714,1.417649,-19.806568,-21.536871,18.247643,5.374731,-2.4539952,1.3837042,-4.476924
11,0.048265352845191956,11.228120803833008,73.85969543457031,-1.0540599374616144,1.4714462907023318,89.02618910020334,-20.736023,-0.1224199,-6.5428658,80.25223,-18.629568,-1.3346219,-6.5289173,2.0984333,-3.1403308,44.470955,-32.456436,-2.0607295,0.77569705,3.9683952,13.690168,19.297785,16.97156,-19.640049,-6.9832926,-19.226967,3.2019362,0.8733608,-20.752615,-21.511614,18.298063,4.53112,-1.9635813,1.4074386,-4.681744
12,0.06660442054271698,12.552504539489746,74.17598724365234,-0.715393179541773,1.6025583741955176,89.06864057959893,-21.7143,-0.13773984,-5.7326956,78.15102,-18.788935,-1.280072,-4.7892814,1.7618932,-2.9352014,42.83675,-31.628448,-2.0459433,1.6820354,3.728635,13.302121,20.920315,16.880917,-19.236454,-8.173788,-19.73908,3.1929336,0.39541402,-21.58653,-21.502571,18.48963,3.7267106,-1.4740194,1.418827,-4.778566
13,0.08449089527130127,13.914331436157227,74.54552459716797,-0.36470824170076294,1.747991721357283,89.20089558997715,-22.534632,-0.2907995,-4.9888372,75.66269,-18.783958,-1.3163581,-2.940614,1.395253,-2.7789588,40.92211,-30.456728,-1.9120605,2.4931164,3.4491591,12.864872,22.496792,16.81291,-18.891987,-9.330053,-20.019932,3.1985283,0.0055955364,-22.289669,-21.52761,18.84607,2.9462762,-0.9172698,1.4110136,-4.7514205
14,0.06942882388830185,15.320337295532227,74.95864868164062,0.007906353321034119,1.904707940732042,89.39258771155208,-23.197695,-0.544908,-4.261038,72.76171,-18.626577,-1.4336593,-0.9968609,1.0013685,-2.6436145,38.74934,-28.962624,-1.6930987,3.2582448,3.129904,12.389269,24.0268,16.770603,-18.596285,-10.490261,-20.165436,3.2094226,-0.34070674,-22.83646,-21.591066,19.32144,2.1320403,-0.25797603,1.4029113,-4.6627955
15,0.05842721462249756,16.724868774414062,75.39896392822266,0.39371503492977,2.0984768544373527,89.64865104192752,-23.734615,-0.85996014,-3.548644,69.50747,-18.3382,-1.6238391,0.90558046,0.5792381,-2.5801923,36.532993,-27.186392,-1.4368497,3.9549785,2.7766588,11.869403,25.520279,16.74402,-18.329403,-11.633241,-20.260674,3.221897,-0.65923995,-23.248806,-21.690882,19.884478,1.3071889,0.33739784,1.4029543,-4.5005646
16,0.03347276523709297,18.162158966064453,75.86360168457031,0.7844778000312619,2.354571424398957,89.97470708769521,-24.174334,-1.2013184,-2.8464766,65.95223,-17.936485,-1.8830963,2.632311,0.12815231,-2.6385386,34.48855,-25.168566,-1.1952233,4.5568504,2.3974068,11.2964115,26.983416,16.71385,-18.070566,-12.728898,-20.387049,3.232977,-0.9666988,-23.556732,-21.819614,20.508526,0.506281,0.7016613,1.4183649,-4.253309
17,0.0038596263621002436,19.628664016723633,76.33747863769531,1.2102376990965769,2.6977186706173284,90.40153131415546,-24.509716,-1.6419572,-2.1452367,61.992622,-17.399815,-2.2897923,4.1909685,-0.3892933,-2.8438392,32.571236,-22.833658,-0.9666555,5.036235,1.9670923,10.635949,28.423435,16.670212,-17.816317,-13.762345,-20.527164,3.2353852,-1.2610167,-23.755545,-21.977362,21.211027,-0.2542184,0.75315475,1.4461279,-3.8909562
18,-0.056492093950510025,21.09320068359375,76.81344604492188,1.6601253192983174,3.1029764826383053,90.91824520064634,-24.706417,-2.1835718,-1.451971,57.598976,-16.70957,-2.8290062,5.630987,-0.9454372,-3.1598303,30.728893,-20.203344,-0.7361598,5.403423,1.4994167,9.902827,29.831242,16.613132,-17.56846,-14.742285,-20.643642,3.2324793,-1.5369858,-23.840338,-22.167377,22.003496,-0.98558897,0.58975005,1.4817394,-3.4278207
19,-0.13703419268131256,22.573326110839844,77.27400970458984,2.0658707746487774,3.5237743405980533,91.46526769763857,-24.75543,-2.689162,-0.7790331,52.932972,-15.886331,-3.3635619,6.896522,-1.4476889,-3.5418196,29.13404,-17.441668,-0.5368164,5.6931176,1.0642203,9.157716,31.183725,16.535906,-17.316992,-15.670192,-20.788113,3.238839,-1.8065407,-23.843239,-22.38327,22.851099,-1.6912136,0.31376195,1.529416,-2.9193237
20,-0.22368919849395752,24.035934448242188,77.71302795410156,2.3747758354494652,3.9180121701128447,91.97957104817111,-24.646221,-3.0383902,-0.12285891,48.143764,-14.947573,-3.7587557,7.9436154,-1.8264036,-3.944236,27.926357,-14.696828,-0.39749405,5.943488,0.7150057,8.458918,32.456573,16.42845,-17.053183,-16.542778,-21.010876,3.2695549,-2.0816555,-23.801683,-22.612295,23.723145,-2.3669958,0.022526594,1.5951583,-2.4206843
21,-0.29849743843078613,25.464630126953125,78.1258316040039,2.5985213514970305,4.3168644179988425,92.45984769158927,-24.36374,-3.2452521,0.5644834,43.07529,-13.808537,-4.0171437,8.71638,-2.1022592,-4.3789935,27.13469,-11.88446,-0.37363762,6.15148,0.4310537,7.7753015,33.66691,16.282684,-16.763329,-17.356358,-21.366098,3.3386912,-2.369416,-23.7486,-22.848118,24.656523,-2.9939387,-0.3369821,1.6954277,-1.9131591
22,-0.3664446175098419,26.902732849121094,78.50767517089844,2.7526291141196713,4.728718774825911,92.9269167134291,-23.884098,-3.38486,1.2808216,37.643085,-12.4582405,-4.2200866,9.269449,-2.3023515,-4.8591795,26.65409,-8.943946,-0.4299673,6.300707,0.20493577,7.0866942,34.821537,16.095434,-16.45034,-18.108389,-21.809479,3.4354084,-2.6627676,-23.673346,-23.08996,25.663511,-3.5602791,-0.7959333,1.8195373,-1.376844
23,-0.4787558615207672,28.415098190307617,78.88414001464844,2.780691574346526,5.082852892754341,93.34864327154531,-23.21998,-3.418277,1.9596127,32.161858,-11.043866,-4.343255,9.728416,-2.3672328,-5.340191,26.406122,-6.0435705,-0.4608626,6.41713,0.10645142,6.4668155,35.87863,15.866795,-16.137442,-18.801277,-22.244051,3.5406451,-2.9514825,-23.54731,-23.329853,26.670795,-4.0762563,-1.221178,1.9369724,-0.8664951
24,-0.563502311706543,29.908870697021484,79.21760559082031,2.633446380113772,5.311328645413344,93.69517092059192,-22.420113,-3.2896523,2.5324044,27.006943,-9.742402,-4.348979,10.217359,-2.2359738,-5.7729864,26.30946,-3.3533366,-0.36703333,6.528091,0.19632895,5.9880013,36.795395,15.602117,-15.850308,-19.43195,-22.57478,3.633707,-3.2254908,-23.34578,-23.557806,27.602745,-4.5486984,-1.4794952,2.0202858,-0.4365271
25,-0.6320095062255859,31.374767303466797,79.50209045410156,2.2523217606375696,5.395855308899012,93.94728623281772,-21.506968,-2.8932002,3.002957,22.246902,-8.620549,-4.128515,10.787217,-1.8574444,-6.189304,26.288116,-0.77906626,-0.06263539,6.651904,0.525548,5.6558146,37.589348,15.303378,-15.581166,-20.003574,-22.803804,3.7114887,-3.4936428,-23.071432,-23.771795,28.47997,-4.984618,-1.4929492,2.0542085,-0.09901001
26,-0.7034832835197449,32.834632873535156,79.74424743652344,1.6788959693899812,5.377448868714856,94.12373530953177,-20.504833,-2.2831004,3.4207804,17.763073,-7.6204734,-3.7390318,11.37012,-1.2736132,-6.588281,26.384481,1.7384166,0.37364817,6.774373,1.0484719,5.4312186,38.274456,14.9716,-15.324917,-20.513824,-22.974237,3.783548,-3.7572565,-22.748625,-23.971498,29.330992,-5.3667755,-1.3477216,2.0592668,0.17463677
27,-0.7717159390449524,34.29246520996094,79.93182373046875,1.0288829368108745,5.2809616069883125,94.2593269464927,-19.493101,-1.6302347,3.7718518,13.700689,-6.7508845,-3.3667347,11.892082,-0.5876222,-6.882558,26.734257,3.9512558,0.7955316,6.8674417,1.6602882,5.3180118,38.802704,14.617694,-15.109447,-20.95664,-23.053131,3.8469856,-3.9955273,-22.383589,-24.14684,30.08933,-5.6675324,-1.1553122,2.0618954,0.3909655
28,-0.8310912847518921,35.730342864990234,80.06285095214844,0.42283980235194946,5.132171434870813,94.39101801337613,-18.514196,-1.0966269,4.022325,10.145204,-5.974673,-3.1788461,12.276346,0.087033376,-7.001643,27.479542,5.602997,1.0606918,6.903392,2.248325,5.321202,39.127476,14.262551,-14.961436,-21.327465,-23.010391,3.8981493,-4.1855803,-21.974169,-24.283516,30.682455,-5.86288,-1.0289754,2.087053,0.5575256
29,-0.9059790372848511,37.14973068237305,80.1395263671875,-0.1197933578837934,4.938859319736649,94.53141256408327,-17.555136,-0.67866445,4.2143817,7.061742,-5.2860827,-3.1955485,12.472438,0.7310307,-6.928481,28.739655,6.5507364,1.1112208,6.8711443,2.7895296,5.455773,39.235096,13.91729,-14.885196,-21.644238,-22.834558,3.9349153,-4.292407,-21.52075,-24.36933,31.080269,-5.9553857,-1.0063568,2.138044,0.6846128
30,-0.9693499803543091,38.54708480834961,80.15127563476562,-0.6240091176998603,4.69718625498921,94.67755440788382,-17.805573,-0.22713923,4.3411794,6.9555144,-6.0380464,-3.309029,12.492243,1.3495795,-6.725948,30.486267,6.914285,1.0381271,6.7741323,3.299125,5.708639,39.149887,13.587428,-14.864639,-21.90236,-22.549458,3.957828,-4.335042,-21.02168,-24.398838,31.320204,-5.94797,-1.0283952,2.2010314,0.7661886
31,-0.9855275750160217,39.85952377319336,80.09888458251953,-1.0399515807222404,4.414515249754413,94.8401819605351,-17.892826,0.08069731,4.2577434,6.8912354,-6.614153,-3.474254,12.369373,1.8777305,-6.4470115,32.60798,6.844424,0.926736,6.6099563,3.72485,6.045194,38.885143,13.29036,-14.895016,-22.074688,-22.1799,3.9667547,-4.371266,-20.46075,-24.36692,31.426628,-5.827086,-1.0641775,2.27501,0.7842629
32,-1.0293678045272827,41.21187210083008,80.00468444824219,-1.323179107493818,4.097064492002121,95.02506593924944,-17.815784,0.17329504,3.8466465,6.859719,-6.948567,-3.65001,12.143595,2.263628,-6.1393437,34.980675,6.5038333,0.86449265,6.386273,4.017592,6.4310155,38.457726,13.051233,-14.974466,-22.13967,-21.75358,3.9605763,-4.4567924,-19.8144,-24.269823,31.417994,-5.58448,-1.0848472,2.3590868,0.72144186
33,-1.0823830366134644,42.587074279785156,79.85638427734375,-1.4948826036198275,3.7126189636245157,95.20695971317232,-17.536562,0.045143846,2.9037962,6.861452,-7.137672,-3.9661446,11.8468,2.5834935,-5.726533,37.622906,5.84366,0.8572333,6.1344934,4.190287,6.8942256,37.87928,12.889375,-15.1066,-22.101717,-21.271385,3.925721,-4.6280255,-19.044285,-24.098507,31.270159,-5.215135,-1.0625477,2.463675,0.5604937
34,-1.1105294227600098,43.944541931152344,79.65789794921875,-1.566421120613268,3.2693184466818455,95.39221372329881,-17.058838,-0.26876324,1.5525873,6.895829,-7.1849823,-4.398786,11.453965,2.8522108,-5.215126,40.58378,4.8057675,0.87493056,5.848983,4.25106,7.4376087,37.144585,12.809097,-15.298101,-21.977766,-20.730825,3.864139,-4.841878,-18.164557,-23.848322,30.974667,-4.7253976,-1.0213808,2.5848413,0.31590223
35,-1.1365852355957031,45.30704879760742,79.40027618408203,-1.4859528763060648,2.831694309138117,95.6286235290019,-16.44713,-0.77733785,0.16375293,6.9584203,-6.876716,-4.688998,10.938903,2.9267273,-4.7691593,43.749493,3.5538425,0.94845974,5.4885592,4.146845,7.9893622,36.24559,12.809725,-15.552527,-21.773144,-20.153578,3.7990134,-5.0360427,-17.233126,-23.52774,30.574192,-4.126526,-1.0064279,2.7006557,0.017286548
36,-1.185947060585022,46.63823699951172,79.1199951171875,-1.2087071119585364,2.460640430632548,95.9587081518359,-15.771484,-1.4777244,-0.89991236,7.0461755,-5.98319,-4.576924,10.28761,2.6596994,-4.541065,46.987682,2.2625299,1.1025227,5.0184464,3.832825,8.4797325,35.173565,12.885916,-15.87383,-21.493847,-19.558464,3.755193,-5.15035,-16.29973,-23.152205,30.109121,-3.4427686,-1.06057,2.790148,-0.30702126
37,-1.2298296689987183,47.94905090332031,78.8183364868164,-0.6697200842869916,2.1598180416341464,96.4433060721592,-16.284187,-2.4783309,-1.5204324,9.816296,-5.375713,-3.8507447,9.529701,1.9690988,-4.5727024,50.284462,0.96291715,1.40766,4.3941045,3.2486892,8.903496,33.89738,13.033423,-16.279032,-21.133703,-18.866564,3.7720208,-5.148719,-15.356852,-22.72859,29.5698,-2.6549194,-1.1715121,2.844807,-0.68099594
38,-1.2712739706039429,49.25449752807617,78.45558166503906,0.01692734065564151,1.8780157476807728,97.01991210936662,-17.325787,-3.6524234,-1.8532505,13.955726,-4.625904,-2.704606,8.718741,1.0268298,-4.7576566,53.63587,-0.395562,1.815347,3.672941,2.508594,9.295239,32.441467,13.247996,-16.772346,-20.708221,-18.095085,3.8279302,-5.070059,-14.372145,-22.258999,28.941477,-1.7789606,-1.3176999,2.8789203,-1.1084994
39,-1.305492639541626,50.5793571472168,78.02306365966797,0.6538149398423336,1.6029909306301147,97.55303373683543,-18.35496,-4.7022185,-1.9607036,18.277014,-4.088685,-1.467864,7.8544517,0.02699082,-5.02539,56.95408,-1.7724814,2.166814,2.965659,1.8103147,9.646863,30.870934,13.52177,-17.332796,-20.243607,-17.405756,3.8562822,-4.966647,-13.35682,-21.757214,28.258068,-0.8939744,-1.5312444,2.905758,-1.5317261
40,-1.3711824417114258,51.87926483154297,77.56022644042969,1.129009675339783,1.3455122370714412,97.92831945355759,-19.239872,-5.472706,-1.9404782,22.447659,-4.570121,-0.46894053,6.8943067,-0.9444082,-5.306504,60.200172,-3.1598206,2.3172622,2.3624756,1.262674,9.94988,29.233103,13.845457,-17.933233,-19.751177,-16.958515,3.7883554,-4.8925705,-12.320156,-21.242096,27.551563,-0.08320599,-1.8419632,2.937692,-1.8965484
41,-1.4203647375106812,53.146148681640625,77.06182098388672,1.4664337154958471,1.129876674605952,98.12708327947571,-20.114096,-6.000545,-1.7863933,26.777033,-6.6613717,0.24972829,5.788177,-1.9842243,-5.614441,63.47642,-4.5883503,2.2451653,1.8767103,0.8469637,10.1819,27.515285,14.21528,-18.58165,-19.215036,-16.88041,3.572356,-4.888429,-11.273933,-20.729015,26.83217,0.64750683,-2.2723389,2.968346,-2.1884172
42,-1.4541304111480713,54.431514739990234,76.51953887939453,1.7522281958895665,0.9562180375753895,98.21859583472104,-21.05229,-6.3880196,-1.4976267,31.432936,-9.876974,0.86001956,4.5536337,-3.166116,-5.957319,66.79516,-6.068882,2.0195951,1.4580454,0.48124298,10.357519,25.682789,14.628487,-19.289108,-18.627108,-17.056925,3.2552204,-4.919802,-10.189982,-20.220774,26.078861,1.307667,-2.795627,2.995203,-2.439762
43,-1.488186240196228,55.73540496826172,75.98175811767578,2.0221328368015987,0.8100314562922938,98.23255163532052,-21.825373,-6.676525,-1.1728715,35.83387,-13.389617,1.3377274,3.2194536,-4.4241457,-6.256491,70.01154,-7.5764184,1.6455661,1.0869887,0.12605144,10.519416,23.744438,15.076721,-20.030262,-18.00626,-17.283646,2.9150822,-4.928377,-9.024275,-19.712944,25.2789,1.846139,-3.368938,3.0355294,-2.6672623
44,-1.528741478919983,57.02029037475586,75.48342895507812,2.303709125712117,0.6747025366374995,98.1962003437631,-22.192352,-6.9116592,-0.88695234,39.369755,-16.35253,1.6573775,1.8106387,-5.6730213,-6.4406347,72.9745,-9.07974,1.1325368,0.7402742,-0.251251,10.708119,21.715311,15.546637,-20.778917,-17.376345,-17.35497,2.630195,-4.853586,-7.7438087,-19.197203,24.426636,2.2260008,-3.9512475,3.1063225,-2.886061
45,-1.5515222549438477,58.280086517333984,75.03486633300781,2.6316871666880677,0.5515539824925259,98.09308594854981,-22.070335,-7.125172,-0.59751797,41.851486,-18.595293,1.7725024,0.28866842,-6.9798,-6.4993863,75.72681,-10.618103,0.40864995,0.43182692,-0.6784818,10.939274,19.539398,16.029718,-21.560822,-16.683365,-17.197891,2.4243731,-4.652326,-6.338443,-18.662594,23.496197,2.438831,-4.611491,3.2324088,-3.0913572
46,-1.5657780170440674,59.54035949707031,74.64649963378906,2.9923739651610464,0.4510332357209943,97.918283776345,-21.60962,-7.3121567,-0.25745872,43.638077,-20.560926,1.7119147,-1.3615282,-8.358236,-6.4501705,78.321754,-12.195024,-0.50050074,0.15956189,-1.1430856,11.186234,17.230658,16.519184,-22.379284,-15.941089,-16.92632,2.2561698,-4.363735,-4.8365755,-18.10687,22.50694,2.5212545,-5.3484106,3.3976529,-3.2748072
47,-1.581525444984436,60.791839599609375,74.31275177001953,3.3333572130963884,0.36800021406848726,97.71443598753017,-20.904572,-7.457382,0.06910406,44.91738,-22.310581,1.5633754,-3.0810487,-9.6271,-6.287738,80.62343,-13.718658,-1.4335734,-0.1269988,-1.6054906,11.425485,14.905645,17.001776,-23.172699,-15.256454,-16.612944,2.1064436,-4.052521,-3.2688386,-17.534573,21.526928,2.5045605,-6.012825,3.556999,-3.4491925
48,-1.5874342918395996,62.03812789916992,74.03846740722656,3.600689306725347,0.29574180820345847,97.5237864910023,-20.045666,-7.5390644,0.31153938,45.87299,-23.903486,1.4135789,-4.806485,-10.605456,-6.026841,82.49786,-15.08761,-2.2271533,-0.48140863,-2.02199,11.631615,12.675631,17.463535,-23.877323,-14.725769,-16.326773,1.955353,-3.7881982,-1.671885,-16.953144,20.630753,2.4214025,-6.4545956,3.6655023,-3.6305928
49,-1.600563883781433,63.27375793457031,73.8174819946289,3.801733870252075,0.2188672218328089,97.33138003037679,-19.003666,-7.553951,0.4735923,46.499035,-25.358805,1.264449,-6.558539,-11.268629,-5.64193,83.964554,-16.28232,-2.899309,-0.89720476,-2.4040515,11.822276,10.52884,17.898777,-24.486452,-14.329789,-15.996241,1.8060676,-3.5760658,-0.04036096,-16.35672,19.825325,2.280096,-6.621312,3.7181342,-3.8478608
50,-1.5941036939620972,64.54724884033203,73.65843963623047,3.9577766020462533,0.14468106191914218,97.12374625157607,-17.74731,-7.5125637,0.5888102,46.71672,-26.64573,1.0842181,-8.35968,-11.696257,-5.159553,85.07817,-17.344517,-3.5143883,-1.3593302,-2.7637439,11.999354,8.409877,18.30623,-25.029675,-14.011526,-15.610996,1.6664174,-3.388375,1.6261555,-15.740106,19.086473,2.0738595,-6.596261,3.7352023,-4.086975
51,-1.5823148488998413,65.85181427001953,73.56880187988281,4.035687729903137,0.09877473353444918,96.9457457568303,-16.360247,-7.404793,0.6245964,46.60001,-27.745413,0.90392905,-10.142201,-11.879113,-4.6900682,85.76409,-18.26165,-3.9837418,-1.9047574,-3.054268,12.114659,6.3588953,18.68166,-25.50276,-13.796269,-15.328296,1.5233773,-3.247175,3.294325,-15.116948,18.436562,1.8015106,-6.431217,3.709799,-4.3012533
52,-1.5664093494415283,67.1395034790039,73.53829193115234,4.001991427130304,0.10651408688073179,96.84273155887958,-14.925775,-7.2135587,0.54498017,46.224194,-28.638704,0.7484243,-11.834192,-11.819971,-4.3441534,85.94518,-19.024456,-4.2203608,-2.5727763,-3.2249258,12.123352,4.4170003,19.020233,-25.896126,-13.706777,-15.3043165,1.361313,-3.1771207,4.941054,-14.513347,17.897852,1.4496287,-6.1739364,3.636437,-4.4457912
53,-1.5500408411026,68.44136047363281,73.5743408203125,3.8186684785487808,0.1877514971314609,96.84452394568487,-13.462614,-6.899121,0.30215737,45.58201,-29.377075,0.61116916,-13.449078,-11.46569,-4.1500936,85.574684,-19.635904,-4.166517,-3.409741,-3.2225826,12.000578,2.594004,19.318968,-26.191109,-13.744067,-15.632369,1.1574242,-3.2095137,6.5877147,-13.949303,17.477724,0.9706634,-5.7539234,3.4982069,-4.5212297
54,-1.5345488786697388,69.77172088623047,73.68193817138672,3.515629962718144,0.3235433301638345,96.92174377999835,-11.92947,-6.468828,-0.07210803,44.648083,-29.954199,0.47910482,-15.003618,-10.861008,-4.060412,84.6977,-20.102348,-3.887629,-4.382506,-3.0778198,11.784151,0.8600399,19.579817,-26.400305,-13.883033,-16.2099,0.9243735,-3.3275635,8.258,-13.42898,17.160328,0.3635599,-5.165582,3.3043752,-4.548261
55,-1.5201351642608643,71.10218811035156,73.85726928710938,3.1618287928124533,0.4812710514267407,97.03097449779887,-10.319143,-5.9772234,-0.49638546,43.46985,-30.263092,0.3609503,-16.434324,-10.158554,-4.064503,83.37852,-20.423653,-3.4810348,-5.4064417,-2.8661458,11.520991,-0.8043267,19.80851,-26.565649,-14.110639,-16.900024,0.7037976,-3.480927,9.934436,-12.958549,16.92503,-0.31235477,-4.5559487,3.0901692,-4.511051
56,-1.5101332664489746,72.43607330322266,74.09208679199219,2.8251416226531254,0.6282703351186764,97.12873201870823,-8.624291,-5.482754,-0.89131933,42.09577,-30.197659,0.2649985,-17.67926,-9.499889,-4.148545,81.68268,-20.599108,-3.040399,-6.3956857,-2.6642725,11.254301,-2.415117,20.011282,-26.729967,-14.419535,-17.566238,0.53530353,-3.616801,11.599111,-12.545532,16.747702,-0.9993839,-4.071712,2.8910153,-4.395127
57,-1.4881914854049683,73.82072448730469,74.39456176757812,2.5138740707089307,0.7470832138845385,97.22315243308954,-6.784574,-4.9976077,-1.2631419,40.442955,-29.73029,0.20634945,-18.696537,-8.911938,-4.333105,79.56395,-20.623993,-2.5362937,-7.3531737,-2.4861555,10.99669,-3.9733372,20.187775,-26.895674,-14.82291,-18.275236,0.42481866,-3.7386856,13.266228,-12.20103,16.629091,-1.7099581,-3.7370875,2.7119794,-4.1807165
58,-1.470599889755249,75.22818756103516,74.74334716796875,2.1972818673917724,0.8582592885734273,97.33027282736121,-4.8315907,-4.4917803,-1.6418375,38.528755,-28.924446,0.17011786,-19.524197,-8.333702,-4.606326,77.00427,-20.507872,-1.9419587,-8.31243,-2.2910616,10.727435,-5.4710493,20.336735,-27.047108,-15.320699,-19.066488,0.35231885,-3.8662186,14.947994,-11.929099,16.569405,-2.4742901,-3.4752104,2.5372765,-3.8816357
59,-1.4558677673339844,76.6340560913086,75.1279296875,1.8817136453455077,0.9856429674847191,97.41812783952714,-2.889825,-3.96449,-1.9856038,36.545525,-27.806675,0.12186208,-20.218922,-7.756798,-4.9086623,74.111786,-20.262661,-1.3457491,-9.2328825,-2.0746963,10.434584,-6.910262,20.464977,-27.198254,-15.895308,-19.764448,0.31670618,-3.9693775,16.620535,-11.7220545,16.54146,-3.2594886,-3.283371,2.369918,-3.534643
60,-1.4438446760177612,78.06598663330078,75.54607391357422,1.5730910737879207,1.1524444931996958,97.45482902618795,-1.0828198,-3.4184566,-2.257024,34.687267,-26.403162,0.031996515,-20.835829,-7.165488,-5.1868644,70.991,-19.896746,-0.8311956,-10.070792,-1.836568,10.105257,-8.291986,20.584986,-27.36611,-16.52839,-20.193026,0.31586808,-4.0173225,18.258774,-11.5648365,16.515032,-4.029865,-3.1634347,2.211902,-3.1751988
61,-1.4215633869171143,79.50639343261719,75.98861694335938,1.2672219262415172,1.35205278022411,97.43100400698526,0.61182916,-2.8475814,-2.45537,32.93704,-24.659502,-0.11488132,-21.362038,-6.519437,-5.4377213,67.61705,-19.379755,-0.40916574,-10.815153,-1.5838149,9.745488,-9.626199,20.707771,-27.55978,-17.237326,-20.213896,0.3516995,-3.9814045,19.859365,-11.454118,16.489504,-4.7835298,-3.150803,2.0639656,-2.7994351
62,-1.383127212524414,80.96263885498047,76.44338989257812,0.9649686203191813,1.5745855213629012,97.36197143020239,2.234933,-2.2636216,-2.6003737,31.230127,-22.589596,-0.29534876,-21.767076,-5.8320208,-5.6835003,63.94,-18.715368,-0.033631485,-11.48451,-1.3211918,9.359528,-10.903823,20.837246,-27.770596,-18.032993,-19.954258,0.42389348,-3.8835588,21.433516,-11.390355,16.47036,-5.53518,-3.2367718,1.9230764,-2.3924453
63,-1.3329219818115234,82.41744995117188,76.90299987792969,0.6780101828452185,1.8387113365158705,97.25317391647778,3.6968746,-1.6941552,-2.6909816,29.68314,-20.316635,-0.47823673,-22.078602,-5.1584554,-5.9206467,60.020473,-17.957947,0.29973206,-12.079505,-1.0435277,8.929387,-12.0998535,20.972301,-27.986853,-18.890493,-19.633732,0.5280938,-3.7703812,22.975117,-11.361754,16.435436,-6.270025,-3.3608418,1.785811,-1.9730912
64,-1.2704142332077026,83.897705078125,77.366943359375,0.41673896187403514,2.1635580666462872,97.11073965338436,4.9130774,-1.1620413,-2.727421,28.4058,-17.956892,-0.63503224,-22.323551,-4.5457754,-6.1534104,55.9095,-17.157211,0.6004306,-12.596003,-0.7481262,8.439313,-13.188537,21.126131,-28.202633,-19.7895,-19.475637,0.6572567,-3.6825027,24.476772,-11.342418,16.357904,-6.972361,-3.4653704,1.6487714,-1.5571698
65,-1.2111834287643433,85.37828063964844,77.81666564941406,0.15072788072807386,2.593602571831275,96.92758616077671,5.830954,-0.6254818,-2.7098696,27.401714,-15.459846,-0.77007633,-22.517475,-3.9409108,-6.427026,51.49996,-16.2631,0.90084094,-13.026466,-0.3983147,7.846902,-14.19978,21.3031,-28.414991,-20.719864,-19.600447,0.8153686,-3.6588242,25.93887,-11.317747,16.227982,-7.6248436,-3.5615864,1.5076052,-1.1326859
66,-1.1425048112869263,86.85307312011719,78.24231719970703,-0.1145076770075798,3.1038704256383234,96.7046463043869,6.509441,-0.09044443,-2.6486065,26.62407,-12.787597,-0.89841324,-22.61892,-3.312115,-6.739557,46.755707,-15.243238,1.2069939,-13.369943,-0.017093558,7.173573,-15.137647,21.50958,-28.632,-21.698275,-19.871744,1.004006,-3.6646008,27.360825,-11.283773,16.052448,-8.235298,-3.6785617,1.3640232,-0.6943957
67,-1.061870813369751,88.33543395996094,78.64395141601562,-0.30855434699359957,3.6109536315363004,96.46298412054361,7.0470896,0.35121292,-2.556488,26.06928,-10.062313,-1.010379,-22.578287,-2.7432988,-7.02469,41.83764,-14.183731,1.4869921,-13.645884,0.30993006,6.491765,-15.936961,21.7391,-28.846014,-22.730436,-20.115496,1.2150342,-3.6390438,28.722473,-11.237972,15.839939,-8.809663,-3.788759,1.2258773,-0.27239907
68,-0.9819947481155396,89.81509399414062,79.02043151855469,-0.36753088339810897,4.032839234622415,96.2251711491352,7.545144,0.61266404,-2.4417744,25.722748,-7.399175,-1.09338,-22.35897,-2.3278425,-7.215495,36.92086,-13.176441,1.6997143,-13.8763275,0.505846,5.8727784,-16.537874,21.977036,-29.045822,-23.811684,-20.155872,1.4407037,-3.524485,30.002377,-11.178861,15.600993,-9.3517685,-3.8640568,1.101779,0.10269494
69,-0.9053757190704346,91.31022644042969,79.36373138427734,-0.26670459095988763,4.361795083074709,95.9914269885815,8.021345,0.65416366,-2.2971745,25.548714,-4.706192,-1.120469,-21.919296,-2.1227775,-7.3435655,31.892115,-12.231235,1.8014463,-14.060784,0.554132,5.3120246,-16.938578,22.21439,-29.215628,-24.966839,-19.91363,1.7308728,-3.3210654,31.231598,-11.103766,15.313872,-9.858902,-3.9028206,0.9893442,0.42655122
70,-0.8389858603477478,92.81895446777344,79.67555236816406,-0.03140310045269128,4.635047555078278,95.76011293803057,8.445864,0.5176392,-2.1223278,25.519161,-1.9318566,-1.1098111,-21.27719,-2.0670965,-7.439853,26.665918,-11.281734,1.8405834,-14.195415,0.48344365,4.7756085,-17.178064,22.450645,-29.363056,-26.17567,-19.49114,2.0754206,-3.0593557,32.412945,-11.011487,14.977006,-10.333354,-3.919299,0.88638157,0.71368724
71,-0.7906173467636108,94.33258819580078,79.94003295898438,0.3226866599556149,4.838831724656065,95.55176527512461,8.852693,0.23684315,-1.9347432,25.619658,0.75314057,-1.1067505,-20.5079,-2.1104777,-7.4256625,21.50873,-10.328865,1.8925587,-14.296386,0.28480408,4.2908955,-17.2607,22.681726,-29.514807,-27.361076,-18.983608,2.377439,-2.7270977,33.482716,-10.908652,14.630698,-10.782802,-3.9117124,0.80260843,0.9634961
72,-0.7447357773780823,95.8719711303711,80.15951538085938,0.7730794385102515,4.960013167888286,95.38366338101098,9.269414,-0.15004857,-1.7537946,25.8525,3.1627245,-1.1496481,-19.70672,-2.224858,-7.21143,16.736076,-9.3991375,2.0116968,-14.379161,-0.04310472,3.884885,-17.192247,22.901226,-29.696148,-28.444355,-18.486126,2.5395815,-2.3093252,34.37744,-10.807131,14.31901,-11.213603,-3.876127,0.74776286,1.1748271
73,-0.69963538646698,97.41284942626953,80.32498168945312,1.3482458529930739,5.002902573470707,95.25560612599641,9.710779,-0.66930187,-1.5911243,26.167477,5.3544283,-1.3062519,-18.91391,-2.4609191,-6.679685,12.373276,-8.52244,2.171837,-14.441517,-0.52074385,3.5374596,-16.962664,23.10517,-29.926695,-29.431158,-18.032074,2.514814,-1.7545748,35.112896,-10.713702,14.042678,-11.645394,-3.8092668,0.7439754,1.3411024
74,-0.6382985711097717,98.9349594116211,80.44525146484375,2.0302453976779855,4.976422629528278,95.15435928745707,10.143822,-1.3087323,-1.4376365,26.607595,7.379758,-1.5332303,-18.051802,-2.8323474,-5.9154186,8.197824,-7.6408973,2.3316817,-14.474908,-1.1206193,3.2427225,-16.580223,23.291252,-30.188417,-30.34792,-17.564451,2.3651617,-1.0849496,35.71287,-10.630376,13.783498,-12.0676565,-3.7118247,0.7800089,1.4646853
75,-0.5682079792022705,100.4268798828125,80.51160430908203,2.7050235252345027,4.883682589154404,95.0664130380974,10.5014925,-1.932578,-1.2669203,27.354033,9.015958,-1.69661,-18.3868,-3.3466802,-5.0514164,7.0128284,-8.149426,2.5110726,-14.473889,-1.7391609,3.047976,-16.076368,23.45365,-30.448832,-31.13974,-17.041231,2.1551082,-0.3944932,36.119263,-10.566049,13.5584345,-12.432945,-3.5849433,0.8152675,1.557893
76,-0.49943214654922485,101.8845443725586,80.5244369506836,3.2674844772259144,4.727549692153939,94.97917136373198,10.721022,-2.4087107,-1.0428355,28.579943,10.042548,-1.6539662,-18.960741,-3.7681303,-4.3229113,6.892276,-8.938569,2.7339396,-14.434092,-2.2807662,2.9978654,-15.478437,23.58474,-30.67224,-31.755203,-16.422653,1.9484761,0.22124358,36.27562,-10.533986,13.386178,-12.69681,-3.427849,0.80930114,1.6319175
77,-0.4249958395957947,103.32665252685547,80.49248504638672,3.7355684154121613,4.494203265190544,94.90225964954405,10.787084,-2.7060351,-0.6857502,30.407078,10.255139,-1.2635049,-19.265862,-4.079566,-3.788634,6.818939,-9.498194,3.0779095,-14.361951,-2.7618139,3.1022332,-14.799636,23.649603,-30.86447,-32.14516,-15.651419,1.7079227,0.7569305,36.16272,-10.544004,13.278452,-12.849992,-3.214136,0.7346432,1.6840765
78,-0.3498634696006775,104.75656127929688,80.4107666015625,4.139547384438586,4.193986695169618,94.82642631576073,10.717035,-2.8500907,-0.23253828,32.75263,9.787656,-0.6162106,-19.338045,-4.321152,-3.3464615,6.779537,-9.851339,3.503131,-14.241426,-3.2145472,3.334987,-14.020185,23.674267,-31.04538,-32.354794,-14.766508,1.4175826,1.2614155,35.801483,-10.574525,13.221963,-12.900207,-2.9581306,0.6169789,1.7144965
79,-0.2765209972858429,106.17748260498047,80.27503204345703,4.416854871351747,3.863190154964341,94.71899504928497,10.508618,-2.8262591,0.17767021,35.45795,8.95131,0.080212004,-19.210836,-4.4235315,-3.0009513,6.762373,-9.90982,3.8685784,-14.044632,-3.5532486,3.6840472,-13.126302,23.693256,-31.200752,-32.45345,-13.861442,1.1712906,1.7209831,35.251423,-10.677623,13.191523,-12.901706,-2.679121,0.4998496,1.7240262
80,-0.21535633504390717,107.59423828125,80.09361267089844,4.491585692404905,3.536123535675975,94.54953075167357,10.164841,-2.6320682,0.4181901,38.34638,8.082331,0.60725045,-18.919573,-4.302645,-2.7614,6.7621064,-9.586136,4.033353,-13.762908,-3.7117043,4.1139603,-12.162464,23.674732,-31.278849,-32.39105,-13.022229,1.0787683,2.0596325,34.469532,-10.795541,13.203311,-12.761877,-2.4694927,0.42537445,1.7126075
81,-0.16464631259441376,108.99382781982422,79.8595199584961,4.353518657147458,3.1944278793141656,94.30587709843113,9.70763,-2.3006606,0.47423458,41.43191,7.2153406,0.9140231,-18.427753,-3.947724,-2.636484,6.7780495,-8.771024,4.064795,-13.42408,-3.6471164,4.655392,-11.06011,23.599741,-31.23432,-32.20804,-12.212976,1.168779,2.2513855,33.474396,-11.042366,13.279426,-12.537252,-2.3035624,0.4071654,1.6548548
82,-0.11362768709659576,110.38092041015625,79.57134246826172,4.040015032241638,2.8232212359678237,94.01043128572431,9.141621,-1.8371154,0.3974366,44.775414,6.1988273,1.1010284,-17.733158,-3.3860302,-2.6216424,6.817208,-7.539691,4.022086,-13.012882,-3.419067,5.307799,-9.853613,23.47559,-31.125034,-31.872635,-11.40771,1.3819213,2.3255165,32.249645,-11.337919,13.410453,-12.200399,-2.1781213,0.41992408,1.5654575
83,-0.022901378571987152,111.72743225097656,79.2790298461914,3.5646877270197233,2.4642805069073037,93.68861030400996,8.449542,-1.2400533,0.17221244,48.26724,5.096702,1.1658461,-16.930012,-2.609008,-2.6973503,6.897898,-6.08677,3.7480738,-12.545291,-3.0239005,6.0022683,-8.608552,23.304585,-30.961948,-31.366743,-10.70444,1.6795594,2.3172343,30.854742,-11.679475,13.581019,-11.79082,-2.0579176,0.45699885,1.4602638
84,0.10473347455263138,113.0412826538086,78.96524047851562,2.954515866908018,2.158847120774759,93.36634233658661,7.622058,-0.5334504,-0.21385342,51.784695,3.9828048,1.1040487,-16.670801,-1.669367,-2.8163397,8.231684,-5.2294197,3.0689857,-12.036364,-2.4770696,6.66752,-7.388124,23.090597,-30.758482,-30.678326,-10.200095,2.0244284,2.264529,29.349588,-12.059943,13.773402,-11.347754,-1.9106559,0.5114975,1.3562657
85,0.20563139021396637,114.36805725097656,78.58360290527344,2.1681587184217883,1.9265086477867686,93.03226273410282,6.65455,0.28215,-0.8040861,55.34015,2.8761494,0.8272852,-17.907677,-0.57653147,-2.9745915,12.838619,-5.791455,1.6740507,-11.469604,-1.7347383,7.2875443,-6.199367,22.835476,-30.519247,-29.82236,-9.948717,2.4841144,2.1295252,27.73893,-12.4686575,13.973616,-10.876651,-1.7157593,0.59779906,1.277439
86,0.2768521308898926,115.70824432373047,78.14034271240234,1.3271804776805494,1.71140503252129,92.70713743053287,5.6169415,1.0402949,-1.5701169,58.91809,1.7767687,0.36497745,-19.336409,0.56165326,-3.2266808,18.07691,-6.3727593,-0.24530676,-10.868849,-0.933209,7.8931437,-5.0121074,22.541006,-30.246447,-28.803705,-9.890571,3.053817,1.9093654,26.013435,-12.899673,14.197593,-10.376883,-1.4979819,0.7152237,1.208288
87,0.3838388919830322,117.00941467285156,77.6614990234375,0.6019052818660436,1.470248873201109,92.44080732056257,4.562877,1.5913681,-2.4124463,62.408207,0.6950929,-0.12388121,-20.651361,1.5320071,-3.541544,23.29223,-7.1743875,-2.1512737,-10.289731,-0.25310144,8.487574,-3.8320348,22.210407,-29.941977,-27.590975,-9.953792,3.5866256,1.6979628,24.191198,-13.35412,14.470807,-9.862093,-1.2913468,0.832751,1.1065096
88,0.4947538375854492,118.28958892822266,77.1324234008789,0.05465791834802339,1.1874454299987427,92.25678344943039,3.4919126,1.9286703,-3.244227,65.75674,-0.38286,-0.49019817,-21.576256,2.2636206,-3.874571,27.862839,-8.419887,-3.519647,-9.764398,0.24018502,9.077036,-2.6610205,21.845032,-29.601864,-26.15403,-10.066814,3.9329102,1.5892991,22.27521,-13.840335,14.815776,-9.333819,-1.1277096,0.91804063,0.93115526
89,0.5889891982078552,119.60359954833984,76.55834197998047,-0.3362189175974924,0.8641022024905186,92.14718917042491,2.374677,2.0888479,-4.0829425,69.046906,-1.4838358,-0.69825745,-22.181149,2.7821007,-4.2092576,31.979498,-10.4862995,-4.158562,-9.285744,0.565738,9.674625,-1.506989,21.439363,-29.219131,-24.379156,-10.311132,4.008766,1.6111047,20.240093,-14.370462,15.255716,-8.778622,-0.9675151,0.94078666,0.64471626
90,0.6703417897224426,120.88875579833984,75.99124908447266,-0.6604124119579333,0.5271453822872418,92.08541724128216,1.1900038,2.140091,-4.9588795,72.31751,-2.6131804,-0.8406336,-22.64781,3.1654847,-4.5462666,36.028347,-13.2467575,-4.3871446,-8.831692,0.8256074,10.27515,-0.35523373,20.989763,-28.785051,-22.329123,-10.691235,3.906098,1.7104249,18.08115,-14.943665,15.778047,-8.200416,-0.8025752,0.9242716,0.2759597
91,0.761619508266449,122.15451049804688,75.46051025390625,-0.9616297571667544,0.2019417416501917,92.0628544188457,-0.05804976,2.151337,-5.816822,75.4395,-3.7445939,-0.94604635,-22.897945,3.4613712,-4.8781695,39.7307,-16.182077,-4.428243,-8.405687,1.0835142,10.857844,0.82267207,20.5039,-28.295074,-20.242006,-11.023202,3.7387958,1.8606156,15.831528,-15.543495,16.350698,-7.625624,-0.71311986,0.9176076,-0.11604815
92,0.8433986306190491,123.41401672363281,74.98123931884766,-1.2738160236300873,-0.08987841554688164,92.07703507336066,-1.36297,2.1861875,-6.6067777,78.27217,-4.8462358,-1.035364,-22.826447,3.7443988,-5.2060432,42.7389,-18.741259,-4.497379,-8.01035,1.3849056,11.402781,2.0533946,19.99904,-27.752459,-18.35385,-11.124516,3.6223044,2.0404036,13.52453,-16.146158,16.93641,-7.0774565,-0.7842958,0.97163695,-0.46973643
93,0.8956853151321411,124.68317413330078,74.55430603027344,-1.621033701288054,-0.3540666429416861,92.14514442995065,-2.7359145,2.2974617,-7.3508773,80.81984,-5.8959975,-1.0956368,-22.332945,4.0754256,-5.581877,44.855347,-20.803833,-4.61269,-7.6664577,1.7373224,11.930883,3.3522322,19.483885,-27.143272,-16.625313,-10.871489,3.5741694,2.3039932,11.084862,-16.744926,17.57372,-6.4985633,-1.0846398,1.1312307,-0.8092831
94,0.9594159126281738,125.94544982910156,74.18476104736328,-1.9827853163633606,-0.5976273309691887,92.26427913876432,-4.183164,2.448439,-8.074151,83.14139,-6.9060264,-1.1115003,-21.497814,4.4346447,-6.0087056,46.286945,-22.642008,-4.667138,-7.362566,2.110067,12.446068,4.708961,18.963451,-26.475468,-14.96988,-10.388528,3.5392964,2.6456857,8.520746,-17.336264,18.261805,-5.902347,-1.5564224,1.3621585,-1.1520215
95,1.0146284103393555,127.21112060546875,73.87767791748047,-2.309568015578318,-0.8021732903760479,92.4052421125189,-5.6915374,2.5620935,-8.732998,85.16756,-7.8885865,-1.0993454,-20.46879,4.7815056,-6.4132867,47.255314,-24.281382,-4.6884375,-7.0511165,2.4798489,12.90149,6.1070867,18.45507,-25.795807,-13.55159,-9.868459,3.525204,2.9596493,5.9930477,-17.894049,18.901052,-5.406421,-2.1025655,1.5945822,-1.4225794
96,1.0696825981140137,128.51524353027344,73.63734436035156,-2.5516730579246816,-0.9501070007053403,92.53765656190288,-7.2468653,2.5658271,-9.275628,86.82507,-8.852304,-1.0721166,-19.388037,5.0639577,-6.71726,47.978546,-25.746538,-4.7026577,-6.6782613,2.8154974,13.247644,7.52315,17.983551,-25.158129,-12.531015,-9.506676,3.5332391,3.1431925,3.649965,-18.386469,19.390123,-5.0973744,-2.6367123,1.7546283,-1.5398241
97,1.11239755153656,129.80862426757812,73.45166015625,-2.7084422150203245,-1.030026113484647,92.68759597676782,-8.903738,2.4582844,-9.7227745,88.14426,-9.813999,-1.0130728,-18.264486,5.2643313,-6.927751,48.469692,-27.06155,-4.7078996,-6.2672486,3.1139293,13.467502,8.99212,17.567652,-24.555454,-12.01163,-9.340287,3.583434,3.172207,1.4790343,-18.790342,19.69691,-4.9492173,-3.2545345,1.8077403,-1.4114296
98,1.1406452655792236,131.1001739501953,73.32683563232422,-2.803877141169279,-1.0543929047609004,92.85875667015334,-10.653755,2.2790518,-10.087355,89.144455,-10.756654,-0.9176996,-17.03039,5.410834,-7.0818877,48.628296,-28.207863,-4.6984687,-5.8293915,3.3728075,13.586785,10.52296,17.214472,-23.971863,-11.900734,-9.277902,3.6678617,3.1057422,-0.60955054,-19.105238,19.88113,-4.8838787,-3.9772983,1.7906266,-1.0974311
99,1.1790668964385986,132.39373779296875,73.2657470703125,-2.819417716481855,-1.0426047176064317,92.98689071195015,-12.3867445,2.0237641,-10.304369,89.737175,-11.642586,-0.8216762,-15.709852,5.5074277,-7.1432323,48.504997,-29.148634,-4.6889143,-5.2977295,3.5668125,13.621021,12.059506,16.92734,-23.439837,-12.0738325,-9.321692,3.7451446,2.9658878,-2.5882123,-19.340288,19.98849,-4.906164,-4.602048,1.7375755,-0.74770516
100,1.1920785903930664,133.687255859375,73.28288269042969,-2.7375447340181136,-1.0140761158313596,93.00811051259173,-13.992479,1.6961485,-10.309847,89.83443,-12.437158,-0.7598338,-14.325623,5.553604,-7.073374,48.152233,-29.84825,-4.689714,-4.60148,3.675728,13.587078,13.538901,16.707495,-22.993492,-12.4021635,-9.472917,3.7739222,2.7751684,-4.41102,-19.510048,20.057224,-5.0403905,-4.925649,1.6893028,-0.51185876
101,1.1909732818603516,134.962646484375,73.35643768310547,-2.534061981103982,-0.9691126723169621,92.88007590841822,-15.465334,1.2903651,-10.051428,89.39372,-13.158951,-0.7216751,-12.870659,5.529218,-6.830895,47.557022,-30.33241,-4.7051525,-3.6779764,3.6876643,13.480823,14.953699,16.55859,-22.65377,-12.927107,-9.766065,3.7293208,2.5196695,-6.044609,-19.61784,20.055576,-5.3311777,-4.8903503,1.6577173,-0.4236684
102,1.224338173866272,136.30276489257812,73.52045440673828,-2.225912122141106,-0.8985235173930377,92.64490446469432,-16.855738,0.8310417,-9.577584,88.46266,-13.819624,-0.6914558,-11.337516,5.428574,-6.446624,46.70865,-30.613544,-4.727362,-2.5793505,3.6155605,13.301649,16.342642,16.481077,-22.393286,-13.70081,-10.191559,3.640392,2.1937401,-7.5180707,-19.664497,19.979134,-5.754896,-4.603489,1.6229689,-0.40775993
103,1.2455648183822632,137.6532745361328,73.75623321533203,-1.8612716157701432,-0.8068542982064187,92.3653580929545,-18.136179,0.3667593,-8.977299,87.08962,-14.376016,-0.69609344,-9.746673,5.2718964,-5.9890165,45.655327,-30.631111,-4.743315,-1.3948108,3.4806466,13.070452,17.693209,16.467924,-22.186792,-14.593829,-10.68053,3.5451314,1.8363001,-8.861647,-19.66864,19.886665,-6.248282,-4.106619,1.5809904,-0.44547454
104,1.2740142345428467,139.0154266357422,74.048828125,-1.4889736725551,-0.6994725379566331,92.10432643780396,-19.276218,-0.064810425,-8.33705,85.32318,-14.785265,-0.76571053,-8.121227,5.0825763,-5.52609,44.44932,-30.326984,-4.738545,-0.2818395,3.2998781,12.815092,19.065023,16.503256,-21.927166,-15.538707,-11.164234,3.4832408,1.4658626,-10.160721,-19.650784,19.921991,-6.7240205,-3.4297295,1.529146,-0.5388192
105,1.2985235452651978,140.40182495117188,74.39188385009766,-1.109635349784537,-0.5848892078089654,91.84444672649951,-20.248768,-0.4602739,-7.638384,83.12587,-15.040207,-0.9350363,-6.435709,4.869587,-5.026726,43.049305,-29.678816,-4.713476,0.8224395,3.0862007,12.537546,20.389055,16.5778,-21.657848,-16.490273,-11.633424,3.4705393,1.074083,-11.357737,-19.632372,20.041788,-7.2327433,-2.4466608,1.4645894,-0.7194331
106,1.3075977563858032,141.7880859375,74.7824935913086,-0.7018261548675506,-0.4570288930293507,91.5642210117425,-21.065165,-0.83602005,-6.852769,80.47976,-15.168133,-1.1813104,-4.696835,4.6142187,-4.4728875,41.456852,-28.726934,-4.669026,1.9384757,2.828132,12.23501,21.694336,16.695038,-21.374641,-17.523954,-12.121086,3.4864953,0.64595544,-12.439993,-19.615248,20.227755,-7.8082495,-1.1754453,1.3868104,-0.9876744
107,1.3109759092330933,143.20545959472656,75.21372985839844,-0.282296408432268,-0.3018825880483589,91.32066828167234,-21.751448,-1.1922505,-6.0406,77.46262,-15.169607,-1.4460404,-2.9725683,4.3069634,-3.9504836,39.781143,-27.500195,-4.5931635,2.9969592,2.5309088,11.902964,22.981236,16.836739,-21.088469,-18.561867,-12.605231,3.5045192,0.23359115,-13.41545,-19.603441,20.467035,-8.415986,0.114718825,1.2975253,-1.2489276
108,1.323992371559143,144.63096618652344,75.66715240478516,0.13478537362818716,-0.10667155954550483,91.17106290716413,-22.331347,-1.5407751,-5.26032,74.148285,-15.044591,-1.6798967,-1.3273307,3.9433255,-3.5445619,38.129333,-26.026203,-4.4766164,3.9177878,2.1994503,11.534964,24.257128,16.981052,-20.79894,-19.529396,-13.062481,3.4968932,-0.11397896,-14.304609,-19.598051,20.76155,-9.011017,1.1544205,1.2044083,-1.4114459
109,1.322092056274414,146.06947326660156,76.14158630371094,0.5595547606867449,0.1245728427083867,91.13803881644785,-22.78523,-1.9571285,-4.5362544,70.48556,-14.763385,-1.9090112,0.27175444,3.5109153,-3.2603407,36.456814,-24.25844,-4.3105607,4.6737695,1.8260661,11.132339,25.510654,17.11497,-20.50381,-20.38813,-13.469105,3.4437585,-0.37924132,-15.10653,-19.600668,21.1219,-9.579799,1.8786697,1.1142756,-1.4612199
110,1.3148770332336426,147.54246520996094,76.64137268066406,0.9919516326323321,0.38436358547977717,91.19046566351315,-23.090647,-2.428464,-3.8309808,66.43812,-14.330969,-2.1590233,1.8379686,3.0274253,-3.0570176,34.742977,-22.205887,-4.104783,5.3013105,1.4179616,10.695902,26.730791,17.235853,-20.198381,-21.166803,-13.835862,3.362752,-0.5931057,-15.81464,-19.614521,21.549028,-10.14267,2.4273543,1.0253137,-1.4437524
111,1.2890397310256958,149.00831604003906,77.1337661743164,1.4056264958642528,0.6800197887324554,91.30497222425358,-23.266352,-2.8434117,-3.0993521,62.09489,-13.796601,-2.3855014,3.2822435,2.5362487,-2.947474,33.132874,-19.979925,-3.87958,5.817964,1.0042937,10.215794,27.920776,17.335938,-19.883146,-21.890959,-14.1908455,3.2820137,-0.77837384,-16.441221,-19.642988,22.02648,-10.706905,2.8414638,0.935941,-1.3562641
112,1.254947543144226,150.4671173095703,77.610107421875,1.781634628378736,1.0197974676684922,91.45436857377729,-23.326664,-3.1071637,-2.2806945,57.52816,-13.200887,-2.55311,4.5230446,2.0707884,-2.9383893,31.755777,-17.680124,-3.6530137,6.2566996,0.6100855,9.677943,29.059267,17.396425,-19.576498,-22.558886,-14.555173,3.2298625,-0.9554149,-16.997435,-19.686874,22.522053,-11.269651,3.157601,0.842947,-1.1884788
113,1.2126898765563965,151.94114685058594,78.0700454711914,2.146781907029751,1.4403692115240694,91.654332842919,-23.260792,-3.2443988,-1.2910712,52.58257,-12.493039,-2.717332,5.522286,1.5953588,-3.0513036,30.609634,-15.255765,-3.4438605,6.5810714,0.20413204,9.048744,30.192999,17.425217,-19.246935,-23.208477,-14.939412,3.2209547,-1.1187418,-17.507393,-19.75544,23.077038,-11.826241,3.3689506,0.7443303,-0.9181323
114,1.1631418466567993,153.42311096191406,78.50475311279297,2.4988883114974274,1.9226662814903,91.90948769530148,-23.024282,-3.347534,-0.16043015,47.209,-11.638325,-2.922721,6.3391466,1.1143825,-3.2654257,29.629957,-12.672002,-3.2346182,6.7846074,-0.19938101,8.34704,31.312023,17.41297,-18.892916,-23.824406,-15.326585,3.238103,-1.2650506,-17.952637,-19.86349,23.69805,-12.393568,3.4671981,0.6419745,-0.5620046
115,1.1186082363128662,154.9107666015625,78.91348266601562,2.760860194941448,2.394574937075769,92.17498670727142,-22.60293,-3.4012005,0.9914762,41.659615,-10.718378,-3.1027627,7.0535793,0.72952366,-3.5269775,28.813496,-10.035008,-2.9890397,6.929281,-0.5191857,7.637429,32.364628,17.35576,-18.54974,-24.383842,-15.713027,3.262006,-1.415626,-18.312092,-19.99765,24.32168,-12.976935,3.4852626,0.5392313,-0.1716833
116,1.0672690868377686,156.3890380859375,79.2857437133789,2.8567829144553456,2.7875084483165593,92.40571010349834,-22.021126,-3.3506024,2.0315895,36.238007,-9.842459,-3.163621,7.738235,0.54544044,-3.784482,28.161423,-7.4481435,-2.6734788,7.0417,-0.67844963,6.9914417,33.35987,17.255745,-18.20557,-24.92541,-16.10837,3.2753153,-1.6032468,-18.588718,-20.150219,24.934772,-13.582485,3.467076,0.43792287,0.17939815
117,1.0145163536071777,157.8861541748047,79.62010192871094,2.739316065551353,3.09953691033571,92.59086546570208,-21.276272,-3.1084712,2.930779,30.886192,-9.039433,-3.0077217,8.399946,0.62990147,-4.0195594,27.635096,-4.833782,-2.312564,7.1301594,-0.6415256,6.393309,34.322945,17.112843,-17.852465,-25.455511,-16.522253,3.2757063,-1.8384196,-18.793297,-20.319519,25.559547,-14.211679,3.4253116,0.32969916,0.49230507
118,0.9730595946311951,159.38124084472656,79.91246032714844,2.4448262467645177,3.3617614105983615,92.74585946098718,-20.369034,-2.7124145,3.7636936,25.474789,-8.253018,-2.715542,9.023323,0.9345288,-4.251063,27.199366,-2.1426218,-1.9099344,7.181793,-0.4397638,5.815612,35.254063,16.926075,-17.49158,-25.967833,-16.949419,3.2727606,-2.1043637,-18.937498,-20.50723,26.202286,-14.850357,3.336173,0.21599147,0.7977418
119,0.9468782544136047,160.8890380859375,80.1595230102539,2.0192079609836964,3.5574297058055473,92.86645083700554,-19.378521,-2.2478554,4.538198,20.291424,-7.50325,-2.422655,9.646577,1.3889021,-4.4841514,26.857294,0.47925627,-1.4075365,7.2031145,-0.102979325,5.30886,36.105656,16.6985,-17.141787,-26.456314,-17.372824,3.2669127,-2.3890028,-19.01922,-20.706835,26.809744,-15.483598,3.1839335,0.11433507,1.073868
120,0.9336017966270447,162.38632202148438,80.35698699951172,1.5161283190688524,3.6719208203704405,92.95228528782849,-18.396421,-1.7865664,5.250462,15.655856,-6.819434,-2.2417018,10.295265,1.9113579,-4.7256994,26.640076,2.8695705,-0.75386685,7.1982274,0.32786775,4.922244,36.830143,16.438555,-16.820913,-26.914589,-17.776941,3.2580774,-2.6798015,-19.035816,-20.907078,27.32624,-16.095243,2.9514215,0.042101435,1.2995663
121,0.9227012395858765,163.86961364746094,80.49625396728516,0.9353772722873257,3.714460292752731,93.00488901998662,-17.459194,-1.2742909,5.9909043,11.629269,-6.22563,-2.1280508,10.982558,2.4736447,-5.033663,26.51422,5.1010265,0.2164501,7.1575217,0.8480863,4.651436,37.44628,16.14735,-16.51402,-27.367975,-18.18763,3.2517433,-2.9763253,-19.010365,-21.103596,27.762255,-16.69707,2.5697756,0.011724549,1.4700447
122,0.8916381001472473,165.32916259765625,80.57997131347656,0.2903953121992254,3.6990880940422906,93.03613993369072,-16.50345,-0.71329993,6.73532,7.9782033,-5.6622176,-2.0117354,11.64681,3.0738854,-5.382511,26.559649,7.1846447,1.4221519,7.0721536,1.4344208,4.4705296,37.965965,15.826606,-16.217062,-27.807133,-18.604431,3.24603,-3.2843633,-18.944561,-21.294117,28.139303,-17.283607,2.0655997,0.010398337,1.5968263
123,0.8670788407325745,166.76858520507812,80.60591125488281,-0.32143524926474487,3.6218428320942957,93.06839854584958,-16.593407,-0.104066476,7.29186,6.9839363,-6.285659,-1.9474319,12.188844,3.639048,-5.68167,27.001852,8.847106,2.5431514,6.9416175,1.9991273,4.395228,38.331184,15.493573,-15.962441,-28.16679,-18.973413,3.2287648,-3.5993679,-18.798464,-21.466463,28.413729,-17.811485,1.5679668,0.017469157,1.683199
124,0.8444409966468811,168.17906188964844,80.57354736328125,-0.8201948453393723,3.4761346662464687,93.1218183088027,-16.902536,0.34308088,7.437487,6.909351,-7.126671,-1.9707628,12.533478,4.106689,-5.859655,28.020397,9.831412,3.2599707,6.77018,2.464877,4.44124,38.491165,15.178313,-15.780953,-28.393812,-19.244398,3.1868896,-3.9141204,-18.526947,-21.604473,28.537493,-18.241531,1.2032778,0.01289057,1.734401
125,0.8270919322967529,169.5844268798828,80.4925308227539,-1.212757997677435,3.2455448091439782,93.19159878183027,-16.997665,0.5611711,7.0383024,6.878361,-7.790195,-2.141183,12.663717,4.4940186,-5.902376,29.725676,9.950915,3.3648067,6.5655,2.831016,4.626105,38.462574,14.903255,-15.681852,-28.513163,-19.415394,3.0972946,-4.204439,-18.102116,-21.69581,28.479267,-18.58033,0.99984634,-0.014224105,1.763618
126,0.815944492816925,170.99192810058594,80.35787200927734,-1.5231799012555056,2.9426280733673864,93.27849806560971,-16.887169,0.6013858,6.2266,6.8794117,-8.2759905,-2.394914,12.617687,4.7976274,-5.869833,32.00203,9.377654,3.068113,6.3226547,3.1104422,4.933088,38.27078,14.67699,-15.647628,-28.55174,-19.519299,2.9704645,-4.475134,-17.546276,-21.73644,28.26054,-18.840067,0.888187,-0.051409762,1.7666391
127,0.8213304281234741,172.39474487304688,80.16903686523438,-1.7057464661494797,2.6007454838380366,93.40440787511584,-16.60711,0.43955922,5.203545,6.9028034,-8.432248,-2.5990222,12.43095,4.9513516,-5.7991385,34.633255,8.41443,2.6844141,6.03174,3.2592816,5.3270817,37.882412,14.508815,-15.667717,-28.470587,-19.559477,2.8437564,-4.76185,-16.890453,-21.72402,27.914888,-18.99222,0.84783703,-0.08344226,1.7229218
128,0.8326871395111084,173.78353881835938,79.92955017089844,-1.7154606214135433,2.2525012278181613,93.58867117374008,-16.198475,0.054684147,4.16738,6.9417195,-8.09938,-2.6322365,12.137223,4.893165,-5.7328773,37.41151,7.3635464,2.5300899,5.6811633,3.2285538,5.7781396,37.294292,14.431223,-15.721739,-28.26736,-19.55357,2.7527971,-5.097863,-16.155996,-21.670609,27.487997,-19.029352,0.86478704,-0.09584941,1.5971332
129,0.8560003638267517,175.149658203125,79.63286590576172,-1.5271815607709607,1.865122391115911,93.86988722972691,-15.6300125,-0.61365634,2.9786837,6.992991,-7.021285,-2.5354722,11.797588,4.641627,-5.6617107,40.308556,6.249911,2.7304919,5.27853,3.0070283,6.3138323,36.39481,14.396511,-15.863011,-27.829473,-19.461615,2.7270105,-5.499372,-15.312172,-21.535799,26.899143,-18.909496,0.9459767,-0.07487103,1.4116275
130,0.8812841176986694,176.52439880371094,79.2924575805664,-1.1872422990670033,1.427039534205961,94.21729728980522,-15.250464,-1.4971311,1.5991026,7.8382173,-5.7556057,-2.3926563,11.401745,4.255365,-5.566073,43.398758,4.94062,3.1107514,4.8108187,2.6254642,6.9450274,35.29781,14.441044,-16.055159,-27.279812,-19.319195,2.7369294,-5.942454,-14.369617,-21.33427,26.20493,-18.66342,1.1067133,-0.03354357,1.1430887
131,0.8532540798187256,177.84445190429688,78.949951171875,-0.7644119238818332,0.9994239982206972,94.54439399889496,-15.99655,-2.4418314,0.41174105,11.327191,-5.72387,-2.1232407,10.88511,3.7383718,-5.4758744,46.622356,3.509743,3.5307302,4.3486676,2.1448324,7.576089,34.023205,14.557656,-16.294247,-26.604177,-19.125065,2.7409587,-6.40911,-13.3994055,-21.074091,25.453415,-18.280165,1.2918446,0.009625251,0.83791214
132,0.8345127105712891,179.1576690673828,78.55580139160156,-0.3230208782524169,0.6479069757748769,94.76850882656298,-16.79097,-3.3183916,-0.26879585,15.024982,-6.0766153,-1.6049594,10.176065,3.0815434,-5.413438,49.923954,2.0350683,3.8469214,3.9409032,1.6275128,8.114918,32.61241,14.734618,-16.556477,-25.811983,-18.882845,2.697892,-6.8854084,-12.4786,-20.771795,24.719688,-17.754313,1.4491475,0.036308493,0.52769685
133,0.8473259210586548,180.5089569091797,78.09132385253906,0.16081698854550758,0.3988534446067691,94.8727339934351,-17.858627,-4.074465,-0.2796076,19.404501,-7.0198817,-0.5819838,9.2389,2.2446313,-5.345827,53.367733,0.51255995,4.063367,3.6005695,1.0528278,8.53256,31.076178,14.95655,-16.827711,-24.922909,-18.579441,2.633256,-7.408786,-11.617672,-20.440565,24.01667,-17.051601,1.6299772,0.03269591,0.21508919
134,0.8346502780914307,181.811767578125,77.59231567382812,0.6590993859141957,0.20627322455444577,94.88868560851928,-19.128956,-4.6814103,0.13846281,24.399096,-8.351893,0.8473481,8.145025,1.3069764,-5.2594686,56.922546,-1.0676352,4.2342725,3.3082666,0.4609814,8.887419,29.39423,15.214927,-17.12521,-23.928377,-18.213272,2.5558937,-7.9759297,-10.77025,-20.082838,23.313745,-16.201445,1.8450048,0.011578453,-0.11711362
135,0.814104437828064,183.07911682128906,77.06309509277344,1.0977890645728483,0.04262757929033026,94.82210499208144,-20.299137,-5.078765,0.70653164,29.318579,-9.959384,2.281707,6.9483604,0.34507027,-5.1992083,60.434673,-2.6622927,4.2980523,3.0493653,-0.067273706,9.211674,27.553175,15.512749,-17.467463,-22.792292,-17.807026,2.4002502,-8.511676,-9.934633,-19.700377,22.618752,-15.279209,1.9813088,-0.005167351,-0.467474
136,0.8201714754104614,184.3704376220703,76.4845962524414,1.4405123436070915,-0.11229288569477194,94.68759747957792,-21.117287,-5.3033733,1.1785437,33.56545,-11.756761,3.2878237,5.680081,-0.6200444,-5.208104,63.779457,-4.2403593,4.1934543,2.8041313,-0.49392596,9.533091,25.536188,15.859053,-17.874393,-21.47798,-17.387785,2.101288,-8.93846,-9.105306,-19.292107,21.935905,-14.364392,1.9247715,0.0052334317,-0.83582395
137,0.837963342666626,185.6693572998047,75.89900970458984,1.6957051556616745,-0.25102264489420867,94.46185109114786,-21.612383,-5.386376,1.569805,37.204956,-13.943677,3.6795855,4.2960134,-1.6624995,-5.2945514,67.04052,-5.843784,3.8767664,2.591071,-0.8298777,9.849758,23.293095,16.260504,-18.372437,-19.902449,-16.996157,1.566276,-9.226434,-8.324827,-18.857218,21.268726,-13.385217,1.6318363,0.04506759,-1.2440076
138,0.8573647737503052,186.9331817626953,75.35295104980469,1.9136415173267067,-0.3577167085082917,94.15568092693738,-21.932592,-5.3587728,2.0053613,40.574543,-16.53461,3.7051337,2.776612,-2.8268113,-5.4120383,70.27306,-7.4886327,3.386687,2.4098167,-1.1347854,10.150207,20.851648,16.71428,-18.948017,-18.128876,-16.612299,0.85452527,-9.413721,-7.571706,-18.394827,20.607288,-12.340118,1.1685176,0.105284,-1.6857882
139,0.8730320930480957,188.17684936523438,74.87693786621094,2.1233719334641465,-0.4411643551517737,93.83371998901372,-22.020184,-5.293028,2.4343781,43.50559,-19.16268,3.5619235,1.1860552,-4.0481844,-5.527418,73.30611,-9.104106,2.7843587,2.211425,-1.4438047,10.443402,18.306763,17.214684,-19.566463,-16.324844,-16.171482,0.13044286,-9.524894,-6.7497616,-17.903624,19.940407,-11.407481,0.5844117,0.19500142,-2.1177905
140,0.8968899846076965,189.392333984375,74.47196197509766,2.3449759640912715,-0.5118462850775973,93.55871812189376,-21.80622,-5.2650704,2.7944224,45.7973,-21.44649,3.4470122,-0.41197497,-5.246484,-5.620425,75.96439,-10.6125555,2.1381588,1.9480774,-1.7829132,10.735892,15.743649,17.755196,-20.199488,-14.645354,-15.608636,-0.4413245,-9.586767,-5.770195,-17.381144,19.260902,-10.755944,-0.068476565,0.31950673,-2.496028
141,0.9261962175369263,190.64117431640625,74.14212036132812,2.6263487403986225,-0.5792109538178111,93.32302570854863,-21.201578,-5.333493,3.1150775,47.28457,-23.294724,3.3893917,-2.0323098,-6.498364,-5.694392,78.2629,-11.993351,1.4015628,1.6333064,-2.198254,11.050466,13.08418,18.337248,-20.896555,-12.981865,-14.889995,-0.81879866,-9.565683,-4.615315,-16.818424,18.55151,-10.4039135,-0.9321104,0.5263749,-2.837881
142,0.9479119181632996,191.88327026367188,73.87064361572266,2.942619332248968,-0.6350564536664104,93.1011279501882,-20.272522,-5.462317,3.4260716,48.11235,-24.905512,3.2972467,-3.7076643,-7.808622,-5.754763,80.27577,-13.28646,0.56264514,1.2841499,-2.666223,11.374491,10.3092785,18.95494,-21.672201,-11.305206,-14.059194,-1.0859846,-9.459212,-3.335366,-16.211138,17.827505,-10.263169,-1.9806747,0.7984627,-3.152421
143,0.9856623411178589,193.134765625,73.65312194824219,3.2056614857090864,-0.6655727746407527,92.92810029089792,-19.173801,-5.579562,3.6495175,48.5274,-26.324318,3.1844668,-5.3982425,-8.983208,-5.809418,81.91426,-14.496297,-0.25637427,0.8531014,-3.09838,11.656611,7.5811424,19.586618,-22.440788,-9.85733,-13.161998,-1.2705545,-9.350743,-1.9515901,-15.566244,17.139807,-10.338372,-2.9129443,1.039519,-3.387668
144,1.0476378202438354,194.3918914794922,73.48397827148438,3.327275637079871,-0.6579761258810329,92.83917450943191,-18.05539,-5.601261,3.7058508,48.779488,-27.599228,3.0583704,-7.060569,-9.830316,-5.8805766,83.09266,-15.623262,-0.9314863,0.28767148,-3.398426,11.842588,5.0569997,20.208681,-23.106083,-8.85813,-12.236173,-1.4015403,-9.330138,-0.49238628,-14.898901,16.545395,-10.630203,-3.4271867,1.1501267,-3.4996521
145,1.1057040691375732,195.6623077392578,73.37062072753906,3.262634942237794,-0.6072696522541118,92.86329037480235,-16.955969,-5.483471,3.5381935,48.94396,-28.78233,2.904398,-8.714558,-10.271927,-5.997371,83.806274,-16.693932,-1.4684647,-0.45442837,-3.5100322,11.916145,2.7590098,20.814417,-23.635843,-8.369937,-11.06111,-1.47166,-9.461473,1.0791527,-14.209796,16.041271,-11.224252,-3.3644657,1.0732148,-3.4623797
146,1.1615482568740845,196.91693115234375,73.32152557373047,3.0663304787798804,-0.5218855843318917,92.9754163133368,-15.793768,-5.263811,3.2013578,48.889477,-29.838213,2.725433,-10.370426,-10.4235735,-6.165544,84.09727,-17.693407,-1.9180347,-1.3395163,-3.4851124,11.90664,0.58853585,21.406885,-24.087427,-8.235625,-9.686972,-1.4764363,-9.694915,2.7595477,-13.496758,15.612211,-12.09287,-2.9103727,0.8708177,-3.3086843
147,1.2195591926574707,198.19065856933594,73.35102844238281,2.7948953910623873,-0.40933945747362666,93.1297352181372,-14.534703,-4.976745,2.7814732,48.55357,-30.682465,2.547182,-11.962962,-10.389117,-6.3784766,83.94501,-18.556616,-2.2264245,-2.3018885,-3.3861766,11.828778,-1.481844,21.98009,-24.495167,-8.335727,-8.552085,-1.446972,-9.948799,4.468288,-12.780275,15.286769,-13.073073,-2.2804334,0.62254614,-3.0840476
148,1.2902956008911133,199.47923278808594,73.4554214477539,2.5023735119092048,-0.2773991340312619,93.28088890705952,-13.145764,-4.6575904,2.362057,47.871212,-31.226841,2.3920069,-13.427079,-10.272301,-6.624117,83.3283,-19.21831,-2.339825,-3.280321,-3.2698123,11.695335,-3.4704177,22.522184,-24.882391,-8.55976,-8.092849,-1.406355,-10.139325,6.1282187,-12.097539,15.096261,-14.002421,-1.6862358,0.40742093,-2.8379586
149,1.3611012697219849,200.78182983398438,73.63102722167969,2.1799813503244083,-0.12363537142115744,93.44846182636583,-11.594914,-4.2992187,1.9184694,46.761765,-31.491638,2.2626135,-14.744078,-10.070855,-6.926525,82.18282,-19.652657,-2.1688364,-4.3030357,-3.1118155,11.497156,-5.388785,23.026854,-25.246597,-8.910644,-8.621232,-1.353617,-10.242349,7.7521396,-11.483491,15.057175,-14.905658,-1.084838,0.2394061,-2.569696
150,1.4166326522827148,202.11517333984375,73.8814926147461,1.8078929991487476,0.05477884479767229,93.64621123851195,-9.912912,-3.881049,1.4219232,45.2854,-31.511036,2.141832,-15.942861,-9.754782,-7.2855334,80.53449,-19.899286,-1.7728407,-5.38566,-2.879645,11.239086,-7.2269793,23.494362,-25.572968,-9.431806,-9.834726,-1.275747,-10.300921,9.394079,-10.948125,15.141859,-15.871155,-0.3840693,0.083548225,-2.2620502
151,1.4553593397140503,203.46791076660156,74.19730377197266,1.4240031674835525,0.2496237959511826,93.81963990707465,-8.1622925,-3.4237785,0.9479078,43.592453,-31.219954,2.0195515,-17.028372,-9.376739,-7.6503997,78.49532,-19.996162,-1.3185277,-6.448858,-2.617886,10.947664,-8.972238,23.921692,-25.862602,-10.070468,-11.248466,-1.1751139,-10.3309965,11.027719,-10.490678,15.312848,-16.813639,0.27284998,-0.06061689,-1.9405082
152,1.4935938119888306,204.8389434814453,74.5676040649414,1.0672381381416085,0.45157750341946623,93.9142969929059,-6.403348,-2.9536119,0.57033765,41.832783,-30.553667,1.8875943,-18.008074,-8.97873,-7.971614,76.18458,-19.977116,-0.9673797,-7.4123855,-2.3741155,10.64396,-10.615235,24.302126,-26.118654,-10.768481,-12.37497,-1.0541173,-10.350517,12.622588,-10.104969,15.529721,-17.64418,0.73794776,-0.19422041,-1.6296071
153,1.5285524129867554,206.24237060546875,74.97795104980469,0.7501028682063359,0.653510336405344,93.91459660345157,-4.5972986,-2.4863293,0.3019845,39.952744,-29.461405,1.75024,-18.870554,-8.573309,-8.26503,73.595146,-19.841171,-0.77879924,-8.260403,-2.1679533,10.324825,-12.158533,24.627739,-26.324991,-11.523485,-13.097831,-0.8967255,-10.374886,14.180911,-9.794258,15.791026,-18.333145,0.9307128,-0.32656947,-1.3323034
154,1.585939884185791,207.6551513671875,75.42591094970703,0.4523798715925662,0.860284862366348,93.84865635888208,-2.7363033,-2.014719,0.10802544,37.915657,-27.995571,1.6071792,-19.608315,-8.129223,-8.546386,70.67327,-19.576393,-0.6562525,-9.0289135,-1.9692525,9.976775,-13.616169,24.897064,-26.484856,-12.346765,-13.66982,-0.707127,-10.39149,15.716121,-9.563628,16.101763,-18.926876,0.9411463,-0.45626605,-1.0381862
155,1.6566827297210693,209.07745361328125,75.89625549316406,0.16146454249358935,1.080074984137531,93.72748882152754,-0.9232906,-1.5319564,-0.013301259,35.892952,-26.243061,1.4485986,-20.228548,-7.6147795,-8.771434,67.4554,-19.197691,-0.52699566,-9.715165,-1.7551945,9.604402,-14.992403,25.113798,-26.632267,-13.201338,-14.155303,-0.52015465,-10.377682,17.21311,-9.405911,16.429642,-19.44355,0.8735393,-0.5698318,-0.7497827
156,1.7380952835083008,210.53793334960938,76.39045715332031,-0.13521642346419607,1.3211402637111604,93.56222525003885,0.74059564,-1.0295447,-0.06680518,34.054783,-24.288424,1.2680104,-20.738382,-6.997356,-8.89534,63.970345,-18.715792,-0.31654903,-10.313909,-1.5058347,9.213024,-16.297571,25.285608,-26.804483,-14.051322,-14.623056,-0.36843005,-10.309675,18.658594,-9.303321,16.741827,-19.904882,0.8292878,-0.6532394,-0.46767274
157,1.801748514175415,211.990234375,76.88126373291016,-0.4582748903277398,1.5799205797177733,93.34669890832748,2.264333,-0.48092523,-0.054984644,32.397507,-22.083553,1.057817,-21.113619,-6.206927,-8.902035,60.146137,-18.099096,0.020273222,-10.80832,-1.2096807,8.809413,-17.558695,25.418211,-27.025051,-14.886839,-15.055811,-0.2739028,-10.160101,20.061472,-9.245591,17.040613,-20.291866,0.8060981,-0.71404356,-0.20984466
158,1.8875882625579834,213.4397735595703,77.37605285644531,-0.7920162125151692,1.8510499047795526,93.07715376399918,3.6838422,0.08964726,0.019279657,30.8648,-19.61449,0.83148324,-21.339241,-5.2768135,-8.811815,55.965775,-17.342424,0.43737546,-11.200427,-0.8892475,8.389157,-18.766558,25.51042,-27.27181,-15.725711,-15.428845,-0.21451719,-9.948906,21.425398,-9.231104,17.32941,-20.598034,0.75357544,-0.7566895,0.032461368
159,1.9907774925231934,214.91445922851562,77.8647689819336,-1.0956149205942374,2.1410846520389053,92.76951340467774,4.951393,0.62099797,0.1470039,29.527111,-17.002329,0.61312014,-21.435345,-4.328235,-8.63756,51.526283,-16.491129,0.8741558,-11.515004,-0.57946247,7.94087,-19.869743,25.566826,-27.512442,-16.576694,-15.798563,-0.15778933,-9.72295,22.725655,-9.248158,17.58033,-20.866592,0.6987938,-0.7612105,0.30131713
160,2.1057348251342773,216.37799072265625,78.33964538574219,-1.3254484063420844,2.458165983177461,92.44067536435033,6.025124,1.055007,0.31939635,28.440289,-14.362318,0.4224492,-21.434826,-3.479753,-8.397914,46.934177,-15.589701,1.2734113,-11.782817,-0.3162355,7.449782,-20.812822,25.592165,-27.702236,-17.45051,-16.2214,-0.06843667,-9.535968,23.922516,-9.274334,17.767916,-21.118862,0.66213316,-0.7068961,0.64260316
161,2.2336485385894775,217.86444091796875,78.78950500488281,-1.5043524919927806,2.8374165762170973,92.0675007252672,6.8857102,1.4262394,0.5774794,27.57271,-11.609623,0.23470369,-21.332401,-2.6964908,-8.109385,42.031105,-14.574996,1.6420835,-11.971785,-0.08031135,6.888366,-21.604006,25.603344,-27.858908,-18.360722,-16.760048,0.06777674,-9.374358,25.052858,-9.316157,17.866688,-21.401978,0.721337,-0.56766766,1.1047418
162,2.3554491996765137,219.33212280273438,79.2045669555664,-1.6354886441424752,3.261207858670914,91.65579041973069,7.57585,1.7410511,0.89998156,26.88266,-8.70333,0.04297432,-21.07903,-1.9254906,-7.764169,36.746925,-13.409106,2.0203621,-12.09467,0.12757999,6.271595,-22.247946,25.594833,-27.966818,-19.310772,-17.36514,0.23489553,-9.23188,26.104048,-9.374603,17.895752,-21.673603,0.83279973,-0.35946107,1.6564703
163,2.460378885269165,220.81051635742188,79.58274841308594,-1.655338553539099,3.6617238970393755,91.26841470564484,8.149321,1.9096465,1.1897675,26.404535,-5.816008,-0.108405165,-20.6594,-1.2681131,-7.349454,31.338604,-12.188272,2.3934605,-12.198107,0.22683841,5.648862,-22.75436,25.57536,-28.06247,-20.26895,-17.950047,0.40234396,-9.098821,27.064745,-9.431724,17.891092,-21.931917,0.86542594,-0.13089448,2.201751
164,2.580000638961792,222.3235626220703,79.91493225097656,-1.500663088741982,3.974249031174654,90.96945006798917,8.6662,1.8443774,1.358087,26.148073,-3.105636,-0.16895421,-20.091162,-0.85018325,-6.8504224,26.115839,-11.035694,2.7316225,-12.312776,0.15419893,5.074289,-23.153543,25.53849,-28.208021,-21.19116,-18.428951,0.5341031,-8.954324,27.973907,-9.514,17.869051,-22.232904,0.7141015,0.06653379,2.6414597
165,2.695918560028076,223.82176208496094,80.22152709960938,-1.1100192878888926,4.186830485855404,90.78521875488914,9.136963,1.4716128,1.3959938,26.081944,-0.50330645,-0.07208619,-19.37391,-0.78032,-6.231838,21.067184,-10.003837,3.0014477,-12.478147,-0.14669664,4.534676,-23.39861,25.492529,-28.390041,-22.12315,-18.780342,0.6332182,-8.794044,28.83386,-9.607187,17.843288,-22.564661,0.28485915,0.2222024,2.9587169
166,2.810892105102539,225.35302734375,80.48212432861328,-0.5083153492441631,4.32928650980789,90.68859413952033,9.557949,0.8358003,1.3536471,26.154518,2.0780675,0.14096493,-18.528225,-1.0249034,-5.518077,16.091011,-9.041671,3.2195697,-12.674528,-0.65000576,4.0095673,-23.49686,25.442352,-28.591839,-23.067703,-19.05198,0.71457857,-8.625574,29.6389,-9.707721,17.799984,-22.91681,-0.33973193,0.36045736,3.2043946
167,2.9173498153686523,226.88412475585938,80.6881103515625,0.20914162688041957,4.404942993272322,90.65449909306368,9.9469385,0.055561054,1.232478,26.38086,4.48043,0.36055148,-17.636595,-1.4722348,-4.7906613,11.414861,-8.133489,3.420811,-12.867641,-1.2786965,3.5381064,-23.516088,25.396263,-28.821499,-23.951078,-19.258945,0.7682405,-8.468769,30.340351,-9.812204,17.746965,-23.27295,-1.0295597,0.48363766,3.386787
168,3.019315242767334,228.37879943847656,80.83909606933594,0.9149682036371963,4.425435287483335,90.64797460151408,10.295843,-0.71523935,1.0295479,26.82279,6.5141954,0.47123036,-16.722942,-1.9515631,-4.1339326,7.1371236,-7.1938844,3.6387925,-13.012178,-1.9193407,3.1626,-23.523449,25.35627,-29.088074,-24.69959,-19.412893,0.7832149,-8.341277,30.889532,-9.92947,17.68883,-23.614574,-1.6507105,0.59490824,3.512382
169,3.1353771686553955,229.84490966796875,80.94058990478516,1.56535710189233,4.4215588666406385,90.66429381417862,10.543902,-1.4100248,0.7399645,27.55647,8.138963,0.38888255,-17.578352,-2.5180078,-3.4585743,6.9686766,-8.160536,3.8730001,-13.092158,-2.5330012,2.869667,-23.540434,25.33146,-29.407047,-25.319016,-19.515497,0.7303563,-8.240584,31.261562,-10.043625,17.629772,-23.939718,-2.2507112,0.7059384,3.5619295
170,3.2660727500915527,231.28440856933594,80.98417663574219,2.1725315633069013,4.392851256637477,90.7008829869564,10.66663,-2.0510232,0.373407,28.614643,9.403091,0.18263064,-18.310976,-3.03491,-2.7980835,6.844851,-8.953548,4.096886,-13.118887,-3.1255915,2.644485,-23.52668,25.323174,-29.761923,-25.839935,-19.56148,0.62548745,-8.162947,31.451677,-10.139354,17.571167,-24.21591,-2.8826745,0.81285614,3.543184
171,3.3898110389709473,232.73068237304688,80.97879791259766,2.686170592312275,4.309274085533248,90.72238381333202,10.686965,-2.6165936,-0.04899811,30.038422,10.2294235,-0.033077825,-18.860895,-3.438707,-2.2241726,6.775578,-9.577953,4.303567,-13.067596,-3.6323037,2.534784,-23.45803,25.315447,-30.144379,-26.243368,-19.548233,0.5142641,-8.099637,31.517414,-10.291347,17.495117,-24.481184,-3.3813083,0.89384097,3.4904587
172,3.506524085998535,234.15362548828125,80.91796875,3.078505421282798,4.140908780502012,90.69797914904652,10.634341,-3.103845,-0.50783706,31.864529,10.539488,-0.14302504,-19.14945,-3.6942885,-1.8060112,6.7479773,-10.022768,4.4826493,-12.964157,-4.035877,2.567282,-23.262638,25.316795,-30.468424,-26.518778,-19.473293,0.4630289,-8.089277,31.359852,-10.451242,17.435663,-24.58358,-3.6555452,0.92816675,3.4552908
173,3.6232049465179443,235.56700134277344,80.8048095703125,3.3652455500984226,3.8413527603073017,90.62622029706507,10.557189,-3.5552573,-0.9998524,34.131832,10.189107,-0.038009875,-19.099176,-3.844939,-1.6169144,6.7594986,-10.408554,4.687735,-12.80202,-4.3435035,2.7924914,-22.918226,25.325846,-30.73614,-26.684278,-19.338402,0.48223367,-8.140385,31.029203,-10.676446,17.382168,-24.582853,-3.6026974,0.885103,3.4392445
174,3.732041358947754,236.9701385498047,80.64307403564453,3.5790823216527734,3.4384259711257794,90.51644984174682,10.43555,-3.9805458,-1.529438,36.79514,9.2736025,0.2045874,-18.743773,-3.9268003,-1.5947249,6.767974,-10.673937,4.9097023,-12.581847,-4.5877657,3.1738846,-22.445414,25.346966,-30.959455,-26.746523,-19.14349,0.5446013,-8.246344,30.519306,-10.948448,17.345694,-24.48827,-3.3121438,0.7851059,3.419487
175,3.843594789505005,238.3524627685547,80.43679809570312,3.646091130922683,3.012524993584033,90.35477143311755,10.208008,-4.271254,-2.09094,39.720833,8.099026,0.40549958,-18.209667,-3.8287704,-1.6299589,6.781405,-10.577497,5.040448,-12.296173,-4.6879296,3.645524,-21.868116,25.384045,-31.141876,-26.684755,-18.886229,0.63506,-8.367673,29.829496,-11.266861,17.334082,-24.298296,-2.8913667,0.6811547,3.3887815
176,3.9431612491607666,239.7391815185547,80.17057800292969,3.5021001723317595,2.643225732878096,90.13283087405351,9.82307,-4.3395047,-2.673196,42.772377,6.968174,0.37991866,-17.628632,-3.4507613,-1.6068239,6.815445,-9.879978,4.9760323,-11.946282,-4.5715427,4.1374817,-21.209034,25.440773,-31.283016,-26.483305,-18.565887,0.73904204,-8.466448,28.951185,-11.625922,17.357424,-24.006315,-2.4496121,0.62600267,3.3394632
177,4.033200263977051,241.1082763671875,79.85034942626953,3.0908570547769725,2.3349641682991833,89.82422904013197,9.314444,-4.167054,-3.280138,45.89363,5.961773,0.0055993777,-16.992624,-2.7204978,-1.4591906,6.8357825,-8.188833,4.7538486,-11.51539,-4.185196,4.6562676,-20.457254,25.522284,-31.382212,-26.140083,-18.1456,0.8763508,-8.542223,27.85749,-12.020704,17.425234,-23.589499,-1.9662216,0.64077485,3.267701
178,4.159595489501953,242.4428253173828,79.52909088134766,2.4685781383309164,2.039212557974124,89.45172458651327,8.724832,-3.8324313,-3.9187627,49.14191,4.9190927,-0.6107829,-16.253279,-1.7086836,-1.2619756,6.8622384,-5.743107,4.442957,-11.022483,-3.5872545,5.2309113,-19.602903,25.630798,-31.438665,-25.666838,-17.640839,1.045911,-8.611327,26.559166,-12.448578,17.5396,-23.060394,-1.3996497,0.69418603,3.17757
179,4.321545124053955,243.7408447265625,79.198486328125,1.7464624265757185,1.7538098849065855,89.07298265173249,8.050092,-3.4085317,-4.571198,52.464256,3.8402655,-1.3047793,-15.849591,-0.5610889,-1.0916264,7.780611,-3.659433,3.9697223,-10.511482,-2.8869598,5.825981,-18.669142,25.762642,-31.456835,-25.068512,-17.126596,1.2034053,-8.659582,25.114086,-12.904526,17.697344,-22.470322,-0.8289343,0.76154715,3.073025
180,4.470213890075684,245.068359375,78.79161071777344,1.042538297295068,1.4824329059152095,88.74324411847344,7.2741547,-2.96793,-5.220694,55.81293,2.7328806,-1.90397,-16.864763,0.5486124,-1.0469644,11.856807,-3.7861507,3.221,-10.019979,-2.2025192,6.404344,-17.688936,25.909428,-31.444574,-24.336994,-16.679644,1.3053318,-8.672759,23.580677,-13.382254,17.8899,-21.872084,-0.33374897,0.8185221,2.9592774
181,4.603391170501709,246.38446044921875,78.32225036621094,0.3526940950704634,1.2336704850112894,88.46347642224573,6.3813,-2.516909,-5.9038353,59.247852,1.5873939,-2.3990111,-18.199373,1.6450087,-1.1565583,16.799326,-5.009711,1.9057237,-9.527421,-1.5304517,6.952385,-16.719233,26.071182,-31.450144,-23.417349,-16.31663,1.3442796,-8.649778,21.98359,-13.874393,18.096638,-21.289474,0.031296894,0.87019956,2.861248
182,4.762319087982178,247.6400604248047,77.82190704345703,-0.2955833622959819,0.9899793696958271,88.22451894901336,5.4169106,-2.12194,-6.6104903,62.73275,0.42850414,-2.862346,-19.802322,2.6704037,-1.3261775,22.550087,-6.989748,0.1423891,-9.031893,-0.9037182,7.4873724,-15.740128,26.246796,-31.464699,-22.31737,-16.00085,1.3430089,-8.596279,20.299026,-14.373987,18.325008,-20.699432,0.3184061,0.9265614,2.7696016
183,4.914373397827148,248.8914794921875,77.27902221679688,-0.8259662871553641,0.737980393852788,88.0466838173062,4.4053555,-1.8315792,-7.261702,66.13024,-0.70229375,-3.2462332,-21.272404,3.4890287,-1.5022755,28.208029,-9.2900305,-1.5829813,-8.581427,-0.40438586,8.022083,-14.654384,26.418982,-31.406916,-21.136545,-15.718825,1.3026899,-8.509361,18.49949,-14.879788,18.606834,-20.069164,0.6071704,0.96932405,2.6386888
184,5.024166584014893,250.17662048339844,76.6864013671875,-1.2139629466652946,0.4762866383078518,87.93775762267748,3.345839,-1.6146014,-7.791093,69.32219,-1.7759147,-3.4999528,-22.271666,4.0528655,-1.6849728,32.97807,-11.503884,-2.7665017,-8.213039,-0.05561216,8.568798,-13.365618,26.560257,-31.192184,-19.971092,-15.455195,1.225151,-8.388748,16.554482,-15.396936,18.97517,-19.369183,0.9796352,0.9788493,2.4215186
185,5.123450756072998,251.43804931640625,76.11283874511719,-1.465468697774262,0.2179632488816459,87.89112252618837,2.1922574,-1.4217894,-8.195046,72.356674,-2.788241,-3.583053,-22.803457,4.3667836,-1.9341702,36.845505,-13.708309,-3.1753612,-7.9365087,0.14133067,9.132242,-11.838446,26.641447,-30.778265,-18.73766,-15.163077,1.0923718,-8.240691,14.391223,-15.939259,19.476212,-18.53201,1.5607069,0.916596,2.0516462
186,5.229715824127197,252.66867065429688,75.60020446777344,-1.6398270241553867,-0.027663247135135762,87.89155601403496,0.9284105,-1.2058456,-8.519948,75.30151,-3.7639275,-3.524093,-23.076468,4.5152245,-2.2573452,40.282562,-16.109709,-3.1106505,-7.718314,0.25836748,9.704849,-10.133847,26.65173,-30.215044,-17.406261,-14.858056,0.9111885,-8.0694475,12.05412,-16.506214,20.08173,-17.612036,2.279532,0.79932255,1.566891
187,5.318359375,253.90548706054688,75.15437316894531,-1.7836051686576866,-0.2689519373177297,87.93971844618359,-0.4013643,-0.93871135,-8.782576,78.05414,-4.704918,-3.3662856,-23.069237,4.575139,-2.6121452,43.245167,-18.499214,-2.8544493,-7.526559,0.36709133,10.280055,-8.316316,26.594486,-29.571419,-16.141853,-14.623399,0.7198998,-7.8704147,9.690192,-17.074127,20.704424,-16.752254,2.921024,0.6942336,1.0792261
188,5.388875961303711,255.15101623535156,74.7593002319336,-1.9387097251143162,-0.5164632514799853,88.03676034143578,-1.7511382,-0.602818,-8.995325,80.50994,-5.6132913,-3.1566308,-22.748865,4.631171,-2.9391744,45.649555,-20.647171,-2.686743,-7.326385,0.52536523,10.848539,-6.452853,26.483034,-28.927353,-15.106938,-14.542973,0.5550634,-7.635861,7.4365244,-17.610521,21.252428,-16.075594,3.2628882,0.6750243,0.70498586
189,5.463761329650879,256.4222412109375,74.43952941894531,-2.1343275011417373,-0.8044434390659043,88.21300866001404,-3.099713,-0.12864704,-9.172205,82.67732,-6.4876213,-2.878738,-22.00659,4.7184243,-3.2560294,47.37465,-22.512667,-2.655901,-7.1466336,0.74906075,11.453808,-4.5325823,26.319864,-28.291452,-14.29001,-14.680796,0.41689295,-7.316276,5.2610826,-18.097355,21.72313,-15.550161,3.1225164,0.8085616,0.48154518
190,5.51694917678833,257.6838684082031,74.16123962402344,-2.3444415307764777,-1.11648029151297,88.45929677753352,-4.482142,0.45751888,-9.3145075,84.59964,-7.321234,-2.5119796,-20.89312,4.808491,-3.5949204,48.489666,-24.20415,-2.626447,-6.9821215,0.9962048,12.079059,-2.54719,26.101673,-27.653812,-13.602188,-14.980873,0.28529793,-6.929755,3.106464,-18.531023,22.14565,-15.110129,2.6500165,1.0443764,0.35300806
191,5.563719749450684,258.9624938964844,73.93280029296875,-2.5205785202772124,-1.3884442728434077,88.71675166370407,-5.930691,1.0243824,-9.406079,86.21868,-8.1106,-2.1030474,-19.609987,4.8854494,-3.9000156,49.18939,-25.715837,-2.5997279,-6.751802,1.2380291,12.623831,-0.5617213,25.838537,-27.062273,-13.0986,-15.34725,0.16889687,-6.567127,1.0586894,-18.902788,22.480278,-14.797087,2.12012,1.2816344,0.29587528
192,5.597131252288818,260.2337951660156,73.7582778930664,-2.611504637547595,-1.5569470507182128,88.92508366090416,-7.47668,1.439537,-9.421626,87.480774,-8.849029,-1.7015145,-18.356073,4.9174275,-4.109201,49.6701,-27.043785,-2.569877,-6.3728547,1.4446626,12.9882145,1.3613865,25.548353,-26.56332,-12.842178,-15.685583,0.076346375,-6.314454,-0.7988317,-19.203175,22.686356,-14.649735,1.8062172,1.4179804,0.28651443
193,5.636811256408691,261.51531982421875,73.63907623291016,-2.60679764779645,-1.586423756541399,89.09101941316305,-9.204546,1.6942192,-9.347459,88.42146,-9.531799,-1.2715715,-17.17711,4.8745155,-4.215405,49.952614,-28.2232,-2.526381,-5.8396635,1.6125835,13.123097,3.231206,25.24383,-26.163713,-12.922774,-15.914237,0.012096825,-6.180155,-2.4434068,-19.420986,22.722424,-14.68936,1.7587222,1.4043646,0.3703395
194,5.659938335418701,262.7981872558594,73.58641052246094,-2.5321311928669648,-1.5181741187797109,89.23762439503903,-11.069211,1.8516034,-9.188728,89.05055,-10.159815,-0.8070816,-15.96962,4.767262,-4.2442975,49.949284,-29.247183,-2.4742827,-5.1932135,1.7491521,13.088311,5.084083,24.927797,-25.838915,-13.298729,-16.107594,-0.02850859,-6.1177926,-3.942245,-19.555885,22.62638,-14.85882,1.8344758,1.3007628,0.5450828
195,5.6834716796875,264.074951171875,73.60318756103516,-2.391374552780885,-1.4046366089097513,89.3287727779168,-12.904923,1.8912791,-8.941424,89.27209,-10.734216,-0.40396705,-14.709384,4.614845,-4.1805573,49.699318,-30.050863,-2.4239595,-4.4288917,1.8402915,12.9492035,6.907039,24.604969,-25.572767,-13.84356,-16.404531,-0.047888234,-6.1326675,-5.3546634,-19.624958,22.486637,-15.079865,2.0164592,1.1696128,0.71335524
196,5.686834812164307,265.36065673828125,73.6888198852539,-2.192167700105265,-1.297544141698728,89.32861224455598,-14.547761,1.7963717,-8.603266,88.9927,-11.257202,-0.15689538,-13.37259,4.437382,-4.0088167,49.241104,-30.568825,-2.3853934,-3.5420117,1.8773886,12.775577,8.690738,24.280848,-25.345482,-14.437079,-16.943863,-0.04804803,-6.2312865,-6.7217274,-19.653831,22.387753,-15.29755,2.2926357,1.0733892,0.77536654
197,5.687935829162598,266.6697998046875,73.85248565673828,-1.9134415323133003,-1.2065277088551543,89.18762896384501,-15.960197,1.5620154,-8.124592,88.14921,-11.750129,-0.09462616,-11.950811,4.229334,-3.6821103,48.57113,-30.803844,-2.3738174,-2.4660969,1.8524308,12.583308,10.434761,23.960323,-25.160309,-15.122036,-17.83711,-0.01763639,-6.464468,-8.012074,-19.657326,22.320778,-15.56245,2.722057,1.0290464,0.6680023
198,5.684204578399658,267.9800720214844,74.07849884033203,-1.5622266606837516,-1.1042540504014453,88.93827357712958,-17.226294,1.2165121,-7.5243373,86.800224,-12.208955,-0.16289802,-10.461715,3.9737685,-3.2227678,47.67937,-30.787989,-2.3760698,-1.2291604,1.7739415,12.345714,12.157178,23.644466,-25.015533,-15.957851,-18.988022,0.04714258,-6.812503,-9.204768,-19.638987,22.252708,-15.903961,3.2969866,1.001617,0.45181507
199,5.678382873535156,269.3272399902344,74.36399841308594,-1.1814982334238253,-0.986225336976714,88.66735851270971,-18.363262,0.795482,-6.9009542,85.03241,-12.594694,-0.32206956,-8.919559,3.6776857,-2.7196975,46.59294,-30.498425,-2.3601894,0.02949091,1.659254,12.06814,13.880268,23.332104,-24.879362,-16.848663,-20.219545,0.1284943,-7.1776595,-10.34982,-19.60976,22.233784,-16.255709,3.9039226,0.9768234,0.21340257
200,5.675369739532471,270.6963806152344,74.70355987548828,-0.8157535794544631,-0.8499070234393514,88.46176955844257,-19.385803,0.32218355,-6.352689,82.932915,-12.868672,-0.5394655,-7.338286,3.351873,-2.2612207,45.341602,-29.913723,-2.2954004,1.1663702,1.5275841,11.757067,15.631444,23.019531,-24.71278,-17.706879,-21.35433,0.20433532,-7.4645376,-11.49757,-19.58187,22.319473,-16.551249,4.4315658,0.9426017,0.037446436
201,5.648622035980225,272.0801696777344,75.08881378173828,-0.47068458113213885,-0.6943619359806543,88.32443578383732,-20.293224,-0.24638228,-5.915582,80.48392,-13.033825,-0.8179201,-5.6947308,3.0034463,-1.8393748,43.87684,-29.019077,-2.1758828,2.1706634,1.3883172,11.413286,17.42592,22.704983,-24.500072,-18.534204,-22.372766,0.2543646,-7.6474037,-12.653959,-19.561357,22.526281,-16.785679,4.887629,0.89106166,-0.07024753
202,5.6264729499816895,273.4927062988281,75.51156616210938,-0.12658801951110546,-0.5218433794107376,88.2162683463948,-21.071936,-0.89709485,-5.541196,77.643166,-13.110817,-1.1625034,-3.9966836,2.628534,-1.4185814,42.211147,-27.833717,-2.0167456,3.1063602,1.2313832,11.039224,19.25186,22.387266,-24.25577,-19.376982,-23.359623,0.2927094,-7.779225,-13.786725,-19.548176,22.82686,-17.001978,5.3232512,0.83100283,-0.1517458
203,5.591803550720215,274.90496826171875,75.96208190917969,0.21436088162680098,-0.33546559852243985,88.16150030665747,-21.714043,-1.539708,-5.1920667,74.459175,-13.080745,-1.552552,-2.2966602,2.2260854,-1.0429856,40.4571,-26.383276,-1.8209381,3.943336,1.0477521,10.642531,21.091131,22.062187,-23.9871,-20.208605,-24.293243,0.34428948,-7.8819156,-14.885673,-19.545029,23.210005,-17.21524,5.6908526,0.77757305,-0.19337519
204,5.549375534057617,276.31109619140625,76.42720794677734,0.553509294711881,-0.13890591891471385,88.18433133266674,-22.207747,-2.0988517,-4.8232403,70.97203,-12.921956,-1.9790126,-0.64554936,1.7958927,-0.755257,38.727528,-24.692059,-1.5927287,4.649342,0.83030677,10.2301855,22.924759,21.723532,-23.699455,-20.999693,-25.150948,0.43488923,-7.977474,-15.945673,-19.556713,23.665405,-17.43338,5.945215,0.7460883,-0.18194099
205,5.4952473640441895,277.7742004394531,76.92943572998047,0.9035460028689007,0.061248242037407016,88.29145886082097,-22.512552,-2.6519618,-4.460106,67.09792,-12.592059,-2.5532837,0.99576193,1.3221633,-0.5404335,36.97183,-22.703434,-1.3185574,5.211376,0.5667571,9.805733,24.780544,21.36636,-23.39965,-21.740488,-25.973894,0.56487745,-8.042589,-16.972836,-19.589314,24.216263,-17.654692,6.0753484,0.746055,-0.10767198
206,5.435120582580566,279.2171325683594,77.41968536376953,1.2580733160554773,0.26567804385855676,88.4714160751834,-22.62797,-3.2217062,-4.114921,62.8204,-12.104359,-3.2539096,2.6334703,0.8216995,-0.38040537,35.173374,-20.434328,-1.0035793,5.6451564,0.27363545,9.367215,26.655415,20.989313,-23.079428,-22.445768,-26.75525,0.7215489,-8.074641,-17.96117,-19.645403,24.859583,-17.883482,6.1063924,0.7680875,0.019560928
207,5.372827529907227,280.6714172363281,77.89801025390625,1.5884231215634157,0.48190724220813613,88.72056018929923,-22.601572,-3.6780427,-3.704719,58.273006,-11.512696,-3.8925097,4.173108,0.33867183,-0.30959406,33.48788,-18.014729,-0.6791181,5.962688,-0.018476835,8.91206,28.482025,20.59288,-22.72086,-23.118185,-27.40062,0.91254234,-8.125921,-18.892626,-19.725641,25.547148,-18.134003,6.044319,0.7990235,0.18524379
208,5.300947666168213,282.121337890625,78.36042785644531,1.8691434365789783,0.7184829408767581,89.0331448786156,-22.481888,-3.9102225,-3.1302264,53.58812,-10.872046,-4.2948165,5.527224,-0.08732599,-0.36126983,32.055355,-15.562796,-0.37410045,6.18076,-0.28317872,8.437411,30.193201,20.178848,-22.30877,-23.760496,-27.815285,1.1460489,-8.2482815,-19.746552,-19.829361,26.226017,-18.423666,5.8939414,0.8253663,0.3750532
209,5.209787845611572,283.56512451171875,78.80122375488281,2.1229430352893903,1.0016080541338532,89.4433663508638,-22.254425,-3.936592,-2.3013935,48.611744,-10.134875,-4.482075,6.6728697,-0.48136973,-0.5795208,30.863953,-13.024787,-0.10663336,6.2724347,-0.5427722,7.911982,31.803566,19.74908,-21.837784,-24.370201,-28.038492,1.4287882,-8.47356,-20.530577,-19.960768,26.904129,-18.743944,5.6201386,0.8415941,0.6018511
210,5.147670745849609,285.018798828125,79.21185302734375,2.3547055326324458,1.315214140174781,89.93900505028043,-21.858755,-3.872267,-1.2580479,43.26741,-9.261769,-4.581936,7.6711917,-0.8488898,-0.92587614,29.837341,-10.352996,0.14867237,6.2443376,-0.797992,7.3495574,33.34137,19.303715,-21.312708,-24.953735,-28.09808,1.7541823,-8.767871,-21.249365,-20.123114,27.59834,-19.095236,5.232756,0.85427046,0.8682044
211,5.084518909454346,286.47503662109375,79.59184265136719,2.495415045179096,1.608882841010343,90.44661302245211,-21.308794,-3.725146,-0.10919528,37.857056,-8.3599615,-4.5719314,8.563506,-1.1029729,-1.3163328,29.001566,-7.6676416,0.42506877,6.161042,-0.9756121,6.8086085,34.757626,18.842604,-20.735247,-25.527624,-27.88356,2.109312,-9.087553,-21.885353,-20.314215,28.271654,-19.497725,4.8013,0.86903113,1.1461122
212,5.022730350494385,287.9478454589844,79.93920135498047,2.479356691204698,1.836969655819612,90.89295386886369,-20.658632,-3.4645815,1.02468,32.737793,-7.5631337,-4.3990335,9.385235,-1.1594896,-1.6679381,28.381887,-5.084371,0.750744,6.0869527,-1.0093355,6.3447914,36.00183,18.366816,-20.110472,-26.102526,-27.28385,2.4803355,-9.390707,-22.42332,-20.529808,28.8859,-19.970453,4.3927336,0.89269435,1.4085481
213,4.957793235778809,289.4228820800781,80.24971771240234,2.2718429368273036,1.9880390319005283,91.28535595705641,-19.918386,-3.0036142,2.1434028,27.921804,-6.935759,-3.9118147,10.169965,-0.97018,-1.9884423,27.925991,-2.5475683,1.1258743,6.024018,-0.8766575,5.960298,37.093853,17.874832,-19.387539,-26.702877,-26.131216,2.8956192,-9.7157135,-22.862246,-20.774055,29.43948,-20.542036,3.9894083,0.93787074,1.6662225
214,4.890223026275635,290.88787841796875,80.51091766357422,1.912124493458419,2.0915165803647686,91.65129425616323,-19.093721,-2.3948023,3.3155613,23.278801,-6.432856,-3.198437,10.896388,-0.5870627,-2.3056107,27.61268,-0.004562068,1.5360196,5.945996,-0.61511767,5.6271577,38.047718,17.36532,-18.581928,-27.314426,-24.529062,3.3445814,-10.078292,-23.215693,-21.050615,29.947191,-21.191174,3.5670767,0.99757254,1.9285841
215,4.847504138946533,292.3420715332031,80.72940826416016,1.456122492413814,2.1657485048086937,91.94977758764423,-18.274803,-1.7593575,4.501259,19.022463,-6.038933,-2.5128012,11.507095,-0.08845841,-2.5721498,27.528006,2.416173,1.9818742,5.874458,-0.25666922,5.354308,38.798855,16.84512,-17.799782,-27.884392,-22.776142,3.7605824,-10.39851,-23.487808,-21.348482,30.391642,-21.86062,3.182584,1.050612,2.1657817
216,4.796524524688721,293.7922668457031,80.8973388671875,0.9629222353143171,2.2279919988853685,92.14054334950431,-17.550919,-1.1805092,5.6407475,15.372616,-5.718949,-2.0718093,11.940712,0.44346508,-2.7455246,27.773287,4.57655,2.459977,5.8290467,0.16373901,5.14868,39.28954,16.330784,-17.143984,-28.362665,-21.17331,4.0851517,-10.587568,-23.68954,-21.648731,30.757446,-22.483122,2.8908098,1.0765105,2.3494363
217,4.745327472686768,295.2109680175781,81.00272369384766,0.41769760765982106,2.3239905653053228,92.17936840396825,-16.986132,-0.56312597,6.867276,12.394979,-5.4607463,-1.8759869,12.115317,0.99721074,-2.8117664,28.396881,6.5436463,3.0605628,5.838655,0.6575657,4.9645796,39.513947,15.832157,-16.6188,-28.759491,-19.690357,4.314266,-10.60593,-23.848297,-21.942808,31.060776,-23.053284,2.7006366,1.0627359,2.4857254
218,4.692291736602783,296.6498718261719,81.07081604003906,-0.17427493041435294,2.435376368948566,92.1085581434966,-16.551483,0.120343976,8.15025,10.013411,-5.2954803,-1.7785965,12.053472,1.5672864,-2.8078525,29.408724,8.323116,3.7446048,5.8773537,1.2033972,4.808489,39.504063,15.355139,-16.1698,-29.090458,-18.207655,4.4831705,-10.500228,-23.9577,-22.227497,31.300661,-23.590895,2.5817063,1.023047,2.586154
219,4.637402057647705,298.03558349609375,81.07906341552734,-0.7230294544845199,2.4838388441702883,92.01968239813375,-16.204327,0.7142466,9.169768,8.254588,-5.24998,-1.7488164,11.847366,2.0750635,-2.7793672,30.85474,9.6772,4.3174076,5.878895,1.7138184,4.7644978,39.264072,14.91885,-15.808431,-29.321732,-16.894047,4.5964475,-10.30344,-23.978788,-22.487108,31.437391,-24.059265,2.5269375,0.97655445,2.6311662
220,4.598052978515625,299.3659973144531,81.02112579345703,-1.1475323880849253,2.3928621900102782,92.00285097620839,-15.921395,1.0783134,9.602054,7.178769,-5.374616,-1.7570095,11.607892,2.454864,-2.7718241,32.73508,10.3851795,4.592765,5.779943,2.1061914,4.915839,38.80474,14.552103,-15.548812,-29.428593,-15.921735,4.654385,-10.045052,-23.873852,-22.69936,31.42672,-24.416834,2.5293932,0.9425555,2.6030877
221,4.576488018035889,300.7017822265625,80.91047668457031,-1.4228519666860044,2.1147333133690567,92.08432774550015,-15.792826,1.1852503,9.256957,7.091685,-5.849411,-1.8144046,11.367709,2.7185261,-2.760922,35.141556,10.240429,4.464442,5.553881,2.3495145,5.3268137,38.109863,14.278514,-15.419326,-29.412104,-15.405636,4.630895,-9.656791,-23.639008,-22.84256,31.234703,-24.64409,2.588266,0.91635245,2.50417
222,4.561820030212402,302.037353515625,80.74459075927734,-1.58854489956662,1.702871767134713,92.2205637234451,-15.848586,1.1070611,8.3353195,7.9647036,-6.64748,-1.9182332,11.071371,2.8824065,-2.7350898,38.032806,9.407216,4.057565,5.237509,2.4719813,5.9316454,37.191837,14.106419,-15.407608,-29.293535,-15.241384,4.531135,-9.136671,-23.298485,-22.90921,30.88354,-24.744873,2.7019155,0.8907389,2.345895
223,4.54743766784668,303.3642272949219,80.52045440673828,-1.662230385113341,1.232348667626515,92.39235163311413,-15.970628,0.8536937,7.104789,9.348922,-7.4988556,-2.0286639,10.699159,2.901281,-2.7535386,41.20418,8.232391,3.5396984,4.8645864,2.483743,6.6199484,36.112217,14.042667,-15.46619,-29.092821,-15.275632,4.3996196,-8.615623,-22.85371,-22.900257,30.42196,-24.711775,2.8583236,0.8809992,2.1212296
224,4.537748336791992,304.69158935546875,80.23391723632812,-1.6559511410041539,0.7776481914148669,92.5791033237036,-16.088123,0.46295843,5.828183,10.895028,-8.176029,-2.1046233,10.232118,2.7223802,-2.8831646,44.45299,7.065196,3.0740478,4.479474,2.4010887,7.28116,34.899536,14.070161,-15.561388,-28.79113,-15.341465,4.2844605,-8.228651,-22.29668,-22.829922,29.882418,-24.549442,3.051186,0.9031479,1.8317086
225,4.544754981994629,306.02178955078125,79.88301849365234,-1.5935593399604107,0.29900677985336477,92.79675140536415,-16.092361,-0.07461369,4.32183,12.446825,-8.534866,-2.2994688,9.742971,2.3836098,-3.143521,47.75278,5.976614,2.6940765,4.0793147,2.24427,7.9483905,33.557365,14.203704,-15.699639,-28.38394,-15.474701,4.1765428,-8.015101,-21.594263,-22.692497,29.25899,-24.241838,3.3306334,0.96848446,1.4418932
226,4.540112018585205,307.3534851074219,79.47645568847656,-1.4682937814199493,-0.22673279031654486,93.04421240103686,-16.02695,-0.77677226,2.5361784,14.187568,-8.713574,-2.5990903,9.233027,1.9105171,-3.4894285,51.18634,4.796101,2.3204696,3.6564605,2.0054889,8.65825,32.061096,14.439341,-15.911381,-27.869383,-15.738099,4.0565157,-7.9016976,-20.753641,-22.487799,28.536423,-23.802101,3.6860976,1.0640961,0.9629755
227,4.530503273010254,308.7027587890625,79.03152465820312,-1.2509410582891458,-0.7008542041202516,93.27448831053665,-16.08977,-1.5833657,0.9257785,16.339897,-8.932307,-2.6971734,8.577142,1.223729,-3.8931642,54.722347,3.5089,1.9380244,3.2352548,1.655867,9.310831,30.446684,14.760222,-16.172129,-27.295528,-16.022617,3.9582736,-7.850974,-19.8356,-22.227255,27.757996,-23.27725,4.016504,1.1696181,0.45282844
228,4.472465991973877,309.9734191894531,78.58564758300781,-0.9256265203882549,-1.0263179134271159,93.43821661843691,-16.472755,-2.4125834,-0.056660924,19.088326,-9.380479,-2.2756739,7.6549187,0.24898048,-4.318533,58.322716,2.1059961,1.5241739,2.8333836,1.1858448,9.810141,28.75588,15.138478,-16.444324,-26.720016,-16.21453,3.9168715,-7.8306375,-18.904617,-21.930233,26.975409,-22.715551,4.2248936,1.2667407,-0.033168335
229,4.419146537780762,311.24560546875,78.08902740478516,-0.44889008746498427,-1.1437394002962982,93.5225411476209,-17.387156,-3.2532947,-0.18450704,22.752466,-10.006851,-0.9392659,6.3906107,-1.1179223,-4.7618537,62.06643,0.5415403,1.0799055,2.4480815,0.569222,10.098951,26.992943,15.548237,-16.70282,-26.163746,-16.270525,3.9819171,-7.877498,-18.005144,-21.612005,26.216915,-22.065844,4.352684,1.3439906,-0.51823556
230,4.3743720054626465,312.5298767089844,77.5475845336914,0.11605693237157254,-1.1228696739457358,93.54604940670694,-18.63463,-4.0462446,0.25591803,27.040518,-10.700383,1.0673276,4.8903832,-2.769206,-5.2089343,65.9189,-1.1490403,0.6033459,2.071044,-0.12312149,10.244885,25.135681,15.97899,-16.967436,-25.594774,-16.245306,4.123373,-8.001181,-17.08977,-21.273943,25.464441,-21.335075,4.437053,1.4142592,-1.0234348
231,4.312013149261475,313.77001953125,76.98057556152344,0.6684164793584428,-1.0540054434654467,93.51428179147939,-19.84622,-4.6909466,0.9332277,31.314394,-11.5979395,3.103024,3.2881668,-4.5057235,-5.610982,69.68723,-2.8708334,0.07126084,1.7056805,-0.7940739,10.337004,23.184685,16.431091,-17.263147,-24.983757,-16.1719,4.255545,-8.127829,-16.080782,-20.913996,24.701298,-20.671154,4.368912,1.4995096,-1.4895087
232,4.282609939575195,315.03350830078125,76.3536376953125,1.1408489562460862,-1.0216810061456008,93.43810052647292,-20.69863,-5.179093,1.5098346,35.03697,-12.870334,4.495582,1.6961635,-6.1654325,-5.9328585,73.197716,-4.541787,-0.5324047,1.3543679,-1.3867998,10.461066,21.135374,16.91241,-17.619473,-24.29739,-16.087656,4.292437,-8.181251,-14.899586,-20.527493,23.906052,-20.218557,4.0389466,1.6228954,-1.856599
233,4.258090019226074,316.3100891113281,75.71224975585938,1.5500513219205452,-1.0283638210042794,93.28358692634838,-21.21955,-5.536984,1.9897358,38.313427,-14.800316,4.961987,0.07670462,-7.8286386,-6.1810637,76.529015,-6.193121,-1.2391948,1.0351422,-1.9205234,10.620304,18.962189,17.433346,-18.055351,-23.50661,-16.022402,4.178421,-8.136729,-13.565302,-20.11089,23.089447,-19.996532,3.3061502,1.81004,-2.1044421
234,4.221137046813965,317.5646057128906,75.12344360351562,1.9496606586020608,-1.027836074628184,93.06418888484329,-21.590384,-5.7939444,2.5268583,41.45171,-17.267128,4.8912644,-1.6309056,-9.576117,-6.353344,79.75132,-7.8663797,-2.0270061,0.7406162,-2.4509332,10.774755,16.675386,17.994337,-18.555292,-22.647915,-15.953799,3.9691114,-8.032621,-12.103239,-19.661015,22.255934,-19.939539,2.267606,2.0436816,-2.2637858
235,4.184777736663818,318.7796630859375,74.61682891845703,2.331186764052517,-1.0330103989079347,92.86034264764695,-21.734867,-5.9931417,3.0210228,44.243267,-19.83001,4.592828,-3.3576205,-11.239647,-6.4336777,82.6811,-9.490674,-2.832322,0.43572852,-2.9751077,10.944502,14.319327,18.585897,-19.102816,-21.777172,-15.842418,3.7454505,-7.8877745,-10.442084,-19.171265,21.379194,-20.071527,1.1688561,2.2813334,-2.351847
236,4.148341178894043,319.9967041015625,74.20671081542969,2.672871420356632,-1.0596922337262171,92.74961963270968,-21.55757,-6.195053,3.358045,46.42812,-22.026083,4.373013,-5.0324397,-12.633273,-6.429269,85.13309,-10.982499,-3.5861526,0.08584564,-3.4783704,11.149027,11.932418,19.192366,-19.686234,-20.945185,-15.648758,3.5893278,-7.7223516,-8.511513,-18.633102,20.436983,-20.414211,0.25827682,2.4795153,-2.3885393
237,4.131381511688232,321.22381591796875,73.87435150146484,3.0054509166576797,-1.137448494783158,92.7622586991532,-20.952633,-6.4743576,3.517584,47.839016,-23.736519,4.2772856,-6.644887,-13.756295,-6.348192,87.09413,-12.325739,-4.352923,-0.30886927,-3.9868522,11.437175,9.421215,19.81496,-20.357555,-20.076485,-15.3410225,3.53808,-7.5148616,-6.2246814,-18.02094,19.37552,-21.02684,-0.46021807,2.624726,-2.3688056
238,4.138773441314697,322.4649353027344,73.61761474609375,3.323491798595994,-1.2511420791064993,92.85193478706998,-19.99533,-6.8025494,3.5705383,48.631283,-25.197807,4.158994,-8.2407465,-14.675726,-6.2095237,88.65624,-13.546661,-5.134808,-0.7346779,-4.4978166,11.783499,6.796963,20.446495,-21.118002,-19.182497,-14.953211,3.5432599,-7.260057,-3.651906,-17.318977,18.24332,-21.87261,-1.0968813,2.7369266,-2.2845979
