unveil-humanoid-operators/unveil-humanoid-operators.github.io/feature-analysis-animation/data/feature_matrix_instances/gender_shoulder_mean_vel_jogging_A385_jog_ff_loop_180_R_003__A385.csv
Frame,root_translateX,root_translateY,root_translateZ,root_rotateX,root_rotateY,root_rotateZ,left_hip_pitch_joint_dof,left_hip_roll_joint_dof,left_hip_yaw_joint_dof,left_knee_joint_dof,left_ankle_pitch_joint_dof,left_ankle_roll_joint_dof,right_hip_pitch_joint_dof,right_hip_roll_joint_dof,right_hip_yaw_joint_dof,right_knee_joint_dof,right_ankle_pitch_joint_dof,right_ankle_roll_joint_dof,waist_yaw_joint_dof,waist_roll_joint_dof,waist_pitch_joint_dof,left_shoulder_pitch_joint_dof,left_shoulder_roll_joint_dof,left_shoulder_yaw_joint_dof,left_elbow_joint_dof,left_wrist_roll_joint_dof,left_wrist_pitch_joint_dof,left_wrist_yaw_joint_dof,right_shoulder_pitch_joint_dof,right_shoulder_roll_joint_dof,right_shoulder_yaw_joint_dof,right_elbow_joint_dof,right_wrist_roll_joint_dof,right_wrist_pitch_joint_dof,right_wrist_yaw_joint_dof
0,0.01036152709275484,-1.3659906387329102,75.43242645263672,1.9507451129369169,10.199022772605066,96.166000608045,7.772574,-0.092084095,-13.405533,50.53831,12.107849,-11.620901,-36.071262,-4.9707155,-13.805148,33.823017,-11.6221895,-3.5823522,-10.295111,0.53119427,7.2703824,11.335378,42.905506,-30.051529,-47.311104,3.596386,-4.350024,4.5174813,34.343227,-28.482086,19.444038,-12.845107,-6.759096,-1.7999592,-26.584887
1,-0.00835731066763401,-0.15622593462467194,74.92060852050781,1.3213880410317627,10.053270655456332,95.65680513209644,6.5477304,0.73326975,-12.994106,54.36719,11.075382,-11.406414,-36.4626,-4.3771124,-14.017106,37.054688,-13.659307,-4.252464,-9.790646,1.1036469,7.722494,12.431335,42.718636,-29.249405,-47.451122,3.9852085,-4.5277057,4.8383055,33.09052,-28.331522,19.509768,-11.86077,-6.4301043,-1.917786,-26.750612
2,-0.0004941389779560268,1.0299057960510254,74.42304229736328,0.7012189902937797,9.896995677190263,95.13810928325888,5.393688,1.5153786,-12.626934,58.194157,10.043179,-11.260311,-36.89007,-3.824,-14.176747,40.382397,-15.716157,-4.9653487,-9.297225,1.6884503,8.128982,13.368902,42.32567,-28.52774,-47.431133,4.376704,-4.6923704,5.081089,31.78512,-28.101622,19.573484,-10.780663,-6.1415567,-2.0295353,-26.897333
3,0.024117017164826393,2.1880009174346924,73.94298553466797,0.09187577742570717,9.732099905657904,94.64725907525145,4.1771955,2.3443413,-12.222548,62.03077,8.9768715,-10.996154,-37.189873,-3.2728474,-14.316002,43.492855,-17.756655,-5.6200886,-8.792095,2.2773247,8.509599,14.108201,41.77853,-27.961067,-47.073647,4.8381224,-4.863186,5.312371,30.449562,-27.827875,19.674385,-9.60372,-5.88878,-2.1489978,-27.078503
4,0.06498376280069351,3.3389296531677246,73.48736572265625,-0.5101639926274294,9.561652256922825,94.22034685079241,2.7642717,3.3309855,-11.718472,65.88169,7.8444114,-10.417611,-37.206383,-2.6790009,-14.474231,46.081394,-19.744846,-6.110606,-8.289523,2.8583362,8.887866,14.678882,41.114872,-27.542038,-46.226364,5.4352055,-5.0600257,5.570573,28.875153,-27.545029,19.924126,-8.133285,-5.6089387,-2.2897773,-27.354708
5,0.10666930675506592,4.48821496963501,73.0569839477539,-1.1559853128485755,9.389432570609353,93.87537657884405,1.0844752,4.605305,-11.1415,69.840706,6.640312,-9.3725195,-36.86951,-1.970812,-14.715726,48.01603,-21.696325,-6.3808393,-7.828992,3.472011,9.288647,15.148689,40.35592,-27.222729,-44.834717,6.2109575,-5.4571123,5.967475,26.987562,-27.26915,20.391714,-6.2725925,-5.1753354,-2.5020616,-27.858393
6,0.13974682986736298,5.639221668243408,72.65277862548828,-1.8336910690025943,9.216282956484665,93.58889681134559,-0.77905,6.1044207,-10.553883,73.874054,5.372341,-7.9838743,-36.281204,-1.1766809,-15.01203,49.48417,-23.618269,-6.490175,-7.413526,4.11809,9.705023,15.569704,39.520008,-26.952711,-43.06101,7.119454,-5.987078,6.4601917,24.93016,-26.997253,21.00618,-4.1968718,-4.6486607,-2.7666905,-28.524126
7,0.16106966137886047,6.778209686279297,72.287109375,-2.4539913340123416,9.041615755408552,93.33473751928751,-2.736289,7.6525726,-9.948148,77.80685,4.022899,-6.4694834,-35.543655,-0.4036715,-15.2694,50.659336,-25.460646,-6.504527,-7.004242,4.7189975,10.111096,15.94825,38.63546,-26.720865,-41.077553,8.087982,-6.3109202,6.8464446,22.884014,-26.72883,21.669832,-2.1700473,-4.283385,-2.9866362,-29.116217
8,0.17928531765937805,7.89639949798584,71.96538543701172,-2.927424422329,8.863847927055577,93.08305854762295,-4.702248,9.07143,-9.287801,81.4798,2.5720108,-5.050865,-34.76016,0.23894852,-15.394446,51.71701,-27.172796,-6.492257,-6.5359764,5.1991067,10.489256,16.253387,37.737473,-26.543005,-39.048576,9.031821,-6.095863,6.916458,20.719048,-26.480164,22.330503,-0.16475096,-4.211154,-3.060369,-29.401644
9,0.19249600172042847,9.011673927307129,71.70047760009766,-3.215520605513312,8.678039014971102,92.84746929145048,-6.6877537,10.398274,-8.49863,84.90564,0.9575151,-3.708673,-33.933784,0.70879614,-15.378259,52.682194,-28.750051,-6.4580717,-6.0198154,5.514531,10.850963,16.491098,36.82596,-26.425968,-36.8676,10.017911,-5.042594,6.656351,18.635162,-26.240246,22.975391,1.732725,-4.6010933,-2.9198713,-29.325089
10,0.2049253135919571,10.11920166015625,71.48733520507812,-3.3713650247669253,8.486965685428785,92.63512175449291,-8.720395,11.709967,-7.6231465,88.16731,-0.8082741,-2.3498738,-33.014122,1.0666407,-15.275068,53.4648,-30.21252,-6.3692217,-5.4738026,5.7039266,11.20241,16.672924,35.901417,-26.362211,-34.499157,11.064639,-3.4074917,6.1459727,16.67587,-26.002625,23.636814,3.5008519,-5.3650384,-2.6332197,-29.001385
11,0.21569471061229706,11.22984790802002,71.3187484741211,-3.4353843367442107,8.301582323929356,92.41235541255807,-10.74039,12.868176,-6.7656717,91.19965,-2.6096146,-1.098628,-32.01457,1.3532323,-15.089474,54.060417,-31.559774,-6.2397714,-4.8774514,5.8060336,11.514675,16.838205,35.01197,-26.304941,-32.25662,12.028935,-1.6971467,5.3334165,14.689125,-25.800098,24.341217,5.0586753,-6.3325505,-2.3014247,-28.456806
12,0.22183454036712646,12.350400924682617,71.19058227539062,-3.4484013926121246,8.134048950344884,92.1478509477819,-12.701301,13.7213335,-6.0090685,93.9293,-4.3098164,-0.08315221,-30.949497,1.6082841,-14.828135,54.464993,-32.791832,-6.0835533,-4.2405243,5.8520145,11.756675,17.100054,34.237503,-26.159311,-30.509893,12.758095,-0.41332456,4.201045,12.816488,-25.676565,25.083344,6.040039,-7.43884,-2.0231032,-27.720768
13,0.2130705863237381,13.471756935119629,71.10425567626953,-3.4021624087973716,7.978866602799022,91.82302270483034,-14.623803,14.209452,-5.3211055,96.37526,-5.879537,0.73400444,-29.825533,1.8275137,-14.479489,54.705097,-33.924294,-5.8952203,-3.5666852,5.8193903,11.949588,17.585272,33.647133,-25.789984,-29.491747,13.277497,0.3605909,2.4580321,11.145685,-25.665707,25.855684,6.217881,-8.86027,-1.8092092,-26.657194
14,0.2075805366039276,14.603347778320312,71.05804443359375,-3.2796132963039306,7.834418045462478,91.45940173561229,-16.534801,14.407957,-4.632483,98.563644,-7.366059,1.3909093,-28.633627,1.9920235,-14.05374,54.77356,-34.953506,-5.6733756,-2.8707004,5.691817,12.124316,18.313416,33.268845,-25.22117,-29.099586,13.629513,0.87953895,0.23750727,9.582242,-25.77488,26.693874,5.791033,-10.541732,-1.6386701,-25.295183
15,0.19564710557460785,15.734524726867676,71.05087280273438,-3.1099695475036238,7.7190505478483304,91.08696872479112,-18.412764,14.370062,-3.9605353,100.42551,-8.733405,1.7641013,-27.366493,2.119078,-13.58772,54.62066,-35.852455,-5.439016,-2.1807752,5.509006,12.256666,19.221277,33.114437,-24.603712,-29.179182,13.652998,1.1723037,-1.8270903,8.136264,-25.99452,27.61875,4.9106517,-12.133984,-1.5388442,-23.91735
16,0.1844606101512909,16.883649826049805,71.09651184082031,-2.923909347275461,7.650427841857155,90.73540238218943,-20.23669,14.157864,-3.3241563,101.88943,-9.949718,1.7396901,-26.01546,2.2238348,-13.1165285,54.19445,-36.592762,-5.2080884,-1.5085717,5.3113575,12.316455,20.20336,33.181255,-24.115057,-29.53264,13.18254,1.2767515,-3.101526,6.8105874,-26.30437,28.63474,3.7448337,-13.283679,-1.5062528,-22.809467
17,0.17258736491203308,18.064390182495117,71.1885757446289,-2.7352797459741565,7.645227465341589,90.38803695537878,-22.032053,13.73421,-2.746528,102.9419,-10.9898205,1.1310078,-24.60657,2.321006,-12.622393,53.503845,-37.193626,-4.989071,-0.8361172,5.107058,12.269943,21.228575,33.48733,-23.84316,-30.170416,12.0372095,1.099363,-3.2575154,5.5650144,-26.70509,29.789806,2.2722528,-13.823772,-1.546966,-22.052889
18,0.163089781999588,19.252113342285156,71.33354949951172,-2.5290105257181317,7.6894033255553165,90.0364852102299,-23.81782,13.108158,-2.1967707,103.61484,-11.878407,0.064197786,-23.132399,2.3973343,-12.098686,52.56797,-37.66301,-4.771967,-0.14900354,4.8697724,12.1427965,22.34129,34.036728,-23.692133,-31.167952,10.335043,0.64370435,-2.6964266,4.427237,-27.1964,31.051462,0.4132405,-13.9661255,-1.637806,-21.493633
19,0.14499777555465698,20.46441078186035,71.53057861328125,-2.298391349355748,7.753530777687937,89.72187185254072,-25.556925,12.405179,-1.6230246,103.90245,-12.650975,-1.1080521,-21.533623,2.4298778,-11.590642,51.34569,-37.94766,-4.5476685,0.5454327,4.5887656,11.98625,23.50841,34.783817,-23.580175,-32.371506,8.372035,0.09178236,-1.8771907,3.4846528,-27.749895,32.28881,-1.7240424,-13.931229,-1.7197031,-21.067492
20,0.12475233525037766,21.697254180908203,71.77909088134766,-2.0355936121464535,7.807866557815407,89.48543086838677,-27.203293,11.735308,-0.98944175,103.795906,-13.329153,-2.051852,-19.753172,2.3946862,-11.143202,49.7973,-37.994972,-4.3051963,1.2450066,4.2580833,11.840674,24.66602,35.651405,-23.447884,-33.588737,6.4522824,-0.34297323,-1.2445118,2.8104472,-28.325647,33.362,-3.9971712,-13.953021,-1.7401778,-20.710203
21,0.10118190944194794,22.96254539489746,72.08491516113281,-1.7273267661023242,7.845804391802665,89.33096510501746,-28.744614,11.087985,-0.28638387,103.26479,-13.918199,-2.7375264,-17.731457,2.27628,-10.769682,47.826088,-37.857677,-4.042026,1.9557296,3.8747602,11.689919,25.730312,36.59472,-23.345121,-34.70826,4.472724,-0.6035981,-0.8303278,2.3830802,-28.905554,34.251144,-6.3665857,-14.10887,-1.63745,-20.45667
22,0.07916051894426346,24.2629451751709,72.44742584228516,-1.3821666114450788,7.881383329563928,89.2380309579734,-30.1986,10.417112,0.4560507,102.31532,-14.403097,-3.329649,-15.513388,2.0897655,-10.451246,45.479416,-37.54168,-3.7571566,2.6757834,3.448661,11.506161,26.71376,37.602795,-23.310492,-35.78216,2.3611164,-0.80519927,-0.43206698,2.1613252,-29.493557,35.01932,-8.863924,-14.293196,-1.4542958,-20.321634
23,0.06122485548257828,25.606908798217773,72.85516357421875,-1.0187352318636302,7.916164771822915,89.21234731945964,-31.553816,9.762541,1.2170175,100.99434,-14.766221,-3.7936385,-13.200876,1.8576107,-10.181423,42.94014,-36.918156,-3.4425523,3.383371,2.9983268,11.310404,27.550228,38.6494,-23.26861,-36.73645,0.379356,-0.9575639,-0.12798305,2.1145701,-30.086443,35.66879,-11.384207,-14.43774,-1.3001821,-20.214655
24,0.03963730111718178,26.977861404418945,73.29963684082031,-0.6525927213096301,7.9514801592831725,89.26028053146369,-32.7954,9.156517,1.9799511,99.35031,-14.991125,-4.097602,-10.898258,1.6030412,-9.945506,40.39911,-35.864918,-3.095679,4.0702195,2.5324364,11.117838,28.653137,39.673462,-23.12902,-37.881386,-0.9349653,-1.0683314,0.00596975,2.2440078,-30.673203,36.187637,-13.845864,-14.481014,-1.2846538,-20.045223
25,0.020161394029855728,28.36227035522461,73.77473449707031,-0.27301247942191237,7.969895170399316,89.40931693572594,-33.902184,8.560984,2.7446952,97.36936,-15.065667,-4.206767,-8.542945,1.3351963,-9.716186,37.78785,-34.34882,-2.7284763,4.679842,2.0600736,10.942957,29.431124,40.66613,-22.878891,-38.707645,-1.754341,-1.1107296,-0.12363523,2.513985,-31.246864,36.608738,-16.196915,-14.41067,-1.4558372,-19.791977
26,-0.009050393477082253,29.76913833618164,74.27155303955078,0.12417052006401504,7.974789076734755,89.6491618742618,-34.869408,7.9546795,3.5243633,95.03032,-15.00921,-4.157524,-6.117752,1.0444388,-9.50254,35.060932,-32.444027,-2.339558,5.2407866,1.572574,10.764193,30.28174,41.604538,-22.562378,-39.54146,-2.0223696,-1.0867066,-0.44958058,2.941954,-31.802834,36.918728,-18.478022,-14.261603,-1.7489563,-19.500898
27,-0.050677523016929626,31.188634872436523,74.7825927734375,0.5097338248441672,8.0002904890879,89.92996499275301,-35.707584,7.3940907,4.3243833,92.36883,-14.8495035,-4.025004,-3.792794,0.73653686,-9.332778,32.442097,-30.19505,-1.9176024,5.764163,1.0967666,10.55543,31.09901,42.47378,-22.198648,-40.298473,-2.0092688,-1.0266477,-0.839425,3.4522798,-32.338833,37.163788,-20.639765,-14.036923,-2.095838,-19.192324
28,-0.09579845517873764,32.60967254638672,75.30284118652344,0.8554328293530431,8.081197188760164,90.20192596277475,-36.42827,6.934992,5.1532497,89.41626,-14.611121,-3.8832266,-1.7355609,0.42124084,-9.226855,30.151295,-27.641947,-1.4549665,6.2678766,0.65671676,10.289112,31.889082,43.254047,-21.808788,-40.990646,-1.9193132,-0.9610627,-1.1593624,3.995896,-32.850548,37.383114,-22.649536,-13.750462,-2.4288166,-18.886806
29,-0.16029509902000427,34.040740966796875,75.82284545898438,1.1562880382626155,8.237943500359652,90.4809757684565,-37.04741,6.576025,6.024674,86.15628,-14.27807,-3.7622845,0.032630123,0.100472674,-9.199763,28.207146,-24.700994,-0.90361935,6.733588,0.2628452,9.940965,32.630436,43.926548,-21.39693,-41.588757,-1.7343653,-0.8884925,-1.4183366,4.5496016,-33.334484,37.60077,-24.467651,-13.388657,-2.7754116,-18.59214
30,-0.22899873554706573,35.48738098144531,76.35130310058594,1.4256168213493223,8.44749591149115,90.78643201715478,-37.53893,6.2656617,6.942216,82.57096,-13.847643,-3.6366405,1.5923672,-0.21641687,-9.211095,26.512354,-21.391333,-0.27697316,7.149219,-0.0927824,9.525583,33.309715,44.480804,-20.969728,-42.075245,-1.3630093,-0.7972737,-1.6783146,5.124867,-33.78608,37.805714,-26.10103,-12.948703,-3.1546028,-18.294916
31,-0.30276036262512207,36.93485641479492,76.86676788330078,1.6599138797709767,8.681266883515828,91.07282058051284,-37.857487,5.9869366,7.8960705,78.681854,-13.35946,-3.494476,2.9341807,-0.5172138,-9.204114,25.108494,-17.896978,0.35492358,7.544144,-0.4173442,9.073542,33.931953,44.91494,-20.553455,-42.46329,-0.90723467,-0.6995847,-1.8838992,5.7194934,-34.20096,37.98599,-27.585842,-12.462407,-3.4866703,-17.982904
32,-0.3802706301212311,38.388221740722656,77.36978149414062,1.8542835742794788,8.911771404302593,91.29356277901994,-37.96442,5.730382,8.870356,74.50711,-12.85267,-3.3186839,4.0587564,-0.794806,-9.133005,24.018412,-14.383928,0.92913973,7.9510517,-0.7193163,8.616371,34.5051,45.233547,-20.172289,-42.77374,-0.4705057,-0.60586,-1.9777915,6.3394985,-34.57466,38.12587,-28.963835,-11.966336,-3.6921396,-17.645506
33,-0.4712636172771454,39.853572845458984,77.85252380371094,2.024896192930841,9.159072781168195,91.42635281502217,-37.843998,5.523299,9.94104,69.969086,-12.318398,-3.0617042,4.9056253,-1.0840117,-9.034453,23.290052,-10.714394,1.4637885,8.393443,-1.022808,8.138701,35.02411,45.432964,-19.826868,-43.008556,-0.06307698,-0.51086366,-1.9441671,6.976411,-34.9038,38.221138,-30.229284,-11.477396,-3.724292,-17.266365
34,-0.5506281852722168,41.32960510253906,78.30899047851562,2.167662115261123,9.431510067699636,91.49703328803699,-37.51377,5.332816,11.10165,65.06664,-11.738639,-2.7640722,5.519937,-1.3742708,-8.899621,22.853476,-6.8341117,2.0494702,8.851004,-1.3189857,7.629664,35.48067,45.511295,-19.51433,-43.15561,0.36510387,-0.4092479,-1.8145553,7.625241,-35.185577,38.2839,-31.36002,-10.975698,-3.633045,-16.856585
35,-0.6305727362632751,42.80982971191406,78.72683715820312,2.253031521564214,9.683995021544037,91.53084601491373,-36.99798,5.087403,12.194216,59.93076,-11.135214,-2.520102,6.0467744,-1.5874277,-8.632349,22.580894,-3.0369186,2.700411,9.292678,-1.5648905,7.127882,35.879772,45.485394,-19.2468,-43.218987,0.79580635,-0.3109833,-1.6005591,8.289772,-35.418278,38.320484,-32.375034,-10.43722,-3.4841406,-16.446619
36,-0.713711678981781,44.29731750488281,79.09972381591797,2.2488802357825195,9.869036861602698,91.55001331168671,-36.318264,4.742365,13.051645,54.66968,-10.514037,-2.4011524,6.617309,-1.6510209,-8.153561,22.358187,0.3853048,3.3733766,9.695379,-1.7214048,6.6745696,36.232822,45.38508,-19.033413,-43.211227,1.2086707,-0.22664706,-1.3096228,8.980286,-35.601067,38.3295,-33.297016,-9.8356285,-3.3441486,-16.066145
37,-0.7908617258071899,45.789817810058594,79.4255599975586,2.1734111654747124,9.989668052486607,91.5437737070182,-35.42564,4.2806683,13.661761,49.087524,-9.805688,-2.3524776,7.245448,-1.5684606,-7.4089227,22.11555,3.4497914,4.0747113,10.079174,-1.8140349,6.2633305,36.551487,45.234074,-18.873056,-43.14076,1.6255531,-0.14531611,-0.9253843,9.72065,-35.73101,38.299503,-34.133068,-9.157093,-3.205848,-15.706573
38,-0.8517753481864929,47.29623794555664,79.69933319091797,2.03184110608486,10.063266479711828,91.49830725732444,-34.310154,3.765541,14.08731,43.147682,-9.00346,-2.329612,7.8727155,-1.3635727,-6.4539313,21.915968,6.3011837,4.8001137,10.463874,-1.8541203,5.8818436,36.841934,45.040535,-18.75341,-43.022915,2.0399532,-0.064362496,-0.44259298,10.512357,-35.805225,38.225742,-34.884148,-8.4202795,-3.0421112,-15.358217
39,-0.9045759439468384,48.81230545043945,79.9157485961914,1.7771862792137547,10.06037945843189,91.43505491455446,-33.0427,3.2869966,14.268492,37.18301,-8.202177,-2.4101846,8.518329,-1.0045874,-5.4109273,21.84496,8.852314,5.433861,10.823035,-1.7798485,5.5639834,37.11031,44.811497,-18.663403,-42.88334,2.3887432,-0.007912708,0.11519732,11.313507,-35.82644,38.11455,-35.548702,-7.633878,-2.8899305,-15.046146
40,-0.9419329166412354,50.32810974121094,80.0728530883789,1.3625749441716428,9.951680990084135,91.37546756392545,-31.703497,2.9308512,14.155486,31.54632,-7.499187,-2.6831648,9.192147,-0.46815106,-4.418092,22.001947,11.008738,5.843537,11.131297,-1.5276861,5.3437395,37.36316,44.55236,-18.591764,-42.74791,2.6097667,-0.0022006761,0.72438705,12.090271,-35.80039,37.97179,-36.13405,-6.80837,-2.7870667,-14.795893
41,-0.9843297004699707,51.840370178222656,80.17250061035156,0.6840229879400365,9.691960624583,91.31818244465997,-30.225683,2.785325,13.657146,26.118723,-6.882171,-3.306088,9.942757,0.4001761,-3.347797,22.374844,12.754054,5.901866,11.398133,-0.9853971,5.2413816,37.617264,44.27117,-18.534657,-42.633625,2.6871228,-0.055433016,1.4035716,12.872725,-35.730392,37.787304,-36.662548,-5.945647,-2.7370596,-14.61315
42,-1.0253281593322754,53.33747100830078,80.21357727050781,-0.23984754767272892,9.29461865916568,91.24141052005596,-28.567907,2.8670237,12.829117,20.74024,-6.290386,-4.181627,10.77226,1.5460459,-2.1952837,22.920513,14.159165,5.653969,11.652291,-0.17860779,5.2409654,37.879795,43.972183,-18.49314,-42.539562,2.6546814,-0.15584588,2.159424,13.675105,-35.619144,37.555992,-37.136642,-5.0380354,-2.7231402,-14.483388
43,-1.0666319131851196,54.81622314453125,80.1998291015625,-1.2495142852214425,8.826237153643874,91.14604479825232,-26.899925,3.111158,11.8522835,15.789286,-5.785354,-5.0346446,11.591609,2.6542542,-1.295853,23.713625,15.238422,5.2179127,11.883115,0.72999114,5.318794,38.12681,43.650402,-18.464197,-42.45511,2.5200264,-0.3012221,2.9486663,14.439404,-35.47265,37.29487,-37.5333,-4.083753,-2.7532907,-14.400297
44,-1.0999128818511963,56.261138916015625,80.13143920898438,-2.1303251070865104,8.37595289983548,91.05466835190452,-25.420492,3.353974,10.907771,11.664237,-5.4330735,-5.593115,12.25144,3.3590984,-1.0089788,24.878105,15.96629,4.719646,12.05191,1.5222508,5.4424195,38.34063,43.29225,-18.44651,-42.36991,2.301098,-0.4899004,3.7261848,15.0979595,-35.296246,37.025566,-37.817577,-3.07809,-2.835829,-14.359532
45,-1.1499532461166382,57.66671371459961,80.00904846191406,-2.7578523366735053,8.002343935927234,91.01809849900287,-24.236557,3.4475906,9.972163,8.485233,-5.243134,-5.732496,12.651398,3.4150398,-1.6418968,26.55006,16.212088,4.1744027,12.093989,2.0729585,5.600439,38.497227,42.882286,-18.437073,-42.265896,1.9490125,-0.7423367,4.4964843,15.613042,-35.089447,36.75884,-37.97728,-1.9908721,-2.9890296,-14.365926
46,-1.2128409147262573,59.046573638916016,79.84526824951172,-3.1960558158915133,7.6753385592068994,91.0443404741543,-23.7763,3.4882996,8.939947,7.1461525,-5.7712173,-5.6130047,12.826635,2.9167893,-2.9612772,28.729662,15.94003,3.4763193,12.001772,2.44711,5.8028584,38.589207,42.415443,-18.440863,-42.124504,1.4728477,-1.0578617,5.271516,16.012457,-34.848175,36.49438,-38.018345,-0.83327585,-3.2059999,-14.419541
47,-1.2745765447616577,60.41935729980469,79.65198516845703,-3.4839022387486644,7.364015324123723,91.0987878696665,-23.75539,3.443222,7.927151,7.1173987,-6.791832,-5.3835196,12.815061,2.013272,-4.5223966,31.321726,15.276769,2.6001318,11.814345,2.6795192,6.0439296,38.61691,41.895645,-18.471466,-41.91721,0.9772122,-1.4011399,6.019427,16.318314,-34.572205,36.236645,-37.92779,0.33978486,-3.4574528,-14.509191
48,-1.3438072204589844,61.77522659301758,79.42201232910156,-3.672878252656477,7.033468757199391,91.13952472926758,-23.53209,3.278019,7.0772886,7.123558,-7.6827507,-5.194998,12.658466,0.92298037,-5.877262,34.188835,14.393578,1.5544506,11.581728,2.8203945,6.3176293,38.58409,41.332603,-18.539993,-41.626926,0.56226945,-1.7332728,6.711623,16.562086,-34.26397,35.984734,-37.700756,1.4726529,-3.713489,-14.625758
49,-1.425018072128296,63.122535705566406,79.14282989501953,-3.8299627048281875,6.632575960746881,91.14542662491769,-23.007431,3.1017404,6.4383845,7.180281,-8.729866,-5.1717863,12.429856,-0.2283099,-6.983171,37.30577,13.276008,0.29169917,11.340117,2.9326427,6.643628,38.710835,40.722454,-18.640982,-41.416183,0.31459287,-2.0770547,7.3649907,16.789042,-33.925327,35.720722,-37.366425,2.6154497,-3.9978294,-14.776313
50,-1.51113760471344,64.46338653564453,78.81571960449219,-3.899891404588553,6.195975821970335,91.14239829337518,-22.235891,2.8676455,5.9423842,7.2803903,-9.812788,-5.204028,12.110907,-1.5676376,-8.018224,40.69788,11.869963,-1.1441684,11.015824,2.9654815,7.030281,38.505135,40.092552,-18.740187,-40.890064,-0.09675055,-2.4384954,7.974044,16.926283,-33.562305,35.485302,-36.90101,3.774586,-4.3169675,-14.961021
51,-1.5856279134750366,65.81947326660156,78.43856811523438,-3.7608060220705064,5.815451406642487,91.15172928934953,-21.402166,2.412026,5.5175853,7.402287,-10.381653,-5.0817676,11.586707,-3.1980777,-8.8810835,44.300957,10.331032,-2.5859826,10.655839,2.7835104,7.4093766,38.420563,39.421486,-18.899023,-40.469868,-0.28610578,-2.759031,8.534301,17.014002,-33.1675,35.216686,-36.305733,4.8361382,-4.618819,-15.164229
52,-1.6421297788619995,67.18167877197266,78.0211181640625,-3.3025901231173482,5.577901069395013,91.18922603303555,-21.492178,1.6406509,5.0635457,9.250686,-10.802417,-4.5874147,10.745538,-5.206484,-9.475304,48.042828,8.833904,-3.8729618,10.220063,2.277336,7.7358785,38.002113,38.722397,-19.123312,-39.80799,-0.40826672,-2.9731169,9.006471,16.979156,-32.74041,34.942562,-35.53122,5.6813684,-4.845649,-15.369901
53,-1.7722162008285522,68.46538543701172,77.64396667480469,-2.4359534329328323,5.540574456258384,91.24319166759324,-22.41228,0.38164192,4.532409,12.457114,-10.132057,-3.5521104,9.505549,-7.6548204,-9.709946,51.943447,7.456845,-4.9112306,9.741446,1.3510185,7.952769,37.364258,37.979027,-19.42981,-38.988598,-0.37115386,-3.076087,9.395999,16.836256,-32.27892,34.639523,-34.586063,6.2989354,-4.9681654,-15.587546
54,-1.896567463874817,69.72074127197266,77.24104309082031,-1.3037968612740738,5.619995994754455,91.28997116865854,-23.628723,-1.201059,4.076046,16.148672,-8.378019,-2.1542532,7.9939547,-10.34947,-9.615137,55.94534,6.1772647,-5.7801304,9.244849,0.156804,8.102905,36.631615,37.181526,-19.801231,-38.1015,-0.16590731,-3.094218,9.714952,16.61459,-31.786385,34.30372,-33.493233,6.7426176,-5.0187273,-15.820956
55,-1.9783153533935547,70.99129486083984,76.74744415283203,-0.1127839518023669,5.703945934052948,91.33509512835181,-24.851112,-2.8046541,3.893606,19.946875,-6.649817,-0.66651946,6.370948,-13.047543,-9.298565,59.91302,4.9849253,-6.590694,8.714366,-1.0823829,8.275238,35.702885,36.35744,-20.209341,-37.096516,0.12373395,-3.0121908,9.954577,16.31558,-31.26897,33.94838,-32.23937,6.994522,-5.033111,-16.049845
56,-2.059353828430176,72.22891235351562,76.21723175048828,0.9988964120502988,5.702940871267383,91.40270067890502,-25.822842,-4.2079854,4.077638,23.532974,-6.114803,0.6907281,4.7440186,-15.617615,-8.8893385,63.782646,3.8174882,-7.4613843,8.137749,-2.222904,8.546672,34.621105,35.54685,-20.642881,-36.056515,0.49889258,-2.8171005,10.11824,15.961072,-30.726574,33.565945,-30.821012,7.039699,-5.049533,-16.255543
57,-2.1543734073638916,73.41685485839844,75.6624526977539,2.096480227998848,5.617678074765717,91.49934517931203,-26.644258,-5.4243517,4.7126546,27.183804,-7.4243326,1.98144,3.0613363,-18.178453,-8.358391,67.66653,2.6475298,-8.411727,7.5215526,-3.352278,8.940365,33.40105,34.776745,-21.067162,-35.026535,0.9500084,-2.460881,10.203526,15.534194,-30.158394,33.140896,-29.271065,6.8277526,-5.1135473,-16.422523
58,-2.218878746032715,74.6074447631836,75.10325622558594,3.252941969101884,5.498752178972143,91.62279975399487,-27.449291,-6.566586,5.6335936,31.054663,-9.924477,3.2978287,1.2433743,-20.780771,-7.6428113,71.59394,1.4901651,-9.376076,6.8780375,-4.554843,9.404684,32.01723,34.054707,-21.48985,-33.97332,1.4628512,-1.9671915,10.218023,15.047421,-29.56298,32.66457,-27.594795,6.3817053,-5.1935515,-16.567652
59,-2.290454149246216,75.78765869140625,74.5646743774414,4.3761109500274795,5.3427245539589325,91.78677264254131,-28.043467,-7.635817,6.533554,34.673145,-12.830327,4.467487,-0.65263236,-23.25841,-6.8393974,75.39244,0.32437697,-10.3542185,6.203833,-5.7215896,9.899155,30.460949,33.38982,-21.974743,-32.85243,2.0436847,-1.4316084,10.183494,14.560627,-28.933558,32.135727,-25.737751,5.800631,-5.2119293,-16.717258
60,-2.37491774559021,76.95716857910156,74.07194519042969,5.371292854755843,5.145387965188173,92.00254045051086,-28.229588,-8.646369,7.1660786,37.551273,-15.327381,5.322696,-2.556311,-25.447338,-6.0701504,78.89676,-0.8724821,-11.34836,5.4904118,-6.7349753,10.388673,28.65467,32.79432,-22.583315,-31.567602,2.657756,-0.9488445,10.123919,14.128591,-28.258543,31.55799,-23.638966,5.185475,-5.0905204,-16.894125
61,-2.460662603378296,78.11603546142578,73.61555480957031,6.269774964247505,4.8866407708366735,92.28833085944315,-27.883741,-9.687092,7.541623,39.455387,-17.239868,5.7590914,-4.4717793,-27.421103,-5.363991,82.16358,-2.147663,-12.481562,4.7180586,-7.6181655,10.9021845,26.539474,32.266327,-23.37303,-30.030994,3.2416215,-0.54214114,10.165481,13.718315,-27.508423,30.926958,-21.109844,4.6634374,-4.860608,-17.148727
62,-2.5195674896240234,79.2794189453125,73.22290802001953,7.110853165437752,4.576941089711601,92.63395625228212,-27.147072,-10.754987,7.787221,40.69633,-18.980373,5.879777,-6.4372034,-29.239834,-4.670102,85.269966,-3.4841337,-13.711067,3.9065666,-8.434264,11.442846,24.159994,31.796995,-24.301348,-28.316507,3.8216946,-0.15994747,10.263682,13.304626,-26.670958,30.232386,-18.217804,4.1447887,-4.5443406,-17.442602
63,-2.554802179336548,80.46232604980469,72.89520263671875,7.801249819804152,4.259025069544102,93.0070151027655,-26.206959,-11.714126,7.8689938,41.58537,-20.605335,5.8374643,-8.41116,-30.709003,-4.033866,88.0877,-4.8033996,-14.787915,3.1043983,-9.111987,11.9449,21.7007,31.38662,-25.28964,-26.6562,4.556614,0.2127445,10.186716,12.974065,-25.775759,29.47094,-15.307316,3.4046626,-4.0512147,-17.66742
64,-2.556324005126953,81.63957977294922,72.629150390625,8.252009404595919,3.9760934231584533,93.37788215922612,-25.245264,-12.432896,7.7589655,42.4284,-22.172869,5.7895226,-10.345279,-31.504793,-3.3567271,90.48457,-6.016637,-15.000033,2.3455687,-9.5702915,12.352728,19.141443,31.055109,-26.267159,-25.110172,5.5017705,0.583968,9.6966915,12.823292,-24.885468,28.65061,-12.750516,2.220488,-3.2938895,-17.71867
65,-2.5751547813415527,82.84083557128906,72.4301986694336,8.38697106190079,3.7266392185105843,93.73613200019922,-24.278027,-12.8175955,7.4215064,43.305103,-23.718996,5.7368875,-12.199599,-31.751911,-2.9841397,92.4453,-7.1186213,-15.000033,1.65655,-9.725091,12.703538,16.58621,30.807669,-27.284979,-23.78208,6.836603,0.9947325,8.636439,12.938211,-24.028715,27.686356,-10.576782,0.10540111,-1.9713255,-17.581251
66,-2.583754539489746,84.04386901855469,72.29368591308594,8.270130565617732,3.496486259595763,94.0987948926519,-23.213806,-12.9480295,6.898817,44.04804,-25.206429,5.6098804,-13.990413,-31.616596,-2.9422343,94.044914,-8.153057,-15.000033,1.0108799,-9.629831,13.032762,13.923544,30.64203,-28.388607,-22.555937,8.433945,1.3980637,7.1595187,13.275477,-23.210445,26.601803,-8.664869,-2.6755872,-0.23584503,-17.255886
67,-2.59084415435791,85.24996948242188,72.19612884521484,8.01037975287768,3.313046067809547,94.47148774789636,-22.076246,-12.922314,6.2644773,44.59387,-26.581808,5.443439,-15.733835,-31.24563,-3.163594,95.29481,-9.122624,-15.000033,0.38745323,-9.407363,13.278615,11.263526,30.56031,-29.523867,-21.541407,10.136363,1.6704645,5.4980803,13.79016,-22.472515,25.543936,-7.204524,-5.2136955,1.3180978,-16.729353
68,-2.5957279205322266,86.44966125488281,72.13797760009766,7.725065272891495,3.2011125285649573,94.86128024256465,-20.888258,-12.853919,5.589766,44.880527,-27.791779,5.2785397,-17.455475,-30.663027,-3.4376292,96.19764,-10.022508,-14.631742,-0.24168777,-9.178284,13.380814,8.742405,30.571695,-30.620111,-20.874378,11.787324,1.7070873,3.8877528,14.463742,-21.887896,24.659647,-6.42325,-6.5813255,2.1168103,-16.088129
69,-2.597646474838257,87.68067932128906,72.13261413574219,7.42596794680121,3.1834036975501956,95.27624641728698,-19.687307,-12.750865,4.877248,44.92639,-28.846277,5.113328,-19.224087,-29.914717,-3.801646,96.76877,-10.843466,-14.097381,-0.8775719,-8.945129,13.316185,6.332916,30.694828,-31.67737,-20.652704,13.521076,1.4105482,2.1863644,15.416339,-21.530937,23.942017,-6.613792,-6.3172827,1.8732145,-15.32491
70,-2.6002302169799805,88.92828369140625,72.1739730834961,7.061545152874985,3.241937762374863,95.71134175211975,-18.451483,-12.561736,4.1025324,44.75458,-29.768904,4.9369006,-21.01744,-28.980297,-4.3110056,96.98935,-11.588504,-13.430498,-1.5106516,-8.63928,13.144974,3.9745927,30.935396,-32.742756,-20.809301,15.328401,0.8407541,0.35034558,16.695627,-21.42277,23.322903,-7.6936707,-4.938216,0.9741163,-14.425471
71,-2.6057567596435547,90.19064331054688,72.26070404052734,6.646530479886175,3.3419214575660683,96.15107828085893,-17.118166,-12.289546,3.2837563,44.313164,-30.523598,4.7597356,-22.719261,-27.992262,-5.017899,96.81868,-12.279273,-12.706231,-2.1610227,-8.274057,12.919235,1.8111285,31.277681,-33.796326,-21.269922,16.882124,0.17879869,-1.2441595,18.147163,-21.541195,22.86283,-9.285078,-2.9847758,-0.12951334,-13.500038
72,-2.6118052005767822,91.47675323486328,72.3994369506836,6.188288651653183,3.448631789334955,96.57989849288023,-15.626245,-11.93137,2.4380963,43.55246,-31.074959,4.58949,-24.205212,-27.073345,-5.9746714,96.21452,-12.936064,-11.998222,-2.8696492,-7.8644238,12.675776,-0.025012065,31.698582,-34.784863,-21.928677,17.865494,-0.35793307,-2.242638,19.560398,-21.838032,22.641336,-10.944364,-1.0271406,-1.0130829,-12.703249
73,-2.6148383617401123,92.78192138671875,72.58662414550781,5.681297377635824,3.555716212938634,97.0360396985061,-13.945809,-11.480787,1.5183321,42.418045,-31.46726,4.4387445,-25.42902,-26.263832,-7.2626677,95.15376,-13.569169,-11.294376,-3.6897445,-7.409009,12.395188,-1.5108525,32.19388,-35.696358,-22.781918,18.251808,-0.68589014,-2.4899027,20.850706,-22.294605,22.761885,-12.566753,1.06021,-1.6474375,-12.1322155
74,-2.6094977855682373,94.1505355834961,72.83606719970703,5.124181871706585,3.682169270783471,97.51361998636173,-12.122627,-10.92605,0.53989017,40.95773,-31.705948,4.297753,-26.457924,-25.49256,-8.822145,93.65143,-14.162839,-10.560543,-4.5993423,-6.8995953,12.057799,-2.7253346,32.772175,-36.537277,-23.84584,18.201763,-0.8990287,-2.211371,22.08641,-22.90977,23.167,-14.311607,3.4738932,-2.232247,-11.681749
75,-2.605842113494873,95.5382080078125,73.12562561035156,4.5359885954059544,3.829923086294496,97.93040030884369,-10.209499,-10.26404,-0.38588282,39.27193,-31.694351,4.1353207,-27.334518,-24.699112,-10.49379,91.73328,-14.690833,-9.826652,-5.5250206,-6.3411927,11.690861,-3.631849,33.42934,-37.27043,-25.07758,17.731207,-1.0398983,-1.630838,23.271042,-23.65189,23.690289,-16.106398,5.727194,-2.7171123,-11.252341
76,-2.6024584770202637,96.95806884765625,73.45358276367188,3.9377809392664824,3.9984635893180527,98.20429952415661,-8.255663,-9.5006485,-1.1497246,37.457455,-31.334352,3.917676,-28.098146,-23.81834,-12.120604,89.423004,-15.127129,-9.122796,-6.388098,-5.745109,11.315937,-4.232679,34.154865,-37.868046,-26.391598,16.839008,-1.1560247,-0.97163963,24.403856,-24.469707,24.167723,-17.869083,7.324036,-3.0538106,-10.752612
77,-2.586021900177002,98.40950775146484,73.82246398925781,3.3056227095977433,4.169733279699068,98.29691709543769,-6.16631,-8.600079,-1.7281303,35.384304,-30.618732,3.6327107,-28.712055,-22.802216,-13.717587,86.681465,-15.487562,-8.447574,-7.1601987,-5.0944543,10.931536,-4.5120163,34.947704,-38.331875,-27.760447,15.361033,-1.2148775,-0.16205525,25.454153,-25.33238,24.591488,-19.561008,7.9399877,-3.1986682,-10.148356
78,-2.5850982666015625,99.8717041015625,74.21287536621094,2.6384495385082247,4.346010925827951,98.2560433246552,-3.9590685,-7.5814295,-2.165254,33.0597,-29.595348,3.29034,-29.158056,-21.665201,-15.348829,83.49462,-15.773428,-7.7701635,-7.872224,-4.3982444,10.521355,-4.4931016,35.81409,-38.672966,-29.199,13.355789,-1.231757,0.8748807,26.40376,-26.233927,25.036982,-21.186335,7.8870378,-3.2047994,-9.49703
79,-2.5800654888153076,101.35076904296875,74.62578582763672,1.9913709124735826,4.555546957391339,98.12765475162185,-1.8469296,-6.5471396,-2.4701765,30.79507,-28.253836,2.8992138,-29.506098,-20.445118,-16.929579,79.92842,-15.943621,-7.083095,-8.536888,-3.7075255,10.080341,-4.234429,36.74879,-38.879177,-30.684452,11.157976,-1.3106307,1.9191123,27.284094,-27.153208,25.47009,-22.736992,7.619261,-3.1661565,-8.847933
80,-2.5846455097198486,102.86795806884766,75.05012512207031,1.4196867871348104,4.8279721312770265,97.95881772104624,-0.03208031,-5.6001563,-2.6739762,28.894835,-26.5817,2.4778547,-29.825502,-19.19163,-18.376522,76.04456,-15.958266,-6.3879685,-9.159032,-3.0729504,9.600013,-3.8110468,37.73602,-38.957344,-32.17855,9.103387,-1.5284457,2.7452288,28.120714,-28.061806,25.8472,-24.187962,7.5945554,-3.1656377,-8.24901
81,-2.5724363327026367,104.38783264160156,75.47412109375,0.9128835838506771,5.2058615272757285,97.72075128766379,1.4301084,-4.742278,-2.7840743,27.413834,-24.525759,2.0034783,-30.16557,-17.89232,-19.690454,71.79712,-15.775165,-5.7501717,-9.7136,-2.4883807,9.030603,-3.2232108,38.764885,-38.91994,-33.646133,7.157015,-1.9168599,3.314417,28.91108,-28.940449,26.17775,-25.521173,7.8936405,-3.2114072,-7.6792607
82,-2.553593397140503,105.90898132324219,75.89478302001953,0.4497265090966637,5.658713960593852,97.40094488765375,2.6559386,-3.9424016,-2.8162596,26.206692,-22.115705,1.4772221,-30.458776,-16.51486,-20.913145,67.149315,-15.4250145,-5.146274,-10.195974,-1.9379152,8.383639,-2.4533317,39.82938,-38.765774,-35.086983,5.181361,-2.4186468,3.728997,29.634344,-29.781113,26.481333,-26.72616,8.277724,-3.2616212,-7.121215
83,-2.526825189590454,107.43772888183594,76.30972290039062,0.06555666878946247,6.109560348053332,97.07288001631412,3.7185626,-3.2499611,-2.8241835,25.246174,-19.451506,0.9542847,-30.611795,-15.094719,-22.003565,62.17348,-14.964791,-4.4479694,-10.646316,-1.4562665,7.739341,-1.5310198,40.9133,-38.486908,-36.52133,3.3722606,-2.9550328,3.9782572,30.418608,-30.565853,26.726198,-27.905891,8.660101,-3.3175519,-6.6289663
84,-2.498295783996582,108.96405029296875,76.71253204345703,-0.1978680951733968,6.482185668335889,96.81317616825915,4.687133,-2.7121587,-2.8519864,24.511604,-16.623983,0.48146737,-30.534704,-13.688872,-22.917564,56.935394,-14.4546385,-3.54629,-11.09008,-1.0839506,7.178325,-0.5302784,41.991886,-38.107525,-37.94054,1.9182618,-3.4452152,4.061661,30.884748,-31.292793,26.865881,-28.727886,9.240259,-3.3819644,-6.25799
85,-2.46561598777771,110.50389862060547,77.1020736694336,-0.32672157416054115,6.778427946341959,96.64776519676238,5.537171,-2.3430045,-2.875018,24.027245,-13.550709,0.105763786,-30.160645,-12.315805,-23.67793,51.248764,-13.8751,-2.4029777,-11.556903,-0.8300542,6.6939383,0.5543362,43.041256,-37.612118,-39.31799,0.90109754,-3.899488,3.9233668,31.626787,-31.9255,26.8914,-29.674227,9.7163105,-3.4653497,-6.009665
86,-2.4418158531188965,112.0492935180664,77.46135711669922,-0.33326356811872415,7.029222073734606,96.5431404532321,6.274533,-2.127066,-2.8952403,23.744278,-10.187899,-0.25397593,-29.517809,-10.965154,-24.28686,45.07296,-13.176413,-1.1067523,-12.013647,-0.6878265,6.243981,1.6948776,44.047188,-37.038765,-40.60802,0.20072402,-4.3389897,3.5891821,32.364727,-32.458477,26.81812,-30.499525,10.234886,-3.563638,-5.8552794
87,-2.428222894668579,113.60902404785156,77.78738403320312,-0.21796984751031603,7.202501946024313,96.48965676484474,7.008682,-2.0779178,-2.9990375,23.53652,-6.6840086,-0.72914386,-28.661074,-9.67554,-24.667671,38.700905,-12.386016,0.25005347,-12.453716,-0.6606473,5.8516135,2.886252,44.99595,-36.414932,-41.843304,-0.26420844,-4.7065187,3.1771407,33.07856,-32.893776,26.676403,-31.202013,10.741963,-3.6619122,-5.806007
88,-2.4299473762512207,115.18193817138672,78.073974609375,0.019713610961154385,7.264327090035235,96.47703826141503,7.8465805,-2.2127807,-3.2818704,23.286255,-3.1916018,-1.4214318,-27.648472,-8.495616,-24.74842,32.446236,-11.539426,1.5759151,-12.870966,-0.7507582,5.542429,4.093879,45.875923,-35.768497,-43.03801,-0.5926135,-4.9467845,2.8047037,33.79476,-33.240166,26.492626,-31.822481,11.161571,-3.7456686,-5.873846
89,-2.4372832775115967,116.7512435913086,78.31417083740234,0.43229643924342415,7.18625834311278,96.53163627724362,8.901113,-2.5795643,-3.7514799,22.812977,0.38573802,-2.3871493,-26.41475,-7.444465,-24.421974,26.15704,-10.596175,2.9014747,-13.284274,-1.0023246,5.3240404,5.34176,46.67771,-35.11362,-44.213257,-0.70151776,-5.0244207,2.4634418,34.53301,-33.502735,26.236345,-32.35538,11.478339,-3.8003302,-6.060087
90,-2.456327199935913,118.32611846923828,78.50273895263672,1.0663258401139857,6.969685748720167,96.6769660669289,10.150718,-3.2372537,-4.4250546,22.137896,4.1346364,-3.5585277,-24.892103,-6.6315265,-23.742628,19.709074,-9.551863,4.2296824,-13.717589,-1.4673487,5.181967,6.5882235,47.3965,-34.4525,-45.319923,-0.5914974,-4.977465,2.103516,35.309227,-33.680275,25.902029,-32.816814,11.723608,-3.837574,-6.3612957
91,-2.4906163215637207,119.90019989013672,78.63862609863281,1.9013609611186313,6.635986837919052,96.88748895589761,11.479445,-4.191412,-5.3996205,21.4791,7.8699536,-4.8395567,-23.197336,-6.1932817,-22.909319,13.543632,-8.52489,5.465453,-14.159143,-2.1395676,5.105154,7.8257127,48.030174,-33.79405,-46.359146,-0.3960537,-4.8605685,1.7782241,36.071564,-33.778408,25.550665,-33.216675,11.929613,-3.8818438,-6.7816234
92,-2.5395596027374268,121.46907043457031,78.7242202758789,2.8126839667955235,6.242019923771967,97.09638317485997,12.681555,-5.336253,-6.7093987,21.186367,11.330689,-6.1492414,-21.388859,-6.032231,-22.175083,7.8300233,-7.459522,6.540467,-14.5554085,-2.9063673,5.0777597,9.048359,48.57469,-33.149105,-47.332825,-0.24573693,-4.7277293,1.543534,36.673443,-33.810566,25.244555,-33.485195,12.175539,-3.9591208,-7.325437
93,-2.5930588245391846,123.0218734741211,78.76889038085938,3.7128131672996716,5.822234601572286,97.23030426340519,13.613095,-6.6122236,-8.356857,21.532654,14.312497,-7.407334,-21.59453,-6.8375664,-21.364819,7.281026,-8.802683,7.524648,-14.853075,-3.670628,5.0872335,10.246962,49.016113,-32.504177,-48.227196,-0.17163555,-4.551913,1.4138024,37.310158,-33.77225,25.01298,-33.779198,12.36514,-4.078066,-8.039835
94,-2.6367361545562744,124.550537109375,78.7756576538086,4.57106672996011,5.382102014275932,97.28584916746979,14.310265,-7.978296,-10.255751,22.457327,16.903908,-8.708378,-21.795305,-7.6366277,-20.596418,7.141389,-10.11346,8.4318905,-15.019705,-4.3943224,5.142385,11.384264,49.34576,-31.90594,-49.0281,-0.096102774,-4.318439,1.359324,37.587994,-33.6789,24.803284,-33.74565,12.714751,-4.225821,-8.906273
95,-2.685049295425415,126.0634765625,78.74774932861328,5.3070685026775175,4.954801848160284,97.28041241324723,14.802546,-9.333509,-12.278149,23.852247,19.236332,-10.257702,-21.868177,-8.268625,-19.891502,7.0725904,-11.204039,9.1907,-15.088798,-5.0004926,5.2343016,12.447624,49.55845,-31.36352,-49.70207,-0.039261207,-4.1006875,1.3735679,37.86262,-33.527367,24.636053,-33.70455,12.964858,-4.403503,-9.840002
96,-2.73738169670105,127.55998229980469,78.68614196777344,5.817628357758794,4.566332840301792,97.23811825424524,15.1148405,-10.568222,-14.3249445,25.634457,21.40597,-12.289342,-21.788696,-8.605914,-19.277605,7.0106015,-12.039187,9.71481,-15.079127,-5.375152,5.3606725,13.343868,49.616913,-30.965662,-50.1633,-0.011706313,-3.9709895,1.46616,38.34609,-33.371513,24.49814,-33.86377,12.989338,-4.6136518,-10.771904
97,-2.787151336669922,129.02952575683594,78.57749938964844,6.1796044480263,4.203234669296177,97.18462255535474,15.312254,-11.845836,-16.47681,27.744,23.529345,-15.000033,-21.555494,-8.781108,-18.750326,7.0439916,-12.793056,10.078849,-14.979933,-5.612282,5.549176,14.104759,49.603325,-30.666458,-50.495937,-0.06604711,-3.967424,1.6485595,38.227585,-33.229694,24.344217,-33.58044,13.230944,-4.8454475,-11.7137785
98,-2.872950792312622,130.49131774902344,78.42202758789062,6.477886026308165,3.8419494884787855,97.04267865313639,15.303207,-12.763524,-17.063826,30.0847,25.621119,-15.000033,-21.151371,-8.893404,-18.207933,7.135119,-13.383917,10.34093,-14.782707,-5.7906475,5.7998486,14.8902,49.48072,-30.307505,-50.763653,-0.16949964,-4.046504,1.8497607,37.9894,-32.925423,24.279093,-33.1998,13.278942,-5.088824,-12.65206
99,-2.958966016769409,131.92767333984375,78.2185287475586,6.628290588880744,3.5232137943753163,96.79236950848725,15.072424,-13.398483,-17.108107,32.68223,27.483952,-15.000033,-20.65481,-8.792201,-17.606096,7.2687783,-13.547298,10.312341,-14.413657,-5.819214,6.0772076,15.463513,49.250633,-30.126945,-50.821945,-0.27796882,-4.157143,2.125588,37.727173,-32.606937,24.220211,-32.782032,13.247473,-5.3647947,-13.559352
100,-3.0352783203125,133.333740234375,77.97774505615234,6.503566955670686,3.28879158217756,96.47193985010702,14.522434,-13.631018,-16.817215,35.677612,28.846575,-15.000033,-20.142176,-8.310193,-16.967834,7.45667,-13.040853,9.804913,-13.932706,-5.567839,6.3776073,15.883773,48.915665,-30.039522,-50.701435,-0.35001427,-4.2511096,2.4003925,37.331867,-32.26628,24.162106,-32.211914,13.180411,-5.67032,-14.328148
101,-3.0880680084228516,134.7059326171875,77.7342758178711,5.988099381636078,3.1510127721128556,96.10773195282313,13.619128,-13.356814,-16.257942,39.166176,29.736443,-15.000033,-19.575684,-7.3043437,-16.291603,7.672681,-11.456462,8.694751,-13.3572645,-4.920316,6.7081385,16.164768,48.480152,-30.036892,-50.420395,-0.4080059,-4.3253613,2.6763427,36.662857,-31.902353,24.097153,-31.370825,13.145146,-6.0360837,-14.944283
102,-3.1180639266967773,136.0599822998047,77.46844482421875,5.161884371874121,3.056870692775269,95.77937814856598,12.372364,-12.687007,-15.524155,43.30629,30.000067,-15.000033,-20.774776,-6.4678617,-15.472176,12.033024,-11.204761,7.1356955,-12.789239,-3.9591036,7.0789876,16.354504,47.95027,-30.076357,-50.011654,-0.47283748,-4.4000025,2.9658656,36.150326,-31.505222,24.03883,-30.648832,12.915227,-6.446535,-15.4537735
103,-3.1417288780212402,137.39910888671875,77.12651824951172,4.47688639348973,2.9316526873020163,95.44440694970064,11.140991,-12.02157,-14.678698,47.33705,30.000067,-15.000033,-22.451305,-5.877763,-14.605971,17.623884,-11.416414,5.3705106,-12.195607,-3.1576116,7.4673567,16.471788,47.352097,-30.149471,-49.477005,-0.46573296,-4.4647713,3.2405372,35.427284,-31.089561,23.98625,-29.72007,12.708103,-6.840411,-15.852691
104,-3.1765196323394775,138.74359130859375,76.7033920288086,4.092841938115022,2.764690624495056,95.10239891889141,10.031977,-11.496871,-13.783542,50.91702,30.000067,-15.000033,-23.975435,-5.546087,-13.771245,22.939844,-12.010945,3.5491173,-11.603551,-2.6661105,7.863417,16.553019,46.712353,-30.211752,-48.83654,-0.33011067,-4.509158,3.4803884,34.59097,-30.667332,23.948713,-28.667887,12.485578,-7.157356,-16.137924
105,-3.1946070194244385,140.060302734375,76.2434310913086,3.980181639332263,2.5984254062917236,94.71195800895941,8.874813,-11.147025,-12.816195,54.439873,29.37148,-15.000033,-25.602968,-5.4584384,-12.845718,28.390417,-13.26985,1.4042772,-10.980043,-2.4490793,8.2651615,16.595097,46.053654,-30.233953,-48.154083,-0.07286754,-4.5093184,3.6877944,33.61474,-30.248375,23.906023,-27.508595,12.215989,-7.3933625,-16.273315
106,-3.1886353492736816,141.3286590576172,75.73432922363281,3.6242977853952802,2.468132190087369,94.34755605995726,7.450895,-10.542314,-11.95605,58.59068,27.582111,-15.000033,-27.183355,-5.107076,-12.144346,33.760483,-14.792404,-1.1526355,-10.382834,-1.968626,8.741106,16.627111,45.382523,-30.213463,-47.479057,0.27566272,-4.4750957,3.882131,32.58623,-29.849855,23.821135,-26.33053,11.882224,-7.574267,-16.265285
107,-3.179530143737793,142.56973266601562,75.20072174072266,3.1986077768836276,2.340782422706793,93.9817105602517,5.952843,-9.855036,-11.215198,62.80651,25.416546,-15.000033,-28.48593,-4.649555,-11.595353,38.65655,-16.498474,-3.5860736,-9.788805,-1.4178234,9.247857,16.679567,44.693558,-30.168636,-46.696445,0.735214,-4.45766,4.0677752,31.373875,-29.473597,23.762873,-24.946827,11.641451,-7.6997538,-16.194798
108,-3.1840362548828125,143.80337524414062,74.65348052978516,2.644005940157382,2.1989019462114388,93.64392501696386,4.410865,-9.066639,-10.681712,66.97578,23.205214,-15.000033,-29.194624,-4.0352125,-11.351417,42.529842,-18.233242,-5.382274,-9.229843,-0.75113195,9.771367,16.80323,43.970264,-30.11399,-45.714375,1.3350636,-4.504717,4.246559,30.051498,-29.11369,23.779526,-23.34797,11.548603,-7.7636323,-16.13605
109,-3.1952407360076904,145.07554626464844,74.13338470458984,1.8522698900023287,2.0402121209883752,93.32728567931714,2.8297262,-8.099121,-10.437229,71.17836,20.94859,-15.000033,-29.192287,-3.178472,-11.57762,45.228165,-20.100126,-6.3013268,-8.70232,0.14206894,10.318527,17.003466,43.1969,-30.068956,-44.524548,2.1293476,-4.665282,4.4343324,28.504532,-28.771978,23.872103,-21.374468,11.739454,-7.8585105,-16.073645
110,-3.1955699920654297,146.34738159179688,73.63191986083984,0.8598024449843861,1.8799799345051096,93.01241094815244,1.2052807,-6.9903216,-10.429737,75.42868,18.504843,-15.000033,-28.722788,-2.1212425,-12.147258,47.16674,-22.186432,-6.6428156,-8.190892,1.2354136,10.881798,17.250801,42.365883,-30.024271,-43.15441,3.0941985,-4.9007144,4.6245723,26.783855,-28.446995,24.015324,-19.12062,12.123112,-7.9563403,-15.980636
111,-3.1760919094085693,147.62371826171875,73.16375732421875,-0.1604810710793504,1.7248973046021232,92.71205237279455,-0.45577496,-5.9062567,-10.550441,79.53264,15.977921,-15.000033,-27.995922,-1.0151721,-12.798841,48.628185,-24.29356,-6.696114,-7.6935186,2.3578672,11.435375,17.507563,41.476494,-29.968735,-41.555267,4.1269913,-5.128083,4.7827153,25.002651,-28.130196,24.204403,-16.779253,12.520659,-7.8699102,-15.912649
112,-3.146033763885498,148.88673400878906,72.72721862792969,-1.0361305359765427,1.5818223781424887,92.43711152038185,-2.1617813,-4.994297,-10.686642,83.30707,13.466828,-15.000033,-27.207117,-0.013433307,-13.274828,49.878956,-26.221027,-6.75551,-7.195713,3.33609,11.962622,17.736113,40.53389,-29.900723,-39.686317,5.127613,-5.2660713,4.871563,23.101341,-27.811514,24.444504,-14.385289,12.828439,-7.4136567,-15.926052
113,-3.0980756282806396,150.1268768310547,72.33804321289062,-1.731834424630837,1.4370265218531308,92.19706141037808,-3.9229543,-4.332297,-10.909099,86.77324,10.946419,-15.000033,-26.353893,0.8655781,-13.539523,50.93365,-27.945822,-6.850413,-6.708723,4.115706,12.498619,17.937893,39.519985,-29.820765,-37.379658,6.091885,-5.309707,4.961029,21.133602,-27.461243,24.763268,-11.877395,13.025333,-6.3244896,-16.049053
114,-3.0646724700927734,151.3595428466797,72.01469421386719,-2.3415684987472054,1.2950332663325108,91.98022513619581,-5.749943,-3.8163843,-11.251826,90.02612,8.3878565,-15.000033,-25.348345,1.7024245,-13.728805,51.657726,-29.553167,-6.840077,-6.211568,4.796866,13.042921,18.106878,38.430237,-29.753883,-34.69338,7.0690565,-5.297309,5.0355535,18.90249,-27.072422,25.160131,-9.060717,13.249027,-4.7730746,-16.244072
115,-3.0477004051208496,152.601318359375,71.76860046386719,-2.883125297841404,1.1879063830136078,91.7631430957557,-7.6639276,-3.3022816,-11.555407,92.99789,5.874498,-15.000033,-24.24871,2.4955096,-13.845541,52.089485,-31.008501,-6.7690964,-5.681799,5.416413,13.510107,18.25382,37.30635,-29.679455,-31.944868,8.0313425,-5.2189946,4.933911,16.729156,-26.670527,25.577164,-6.456594,13.293874,-3.2164142,-16.46443
116,-3.0353167057037354,153.84231567382812,71.58647918701172,-3.3752128005601345,1.143348994048677,91.518797615269,-9.681877,-2.633116,-11.666829,95.61571,3.477441,-15.000033,-23.110102,3.25165,-13.8932495,52.268917,-32.28051,-6.685484,-5.0899487,6.016305,13.831475,18.412052,36.224285,-29.563803,-29.50128,8.948966,-5.0703945,4.510995,14.715612,-26.30852,25.972797,-4.4102015,13.0646305,-2.1166933,-16.664158
117,-3.0183660984039307,155.08740234375,71.4560317993164,-3.814444367398066,1.1650562218199585,91.21984473002784,-11.840801,-1.7142246,-11.522098,97.88947,1.1514348,-15.000033,-21.942514,3.9859338,-13.854586,52.20638,-33.36457,-6.6069655,-4.405531,6.5922737,14.006733,18.643055,35.23511,-29.329254,-27.446491,9.934721,-4.7346697,3.578071,13.044913,-26.025873,26.319267,-3.164223,12.286128,-1.6255592,-16.881283
118,-2.9880411624908447,156.33787536621094,71.37065887451172,-4.19861139110843,1.2289833230850435,90.87297993880641,-14.11141,-0.60227394,-11.213204,99.85485,-1.1456293,-15.000033,-20.702864,4.711331,-13.73009,51.87571,-34.27261,-6.515189,-3.6381974,7.12686,14.09533,18.97514,34.357246,-28.984869,-25.686108,10.959577,-4.2679324,2.2765474,11.573708,-25.831833,26.652277,-2.4899142,11.139817,-1.4853541,-17.12562
119,-2.9653232097625732,157.6021728515625,71.33091735839844,-4.379697070788796,1.3117606895944898,90.52866862399439,-16.426878,0.55035233,-10.660995,101.419365,-3.274035,-15.000033,-19.410309,5.219414,-13.4742365,51.42663,-35.09885,-6.363943,-2.8651521,7.4599304,14.111955,19.410088,33.62296,-28.604586,-24.315899,11.767296,-3.9110992,0.9674943,10.180776,-25.725988,27.016287,-2.2577019,10.083085,-1.544588,-17.312313
120,-2.9702351093292236,158.8881072998047,71.34544372558594,-4.314369252294635,1.4032911729057533,90.23529036301083,-18.806103,2.1934497,-9.370434,102.515144,-5.1160173,-13.557677,-18.05725,5.4079623,-13.107972,50.904327,-35.87947,-6.1161137,-2.1618829,7.5508437,14.067502,19.960032,33.07258,-28.259184,-23.43686,12.083806,-3.8824415,0.020349314,8.860705,-25.697487,27.44142,-2.435151,9.521616,-1.6561316,-17.350101
121,-2.987617015838623,160.19235229492188,71.4105224609375,-4.217006716259271,1.5175478252864891,89.9681567673284,-21.183043,4.35857,-7.5705004,103.224174,-6.827293,-10.914064,-16.580118,5.5235147,-12.7370615,50.094093,-36.52876,-5.80509,-1.5225128,7.6010056,13.957978,20.689016,32.756638,-27.942898,-23.216227,11.791989,-4.328895,-0.4397871,7.6537843,-25.746693,27.948133,-3.1636672,9.685104,-1.8725073,-17.190943
122,-3.0113863945007324,161.51220703125,71.52430725097656,-4.072886980802368,1.6560487319288435,89.7099034149415,-23.447603,6.5296974,-5.6598096,103.56916,-8.49592,-8.351898,-14.983269,5.5759563,-12.344816,49.002125,-37.04305,-5.458399,-0.90954125,7.580438,13.796032,21.615644,32.6946,-27.612387,-23.618916,11.026441,-5.0879235,-0.62347513,6.5431337,-25.873676,28.524027,-4.41361,10.323861,-2.2407963,-16.88862
123,-3.0210437774658203,162.86029052734375,71.69503021240234,-3.858624922216174,1.8124952919657418,89.47102533942568,-25.503775,8.427988,-3.762525,103.510445,-10.053955,-6.047502,-13.271456,5.5454288,-11.926233,47.652756,-37.36667,-5.1094437,-0.30043504,7.458864,13.596187,22.674843,32.858585,-27.288588,-24.412302,9.89814,-5.907821,-0.6646445,5.5555716,-26.05884,29.127125,-5.9872093,11.065054,-2.6065826,-16.500559
124,-3.0387661457061768,164.23887634277344,71.91997528076172,-3.5546401111331445,1.9847531036420067,89.26597329569421,-27.301477,9.787864,-2.0102518,103.006195,-11.393694,-4.1586046,-11.452455,5.4136033,-11.484012,46.0605,-37.43967,-4.7837677,0.329864,7.214194,13.35893,23.759201,33.187237,-27.009233,-25.306927,8.529093,-6.5365534,-0.68509734,4.756506,-26.272419,29.698381,-7.703807,11.5032425,-2.821046,-16.088495
125,-3.0551466941833496,165.6398162841797,72.19660949707031,-3.1475092488926832,2.1807572437397296,89.090878270197,-28.88465,10.556408,-0.38411513,102.02247,-12.431248,-2.6625845,-9.4912815,5.167242,-11.01209,44.132206,-37.304348,-4.502314,0.99185246,6.8334565,13.057118,24.811884,33.640995,-26.821865,-26.21581,6.72728,-6.91767,-0.6601826,4.1289563,-26.498304,30.227818,-9.547371,11.500534,-2.7970269,-15.634021
126,-3.061500072479248,167.0841064453125,72.52830505371094,-2.6547502619380072,2.404046747490854,88.94726687986538,-30.306692,10.893125,1.1984534,100.57918,-13.191919,-1.467644,-7.40492,4.8127036,-10.525952,41.8905,-36.969246,-4.2390976,1.6653824,6.337972,12.685824,25.851345,34.208443,-26.71034,-27.221125,4.518019,-7.187587,-0.54864645,3.6416821,-26.737303,30.739958,-11.569723,11.266396,-2.6346169,-15.1139765
127,-3.0676403045654297,168.55580139160156,72.9020004272461,-2.1124638631488932,2.6468044325007405,88.85793704886058,-31.561312,10.865073,2.679854,98.71498,-13.715659,-0.61190975,-5.2781134,4.371496,-10.064672,39.51596,-36.322918,-3.9431157,2.3308835,5.7657456,12.275252,26.861568,34.861794,-26.622334,-28.268755,2.3511086,-7.3778677,-0.4310385,3.3047283,-26.98772,31.226025,-13.6681385,10.930599,-2.467295,-14.586755
128,-3.091421365737915,170.05857849121094,73.31025695800781,-1.5577150754807227,2.8997855823958587,88.84464102720379,-32.63983,10.532404,3.9902654,96.465775,-14.042251,-0.14027831,-3.193449,3.874285,-9.657814,37.188858,-35.250633,-3.5709605,2.9693346,5.158887,11.852418,27.818579,35.561737,-26.514402,-29.294813,0.6813023,-7.5140505,-0.3888813,3.1172473,-27.245588,31.68093,-15.724292,10.628047,-2.4255672,-14.113827
129,-3.106900453567505,171.59814453125,73.75042724609375,-0.9758122519370237,3.148731934599991,88.9361676770669,-33.533527,9.812975,5.0709643,93.79325,-14.130842,-0.16585888,-1.0806564,3.32231,-9.29488,34.829838,-33.72469,-3.1111968,3.5633192,4.508224,11.419985,28.702698,36.2831,-26.391048,-30.2743,-0.3450891,-7.569817,-0.48612928,3.079265,-27.511503,32.11177,-17.723936,10.368059,-2.5606396,-13.726371
130,-3.1280815601348877,173.14727783203125,74.21284484863281,-0.36483893245787025,3.399392787279741,89.11419932264354,-34.267292,8.738538,5.942956,90.68184,-13.967359,-0.60361487,1.06612,2.72332,-8.963955,32.391907,-31.80766,-2.588838,4.1155233,3.8140397,10.961195,29.496115,37.01722,-26.278402,-31.196512,-0.9756002,-7.540609,-0.66512275,3.1796827,-27.78833,32.52643,-19.708284,10.084785,-2.7963984,-13.388688
131,-3.1642074584960938,174.71055603027344,74.68765258789062,0.2242013899064957,3.6726856608845,89.3296907276105,-34.87172,7.5274715,6.664132,87.19959,-13.636657,-1.2064157,3.0787103,2.1185195,-8.67688,30.097992,-29.52077,-2.0196037,4.6532083,3.1272144,10.468092,30.425756,37.732883,-26.171,-32.222206,-1.1905093,-7.4850955,-0.82441425,3.401267,-28.071848,32.907753,-21.637957,9.8116,-3.0705104,-13.061838
132,-3.218590497970581,176.28004455566406,75.18122863769531,0.7425474344949641,3.991810355905456,89.53376641671633,-35.372536,6.3846054,7.304054,83.41339,-13.222299,-1.737893,4.794149,1.5467241,-8.436109,28.171852,-26.883337,-1.4184197,5.1526656,2.511528,9.938387,30.830587,38.43581,-26.075914,-32.796707,-1.5062873,-7.456312,-0.87631935,3.6580763,-28.35766,33.296642,-23.425957,9.577882,-3.319019,-12.710071
133,-3.2729392051696777,177.86703491210938,75.67642974853516,1.1974831474414804,4.388412041380403,89.73704263371903,-35.807686,5.259966,7.8327813,79.286804,-12.68975,-2.184433,6.1574073,0.99514645,-8.248907,26.69232,-23.838066,-0.77357334,5.6466703,1.9530107,9.329844,31.399546,39.082592,-26.009209,-33.46435,-1.4168868,-7.4839873,-0.75916684,4.001744,-28.637487,33.651962,-25.07443,9.396244,-3.5505166,-12.2949295
134,-3.3283023834228516,179.45652770996094,76.1735610961914,1.6045500469700282,4.84086347242647,89.95744781480916,-36.136864,4.088664,8.214851,74.78645,-12.01481,-2.6452522,7.272609,0.46674928,-8.08022,25.523674,-20.396637,-0.06251389,6.104073,1.4422867,8.654053,31.826416,39.670204,-25.9788,-33.979275,-1.0663209,-7.53154,-0.54335064,4.409089,-28.91031,34.00551,-26.583055,9.246718,-3.7889037,-11.84675
135,-3.4022376537323,181.06459045410156,76.6670913696289,1.9322066749910822,5.29701935885282,90.15577085664877,-36.27526,3.02863,8.534614,69.980995,-11.287448,-3.068641,8.215677,0.012001371,-7.8657656,24.572803,-16.68277,0.7314287,6.553955,1.0004652,7.963687,32.182465,40.189888,-25.966215,-34.3943,-0.6006326,-7.568667,-0.30019292,4.865935,-29.174294,34.350174,-27.975832,9.111688,-3.997091,-11.418953
136,-3.48043155670166,182.6786346435547,77.1499252319336,2.1495068964408377,5.705649034402048,90.2919888869965,-36.145435,2.2207296,8.886383,64.93098,-10.591083,-3.4172359,9.058236,-0.3202826,-7.5413175,23.752102,-12.806013,1.6284276,7.021141,0.6488394,7.312997,32.49508,40.63495,-25.944878,-34.72556,-0.19878149,-7.5672035,-0.103593476,5.350666,-29.426537,34.685192,-29.275095,8.974472,-4.1382284,-11.066399
137,-3.552285671234131,184.28829956054688,77.60490417480469,2.263522656829929,6.088700144963896,90.34970324954398,-35.722576,1.7032678,9.367673,59.51897,-9.902827,-3.676003,9.766554,-0.54507643,-7.1576843,23.043108,-8.582877,2.7215905,7.520394,0.37563583,6.6795845,32.7612,40.9962,-25.915344,-34.958206,0.10966604,-7.527006,0.035612196,5.847999,-29.663946,35.02262,-30.458746,8.818083,-4.184262,-10.80835
138,-3.6124024391174316,185.91734313964844,78.02989196777344,2.2808270842856135,6.464632776524602,90.34334238619208,-35.039803,1.3695514,9.92464,53.714176,-9.168145,-3.8937514,10.356777,-0.6529645,-6.665664,22.414406,-3.9996908,4.0662484,8.039991,0.17862786,6.041368,32.95838,41.26966,-25.889046,-35.07628,0.40920034,-7.460733,0.1505156,6.359989,-29.88432,35.367588,-31.515615,8.654169,-4.1596847,-10.613135
139,-3.658078670501709,187.55728149414062,78.41741180419922,2.1696731212327927,6.775417228451399,90.28840830790466,-34.129448,1.1540515,10.41268,47.737614,-8.4403925,-4.120622,10.9533205,-0.5559808,-5.884238,21.810934,0.55835307,5.580678,8.560327,0.09948208,5.45231,33.121876,41.46079,-25.852339,-35.124783,0.7103834,-7.3614383,0.23443083,6.889285,-30.086573,35.705204,-32.48037,8.511093,-4.1065445,-10.458572
140,-3.697375535964966,189.2022705078125,78.75626373291016,1.8941861642314999,6.960604623896457,90.20254426680322,-33.036297,1.0286428,10.673059,41.833168,-7.7807965,-4.379225,11.661809,-0.17876683,-4.680931,21.216251,4.7111564,7.1081967,9.060755,0.18209358,4.967955,33.285423,41.583473,-25.786247,-35.150475,1.0160723,-7.222454,0.2814747,7.443188,-30.27093,36.019142,-33.39876,8.4162245,-4.067073,-10.323021
141,-3.7292115688323975,190.8545379638672,79.04026794433594,1.3992520468358645,6.9782443748687255,90.07914493666274,-31.670847,1.0546458,10.642166,35.82668,-7.180027,-4.6616826,12.556363,0.5479582,-2.9715617,20.554882,8.452828,8.560604,9.558445,0.482945,4.606108,33.469234,41.653893,-25.681124,-35.155617,1.3166895,-7.040799,0.28637525,8.042272,-30.438105,36.308178,-34.2872,8.356357,-4.031694,-10.2158575
142,-3.7516109943389893,192.50450134277344,79.26498413085938,0.7030430921531919,6.859873738816848,89.90491002412497,-30.025766,1.2874359,10.414378,29.623297,-6.5941815,-4.934448,13.589153,1.5726378,-0.8430583,19.846485,11.989886,10.014692,10.071486,0.9799894,4.33783,33.665283,41.678356,-25.540531,-35.14006,1.6087707,-6.8207574,0.25561008,8.680521,-30.58834,36.576344,-35.13006,8.323982,-3.984278,-10.1428795
143,-3.745016098022461,194.16314697265625,79.43186950683594,-0.11022486773604061,6.655083120859351,89.68869627594987,-28.289043,1.6940811,10.067056,23.632742,-6.0563846,-5.1814,14.654416,2.7713594,1.5353721,19.276367,15.257267,11.496056,10.579372,1.5977767,4.1510468,33.8653,41.653618,-25.367546,-35.143013,1.9078968,-6.5667033,0.20096794,9.320984,-30.721731,36.81339,-35.91192,8.359624,-3.9571016,-10.077738
144,-3.721778154373169,195.80917358398438,79.54273986816406,-0.9447149486187091,6.4179526937769005,89.44371660408974,-26.679127,2.2026052,9.677109,18.3215,-5.6215277,-5.410328,15.618127,4.0206633,3.972474,19.06578,18.163431,13.02073,11.05452,2.252872,4.032631,34.059643,41.569412,-25.168386,-35.199463,2.2345297,-6.2830987,0.13326146,9.92613,-30.83858,37.01029,-36.619007,8.502819,-3.9824085,-9.994064
145,-3.7060129642486572,197.4378662109375,79.593505859375,-1.8114212919056447,6.15697845306529,89.16983782314632,-25.260273,2.821454,9.226536,13.762309,-5.3306646,-5.628913,16.413294,5.344656,6.5159783,19.34689,20.605284,14.534114,11.490054,2.958236,3.9783318,34.249065,41.414898,-24.933914,-35.318207,2.5813198,-5.940121,0.044594157,10.484193,-30.939335,37.180088,-37.254894,8.779819,-4.0850134,-9.891434
146,-3.6987435817718506,199.0307159423828,79.5853271484375,-2.7343057199429106,5.848802156334759,88.88118238267438,-23.919275,3.5552092,8.692442,9.6823,-5.118703,-5.857826,17.067902,6.6982493,8.789328,20.09731,22.648115,15.000033,11.87874,3.731698,3.9917407,34.426495,41.185974,-24.67096,-35.4665,2.944175,-5.546538,-0.07006987,11.010509,-31.023186,37.328842,-37.82178,9.163778,-4.241965,-9.781644
147,-3.7019331455230713,200.58204650878906,79.52454376220703,-3.641870518504143,5.52264685465039,88.63210599993482,-23.14169,4.352415,8.079756,7.129114,-5.4700794,-6.118045,17.574152,7.9592457,10.623256,21.262611,24.448515,15.000033,12.1719675,4.506302,4.0570545,34.54713,40.882828,-24.4136,-35.599174,3.3403845,-5.1655107,-0.19417487,11.504819,-31.083078,37.435757,-38.29153,9.619938,-4.4153786,-9.658973
148,-3.7079832553863525,202.09829711914062,79.41702270507812,-4.435652384968244,5.204618577069279,88.4724120861616,-23.360826,5.1067314,7.38364,7.072786,-6.821077,-6.411445,17.903852,9.003818,11.871669,22.814676,26.12518,15.000033,12.327102,5.18479,4.171367,34.583176,40.508297,-24.197596,-35.683914,3.7979116,-4.859444,-0.30896163,11.971855,-31.108034,37.47599,-38.636726,10.110391,-4.5668654,-9.516448
149,-3.721611976623535,203.5854034423828,79.27622985839844,-5.0783721752185285,4.8994781995528704,88.39515109721148,-23.395508,5.6165977,6.7538753,7.0688753,-7.921104,-6.7290764,17.982172,9.7966,12.4312525,24.873285,27.777828,15.000033,12.338361,5.7277784,4.349509,34.524677,40.05862,-24.006052,-35.715298,4.333885,-4.653314,-0.42225528,12.40231,-31.088158,37.43569,-38.848866,10.693358,-4.693975,-9.302426
150,-3.72512149810791,205.0728302001953,79.10564422607422,-5.5953246131382395,4.606465224638783,88.38360447053462,-23.264044,5.934703,6.158811,7.104235,-8.785701,-7.057963,17.776001,10.344376,12.450894,27.47574,29.312258,15.000033,12.221486,6.160336,4.587685,34.40285,39.530983,-23.83001,-35.716022,4.942829,-4.5114236,-0.5378358,12.790593,-31.018106,37.332127,-38.927235,11.364834,-4.81258,-9.034778
151,-3.721892833709717,206.5570831298828,78.86943054199219,-5.75331936565297,4.362661727885762,88.33422215218599,-22.998873,5.862259,5.7538915,7.1610866,-9.333587,-7.3359437,16.974344,10.424632,12.197292,31.228334,30.000067,15.000033,12.087582,6.2285166,4.885818,34.200073,38.947773,-23.686262,-35.65903,5.567526,-4.4018917,-0.63723385,13.141933,-30.89613,37.192505,-38.873295,11.994862,-4.909856,-8.812235
152,-3.724421501159668,208.0189208984375,78.58446502685547,-5.714565481391338,4.129254414544706,88.40295300268413,-22.614813,5.477037,5.2344613,7.235542,-9.452596,-7.565177,16.055635,10.221108,11.860905,35.185062,30.000067,15.000033,11.821086,6.1284785,5.233876,33.84156,38.327507,-23.658442,-35.47092,6.143177,-4.2964387,-0.68261725,13.475733,-30.725788,37.023045,-38.660492,12.450648,-4.983397,-8.729216
153,-3.7255361080169678,209.4957275390625,78.26885986328125,-5.568641335920725,3.8656245305736823,88.6268178986558,-22.032156,4.8269424,4.415457,7.3056355,-9.125328,-8.010276,15.430896,9.8687105,11.578437,38.531395,30.000067,15.000033,11.406547,5.9506702,5.6433287,33.297676,37.673805,-23.776136,-35.118813,6.635207,-4.2081623,-0.63832104,13.824408,-30.510101,36.802536,-38.29398,12.704327,-5.033792,-8.820215
154,-3.7139527797698975,210.97242736816406,77.92150115966797,-5.305878393074002,3.5860849688844514,88.96735573027841,-21.268291,3.9401164,3.3882535,7.39962,-8.417173,-8.608892,14.894441,9.394288,11.239631,41.683956,29.886318,15.000033,10.879066,5.6742373,6.1048217,32.683395,36.979996,-24.007862,-34.707573,7.1287885,-4.1446753,-0.5221229,14.190152,-30.248236,36.515137,-37.790524,12.824537,-5.065991,-9.030843
155,-3.771818161010742,212.3830108642578,77.57820129394531,-4.6955696574179795,3.376326249060136,89.30867429783349,-21.780647,2.7273643,2.4726992,10.303666,-8.782429,-8.828598,13.921504,8.538452,10.821376,45.65724,28.771112,15.000033,10.340019,5.038007,6.583884,32.04518,36.26359,-24.30489,-34.295116,7.6666317,-4.066113,-0.39164606,14.529434,-29.940952,36.188606,-37.156597,12.827279,-5.078486,-9.32455
156,-3.8883519172668457,213.73294067382812,77.21665954589844,-3.8307702457773707,3.2645979988248244,89.69029099741813,-22.643192,1.2568471,1.8621455,13.820107,-9.010222,-8.189649,12.700231,7.2227316,10.228231,49.817818,27.441383,15.000033,9.71731,4.1297436,7.0522594,30.873745,35.574856,-24.617031,-33.482964,7.95682,-3.9350772,-0.3009345,14.758229,-29.596813,35.875458,-36.36122,12.727066,-5.073372,-9.660747
157,-3.9511361122131348,215.1012420654297,76.7797622680664,-2.7511319051423277,3.2780206505269986,90.15489355823155,-24.166878,-0.3915775,1.538921,18.478992,-8.848594,-6.1425734,11.258069,5.3749976,9.353331,54.079556,25.95039,15.000033,9.061026,2.972831,7.44838,30.024553,34.882732,-25.011953,-32.99946,8.49287,-3.7481575,-0.22033332,14.960782,-29.216574,35.48879,-35.479313,12.548725,-5.0618324,-10.030091
158,-3.979282855987549,216.46910095214844,76.28614044189453,-1.5541008691922715,3.3400323985784186,90.66308226146967,-26.076807,-2.0923626,1.5054908,23.90499,-8.28934,-3.0855443,9.71326,3.1763153,8.364212,58.418407,24.243534,15.000033,8.344455,1.6903476,7.835146,28.677244,34.219223,-25.4258,-32.159973,8.757012,-3.5208695,-0.14967525,15.094384,-28.81433,35.08153,-34.48892,12.273902,-5.0343776,-10.45147
159,-4.036776065826416,217.78402709960938,75.77633666992188,-0.345632379062791,3.356088937768657,91.17754879013742,-27.754026,-3.713954,1.7752092,29.006756,-7.798341,0.08692272,8.169696,0.8853686,7.5084076,62.726254,22.436724,15.000033,7.636823,0.4058896,8.263187,27.280554,33.591404,-25.903845,-31.324434,9.080755,-3.251311,-0.09975456,15.220524,-28.391487,34.633884,-33.35242,11.869885,-4.9744263,-10.928857
160,-4.101831436157227,219.0727996826172,75.24214172363281,0.8631722441527057,3.265994787819272,91.69086046135202,-28.70934,-5.2881403,2.227014,32.946297,-7.979349,2.4627044,6.670991,-1.3187672,6.988934,66.93671,20.61293,15.000033,6.9348454,-0.85451967,8.780016,25.790545,33.023388,-26.452467,-30.4379,9.49936,-2.9382734,-0.09170514,15.347788,-27.941196,34.16775,-32.00176,11.300565,-4.864759,-11.4673605
161,-4.1406121253967285,220.3785400390625,74.70584106445312,2.1813921421236198,3.066816005528891,92.26732442668767,-28.893738,-6.9944997,2.7901337,35.697826,-9.304347,3.7034159,5.19118,-3.4853523,6.861711,71.1556,18.77895,15.000033,6.1892543,-2.2129545,9.413358,24.14014,32.53858,-27.091183,-29.447834,9.9434595,-2.6064482,0.01398488,15.472881,-27.449492,33.676426,-30.404623,10.620286,-4.816191,-12.103569
162,-4.151877403259277,221.6868896484375,74.20496368408203,3.338048036621988,2.81145888172074,92.88398935929703,-28.811222,-8.518056,3.2465014,38.23913,-11.660214,4.243455,3.61622,-5.8686624,6.451598,75.29552,17.004442,14.3338785,5.4338613,-3.4299712,10.07728,22.314873,32.13702,-27.817135,-28.366018,10.376878,-2.2473195,0.19078793,15.58888,-26.910053,33.139763,-28.592588,9.826016,-4.79612,-12.82077
163,-4.1630120277404785,222.99771118164062,73.74822998046875,4.446176964165557,2.51509299524672,93.46543327966171,-28.42345,-9.927614,3.6405697,40.387627,-14.313956,4.442962,1.8908406,-9.2601795,5.1464515,79.26455,15.134247,11.161972,4.719235,-4.6301804,10.744046,20.378166,31.806604,-28.591349,-27.255726,10.902018,-1.8112555,0.15883905,15.695483,-26.327284,32.569504,-26.595175,8.802171,-4.5676217,-13.541633
164,-4.190077304840088,224.32095336914062,73.35011291503906,5.420591443738434,2.200272759856851,93.91904948903714,-27.803251,-11.1315155,3.9391668,42.159473,-16.640026,4.6643977,0.13966192,-12.591648,4.0336967,82.90856,13.037744,7.9374104,4.1065784,-5.6954274,11.368223,18.432713,31.528189,-29.373367,-26.199406,11.652887,-1.2550902,-0.36842543,15.790784,-25.713406,31.989025,-24.442156,7.437558,-3.8935325,-14.180077
165,-4.22379732131958,225.62425231933594,72.99980163574219,6.238037593252394,1.841314150136053,94.19129493553707,-26.882929,-12.128573,4.173912,43.467148,-18.525183,4.956596,-1.6512972,-15.852825,3.1318407,86.24697,10.634756,4.6237206,3.6307855,-6.5714383,12.0092325,16.4211,31.283613,-30.180473,-25.104923,12.563297,-0.5634985,-1.4909538,15.837475,-25.059624,31.406199,-21.945377,5.735118,-2.58486,-14.832372
166,-4.2399210929870605,226.93629455566406,72.71792602539062,6.940246833225285,1.4408951949239084,94.34235322769327,-25.646204,-12.990687,4.367013,44.308495,-20.263554,5.144636,-3.5034564,-19.047571,2.429817,89.36123,7.932814,1.1956868,3.2416012,-7.3083534,12.677231,14.323276,31.065262,-31.028582,-23.957222,13.624097,0.21798158,-3.059965,15.833973,-24.359829,30.822556,-19.140205,3.7566917,-0.79909986,-15.458243
167,-4.236600399017334,228.2541961669922,72.5002670288086,7.507236777080069,1.0645046550827877,94.4452098664726,-24.250015,-13.708779,4.4599714,44.841137,-21.863356,5.252173,-5.4234495,-21.990765,1.8617338,92.16877,5.04799,-2.1406753,2.865199,-7.917572,13.257075,12.229187,30.880476,-31.873835,-22.906685,15.020161,1.0258057,-5.000936,15.843026,-23.644817,30.256344,-16.405195,1.4652215,1.1640307,-15.775016
168,-4.220096588134766,229.59925842285156,72.3458023071289,7.923978972133887,0.7770988218373565,94.57339129283044,-22.851395,-14.267278,4.400585,45.224728,-23.33586,5.304118,-7.401826,-24.529789,1.3211695,94.58506,2.1301165,-5.203225,2.4271617,-8.415375,13.635695,10.214221,30.749752,-32.673473,-22.097431,16.920427,1.7827985,-7.247574,15.95543,-22.975657,29.718163,-14.154432,-1.2014524,2.9814718,-15.529859
169,-4.200963497161865,230.93557739257812,72.24056243896484,8.178336522754858,0.5960730027209209,94.72230315224769,-21.474579,-14.637546,4.1997094,45.484596,-24.691448,5.289843,-9.490841,-26.704193,0.70385087,96.6484,-0.8405206,-8.1596775,1.9211859,-8.797192,13.796638,8.329166,30.691706,-33.419086,-21.637978,19.69923,2.4865346,-10.049344,16.235003,-22.40142,29.171057,-12.5379095,-4.7899175,4.746498,-14.4554615
170,-4.194515705108643,232.28598022460938,72.18411254882812,8.27040887204815,0.4901418667024792,94.85878330481643,-20.046486,-14.822967,3.89785,45.551952,-25.930584,5.206735,-11.656218,-28.52063,0.0146123255,98.38734,-3.904909,-11.01553,1.3793286,-9.039542,13.808294,6.5263186,30.714355,-34.138763,-21.446568,23.168753,3.0470295,-13.3775625,16.677382,-21.939035,28.62018,-11.397824,-9.141836,6.4682837,-12.708393
171,-4.181286811828613,233.6609344482422,72.17878723144531,8.215810218818008,0.4514275721873634,95.01290626643026,-18.576662,-14.849301,3.4898815,45.43391,-27.042728,5.090405,-13.756374,-29.844053,-0.73375803,99.70469,-6.890043,-13.396617,0.7937094,-9.143019,13.686361,4.7996755,30.821138,-34.853657,-21.445284,26.66659,3.3264503,-16.721895,17.273485,-21.60852,28.125427,-10.692927,-13.212302,7.7470846,-10.783345
172,-4.165599346160889,235.04049682617188,72.20879364013672,8.040858530086528,0.47153921347581523,95.21583381280166,-17.070143,-14.753991,2.9699771,45.12709,-28.010735,4.9756813,-15.665144,-30.602453,-1.5378838,100.50172,-9.588834,-14.9695835,0.1562024,-9.114165,13.450633,3.2077932,31.009272,-35.580536,-21.612644,29.551003,3.3191507,-19.552605,18.014267,-21.431427,27.740192,-10.39602,-15.890197,8.322182,-9.271396
173,-4.163442611694336,236.453125,72.29010772705078,7.755995068929481,0.566200280689131,95.4984619180884,-15.541813,-14.560598,2.3178775,44.622646,-28.85741,4.876431,-17.398315,-30.616919,-2.2251236,100.74177,-11.923817,-15.000033,-0.5444687,-8.94056,13.078124,1.71268,31.285042,-36.35446,-21.974226,31.768444,3.0428607,-21.884352,18.959333,-21.440466,27.46505,-10.625357,-16.705181,8.010378,-8.3618145
174,-4.160707473754883,237.87069702148438,72.42052459716797,7.349306891605128,0.7381169743525943,95.83210566690903,-13.986705,-14.226333,1.5524524,43.918297,-29.579966,4.767376,-19.015001,-30.437582,-3.2825851,100.48022,-13.976126,-15.000033,-1.2993265,-8.621536,12.588589,0.31454712,31.64972,-37.16401,-22.562449,33.606457,2.5726247,-23.927427,20.122107,-21.647137,27.264585,-11.406304,-16.255785,7.0758567,-7.780316
175,-4.166943073272705,239.29544067382812,72.59261322021484,6.855583358416474,0.9485326037669102,96.17539590734147,-12.366448,-13.762476,0.7404888,43.0091,-30.118845,4.653687,-20.467854,-30.077337,-4.6181893,99.73634,-15.734361,-15.000033,-2.094756,-8.185824,12.055937,-0.91708654,32.087868,-37.94452,-23.317402,34.922817,2.0926547,-25.462547,21.398867,-22.025099,27.142756,-12.53318,-15.038223,5.9922843,-7.431744
176,-4.173084735870361,240.75851440429688,72.81391143798828,6.314107183723235,1.1556138452777596,96.49085095698616,-10.63535,-13.1905365,-0.052444372,41.879387,-30.409616,4.536685,-21.721897,-29.413471,-5.9561987,98.52628,-17.185984,-14.500591,-2.9230943,-7.6664286,11.540591,-1.8779076,32.576336,-38.62021,-24.185596,35.616234,1.793532,-26.281359,22.65646,-22.523312,27.114899,-13.760662,-13.561623,5.219642,-7.2470584
177,-4.17319917678833,242.23556518554688,73.08018493652344,5.703024447060674,1.344449740787217,96.79899269506006,-8.733998,-12.484048,-0.84887445,40.439926,-30.496946,4.427027,-22.751318,-28.38914,-7.2813067,96.792305,-18.293112,-13.322391,-3.8158596,-7.0429673,11.040035,-2.5644126,33.10654,-39.185345,-25.118149,35.48946,1.7917764,-26.16262,23.832977,-23.111595,27.24231,-15.011469,-11.657703,4.892653,-7.352206
178,-4.181468963623047,243.73902893066406,73.3895263671875,5.021557835776024,1.5365140422606793,97.11215148605154,-6.7095475,-11.642818,-1.6558424,38.723904,-30.391533,4.3084173,-23.602016,-27.09931,-8.67859,94.53137,-19.083282,-11.712052,-4.768381,-6.316039,10.524417,-3.0216765,33.682728,-39.663876,-26.132612,34.675022,1.9870509,-25.284525,24.969818,-23.78308,27.502699,-16.356411,-9.175328,4.7433186,-7.736279
179,-4.180826663970947,245.27578735351562,73.73188018798828,4.331502393168919,1.7438317019154186,97.37804229386839,-4.6770864,-10.731211,-2.3928459,36.90856,-29.984358,4.144207,-24.340622,-25.707815,-10.08851,91.85,-19.646875,-9.958174,-5.7169495,-5.551159,10.002781,-3.254169,34.302147,-40.024784,-27.233034,33.548523,2.2360198,-24.037092,26.084852,-24.516571,27.788763,-17.7615,-6.6534476,4.6362996,-8.153055
180,-4.171658039093018,246.82357788085938,74.10198974609375,3.6903840452199725,1.9777530529122924,97.54304897452748,-2.7459662,-9.818694,-2.9927676,35.17482,-29.168573,3.9065068,-25.018286,-24.353815,-11.463682,88.85705,-20.06531,-8.334479,-6.5954576,-4.8133154,9.474651,-3.270372,34.956375,-40.244267,-28.41786,32.491287,2.4129653,-22.8155,27.184034,-25.279972,27.998936,-19.180534,-4.6306434,4.46308,-8.347056
181,-4.161156177520752,248.40057373046875,74.49878692626953,3.094085592787666,2.2345011613644745,97.5846647448879,-0.87396204,-8.902877,-3.4664736,33.4872,-27.904339,3.5619688,-25.630568,-23.001514,-12.780675,85.53057,-20.335917,-6.829965,-7.387872,-4.1064305,8.922689,-3.0591328,35.639812,-40.319714,-29.670145,31.554045,2.5299573,-21.606363,28.262812,-26.051857,28.12233,-20.603914,-3.264401,4.2275105,-8.208838
182,-4.151490688323975,249.9995880126953,74.91069793701172,2.5176477790127794,2.5067350459924236,97.53285991066855,0.97193843,-7.9694223,-3.8514268,31.788296,-26.25669,3.1387832,-26.14573,-21.588161,-14.055775,81.81964,-20.427975,-5.3212385,-8.118682,-3.4064975,8.344466,-2.6255517,36.35135,-40.264698,-30.977427,30.554466,2.629946,-20.238197,29.302822,-26.824713,28.212095,-22.026388,-2.2693157,3.9881706,-7.8861275
183,-4.1466450691223145,251.6094512939453,75.32957458496094,1.9859259375455607,2.8007788913925613,97.41130871851644,2.6758933,-7.071511,-4.1346183,30.230856,-24.280548,2.708925,-26.561886,-20.195498,-15.316765,77.78428,-20.370117,-3.8997066,-8.781981,-2.7360675,7.7546616,-2.0399866,37.086166,-40.086575,-32.319714,29.508308,2.660007,-18.875483,30.287441,-27.585842,28.265167,-23.401745,-1.520322,3.7308536,-7.5043726
184,-4.125793933868408,253.22845458984375,75.75131225585938,1.5234967069963543,3.1242659802687243,97.24340740934107,4.129911,-6.2590437,-4.306427,28.96137,-22.027006,2.3414946,-26.879036,-18.89659,-16.596209,73.48251,-20.183445,-2.6502087,-9.370249,-2.1169946,7.1657004,-1.3668985,37.8346,-39.801956,-33.67884,28.443338,2.5739956,-17.683931,31.194395,-28.318615,28.275333,-24.671595,-0.8894415,3.437597,-7.1879873
185,-4.091259956359863,254.8408203125,76.17498779296875,1.121482089892413,3.5152250470373727,97.01015285250286,5.261986,-5.5265365,-4.34785,28.051016,-19.443264,2.0689056,-27.122831,-17.702467,-17.943953,68.859024,-19.83491,-1.6459619,-9.860095,-1.5476447,6.5365806,-0.6321021,38.587925,-39.41452,-35.02247,27.377453,2.3423064,-16.716394,32.009415,-29.007648,28.241444,-25.81197,-0.40238512,3.077576,-6.9613895
186,-4.054897785186768,256.45513916015625,76.59322357177734,0.77009197462753,3.956840812670785,96.70636006019737,6.1625795,-4.8568172,-4.2885427,27.395123,-16.520004,1.8307457,-27.270714,-16.541239,-19.332499,63.88425,-19.313894,-0.80581135,-10.25603,-1.0240649,5.8659277,0.19576763,39.338764,-38.925495,-36.352417,26.300776,2.000762,-15.886456,32.755135,-29.644793,28.172215,-26.84997,-0.122604944,2.665357,-6.7605257
187,-4.0240583419799805,258.088134765625,77.00209045410156,0.4860179438618361,4.3759770764945065,96.37967268881602,6.9527164,-4.2794876,-4.1879015,26.902758,-13.371141,1.548303,-27.254255,-15.377934,-20.68475,58.64376,-18.678787,0.0026195461,-10.59575,-0.5649167,5.2252645,1.1109647,40.07686,-38.351715,-37.684647,25.182487,1.6049883,-15.149977,33.43737,-30.226255,28.072376,-27.786572,0.0396007,2.2513683,-6.5776014
188,-3.9895362854003906,259.7125244140625,77.38436889648438,0.2918890946777044,4.699783900393944,96.08040124485932,7.755488,-3.8319614,-4.1091084,26.474127,-10.103355,1.1514754,-27.010008,-14.20131,-21.912376,53.216824,-17.989712,0.89256424,-10.918065,-0.18958822,4.6875877,2.0818288,40.790123,-37.713737,-39.01458,23.97554,1.2085392,-14.4621935,34.069332,-30.752064,27.939495,-28.628662,0.17250334,1.8867519,-6.4042253
189,-3.9630069732666016,261.3374328613281,77.74008178710938,0.1917027032771273,4.919392708088988,95.82052881135395,8.603338,-3.5126686,-3.9941916,26.033813,-6.5919256,0.6308512,-26.469326,-13.013608,-23.040752,47.425213,-17.218727,1.8433119,-11.23453,0.10209317,4.261981,3.1150312,41.4645,-37.006275,-40.33694,22.671442,0.79483986,-13.843867,34.678425,-31.217327,27.767683,-29.383339,0.26854193,1.5637472,-6.267322
190,-3.9494194984436035,262.9688720703125,78.05726623535156,0.1849733672940258,5.068086448005341,95.58158725974339,9.457738,-3.3275764,-3.8663924,25.598822,-2.8018906,-0.019335857,-25.658173,-11.83426,-24.087921,41.22071,-16.322233,2.7878394,-11.528144,0.30705214,3.9093769,4.197591,42.090897,-36.237015,-41.630585,21.29043,0.34753695,-13.312065,35.24765,-31.61982,27.55432,-30.037941,0.29372534,1.2618136,-6.1626897
191,-3.942378520965576,264.61151123046875,78.33529663085938,0.29570636620608876,5.13535599289494,95.37039137619475,10.330671,-3.3463829,-3.9106789,25.21321,1.0217525,-0.8351452,-24.664085,-10.71554,-24.945683,34.907467,-15.346427,3.758479,-11.803949,0.39154285,3.6299858,5.3115034,42.66568,-35.440845,-42.898888,19.856998,-0.08329721,-12.8123665,35.781918,-31.962675,27.306213,-30.625813,0.2691032,1.0126568,-6.0355983
192,-3.9487454891204834,266.2615661621094,78.56071472167969,0.5527996083368727,5.110133767401808,95.19665011973014,11.231189,-3.6397188,-4.305586,24.928692,4.6353,-1.8242725,-23.578663,-9.723179,-25.514399,28.817352,-14.346518,4.792242,-12.068624,0.31795853,3.4248931,6.445034,43.189762,-34.65431,-44.151653,18.400614,-0.4495,-12.28743,36.287518,-32.25395,27.02614,-31.181747,0.21813078,0.84836626,-5.8304567
193,-3.959118604660034,267.9008483886719,78.7291259765625,1.0350561846113824,4.963499103084045,95.06869679722499,12.244567,-4.298479,-5.1170573,24.647821,8.043489,-2.9715824,-22.334015,-8.897391,-25.759996,22.814827,-13.287273,6.0041094,-12.336037,0.009890562,3.2965956,7.6253233,43.66411,-33.874664,-45.414234,16.90226,-0.71983474,-11.728571,36.793144,-32.50014,26.69369,-31.724834,0.13316277,0.7993115,-5.4924746
194,-3.987473964691162,269.5439758300781,78.84217834472656,1.7753594919710338,4.6911346124651345,95.00680007080572,13.388133,-5.332168,-6.289718,24.327318,11.3984375,-4.256632,-20.867348,-8.320545,-25.736185,16.77704,-12.154016,7.328499,-12.629265,-0.56547505,3.2439325,8.850246,44.090782,-33.087803,-46.680576,15.354165,-0.9276393,-11.16335,37.306522,-32.7023,26.310513,-32.25818,0.0063698674,0.84114736,-5.065521
195,-4.019595623016357,271.1773681640625,78.89789581298828,2.689539813625194,4.333391327813445,95.0178861491201,14.532971,-6.6345515,-7.788143,24.153673,14.637965,-5.674377,-19.305553,-8.042551,-25.509266,11.080334,-11.029126,8.556262,-12.948872,-1.330657,3.2581065,10.06749,44.474857,-32.314594,-47.91781,13.805923,-1.1233338,-10.586647,37.79099,-32.86089,25.913937,-32.779232,-0.13807121,0.923436,-4.6412587
196,-4.057760715484619,272.7842712402344,78.90605163574219,3.575991889575427,3.963289871782301,95.06584423678507,15.460774,-8.00004,-9.520712,24.443853,17.609104,-7.2604284,-18.476635,-8.24316,-25.0708,7.6268883,-10.77664,9.495808,-13.248627,-2.0858827,3.327853,11.216097,44.816025,-31.586231,-49.08617,12.310394,-1.3572855,-9.99054,38.184574,-32.97428,25.542074,-33.253235,-0.26952755,0.9952342,-4.311847
197,-4.095221996307373,274.36224365234375,78.87781524658203,4.336124966725755,3.6237564878519453,95.10571411380467,16.025557,-9.400448,-11.518712,25.45414,20.136375,-9.059284,-18.878067,-8.956906,-24.34183,7.4448724,-11.894874,10.094862,-13.480359,-2.721062,3.4448647,12.259489,45.10645,-30.923782,-50.17216,10.82803,-1.6398195,-9.355918,38.47756,-33.034977,25.193031,-33.673794,-0.4358804,1.0666643,-4.086898
198,-4.127453327178955,275.925537109375,78.81165313720703,4.991622889799912,3.298367137413656,95.11565315696335,16.307446,-10.882809,-13.750691,27.117643,22.23305,-11.098728,-19.155317,-9.500203,-23.487131,7.325873,-12.761189,10.461422,-13.622578,-3.2585268,3.611928,13.210159,45.337708,-30.333706,-51.17432,9.353558,-1.9478106,-8.691011,38.67664,-33.03852,24.854254,-34.025803,-0.6335005,1.1559635,-3.92157
199,-4.146873950958252,277.46722412109375,78.69404602050781,5.507389223428668,2.9801693087733114,95.08824549024169,16.411154,-12.353093,-16.010859,29.264563,24.009676,-13.399575,-19.298998,-9.819239,-22.556274,7.2665243,-13.4018345,10.667719,-13.662454,-3.66871,3.8360815,14.058967,45.506416,-29.82181,-52.052948,7.97529,-2.2782843,-8.029519,38.7603,-32.98872,24.551048,-34.280525,-0.7629748,1.2250707,-3.8280203
200,-4.1695780754089355,278.97552490234375,78.5224838256836,5.846411556463842,2.6610891154557947,95.02306415028339,16.389595,-13.555133,-17.646051,31.688126,25.613043,-15.000033,-19.289026,-9.882947,-21.602629,7.2596326,-13.830948,10.787333,-13.595662,-3.9133341,4.1201334,14.783051,45.592697,-29.410145,-52.751717,6.7885313,-2.6234791,-7.4021554,38.749615,-32.90511,24.30393,-34.442905,-0.7356055,1.2361213,-3.8239136
201,-4.214509010314941,280.4732666015625,78.30040740966797,6.129100146744868,2.294418092125363,94.89505048945726,16.271305,-14.306991,-17.880981,34.12968,27.47133,-15.000033,-19.079483,-9.858431,-20.5189,7.336542,-14.219143,11.029582,-13.399202,-4.115311,4.498022,15.437372,45.632275,-29.049889,-53.339306,5.794774,-3.0062478,-6.7992015,38.6313,-32.781788,24.103558,-34.5198,-0.5222069,1.1738011,-3.9028313
202,-4.276116847991943,281.9584655761719,78.0360336303711,6.314249005053186,1.9056118254795538,94.73103923142807,15.972173,-14.803222,-17.570042,36.832104,29.383598,-15.000033,-18.679361,-9.708363,-19.343285,7.4722657,-14.495119,11.284214,-13.093489,-4.228477,4.9517097,15.985453,45.61079,-28.780104,-53.79154,4.9591794,-3.4156933,-6.202613,38.422886,-32.63528,23.93714,-34.524685,-0.16469084,1.0596013,-4.067826
203,-4.3286452293396,283.4291076660156,77.70833587646484,6.021038390715153,1.6015600867693232,94.6556309556897,14.9800005,-14.730673,-16.936085,40.838734,30.000067,-15.000033,-18.182343,-9.0591135,-18.41288,7.663751,-14.361562,11.154721,-12.808692,-3.8515217,5.458161,16.456755,45.524216,-28.562086,-54.129925,4.282899,-3.795837,-5.660313,38.116806,-32.455257,23.801575,-34.441437,0.28624243,0.91336197,-4.29652
204,-4.326277732849121,284.86517333984375,77.40215301513672,5.551301844600815,1.3910790293425832,94.43719330650696,13.883238,-14.260736,-16.092579,44.72596,30.000067,-15.000033,-17.69109,-8.097819,-17.408108,7.8984065,-13.436191,10.354527,-12.3638,-3.300957,5.935985,16.864588,45.374702,-28.379095,-54.304577,3.7730637,-4.0985,-5.1963673,37.6191,-32.257362,23.772594,-34.16734,0.83013743,0.7441519,-4.60692
205,-4.267102241516113,286.2672424316406,77.1299057006836,5.000997876088003,1.2763776040829253,94.05291335428147,12.910643,-13.451696,-15.10399,47.926365,30.000067,-15.000033,-19.234987,-7.470936,-15.886835,12.633684,-13.480526,8.585218,-11.750867,-2.671061,6.353319,17.214457,45.168266,-28.21206,-54.32421,3.448243,-4.2986984,-4.817947,36.92337,-32.021545,23.891983,-33.704033,1.4827317,0.5382017,-5.0301266
206,-4.222194194793701,287.6607971191406,76.79379272460938,4.5440966258276285,1.1769377215919725,93.63870620686868,11.989812,-12.580526,-14.024034,50.806602,29.950176,-15.000033,-21.421103,-6.9820185,-14.194484,18.991806,-13.2973385,6.1612077,-11.093607,-2.1541386,6.7430654,17.532719,44.922855,-28.04808,-54.226612,3.2970426,-4.4199514,-4.5163617,36.060566,-31.74288,24.12938,-33.091423,2.2509656,0.29273257,-5.550961
207,-4.216617107391357,289.060302734375,76.32759094238281,3.9968536296179784,1.0802948105385102,93.32004983118591,10.730116,-11.648837,-13.045638,54.51745,28.536785,-15.000033,-23.311756,-6.3389173,-12.937705,24.91732,-12.855854,3.592544,-10.519595,-1.5685829,7.1596236,17.894453,44.650944,-27.85152,-54.061005,3.2763917,-4.486599,-4.2976413,35.08428,-31.4462,24.419676,-32.36831,3.0500367,0.038459297,-6.0976
208,-4.194645881652832,290.41229248046875,75.80564880371094,3.4144259986674865,0.9865500599681106,93.01519697550589,9.359311,-10.635544,-12.158725,58.329388,26.895325,-15.000033,-24.694426,-5.6413736,-12.196411,29.865862,-12.934261,1.3829825,-9.975901,-0.9492039,7.5979977,18.352955,44.350025,-27.598694,-53.81991,3.347208,-4.531739,-4.1610847,33.9647,-31.161938,24.747395,-31.489302,3.8195202,-0.1992354,-6.616757
209,-4.163278102874756,291.7549743652344,75.27093505859375,2.795237215881523,0.9331518439596856,92.6234895753907,7.8630276,-9.484172,-11.245499,62.200493,25.058887,-15.000033,-25.7992,-4.9381466,-11.878384,34.244057,-14.054748,-0.47909537,-9.381541,-0.27365288,8.031093,18.916359,44.01212,-27.268263,-53.54106,3.5179946,-4.5573983,-4.1397614,32.66287,-30.913298,25.11282,-30.42133,4.6585407,-0.46531174,-7.1139574
210,-4.150508880615234,293.09991455078125,74.72122955322266,2.0709291658771556,0.9287795644261442,92.15046035407238,6.246044,-8.142214,-10.34075,66.17065,22.891912,-15.000033,-26.803387,-4.1759524,-11.830479,38.480385,-15.898496,-2.2527044,-8.743123,0.52709395,8.452887,19.56532,43.63104,-26.86902,-53.215553,3.8020332,-4.5514092,-4.2178545,31.210583,-30.706026,25.532116,-29.211243,5.5653915,-0.7609767,-7.6199474
211,-4.1172380447387695,294.4318542480469,74.18341827392578,1.2840815912798234,0.9298671580977033,91.6661952480576,4.5721636,-6.7581773,-9.61412,70.11191,20.533606,-15.000033,-27.531673,-3.3707726,-11.923319,42.286694,-18.074451,-3.7807815,-8.1244755,1.384218,8.877077,20.287666,43.199306,-26.431501,-52.729465,4.163051,-4.5264163,-4.325222,29.596775,-30.529581,26.02551,-27.849882,6.3698535,-0.9911527,-8.126075
212,-4.05396842956543,295.765869140625,73.67305755615234,0.48788551700942107,0.8920930186521612,91.24572048935927,2.8950465,-5.5023923,-9.221857,73.8952,18.12722,-15.000033,-27.798553,-2.5287874,-12.073715,45.33449,-20.144651,-4.8929377,-7.5864673,2.214643,9.324072,21.062391,42.71005,-25.993813,-51.95958,4.5637894,-4.4938884,-4.3935943,27.836622,-30.361317,26.607977,-26.343754,6.886527,-1.0562516,-8.624101
213,-3.9701781272888184,297.0812072753906,73.18804168701172,-0.37034281019855203,0.7997431258004694,90.89715160758752,1.2129344,-4.439266,-9.335461,77.58976,15.6725,-15.000033,-27.493704,-1.5571094,-12.3702,47.443962,-22.077204,-5.425728,-7.150589,3.0437706,9.824895,21.938852,42.149227,-25.54742,-50.836124,4.982929,-4.6033926,-4.377441,25.873232,-30.17937,27.326035,-24.58141,7.137396,-0.93002623,-9.136739
214,-3.885101079940796,298.40423583984375,72.73796844482422,-1.3059864165823865,0.6827714427066335,90.5830400219281,-0.50561714,-3.4918666,-9.829041,81.23022,13.125729,-15.000033,-26.766634,-0.4552611,-12.837984,48.845177,-24.064531,-5.492806,-6.77439,3.909431,10.358107,22.89024,41.51159,-25.094624,-49.41839,5.446293,-4.7996244,-4.327324,23.69673,-29.973396,28.151705,-22.568855,7.207508,-0.6597433,-9.660322
215,-3.813697099685669,299.7538146972656,72.33821105957031,-2.2065624122823864,0.5646748947548887,90.31034304192123,-2.2639313,-2.6056812,-10.411313,84.64589,10.5456085,-15.000033,-25.80283,0.6362332,-13.329276,49.79127,-25.981558,-5.342941,-6.416874,4.7395444,10.87003,23.77976,40.812073,-24.693121,-47.779007,5.984788,-4.786034,-4.3182206,21.537495,-29.735794,28.983042,-20.607924,6.9309177,-0.24991179,-10.141556
216,-3.753836154937744,301.093017578125,72.01219177246094,-2.960415539854254,0.46495330284432695,90.08081450647215,-4.074569,-1.6912248,-10.797457,87.67213,7.973684,-15.000033,-24.773373,1.5743371,-13.693043,50.53241,-27.709063,-5.2277794,-6.0132575,5.461858,11.315434,24.4536,40.08128,-24.41738,-45.98762,6.630583,-4.2663274,-4.42305,19.397484,-29.472723,29.717037,-18.80462,6.264485,0.2959311,-10.521098
217,-3.695742130279541,302.4202880859375,71.76437377929688,-3.5127098354785966,0.37500073880593476,89.90766217440037,-5.9624,-0.7134875,-10.946027,90.29677,5.321407,-15.000033,-23.681757,2.2968204,-13.898051,51.110355,-29.239006,-5.183891,-5.548179,6.015209,11.70269,24.862043,39.320023,-24.29594,-43.875813,7.0988073,-3.1584146,-4.580283,17.593817,-29.17033,30.328392,-17.386076,4.765468,1.1142347,-10.800591
218,-3.6343705654144287,303.73382568359375,71.58113098144531,-3.864106595586436,0.2810790311082672,89.78490767375364,-7.9340286,0.291492,-10.938086,92.5894,2.6053326,-15.000033,-22.46093,2.8162088,-13.98877,51.462986,-30.660437,-5.0748544,-5.03383,6.378177,12.051963,25.07237,38.528267,-24.304577,-41.45519,7.4733167,-1.6219726,-4.77626,15.983004,-28.825457,30.861044,-16.183828,2.616139,2.1668723,-10.971359
219,-3.5991628170013428,305.0472106933594,71.45137023925781,-3.8633084140389244,0.18269067910329745,89.69867847400975,-10.034307,1.5906389,-10.246122,94.457184,0.068704836,-14.135203,-21.19862,2.9412732,-13.864759,51.805523,-32.069233,-4.856321,-4.4873075,6.4191194,12.336644,25.16205,37.74856,-24.394033,-39.09983,8.3488865,0.27380705,-5.1733127,14.207352,-28.467596,31.345205,-15.003878,0.53211033,3.1780376,-10.979093
220,-3.575510263442993,306.3745422363281,71.36920166015625,-3.844015872711115,0.10811859683035503,89.58380041119395,-12.2263565,3.670006,-8.764781,95.96871,-2.2811623,-11.451869,-19.82815,3.0611892,-13.685876,51.858295,-33.302464,-4.596534,-3.9130514,6.489158,12.530375,25.283487,37.04241,-24.472483,-37.234383,10.332859,2.4506202,-5.9651,12.70255,-28.123423,31.786407,-14.319645,-1.1966089,3.8698523,-10.804128
221,-3.5695419311523438,307.72454833984375,71.33757781982422,-3.8524435906481695,0.06021707460994978,89.41512635157129,-14.365499,5.8982344,-7.1388793,97.165726,-4.5176177,-8.839675,-18.341421,3.2468877,-13.458512,51.583164,-34.35147,-4.3100367,-3.2898867,6.6241574,12.643926,25.482685,36.463566,-24.53651,-36.042114,14.021979,5.1719165,-7.3047633,11.414794,-27.824024,32.15779,-14.1740885,-2.4483,4.1209044,-10.41416
222,-3.565150022506714,309.08978271484375,71.35798645019531,-3.834334640932915,0.028323673349400384,89.21532104372646,-16.428083,8.226457,-5.345551,98.04698,-6.7251825,-6.276296,-16.7269,3.4306834,-13.171003,51.001926,-35.234756,-3.992291,-2.6050727,6.7530932,12.698349,25.723328,36.026096,-24.608603,-35.32878,19.036222,8.274934,-9.234503,10.349732,-27.575918,32.45446,-14.520198,-3.4584882,4.084675,-9.85488
223,-3.564464569091797,310.4647216796875,71.42406463623047,-3.758020204446007,0.01743740245748304,89.02042686991577,-18.341553,10.3435,-3.541813,98.564285,-8.822281,-3.9246802,-14.99759,3.5595212,-12.848081,50.13946,-35.937225,-3.6624987,-1.8835324,6.811096,12.677735,26.003967,35.73557,-24.655159,-34.953186,24.49724,11.038084,-11.6928,9.444847,-27.37737,32.73034,-15.202296,-4.154912,3.901601,-9.241619
224,-3.5609683990478516,311.8739013671875,71.54752349853516,-3.5933687126170573,0.03668739292272469,88.87045582013296,-20.081642,11.951226,-1.8810197,98.666985,-10.685118,-1.9258044,-13.173311,3.580266,-12.524837,49.024002,-36.436104,-3.3351707,-1.1697724,6.738877,12.571295,26.355648,35.5964,-24.612833,-34.8081,29.428835,12.838102,-14.41032,8.632651,-27.220688,33.05227,-16.064545,-4.47862,3.717874,-8.684826
225,-3.54471755027771,313.2955627441406,71.71946716308594,-3.3379298718198847,0.09350319923015231,88.77618880945744,-21.711277,13.024956,-0.3467417,98.34658,-12.254828,-0.19215411,-11.230482,3.4836266,-12.214521,47.59116,-36.772346,-3.026857,-0.48691878,6.5168896,12.372188,26.836445,35.6294,-24.411144,-35.00517,33.905766,13.455567,-17.495264,7.877297,-27.102304,33.453365,-17.12349,-4.240451,3.5426562,-8.196339
226,-3.5362343788146973,314.7547607421875,71.94615936279297,-3.0099334409744727,0.18493387202423225,88.72048523102876,-23.25446,13.731185,1.1682662,97.62297,-13.564127,1.3411983,-9.171249,3.2916346,-11.909225,45.847378,-36.93977,-2.7217054,0.17339765,6.1688056,12.099284,27.464872,35.849136,-24.057285,-35.61039,38.235367,13.196662,-20.866623,7.205714,-27.022366,33.90939,-18.439535,-3.5303268,3.3183415,-7.72403
227,-3.5395889282226562,316.2362976074219,72.2164077758789,-2.6184325266348174,0.30614942493717634,88.70245012898599,-24.660921,14.0796175,2.636905,96.48426,-14.599085,2.5203884,-7.0503697,3.0120606,-11.613368,43.91132,-36.845016,-2.3875554,0.81155074,5.7164826,11.778557,28.210344,36.238567,-23.6113,-36.452717,41.734306,12.465748,-23.879263,6.63376,-26.98021,34.396194,-19.907095,-2.7149272,3.0893326,-7.27887
228,-3.555556058883667,317.746826171875,72.5306396484375,-2.1754196756882775,0.4513039564703698,88.72043110421026,-25.880587,14.082484,4.026909,94.91494,-15.341221,3.1941428,-4.922892,2.6548722,-11.328986,41.90342,-36.394814,-1.991654,1.4330968,5.191196,11.426465,29.018276,36.75476,-23.159006,-37.32362,43.797913,11.794371,-25.97332,6.175115,-26.975033,34.884373,-21.404493,-2.1617463,2.8940237,-6.872989
229,-3.5554778575897217,319.2873840332031,72.87511444091797,-1.665452084594006,0.617025429900225,88.77943174849962,-26.90205,13.697043,5.3331695,92.86593,-15.709243,3.2026398,-2.727144,2.2160738,-11.056473,39.7254,-35.594322,-1.5196207,2.042167,4.5874515,11.031312,29.86706,37.367615,-22.717453,-38.16189,44.086876,11.315147,-26.994768,5.8514447,-27.00837,35.357323,-22.946163,-1.9834794,2.7562387,-6.4985447
230,-3.5677387714385986,320.8531188964844,73.2533187866211,-1.096423541220702,0.8056944908438181,88.87924490665516,-27.772684,12.967608,6.5627823,90.346085,-15.720448,2.6956437,-0.46087927,1.7048259,-10.800001,37.351196,-34.47919,-0.9876474,2.6328537,3.9094524,10.585817,30.758543,38.066986,-22.261984,-39.039253,43.016815,10.883694,-27.282448,5.648296,-27.085135,35.827335,-24.571516,-1.9827688,2.6483014,-6.1515117
231,-3.5854525566101074,322.43408203125,73.65592193603516,-0.5105625544115978,1.019551283248018,89.00993534470749,-28.523552,12.023292,7.6934633,87.42905,-15.51185,1.9742731,1.7309942,1.1547116,-10.554042,35.022045,-33.010265,-0.4192635,3.1983085,3.2059467,10.10623,31.66313,38.8296,-21.8315,-39.93317,41.171547,10.620222,-27.056484,5.5304446,-27.209158,36.30749,-26.192806,-2.0645173,2.528661,-5.8512006
232,-3.6190099716186523,324.0454406738281,74.08097076416016,0.047357641745661976,1.2613287472006451,89.16240850090261,-29.179625,10.98633,8.706672,84.18926,-15.221832,1.3337184,3.7046146,0.5994358,-10.30317,32.986576,-31.156862,0.15609814,3.7335694,2.5301526,9.60361,32.519527,39.623398,-21.481247,-40.79635,39.123,10.632355,-26.516396,5.45894,-27.383394,36.81086,-27.71363,-2.1323981,2.3577409,-5.6162386
233,-3.6582729816436768,325.6686096191406,74.51724243164062,0.5916111514967379,1.5374435239401614,89.35155755451365,-29.758156,9.780246,9.552385,80.60195,-14.846346,0.82862794,5.446954,0.029733585,-10.008228,31.287046,-28.869225,0.7601318,4.2262816,1.8859814,9.065768,33.285854,40.42807,-21.250452,-41.593502,36.695168,11.0048895,-25.56527,5.421658,-27.61537,37.35764,-29.103691,-2.1633546,2.102065,-5.4619813
234,-3.7144808769226074,327.2972717285156,74.95990753173828,1.1307790982760684,1.8419304479541028,89.57743932959691,-30.234066,8.395614,10.230811,76.63126,-14.334085,0.3261171,7.026557,-0.5506445,-9.665579,29.80967,-26.189392,1.3957496,4.676369,1.2612989,8.4890375,33.967285,41.235733,-21.120428,-42.31986,33.68416,11.597536,-24.117285,5.4360456,-27.909435,37.937614,-30.41353,-2.2073526,1.7910981,-5.3750257
235,-3.786190986633301,328.93133544921875,75.40245056152344,1.6180270828229781,2.160843867837187,89.80775849411215,-30.561235,7.0348983,10.816532,72.32678,-13.743623,-0.17191698,8.429484,-1.0920802,-9.31021,28.562233,-23.216398,2.012156,5.0976524,0.685391,7.892796,34.541794,42.034092,-21.067097,-42.950436,30.610102,12.213792,-22.39694,5.500742,-28.259691,38.521774,-31.657423,-2.2792368,1.4804497,-5.3305197
236,-3.8688435554504395,330.5756530761719,75.84239196777344,2.0089603913733978,2.4821694111077477,90.01001576421505,-30.695257,5.8775687,11.398845,67.72925,-13.124727,-0.67846894,9.641076,-1.5497992,-8.982796,27.552269,-20.038843,2.5675375,5.5082197,0.18621415,7.2907963,35.02544,42.803406,-21.074583,-43.484993,28.037066,12.708192,-20.658377,5.612735,-28.65254,39.080532,-32.844746,-2.3960783,1.2255558,-5.3027325
237,-3.959716796875,332.2350158691406,76.27152252197266,2.3060554137371967,2.8332202274600515,90.18360817199418,-30.617533,4.930063,12.055,62.72667,-12.4359865,-1.2468827,10.608258,-1.9417603,-8.739685,26.824326,-16.54381,3.0764558,5.907459,-0.23966354,6.6441226,35.530815,43.521053,-21.170006,-44.00324,26.086603,13.133446,-18.901114,5.7414165,-29.08178,39.63249,-33.933628,-2.5662756,1.0435822,-5.2612996
238,-4.043935775756836,333.9120788574219,76.68025970458984,2.5246217783346534,3.211898615747043,90.33970623285954,-30.336935,4.0812197,12.727687,57.299576,-11.646432,-1.8726431,11.373424,-2.2685008,-8.526729,26.32783,-12.711754,3.6035247,6.2767653,-0.5906197,5.9520907,35.89932,44.18525,-21.363491,-44.38177,24.413656,13.548023,-17.026564,5.8683834,-29.545979,40.20351,-34.905666,-2.7811975,0.90520066,-5.2270064
239,-4.123336315155029,335.5862731933594,77.05799102783203,2.636533991500946,3.5630162776510748,90.46643046269702,-29.86042,3.328379,13.310886,51.63096,-10.821011,-2.4831102,12.046235,-2.465479,-8.230809,25.964684,-8.772502,4.1701107,6.6387877,-0.8439864,5.2772393,36.182716,44.791897,-21.617973,-44.661148,23.163166,13.8682995,-15.155986,6.0479093,-30.033365,40.74147,-35.8168,-3.035615,0.7954066,-5.2479672
240,-4.193144798278809,337.2595520019531,77.39662170410156,2.616657577033866,3.830521304651201,90.55397276851295,-29.205027,2.691647,13.691343,45.920025,-10.034692,-2.991753,12.730931,-2.4687722,-7.748798,25.644506,-4.9564967,4.766681,7.0084023,-0.9777129,4.683033,36.3917,45.341724,-21.886261,-44.849243,22.455494,14.023952,-13.419271,6.3223844,-30.526829,41.20002,-36.712963,-3.3232965,0.6998247,-5.3719172
