unveil-humanoid-operators/unveil-humanoid-operators.github.io/feature-analysis-animation/data/feature_matrix_instances/gender_ankle_rom_walking_A080_neutral_stoop_down_R_001__A080.csv
Frame,root_translateX,root_translateY,root_translateZ,root_rotateX,root_rotateY,root_rotateZ,left_hip_pitch_joint_dof,left_hip_roll_joint_dof,left_hip_yaw_joint_dof,left_knee_joint_dof,left_ankle_pitch_joint_dof,left_ankle_roll_joint_dof,right_hip_pitch_joint_dof,right_hip_roll_joint_dof,right_hip_yaw_joint_dof,right_knee_joint_dof,right_ankle_pitch_joint_dof,right_ankle_roll_joint_dof,waist_yaw_joint_dof,waist_roll_joint_dof,waist_pitch_joint_dof,left_shoulder_pitch_joint_dof,left_shoulder_roll_joint_dof,left_shoulder_yaw_joint_dof,left_elbow_joint_dof,left_wrist_roll_joint_dof,left_wrist_pitch_joint_dof,left_wrist_yaw_joint_dof,right_shoulder_pitch_joint_dof,right_shoulder_roll_joint_dof,right_shoulder_yaw_joint_dof,right_elbow_joint_dof,right_wrist_roll_joint_dof,right_wrist_pitch_joint_dof,right_wrist_yaw_joint_dof
0,-0.03724711388349533,2.3730618953704834,78.92153930664062,-1.043512248204755,-4.1222562155735565,-89.6394831916256,5.214005,5.444724,9.882593,9.34086,-11.553747,-3.6076365,4.055662,-4.2609024,-9.19246,9.980486,-7.9695477,3.7859938,-2.4136584,0.53711814,9.441532,-4.9934216,12.828356,-39.619034,65.08176,4.308171,1.349184,6.23986,-8.539541,-14.476845,47.47611,61.460278,-0.3946977,0.21579668,-2.613382
1,-0.03804837539792061,2.3701446056365967,78.92141723632812,-1.044556646707837,-4.120205009912549,-89.6416925312209,5.214146,5.4465756,9.882191,9.342943,-11.554198,-3.6070871,4.0532746,-4.2596383,-9.194652,9.985516,-7.9736,3.7780507,-2.4172175,0.5392875,9.425437,-4.9442225,12.860062,-39.59514,65.047264,4.3057594,1.3360819,6.2423377,-8.510728,-14.478828,47.450443,61.4249,-0.4691231,0.23617822,-2.59366
2,-0.0368281714618206,2.3650219440460205,78.92192077636719,-1.0447258284481733,-4.117934534229332,-89.64436073229926,5.212625,5.4492216,9.881789,9.347917,-11.555653,-3.6066363,4.049558,-4.2579703,-9.196787,9.992073,-7.977972,3.7693455,-2.4189816,0.5463955,9.402357,-4.917108,12.865817,-39.58536,65.05369,4.292494,1.3217026,6.2508473,-8.486316,-14.478266,47.43787,61.404457,-0.57926065,0.26162478,-2.5555396
3,-0.03823276609182358,2.358717918395996,78.91989135742188,-1.0446153343574742,-4.115947761441828,-89.64622440391094,5.211907,5.450594,9.881132,9.351548,-11.5572195,-3.6059616,4.0465374,-4.2573853,-9.198814,9.998674,-7.9829583,3.7621927,-2.416471,0.55064076,9.381394,-4.8792973,12.876209,-39.5609,65.04255,4.2986083,1.3067715,6.253925,-8.453783,-14.476167,47.399864,61.375305,-0.61269385,0.276212,-2.556002
4,-0.038530383259058,2.35697865486145,78.91899108886719,-1.0449169261175606,-4.117188629144019,-89.64544815836521,5.2149296,5.450215,9.879696,9.353606,-11.560317,-3.6048589,4.048957,-4.258139,-9.201179,10.002547,-7.9879546,3.758734,-2.4145823,0.5567313,9.363183,-4.8506827,12.880049,-39.542606,65.039,4.289733,1.2859536,6.2564135,-8.432319,-14.474423,47.375294,61.355778,-0.37523314,0.25920212,-2.6686106
5,-0.03643455356359482,2.357532024383545,78.91837310791016,-1.0435792736569063,-4.121171664636858,-89.63917664822368,5.219494,5.4472356,9.875233,9.354522,-11.565864,-3.6043124,4.0564237,-4.261161,-9.205595,10.003585,-7.9930873,3.760649,-2.4078293,0.5614792,9.349683,-4.816653,12.881934,-39.51111,65.02035,4.295612,1.255196,6.2513366,-8.41271,-14.472846,47.33667,61.335,0.29431677,0.18866017,-2.971327
6,-0.03833215683698654,2.353856325149536,78.91718292236328,-1.0404943842522059,-4.128260442687513,-89.62918435922322,5.2276106,5.442129,9.868966,9.352266,-11.572047,-3.6040409,4.0683017,-4.265927,-9.211338,10.003763,-7.9992714,3.7662857,-2.401751,0.562059,9.357897,-4.7857428,12.889018,-39.42656,64.98337,4.3438053,1.2173107,6.2307067,-8.4087715,-14.466928,47.26197,61.31517,1.2493049,0.07256575,-3.3994124
7,-0.039658766239881516,2.3526580333709717,78.91649627685547,-1.0371710093440902,-4.136515901954834,-89.62125885645935,5.237242,5.4364743,9.864887,9.352609,-11.580624,-3.6022592,4.0812454,-4.2715526,-9.2143755,10.004996,-8.006546,3.7733097,-2.3956087,0.564014,9.354952,-4.750904,12.892772,-39.368305,64.95278,4.3644567,1.1811762,6.216207,-8.399682,-14.462223,47.21309,61.300037,2.2093892,-0.0508304,-3.824021
8,-0.03752731531858444,2.35029673576355,78.91454315185547,-1.0329873520637947,-4.145985379064625,-89.62170538005961,5.2530155,5.430657,9.867408,9.35216,-11.588962,-3.5971859,4.094305,-4.277029,-9.210517,10.008497,-8.014988,3.7793458,-2.3890219,0.566205,9.349525,-4.711628,12.894968,-39.312103,64.92544,4.3845725,1.1556013,6.203823,-8.383778,-14.457529,47.170967,61.283535,2.8319106,-0.13755833,-4.099456
9,-0.0317382737994194,2.330878257751465,78.9120864868164,-1.027586971505748,-4.157438918961918,-89.63504920358451,5.274737,5.425049,9.880193,9.358713,-11.6016035,-3.5840313,4.10864,-4.282627,-9.195842,10.013917,-8.024611,3.7843733,-2.3809087,0.56773484,9.338189,-4.6658373,12.89651,-39.259922,64.90409,4.4071693,1.1437178,6.192208,-8.356618,-14.450893,47.133205,61.26756,2.9650784,-0.16437003,-4.160341
10,-0.03250131756067276,2.3358969688415527,78.91194152832031,-1.022180867959137,-4.170563746144765,-89.65713202742226,5.3015347,5.418712,9.900301,9.369207,-11.61736,-3.5651023,4.122022,-4.2893877,-9.1732025,10.025581,-8.0380125,3.789477,-2.3667293,0.5686373,9.320376,-4.616861,12.896275,-39.224007,64.88854,4.4217253,1.1407926,6.1827407,-8.317082,-14.444599,47.10142,61.248646,2.8113263,-0.15501852,-4.094538
11,-0.028907399624586105,2.3165016174316406,78.91021728515625,-1.0159386086718847,-4.183614160395204,-89.68081819157374,5.3292055,5.413508,9.921349,9.378693,-11.632308,-3.5496724,4.1354995,-4.294864,-9.149671,10.036495,-8.050752,3.7936828,-2.3489769,0.570165,9.301754,-4.5709085,12.894594,-39.19294,64.87738,4.426867,1.1434212,6.1778483,-8.2758875,-14.437786,47.070866,61.231018,2.5560057,-0.13152182,-3.9867787
12,-0.027246244251728058,2.309081554412842,78.90947723388672,-1.0119524028994389,-4.194677093041734,-89.69910524407423,5.35568,5.4109373,9.937767,9.378023,-11.64055,-3.5468276,4.1484346,-4.297154,-9.131961,10.044016,-8.061409,3.7958965,-2.3291104,0.574288,9.284912,-4.5318117,12.891993,-39.164623,64.86888,4.412389,1.1482921,6.1819425,-8.237351,-14.431684,47.045174,61.211887,2.3937855,-0.114913404,-3.9250956
13,-0.02398032322525978,2.307645320892334,78.90937805175781,-1.0144918874146573,-4.201296186872374,-89.71005461333624,5.376127,5.413908,9.946921,9.367125,-11.640342,-3.565627,4.1597047,-4.29292,-9.122256,10.043475,-8.066676,3.7949245,-2.3067367,0.5817226,9.269465,-4.5046306,12.88966,-39.142166,64.86772,4.3580027,1.1547438,6.2014117,-8.205297,-14.427603,47.03168,61.191483,2.374053,-0.10765102,-3.9341567
14,-0.02455144189298153,2.304731607437134,78.90746307373047,-1.018357999326679,-4.20524098811062,-89.71777464290541,5.3937693,5.420524,9.952633,9.348755,-11.63436,-3.5990446,4.1693783,-4.284616,-9.116584,10.039185,-8.06941,3.791668,-2.2865689,0.59097624,9.253605,-4.481352,12.884236,-39.112286,64.87164,4.282245,1.1647623,6.231105,-8.175713,-14.419494,47.026413,61.17103,2.38851,-0.09888812,-3.9662983
15,-0.02463957667350769,2.2998557090759277,78.90808868408203,-1.022363679497785,-4.210335564063683,-89.72292702244847,5.41231,5.4269066,9.956717,9.329285,-11.628218,-3.6320467,4.1798663,-4.2766542,-9.113491,10.036538,-8.073137,3.788066,-2.2701104,0.6012767,9.239089,-4.46024,12.877633,-39.084282,64.8764,4.202852,1.1772261,6.263206,-8.151766,-14.4109535,47.031506,61.15659,2.424268,-0.0903341,-4.0056925
16,-0.028278788551688194,2.2883260250091553,78.90604400634766,-1.0251310273248222,-4.220366249395983,-89.7261468160486,5.4329185,5.4294786,9.960804,9.319779,-11.630159,-3.6497674,4.195104,-4.2737727,-9.111476,10.037686,-8.080312,3.7860594,-2.2513237,0.6104189,9.2301235,-4.439232,12.8747015,-39.066902,64.87175,4.140911,1.1922123,6.287913,-8.129509,-14.407782,47.032257,61.14398,2.4628434,-0.08316428,-4.0341945
17,-0.010370474308729172,2.2733585834503174,78.903076171875,-1.0241567832448102,-4.239503354443937,-89.72907907572467,5.460401,5.4274106,9.966978,9.323432,-11.644926,-3.6442614,4.2187862,-4.2772403,-9.10942,10.044913,-8.092213,3.7840676,-2.2493894,0.617065,9.226241,-4.402898,12.86471,-39.0178,64.85395,4.1204123,1.2184842,6.305827,-8.111148,-14.398891,47.03968,61.140423,2.491604,-0.07416542,-4.050678
18,-0.022986603900790215,2.2663450241088867,78.90287780761719,-1.0200201069986015,-4.2643008628952686,-89.73100064923528,5.4911323,5.4223332,9.973953,9.335788,-11.667951,-3.6247108,4.2443066,-4.285409,-9.108023,10.06276,-8.110469,3.7817893,-2.2518628,0.6228297,9.229219,-4.371201,12.848451,-38.963943,64.836754,4.1123643,1.2520238,6.3210425,-8.103132,-14.386695,47.05262,61.147285,2.5308356,-0.06511514,-4.0624886
19,-0.021768683567643166,2.265374183654785,78.90298461914062,-1.0148030739237917,-4.289000464008912,-89.72971259168963,5.520655,5.4156137,9.978731,9.349446,-11.690401,-3.6023753,4.2736073,-4.294956,-9.108996,10.074282,-8.126502,3.7828288,-2.251767,0.62914145,9.230616,-4.3428235,12.829805,-38.92085,64.82121,4.12204,1.279508,6.3296137,-8.092979,-14.375341,47.058342,61.157345,2.5687518,-0.05680744,-4.0701637
20,-0.017461715266108513,2.263519287109375,78.90242004394531,-1.0117321152048413,-4.307534446427038,-89.72323410979723,5.542208,5.407807,9.978593,9.358877,-11.704042,-3.5883396,4.2985697,-4.3050666,-9.113001,10.08178,-8.141473,3.7909124,-2.249585,0.63628,9.227899,-4.316677,12.820844,-38.895313,64.80205,4.1522155,1.2837138,6.323499,-8.079225,-14.370756,47.055027,61.163513,2.6019235,-0.052749258,-4.070956
21,-0.0038608424365520477,2.264601945877075,78.90113067626953,-1.0087956939634646,-4.316728769922113,-89.70877742313787,5.554892,5.3987927,9.971598,9.355493,-11.699833,-3.586815,4.3233957,-4.314306,-9.121685,10.070976,-8.14944,3.8123116,-2.2666333,0.65113837,9.2160845,-4.2882004,12.797371,-38.848118,64.79172,4.2576613,1.2522928,6.292559,-8.075621,-14.360372,47.052074,61.185528,2.618805,-0.04964133,-4.0634274
22,-0.0015113045228645205,2.2596652507781982,78.89988708496094,-1.0074347089904852,-4.3199399995464045,-89.68858247781021,5.558888,5.3883452,9.959834,9.350159,-11.687551,-3.591456,4.3460417,-4.3242755,-9.133442,10.052859,-8.155727,3.8432405,-2.2763648,0.6635673,9.200348,-4.262926,12.791788,-38.838543,64.77059,4.379959,1.1977463,6.2446656,-8.062492,-14.358298,47.044933,61.195446,2.6418817,-0.047577824,-4.0542545
23,0.004529522266238928,2.257145404815674,78.89884948730469,-1.0064412174428183,-4.322874201394034,-89.66738050295734,5.563084,5.3776007,9.9465275,9.343191,-11.6744795,-3.5977392,4.369531,-4.3342934,-9.146576,10.031996,-8.159548,3.8724887,-2.291467,0.6819156,9.180611,-4.2418184,12.759991,-38.80207,64.77013,4.524434,1.1414939,6.1984963,-8.0535755,-14.348753,47.021553,61.221447,2.6404765,-0.048018526,-4.0359726
24,0.008759889751672745,2.246019124984741,78.89730072021484,-1.0028816253547013,-4.328066450456753,-89.65241796967078,5.5704513,5.366775,9.937365,9.339592,-11.669491,-3.6009648,4.385889,-4.3458257,-9.156211,10.027639,-8.167692,3.888823,-2.2972674,0.6884499,9.171543,-4.226844,12.755992,-38.79589,64.7508,4.575186,1.1141195,6.1784863,-8.043319,-14.347682,47.01522,61.225964,2.655436,-0.051216092,-4.0237617
25,0.0025675047654658556,2.239640951156616,78.89659118652344,-0.9977450012603301,-4.341050751876868,-89.64216879799028,5.594706,5.353291,9.931787,9.324797,-11.6685705,-3.6009912,4.406355,-4.359558,-9.165472,10.029966,-8.17376,3.8859727,-2.29945,0.6976405,9.161867,-4.1919236,12.737442,-38.750866,64.725044,4.590172,1.1178129,6.186836,-8.027238,-14.343577,46.984623,61.23965,2.6388535,-0.060092602,-4.001078
26,0.013256269507110119,2.2380168437957764,78.89590454101562,-0.9890611908258871,-4.355378331020798,-89.63667909608506,5.611336,5.3408847,9.928559,9.332504,-11.685284,-3.599974,4.4123225,-4.3765483,-9.171727,10.062195,-8.191338,3.8706586,-2.3005116,0.7005718,9.160496,-4.1722183,12.717921,-38.7078,64.70666,4.538842,1.1435729,6.218279,-8.018095,-14.339646,46.962467,61.249233,2.623051,-0.07247166,-3.979044
27,0.022740153595805168,2.2361767292022705,78.89527130126953,-0.9817901455810235,-4.371603754443013,-89.63288526757606,5.6353917,5.3280916,9.92568,9.330742,-11.698766,-3.5962327,4.4221396,-4.392067,-9.177631,10.089984,-8.205754,3.852676,-2.3061163,0.7054549,9.160139,-4.164788,12.683063,-38.65,64.71119,4.4879446,1.1762383,6.2565155,-8.01617,-14.333153,46.942215,61.26737,2.599966,-0.08651512,-3.9531608
28,0.021781807765364647,2.2300610542297363,78.89515686035156,-0.9776406964153247,-4.388471611379736,-89.6286395379536,5.656519,5.3190975,9.919122,9.336031,-11.713857,-3.588722,4.436901,-4.4029,-9.18405,10.11038,-8.219105,3.8413665,-2.308239,0.71031547,9.159233,-4.1475415,12.661589,-38.61263,64.69598,4.4505067,1.2086242,6.2878237,-8.007024,-14.329124,46.923355,61.27487,2.581605,-0.09950207,-3.928737
29,0.020469922572374344,2.2245514392852783,78.89501190185547,-0.9757114272885362,-4.4076278529967245,-89.62486491673745,5.676536,5.314675,9.907571,9.349878,-11.731574,-3.5725265,4.461243,-4.4069552,-9.190508,10.118286,-8.230257,3.8398368,-2.3104336,0.7197065,9.15875,-4.139353,12.630481,-38.576584,64.69654,4.461632,1.2333963,6.308117,-7.9972982,-14.323517,46.896893,61.28294,2.5555923,-0.113395326,-3.8951175
30,0.024851540103554726,2.2180871963500977,78.89506530761719,-0.9764285217809309,-4.428459302798251,-89.62249659447389,5.696279,5.3131537,9.893097,9.369391,-11.751772,-3.549824,4.489497,-4.407134,-9.196317,10.122992,-8.241735,3.842767,-2.3095865,0.72510993,9.158974,-4.1235723,12.621211,-38.562218,64.679924,4.4738383,1.257542,6.3240824,-7.982765,-14.321837,46.879494,61.280052,2.5403643,-0.1288254,-3.859755
31,0.026986412703990936,2.21112322807312,78.89514923095703,-0.9793985332261258,-4.448873800093147,-89.6179994497327,5.7150135,5.313767,9.876959,9.388725,-11.770506,-3.5300152,4.5196376,-4.4050465,-9.203846,10.123929,-8.252268,3.84741,-2.3063822,0.7376519,9.160479,-4.113807,12.590442,-38.53482,64.67182,4.5121183,1.2896905,6.3396354,-7.9684515,-14.317132,46.83853,61.28161,2.50234,-0.14107394,-3.8249211
32,0.022677894681692123,2.204820156097412,78.89256286621094,-0.9826587128298884,-4.465464140930536,-89.60966110623387,5.7305064,5.3139734,9.862208,9.402256,-11.783944,-3.5222523,4.546858,-4.403968,-9.21334,10.122406,-8.261339,3.8510249,-2.303276,0.7443774,9.1593485,-4.112335,12.569914,-38.519302,64.66887,4.52268,1.3236853,6.3517027,-7.9551287,-14.314073,46.81529,61.279545,2.4833415,-0.14829029,-3.8108644
33,0.021236037835478783,2.2005200386047363,78.89005279541016,-0.9843576647579613,-4.477048841146929,-89.59510907421142,5.7453055,5.313975,9.849812,9.39901,-11.784598,-3.5334883,4.570351,-4.403783,-9.22614,10.118077,-8.268569,3.8535614,-2.3031578,0.7515683,9.156441,-4.104809,12.5547285,-38.506706,64.64749,4.505829,1.378427,6.3645067,-7.9446015,-14.311871,46.806454,61.274868,2.476471,-0.14450747,-3.8282154
34,0.022644955664873123,2.2006444931030273,78.88921356201172,-0.9868248742819274,-4.485390435410293,-89.57617076934172,5.7595596,5.3141546,9.838503,9.386146,-11.777832,-3.5572324,4.5911827,-4.403519,-9.241091,10.113331,-8.276043,3.8563614,-2.308453,0.76107883,9.149779,-4.1081586,12.5241165,-38.487366,64.64296,4.4811444,1.4437687,6.37688,-7.9405966,-14.307462,46.81068,61.27797,2.4767044,-0.13406275,-3.8658671
35,0.025152772665023804,2.1967415809631348,78.88822937011719,-0.9890048432061338,-4.492021688789715,-89.55616105449236,5.7724886,5.313319,9.826803,9.371077,-11.76885,-3.582638,4.6108108,-4.4042935,-9.257095,10.107196,-8.282708,3.8584967,-2.3174543,0.77135324,9.140336,-4.1123776,12.488708,-38.468567,64.64399,4.4560165,1.5023948,6.389336,-7.939023,-14.301977,46.822056,61.283978,2.4823751,-0.12181917,-3.9070792
36,0.023415284231305122,2.1925904750823975,78.8873062133789,-0.9895598288655979,-4.498203372849867,-89.5385148042877,5.783029,5.3101296,9.813337,9.362153,-11.763655,-3.598992,4.6283364,-4.407691,-9.272758,10.103927,-8.290411,3.8591104,-2.3251748,0.777524,9.132895,-4.1063747,12.469125,-38.456722,64.63075,4.4403167,1.5366704,6.3994603,-7.934568,-14.298913,46.82194,61.284416,2.4824634,-0.113038436,-3.9318
37,0.02537444233894348,2.187809467315674,78.88614654541016,-0.9865566109891379,-4.504077480015484,-89.52347628022899,5.79048,5.303151,9.796434,9.362797,-11.763752,-3.6013136,4.6415277,-4.415129,-9.288683,10.108665,-8.301413,3.8564987,-2.336036,0.7823047,9.12212,-4.109707,12.439483,-38.442245,64.64866,4.4499316,1.524816,6.4073367,-7.93074,-14.293995,46.806473,61.291916,2.4739387,-0.11147976,-3.927107
38,0.025564679875969887,2.180734872817993,78.88421630859375,-0.9832878275380622,-4.509146743432616,-89.50950925218092,5.796427,5.293271,9.777297,9.365834,-11.764574,-3.596167,4.651842,-4.4256496,-9.305101,10.117357,-8.313923,3.8515832,-2.3502774,0.78229594,9.112648,-4.097468,12.428287,-38.43576,64.645195,4.462162,1.4878734,6.413296,-7.926412,-14.29219,46.79113,61.293007,2.4710152,-0.112121016,-3.9097161
39,0.02777407132089138,2.1742610931396484,78.88214874267578,-0.9799009698245503,-4.513376639174665,-89.49684986536852,5.801068,5.282906,9.758812,9.37074,-11.767618,-3.5894969,4.661741,-4.436556,-9.3205385,10.124753,-8.325963,3.8476067,-2.3623369,0.7820787,9.103184,-4.0872836,12.419934,-38.428467,64.645096,4.4819193,1.4469845,6.417704,-7.9204254,-14.290767,46.7708,61.293533,2.4609623,-0.11341718,-3.8909173
40,0.030660804361104965,2.169001817703247,78.88009643554688,-0.9752897003088493,-4.517307971567091,-89.48571106596533,5.8073173,5.274033,9.743929,9.371784,-11.771376,-3.5871725,4.673558,-4.445671,-9.333342,10.126924,-8.336601,3.8479478,-2.3549726,0.78418297,9.095377,-4.1031837,12.38936,-38.422337,64.6733,4.511911,1.4243071,6.4212976,-7.909818,-14.28613,46.724243,61.29787,2.427661,-0.11363573,-3.8819642
41,0.0320628359913826,2.164956569671631,78.87822723388672,-0.973211147268342,-4.519892973556915,-89.4767414430246,5.815877,5.2669573,9.734372,9.365553,-11.775313,-3.5928254,4.6852884,-4.4525027,-9.342653,10.1261635,-8.348078,3.8548353,-2.3528292,0.7838765,9.089909,-4.1009293,12.384261,-38.420185,64.66318,4.517707,1.4329424,6.4247894,-7.9052033,-14.285407,46.721058,61.296505,2.4137847,-0.11035232,-3.9020796
42,0.03384121507406235,2.1566481590270996,78.87736511230469,-0.971584186554106,-4.524255276407101,-89.46804803075409,5.830143,5.2599893,9.726616,9.351235,-11.777971,-3.602453,4.7042303,-4.4584146,-9.351393,10.115986,-8.357238,3.866399,-2.3473458,0.7882381,9.084271,-4.1008296,12.366374,-38.40933,64.65704,4.5362225,1.46266,6.430371,-7.8930483,-14.283049,46.71586,61.295704,2.381685,-0.103378706,-3.941914
43,0.0352763757109642,2.1500728130340576,78.8765640258789,-0.9678554113729247,-4.526179756594702,-89.46122323589908,5.841459,5.2535377,9.721531,9.33828,-11.781947,-3.6111012,4.7187,-4.463758,-9.357061,10.107696,-8.366014,3.8785572,-2.3399115,0.7895345,9.079823,-4.1039243,12.352533,-38.399754,64.65054,4.548471,1.4940706,6.4325275,-7.885552,-14.281266,46.71592,61.29431,2.3591597,-0.09880527,-3.9791245
44,0.03495373949408531,2.1450560092926025,78.87557983398438,-0.964150842142181,-4.525831159945377,-89.45501169503873,5.8487406,5.2469206,9.717286,9.329159,-11.786515,-3.6136882,4.7296033,-4.468931,-9.360209,10.099221,-8.370933,3.8879125,-2.336086,0.7906502,9.074026,-4.107943,12.336705,-38.379723,64.65064,4.567775,1.5204414,6.4327965,-7.8829584,-14.279214,46.71219,61.297775,2.344265,-0.09737167,-4.0011773
45,0.03464116156101227,2.140829563140869,78.87532806396484,-0.9600590075981053,-4.523280920537856,-89.44946752212887,5.8496113,5.2391357,9.714039,9.329376,-11.794009,-3.607099,4.7316346,-4.4759326,-9.358481,10.100586,-8.375519,3.8936493,-2.3327029,0.78901994,9.069529,-4.110017,12.315898,-38.344547,64.64949,4.60007,1.5432739,6.426379,-7.8846607,-14.276605,46.69437,61.302986,2.3380034,-0.10241476,-3.997117
46,0.03629407286643982,2.13746976852417,78.8741455078125,-0.9526809886956547,-4.518765348501723,-89.44484311293192,5.848074,5.2303357,9.712592,9.331574,-11.801728,-3.594543,4.7289004,-4.4833803,-9.35282,10.105411,-8.378342,3.8976388,-2.3267329,0.78525823,9.065861,-4.111351,12.295832,-38.303726,64.64496,4.637926,1.5672808,6.415346,-7.88647,-14.274091,46.665245,61.3063,2.3368053,-0.11150394,-3.9777846
47,0.0369916632771492,2.135866165161133,78.8731918334961,-0.946787287136568,-4.5117548748084495,-89.44129720074972,5.8446465,5.221571,9.7122,9.331576,-11.807739,-3.5804455,4.721423,-4.4909577,-9.34691,10.112439,-8.3808,3.900314,-2.319713,0.7821145,9.061314,-4.113647,12.27548,-38.266785,64.64335,4.671102,1.5859339,6.407308,-7.8897953,-14.271845,46.63607,61.31039,2.3402212,-0.12004374,-3.9577985
48,0.0361880287528038,2.130380392074585,78.87256622314453,-0.9407076765231549,-4.501416478597478,-89.43881548728295,5.836667,5.214001,9.711607,9.331671,-11.813227,-3.5691242,4.701834,-4.4995728,-9.343515,10.137293,-8.393841,3.9022934,-2.3127525,0.7784148,9.055275,-4.1166453,12.2647705,-38.248272,64.64507,4.6829143,1.5897394,6.4075766,-7.8942356,-14.270856,46.621258,61.312134,2.3526444,-0.12475359,-3.9520638
49,0.03578827530145645,2.12335467338562,78.87287139892578,-0.9374401232270451,-4.485462775220264,-89.43803356518919,5.8231993,5.207726,9.711064,9.328531,-11.817537,-3.5592918,4.6782517,-4.506917,-9.345838,10.157785,-8.406268,3.903631,-2.308753,0.7780452,9.04889,-4.130258,12.25575,-38.239395,64.66433,4.681939,1.5767466,6.42225,-7.9042273,-14.27017,46.616066,61.313538,2.3624556,-0.122442804,-3.962902
50,0.03632998839020729,2.116549491882324,78.87305450439453,-0.9352593220203784,-4.465849689854322,-89.43805569606852,5.8062463,5.203506,9.710187,9.323342,-11.821116,-3.5496528,4.654594,-4.5120454,-9.352278,10.168773,-8.414041,3.9040723,-2.3078403,0.7833603,9.039546,-4.145517,12.241996,-38.24567,64.69093,4.6616335,1.5541619,6.450675,-7.916251,-14.269569,46.62435,61.31561,2.3796358,-0.11503272,-3.9872332
51,0.03825744614005089,2.1122660636901855,78.87286376953125,-0.9336087860853144,-4.4454162899541805,-89.43871104276869,5.7860947,5.201592,9.709366,9.321545,-11.824492,-3.5441768,4.628752,-4.5156255,-9.358911,10.182095,-8.423271,3.9030051,-2.3046181,0.7893012,9.028997,-4.1653504,12.228742,-38.258053,64.7287,4.6360536,1.5199738,6.477555,-7.929186,-14.269333,46.638577,61.31987,2.4048228,-0.10736934,-4.0151076
52,0.039822086691856384,2.1103463172912598,78.87190246582031,-0.9345560973696783,-4.42839932793381,-89.43930923970808,5.7717466,5.201573,9.708883,9.315345,-11.822183,-3.546977,4.6107335,-4.516041,-9.3631,10.185823,-8.42722,3.899923,-2.2978287,0.7938616,9.024838,-4.178357,12.221043,-38.26052,64.75388,4.621531,1.478263,6.487432,-7.940302,-14.269335,46.64447,61.320854,2.4292846,-0.10264805,-4.0364194
53,0.03894289210438728,2.1081085205078125,78.87103271484375,-0.9353278198373448,-4.416207408532117,-89.44041071835983,5.764153,5.2041636,9.70899,9.304742,-11.811543,-3.5635436,4.597982,-4.5134935,-9.362695,10.188316,-8.430292,3.8929749,-2.286093,0.7967803,9.0284395,-4.198508,12.208749,-38.2441,64.79066,4.623795,1.4159324,6.4716945,-7.953728,-14.269017,46.643505,61.322834,2.4586122,-0.10195793,-4.0473228
54,0.03659296780824661,2.1083335876464844,78.87018585205078,-0.9378761391965339,-4.4071244726283725,-89.44170798018783,5.760989,5.2095385,9.709421,9.291367,-11.795291,-3.5903046,4.591395,-4.5075445,-9.36044,10.184192,-8.4301405,3.8829389,-2.2692049,0.79962397,9.036886,-4.2089086,12.203692,-38.220062,64.8137,4.635986,1.3417711,6.4402747,-7.965262,-14.268781,46.634933,61.323513,2.4881816,-0.10317902,-4.053361
55,0.03426077589392662,2.109894275665283,78.87065887451172,-0.9414178493773856,-4.398519935739164,-89.44292471190087,5.7589755,5.2151127,9.710032,9.276355,-11.777768,-3.6173375,4.5862923,-4.500784,-9.357195,10.17754,-8.42817,3.8735812,-2.2594113,0.80173314,9.054307,-4.2237115,12.1963415,-38.17546,64.83727,4.6629076,1.2674845,6.4025655,-7.9843044,-14.267959,46.623734,61.322342,2.5107412,-0.104867764,-4.0565434
56,0.03126383572816849,2.1067192554473877,78.8717041015625,-0.9435410864681871,-4.38652409973286,-89.44317610904278,5.7503695,5.219422,9.710346,9.266941,-11.7661085,-3.6348228,4.5771666,-4.495483,-9.354548,10.17086,-8.425307,3.8685749,-2.248496,0.80390304,9.0632925,-4.232357,12.194858,-38.161957,64.85061,4.6710744,1.2138435,6.3795123,-7.9973526,-14.267714,46.62065,61.31998,2.5372248,-0.10604246,-4.0687194
57,0.028614571318030357,2.1043057441711426,78.87235260009766,-0.9452830658291149,-4.370290697674195,-89.44155456780392,5.7356014,5.2202744,9.710717,9.260054,-11.759878,-3.6379042,4.564014,-4.492878,-9.351867,10.161975,-8.419886,3.8710556,-2.247514,0.80474824,9.077014,-4.2484875,12.1929,-38.145794,64.86006,4.681552,1.1818385,6.367445,-8.02011,-14.267297,46.62092,61.315704,2.558901,-0.10692225,-4.088828
58,0.029226671904325485,2.1025915145874023,78.87261199951172,-0.9440113607980775,-4.35120887262776,-89.4386414915388,5.715324,5.219969,9.710878,9.257916,-11.758277,-3.6326654,4.5483403,-4.4913597,-9.348896,10.151559,-8.412787,3.8782392,-2.2543485,0.8061993,9.090153,-4.2645755,12.190264,-38.133434,64.86493,4.6892524,1.1647673,6.3629274,-8.047359,-14.266514,46.630577,61.31172,2.5821135,-0.10780318,-4.1156745
59,0.032141003757715225,2.1025705337524414,78.871826171875,-0.9440085837108344,-4.331765508951538,-89.43665941689426,5.6947036,5.219645,9.711466,9.255726,-11.757799,-3.6251526,4.5319066,-4.4897227,-9.346481,10.141122,-8.405374,3.8853662,-2.2583897,0.806953,9.100033,-4.27745,12.189571,-38.13363,64.86719,4.6924973,1.1580456,6.364518,-8.0674715,-14.266258,46.637157,61.304626,2.5988941,-0.10789884,-4.142239
60,0.029445050284266472,2.1012051105499268,78.87212371826172,-0.945832898900297,-4.31388158910664,-89.4377659108211,5.67658,5.2223673,9.712409,9.254333,-11.758058,-3.6216393,4.517603,-4.485486,-9.346112,10.129081,-8.397274,3.8873918,-2.2637875,0.80821705,9.115303,-4.298767,12.188685,-38.138546,64.87814,4.687352,1.1550554,6.3688717,-8.093946,-14.26556,46.650036,61.299797,2.6147676,-0.106175736,-4.162212
61,0.027193844318389893,2.1013076305389404,78.87199401855469,-0.9480759710368752,-4.30081271761843,-89.44451981571606,5.66625,5.2285004,9.71479,9.250433,-11.758404,-3.6253362,4.506694,-4.478688,-9.348582,10.119917,-8.391922,3.8816903,-2.2653923,0.8094669,9.128561,-4.310957,12.188745,-38.14359,64.88988,4.689572,1.1612655,6.3757925,-8.107693,-14.265357,46.655186,61.291267,2.6140828,-0.10371292,-4.1776934
62,0.02384667843580246,2.099003314971924,78.87318420410156,-0.9535020969733026,-4.287550116696047,-89.45526482288284,5.655975,5.2385063,9.717911,9.248146,-11.760635,-3.6326659,4.4963326,-4.4685245,-9.353201,10.107299,-8.384607,3.8709915,-2.2655666,0.81004125,9.154264,-4.3445835,12.189265,-38.1598,64.914116,4.6808825,1.1764108,6.389764,-8.132906,-14.2648735,46.667603,61.279114,2.6169755,-0.09828627,-4.197725
63,0.021059531718492508,2.092656135559082,78.87499237060547,-0.9590766687869835,-4.275090009047419,-89.46526878068182,5.6458845,5.249227,9.720466,9.247263,-11.762764,-3.638831,4.48917,-4.457289,-9.358466,10.090358,-8.374999,3.859601,-2.2631183,0.8099762,9.17611,-4.3805013,12.191004,-38.194283,64.94449,4.653675,1.1908997,6.405951,-8.154756,-14.263114,46.681416,61.271145,2.618734,-0.092351906,-4.2036204
64,0.016490306705236435,2.0889549255371094,78.8782958984375,-0.9623417843360166,-4.2588266014926885,-89.47053992404963,5.629474,5.2574224,9.721306,9.248919,-11.763392,-3.6390307,4.477275,-4.4484625,-9.361508,10.076571,-8.366388,3.851815,-2.2670455,0.8102138,9.190729,-4.3989735,12.192911,-38.210796,64.96103,4.632868,1.1964118,6.418104,-8.171672,-14.261541,46.675865,61.264637,2.5939834,-0.083008915,-4.174656
65,0.0188167504966259,2.086167335510254,78.8800277709961,-0.9660880537563221,-4.237676798844322,-89.46799179743606,5.6033854,5.2625704,9.719414,9.255726,-11.761225,-3.628713,4.461851,-4.442311,-9.361794,10.061867,-8.355921,3.8494892,-2.2767045,0.8095651,9.1993265,-4.407072,12.196073,-38.21434,64.96807,4.6043468,1.1838036,6.426459,-8.188061,-14.25935,46.64859,61.262585,2.5347867,-0.06439373,-4.0924234
66,0.019338179379701614,2.0840835571289062,78.88172912597656,-0.9677046935677797,-4.214066558709684,-89.46061494691226,5.5701284,5.2674627,9.715344,9.269704,-11.75925,-3.6117177,4.4461813,-4.4362597,-9.3606615,10.0435295,-8.342539,3.849852,-2.2764063,0.8074502,9.214544,-4.421234,12.203213,-38.212273,64.96878,4.578507,1.1597991,6.4281445,-8.203443,-14.254916,46.568027,61.259792,2.4245114,-0.0399872,-3.9616883
67,0.014003497548401356,2.084831476211548,78.88223266601562,-0.9697412016426601,-4.188757640386291,-89.45307869592187,5.536817,5.2711873,9.711631,9.279887,-11.755478,-3.5953312,4.4283066,-4.4309406,-9.358765,10.02677,-8.330584,3.850909,-2.2942219,0.8067922,9.2179575,-4.420161,12.206441,-38.20359,64.96911,4.545372,1.138544,6.4322677,-8.219592,-14.253252,46.526337,61.261833,2.3452137,-0.021118624,-3.836616
68,0.009310689754784107,2.084038257598877,78.88265228271484,-0.9730557796248691,-4.164299404420756,-89.44964111217968,5.5087523,5.276388,9.709437,9.284754,-11.753526,-3.5875473,4.4121065,-4.4240556,-9.357993,10.008882,-8.3204,3.8499918,-2.296465,0.8039858,9.231314,-4.431187,12.213474,-38.200264,64.96989,4.5315633,1.1338415,6.431114,-8.232181,-14.250203,46.458206,61.257988,2.2835126,-0.021555122,-3.7400815
69,0.0066674393601715565,2.079439878463745,78.8842544555664,-0.9765097769441193,-4.140094014334403,-89.45248557841892,5.4879336,5.282268,9.709855,9.278402,-11.75195,-3.5920706,4.394991,-4.416223,-9.358859,9.993774,-8.315521,3.846571,-2.3017063,0.80098796,9.237752,-4.440675,12.218675,-38.21107,64.97808,4.5228696,1.1528287,6.4304047,-8.241539,-14.248353,46.422935,61.25534,2.2982361,-0.05280056,-3.6968129
70,0.0012796951923519373,2.070648431777954,78.88555908203125,-0.9787651588180576,-4.115481598420248,-89.45875633307045,5.471303,5.288393,9.711516,9.2653675,-11.751267,-3.6042843,4.3766184,-4.4078746,-9.360575,9.9812155,-8.314515,3.8419185,-2.314465,0.7984649,9.239464,-4.444485,12.220992,-38.21955,64.98917,4.524401,1.1862612,6.4293346,-8.249833,-14.247706,46.410305,61.253113,2.3605373,-0.10375037,-3.6838086
71,-0.002676530973985791,2.0628244876861572,78.88623046875,-0.9820214810254403,-4.091075459616997,-89.46621795154361,5.455704,5.29532,9.714004,9.251612,-11.750723,-3.6187289,4.357928,-4.399098,-9.361729,9.97008,-8.314622,3.8366258,-2.3163054,0.79524565,9.244037,-4.4573593,12.2258415,-38.243084,65.00268,4.5162554,1.2258987,6.427786,-8.257214,-14.246434,46.390244,61.252388,2.42949,-0.15849166,-3.6822355
72,-0.004371958319097757,2.057342767715454,78.88470458984375,-0.9848277734183178,-4.0677963500940875,-89.47219840155294,5.440468,5.303102,9.716478,9.24045,-11.748963,-3.6301084,4.341337,-4.3894014,-9.361354,9.957639,-8.311853,3.8311925,-2.3034265,0.7901139,9.249422,-4.47352,12.237667,-38.28835,65.01382,4.480872,1.2608764,6.429669,-8.2543125,-14.243384,46.35999,61.24651,2.4707549,-0.19314648,-3.6819546
73,-0.006931242533028126,2.050609588623047,78.88371276855469,-0.9893180080847499,-4.047871674212271,-89.47570822757753,5.426831,5.311224,9.718396,9.234024,-11.7454,-3.6370149,4.325384,-4.38002,-9.358346,9.951533,-8.309118,3.8265193,-2.3103633,0.79001063,9.258514,-4.478691,12.239116,-38.294716,65.02471,4.437784,1.2879903,6.4344673,-8.257916,-14.243033,46.35937,61.243053,2.4803557,-0.199187,-3.6821752
74,-0.009766988456249237,2.04402756690979,78.88257598876953,-0.9939662747687712,-4.02507216927278,-89.47853865978915,5.4068103,5.3213706,9.720276,9.234044,-11.74188,-3.6424518,4.3073316,-4.3687563,-9.353612,9.942146,-8.301912,3.8216286,-2.3107123,0.78800416,9.272293,-4.502951,12.2445345,-38.320763,65.040535,4.352521,1.3222207,6.4434915,-8.267876,-14.241479,46.362144,61.23939,2.478256,-0.19057563,-3.6881824
75,-0.01666833832859993,2.036594867706299,78.88313293457031,-0.9981812382518306,-4.004785941801192,-89.48131053588824,5.3907084,5.3318133,9.72286,9.233839,-11.73922,-3.6468925,4.2915525,-4.357642,-9.3484535,9.935762,-8.2969055,3.8158505,-2.3050416,0.7862583,9.284482,-4.5224366,12.251994,-38.35506,65.05494,4.266164,1.3472829,6.452954,-8.270989,-14.238859,46.365612,61.236763,2.4711308,-0.17578633,-3.6972919
76,-0.02091255597770214,2.030580759048462,78.88372802734375,-1.0027696651611648,-3.9846426566218023,-89.48469303019714,5.3756495,5.3429527,9.726968,9.233995,-11.740293,-3.6508703,4.2765403,-4.346128,-9.344053,9.93036,-8.29462,3.807811,-2.3008096,0.78404,9.292766,-4.5364776,12.260212,-38.38455,65.06954,4.207157,1.3585697,6.457997,-8.268839,-14.235403,46.366863,61.231934,2.4622161,-0.16301475,-3.7011957
77,-0.024182802066206932,2.02087140083313,78.88353729248047,-1.0077001173557598,-3.966988980676079,-89.48942994635475,5.3658524,5.3546824,9.734563,9.233376,-11.746894,-3.6540213,4.2659807,-4.334244,-9.340046,9.92521,-8.296206,3.795185,-2.306097,0.783958,9.299446,-4.5354133,12.266503,-38.39179,65.07855,4.1980624,1.3507298,6.457962,-8.2673645,-14.232386,46.367626,61.230396,2.4452372,-0.15375641,-3.6932888
78,-0.026939820498228073,2.011551856994629,78.8852310180664,-1.0118601926682274,-3.9504327067158402,-89.49516613328588,5.359626,5.3669906,9.744806,9.231475,-11.756427,-3.6562188,4.2545047,-4.3225565,-9.335505,9.927573,-8.30388,3.779333,-2.3145237,0.7851894,9.304757,-4.52893,12.2696,-38.391495,65.08744,4.2118983,1.3289211,6.4551444,-8.265116,-14.230726,46.369522,61.229164,2.4230294,-0.14316261,-3.6792493
79,-0.03577959164977074,1.9984967708587646,78.88421630859375,-1.0160257193599145,-3.93176730640161,-89.50014905171032,5.3497596,5.378648,9.753444,9.230799,-11.766814,-3.658144,4.2367086,-4.3123198,-9.332199,9.938516,-8.316422,3.764744,-2.331724,0.7839926,9.308585,-4.512842,12.280952,-38.3763,65.085884,4.2424107,1.3002571,6.447349,-8.266132,-14.223989,46.377235,61.23051,2.399507,-0.13211532,-3.6654487
80,-0.04264868423342705,1.9905799627304077,78.88396453857422,-1.0200025822735999,-3.911511050354166,-89.5016793646011,5.337367,5.3894305,9.755471,9.226632,-11.772684,-3.6606264,4.224138,-4.301063,-9.333882,9.932767,-8.319161,3.7559333,-2.3406115,0.7857598,9.312025,-4.509811,12.282755,-38.37425,65.09126,4.265873,1.2794186,6.439502,-8.261318,-14.222837,46.378998,61.22905,2.386076,-0.12465522,-3.6604912
81,-0.044322751462459564,1.9830191135406494,78.88410186767578,-1.0264759073881282,-3.8789430133582474,-89.49807212298293,5.302909,5.402037,9.74567,9.229628,-11.775332,-3.6634195,4.2073956,-4.2863183,-9.343941,9.902817,-8.3062525,3.755698,-2.35366,0.78422374,9.307217,-4.511735,12.293963,-38.36557,65.09546,4.298128,1.2554917,6.418964,-8.256801,-14.215708,46.385067,61.225258,2.380439,-0.116064,-3.6690109
82,-0.047675441950559616,1.971157431602478,78.88416290283203,-1.0327881856437728,-3.8431932695158983,-89.49162775682106,5.266285,5.411795,9.729512,9.224724,-11.771223,-3.6658921,4.1864953,-4.2734547,-9.358239,9.871911,-8.29179,3.7618542,-2.3612788,0.78594434,9.300469,-4.5182333,12.299413,-38.36699,65.09755,4.3321233,1.2363913,6.39657,-8.249843,-14.212248,46.386806,61.22248,2.382667,-0.11064172,-3.6852624
83,-0.05331360548734665,1.953425645828247,78.884521484375,-1.03782932031563,-3.807479450536599,-89.48370227836631,5.227608,5.4218197,9.712092,9.222986,-11.768876,-3.6695962,4.163935,-4.2609177,-9.37344,9.845327,-8.279595,3.7684236,-2.3643765,0.7809352,9.2940855,-4.528133,12.314184,-38.37388,65.096825,4.3562713,1.217927,6.3731227,-8.238851,-14.202788,46.38392,61.218075,2.3875935,-0.10616708,-3.704344
84,-0.06861378997564316,1.9627712965011597,78.88672637939453,-1.0432802828607137,-3.7795551710242927,-89.47706686912235,5.201505,5.4310107,9.70142,9.21761,-11.7686825,-3.6756704,4.149213,-4.249511,-9.384162,9.823159,-8.270711,3.7699723,-2.3647835,0.77182215,9.295581,-4.5322475,12.336911,-38.37927,65.085625,4.3624573,1.2042192,6.360343,-8.229119,-14.187968,46.37463,61.21681,2.388846,-0.10315361,-3.7150183
85,-0.07796279340982437,1.9552704095840454,78.88815307617188,-1.0447079692846728,-3.7614470810622924,-89.47031565939679,5.1891465,5.4394293,9.698611,9.210932,-11.7746,-3.6845317,4.13952,-4.240022,-9.389781,9.816438,-8.270692,3.7641628,-2.3679512,0.7637721,9.306117,-4.5376472,12.347468,-38.37412,65.077255,4.344804,1.2006204,6.366091,-8.218389,-14.180894,46.366474,61.211338,2.3890998,-0.100276805,-3.712964
86,-0.08928032964468002,1.9498188495635986,78.88825225830078,-1.0467072910345305,-3.7495216961670703,-89.46275914596757,5.1853366,5.447593,9.699992,9.202634,-11.783628,-3.6956537,4.1366544,-4.231159,-9.392985,9.812413,-8.272561,3.7541368,-2.3717165,0.7556932,9.321517,-4.5445876,12.352218,-38.367043,65.07069,4.307265,1.203534,6.384128,-8.205362,-14.177612,46.35938,61.203518,2.3905022,-0.09781301,-3.704081
87,-0.08815166354179382,1.9400070905685425,78.88834381103516,-1.0475666048341934,-3.7404209539807267,-89.45795405276917,5.186736,5.4554944,9.705125,9.1945915,-11.793284,-3.7083194,4.1369524,-4.222679,-9.393449,9.809997,-8.276226,3.742856,-2.3722029,0.73778677,9.342301,-4.552074,12.37327,-38.349922,65.06139,4.272831,1.200357,6.398474,-8.1930065,-14.162924,46.342377,61.19611,2.3879423,-0.09691731,-3.693863
88,-0.09886609762907028,1.9300580024719238,78.88756561279297,-1.047215559164366,-3.7323488661852458,-89.45965462549448,5.1950774,5.4608984,9.7140045,9.181208,-11.797446,-3.7216778,4.1368256,-4.2169447,-9.389806,9.8117895,-8.2834835,3.7339041,-2.370191,0.7234247,9.360588,-4.54808,12.395735,-38.334736,65.0447,4.2536907,1.1853697,6.40519,-8.18374,-14.1477,46.331852,61.19634,2.3911092,-0.09910887,-3.69006
89,-0.09848179668188095,1.91781485080719,78.88755798339844,-1.046589820600006,-3.723864439416411,-89.4706172277327,5.2052364,5.4660316,9.72725,9.173169,-11.79975,-3.7379284,4.138338,-4.212051,-9.381718,9.811586,-8.291623,3.726712,-2.3636687,0.72368383,9.367625,-4.543935,12.39952,-38.332478,65.04832,4.246431,1.1500051,6.40806,-8.170465,-14.145108,46.33061,61.19871,2.467137,-0.11286943,-3.7170131
90,-0.09963343292474747,1.8865125179290771,78.88739776611328,-1.043310786691049,-3.7180011441779217,-89.49206037239644,5.227657,5.468964,9.749459,9.155865,-11.795535,-3.756871,4.142217,-4.20904,-9.365533,9.812976,-8.301799,3.7199864,-2.3450248,0.71507925,9.370941,-4.5360136,12.4171505,-38.33128,65.06223,4.251287,1.0861739,6.4013224,-8.149441,-14.134093,46.338318,61.20151,2.608765,-0.13936019,-3.7750995
91,-0.10448290407657623,1.8680012226104736,78.88626098632812,-1.0400491710710207,-3.711568114982448,-89.51246877059252,5.2476315,5.471971,9.76935,9.142758,-11.792673,-3.7738423,4.1465564,-4.206476,-9.350931,9.813314,-8.312471,3.7152877,-2.3286018,0.70926905,9.371967,-4.5277276,12.430619,-38.33062,65.075455,4.260576,1.0280844,6.3916826,-8.127629,-14.125865,46.346535,61.204426,2.663455,-0.15240611,-3.7983747
92,-0.11107432842254639,1.8561182022094727,78.88388061523438,-1.0387561311993854,-3.7031031782496235,-89.52568451118188,5.259462,5.475455,9.782005,9.135958,-11.794166,-3.7844722,4.1501126,-4.203152,-9.3418455,9.8115835,-8.323108,3.714041,-2.3137035,0.70426154,9.37342,-4.523741,12.438814,-38.32803,65.08326,4.2725744,0.99009454,6.378398,-8.103354,-14.120789,46.353878,61.20526,2.5114625,-0.13380648,-3.7378333
93,-0.11968532204627991,1.8444523811340332,78.88253784179688,-1.036085186051478,-3.691964039436758,-89.52816373870478,5.262097,5.478779,9.783634,9.13233,-11.797975,-3.7851503,4.155303,-4.19923,-9.34118,9.799739,-8.329566,3.7176347,-2.3127856,0.6883901,9.375558,-4.5036664,12.465341,-38.302967,65.05826,4.2981706,0.9752135,6.350627,-8.078486,-14.10371,46.37262,61.207684,1.9496082,-0.05502929,-3.516021
94,-0.12731797993183136,1.8358027935028076,78.88188171386719,-1.0333788875301178,-3.678776530262949,-89.52452030257541,5.2568264,5.4817047,9.7785,9.135426,-11.805004,-3.7788785,4.154686,-4.196464,-9.344689,9.79641,-8.341749,3.7250574,-2.316569,0.6690784,9.37899,-4.481156,12.496997,-38.267292,65.020584,4.334075,0.97403914,6.3131576,-8.054137,-14.0808325,46.39451,61.21334,1.1014774,0.060715094,-3.1796625
95,-0.1325283944606781,1.8229342699050903,78.88256072998047,-1.0317470656266357,-3.6650023664753255,-89.51954730345021,5.251264,5.4846525,9.77251,9.138156,-11.813915,-3.771681,4.1562605,-4.1935925,-9.349657,9.788347,-8.3520565,3.7340198,-2.3157516,0.6518283,9.379935,-4.4696746,12.516319,-38.2381,64.995056,4.3673797,0.9853462,6.2803073,-8.024005,-14.065235,46.40884,61.21261,0.32561105,0.16367486,-2.8685498
96,-0.13828659057617188,1.8018414974212646,78.88269805908203,-1.0280157144461475,-3.6515197055688215,-89.51839303810797,5.251488,5.486444,9.772222,9.135137,-11.823454,-3.7691112,4.156369,-4.1924934,-9.351844,9.786083,-8.365209,3.7425652,-2.315345,0.63737184,9.379585,-4.4580736,12.533578,-38.215836,64.96716,4.3866143,1.0102249,6.2626047,-8.004547,-14.050348,46.415012,61.218933,-0.02021454,0.2090071,-2.7243738
97,-0.14629481732845306,1.7709553241729736,78.88075256347656,-1.0236197214413607,-3.63919854909872,-89.52460333460466,5.2612357,5.487364,9.782536,9.124524,-11.834803,-3.7736788,4.154746,-4.1931787,-9.347934,9.792377,-8.381909,3.7494352,-2.3122156,0.6306019,9.377816,-4.4496984,12.5408535,-38.20734,64.93981,4.3816786,1.0626575,6.2665005,-7.9935765,-14.043622,46.405693,61.225082,0.30229193,0.17085522,-2.843796
98,-0.15220943093299866,1.7463899850845337,78.87843322753906,-1.017322506668012,-3.6271289916316674,-89.53516171230284,5.2768335,5.4869776,9.799387,9.108404,-11.847576,-3.781988,4.1495223,-4.1961412,-9.340199,9.808488,-8.403233,3.756084,-2.3085904,0.6244246,9.375987,-4.4381447,12.549859,-38.20391,64.90147,4.3629284,1.1385999,6.28246,-7.993318,-14.035157,46.384007,61.23879,1.0512888,0.07592838,-3.1317348
99,-0.15492239594459534,1.7307857275009155,78.8772964477539,-1.0116877542293503,-3.6141326880563605,-89.54362814134512,5.293273,5.4856944,9.814159,9.08837,-11.858998,-3.7910545,4.1474366,-4.1994357,-9.335215,9.818401,-8.422444,3.7640316,-2.3035574,0.6175832,9.372092,-4.429479,12.55944,-38.20675,64.867226,4.342761,1.2090389,6.3059855,-7.9936132,-14.026204,46.358234,61.25427,1.8732415,-0.033175904,-3.4423454
100,-0.15916688740253448,1.7183561325073242,78.8753662109375,-1.0071651936340131,-3.598846255097937,-89.54414405887935,5.3018284,5.483256,9.818514,9.07285,-11.86969,-3.797659,4.1485314,-4.2034383,-9.338578,9.819325,-8.439998,3.7750542,-2.3013282,0.61181486,9.365323,-4.423228,12.56451,-38.205727,64.84253,4.339699,1.2474383,6.332061,-7.987135,-14.021417,46.335636,61.268547,2.4085689,-0.10820143,-3.6313493
101,-0.16404137015342712,1.7028363943099976,78.87455749511719,-1.0034366785920594,-3.5800868471757283,-89.53566705528816,5.299719,5.4804873,9.809548,9.063281,-11.879907,-3.8006134,4.1552835,-4.206746,-9.352416,9.803875,-8.453572,3.7900991,-2.3004827,0.60387313,9.354152,-4.417828,12.570848,-38.19676,64.832535,4.367001,1.226978,6.3598447,-7.972254,-14.015833,46.30583,61.28433,2.5296006,-0.131593,-3.6282103
102,-0.16711270809173584,1.6853973865509033,78.87406921386719,-0.9994801990184383,-3.558689666964481,-89.52130471080224,5.292212,5.4768367,9.792172,9.054007,-11.8884,-3.8016844,4.1664767,-4.2101574,-9.373172,9.776454,-8.46445,3.808168,-2.305695,0.5963468,9.337715,-4.4112577,12.57501,-38.183117,64.83313,4.4083934,1.1688696,6.3931656,-7.954635,-14.012428,46.280155,61.303986,2.444105,-0.12915677,-3.5229192
103,-0.17096610367298126,1.665108323097229,78.87361907958984,-0.9962938955805617,-3.5370766064946153,-89.50067594611926,5.2822948,5.4708395,9.768798,9.044842,-11.894751,-3.8022606,4.180101,-4.21554,-9.399502,9.74565,-8.473957,3.8277347,-2.3070529,0.5849752,9.32836,-4.4118686,12.582005,-38.16512,64.8291,4.462206,1.115627,6.424858,-7.9367886,-14.007193,46.245293,61.319412,2.2668316,-0.112324454,-3.404014
104,-0.1756678968667984,1.6448020935058594,78.8732681274414,-0.9915683145955206,-3.5166025656418634,-89.47373399925006,5.2721467,5.461221,9.742255,9.034996,-11.897742,-3.8036408,4.191967,-4.2254515,-9.429176,9.722705,-8.484694,3.8474398,-2.3073306,0.57039785,9.322891,-4.4226813,12.587567,-38.164043,64.81855,4.493434,1.1102685,6.4576445,-7.922224,-14.003118,46.24504,61.329624,2.1589139,-0.091519706,-3.3737884
105,-0.17903678119182587,1.6280475854873657,78.87239074707031,-0.9836535779094324,-3.498804732329524,-89.44035101920737,5.263806,5.4487143,9.713873,9.022743,-11.894924,-3.8087096,4.203028,-4.23893,-9.461903,9.70755,-8.494758,3.8645267,-2.3001873,0.5524411,9.327725,-4.452221,12.590349,-38.184097,64.7932,4.4955873,1.1911298,6.494303,-7.912265,-14.000911,46.28859,61.329865,2.1396923,-0.061263412,-3.4826875
106,-0.1794596016407013,1.6134295463562012,78.8722152709961,-0.9752863347070793,-3.48174050848049,-89.40062384038288,5.2549586,5.434043,9.681964,9.008741,-11.887473,-3.816012,4.2143373,-4.254904,-9.498679,9.694506,-8.503157,3.8804963,-2.3084745,0.53307307,9.326304,-4.476178,12.593595,-38.22256,64.7542,4.461366,1.3267723,6.540851,-7.910108,-13.995864,46.420334,61.33378,2.1735644,-0.018144472,-3.6817331
107,-0.18053941428661346,1.5977916717529297,78.87149047851562,-0.9644733147714817,-3.464233002287438,-89.35461325185477,5.243567,5.41419,9.644714,8.99599,-11.879862,-3.8199317,4.2250032,-4.2766113,-9.539967,9.685446,-8.51403,3.9006252,-2.3229065,0.51013625,9.3285885,-4.5051427,12.593714,-38.251686,64.7208,4.434415,1.4528413,6.579286,-7.913414,-13.991295,46.544014,61.338387,2.2107728,0.023135824,-3.8829255
108,-0.18298256397247314,1.5800793170928955,78.87030029296875,-0.949406669798783,-3.4442371241504204,-89.30173284193596,5.228662,5.3858037,9.599618,8.982479,-11.873812,-3.8149986,4.2363815,-4.3067403,-9.587052,9.675328,-8.527647,3.93031,-2.3468463,0.48392385,9.326999,-4.5274673,12.592364,-38.26922,64.70386,4.42602,1.5065082,6.600802,-7.9202127,-13.988228,46.621704,61.351994,2.2458386,0.047649197,-4.011577
109,-0.18055766820907593,1.5639718770980835,78.8709487915039,-0.9269351697726194,-3.42199804862272,-89.24028391703436,5.2084713,5.3454957,9.54472,8.9721775,-11.872725,-3.7954688,4.2465262,-4.349923,-9.641424,9.670837,-8.548488,3.9720643,-2.3862782,0.45207268,9.320841,-4.5378323,12.59191,-38.27143,64.712456,4.44855,1.4425739,6.5971007,-7.9281654,-13.987421,46.628044,61.372013,2.3408718,0.038659554,-4.051161
110,-0.17749947309494019,1.5466489791870117,78.87049865722656,-0.899344238870734,-3.398026025489409,-89.17061429255011,5.184729,5.2952204,9.48129,8.961885,-11.873068,-3.7656448,4.2556257,-4.403508,-9.702501,9.670658,-8.573892,4.0227656,-2.4397266,0.41451907,9.310622,-4.5440555,12.59138,-38.268673,64.74294,4.482989,1.3024004,6.576527,-7.9439397,-13.986579,46.60316,61.40317,2.4924366,0.0072664022,-4.0432916
111,-0.1760813593864441,1.5321017503738403,78.86933898925781,-0.8724253135293216,-3.3726400458080152,-89.10045647436874,5.160798,5.2436767,9.41728,8.950475,-11.874014,-3.7358444,4.267878,-4.45754,-9.763254,9.663089,-8.597384,4.078369,-2.4935298,0.37760127,9.296296,-4.541951,12.59138,-38.266033,64.75851,4.509808,1.1714,6.55416,-7.951214,-13.986659,46.58051,61.42796,2.5573397,-0.011442133,-4.00336
112,-0.16823306679725647,1.5061805248260498,78.8671646118164,-0.8483013889491453,-3.344099720685061,-89.0314377234685,5.1353,5.196589,9.35348,8.936422,-11.87228,-3.7155015,4.2817683,-4.5060844,-9.822548,9.646355,-8.618355,4.1358237,-2.5241609,0.34054947,9.280814,-4.5509815,12.591283,-38.26615,64.76506,4.5271378,1.0953853,6.5365405,-7.9551535,-13.987031,46.569954,61.45349,2.4090157,0.0040361225,-3.9279208
113,-0.1612507402896881,1.4820729494094849,78.86585235595703,-0.8271454085795455,-3.3070872883750595,-88.95443630718344,5.1052527,5.1513643,9.280687,8.909338,-11.8597765,-3.7092626,4.2951617,-4.550948,-9.889641,9.6187,-8.637528,4.195592,-2.5443923,0.30060938,9.259785,-4.579608,12.5903225,-38.27133,64.75667,4.513435,1.1103259,6.525687,-7.9406614,-13.987655,46.565907,61.45904,1.8296586,0.08857721,-3.7736835
114,-0.15967175364494324,1.4591211080551147,78.86383056640625,-0.8095354526750151,-3.267795310251757,-88.88332439460218,5.0763745,5.112542,9.21305,8.879089,-11.845714,-3.713157,4.314129,-4.5876365,-9.950734,9.573621,-8.649898,4.2574406,-2.5454814,0.2633573,9.232152,-4.6065745,12.58718,-38.282646,64.7214,4.4793096,1.1965611,6.522421,-7.9089828,-13.9888935,46.598587,61.452713,1.0036145,0.21605179,-3.579234
115,-0.15510772168636322,1.4358769655227661,78.86209869384766,-0.7932542476800721,-3.227840649186437,-88.81094125485232,5.04694,5.072889,9.143932,8.849313,-11.832297,-3.716985,4.3351493,-4.624454,-10.012247,9.52366,-8.660225,4.322678,-2.551511,0.22781521,9.203067,-4.6283813,12.583347,-38.290913,64.67825,4.4368095,1.2953084,6.5231566,-7.883963,-13.990316,46.64426,61.453693,0.18211064,0.34053335,-3.3870096
116,-0.14799979329109192,1.412412166595459,78.86260986328125,-0.7767952707226262,-3.19146102677964,-88.7358746963828,5.0196543,5.0293226,9.072389,8.823393,-11.823148,-3.7115276,4.3630595,-4.663506,-10.075648,9.468092,-8.667402,4.391642,-2.5788796,0.19620115,9.172492,-4.6349688,12.575611,-38.288986,64.641785,4.3996987,1.3595254,6.526647,-7.8732038,-13.993264,46.693863,61.468105,-0.36265457,0.4215866,-3.2562337
117,-0.13873110711574554,1.3877568244934082,78.86458587646484,-0.7584952674103514,-3.1606208407241008,-88.66324119840547,4.9974566,4.979054,9.003379,8.802626,-11.820448,-3.6935327,4.3920584,-4.707799,-10.133901,9.420647,-8.677942,4.4694796,-2.5989714,0.16234502,9.153953,-4.6410174,12.573961,-38.289124,64.61743,4.3861427,1.3648957,6.5285373,-7.877583,-13.994174,46.700554,61.493004,-0.52000916,0.44535938,-3.225057
118,-0.12480593472719193,1.3620660305023193,78.86558532714844,-0.7392707612080296,-3.130710455133385,-88.57254119684075,4.9717503,4.921948,8.915374,8.783689,-11.818022,-3.6664743,4.439626,-4.7553544,-10.210335,9.345306,-8.676392,4.5557213,-2.6574914,0.13673599,9.136776,-4.638393,12.562715,-38.28381,64.59398,4.3676357,1.3483349,6.536952,-7.898111,-14.000366,46.697628,61.529552,-0.48786348,0.4394765,-3.2441652
119,-0.10117588192224503,1.3284881114959717,78.86433410644531,-0.7191890575250123,-3.102165347611863,-88.49506116532208,4.95153,4.864967,8.84239,8.76451,-11.818671,-3.6371346,4.4737487,-4.804366,-10.271856,9.2942095,-8.684336,4.637665,-2.6968896,0.10359612,9.117846,-4.635123,12.55801,-38.280933,64.575516,4.3460903,1.3284274,6.542733,-7.9126363,-14.003551,46.683403,61.561462,-0.359084,0.41829956,-3.2734473
120,-0.08179221302270889,1.308223009109497,78.8643569946289,-0.7051579920425787,-3.075988827472495,-88.41168198754741,4.9282427,4.8157434,8.764377,8.756379,-11.824921,-3.6092968,4.5263124,-4.8450093,-10.343347,9.214471,-8.676812,4.704995,-2.7202556,0.085526325,9.11532,-4.656698,12.534076,-38.280586,64.56717,4.3205857,1.3319075,6.546553,-7.939483,-14.020524,46.61768,61.604008,-0.2865641,0.3820006,-3.2349696
121,-0.06431616097688675,1.2839457988739014,78.86540985107422,-0.6911251722955677,-3.0468860107127096,-88.34005217207977,4.906169,4.770425,8.702289,8.745696,-11.831232,-3.5826435,4.560668,-4.885793,-10.403044,9.1604185,-8.678277,4.7537794,-2.728036,0.06669855,9.106818,-4.689728,12.497787,-38.280235,64.57332,4.2578287,1.3791466,6.5502825,-7.951205,-14.049492,46.51826,61.63349,-0.29576144,0.33453986,-3.0937738
122,-0.03865448385477066,1.2586780786514282,78.86541748046875,-0.679604563128594,-3.0171671894430827,-88.27224765694801,4.882935,4.728674,8.646448,8.738947,-11.840609,-3.5552895,4.5932736,-4.9244175,-10.459692,9.107252,-8.677828,4.7901154,-2.742815,0.047310047,9.100275,-4.7102423,12.470846,-38.262238,64.56204,4.1746254,1.4525725,6.552052,-7.977247,-14.073315,46.406265,61.678032,-0.30794102,0.2678478,-2.8902776
123,-0.025900356471538544,1.2326751947402954,78.86650085449219,-0.6718846536018721,-2.9907746411799634,-88.20656864145508,4.8635097,4.691522,8.592457,8.735393,-11.853136,-3.5296776,4.635618,-4.9576106,-10.516846,9.041683,-8.669762,4.8180504,-2.742316,0.033146627,9.098914,-4.740956,12.436566,-38.25394,64.55647,4.0997796,1.5248426,6.551162,-7.996289,-14.1067095,46.293972,61.710934,-0.33003253,0.20922105,-2.7014856
124,-0.005936401896178722,1.2039340734481812,78.86714935302734,-0.6661242238225358,-2.9704534699619694,-88.14256141435713,4.853185,4.655966,8.537499,8.729613,-11.866195,-3.5078173,4.661533,-4.992736,-10.573236,9.028382,-8.68923,4.8422565,-2.7324414,0.024056194,9.100662,-4.7723107,12.396383,-38.255386,64.54998,4.062948,1.5693876,6.546146,-8.007704,-14.148935,46.242012,61.725483,-0.34986416,0.18602964,-2.610054
125,0.009702557697892189,1.1718487739562988,78.8666000366211,-0.6684886633830197,-2.958747456051264,-88.07795458524114,4.853124,4.6282516,8.477295,8.724512,-11.880426,-3.4946795,4.697719,-5.0185575,-10.634916,9.017137,-8.709583,4.859994,-2.7190797,0.019062033,9.10906,-4.7886887,12.370825,-38.262783,64.51602,4.0785413,1.5781518,6.53058,-8.026882,-14.176953,46.288727,61.74126,-0.37441424,0.21537709,-2.666516
126,0.030328121036291122,1.1413270235061646,78.86588287353516,-0.6784143918551347,-2.9535336532587775,-88.0138119888102,4.859458,4.6070275,8.414779,8.723763,-11.898151,-3.4876065,4.7382812,-5.0378904,-10.699507,9.01404,-8.733707,4.870074,-2.7010028,0.019519288,9.122823,-4.79979,12.347283,-38.271904,64.47019,4.13134,1.564991,6.50754,-8.047822,-14.203006,46.399944,61.751144,-0.40491676,0.2799545,-2.8175523
127,0.05941502004861832,1.1109040975570679,78.86516571044922,-0.6888237059990558,-2.951961286132725,-87.95257643109332,4.8716493,4.586232,8.354223,8.724243,-11.919369,-3.4789743,4.787177,-5.0558434,-10.762762,9.004028,-8.754685,4.878465,-2.6944816,0.026019258,9.137136,-4.801719,12.317508,-38.268867,64.423294,4.200306,1.5392959,6.486108,-8.073107,-14.235872,46.54739,61.75673,-0.41751635,0.35230678,-2.99273
128,0.08876964449882507,1.0779813528060913,78.8656005859375,-0.6959649626169946,-2.951446540907393,-87.89665627312873,4.8881593,4.5585027,8.300947,8.725365,-11.946085,-3.4600685,4.8321624,-5.082142,-10.818583,9.006008,-8.783497,4.8912215,-2.6902597,0.02870843,9.150141,-4.797564,12.289533,-38.26291,64.37908,4.2628694,1.5117549,6.4720125,-8.101234,-14.267726,46.657562,61.76836,-0.41014266,0.40269485,-3.1189945
129,0.11715659499168396,1.0440655946731567,78.86685180664062,-0.6954823283425957,-2.9535588558598915,-87.84721685499316,4.9111147,4.5217347,8.255761,8.729111,-11.981211,-3.4266777,4.88047,-5.117587,-10.865245,9.009387,-8.815487,4.9093437,-2.6858566,0.026607575,9.161928,-4.788457,12.263694,-38.261486,64.340935,4.3129225,1.4804071,6.468131,-8.129954,-14.299383,46.714863,61.78565,-0.37276158,0.42405143,-3.1796649
130,0.15030235052108765,1.0088895559310913,78.86640167236328,-0.6909567027448513,-2.959147544904376,-87.8028073618055,4.939655,4.479543,8.216141,8.736372,-12.023335,-3.3836856,4.931748,-5.1589293,-10.905493,9.016328,-8.850949,4.9298763,-2.6752148,0.020060485,9.1746645,-4.772138,12.246945,-38.269802,64.297104,4.360047,1.442673,6.469431,-8.163243,-14.322084,46.738064,61.815845,-0.31883273,0.4297547,-3.2118812
131,0.18583855032920837,0.9662505984306335,78.86688995361328,-0.6864486148998831,-2.9638547840964504,-87.76176145066255,4.9704666,4.4346094,8.181016,8.741971,-12.0671835,-3.3381076,4.980674,-5.203448,-10.942882,9.026945,-8.888393,4.9525013,-2.664649,0.011614705,9.184997,-4.751331,12.233384,-38.2787,64.25311,4.403429,1.4044654,6.4744945,-8.196918,-14.342283,46.746323,61.847305,-0.2593508,0.42656174,-3.2262132
132,0.2238987237215042,0.9207614660263062,78.86566162109375,-0.6821514246473271,-2.963615018643051,-87.72297475015043,4.998565,4.390289,8.148735,8.742412,-12.1069975,-3.2970078,5.025927,-5.2481604,-10.980731,9.032401,-8.921493,4.9771757,-2.6525736,0.009090139,9.191728,-4.7332773,12.215165,-38.28991,64.21288,4.438061,1.3735899,6.482449,-8.225009,-14.372147,46.747875,61.86691,-0.20833348,0.41896003,-3.230776
133,0.2603488862514496,0.8809846043586731,78.8650131225586,-0.6818654387074794,-2.9546552206009995,-87.6871745565472,5.0190167,4.3498077,8.120711,8.738276,-12.141988,-3.2643638,5.061188,-5.2909803,-11.02105,9.0349245,-8.948479,4.998531,-2.6388023,0.00914331,9.193095,-4.7180705,12.195349,-38.299725,64.17202,4.4698143,1.3522298,6.4957943,-8.24745,-14.407879,46.73345,61.874393,-0.16469789,0.4030152,-3.2200499
134,0.2969690263271332,0.848307728767395,78.86473846435547,-0.6817159935764563,-2.9397751296588828,-87.65468549873249,5.0359564,4.3098373,8.09702,8.729744,-12.174256,-3.2356791,5.087235,-5.3351164,-11.06137,9.0405445,-8.973794,5.0185485,-2.6350312,0.009108571,9.187939,-4.685436,12.187822,-38.30243,64.11023,4.4954987,1.3382741,6.5133805,-8.289653,-14.422419,46.7146,61.912586,-0.120863155,0.3730681,-3.1929379
135,0.3360188901424408,0.799056887626648,78.86241912841797,-0.6809050423529907,-2.925863694500614,-87.62316375628691,5.056565,4.2661295,8.074809,8.718529,-12.206137,-3.2052805,5.1164336,-5.3822865,-11.099261,9.044343,-9.000982,5.0475388,-2.623852,0.011056079,9.184995,-4.6577787,12.177529,-38.308826,64.058075,4.513591,1.3270152,6.5276856,-8.323758,-14.44467,46.686028,61.93658,-0.094734654,0.34607545,-3.1626816
136,0.38649165630340576,0.761335551738739,78.86089324951172,-0.6768246867004395,-2.919572688006555,-87.5902991157327,5.0875564,4.2140303,8.051223,8.708609,-12.242183,-3.1677139,5.163301,-5.434899,-11.132491,9.035666,-9.029868,5.095714,-2.6061609,0.0055919513,9.185584,-4.6358666,12.170457,-38.318836,64.02741,4.516277,1.3146912,6.5291696,-8.353797,-14.462439,46.674686,61.955727,-0.093568265,0.33560696,-3.149589
137,0.445738285779953,0.6947005391120911,78.85809326171875,-0.6651119797641287,-2.9249541177415312,-87.55403212572284,5.133752,4.149203,8.024205,8.698101,-12.281073,-3.1190672,5.2332997,-5.495451,-11.158283,9.014314,-9.0640135,5.1722565,-2.5734994,-0.0024853079,9.196294,-4.632914,12.156294,-38.347332,64.03196,4.4888134,1.3051252,6.5131574,-8.356885,-14.506295,46.680817,61.92862,-0.13185045,0.35375473,-3.161196
138,0.5005409717559814,0.6480258107185364,78.85890197753906,-0.650368269311848,-2.937661613304014,-87.51595198804284,5.1912947,4.0748987,7.995703,8.685221,-12.321482,-3.0630784,5.3188868,-5.5622015,-11.178718,8.984052,-9.102125,5.2694955,-2.5393763,-0.014155071,9.21266,-4.632853,12.143485,-38.376865,64.05179,4.442044,1.298968,6.4841194,-8.353502,-14.557181,46.706287,61.886395,-0.1994607,0.38893625,-3.1877985
139,0.5512864589691162,0.6071182489395142,78.85838317871094,-0.6338323509902567,-2.95186140986069,-87.47946303422424,5.252658,3.9985359,7.968789,8.671899,-12.3638315,-3.0053906,5.409143,-5.630708,-11.198459,8.950216,-9.140707,5.372459,-2.5061433,-0.026739955,9.227225,-4.624095,12.137847,-38.396492,64.0729,4.3980765,1.2872387,6.4509506,-8.364654,-14.586574,46.73733,61.87098,-0.272423,0.42192322,-3.2149134
140,0.6031807065010071,0.5624445080757141,78.85734558105469,-0.6225535309163984,-2.961403881401109,-87.44744556507068,5.3107915,3.9270065,7.9468427,8.659252,-12.408395,-2.9513366,5.490584,-5.6971583,-11.221743,8.923128,-9.178947,5.466102,-2.4750826,-0.034595225,9.234008,-4.60201,12.132877,-38.397285,64.09084,4.3787246,1.2610239,6.4272203,-8.366204,-14.625339,46.769966,61.841152,-0.31602132,0.44591808,-3.2312577
141,0.6585556864738464,0.5069345235824585,78.85377502441406,-0.6149176556335461,-2.9641164190096294,-87.42181232988962,5.3664637,3.862069,7.9318657,8.640979,-12.451735,-2.9050064,5.560325,-5.760789,-11.251154,8.901807,-9.21418,5.5460773,-2.439355,-0.03485949,9.228498,-4.563618,12.13104,-38.379803,64.10671,4.3969026,1.1997056,6.411057,-8.382651,-14.645573,46.785095,61.85058,-0.337708,0.44437623,-3.2241533
142,0.7191322445869446,0.4520953297615051,78.85448455810547,-0.6119159757396259,-2.963558281062148,-87.39997304772685,5.4204764,3.800916,7.921063,8.623436,-12.497688,-2.8626206,5.6272745,-5.822639,-11.284515,8.878729,-9.246338,5.6203938,-2.4189746,-0.026172316,9.220578,-4.504177,12.130115,-38.32406,64.11376,4.446799,1.1139525,6.3982186,-8.396305,-14.682831,46.818275,61.840275,-0.33639824,0.4353654,-3.2035685
143,0.7791714072227478,0.3977827727794647,78.85661315917969,-0.6116062819373901,-2.9622585397743686,-87.38042155481997,5.4742928,3.7410324,7.912486,8.607604,-12.546104,-2.8177514,5.6916337,-5.8842072,-11.317178,8.860491,-9.280249,5.6926136,-2.3956487,-0.014642312,9.210928,-4.440523,12.131292,-38.26156,64.11582,4.501142,1.0413098,6.3902416,-8.409284,-14.719506,46.844406,61.832157,-0.3218968,0.42154187,-3.182671
144,0.8422477841377258,0.3469667136669159,78.85751342773438,-0.6102494184892352,-2.963156045358862,-87.36088903565197,5.528299,3.6795182,7.903763,8.597857,-12.5990305,-2.7639978,5.758349,-5.946529,-11.345714,8.84411,-9.315625,5.766484,-2.3702726,-0.0046375454,9.20429,-4.3794413,12.134036,-38.199482,64.106865,4.541374,1.0194167,6.388961,-8.422842,-14.753462,46.866833,61.822792,-0.28984007,0.41131237,-3.1749744
145,0.9055653810501099,0.29301968216896057,78.85888671875,-0.6086896248082763,-2.967780579057313,-87.34094839593425,5.5824513,3.6165035,7.8942494,8.5956,-12.656608,-2.6971865,5.8295856,-6.008997,-11.369052,8.827885,-9.351329,5.843488,-2.334235,0.001975744,9.201358,-4.328932,12.135909,-38.148376,64.08431,4.559537,1.0762779,6.399876,-8.438006,-14.775361,46.888042,61.81863,-0.2198773,0.41026592,-3.2100232
146,0.9702931046485901,0.23499764502048492,78.8583755493164,-0.6095579665531807,-2.974323124275824,-87.3215225567671,5.6362534,3.5530987,7.88504,8.599283,-12.7183695,-2.6215482,5.9018865,-6.0715437,-11.38902,8.814207,-9.387755,5.921577,-2.2967505,0.00872817,9.201518,-4.2792172,12.137294,-38.09102,64.0476,4.5711875,1.1857922,6.4199038,-8.453871,-14.794905,46.914223,61.81123,-0.117306024,0.41405913,-3.271816
147,1.0453423261642456,0.1755739152431488,78.85922241210938,-0.6103004668708897,-2.980794833737821,-87.3029893934843,5.690766,3.4895957,7.8765206,8.605423,-12.783352,-2.5434237,5.975704,-6.133698,-11.407291,8.800662,-9.425323,5.9989324,-2.2699716,0.018592108,9.200926,-4.2233186,12.139372,-38.02104,64.011246,4.5791135,1.304258,6.440052,-8.4712715,-14.816186,46.93334,61.803066,-0.026759455,0.41288024,-3.3066905
148,1.1175748109817505,0.11616193503141403,78.8598861694336,-0.6135890565850188,-2.985306338688178,-87.28560436331722,5.749093,3.4252226,7.86873,8.606411,-12.848266,-2.4691014,6.049525,-6.196378,-11.424946,8.786846,-9.4639845,6.0737386,-2.2500832,0.030732872,9.193059,-4.1635013,12.142518,-37.954308,63.9993,4.579232,1.3883502,6.452716,-8.486733,-14.834556,46.91624,61.80431,0.0035395152,0.3959111,-3.261715
149,1.1912161111831665,0.053874969482421875,78.86016082763672,-0.618107539191988,-2.9852417833536506,-87.27107536191488,5.809036,3.3619995,7.86319,8.602918,-12.913697,-2.401942,6.120702,-6.257609,-11.440326,8.774136,-9.506115,6.1441917,-2.2406318,0.04787083,9.17414,-4.095763,12.148044,-37.88709,64.02023,4.5826344,1.4209841,6.450871,-8.500315,-14.8499365,46.86648,61.82096,-0.041384734,0.35139978,-3.13502
150,1.2694345712661743,-0.010290073230862617,78.86181640625,-0.6251804396626837,-2.9823311707077855,-87.25870012361942,5.872209,3.299256,7.859342,8.594065,-12.979098,-2.338075,6.191484,-6.3179965,-11.45351,8.76057,-9.549717,6.211546,-2.2367291,0.06779001,9.152787,-4.0242457,12.15832,-37.81557,64.05814,4.589856,1.4268837,6.43803,-8.511127,-14.8674,46.78505,61.839695,-0.13977566,0.28765836,-2.9482927
151,1.346637487411499,-0.07898405194282532,78.86331176757812,-0.6319175416154826,-2.9812994197004254,-87.24518211968989,5.9369216,3.234978,7.8539906,8.589672,-13.048734,-2.2728004,6.2627378,-6.3808427,-11.467793,8.754672,-9.598257,6.278097,-2.2336981,0.08713015,9.135307,-3.9485233,12.176914,-37.74404,64.09185,4.5819244,1.4271468,6.4256997,-8.5142565,-14.889624,46.6543,61.84335,-0.2805682,0.22519852,-2.688097
152,1.4287863969802856,-0.1538916975259781,78.86307525634766,-0.6391163422044037,-2.985923046430046,-87.22716608642814,6.0076523,3.1658828,7.844285,8.5869055,-13.120756,-2.2014372,6.341962,-6.4484453,-11.487377,8.750706,-9.647691,6.3461337,-2.2316825,0.10349957,9.123903,-3.871,12.201196,-37.675632,64.111244,4.5357614,1.4406213,6.4257216,-8.512443,-14.912681,46.463535,61.832066,-0.45027763,0.18149284,-2.3407989
153,1.5142937898635864,-0.22831200063228607,78.86215209960938,-0.6460210856123092,-2.999210236416912,-87.20281516957789,6.0863156,3.0928547,7.828128,8.587392,-13.195893,-2.1236458,6.4348736,-6.5198402,-11.5139265,8.744449,-9.696882,6.4180017,-2.2399802,0.12102127,9.125443,-3.7858677,12.230828,-37.594025,64.09965,4.419451,1.4800857,6.444737,-8.510119,-14.936461,46.180817,61.80153,-0.6828106,0.16394013,-1.8456054
154,1.6049799919128418,-0.29861781001091003,78.86124420166016,-0.6535048766701649,-3.0181595214140158,-87.17438036162604,6.170254,3.016696,7.807491,8.5917,-13.274573,-2.0414295,6.534965,-6.5947924,-11.544849,8.743448,-9.750483,6.491672,-2.246008,0.13795052,9.137681,-3.6977742,12.272331,-37.515488,64.0657,4.249145,1.5329586,6.474842,-8.498866,-14.966701,45.80802,61.747856,-0.9772805,0.15947045,-1.2273897
155,1.693806767463684,-0.3683227300643921,78.8624496459961,-0.6606176887494729,-3.0389775054843877,-87.14378011795993,6.256566,2.9368463,7.785115,8.596642,-13.355021,-1.9542098,6.6370697,-6.6738386,-11.578928,8.744642,-9.803161,6.563175,-2.2487087,0.14949825,9.148212,-3.6134448,12.313128,-37.445194,64.04299,4.096401,1.579244,6.506564,-8.483535,-14.994884,45.429634,61.688667,-1.2532967,0.15875119,-0.6038375
156,1.7921075820922852,-0.44452986121177673,78.86305236816406,-0.6651267344292401,-3.0577419900400455,-87.11317295970446,6.339446,2.8528757,7.7637773,8.605118,-13.438435,-1.8611614,6.7323985,-6.7582045,-11.614502,8.755142,-9.856208,6.6287007,-2.225585,0.1477741,9.149434,-3.5500574,12.3503895,-37.411446,64.062294,4.027006,1.5998168,6.5284824,-8.455016,-15.020003,45.096996,61.62467,-1.4414332,0.15466787,-0.089432925
157,1.893561840057373,-0.5186763405799866,78.86542510986328,-0.6689877254474552,-3.074288783190124,-87.08134876935138,6.41996,2.7660136,7.7426457,8.614893,-13.523662,-1.7608707,6.8217597,-6.846063,-11.653417,8.773789,-9.910155,6.68819,-2.1398451,0.120929174,9.137892,-3.5191886,12.39662,-37.451786,64.134224,4.081867,1.5874306,6.5383344,-8.382118,-15.053656,44.732063,61.52343,-1.5349637,0.14551963,0.38377985
158,1.9939842224121094,-0.5974942445755005,78.86666870117188,-0.6741876145991532,-3.0902838680898173,-87.04755217041608,6.4987774,2.6768367,7.720588,8.628603,-13.611908,-1.6540406,6.9095864,-6.936628,-11.695957,8.796087,-9.963198,6.7435207,-2.0422344,0.08143613,9.1122875,-3.5027013,12.431601,-37.509037,64.254265,4.2263255,1.5512656,6.5437284,-8.299625,-15.081134,44.379192,61.41971,-1.554339,0.13706514,0.84083134
159,2.0971317291259766,-0.6652737855911255,78.8685531616211,-0.6743577351217543,-3.104807454439737,-87.01548090740128,6.576982,2.580303,7.700782,8.640255,-13.700189,-1.5433173,6.988918,-7.0362725,-11.737251,8.830175,-10.015549,6.794424,-1.9055121,0.037137736,9.094677,-3.5099921,12.476968,-37.622128,64.3792,4.3755755,1.504747,6.540638,-8.194286,-15.123049,44.07944,61.293964,-1.5292842,0.13410136,1.1183321
160,2.2010927200317383,-0.7446746826171875,78.867919921875,-0.6666740389772526,-3.1166322694473307,-86.9888419763089,6.6546936,2.4709406,7.6865306,8.643564,-13.78392,-1.4311795,7.0559673,-7.150783,-11.773017,8.876318,-10.062463,6.8408427,-1.8236657,0.007835076,9.088679,-3.5051527,12.506272,-37.684723,64.48703,4.4847856,1.4555625,6.5281186,-8.14833,-15.151195,44.041363,61.22848,-1.442683,0.14159329,1.0405596
161,2.3093338012695312,-0.8169518113136292,78.86727142333984,-0.6563658512287067,-3.122349732681772,-86.96234499685585,6.7255173,2.3527083,7.673666,8.640584,-13.862457,-1.3179115,7.1104846,-7.2775884,-11.812871,8.9324465,-10.107275,6.8835626,-1.7623553,0.0022203892,9.101935,-3.5039244,12.534622,-37.746517,64.565346,4.5246496,1.3899611,6.495498,-8.142513,-15.177142,44.352116,61.21189,-1.2705922,0.16631788,0.3664613
162,2.4272055625915527,-0.8852952122688293,78.86540985107422,-0.6422790708549554,-3.1232200616450974,-86.9359349215411,6.789766,2.228139,7.6615276,8.635849,-13.939149,-1.2022214,7.155874,-7.412634,-11.856955,8.994735,-10.148303,6.9228916,-1.7848595,0.015464633,9.127988,-3.4490047,12.579157,-37.730938,64.57726,4.547835,1.3082975,6.4445224,-8.2007475,-15.20747,45.02229,61.23758,-0.9836574,0.20244963,-0.75305694
163,2.543619155883789,-0.9495460391044617,78.86141204833984,-0.6185813402612225,-3.1262871556643703,-86.92059663039254,6.861809,2.0892377,7.6594324,8.621051,-14.013449,-1.084213,7.190331,-7.5593395,-11.886651,9.072932,-10.181124,6.9581547,-1.8382341,0.020686457,9.169223,-3.378293,12.633344,-37.676003,64.560074,4.5588074,1.2451216,6.392743,-8.291165,-15.226453,45.724937,61.278385,-0.6968042,0.23050657,-1.8802602
164,2.6670777797698975,-1.006949543952942,78.85589599609375,-0.5803204803151435,-3.138027722747852,-86.92696714452924,6.9553337,1.9302863,7.675891,8.589307,-14.085882,-0.9643009,7.2122736,-7.7202215,-11.884244,9.175248,-10.199975,6.9881287,-1.8643111,-0.00070586195,9.221335,-3.3314984,12.677807,-37.637394,64.56023,4.5530777,1.2361698,6.363179,-8.371482,-15.232743,46.136097,61.30016,-0.5196788,0.2394352,-2.5795376
165,2.798363447189331,-1.0649534463882446,78.84705352783203,-0.5320206610069153,-3.146528867709482,-86.95547158952915,7.057358,1.7544686,7.7097626,8.538889,-14.153815,-0.8466495,7.212431,-7.894163,-11.839618,9.291369,-10.218451,7.0162916,-1.8726088,-0.04108171,9.268909,-3.3173335,12.693187,-37.608536,64.594505,4.5201526,1.3204519,6.372016,-8.443181,-15.234037,46.165363,61.30123,-0.49026465,0.22555055,-2.6624327
166,2.9283268451690674,-1.1238689422607422,78.82675170898438,-0.42718412642135156,-3.1369093068198657,-87.01786299240005,7.1782417,1.5073817,7.7776775,8.411446,-14.185123,-0.72337836,6.866623,-8.201701,-11.701768,10.075898,-10.575645,7.0487895,-1.9099799,-0.14401059,9.307271,-3.266978,12.725876,-37.519897,64.57673,4.4733005,1.4700096,6.397866,-8.541766,-15.235281,46.038845,61.287598,-0.5293345,0.19957465,-2.386744
167,3.050236463546753,-1.1811339855194092,78.78280639648438,-0.20010752588892547,-3.1212022110111564,-87.13025451510514,7.3616323,1.1165266,7.9003844,8.143474,-14.149564,-0.5787296,5.828123,-8.780733,-11.409404,12.288396,-11.6280775,7.08434,-1.8665382,-0.3831669,9.348425,-3.2268474,12.794731,-37.46423,64.538315,4.4233236,1.6191596,6.418411,-8.613639,-15.237337,45.758595,61.227253,-0.6182625,0.17304401,-1.9789764
168,3.1737711429595947,-1.2348583936691284,78.72720336914062,0.036895300975556,-3.159723602373514,-87.25592606538811,7.60324,0.71264803,8.032484,7.886526,-14.132866,-0.42026287,4.8613234,-9.356832,-11.121973,14.453933,-12.568823,7.0914125,-1.8010813,-0.6390798,9.4457,-3.2018545,12.857919,-37.414227,64.52808,4.402382,1.6945114,6.420328,-8.676691,-15.24004,45.504684,61.145203,-0.6686445,0.15865651,-1.6788578
169,3.300840139389038,-1.2722467184066772,78.66244506835938,0.30676990331160353,-3.248789238898685,-87.39786572280573,7.904361,0.27093044,8.17524,7.6266923,-14.129229,-0.23654605,3.9323604,-9.965255,-10.836421,16.64108,-13.466079,7.0782537,-1.6922017,-0.9392223,9.603431,-3.175238,12.949334,-37.357098,64.51566,4.4405203,1.6457248,6.3765187,-8.718602,-15.245598,45.248085,61.017452,-0.6777177,0.16767119,-1.4888271
170,3.4221019744873047,-1.3174195289611816,78.59049987792969,0.603865107175352,-3.3744725948544017,-87.55794380238375,8.253573,-0.20652321,8.328352,7.357777,-14.133002,-0.034389477,2.98846,-10.614773,-10.531794,18.92239,-14.36553,7.0434575,-1.5639515,-1.2740686,9.805115,-3.1483757,13.04672,-37.275993,64.51088,4.5218196,1.519338,6.3058743,-8.754065,-15.251793,44.963425,60.85904,-0.67033726,0.1910971,-1.3048772
171,3.541590690612793,-1.3727842569351196,78.51558685302734,0.8966502562236905,-3.545094674242681,-87.73831569555402,8.618121,-0.6695993,8.493751,7.176813,-14.193617,0.16637455,2.0342815,-11.256448,-10.201981,21.29403,-15.183286,6.9611025,-1.4255426,-1.6052854,10.061274,-3.1312313,13.147149,-37.212074,64.50667,4.5933867,1.3980845,6.2457285,-8.795635,-15.2584305,44.706474,60.690536,-0.65006316,0.21142422,-1.1949418
172,3.664672374725342,-1.4433449506759644,78.44183349609375,1.151712066522681,-3.768779986399266,-87.94121712382073,8.970301,-1.0712925,8.676198,7.1711593,-14.355596,0.3463426,1.0819962,-11.839708,-9.844496,23.74006,-15.830036,6.8074865,-1.2919852,-1.8979086,10.383889,-3.121588,13.2581,-37.199413,64.4782,4.6045685,1.3655156,6.231417,-8.853433,-15.265238,44.533936,60.526974,-0.6253291,0.21136591,-1.2270249
173,3.782174825668335,-1.5162354707717896,78.37113952636719,1.3698859407292168,-4.070593166975029,-88.17733964199452,9.421161,-1.4234076,8.883729,7.1674986,-14.530206,0.50740606,0.15055223,-12.357812,-9.4400625,26.28124,-16.282166,6.598696,-1.1573863,-2.1525686,10.79813,-3.12761,13.3733015,-37.253387,64.41519,4.532734,1.4730977,6.2873836,-8.935057,-15.270655,44.507816,60.37441,-0.63960046,0.18491335,-1.4651115
174,3.896519899368286,-1.579084038734436,78.29991912841797,1.5684310420908714,-4.437364866617414,-88.44362837986019,9.95486,-1.7481401,9.111485,7.1647296,-14.716787,0.6583124,-0.77192795,-12.837707,-8.997609,28.917185,-16.58694,6.339444,-1.0162865,-2.3872292,11.288391,-3.146117,13.492983,-37.353554,64.33096,4.4068694,1.6663427,6.3898215,-9.034507,-15.273714,44.583584,60.226925,-0.6758213,0.14171448,-1.8578666
175,4.010301113128662,-1.6381362676620483,78.23238372802734,1.743843120555247,-4.820104223223156,-88.72081441072984,10.512761,-2.0403306,9.345354,7.1629734,-14.909311,0.791198,-1.717148,-13.280057,-8.5594225,31.60139,-16.757904,5.99104,-0.8877383,-2.593539,11.802197,-3.164824,13.617774,-37.47107,64.25406,4.262419,1.8691945,6.50311,-9.142788,-15.2727585,44.665752,60.08308,-0.64400667,0.08768147,-2.300713
176,4.125728607177734,-1.7148172855377197,78.16597747802734,1.8907009417318645,-5.170588867869412,-88.98910333278504,11.036558,-2.2946663,9.572222,7.1624417,-15.1011,0.89826906,-2.7216387,-13.687195,-8.167243,34.29991,-16.81007,5.514174,-0.79111224,-2.7642136,12.286848,-3.1726277,13.7486315,-37.580162,64.21266,4.1331644,2.0068843,6.590945,-9.253716,-15.266927,44.661266,59.94466,-0.45008174,0.027150363,-2.68874
177,4.239585876464844,-1.8016228675842285,78.10540771484375,2.0055475752675003,-5.490841911960908,-89.24565476780728,11.52828,-2.512382,9.790276,7.1614413,-15.293762,0.9699506,-3.7991543,-14.057646,-7.810653,37.04974,-16.71428,4.914261,-0.73940384,-2.8944368,12.748599,-3.1680596,13.887813,-37.67979,64.20941,4.0158596,2.0487204,6.6501794,-9.376147,-15.257004,44.531246,59.80949,0.028553557,-0.05170517,-3.0182512
178,4.345154285430908,-1.8856357336044312,78.05223846435547,2.0950940726330103,-5.802014621009683,-89.4996885481395,12.0198145,-2.6969056,10.007363,7.1479325,-15.482812,1.0128368,-4.926485,-14.395297,-7.4818134,39.853214,-16.471272,4.205665,-0.71817935,-2.991826,13.208581,-3.1567576,14.036045,-37.785275,64.228325,3.8957622,2.039385,6.6974206,-9.507785,-15.244083,44.325752,59.675716,0.7074919,-0.1496441,-3.3359454
179,4.443061828613281,-1.9807336330413818,78.00101470947266,2.158097583623012,-6.083756633124085,-89.74875078833662,12.469801,-2.841884,10.227284,7.160275,-15.681053,1.0433215,-6.084055,-14.711294,-7.2273,42.624325,-16.145689,3.3610828,-0.70875025,-3.0666819,13.636729,-3.1403499,14.190495,-37.892574,64.27753,3.7904098,2.012105,6.726548,-9.626557,-15.22701,44.08557,59.54547,1.3697394,-0.24333373,-3.613406
180,4.544495582580566,-2.0815088748931885,77.95978546142578,2.1978617927419246,-6.3164094190685365,-89.99118032691108,12.874032,-2.9499028,10.452583,7.16133,-15.861567,1.0785568,-7.250376,-15.018288,-7.0916247,45.274326,-15.80192,2.352634,-0.692035,-3.1288989,14.003187,-3.1222346,14.345613,-37.996555,64.371,3.7184534,1.9979329,6.7318397,-9.710489,-15.202508,43.851307,59.42208,1.7983056,-0.30709583,-3.82364
181,4.638593673706055,-2.190788507461548,77.92389678955078,2.213779872932076,-6.490617029802574,-90.24413358652771,13.214572,-3.0152738,10.708519,7.1624093,-16.023945,1.128432,-8.474464,-15.32307,-7.082645,47.8828,-15.392829,1.0394043,-0.648926,-3.1793878,14.302354,-3.1140265,14.498437,-38.097767,64.52463,3.6969912,2.0037305,6.7054396,-9.761263,-15.165669,43.63539,59.308784,1.8931499,-0.32334903,-3.95455
182,4.7015204429626465,-2.2767250537872314,77.8885269165039,2.205450240033187,-6.619180371121328,-90.50223186561288,13.506448,-3.0444605,10.986615,7.16252,-16.17318,1.182963,-9.745198,-15.632878,-7.189009,50.460247,-14.906617,-0.5280057,-0.59653974,-3.2144604,14.548314,-3.111847,14.647985,-38.195522,64.73371,3.713605,2.012106,6.652997,-9.79307,-15.114033,43.419483,59.21108,1.7866266,-0.30766112,-4.0232596
183,4.776700973510742,-2.3898861408233643,77.85890197753906,2.1756175459932923,-6.7144455632973745,-90.73007491111476,13.764065,-3.0482678,11.240278,7.1640444,-16.31872,1.2293367,-10.955484,-15.950407,-7.4163814,52.825825,-14.465575,-2.0831938,-0.56960356,-3.2339363,14.739011,-3.095963,14.791559,-38.286465,64.97267,3.7406657,2.0254807,6.5891843,-9.797396,-15.048786,43.189213,59.133602,1.5993137,-0.28266525,-4.046958
184,4.856951713562012,-2.5337467193603516,77.83519744873047,2.126384677353841,-6.788590328930733,-90.89328756101992,14.002414,-3.0371747,11.423643,7.1660914,-16.46787,1.2547125,-12.004184,-16.266438,-7.7547317,54.810883,-14.194817,-3.346958,-0.60113424,-3.2392125,14.872751,-3.0460336,14.925136,-38.364895,65.216415,3.7529147,2.0463219,6.528801,-9.765922,-14.97463,42.931904,59.079945,1.4536952,-0.2712104,-4.0427203
185,4.935298919677734,-2.7035231590270996,77.81109619140625,2.060595375739469,-6.842657874283394,-90.97450301294137,14.223925,-3.012381,11.515582,7.169622,-16.625143,1.2529516,-12.849642,-16.591782,-8.238992,56.3843,-14.175339,-4.2301707,-0.70479894,-3.2314188,14.942172,-2.9556394,15.044809,-38.42786,65.469505,3.7446215,2.0695124,6.468955,-9.684939,-14.895073,42.628212,59.047596,1.3723227,-0.28143182,-3.990139
186,5.002720832824707,-2.8739097118377686,77.79157257080078,1.9721033234935992,-6.870998379662158,-90.99554783567363,14.421674,-2.9662397,11.54459,7.1741624,-16.785547,1.2318603,-13.553372,-16.915539,-8.851251,57.646343,-14.327856,-4.8737025,-0.85889524,-3.207958,14.951007,-2.840117,15.149183,-38.48119,65.747406,3.7287462,2.0954037,6.404679,-9.558894,-14.811812,42.28702,59.03115,1.2906052,-0.3003298,-3.8879497
187,5.063064098358154,-3.053020477294922,77.77970123291016,1.8626092017943154,-6.874877579502803,-90.98190544350872,14.597157,-2.8953695,11.539827,7.179064,-16.945524,1.1987913,-14.17188,-17.186357,-9.4984,58.623833,-14.532319,-5.3362184,-1.0429521,-3.163353,14.914209,-2.7110472,15.238455,-38.530544,66.038704,3.7095182,2.134562,6.3471313,-9.405815,-14.726507,41.94318,59.023228,1.2106175,-0.3185444,-3.7825782
188,5.1301589012146,-3.2596182823181152,77.7774658203125,1.7312609033341135,-6.855657895003135,-90.95902134571999,14.751139,-2.7968783,11.53022,7.1855574,-17.102537,1.1609882,-14.763465,-17.35574,-10.090611,59.339867,-14.666963,-5.6791396,-1.2383393,-3.0936308,14.846225,-2.5794892,15.314578,-38.582886,66.33157,3.6879864,2.1977084,6.3074536,-9.247217,-14.642045,41.633854,59.02207,1.1324408,-0.32703942,-3.7204223
189,5.209488868713379,-3.494371175765991,77.7794418334961,1.571411544980721,-6.802504778535869,-90.915405673567,14.871585,-2.6608098,11.504967,7.1922407,-17.252762,1.1103785,-15.330931,-17.409742,-10.633805,59.773106,-14.724125,-5.8632836,-1.4563075,-2.9893103,14.7329235,-2.4442647,15.378034,-38.65412,66.637184,3.6613517,2.304136,6.2989755,-9.076705,-14.559376,41.378162,59.02171,1.0690174,-0.32272077,-3.711898
190,5.262972354888916,-3.716458797454834,77.78334045410156,1.384446164752148,-6.718112893585977,-90.844210833503,14.961954,-2.491365,11.455246,7.1996756,-17.39877,1.0463954,-15.850691,-17.371735,-11.166901,59.916664,-14.758246,-5.8713436,-1.7023646,-2.853934,14.573709,-2.3010683,15.42698,-38.735046,66.95729,3.6295018,2.4424727,6.31231,-8.884133,-14.481225,41.154716,59.01984,1.0158018,-0.3101814,-3.7326589
191,5.308158874511719,-3.930779218673706,77.78914642333984,1.1885200170739898,-6.624426474561076,-90.77702761704417,15.048721,-2.307598,11.412195,7.209827,-17.54803,0.9872831,-16.346453,-17.250435,-11.649143,59.82199,-14.738265,-5.7984147,-1.9473265,-2.7043521,14.403378,-2.1515536,15.464514,-38.792683,67.259415,3.6026242,2.577976,6.3240333,-8.686639,-14.408847,40.93812,59.022194,0.94939303,-0.29181087,-3.7772915
192,5.347284317016602,-4.14979362487793,77.79263305664062,1.0006263751876086,-6.543306598863327,-90.74500566088643,15.15951,-2.1288388,11.406815,7.2191153,-17.7037,0.9511755,-16.838737,-17.054644,-12.040691,59.539597,-14.63401,-5.7403483,-2.1641166,-2.5577106,14.257335,-1.995633,15.494543,-38.792366,67.50801,3.5904462,2.67581,6.310414,-8.49845,-14.343707,40.70126,59.02925,0.84359676,-0.26952696,-3.8403714
193,5.3889336585998535,-4.377241134643555,77.79264831542969,0.8247173903644057,-6.483134471567565,-90.76251527711598,15.304404,-1.9557482,11.456531,7.2287397,-17.867577,0.95086205,-17.329561,-16.767387,-12.329246,59.066334,-14.431375,-5.731219,-2.3416598,-2.4155414,14.145926,-1.8269132,15.518309,-38.708645,67.68786,3.5951347,2.71488,6.253142,-8.325015,-14.289641,40.447987,59.0388,0.6717184,-0.23942749,-3.9575412
194,5.432301998138428,-4.620126247406006,77.78890991210938,0.6526314623505616,-6.431677258892021,-90.81071687138363,15.466773,-1.7791308,11.54172,7.239683,-18.036726,0.9733002,-17.807384,-16.389463,-12.537376,58.378284,-14.14939,-5.717859,-2.4972434,-2.2702608,14.050874,-1.6451765,15.536112,-38.564648,67.81684,3.6107183,2.7161458,6.1686034,-8.156309,-14.248012,40.19068,59.04599,0.45544207,-0.20119348,-4.1193156
195,5.4697957038879395,-4.86361026763916,77.78065490722656,0.4840741400820074,-6.380273016964947,-90.87162336603402,15.635337,-1.6047028,11.638388,7.250428,-18.211485,0.9975856,-18.269855,-15.955159,-12.676805,57.492554,-13.801459,-5.6635075,-2.6467066,-2.1264355,13.962462,-1.4581631,15.5502,-38.39578,67.90316,3.636322,2.7135885,6.0849843,-7.9858055,-14.216844,39.919266,59.050644,0.24449223,-0.16274227,-4.252673
196,5.496423721313477,-5.110554218292236,77.76689910888672,0.3204721262516236,-6.320067039170769,-90.9271398833039,15.797053,-1.4376596,11.722578,7.261499,-18.392115,1.0036788,-18.71335,-15.49806,-12.75953,56.423904,-13.403806,-5.5319986,-2.798085,-1.9916327,13.875726,-1.2791535,15.570134,-38.240456,67.957985,3.6734724,2.7368639,6.028526,-7.8090367,-14.183334,39.60212,59.057438,0.07460694,-0.1337767,-4.2820735
197,5.525273323059082,-5.361145496368408,77.75201416015625,0.1589867757383373,-6.248446358153249,-90.96862809194542,15.949066,-1.2736877,11.781913,7.2716036,-18.576546,0.9839649,-19.130756,-15.014746,-12.794131,55.15401,-12.956876,-5.302497,-2.9790864,-1.859163,13.781283,-1.0928253,15.586986,-38.08641,67.979294,3.725891,2.8111277,6.0151367,-7.616998,-14.161006,39.235886,59.05024,-0.017712977,-0.11858573,-4.1251826
198,5.545389652252197,-5.6315789222717285,77.73401641845703,-2.738372170760783e-05,-6.170522941455471,-91.00677202934565,16.098192,-1.1126252,11.831465,7.2822285,-18.766161,0.9502928,-19.52087,-14.4901705,-12.77103,53.67806,-12.45307,-4.998681,-3.1327693,-1.7349044,13.695592,-0.92032397,15.620333,-37.955677,67.959145,3.79229,2.9161654,6.0222206,-7.401194,-14.134545,38.756687,59.029434,-0.09715775,-0.11507865,-3.8345616
199,5.560196399688721,-5.906073570251465,77.7108154296875,-0.14605682312265975,-6.087782542825152,-91.05299938659442,16.247805,-0.96374166,11.887013,7.291564,-18.962997,0.9117027,-19.890394,-13.937916,-12.676045,52.030933,-11.895522,-4.6504297,-3.3054423,-1.6160899,13.60775,-0.74555725,15.644524,-37.818398,67.91325,3.853818,3.007817,6.0410542,-7.1971874,-14.122334,38.35114,59.01968,-0.12980093,-0.110569276,-3.571738
200,5.593785762786865,-6.164856910705566,77.67842102050781,-0.2704989219575882,-6.002277003285505,-91.11818353766478,16.40088,-0.8372503,11.964551,7.3012147,-19.170742,0.87723887,-20.245968,-13.373026,-12.49463,50.24882,-11.287979,-4.28762,-3.4311094,-1.512844,13.531851,-0.6105233,15.677307,-37.738136,67.85364,3.891626,3.046374,6.050834,-6.997084,-14.115372,38.01016,59.02622,-0.16895074,-0.098779604,-3.4772449
201,5.599767208099365,-6.407438278198242,77.63162231445312,-0.35683548141048776,-5.902552150604841,-91.22363746200178,16.54432,-0.74741215,12.086622,7.308974,-19.387482,0.8506275,-20.621445,-12.774238,-12.174947,48.325,-10.640993,-3.9080513,-3.5043254,-1.4361889,13.461379,-0.5044748,15.728842,-37.708363,67.75493,3.891786,3.0051818,6.047092,-6.8194714,-14.114812,37.80048,59.05761,-0.19387966,-0.07527643,-3.6473305
202,5.6046295166015625,-6.667170524597168,77.58618927001953,-0.41804764060928973,-5.791739178767836,-91.356633057158,16.68124,-0.68561167,12.237974,7.3155913,-19.612673,0.82671916,-20.993542,-12.140542,-11.740404,46.238796,-9.947312,-3.5003777,-3.564309,-1.377607,13.391112,-0.41549677,15.776804,-37.68951,67.63433,3.874793,2.9070356,6.041242,-6.669389,-14.118632,37.708904,59.11829,-0.18988338,-0.044303596,-3.9875922
203,5.614298343658447,-6.943699836730957,77.53223419189453,-0.47280946549810465,-5.692890046126915,-91.47862722331487,16.839214,-0.6276162,12.378444,7.3227344,-19.849602,0.8013921,-21.290174,-11.51699,-11.287566,44.008198,-9.184295,-3.0786984,-3.6226087,-1.3280897,13.340313,-0.3208409,15.865294,-37.70716,67.460236,3.845298,2.8006847,6.030949,-6.5154076,-14.132166,37.648674,59.184547,-0.18742384,-0.011610759,-4.357904
204,5.611536026000977,-7.259936809539795,77.49332427978516,-0.5468504926435102,-5.629243177458745,-91.5515881969025,17.046242,-0.54748064,12.468815,7.331399,-20.101448,0.7702675,-21.443886,-10.945278,-10.912869,41.65221,-8.32888,-2.6551929,-3.7143261,-1.2616738,13.307979,-0.24018234,15.945746,-37.765076,67.30954,3.8203645,2.7260745,6.0264735,-6.3445473,-14.149461,37.571682,59.272236,-0.20492545,0.018164262,-4.624685
205,5.590539455413818,-7.617222309112549,77.45997619628906,-0.6511819806070663,-5.6189709928330105,-91.56119515921615,17.32616,-0.42973295,12.49302,7.3422427,-20.375395,0.73211646,-21.41014,-10.420314,-10.643203,39.126408,-7.363825,-2.2041554,-3.8353772,-1.1690791,13.312846,-0.16904135,16.04,-37.904106,67.167076,3.7926643,2.71391,6.03409,-6.1360655,-14.178511,37.4349,59.363922,-0.26797062,0.04357338,-4.745322
206,5.590688705444336,-7.9565277099609375,77.40487670898438,-0.7728078711232812,-5.645648933047646,-91.52974313655315,17.658514,-0.2900753,12.475189,7.3541164,-20.667238,0.6894622,-21.234697,-9.918062,-10.42401,36.4333,-6.301758,-1.7251194,-3.9703615,-1.0594394,13.344552,-0.11640916,16.13712,-38.111126,67.03499,3.7588117,2.7343495,6.0505486,-5.9024487,-14.220099,37.274956,59.46459,-0.35955465,0.067416295,-4.7939577
207,5.588289260864258,-8.27896785736084,77.33537292480469,-0.89364514128674,-5.679520230792053,-91.47459791553248,18.00587,-0.15032886,12.436439,7.367058,-20.966072,0.6435759,-20.996132,-9.452465,-10.229209,33.670975,-5.1682744,-1.267448,-4.1091337,-0.9484651,13.379109,-0.08314711,16.231213,-38.338005,66.91012,3.7262022,2.7439773,6.0598106,-5.65319,-14.271542,37.12113,59.572517,-0.4454228,0.09121678,-4.8061295
208,5.581498622894287,-8.605406761169434,77.26029968261719,-0.9901514969471858,-5.690624860415537,-91.41368512811265,18.331444,-0.032798473,12.397215,7.378337,-21.259623,0.5954126,-20.77517,-9.040038,-10.034089,30.940752,-3.9919827,-0.8817844,-4.241314,-0.85393584,13.391455,-0.06869688,16.320997,-38.538456,66.786644,3.6996968,2.699234,6.0453615,-5.4017115,-14.33031,37.004383,59.69066,-0.49044415,0.11627472,-4.817451
209,5.570051193237305,-8.949536323547363,77.1854019165039,-1.0581230826592505,-5.672793409809844,-91.34960955342241,18.624752,0.05346902,12.360622,7.3895917,-21.548769,0.55027914,-20.60282,-8.6952915,-9.834794,28.26379,-2.7151327,-0.6162004,-4.370928,-0.7819127,13.3772545,-0.075295806,16.403488,-38.699265,66.66077,3.6910427,2.5631804,5.9922934,-5.160266,-14.391629,36.942352,59.831062,-0.47916913,0.14240046,-4.83564
210,5.5535173416137695,-9.316251754760742,77.10907745361328,-1.108423711483784,-5.640325991068172,-91.27551513068026,18.905722,0.12374386,12.318368,7.400049,-21.838263,0.5055695,-20.440842,-8.400565,-9.645155,25.596106,-1.3502061,-0.43168807,-4.501251,-0.7207962,13.348308,-0.10062526,16.483025,-38.84463,66.53342,3.692752,2.3674004,5.9126234,-4.921035,-14.456849,36.916607,59.990456,-0.43278503,0.16893862,-4.84259
211,5.529694080352783,-9.68411922454834,77.025634765625,-1.151597904408614,-5.5952530380856444,-91.19305557146993,19.178986,0.19058381,12.272148,7.410685,-22.124592,0.45068845,-20.267479,-8.131092,-9.466676,22.946144,-0.029201658,-0.24861127,-4.626109,-0.66309065,13.302163,-0.13584344,16.560719,-38.972664,66.412224,3.6900952,2.171587,5.8310738,-4.6723347,-14.526599,36.91014,60.15704,-0.36915794,0.19635402,-4.835696
212,5.497434616088867,-10.06315803527832,76.93744659423828,-1.1919207491845139,-5.540809418268924,-91.10163787515933,19.450693,0.2623902,12.221038,7.4204187,-22.40257,0.37586924,-20.044228,-7.8667135,-9.301389,20.290834,1.1311649,0.013276848,-4.7437253,-0.60526264,13.234518,-0.17692609,16.63073,-39.081657,66.317,3.6676104,2.0345836,5.773238,-4.409903,-14.596226,36.910873,60.33189,-0.30419853,0.224654,-4.8134584
213,5.462992191314697,-10.454292297363281,76.8497314453125,-1.2287022671813075,-5.473364419303093,-90.99914453210882,19.717705,0.34080073,12.164418,7.429031,-22.67516,0.27983245,-19.719141,-7.596781,-9.142168,17.4925,2.17217,0.3861113,-4.8543854,-0.5468993,13.138395,-0.22737299,16.687304,-39.172894,66.26418,3.6046271,1.9778999,5.7474833,-4.133384,-14.65946,36.9153,60.523964,-0.24132618,0.25259656,-4.7682123
214,5.42285680770874,-10.859077453613281,76.75554656982422,-1.2528756424539538,-5.395873305785193,-90.88022543837313,19.9803,0.41279227,12.095358,7.437396,-22.943684,0.16920875,-19.297329,-7.342978,-8.994052,14.548232,3.1628377,0.82609856,-4.9667535,-0.4990365,13.015416,-0.29370308,16.724747,-39.24613,66.25622,3.51588,1.9674147,5.74094,-3.8554428,-14.706387,36.9343,60.750206,-0.17109726,0.2798087,-4.704896
215,5.375401020050049,-11.27193832397461,76.6555404663086,-1.2486336845489017,-5.321973147604049,-90.73463091699212,20.253956,0.45874104,11.997192,7.4429355,-23.199455,0.047111426,-18.821474,-7.1456485,-8.880763,11.632613,4.0308957,1.3010384,-5.0823255,-0.4788512,12.889425,-0.36053142,16.772429,-39.309887,66.240036,3.433224,1.9810725,5.7426825,-3.5437593,-14.775825,36.952724,60.945366,-0.09845893,0.31127554,-4.6343803
216,5.31857442855835,-11.695318222045898,76.53899383544922,-1.1949631979888948,-5.26428898429889,-90.55331361777549,20.551437,0.4556815,11.853621,7.445181,-23.434721,-0.08286594,-18.355696,-7.050137,-8.825336,8.963482,4.68012,1.7781987,-5.2252283,-0.5123151,12.757708,-0.43633422,16.800426,-39.347504,66.24809,3.4015021,1.9927995,5.7493143,-3.2390852,-14.819781,36.986103,61.172604,-0.029965423,0.34615424,-4.578318
217,5.256032466888428,-12.136481285095215,76.4020004272461,-1.0230707602420843,-5.229786099739828,-90.30413925507446,20.884624,0.32756844,11.615974,7.4416723,-23.660933,-0.20752478,-18.578695,-7.260029,-8.7355,8.008821,4.239257,2.2745342,-5.4170637,-0.66860896,12.620014,-0.51186734,16.826658,-39.365494,66.25857,3.4430497,2.0044417,5.7557106,-2.9110296,-14.861868,37.02668,61.39344,0.029071596,0.39109713,-4.536145
218,5.192784786224365,-12.612197875976562,76.2713623046875,-0.8432440342018036,-5.2070671300065845,-90.02978279724886,21.236948,0.19569927,11.34861,7.438026,-23.876623,-0.3439023,-18.688131,-7.505959,-8.728239,6.994063,3.6727667,2.7861357,-5.6201553,-0.8323618,12.482618,-0.58369476,16.855814,-39.358772,66.26131,3.5332093,2.0271752,5.765717,-2.5635746,-14.91217,37.07808,61.60288,0.08514549,0.4431481,-4.498951
219,5.121431827545166,-13.0802583694458,76.1407699584961,-0.6707199585018082,-5.188086543042662,-89.7548157110501,21.596815,0.08316787,11.085135,7.433319,-24.061161,-0.5034701,-18.909412,-7.7805395,-8.783422,6.3856816,2.9345386,3.2903528,-5.812488,-0.98957175,12.341933,-0.66729057,16.87307,-39.337395,66.27785,3.6322036,2.0503552,5.7842665,-2.2228184,-14.944408,37.13166,61.832634,0.14112817,0.49211127,-4.470423
220,5.045212745666504,-13.541295051574707,76.01478576660156,-0.5196953072414507,-5.162503872277906,-89.50571561123992,21.95186,0.010563826,10.861388,7.42972,-24.198626,-0.6982931,-19.347372,-8.060096,-8.887446,6.393033,2.1103895,3.757651,-5.9757586,-1.1229765,12.203875,-0.7579786,16.886148,-39.29993,66.28769,3.7023149,2.0647032,5.8127847,-1.8921635,-14.972223,37.186886,62.0605,0.20934997,0.5306186,-4.4495454
221,4.96880578994751,-14.00017261505127,75.89785766601562,-0.3899871508937842,-5.123594388014847,-89.29165375418292,22.29662,-0.022103185,10.696983,7.4223604,-24.288162,-0.93052745,-19.721045,-8.300241,-9.096047,6.3931513,1.58778,4.19272,-6.090098,-1.2316157,12.065861,-0.86964136,16.892778,-39.25373,66.299545,3.741507,2.0611129,5.8564734,-1.5738955,-14.98894,37.231487,62.295097,0.290186,0.54929334,-4.4410634
222,4.881267070770264,-14.46825885772705,75.7890853881836,-0.27696604629360544,-5.074683823833376,-89.10185734129655,22.63561,-0.027626125,10.575261,7.41376,-24.341137,-1.1958495,-20.027319,-8.519125,-9.399308,6.3890767,1.2544676,4.6020255,-6.1713386,-1.3211968,11.926414,-0.9926279,16.896454,-39.19098,66.307205,3.7669759,2.0467727,5.911786,-1.260123,-15.003178,37.27623,62.527798,0.3817155,0.5551275,-4.442588
223,4.795206069946289,-14.949557304382324,75.68914031982422,-0.18365644144617968,-5.020796388675192,-88.93146707802622,22.97563,-0.003096368,10.477774,7.405083,-24.352259,-1.4969072,-20.248796,-8.702363,-9.759125,6.384466,1.0508932,4.955615,-6.250884,-1.3855938,11.787615,-1.0985346,16.897848,-39.091095,66.29258,3.7752097,2.037161,5.970721,-0.9563436,-15.026142,37.34742,62.74669,0.48566836,0.56504637,-4.4449506
224,4.699949741363525,-15.440413475036621,75.59856414794922,-0.11477943921018442,-4.967139384655195,-88.77634105966641,23.325108,0.054443046,10.384563,7.3943205,-24.31307,-1.8355865,-20.368141,-8.840334,-10.132371,6.3805175,0.9198725,5.2245884,-6.3064013,-1.4252504,11.645577,-1.2013173,16.895704,-39.006897,66.273384,3.738191,2.0475204,6.0249834,-0.65034914,-15.038829,37.404274,62.95637,0.58052385,0.59171116,-4.440027
225,4.59276008605957,-15.942933082580566,75.51412200927734,-0.058605255239534144,-4.927714653563294,-88.63985492379236,23.701317,0.13321759,10.2926655,7.382359,-24.228611,-2.2101748,-20.361664,-8.945025,-10.521231,6.378112,0.8487287,5.425927,-6.350851,-1.4482355,11.517076,-1.2864325,16.89014,-38.909714,66.23233,3.6278317,2.0940936,6.0743623,-0.35182363,-15.046909,37.47029,63.15828,0.67718816,0.64052117,-4.4341483
226,4.48647403717041,-16.445932388305664,75.43901062011719,-0.018873759909359945,-4.894588687986051,-88.52389711104543,24.094194,0.23753385,10.212001,7.369316,-24.099432,-2.6200676,-20.245085,-9.0133915,-10.942412,6.3747067,0.8672299,5.5675964,-6.3988113,-1.4525912,11.395334,-1.3493463,16.87688,-38.771572,66.171906,3.471067,2.1638145,6.122894,-0.07322427,-15.054042,37.568974,63.36063,0.7842591,0.7046446,-4.4298363
227,4.366880416870117,-16.965538024902344,75.37147521972656,-0.011806432769064958,-4.841311661013939,-88.42185544147898,24.471783,0.39349604,10.141519,7.3537006,-23.911966,-3.0686169,-20.064558,-9.017799,-11.371198,6.3708243,0.98293513,5.606962,-6.440184,-1.4217396,11.248602,-1.4031755,16.856634,-38.637203,66.11373,3.3217185,2.2293026,6.1689034,0.2014769,-15.054049,37.671093,63.55682,0.88479376,0.7754494,-4.411386
228,4.247524738311768,-17.498477935791016,75.3137435913086,-0.0562134351911016,-4.740836301877559,-88.32691874369146,24.801565,0.6264785,10.080726,7.3358893,-23.65513,-3.560298,-19.8659,-8.930928,-11.784492,6.365387,1.2057041,5.5013847,-6.4654603,-1.3396163,11.047129,-1.4552048,16.838476,-38.548977,66.06842,3.2347844,2.263691,6.2094617,0.48768514,-15.044354,37.74869,63.736843,0.96328074,0.84459674,-4.3625298
229,4.103693962097168,-18.06793975830078,75.270751953125,-0.15742372822790135,-4.579533303630819,-88.23905333728413,25.073147,0.9454518,10.03514,7.315151,-23.335808,-4.1143656,-19.630835,-8.741347,-12.203856,6.36143,1.5037943,5.217309,-6.488615,-1.1983849,10.7749,-1.4941646,16.824032,-38.504955,66.03031,3.260879,2.2465224,6.2448573,0.7811988,-15.027425,37.81411,63.908375,1.0152584,0.91063994,-4.2646136
230,3.958961009979248,-18.64875030517578,75.23571014404297,-0.30664557980426976,-4.375030074439304,-88.16041877592933,25.308176,1.3356347,10.002657,7.2920856,-22.959936,-4.724445,-19.34518,-8.464403,-12.635221,6.3583727,1.8856394,4.785619,-6.514652,-1.0081971,10.448697,-1.5179303,16.806702,-38.482838,65.99965,3.3593338,2.1965327,6.277008,1.0690441,-14.995046,37.8841,64.08481,1.0513396,0.9781647,-4.1325173
231,3.791415214538574,-19.208099365234375,75.24486541748047,-0.4975295328263361,-4.146864934070108,-88.08636211187189,25.523132,1.7849658,9.971082,7.265307,-22.511858,-5.3582716,-19.062256,-8.117343,-13.033449,6.351057,2.4207807,4.260414,-6.534355,-0.78054065,10.090342,-1.5400088,16.783403,-38.473312,65.98919,3.4560366,2.1449604,6.3036623,1.3425125,-14.933461,37.94902,64.27435,1.0787033,1.0434213,-3.998499
232,3.6087281703948975,-19.773937225341797,75.27812957763672,-0.7277674916969531,-3.914790597523233,-88.01336714572757,25.731943,2.2869983,9.930663,7.238216,-21.977428,-5.984017,-18.83526,-7.714589,-13.355921,6.33666,3.1769829,3.6947467,-6.5402684,-0.52266556,9.724427,-1.5693551,16.753653,-38.46192,66.004036,3.4794374,2.1243954,6.322724,1.5975415,-14.831208,38.0018,64.47357,1.1041564,1.1057582,-3.8961442
233,3.418088674545288,-20.362234115600586,75.32451629638672,-1.013046753544938,-3.663998470951801,-87.94243981835315,25.914736,2.86451,9.885671,7.2221103,-21.367704,-6.6261544,-18.710035,-7.2359295,-13.563541,6.3108044,4.2935,3.04236,-6.527458,-0.2139268,9.349947,-1.6068174,16.727518,-38.448948,66.02716,3.3760695,2.1544545,6.321412,1.8567758,-14.714431,38.027054,64.63439,1.1225772,1.1713011,-3.8302627
234,3.2202210426330566,-20.963937759399414,75.37773132324219,-1.3554194164661886,-3.3963783015096842,-87.8763773814968,26.0538,3.5215564,9.840662,7.2673798,-20.715204,-7.2951155,-18.642588,-6.6822915,-13.700881,6.277251,5.6941547,2.2888288,-6.49963,0.14627413,8.963686,-1.6458399,16.704317,-38.43858,66.05818,3.197182,2.2144358,6.3048134,2.114937,-14.581512,38.03627,64.77154,1.1344175,1.2387514,-3.7842622
235,3.0197062492370605,-21.58238410949707,75.43657684326172,-1.7228311119717958,-3.140936195564045,-87.80673061448124,26.199106,4.213937,9.781372,7.3310432,-19.979258,-7.935177,-18.884506,-6.1852775,-13.813454,6.948145,6.7458262,1.536347,-6.474627,0.5274476,8.582313,-1.6722305,16.68187,-38.420692,66.093956,3.0214427,2.2759316,6.294238,2.3610554,-14.435049,38.056683,64.904785,1.1549156,1.2993261,-3.7513778
236,2.8122637271881104,-22.219135284423828,75.49365997314453,-2.0825620092997967,-2.932850560529538,-87.73115365657443,26.38537,4.8958015,9.6985655,7.4133854,-19.146242,-8.48923,-19.037735,-5.715613,-14.002011,7.6392317,7.552087,0.8874142,-6.463272,0.89455396,8.228762,-1.6702421,16.65675,-38.38003,66.13044,2.932724,2.3104856,6.3104987,2.5838752,-14.280909,38.11855,65.05233,1.2036071,1.3442155,-3.724957
237,2.6022748947143555,-22.8695125579834,75.56238555908203,-2.4400019075457307,-2.7750739336220076,-87.6317466749501,26.159477,5.660931,9.543285,8.488479,-18.727314,-8.9437275,-18.993196,-5.2632833,-14.31372,8.163234,8.18298,0.36656615,-6.4770207,1.2534956,7.9007516,-1.6482528,16.627914,-38.340134,66.179726,2.9640198,2.297399,6.3619747,2.7981308,-14.122905,38.216663,65.2077,1.3037697,1.3641794,-3.7112873
238,2.392144203186035,-23.519155502319336,75.6458969116211,-2.8198685335596014,-2.6442026084851604,-87.50780600666283,25.75663,6.492738,9.328476,9.991887,-18.428186,-9.328918,-18.822298,-4.8033066,-14.7073345,8.57969,8.72609,-0.08583119,-6.5130315,1.6317765,7.586395,-1.6104248,16.595173,-38.299026,66.23724,3.0692663,2.25644,6.4365354,3.0121677,-13.967853,38.33757,65.35059,1.4402643,1.3669486,-3.7098901
239,2.1692092418670654,-24.17332649230957,75.7426528930664,-3.2110540481193484,-2.537578615730856,-87.38603092936046,25.294998,7.3420296,9.0645685,11.652441,-18.093771,-9.652535,-18.546911,-4.3142667,-15.113852,8.883905,9.153315,-0.4849853,-6.563307,2.0238535,7.2893662,-1.5391104,16.551683,-38.2052,66.28865,3.2066603,2.2191947,6.525166,3.1846185,-13.808565,38.503124,65.51485,1.5711641,1.3673297,-3.7070422
240,1.9500036239624023,-24.8193359375,75.84519958496094,-3.6046782065223186,-2.45507489999909,-87.29606669375279,24.785063,8.171808,8.757422,13.44067,-17.698566,-9.92359,-18.180223,-3.7735972,-15.459169,9.0545025,9.446743,-0.84237146,-6.615063,2.4227996,7.0200357,-1.4150339,16.493473,-38.008068,66.30939,3.3343709,2.2172606,6.6184025,3.293166,-13.660091,38.73375,65.69866,1.6574957,1.3822596,-3.6867902
