unveil-humanoid-operators/unveil-humanoid-operators.github.io/feature-analysis-animation/data/feature_matrix_instances/gender_shoulder_rom_walking_turning_A460.csv
Frame,root_translateX,root_translateY,root_translateZ,root_rotateX,root_rotateY,root_rotateZ,left_hip_pitch_joint_dof,left_hip_roll_joint_dof,left_hip_yaw_joint_dof,left_knee_joint_dof,left_ankle_pitch_joint_dof,left_ankle_roll_joint_dof,right_hip_pitch_joint_dof,right_hip_roll_joint_dof,right_hip_yaw_joint_dof,right_knee_joint_dof,right_ankle_pitch_joint_dof,right_ankle_roll_joint_dof,waist_yaw_joint_dof,waist_roll_joint_dof,waist_pitch_joint_dof,left_shoulder_pitch_joint_dof,left_shoulder_roll_joint_dof,left_shoulder_yaw_joint_dof,left_elbow_joint_dof,left_wrist_roll_joint_dof,left_wrist_pitch_joint_dof,left_wrist_yaw_joint_dof,right_shoulder_pitch_joint_dof,right_shoulder_roll_joint_dof,right_shoulder_yaw_joint_dof,right_elbow_joint_dof,right_wrist_roll_joint_dof,right_wrist_pitch_joint_dof,right_wrist_yaw_joint_dof
0,-0.11740963906049728,-2.125253200531006,77.51692199707031,0.5557082610318481,-3.2450628219098876,88.49473472167153,6.23089,0.60174716,2.9464269,8.643842,-13.867941,-1.3693228,4.955255,-4.392587,-11.709265,12.877458,-12.895229,4.111642,-2.360124,-0.52787536,7.4282804,7.5805984,8.266925,-9.598717,62.99591,2.1758227,3.729888,8.803278,0.45810792,-9.729899,15.630761,65.3832,-25.192287,2.6958683,-12.478145
1,-0.13715356588363647,-2.105027914047241,77.52082824707031,0.558956469561633,-3.1441424870560217,88.49588215878853,6.160166,0.57702196,2.9636762,8.590324,-13.878259,-1.3501987,4.9570785,-4.4095488,-11.723019,12.678262,-12.845439,4.271319,-2.3452194,-0.54466665,7.355817,7.607056,8.2672415,-9.584607,62.960846,2.1561863,3.729412,8.796937,0.4288633,-9.724661,15.611109,65.38254,-25.19985,2.6933355,-12.411905
2,-0.15810422599315643,-2.0873773097991943,77.52479553222656,0.5652631938875163,-3.0442222845697784,88.49455539708215,6.091625,0.550758,2.9834042,8.534882,-13.888245,-1.3326472,4.9523187,-4.429747,-11.732309,12.49405,-12.802609,4.426901,-2.330672,-0.56143224,7.280252,7.6284046,8.265439,-9.576265,62.934868,2.1327362,3.7290044,8.793007,0.40492803,-9.723642,15.599673,65.377975,-25.204424,2.6914635,-12.343915
3,-0.18350718915462494,-2.069528818130493,77.5298843383789,0.5677705054548459,-2.9420352695683203,88.49761496985955,6.0181575,0.5266031,2.998686,8.484308,-13.899712,-1.3113176,4.959607,-4.4462376,-11.749754,12.282319,-12.748046,4.5906506,-2.316956,-0.57354265,7.2093763,7.6559153,8.2569895,-9.555453,62.897644,2.1192663,3.7281313,8.786887,0.36922413,-9.721522,15.573383,65.38336,-25.21489,2.687793,-12.279206
4,-0.21174298226833344,-2.0475850105285645,77.53448486328125,0.5717597682930129,-2.8345756515415124,88.50823036333355,5.9366856,0.49984267,3.00668,8.438415,-13.911054,-1.2795159,4.9764743,-4.464748,-11.782001,12.045935,-12.686539,4.776326,-2.3007686,-0.5839314,7.140877,7.6712914,8.235314,-9.523822,62.870487,2.1106799,3.724673,8.781254,0.32973948,-9.719274,15.546148,65.39668,-25.212282,2.6853814,-12.236689
5,-0.2390815019607544,-2.0284557342529297,77.5387954711914,0.5741312677413972,-2.714141273055285,88.52401278559392,5.839818,0.47169375,3.0110495,8.395222,-13.919461,-1.2358214,4.9984355,-4.484116,-11.827602,11.773899,-12.611946,4.991836,-2.2789972,-0.59532946,7.0634727,7.6782284,8.211531,-9.490406,62.856136,2.0966861,3.7152781,8.76884,0.30161253,-9.719599,15.530191,65.40136,-25.177544,2.6895306,-12.2229
6,-0.26443734765052795,-2.0056159496307373,77.54447174072266,0.5771411007962828,-2.5848244272744902,88.54366187439805,5.7326503,0.442411,3.012513,8.354025,-13.926014,-1.1834462,5.0253005,-4.504251,-11.883166,11.474812,-12.52769,5.228557,-2.2598758,-0.60192907,6.9823117,7.678711,8.170833,-9.442129,62.851437,2.0893965,3.702095,8.7549515,0.26998782,-9.724316,15.521808,65.41029,-25.125711,2.6980875,-12.230484
7,-0.2947959899902344,-1.9770065546035767,77.54944610595703,0.580901718652045,-2.4587339350997706,88.57388113858985,5.626586,0.40859956,3.002305,8.316424,-13.933489,-1.1229773,5.067124,-4.528546,-11.954596,11.162058,-12.442839,5.474869,-2.2435107,-0.60590816,6.9071326,7.672709,8.115336,-9.388001,62.851357,2.080444,3.689037,8.749117,0.24300857,-9.736692,15.522005,65.41978,-25.062624,2.7054627,-12.246768
8,-0.3244565427303314,-1.9502863883972168,77.5589370727539,0.5879635340826418,-2.348024856017736,88.62121674560751,5.531766,0.36649436,2.9715507,8.287876,-13.947178,-1.0552245,5.132973,-4.5608644,-12.047813,10.851882,-12.3680525,5.7190714,-2.2229812,-0.6207278,6.8509088,7.6639924,8.06699,-9.340759,62.840385,2.0589898,3.6810966,8.755377,0.23169431,-9.752284,15.520926,65.421844,-24.99906,2.704845,-12.257377
9,-0.35552340745925903,-1.9175831079483032,77.56698608398438,0.6013053621546114,-2.2567903657999104,88.69243005358119,5.44917,0.31172132,2.9124453,8.2695875,-13.964526,-0.97275007,5.2298093,-4.60497,-12.173075,10.542681,-12.307496,5.966582,-2.2001402,-0.6573231,6.82004,7.651082,8.036097,-9.310485,62.815525,2.0074368,3.679611,8.792188,0.23718828,-9.762854,15.512932,65.4141,-24.929752,2.688379,-12.257095
10,-0.39803847670555115,-1.8836159706115723,77.57289123535156,0.6177973101076918,-2.1783697447237547,88.78234600125948,5.3733253,0.24739203,2.8314064,8.26019,-13.984846,-0.87779707,5.351616,-4.657667,-12.324676,10.227468,-12.255281,6.220606,-2.181079,-0.69944924,6.8047676,7.6247883,7.994743,-9.281844,62.797775,1.9425114,3.6804533,8.855591,0.24918361,-9.777688,15.504547,65.408226,-24.854614,2.6619391,-12.2551
11,-0.4266470670700073,-1.850307583808899,77.57752990722656,0.6342966492315462,-2.108114015414959,88.8795770088069,5.3087234,0.17971459,2.7414927,8.251289,-14.010296,-0.7856154,5.4871964,-4.711785,-12.4843235,9.913656,-12.205905,6.466232,-2.1518772,-0.74680465,6.7996187,7.60353,7.961012,-9.250216,62.76425,1.8849792,3.6853683,8.902702,0.2717705,-9.7908535,15.502456,65.40155,-24.783337,2.6394467,-12.257882
12,-0.45238029956817627,-1.8168370723724365,77.58222961425781,0.645585424113267,-2.041992768922047,88.97271531874195,5.262457,0.11566198,2.655517,8.229261,-14.040773,-0.71144146,5.625327,-4.7598414,-12.633696,9.609227,-12.154172,6.6887674,-2.1087391,-0.785981,6.796261,7.593926,7.9253573,-9.196477,62.71298,1.8665106,3.693765,8.897709,0.2997077,-9.807354,15.51867,65.40374,-24.729265,2.6355,-12.274047
13,-0.49431905150413513,-1.773352026939392,77.58353424072266,0.6454877821375832,-1.97860776568165,89.06072647681297,5.237333,0.061486166,2.5752258,8.188277,-14.0770645,-0.6689788,5.7653046,-4.796138,-12.771594,9.313786,-12.100079,6.8926535,-2.0640585,-0.79876244,6.7919807,7.600698,7.865845,-9.081345,62.64113,1.9213748,3.705727,8.801689,0.32660773,-9.842124,15.579006,65.417694,-24.688868,2.6635542,-12.312445
14,-0.5380680561065674,-1.7249835729599,77.58140563964844,0.6303362120595503,-1.9180518158294746,89.15163300150941,5.120686,0.026973289,2.4907057,8.3612795,-14.237429,-0.64839166,5.909359,-4.8156533,-12.909875,9.02583,-12.046996,7.081675,-2.0090287,-0.7940147,6.790536,7.6199446,7.8080344,-8.93721,62.545815,2.0186422,3.721915,8.64056,0.36316767,-9.88221,15.658903,65.432686,-24.659798,2.7116334,-12.36518
15,-0.5852257609367371,-1.669872760772705,77.57803344726562,0.6075558209432945,-1.8635720990819633,89.2427762250458,4.9842644,-0.0017044791,2.4039454,8.601417,-14.439462,-0.62645185,6.0545683,-4.8288965,-13.043058,8.755117,-11.9958935,7.243084,-1.9484313,-0.783371,6.7946916,7.6472683,7.75162,-8.7990885,62.440075,2.1166809,3.7398102,8.485595,0.4058755,-9.925329,15.74985,65.45339,-24.641296,2.7593422,-12.417021
16,-0.6424179077148438,-1.6018797159194946,77.57427978515625,0.5834976425839059,-1.8172261026705692,89.33271912781561,4.868668,-0.032887667,2.3150764,8.825519,-14.633965,-0.5804306,6.1966686,-4.842285,-13.167243,8.512287,-11.948411,7.3637476,-1.8777425,-0.78115743,6.8065677,7.6763153,7.708085,-8.714088,62.336517,2.1690958,3.7579083,8.407403,0.45469975,-9.961746,15.830718,65.484474,-24.63655,2.7856505,-12.4530325
17,-0.6955920457839966,-1.5366783142089844,77.57199096679688,0.5571514072679508,-1.781724963469134,89.41412594419451,4.7822523,-0.067113,2.2288635,9.025083,-14.819169,-0.4988211,6.3289404,-4.857108,-13.274023,8.313938,-11.9087515,7.438664,-1.8061222,-0.7793085,6.8271823,7.7109623,7.662869,-8.688754,62.233532,2.156424,3.7772985,8.449373,0.50511533,-10.002621,15.922021,65.52923,-24.651228,2.7841039,-12.464381
18,-0.7626843452453613,-1.4742465019226074,77.5704345703125,0.5268877604182521,-1.7552768451122986,89.48999701013324,4.7156863,-0.10113719,2.1435823,9.216763,-15.005713,-0.3954201,6.458392,-4.8699574,-13.367879,8.144076,-11.871568,7.475757,-1.7356437,-0.75500005,6.8556223,7.745808,7.589312,-8.699811,62.137234,2.1090002,3.795944,8.570703,0.5670326,-10.076381,16.031256,65.57176,-24.676693,2.7656767,-12.456702
19,-0.8287667036056519,-1.4015774726867676,77.5697021484375,0.49175995772844494,-1.733544753588591,89.5753348720241,4.655851,-0.13384713,2.0484087,9.408311,-15.189438,-0.28587794,6.5907373,-4.8791456,-13.464737,7.9870844,-11.835713,7.480573,-1.6603304,-0.73081553,6.8910503,7.779211,7.521139,-8.730587,62.045593,2.0566611,3.813828,8.705443,0.6418606,-10.150957,16.12169,65.61234,-24.703814,2.736729,-12.443187
20,-0.8884618878364563,-1.3210252523422241,77.56668090820312,0.4504605264368395,-1.7116995445985372,89.68519710893887,4.5833135,-0.16345325,1.9326403,9.621615,-15.372372,-0.18574789,6.7348104,-4.8819695,-13.580635,7.819716,-11.795754,7.4587183,-1.601531,-0.70558107,6.9313664,7.812903,7.454668,-8.735703,61.965202,2.040815,3.825689,8.791299,0.72552115,-10.226088,16.193748,65.64787,-24.707447,2.7048762,-12.434793
21,-0.9599364995956421,-1.2396785020828247,77.56507110595703,0.40362965663029016,-1.691919751358337,89.82517515656315,4.507351,-0.19140956,1.7934289,9.841117,-15.54671,-0.09499134,6.8937263,-4.8804817,-13.719359,7.6449747,-11.755928,7.4080153,-1.5578094,-0.68496734,6.976642,7.845726,7.392267,-8.703754,61.900307,2.0805516,3.830185,8.813501,0.8191754,-10.296785,16.248337,65.67909,-24.677519,2.67571,-12.4345665
22,-1.033413290977478,-1.1601817607879639,77.56488037109375,0.3510656780227501,-1.6754798367069765,89.98695468759479,4.429513,-0.21792075,1.636298,10.070927,-15.717464,-0.006801177,7.060064,-4.875401,-13.872818,7.477923,-11.720367,7.3266845,-1.5170596,-0.68213016,7.0262117,7.881429,7.3543715,-8.661169,61.842518,2.1475205,3.8302684,8.802422,0.9147798,-10.339078,16.282957,65.72211,-24.63051,2.6450887,-12.441637
23,-1.1124986410140991,-1.0782554149627686,77.56502532958984,0.289571949300388,-1.6569926297070297,90.16422690533126,4.345728,-0.2397083,1.463463,10.306137,-15.8848505,0.07354042,7.2349567,-4.8604174,-14.038364,7.2961273,-11.674319,7.221184,-1.5106503,-0.658395,7.080918,7.9210544,7.291726,-8.592051,61.793003,2.2304504,3.825821,8.772066,1.0148412,-10.407206,16.317099,65.75787,-24.572166,2.603841,-12.446876
24,-1.1864900588989258,-0.9919681549072266,77.56612396240234,0.2197414902241973,-1.6310485520535545,90.35068265581712,4.2524133,-0.25494117,1.2771275,10.539679,-16.047466,0.1406108,7.399238,-4.8348155,-14.212093,7.122252,-11.628883,7.097958,-1.5304924,-0.6285033,7.1380734,7.9668055,7.2332544,-8.52405,61.74285,2.2944298,3.820082,8.730045,1.1093727,-10.467614,16.323229,65.80325,-24.529942,2.5442352,-12.455066
25,-1.2599955797195435,-0.9057993292808533,77.56859588623047,0.13512445762943975,-1.6050539234878634,90.55140788813203,4.1609864,-0.25934464,1.0701187,10.766429,-16.202187,0.18961884,7.505959,-4.808102,-14.394906,7.083488,-11.652693,6.9450374,-1.5847023,-0.5924668,7.199166,8.030013,7.1896443,-8.451391,61.68191,2.3361268,3.8144996,8.657712,1.1929673,-10.50954,16.305176,65.87645,-24.514236,2.4573271,-12.4735155
26,-1.3465728759765625,-0.8167641162872314,77.57256317138672,0.03879113584857104,-1.57895993657114,90.76765537715119,4.0691977,-0.25506872,0.8436595,10.991898,-16.351204,0.22447531,7.6215506,-4.76675,-14.592281,7.0362964,-11.671271,6.763612,-1.6712321,-0.54635125,7.2649183,8.104981,7.1486616,-8.3674,61.61798,2.3706279,3.8071063,8.557857,1.2718077,-10.545669,16.26962,65.96587,-24.511744,2.3494487,-12.498409
27,-1.4329707622528076,-0.7310994267463684,77.57875061035156,-0.06057366172168867,-1.536196681734571,90.98717571524944,3.9547365,-0.25056097,0.6130196,11.219782,-16.497866,0.25293577,7.7146387,-4.7232027,-14.79131,6.9911556,-11.679507,6.5806737,-1.7796402,-0.5004302,7.33132,8.176461,7.101796,-8.28135,61.56306,2.3955677,3.7965212,8.468102,1.3439696,-10.583298,16.213373,66.04818,-24.50467,2.2369878,-12.518632
28,-1.521888256072998,-0.6464774012565613,77.58142852783203,-0.1497838668439299,-1.4590361766683277,91.19569481964945,3.789483,-0.25810313,0.3957275,11.465398,-16.651762,0.2825716,7.7372327,-4.6987386,-14.975206,6.993767,-11.69105,6.423428,-1.889968,-0.48186833,7.391871,8.233171,7.0605164,-8.211614,61.523335,2.4022117,3.7818773,8.4238615,1.4057622,-10.614133,16.12646,66.10725,-24.47832,2.1366868,-12.52584
29,-1.6104631423950195,-0.5686737895011902,77.58506774902344,-0.2402710188080581,-1.3430114486302558,91.4051783573998,3.5653903,-0.264857,0.1806082,11.732149,-16.816603,0.30593252,7.7086167,-4.677207,-15.156626,6.9960628,-11.693285,6.2953224,-2.0059793,-0.4809225,7.4419713,8.270459,7.022719,-8.165516,61.503754,2.3813038,3.7590818,8.453392,1.4617532,-10.639459,16.003473,66.14115,-24.424551,2.0488527,-12.510763
30,-1.7024255990982056,-0.4960046112537384,77.5880126953125,-0.3369136321592296,-1.1973190529863984,91.61807884357609,3.2998726,-0.26749104,-0.03689826,12.007734,-16.984497,0.3219658,7.6416035,-4.6520033,-15.339078,6.998396,-11.686741,6.1830997,-2.1340673,-0.49288446,7.485695,8.29944,6.995252,-8.13474,61.49436,2.3363454,3.7303584,8.529161,1.5105486,-10.654089,15.850421,66.160736,-24.35292,1.9662893,-12.4813385
31,-1.7970163822174072,-0.4329981207847595,77.59632873535156,-0.42064431782909023,-1.0280517922721792,91.81004288294564,3.023017,-0.28649494,-0.23400465,12.245881,-17.12816,0.34847736,7.5362034,-4.63644,-15.500438,6.9990115,-11.642769,6.08578,-2.2686462,-0.5314046,7.53281,8.323814,6.9782543,-8.106015,61.48979,2.2853472,3.703179,8.60763,1.5427387,-10.6598425,15.681628,66.15996,-24.270605,1.8933467,-12.451034
32,-1.8927984237670898,-0.3824426233768463,77.61138153076172,-0.47252629790882683,-0.8417163632242709,91.95647928464516,2.7611592,-0.34191945,-0.38733214,12.40816,-17.223825,0.4031604,7.3821654,-4.648688,-15.6157255,7.013421,-11.539851,5.9993625,-2.3695288,-0.59751284,7.5987935,8.313781,6.957777,-8.096532,61.510643,2.2486508,3.6849308,8.651436,1.5647897,-10.662559,15.456065,66.119804,-24.206215,1.8318771,-12.430414
33,-1.9888123273849487,-0.33800676465034485,77.60514831542969,-0.4390427559499189,-0.6025014253517521,92.03332068758226,2.4260395,-0.488256,-0.46966335,12.590481,-17.31261,0.50133014,6.634598,-4.8970146,-15.609937,8.1351,-11.987226,5.9038396,-2.452413,-0.754869,7.6475573,8.302201,6.9437385,-8.051747,61.529003,2.236665,3.6831768,8.632407,1.5555812,-10.659093,15.225731,66.04428,-24.146023,1.7988099,-12.426895
34,-2.093698740005493,-0.2948914170265198,77.58717346191406,-0.3438710028124109,-0.3184893480490126,92.06096848885099,2.0578957,-0.70327926,-0.5001621,12.726521,-17.36366,0.6324649,5.1722517,-5.405908,-15.47926,10.659604,-13.147239,5.7978897,-2.5330038,-0.98218757,7.6805625,8.294323,6.935073,-7.9839005,61.544502,2.2349207,3.6921499,8.578274,1.5200479,-10.652895,14.999356,65.939705,-24.076054,1.7885807,-12.433899
35,-2.180689811706543,-0.2740843892097473,77.55474090576172,-0.19158654119214796,-0.053329084874913224,92.0533105540667,1.7400148,-0.9811704,-0.48555294,12.804253,-17.388588,0.7756534,3.515003,-6.0406985,-15.272273,13.618774,-14.43161,5.710558,-2.5696766,-1.267509,7.7604117,8.238589,6.9272556,-7.963902,61.597233,2.2382169,3.6993642,8.521359,1.4807955,-10.634957,14.6937475,65.80643,-24.02918,1.7682085,-12.440762
36,-2.2823879718780518,-0.2601941227912903,77.50324249267578,0.008730655567810877,0.13092678642547925,92.02421317069955,1.5483214,-1.3084027,-0.434562,12.822564,-17.404734,0.9086055,1.924235,-6.7277784,-15.028442,16.61005,-15.549475,5.678664,-2.6284246,-1.6082978,7.922196,8.201612,6.9364295,-7.9967713,61.641342,2.2137644,3.6941383,8.483911,1.4302763,-10.61963,14.433271,65.66474,-23.936287,1.7158695,-12.44678
37,-2.38820219039917,-0.24988006055355072,77.43292999267578,0.2802624997223467,0.21896563695550397,91.96770936437488,1.5116981,-1.712471,-0.33595493,12.756567,-17.405796,1.0279956,0.44890344,-7.4876175,-14.773373,19.585543,-16.514462,5.7327504,-2.683214,-2.0311594,8.191377,8.170587,6.9705744,-8.104359,61.66914,2.141333,3.6714694,8.466153,1.3818206,-10.60826,14.158016,65.49329,-23.798094,1.6073774,-12.42712
38,-2.4822094440460205,-0.23138302564620972,77.3581771850586,0.6139164488518367,0.24391209884626636,91.88068661047014,1.5810529,-2.1848552,-0.19381627,12.622968,-17.39042,1.1437805,-1.0313042,-8.337797,-14.478469,22.705713,-17.432556,5.839426,-2.731029,-2.5269508,8.5408745,8.144575,7.0298204,-8.26658,61.68281,2.0348048,3.638241,8.452517,1.3335645,-10.602032,13.87047,65.285484,-23.624418,1.4615538,-12.388795
39,-2.5764055252075195,-0.20293143391609192,77.28152465820312,0.9540013744394935,0.2172451976577676,91.77843343908204,1.7210256,-2.6624978,-0.037535813,12.471204,-17.375956,1.2547692,-2.5204787,-9.201167,-14.112464,25.912985,-18.16439,5.949944,-2.7794392,-3.034213,8.948972,8.113884,7.110926,-8.4851,61.715954,1.9305102,3.6000056,8.446328,1.2868534,-10.6010475,13.616984,65.06035,-23.441618,1.3109788,-12.368784
40,-2.671522617340088,-0.16234275698661804,77.20697784423828,1.2490282615472883,0.1499324882452715,91.67615059440085,1.8974992,-3.0858736,0.105881706,12.352044,-17.380674,1.360367,-4.0196357,-9.996268,-13.648878,29.148977,-18.571335,6.021557,-2.83555,-3.495304,9.394204,8.069031,7.2125173,-8.764055,61.801147,1.863566,3.5625083,8.450439,1.2469575,-10.604193,13.442325,64.83305,-23.276978,1.1873561,-12.403795
41,-2.781909227371216,-0.12788423895835876,77.13390350341797,1.5012290044383003,0.03050919347597894,91.57308695903166,2.1200168,-3.4603052,0.23354083,12.272279,-17.403433,1.4708775,-5.524387,-10.712097,-13.055239,32.436855,-18.588837,6.1296287,-2.9073603,-3.913731,9.890777,8.009224,7.3328805,-9.111342,61.939083,1.8476404,3.5167053,8.46481,1.200119,-10.614411,13.37724,64.61335,-23.11095,1.09658,-12.522145
42,-2.882533073425293,-0.08485600352287292,77.06878662109375,1.7345352554284317,-0.1416502124676826,91.46194783095879,2.4048457,-3.812196,0.358159,12.200182,-17.43315,1.5835998,-7.029663,-11.371324,-12.363202,35.785675,-18.293352,6.284076,-2.9886959,-4.315619,10.443153,7.9382615,7.4715924,-9.523357,62.115437,1.8623816,3.463103,8.48796,1.151134,-10.632038,13.391032,64.38922,-22.93906,1.0218309,-12.6979265
43,-2.958714485168457,-0.04543796926736832,77.00907897949219,1.927273958507423,-0.3398081125970257,91.34898551781436,2.721485,-4.1110926,0.4775941,12.143968,-17.480757,1.6785656,-8.534884,-11.94581,-11.64808,39.119984,-17.750751,6.342943,-3.074468,-4.6749673,11.013722,7.854174,7.622278,-9.978153,62.342472,1.8964216,3.4212613,8.523049,1.1228734,-10.651141,13.448057,64.15441,-22.805052,0.9628607,-12.889302
44,-3.042379856109619,0.019427066668868065,76.96250915527344,2.059310359585395,-0.5376200597515881,91.24076760598923,3.0446582,-4.329262,0.5907453,12.100199,-17.5511,1.7361234,-10.041898,-12.422714,-10.986151,42.36941,-17.028456,6.1516085,-3.161728,-4.9675694,11.563958,7.7550406,7.7774615,-10.452659,62.63359,1.9387436,3.411598,8.574912,1.1338528,-10.665462,13.514125,63.908466,-22.753502,0.9206404,-13.056755
45,-3.1195380687713623,0.09363377094268799,76.92387390136719,2.1166702626224034,-0.7493106097664258,91.13326531716821,3.3888812,-4.447265,0.7047198,12.072588,-17.65256,1.7447418,-11.560418,-12.797695,-10.377097,45.566322,-15.996241,5.6586504,-3.2533667,-5.1811514,12.112372,7.630091,7.9363713,-10.962684,63.012646,1.9771919,3.4344525,8.673701,1.177072,-10.671199,13.596934,63.6498,-22.817276,0.90648013,-13.207213
46,-3.2021045684814453,0.18375858664512634,76.89476776123047,2.1144964716698857,-0.9823245286537781,91.02560079506915,3.7632728,-4.4871593,0.81917256,12.056065,-17.777224,1.7175518,-13.084424,-13.095475,-9.806091,48.732075,-14.6628685,4.9417195,-3.3514864,-5.333361,12.669035,7.4839053,8.100861,-11.513447,63.465416,2.0214705,3.482473,8.80877,1.2443545,-10.669126,13.707861,63.38375,-22.967705,0.91722745,-13.35779
47,-3.274495840072632,0.2737581729888916,76.87312316894531,2.076277775797008,-1.2003506828592114,90.92936672464928,4.129212,-4.4818535,0.92218906,12.045665,-17.912079,1.6717063,-14.59332,-13.354787,-9.324781,51.783627,-13.309908,4.0304265,-3.4537506,-5.441922,13.184083,7.333375,8.265859,-12.063257,63.96017,2.0944455,3.5563254,8.923551,1.3528149,-10.659445,13.820799,63.1175,-23.153576,0.9323648,-13.48374
48,-3.3423759937286377,0.38968193531036377,76.85771942138672,2.0249145254839402,-1.36662819952055,90.85550032801156,4.446618,-4.4623494,1.0014075,12.038281,-18.045197,1.6242044,-16.06676,-13.607003,-8.974819,54.64036,-12.222084,2.9598875,-3.5586045,-5.5214314,13.606878,7.19603,8.422826,-12.568146,64.465164,2.2213576,3.6573684,8.96254,1.5190209,-10.642779,13.90885,62.859066,-23.326225,0.9316961,-13.560404
49,-3.4121339321136475,0.5253982543945312,76.84183502197266,1.9615135520986409,-1.4691859762303259,90.80617845859236,4.7024956,-4.4347854,1.0543574,12.033569,-18.172834,1.5757157,-17.540277,-13.866044,-8.76101,57.37153,-11.472255,1.5699089,-3.664842,-5.570726,13.920405,7.0693235,8.566374,-13.011235,64.986694,2.4532793,3.8053057,8.87088,1.756466,-10.620993,13.959382,62.59809,-23.487219,0.9056995,-13.572612
50,-3.4877963066101074,0.6793241500854492,76.82819366455078,1.8772134172045292,-1.5287492480210116,90.7758976369168,4.9183526,-4.382985,1.0876954,12.035683,-18.303272,1.5186689,-19.008718,-14.122236,-8.666926,59.99342,-10.915343,-0.106165424,-3.776075,-5.5808525,14.152362,6.9452295,8.697191,-13.415537,65.54021,2.764595,3.991997,8.692451,2.0521944,-10.59633,13.9903965,62.334797,-23.657288,0.8677503,-13.536393
51,-3.551746129989624,0.8442370891571045,76.81818389892578,1.768602837266642,-1.5571276992280703,90.76310755153541,5.108077,-4.302293,1.103122,12.043292,-18.439468,1.4570152,-20.40134,-14.357536,-8.683303,62.36866,-10.513275,-1.7302555,-3.8971362,-5.5524464,14.320183,6.8315406,8.816192,-13.796849,66.10728,3.0640187,4.1772065,8.519706,2.3829055,-10.56762,14.018085,62.097713,-23.818674,0.8265394,-13.475748
52,-3.620809316635132,1.0401161909103394,76.8122329711914,1.633218287652809,-1.5659372744206823,90.76595893776039,5.2848067,-4.186753,1.1024626,12.057334,-18.586403,1.3943458,-21.647602,-14.545439,-8.79489,64.362885,-10.231317,-2.956313,-4.032694,-5.4866004,14.440906,6.736164,8.924649,-14.170961,66.67012,3.2591832,4.322126,8.446337,2.7230873,-10.53216,14.061194,61.91797,-23.95185,0.7914426,-13.415202
53,-3.682142496109009,1.2518680095672607,76.81095886230469,1.464154986777699,-1.5593325233557789,90.78699861267232,5.453708,-4.029176,1.081263,12.083028,-18.749737,1.3293769,-22.708513,-14.678532,-9.013778,65.95002,-10.142724,-3.6290026,-4.1849656,-5.377513,14.507321,6.6649475,9.023726,-14.540789,67.24051,3.3033154,4.415161,8.499311,3.0817208,-10.487695,14.134842,61.802895,-24.04535,0.76258373,-13.363016
54,-3.7345998287200928,1.4785957336425781,76.81272888183594,1.2652862344919689,-1.5305564912851464,90.82503468726772,5.6069283,-3.832138,1.0410808,12.118552,-18.925896,1.2602321,-23.632174,-14.75854,-9.331656,67.21462,-10.244412,-3.9412563,-4.350671,-5.2260957,14.514561,6.6117086,9.113748,-14.897201,67.82513,3.2527285,4.475646,8.628797,3.464627,-10.4336815,14.227,61.740223,-24.11171,0.73449045,-13.306357
55,-3.78415584564209,1.7112900018692017,76.8196029663086,1.0425316569669598,-1.4739155955991246,90.87241709212829,5.729104,-3.604564,0.99338543,12.171366,-19.113798,1.1898795,-24.480076,-14.771209,-9.704428,68.18728,-10.384361,-4.0661354,-4.5255446,-5.0445943,14.481935,6.5700893,9.195429,-15.237567,68.38865,3.170208,4.5187464,8.813206,3.8452568,-10.371322,14.314185,61.72542,-24.169554,0.71295226,-13.2369795
56,-3.829780101776123,1.9579463005065918,76.83346557617188,0.8051213936350866,-1.3844003449380857,90.92173270700975,5.8066573,-3.3565707,0.9492891,12.2468,-19.31169,1.1216257,-25.314058,-14.703941,-10.090456,68.89209,-10.40749,-4.177626,-4.705163,-4.845168,14.429698,6.530475,9.269255,-15.561299,68.90289,3.116862,4.5551476,9.030949,4.1957116,-10.301659,14.372147,61.7578,-24.23693,0.6998854,-13.147546
57,-3.872786521911621,2.2071101665496826,76.84941101074219,0.5466200017642006,-1.2486306884330594,90.97942216878361,5.815052,-3.0806305,0.90317017,12.361846,-19.523438,1.0517431,-26.157473,-14.544356,-10.494956,69.32257,-10.284294,-4.3049264,-4.893475,-4.6215553,14.346169,6.487078,9.3344,-15.892094,69.38199,3.0948877,4.5789614,9.330316,4.514124,-10.223179,14.4053755,61.842106,-24.33995,0.69650805,-13.010422
58,-3.918194055557251,2.4600911140441895,76.86256408691406,0.2649755366342406,-1.073050105890941,91.04606055592032,5.7690144,-2.7745755,0.8512704,12.508895,-19.749077,0.9801036,-26.978413,-14.300732,-10.935226,69.46679,-10.089265,-4.355718,-5.091566,-4.368723,14.226462,6.4451385,9.389306,-16.223007,69.83641,3.0757,4.586609,9.705297,4.8147893,-10.138813,14.423732,61.975246,-24.462025,0.7020653,-12.837511
59,-3.961815595626831,2.7214066982269287,76.87572479248047,-0.024297394425253686,-0.882772587209173,91.10562852703785,5.7159343,-2.4563804,0.80734855,12.652256,-19.978182,0.91567624,-27.7537,-13.991746,-11.387074,69.33587,-9.822895,-4.322732,-5.2841425,-4.1034718,14.102002,6.413572,9.440134,-16.51055,70.22644,3.0763621,4.5944414,10.051208,5.0939493,-10.042332,14.403806,62.14883,-24.557993,0.71212924,-12.682083
60,-3.9966835975646973,2.9898266792297363,76.88804626464844,-0.30520725711458174,-0.7027428542510956,91.14237569163724,5.6897035,-2.1440148,0.78619885,12.78422,-20.21529,0.8675347,-28.460363,-13.635434,-11.8267355,68.944954,-9.488889,-4.2011766,-5.46582,-3.8407645,14.00346,6.403822,9.486471,-16.70038,70.51214,3.1167054,4.618388,10.263528,5.3494306,-9.940083,14.332017,62.345436,-24.580511,0.7268175,-12.594654
61,-4.0308637619018555,3.2667880058288574,76.8974609375,-0.5786893843475621,-0.5339305471419523,91.15172198398781,5.704381,-1.8366342,0.7951325,12.879281,-20.448719,0.84265774,-29.097414,-13.22682,-12.250245,68.27617,-9.038085,-3.9698684,-5.6310496,-3.5793688,13.935575,6.4243116,9.527045,-16.742128,70.66412,3.2294567,4.6744504,10.291867,5.582056,-9.832866,14.193103,62.564167,-24.489187,0.7401735,-12.610897
62,-4.064131736755371,3.553419589996338,76.90568542480469,-0.8514155752927401,-0.36543638502652165,91.1423809265452,5.736466,-1.526558,0.8251841,12.9592285,-20.685678,0.8352281,-29.675224,-12.759576,-12.665363,67.32476,-8.485962,-3.6388557,-5.78799,-3.3128147,13.883146,6.4684734,9.560561,-16.670864,70.709015,3.3973894,4.7497497,10.199004,5.7934847,-9.719422,14.001543,62.810013,-24.318022,0.7547893,-12.695615
63,-4.1010661125183105,3.8495938777923584,76.90574645996094,-1.1163293306016062,-0.20432290250417484,91.11831625763472,5.7930245,-1.2237068,0.86664146,13.026231,-20.925295,0.8354528,-30.183792,-12.24745,-13.064991,66.124016,-7.930736,-3.2488751,-5.9434156,-3.0508003,13.847205,6.5199823,9.591885,-16.57484,70.6931,3.556245,4.817284,10.050577,5.981664,-9.6003475,13.782593,63.078434,-24.129564,0.78234667,-12.794834
64,-4.138201713562012,4.1511640548706055,76.89923858642578,-1.3666916835100607,-0.057669652866495835,91.0836276025534,5.881113,-0.9378219,0.9099086,13.08007,-21.16567,0.8330589,-30.611975,-11.705188,-13.444475,64.705696,-7.469076,-2.8421803,-6.102363,-2.8037386,13.829675,6.5656595,9.629282,-16.543066,70.6583,3.6428888,4.8508773,9.911276,6.146606,-9.476906,13.558121,63.363094,-23.9883,0.83389884,-12.853739
65,-4.173479080200195,4.466818809509277,76.88812255859375,-1.6043658185304897,0.0642422305389833,91.04056696841482,6.0124435,-0.6679508,0.95105255,13.117205,-21.403934,0.825741,-30.938744,-11.125276,-13.805799,63.045834,-7.1373277,-2.4210331,-6.268912,-2.570181,13.842852,6.6143675,9.677937,-16.602375,70.59496,3.609479,4.835007,9.795677,6.285863,-9.348798,13.318053,63.66637,-23.916279,0.92452186,-12.853406
66,-4.192226886749268,4.781455039978027,76.87166595458984,-1.8316561640214177,0.1675897504278301,90.987336115064,6.1810026,-0.41135544,0.99572647,13.13531,-21.63968,0.8186884,-31.1715,-10.506069,-14.148682,61.131233,-6.8789215,-1.9701511,-6.4366803,-2.3480957,13.883164,6.6711006,9.73802,-16.708763,70.48267,3.4976888,4.7870955,9.668437,6.4037466,-9.213906,13.051132,63.986122,-23.878998,1.0435935,-12.823407
67,-4.21372127532959,5.105502605438232,76.84521484375,-2.039398798404145,0.2697039576299696,90.9223423348319,6.3681626,-0.1760953,1.0487005,13.135307,-21.875492,0.81248784,-31.34044,-9.870223,-14.467118,59.01154,-6.650359,-1.5049891,-6.59587,-2.1484795,13.928119,6.717229,9.811238,-16.842623,70.34801,3.3794584,4.7309475,9.520158,6.506533,-9.074046,12.7814,64.312515,-23.853195,1.1655982,-12.782676
68,-4.239213943481445,5.438628673553467,76.81074523925781,-2.2200146178126134,0.388168735927069,90.84358656767002,6.5571938,0.030649962,1.1145885,13.11385,-22.111597,0.80757916,-31.475435,-9.238154,-14.755915,56.734962,-6.4074655,-1.0389214,-6.7374506,-1.9802587,13.955581,6.7352123,9.899096,-16.983887,70.21612,3.3265963,4.6899233,9.340824,6.602831,-8.930864,12.533173,64.63223,-23.814898,1.264555,-12.748764
69,-4.238737106323242,5.76645040512085,76.76741790771484,-2.3691621730781267,0.5259397481788908,90.7514381195795,6.7386656,0.20422249,1.1932901,13.081179,-22.351826,0.80473435,-31.565554,-8.60893,-15.017767,54.259583,-6.18127,-0.55960786,-6.8626328,-1.8512732,13.963745,6.7189794,10.005986,-17.139206,70.08731,3.3596256,4.6640234,9.101416,6.689146,-8.786877,12.310989,64.94844,-23.751478,1.3297695,-12.72169
70,-4.257439613342285,6.1186323165893555,76.71891784667969,-2.48962508910192,0.6736526285985138,90.64760884741845,6.926964,0.34803563,1.2818296,13.026948,-22.590237,0.80319816,-31.592196,-7.9727917,-15.254428,51.56429,-5.9726763,-0.06566724,-6.9770675,-1.756305,13.963913,6.6816373,10.131789,-17.313374,69.945496,3.44044,4.6426463,8.814638,6.7643223,-8.640875,12.103738,65.26303,-23.677048,1.3760744,-12.6921
71,-4.264076232910156,6.484376430511475,76.66567993164062,-2.5877889867710957,0.8306351075116322,90.5326980063611,7.1296997,0.46650264,1.3808732,12.942144,-22.825558,0.8009969,-31.575348,-7.3355136,-15.458958,48.73066,-5.7002115,0.41495052,-7.077247,-1.6857262,13.951782,6.6296372,10.2705345,-17.48731,69.79775,3.550861,4.6324453,8.535224,6.834956,-8.493209,11.913744,65.568245,-23.60715,1.4164866,-12.667404
72,-4.2659220695495605,6.859079837799072,76.60323333740234,-2.6701808278790824,0.9962703261783739,90.40692435075874,7.3556824,0.56482506,1.4912823,12.814262,-23.054548,0.79607224,-31.536535,-6.7027,-15.6234,45.842068,-5.283091,0.8546224,-7.1614985,-1.6275984,13.9228,6.568987,10.41214,-17.639696,69.65308,3.6735094,4.6404023,8.318599,6.907683,-8.344067,11.745145,65.85608,-23.556879,1.4641048,-12.654327
73,-4.274629592895508,7.243864059448242,76.5334243774414,-2.7373626639081983,1.1771587633328684,90.26470913179789,7.6031656,0.64286774,1.6202401,12.633109,-23.273596,0.7863938,-31.49161,-6.072555,-15.74162,42.898224,-4.647075,1.2237041,-7.2252016,-1.5773735,13.869454,6.4927807,10.549705,-17.76604,69.520836,3.8283255,4.6801796,8.174464,6.9782705,-8.196047,11.618051,66.13533,-23.535864,1.5307217,-12.669916
74,-4.277931213378906,7.643411159515381,76.4532470703125,-2.7848287806096668,1.3708508835667477,90.10971693681677,7.870162,0.69527704,1.7633915,12.4067745,-23.485,0.7731662,-31.420261,-5.4446063,-15.815753,39.855457,-3.850809,1.5456423,-7.2748647,-1.5415944,13.795477,6.3972692,10.682548,-17.87537,69.400185,4.017467,4.7438016,8.0766735,7.0449157,-8.051346,11.52468,66.40756,-23.535278,1.6068658,-12.705565
75,-4.278092861175537,8.050002098083496,76.36788177490234,-2.8104787236006654,1.5621848813362205,89.95543815014364,8.167489,0.7207574,1.9046143,12.144287,-23.69073,0.75917494,-31.288698,-4.825216,-15.851868,36.72572,-3.0089104,1.8717421,-7.323035,-1.5235714,13.7140255,6.291279,10.81142,-17.966576,69.28648,4.1988826,4.806393,8.027338,7.115247,-7.9091,11.43038,66.65635,-23.536772,1.6739905,-12.730717
76,-4.273566722869873,8.460373878479004,76.27405548095703,-2.8111353728703437,1.7359615907829455,89.81676620473296,8.508305,0.71508974,2.0264473,11.85258,-23.892836,0.7478231,-31.063118,-4.2245436,-15.855907,33.520195,-2.2349112,2.2526004,-7.3823233,-1.5309446,13.638325,6.1837077,10.938497,-18.039326,69.175,4.3298793,4.843141,8.028863,7.1975336,-7.768212,11.296906,66.86579,-23.5264,1.7138417,-12.7155485
77,-4.266989231109619,8.885133743286133,76.16856384277344,-2.7807871669079782,1.8854802474727255,89.69377156401318,8.905356,0.66789126,2.1250298,11.517453,-24.086246,0.740551,-30.713268,-3.6325622,-15.815695,30.176521,-1.530131,2.7316475,-7.4554005,-1.572468,13.575379,6.0748596,11.065246,-18.112988,69.06872,4.392692,4.844143,8.1188965,7.293112,-7.624515,11.1114235,67.02529,-23.49626,1.7243123,-12.650278
78,-4.240516662597656,9.31973648071289,76.05032348632812,-2.71281404672622,2.015148888915317,89.58847100858704,9.36363,0.5718336,2.2002392,11.119444,-24.260609,0.73709047,-30.244394,-3.0638885,-15.731255,26.679636,-0.8286847,3.2703583,-7.540889,-1.6543899,13.520275,5.9599166,11.193026,-18.184391,68.96935,4.411179,4.824023,8.284012,7.3976245,-7.4779983,10.890891,67.148994,-23.457972,1.7129036,-12.552944
79,-4.228522777557373,9.778884887695312,75.92017364501953,-2.602547153591153,2.1251264279534,89.51970879068078,9.88167,0.42613706,2.2388701,10.661826,-24.410019,0.7396694,-29.678751,-2.563384,-15.630926,23.115906,-0.14425747,3.8008518,-7.649798,-1.7795897,13.468874,5.843655,11.322781,-18.216633,68.86641,4.405877,4.794713,8.4486065,7.5158567,-7.3295507,10.651174,67.24445,-23.41904,1.6801516,-12.431083
80,-4.217679977416992,10.25551700592041,75.77991485595703,-2.44841473283394,2.2163553612289193,89.5046223339248,10.453634,0.23243341,2.2288787,10.154446,-24.532152,0.7509836,-29.050104,-2.168416,-15.54655,19.592117,0.5025489,4.2608914,-7.7919807,-1.9494804,13.416468,5.730901,11.45571,-18.171635,68.74962,4.397747,4.7679687,8.537197,7.6485105,-7.183144,10.407938,67.32801,-23.387648,1.622129,-12.294295
81,-4.199863433837891,10.750482559204102,75.62625122070312,-2.2427723378462923,2.287921150307336,89.55082143486182,11.088599,-0.018324293,2.1612191,9.583911,-24.623325,0.7784623,-28.34705,-1.8800641,-15.48837,16.078728,1.102433,4.669997,-7.975352,-2.1733673,13.358,5.6326675,11.591529,-18.002031,68.608635,4.395557,4.7446156,8.506256,7.8055124,-7.0395913,10.154341,67.39638,-23.357912,1.5224061,-12.129173
82,-4.174041271209717,11.25902271270752,75.45551300048828,-1.9776711486816247,2.334737739667263,89.65814948935079,11.802352,-0.33450246,2.0298133,8.926201,-24.672634,0.8223191,-27.55058,-1.6864626,-15.449732,12.526628,1.679105,5.0615544,-8.205488,-2.4590216,13.299055,5.546921,11.7306795,-17.736506,68.44926,4.3882723,4.71907,8.4032135,7.9831905,-6.898985,9.890604,67.44412,-23.326092,1.387736,-11.935804
83,-4.138357639312744,11.781867980957031,75.27214813232422,-1.6695560384672548,2.3588641971954387,89.82027315230557,12.5818815,-0.6931653,1.8390522,8.195432,-24.677153,0.8711707,-26.649895,-1.5664449,-15.442543,8.919984,2.3016484,5.3932953,-8.477009,-2.7867723,13.246565,5.4580636,11.874304,-17.454615,68.28377,4.365205,4.693872,8.288486,8.16557,-6.76289,9.638363,67.47829,-23.305595,1.2495096,-11.7425785
84,-4.096402645111084,12.309187889099121,75.08222961425781,-1.35250225934456,2.3694199394159696,90.01731509277764,13.210754,-1.0457741,1.6130018,7.8268704,-24.858578,0.9086053,-26.330616,-1.6728104,-15.453378,6.756585,2.24139,5.622926,-8.770326,-3.119285,13.204348,5.349205,12.022746,-17.235622,68.12464,4.3167877,4.6713595,8.222461,8.334692,-6.6342645,9.418789,67.50717,-23.308746,1.138576,-11.577478
85,-4.0623555183410645,12.8499116897583,74.88941192626953,-1.0495484156153494,2.380619274654939,90.23521161099333,13.681834,-1.3684334,1.3724198,7.8004146,-25.217665,0.92550784,-26.899906,-2.0678022,-15.483963,6.662261,1.1471903,5.69817,-9.071253,-3.430416,13.163343,5.2116814,12.174839,-17.104074,67.9793,4.2184076,4.6526446,8.232648,8.490933,-6.5145774,9.22919,67.527985,-23.360773,1.0577202,-11.439771
86,-4.022561073303223,13.38963508605957,74.6996078491211,-0.7673362904100395,2.3963783196608284,90.46415176607724,14.153314,-1.6595719,1.1253532,7.7773933,-25.577269,0.9262405,-27.436844,-2.4645243,-15.554823,6.594418,0.07353755,5.649512,-9.36832,-3.7126763,13.117486,5.0520167,12.328085,-17.0187,67.841064,4.0826926,4.6362686,8.28338,8.640212,-6.403476,9.057924,67.538536,-23.447231,0.99143434,-11.316588
87,-3.981816053390503,13.947357177734375,74.50464630126953,-0.5079181623900247,2.4124773263239696,90.68833949821862,14.629315,-1.9142805,0.88434404,7.764819,-25.916367,0.9152164,-27.928408,-2.8307726,-15.629075,6.560042,-0.9182944,5.5613513,-9.647479,-3.9611957,13.072199,4.872156,12.477067,-16.96323,67.706154,3.9514472,4.6218133,8.341743,8.773904,-6.307035,8.910173,67.54685,-23.525698,0.94421524,-11.218003
88,-3.9383704662323,14.51297378540039,74.3176498413086,-0.31597562087348385,2.4222033154282774,90.8810311999884,15.121837,-2.07793,0.6773822,7.76364,-26.213814,0.8864093,-28.315536,-3.0796807,-15.690916,6.48239,-1.7297971,5.50264,-9.8942,-4.1099772,13.038354,4.6532226,12.572062,-16.912464,67.60933,3.8743713,4.6027317,8.385321,8.8858595,-6.2566214,8.8013115,67.55941,-23.545916,0.9209265,-11.152351
89,-3.885096788406372,15.091082572937012,74.12445831298828,-0.11766210341481023,2.4185827373916093,91.06676537267515,15.641089,-2.2433422,0.47004196,7.7632427,-26.467411,0.8616833,-28.653635,-3.3228476,-15.726627,6.482183,-2.412686,5.5018106,-10.109831,-4.268631,13.020312,4.4221044,12.68902,-16.886206,67.49741,3.8619404,4.581052,8.383581,8.970313,-6.206116,8.715657,67.5743,-23.476381,0.92972255,-11.145259
90,-3.8380377292633057,15.679144859313965,73.94125366210938,0.035271748103998676,2.4082334050761953,91.23080663407939,16.177507,-2.349212,0.28660882,7.7713633,-26.693583,0.8248164,-28.904123,-3.4975662,-15.765802,6.4587774,-2.9502919,5.501461,-10.287841,-4.382144,13.019087,4.17756,12.816918,-16.883858,67.37654,3.889536,4.5582137,8.359328,9.029612,-6.163152,8.6600895,67.59039,-23.345837,0.9665141,-11.185171
91,-3.7918128967285156,16.272903442382812,73.7640609741211,0.164856902708941,2.401985279514463,91.36991614051054,16.718197,-2.4181163,0.1320637,7.7868233,-26.867184,0.7742508,-29.085875,-3.619992,-15.743826,6.446204,-3.3461041,5.48946,-10.428364,-4.46632,13.017911,3.924731,12.943757,-16.889236,67.24643,3.9311407,4.5383153,8.327823,9.068341,-6.1311197,8.627965,67.61667,-23.22623,1.0141765,-11.226849
92,-3.7265818119049072,16.879676818847656,73.59403228759766,0.25867574043442654,2.4086969216541374,91.47347146369049,17.248888,-2.4371836,0.022760822,7.8130555,-26.96493,0.7018569,-29.191565,-3.6640599,-15.6119795,6.4298215,-3.5731628,5.4501395,-10.522654,-4.5109434,13.009105,3.6762338,13.066633,-16.887007,67.095,3.959054,4.52641,8.302458,9.089424,-6.108839,8.611685,67.66265,-23.190994,1.0566913,-11.226216
93,-3.6652233600616455,17.492904663085938,73.4317626953125,0.3478635491734717,2.398330151259207,91.55172979592004,17.804266,-2.4451666,-0.049453806,7.8490124,-26.997425,0.61535025,-29.18975,-3.6614752,-15.297171,6.4322057,-3.717213,5.436039,-10.580074,-4.550632,13.014641,3.4378905,13.19258,-16.876064,66.91474,3.9673195,4.534391,8.26971,9.099825,-6.095926,8.608844,67.72634,-23.302197,1.0900458,-11.143922
94,-3.593736410140991,18.11920928955078,73.2827377319336,0.4213294057327439,2.3745013192248603,91.60752767321755,18.381218,-2.4324315,-0.08845591,7.8941727,-26.971268,0.5143448,-29.086056,-3.6074607,-14.850361,6.4431696,-3.7562017,5.4377975,-10.606157,-4.584751,13.040374,3.242401,13.354243,-16.859358,66.656975,3.9653096,4.5607123,8.218259,9.097032,-6.0906534,8.629996,67.79479,-23.504751,1.1213067,-11.0075865
95,-3.5185344219207764,18.765647888183594,73.14762115478516,0.4302291226809731,2.4049898340097027,91.62187548522138,18.89773,-2.3379374,-0.07547281,7.950818,-26.853954,0.38333502,-28.964132,-3.4474182,-14.396167,6.44829,-3.5270095,5.354119,-10.579851,-4.534776,13.022968,3.0085766,13.472827,-16.837029,66.43695,3.967824,4.57552,8.199621,9.063853,-6.095537,8.667135,67.89362,-23.702997,1.1552914,-10.890968
96,-3.4396262168884277,19.430217742919922,73.02558135986328,0.32409016550702757,2.5497330549167874,91.57688464939285,19.1995,-2.0992677,0.011629584,8.19715,-26.707275,0.2052923,-28.906275,-3.1306229,-14.059781,6.4465613,-2.8718367,5.0841093,-10.486447,-4.362815,12.942332,2.8023775,13.607544,-16.80005,66.14477,3.9646437,4.566554,8.221602,8.989631,-6.1045527,8.729038,68.00015,-23.793528,1.1904005,-10.847261
97,-3.342437267303467,20.08985137939453,72.95103454589844,0.08791938101449458,2.870084500632272,91.47491523613408,18.785236,-1.6962936,0.18737139,9.5518875,-27.024508,-0.024358908,-28.97462,-2.652172,-13.893229,6.463347,-1.6370025,4.636533,-10.312731,-4.0416846,12.743318,2.5600445,13.731283,-16.765835,65.8571,3.9780002,4.517281,8.304793,8.8675,-6.110069,8.813976,68.12156,-23.719648,1.2373755,-10.932897
98,-3.2379209995269775,20.760860443115234,72.91574096679688,-0.30342624842218907,3.31880174920047,91.31886936096892,18.123398,-1.0984728,0.43161038,11.148329,-27.360918,-0.31195408,-29.076288,-1.9817095,-13.865683,6.4224496,0.088040344,4.041707,-10.077723,-3.5861638,12.482239,2.36691,13.931527,-16.713013,65.45989,3.9882236,4.4451942,8.405803,8.699326,-6.1043205,8.945419,68.243256,-23.535263,1.2883604,-11.09343
99,-3.1166224479675293,21.439308166503906,72.89598083496094,-0.7739967961780841,3.816909665749974,91.12784878398894,17.371355,-0.39438936,0.6956196,12.833683,-27.603958,-0.6422814,-29.217796,-1.2208114,-13.910192,6.4136534,1.9830201,3.2576334,-9.799723,-3.0310633,12.1725445,2.1644917,14.06615,-16.6471,65.075386,3.9862583,4.3638377,8.563414,8.498449,-6.095471,9.063908,68.406685,-23.350204,1.3355126,-11.271006
100,-2.980707883834839,22.131399154663086,72.89740753173828,-1.3142127108641322,4.278427134733846,90.9046123486886,16.63838,0.400868,0.96330494,14.582346,-27.708254,-1.0156057,-29.333683,-0.37962922,-13.989693,6.39838,3.7885978,2.2360709,-9.525496,-2.4173079,11.881862,2.0768654,14.183591,-16.513378,64.572945,3.9352367,4.2943892,8.749343,8.267695,-6.0919623,9.187705,68.61275,-23.24443,1.35934,-11.375894
101,-2.84128999710083,22.841175079345703,72.91817474365234,-1.9624742276219596,4.707850489678501,90.63742659133074,15.936576,1.3379117,1.239832,16.381258,-27.694677,-1.4677545,-29.458645,0.5914824,-14.123396,6.3806524,5.5661683,0.7611776,-9.237685,-1.6959285,11.601532,2.0926106,14.263113,-16.30455,63.95448,3.8356433,4.257652,8.98778,8.0199375,-6.1021686,9.293592,68.86771,-23.260056,1.3285666,-11.3610115
102,-2.6936960220336914,23.57061195373535,72.96112060546875,-2.7181777133990526,5.134801255108691,90.33425558031526,15.230158,2.4153218,1.5142858,18.23083,-27.572153,-1.9905576,-29.603384,1.6801789,-14.358302,6.3618293,7.424013,-1.0763594,-8.937996,-0.8658023,11.313076,2.1889489,14.31353,-16.032537,63.243607,3.7006278,4.23461,9.272542,7.7514505,-6.126351,9.396697,69.158485,-23.342133,1.2598991,-11.274694
103,-2.5544350147247314,24.331178665161133,73.0164794921875,-3.467998812361906,5.511866516256097,90.03248748278207,14.565331,3.4885135,1.7460667,20.093857,-27.249094,-2.506167,-29.686678,2.7461536,-14.6414795,6.3546658,9.140972,-2.8530343,-8.687998,-0.04546016,11.052143,2.3997867,14.341679,-15.6956835,62.43456,3.5265603,4.1936145,9.557526,7.4390755,-6.1695466,9.547328,69.47853,-23.429132,1.2120196,-11.183205
104,-2.4147777557373047,25.104978561401367,73.07701873779297,-4.101626824230076,5.796455082707931,89.76574181678517,13.972509,4.4133224,1.9081166,21.94943,-26.645275,-2.9355707,-30.363447,3.454704,-14.917951,7.9912243,9.634462,-4.1323724,-8.50318,0.6569191,10.846959,2.7011526,14.334999,-15.348481,61.58404,3.2993653,4.099136,9.809001,7.0761666,-6.2169404,9.7405615,69.82071,-23.479069,1.2445993,-11.158196
105,-2.2751357555389404,25.888120651245117,73.15128326416016,-4.586994680657592,5.972230280761491,89.52958414683907,13.488621,5.1490507,2.0159035,23.766308,-25.73317,-3.2611995,-30.728569,4.0198674,-15.076708,9.3880625,9.811975,-4.743793,-8.4142065,1.2052847,10.710877,3.1488264,14.287429,-14.9268675,60.640793,3.0219505,3.9371467,10.027186,6.626392,-6.272675,10.040157,70.23133,-23.432365,1.3875227,-11.2285595
106,-2.1471972465515137,26.668495178222656,73.23530578613281,-4.985446332910385,6.068230023215431,89.30286996063862,13.068558,5.776141,2.091421,25.587147,-24.568617,-3.5208423,-30.879143,4.5071774,-15.144827,10.644162,9.74553,-4.9388733,-8.373344,1.6647255,10.623739,3.707803,14.204276,-14.4532175,59.616833,2.6929204,3.7284687,10.231315,6.109095,-6.3277154,10.400311,70.70026,-23.335094,1.6044956,-11.356134
107,-2.020692825317383,27.45245361328125,73.33065032958984,-5.32674025667062,6.113091513980649,89.09540844642225,12.618947,6.330778,2.1211987,27.499931,-23.194664,-3.7217183,-30.890396,4.93202,-15.175991,11.809839,9.48762,-4.9422517,-8.377693,2.0733004,10.571107,4.307016,14.090625,-13.986772,58.590023,2.3228526,3.4889395,10.403118,5.561775,-6.3850613,10.766585,71.151054,-23.273771,1.857773,-11.50769
108,-1.8969390392303467,28.231412887573242,73.43534851074219,-5.63332223965337,6.132708272448294,88.92094339299969,12.06027,6.839391,2.0875356,29.57113,-21.643293,-3.8769252,-30.820698,5.3092737,-15.229466,12.899748,9.104538,-4.976382,-8.393229,2.4613755,10.539454,4.8585124,13.966194,-13.632134,57.647236,1.9091376,3.2356017,10.524097,5.036973,-6.433697,11.047297,71.499115,-23.342646,2.108562,-11.649087
109,-1.7661267518997192,29.01172637939453,73.54339599609375,-5.895074551643879,6.135635810751229,88.78208445064246,11.373282,7.2805133,1.9888197,31.81711,-19.86419,-3.98643,-30.686338,5.6250772,-15.31651,13.93036,8.570391,-5.0455236,-8.416646,2.811936,10.517889,5.381259,13.847528,-13.414476,56.779766,1.3803781,2.9440143,10.602701,4.5442586,-6.45979,11.210869,71.74737,-23.632286,2.3587987,-11.776723
110,-1.6432404518127441,29.796117782592773,73.658447265625,-6.10301582823176,6.108654016122763,88.67094563482632,10.603259,7.6419473,1.8406025,34.190144,-17.851526,-4.057048,-30.46162,5.8754606,-15.401707,14.901439,7.8573995,-5.0461993,-8.464022,3.114208,10.51465,5.9094663,13.718412,-13.275629,55.95461,0.7636948,2.6151552,10.645413,4.051896,-6.467176,11.31196,71.941376,-24.070192,2.6271899,-11.909013
111,-1.5141761302947998,30.5815486907959,73.78251647949219,-6.279125882184115,6.042941844479207,88.58770742686097,9.765391,7.9569917,1.6450533,36.67077,-15.700336,-4.1150846,-30.139513,6.092221,-15.475003,15.796319,7.038478,-5.036473,-8.506948,3.3841388,10.552829,6.3965707,13.608486,-13.229747,55.182407,0.1814563,2.3077447,10.619174,3.5716224,-6.4615164,11.351761,72.03229,-24.523127,2.896748,-12.0363
112,-1.3827753067016602,31.364471435546875,73.91249084472656,-6.443699905407536,5.9289846824005155,88.53355559919932,8.875298,8.258898,1.4003388,39.243404,-13.506979,-4.1820245,-29.710028,6.311242,-15.527347,16.590944,6.1903944,-5.0747447,-8.541618,3.6512,10.649287,6.7826953,13.500817,-13.265962,54.509945,-0.2234805,2.0773902,10.5029545,3.1002643,-6.456911,11.356196,71.9918,-24.851347,3.1527462,-12.156366
113,-1.2589213848114014,32.142608642578125,74.04458618164062,-6.594747437490558,5.75765755785617,88.5060766627994,7.932152,8.5457115,1.0950142,41.94874,-11.258567,-4.241895,-29.140276,6.550874,-15.542438,17.237295,5.316206,-5.180077,-8.571135,3.912213,10.821769,7.0732036,13.424326,-13.431202,53.9317,-0.41577023,1.9472985,10.247912,2.651869,-6.455658,11.287954,71.773415,-25.01783,3.420787,-12.265481
114,-1.1355082988739014,32.91360092163086,74.17901611328125,-6.722544848838021,5.5361736616426676,88.50553931842077,6.930428,8.791193,0.73452747,44.77864,-8.912546,-4.301433,-28.443878,6.7971935,-15.528709,17.755543,4.3853555,-5.3205757,-8.593971,4.1611505,11.052555,7.279218,13.358815,-13.722875,53.453773,-0.4659416,1.8832589,9.887026,2.2229328,-6.456887,11.143835,71.40984,-25.097364,3.6990585,-12.3685
115,-1.018224835395813,33.672279357910156,74.31083679199219,-6.8327236829341516,5.278030673212106,88.53760364419263,5.873189,8.995303,0.33641848,47.66106,-6.528712,-4.4026723,-27.683996,7.033721,-15.512865,18.23234,3.4177573,-5.4778504,-8.598595,4.392287,11.324844,7.417544,13.307506,-14.055317,53.03048,-0.41988802,1.860539,9.489331,1.8093467,-6.464739,11.003031,70.94177,-25.117994,3.9224174,-12.457111
116,-0.9060053825378418,34.4227180480957,74.43285369873047,-6.933042145222385,4.996883530245815,88.60755012802218,4.758428,9.16617,-0.085293174,50.537643,-4.174284,-4.57316,-26.920843,7.239662,-15.520594,18.751585,2.4338238,-5.6308603,-8.567773,4.6069064,11.619365,7.487206,13.257267,-14.350554,52.636005,-0.3213843,1.8537093,9.129254,1.4066938,-6.491078,10.940118,70.414314,-25.106985,4.0266023,-12.524691
117,-0.7978910803794861,35.1639289855957,74.5428237915039,-7.027356277633638,4.693157370354706,88.73385897603653,3.535192,9.274308,-0.61859107,53.494415,-1.7857374,-4.817117,-26.147373,7.4055996,-15.5650425,19.303564,1.438625,-5.7820816,-8.532383,4.8126273,11.942372,7.478757,13.208475,-14.60042,52.25343,-0.09988255,1.8964974,8.793577,1.0185407,-6.536987,10.977615,69.80613,-25.032825,3.972278,-12.56465
118,-0.6940114498138428,35.89200210571289,74.64306640625,-7.111193478925164,4.36020535210153,88.90769806761766,2.2160711,9.322627,-1.2435225,56.548203,0.638863,-5.1095953,-25.337852,7.539487,-15.628032,19.855717,0.4199247,-5.938002,-8.490899,5.0194793,12.299805,7.383369,13.145511,-14.846517,51.91472,0.24381405,1.9857583,8.455187,0.6546534,-6.618275,11.0756235,69.094696,-24.891525,3.7991064,-12.576831
119,-0.5906475782394409,36.61137008666992,74.72844696044922,-7.181083739604131,4.000571827920086,89.09333337974036,0.88831896,9.393823,-1.7838907,59.54734,2.9339378,-5.4071198,-24.519146,7.647761,-15.688771,20.44578,-0.6229311,-6.082037,-8.419797,5.200426,12.678225,7.26045,13.070921,-15.021892,51.60855,0.5652742,2.0456355,8.155104,0.28599995,-6.7241387,11.26751,68.350044,-24.745272,3.5662966,-12.571859
120,-0.4907592535018921,37.32339859008789,74.7955093383789,-7.234293331003874,3.6169749902160433,89.25629571946668,-0.36647898,9.597036,-2.0642214,62.341026,4.9307523,-5.646188,-23.716518,7.739864,-15.729587,21.105656,-1.6864799,-6.1993523,-8.292043,5.346191,13.0625725,7.155237,12.968109,-15.069225,51.33984,0.71990186,2.0009754,7.9391017,-0.10705554,-6.8624773,11.581856,67.63316,-24.654575,3.331427,-12.556847
121,-0.39229825139045715,38.01755142211914,74.84725952148438,-7.282708742505771,3.2114845536501777,89.40269959319433,-1.5403894,10.066725,-1.9852076,64.914,6.6836257,-5.856149,-22.935804,7.8264513,-15.769793,21.840584,-2.7759664,-6.2880974,-8.106517,5.4747257,13.452024,7.066134,12.823055,-14.956226,51.106544,0.71273106,1.8236728,7.8089905,-0.51277965,-7.037368,12.01979,66.92668,-24.63496,3.0749688,-12.500075
122,-0.3002203106880188,38.70992660522461,74.87873840332031,-7.332207567036414,2.781295432650114,89.54333856851474,-2.6842473,10.770915,-1.6600218,67.36676,8.238951,-5.9993954,-22.161234,7.908235,-15.813608,22.624722,-3.8842988,-6.3575187,-7.8766565,5.600718,13.852769,6.965534,12.632402,-14.715565,50.919674,0.61039186,1.556502,7.74605,-0.9257889,-7.248093,12.573933,66.208275,-24.652166,2.7785006,-12.407819
123,-0.21908652782440186,39.39382553100586,74.89791870117188,-7.364663537780472,2.322664878323974,89.65305810216815,-3.7983742,11.566225,-1.2273169,69.70862,9.418659,-5.9251585,-21.378675,7.9808273,-15.822136,23.432394,-4.9876,-6.4097395,-7.6023817,5.7081933,14.260837,6.8632855,12.398519,-14.383647,50.79949,0.3606284,1.2314652,7.763361,-1.379008,-7.4944205,13.261318,65.53721,-24.694582,2.4978423,-12.346115
124,-0.13601583242416382,40.058326721191406,74.90676879882812,-7.35979617765071,1.8327372555975763,89.710104371518,-4.876378,12.277091,-0.82208127,71.92953,10.048509,-5.514564,-20.577991,8.031611,-15.757571,24.251566,-6.0666537,-6.445292,-7.287947,5.7739596,14.671408,6.7738504,12.126598,-13.996032,50.76146,-0.08862836,0.8801396,7.8723006,-1.9038472,-7.775808,14.100922,64.96706,-24.751316,2.292345,-12.379166
125,-0.055023834109306335,40.73291778564453,74.91759490966797,-7.300141178956977,1.2953592152988358,89.69175552458962,-5.9093018,12.853681,-0.44009206,74.05312,10.01168,-4.632091,-19.760483,8.05345,-15.594781,25.113548,-7.126466,-6.4609103,-6.9033732,5.779869,15.097629,6.698044,11.811994,-13.521838,50.818752,-0.85067815,0.4638149,8.103621,-2.5115824,-8.089794,15.137426,64.50796,-24.810005,2.1938138,-12.568469
126,0.008260234259068966,41.386959075927734,74.92534637451172,-7.197635528021958,0.7177468427553645,89.61596492605214,-6.894383,13.363689,-0.029687485,76.06936,9.417269,-3.4104302,-18.932224,8.049054,-15.360723,26.01947,-8.177148,-6.456979,-6.459902,5.7417583,15.537192,6.630574,11.452072,-12.952879,50.958714,-1.8612952,-0.02344251,8.435848,-3.18665,-8.431429,16.355946,64.132675,-24.875847,2.1656814,-12.864386
127,0.08197496831417084,42.05332946777344,74.93151092529297,-7.062111484059425,0.133177355164625,89.52160300554705,-7.8426037,13.781857,0.35016832,77.91916,8.435771,-2.1535618,-18.094213,8.018132,-15.095095,26.911797,-9.209316,-6.4395556,-6.0188675,5.682672,15.962865,6.5778594,11.061598,-12.3647995,51.153416,-2.91124,-0.4992251,8.804976,-3.9138267,-8.793941,17.670527,63.83455,-24.977205,2.1627982,-13.16325
128,0.14647457003593445,42.7032356262207,74.93682861328125,-6.908850492417691,-0.42521867200211777,89.44737330093582,-8.767373,14.095415,0.65087295,79.5427,7.2450075,-1.1532614,-17.246792,7.9623175,-14.837863,27.731384,-10.212839,-6.415037,-5.634096,5.621929,16.348898,6.548877,10.666159,-11.841364,51.367146,-3.7978222,-0.8761513,9.151815,-4.677201,-9.169903,18.991222,63.60386,-25.138634,2.139402,-13.36098
129,0.2095419466495514,43.35261535644531,74.9406967163086,-6.725581759446552,-0.9554161236706351,89.40162950882207,-9.666527,14.264967,0.8632823,80.93084,5.7893243,-0.48990372,-16.40253,7.8646984,-14.592002,28.501997,-11.200512,-6.385225,-5.3125596,5.536071,16.695312,6.5555367,10.281037,-11.385266,51.57676,-4.544553,-1.1322585,9.491578,-5.4842105,-9.5570135,20.313845,63.439987,-25.412529,2.0821397,-13.413817
130,0.2773740589618683,44.00349044799805,74.94589233398438,-6.50931835991465,-1.4719003017515546,89.36479254675154,-10.538259,14.28851,1.0173336,82.11361,4.017525,-0.024111275,-15.559051,7.7268424,-14.34062,29.245365,-12.174768,-6.3461256,-5.020121,5.414142,17.01618,6.596472,9.90778,-10.967682,51.792458,-5.2421236,-1.312083,9.84611,-6.3354225,-9.952217,21.673527,63.338596,-25.771526,2.0149622,-13.381227
131,0.3468044400215149,44.64623260498047,74.94851684570312,-6.286594066030996,-1.9676160356542398,89.33335043062574,-11.396705,14.230458,1.134186,83.08774,2.1173127,0.30069813,-14.69572,7.5814223,-14.094101,29.900715,-13.1096525,-6.296174,-4.74775,5.294498,17.306126,6.6607594,9.553314,-10.62671,52.028397,-5.7913146,-1.422325,10.170738,-7.2049794,-10.345605,23.032806,63.289104,-26.125868,1.9459519,-13.315934
132,0.40735119581222534,45.29627990722656,74.95279693603516,-6.087274179262436,-2.4353555197176524,89.30407643058433,-12.254923,14.159882,1.2345203,83.847466,0.2730507,0.54464275,-13.791486,7.4629707,-13.8626,30.406754,-13.978669,-6.2344437,-4.4813333,5.213838,17.55798,6.735344,9.229667,-10.40558,52.300243,-6.0951514,-1.4678645,10.421334,-8.069748,-10.727369,24.350187,63.286064,-26.384926,1.8841603,-13.271695
133,0.45696189999580383,45.94671630859375,74.95172882080078,-5.923695087421826,-2.8745203448460153,89.2847076676921,-13.123463,14.070596,1.2991897,84.39574,-1.5052773,0.6671805,-12.842671,7.3794966,-13.659554,30.75941,-14.787789,-6.1672077,-4.217803,5.1794515,17.764408,6.812749,8.94837,-10.336143,52.62182,-6.113074,-1.4388243,10.607592,-8.937314,-11.094444,25.63128,63.34991,-26.507952,1.8397715,-13.270809
134,0.5116602182388306,46.584815979003906,74.95999908447266,-5.778481001835048,-3.288635363433799,89.27406588517425,-13.993442,13.940188,1.3346813,84.73002,-3.2980082,0.65993655,-11.86031,7.315735,-13.477285,30.98932,-15.5478525,-6.0941567,-3.958867,5.16681,17.930021,6.901914,8.711591,-10.393422,52.97928,-5.9066305,-1.3323543,10.745815,-9.818821,-11.447379,26.889395,63.480606,-26.547688,1.8050205,-13.283031
135,0.5684508681297302,47.23703384399414,74.981201171875,-5.644523114274431,-3.676567635954899,89.25604095627837,-14.848431,13.810178,1.3947762,84.8388,-5.057536,0.6276014,-10.845933,7.270771,-13.2940035,31.086706,-16.239538,-6.004749,-3.6993814,5.1660576,18.065304,7.0132537,8.515083,-10.534355,53.349117,-5.5321903,-1.1636907,10.801296,-10.687199,-11.780788,28.080376,63.63549,-26.569569,1.7638756,-13.283383
136,0.6157849431037903,47.882999420166016,75.01055908203125,-5.508648393187782,-4.037173484403715,89.21415464678708,-15.670922,13.716286,1.5290738,84.71025,-6.738218,0.66887295,-9.801466,7.2415257,-13.087667,31.043816,-16.84477,-5.8881755,-3.434921,5.1660886,18.179163,7.1574984,8.352467,-10.71508,53.709785,-5.04375,-0.9495546,10.740385,-11.520133,-12.089234,29.161655,63.781178,-26.63879,1.700618,-13.248638
137,0.6714624166488647,48.52648162841797,75.05097198486328,-5.3780768161679795,-4.371363610440352,89.14908993457627,-16.459946,13.664266,1.7356741,84.34362,-8.411862,0.80533975,-8.716605,7.2386374,-12.860081,30.844177,-17.356684,-5.737203,-3.1721373,5.173534,18.270668,7.3387756,8.224008,-10.933412,54.063152,-4.367285,-0.6790731,10.520711,-12.324606,-12.37318,30.140417,63.936108,-26.784994,1.5863702,-13.170312
138,0.7204769253730774,49.1910400390625,75.10882568359375,-5.256377270553817,-4.679156958866829,89.067968699814,-17.220226,13.630041,1.9932879,83.74,-10.075263,0.9787815,-7.595361,7.2579813,-12.620388,30.501308,-17.788868,-5.5606446,-2.912552,5.189014,18.334019,7.549732,8.130718,-11.2078905,54.421726,-3.500854,-0.35256848,10.169152,-13.114205,-12.635367,31.035295,64.1196,-26.968132,1.4376785,-13.0636215
139,0.7514466047286987,49.84669494628906,75.17218017578125,-5.122428126475565,-4.957503091907492,88.96399451298828,-17.942762,13.601426,2.3204114,82.8924,-11.571319,1.1650124,-6.4601603,7.2731647,-12.357537,30.048077,-18.150778,-5.3713202,-2.6451094,5.1940775,18.370884,7.7826853,8.066123,-11.525229,54.781647,-2.6062298,-0.002948453,9.758103,-13.872423,-12.873134,31.814575,64.29745,-27.15617,1.3075619,-12.940958
140,0.7953184843063354,50.50187683105469,75.24671936035156,-4.959474302762105,-5.2030767642001505,88.83052586534465,-18.617785,13.5694685,2.73809,81.79519,-12.7438135,1.3430885,-5.3364587,7.2565393,-12.061244,29.523272,-18.454538,-5.1806297,-2.3595722,5.1706576,18.38222,8.028792,8.020732,-11.871322,55.141666,-1.8449252,0.34076,9.363465,-14.586732,-13.081528,32.45028,64.44141,-27.313324,1.249298,-12.815122
141,0.8233783841133118,51.15317153930664,75.33732604980469,-4.75624631341981,-5.413125504307526,88.65170678657823,-19.242676,13.556075,3.2896907,80.43621,-13.521484,1.5495526,-4.2254896,7.1987653,-11.712243,28.915468,-18.69301,-4.9728765,-2.0495875,5.1145353,18.363289,8.283554,7.991677,-12.252908,55.50972,-1.2607181,0.7000018,8.962474,-15.272671,-13.260233,32.952045,64.575134,-27.435152,1.2949654,-12.674802
142,0.8493638634681702,51.806758880615234,75.43257141113281,-4.5254353362015385,-5.589325516787986,88.43595806147725,-19.816298,13.555325,3.9581661,78.82302,-14.00217,1.7788204,-3.1182485,7.1109076,-11.321934,28.217203,-18.866497,-4.7475624,-1.7243477,5.0349464,18.31366,8.549435,7.9802995,-12.67206,55.889324,-0.7653552,1.0811169,8.531184,-15.937685,-13.41168,33.3343,64.71592,-27.536047,1.4096148,-12.519461
143,0.8670814037322998,52.46449661254883,75.54463195800781,-4.279914409923097,-5.73539246292449,88.21252374037147,-20.329668,13.5217085,4.6737456,76.97204,-14.28571,1.9513867,-2.0186834,6.99844,-10.926249,27.45881,-18.989927,-4.537869,-1.3980151,4.9358773,18.241085,8.830017,7.9818807,-13.105859,56.27147,-0.3222269,1.4355288,8.145702,-16.5501,-13.532838,33.56065,64.81921,-27.626282,1.5493424,-12.376792
144,0.8965146541595459,53.113494873046875,75.65594482421875,-4.032051598066365,-5.8556352951951895,88.01054226637189,-20.778002,13.41352,5.3626075,74.89892,-14.467779,1.9914389,-0.9311114,6.8688116,-10.560943,26.671463,-19.078342,-4.376772,-1.0856025,4.822151,18.152235,9.128538,7.9897165,-13.531208,56.649746,0.1035332,1.7151188,7.883409,-17.086565,-13.61923,33.601757,64.85249,-27.709288,1.6692529,-12.276537
145,0.9432668089866638,53.76722717285156,75.76417541503906,-3.780871390478921,-5.950832427686955,87.83803792585131,-21.158478,13.24343,6.029062,72.57918,-14.56103,1.8838028,0.13555716,6.7173033,-10.234049,25.877623,-19.13335,-4.2988653,-0.8008889,4.6893787,18.049332,9.44064,8.001936,-13.979572,57.039547,0.5140791,1.8963957,7.797779,-17.563007,-13.660223,33.45843,64.840065,-27.790215,1.766072,-12.243711
146,0.9720398783683777,54.40493392944336,75.86770629882812,-3.524192161094225,-6.019208321475499,87.68003513248784,-21.472912,13.027743,6.702801,70.01026,-14.517179,1.6699982,1.1826975,6.5436773,-9.928017,25.062696,-19.14906,-4.2766466,-0.51776767,4.5424542,17.928267,9.755497,8.02393,-14.470725,57.446705,0.88600487,2.011434,7.8409004,-17.973673,-13.665933,33.113834,64.78188,-27.88025,1.8606594,-12.255976
147,0.9885071516036987,55.054901123046875,75.96826934814453,-3.2698030793581316,-6.061678734605182,87.5305682011832,-21.725117,12.736472,7.341156,67.23279,-14.336598,1.36135,2.2314384,6.36552,-9.638208,24.181622,-19.124897,-4.250003,-0.2468292,4.387727,17.785784,10.101427,8.046509,-14.894302,57.83073,1.2359878,2.0934904,7.930846,-18.328293,-13.636689,32.61338,64.6683,-27.942312,1.9459735,-12.278195
148,1.0072762966156006,55.713783264160156,76.07200622558594,-3.0301797329240987,-6.079049234340924,87.38395755143966,-21.921526,12.345383,7.896749,64.28669,-14.0205765,0.9734737,3.3017235,6.2002683,-9.359795,23.192463,-19.05619,-4.159723,0.011104672,4.238079,17.617134,10.498881,8.054793,-15.154601,58.159626,1.5789437,2.1746044,7.9884677,-18.625051,-13.582772,31.989555,64.478775,-27.943243,2.0150547,-12.274434
149,1.0227532386779785,56.38116455078125,76.1650161743164,-2.8010739810508163,-6.067495644175662,87.23595072823508,-22.058062,11.83034,8.336269,61.128456,-13.532598,0.49724847,4.3912354,6.0420065,-9.091714,22.086805,-18.943586,-3.9714546,0.26412848,4.0961347,17.414711,10.956215,8.035083,-15.226831,58.42799,1.9504652,2.2587378,7.996359,-18.846718,-13.500792,31.181305,64.19609,-27.874523,2.075194,-12.236361
150,1.0458887815475464,57.04482650756836,76.25052642822266,-2.5800349753951495,-6.028143576186873,87.09007413697671,-22.130882,11.225451,8.676262,57.74349,-12.88377,-0.05694512,5.506306,5.889142,-8.833218,20.854631,-18.77044,-3.7230685,0.49664998,3.9611065,17.183289,11.464759,7.980482,-15.14851,58.655293,2.3392987,2.3289914,7.995621,-19.007528,-13.394817,30.21319,63.83539,-27.74705,2.1283855,-12.181269
151,1.0578229427337646,57.712154388427734,76.32716369628906,-2.377108762082498,-5.969309244731775,86.9515561187188,-22.152525,10.598986,8.952574,54.22592,-12.162064,-0.64029175,6.629634,5.7532206,-8.58926,19.56047,-18.568651,-3.4601865,0.71259254,3.8427932,16.929695,11.995315,7.8979087,-14.966243,58.86864,2.6758041,2.3867824,8.00306,-19.139452,-13.270568,29.186312,63.433445,-27.578363,2.1576161,-12.114612
152,1.0627145767211914,58.39763259887695,76.38494873046875,-2.2057090765603475,-5.899797170129092,86.82636097051251,-22.136524,10.00944,9.204651,50.667988,-11.4436455,-1.2136176,7.7667418,5.651601,-8.360116,18.222584,-18.345743,-3.2334929,0.9101234,3.7494845,16.664291,12.525048,7.798759,-14.718813,59.084957,2.8905628,2.4338138,8.032929,-19.263655,-13.134416,28.19061,63.015343,-27.403149,2.1450214,-12.040965
153,1.087122917175293,59.06983184814453,76.4212417602539,-2.0690554044159586,-5.824353472142878,86.71555766852991,-22.055353,9.452948,9.436462,47.012787,-10.717402,-1.8199188,8.920967,5.5897527,-8.140022,16.8502,-18.116673,-3.0716293,1.0926683,3.683461,16.390854,13.0617075,7.686104,-14.399466,59.29694,2.9665375,2.468574,8.101414,-19.361244,-12.98853,27.213177,62.552296,-27.212542,2.074935,-11.953462
154,1.099843144416809,59.75227355957031,76.44059753417969,-1.9629780217948205,-5.738508426708855,86.61541054980037,-21.904173,8.907891,9.627153,43.217876,-9.943019,-2.4597223,10.099558,5.560622,-7.926489,15.412825,-17.866825,-2.946458,1.2629002,3.6405768,16.105558,13.6159115,7.55744,-13.995497,59.493675,2.9385588,2.490927,8.195515,-19.423391,-12.832974,26.211813,62.035503,-26.997417,1.95931,-11.851796
155,1.1170250177383423,60.432701110839844,76.44134521484375,-1.8824295545139424,-5.637024098388265,86.52350427484971,-21.730446,8.395421,9.791554,39.3953,-9.153137,-3.037111,11.283386,5.555987,-7.7274656,13.935789,-17.585152,-2.824012,1.4167286,3.6166344,15.806311,14.172456,7.418725,-13.532666,59.68353,2.8173363,2.5046732,8.285154,-19.490057,-12.676182,25.258265,61.513813,-26.764683,1.8272382,-11.748327
156,1.1178338527679443,61.13239669799805,76.42284393310547,-1.8226360458087576,-5.514215803687455,86.43732698830655,-21.583725,7.930895,9.95036,35.66114,-8.380218,-3.4607472,12.467585,5.567917,-7.548928,12.412313,-17.252056,-2.6726751,1.5509702,3.6060655,15.492548,14.717094,7.2788043,-13.036835,59.871372,2.6129725,2.514028,8.339035,-19.593884,-12.52985,24.420053,61.028904,-26.526272,1.7059715,-11.655897
157,1.126494288444519,61.826175689697266,76.38494110107422,-1.790256834749366,-5.367478114553477,86.35838368379846,-21.477556,7.5203557,10.127489,32.02721,-7.60921,-3.6976383,13.684475,5.607167,-7.393494,10.769041,-16.823545,-2.4947321,1.6638818,3.6137855,15.162022,15.260293,7.141167,-12.482377,60.03986,2.2757952,2.517997,8.340895,-19.728554,-12.403245,23.710646,60.56336,-26.246279,1.6029578,-11.565934
158,1.124295949935913,62.52552795410156,76.32401275634766,-1.7828260377416654,-5.200005268645133,86.28222123232241,-21.377327,7.146496,10.318741,28.417723,-6.8191257,-3.8061624,14.922206,5.6678715,-7.2492166,9.039581,-16.329494,-2.3112056,1.7654471,3.6400077,14.817321,15.806286,7.0032415,-11.868838,60.18837,1.8171074,2.5154092,8.308235,-19.866472,-12.297338,23.088787,60.087563,-25.936203,1.5031126,-11.473359
159,1.129978895187378,63.21910095214844,76.2455062866211,-1.7866493587791157,-5.015927390492023,86.19652436905474,-21.26391,6.7914243,10.502512,24.82623,-6.0354176,-3.8353562,16.09005,5.7196846,-7.10256,7.4224763,-15.87686,-2.117758,1.8713332,3.6740801,14.465209,16.33317,6.8666515,-11.259798,60.345306,1.33832,2.5104117,8.261179,-20.016003,-12.214378,22.560686,59.630787,-25.652824,1.399177,-11.396831
160,1.1498572826385498,63.90990447998047,76.14543151855469,-1.7940766290269512,-4.8214573501006415,86.08841524940948,-21.112204,6.4449444,10.653197,21.239902,-5.283868,-3.8342545,16.586004,5.6755934,-6.9917235,7.210316,-16.152382,-1.9031105,1.9974883,3.711569,14.114409,16.819605,6.7357955,-10.7193365,60.537693,0.9394301,2.506942,8.219954,-20.188784,-12.159646,22.138414,59.225197,-25.446692,1.2835165,-11.355366
161,1.154795527458191,64.61109161376953,76.02476501464844,-1.802671915185257,-4.616123570066966,85.95377984966285,-20.902328,6.095483,10.792315,17.601688,-4.5386353,-3.7812893,17.004902,5.620893,-6.8565927,7.1352286,-16.483332,-1.6570528,2.1562517,3.751306,13.764357,17.263184,6.6147757,-10.256679,60.760983,0.6339904,2.5021818,8.183634,-20.374462,-12.136827,21.813238,58.84952,-25.352573,1.1388067,-11.334011
162,1.1512185335159302,65.3118667602539,75.88252258300781,-1.8384406431928633,-4.406795071457246,85.78717360564858,-20.652634,5.7783623,10.923976,13.952082,-3.805478,-3.6698704,17.393885,5.5911384,-6.6897087,7.114914,-16.829391,-1.393737,2.3520734,3.8174322,13.419415,17.67624,6.504175,-9.844225,61.001564,0.37123325,2.4957173,8.143157,-20.56782,-12.1496725,21.586287,58.49295,-25.329239,0.97313625,-11.328171
163,1.1511822938919067,66.01496887207031,75.72661590576172,-1.9293992402467317,-4.208658163499993,85.57804871973845,-20.357943,5.540897,10.998776,10.348014,-3.110533,-3.5719543,17.788326,5.622294,-6.4709463,7.111047,-17.173937,-1.1442293,2.5880435,3.943464,13.095547,18.057516,6.4036508,-9.494033,61.270508,0.1548403,2.4945202,8.1049595,-20.76999,-12.19502,21.450481,58.1837,-25.346264,0.81703687,-11.369732
164,1.1497479677200317,66.7231674194336,75.55573272705078,-2.0761851082584752,-4.03324109555485,85.32033513752963,-20.043865,5.3977976,10.980756,6.9025564,-2.503281,-3.5574064,18.206942,5.7109647,-6.1886706,7.107573,-17.507133,-0.93176913,2.8591397,4.1355615,12.807123,18.399242,6.3006167,-9.213756,61.585888,-0.0075662634,2.5057604,8.078565,-20.981232,-12.268652,21.394505,57.948765,-25.383837,0.70174515,-11.490436
165,1.140357494354248,67.43516540527344,75.37262725830078,-2.265650636527601,-3.865391521359814,85.01966362339459,-21.231003,5.6060305,10.635777,6.7828574,-3.6946173,-3.6227078,18.631926,5.8405237,-5.8497868,7.104402,-17.832907,-0.7460065,3.1602323,4.377371,12.538625,18.702284,6.203134,-9.014276,61.95118,-0.109035216,2.5231068,8.076548,-21.223867,-12.366047,21.453556,57.809425,-25.429832,0.64518106,-11.736956
166,1.1266542673110962,68.15264129638672,75.18236541748047,-2.4759734965887463,-3.7007863405543073,84.68872268025189,-22.394619,5.8168187,10.163811,6.703786,-4.9411464,-3.7344902,19.058464,5.9862304,-5.474508,7.103306,-18.149763,-0.56457675,3.4802783,4.647961,12.287552,18.96124,6.103569,-8.8827915,62.363174,-0.15088814,2.5462496,8.093198,-21.487173,-12.491897,21.615881,57.74006,-25.50769,0.6283193,-12.079191
167,1.1116188764572144,68.87368774414062,74.9871597290039,-2.686490700639893,-3.561434456271488,84.34709673797977,-23.446285,6.01334,9.740069,6.6609015,-6.149477,-3.9381506,19.512896,6.126967,-5.0868936,7.1025705,-18.444424,-0.39116856,3.8044238,4.9121523,12.078286,19.17224,6.019639,-8.80083,62.820206,-0.15544963,2.5855448,8.101646,-21.759441,-12.620574,21.823914,57.74499,-25.603617,0.62569124,-12.446011
168,1.0991435050964355,69.59296417236328,74.79354858398438,-2.8876803333992824,-3.4678702643336483,84.01112152219906,-24.298317,6.206863,9.53715,6.647233,-7.2261133,-4.2798676,20.020412,6.25307,-4.704391,7.101995,-18.7047,-0.23317525,4.1133256,5.165165,11.937985,19.321487,5.938273,-8.744544,63.332127,-0.13578874,2.6497538,8.079761,-22.005083,-12.755404,22.018396,57.79406,-25.714342,0.61213756,-12.758926
169,1.0974757671356201,70.30718994140625,74.5995864868164,-3.0874374788171877,-3.4423105506731986,83.66528461771156,-24.911257,6.460348,9.710133,6.6529303,-8.212596,-4.9185185,20.604351,6.374356,-4.311589,7.102274,-18.936523,-0.100389,4.4157357,5.41204,11.889085,19.415285,5.8683133,-8.710963,63.895542,-0.10146317,2.7388577,8.015714,-22.245655,-12.883506,22.201553,57.914265,-25.861132,0.580931,-13.009189
170,1.0900524854660034,71.03256225585938,74.4036636352539,-3.2996150037697998,-3.4580058447709976,83.31199462037833,-25.364563,6.7788634,10.125577,6.7074995,-9.129744,-5.785342,21.23317,6.5023537,-3.9075413,7.101819,-19.138504,0.012474425,4.7165504,5.6476483,11.895218,19.464079,5.832724,-8.708822,64.50319,-0.04688979,2.8496938,7.9219127,-22.510956,-12.96625,22.381708,58.14727,-26.05327,0.5445826,-13.240944
171,1.0740982294082642,71.75553894042969,74.21737670898438,-3.4677561603217506,-3.4734316158070433,83.011550249278,-25.671057,7.0169554,10.535211,6.7517786,-9.809872,-6.5590725,21.865988,6.5743027,-3.5585632,7.1014113,-19.298677,0.13198404,4.948652,5.843028,11.931361,19.45325,5.786908,-8.723422,65.15871,0.04662405,2.9843879,7.814249,-22.731352,-13.076791,22.58579,58.39095,-26.211977,0.512651,-13.442506
172,1.0628522634506226,72.4693603515625,74.05294036865234,-3.5560981002945855,-3.443669211538367,82.81320184263875,-25.867605,7.049673,10.672915,6.7651615,-10.126745,-6.9189196,22.455349,6.554238,-3.3186438,7.1026983,-19.40353,0.27760217,5.0985947,5.9363546,11.946772,19.36993,5.755809,-8.766308,65.86924,0.18178716,3.1483502,7.7106733,-22.891146,-13.16349,22.72992,58.662804,-26.336706,0.48428583,-13.616537
173,1.038857340812683,73.18658447265625,73.91022491455078,-3.5618174201998443,-3.3605210635535063,82.74423035842035,-25.953388,6.8378634,10.419215,6.748483,-10.007321,-6.6950545,22.993296,6.446884,-3.2100327,7.102182,-19.464516,0.44648844,5.13018,5.921773,11.949723,19.202341,5.737915,-8.840625,66.65553,0.37957212,3.3395348,7.6136227,-23.001068,-13.228075,22.820866,58.96407,-26.401552,0.45636573,-13.76759
174,1.0175929069519043,73.898193359375,73.7878646850586,-3.498963251515085,-3.241655157093238,82.77840372838777,-25.91868,6.4479275,9.9288,6.711095,-9.5315695,-6.079882,23.499283,6.2678766,-3.2086477,7.1007276,-19.485558,0.631629,5.0663996,5.824444,11.952551,18.958458,5.727479,-8.9533,67.50845,0.6259513,3.5585306,7.51671,-23.065845,-13.291076,22.890093,59.293976,-26.410044,0.4306209,-13.894729
175,0.9962508678436279,74.62347412109375,73.67789459228516,-3.384061493658041,-3.0915373918113302,82.8671039780192,-25.795675,5.949874,9.338885,6.6840897,-8.84759,-5.310047,23.977707,6.0303354,-3.2751374,7.098483,-19.4309,0.8389227,4.9695444,5.6707296,11.930525,18.663406,5.722787,-9.08943,68.38544,0.8834197,3.8055887,7.41408,-23.035927,-13.367335,22.924385,59.613937,-26.398785,0.414802,-13.98443
176,0.9775915145874023,75.3776626586914,73.58056640625,-3.211391677622386,-2.920115946349243,82.95975013721903,-25.585196,5.3825173,8.794157,6.6518536,-8.093074,-4.6184664,24.440596,5.721712,-3.372565,7.0931883,-19.264988,1.0773419,4.8658566,5.441381,11.868663,18.373102,5.725441,-9.178278,69.21699,1.1327657,4.0825977,7.2957215,-22.923409,-13.415483,22.948772,59.948135,-26.39552,0.41701823,-14.032036
177,0.9613508582115173,76.15576934814453,73.49282836914062,-3.0017286528212703,-2.7357995491029947,83.04448345159705,-25.247158,4.777254,8.299536,6.673135,-7.340092,-4.115892,24.903194,5.36895,-3.4929743,7.086061,-19.008121,1.3514951,4.8015738,5.174331,11.759588,18.073933,5.7350135,-9.270387,70.03116,1.3655312,4.4059176,7.1602297,-22.66672,-13.495107,22.955584,60.23937,-26.368423,0.44793338,-14.014576
178,0.9503533244132996,76.95899963378906,73.41876983642578,-2.7388019922389284,-2.5340381183617806,83.15145315217639,-24.782185,4.079321,7.7887983,6.714256,-6.4913745,-3.6739902,25.364006,4.957705,-3.6604795,7.0753136,-18.672863,1.6591927,4.701825,4.832863,11.614826,17.770393,5.745332,-9.320379,70.836235,1.6124201,4.7683806,7.0105166,-22.346289,-13.536608,22.967154,60.571598,-26.326735,0.5012167,-13.953448
179,0.9028197526931763,77.743408203125,73.41094970703125,-2.423537775482091,-2.3041170023288315,83.27029652154498,-24.32933,3.2968774,7.2651896,6.7682257,-5.5141926,-3.1700585,25.793028,4.48295,-3.8493989,7.0603037,-18.200237,1.9829804,4.5880876,4.432118,11.437468,17.458061,5.758727,-9.3399935,71.58966,1.8388437,5.1377625,6.852077,-21.954712,-13.574544,22.981802,60.90885,-26.2824,0.55979866,-13.8696995
180,0.8613187074661255,78.5541763305664,73.42414093017578,-2.0611128340812743,-2.036230010302152,83.38714262764181,-24.010609,2.4536626,6.7411623,6.799628,-4.359122,-2.46987,26.164894,3.9421701,-4.0302415,7.039235,-17.533945,2.3062763,4.4572525,3.9785812,11.2265625,17.147192,5.7680287,-9.305754,72.24595,2.018512,5.481972,6.695216,-21.5342,-13.598281,23.027142,61.275726,-26.249292,0.6096325,-13.794287
181,0.8185866475105286,79.38081359863281,73.47740173339844,-1.6129296114078855,-1.695707994522751,83.50052452350262,-23.911472,1.5043149,6.1985054,6.7871943,-2.8784971,-1.4192028,26.445143,3.2839487,-4.211919,7.013196,-16.696161,2.6408405,4.300426,3.4300768,10.96824,16.831463,5.775097,-9.179973,72.78773,2.1651874,5.8128123,6.5185804,-21.090626,-13.634512,23.143059,61.648197,-26.220495,0.6476851,-13.70244
182,0.7520112991333008,80.22154235839844,73.57678985595703,-1.0815104344500615,-1.3050007422929097,83.62067128780447,-23.943218,0.45856884,5.668013,6.7500443,-1.1326005,-0.121692754,26.632477,2.520525,-4.4123707,7.061451,-15.749673,2.9974563,4.0850244,2.798763,10.68307,16.525484,5.760631,-8.945652,73.22443,2.3032398,6.139578,6.320999,-20.614634,-13.700943,23.358473,62.009186,-26.166481,0.6828259,-13.583924
183,0.6988604068756104,81.07569122314453,73.69865417480469,-0.5361927647752679,-0.9132765075740186,83.72598983861242,-24.100382,-0.549879,5.2487793,6.967259,0.4621603,1.1860802,26.785275,1.7393143,-4.589901,7.1465483,-14.607279,3.358681,3.8927102,2.160186,10.37797,16.213123,5.735971,-8.716527,73.60656,2.3791468,6.427313,6.1521845,-20.083809,-13.743728,23.545782,62.403023,-26.124956,0.71345735,-13.49582
184,0.641248345375061,81.95199584960938,73.82486724853516,-0.04688429036943705,-0.5739074552829361,83.79688993232507,-24.546286,-1.3791351,5.0138593,8.085553,1.2869139,2.2708075,26.148432,0.95946926,-4.7181787,8.962047,-14.101036,3.7013795,3.7454607,1.5883647,10.091667,15.907426,5.7123275,-8.515785,73.93523,2.37979,6.638846,6.032233,-19.442907,-13.762724,23.660772,62.779583,-26.085537,0.7352671,-13.479778
185,0.6042293906211853,82.83657836914062,73.95454406738281,0.3806598904926978,-0.2894443512612323,83.8144650865785,-24.730715,-2.054152,4.9786906,9.011518,1.8512591,3.1554546,25.279633,0.22271062,-4.743281,11.327334,-13.596644,4.016378,3.6495273,1.0920805,9.817632,15.622624,5.6912646,-8.348333,74.20938,2.2625182,6.747412,5.974361,-18.667955,-13.759515,23.722294,63.129234,-26.035603,0.74517345,-13.592156
186,0.5564199090003967,83.72489166259766,74.09271240234375,0.7994543023697727,-0.02189291637810611,83.77963052598967,-24.735914,-2.6409137,5.1109605,9.749702,2.2794971,3.9550216,24.255352,-0.5282262,-4.6723514,13.99565,-12.992365,4.3119507,3.6100183,0.6090539,9.528737,15.348925,5.676099,-8.203525,74.426544,2.0463624,6.77904,5.963507,-17.78403,-13.732682,23.7423,63.47129,-25.980654,0.745504,-13.795428
187,0.5090503692626953,84.60690307617188,74.24052429199219,1.199071686353623,0.22811703148644366,83.71862163952844,-24.587881,-3.14875,5.3416185,10.301589,2.5887046,4.567863,23.132849,-1.2617149,-4.5269494,16.816475,-12.197249,4.580094,3.5857463,0.12879135,9.239596,15.074674,5.669911,-8.019873,74.58076,1.8311702,6.7731886,5.9737983,-16.853748,-13.647668,23.708612,63.832184,-25.93617,0.7453803,-13.991913
188,0.46783220767974854,85.48738861083984,74.39778900146484,1.5609057931822938,0.4574810853318122,83.66213252700798,-24.312351,-3.5883915,5.5949745,10.664057,2.8104782,4.8841977,21.96028,-1.9333485,-4.3376355,19.668516,-11.137917,4.8188057,3.5694768,-0.337883,8.972722,14.776212,5.6865125,-7.7877183,74.66629,1.6995232,6.768915,5.976748,-15.884241,-13.52863,23.593716,64.167755,-25.892044,0.75355715,-14.075168
189,0.44197723269462585,86.36260986328125,74.557861328125,1.8523735189082147,0.6851321262874308,83.6225375204616,-23.928179,-3.9347084,5.86343,10.823011,2.9205377,4.7843456,20.701946,-2.4952343,-4.13599,22.57188,-9.737198,4.998721,3.5582294,-0.76478773,8.713787,14.443462,5.7234974,-7.4655166,74.67567,1.7083766,6.782407,5.964411,-14.853675,-13.371938,23.3569,64.45759,-25.841658,0.7670808,-14.018739
190,0.41904929280281067,87.22176361083984,74.71271514892578,2.0770321517524684,0.8995177957164306,83.59899225634541,-23.435007,-4.190755,6.1530914,10.828205,2.9013782,4.3483787,19.364931,-2.9564586,-3.919526,25.551794,-8.042107,5.1281877,3.5474806,-1.1461691,8.464221,14.083759,5.778903,-7.084261,74.61493,1.7975377,6.792159,5.9512925,-13.755331,-13.181324,23.022192,64.71096,-25.782625,0.782733,-13.877083
191,0.4035225510597229,88.0689468383789,74.86649322509766,2.2697345060892022,1.0525944991954497,83.5971350086135,-22.81554,-4.4143443,6.4154186,10.731169,2.816592,3.7637742,18.029478,-3.3580613,-3.6646204,28.56521,-6.1943593,5.2722163,3.502739,-1.5065073,8.270467,13.708365,5.8545966,-6.689422,74.490005,1.9009639,6.7840548,5.9409595,-12.642591,-12.961898,22.663658,64.95089,-25.736794,0.8082652,-13.665925
192,0.39037156105041504,88.92138671875,75.02147674560547,2.466037971008189,1.0962856646452828,83.61904558874373,-22.047628,-4.6638756,6.60317,10.572475,2.7286794,3.2188528,16.778158,-3.7374094,-3.338747,31.568737,-4.3377967,5.5023227,3.3934195,-1.8711776,8.178326,13.334421,5.953186,-6.3305507,74.29444,1.9488745,6.7519712,5.936681,-11.571283,-12.727154,22.367023,65.204475,-25.715302,0.85142374,-13.401227
193,0.37884441018104553,89.77820587158203,75.17143249511719,2.6555886579472543,0.982443025103628,83.67176081570555,-21.05489,-4.941894,6.692496,10.304305,2.6660745,2.670735,15.6593895,-4.0629206,-2.8919983,34.60135,-2.4922085,5.8260427,3.2108424,-2.225924,8.22859,12.978126,6.070726,-6.0058727,74.00935,1.9335148,6.691347,5.933991,-10.5251,-12.485272,22.138786,65.46481,-25.729546,0.9128608,-13.048416
194,0.36503246426582336,90.62910461425781,75.31034088134766,2.8176770467177774,0.7472628326828331,83.75111256413682,-19.873373,-5.226814,6.7120943,9.919242,2.5835493,2.0530365,14.614,-4.300768,-2.3565574,37.692276,-0.6019924,6.231976,2.9748747,-2.5541275,8.388387,12.62441,6.203732,-5.6971617,73.643364,1.8887877,6.6075706,5.932771,-9.477344,-12.237072,21.937094,65.71227,-25.769701,0.98838127,-12.610421
195,0.35407698154449463,91.45929718017578,75.43958282470703,2.9767989629798137,0.4689157214404156,83.8409239115779,-18.643404,-5.539828,6.691215,9.506512,2.4448485,1.5183401,13.551799,-4.497049,-1.8108203,40.811085,1.2950182,6.753385,2.7009223,-2.8836632,8.593276,12.245076,6.358131,-5.4279804,73.233215,1.8088506,6.5073614,5.942053,-8.4682255,-11.991631,21.777607,65.957726,-25.81493,1.0781691,-12.159051
196,0.34341996908187866,92.27825164794922,75.56254577636719,3.1610738768059896,0.22501287924716198,83.92514291619611,-17.506695,-5.8965554,6.6570635,9.164882,2.2194908,1.2157507,12.377855,-4.7182646,-1.3273625,43.938366,3.158255,7.401236,2.4071324,-3.2437365,8.781193,11.81197,6.542514,-5.2252116,72.81413,1.687373,6.397067,5.9683037,-7.529588,-11.759403,21.672031,66.201515,-25.844387,1.1823772,-11.763963
197,0.3252027928829193,93.07958984375,75.67424774169922,3.3875581466584865,0.03720087117675827,84.00502879004966,-16.50839,-6.311607,6.5993824,8.931957,1.8917636,1.2385365,11.031249,-4.9769034,-0.86271155,47.153614,5.0681634,8.277774,2.0941632,-3.6521168,8.938829,11.313195,6.7631025,-5.1028495,72.38575,1.4863714,6.273351,5.994024,-6.6707907,-11.548765,21.633484,66.442154,-25.836702,1.3121117,-11.426892
198,0.31035125255584717,93.87126922607422,75.77983856201172,3.6398116203848296,-0.13749863059203407,84.08666707519512,-15.572469,-6.771436,6.5070014,8.759249,1.4855113,1.4918475,9.563705,-5.2444654,-0.38352504,50.472843,7.001689,9.331141,1.75972,-4.0906773,9.100551,10.764267,7.0174975,-5.050972,71.93143,1.2197775,6.134382,6.018192,-5.863595,-11.360501,21.649197,66.66756,-25.807077,1.4629419,-11.1131525
199,0.2943132519721985,94.6345443725586,75.8680191040039,3.9024150464976484,-0.31764005558856373,84.16391658667041,-14.660322,-7.2482834,6.404084,8.618368,1.033989,1.8371223,8.040715,-5.557549,0.008752286,53.790527,8.764883,10.309322,1.4131253,-4.5398283,9.274345,10.179116,7.300051,-5.056706,71.462234,0.96173424,5.988254,6.0729713,-5.0888877,-11.193357,21.695082,66.86953,-25.791237,1.6118021,-10.8385515
200,0.2753107249736786,95.3780288696289,75.93943786621094,4.159887311391666,-0.5206083918966686,84.22623860715397,-13.719001,-7.7135277,6.3174567,8.458451,0.5732141,2.133396,6.5398483,-5.983027,0.19893439,56.96736,10.182923,10.940674,1.0669922,-4.979287,9.46743,9.571715,7.6037016,-5.10716,70.98949,0.7865577,5.8434124,6.1921,-4.3282166,-11.044424,21.747059,67.04051,-25.82378,1.735593,-10.619184
201,0.2478601187467575,96.10266876220703,75.9774169921875,4.427217420553224,-0.7386009194902069,84.25467512443052,-12.747418,-8.175305,6.2765317,8.265952,0.09922345,2.368626,5.050587,-6.634173,0.1124573,60.00978,11.216145,11.117711,0.7251724,-5.421184,9.674749,8.937668,7.9247823,-5.2210836,70.51613,0.715289,5.7036514,6.3858714,-3.5965345,-10.91649,21.81518,67.18231,-25.931389,1.8440951,-10.464866
202,0.22539003193378448,96.81877899169922,76.01509094238281,4.712335122977504,-0.9656827110134093,84.25897439098382,-11.757118,-8.64455,6.2577424,8.047631,-0.3944453,2.6068153,3.5453253,-7.5112143,-0.18410896,62.97154,11.959078,10.943268,0.38084725,-5.8728175,9.893806,8.27159,8.262061,-5.3985624,70.03665,0.7086373,5.5640144,6.6372814,-2.8979173,-10.810604,21.906338,67.30088,-26.090477,1.9426527,-10.365521
203,0.2051668018102646,97.54942321777344,76.058349609375,4.982661854685749,-1.2220912508160728,84.27123864601381,-10.707638,-9.100177,6.2107162,7.773021,-0.87441933,2.8204045,2.078465,-8.498877,-0.6043279,65.77632,12.442359,10.469258,0.028868888,-6.308229,10.133581,7.5873094,8.614007,-5.5973134,69.55027,0.74955267,5.420102,6.9401593,-2.2034519,-10.7219,21.998726,67.396484,-26.258257,2.0071433,-10.307125
204,0.1946844756603241,98.2750244140625,76.10620880126953,5.203183173833392,-1.5280919292046888,84.32323386770297,-9.56765,-9.512969,6.0876856,7.429408,-1.3156954,2.982854,0.70427084,-9.457985,-1.061494,68.346725,12.697052,9.776471,-0.33611304,-6.7014756,10.403267,6.899563,8.979521,-5.7732873,69.05641,0.82272744,5.267343,7.288689,-1.4867173,-10.640106,22.067223,67.47791,-26.395542,2.0092504,-10.278327
205,0.18185396492481232,98.99613189697266,76.15434265136719,5.371749155529904,-1.9080847011369846,84.41619998439738,-8.2897415,-9.881068,5.883873,6.985571,-1.7067318,3.0862143,-0.54030913,-10.3721695,-1.5643498,70.672424,12.634533,8.820494,-0.716908,-7.056073,10.720562,6.2114024,9.365877,-5.9316835,68.55965,0.9479895,5.1046305,7.7116394,-0.74927527,-10.559264,22.125347,67.561035,-26.50427,1.9092388,-10.282566
206,0.18846268951892853,99.716552734375,76.2095718383789,5.502183782349311,-2.3451219708334667,84.53638420828597,-7.0520377,-10.194832,5.6480107,6.7727647,-2.2292128,3.142651,-1.6848421,-11.295447,-2.142339,72.792534,12.259956,7.6066284,-1.1117352,-7.3882766,11.074022,5.516421,9.774626,-6.0907435,68.05906,1.1258613,4.935519,8.201712,-0.0075910394,-10.4780035,22.181337,67.64524,-26.60163,1.7328,-10.325674
207,0.20366141200065613,100.4438247680664,76.26959991455078,5.589575978053293,-2.7964004149709187,84.69168149390893,-5.8980794,-10.451165,5.3732867,6.7665553,-2.8555055,3.1601617,-2.7788384,-12.172957,-2.7491632,74.70044,11.754709,6.301111,-1.5198826,-7.686418,11.428957,4.815256,10.193729,-6.2244925,67.5482,1.3123647,4.7616463,8.700768,0.74038064,-10.3925705,22.203764,67.71685,-26.671839,1.5516802,-10.400732
208,0.21895699203014374,101.15739440917969,76.31977081298828,5.626671384542271,-3.2196872927924365,84.88973668602787,-4.785114,-10.656732,5.0375996,6.7621875,-3.4624913,3.1476262,-3.8756886,-12.9558735,-3.344899,76.38945,11.307559,5.063585,-1.9428555,-7.9360623,11.750566,4.1081643,10.6053295,-6.3048263,67.022804,1.4641927,4.58346,9.1530905,1.4937644,-10.2984495,22.164162,67.76546,-26.697392,1.4378467,-10.501409
209,0.23988200724124908,101.85302734375,76.37686920166016,5.605545995415361,-3.6146062989305747,85.15398969359104,-3.7192063,-10.8071,4.613983,6.7633147,-4.0437784,3.0901122,-4.9775796,-13.619867,-3.9484234,77.84707,11.0095415,3.9324462,-2.403581,-8.123687,12.037713,3.3911002,11.002624,-6.322745,66.48929,1.5853279,4.3915086,9.572577,2.2508402,-10.192923,22.05333,67.79522,-26.643677,1.4213237,-10.670009
210,0.2533622980117798,102.54946899414062,76.43650817871094,5.531614144782737,-3.999492024439529,85.47323794513888,-2.6720147,-10.90241,4.1174536,6.7661033,-4.6077585,2.9880986,-6.061159,-14.184335,-4.57923,79.08258,10.752378,2.8363237,-2.8953004,-8.257133,12.30642,2.661717,11.388287,-6.292625,65.95596,1.6961315,4.186205,9.983035,3.0089834,-10.076397,21.888273,67.81527,-26.529692,1.4603071,-10.89695
211,0.2687797546386719,103.25949096679688,76.49858856201172,5.419030452673966,-4.3601811085884234,85.80285061291055,-1.6543733,-10.94574,3.6062636,6.7690377,-5.164259,2.8723915,-7.141282,-14.668969,-5.205797,80.11462,10.431743,1.7593262,-3.375875,-8.351383,12.546908,1.9263425,11.759647,-6.2213354,65.41243,1.775999,3.9887898,10.344102,3.7651086,-9.952378,21.678709,67.82544,-26.420938,1.5198758,-11.098044
212,0.2838287353515625,103.9542236328125,76.55518341064453,5.284676635187201,-4.682490829747355,86.09748079610816,-0.6770378,-10.942724,3.1382399,6.7704062,-5.723486,2.7737043,-8.234349,-15.090882,-5.7913194,80.96292,9.939729,0.68962604,-3.803265,-8.417948,12.749494,1.1905807,12.111081,-6.1144123,64.850716,1.8044295,3.8185349,10.615977,4.517764,-9.825705,21.434784,67.823265,-26.382784,1.5656481,-11.188548
213,0.308593213558197,104.64646911621094,76.61458587646484,5.1257014170475586,-4.959150835940309,86.34065636470474,0.25275806,-10.884165,2.7367642,6.7688437,-6.291517,2.6939478,-9.364593,-15.407142,-6.3023486,81.63239,9.264771,-0.361023,-4.156668,-8.448796,12.905636,0.4510297,12.438322,-5.955918,64.26827,1.7686914,3.6798463,10.785487,5.2827015,-9.700034,21.130718,67.79159,-26.459316,1.5913806,-11.118768
214,0.3306524455547333,105.33434295654297,76.67086029052734,4.937507267452895,-5.1982804437643475,86.55599338860404,1.1409154,-10.769712,2.3712955,6.7662435,-6.862667,2.6174912,-10.520503,-15.604895,-6.765105,82.11181,8.46238,-1.3742622,-4.4595423,-8.43554,13.024255,-0.29646733,12.7420025,-5.7485876,63.672085,1.6824611,3.5622747,10.875697,6.0594926,-9.575377,20.769606,67.73114,-26.60561,1.614167,-10.941921
215,0.3538246154785156,106.0197982788086,76.72344970703125,4.720047797905664,-5.4102714635314415,86.75967809938477,1.9961269,-10.612974,2.0158827,6.766533,-7.4306717,2.5486403,-11.662446,-15.735224,-7.234747,82.39599,7.523877,-2.3506901,-4.73834,-8.382486,13.12173,-1.0463613,13.025571,-5.525351,63.06811,1.5635661,3.4628494,10.901481,6.819362,-9.453693,20.403158,67.671585,-26.757456,1.6355186,-10.728788
216,0.3784063160419464,106.6971206665039,76.77108001708984,4.488291952177348,-5.604730261482213,86.9659396526968,2.8274405,-10.435553,1.6471102,6.772674,-7.9842057,2.4915025,-12.750365,-15.85956,-7.7567706,82.47499,6.4425797,-3.2877617,-5.0182548,-8.307425,13.213941,-1.79143,13.2930155,-5.3177476,62.460922,1.430043,3.3772473,10.876788,7.5333514,-9.337024,20.087177,67.64116,-26.846634,1.6575549,-10.549744
217,0.40868207812309265,107.3770523071289,76.8199234008789,4.2428440306266575,-5.787034331911438,87.16709920044502,3.6469674,-10.2384615,1.2540839,6.772844,-8.5132,2.4479263,-13.772094,-15.981677,-8.347312,82.3427,5.1653666,-4.206965,-5.298872,-8.208635,13.307445,-2.5273995,13.545333,-5.1227956,61.84233,1.250878,3.3096073,10.779274,8.195208,-9.226978,19.838371,67.64847,-26.830149,1.6859788,-10.429681
218,0.43473970890045166,108.05488586425781,76.86695098876953,3.981673867220567,-5.950735722321097,87.35681221746536,4.446414,-10.013909,0.8534785,6.7665935,-9.023864,2.4124975,-14.747899,-16.055367,-8.973269,81.99781,3.7171502,-5.0810075,-5.568193,-8.083085,13.393843,-3.2569203,13.782515,-4.9251876,61.209904,1.0276107,3.2614264,10.609248,8.82037,-9.123663,19.628193,67.67588,-26.751022,1.7182752,-10.328729
219,0.46265339851379395,108.72489166259766,76.90974426269531,3.7188839309268378,-6.089080609607887,87.55017004315997,5.1933913,-9.7759695,0.46641418,6.7987733,-9.547168,2.3813653,-15.685281,-16.077312,-9.607018,81.43557,2.2106256,-5.8414316,-5.832245,-7.950772,13.466338,-3.9812906,14.006352,-4.7371283,60.575054,0.8288567,3.2240965,10.414254,9.414433,-9.025644,19.440548,67.71249,-26.675121,1.7440866,-10.219494
220,0.49620717763900757,109.38888549804688,76.94538116455078,3.454914932255428,-6.1887874988770335,87.76944270164705,5.88955,-9.525418,0.09929012,6.830382,-10.066608,2.3506873,-16.58958,-16.0432,-10.246695,80.63938,0.7663878,-6.4363546,-6.10415,-7.816486,13.51256,-4.702096,14.218848,-4.573235,59.949593,0.72103715,3.1886046,10.24175,9.98306,-8.931035,19.258968,67.74809,-26.669315,1.7529792,-10.074519
221,0.5325039029121399,110.05550384521484,76.97289276123047,3.1855453957266846,-6.243120468691323,88.02246230031659,6.530929,-9.261568,-0.23897596,6.861811,-10.587113,2.322915,-17.455547,-15.974981,-10.929449,79.59857,-0.6573575,-6.8240356,-6.386915,-7.6780405,13.526255,-5.4235597,14.421099,-4.4376264,59.3337,0.7254533,3.157591,10.086054,10.526308,-8.838714,19.08689,67.78343,-26.734608,1.7336079,-9.884507
222,0.5799880027770996,110.72050476074219,76.99967193603516,2.908459296364745,-6.258256013161369,88.29816924753935,7.131145,-8.982275,-0.5577452,6.8851852,-11.100656,2.301589,-18.27685,-15.863151,-11.658157,78.31357,-2.0922694,-7.042054,-6.6746697,-7.52934,13.514133,-6.143729,14.612696,-4.323613,58.722164,0.8043544,3.133507,9.928055,11.041655,-8.748174,18.930307,67.82439,-26.841345,1.6939636,-9.664938
223,0.6156471371650696,111.40211486816406,77.02045440673828,2.6319912413191404,-6.244191063163857,88.58840695084467,7.6873093,-8.697783,-0.8691593,6.9270396,-11.616063,2.2882226,-19.060884,-15.675053,-12.372147,76.797195,-3.4116085,-7.1677446,-6.964867,-7.377936,13.485542,-6.8532753,14.792192,-4.2278247,58.116203,0.9371841,3.1067677,9.794503,11.530854,-8.657049,18.776976,67.86722,-27.010666,1.6522318,-9.4249735
224,0.657600998878479,112.04737091064453,77.0403060913086,2.3671904557669987,-6.211082685942772,88.88513329978127,8.223403,-8.418535,-1.1905957,6.959437,-12.113109,2.2844484,-19.817581,-15.384724,-13.006445,75.06644,-4.4933352,-7.2854996,-7.2545824,-7.23216,13.449768,-7.5440946,14.9577,-4.147736,57.51851,1.103239,3.068006,9.712901,11.995719,-8.5609455,18.614489,67.90862,-27.26338,1.6260313,-9.173979
225,0.700637698173523,112.71112060546875,77.05101013183594,2.1140083815645214,-6.1524031276603885,89.1920179764962,8.723193,-8.143582,-1.5343363,6.993038,-12.586927,2.2914188,-20.575659,-14.986431,-13.532724,73.12882,-5.3172846,-7.485398,-7.548705,-7.091248,13.403678,-8.218627,15.10906,-4.085061,56.925865,1.323496,3.0169728,9.694272,12.434674,-8.456832,18.435093,67.94906,-27.655254,1.613665,-8.89523
226,0.739947497844696,113.37892150878906,77.05326843261719,1.8679145955373004,-6.0659764723200755,89.51219428275554,9.189049,-7.872831,-1.8906848,7.027036,-13.042659,2.3106465,-21.32041,-14.5062895,-13.9899235,70.97826,-5.95185,-7.7142763,-7.846735,-6.9528866,13.343831,-8.880022,15.2464485,-4.0405483,56.338543,1.6004553,2.9583066,9.723666,12.8463545,-8.344676,18.246073,67.99286,-28.159624,1.6065717,-8.590969
227,0.7892916202545166,114.04296112060547,77.04493713378906,1.6339548008610913,-5.968483483117011,89.83717385741863,9.646811,-7.613491,-2.2416158,7.0620356,-13.498444,2.3426058,-21.996128,-13.968753,-14.412074,68.60605,-6.404484,-7.8441715,-8.1389675,-6.821293,13.279269,-9.521268,15.3683195,-4.009601,55.764664,1.8848559,2.8893836,9.789194,13.232247,-8.224425,18.057215,68.04136,-28.67305,1.6131665,-8.298745
228,0.8392831087112427,114.71556091308594,77.02490997314453,1.4159167697737693,-5.877085058086206,90.15887625766482,10.12092,-7.3706512,-2.5690832,7.0964384,-13.971779,2.385604,-22.549332,-13.401414,-14.833063,66.000984,-6.6797705,-7.7483974,-8.416074,-6.7008653,13.218938,-10.136116,15.472638,-3.9875226,55.21235,2.1272128,2.807906,9.879176,13.593638,-8.096548,17.878134,68.09624,-29.092691,1.6436797,-8.056198
229,0.8892284631729126,115.399169921875,76.99761962890625,1.212464048823981,-5.791801694705792,90.47763196124806,10.605422,-7.1378484,-2.8639534,7.1323266,-14.466893,2.4370909,-22.978168,-12.80218,-15.228729,63.128437,-6.7414584,-7.371115,-8.677468,-6.5900455,13.163162,-10.724286,15.556754,-3.9709005,54.67997,2.3194969,2.7097654,10.0057335,13.92746,-7.9600935,17.72458,68.15884,-29.397293,1.7145679,-7.880319
230,0.9312094449996948,116.09228515625,76.95771026611328,1.0224854582564855,-5.705431335363895,90.79805314031506,11.091583,-6.911677,-3.1390893,7.1637597,-14.971649,2.4953852,-23.305786,-12.172571,-15.587089,59.999336,-6.599275,-6.800092,-8.929344,-6.4871516,13.107817,-11.288294,15.621151,-3.9611466,54.16403,2.4866679,2.5975852,10.170458,14.2333555,-7.815638,17.587141,68.22817,-29.640123,1.8171765,-7.7487955
231,0.9723889827728271,116.7777328491211,76.90433502197266,0.851975152601648,-5.623982663821609,91.11801179268916,11.583349,-6.701474,-3.4073353,7.205833,-15.4936,2.559218,-23.516838,-11.542593,-15.960408,56.660847,-6.322136,-6.121139,-9.171655,-6.3969913,13.055824,-11.825658,15.668228,-3.9598868,53.668964,2.63026,2.47856,10.345338,14.517558,-7.665863,17.437933,68.3006,-29.827902,1.9245844,-7.6397576
232,1.0175553560256958,117.4753189086914,76.8399429321289,0.7064883775434054,-5.553398909794129,91.43497531192317,12.062815,-6.51954,-3.6786342,7.325347,-16.067741,2.6287048,-23.601141,-10.939152,-16.40132,53.163437,-5.976073,-5.415859,-9.40409,-6.3238215,13.010151,-12.333259,15.70103,-3.9691417,53.19909,2.7508478,2.3596041,10.501905,14.787518,-7.513499,17.249453,68.37006,-29.967949,2.0091743,-7.5308776
233,1.0584845542907715,118.18177795410156,76.76258087158203,0.584842358363306,-5.489954079234562,91.75606234075968,12.520333,-6.3652153,-3.9639757,7.5312657,-16.698704,2.703797,-23.542875,-10.390283,-16.957659,49.45965,-5.5472093,-4.7076173,-9.634383,-6.2664056,12.970259,-12.811875,15.720195,-3.9843764,52.75117,2.8371272,2.23609,10.641823,15.042297,-7.359946,17.003305,68.43489,-30.036493,2.056797,-7.4213057
234,1.1022717952728271,118.90576934814453,76.67018127441406,0.48464627029286994,-5.432238569500898,92.08010104141638,13.00278,-6.230804,-4.2599764,7.7165704,-17.33026,2.7838764,-23.352882,-9.870487,-17.584652,45.528446,-5.003395,-3.9523165,-9.860101,-6.2228217,12.935318,-13.262538,15.724508,-4.0060997,52.323624,2.891548,2.1061823,10.776765,15.2800255,-7.204052,16.718058,68.49541,-30.03719,2.0843413,-7.320718
235,1.1500566005706787,119.63504791259766,76.56319427490234,0.41226594311947223,-5.391407805976257,92.39343051370034,13.526868,-6.1220636,-4.5508227,7.877178,-17.959606,2.8697217,-23.055883,-9.333268,-18.19915,41.449203,-4.3859115,-3.1359794,-10.065637,-6.198242,12.907926,-13.6828985,15.715114,-4.043372,51.922436,2.93722,1.981117,10.893275,15.505705,-7.0474367,16.416712,68.55182,-30.021917,2.1111903,-7.22399
236,1.1907447576522827,120.36769104003906,76.44055938720703,0.3745606733552751,-5.378945310919815,92.68314667720381,14.117548,-6.0466866,-4.822485,7.9942017,-18.575716,2.9631295,-22.672674,-8.74637,-18.715876,37.296585,-3.7390132,-2.254114,-10.236546,-6.1994295,12.891202,-14.071119,15.6948,-4.1069493,51.55411,2.9941533,1.8720235,10.977577,15.7238455,-6.892911,16.125164,68.60342,-30.039368,2.1564014,-7.125286
237,1.229066014289856,121.11505126953125,76.3013687133789,0.3777500971123513,-5.409485576022962,92.95380219193952,14.788366,-6.0129433,-5.079384,8.075619,-19.188063,3.0592327,-22.153606,-8.11109,-19.152033,32.970036,-3.0027833,-1.2579306,-10.376236,-6.2335076,12.89552,-14.4234705,15.662727,-4.199579,51.21574,3.0641205,1.7808955,11.02259,15.940983,-6.740173,15.846077,68.64544,-30.0968,2.231416,-7.031887
238,1.2747851610183716,121.88373565673828,76.1391830444336,0.42430713901007405,-5.476341930395346,93.21543517613992,15.542523,-6.022854,-5.3354335,8.09535,-19.78066,3.1612167,-21.481405,-7.4734297,-19.530586,28.418879,-2.1659944,-0.1901303,-10.495678,-6.3044353,12.916742,-14.741609,15.619339,-4.3162193,50.905315,3.1357439,1.7019576,11.036342,16.153585,-6.5894923,15.566881,68.67861,-30.170227,2.3239727,-6.943835
239,1.3171690702438354,122.65692138671875,75.95693969726562,0.5178450587985924,-5.559388878642169,93.46654004350681,16.353333,-6.081257,-5.5909376,8.05821,-20.342968,3.2836306,-20.722158,-6.8740497,-19.785166,23.79775,-1.3425616,0.81958884,-10.597667,-6.4172773,12.936689,-15.026326,15.568678,-4.446991,50.624664,3.2153623,1.635211,11.025871,16.353779,-6.441295,15.295088,68.70561,-30.260567,2.4162831,-6.8425474
240,1.356768012046814,123.44830322265625,75.7508544921875,0.6654287708157,-5.639220279120466,93.70712128923174,17.200836,-6.1959105,-5.8496614,7.9567437,-20.85782,3.441553,-19.946924,-6.34802,-19.859234,19.282417,-0.64831704,1.6563652,-10.686481,-6.5820513,12.936757,-15.278174,15.518281,-4.583871,50.376087,3.3070874,1.5807557,10.997793,16.533783,-6.298387,15.038558,68.72988,-30.369267,2.4906833,-6.709949
241,1.4019883871078491,124.2505874633789,75.52560424804688,0.8946034568706784,-5.7223818514590805,93.94095596656716,18.113127,-6.4002333,-6.132251,7.7536063,-21.322437,3.66019,-19.096012,-5.8726153,-19.668592,14.695741,-0.05933233,2.3211222,-10.7700815,-6.827849,12.910456,-15.494755,15.472992,-4.7216244,50.155846,3.4109116,1.543431,10.935697,16.705645,-6.1611834,14.799608,68.74436,-30.631945,2.581661,-6.429523
