unveil-humanoid-operators/unveil-humanoid-operators.github.io/feature-analysis-animation/data/feature_matrix_instances/gender_shoulder_rom_jogging_A023_jog_sideway_090_start_001__A023.csv
Frame,root_translateX,root_translateY,root_translateZ,root_rotateX,root_rotateY,root_rotateZ,left_hip_pitch_joint_dof,left_hip_roll_joint_dof,left_hip_yaw_joint_dof,left_knee_joint_dof,left_ankle_pitch_joint_dof,left_ankle_roll_joint_dof,right_hip_pitch_joint_dof,right_hip_roll_joint_dof,right_hip_yaw_joint_dof,right_knee_joint_dof,right_ankle_pitch_joint_dof,right_ankle_roll_joint_dof,waist_yaw_joint_dof,waist_roll_joint_dof,waist_pitch_joint_dof,left_shoulder_pitch_joint_dof,left_shoulder_roll_joint_dof,left_shoulder_yaw_joint_dof,left_elbow_joint_dof,left_wrist_roll_joint_dof,left_wrist_pitch_joint_dof,left_wrist_yaw_joint_dof,right_shoulder_pitch_joint_dof,right_shoulder_roll_joint_dof,right_shoulder_yaw_joint_dof,right_elbow_joint_dof,right_wrist_roll_joint_dof,right_wrist_pitch_joint_dof,right_wrist_yaw_joint_dof
0,-2.4942898750305176,0.4267657697200775,77.02876281738281,0.6317718793104652,0.11726382063204722,-3.5762943663394404,1.7799195,6.1905494,8.30657,16.220322,-18.118862,-8.0297785,-0.8491592,-6.6584015,0.13741356,18.743572,-19.14374,8.55653,-2.0885866,2.7633824,6.0931454,-3.632207,16.338026,-48.862827,54.367146,1.6596836,2.0731785,4.545272,-7.6216097,-13.973961,42.105232,59.504276,1.5400845,13.643078,-2.2658653
1,-2.5117831230163574,0.4764394760131836,77.03033447265625,0.8051800801885707,0.2782304834918357,-3.5621744385524607,1.569296,5.914535,8.319437,16.189457,-18.003386,-7.9066854,-1.2205865,-6.937495,0.19679716,19.058317,-19.248678,8.705765,-2.075125,2.624815,6.0240617,-3.6559858,16.35157,-48.768387,54.31389,1.6231427,2.063738,4.610108,-7.726435,-13.989763,42.12935,59.41722,1.5306616,13.651891,-2.2749283
2,-2.539860248565674,0.540833592414856,77.03019714355469,0.9786269839283428,0.43487570520841073,-3.549942783808256,1.3688445,5.639896,8.334944,16.149284,-17.88456,-7.785416,-1.5839198,-7.214563,0.2591656,19.36876,-19.354296,8.854014,-2.077943,2.492647,5.9612427,-3.6723175,16.357616,-48.650692,54.26042,1.6008003,2.054818,4.674339,-7.8239565,-14.029323,42.17727,59.30674,1.5292515,13.66335,-2.2822976
3,-2.5843863487243652,0.6186262965202332,77.02848052978516,1.1503286523812393,0.5995079128022583,-3.5325827932914735,1.1472404,5.365601,8.3473215,16.129301,-17.773129,-7.6614356,-1.958281,-7.4930663,0.3191701,19.68079,-19.456387,9.0056715,-2.078044,2.3700383,5.896523,-3.6986382,16.350061,-48.53177,54.213593,1.5697882,2.0412076,4.736608,-7.911733,-14.094186,42.219395,59.169262,1.5296267,13.676213,-2.2882805
4,-2.6279735565185547,0.7070344686508179,77.02706909179688,1.3184457456102125,0.7845888965360146,-3.5030204243273313,0.87240857,5.0911827,8.350956,16.160088,-17.680729,-7.530634,-2.36188,-7.777216,0.37160853,19.999733,-19.550776,9.165257,-2.0777664,2.2601192,5.8224125,-3.7368338,16.329157,-48.40578,54.168705,1.5154455,2.0175471,4.7927494,-8.004383,-14.172993,42.24733,59.01929,1.5263324,13.688969,-2.2946649
5,-2.6654739379882812,0.7975261807441711,77.0267562866211,1.4980780908944014,0.9904873626878423,-3.4587044059337395,0.5516181,4.7948523,8.349332,16.220352,-17.587473,-7.3692813,-2.7978556,-8.086428,0.417852,20.33263,-19.641617,9.337233,-2.0818076,2.1486504,5.737422,-3.780091,16.296373,-48.26383,54.121384,1.4196818,1.9804375,4.8363924,-8.102757,-14.265675,42.268906,58.85233,1.5220121,13.706735,-2.3046718
6,-2.7063965797424316,0.8907724022865295,77.02572631835938,1.6850366114542115,1.2114134959747205,-3.403504926124995,0.20027734,4.4843907,8.344699,16.294634,-17.491985,-7.1879215,-3.2576933,-8.412465,0.46042728,20.676506,-19.730398,9.518248,-2.089365,2.037608,5.6446495,-3.8278773,16.253403,-48.110123,54.07389,1.2951157,1.933477,4.8711576,-8.20265,-14.371361,42.284153,58.669724,1.5143216,13.727973,-2.3170152
7,-2.7567358016967773,0.9916287064552307,77.02180480957031,1.8494533279762397,1.4499744218274109,-3.34002947848883,-0.21561986,4.203883,8.32851,16.451302,-17.44082,-7.0339203,-3.7390904,-8.718638,0.49529877,21.01536,-19.805656,9.701214,-2.1000993,1.9580587,5.5473294,-3.8861644,16.202387,-47.946663,54.022297,1.1772437,1.8818462,4.907498,-8.311972,-14.48918,42.291683,58.481266,1.5080392,13.742846,-2.3255496
8,-2.8212733268737793,1.1008265018463135,77.01309204101562,1.9613763078625601,1.7087430042031917,-3.271101610636337,-0.72132784,3.9966385,8.292585,16.739656,-17.475946,-6.9556937,-4.241446,-8.968013,0.51801395,21.336391,-19.857416,9.879053,-2.1146235,1.9407345,5.4483113,-3.9595485,16.145742,-47.773724,53.962734,1.1030793,1.8304163,4.9558153,-8.433911,-14.618498,42.284386,58.29424,1.4991546,13.741179,-2.3242319
9,-2.8860747814178467,1.2117259502410889,76.99806213378906,2.020042337053632,1.9984356135068846,-3.193183877958341,-1.3295711,3.862815,8.258403,17.16281,-17.60803,-6.946131,-4.7790008,-9.160055,0.52765465,21.640898,-19.88121,10.049884,-2.1355042,1.9891994,5.3408484,-4.0498824,16.08434,-47.589695,53.891434,1.0840714,1.787234,5.0175223,-8.571461,-14.758678,42.25569,58.11372,1.4819859,13.71424,-2.3079047
10,-2.958418369293213,1.3324601650238037,76.97480010986328,2.039380710083606,2.314030052172346,-3.106608215123057,-2.0240176,3.7825809,8.222638,17.695799,-17.815195,-6.989163,-5.3484797,-9.312283,0.5262442,21.936787,-19.884384,10.217833,-2.1624193,2.087666,5.2260847,-4.153939,16.018835,-47.394726,53.80975,1.0993145,1.7475907,5.0874205,-8.718205,-14.909185,42.205956,57.932686,1.453311,13.669405,-2.2810552
11,-3.0474259853363037,1.4615633487701416,76.94348907470703,2.012457283510997,2.635184899755107,-3.020519465896955,-2.7873566,3.766056,8.140413,18.352537,-18.094742,-7.1204286,-5.921096,-9.41495,0.5129999,22.217766,-19.873339,10.384707,-2.1875696,2.237626,5.11984,-4.2683797,15.951941,-47.194096,53.72012,1.1380998,1.697733,5.1662693,-8.882047,-15.070055,42.15978,57.751038,1.4420052,13.620674,-2.251684
12,-3.137324810028076,1.599557876586914,76.90632629394531,1.9317423442391528,2.941288960111013,-2.9440753897407808,-3.6019688,3.820959,7.967283,19.147339,-18.445992,-7.376291,-6.4688325,-9.458561,0.48689064,22.478542,-19.855276,10.552169,-2.2057693,2.4403598,5.0373178,-4.387387,15.887985,-46.989864,53.62248,1.1905698,1.6240585,5.2543535,-9.060085,-15.241405,42.130283,57.56223,1.4605066,13.582231,-2.2277887
13,-3.2280092239379883,1.7355369329452515,76.85863494873047,1.7717283742367114,3.2336621313598894,-2.87889099713411,-4.478991,3.9473267,7.6579137,20.088339,-18.894537,-7.816517,-6.979077,-9.413747,0.43443042,22.68873,-19.814947,10.720874,-2.2170184,2.7248101,4.982101,-4.5062976,15.830189,-46.774807,53.504192,1.2836003,1.5248222,5.3469987,-9.255314,-15.42364,42.115604,57.363113,1.5144422,13.560525,-2.2114
14,-3.3249423503875732,1.8821054697036743,76.80354309082031,1.544643210949492,3.5210156552448892,-2.821151258709532,-5.4188085,4.132022,7.2517233,21.167223,-19.44397,-8.411483,-7.4699707,-9.295782,0.35963854,22.862846,-19.755352,10.889966,-2.2252932,3.0794172,4.946851,-4.62625,15.780185,-46.548386,53.363586,1.4130204,1.407183,5.4453273,-9.466375,-15.61649,42.10987,57.15563,1.5941577,13.547132,-2.1981955
15,-3.4214510917663574,2.0219202041625977,76.73866271972656,1.2988413070505196,3.7945112622917883,-2.7714053657932496,-6.3828263,4.3636703,6.830102,22.362225,-20.050777,-9.062061,-7.958371,-9.159226,0.2872372,23.060274,-19.709188,11.05843,-2.230001,3.44593,4.930203,-4.751096,15.740467,-46.32658,53.21798,1.5201696,1.2705971,5.5585947,-9.688653,-15.818853,42.124348,56.943066,1.6943103,13.534239,-2.1865215
16,-3.521602153778076,2.1676390171051025,76.6659164428711,1.080157819831029,4.045687857643653,-2.729497227839326,-7.334419,4.6373205,6.4695535,23.649147,-20.663923,-9.667319,-8.4612255,-9.055387,0.24145864,23.34181,-19.709627,11.224753,-2.2299294,3.7689016,4.931164,-4.884736,15.713908,-46.125652,53.08334,1.5463655,1.1143768,5.69573,-9.919062,-16.02807,42.173378,56.728973,1.8147459,13.51368,-2.1748078
17,-3.6270573139190674,2.314774513244629,76.5854263305664,0.8700151554691357,4.273927730079376,-2.6865039750823243,-8.290447,4.954019,6.117887,25.043587,-21.269268,-10.257966,-8.9629345,-8.961541,0.20703018,23.685858,-19.74906,11.381294,-2.2317998,4.0656366,4.951885,-5.0286484,15.703149,-45.952587,52.95764,1.4574459,0.937073,5.864379,-10.157299,-16.24189,42.257416,56.509125,1.9692303,13.485423,-2.1644793
18,-3.7279598712921143,2.4769105911254883,76.5003433227539,0.651119667802088,4.483665421681644,-2.6451764377305085,-9.257463,5.3140817,5.756941,26.5428,-21.891901,-10.872648,-9.461185,-8.858724,0.17690665,24.0729,-19.815256,11.53053,-2.2344692,4.3573785,4.9920692,-5.1784215,15.7094755,-45.79786,52.83055,1.2910756,0.7391618,6.057251,-10.406113,-16.459332,42.370453,56.28525,2.1530502,13.4528675,-2.1558068
19,-3.8090479373931885,2.6342532634735107,76.40936279296875,0.47216678223959624,4.673676965854633,-2.622220647045162,-10.187998,5.7212205,5.507464,28.099571,-22.518719,-11.4151,-9.98785,-8.80318,0.18732366,24.55363,-19.929348,11.68652,-2.2261994,4.5942445,5.046027,-5.3277674,15.733123,-45.651283,52.706093,1.0960115,0.52297074,6.260657,-10.66654,-16.680056,42.51377,56.070953,2.3324788,13.413397,-2.145515
20,-3.8993687629699707,2.7986977100372314,76.31196594238281,0.380609603084715,4.842874170878539,-2.6340434632373393,-11.037407,6.1876316,5.4855843,29.66909,-23.130043,-11.783112,-10.578495,-8.8498,0.27552938,25.187803,-20.112307,11.863302,-2.1953123,4.7273707,5.107747,-5.470181,15.7735815,-45.502007,52.589184,0.92187923,0.2910875,6.4615383,-10.936156,-16.903753,42.685368,55.877277,2.4692538,13.364591,-2.1304004
21,-3.9878978729248047,2.9730873107910156,76.21080780029297,0.3922674761350434,4.989722472771123,-2.6830245235885712,-11.795394,6.729479,5.7447386,31.257345,-23.73752,-11.951151,-11.242181,-9.015733,0.44993895,25.999819,-20.379751,12.061055,-2.1367004,4.7411385,5.176091,-5.6057887,15.830452,-45.356533,52.48147,0.7682817,0.03498457,6.649217,-11.213255,-17.13045,42.89226,55.711082,2.5704246,13.293382,-2.1061845
22,-4.071684837341309,3.1612391471862793,76.10287475585938,0.4795049472516503,5.1151015990870965,-2.760582739663278,-12.4828,7.3506613,6.2056775,32.878334,-24.333887,-11.963033,-11.958244,-9.266721,0.69265264,26.951395,-20.714777,12.2741165,-2.0570905,4.663811,5.2545104,-5.737222,15.903792,-45.21739,52.380375,0.6136854,-0.2436568,6.832924,-11.502938,-17.360237,43.136414,55.56769,2.653821,13.205168,-2.0756767
23,-4.143706321716309,3.360797166824341,75.99360656738281,0.6248817553592492,5.222065051013302,-2.8665988770997717,-13.103901,8.047567,6.7837706,34.50497,-24.872522,-11.817919,-12.709425,-9.57948,1.0009418,27.990643,-21.086714,12.509102,-1.9621859,4.5128207,5.3440423,-5.862332,15.993599,-45.067497,52.284218,0.4755249,-0.526681,7.0296593,-11.803885,-17.591358,43.40096,55.4333,2.6902435,13.125141,-2.046515
24,-4.227337837219238,3.5647730827331543,75.87106323242188,0.8107944989724323,5.313487122683227,-3.001139556231071,-13.662747,8.81293,7.396232,36.108517,-25.307596,-11.517313,-13.47979,-9.930661,1.3711243,29.069471,-21.466785,12.773221,-1.8579149,4.3060274,5.445964,-5.978166,16.09989,-44.88916,52.190624,0.37228772,-0.7958439,7.256689,-12.112715,-17.82007,43.666492,55.29287,2.6479843,13.078337,-2.026534
25,-4.312294960021973,3.7777535915374756,75.7457046508789,1.054522501066697,5.392561390422115,-3.176390186370677,-14.161695,9.6536255,8.075091,37.718327,-25.617758,-10.996885,-14.284267,-10.331218,1.8265961,30.197935,-21.85611,13.081434,-1.7351314,4.024809,5.5591574,-6.0862107,16.223066,-44.685043,52.10063,0.31079245,-1.0470816,7.520153,-12.440876,-18.044174,43.951572,55.1595,2.5102422,13.075267,-2.0174644
26,-4.374570369720459,4.000123977661133,75.62095642089844,1.3573381767552033,5.457204041528074,-3.388385670668078,-14.592013,10.579628,8.844228,39.334232,-25.833555,-10.269266,-15.12032,-10.783459,2.361615,31.386251,-22.264963,13.428348,-1.594851,3.6683462,5.684771,-6.186177,16.363594,-44.460938,52.01462,0.2809663,-1.28956,7.8105326,-12.787264,-18.262217,44.258953,55.038155,2.295953,13.1010275,-2.0155025
27,-4.444170951843262,4.22417688369751,75.4831314086914,1.67815796048386,5.502240202640331,-3.6129172488916073,-14.948171,11.579891,9.610038,40.890266,-25.98938,-9.454195,-15.949528,-11.249973,2.9291792,32.593533,-22.682026,13.788679,-1.4582645,3.2793794,5.8256006,-6.2727976,16.521486,-44.204887,51.93051,0.27554584,-1.5250089,8.122165,-13.136819,-18.472921,44.551273,54.91044,2.0319822,13.142512,-2.0200756
28,-4.52232027053833,4.453510284423828,75.33143615722656,1.977190409104104,5.521615539228415,-3.825891934960554,-15.230674,12.63772,10.279449,42.323307,-26.116894,-8.675938,-16.737894,-11.6975,3.4829702,33.788567,-23.099436,14.136375,-1.3453904,2.8996167,5.9835978,-6.34207,16.696526,-43.906456,51.847073,0.2862416,-1.7551293,8.449145,-13.4707985,-18.675129,44.787197,54.754604,1.7425797,13.1868515,-2.0306482
29,-4.576642990112305,4.698382377624512,75.17438507080078,2.2599907786530884,5.509833514167823,-4.0382014006227,-15.4277115,13.744136,10.837998,43.63039,-26.199318,-7.9382424,-17.480185,-12.130264,4.0282164,34.96438,-23.514263,14.47645,-1.2517743,2.5243144,6.1639886,-6.384149,16.887691,-43.553658,51.756744,0.32725182,-1.9811219,8.802103,-13.793682,-18.869413,44.962753,54.575542,1.4056482,13.234307,-2.042174
30,-4.625369071960449,4.949416637420654,75.00617218017578,2.536748275654196,5.471716729581581,-4.259183474759512,-15.551328,14.916547,11.332276,44.849136,-26.234533,-7.1856165,-18.191227,-12.552707,4.581683,36.135635,-23.930801,14.817654,-1.1672995,2.1422553,6.3637366,-6.4042597,17.094854,-43.155464,51.663357,0.39732322,-2.2015169,9.180378,-14.109914,-19.056072,45.094517,54.379894,1.0151509,13.290494,-2.0564182
31,-4.6902666091918945,5.192169666290283,74.81962585449219,2.7325876395167517,5.419271813901004,-4.473647595721671,-15.6542015,16.229177,11.7436495,45.99591,-26.278122,-6.4734087,-18.847712,-12.863858,5.0962806,37.26224,-24.32547,15.000033,-1.0932579,1.8246188,6.569469,-6.4186997,17.31886,-42.7321,51.580544,0.4662542,-2.4139497,9.561524,-14.410046,-19.234816,45.179096,54.157143,0.62732315,13.350331,-2.083349
32,-4.7384257316589355,5.442567348480225,74.6242904663086,2.886339399829918,5.357147218965428,-4.63569969358929,-15.744287,17.60357,12.098682,47.012383,-26.348362,-5.8243713,-19.466713,-13.1263485,5.5602856,38.393333,-24.729021,15.000033,-1.0595078,1.5305693,6.7704706,-6.4456334,17.561855,-42.3062,51.523983,0.50297195,-2.6166801,9.922577,-14.683333,-19.405132,45.21057,53.895565,0.2980571,13.408804,-2.1328206
33,-4.781658172607422,5.693013668060303,74.41279602050781,2.994488141345909,5.283500607719142,-4.739732122301933,-15.818902,19.05253,12.4103775,47.902683,-26.475525,-5.236784,-20.051025,-13.362803,5.964704,39.534893,-25.142056,15.000033,-1.0761045,1.2650679,6.9664946,-6.4787655,17.8257,-41.87451,51.494125,0.49144462,-2.8165488,10.27432,-14.930275,-19.566313,45.174747,53.587826,0.049377676,13.4717,-2.2059107
34,-4.826672077178955,5.950331211090088,74.18688201904297,3.0682349065558348,5.19478512146692,-4.800772736083383,-15.870147,20.567253,12.674407,48.673836,-26.630892,-4.6967726,-20.60285,-13.581469,6.324803,40.685066,-25.562912,15.000033,-1.1327308,1.0172497,7.1622,-6.51069,18.11102,-41.42893,51.48183,0.45038298,-3.0123956,10.6228485,-15.152087,-19.718079,45.074043,53.23924,-0.15442136,13.539511,-2.297995
35,-4.869891166687012,6.204585552215576,73.95001983642578,3.1153417166333015,5.096502291498955,-4.818395352174943,-15.922036,22.10388,12.870764,49.31636,-26.765099,-4.2232366,-21.121393,-13.791957,6.6376143,41.830837,-25.989069,15.000033,-1.2140739,0.7788181,7.3522267,-6.5590167,18.418316,-40.986,51.48982,0.39972976,-3.1906435,10.9388685,-15.34754,-19.862093,44.93622,52.86525,-0.33533126,13.599258,-2.410848
36,-4.894561767578125,6.468544006347656,73.70634460449219,3.1433608643411772,4.994102523378955,-4.792515537101882,-15.9983425,23.61867,12.97921,49.8193,-26.826761,-3.834526,-21.606758,-14.005823,6.900004,42.96068,-26.419308,15.000033,-1.3034116,0.5425577,7.5318565,-6.641891,18.747438,-40.563015,51.5204,0.35899538,-3.3373156,11.193168,-15.51131,-20.000288,44.786335,52.47594,-0.5167057,13.638045,-2.5462017
37,-4.933127403259277,6.727335453033447,73.44551086425781,3.1526586405058556,4.883530973199598,-4.718748809901043,-16.08985,25.121761,13.01101,50.167854,-26.852911,-3.5574856,-22.057997,-14.227875,7.100677,44.085026,-26.86137,15.000033,-1.4020945,0.30497757,7.700742,-6.7640715,19.09933,-40.161945,51.578712,0.32913,-3.446941,11.369376,-15.6347685,-20.134167,44.625744,52.058773,-0.70501477,13.6480665,-2.7169623
38,-4.959200859069824,6.995097637176514,73.1791763305664,3.140232676711752,4.763945051308719,-4.5988122669713,-16.194138,26.62593,12.9715185,50.373047,-26.851166,-3.3774278,-22.478113,-14.455112,7.2449727,45.2097,-27.315504,15.000033,-1.516161,0.069991656,7.8610044,-6.9163065,19.474419,-39.776024,51.661633,0.2996929,-3.5274825,11.486098,-15.723446,-20.264566,44.44379,51.61206,-0.88516456,13.6378765,-2.9180977
39,-4.980571269989014,7.271452903747559,72.90753173828125,3.107948056745998,4.645756971103752,-4.44127718455068,-16.346102,28.090662,12.829286,50.461834,-26.725521,-3.24786,-22.870842,-14.68323,7.3533754,46.309925,-27.765858,15.000033,-1.6385936,-0.1584438,8.010888,-7.094437,19.870281,-39.405846,51.759937,0.27622038,-3.5848947,11.566364,-15.78282,-20.39191,44.23742,51.15654,-1.0631233,13.619537,-3.1244857
40,-4.994780540466309,7.556669235229492,72.63093566894531,3.0583635978331314,4.539118175465295,-4.254685229857775,-16.58289,29.475,12.5503,50.463024,-26.382183,-3.1208572,-23.242285,-14.908939,7.4486036,47.366104,-28.198235,15.000033,-1.7608638,-0.37598798,8.148853,-7.2964096,20.282238,-39.053223,51.867004,0.26410627,-3.6253686,11.633466,-15.82378,-20.51627,44.00861,50.71673,-1.237012,13.604914,-3.31115
41,-5.014854431152344,7.848730087280273,72.34593963623047,2.99199900418671,4.437732493904639,-4.028018929305432,-16.940996,30.802622,12.116873,50.435276,-25.848003,-2.8664486,-23.582176,-15.138457,7.533769,48.380463,-28.620005,15.000033,-1.8888204,-0.58610755,8.278791,-7.5331426,20.70886,-38.721924,51.996334,0.26029783,-3.652761,11.685469,-15.84364,-20.636906,43.752563,50.291645,-1.4069705,13.591377,-3.4670744
42,-5.029531955718994,8.155463218688965,72.0611572265625,2.9078383690342653,4.33926494940126,-3.76103186310945,-17.400204,32.08,11.543469,50.34608,-25.15674,-2.5479918,-23.893024,-15.375737,7.5999484,49.363075,-29.03458,15.000033,-2.0232637,-0.7895013,8.399438,-7.80513,21.149658,-38.412563,52.151154,0.2628147,-3.663091,11.713139,-15.84089,-20.75404,43.472115,49.873775,-1.5706661,13.57428,-3.6070616
43,-5.0594000816345215,8.46870231628418,71.77425384521484,2.806734590873726,4.260223193299463,-3.47837719638473,-17.911121,33.23826,10.843549,50.08986,-24.22451,-2.4070334,-24.199673,-15.612219,7.6523514,50.303482,-29.420448,15.000033,-2.1501887,-0.97764945,8.501551,-8.093796,21.599028,-38.11812,52.31139,0.2817283,-3.651642,11.728776,-15.817332,-20.86847,43.170956,49.470013,-1.7343348,13.562471,-3.744543
44,-5.074441909790039,8.799189567565918,71.4926986694336,2.690010587709322,4.217064193864666,-3.204507079499225,-18.417715,34.20561,10.029573,49.561417,-22.967005,-2.6867735,-24.526491,-15.8463125,7.697558,51.191254,-29.754478,15.000033,-2.2556381,-1.1420077,8.575167,-8.385092,22.0481,-37.833443,52.462555,0.32536075,-3.613887,11.745052,-15.780301,-20.982168,42.857906,49.092075,-1.8994132,13.5649805,-3.892939
45,-5.094096660614014,9.146425247192383,71.21662139892578,2.5545330363793552,4.219702229764844,-2.9257299897088456,-19.00704,34.967224,9.00685,48.785095,-21.263214,-3.2256494,-24.860937,-16.080082,7.7028522,51.990257,-30.053482,15.000033,-2.3408895,-1.2858909,8.612699,-8.702417,22.493773,-37.571495,52.62341,0.4141452,-3.5418775,11.771451,-15.718819,-21.091572,42.530052,48.74371,-2.0787675,13.5818405,-4.074094
46,-5.110812187194824,9.513874053955078,70.94540405273438,2.4034862375320696,4.258196617393772,-2.6350831691866574,-19.665482,35.545975,7.7878914,47.80018,-19.198648,-3.9755754,-25.200577,-16.321653,7.681044,52.72248,-30.320992,15.000033,-2.4119375,-1.4134539,8.6193285,-9.050319,22.93455,-37.332184,52.80367,0.53775495,-3.4406536,11.799771,-15.637758,-21.19574,42.187527,48.425163,-2.2643068,13.609118,-4.274847
47,-5.134927272796631,9.901304244995117,70.6791763305664,2.2487960590130323,4.317884412769985,-2.3670247182689947,-20.16952,35.919643,6.542167,46.51817,-16.99703,-5.34979,-25.577688,-16.56644,7.7026744,53.44798,-30.516266,15.000033,-2.4619775,-1.5158132,8.606116,-9.383529,23.360302,-37.08659,52.973896,0.66160196,-3.3256073,11.815736,-15.552507,-21.30252,41.83303,48.126217,-2.4357207,13.649746,-4.4559293
48,-5.1561479568481445,10.319192886352539,70.41795349121094,2.100768872791855,4.3838276011162725,-2.1566304895139132,-20.290253,36.06431,5.4354935,44.845627,-14.879003,-7.760064,-26.024508,-16.809563,7.8367305,54.229008,-30.600826,15.000033,-2.482662,-1.5812889,8.584711,-9.660764,23.755302,-36.80543,53.111183,0.75255674,-3.2128062,11.805439,-15.47618,-21.426504,41.46979,47.83064,-2.5705316,13.706701,-4.5778418
49,-5.1744256019592285,10.7799711227417,70.16410064697266,1.9665748230094235,4.461170282709809,-2.0024373310900088,-19.830048,35.873108,4.455797,42.4083,-12.551113,-11.974554,-26.560331,-17.059534,8.0974,55.09996,-30.562588,15.000033,-2.467309,-1.6110668,8.542769,-9.88321,24.103678,-36.485123,53.22802,0.8024692,-3.1127331,11.763093,-15.386059,-21.582716,41.079758,47.52502,-2.6890001,13.793583,-4.623241
50,-5.192567825317383,11.330130577087402,69.92501068115234,2.3505897528189106,4.690515580842796,-1.637129465163443,-19.067554,34.61197,3.9846048,39.27578,-9.967843,-15.000033,-27.400726,-17.963669,8.666991,56.096386,-30.460262,15.000033,-2.644592,-2.0716715,8.325387,-10.095252,24.404232,-36.15294,53.36026,0.8330281,-3.0186675,11.69901,-15.25988,-21.77138,40.651405,47.190224,-2.7927003,13.905786,-4.6197605
51,-5.230013847351074,11.973710060119629,69.70699310302734,3.32365335823455,5.046620523977833,-1.0675431791637524,-18.276201,32.412457,4.241,36.10198,-7.7408366,-15.000033,-28.537825,-19.568182,9.630882,57.13293,-30.286043,15.000033,-3.0274308,-3.0265934,7.955725,-10.299255,24.662783,-35.81378,53.50142,0.85085124,-2.9165568,11.622043,-15.133957,-21.989195,40.214058,46.830654,-2.8361506,14.01789,-4.5874295
52,-5.271663188934326,12.62690544128418,69.49105834960938,3.9701597619872526,5.286822785937484,-0.7414744958921227,-17.559824,30.791248,4.414212,33.766495,-6.676751,-15.000033,-29.526855,-20.704107,10.570191,58.02602,-29.989943,15.000033,-3.2309313,-3.6387558,7.7288446,-10.471614,24.880545,-35.451645,53.619286,0.8607229,-2.7876234,11.539,-15.072275,-22.239962,39.82208,46.474415,-2.7667656,14.104079,-4.537256
53,-5.318991184234619,13.267095565795898,69.2665786743164,4.1920625647596275,5.4143458540478475,-0.6958473742137535,-16.990313,29.888683,4.468292,32.57872,-7.3250003,-15.000033,-30.372429,-21.264336,11.434785,58.845364,-29.551943,15.000033,-3.233511,-3.805672,7.6581793,-10.587429,25.050432,-35.02481,53.678448,0.8905368,-2.6172898,11.449618,-15.08472,-22.532028,39.476734,46.126236,-2.5582318,14.186107,-4.4496775
54,-5.363668918609619,13.912168502807617,69.0208740234375,4.159779421505093,5.483897645710593,-0.8313382360695912,-16.48929,29.362469,4.4981155,32.13317,-9.197063,-15.000033,-31.1501,-21.477682,12.267932,59.631824,-28.998003,15.000033,-3.1127367,-3.6867006,7.6757126,-10.661378,25.169344,-34.548553,53.700825,0.9288092,-2.4179263,11.350528,-15.149608,-22.868946,39.164604,45.77508,-2.2345142,14.269144,-4.3241467
55,-5.416924953460693,14.533530235290527,68.78125,4.001468887664948,5.5260377697372,-1.0468892511989403,-16.140764,29.06107,4.5137444,32.1844,-11.495907,-15.000033,-31.830988,-21.517748,13.024007,60.295082,-28.419342,15.000033,-2.9463134,-3.4256883,7.742026,-10.739085,25.253319,-34.099854,53.750763,0.92497855,-2.214591,11.245437,-15.2444315,-23.238945,38.88795,45.397644,-1.8471099,14.302079,-4.2077246
56,-5.471538543701172,15.132762908935547,68.57057189941406,3.8447287449455767,5.56714341715356,-1.2480203080119312,-16.007214,28.825548,4.513559,32.46722,-13.42304,-15.000033,-32.391056,-21.561354,13.675835,60.739483,-27.894896,15.000033,-2.8081846,-3.1703668,7.8235483,-10.855221,25.331606,-33.75173,53.878815,0.82771105,-2.030719,11.137481,-15.350281,-23.619564,38.649815,44.9815,-1.4523085,14.2320795,-4.147216
57,-5.545329570770264,15.707792282104492,68.38789367675781,3.693134590329256,5.60465230964825,-1.459646282182321,-16.115005,28.668013,4.5493407,33.01891,-14.872311,-15.000033,-32.836525,-21.59634,14.251115,60.936703,-27.423525,15.000033,-2.6992486,-2.9335885,7.9329824,-10.9866295,25.4273,-33.48517,54.049915,0.5581813,-1.8754375,11.046124,-15.520569,-23.998056,38.495266,44.535187,-1.0162662,14.020749,-4.1244464
58,-5.633800029754639,16.237506866455078,68.2333984375,3.4916723508283125,5.62853102365601,-1.712158820850674,-16.428087,28.645088,4.627802,33.939392,-16.22856,-15.000033,-33.17784,-21.5601,14.755443,60.94251,-26.97022,15.000033,-2.5986204,-2.6550243,8.080799,-11.099592,25.548698,-33.261402,54.219685,0.16382259,-1.7327965,10.961455,-15.758612,-24.367756,38.414234,44.078323,-0.5302144,13.702353,-4.12402
59,-5.71465539932251,16.726423263549805,68.109619140625,3.2826800689637765,5.652717734175501,-1.921641046830577,-16.89722,28.656748,4.6644473,35.036522,-17.429956,-15.000033,-33.399555,-21.542389,15.143548,60.780308,-26.562284,15.000033,-2.5407438,-2.3773954,8.234385,-11.221674,25.704123,-33.13623,54.42937,-0.22645411,-1.5884876,10.842798,-15.981399,-24.710611,38.332527,43.62821,-0.07610795,13.331061,-4.1979656
60,-5.802981853485107,17.163372039794922,68.01919555664062,3.1091931198405756,5.691424974630064,-2.0055283112500155,-17.473476,28.613117,4.5688734,36.123455,-18.41479,-15.000033,-33.488308,-21.631718,15.372241,60.47372,-26.225828,15.000033,-2.5520372,-2.1462913,8.360697,-11.391496,25.899448,-33.178497,54.72895,-0.48805505,-1.4281423,10.650333,-16.111347,-25.002789,38.173843,43.213814,0.26876017,12.959436,-4.399621
61,-5.9093756675720215,17.53457260131836,67.97144317626953,2.979036551868034,5.78063007588308,-1.9154584066032778,-18.2763,28.519438,4.2677903,37.27082,-19.09687,-15.000033,-33.4529,-21.849258,15.40442,60.00084,-25.972223,15.000033,-2.6620378,-1.9842271,8.42329,-11.632858,26.146011,-33.43236,55.162174,-0.6032663,-1.2689035,10.3813305,-16.129597,-25.219982,37.914043,42.83539,0.4653667,12.567069,-4.771849
62,-5.991034507751465,17.873998641967773,67.95977783203125,2.875147276332373,5.902310238493856,-1.7042371843423854,-19.279394,28.406565,3.8275785,38.52077,-19.512798,-15.000033,-33.298737,-22.150064,15.276894,59.358562,-25.784203,15.000033,-2.8498394,-1.875522,8.445569,-11.920652,26.44658,-33.85977,55.687733,-0.6384007,-1.1107402,10.053782,-16.088219,-25.352486,37.592255,42.507587,0.5517773,12.135035,-5.2782364
63,-6.033695697784424,18.203317642211914,67.97034454345703,2.800428580695846,5.989724476783733,-1.4417440171202307,-20.219791,28.240936,3.3636553,39.666622,-19.801023,-15.000033,-33.00597,-22.516027,15.05405,58.597298,-25.643541,15.000033,-3.066368,-1.8022832,8.484434,-12.215403,26.785192,-34.394165,56.230778,-0.5851527,-0.91514796,9.658486,-16.008142,-25.403208,37.225925,42.271828,0.56251705,11.720133,-5.8551617
64,-6.044671535491943,18.51959991455078,67.99620819091797,2.7536479897587647,5.976087962193025,-1.1979141134733773,-20.835487,28.003365,2.9948933,40.511353,-20.11077,-15.000033,-32.55306,-22.929003,14.797376,57.766384,-25.532192,15.000033,-3.2577631,-1.7392423,8.597568,-12.487685,27.134445,-34.97495,56.731865,-0.43515176,-0.64497,9.187444,-15.901233,-25.384872,36.828613,42.157627,0.53378946,11.379914,-6.4384627
65,-6.048455238342285,18.826406478881836,68.03705596923828,2.7453963628651943,5.7998847663969215,-0.9599064466781476,-20.991968,27.668787,2.736883,40.959183,-20.481352,-15.000033,-31.848549,-23.422281,14.479789,56.85039,-25.478333,15.000033,-3.4267936,-1.6831931,8.838966,-12.765794,27.47781,-35.6429,57.232555,-0.103456095,-0.2835904,8.577171,-15.718989,-25.301592,36.357384,42.16019,0.43629974,11.132661,-7.0589814
66,-6.05644416809082,19.122058868408203,68.08911895751953,2.7684941989232854,5.511030936340861,-0.7011465417846892,-20.849865,27.268188,2.52877,41.136314,-20.839325,-15.000033,-30.926392,-23.98794,14.074073,55.831886,-25.480799,15.000033,-3.5875533,-1.6385036,9.163348,-13.075073,27.810436,-36.423702,57.774315,0.38270605,0.14036661,7.852487,-15.489258,-25.155472,35.833065,42.27879,0.28562745,10.949308,-7.73496
67,-6.0649919509887695,19.415565490722656,68.14651489257812,2.7945716020957887,5.2103234009241195,-0.47064327808457884,-20.5932,26.871597,2.3750503,41.186657,-21.170856,-15.000033,-29.955124,-24.539083,13.642934,54.757236,-25.47623,15.000033,-3.7161477,-1.5857058,9.474896,-13.364183,28.1208,-37.213062,58.295315,0.87031937,0.5995615,7.1377234,-15.229888,-24.958086,35.29862,42.463642,0.09019381,10.816951,-8.383233
68,-6.0587005615234375,19.704452514648438,68.21411895751953,2.797716107430308,4.998791232266453,-0.31718772248354266,-20.404547,26.545382,2.2837267,41.25215,-21.461443,-15.000033,-29.109398,-24.995146,13.257285,53.674034,-25.402018,15.000033,-3.7901635,-1.5045928,9.680749,-13.581167,28.396133,-37.901527,58.732204,1.2062039,1.0719513,6.5601206,-15.008118,-24.731678,34.835526,42.699528,-0.0946914,10.720733,-8.921698
69,-6.044911861419678,19.980865478515625,68.2889404296875,2.772390299148901,4.907519328684143,-0.2517333145122664,-20.327162,26.30015,2.2571836,41.358547,-21.713003,-15.000033,-28.429201,-25.34964,12.925418,52.57001,-25.236898,15.000033,-3.7993257,-1.3761749,9.748988,-13.727698,28.627316,-38.50201,59.079548,1.3356863,1.590911,6.130136,-14.7957325,-24.49032,34.435883,42.959305,-0.27276543,10.686119,-9.334196
70,-6.017416000366211,20.238386154174805,68.37307739257812,2.733110696419166,4.881365997858312,-0.24867801931010203,-20.2648,26.102665,2.2902684,41.437225,-21.93507,-15.000033,-27.826471,-25.640759,12.617467,51.428577,-25.016432,15.000033,-3.7548647,-1.2097322,9.7327795,-13.833534,28.811525,-39.05886,59.37813,1.3467822,2.1578147,5.7908835,-14.567353,-24.239044,34.068783,43.244816,-0.45673066,10.711793,-9.662128
71,-5.992949485778809,20.476146697998047,68.46450805664062,2.684810017321628,4.8925493955426385,-0.3019352182608608,-20.186764,25.95378,2.3864262,41.477116,-22.116693,-15.000033,-27.283205,-25.869806,12.349301,50.28343,-24.760471,15.000033,-3.6737664,-1.0259565,9.666953,-13.8784,28.947836,-39.498585,59.624825,1.2996224,2.7055545,5.568946,-14.3603115,-23.986837,33.762318,43.55698,-0.63358814,10.742292,-9.910514
72,-5.961421012878418,20.69580841064453,68.56480407714844,2.632570102572196,4.91271332529024,-0.4057681803094799,-20.06631,25.854319,2.5467756,41.47352,-22.24938,-15.000033,-26.785656,-26.036652,12.137418,49.17537,-24.488045,15.000033,-3.5823581,-0.8442025,9.587029,-13.828984,29.039955,-39.733143,59.80521,1.2555969,3.1661143,5.488693,-14.196079,-23.741726,33.539364,43.88176,-0.80865073,10.723015,-10.085073
73,-5.928289413452148,20.88837242126465,68.6683120727539,2.567052519922037,4.9468054528254655,-0.5695224102395268,-19.90192,25.820517,2.7777543,41.418247,-22.322958,-15.000033,-26.340155,-26.119564,11.996417,48.100464,-24.185621,15.000033,-3.481061,-0.65728414,9.492289,-13.656647,29.089985,-39.70491,59.88958,1.2069948,3.542216,5.6066985,-14.088775,-23.509972,33.4233,44.219387,-0.93952084,10.633729,-10.1573
74,-5.883655548095703,21.069732666015625,68.77861022949219,2.4893110930104148,5.00517787717905,-0.7928766164861981,-19.70577,25.84564,3.077687,41.317085,-22.345078,-15.000033,-25.954088,-26.12772,11.916216,47.04372,-23.849293,15.000033,-3.3642938,-0.4584985,9.369742,-13.374451,29.09995,-39.46,59.881428,1.128262,3.8632317,5.892649,-14.020556,-23.294025,33.40044,44.566532,-1.0380293,10.505467,-10.134396
75,-5.829820156097412,21.23491096496582,68.89276885986328,2.4195941619696786,5.06918043002713,-1.055641764484596,-19.471092,25.894712,3.4346695,41.18153,-22.332262,-15.000033,-25.609625,-26.11007,11.875505,46.02026,-23.513279,15.000033,-3.242639,-0.26873118,9.238235,-13.016344,29.074863,-39.073402,59.81475,1.0541534,4.101414,6.2389865,-13.984826,-23.095322,33.448807,44.919025,-1.1672182,10.359429,-10.07608
76,-5.773425102233887,21.385374069213867,69.003662109375,2.3782670919442963,5.11994627720566,-1.3375690985196742,-19.191057,25.933367,3.8372726,41.02299,-22.299585,-15.000033,-25.290937,-26.112677,11.851332,45.04845,-23.21035,15.000033,-3.1263056,-0.108997345,9.116751,-12.617272,29.021591,-38.62239,59.723614,1.0193357,4.229638,6.537814,-13.974599,-22.914896,33.545025,45.272964,-1.3916817,10.216989,-10.042105
77,-5.717205047607422,21.5198974609375,69.11410522460938,2.373765228553718,5.149504704628668,-1.6509925416362996,-18.846674,25.955383,4.3041267,40.846317,-22.256912,-15.000033,-24.999224,-26.13661,11.872629,44.134926,-22.955816,15.000033,-3.0044415,0.0068407147,9.017819,-12.1590605,28.939268,-38.04833,59.588123,1.0708696,4.2293897,6.7782555,-13.998808,-22.755415,33.702763,45.63352,-1.7293595,10.06843,-10.042737
78,-5.6579670906066895,21.638521194458008,69.21739196777344,2.3944338009290407,5.16917012532226,-2.001079103488717,-18.446968,25.977684,4.835693,40.64315,-22.188833,-15.000033,-24.744064,-26.161514,11.937238,43.268745,-22.721924,15.000033,-2.8765008,0.09255121,8.930376,-11.630869,28.826637,-37.33732,59.393738,1.1767604,4.119558,7.0112157,-14.054504,-22.617945,33.925526,45.995678,-2.1471915,9.9077635,-10.048197
79,-5.5973334312438965,21.735185623168945,69.31475830078125,2.4298450775955596,5.189192596302217,-2.3564319273152905,-18.02526,25.996374,5.3864284,40.409462,-22.09573,-15.000033,-24.512636,-26.199512,11.98344,42.4473,-22.515837,15.000033,-2.761017,0.16753545,8.838599,-11.081913,28.691256,-36.63744,59.18368,1.2574573,3.929912,7.2212844,-14.122908,-22.500347,34.174923,46.34487,-2.623,9.761744,-10.057493
80,-5.532623767852783,21.815282821655273,69.4121322631836,2.4698327383166894,5.219538048785153,-2.68542843652621,-17.614368,26.008434,5.9113436,40.138607,-21.974585,-15.000033,-24.291277,-26.259743,11.948238,41.665295,-22.340452,15.000033,-2.668692,0.24904458,8.725667,-10.568594,28.544308,-36.108147,59.00658,1.2304547,3.689528,7.3931365,-14.177185,-22.400152,34.400932,46.664604,-3.1395388,9.656504,-10.068179
81,-5.470571517944336,21.87704086303711,69.5044937133789,2.5202533027634986,5.262751853592562,-2.9899160639691096,-17.221107,26.008425,6.4177275,39.842487,-21.833845,-15.000033,-24.09292,-26.372248,11.784751,40.93682,-22.21128,15.000033,-2.5894787,0.33148682,8.587971,-10.1003685,28.393835,-35.789986,58.869713,1.0502104,3.3536053,7.5206995,-14.213941,-22.319256,34.59313,46.948635,-3.7623463,9.601732,-10.076109
82,-5.403702735900879,21.925220489501953,69.59586334228516,2.5835211432012306,5.313242485116808,-3.2831100712147556,-16.828955,25.998917,6.9217234,39.521175,-21.674816,-15.000033,-23.917408,-26.519283,11.535743,40.261593,-22.128479,15.000033,-2.514025,0.4071025,8.435311,-9.652958,28.240158,-35.608704,58.74685,0.7658697,2.9239986,7.6110005,-14.235389,-22.259308,34.764027,47.1978,-4.48189,9.582439,-10.081939
83,-5.329347610473633,21.949954986572266,69.6906509399414,2.6435617195048198,5.369561348176241,-3.5505443815264823,-16.436169,25.990513,7.3943443,39.144234,-21.471909,-15.000033,-23.734001,-26.649746,11.270251,39.608284,-22.053122,15.000033,-2.4550774,0.49031413,8.270101,-9.234014,28.083347,-35.554607,58.639645,0.4315553,2.500193,7.6685877,-14.237667,-22.217054,34.90991,47.418068,-5.1579843,9.58742,-10.090545
84,-5.267608165740967,21.94467544555664,69.78418731689453,2.684329634383966,5.4298335368892525,-3.777827016314077,-16.042236,25.99296,7.80576,38.684544,-21.205183,-15.000033,-23.513983,-26.710703,11.061566,38.948868,-21.954601,15.000033,-2.4218838,0.5946832,8.093692,-8.8578415,27.921814,-35.625957,58.55561,0.09770607,2.1813655,7.700477,-14.215881,-22.185846,35.023697,47.617256,-5.6502776,9.60543,-10.107055
85,-5.196549892425537,21.911678314208984,69.88542938232422,2.6958274345835447,5.499118787116243,-3.969684826720735,-15.652443,26.021149,8.161398,38.145145,-20.886017,-15.000033,-23.253023,-26.674122,10.960266,38.266884,-21.826347,15.000033,-2.4143987,0.7333749,7.8988485,-8.533568,27.756083,-35.86285,58.505104,-0.25832933,2.0000656,7.703709,-14.183315,-22.16214,35.117165,47.810047,-5.8983116,9.632772,-10.154299
86,-5.113325119018555,21.855937957763672,69.99989318847656,2.6888955746566503,5.576510197016903,-4.130844230362216,-15.265784,26.066154,8.47367,37.53746,-20.51874,-15.000033,-22.966791,-26.574327,10.919563,37.578785,-21.681997,15.000033,-2.4282641,0.8950574,7.685307,-8.254084,27.586594,-36.25522,58.486782,-0.65333664,1.9015741,7.677506,-14.133904,-22.144356,35.184628,47.98954,-5.991932,9.675433,-10.222566
87,-5.038887023925781,21.769203186035156,70.1166000366211,2.679878333570178,5.6515991503152065,-4.247400334663886,-14.870559,26.10033,8.721206,36.844803,-20.075792,-15.000033,-22.657415,-26.456596,10.871218,36.91198,-21.527538,15.000033,-2.4656217,1.0558265,7.4661603,-8.0062275,27.410255,-36.72043,58.48729,-1.0225275,1.8545171,7.632772,-14.059236,-22.128664,35.213444,48.151432,-5.9916587,9.735886,-10.2692175
88,-4.965909004211426,21.651729583740234,70.23948669433594,2.6848656987188577,5.7148087430024885,-4.305330730444634,-14.458357,26.09764,8.88219,36.05197,-19.525742,-15.000033,-22.327473,-26.365261,10.743718,36.291336,-21.360514,15.000033,-2.5323606,1.1932412,7.2540064,-7.7739124,27.223204,-37.17203,58.492058,-1.3006142,1.8273227,7.5804067,-13.950798,-22.109053,35.191772,48.292046,-5.9612994,9.816585,-10.252065
89,-4.893527030944824,21.509870529174805,70.37847900390625,2.7039646559677153,5.767668161473428,-4.29758475049726,-14.0294695,26.045204,8.927896,35.140827,-18.86824,-15.000033,-21.980019,-26.304226,10.521428,35.726475,-21.173744,15.000033,-2.6441197,1.3092098,7.0446367,-7.5512366,27.024681,-37.61689,58.50134,-1.4683827,1.8249154,7.5232043,-13.809778,-22.079542,35.110485,48.4166,-5.877269,9.922609,-10.154526
90,-4.815918445587158,21.341999053955078,70.52677917480469,2.730102767688494,5.814040822211516,-4.232831771349822,-13.588698,25.960297,8.876004,34.124252,-18.116653,-15.000033,-21.612772,-26.2514,10.241482,35.202232,-20.969172,15.000033,-2.7960274,1.4134045,6.8326755,-7.3447566,26.81583,-38.088573,58.523087,-1.5613159,1.8596239,7.4561644,-13.647765,-22.037952,34.983757,48.536022,-5.7175965,10.051006,-10.002137
91,-4.734118938446045,21.14552116394043,70.68404388427734,2.767770495901677,5.846774893362096,-4.120875735528403,-13.127715,25.860153,8.779031,33.024635,-17.258213,-15.000033,-21.220642,-26.209814,9.911423,34.712692,-20.765642,15.000033,-2.9656813,1.4953556,6.6290545,-7.153813,26.59558,-38.53557,58.55238,-1.5931035,1.9102427,7.3773313,-13.462178,-21.983631,34.829174,48.645706,-5.559574,10.19286,-9.815262
92,-4.660254001617432,20.927410125732422,70.84683990478516,2.8214236504637715,5.858868347761716,-3.971489005367537,-12.640639,25.760263,8.689038,31.866673,-16.280622,-15.000033,-20.7986,-26.181316,9.538251,34.25145,-20.581747,15.000033,-3.1356928,1.5454617,6.4444423,-6.9741964,26.363,-38.901196,58.58154,-1.5773989,1.9557261,7.2843785,-13.239045,-21.915264,34.658524,48.730568,-5.4922466,10.339523,-9.613826
93,-4.5834736824035645,20.682085037231445,71.0204086303711,2.907960438798772,5.844625810005306,-3.7705563648585905,-12.116255,25.632664,8.609999,30.62565,-15.168884,-15.000033,-20.350208,-26.191881,9.118775,33.84588,-20.425549,15.000033,-3.3191009,1.54622,6.2830343,-6.806324,26.117598,-39.17619,58.612583,-1.4849789,2.002832,7.1608396,-12.980858,-21.832203,34.467957,48.788116,-5.5615597,10.49895,-9.374765
94,-4.51765251159668,20.40473747253418,71.202880859375,3.0190377575523546,5.808394447479623,-3.518670714357041,-11.562647,25.477951,8.516713,29.300066,-13.934595,-15.000033,-19.876434,-26.227682,8.65017,33.49244,-20.289907,15.000033,-3.5222523,1.5087157,6.1386943,-6.6492867,25.859861,-39.384853,58.645954,-1.3186814,2.0583994,7.0128784,-12.691728,-21.732826,34.254463,48.824203,-5.7154016,10.6718445,-9.096447
95,-4.452573299407959,20.098691940307617,71.40036010742188,3.121858807221414,5.759629293708876,-3.2474135799316963,-11.003255,25.353241,8.421308,27.9442,-12.597048,-15.000033,-19.369911,-26.240978,8.139868,33.135403,-20.1606,15.000033,-3.7177615,1.4638928,6.0059505,-6.4966536,25.591116,-39.520603,58.673233,-1.1386955,2.1010945,6.8727093,-12.385651,-21.61737,34.04857,48.859615,-5.878057,10.8371,-8.831697
96,-4.389506816864014,19.7706356048584,71.60787963867188,3.1840212431506227,5.707935176497214,-2.988094435591593,-10.462805,25.315048,8.336439,26.614983,-11.178801,-15.000033,-18.820969,-26.18053,7.5953383,32.715546,-20.026096,15.000033,-3.8798738,1.4433138,5.881002,-6.3408546,25.31402,-39.575848,58.683064,-1.0068512,2.1101584,6.7725506,-12.07909,-21.485142,33.88496,48.91406,-5.9686427,10.974922,-8.634205
97,-4.322797775268555,19.41493034362793,71.82182312011719,3.198836636910437,5.652202135844044,-2.736516189532582,-9.937801,25.367641,8.263483,25.293962,-9.672179,-15.000033,-18.222176,-26.037962,7.0032616,32.232338,-19.89278,15.000033,-4.012486,1.4544015,5.767476,-6.1727376,25.02937,-39.525787,58.666855,-0.91483974,2.070779,6.717504,-11.770273,-21.33542,33.75966,48.986954,-5.9758654,11.077702,-8.524037
98,-4.256678581237793,19.040952682495117,72.04789733886719,3.182317912298279,5.588993212569493,-2.4802529225342025,-9.425947,25.481695,8.196707,23.968916,-8.072845,-15.000033,-17.580343,-25.836643,6.3653092,31.711685,-19.765078,15.000033,-4.12857,1.4805126,5.6663833,-5.9947658,24.73773,-39.37779,58.627846,-0.8368615,1.9975444,6.6914062,-11.452966,-21.167273,33.66026,49.069317,-5.9407864,11.157267,-8.471234
99,-4.20055627822876,18.623390197753906,72.28471374511719,3.1374866837895747,5.525482297546664,-2.238215604239264,-8.9629545,25.664543,8.134801,22.72428,-6.4174657,-15.000033,-16.912489,-25.573683,5.7130947,31.138489,-19.63053,15.000033,-4.214641,1.5153552,5.569752,-5.819842,24.442684,-39.175457,58.57443,-0.81035006,1.9140778,6.694587,-11.149458,-20.980532,33.616028,49.18042,-5.851746,11.223162,-8.455131
100,-4.151772499084473,18.18516731262207,72.52279663085938,3.0678063153606048,5.468831414402713,-2.029493797969107,-8.580112,25.92337,8.077448,21.635483,-4.742574,-15.000033,-16.23523,-25.248514,5.078184,30.497404,-19.474966,15.000033,-4.2602205,1.5517149,5.4677477,-5.654576,24.149044,-38.956043,58.51162,-0.86884874,1.8444338,6.7267375,-10.861366,-20.774597,33.64101,49.32433,-5.719703,11.285468,-8.45468
101,-4.099928855895996,17.731664657592773,72.76481628417969,2.96576652650425,5.421322765514302,-1.8646110803018452,-8.300885,26.27324,7.9693065,20.74738,-3.054177,-15.000033,-15.543707,-24.841488,4.460547,29.771666,-19.29808,15.000033,-4.2517953,1.5918344,5.3583083,-5.4976397,23.8594,-38.714,58.43594,-1.047937,1.7981676,6.7938423,-10.595392,-20.547653,33.750626,49.513065,-5.509266,11.341497,-8.489905
102,-4.0323486328125,17.25376319885254,73.00904083251953,2.831751080348773,5.379366477173335,-1.7321524296796638,-8.119421,26.70516,7.819524,20.031408,-1.3495111,-15.000033,-14.83037,-24.358387,3.8464131,28.969095,-19.105228,15.000033,-4.200452,1.6369903,5.2455015,-5.3425937,23.57475,-38.43294,58.34208,-1.3216689,1.7613451,6.893432,-10.342321,-20.29859,33.928524,49.736843,-5.2367806,11.387299,-8.563695
103,-3.974684000015259,16.75270652770996,73.25708770751953,2.6810440578262082,5.340966501583792,-1.6176553579692914,-8.025683,27.1928,7.722495,19.46807,0.34448373,-15.000033,-14.108731,-23.829428,3.245835,28.113644,-18.896326,15.000033,-4.1252437,1.6783757,5.1330686,-5.193845,23.297983,-38.138355,58.231438,-1.6301596,1.7224954,7.013006,-10.115002,-20.029802,34.165134,49.991104,-4.9495745,11.431045,-8.629373
104,-3.9324398040771484,16.244524002075195,73.49522399902344,2.528663100429021,5.30409236848222,-1.5070616178320906,-8.002113,27.71212,7.777536,19.030836,2.0072393,-15.000033,-13.390967,-23.285112,2.6688068,27.229486,-18.673952,15.000033,-4.043159,1.7079844,5.0254807,-5.058029,23.03291,-37.859764,58.106007,-1.9165192,1.6705087,7.1399574,-9.919548,-19.745842,34.445568,50.26478,-4.6984024,11.480983,-8.639868
105,-3.9007692337036133,15.725610733032227,73.7308120727539,2.3855363394518845,5.271040922016982,-1.392974609537121,-8.029348,28.255655,7.985933,18.667543,3.7247603,-15.000033,-12.677912,-22.734812,2.117868,26.319849,-18.448793,15.000033,-3.9544,1.7126821,4.92065,-4.9383826,22.783804,-37.596897,57.964043,-2.171486,1.6037565,7.269936,-9.73932,-19.446884,34.753883,50.546215,-4.48666,11.541966,-8.582372
106,-3.854633092880249,15.209171295166016,73.96369934082031,2.2380886027151687,5.241846265383257,-1.285448452196267,-8.120179,28.841288,8.301007,18.405092,5.4771996,-15.000033,-11.9615965,-22.155386,1.5847052,25.37086,-18.217152,15.000033,-3.848752,1.7028395,4.8189635,-4.829184,22.552248,-37.338966,57.799755,-2.4254901,1.5278736,7.4094462,-9.569055,-19.132528,35.095703,50.83536,-4.294578,11.609085,-8.481292
107,-3.8114686012268066,14.683550834655762,74.19775390625,2.064551284703186,5.210303572170689,-1.196931309805775,-8.306859,29.492191,8.749733,18.356762,7.083711,-15.000033,-11.243087,-21.534384,1.0663006,24.38923,-17.963524,15.000033,-3.7268043,1.7057191,4.7282043,-4.721947,22.335943,-37.09559,57.609615,-2.6763413,1.4431505,7.5624986,-9.4384775,-18.81155,35.492687,51.144684,-4.1338763,11.6767435,-8.345342
108,-3.779048204421997,14.15552043914795,74.42376708984375,1.843936708304718,5.168876295321148,-1.1403679807071614,-8.59487,30.232718,9.365223,18.601204,8.369412,-15.000033,-10.522717,-20.857962,0.56232715,23.378807,-17.668848,15.000033,-3.5888586,1.7513876,4.656869,-4.6095886,22.12898,-36.877018,57.392136,-2.9221475,1.3493658,7.733017,-9.348237,-18.495625,35.94795,51.459515,-4.0361414,11.740036,-8.181956
109,-3.7470862865448,13.631454467773438,74.64530181884766,1.578421218499686,5.116166456092412,-1.1278706272018246,-8.942281,31.118568,10.31093,19.105413,9.389273,-15.000033,-9.786331,-20.121986,0.07718825,22.302021,-17.313007,15.000033,-3.4175146,1.8378608,4.6057878,-4.5006,21.928139,-36.69187,57.145683,-3.175675,1.2514734,7.921075,-9.292712,-18.193232,36.46905,51.769432,-4.012427,11.8002615,-7.981483
110,-3.7113771438598633,13.120182991027832,74.84661102294922,1.2729553283953905,5.05061974001697,-1.1554011720117314,-9.318045,32.140034,11.525338,19.820288,10.203345,-15.000033,-9.029028,-19.326967,-0.3849541,21.159616,-16.906443,15.000033,-3.2105858,1.95932,4.5760417,-4.3981714,21.731693,-36.533943,56.873997,-3.4320586,1.1472533,8.124904,-9.265021,-17.907736,37.049614,52.072144,-4.0424385,11.859474,-7.7421284
111,-3.6802589893341064,12.627718925476074,75.03317260742188,0.9154188610745791,4.9641487685725645,-1.210348627910561,-9.729641,33.21886,12.712488,20.76727,10.667531,-15.000033,-8.256268,-18.469461,-0.8248067,19.992945,-16.47256,15.000033,-2.9912388,2.136661,4.5750847,-4.292767,21.534035,-36.395725,56.588932,-3.6665406,1.0261328,8.34597,-9.266157,-17.64473,37.670788,52.368362,-4.1119137,11.913658,-7.4833546
112,-3.669528007507324,12.151039123535156,75.19576263427734,0.4981360672298522,4.852151160895723,-1.2762107687407742,-10.194028,34.260334,13.577833,21.946163,10.66173,-15.000033,-7.4800334,-17.557674,-1.2420962,18.850521,-16.03739,15.000033,-2.7826202,2.3868117,4.6096177,-4.180233,21.326653,-36.271667,56.30542,-3.8529322,0.8772005,8.586309,-9.319697,-17.41259,38.331974,52.67481,-4.1795697,11.958221,-7.224995
113,-3.6527440547943115,11.694916725158691,75.34009552001953,-0.013476757477998513,4.710721512725338,-1.3588556617853031,-10.793375,35.330006,14.077834,23.485945,10.173794,-15.000033,-6.6768856,-16.550941,-1.6402107,17.687687,-15.572601,15.000033,-2.5813985,2.745603,4.687903,-4.0646586,21.103445,-36.158424,56.028194,-3.984184,0.6807022,8.864953,-9.422737,-17.217737,39.038353,52.98417,-4.2654066,11.993931,-6.9570136
114,-3.6333348751068115,11.262186050415039,75.45867919921875,-0.5915308078356128,4.5400834253994,-1.465696107139709,-11.47048,36.415974,14.370859,25.299986,9.312279,-15.000033,-5.843378,-15.476059,-2.0042996,16.485851,-15.068642,15.000033,-2.372918,3.184513,4.8058968,-3.953876,20.86191,-36.061752,55.757298,-4.071817,0.44750917,9.175293,-9.563778,-17.062082,39.79197,53.28577,-4.372471,12.022756,-6.673273
115,-3.6261048316955566,10.85166072845459,75.54792785644531,-1.1502716309172472,4.350718968295177,-1.5727802956991361,-12.079002,37.300385,14.465018,27.09702,8.130964,-15.000033,-5.0388494,-14.439875,-2.3204525,15.35631,-14.588574,15.000033,-2.175688,3.6245892,4.941976,-3.8481357,20.598866,-35.989452,55.502743,-4.1211443,0.21339747,9.481416,-9.727606,-16.94634,40.567055,53.57597,-4.465601,12.042617,-6.399968
116,-3.632491111755371,10.481027603149414,75.61463165283203,-1.6138343075108619,4.159478166131356,-1.6499229912070814,-12.5132675,37.791637,14.361915,28.637997,6.6433372,-15.000033,-4.3152976,-13.546131,-2.5927858,14.390813,-14.190434,15.000033,-2.0145683,3.9969292,5.070009,-3.7467184,20.310184,-35.948704,55.274776,-4.1368337,0.014283488,9.747249,-9.88601,-16.86998,41.325546,53.842068,-4.5254493,12.052047,-6.163178
117,-3.6333913803100586,10.139122009277344,75.66368103027344,-1.9849212395876457,3.976448954884085,-1.6777970609105566,-12.791016,37.831905,13.971934,29.901794,4.6765,-15.000033,-3.7217674,-12.803057,-2.8336532,13.679342,-13.916027,15.000033,-1.9067447,4.3100395,5.180649,-3.6489143,19.989853,-35.93816,55.073692,-4.1125283,-0.14773631,9.972318,-10.056852,-16.836655,42.091366,54.09683,-4.513791,12.044272,-5.971165
118,-3.6357765197753906,9.833869934082031,75.70891571044922,-2.3068247203400145,3.7972245382974634,-1.6700296427539567,-13.027916,37.52855,13.302518,31.093126,2.2355633,-15.000033,-3.225165,-12.155751,-3.0528784,13.158658,-13.729398,15.000033,-1.84097,4.603437,5.284228,-3.5589583,19.63502,-35.95492,54.90221,-4.04698,-0.2893746,10.173857,-10.236746,-16.847637,42.867725,54.334675,-4.459771,12.022761,-5.8095493
119,-3.639209747314453,9.543803215026855,75.75281524658203,-2.5710690488165744,3.618074764885078,-1.6446249088697382,-13.2375345,36.951405,12.504949,32.272697,-0.40971377,-15.000033,-2.800579,-11.603161,-3.2488842,12.783403,-13.606395,15.000033,-1.7939856,4.8601785,5.386982,-3.492001,19.248821,-36.013844,54.77485,-3.959264,-0.40295497,10.343123,-10.414824,-16.898296,43.622173,54.55034,-4.3909507,12.000381,-5.670788
120,-3.64151668548584,9.276121139526367,75.79714965820312,-2.7634416171059306,3.435114668385114,-1.618796744625506,-13.408467,36.172184,11.737586,33.460903,-2.9743817,-15.000033,-2.428546,-11.149862,-3.4176636,12.518939,-13.529375,15.000033,-1.7447318,5.0566835,5.492542,-3.457065,18.838253,-36.12778,54.70223,-3.8678591,-0.4806204,10.470662,-10.560623,-16.979988,44.299313,54.727917,-4.365227,11.989869,-5.5475984
121,-3.6446022987365723,9.022862434387207,75.84070587158203,-2.8694660705191866,3.2361383822684484,-1.5920145330886013,-13.500779,35.197998,11.036969,34.659893,-5.4987893,-15.000033,-2.1109989,-10.816865,-3.5591571,12.395838,-13.511014,15.000033,-1.6894714,5.174444,5.6144543,-3.4563258,18.407248,-36.30905,54.693104,-3.7829213,-0.52000636,10.559743,-10.687444,-17.089125,44.902733,54.87569,-4.3733096,11.988052,-5.443779
122,-3.6501548290252686,8.782240867614746,75.8863296508789,-2.9019409213297145,3.0263425268442052,-1.5562118333385258,-13.526404,34.00704,10.311611,35.858498,-8.10826,-15.000033,-1.860254,-10.595138,-3.6782262,12.428136,-13.558631,15.000033,-1.6399717,5.229896,5.7468786,-3.480247,17.956465,-36.548172,54.73512,-3.6947813,-0.5250107,10.613054,-10.802165,-17.22467,45.448357,54.99867,-4.402277,11.98997,-5.3616967
123,-3.658851146697998,8.550797462463379,75.9350814819336,-2.9180943294014283,2.8323884590152004,-1.5275977879254565,-13.548057,32.667294,9.521417,37.040363,-10.625776,-15.000033,-1.6500443,-10.374135,-3.75568,12.487329,-13.607254,14.77571,-1.5850183,5.27707,5.862175,-3.522564,17.490068,-36.826996,54.805855,-3.5917509,-0.49674335,10.62003,-10.900866,-17.382431,45.92795,55.102673,-4.465338,12.004695,-5.292108
124,-3.6596357822418213,8.337153434753418,75.98604583740234,-2.9097338624906333,2.672449567031618,-1.50278550202172,-13.602252,31.149815,8.661308,38.171432,-12.873697,-15.000033,-1.4946973,-10.1910925,-3.8133442,12.572183,-13.664089,14.555615,-1.5322247,5.3103185,5.9402237,-3.5750237,17.014547,-37.126984,54.8797,-3.462238,-0.43626723,10.570107,-10.970348,-17.554604,46.32374,55.186493,-4.586372,12.041484,-5.2259655
125,-3.668233871459961,8.136765480041504,76.03425598144531,-2.8705779101109345,2.5492270939085016,-1.4809210640856956,-13.698393,29.407442,7.7040544,39.258965,-14.858773,-15.000033,-1.4111058,-10.057593,-3.8492105,12.71019,-13.7406845,14.359989,-1.482097,5.323216,5.978746,-3.6358688,16.533716,-37.441288,54.955513,-3.340832,-0.3336541,10.42007,-11.011242,-17.735722,46.623665,55.255363,-4.790262,12.105726,-5.1609235
126,-3.679716110229492,7.954937934875488,76.08280944824219,-2.790317791480461,2.447978217171131,-1.4622997234083168,-13.789768,27.442173,6.683126,40.301186,-16.664787,-15.000033,-1.3981584,-9.989001,-3.8605738,12.93187,-13.851719,14.188564,-1.433804,5.303372,5.9930024,-3.7043447,16.049341,-37.779514,55.038776,-3.2215893,-0.19162072,10.188498,-11.041356,-17.924147,46.84729,55.32015,-5.05038,12.1907625,-5.1020994
127,-3.688077211380005,7.791408061981201,76.12947845458984,-2.6825880829641546,2.3630888962104795,-1.4536267966825032,-13.842371,25.329205,5.677613,41.247383,-18.23091,-15.000033,-1.4141499,-9.965777,-3.8523421,13.165803,-13.967333,14.047159,-1.3887447,5.2607265,5.9861526,-3.7711697,15.565686,-38.14485,55.112293,-3.0324545,-0.030100198,9.956457,-11.054661,-18.116539,47.00472,55.376293,-5.33925,12.287948,-5.0513644
128,-3.689457416534424,7.631111145019531,76.1717758178711,-2.561140179635393,2.2895268637226693,-1.4616220756581602,-13.823505,23.14554,4.765322,42.029755,-19.487871,-15.000033,-1.441463,-9.969298,-3.8251312,13.3886795,-14.084143,13.940805,-1.3476262,5.2051635,5.9616566,-3.8282614,15.0892515,-38.542633,55.15834,-2.7040267,0.13069627,9.804749,-11.055354,-18.309,47.115738,55.42724,-5.616837,12.388244,-5.010936
129,-3.684715509414673,7.492256164550781,76.21607971191406,-2.4137967963322144,2.2310191306506955,-1.4830019076623517,-13.729185,20.861391,3.9904828,42.643234,-20.356867,-15.000033,-1.4786681,-10.01703,-3.7810936,13.591631,-14.202253,13.890483,-1.3205507,5.124115,5.91522,-3.86101,14.6240425,-38.98029,55.15971,-2.2197857,0.3058028,9.739982,-11.039413,-18.497385,47.17132,55.46885,-5.9244204,12.498859,-4.973355
130,-3.6795284748077393,7.367304801940918,76.25567626953125,-2.240072202609816,2.1837623670060182,-1.5202758120103028,-13.571063,18.455286,3.3090918,43.09671,-20.917072,-15.000033,-1.5355088,-10.109258,-3.7138474,13.798913,-14.329792,13.886923,-1.3008939,5.0171504,5.851457,-3.873357,14.171718,-39.452858,55.12375,-1.6175472,0.50000507,9.72243,-11.017214,-18.68043,47.173286,55.511917,-6.257921,12.62063,-4.9400973
131,-3.67326283454895,7.247170925140381,76.28929901123047,-2.074342772942781,2.133986527780715,-1.586257175656824,-13.345214,16.023304,2.6459386,43.345604,-21.322994,-15.000033,-1.5942851,-10.197446,-3.6182597,14.000337,-14.4549265,13.888905,-1.269574,4.914968,5.7847176,-3.8813777,13.7355795,-39.942684,55.065845,-0.9080341,0.6793073,9.763194,-10.990151,-18.857351,47.135963,55.56166,-6.5390825,12.737163,-4.9274263
132,-3.6610846519470215,7.135972499847412,76.31879425048828,-1.9497222086006851,2.0711195714356885,-1.6918095632209353,-13.044659,13.666152,1.9101417,43.35116,-21.705019,-15.000033,-1.6385823,-10.2338085,-3.491539,14.184021,-14.564735,13.855258,-1.210763,4.847432,5.727054,-3.8988395,13.319984,-40.429047,54.998947,-0.10039734,0.8103724,9.873808,-10.956649,-19.02779,47.07038,55.62153,-6.694998,12.831972,-4.95234
133,-3.635834217071533,7.039133548736572,76.343505859375,-1.8203541520776467,1.9990552008940563,-1.8265677268574665,-12.591027,11.17262,0.94826734,42.927235,-21.978676,-15.000033,-1.7094374,-10.285071,-3.325716,14.434913,-14.701813,13.789495,-1.1370612,4.77362,5.6726117,-3.9191704,12.927232,-40.933018,54.910748,0.969917,0.89777625,10.102592,-10.9212675,-19.192024,46.982536,55.697506,-6.6630073,12.89626,-5.033667
134,-3.6052346229553223,6.959544658660889,76.36443328857422,-1.6946770169201546,1.916221575060038,-1.9959631290114912,-11.988694,8.597089,-0.18787989,42.144604,-22.119438,-15.000033,-1.7911464,-10.338082,-3.1206613,14.72017,-14.853256,13.706288,-1.0467216,4.700383,5.623113,-3.9358873,12.558099,-41.45512,54.79472,2.251821,0.96082413,10.4282465,-10.881282,-19.349953,46.863396,55.785027,-6.500324,12.940164,-5.1581016
135,-3.57694149017334,6.879545211791992,76.37639617919922,-1.672513404722559,1.823109805978794,-2.213579245157128,-11.384094,6.411491,-1.2662808,41.34421,-22.269985,-15.000033,-1.8099056,-10.247889,-2.9020534,14.874574,-14.93214,13.584746,-0.920334,4.716457,5.5861583,-3.9657114,12.215908,-41.9452,54.672295,3.4122355,0.98357654,10.760422,-10.837363,-19.499851,46.717136,55.87746,-6.29366,12.97543,-5.295099
136,-3.5534539222717285,6.774649620056152,76.38029479980469,-1.8344281399801776,1.7385876093457842,-2.472292359750675,-10.9755125,5.056857,-1.9981982,40.87219,-22.48496,-15.000033,-1.7149701,-9.898809,-2.709451,14.745905,-14.855447,13.408968,-0.758615,4.892103,5.552452,-4.023475,11.906642,-42.350033,54.562405,4.119889,0.94281995,11.009445,-10.797564,-19.638948,46.554546,55.97566,-6.125014,13.014253,-5.414526
137,-3.536785364151001,6.623006820678711,76.38542938232422,-2.2512285601418514,1.6782811472310761,-2.791171671491149,-10.952588,4.771271,-2.266306,41.04153,-22.838747,-15.000033,-1.4602724,-9.184398,-2.5491087,14.180034,-14.531389,13.149184,-0.5427906,5.286171,5.51237,-4.1205235,11.638591,-42.625427,54.480892,4.26101,0.78943676,11.192575,-10.755623,-19.761477,46.35782,56.076588,-6.01635,13.060779,-5.5175943
138,-3.5325770378112793,6.442779541015625,76.38439178466797,-2.8338959887465993,1.6325283566832502,-3.165737846008955,-11.212404,5.246727,-2.1723685,41.69405,-23.353323,-15.000033,-1.0831064,-8.228982,-2.3867204,13.275901,-14.013221,12.828601,-0.2830006,5.815388,5.466449,-4.2418184,11.416797,-42.806007,54.404408,4.0220113,0.54555637,11.34232,-10.711749,-19.863523,46.1283,56.184692,-5.927312,13.108389,-5.618216
139,-3.528658390045166,6.263554096221924,76.37918853759766,-3.4259003434422404,1.5814149792943606,-3.551233394227173,-11.485109,6.105393,-1.730299,42.41697,-23.995491,-15.000033,-0.6636968,-7.2624717,-2.205964,12.282974,-13.449087,12.511503,-0.023646692,6.3403497,5.423955,-4.364563,11.240899,-42.959103,54.29464,3.5200138,0.2923847,11.391809,-10.683448,-19.945616,45.90703,56.308697,-5.841986,13.153069,-5.7053623
140,-3.5113797187805176,6.189217567443848,76.38223266601562,-3.4838003394298704,1.5583706505749892,-3.725982574044547,-11.383132,6.0583124,-0.93237656,42.347984,-24.380817,-11.979921,-0.6890707,-7.082425,-2.0403643,12.299231,-13.454509,12.4120245,0.019190986,6.382391,5.3585567,-4.462105,11.102228,-43.148205,54.1128,2.8714995,0.112678275,11.278503,-10.647438,-20.012136,45.691895,56.43144,-5.801281,13.190452,-5.7701902
141,-3.4889566898345947,6.148398399353027,76.37821197509766,-3.4305876721961015,1.5379203089699214,-3.8085405619500317,-10.880388,6.102605,0.2454863,41.583908,-24.718935,-9.3216305,-0.82156163,-7.092329,-1.92282,12.607895,-13.644215,12.384189,-0.04026178,6.3312907,5.280007,-4.528779,10.994384,-43.38272,53.84298,1.9508338,0.034010846,10.9619465,-10.614845,-20.068993,45.51316,56.558563,-5.795909,13.220697,-5.8041964
142,-3.465733289718628,6.10068941116333,76.36138916015625,-3.4087456463397268,1.5098989746523053,-3.8686596385747003,-10.111686,6.4955344,1.7906958,40.43375,-25.159025,-7.347293,-0.930792,-7.079357,-1.8337737,12.909546,-13.846498,12.369094,-0.13509743,6.3134003,5.198516,-4.57951,10.91642,-43.629486,53.51455,0.7486546,0.018229956,10.483665,-10.565952,-20.11725,45.33668,56.67673,-5.842406,13.246684,-5.81347
143,-3.4483227729797363,6.063989639282227,76.34333801269531,-3.3641483316559264,1.473760768323966,-3.9199487480619077,-9.181627,6.918994,3.407648,39.02626,-25.61845,-5.8890133,-1.0402889,-7.101117,-1.7468998,13.239063,-14.070261,12.365483,-0.24500301,6.266051,5.1279397,-4.636141,10.869342,-43.906136,53.16958,-0.44711277,0.049419746,9.904336,-10.524098,-20.155098,45.166107,56.796013,-5.8794084,13.268906,-5.8056693
144,-3.4285128116607666,6.030907154083252,76.33334350585938,-3.2435426772595344,1.429424232590096,-3.9763991572648067,-8.221243,7.0853677,4.776462,37.51705,-26.001951,-4.725245,-1.1726564,-7.213348,-1.635654,13.627406,-14.321998,12.371405,-0.35847488,6.126438,5.079593,-4.712243,10.856641,-44.22116,52.84496,-1.346124,0.10423934,9.2832365,-10.487415,-20.174671,44.97975,56.91263,-5.884842,13.28824,-5.789151
145,-3.413159132003784,6.003704071044922,76.3361587524414,-3.0154211199217644,1.3858658419595657,-4.030755838530103,-7.243732,6.9299994,5.8240023,35.85203,-26.231476,-3.84658,-1.3495535,-7.455748,-1.497637,14.10339,-14.616804,12.39362,-0.47731504,5.85891,5.0482373,-4.8165746,10.876056,-44.57511,52.53743,-1.8811945,0.20006883,8.591206,-10.453601,-20.176102,44.76007,57.02165,-5.863634,13.304998,-5.753358
146,-3.3978798389434814,5.983484745025635,76.35254669189453,-2.7158093422975185,1.3405722769573867,-4.079710434955247,-6.185473,6.6081696,6.7199626,33.95675,-26.29619,-3.3466792,-1.5511893,-7.787216,-1.345016,14.637825,-14.943567,12.430497,-0.6022046,5.503075,5.029975,-4.940922,10.932231,-44.97022,52.22597,-2.2047358,0.3386665,7.812817,-10.435663,-20.157305,44.530293,57.13815,-5.810218,13.317934,-5.6984506
147,-3.370866537094116,5.955780506134033,76.36962890625,-2.3938157394931725,1.2763043901413538,-4.143638609184031,-5.086004,6.20005,7.4790635,31.990046,-26.22822,-3.103156,-1.7344704,-8.139408,-1.1737458,15.167283,-15.266337,12.467209,-0.7198978,5.110461,5.033529,-5.0789714,11.0237255,-45.416164,51.94059,-2.3550081,0.46512043,7.0267987,-10.418277,-20.114407,44.29522,57.26372,-5.7284627,13.327014,-5.6479993
148,-3.342923641204834,5.912610054016113,76.38142395019531,-2.0977952899699646,1.1756134107928446,-4.242994100454564,-3.9987187,5.795825,8.107247,30.133417,-26.085358,-2.9813929,-1.8606856,-8.445477,-0.9802258,15.637668,-15.552523,12.489235,-0.8090881,4.728967,5.063485,-5.2272515,11.151178,-45.937458,51.715195,-2.37946,0.52523357,6.3129697,-10.32946,-20.042765,43.993553,57.363956,-5.6887007,13.332131,-5.6249766
149,-3.323254346847534,5.863282203674316,76.39376068115234,-1.8237426557301835,1.0145776020451165,-4.3862155567339585,-2.9076571,5.4101014,8.541699,28.384712,-25.849443,-2.9627576,-1.8977435,-8.707263,-0.7575939,16.036913,-15.803488,12.497506,-0.8457014,4.351976,5.14922,-5.403404,11.316328,-46.574055,51.569256,-2.248701,0.48810852,5.6816826,-10.259396,-19.942501,43.715286,57.501823,-5.5608187,13.326565,-5.637362
150,-3.307561159133911,5.810205459594727,76.40966033935547,-1.5535039518282237,0.8092243805351859,-4.561860469396151,-1.81072,5.0268526,8.7887125,26.683304,-25.493816,-3.0810223,-1.8750746,-8.950409,-0.5112405,16.398886,-16.034555,12.497383,-0.8701425,3.9613214,5.265335,-5.583703,11.519341,-47.28401,51.480022,-1.9533138,0.38345692,5.092395,-10.052168,-19.809826,43.30915,57.562412,-5.5523057,13.31565,-5.672442
151,-3.2793164253234863,5.759274005889893,76.43587493896484,-1.3107388726385136,0.6024696617087836,-4.760030515931944,-0.79944503,4.692623,8.954495,25.151087,-25.093092,-3.2710524,-1.8359154,-9.148139,-0.2569077,16.71435,-16.229088,12.482239,-0.83703494,3.582843,5.407213,-5.805069,11.756475,-48.07435,51.42251,-1.5779047,0.2501982,4.559391,-10.055422,-19.64988,43.08407,57.79711,-5.268312,13.299938,-5.721488
152,-3.2456283569335938,5.6969804763793945,76.46332550048828,-1.1187076823085245,0.43598705506566365,-4.970357051080124,0.037148945,4.44804,9.147604,23.902205,-24.7278,-3.4671147,-1.8259443,-9.275711,-0.009077719,16.97814,-16.37224,12.445839,-0.81278956,3.2452948,5.507054,-6.010776,12.022275,-48.849106,51.36913,-1.1944104,0.12895733,4.0861683,-9.955944,-19.453497,42.749924,57.989265,-5.123965,13.2950535,-5.77676
153,-3.2284092903137207,5.6326398849487305,76.49226379394531,-0.9758106036351605,0.3190132881497644,-5.204840997585392,0.652943,4.311188,9.39006,23.012215,-24.410711,-3.6555674,-1.8683734,-9.331135,0.24488334,17.204292,-16.464659,12.383163,-0.7581739,2.9399054,5.5667315,-6.2295656,12.314346,-49.643566,51.33352,-0.8024705,0.017045377,3.6746402,-9.878245,-19.218906,42.411087,58.232906,-4.980341,13.296826,-5.8375397
154,-3.2246627807617188,5.564957618713379,76.52239227294922,-0.8697247721225327,0.22913711962489372,-5.463880553679032,1.0889469,4.2667,9.623822,22.426128,-24.118826,-3.8510163,-1.9374416,-9.32964,0.5084887,17.394556,-16.51472,12.29933,-0.68440294,2.6552768,5.6011553,-6.456294,12.631901,-50.46312,51.32709,-0.36651134,-0.102976404,3.320569,-9.770922,-18.942776,42.026356,58.48906,-4.8861384,13.302812,-5.908064
155,-3.2295851707458496,5.488430500030518,76.54735565185547,-0.8091365184532886,0.1614478972748679,-5.7195981325699625,1.378751,4.301598,9.838643,22.079885,-23.883165,-4.036582,-2.008128,-9.273362,0.75444275,17.52892,-16.520866,12.20358,-0.61692023,2.4114525,5.6167397,-6.678415,12.969589,-51.278004,51.33157,0.078931876,-0.21093696,3.0277884,-9.637183,-18.628937,41.5974,58.757725,-4.825967,13.318213,-5.9862328
156,-3.2336246967315674,5.418344497680664,76.57093048095703,-0.8031785289009973,0.11082498000630643,-5.9441003210502465,1.5590001,4.402249,10.025002,21.90609,-23.731173,-4.19816,-2.0550048,-9.1634245,0.9550239,17.585564,-16.480356,12.104662,-0.56632036,2.231216,5.630818,-6.899554,13.319131,-52.06897,51.33111,0.50030077,-0.28633776,2.8009722,-9.583993,-18.286394,41.224228,59.1089,-4.654282,13.346266,-6.0701456
157,-3.2554938793182373,5.357484340667725,76.59127807617188,-0.8745824727347479,0.08246024140336453,-6.132615700712462,1.5985382,4.599398,10.183865,21.958948,-23.688002,-4.3327684,-2.0711586,-8.973951,1.097732,17.538214,-16.372826,11.995175,-0.55452967,2.140995,5.6273766,-7.111004,13.675552,-52.83163,51.332855,0.8966755,-0.3245884,2.6544054,-9.491229,-17.914862,40.790836,59.471302,-4.514476,13.389554,-6.185722
158,-3.277986526489258,5.309109210968018,76.61026763916016,-1.0123806110050118,0.07611661954806397,-6.299118640298516,1.4937875,4.889802,10.319644,22.2511,-23.733574,-4.449817,-2.070667,-8.712971,1.1990303,17.406696,-16.206837,11.873392,-0.568073,2.1246264,5.602065,-7.3180213,14.036424,-53.577385,51.35031,1.2836752,-0.33546808,2.5808704,-9.327205,-17.513105,40.264256,59.815166,-4.455236,13.446914,-6.324016
159,-3.2975785732269287,5.2593817710876465,76.62845611572266,-1.175142214304238,0.07931543138525608,-6.443486435384339,1.3245815,5.207664,10.427813,22.64503,-23.821869,-4.5526314,-2.0548654,-8.432961,1.2739305,17.228624,-16.01982,11.756668,-0.58952993,2.140943,5.577087,-7.5250554,14.396742,-54.28574,51.377853,1.6563355,-0.32068083,2.5504763,-9.245673,-17.093098,39.813763,60.21171,-4.280814,13.517113,-6.432476
160,-3.319175958633423,5.219526767730713,76.64158630371094,-1.3215578105519696,0.07978498298100187,-6.56568172354565,1.1657331,5.488202,10.50387,23.010391,-23.91049,-4.6426573,-2.0264988,-8.186743,1.3380399,17.044493,-15.850112,11.662611,-0.64310586,2.1537235,5.553053,-7.701843,14.751269,-54.89709,51.405796,2.0129018,-0.2830081,2.529749,-9.165999,-16.665972,39.39436,60.5584,-4.0877576,13.605652,-6.4571614
161,-3.3422656059265137,5.186405658721924,76.65109252929688,-1.4528675031258094,0.07980735243813732,-6.6575017729119175,1.0057437,5.7308235,10.534151,23.357285,-24.005482,-4.7157536,-1.9828206,-7.975866,1.3847883,16.847536,-15.698446,11.594443,-0.74020296,2.1720147,5.5285406,-7.845475,15.09629,-55.405308,51.42885,2.3745365,-0.20949255,2.5181725,-9.066011,-16.238308,38.965614,60.836746,-3.9053986,13.725275,-6.3823266
162,-3.3739070892333984,5.1627516746521,76.65087890625,-1.5869426198689318,0.08435936959225213,-6.721680937280789,0.81394494,5.964511,10.524842,23.740767,-24.12353,-4.7724667,-1.923429,-7.7762494,1.4096521,16.62198,-15.547291,11.543412,-0.86987597,2.2120757,5.5021267,-7.969018,15.429965,-55.834732,51.458134,2.735608,-0.10342519,2.5300553,-8.953105,-15.812681,38.531803,61.06483,-3.7180355,13.871414,-6.236283
163,-3.398117780685425,5.151715278625488,76.6523666381836,-1.707307608292392,0.08478512045381122,-6.774928200988665,0.635741,6.168641,10.5026455,24.097956,-24.238426,-4.8193717,-1.8566432,-7.6022744,1.4319335,16.397655,-15.409415,11.5088215,-1.0069735,2.2472944,5.4809375,-8.076605,15.749846,-56.183586,51.507896,3.054854,0.008131167,2.555702,-8.847006,-15.397404,38.16218,61.237186,-3.4804592,14.022127,-6.0314765
164,-3.4249019622802734,5.148667335510254,76.65060424804688,-1.7969040638349898,0.07259249047440913,-6.833876383384861,0.51652974,6.3225136,10.494564,24.36547,-24.32353,-4.8627305,-1.7862973,-7.4691377,1.4702122,16.194904,-15.295209,11.490436,-1.1312268,2.252155,5.4710913,-8.168567,16.05356,-56.444565,51.590576,3.2922456,0.097808585,2.5853267,-8.750432,-15.003666,37.913742,61.335163,-3.1657345,14.1563835,-5.779949
165,-3.446723222732544,5.1500468254089355,76.64582824707031,-1.8516078951694417,0.048347458216050215,-6.89110297788821,0.44906673,6.4199367,10.487976,24.550442,-24.37751,-4.9068093,-1.7156553,-7.384589,1.5201073,16.02315,-15.211995,11.493521,-1.2472681,2.223563,5.475385,-8.247832,16.339739,-56.61903,51.704567,3.4365249,0.16327652,2.615866,-8.659189,-14.640635,37.796917,61.33679,-2.7378745,14.292566,-5.468052
166,-3.4742605686187744,5.152003288269043,76.64171600341797,-1.8801066672314752,0.015538542597388814,-6.941641506980911,0.41495582,6.472363,10.47524,24.6785,-24.41245,-4.9468102,-1.6393287,-7.3396235,1.574387,15.864736,-15.15115,11.516641,-1.3633547,2.1763732,5.4907937,-8.312446,16.60752,-56.707687,51.845158,3.5097594,0.21715315,2.6530619,-8.56167,-14.312511,37.779102,61.24532,-2.224628,14.436494,-5.094093
167,-3.498729705810547,5.1622538566589355,76.6386489868164,-1.8861318009461217,-0.029312026656407232,-7.006150390833027,0.43889898,6.4881887,10.490643,24.723438,-24.427103,-4.975054,-1.567013,-7.322509,1.6499759,15.736914,-15.109489,11.548271,-1.4606352,2.1135616,5.516304,-8.356954,16.854984,-56.704197,52.019188,3.5234897,0.25440225,2.7006261,-8.460183,-14.020973,37.867706,61.084743,-1.6704115,14.547986,-4.687552
168,-3.5112435817718506,5.177473068237305,76.63777923583984,-1.8733047914888141,-0.0902881191873564,-7.105281118585199,0.5477796,6.4756823,10.568581,24.654877,-24.417639,-4.983921,-1.5080986,-7.3215938,1.7638117,15.656119,-15.083657,11.576875,-1.521878,2.0374017,5.5502725,-8.376728,17.079903,-56.602234,52.23585,3.4871252,0.26970336,2.7623453,-8.365983,-13.766714,38.07877,60.888935,-1.1126219,14.584963,-4.277633
169,-3.5124127864837646,5.188427925109863,76.63883209228516,-1.839129336308327,-0.17731819827822873,-7.2472593058725865,0.77197963,6.4303436,10.727794,24.443415,-24.380507,-4.9686184,-1.4518962,-7.3387747,1.9224492,15.621642,-15.072454,11.600648,-1.5381364,1.9453917,5.5992928,-8.369176,17.279684,-56.39933,52.50346,3.3748212,0.24786708,2.8384259,-8.277762,-13.551801,38.43499,60.650566,-0.5126864,14.526873,-3.848468
170,-3.515777349472046,5.20121955871582,76.63990020751953,-1.7828611484847878,-0.28534406115955413,-7.4202967835260765,1.089758,6.3494473,10.946587,24.111845,-24.318157,-4.934605,-1.3988708,-7.378556,2.1163354,15.627933,-15.078484,11.625222,-1.5201427,1.8386962,5.661433,-8.336619,17.453054,-56.098827,52.818424,3.1905417,0.19575684,2.9271567,-8.18957,-13.376729,38.922928,60.355995,0.13413621,14.400846,-3.3900003
171,-3.528827428817749,5.222726821899414,76.64122009277344,-1.7102802704773679,-0.3950663132594408,-7.614762718667142,1.4500194,6.2423544,11.198339,23.70578,-24.235584,-4.889667,-1.3705916,-7.4328537,2.3374636,15.676228,-15.100596,11.650205,-1.4802597,1.7241977,5.7226753,-8.278645,17.600092,-55.699635,53.168777,2.9936066,0.14177462,3.029141,-8.104553,-13.236656,39.501904,60.0274,0.739434,14.233319,-2.9404044
172,-3.5420515537261963,5.24619197845459,76.6427993774414,-1.627455785190104,-0.4875029375802728,-7.821070419058669,1.8014475,6.1195173,11.456695,23.271902,-24.138134,-4.841423,-1.3895013,-7.493642,2.5781982,15.769755,-15.138292,11.675086,-1.4317591,1.607698,5.768052,-8.194922,17.722061,-55.201862,53.54357,2.8411863,0.114566706,3.1452835,-8.023668,-13.123144,40.12568,59.68833,1.2067325,14.049242,-2.5394082
173,-3.554872512817383,5.267491817474365,76.64437103271484,-1.530711499524942,-0.5570068270665126,-8.051620844503244,2.1480653,5.9743557,11.735816,22.791037,-24.020935,-4.7878866,-1.475986,-7.5611277,2.8565445,15.926906,-15.198268,11.699526,-1.3649911,1.4854696,5.792355,-8.082978,17.818197,-54.595543,53.95149,2.7565455,0.103740245,3.27471,-7.9575953,-13.032227,40.821995,59.343597,1.4863459,13.829859,-2.1754508
174,-3.570228099822998,5.284735679626465,76.64612579345703,-1.4187257450153135,-0.6135405293249481,-8.306559427935413,2.5121708,5.803104,12.042652,22.247244,-23.882593,-4.7275095,-1.6120849,-7.638095,3.1699278,16.137259,-15.276976,11.723926,-1.2781694,1.3550428,5.8035927,-7.942385,17.887743,-53.8834,54.394783,2.7064664,0.100273736,3.4170556,-7.9101057,-12.962233,41.605534,58.989677,1.6410455,13.567384,-1.835964
175,-3.579003095626831,5.302712440490723,76.64965057373047,-1.3010309769125914,-0.6615103246602344,-8.557677389415856,2.8707142,5.62074,12.340601,21.690313,-23.732367,-4.6677403,-1.7653137,-7.7198925,3.479661,16.366518,-15.361907,11.748949,-1.196573,1.222964,5.8057246,-7.776584,17.933023,-53.08611,54.85109,2.663464,0.13512747,3.574194,-7.8617463,-12.906293,42.39897,58.632736,1.7284878,13.301854,-1.5603726
176,-3.5895514488220215,5.318863391876221,76.6526107788086,-1.1871769154249656,-0.7056462945473057,-8.776571472594165,3.2008252,5.443308,12.592787,21.169437,-23.578922,-4.615256,-1.9029694,-7.8029537,3.7469091,16.579706,-15.439932,11.775247,-1.1415106,1.0936503,5.8032374,-7.5923243,17.95838,-52.229656,55.29833,2.5982468,0.23910142,3.748472,-7.806208,-12.855888,43.13453,58.29045,1.8225311,13.07286,-1.3881438
177,-3.5985045433044434,5.327195167541504,76.65739440917969,-1.0722145821290499,-0.7459008711357609,-8.959146338580506,3.500945,5.2658777,12.791274,20.685146,-23.418427,-4.5672097,-2.0277882,-7.8946147,3.9649997,16.785616,-15.514743,11.807005,-1.1153135,0.95835,5.793569,-7.3825502,17.964716,-51.29047,55.73825,2.5206149,0.43607545,3.9422078,-7.7388573,-12.80504,43.845406,57.953648,1.8453828,12.875347,-1.3089752
178,-3.6039159297943115,5.330749034881592,76.66365814208984,-0.9535879032881326,-0.7804027124515146,-9.119320089493801,3.7823465,5.083295,12.955132,20.214785,-23.24766,-4.5213127,-2.1537127,-7.9940853,4.153348,16.998209,-15.590797,11.84264,-1.1086915,0.8154904,5.7751484,-7.1471033,17.951942,-50.26521,56.17799,2.4388146,0.7045709,4.1534634,-7.6748757,-12.751473,44.55657,57.6306,1.7957648,12.691781,-1.3101839
179,-3.611569404602051,5.334140300750732,76.67095947265625,-0.8442280871381345,-0.8107120288067077,-9.25587003642032,4.037601,4.9139066,13.088267,19.78105,-23.08141,-4.4845037,-2.2625024,-8.086526,4.312136,17.185226,-15.657348,11.874038,-1.1250154,0.6802094,5.752521,-6.9024224,17.924608,-49.210617,56.60248,2.3219156,1.0075879,4.3785357,-7.6107974,-12.691889,45.160454,57.346123,1.8281406,12.5452,-1.4260216
180,-3.616666078567505,5.3315534591674805,76.6765365600586,-0.7566279421722922,-0.8387627011085244,-9.367808860494545,4.2597094,4.775995,13.194863,19.405262,-22.93322,-4.463341,-2.3417773,-8.156596,4.442505,17.326658,-15.705737,11.892609,-1.1624166,0.56652176,5.728907,-6.6653256,17.890142,-48.1903,56.99661,2.1363034,1.3080275,4.6145983,-7.5277476,-12.623997,45.530785,57.11704,2.0790806,12.457672,-1.6897703
181,-3.622252941131592,5.326135158538818,76.68313598632812,-0.6950034789773629,-0.8643925091873498,-9.449775874736504,4.442945,4.6770387,13.268754,19.097708,-22.805769,-4.463871,-2.3860755,-8.199832,4.5386953,17.415813,-15.734006,11.893242,-1.2172943,0.47629154,5.706719,-6.4334145,17.852875,-47.18642,57.35332,1.8844284,1.6124567,4.8783183,-7.427301,-12.545731,45.62295,56.953205,2.7138839,12.448542,-2.178637
182,-3.6262691020965576,5.317239761352539,76.68871307373047,-0.6520421909971712,-0.8872149191599572,-9.503963115496266,4.5914207,4.6072106,13.310274,18.846478,-22.692186,-4.4804654,-2.4029531,-8.225056,4.6020956,17.464666,-15.746403,11.881232,-1.2891343,0.40064463,5.6829624,-6.1990705,17.81401,-46.18036,57.676342,1.5778447,1.9348762,5.16635,-7.3033757,-12.456869,45.490932,56.836975,3.5991232,12.493546,-2.852793
183,-3.629948616027832,5.306527137756348,76.69648742675781,-0.6233805696890523,-0.9081843083426285,-9.540820329388698,4.7113695,4.5590363,13.333333,18.64472,-22.595486,-4.501828,-2.4018598,-8.237425,4.6451697,17.484247,-15.746898,11.863821,-1.3734683,0.33829916,5.6572595,-5.977316,17.777687,-45.241684,57.966194,1.1966574,2.249477,5.446823,-7.1750903,-12.3611,45.20381,56.77125,4.4935756,12.551539,-3.5691028
184,-3.6308090686798096,5.2983903884887695,76.70348358154297,-0.6043726395317213,-0.9279360319517883,-9.570762774860953,4.8080873,4.5257864,13.351747,18.486881,-22.519276,-4.5168653,-2.3908582,-8.2420635,4.6798735,17.482845,-15.737948,11.848211,-1.4642491,0.28821373,5.6289296,-5.7821183,17.749817,-44.44104,58.22292,0.72223705,2.5306056,5.6881065,-7.043864,-12.263992,44.812744,56.74486,5.1343584,12.5921335,-4.182327
185,-3.637206554412842,5.28755521774292,76.71080017089844,-0.5989188113939642,-0.947592810423347,-9.588765288594473,4.874966,4.5136676,13.36055,18.388222,-22.471167,-4.522332,-2.364547,-8.235308,4.7008996,17.45584,-15.718699,11.832103,-1.5663283,0.2531023,5.5992603,-5.6156135,17.736238,-43.79053,58.43976,0.09000615,2.789873,5.891063,-6.894492,-12.168942,44.269096,56.74749,5.4265237,12.621971,-4.693088
186,-3.642169713973999,5.286262035369873,76.71660614013672,-0.6076732204975072,-0.9665296455974303,-9.591906422742257,4.912283,4.5240693,13.355508,18.345058,-22.44638,-4.523815,-2.3201735,-8.216214,4.704553,17.398823,-15.687348,11.813013,-1.677736,0.2325613,5.570208,-5.4687657,17.739775,-43.256367,58.611904,-0.6698587,3.0345604,6.070573,-6.7274075,-12.077372,43.562695,56.778584,5.518415,12.658427,-5.164773
187,-3.647763252258301,5.27860689163208,76.72209167480469,-0.6211911827009493,-0.982884415876653,-9.593654049574106,4.9326696,4.5418954,13.350408,18.32968,-22.43434,-4.5236254,-2.2744846,-8.194129,4.7062035,17.331041,-15.649861,11.798225,-1.7856266,0.22110388,5.541588,-5.337565,17.76156,-42.83947,58.743237,-1.4367048,3.23342,6.2141557,-6.559689,-11.991391,42.797142,56.83571,5.4994617,12.69372,-5.5459394
188,-3.655622959136963,5.279114723205566,76.72561645507812,-0.630268320875008,-0.9948648909316451,-9.607469758512757,4.94877,4.552531,13.359027,18.3147,-22.424053,-4.5242224,-2.2434971,-8.178295,4.721021,17.270061,-15.611705,11.794823,-1.8839246,0.21619025,5.5125003,-5.2157297,17.796673,-42.531483,58.8403,-2.085633,3.3557556,6.307772,-6.4113355,-11.922041,42.089474,56.91604,5.4674716,12.718611,-5.786066
189,-3.6630656719207764,5.285022735595703,76.72663116455078,-0.63215649440571,-1.0024846332951292,-9.636328209412484,4.9658194,4.550647,13.384939,18.289913,-22.411598,-4.5281034,-2.229355,-8.172193,4.7527437,17.217379,-15.572601,11.808021,-1.9642146,0.21136938,5.4829025,-5.1028533,17.856699,-42.34995,58.892887,-2.6174815,3.3863876,6.3388605,-6.288839,-11.852769,41.410454,57.040916,5.4086847,12.715621,-5.8410892
190,-3.671705722808838,5.296481609344482,76.72706604003906,-0.632019624392486,-1.006365849921019,-9.673341614003713,4.9751763,4.544887,13.420713,18.273117,-22.40417,-4.5332804,-2.2243137,-8.170694,4.79354,17.16482,-15.530297,11.832956,-2.0451562,0.2141169,5.4532685,-4.9934845,17.936878,-42.2754,58.899223,-3.0820322,3.345031,6.3154616,-6.181757,-11.7946005,40.7366,57.198124,5.2905025,12.695959,-5.749404
191,-3.6814231872558594,5.30947208404541,76.7274169921875,-0.6318170429219744,-1.0061782601945655,-9.71683414138811,4.9757414,4.5393763,13.464274,18.266058,-22.401289,-4.5355673,-2.2284348,-8.169677,4.8405423,17.113152,-15.486095,11.861346,-2.116059,0.22277074,5.424295,-4.8931675,18.03574,-42.304253,58.871582,-3.4463487,3.2567558,6.2534685,-6.0929832,-11.74786,40.12496,57.37222,5.15749,12.687345,-5.5801497
192,-3.6994941234588623,5.322963237762451,76.72738647460938,-0.6337351277481006,-1.0010740379113836,-9.765298650953184,4.963946,4.5385976,13.51335,18.275646,-22.405544,-4.5307684,-2.240678,-8.165434,4.890959,17.061241,-15.442309,11.885081,-2.1736722,0.23659013,5.3955417,-4.8015156,18.149744,-42.420628,58.821526,-3.6723557,3.1458216,6.1692677,-6.0271416,-11.712448,39.641365,57.549908,5.0541472,12.7179575,-5.4031963
193,-3.714534282684326,5.340559005737305,76.72962188720703,-0.6391194091117526,-0.9893964682609598,-9.817952064585977,4.935766,4.5446434,13.567762,18.305817,-22.41807,-4.5158067,-2.264086,-8.156699,4.9430413,17.0116,-15.39829,11.90299,-2.221436,0.25856546,5.364637,-4.7226043,18.278137,-42.641487,58.752613,-3.732864,3.0014265,6.055459,-5.9953694,-11.688188,39.307224,57.73967,5.009193,12.809834,-5.224406
194,-3.7302370071411133,5.358194828033447,76.7321548461914,-0.646574073525318,-0.9720071973130762,-9.875794375339519,4.894082,4.5546904,13.628788,18.352636,-22.437696,-4.493546,-2.2967415,-8.145841,4.9984484,16.961329,-15.353149,11.91923,-2.262045,0.28832355,5.331888,-4.6555343,18.420738,-42.96571,58.660347,-3.6533394,2.8159025,5.907667,-5.988914,-11.67427,39.085247,57.943253,4.988571,12.943312,-5.010964
195,-3.7503600120544434,5.370675563812256,76.7328872680664,-0.6543401825035782,-0.9523531988966315,-9.939756492585916,4.847533,4.5663395,13.695641,18.405155,-22.459631,-4.468917,-2.3399806,-8.132992,5.0607004,16.921087,-15.309682,11.932599,-2.2908812,0.32054046,5.300884,-4.5933504,18.57347,-43.350376,58.546444,-3.474151,2.6179595,5.747796,-6.0016484,-11.671527,38.96917,58.15467,4.9636927,13.083384,-4.7752447
196,-3.7648115158081055,5.3898749351501465,76.73262023925781,-0.660733662616648,-0.9339505789286227,-10.010789799131512,4.8057942,4.576747,13.768048,18.450302,-22.478062,-4.4467387,-2.393327,-8.118157,5.133048,16.898598,-15.269616,11.94184,-2.3058171,0.35103208,5.2747474,-4.5292497,18.730219,-43.75115,58.415012,-3.2356017,2.4363494,5.5974607,-6.0272,-11.681478,38.954647,58.36679,4.905905,13.195095,-4.5297074
197,-3.781698703765869,5.409891605377197,76.73247528076172,-0.6639537712803784,-0.9168044899500497,-10.092276388962611,4.773858,4.5820403,13.848085,18.476667,-22.487434,-4.425714,-2.4619818,-8.102648,5.220995,16.902523,-15.23437,11.944529,-2.3034055,0.37912297,5.25201,-4.466238,18.887175,-44.1804,58.271202,-2.9108155,2.2691984,5.4584327,-6.0694413,-11.706929,39.071663,58.58483,4.7869616,13.270353,-4.253872
198,-3.8047590255737305,5.429581642150879,76.73381805419922,-0.6651750311749607,-0.8994678295729703,-10.182486990654164,4.7460017,4.5849314,13.935265,18.49313,-22.491934,-4.4041967,-2.5432093,-8.0857,5.3210588,16.923971,-15.201586,11.942009,-2.286209,0.4086819,5.23145,-4.4095855,19.04297,-44.6533,58.11671,-2.4900105,2.103345,5.3215346,-6.1301365,-11.74853,39.314674,58.809307,4.6315317,13.327148,-3.9489117
199,-3.8253653049468994,5.448563575744629,76.73316192626953,-0.668171149810114,-0.882864491620981,-10.275473238567526,4.715373,4.5919724,14.025206,18.518547,-22.50068,-4.386256,-2.6285615,-8.065243,5.4234767,16.95309,-15.170817,11.938854,-2.2611785,0.44162387,5.2156644,-4.353504,19.194792,-45.12787,57.9523,-2.038348,1.9508713,5.1912036,-6.193477,-11.80342,39.619526,59.023438,4.481764,13.369831,-3.6598687
200,-3.8427226543426514,5.46410608291626,76.73146057128906,-0.6767223128457587,-0.8681913994732345,-10.365109289364408,4.6774173,4.609915,14.113782,18.566101,-22.520123,-4.376194,-2.7087893,-8.038731,5.51822,16.978354,-15.141082,11.939507,-2.2344904,0.47949135,5.2070117,-4.2936964,19.339443,-45.564243,57.780384,-1.621887,1.8241013,5.071539,-6.2532578,-11.867382,39.928787,59.22004,4.388245,13.40296,-3.4323082
201,-3.866044044494629,5.477291107177734,76.7283706665039,-0.6930625688842227,-0.8551925781127774,-10.452435742363885,4.6279473,4.6435003,14.203976,18.646252,-22.554245,-4.3798456,-2.7834134,-8.003816,5.6041026,16.996346,-15.11132,11.94722,-2.204662,0.524371,5.2051177,-4.2315164,19.475073,-45.964516,57.60437,-1.2351546,1.7203953,4.9671745,-6.309223,-11.937487,40.248997,59.403927,4.3675523,13.426901,-3.2806334
202,-3.8863279819488525,5.48994255065918,76.72589874267578,-0.7147715845115679,-0.8434561752322149,-10.539634016435109,4.5710087,4.6878505,14.2965555,18.748281,-22.598192,-4.393402,-2.8560102,-7.9622097,5.6858573,17.0124,-15.0821295,11.958863,-2.168576,0.5747523,5.208194,-4.1698294,19.600904,-46.346806,57.426197,-0.85023504,1.6350857,4.8747754,-6.368171,-12.012508,40.605183,59.582314,4.3946147,13.439657,-3.1801734
203,-3.907233476638794,5.505153179168701,76.72203063964844,-0.7386042999305542,-0.8338827225780232,-10.622953867478062,4.5118775,4.736298,14.384187,18.859789,-22.648195,-4.4067655,-2.9276295,-7.9181423,5.7629814,17.035046,-15.056116,11.969495,-2.1327052,0.62646556,5.2148933,-4.105502,19.7156,-46.69434,57.247517,-0.500763,1.5779365,4.785527,-6.4225926,-12.091162,40.955536,59.745655,4.4403234,13.442783,-3.1183386
204,-3.9292514324188232,5.519425868988037,76.71762084960938,-0.7613388574536021,-0.827209306022673,-10.698403739621437,4.4551377,4.781491,14.458733,18.969563,-22.701086,-4.4097075,-2.9924736,-7.8763447,5.8340244,17.059246,-15.033691,11.974464,-2.1015697,0.6754271,5.22429,-4.0358243,19.81754,-46.991558,57.069923,-0.21934138,1.5587083,4.6906343,-6.4660764,-12.171896,41.260117,59.88435,4.4807386,13.437635,-3.0821035
205,-3.9476985931396484,5.533646583557129,76.71493530273438,-0.7827739026222703,-0.8249354528831474,-10.76445493183886,4.400684,4.8231544,14.51584,19.079601,-22.761335,-4.3932223,-3.051726,-7.836617,5.898597,17.093004,-15.01616,11.97113,-2.0746958,0.7213841,5.237876,-3.9608004,19.90484,-47.232803,56.889862,-0.015687034,1.5986123,4.5823493,-6.493206,-12.253638,41.510857,59.99328,4.520951,13.418378,-3.0821602
206,-3.9673819541931152,5.543090343475342,76.70870971679688,-0.8046498975466467,-0.8263427692100259,-10.823262393656728,4.346079,4.8648252,14.560227,19.195276,-22.829323,-4.3647594,-3.1070697,-7.7968926,5.957384,17.134811,-15.0032,11.962482,-2.049464,0.76621675,5.254818,-3.883292,19.97673,-47.428993,56.71122,0.12720282,1.6862838,4.4669724,-6.5100665,-12.336569,41.727985,60.08166,4.5700054,13.386189,-3.1207433
207,-3.9850573539733887,5.552935600280762,76.70482635498047,-0.8258070777232247,-0.8285460609107905,-10.876785223050145,4.293999,4.904504,14.598828,19.30595,-22.893814,-4.338873,-3.1590447,-7.758894,6.011351,17.177052,-14.9926195,11.951972,-2.0277448,0.80904484,5.270963,-3.8017929,20.033205,-47.58471,56.544,0.22072232,1.7830782,4.3563704,-6.5175095,-12.419773,41.90547,60.15147,4.6008105,13.3533745,-3.1726048
208,-4.002394676208496,5.562050819396973,76.70144653320312,-0.8453313530207457,-0.8285559230071317,-10.92687382255554,4.2469025,4.9404902,14.638662,19.401897,-22.943785,-4.3300695,-3.2102115,-7.7244406,6.0618253,17.215944,-14.984413,11.943133,-2.0111191,0.8488558,5.2820234,-3.7160475,20.074951,-47.70655,56.39838,0.2739563,1.8503222,4.262771,-6.512142,-12.501203,42.032215,60.201797,4.580223,13.332659,-3.2125468
209,-4.01926326751709,5.571784973144531,76.69683074951172,-0.8650409039404193,-0.825301131320224,-10.972734961889756,4.2039227,4.9758854,14.681376,19.48274,-22.973862,-4.350768,-3.2604203,-7.6913185,6.106612,17.249168,-14.978778,11.933975,-2.001896,0.8829742,5.2811694,-3.6294956,20.093266,-47.791466,56.293697,0.27351442,1.8754388,4.1865306,-6.5181737,-12.553676,42.114063,60.269463,4.49934,13.324305,-3.239766
210,-4.031579494476318,5.584153175354004,76.69479370117188,-0.8850379796575665,-0.8202656471787876,-11.013751366383822,4.1625996,5.01103,14.723276,19.556097,-22.992516,-4.3904114,-3.3095143,-7.6595263,6.1458583,17.280666,-14.976699,11.923586,-1.9955747,0.918951,5.28188,-3.5323422,20.10914,-47.83869,56.186913,0.216654,1.8811115,4.121151,-6.489701,-12.636177,42.144276,60.273003,4.3690243,13.32691,-3.2620506
211,-4.043762683868408,5.592515468597412,76.69136810302734,-0.9007272069657235,-0.8150046233256696,-11.052284220410701,4.128701,5.037726,14.76348,19.612955,-23.002932,-4.428903,-3.356488,-7.6340876,6.184401,17.31045,-14.975056,11.91701,-1.9927036,0.9481759,5.2795925,-3.433054,20.110083,-47.855732,56.098934,0.13807985,1.878224,4.071774,-6.4604297,-12.707565,42.13256,60.27825,4.2186813,13.335721,-3.2797751
212,-4.059580326080322,5.6016316413879395,76.68685913085938,-0.9077163948097978,-0.8110525034695291,-11.09090774311464,4.105946,5.0482364,14.801219,19.648424,-23.010233,-4.4461064,-3.399815,-7.6204615,6.2267303,17.337564,-14.972257,11.919416,-1.9923955,0.9670435,5.2763157,-3.331581,20.099262,-47.851246,56.02402,0.068417706,1.8784122,4.0432954,-6.4356117,-12.763796,42.088013,60.29795,4.078774,13.349574,-3.291144
213,-4.070163726806641,5.614750862121582,76.68627166748047,-0.9045779974718945,-0.8087072617768785,-11.131100234575726,4.096205,5.039636,14.8360405,19.659618,-23.01563,-4.435516,-3.444202,-7.6193037,6.2767525,17.372267,-14.967684,11.9347,-1.988659,0.9788906,5.2758183,-3.2325583,20.07017,-47.824955,55.964497,0.0068502426,1.8814856,4.043146,-6.3945384,-12.830714,41.990337,60.29964,3.946204,13.375341,-3.2938871
214,-4.078869342803955,5.630280494689941,76.68646240234375,-0.8935384970844192,-0.8071617859985665,-11.171270329861267,4.097735,5.0161924,14.86852,19.64883,-23.015867,-4.4082203,-3.4849043,-7.628671,6.3306274,17.403564,-14.96171,11.959629,-1.984944,0.9828947,5.2745185,-3.133251,20.023544,-47.772274,55.92338,-0.060013592,1.8823382,4.066939,-6.3502603,-12.892598,41.84915,60.301155,3.8144221,13.41059,-3.2905896
215,-4.089816570281982,5.647174835205078,76.68567657470703,-0.8769427186940502,-0.8060413841543739,-11.209092490608334,4.1068454,4.9820695,14.899261,19.621843,-23.011656,-4.3707485,-3.5231695,-7.646505,6.3836627,17.433552,-14.9559555,11.987,-1.9843764,0.9804645,5.2718844,-3.0356889,19.963766,-47.70516,55.897198,-0.120548286,1.8841692,4.1012325,-6.306008,-12.944836,41.685646,60.30862,3.6858222,13.444581,-3.2801645
216,-4.095116138458252,5.66159725189209,76.68523406982422,-0.8570935143446471,-0.8053103669503949,-11.242457731769933,4.1190434,4.9420753,14.928669,19.586273,-23.004702,-4.3297133,-3.5594985,-7.6707425,6.4309835,17.462725,-14.952805,12.009795,-1.9861141,0.9751135,5.2684436,-2.9481127,19.890493,-47.64006,55.888298,-0.16451994,1.8898146,4.1330786,-6.2674103,-12.991703,41.526752,60.32506,3.5735307,13.467055,-3.2608912
217,-4.100131034851074,5.681774616241455,76.68619537353516,-0.8325365274855778,-0.8051316361382226,-11.272272730480184,4.137907,4.8934703,14.959085,19.535809,-22.994452,-4.278903,-3.5918188,-7.704003,6.4723535,17.486746,-14.950711,12.026695,-1.99087,0.96635675,5.2644486,-2.8696074,19.80116,-47.572914,55.898865,-0.18631573,1.9015286,4.1630096,-6.228358,-13.035332,41.36265,60.34683,3.4717476,13.470921,-3.224069
218,-4.106967926025391,5.702885627746582,76.68653869628906,-0.8026025379643211,-0.8055204031347929,-11.299128164050076,4.163408,4.8350964,14.989565,19.470743,-22.98133,-4.217569,-3.6217575,-7.7463355,6.5102534,17.50902,-14.950299,12.041258,-1.9985151,0.95249546,5.2604446,-2.7959597,19.699501,-47.498,55.92441,-0.19299576,1.9174769,4.1965637,-6.195304,-13.074196,41.19139,60.37815,3.3854759,13.462828,-3.1734352
219,-4.115520000457764,5.720168113708496,76.68622589111328,-0.7711397300058552,-0.8057353523797025,-11.320470470366379,4.1902766,4.773646,15.015661,19.399895,-22.963337,-4.160113,-3.650251,-7.7919674,6.5429683,17.531582,-14.951727,12.053759,-2.0093055,0.9372446,5.2550983,-2.7300787,19.58693,-47.425026,55.962036,-0.1892936,1.9339366,4.2280827,-6.158171,-13.107819,41.02182,60.406246,3.3035638,13.454911,-3.1253624
220,-4.122298240661621,5.733823299407959,76.68775177001953,-0.7420457376237239,-0.8047322143290914,-11.333459334444802,4.213769,4.7152967,15.033066,19.329699,-22.936964,-4.120961,-3.6775622,-7.834827,6.5686936,17.55491,-14.954571,12.064313,-2.0218565,0.9234779,5.2480364,-2.6744666,19.465578,-47.364014,56.008137,-0.1790695,1.9474275,4.2520976,-6.1267476,-13.136774,40.880917,60.434425,3.2394707,13.458909,-3.096561
221,-4.129759311676025,5.7517876625061035,76.68844604492188,-0.7152243921415206,-0.8022427716624224,-11.33530713308957,4.233526,4.6601815,15.038602,19.259863,-22.897684,-4.10907,-3.7041728,-7.874785,6.585565,17.581377,-14.960593,12.071773,-2.039084,0.91114044,5.2389727,-2.62812,19.337042,-47.315083,56.063007,-0.16230263,1.9539896,4.267334,-6.097695,-13.16032,40.769657,60.46036,3.1889572,13.481426,-3.092506
222,-4.1379780769348145,5.765328884124756,76.68803405761719,-0.68905816187333,-0.7989418118581079,-11.32841093317578,4.2521777,4.605218,15.035288,19.18663,-22.848188,-4.115062,-3.7298458,-7.914453,6.5950584,17.609865,-14.969219,12.076431,-2.061303,0.89829713,5.2280765,-2.5883715,19.202042,-47.2729,56.12546,-0.13760725,1.9566939,4.2763596,-6.067078,-13.178284,40.674202,60.48357,3.1444826,13.515071,-3.1040747
223,-4.144265651702881,5.779684543609619,76.68989562988281,-0.6646874154630122,-0.7947338863168926,-11.316902379444885,4.2669168,4.553409,15.027721,19.117575,-22.798542,-4.1257033,-3.7551866,-7.9525013,6.600305,17.63888,-14.97849,12.080784,-2.0836356,0.8865286,5.216669,-2.5567389,19.061789,-47.23923,56.190254,-0.10631119,1.962241,4.279958,-6.042861,-13.191307,40.601845,60.505295,3.1184347,13.550658,-3.125535
224,-4.153983116149902,5.792193412780762,76.69145202636719,-0.6432957829175353,-0.789846039789366,-11.305282546012526,4.2738895,4.5077963,15.020396,19.062435,-22.76028,-4.1278477,-3.7815804,-7.9872375,6.604714,17.668613,-14.98706,12.087301,-2.1022155,0.8772843,5.205541,-2.5320017,18.917528,-47.21305,56.249973,-0.06795926,1.9773352,4.2785583,-6.023471,-13.200224,40.551144,60.520123,3.1097012,13.579263,-3.151081
225,-4.165207386016846,5.8071160316467285,76.6903076171875,-0.6263441777362732,-0.7825847137072123,-11.293213586595808,4.2682495,4.471183,15.013199,19.026669,-22.738897,-4.1176543,-3.8120081,-8.017093,6.608839,17.700666,-14.994906,12.09676,-2.1180959,0.8712591,5.19314,-2.5129142,18.769892,-47.19023,56.303802,-0.014885847,2.010744,4.2720237,-5.9989753,-13.205604,40.513683,60.518963,3.1051576,13.600771,-3.18717
226,-4.173847675323486,5.819294452667236,76.68954467773438,-0.6127062014874349,-0.7735510245136019,-11.278876669083054,4.2534947,4.440941,15.004183,19.003523,-22.727232,-4.102237,-3.844928,-8.043305,6.6110234,17.734758,-15.0026245,12.107806,-2.1313782,0.8675974,5.1807957,-2.5006886,18.619331,-47.17366,56.353344,0.05037885,2.0565813,4.2601957,-5.980953,-13.20791,40.501595,60.511223,3.1216352,13.61906,-3.234081
227,-4.181804656982422,5.830070972442627,76.68867492675781,-0.5998772643264346,-0.7659261329293371,-11.26415695228184,4.23746,4.4131713,14.995157,18.987473,-22.718805,-4.0848117,-3.8756182,-8.068813,6.611424,17.768436,-15.010464,12.119777,-2.1428196,0.8647689,5.1696267,-2.4938293,18.467222,-47.168415,56.397015,0.11042395,2.0996761,4.2430763,-5.9634967,-13.20777,40.503803,60.49629,3.147612,13.631843,-3.27707
228,-4.190408229827881,5.840460777282715,76.68771362304688,-0.585105469060569,-0.7632024323526121,-11.251017513001974,4.2269297,4.383847,14.987818,18.974787,-22.708351,-4.068577,-3.899925,-8.095979,6.6102753,17.80074,-15.0193,12.131896,-2.1510353,0.8616312,5.1617575,-2.49235,18.315617,-47.182274,56.432198,0.1473398,2.1249683,4.221049,-5.946479,-13.205723,40.515636,60.47585,3.182599,13.636809,-3.3009877
229,-4.199501037597656,5.850476264953613,76.68644714355469,-0.5665225829931456,-0.7678399900731315,-11.239732035626226,4.224404,4.350612,14.983539,18.966599,-22.693611,-4.0537844,-3.9159858,-8.127675,6.6070013,17.832638,-15.030106,12.145302,-2.1549594,0.8560609,5.159375,-2.4957588,18.16629,-47.217495,56.45813,0.15089238,2.1232533,4.188439,-5.9275093,-13.203247,40.536205,60.447716,3.2267246,13.631209,-3.296705
230,-4.206531047821045,5.860946178436279,76.68618774414062,-0.545768487814037,-0.7774894786649147,-11.22939914171529,4.22559,4.3161073,14.981041,18.965431,-22.678442,-4.0389442,-3.9265747,-8.161762,6.6016097,17.865435,-15.043026,12.159867,-2.1541946,0.8493972,5.162079,-2.5036075,18.01993,-47.270363,56.47285,0.13278562,2.1044195,4.1470065,-5.910348,-13.200771,40.571674,60.411434,3.2868612,13.616817,-3.2736306
231,-4.215289115905762,5.867011547088623,76.68475341796875,-0.5260027618092026,-0.7883283445934756,-11.220002868235683,4.2282686,4.2834983,14.978395,18.966108,-22.664387,-4.0245714,-3.9342682,-8.194019,6.5957246,17.895632,-15.055118,12.173381,-2.1517546,0.844055,5.165493,-2.5150528,17.877115,-47.339405,56.475044,0.105338566,2.0821953,4.1075664,-5.895686,-13.198233,40.61657,60.37103,3.3532686,13.598802,-3.2452114
232,-4.220367908477783,5.87733793258667,76.68673706054688,-0.5098511812010077,-0.7966951327375097,-11.211846363426623,4.2289658,4.2558885,14.973669,18.966164,-22.65458,-4.011166,-3.942846,-8.2208805,6.5913453,17.922756,-15.065704,12.183593,-2.1503084,0.8421613,5.1655498,-2.5288033,17.738155,-47.421886,56.46295,0.08241709,2.070245,4.080966,-5.8804827,-13.194454,40.661095,60.32667,3.411805,13.582556,-3.2246795
233,-4.228128910064697,5.884007930755615,76.68599700927734,-0.5000070444906307,-0.801599768834237,-11.204766062489739,4.2259555,4.2366567,14.965253,18.967094,-22.651028,-4.0018897,-3.952613,-8.239171,6.587502,17.945396,-15.073651,12.188149,-2.1501882,0.8459702,5.1612926,-2.5467682,17.603226,-47.523308,56.434288,0.062327415,2.0765312,4.0722823,-5.8692975,-13.188579,40.71291,60.280857,3.4687903,13.568929,-3.2150779
234,-4.232578754425049,5.891872882843018,76.68486022949219,-0.49432267764567484,-0.8049352384358522,-11.198581604189098,4.2217903,4.2232356,14.954599,18.968288,-22.65102,-3.9954858,-3.9616337,-8.251653,6.5834813,17.964132,-15.079788,12.188815,-2.1510413,0.85365427,5.1543856,-2.5673764,17.47246,-47.641724,56.39006,0.040215142,2.0923629,4.0749474,-5.856305,-13.18002,40.767593,60.22893,3.5199957,13.555276,-3.2095907
235,-4.2359795570373535,5.897321701049805,76.68363189697266,-0.488657814789812,-0.8075929660500336,-11.193914179261313,4.2176647,4.210054,14.944105,18.969156,-22.653429,-3.9857469,-3.971858,-8.262847,6.5823016,17.984024,-15.0869,12.18955,-2.150537,0.8610496,5.1462407,-2.5891786,17.34611,-47.769222,56.334343,0.02162732,2.1064284,4.0824075,-5.8472843,-13.168715,40.822018,60.17891,3.5694165,13.541073,-3.2066941
236,-4.239291667938232,5.9017333984375,76.68205261230469,-0.47870424243976906,-0.8103728137328756,-11.191176860642525,4.2171,4.191336,14.936452,18.964474,-22.654669,-3.9665813,-3.983072,-8.27799,6.58644,18.00622,-15.095574,12.194448,-2.1484072,0.8639305,5.1373787,-2.6086466,17.224516,-47.895737,56.27108,0.013241839,2.1073303,4.0877748,-5.8386273,-13.155152,40.86344,60.132812,3.6066406,13.525641,-3.2049193
237,-4.243936538696289,5.9054155349731445,76.68058013916016,-0.4622356287675317,-0.8130367422972989,-11.1909735987799,4.218419,4.164716,14.932311,18.957268,-22.657154,-3.9306588,-3.9969363,-8.298902,6.599008,18.032604,-15.10688,12.206856,-2.1429298,0.86028904,5.128344,-2.6263998,17.10829,-48.02408,56.19854,0.017928153,2.0909345,4.0902033,-5.837746,-13.14014,40.89735,60.094746,3.639729,13.506786,-3.2021914
238,-4.245915412902832,5.911552429199219,76.68221282958984,-0.4418313299062043,-0.8154474616624984,-11.192947324777492,4.221251,4.133088,14.930227,18.947788,-22.66116,-3.8831332,-4.0126233,-8.322997,6.617839,18.061596,-15.119902,12.223876,-2.1355221,0.8526013,5.118435,-2.6426609,16.997734,-48.156948,56.114555,0.031860802,2.0637093,4.0928698,-5.835972,-13.123296,40.920525,60.056103,3.6607866,13.485762,-3.1996965
239,-4.246034145355225,5.916823863983154,76.68111419677734,-0.4207634304323149,-0.8181385070942329,-11.195806764548943,4.2278924,4.1003094,14.929866,18.932219,-22.662699,-3.8365798,-4.027947,-8.347256,6.6377854,18.091484,-15.133593,12.240027,-2.1278007,0.8437882,5.1083736,-2.6570873,16.892555,-48.287315,56.022854,0.050972186,2.0302546,4.095309,-5.834943,-13.104775,40.934826,60.021385,3.6746233,13.466369,-3.2012622
