unveil-humanoid-operators/unveil-humanoid-operators.github.io/feature-analysis-animation/data/feature_matrix_instances/gender_shoulder_rom_jogging_A255_jog_arc_cw_start_R_003__A255.csv
Frame,root_translateX,root_translateY,root_translateZ,root_rotateX,root_rotateY,root_rotateZ,left_hip_pitch_joint_dof,left_hip_roll_joint_dof,left_hip_yaw_joint_dof,left_knee_joint_dof,left_ankle_pitch_joint_dof,left_ankle_roll_joint_dof,right_hip_pitch_joint_dof,right_hip_roll_joint_dof,right_hip_yaw_joint_dof,right_knee_joint_dof,right_ankle_pitch_joint_dof,right_ankle_roll_joint_dof,waist_yaw_joint_dof,waist_roll_joint_dof,waist_pitch_joint_dof,left_shoulder_pitch_joint_dof,left_shoulder_roll_joint_dof,left_shoulder_yaw_joint_dof,left_elbow_joint_dof,left_wrist_roll_joint_dof,left_wrist_pitch_joint_dof,left_wrist_yaw_joint_dof,right_shoulder_pitch_joint_dof,right_shoulder_roll_joint_dof,right_shoulder_yaw_joint_dof,right_elbow_joint_dof,right_wrist_roll_joint_dof,right_wrist_pitch_joint_dof,right_wrist_yaw_joint_dof
0,1.0346224308013916,0.23291786015033722,75.72015380859375,-1.105540375081267,2.8035371374933638,-156.31256388549673,-10.3898735,11.7276745,19.369541,32.418743,-23.589903,-5.391419,-9.710909,-5.1578937,-9.025407,27.703056,-20.637802,5.605599,-1.8987564,-0.217789,3.2031837,2.6973767,27.373583,-40.803165,49.19484,23.052282,2.8266773,-1.922214,3.1003451,-24.754086,48.449234,49.726448,-10.708027,-1.0622303,-4.10196
1,1.0050958395004272,0.2113109678030014,75.70565032958984,-1.1043070160463209,2.829370784487875,-156.30745491895945,-10.431692,11.732958,19.3517,32.53073,-23.700727,-5.400738,-9.779049,-5.177128,-9.016363,27.883827,-20.834682,5.623161,-1.897505,-0.21657029,3.1823459,2.7559893,27.386063,-40.764614,49.16733,23.058746,2.816632,-1.9109031,3.145729,-24.772938,48.416832,49.705376,-10.692806,-1.0445021,-4.019732
2,0.9752088189125061,0.18807482719421387,75.69091033935547,-1.1029356462546642,2.854818955587075,-156.3025508276588,-10.472948,11.737723,19.333765,32.64072,-23.810225,-5.4103127,-9.847475,-5.196153,-9.006783,28.064102,-21.03103,5.6413803,-1.8967607,-0.21567293,3.1614676,2.8115873,27.395784,-40.724957,49.143593,23.06785,2.808057,-1.8995934,3.1825771,-24.788137,48.38768,49.69191,-10.673738,-1.0244079,-3.9318273
3,0.936704158782959,0.1690753996372223,75.67571258544922,-1.1017901062299404,2.881062694151441,-156.2972399419117,-10.514624,11.743376,19.316072,32.752827,-23.921116,-5.4193473,-9.915006,-5.2150116,-8.998523,28.244753,-21.228449,5.658202,-1.8965052,-0.21434326,3.135719,2.8681564,27.401152,-40.68985,49.12722,23.07167,2.7966628,-1.8865963,3.2273452,-24.796694,48.358368,49.684555,-10.6613035,-1.0095685,-3.8571358
4,0.897040843963623,0.1437504142522812,75.66023254394531,-1.1016053855017311,2.908712379977808,-156.29081489627336,-10.55636,11.750573,19.299068,32.867916,-24.033918,-5.4269605,-9.979631,-5.233355,-8.993539,28.424538,-21.427332,5.6714697,-1.8952523,-0.2119713,3.1122706,2.924508,27.406794,-40.65896,49.11151,23.06529,2.7768033,-1.8738792,3.2733886,-24.805304,48.335445,49.683178,-10.646427,-1.0083938,-3.8107464
5,0.8568546772003174,0.12122171372175217,75.64423370361328,-1.1023675807805347,2.93919176458358,-156.28518549647305,-10.60007,11.76053,19.285275,32.9887,-24.148825,-5.4323654,-10.045534,-5.2509193,-8.990335,28.607916,-21.627266,5.6801,-1.8952702,-0.2073524,3.0871432,2.9926388,27.413916,-40.629375,49.087914,23.035913,2.746448,-1.8516791,3.3410108,-24.814814,48.31134,49.676426,-10.64579,-1.0268797,-3.8096108
6,0.8172517418861389,0.09514661878347397,75.62853240966797,-1.1037704771550232,2.9719352538465937,-156.2800487489511,-10.646043,11.772604,19.273474,33.114414,-24.265566,-5.436176,-10.1134815,-5.268204,-8.988375,28.795677,-21.828901,5.685437,-1.8894546,-0.20195457,3.0577729,3.0513496,27.417206,-40.618458,49.07948,22.980696,2.7065055,-1.8209164,3.4039378,-24.818716,48.303276,49.689716,-10.629682,-1.0621908,-3.8421004
7,0.7678354382514954,0.06445637345314026,75.61296844482422,-1.1058171927820006,3.0041320140971792,-156.27120649449745,-10.688072,11.784203,19.25921,33.237553,-24.383368,-5.4397445,-10.171688,-5.285072,-8.991654,28.974798,-22.031744,5.6888165,-1.8867456,-0.19639252,3.0303621,3.1214662,27.4237,-40.602283,49.05964,22.941017,2.6668973,-1.8031636,3.4764755,-24.82497,48.292442,49.69496,-10.622541,-1.0969217,-3.8801265
8,0.7151437997817993,0.03584471717476845,75.59783172607422,-1.1085866827809723,3.0328108120602075,-156.25469907108493,-10.720869,11.793123,19.237505,33.352936,-24.50216,-5.444471,-10.208685,-5.301568,-9.004173,29.13376,-22.235815,5.6917057,-1.8886343,-0.19250545,3.0052674,3.1933892,27.430223,-40.584694,49.043507,22.94026,2.6330423,-1.8152953,3.5513062,-24.829695,48.279167,49.697662,-10.620468,-1.1182177,-3.8992293
9,0.6575932502746582,0.002191792009398341,75.58314514160156,-1.1119105915914171,3.0554346505270797,-156.22767200634482,-10.741161,11.7981825,19.205696,33.45796,-24.62115,-5.4490967,-10.218954,-5.3174143,-9.0279255,29.26839,-22.437944,5.693108,-1.8987474,-0.18999542,2.9828172,3.2727778,27.434195,-40.563007,49.027565,23.002775,2.6044211,-1.8716146,3.6326072,-24.831465,48.2588,49.69223,-10.630693,-1.1185836,-3.8855684
10,0.5975340008735657,-0.03085467405617237,75.56800079345703,-1.1156382934322606,3.0739651712928215,-156.19281569666816,-10.751754,11.800513,19.167187,33.554974,-24.740063,-5.453365,-10.208358,-5.332774,-9.060463,29.383348,-22.638018,5.692697,-1.9156626,-0.18848842,2.967234,3.3633876,27.441296,-40.52777,49.002007,23.115467,2.576435,-1.9621338,3.7226992,-24.833155,48.224262,49.674652,-10.6591625,-1.1076027,-3.8523986
11,0.5349377393722534,-0.06544112414121628,75.55098724365234,-1.1204513748723333,3.092788607170578,-156.1542242535966,-10.757526,11.802038,19.125235,33.646305,-24.860332,-5.460355,-10.185856,-5.3475804,-9.099363,29.485945,-22.844097,5.6927304,-1.9329437,-0.18753439,2.9476476,3.449145,27.445465,-40.50361,48.987083,23.226944,2.5583875,-2.0584671,3.815003,-24.833109,48.19932,49.662243,-10.683548,-1.0917553,-3.8243196
12,0.4682579040527344,-0.09652941673994064,75.5353775024414,-1.1262773926975063,3.1155781577102264,-156.115725202994,-10.76109,11.804368,19.08371,33.731384,-24.981874,-5.4730115,-10.158623,-5.362062,-9.142152,29.58123,-23.062792,5.6954665,-1.9454824,-0.1871293,2.9290032,3.5336149,27.453125,-40.47566,48.969303,23.315458,2.5571513,-2.1414356,3.909831,-24.832197,48.17248,49.653767,-10.711922,-1.078726,-3.8175416
13,0.39696815609931946,-0.13128750026226044,75.5198745727539,-1.1323286870049891,3.1414251611792463,-156.0777905699481,-10.758171,11.805712,19.044481,33.803802,-25.103113,-5.494724,-10.123413,-5.3778214,-9.188701,29.665337,-23.295122,5.7080503,-1.955121,-0.18839884,2.9064698,3.6150844,27.462404,-40.457607,48.953266,23.362293,2.58317,-2.2068148,4.0166893,-24.829557,48.153675,49.65013,-10.750086,-1.0707844,-3.8521876
14,0.31988367438316345,-0.16813988983631134,75.50419616699219,-1.1387931464548906,3.1687212818802335,-156.03860604341784,-10.748047,11.806109,19.005453,33.86532,-25.224318,-5.5230007,-10.077239,-5.394314,-9.240257,29.736654,-23.537775,5.7271266,-1.958122,-0.18979523,2.8851411,3.684408,27.468546,-40.453167,48.945534,23.385502,2.629992,-2.264802,4.1147666,-24.826578,48.15115,49.66118,-10.7761965,-1.0645565,-3.9130583
15,0.24248026311397552,-0.20596694946289062,75.48841857910156,-1.1474245654017323,3.201537727225966,-155.9984192761688,-10.7422695,11.808935,18.963974,33.928627,-25.348625,-5.552166,-10.03123,-5.4085608,-9.296049,29.806105,-23.79084,5.7392187,-1.9604727,-0.19154942,2.8546495,3.7655647,27.479946,-40.444263,48.93124,23.399729,2.6827612,-2.3133898,4.222145,-24.81968,48.14649,49.67113,-10.803545,-1.0546963,-3.9727895
16,0.1587282121181488,-0.24856847524642944,75.47257995605469,-1.1604497882099702,3.2420236897023145,-155.95752489118055,-10.749592,11.818273,18.917631,34.00599,-25.479006,-5.576631,-9.992379,-5.4173517,-9.355639,29.88072,-24.052572,5.7307997,-1.9641767,-0.19151448,2.8231168,3.8487737,27.496866,-40.42055,48.916683,23.411627,2.7238722,-2.34833,4.325528,-24.806921,48.12933,49.678593,-10.825461,-1.0385755,-4.002588
17,0.07242647558450699,-0.29318001866340637,75.45643615722656,-1.1782342866776596,3.29183202891935,-155.91671694312834,-10.772696,11.83516,18.86696,34.099842,-25.615143,-5.59232,-9.963311,-5.4186926,-9.416503,29.960358,-24.319895,5.69895,-1.9693663,-0.185973,2.7825885,3.930944,27.507158,-40.38698,48.916374,23.422857,2.7499547,-2.3662434,4.435157,-24.79688,48.09838,49.671665,-10.834825,-1.011645,-3.9980772
18,-0.014595840126276016,-0.3333245813846588,75.43978881835938,-1.1992811562562582,3.3486753103852656,-155.8756641523409,-10.805775,11.856961,18.813227,34.203213,-25.755285,-5.603093,-9.938926,-5.4152384,-9.47917,30.041613,-24.59461,5.650792,-1.9757006,-0.18117283,2.7428696,4.0242386,27.529919,-40.332104,48.901577,23.436533,2.7691405,-2.3749957,4.544284,-24.774666,48.045906,49.663155,-10.850445,-0.97896147,-3.9707227
19,-0.10822557657957077,-0.37607866525650024,75.42306518554688,-1.2243155998146895,3.4119371911446614,-155.83286266002526,-10.8484335,11.883664,18.75361,34.31594,-25.90169,-5.6151476,-9.919822,-5.4088917,-9.548615,30.129948,-24.88368,5.587781,-1.9829285,-0.17381729,2.6979916,4.122711,27.551376,-40.266205,48.889484,23.446512,2.78405,-2.370535,4.664809,-24.751734,47.98019,49.64738,-10.876585,-0.9432632,-3.9240868
20,-0.20493124425411224,-0.41973698139190674,75.40392303466797,-1.2536239094750299,3.480506164461333,-155.7869748944044,-10.898534,11.914575,18.686089,34.435825,-26.055351,-5.6347814,-9.90449,-5.4017925,-9.629528,30.228739,-25.193005,5.511378,-1.9884242,-0.16580872,2.6567378,4.2329454,27.580534,-40.17954,48.861217,23.459375,2.7968397,-2.3565128,4.7724543,-24.720762,47.91219,49.647213,-10.909746,-0.91089904,-3.8577213
21,-0.3030761778354645,-0.4670534133911133,75.38301086425781,-1.2888759949257858,3.555119298395513,-155.736123565313,-10.960472,11.951475,18.607004,34.567547,-26.215057,-5.658985,-9.891694,-5.3950167,-9.728159,30.33731,-25.527107,5.426503,-1.9946477,-0.15018965,2.6139705,4.347097,27.598822,-40.076145,48.837055,23.475464,2.8065324,-2.3204832,4.8878393,-24.69907,47.832314,49.641766,-10.97704,-0.8761944,-3.7519848
22,-0.4074917733669281,-0.5076422691345215,75.3622055053711,-1.3291543325891726,3.63590759695719,-155.68173802618327,-11.0328245,11.993585,18.51874,34.70886,-26.37974,-5.6859646,-9.881234,-5.3874145,-9.839949,30.451986,-25.88062,5.330949,-2.0012896,-0.1307721,2.571786,4.471033,27.616539,-39.950485,48.80627,23.497353,2.8122342,-2.2672246,5.0005565,-24.677872,47.742813,49.639732,-11.065336,-0.8394889,-3.612773
23,-0.5148888826370239,-0.5617074370384216,75.34297180175781,-1.3719688100087297,3.72105464696849,-155.62695407362318,-11.108534,12.038827,18.427326,34.854088,-26.554594,-5.7239203,-9.879208,-5.377378,-9.953603,30.583752,-26.25152,5.215877,-2.010407,-0.111042306,2.5341425,4.6113997,27.64086,-39.797302,48.756172,23.52343,2.8163912,-2.2174006,5.1186585,-24.650934,47.639023,49.636234,-11.156648,-0.8107199,-3.4787247
24,-0.6256728768348694,-0.6114364862442017,75.32056427001953,-1.4153395104656992,3.8088582236749944,-155.574895431331,-11.182055,12.085208,18.338362,34.999584,-26.746088,-5.781018,-9.891336,-5.363516,-10.057741,30.742086,-26.63699,5.072173,-2.0083828,-0.09237111,2.5028305,4.743037,27.665411,-39.646893,48.704056,23.537222,2.8229227,-2.186341,5.223266,-24.62594,47.549057,49.64167,-11.179749,-0.7990122,-3.390402
25,-0.7372710108757019,-0.6623103618621826,75.296142578125,-1.4582325555202655,3.89993280270321,-155.5274817885917,-11.24907,12.13081,18.254473,35.13602,-26.950512,-5.8638735,-9.92397,-5.3445425,-10.146892,30.935396,-27.038729,4.881374,-2.0062177,-0.07961849,2.4783401,4.892754,27.705889,-39.46888,48.620483,23.549852,2.833711,-2.1915667,5.333844,-24.590208,47.44756,49.64802,-11.147306,-0.81201535,-3.3624966
26,-0.847278356552124,-0.7125244736671448,75.27033996582031,-1.5022104425413418,3.9950984906971585,-155.48282351731643,-11.31482,12.177914,18.171976,35.26977,-27.16684,-5.9667444,-9.973542,-5.321311,-10.227345,31.15846,-27.458412,4.65342,-1.9868522,-0.06370232,2.4551413,5.024954,27.733463,-39.301003,48.5483,23.552519,2.8477707,-2.2136292,5.445898,-24.566124,47.345562,49.652405,-11.047266,-0.8419725,-3.3726056
27,-0.9651029706001282,-0.7621663808822632,75.24188995361328,-1.5475181489040162,4.092010997718117,-155.43796701996555,-11.382543,12.228577,18.089203,35.414566,-27.402529,-6.0792556,-10.026736,-5.295357,-10.305732,31.392603,-27.889034,4.4214005,-1.9684907,-0.047695287,2.4397407,5.165143,27.764082,-39.117825,48.466625,23.551805,2.8590348,-2.2369041,5.5675225,-24.542126,47.23635,49.64687,-10.955413,-0.8778163,-3.4022453
28,-1.0908201932907104,-0.8209331035614014,75.21220397949219,-1.5944876804759816,4.188212402419857,-155.39005266618642,-11.456889,12.285376,18.003883,35.586456,-27.665857,-6.191058,-10.072372,-5.268997,-10.38882,31.623781,-28.3257,4.2187133,-1.9514855,-0.034030065,2.4389322,5.3161464,27.810598,-38.92581,48.36741,23.541319,2.862923,-2.2424161,5.6643786,-24.513367,47.154167,49.65076,-10.8818445,-0.90885,-3.4344666
29,-1.2176717519760132,-0.8804193735122681,75.17939758300781,-1.6479554814102877,4.282900553291549,-155.33918857863492,-11.535343,12.354413,17.915054,35.782524,-27.956335,-6.311465,-10.092497,-5.2349834,-10.482094,31.817858,-28.761501,4.0668364,-1.9354427,-0.017151853,2.448428,5.4712915,27.866268,-38.736454,48.27079,23.50313,2.8593616,-2.2112274,5.7808557,-24.484453,47.07229,49.63668,-10.869355,-0.938937,-3.478511
30,-1.346936583518982,-0.9340611100196838,75.14058685302734,-1.7061234621229886,4.377513815087461,-155.28652001615777,-11.617369,12.432938,17.824087,35.997887,-28.270964,-6.4420285,-10.098202,-5.194619,-10.581099,31.993336,-29.201189,3.9438512,-1.9106469,0.0045842715,2.4688134,5.61894,27.9201,-38.55431,48.182766,23.446348,2.850486,-2.156584,5.886905,-24.461523,47.010006,49.62368,-10.857664,-0.97180206,-3.5385401
31,-1.478846788406372,-0.9946937561035156,75.09835052490234,-1.7598751294431627,4.473081046483981,-155.23141326012322,-11.709012,12.509739,17.732021,36.24217,-28.612793,-6.5606637,-10.121258,-5.163518,-10.6775675,32.210754,-29.65559,3.8180947,-1.8885143,0.020645726,2.4963198,5.7755084,27.980688,-38.363815,48.077797,23.394978,2.8357773,-2.1072774,6.0013986,-24.442024,46.941082,49.59411,-10.882947,-0.9934585,-3.5912423
32,-1.6097261905670166,-1.0549921989440918,75.05037689208984,-1.8002433748783258,4.570903192838192,-155.17296474424126,-11.8170395,12.574568,17.639595,36.526527,-28.985914,-6.645327,-10.194469,-5.156952,-10.7632475,32.53309,-30.136852,3.657815,-1.8600959,0.027251456,2.526619,5.912581,28.027905,-38.18806,47.97556,23.364374,2.8153284,-2.0861855,6.1063457,-24.432293,46.869858,49.5572,-10.92228,-0.9900172,-3.6134124
33,-1.7452178001403809,-1.1126275062561035,74.99732208251953,-1.835226686025967,4.671318197938764,-155.10707307611028,-11.946023,12.635186,17.537884,36.85928,-29.402779,-6.6822004,-10.301122,-5.166062,-10.850031,32.93529,-30.658056,3.4546154,-1.8481144,0.02512472,2.5648592,6.07141,28.101025,-38.001526,47.83015,23.36803,2.7846985,-2.0987494,6.220605,-24.426617,46.776184,49.4875,-11.017636,-0.94598156,-3.588771
34,-1.881747841835022,-1.1764448881149292,74.93578338623047,-1.8661792377210729,4.773580676350606,-155.0354436092096,-12.091721,12.693816,17.428856,37.232773,-29.85777,-6.6856666,-10.433117,-5.1865077,-10.937043,33.398594,-31.209608,3.2251132,-1.8302402,0.020666536,2.6076357,6.2195244,28.17128,-37.8326,47.68355,23.392101,2.7460413,-2.127597,6.328347,-24.428867,46.677784,49.407158,-11.130477,-0.8729577,-3.5332663
35,-2.022522449493408,-1.2477211952209473,74.86444854736328,-1.8728502425480011,4.877445761042476,-154.9659368041066,-12.245972,12.729225,17.330128,37.634163,-30.32763,-6.6755047,-10.629596,-5.2416434,-10.996155,33.986774,-31.766539,2.9748466,-1.8069608,-0.0046067596,2.6503448,6.3537493,28.22316,-37.659496,47.53531,23.422632,2.7068658,-2.183804,6.4503856,-24.43577,46.564533,49.31497,-11.281714,-0.79672223,-3.4711332
36,-2.1614551544189453,-1.318047046661377,74.78096008300781,-1.8339047478807091,4.982751158010308,-154.90651144393115,-12.401098,12.71973,17.26021,38.051857,-30.7897,-6.6714864,-10.93194,-5.355732,-10.99854,34.76678,-32.304764,2.709415,-1.7690526,-0.0809311,2.7179902,6.514542,28.312412,-37.432865,47.284344,23.451633,2.6742058,-2.2897468,6.456568,-24.463625,46.55734,49.274586,-11.320698,-0.7459356,-3.4244583
37,-2.301762580871582,-1.3921183347702026,74.68419647216797,-1.7504958787031302,5.091182593800278,-154.8555944403005,-12.559149,12.666461,17.217705,38.484077,-31.242878,-6.6879964,-11.341189,-5.5276957,-10.945005,35.74134,-32.839577,2.4293995,-1.7403026,-0.20088552,2.7831585,6.7192116,28.40549,-37.136765,46.96514,23.492516,2.6576402,-2.4456072,6.557464,-24.504429,46.489532,49.17058,-11.465821,-0.7395234,-3.4113505
38,-2.4429500102996826,-1.4634674787521362,74.57100677490234,-1.6305847047684574,5.202363236765198,-154.80981058472432,-12.721872,12.57748,17.195627,38.935925,-31.697397,-6.7110796,-11.83631,-5.7469554,-10.846521,36.873882,-33.374943,2.1322272,-1.7004066,-0.35571632,2.8578513,6.9315753,28.499418,-36.808,46.599133,23.543589,2.6507752,-2.6427178,6.6183515,-24.561497,46.466858,49.085983,-11.570296,-0.76077276,-3.4159012
39,-2.5855751037597656,-1.539182424545288,74.44197845458984,-1.4641129267948034,5.312274848595001,-154.77488135145245,-12.883483,12.443394,17.203314,39.410557,-32.1495,-6.717892,-12.425915,-6.0221534,-10.690017,38.173515,-33.866177,1.8193367,-1.6557283,-0.55935276,2.9432278,7.1404085,28.597908,-36.448162,46.183067,23.572824,2.6374984,-2.876844,6.674064,-24.633684,46.442883,48.980488,-11.706544,-0.77076566,-3.4106672
40,-2.729337453842163,-1.614357352256775,74.29712677001953,-1.240899724229086,5.4169228672941445,-154.75574819242632,-13.036386,12.2533655,17.249935,39.90639,-32.59269,-6.6852217,-13.116778,-6.360601,-10.463197,39.64687,-34.270283,1.4934043,-1.6133114,-0.82711405,3.0364316,7.3392034,28.706665,-36.059647,45.71324,23.54757,2.6021948,-3.144412,6.8226037,-24.715473,46.311367,48.774117,-12.016247,-0.72965944,-3.3670554
41,-2.874070882797241,-1.693949818611145,74.12898254394531,-0.9369420885163888,5.52284390270187,-154.75089045856276,-13.180151,11.974743,17.343971,40.409393,-33.019703,-6.594375,-13.93407,-6.7680707,-10.111561,41.310326,-34.530437,1.1429735,-1.5301976,-1.1851057,3.1489534,7.5140486,28.831648,-35.65063,45.173508,23.386309,2.5359762,-3.4500394,6.7884007,-24.815567,46.30721,48.645996,-12.211399,-0.6233695,-3.259406
42,-3.0207011699676514,-1.7715489864349365,73.94189453125,-0.563875532754812,5.6295972085344825,-154.75788734975566,-13.318052,11.621534,17.478579,40.92288,-33.434555,-6.4615684,-14.861895,-7.2334933,-9.658272,43.143536,-34.675842,0.7761792,-1.4586083,-1.6207061,3.2599397,7.7247205,28.971464,-35.170147,44.552258,23.137829,2.4493701,-3.7981942,6.894363,-24.923014,46.161686,48.38987,-12.643509,-0.46937907,-3.1052082
43,-3.1727592945098877,-1.851273536682129,73.7391586303711,-0.16411534573643527,5.723633728445799,-154.78213848886114,-13.449669,11.253277,17.639616,41.4773,-33.852074,-6.3157415,-15.846539,-7.741639,-9.205908,45.098022,-34.79802,0.42336133,-1.3748797,-2.0890086,3.4028115,7.866178,29.133747,-34.723995,43.901844,22.926212,2.3592744,-4.1722784,6.9580703,-25.043327,46.030293,48.124325,-13.054891,-0.29941493,-2.9536545
44,-3.321376085281372,-1.925330400466919,73.51842498779297,0.2185289258662288,5.7912249677825,-154.8288002951029,-13.574823,10.931473,17.812696,42.103718,-34.289272,-6.185753,-16.836744,-8.282436,-8.8556595,47.134636,-34.99364,0.1093746,-1.288697,-2.543357,3.5943966,7.898912,29.325068,-34.363586,43.24441,22.901472,2.2793698,-4.55818,6.997917,-25.176487,45.900677,47.833813,-13.417561,-0.13977739,-2.8524003
45,-3.4706034660339355,-2.008716106414795,73.2807846069336,0.5942919215841374,5.820586877579725,-154.91146795216306,-13.676335,10.64571,18.013037,42.802715,-34.73763,-6.060636,-17.821037,-8.896273,-8.617539,49.31132,-35.318314,-0.16774303,-1.1854075,-2.9955103,3.846008,7.8323007,29.54971,-34.097965,42.56929,23.128288,2.1954029,-4.971086,7.0227137,-25.323425,45.745525,47.502674,-13.771846,0.03144192,-2.8006737
46,-3.6245670318603516,-2.083951711654663,73.02865600585938,0.9789960774901204,5.822365128448782,-155.02361961618124,-13.759472,10.37281,18.241106,43.559673,-35.192604,-5.9306593,-18.825304,-9.578109,-8.437317,51.62748,-35.7144,-0.42289898,-1.0638136,-3.462188,4.1447005,7.693229,29.80849,-33.897163,41.85929,23.522789,2.1029272,-5.412608,7.0510798,-25.483948,45.55336,47.1227,-14.145875,0.21961619,-2.776581
47,-3.776249647140503,-2.1500892639160156,72.75926208496094,1.3384066753271633,5.816090412585387,-155.14094388578073,-13.855729,10.15325,18.462337,44.3789,-35.67266,-5.826971,-19.858086,-10.254933,-8.321747,53.96834,-36.110256,-0.6517264,-0.94950336,-3.9066153,4.4750066,7.418718,30.10416,-33.793064,41.16366,23.980871,2.0299342,-5.847447,7.0660977,-25.65721,45.376522,46.723167,-14.440389,0.37337124,-2.797999
48,-3.9428458213806152,-2.2132041454315186,72.47856140136719,1.6376868287081248,5.820776781065577,-155.23893880865535,-13.995766,10.027246,18.643282,45.263527,-36.194725,-5.7814913,-20.925802,-10.851923,-8.283616,56.21731,-36.437527,-0.8464521,-0.8673849,-4.2925773,4.8179803,6.965562,30.43813,-33.80674,40.516743,24.414381,2.006595,-6.240955,7.0618896,-25.840702,45.256695,46.330944,-14.567982,0.4412846,-2.8836458
49,-4.111637592315674,-2.2504801750183105,72.18650817871094,1.8555580817772306,5.829616495466416,-155.31667339769075,-14.196974,10.0306,18.780006,46.257496,-36.779766,-5.816292,-22.031254,-11.339828,-8.341796,58.409992,-36.69752,-1.0052286,-0.81955636,-4.599431,5.1902575,6.2730336,30.817596,-33.98188,39.949432,24.858551,2.0388532,-6.6517344,7.0261817,-26.03164,45.1955,45.944332,-14.503892,0.395195,-3.0500157
50,-4.284366130828857,-2.29997181892395,71.89572143554688,2.013691312351389,5.836073912258194,-155.3855428880107,-14.438147,10.132975,18.890255,47.34231,-37.41252,-5.9109974,-23.17081,-11.763645,-8.489702,60.59302,-36.92329,-1.1285573,-0.78981405,-4.851628,5.593433,5.3884172,31.24206,-34.29668,39.42294,25.347647,2.1108387,-7.07739,6.9600506,-26.228262,45.176704,45.559433,-14.288619,0.26610476,-3.2837136
51,-4.464053153991699,-2.3366622924804688,71.6014633178711,2.1417217814465532,5.859400804986798,-155.4391460401369,-14.697545,10.276929,18.973753,48.434895,-38.056747,-6.0347433,-24.34773,-12.160614,-8.70234,62.67632,-37.09244,-1.2117065,-0.7897122,-5.079873,5.9872003,4.3884153,31.696245,-34.69298,38.90598,25.758816,2.2239034,-7.3915057,6.886384,-26.429045,45.211285,45.18941,-13.951351,0.09134725,-3.5591156
52,-4.662131309509277,-2.3559603691101074,71.30973052978516,2.2695532595793417,5.918881872293294,-155.47053001791008,-14.952159,10.402909,19.03044,49.448914,-38.67735,-6.1568346,-25.564594,-12.56912,-8.951809,64.56552,-37.17991,-1.2532095,-0.83497864,-5.312754,6.3321514,3.3314877,32.156322,-35.117073,38.388985,25.96173,2.3817139,-7.465171,6.8055716,-26.633314,45.330963,44.86181,-13.501321,-0.091723114,-3.851328
53,-4.88145637512207,-2.3868110179901123,71.0274658203125,2.402400946220554,6.032393035412401,-155.470871064858,-15.224394,10.497422,19.049849,50.383152,-39.26974,-6.267777,-26.840857,-12.994486,-9.23581,66.24354,-37.162502,-1.2309995,-0.9369146,-5.551852,6.5970855,2.1869626,32.607746,-35.616135,37.916656,25.882044,2.6109507,-7.195797,6.6770043,-26.844194,45.608143,44.61437,-12.805617,-0.3048852,-4.1898165
54,-5.12555456161499,-2.4344379901885986,70.75679779052734,2.524890780506547,6.18520472179769,-155.44579737354937,-15.515401,10.589066,19.037226,51.27158,-39.853516,-6.3858905,-28.170824,-13.422492,-9.565664,67.76205,-37.059757,-1.1555866,-1.0948987,-5.7783203,6.805125,0.93326396,33.043377,-36.191433,37.494488,25.603176,2.9001803,-6.6707144,6.5352044,-27.059813,45.988476,44.410133,-11.934221,-0.56039935,-4.5736265
55,-5.381278991699219,-2.483738660812378,70.49653625488281,2.636390131694138,6.346713236108787,-155.4107514708847,-15.777437,10.684246,19.014263,52.095966,-40.420822,-6.520707,-29.519426,-13.862307,-9.931851,69.12918,-36.91257,-1.076634,-1.290365,-5.9896226,7.0050125,-0.36384788,33.45109,-36.728493,37.055702,25.239773,3.1977487,-6.0444193,6.366891,-27.276596,46.417248,44.250744,-11.063793,-0.8056474,-4.9363275
56,-5.652724742889404,-2.5375075340270996,70.24421691894531,2.7363791071746193,6.48676468955575,-155.3815983067163,-15.961272,10.789516,19.003021,52.83522,-40.96337,-6.6807423,-30.852201,-14.323113,-10.324769,70.353134,-36.761272,-1.0452224,-1.5131708,-6.1838837,7.23952,-1.6133877,33.821144,-37.094936,36.527218,24.920698,3.4547603,-5.4740286,6.1997657,-27.488903,46.809696,44.11706,-10.4166155,-0.98230994,-5.2147636
57,-5.940171718597412,-2.5801093578338623,70.00479888916016,2.825323209298571,6.588650691193362,-155.35586740398304,-16.049454,10.908908,19.003944,53.49669,-41.48963,-6.8750634,-32.153942,-14.831437,-10.769573,71.4305,-36.608883,-1.0851932,-1.7684622,-6.3664722,7.533758,-2.8163228,34.14882,-37.24914,35.910088,24.646612,3.661088,-4.9748836,6.027202,-27.693048,47.173042,44.02678,-10.039038,-1.0628603,-5.3873477
58,-6.2415642738342285,-2.6291909217834473,69.7819595336914,2.9032352458932276,6.671164695172287,-155.32723719870165,-16.069138,11.037999,19.007765,54.087254,-41.99965,-7.0960727,-33.444023,-15.377327,-11.261918,72.35871,-36.435715,-1.1693237,-2.0644743,-6.5360465,7.855684,-4.005016,34.436234,-37.25582,35.24469,24.366524,3.8411608,-4.472218,5.8442116,-27.88915,47.540947,43.98749,-9.827172,-1.078739,-5.492543
59,-6.555031776428223,-2.679905891418457,69.57367706298828,2.9692698452297006,6.757591779994475,-155.3061057430047,-16.037481,11.172733,19.020485,54.585686,-42.477184,-7.3270073,-34.741264,-15.912149,-11.749053,73.147644,-36.24814,-1.2671338,-2.3875153,-6.6816015,8.169034,-5.165948,34.6876,-37.16434,34.533638,24.118597,4.002162,-3.9892678,5.64202,-28.07893,47.900948,43.984116,-9.727975,-1.0592964,-5.557675
60,-6.88790225982666,-2.7395753860473633,69.38935852050781,3.0219385242711145,6.870983827488078,-155.3022210981646,-15.971555,11.309958,19.047073,54.97,-42.905926,-7.550965,-36.064323,-16.384653,-12.179829,73.80315,-36.050217,-1.347088,-2.7309387,-6.791311,8.434764,-6.276816,34.908672,-37.01616,33.774986,23.940536,4.151844,-3.5499349,5.482535,-28.262117,48.18019,43.95188,-9.762141,-1.03289,-5.608635
61,-7.234045028686523,-2.7933266162872314,69.2236328125,3.0648592313346574,7.0166605867782765,-155.3124300727441,-15.887879,11.448184,19.080683,55.256195,-43.290897,-7.757476,-37.442814,-16.79016,-12.541062,74.32702,-35.842705,-1.4050599,-3.095733,-6.8718796,8.650826,-7.3536835,35.104176,-36.807137,32.948566,23.865986,4.2895184,-3.1834934,5.3755336,-28.440245,48.359055,43.875492,-9.989652,-0.99430966,-5.6377463
62,-7.589483261108398,-2.838486433029175,69.0874252319336,3.0972461292592426,7.18222598475874,-155.33307765438335,-15.772372,11.590186,19.119856,55.44785,-43.638943,-7.9566216,-38.858597,-17.150059,-12.863041,74.71362,-35.62202,-1.4560888,-3.4800563,-6.927089,8.837772,-8.405846,35.275093,-36.526386,32.061333,23.863918,4.4139457,-2.8702426,5.2895885,-28.615097,48.47631,43.785313,-10.373837,-0.9327223,-5.6348968
63,-7.972300052642822,-2.893402576446533,68.97775268554688,3.111450766444144,7.3649748246471685,-155.37420232848325,-15.600471,11.741333,19.177094,55.510983,-43.928738,-8.163019,-40.261963,-17.45259,-13.161158,74.961754,-35.388855,-1.496232,-3.8725834,-6.9412303,8.987833,-9.390983,35.42182,-36.200485,31.146528,23.87959,4.5317435,-2.5599973,5.254485,-28.786295,48.5167,43.673386,-10.824607,-0.8679381,-5.6218343
64,-8.383606910705566,-2.956660509109497,68.90167236328125,3.0998474436277528,7.562016218031102,-155.4462253739293,-15.3480625,11.906673,19.265032,55.413517,-44.144207,-8.391377,-41.602848,-17.686611,-13.450709,75.07163,-35.144062,-1.5210758,-4.2540507,-6.8988657,9.098034,-10.285846,35.542206,-35.870678,30.247618,23.852762,4.649675,-2.2012296,5.25483,-28.95497,48.501297,43.559025,-11.201544,-0.8206819,-5.621239
65,-8.814048767089844,-3.025644302368164,68.85706329345703,3.0581784503273557,7.782964044986136,-155.55144132927438,-15.032015,12.093118,19.38114,55.167274,-44.28777,-8.649502,-42.910007,-17.835503,-13.715922,75.031944,-34.8833,-1.5111315,-4.626167,-6.7915525,9.157808,-11.1018305,35.632942,-35.541565,29.36526,23.774658,4.768668,-1.76252,5.3492994,-29.118755,48.369915,43.4,-11.568122,-0.79291254,-5.6466284
66,-9.268304824829102,-3.0991148948669434,68.85184478759766,2.9912141597535324,8.02578082236099,-155.68487773640356,-14.657218,12.295948,19.520596,54.78271,-44.367508,-8.928548,-44.19463,-17.907806,-13.959628,74.84411,-34.606567,-1.4732764,-4.9867144,-6.628492,9.176652,-11.862292,35.691868,-35.207924,28.490221,23.672493,4.8854947,-1.275338,5.4814534,-29.280005,48.169304,43.230217,-11.913606,-0.7758938,-5.684008
67,-9.750662803649902,-3.1758923530578613,68.88243865966797,2.903271411171008,8.26974834511983,-155.84490710410185,-14.181414,12.502418,19.692924,54.22361,-44.364822,-9.218471,-45.38197,-17.930868,-14.224829,74.5296,-34.322483,-1.4428673,-5.340307,-6.418392,9.167834,-12.519807,35.718945,-34.857765,27.636942,23.547003,4.998888,-0.7844409,5.665577,-29.437336,47.912125,43.055195,-12.208451,-0.76924115,-5.7127213
68,-10.264381408691406,-3.255769968032837,68.95099639892578,2.79973136550074,8.494671753068943,-156.02994317238125,-13.561293,12.697894,19.908546,53.450424,-44.26107,-9.509349,-46.39674,-17.933079,-14.5535755,74.109276,-34.039436,-1.4552869,-5.684934,-6.1714177,9.147452,-13.032122,35.716003,-34.486343,26.816692,23.398838,5.1079187,-0.33431214,5.8645663,-29.590195,47.65267,42.91362,-12.369801,-0.77416307,-5.7130156
69,-10.8092679977417,-3.340837001800537,69.0575942993164,2.6746793195352803,8.709065874129067,-156.2471243940015,-12.798524,12.884979,20.175964,52.44861,-44.06373,-9.7971,-47.2438,-17.926523,-14.977281,73.58388,-33.763943,-1.549404,-6.0294547,-5.8795724,9.105991,-13.371081,35.6808,-34.065483,26.019766,23.216413,5.219386,0.07667318,6.1263537,-29.734667,47.357887,42.782112,-12.407881,-0.8019145,-5.6890473
70,-11.38560962677002,-3.4378669261932373,69.19966125488281,2.527867583791393,8.919149701567157,-156.49481230821007,-11.912153,13.0654125,20.48929,51.239265,-43.77633,-10.089487,-47.953907,-17.89328,-15.469292,72.94269,-33.49035,-1.695056,-6.3773074,-5.5417995,9.036847,-13.555678,35.613647,-33.599792,25.241234,23.005526,5.3299494,0.4679563,6.490866,-29.867374,46.983986,42.62745,-12.397919,-0.84754765,-5.6482596
71,-11.989476203918457,-3.5466790199279785,69.37332153320312,2.3724712962126575,9.100873364404391,-156.7594486045195,-10.88381,13.221486,20.837767,49.833992,-43.376923,-10.395679,-48.495636,-17.818136,-15.981443,72.19518,-33.21043,-1.8249948,-6.701225,-5.1801357,8.97618,-13.649624,35.51992,-33.154827,24.504475,22.78526,5.428527,0.8210529,6.7087235,-29.996758,46.73217,42.60062,-12.155364,-0.8916983,-5.577952
72,-12.640233039855957,-3.657343626022339,69.5774154663086,2.2213513670223852,9.23000539815819,-157.02664515398322,-9.695625,13.3357315,21.209373,48.242466,-42.839302,-10.725549,-48.837914,-17.685429,-16.464045,71.34958,-32.91461,-1.8727587,-7.0364666,-4.8161387,8.921982,-13.62109,35.41487,-32.72039,23.808466,22.588661,5.500154,1.1121205,7.0412965,-30.112427,46.383617,42.527298,-12.029541,-0.90486276,-5.4596314
73,-13.317728042602539,-3.7700064182281494,69.80337524414062,2.0901551616956846,9.295711272557742,-157.30875590176635,-8.272171,13.367943,21.643238,46.33848,-42.149765,-11.084803,-48.957474,-17.50126,-16.92252,70.38906,-32.584835,-1.8060688,-7.371618,-4.4710507,8.885246,-13.454693,35.30457,-32.2859,23.144985,22.398241,5.5454116,1.3344686,7.5022373,-30.210443,45.921417,42.39874,-12.01587,-0.87302494,-5.271104
74,-14.021553039550781,-3.884840726852417,70.0452651977539,1.9682494436489082,9.3124482147879,-157.60750819194232,-6.6467075,13.327997,22.131578,44.1483,-41.316193,-11.4746895,-48.87881,-17.268265,-17.373892,69.31539,-32.230488,-1.665932,-7.6745205,-4.128358,8.875282,-13.168845,35.1896,-31.868837,22.491213,22.207489,5.5722356,1.5015181,7.7930713,-30.29911,45.590015,42.413174,-11.784272,-0.81664747,-5.0304103
75,-14.751855850219727,-3.9962058067321777,70.29171752929688,1.8303203144869813,9.294656203321164,-157.89344316406243,-4.9680424,13.280681,22.589886,41.923035,-40.350956,-11.892653,-48.642002,-16.966843,-17.784002,68.16399,-31.882925,-1.4964072,-8.00856,-3.764785,8.861763,-12.788835,35.080578,-31.475174,21.88046,22.0438,5.5754776,1.6167588,8.209285,-30.369932,45.15626,42.365616,-11.698967,-0.7512291,-4.7726517
76,-15.508912086486816,-4.099999904632568,70.54171752929688,1.651771824457982,9.256428123066215,-158.13741158940243,-3.3882473,13.301889,22.932117,39.92826,-39.270744,-12.327417,-48.288704,-16.579601,-18.117012,66.97364,-31.57504,-1.3408988,-8.36235,-3.356724,8.845794,-12.396269,34.990463,-31.184616,21.332766,21.930866,5.555123,1.6898292,8.633928,-30.42844,44.70958,42.323605,-11.686772,-0.7012881,-4.5356464
77,-16.276268005371094,-4.20479154586792,70.78436279296875,1.410957635556776,9.187530598904354,-158.33590205510768,-1.8755133,13.412743,23.144693,38.121567,-38.046425,-12.788572,-47.79437,-16.08488,-18.377567,65.7353,-31.308695,-1.1909584,-8.754215,-2.8815236,8.841944,-11.983534,34.927597,-31.001049,20.847351,21.859827,5.5122995,1.7240137,9.068295,-30.476559,44.246628,42.278793,-11.809835,-0.6697698,-4.3236775
78,-17.056442260742188,-4.303736209869385,71.01022338867188,1.1269624849130826,9.084370258091857,-158.50335480590863,-0.37845922,13.579381,23.266256,36.40768,-36.682327,-13.270575,-47.14941,-15.498272,-18.573914,64.43387,-31.069105,-1.0321088,-9.170451,-2.3600411,8.850122,-11.488795,34.895477,-30.884472,20.380167,21.832685,5.447799,1.714667,9.518777,-30.514141,43.76254,42.233295,-12.027441,-0.6468799,-4.1181436
79,-17.850576400756836,-4.3950276374816895,71.21981048583984,0.8375825641189716,8.971420803748464,-158.63746622767567,0.98176694,13.8044615,23.289648,34.98343,-35.260784,-13.730725,-46.417572,-14.861709,-18.676252,63.103172,-30.865788,-0.9020814,-9.599582,-1.8368788,8.848558,-10.992088,34.8976,-30.846222,19.979965,21.841858,5.357568,1.6565459,9.985193,-30.535755,43.26625,42.1841,-12.2513,-0.63422924,-3.9239602
80,-18.664291381835938,-4.470801830291748,71.41130065917969,0.5801945542692016,8.873227199199738,-158.73665445079578,2.0871744,14.09421,23.209324,34.051052,-33.872906,-14.127762,-45.659706,-14.2183075,-18.65875,61.77662,-30.707754,-0.8363908,-10.000876,-1.3545363,8.809544,-10.51164,34.938354,-30.895304,19.634008,21.913952,5.238333,1.546307,10.504409,-30.543297,42.72749,42.109745,-12.403524,-0.63355786,-3.7421815
81,-19.49239158630371,-4.535885334014893,71.58253479003906,0.36161839303971777,8.794243568308785,-158.78530701399683,2.9128997,14.458858,23.00706,33.66689,-32.51339,-14.488166,-44.879135,-13.561225,-18.466593,60.439774,-30.664967,-0.8677718,-10.393061,-0.92013067,8.719692,-10.050067,35.027576,-31.058823,19.346647,22.100002,5.073844,1.3820033,11.066211,-30.526129,42.16339,42.023018,-12.482801,-0.6430348,-3.57703
82,-20.330522537231445,-4.588441371917725,71.72982025146484,0.16271495674383327,8.722834044374363,-158.78934598450888,3.525808,14.894451,22.69142,33.721733,-31.149902,-14.825855,-44.04357,-12.878215,-18.12949,59.084583,-30.711082,-0.96909577,-10.787944,-0.51606315,8.59973,-9.652957,35.169094,-31.34986,19.161703,22.340572,4.8707457,1.1667415,11.662957,-30.481865,41.57217,41.92576,-12.53689,-0.66284895,-3.4264612
83,-21.18197250366211,-4.6353840827941895,71.85496520996094,-0.018201459937630657,8.659534672344538,-158.77827835077707,3.9459944,15.367851,22.287762,34.15659,-29.816847,-15.000033,-43.16436,-12.201842,-17.748611,57.753876,-30.7089,-1.0822479,-11.147321,-0.13856547,8.460068,-9.254478,35.34767,-31.676657,19.022318,22.568901,4.6583652,0.9020497,12.256825,-30.41227,40.981308,41.843487,-12.492256,-0.69587415,-3.2866483
84,-22.04533576965332,-4.6877241134643555,71.95443725585938,-0.18481923954175633,8.604313503026356,-158.78243986132193,4.1986957,15.8757515,21.846058,34.920593,-28.549494,-15.000033,-42.25262,-11.558281,-17.428995,56.48816,-30.520842,-1.1484216,-11.438226,0.21893069,8.304754,-8.749187,35.53894,-31.923557,18.850794,22.742994,4.465835,0.5873332,12.838167,-30.324085,40.398834,41.786205,-12.30191,-0.7440933,-3.1539228
85,-22.918643951416016,-4.740298748016357,72.02632141113281,-0.3321486731125804,8.577774694084907,-158.79630060392145,4.2589364,16.43541,21.355421,36.02515,-27.353888,-15.000033,-41.275154,-10.954901,-17.186844,55.160576,-29.967297,-1.0675366,-11.672637,0.5588067,8.113495,-8.272766,35.730198,-32.14094,18.761633,22.770975,4.286941,0.17382984,13.415465,-30.225023,39.820774,41.739258,-11.855423,-0.81398255,-3.0572402
86,-23.81582260131836,-4.790163516998291,72.06568908691406,-0.4623308520441866,8.574474763739403,-158.80717256351562,4.1294847,17.032284,20.798569,37.46588,-26.19698,-14.954785,-40.238495,-10.374011,-16.972424,53.792664,-29.16636,-0.8956333,-11.856381,0.8867389,7.8838267,-7.804357,35.91685,-32.35649,18.74176,22.725378,4.110878,-0.3222837,14.00116,-30.118357,39.237484,41.698124,-11.210193,-0.90131074,-2.986826
87,-24.698545455932617,-4.82769775390625,72.10133361816406,-0.5934253940958716,8.553216700798899,-158.83673947852142,3.8851259,17.65932,20.247591,39.18033,-25.05602,-14.700533,-39.216835,-9.800859,-16.79365,52.65498,-28.435219,-0.8135129,-11.977636,1.2112545,7.668687,-7.258412,36.08766,-32.507427,18.7282,22.680058,3.9595172,-0.8052416,14.547269,-30.009687,38.683018,41.691597,-10.559912,-0.99100244,-2.884227
88,-25.583988189697266,-4.872085094451904,72.11036682128906,-0.7482570416413691,8.47161930611102,-158.90789365271968,3.613723,18.373138,19.796478,41.12393,-23.918884,-14.397749,-38.280178,-9.21733,-16.667336,52.017223,-28.095537,-1.007133,-12.047918,1.5400599,7.5340843,-6.708529,36.230618,-32.58511,18.78882,22.625109,3.8530874,-1.1803865,14.9907255,-29.90857,38.205936,41.742554,-10.103668,-1.066941,-2.6941001
89,-26.476856231689453,-4.914988994598389,72.0885238647461,-0.9278431078122934,8.31219246285075,-159.00281651123944,3.339606,19.188042,19.450981,43.294106,-22.718248,-14.065445,-37.469776,-8.614531,-16.619637,52.090775,-28.373016,-1.6659111,-12.076722,1.8770298,7.485692,-6.0961394,36.33263,-32.563408,18.899817,22.597399,3.8007824,-1.4221556,15.353549,-29.818535,37.796844,41.854412,-9.902477,-1.12125,-2.3558989
90,-27.38141441345215,-4.9587626457214355,72.03379821777344,-1.1237098604468858,8.098476976854277,-159.11661970037642,3.0229557,20.0915,19.169971,45.70457,-21.478783,-13.673718,-36.743423,-7.9888353,-16.635778,52.680794,-29.043144,-2.6494899,-12.06338,2.2217517,7.4948516,-5.4678583,36.389038,-32.476646,19.093048,22.565508,3.7895446,-1.581591,15.6505785,-29.74294,37.443,42.013416,-9.843905,-1.1637441,-1.9156526
91,-28.281536102294922,-5.010727882385254,71.95926666259766,-1.3429971906617968,7.849298599318908,-159.29258551692178,2.6516893,21.086527,18.96378,48.334267,-20.327469,-13.167908,-36.043922,-7.336087,-16.67429,53.44532,-29.75244,-3.6462157,-11.98232,2.5812516,7.5518837,-4.8295984,36.39138,-32.328968,19.349174,22.532799,3.8075566,-1.6725154,15.84798,-29.70751,37.178574,42.19722,-9.856448,-1.203222,-1.4766637
92,-29.170557022094727,-5.053127288818359,71.87803649902344,-1.5922824488870564,7.583175357679464,-159.57432491370577,2.2117443,22.177422,18.842024,51.168705,-19.394651,-12.491237,-35.31147,-6.66974,-16.69879,54.04944,-30.158825,-4.340854,-11.776231,2.9518776,7.666612,-4.2140775,36.371284,-32.140842,19.62204,22.489151,3.8417015,-1.7191702,15.887238,-29.691599,36.993996,42.42093,-9.887726,-1.2529297,-1.1370116
93,-30.04074478149414,-5.09918737411499,71.78491973876953,-1.8960941796509307,7.284449281933185,-159.99532487155128,1.7036021,23.439219,18.840155,54.313587,-18.660423,-11.533759,-34.52047,-5.99413,-16.731627,54.414333,-30.046408,-4.608238,-11.466369,3.3765464,7.868463,-3.5061388,36.288464,-31.77425,19.85186,22.49315,3.8812485,-1.7275591,15.705158,-29.715464,36.93136,42.712852,-9.932585,-1.3259964,-0.8989126
94,-30.897872924804688,-5.148702621459961,71.67418670654297,-2.242455573835053,6.948215582503836,-160.52527157728528,1.1428807,24.866137,18.936491,57.738747,-18.081356,-10.332236,-33.704044,-5.3029523,-16.783567,54.713123,-29.64212,-4.627381,-11.054859,3.8376222,8.135824,-2.8526926,36.160294,-31.369127,20.1636,22.450895,3.9433808,-1.6682664,15.366946,-29.797188,36.987225,43.032364,-9.990856,-1.4115843,-0.71988195
95,-31.74622344970703,-5.194575786590576,71.53726196289062,-2.5847438299153196,6.609604165221071,-161.11225635665858,0.5334864,26.329796,19.050247,61.23463,-17.759752,-9.062791,-32.888084,-4.6040077,-16.802105,54.99357,-29.276041,-4.538879,-10.5835905,4.291523,8.416823,-2.2187822,35.994637,-30.93485,20.517832,22.408401,4.0227375,-1.5757012,14.9162445,-29.93041,37.14449,43.35178,-10.076901,-1.484037,-0.62748826
96,-32.6016845703125,-5.2293620109558105,71.37625122070312,-2.87446086522437,6.305972717289115,-161.70514010953212,-0.13594112,27.683144,19.095905,64.61283,-17.797798,-7.919639,-32.100735,-3.9087808,-16.736267,55.307674,-29.278997,-4.4838266,-10.083701,4.6828847,8.650515,-1.5528661,35.809193,-30.49552,20.861502,22.412733,4.1186395,-1.4756225,14.383697,-30.101603,37.40849,43.663635,-10.180383,-1.5173094,-0.65312845
97,-33.45207977294922,-5.256231307983398,71.19851684570312,-3.114142139927016,6.026837578823975,-162.30113116158424,-0.8415651,28.938362,19.064213,67.941956,-18.365881,-6.941158,-31.333342,-3.2034516,-16.581598,55.697803,-29.81031,-4.477164,-9.564718,4.995588,8.855937,-0.8900984,35.62343,-30.072071,21.218872,22.40208,4.2364445,-1.3624449,13.740418,-30.302757,37.821564,43.97034,-10.328087,-1.4985503,-0.8153012
98,-34.30055236816406,-5.276916027069092,71.01313781738281,-3.3205244746267915,5.760075652112411,-162.9232409993289,-1.5985374,30.138126,18.975302,71.31111,-19.37992,-6.0406632,-30.582176,-2.49075,-16.363066,56.138245,-30.675604,-4.4553366,-9.009951,5.250325,9.058683,-0.23036794,35.443806,-29.6423,21.585335,22.369873,4.375319,-1.2270635,12.957003,-30.527697,38.383347,44.29024,-10.50347,-1.4436295,-1.0943874
99,-35.143558502197266,-5.301492691040039,70.84071350097656,-3.4696958723085354,5.542921159572878,-163.56056024958127,-2.484281,31.17169,18.799366,74.56,-20.549269,-5.236532,-29.876581,-1.8072065,-16.077595,56.56881,-31.667679,-4.4419627,-8.42236,5.4435463,9.210714,0.45382026,35.268974,-29.195112,21.934462,22.40342,4.5259547,-1.0907218,12.106821,-30.761597,39.003155,44.60662,-10.677779,-1.3688514,-1.465418
100,-35.986759185791016,-5.3174638748168945,70.69793701171875,-3.5367484042991215,5.412718191479306,-164.20357749821494,-3.5753002,31.928434,18.522903,77.52177,-21.572172,-4.5437984,-29.245218,-1.1948005,-15.71784,56.93333,-32.581837,-4.456983,-7.793662,5.5677676,9.261563,1.1800324,35.091606,-28.732248,22.248533,22.593725,4.6781383,-0.97321576,11.246409,-30.988157,39.597,44.92679,-10.807145,-1.2919819,-1.9045211
101,-36.82988739013672,-5.3302741050720215,70.5760269165039,-3.485584681159059,5.397562050851356,-164.85913209455128,-4.9172745,32.334225,18.146276,80.19154,-22.385508,-3.963635,-28.726063,-0.68829346,-15.249129,57.250725,-33.408943,-4.519819,-7.1003356,5.5808525,9.167113,1.9249933,34.90526,-28.266539,22.57078,22.972132,4.8379617,-0.8824615,10.358526,-31.196535,40.20908,45.31076,-10.834747,-1.23011,-2.4585912
102,-37.67794418334961,-5.350790977478027,70.47664642333984,-3.3407358168712746,5.474156090414276,-165.52981351927198,-6.463155,32.452957,17.696472,82.65392,-23.137665,-3.4952974,-28.292112,-0.26234472,-14.685601,57.544743,-34.244904,-4.6153126,-6.3497252,5.4914064,8.965591,2.6679487,34.709866,-27.807287,22.91764,23.485111,5.00853,-0.8070939,9.414045,-31.382147,40.863094,45.756145,-10.798547,-1.1710188,-3.1249073
103,-38.533363342285156,-5.371074199676514,70.3935775756836,-3.1699896913058505,5.602387570728598,-166.1989865413248,-8.1525135,32.39006,17.205053,84.871445,-23.838554,-3.1479175,-27.870848,0.13092472,-14.0931015,57.756985,-35.037975,-4.708581,-5.5765653,5.37126,8.72466,3.438713,34.506687,-27.35127,23.221436,24.100584,5.1778555,-0.73892,8.47333,-31.54255,41.428047,46.166325,-10.811603,-1.0877275,-3.8044422
104,-39.37542724609375,-5.408720016479492,70.32886505126953,-3.040769967778722,5.7401375996296755,-166.85017443207616,-9.928468,32.254074,16.695318,86.803734,-24.498621,-2.9288197,-27.390383,0.53888583,-13.536544,57.828293,-35.73671,-4.7642946,-4.8086424,5.295776,8.508814,4.252895,34.29794,-26.907005,23.42058,24.780731,5.3344393,-0.66823673,7.5981026,-31.682518,41.771503,46.446526,-10.983878,-0.95122045,-4.396459
105,-40.20719528198242,-5.458393573760986,70.28321075439453,-2.985695993751237,5.895903018440027,-167.4934251011571,-11.826935,32.073418,16.14975,88.46986,-25.125492,-2.88626,-26.863142,0.9907577,-13.033932,57.756042,-36.330914,-4.7780685,-4.023937,5.304239,8.318229,5.1236444,34.081547,-26.47237,23.493586,25.611992,5.485288,-0.55970037,6.8058095,-31.808466,41.837204,46.578163,-11.400545,-0.73437953,-4.8888154
106,-41.041259765625,-5.509338855743408,70.26618194580078,-2.9652448737184893,6.083841461254536,-168.13324571791918,-13.859709,31.790804,15.574232,89.88179,-25.706696,-3.0014653,-26.315763,1.4533188,-12.548473,57.566154,-36.848785,-4.766187,-3.2102008,5.3506713,8.121753,6.0265446,33.856148,-26.05546,23.480341,26.578516,5.6348076,-0.42900681,6.070141,-31.926653,41.69736,46.60535,-11.984295,-0.45627907,-5.3265047
107,-41.87132263183594,-5.565618991851807,70.27591705322266,-2.9381085219558747,6.270555171270883,-168.74606131349736,-15.932054,31.39214,15.025592,90.98167,-26.222744,-3.176113,-25.70068,1.8805302,-12.062522,57.24685,-37.2901,-4.725141,-2.4121091,5.3874946,7.9364533,6.929462,33.626297,-25.672308,23.40438,27.489569,5.7652173,-0.3417478,5.3879495,-32.042583,41.4147,46.52145,-12.603204,-0.15806025,-5.694814
108,-42.69380187988281,-5.629359245300293,70.31842803955078,-2.862073379665195,6.423104018911086,-169.30782354920476,-17.950525,30.864195,14.556287,91.71072,-26.649557,-3.3141022,-24.968966,2.2256064,-11.559672,56.784443,-37.65661,-4.6524644,-1.6747279,5.3679023,7.7817135,7.807947,33.400833,-25.337452,23.282932,28.155554,5.8563848,-0.36247975,4.7687736,-32.16111,41.040813,46.310314,-13.133706,0.11711334,-5.9813633
109,-43.52376937866211,-5.698156356811523,70.39802551269531,-2.7298732890111284,6.534020086325031,-169.81396725525315,-19.912832,30.194489,14.1828785,92.049324,-26.968258,-3.4261856,-24.099792,2.47841,-11.034015,56.158245,-37.955772,-4.5420976,-1.0092465,5.2865953,7.6681795,8.694714,33.187153,-25.03666,23.065435,28.52812,5.9080443,-0.5422825,4.2110944,-32.284405,40.53213,45.943985,-13.5832615,0.37461948,-6.1262503
110,-44.359107971191406,-5.780959129333496,70.52052307128906,-2.5623400853058826,6.620294228242901,-170.27719330109835,-21.85134,29.397348,13.886118,92.02429,-27.190409,-3.552224,-23.121254,2.6607738,-10.494917,55.38341,-38.185165,-4.399637,-0.394953,5.167921,7.5889893,9.588698,32.987503,-24.767616,22.759077,28.7006,5.9276285,-0.8350635,3.7185516,-32.41325,39.872974,45.42535,-14.0122175,0.62960404,-6.1547756
111,-45.19826889038086,-5.884276866912842,70.68632507324219,-2.36009402044268,6.686324154904435,-170.69851921423145,-23.721067,28.500431,13.664746,91.642586,-27.337824,-3.639373,-22.056276,2.7750125,-9.949729,54.493538,-38.335052,-4.238726,0.17855293,5.0118604,7.535885,10.456282,32.80243,-24.549421,22.430464,28.718225,5.907064,-1.159111,3.2816947,-32.55006,39.180157,44.811153,-14.344894,0.8538239,-6.185352
112,-46.04267501831055,-5.992268085479736,70.87774658203125,-2.1232975157056995,6.737337261642382,-171.0789072339456,-25.478632,27.529446,13.515561,90.91209,-27.433958,-3.6355271,-20.929375,2.823018,-9.406077,53.522743,-38.391895,-4.069233,0.712368,4.817856,7.5015965,11.2442045,32.630478,-24.402203,22.16779,28.617104,5.8378625,-1.4330722,2.8917308,-32.69581,38.574055,44.157322,-14.509922,1.0204711,-6.3377323
113,-46.88543701171875,-6.106665134429932,71.09088897705078,-1.8343522265564522,6.768230443542635,-171.40513314965466,-27.13348,26.41188,13.423077,89.80977,-27.527386,-3.519083,-19.715239,2.7813623,-8.866095,52.430695,-38.373253,-3.887051,1.1959897,4.5700903,7.4947433,11.946833,32.47252,-24.337982,21.982119,28.311396,5.6934524,-1.64564,2.5211878,-32.850014,38.097214,43.47601,-14.362359,1.114905,-6.6770387
114,-47.748756408691406,-6.208067893981934,71.33064270019531,-1.4992599691461728,6.778578721530736,-171.68124622252967,-28.687767,25.15438,13.400782,88.33062,-27.592972,-3.327491,-18.414654,2.6543164,-8.329087,51.21506,-38.279217,-3.6834354,1.625446,4.275642,7.515015,12.595087,32.32782,-24.335941,21.832468,27.815166,5.487639,-1.8386123,2.1929872,-33.009937,37.677742,42.732826,-13.993033,1.1519425,-7.1302996
115,-48.626121520996094,-6.320052623748779,71.58723449707031,-1.152556681682137,6.780465183033115,-171.93342624595147,-30.093918,23.897236,13.483468,86.51213,-27.547232,-3.0982232,-17.091318,2.4866397,-7.797124,49.966496,-38.071777,-3.4606225,2.0247943,3.9686646,7.5444055,13.187253,32.191696,-24.375181,21.724434,27.319868,5.27077,-2.0079112,1.9053555,-33.175125,37.31464,41.96844,-13.62069,1.1502024,-7.6111465
116,-49.5058708190918,-6.441357612609863,71.84928894042969,-0.8282079656350099,6.786579755573544,-172.18734380376102,-31.310593,22.77735,13.704119,84.392555,-27.308132,-2.8695805,-15.812266,2.3225133,-7.2694287,48.78657,-37.712074,-3.2235646,2.4101195,3.681271,7.5587983,13.7453165,32.05473,-24.420834,21.650122,27.025633,5.093239,-2.1487322,1.6956373,-33.345238,36.980556,41.197746,-13.500807,1.1326085,-8.033498
117,-50.406192779541016,-6.554957389831543,72.12451934814453,-0.5279708433064852,6.796202890341582,-172.43498289790756,-32.332302,21.80497,14.085235,81.938614,-26.81007,-2.6184556,-14.551586,2.1745853,-6.743178,47.63487,-37.18454,-3.0010824,2.784874,3.4200504,7.558688,14.248732,31.915297,-24.497686,21.628298,27.02417,4.9576526,-2.2568426,1.4829559,-33.52464,36.742104,40.475506,-13.669172,1.0969101,-8.401582
118,-51.31534194946289,-6.6775336265563965,72.40009307861328,-0.2347142284208212,6.804416114266887,-172.66641258701634,-33.17199,20.891785,14.614992,79.13292,-26.119902,-2.3490474,-13.292334,2.0174205,-6.218887,46.484035,-36.51329,-2.780543,3.129846,3.1673148,7.547653,14.711439,31.771044,-24.599915,21.652216,27.203144,4.8394685,-2.3352125,1.3401536,-33.711964,36.546993,39.731373,-14.052748,1.0371475,-8.752698
119,-52.229923248291016,-6.805092811584473,72.67694091796875,0.04722066480434527,6.818896126405733,-172.90460360701164,-33.828407,20.029846,15.267285,76.04626,-25.343777,-2.138751,-12.106372,1.8419483,-5.6968603,45.444218,-35.719753,-2.509828,3.4588003,2.923284,7.5272403,15.126453,31.61469,-24.691767,21.715162,27.4358,4.7476068,-2.3848987,1.2956327,-33.9035,36.355003,38.965607,-14.541397,0.9699911,-9.051197
120,-53.14347839355469,-6.930294513702393,72.95024108886719,0.31290720135124755,6.846772036111181,-173.17276886670908,-34.304867,19.217611,16.006605,72.742226,-24.58269,-2.0623574,-11.060709,1.6415476,-5.175885,44.621277,-34.824657,-2.1387887,3.804693,2.6920612,7.5120473,15.471886,31.44003,-24.750555,21.805452,27.599407,4.6916585,-2.4055805,1.1721977,-34.09996,36.264305,38.333084,-14.869234,0.9089564,-9.262524
121,-54.06017303466797,-7.058796405792236,73.21481323242188,0.5628059687253558,6.894861658974609,-173.47508629412584,-34.552834,18.5464,16.955086,69.11842,-23.846981,-2.0782297,-10.147692,1.4147253,-4.6634517,43.995323,-33.810993,-1.6427325,4.155354,2.470876,7.4910727,15.774847,31.232056,-24.73184,21.92164,27.711088,4.6837983,-2.4064336,1.0993274,-34.29448,36.190887,37.74061,-15.143932,0.85310614,-9.359218
122,-54.988319396972656,-7.186673641204834,73.46527862548828,0.7995501798550395,6.957702888536622,-173.79970489033616,-34.58598,17.949373,18.095642,65.15809,-23.073181,-2.1904054,-9.3334465,1.1716756,-4.152292,43.520134,-32.67695,-1.0520976,4.503497,2.261078,7.4636455,16.020145,30.98846,-24.666876,22.083065,27.821629,4.715885,-2.3832967,1.0573732,-34.48723,36.155865,37.194454,-15.408973,0.7950199,-9.366433
123,-55.92059326171875,-7.310007572174072,73.70256042480469,1.017640295091781,7.023603089038311,-174.14792594864977,-34.508205,17.234966,19.152729,61.05238,-22.244654,-2.5106637,-8.643983,0.93012613,-3.6187532,43.26364,-31.46417,-0.39724523,4.829508,2.0665102,7.428924,16.213346,30.715734,-24.578083,22.282787,27.867565,4.764494,-2.3230462,1.0948182,-34.674015,36.124805,36.662174,-15.658454,0.74065006,-9.326933
124,-56.85533905029297,-7.434947967529297,73.9155502319336,1.208697402976903,7.079732190406833,-174.52266957541377,-34.43214,16.270498,19.818777,57.007664,-21.356184,-3.1115646,-8.10267,0.71234906,-3.0405903,43.290047,-30.213753,0.29469338,5.138512,1.8947634,7.401448,16.33539,30.432333,-24.507973,22.509653,27.780941,4.807555,-2.21078,1.0666666,-34.85537,36.184643,36.255405,-15.740296,0.69543076,-9.284207
125,-57.79668045043945,-7.554808139801025,74.1033706665039,1.370818821360315,7.136479946464421,-174.9366097054601,-34.38028,15.006699,19.925184,52.870182,-20.377968,-4.0831547,-7.7027626,0.5318007,-2.4103959,43.57374,-28.951387,1.054753,5.4346685,1.7405164,7.3715215,16.406158,30.140339,-24.437477,22.768623,27.491615,4.8436284,-2.0105865,1.044305,-35.02502,36.300568,35.927357,-15.669974,0.67062587,-9.256411
126,-58.74809646606445,-7.668465614318848,74.2608642578125,1.4962769116804566,7.191926499998621,-175.39036252674993,-34.27733,13.607808,19.613535,48.583565,-19.34046,-5.3040404,-7.4165673,0.40370628,-1.7395996,44.0744,-27.651024,1.9034151,5.7242455,1.6109309,7.339825,16.431723,29.839233,-24.354465,23.05246,27.051771,4.882594,-1.7415935,1.052431,-35.180454,36.452744,35.658268,-15.49984,0.6597295,-9.218165
127,-59.705196380615234,-7.779123783111572,74.37692260742188,1.5761575700582058,7.216269794704539,-175.8657766554354,-34.10053,12.264726,19.050436,44.526787,-18.328394,-6.526846,-7.242855,0.34512788,-1.0362747,44.83938,-26.273327,2.8010104,5.981703,1.519507,7.3244834,16.393017,29.545156,-24.285938,23.340105,26.569534,4.9145217,-1.4730867,1.0786211,-35.319904,36.627125,35.441547,-15.287219,0.64302325,-9.147683
128,-60.665733337402344,-7.890014171600342,74.45854949951172,1.6075204936541,7.183241415418954,-176.33937354897998,-33.863422,11.124169,18.426525,41.115597,-17.420107,-7.5390234,-7.1907535,0.36588034,-0.30928212,45.924175,-24.775543,3.7059956,6.18862,1.4737802,7.3464236,16.270782,29.286371,-24.265575,23.596941,26.15143,4.932024,-1.2744788,1.033123,-35.443527,36.85553,35.328,-15.029219,0.6003041,-9.023186
129,-61.63138198852539,-7.997073173522949,74.50364685058594,1.5936611719477585,7.099861439282425,-176.8139920912709,-33.584084,10.158932,17.748674,38.35688,-16.599527,-8.571775,-7.310224,0.47682443,0.44338492,47.396385,-23.085995,4.5635004,6.334013,1.4633496,7.39691,16.092655,29.072763,-24.271482,23.813225,25.77637,4.9275165,-1.1585835,1.0866226,-35.541046,37.01767,35.197365,-14.817014,0.51953757,-8.833228
130,-62.5925407409668,-8.083090782165527,74.5039291381836,1.5400542380633253,6.978263727954096,-177.2947536114338,-33.27758,9.302306,16.941769,36.10906,-15.854277,-9.655501,-7.5798173,0.68649083,1.2225078,49.202255,-21.245857,5.439177,6.446897,1.4803114,7.4747996,15.846072,28.911243,-24.314283,23.996899,25.39546,4.9090557,-1.0902156,1.1205759,-35.614452,37.195908,35.145866,-14.542645,0.41322106,-8.591064
131,-63.56365203857422,-8.158021926879883,74.46722412109375,1.4619620871394967,6.806359423553578,-177.7549920276009,-33.00102,8.600265,16.086765,34.62149,-15.270998,-10.299719,-7.9137607,0.97620666,2.0183842,51.227066,-19.384829,6.4607987,6.4983683,1.5125928,7.5739775,15.536125,28.816925,-24.40844,24.1212,25.079021,4.890349,-1.074147,1.1048862,-35.66578,37.42726,35.17438,-14.267906,0.30017397,-8.311929
132,-64.52203369140625,-8.22282600402832,74.40314483642578,1.3793228802588953,6.5731718149121585,-178.16647732408617,-32.819195,8.090447,15.272072,34.14724,-14.92627,-10.014061,-8.232292,1.3166622,2.8287287,53.373646,-17.644054,7.739615,6.4498262,1.5360987,7.684025,15.171368,28.814692,-24.559652,24.159191,24.89148,4.8842287,-1.1185431,1.1410264,-35.68707,37.653793,35.187737,-14.155664,0.19753735,-8.008827
133,-65.4971923828125,-8.287736892700195,74.29618072509766,1.2825204228006493,6.274433088179238,-178.51732124181143,-32.845047,7.7661867,14.456229,35.0455,-14.721459,-8.198341,-8.523883,1.7505144,3.7094355,55.672108,-16.009094,9.343476,6.292085,1.5699292,7.791814,14.729999,28.91263,-24.813313,24.11594,24.862627,4.902246,-1.250945,1.1167947,-35.700054,37.98759,35.275627,-14.148644,0.102430165,-7.6631875
134,-66.48340606689453,-8.349417686462402,74.13855743408203,1.1596098948917275,5.910918982494605,-178.8274186302302,-33.01624,7.5925565,13.658393,37.06713,-14.588035,-5.2858586,-8.817684,2.3002644,4.6542683,58.17112,-14.441797,11.198853,6.044057,1.613391,7.909045,14.279083,29.11737,-25.116316,23.942444,24.972075,4.9320326,-1.4686203,1.1757288,-35.68799,38.301304,35.338512,-14.308286,0.0050710705,-7.2703815
135,-67.49064636230469,-8.39578914642334,73.92217254638672,1.030402987603244,5.48242364253968,-179.1136349680452,-33.134514,7.562737,13.01859,39.54865,-14.681299,-2.3306026,-9.111905,2.8859527,5.560518,60.823868,-13.046659,13.183383,5.7593923,1.6461115,8.07846,13.734038,29.43099,-25.494717,23.694183,25.115967,4.962671,-1.6976811,1.095943,-35.65993,38.707203,35.50428,-14.400121,-0.08186181,-6.8857574
136,-68.49200439453125,-8.428128242492676,73.67327117919922,0.9288859153861037,4.998822731766391,-179.38654306737598,-33.018406,7.6655116,12.609971,41.87237,-15.248468,-0.37607002,-9.419796,3.3816338,6.2762923,63.574932,-11.915259,15.000033,5.4248376,1.6236285,8.305965,13.082456,29.841562,-25.909157,23.412504,25.2013,4.9802103,-1.8720698,1.1360289,-35.61029,39.007046,35.54509,-14.560974,-0.14214754,-6.5619698
137,-69.4637222290039,-8.407148361206055,73.39446258544922,0.6207651725372892,4.371103531783774,-179.6802486211161,-32.694073,8.268987,12.266287,44.34806,-16.717026,0.10157946,-9.65464,3.8342183,6.2051764,66.36634,-10.810797,15.000033,5.1047664,1.7658496,8.672524,12.319664,30.351122,-26.36941,23.016178,25.273766,4.9520335,-2.041882,1.0185087,-35.55486,39.361446,35.635323,-14.596843,-0.17326614,-6.2531657
138,-70.42021942138672,-8.383137702941895,73.07061004638672,0.1673462777505291,3.6287255067879163,-179.98276371811414,-32.216805,9.268791,11.998194,47.12317,-18.865368,-0.26156595,-9.867725,4.2535224,5.806896,69.27073,-9.759359,15.000033,4.7554607,2.0295987,9.137439,11.4463,30.956923,-26.874372,22.537916,25.342695,4.8921266,-2.222589,0.92224944,-35.491043,39.680958,35.661636,-14.669429,-0.18118861,-5.951205
139,-71.37291717529297,-8.37789535522461,72.73762512207031,-0.1719497316769217,2.960811926148791,179.74213646040977,-31.631826,10.230729,11.910316,49.687813,-21.140476,-0.9297208,-10.289471,4.3172717,5.231042,72.268715,-9.078967,15.000033,4.3868175,2.1575882,9.549687,10.478315,31.646935,-27.453348,22.059261,25.358366,4.8677526,-2.2847834,0.8619205,-35.413105,39.96362,35.667084,-14.703766,-0.16767552,-5.7629614
140,-72.33108520507812,-8.370640754699707,72.4319839477539,-0.2643624284322472,2.550295429657165,179.5172835964725,-31.06504,10.824028,11.984056,51.676727,-23.050882,-1.3964254,-11.102277,3.88327,4.6232786,75.23249,-9.030992,15.000033,4.0045576,2.0180714,9.745447,9.418534,32.39982,-28.133818,21.685476,25.26229,4.9440413,-2.097117,0.8962736,-35.308834,40.18261,35.666294,-14.669896,-0.13438235,-5.7965446
141,-73.29544830322266,-8.370197296142578,72.17665100097656,0.016547991039449216,2.479780644365716,179.3811675914441,-30.56429,10.843069,12.265614,52.965755,-24.481503,-1.5537663,-12.389892,2.8327177,4.127381,78.240555,-9.952825,15.000033,3.580158,1.4801929,9.629941,8.171293,33.21866,-29.03491,21.51166,24.931421,5.1739535,-1.5012177,1.0642673,-35.161644,40.32914,35.65747,-14.528886,-0.07004811,-6.159065
142,-74.25407409667969,-8.384382247924805,71.951904296875,0.59171813446468,2.6355520817752627,179.32797452448307,-30.073566,10.461339,12.750616,53.786644,-25.698366,-1.6508237,-14.005458,1.2976398,3.7615848,81.296104,-11.623974,15.000033,3.1051888,0.62416816,9.298897,6.734816,34.095875,-30.13435,21.467886,24.422483,5.50602,-0.60304636,1.3238901,-34.965878,40.409927,35.652027,-14.309975,0.019493524,-6.767611
143,-75.21076965332031,-8.399038314819336,71.74937438964844,1.2810688021507588,2.9007178535396676,179.31487317849104,-29.558147,9.896263,13.319294,54.2955,-26.781525,-1.7192956,-15.78533,-0.46413097,3.4759066,84.15748,-13.473587,15.000033,2.5926437,-0.35030967,8.874318,5.299094,34.98112,-31.204699,21.406507,23.970188,5.853809,0.32878488,1.6652061,-34.72966,40.39987,35.639843,-14.134015,0.10934536,-7.444625
144,-76.15581512451172,-8.420210838317871,71.57327270507812,1.8868507215572217,3.164838734116538,179.28635181151535,-28.985777,9.39241,13.851524,54.659138,-27.812235,-1.7953205,-17.584661,-2.176294,3.1736712,86.5886,-14.9189205,15.000033,2.0605438,-1.215161,8.479188,4.0639853,35.810295,-31.99392,21.212433,23.831459,6.140571,1.0221616,2.0614638,-34.473522,40.30068,35.61567,-14.113048,0.18026689,-8.012036
145,-77.0894775390625,-8.458780288696289,71.43413543701172,2.366626663515267,3.4382540170504514,179.21674487857987,-28.366335,9.008823,14.34242,54.90395,-28.825933,-1.8792671,-19.453444,-3.8570464,2.7783415,88.57654,-15.770807,15.000033,1.5114777,-1.8992975,8.104566,3.052194,36.543983,-32.45544,20.949596,24.175095,6.3474483,1.4166775,2.5234373,-34.217487,40.111046,35.600594,-14.353848,0.2373838,-8.479875
146,-78.03041076660156,-8.478476524353027,71.3290786743164,2.5502829476026325,3.783000354843162,179.06650261485544,-27.834345,8.959798,14.678139,55.1568,-29.872374,-2.026961,-21.460146,-5.476301,2.0441916,90.142624,-16.250254,14.62668,0.9957653,-2.2376807,7.680179,2.155202,37.17611,-32.702213,20.705744,24.852262,6.5181394,1.652654,3.0381343,-33.972992,39.86096,35.594982,-14.753624,0.29319775,-8.923177
147,-78.96656036376953,-8.487615585327148,71.25901794433594,2.683598356249364,4.132747477488425,178.9200305878392,-27.244635,8.938556,14.977799,55.237743,-30.82034,-2.191591,-23.46801,-7.2538767,0.97587603,91.343925,-16.630827,13.127207,0.44251233,-2.501303,7.2790833,1.3858222,37.704548,-32.710987,20.413559,25.649397,6.6716614,1.7564127,3.6113613,-33.7468,39.55948,35.51258,-15.159965,0.34008864,-9.26148
148,-79.89444732666016,-8.478394508361816,71.22752380371094,2.784440430159491,4.4312315546187,178.80631575615067,-26.558538,8.905469,15.218946,55.15328,-31.63218,-2.3734179,-25.334883,-8.793049,-0.003666236,92.142525,-17.101574,11.696675,-0.16033255,-2.714764,6.961139,0.76795065,38.132812,-32.447845,19.988129,26.35151,6.825493,1.7549869,4.1885667,-33.544712,39.2575,35.30907,-15.379598,0.36639953,-9.4153805
149,-80.81674194335938,-8.431432723999023,71.23633575439453,2.8393008548746215,4.676366411674888,178.7657149475945,-25.802738,8.860144,15.342452,54.925713,-32.30103,-2.5822458,-27.067461,-10.048575,-0.9368051,92.52192,-17.702969,10.3305,-0.86244726,-2.8732913,6.731256,0.34804145,38.457813,-31.81544,19.379639,27.02077,6.9819417,1.5460851,4.8097677,-33.370792,38.92368,34.901443,-15.396246,0.3807235,-9.342458
150,-81.72333526611328,-8.386005401611328,71.28475189208984,2.8472214561958173,4.893328125295272,178.77251825383198,-24.983818,8.820545,15.377051,54.544872,-32.845867,-2.8151956,-28.721869,-11.095996,-1.8703907,92.50435,-18.337692,9.018419,-1.639808,-2.9674342,6.5683355,0.1012174,38.67838,-30.853752,18.64259,27.731922,7.1256847,1.151557,5.465054,-33.228554,38.563705,34.341957,-15.277613,0.3848248,-9.091693
151,-82.60968017578125,-8.344355583190918,71.38090515136719,2.8314991558988196,5.067916668273908,178.75272191250895,-24.035658,8.799323,15.418412,53.968994,-33.26449,-3.0704963,-30.255934,-11.921419,-2.738086,92.102165,-18.95854,7.829885,-2.404274,-3.0202749,6.478169,-0.035729956,38.80271,-29.725008,17.843525,28.288593,7.254523,0.7866353,6.1409445,-33.116566,38.20985,33.716465,-15.052177,0.35646242,-8.720447
152,-83.48360443115234,-8.291743278503418,71.52141571044922,2.815265685966215,5.186079360334378,178.63209989362383,-22.892021,8.803718,15.564286,53.15722,-33.555397,-3.3438199,-31.631056,-12.506683,-3.4744701,91.328316,-19.517044,6.8294926,-3.055326,-3.056305,6.468465,-0.14258882,38.844265,-28.609238,17.052402,28.490042,7.3750277,0.66885185,6.754809,-33.03075,37.934105,33.16674,-14.694869,0.2724648,-8.286942
153,-84.3678970336914,-8.207659721374512,71.70287322998047,2.8173423936998865,5.226752174644957,178.373627706559,-21.471462,8.821084,15.873056,52.016727,-33.719612,-3.637093,-32.84601,-12.780597,-4.0112915,90.14459,-20.021534,6.1001368,-3.5520034,-3.1039984,6.5666895,-0.21941744,38.80107,-27.488365,16.26065,28.182802,7.488661,0.8967358,7.3328447,-32.961666,37.71277,32.679146,-14.136615,0.10178286,-7.7381787
154,-85.24885559082031,-8.11291217803955,71.92266845703125,2.820770127114844,5.20376871678724,178.02179308484148,-19.82853,8.844379,16.282425,50.591454,-33.755817,-3.9534059,-33.92048,-12.768238,-4.416216,88.54987,-20.480122,5.5838614,-3.9432187,-3.150674,6.75658,-0.2499715,38.667904,-26.307243,15.451733,27.501118,7.593376,1.3446614,7.891905,-32.90496,37.52597,32.214848,-13.402721,-0.1296081,-7.063714
155,-86.1230697631836,-8.015751838684082,72.17201232910156,2.795151691332557,5.154667376599077,177.62463857956996,-18.101667,8.890417,16.709679,49.051506,-33.659336,-4.2892237,-34.84288,-12.592096,-4.821987,86.6108,-20.856531,5.146259,-4.2731357,-3.154701,6.974104,-0.2577399,38.461006,-25.171513,14.662726,26.681953,7.6921234,1.8924489,8.408888,-32.862137,37.405563,31.826818,-12.671285,-0.3637163,-6.387347
156,-87.01488494873047,-7.90267276763916,72.44015502929688,2.70905713109573,5.116952767100881,177.23015707478385,-16.429802,8.983653,17.072748,47.56533,-33.42759,-4.643067,-35.59908,-12.371004,-5.3653655,84.39333,-21.117542,4.6562743,-4.583169,-3.0750976,7.1560082,-0.265324,38.207493,-24.189856,13.925401,25.95809,7.793901,2.419518,8.904172,-32.834755,37.352314,31.535131,-12.15017,-0.5500968,-5.8348703
157,-87.91529846191406,-7.780113220214844,72.71986389160156,2.5388652025926164,5.087862504351416,176.82642127125195,-14.795031,9.143358,17.36649,46.09511,-33.044865,-5.012366,-36.167538,-12.087349,-6.099941,81.850716,-21.22058,4.084071,-4.8541574,-2.886467,7.311801,-0.25621316,37.91691,-23.3711,13.205025,25.30291,7.9347625,2.9482625,9.355619,-32.82657,37.385853,31.375858,-11.850149,-0.6872864,-5.426685
158,-88.8230209350586,-7.649620056152344,72.99987030029297,2.3059957475860315,5.050910584632834,176.39535574961332,-13.145682,9.354949,17.631544,44.579178,-32.516205,-5.4035406,-36.549667,-11.676585,-6.9596004,78.95816,-21.199436,3.5110033,-5.0724587,-2.6172984,7.47014,-0.21674342,37.590034,-22.66124,12.480737,24.616652,8.097765,3.5254226,9.770879,-32.836296,37.491238,31.31702,-11.681132,-0.80294365,-5.1011443
159,-89.73004913330078,-7.514177322387695,73.28135681152344,2.0453295970506873,5.0237403708771895,175.97522395763633,-11.571164,9.600239,17.853165,43.15523,-31.870447,-5.824418,-36.76981,-11.183617,-7.8982058,75.813644,-21.13611,2.9777935,-5.2795606,-2.308758,7.6007595,-0.17203079,37.25073,-22.078459,11.796262,24.02121,8.220261,4.06517,10.178026,-32.859375,37.63355,31.306812,-11.6739855,-0.89574075,-4.8633356
160,-90.6504135131836,-7.354135036468506,73.55461883544922,1.792071557942926,5.0247533778441795,175.60445291006693,-10.157463,9.861572,18.014135,41.95971,-31.13689,-6.277043,-36.85766,-10.658754,-8.863828,72.51504,-21.10738,2.5209835,-5.507262,-2.004628,7.6759815,-0.13055187,36.936783,-21.641382,11.171576,23.639067,8.243401,4.480649,10.591637,-32.886253,37.781242,31.303465,-11.843667,-0.964315,-4.7174387
161,-91.5705795288086,-7.168529033660889,73.80776977539062,1.5458877040258945,5.06375765077613,175.28951554176814,-8.913345,10.140193,18.104404,40.990738,-30.289455,-6.7753215,-36.79052,-10.120035,-9.908149,68.972786,-21.118296,2.1136055,-5.763787,-1.7171991,7.6859474,-0.0787904,36.68297,-21.359713,10.576656,23.567768,8.153368,4.740992,11.016357,-32.909195,37.941624,31.303005,-12.343861,-0.99580747,-4.691464
162,-92.50279235839844,-6.975734233856201,74.04549407958984,1.2919919895298912,5.129256482689524,175.01087324751109,-7.7987666,10.445848,18.13041,40.191322,-29.32502,-7.305656,-36.556835,-9.519532,-11.037433,65.15135,-21.12293,1.7606778,-6.0296474,-1.4346544,7.652766,0.023382729,36.499386,-21.205215,9.964156,23.711227,7.9855185,4.893759,11.43577,-32.922626,38.12828,31.32798,-13.1139765,-0.99559754,-4.773746
163,-93.44105529785156,-6.762743949890137,74.25558471679688,1.0451963268121307,5.207689445512854,174.76890186293977,-6.8240542,10.772346,18.09764,39.618652,-28.312761,-7.8266406,-36.21166,-8.829487,-12.119201,61.23037,-21.114998,1.5357963,-6.30259,-1.1688325,7.5956926,0.16871193,36.381603,-21.148745,9.37017,23.89337,7.7556553,4.9678125,11.852151,-32.92116,38.30762,31.363216,-13.869902,-0.99004793,-4.909422
164,-94.3885269165039,-6.540746212005615,74.44519805908203,0.821903437576851,5.285460346489222,174.56461953616457,-5.997541,11.112743,18.014708,39.33114,-27.32477,-8.299408,-35.816513,-8.046452,-13.012666,57.397343,-21.086294,1.4936501,-6.5740414,-0.93169445,7.5348697,0.35066673,36.32651,-21.167528,8.825145,23.93806,7.4790335,4.992648,12.28019,-32.903748,38.435745,31.38223,-14.327113,-1.0080546,-5.0434594
165,-95.33842468261719,-6.307429313659668,74.6042251586914,0.6288679207113302,5.368135477923952,174.40829122197326,-5.3051476,11.456134,17.879848,39.30004,-26.373411,-8.752117,-35.379704,-7.1296873,-13.602708,53.53682,-20.994429,1.7302105,-6.8630004,-0.7201403,7.461534,0.56010014,36.310963,-21.260199,8.349911,23.812267,7.119686,4.9367733,12.725044,-32.873894,38.519703,31.396875,-14.391061,-1.0569237,-5.208071
166,-96.29827117919922,-6.075701713562012,74.73320007324219,0.46367385890863017,5.457986399286585,174.29943720594997,-4.738814,11.797975,17.689608,39.500874,-25.422573,-9.194028,-34.864594,-6.130259,-13.971194,49.57952,-20.839836,2.1630673,-7.152367,-0.5384212,7.3600483,0.7908245,36.336193,-21.466398,7.9403534,23.61062,6.685516,4.8018217,13.175643,-32.802574,38.57052,31.446648,-14.221602,-1.1235693,-5.4194884
167,-97.26460266113281,-5.839323043823242,74.8304214477539,0.32577472599075225,5.538216698951909,174.22189835010133,-4.3131256,12.143188,17.453648,39.991425,-24.468426,-9.561277,-34.285206,-5.1809998,-14.277236,45.81998,-20.688814,2.582101,-7.439097,-0.38467368,7.259467,1.0281365,36.401566,-21.749651,7.621293,23.350014,6.246536,4.6479945,13.61494,-32.711784,38.579765,31.488659,-13.9169035,-1.2035418,-5.5961123
168,-98.22997283935547,-5.603313446044922,74.8982925415039,0.2081494204518828,5.594455146080717,174.15644814458832,-4.048372,12.507089,17.183416,40.834393,-23.507137,-9.790658,-33.67059,-4.38915,-14.693073,42.578922,-20.62222,2.7956493,-7.7021017,-0.248239,7.1725006,1.2841996,36.487038,-22.088295,7.403853,23.072771,5.87441,4.5422077,14.022434,-32.607185,38.54129,31.509504,-13.568761,-1.2908419,-5.6595325
169,-99.19419860839844,-5.364606857299805,74.9388198852539,0.1003575968002278,5.64058584283889,174.10885016434824,-3.9781115,12.901628,16.873476,42.06751,-22.547873,-9.832526,-33.028885,-3.8162792,-15.361911,39.931515,-20.748549,2.795568,-7.941533,-0.10944649,7.081621,1.6232908,36.578945,-22.4785,7.2487454,22.776655,5.5675993,4.5240307,14.420531,-32.4902,38.43886,31.505386,-13.096756,-1.3853072,-5.5717616
170,-100.16055297851562,-5.137823104858398,74.9423599243164,0.0025835510778118,5.681811773458115,174.08272649854655,-4.0801053,13.319194,16.527655,43.63818,-21.580702,-9.742048,-32.363785,-3.3762746,-16.17009,37.742207,-21.013308,2.6861823,-8.175447,0.031369172,6.9911666,1.8292577,36.679996,-22.993078,7.3336983,22.381723,5.2927337,4.5508924,14.795326,-32.365173,38.29201,31.486338,-12.482963,-1.4869205,-5.3810287
171,-101.12625122070312,-4.916711807250977,74.91676330566406,-0.08334502281963023,5.692477126890965,174.05239965075012,-4.295848,13.757624,16.170021,45.479275,-20.574934,-9.609264,-31.71671,-2.960254,-16.901049,36.052208,-21.272465,2.4303226,-8.361282,0.16772749,6.9160037,2.0727212,36.777294,-23.547825,7.4928102,22.04159,5.07662,4.567371,15.138815,-32.236797,38.099148,31.441011,-11.921414,-1.590266,-5.133595
172,-102.09420013427734,-4.694994926452637,74.84919738769531,-0.15585621213863712,5.647002595540234,173.9919624661104,-4.5692344,14.219021,15.81954,47.529682,-19.504044,-9.517442,-31.137222,-2.4808078,-17.330456,34.91715,-21.38837,1.9666381,-8.483278,0.29321364,6.882557,2.334479,36.85942,-24.102568,7.728146,21.834421,4.9438972,4.5159183,15.409003,-32.11698,37.888622,31.366898,-11.600922,-1.6917919,-4.878902
173,-103.06398010253906,-4.486762523651123,74.74234008789062,-0.199262909725998,5.550964046941876,173.90159502687757,-4.914844,14.688847,15.474327,49.812607,-18.302782,-9.467778,-30.640114,-1.9341596,-17.357666,34.40519,-21.271202,1.2940444,-8.543382,0.4017377,6.8779287,2.602956,36.916885,-24.668577,8.060473,21.792654,4.9210553,4.3892307,15.612978,-32.013615,37.653374,31.267904,-11.59028,-1.7962214,-4.595247
174,-104.04310607910156,-4.283313274383545,74.60486602783203,-0.2263392528747206,5.415972944094575,173.79053901542207,-5.3538327,15.181438,15.121843,52.34581,-17.003883,-9.418687,-30.216745,-1.3794057,-17.120686,34.503357,-21.02328,0.4186258,-8.550602,0.5099415,6.893513,2.867268,36.945724,-25.26463,8.505106,21.868048,4.987092,4.21519,15.773153,-31.92979,37.383297,31.132113,-11.782933,-1.904932,-4.268467
175,-105.00875854492188,-4.078953742980957,74.46377563476562,-0.2748992099400212,5.223632337874856,173.64761627449954,-5.842094,15.742925,14.759818,55.071995,-15.734967,-9.3820505,-29.874292,-0.8247522,-16.75258,35.133194,-20.785158,-0.71188074,-8.497305,0.6429944,6.9614205,3.1830735,36.943436,-25.834328,8.992661,22.04712,5.0957804,3.9882066,15.854216,-31.874794,37.110634,30.948433,-12.0900345,-2.0107841,-3.959184
176,-105.97572326660156,-3.8763349056243896,74.28878784179688,-0.3807610094992438,4.954625579729501,173.46284259000882,-6.3315115,16.415794,14.385525,57.930088,-14.626907,-9.369847,-29.617727,-0.2751621,-16.382874,36.20809,-20.6945,-2.151402,-8.380581,0.8224709,7.122007,3.413332,36.914658,-26.396633,9.611523,22.232105,5.2011795,3.7053194,15.812804,-31.856321,36.87043,30.7054,-12.423542,-2.1055348,-3.7282043
177,-106.94203186035156,-3.6839749813079834,74.0728759765625,-0.5676508269521284,4.545370619338978,173.25918856997714,-6.774196,17.253967,13.968857,60.994663,-13.579495,-9.459875,-29.476881,0.28664252,-16.012463,37.923885,-20.71162,-4.24997,-8.221971,1.0697147,7.435964,3.5869253,36.867775,-26.936544,10.326891,22.46118,5.267402,3.308422,15.6513815,-31.885025,36.656433,30.369526,-12.845907,-2.1949756,-3.5439417
178,-107.89483642578125,-3.4860916137695312,73.8343276977539,-0.7995059235253127,4.018912984431433,173.0403846587386,-7.196256,18.209784,13.510591,64.262115,-12.570327,-9.61033,-29.417992,0.869007,-15.611935,40.197777,-20.721882,-6.853762,-8.019107,1.3577511,7.8688,3.7781684,36.803246,-27.443617,11.087829,22.771488,5.3258977,2.8183029,15.405759,-31.96333,36.446762,29.938175,-13.378118,-2.2809412,-3.3888123
179,-108.8424301147461,-3.294045925140381,73.55101013183594,-1.0334230442658636,3.4914597040157074,172.76368361023174,-7.67878,19.192623,13.054941,67.58616,-11.855448,-9.655953,-29.36778,1.451071,-15.231691,42.56865,-20.81504,-9.276106,-7.757044,1.6502273,8.31571,4.0240426,36.71048,-27.874287,11.879998,23.095592,5.42986,2.3434446,15.03405,-32.096676,36.299194,29.474607,-13.849013,-2.344572,-3.3467426
180,-109.79150390625,-3.094534397125244,73.22298431396484,-1.2288643830021266,3.084698114618324,172.37681587717617,-8.30235,20.117609,12.661195,70.81444,-11.685225,-9.434382,-29.271795,1.9975551,-14.86845,44.63109,-21.161242,-10.848672,-7.417013,1.9143634,8.662152,4.3994684,36.570496,-28.166424,12.665892,23.38516,5.6329975,1.9907717,14.500315,-32.290924,36.27246,29.03866,-14.093522,-2.3649507,-3.5013494
181,-110.72859954833984,-2.89652419090271,72.88678741455078,-1.3937519602141146,2.825765290795302,171.82553003481834,-9.084635,21.009165,12.362239,74.04063,-12.321282,-8.826287,-29.15689,2.4813294,-14.493425,46.417572,-21.95015,-11.219944,-6.9715896,2.1645057,8.890629,4.904471,36.358334,-28.29434,13.487047,23.527964,5.9563127,1.813749,13.708367,-32.568157,36.45561,28.6691,-13.9943905,-2.332853,-3.9355233
182,-111.6588134765625,-2.715987205505371,72.58229064941406,-1.549641458980132,2.6557380505496546,171.14536770799575,-9.990648,21.900154,12.108655,77.31428,-13.5770855,-7.949332,-29.053967,2.8990395,-14.089222,48.15368,-23.097502,-10.81892,-6.4464483,2.4256344,9.048561,5.5140033,36.065594,-28.278893,14.355393,23.593546,6.36761,1.7452474,12.705206,-32.932804,36.811665,28.30848,-13.65865,-2.2614167,-4.5837617
183,-112.58294677734375,-2.561589479446411,72.30213165283203,-1.683259224236098,2.5699517876635554,170.41807541641148,-11.035278,22.724754,11.8400755,80.435394,-15.035916,-6.9979434,-28.930552,3.2623348,-13.663447,49.751507,-24.394283,-10.151021,-5.8911505,2.6793485,9.122778,6.219065,35.707764,-28.157026,15.218111,23.785936,6.842481,1.7114605,11.646307,-33.352623,37.208267,27.90854,-13.249901,-2.166615,-5.3084216
184,-113.51505279541016,-2.3974852561950684,72.05463409423828,-1.7780939062327814,2.5619275875408563,169.7274993997272,-12.230581,23.421846,11.5151005,83.1943,-16.270046,-6.1584773,-28.74022,3.6216521,-13.22393,51.078075,-25.621351,-9.714034,-5.351022,2.893053,9.105803,6.9806647,35.319366,-27.986534,16.039974,24.290382,7.357855,1.6365625,10.683174,-33.77448,37.50044,27.446781,-12.94266,-2.0600657,-5.9738092
185,-114.45951843261719,-2.201481819152832,71.83441162109375,-1.8103234252344427,2.663496325083623,169.0816244470861,-13.622559,23.985378,11.164935,85.58582,-17.20165,-5.4059677,-28.491987,4.0027847,-12.766564,52.08289,-26.776695,-9.617583,-4.818329,3.0154052,8.962253,7.821644,34.924652,-27.76633,16.841887,25.20397,7.9550576,1.5031332,9.793481,-34.15868,37.699245,27.009977,-12.807283,-1.9462401,-6.5937943
186,-115.39814758300781,-1.966749906539917,71.65314483642578,-1.7957404311833989,2.867252796183367,168.4411190591737,-15.194595,24.439888,10.808138,87.71004,-18.042053,-4.662423,-28.202555,4.397008,-12.301151,52.830368,-27.956083,-9.60915,-4.265469,3.0542793,8.70956,8.7441225,34.532845,-27.486578,17.62818,26.3991,8.631275,1.342116,8.894864,-34.491646,37.86293,26.629122,-12.753583,-1.8190116,-7.2271457
187,-116.34268951416016,-1.7061874866485596,71.51419830322266,-1.7751575210196915,3.107130840087437,167.81925126311322,-16.865236,24.77577,10.398576,89.511185,-18.782154,-4.032875,-27.834723,4.8180957,-11.843757,53.348656,-29.077562,-9.640032,-3.6989648,3.0649803,8.41633,9.734083,34.16015,-27.17826,18.290667,27.75041,9.297775,1.1534745,8.060161,-34.763477,37.902523,26.207783,-12.71984,-1.6707816,-7.8049884
188,-117.28994750976562,-1.4428482055664062,71.41065979003906,-1.78881106126108,3.3159566463133405,167.22880276979885,-18.555435,24.984291,9.891712,90.93394,-19.411705,-3.6236372,-27.350742,5.267786,-11.404526,53.66814,-30.064753,-9.652021,-3.1188064,3.1063356,8.15363,10.724982,33.82759,-26.899473,18.756401,29.105934,9.867481,0.9457757,7.3751345,-34.970707,37.715103,25.63322,-12.647333,-1.4952568,-8.256487
189,-118.23028564453125,-1.1819530725479126,71.34606170654297,-1.8685792796493572,3.4864470591889734,166.68462974082516,-20.30423,25.065456,9.223676,91.97911,-19.911598,-3.5047667,-26.729744,5.763328,-11.005287,53.766487,-30.91254,-9.641958,-2.5152378,3.2147374,7.9265,11.753401,33.55417,-26.651524,18.941387,30.66042,10.350544,0.72039664,6.9004793,-35.102955,37.19882,24.85181,-12.608831,-1.2620053,-8.533936
190,-119.1372299194336,-0.9153879880905151,71.3039779663086,-1.9856955146209012,3.6492656129905647,166.17509838392067,-22.13062,25.018595,8.447928,92.669846,-20.285166,-3.6074517,-25.993748,6.287332,-10.622989,53.639805,-31.65753,-9.635522,-1.8808069,3.3461869,7.7056,12.831721,33.347942,-26.417673,18.893805,32.404125,10.781273,0.472788,6.5795584,-35.157043,36.41963,23.931007,-12.610652,-0.98353755,-8.683122
191,-120.01575469970703,-0.654038667678833,71.28815460205078,-2.0893541996718517,3.79443618822477,165.67286746437313,-23.924337,24.84191,7.693325,92.98472,-20.557974,-3.8313777,-25.166683,6.7861457,-10.200754,53.343433,-32.287018,-9.608801,-1.219993,3.4480884,7.506942,13.916206,33.20418,-26.203476,18.693184,33.90422,11.112313,0.2140527,6.3257914,-35.14662,35.529,22.93815,-12.489607,-0.72257274,-8.77603
192,-120.88536071777344,-0.40957480669021606,71.31281280517578,-2.1270768300593774,3.912830732419868,165.15183145332492,-25.571648,24.53796,7.0903983,92.89616,-20.753466,-4.0760155,-24.270538,7.205856,-9.685302,52.93238,-32.790134,-9.539494,-0.5421614,3.4697814,7.347083,14.947031,33.108185,-26.01908,18.437784,34.723312,11.300067,-0.037136465,6.064102,-35.097687,34.677105,21.927,-12.0820265,-0.5408956,-8.885789
193,-121.75239562988281,-0.19650016725063324,71.38776397705078,-2.089939145887983,4.006024515499948,164.59336795086423,-27.06604,24.068449,6.6511693,92.365814,-20.86265,-4.384034,-23.300503,7.5400076,-9.04705,52.386536,-33.156578,-9.417837,0.16432385,3.4134164,7.2331505,15.933226,33.043167,-25.853357,18.104456,34.596615,11.3140545,-0.2715496,5.8030806,-35.028522,33.848007,20.865164,-11.224115,-0.4719826,-9.020542
194,-122.63582611083984,0.021169466897845268,71.5216064453125,-2.004560290618139,4.078460129672148,164.01530749350806,-28.4484,23.455894,6.318404,91.41293,-20.880041,-4.785966,-22.245356,7.8088193,-8.319057,51.688866,-33.39777,-9.257033,0.8759072,3.3125823,7.1594553,16.915033,33.00342,-25.683315,17.653868,33.806923,11.188271,-0.49607128,5.5648537,-34.953518,33.009426,19.720577,-10.026118,-0.47486904,-9.15047
195,-123.51888275146484,0.24200798571109772,71.6996078491211,-1.8728054609222904,4.126757014207282,163.4463899418677,-29.682713,22.795452,6.117544,90.10036,-20.835337,-5.164445,-21.118752,8.001038,-7.5456724,50.89618,-33.53162,-9.069419,1.5933263,3.162222,7.121253,17.826687,32.983788,-25.558277,17.191713,32.761627,10.979418,-0.7139199,5.3697596,-34.864365,32.17731,18.532595,-8.780253,-0.5062257,-9.270373
196,-124.40333557128906,0.4629330635070801,71.91152954101562,-1.6957227207344803,4.147900360907667,162.91555362550315,-30.73599,22.174929,6.0750823,88.49057,-20.75625,-5.405627,-19.93848,8.10537,-6.772679,50.070232,-33.574047,-8.865491,2.25395,2.9543438,7.1083903,18.676117,32.99052,-25.466036,16.783289,31.852821,10.740026,-0.92608374,5.171847,-34.773888,31.480186,17.364202,-7.7451115,-0.51709634,-9.39889
197,-125.28338623046875,0.6941170692443848,72.14679718017578,-1.4549187146688864,4.1188544169123835,162.43061401836485,-31.573023,21.564787,6.2138667,86.551575,-20.665583,-5.4604464,-18.658873,8.1011095,-5.9921803,49.171703,-33.527954,-8.6411295,2.84238,2.6698556,7.1466393,19.46737,33.03395,-25.413324,16.43783,31.056028,10.428668,-1.1173649,4.9565716,-34.685143,30.952793,16.211386,-6.908369,-0.50027627,-9.550447
198,-126.16433715820312,0.9266489148139954,72.38961791992188,-1.15466699258554,4.050495722469905,161.97665821534244,-32.21335,20.925343,6.519417,84.26063,-20.54774,-5.4070826,-17.293112,7.9944715,-5.1898894,48.190342,-33.38759,-8.390487,3.3743217,2.3220153,7.233802,20.222322,33.109875,-25.382648,16.105076,30.205626,10.034541,-1.2966292,4.72501,-34.60528,30.559908,15.054723,-6.1418133,-0.47843626,-9.717822
199,-127.0654296875,1.1473445892333984,72.63967895507812,-0.8293073071574064,3.9908384603827702,161.54954172469715,-32.70959,20.320724,6.9652944,81.69508,-20.370705,-5.3266525,-15.946631,7.818649,-4.4016123,47.227608,-33.157345,-8.119597,3.8628576,1.945052,7.3193865,20.94172,33.20672,-25.349459,15.778126,29.485344,9.653289,-1.4958109,4.532243,-34.534374,30.24634,13.887835,-5.5734806,-0.44998795,-9.87425
200,-127.97953796386719,1.3676141500473022,72.89239501953125,-0.511847068026881,3.9868050548866094,161.14527357609336,-33.113712,19.811714,7.5299964,78.927,-20.09893,-5.300808,-14.722487,7.6092606,-3.6602948,46.38033,-32.840294,-7.833489,4.318574,1.572016,7.3525233,21.635307,33.305923,-25.284233,15.44412,29.085356,9.38006,-1.741556,4.3910823,-34.474033,29.977295,12.738827,-5.3115573,-0.41207692,-9.994002
201,-128.90611267089844,1.5887190103530884,73.14149475097656,-0.2005866416312488,4.0501743183047765,160.77409605627943,-33.40511,19.47504,8.323126,75.89624,-19.665298,-5.329362,-13.627716,7.362688,-2.972012,45.639854,-32.430992,-7.530989,4.736518,1.2035608,7.313877,22.295542,33.39833,-25.191626,15.111663,29.172483,9.244319,-2.0965421,4.3115706,-34.429405,29.75978,11.604205,-5.487213,-0.34681103,-10.085663
202,-129.83099365234375,1.8189383745193481,73.39180755615234,0.12102538382880434,4.156271310927676,160.43575915088846,-33.55412,19.216944,9.343008,72.5768,-19.100447,-5.4025216,-12.618738,7.064638,-2.3194757,44.965153,-31.929146,-7.207235,5.1080036,0.82343286,7.22878,22.915243,33.481617,-25.084131,14.796737,29.611303,9.189553,-2.5240676,4.3292093,-34.403004,29.59249,10.4355135,-6.0289207,-0.25942352,-10.155946
203,-130.7538299560547,2.0530295372009277,73.63603973388672,0.4373627552841698,4.2963071511182696,160.10940974156577,-33.608902,18.869379,10.380693,69.08664,-18.514671,-5.570448,-11.71941,6.7423983,-1.6997061,44.4045,-31.340574,-6.86414,5.445174,0.45431748,7.108882,23.456686,33.51638,-24.977985,14.550675,30.138035,9.186283,-2.8922977,4.360606,-34.395718,29.480993,9.3160925,-6.6782737,-0.18216938,-10.181735
204,-131.6749267578125,2.2860419750213623,73.86773681640625,0.7316697509097388,4.461094005783307,159.7730192392392,-33.630913,18.303545,11.199746,65.545975,-18.018444,-5.857349,-10.950547,6.4259696,-1.1084743,44.008095,-30.674095,-6.5056844,5.746029,0.08492365,6.9922276,24.015291,33.55439,-24.780592,14.266738,30.491282,9.198184,-3.0968702,4.5478954,-34.39406,29.329609,8.105955,-7.2861576,-0.15099189,-10.125453
205,-132.6069793701172,2.52343487739563,74.09097290039062,0.9943467658138401,4.66303417707386,159.421214825639,-33.630302,17.540758,11.7486315,61.856575,-17.64996,-6.2283044,-10.30861,6.1336756,-0.5448536,43.74618,-29.91144,-6.1390877,6.0293427,-0.25956446,6.846557,24.514797,33.545193,-24.55898,14.045741,30.666039,9.254141,-3.0746408,4.7815905,-34.396374,29.187431,6.9174376,-7.7922807,-0.18701605,-9.96106
206,-133.54042053222656,2.7716469764709473,74.29788208007812,1.231844294872788,4.900267385356031,159.06361073170314,-33.576557,16.668192,12.124,57.980537,-17.341686,-6.658557,-9.779057,5.8561273,-0.0071058795,43.600666,-29.051973,-5.762757,6.322174,-0.5828125,6.6906495,24.921495,33.50581,-24.339659,13.880483,30.782495,9.361028,-2.8968203,4.655671,-34.413303,29.173536,6.085085,-8.096867,-0.27395788,-9.707331
207,-134.47740173339844,3.0215604305267334,74.48944091796875,1.4472109780594282,5.141169845851981,158.69798347737427,-33.47623,15.698243,12.297207,54.13909,-17.056282,-7.1600056,-9.358609,5.589021,0.51156306,43.633484,-28.129826,-5.3665133,6.5286517,-0.887477,6.5312634,25.331308,33.395813,-24.025608,13.733891,30.767534,9.466083,-2.6221545,4.7847147,-34.44182,29.149809,5.092728,-8.462508,-0.37180895,-9.439039
208,-135.4140167236328,3.2670111656188965,74.65672302246094,1.6453629738591835,5.355347137402833,158.32269914269884,-33.3433,14.64327,12.23914,50.567158,-16.762934,-7.744249,-9.042075,5.3269973,1.0167973,43.90379,-27.178791,-4.9360776,6.716905,-1.1711628,6.401676,25.632267,33.246086,-23.729826,13.649498,30.500362,9.536158,-2.2803445,4.9416366,-34.473545,29.13516,4.183151,-8.705951,-0.4505431,-9.218391
209,-136.3493194580078,3.5172476768493652,74.79737091064453,1.833544342348195,5.5487513397932835,157.93239157190212,-33.21417,13.420995,11.783153,47.22791,-16.463259,-8.448914,-8.810085,5.0701904,1.5127035,44.380913,-26.227198,-4.4457955,6.886669,-1.4488837,6.302615,25.850883,33.05742,-23.422579,13.617492,29.891798,9.554705,-1.8205702,5.11571,-34.50841,29.151161,3.3585281,-8.826007,-0.4903425,-9.068106
210,-137.28884887695312,3.780484676361084,74.91202545166016,2.001057709703294,5.731240886900604,157.52658096041955,-33.065727,12.104942,10.978692,44.04218,-16.191721,-9.220732,-8.657902,4.838255,1.9954332,45.036583,-25.250113,-3.897909,7.0354714,-1.7113813,6.22217,25.997171,32.82922,-23.094185,13.63252,29.017042,9.538965,-1.2423867,5.305024,-34.546616,29.199406,2.6094198,-8.849188,-0.51182055,-8.950543
211,-138.22067260742188,4.037881851196289,74.99261474609375,2.133043145820205,5.880378647466073,157.11471881769245,-32.847103,10.902524,10.13476,41.20242,-15.9552,-9.962065,-8.605172,4.6488867,2.4572937,45.9334,-24.202085,-3.3152525,7.142514,-1.9329387,6.174756,26.061293,32.571728,-22.757513,13.666684,28.030521,9.4945,-0.6717369,5.5042324,-34.58505,29.259613,1.9437488,-8.755485,-0.54104114,-8.843093
212,-139.14552307128906,4.28828763961792,75.04197692871094,2.221708671899555,5.976110168725879,156.70982597292587,-32.53374,9.97786,9.57266,38.91156,-15.74865,-10.605368,-8.680069,4.511499,2.890246,47.141125,-23.037148,-2.7208605,7.18731,-2.0961103,6.1736674,26.033321,32.302994,-22.427814,13.689087,27.083158,9.43387,-0.23403604,5.7122946,-34.61831,29.306902,1.3671721,-8.525718,-0.6043453,-8.722736
213,-140.06784057617188,4.543931007385254,75.05633544921875,2.2609472688180934,6.018761137788047,156.31578918618195,-32.123466,9.341246,9.400775,37.2147,-15.552447,-11.376298,-8.922972,4.4455285,3.270609,48.727436,-21.715874,-2.2073736,7.1689305,-2.196137,6.2232566,25.925875,32.027763,-22.08842,13.688891,26.12487,9.361375,0.041472495,5.988739,-34.63735,29.305462,0.8332093,-8.134567,-0.7196598,-8.576618
214,-140.98036193847656,4.798428535461426,75.03440856933594,2.2644161634722595,6.0205545514337535,155.9307670258218,-31.662258,8.876004,9.452749,36.03985,-15.378928,-12.255321,-9.307553,4.444898,3.604672,50.62899,-20.267601,-1.709813,7.101017,-2.2534528,6.3158913,25.732452,31.750023,-21.744814,13.678894,25.100573,9.273996,0.21949613,6.2332077,-34.642597,29.295012,0.42493,-7.559897,-0.8694346,-8.417303
215,-141.89779663085938,5.057137489318848,74.96622467041016,2.2572744369362274,5.97976276691982,155.56026250884736,-31.208212,8.542639,9.64058,35.420715,-15.271057,-12.814792,-9.770353,4.4803057,3.939519,52.738564,-18.763948,-1.0237486,6.971375,-2.2927926,6.4373355,25.443253,31.489592,-21.42952,13.649254,24.154346,9.178749,0.3143523,6.424616,-34.638138,29.306936,0.16214389,-6.894658,-1.0256499,-8.261621
216,-142.82650756835938,5.33948278427124,74.84602355957031,2.26276063686961,5.894301986233799,155.20911352387526,-30.813488,8.309725,9.874258,35.384583,-15.27293,-12.622818,-10.249289,4.5261474,4.3312483,54.962914,-17.28912,0.04540333,6.770251,-2.3386676,6.5727715,25.060001,31.27484,-21.172234,13.578651,23.427711,9.082303,0.34047833,6.6498513,-34.62594,29.338707,-0.025160104,-6.279154,-1.1605778,-8.12724
217,-143.76431274414062,5.623331546783447,74.6773452758789,2.278719702894515,5.767283881912082,154.88171850110587,-30.513517,8.184913,10.182613,36.06825,-15.249332,-11.20941,-10.746326,4.629374,4.846836,57.336067,-15.82202,1.6041161,6.498543,-2.393472,6.7106566,24.600452,31.126362,-20.98205,13.440868,22.978832,8.978175,0.26086012,6.9411,-34.60479,29.378855,-0.14949635,-5.7046323,-1.2627537,-8.008629
218,-144.68338012695312,5.908410549163818,74.47978973388672,2.2902497849812917,5.595389850454108,154.57168872056968,-30.26772,8.181489,10.618575,37.406097,-15.189165,-8.929732,-11.27967,4.823572,5.4550757,59.905468,-14.3674555,3.5435815,6.180082,-2.444019,6.8696837,24.064335,31.05188,-20.851046,13.231498,22.717117,8.868747,0.081633516,7.137026,-34.578438,29.450804,-0.08291176,-5.0471687,-1.3503739,-7.8989587
219,-145.6104278564453,6.185096740722656,74.25502014160156,2.3000971332894884,5.367471743545337,154.26655212692873,-30.010798,8.269448,11.103424,39.11411,-15.341844,-6.586423,-11.821858,5.048212,6.0580335,62.61778,-13.040731,5.712208,5.827927,-2.4899619,7.0731483,23.422514,31.054781,-20.77987,12.976659,22.553698,8.771958,-0.11829982,7.354704,-34.56173,29.517405,0.045090564,-4.4252124,-1.4380342,-7.814668
220,-146.51809692382812,6.468993186950684,74.00928497314453,2.3188191721161697,5.076458961482893,153.95696141966005,-29.679827,8.401229,11.518032,40.909447,-16.001583,-4.9738584,-12.356074,5.212964,6.551841,65.421814,-11.945679,7.9429784,5.438544,-2.5483692,7.336082,22.661972,31.140108,-20.750767,12.698267,22.40253,8.705115,-0.2617497,7.576936,-34.529415,29.601164,0.23069005,-3.9251668,-1.5428195,-7.774353
221,-147.41043090820312,6.749322891235352,73.73138427734375,2.345818704493279,4.645321096335707,153.6206553405858,-29.225828,8.610739,11.808739,42.920334,-17.472301,-4.3687034,-12.787423,5.345016,7.0095634,68.37345,-10.973847,10.545308,5.0405483,-2.606328,7.747195,21.763208,31.310791,-20.779432,12.368101,22.289122,8.6458235,-0.35232717,7.701725,-34.51153,29.688843,0.5233711,-3.505402,-1.6759,-7.738994
222,-148.30096435546875,7.0250749588012695,73.39083862304688,2.3766303406045446,4.10487538086533,153.2691420925771,-28.685556,8.909103,12.036164,45.225925,-19.54497,-4.322532,-13.160759,5.478143,7.4429603,71.50539,-10.133533,13.478108,4.6364493,-2.6606417,8.277757,20.72619,31.569351,-20.878819,11.9824915,22.239143,8.59296,-0.42299366,7.527955,-34.51774,29.841234,1.1037425,-3.0173068,-1.8284863,-7.714936
223,-149.18577575683594,7.297390937805176,73.00698852539062,2.4163074328600374,3.613358744850297,152.94628635377924,-28.149424,9.225668,12.224965,47.50926,-21.779764,-4.545569,-13.70987,5.2943544,7.3314238,74.70096,-9.624515,15.000033,4.1893945,-2.7470465,8.751436,19.569979,31.911205,-21.040377,11.603031,22.173117,8.5964775,-0.43812472,7.5397935,-34.53071,29.972675,1.6223831,-2.6639752,-1.9827114,-7.781629
224,-150.08226013183594,7.575822830200195,72.6379623413086,2.341853213657876,3.324290877426809,152.67366598900537,-27.766912,9.615267,12.308533,49.55724,-23.782042,-4.7679043,-14.6302185,4.749336,6.5520196,77.75161,-9.549361,15.000033,3.724445,-2.7516298,9.006735,18.256939,32.339466,-21.30102,11.311599,22.004822,8.7083435,-0.35717452,7.731058,-34.539566,30.109217,2.140397,-2.4008012,-2.1262662,-8.013972
225,-150.98031616210938,7.86501932144165,72.30760192871094,2.548549254849559,3.3343674474051026,152.54559544285914,-27.471788,9.562844,12.553967,51.000046,-25.311113,-4.841587,-16.025164,3.7488208,5.9311376,80.9254,-10.334137,15.000033,3.18376,-3.0577357,8.973109,16.676931,32.879467,-21.741959,11.187445,21.652027,8.990284,-0.13742831,7.759178,-34.539516,30.365396,2.9671116,-2.023489,-2.2507806,-8.488215
226,-151.8732147216797,8.169557571411133,72.02420806884766,2.8808059741705807,3.5357983279515697,152.51650774761166,-27.267252,9.309396,12.84077,52.151993,-26.667156,-4.951024,-17.735262,2.4620643,5.409164,84.15713,-11.737134,15.000033,2.5751095,-3.5101178,8.732499,14.896737,33.525932,-22.319149,11.147341,21.170507,9.397616,0.192206,7.9065156,-34.515373,30.640917,3.8437896,-1.7075715,-2.3664894,-9.145835
227,-152.73321533203125,8.514873504638672,71.76338195800781,3.1228221977401964,3.826331988900822,152.49165843656777,-27.097494,9.157505,13.06444,53.164066,-27.95345,-5.117931,-19.615347,0.83593756,4.4113274,87.13137,-13.235187,13.56469,1.9841199,-3.8919048,8.393552,13.067282,34.23493,-22.933077,11.054572,20.687931,9.823707,0.5674928,8.15196,-34.469013,30.898329,4.758522,-1.5039126,-2.493769,-9.859734
228,-153.5794219970703,8.861089706420898,71.52941131591797,3.336228461438402,4.113840517599275,152.42481987405154,-26.794607,9.048185,13.327827,53.958572,-29.163687,-5.262924,-21.486403,-0.884644,3.306572,89.66068,-14.449187,11.7078285,1.4314752,-4.23376,8.067874,11.352459,34.942543,-23.45827,10.792899,20.350746,10.16255,0.9172696,8.514838,-34.412075,31.11334,5.65959,-1.4923959,-2.6477478,-10.505662
229,-154.44442749023438,9.220283508300781,71.33724975585938,3.530584536670859,4.4009976587853314,152.2945294386933,-26.331463,8.974128,13.674938,54.51158,-30.315779,-5.350425,-23.373415,-2.6323602,2.2469983,91.75082,-15.216227,10.043643,0.9169106,-4.506074,7.746316,9.720309,35.617706,-23.926413,10.444436,20.231924,10.388774,1.2485539,8.988302,-34.35863,31.321333,6.626835,-1.7753305,-2.852177,-11.128771
230,-155.32305908203125,9.56665325164795,71.17869567871094,3.723382548144006,4.727966992985758,152.13855521481787,-25.772787,8.891154,14.083249,54.822697,-31.385496,-5.403106,-25.335337,-4.512083,1.1530046,93.50907,-15.803475,8.257975,0.40613642,-4.7320294,7.3811197,8.091626,36.25517,-24.379795,10.075931,20.260946,10.5581,1.5879678,9.559533,-34.316715,31.537779,7.659302,-2.284786,-3.0842347,-11.7735615
231,-156.21974182128906,9.935262680053711,71.07313537597656,3.890920475372368,5.054846764175378,151.97986031780303,-25.126953,8.8010645,14.488818,54.933212,-32.347736,-5.4532847,-27.259956,-6.330791,0.074848264,94.85939,-16.379982,6.487239,-0.11426028,-4.9177113,7.027953,6.5645576,36.83204,-24.698038,9.558701,20.37692,10.686409,1.8909878,10.210077,-34.293037,31.728079,8.60538,-2.8323464,-3.292168,-12.314281
232,-157.09744262695312,10.307448387145996,70.9895248413086,4.0067048649001045,5.342430827960813,151.84030402656808,-24.398075,8.717099,14.823969,54.882416,-33.176548,-5.5425615,-29.040115,-7.8734474,-0.9456126,95.718124,-17.100922,4.889486,-0.66596055,-5.066328,6.7398257,5.249174,37.320316,-24.744593,8.766123,20.524101,10.787743,2.1123714,10.917895,-34.29621,31.868961,9.312157,-3.230611,-3.4299545,-12.624257
233,-157.9486083984375,10.684968948364258,70.9447250366211,4.0432317298960845,5.596193416736228,151.7468524168469,-23.614878,8.663778,15.032832,54.69751,-33.884243,-5.686073,-30.685925,-9.090929,-1.9692675,96.05908,-18.028847,3.4768763,-1.2838874,-5.1575994,6.509963,4.1904535,37.69384,-24.419426,7.6208215,20.836542,10.861251,2.1753674,11.720302,-34.339108,31.957449,9.709979,-3.4932785,-3.4495256,-12.64075
234,-158.8101043701172,11.089204788208008,70.95356750488281,4.016250750257912,5.831385781333701,151.6794088812203,-22.764883,8.643372,15.155849,54.355854,-34.477947,-5.8695254,-32.24351,-10.0667,-3.0266695,95.92407,-19.05873,2.203432,-1.9555557,-5.183724,6.3171024,3.3152797,37.94911,-23.807932,6.233147,21.303741,10.898179,2.1258564,12.6092415,-34.43157,32.018005,9.887596,-3.691522,-3.3896606,-12.441718
235,-159.6485137939453,11.515028953552246,71.01544189453125,3.9640609268129277,6.024946462634104,151.58841605669082,-21.790691,8.637508,15.270825,53.82352,-34.929287,-6.0948987,-33.669052,-10.780338,-4.0312247,95.32765,-20.077719,1.1418605,-2.6225615,-5.1718106,6.1897993,2.5509937,38.098545,-23.06182,4.7567744,21.64837,10.903121,2.1047554,13.514107,-34.570103,32.05561,9.91832,-3.7305963,-3.335984,-12.109165
236,-160.46377563476562,11.916996955871582,71.11343383789062,3.92661772226545,6.153982810962178,151.42462972569214,-20.634062,8.62066,15.457107,53.06581,-35.208595,-6.3604646,-34.924362,-11.219113,-4.8931065,94.28513,-20.971909,0.35480466,-3.2231174,-5.1567206,6.1529994,1.8331753,38.165882,-22.334091,3.3357933,21.591476,10.8837595,2.2529695,14.375869,-34.7417,32.067642,9.87247,-3.5260653,-3.3730319,-11.723379
237,-161.26058959960938,12.342132568359375,71.25809478759766,3.9232826840019457,6.1912708935167435,151.16464608044316,-19.217455,8.571775,15.755763,51.994064,-35.30653,-6.6853786,-36.007828,-11.294802,-5.527237,92.742836,-21.729132,-0.057314575,-3.719016,-5.1728325,6.251541,1.1585634,38.154804,-21.611124,1.9406434,20.951557,10.835029,2.6355062,15.2060375,-34.929806,32.009888,9.721092,-2.9062538,-3.5526943,-11.211002
238,-162.05825805664062,12.79094409942627,71.43903350830078,3.9320026452784145,6.156660718644763,150.8385539712951,-17.591122,8.500271,16.116747,50.647266,-35.236015,-7.06669,-36.94333,-11.0572195,-6.007211,90.70475,-22.394539,-0.17193483,-4.138772,-5.2064614,6.455567,0.5407585,38.061905,-20.849997,0.5235029,19.906885,10.752414,3.1714923,16.03046,-35.1275,31.890732,9.452295,-1.9669601,-3.8122888,-10.554191
239,-162.85643005371094,13.239089012145996,71.65472412109375,3.9303238498111734,6.0975662754940325,150.47593579893154,-15.886456,8.424533,16.484032,49.178288,-34.9998,-7.464796,-37.725327,-10.691529,-6.4818144,88.267136,-22.942802,-0.18717295,-4.521367,-5.2201924,6.6791306,-0.04406777,37.911034,-20.148785,-0.81249994,18.72007,10.643961,3.7791944,16.81608,-35.336613,31.783945,9.156694,-1.031921,-4.0708,-9.920163
