unveil-humanoid-operators/unveil-humanoid-operators.github.io/feature-analysis-animation/data/feature_matrix_instances/gender_ankle_rom_walking_A444_walk_ff_loop_360_R_slow_001__A444.csv
Frame,root_translateX,root_translateY,root_translateZ,root_rotateX,root_rotateY,root_rotateZ,left_hip_pitch_joint_dof,left_hip_roll_joint_dof,left_hip_yaw_joint_dof,left_knee_joint_dof,left_ankle_pitch_joint_dof,left_ankle_roll_joint_dof,right_hip_pitch_joint_dof,right_hip_roll_joint_dof,right_hip_yaw_joint_dof,right_knee_joint_dof,right_ankle_pitch_joint_dof,right_ankle_roll_joint_dof,waist_yaw_joint_dof,waist_roll_joint_dof,waist_pitch_joint_dof,left_shoulder_pitch_joint_dof,left_shoulder_roll_joint_dof,left_shoulder_yaw_joint_dof,left_elbow_joint_dof,left_wrist_roll_joint_dof,left_wrist_pitch_joint_dof,left_wrist_yaw_joint_dof,right_shoulder_pitch_joint_dof,right_shoulder_roll_joint_dof,right_shoulder_yaw_joint_dof,right_elbow_joint_dof,right_wrist_roll_joint_dof,right_wrist_pitch_joint_dof,right_wrist_yaw_joint_dof
0,0.7235308289527893,2.6867549419403076,77.30967712402344,-4.704607980282528,-8.90971611850574,-91.09093142151275,-21.429745,10.6737175,3.4404309,42.952393,-9.599228,-6.661455,10.015886,8.104061,-15.323445,6.670885,-9.783232,-1.6868669,-0.57545644,3.8288374,19.126677,3.3182669,11.456411,-27.73444,64.61939,-5.6767917,-2.0711806,10.453009,-2.213277,-15.800771,43.59144,63.526917,18.758072,-5.086754,-7.979995
1,0.7292621731758118,2.8660709857940674,77.32858276367188,-4.646478108901488,-8.882076598752748,-91.10914487255776,-21.249609,10.823644,3.5076323,44.62574,-10.181204,-6.4386578,9.842316,8.028727,-15.342332,6.6636195,-9.665926,-1.4758291,-0.58433586,3.7894964,18.985645,3.390883,11.460956,-27.800394,64.642166,-5.3838882,-2.0300095,10.467969,-2.1408372,-15.81639,43.597317,63.618816,18.914854,-5.0879025,-7.9626493
2,0.7304159998893738,3.033130645751953,77.34281158447266,-4.58845907005336,-8.854628640442993,-91.12915562348263,-21.072786,10.98514,3.5755997,46.299904,-10.7645645,-6.2084336,9.668721,7.951837,-15.35896,6.6570907,-9.550964,-1.2571168,-0.57888204,3.752028,18.842854,3.4615943,11.467787,-27.883554,64.66484,-5.0968695,-1.9886523,10.4859705,-2.05912,-15.832987,43.59588,63.710102,19.081808,-5.091221,-7.943991
3,0.7259807586669922,3.194312810897827,77.3595962524414,-4.534305004566333,-8.82857204562783,-91.14692989715968,-20.86841,11.14811,3.626823,47.945175,-11.341704,-5.9802175,9.498054,7.8789816,-15.376314,6.6497188,-9.435017,-1.0531652,-0.58218056,3.7146845,18.700787,3.5299292,11.475076,-27.961435,64.69114,-4.810552,-1.9466524,10.499661,-1.9847425,-15.844983,43.593178,63.799667,19.228338,-5.0906787,-7.929107
4,0.7261027097702026,3.34167218208313,77.37944030761719,-4.487613532385321,-8.805030883002095,-91.15937577404152,-20.605919,11.301573,3.645215,49.530586,-11.904499,-5.7648726,9.333331,7.816151,-15.396092,6.6436143,-9.318942,-0.88668436,-0.5861963,3.6812592,18.556202,3.5876622,11.490209,-28.061094,64.7249,-4.542588,-1.9014341,10.506264,-1.9012249,-15.860339,43.571693,63.854897,19.327337,-5.07879,-7.9269094
5,0.7239729762077332,3.4957311153411865,77.39283752441406,-4.451802706768038,-8.784835923960978,-91.16206389364339,-20.27899,11.444161,3.6302557,51.057796,-12.456282,-5.56169,9.177868,7.7654424,-15.42487,6.637341,-9.202439,-0.77029616,-0.61298156,3.6473973,18.410332,3.639478,11.509099,-28.161608,64.76886,-4.270681,-1.8527442,10.505042,-1.8231311,-15.870319,43.546154,63.887222,19.357676,-5.0483975,-7.9434824
6,0.7230122089385986,3.6543993949890137,77.39579772949219,-4.422161713477497,-8.767026783661585,-91.158351666474,-19.903364,11.5788555,3.5909631,52.54017,-12.999246,-5.367759,9.027875,7.723205,-15.459601,6.632509,-9.086064,-0.6899251,-0.637945,3.613177,18.263565,3.686392,11.545053,-28.287672,64.810776,-4.007714,-1.7999483,10.497954,-1.7358304,-15.880351,43.49804,63.890392,19.335644,-5.0048046,-7.9734573
7,0.7180975079536438,3.7971880435943604,77.41017150878906,-4.398377246670769,-8.750936215060483,-91.15449805284062,-19.48127,11.700057,3.5250208,53.96507,-13.522632,-5.190913,8.881097,7.688141,-15.489362,6.6273303,-8.967115,-0.6280272,-0.67294806,3.5800636,18.119007,3.735324,11.588765,-28.401505,64.84612,-3.7652504,-1.7464496,10.479257,-1.658128,-15.887015,43.448944,63.879715,19.298935,-4.961713,-8.004266
8,0.7245858907699585,3.9402503967285156,77.42269897460938,-4.381833120778012,-8.735555290297606,-91.156722054788,-19.015167,11.801708,3.4308376,55.3203,-14.015936,-5.039145,8.733739,7.6583486,-15.502905,6.622666,-8.844234,-0.5669434,-0.7142712,3.5530906,17.976871,3.7817273,11.629459,-28.48779,64.880455,-3.5623393,-1.6955088,10.445851,-1.5990744,-15.89206,43.40469,63.865414,19.283472,-4.9329705,-8.023716
9,0.7384812235832214,4.087098121643066,77.43820190429688,-4.371380144786814,-8.725947800841286,-91.17006267550492,-18.499819,11.8791685,3.303852,56.610905,-14.473572,-4.920606,8.589249,7.6345434,-15.488456,6.6177564,-8.7132,-0.5074692,-0.77167815,3.5370543,17.839655,3.8200448,11.646007,-28.522203,64.930374,-3.3931165,-1.6447353,10.386355,-1.5685668,-15.894604,43.379715,63.85256,19.304943,-4.9213934,-8.024288
10,0.7464266419410706,4.2288007736206055,77.4498291015625,-4.3661310432056935,-8.720565109814503,-91.18994587284098,-17.934963,11.933987,3.14896,57.838947,-14.902589,-4.830668,8.448292,7.6171484,-15.455072,6.6127367,-8.576639,-0.45711178,-0.7988476,3.5256443,17.711586,3.862476,11.698702,-28.578379,64.945885,-3.2751334,-1.5886964,10.301721,-1.5224972,-15.907,43.31269,63.791824,19.331022,-4.9189024,-8.0118685
11,0.7662041187286377,4.3716278076171875,77.45697021484375,-4.3672170988316745,-8.70968961928169,-91.20904916464558,-17.33343,11.97016,2.9777796,58.994576,-15.308224,-4.757522,8.302556,7.604016,-15.422474,6.607347,-8.440638,-0.40793574,-0.8471358,3.5182676,17.580471,3.9012468,11.742117,-28.605064,64.96739,-3.1864505,-1.5415249,10.221303,-1.4955215,-15.920579,43.261444,63.73294,19.359522,-4.924817,-8.000328
12,0.7817515134811401,4.5090413093566895,77.46741485595703,-4.372858985124554,-8.683204577540314,-91.2199951071005,-16.708347,11.992244,2.8011732,60.06782,-15.696913,-4.6890907,8.143418,7.5929766,-15.41031,6.601987,-8.312222,-0.35226503,-0.9073281,3.516067,17.436275,3.9263597,11.778757,-28.63218,65.00223,-3.1363945,-1.5123652,10.171871,-1.4736358,-15.932884,43.208416,63.678528,19.369843,-4.9373455,-8.00181
13,0.7962343096733093,4.650022983551025,77.46141052246094,-4.384061350008048,-8.640857451990218,-91.2194513706166,-16.06005,11.987582,2.6026134,61.061363,-16.06499,-4.6216307,7.9718695,7.583474,-15.4243965,6.5962477,-8.193224,-0.28441575,-0.97055566,3.51616,17.282618,3.9423227,11.82671,-28.676851,65.035515,-3.1503062,-1.5076766,10.1636,-1.4473932,-15.948314,43.13722,63.62105,19.355394,-4.9622726,-8.0163
14,0.822075366973877,4.791287422180176,77.45816040039062,-4.399757329671286,-8.587141107345927,-91.21179028533656,-15.382927,11.956939,2.3838263,61.97942,-16.41056,-4.5623045,7.79095,7.576545,-15.454184,6.590411,-8.080198,-0.20977141,-1.0343587,3.5174096,17.125114,3.957111,11.894385,-28.732822,65.053665,-3.2219965,-1.5197817,10.179467,-1.4174092,-15.968838,43.0487,63.549976,19.32432,-4.998152,-8.03789
15,0.8462501764297485,4.918885231018066,77.47144317626953,-4.418623164875762,-8.51954432214567,-91.20116733436936,-14.681755,11.92666,2.182091,62.81486,-16.743118,-4.5145493,7.5966554,7.571803,-15.49472,6.5839176,-7.9705033,-0.13712026,-1.1083337,3.5234401,16.954725,3.9620187,11.954796,-28.779003,65.080376,-3.3038719,-1.5375565,10.206643,-1.3984448,-15.98604,42.965034,63.4817,19.283026,-5.0332866,-8.069858
16,0.8747826218605042,5.060556411743164,77.46662902832031,-4.440196335644861,-8.435473764765769,-91.19180442831332,-13.962204,11.92375,2.033864,63.561512,-17.072548,-4.4812646,7.383954,7.5684886,-15.541126,6.577477,-7.862281,-0.07534112,-1.1846725,3.5348914,16.767546,3.9549642,12.007728,-28.817055,65.11352,-3.359575,-1.5474924,10.22865,-1.3878016,-16.001545,42.883923,63.40722,19.230463,-5.0549903,-8.113737
17,0.9067764282226562,5.197659969329834,77.46368408203125,-4.465606335137737,-8.329564406862023,-91.18398141113998,-13.226008,11.959047,1.9488459,64.21855,-17.398954,-4.4812536,7.146701,7.5692067,-15.601196,6.570714,-7.754025,-0.031916805,-1.2625265,3.5535789,16.558363,3.937272,12.055078,-28.843748,65.15249,-3.3762429,-1.5458401,10.2402315,-1.3834387,-16.017614,42.80448,63.316643,19.156614,-5.0552998,-8.177578
18,0.9377284049987793,5.328644275665283,77.46562194824219,-4.4951241087827505,-8.204719024808524,-91.17541224348484,-12.471312,12.017346,1.9072615,64.79071,-17.718748,-4.5062194,6.8885083,7.5725074,-15.674675,6.5648456,-7.647864,-0.00017889329,-1.3440512,3.5786645,16.331116,3.9096363,12.097761,-28.861843,65.19655,-3.3754978,-1.5396793,10.250199,-1.3842719,-16.03449,42.725014,63.21307,19.06399,-5.0421524,-8.25781
19,0.9657922387123108,5.458858489990234,77.46471405029297,-4.52540191531813,-8.070995799273236,-91.16724509248455,-11.697473,12.087997,1.9003114,65.27722,-18.033924,-4.5184426,6.6205525,7.574523,-15.7442255,6.557559,-7.5434613,0.031283315,-1.4204118,3.6059341,16.099823,3.8763528,12.148928,-28.88477,65.22698,-3.3728507,-1.5303903,10.261006,-1.3850213,-16.058332,42.638264,63.096012,18.972977,-5.0263505,-8.337491
20,0.9956197738647461,5.596485137939453,77.46021270751953,-4.552915806959917,-7.938097469018165,-91.16035218678351,-10.904036,12.158394,1.9202096,65.67752,-18.347221,-4.4802003,6.351654,7.5694423,-15.794427,6.5526977,-7.4440846,0.07546383,-1.494843,3.6313522,15.875054,3.8391562,12.207014,-28.913641,65.23859,-3.380029,-1.5207816,10.2771225,-1.3892124,-16.088985,42.552094,62.9777,18.90667,-5.0191636,-8.401166
21,1.0325053930282593,5.7351789474487305,77.45123291015625,-4.574047397521919,-7.806620026516276,-91.15581220430897,-10.090766,12.2342615,1.97665,66.00205,-18.667883,-4.3749895,6.083047,7.5561004,-15.812898,6.547677,-7.3532567,0.13739245,-1.5735544,3.6551812,15.651108,3.7891881,12.253584,-28.941736,65.25472,-3.3995826,-1.5128062,10.305341,-1.4101101,-16.116163,42.471115,62.88336,18.87477,-5.024456,-8.443741
22,1.0602169036865234,5.8613128662109375,77.44918060302734,-4.591251153287722,-7.6720265797824885,-91.1526963158002,-9.258549,12.317577,2.0697765,66.24813,-18.991776,-4.225064,5.809612,7.537019,-15.811066,6.544617,-7.2699785,0.20983092,-1.6562573,3.6798065,15.423001,3.7251034,12.287699,-28.967617,65.27917,-3.4238415,-1.5053315,10.342605,-1.4462426,-16.13739,42.39506,62.807896,18.864635,-5.0364714,-8.47444
23,1.1090660095214844,5.998094081878662,77.43804931640625,-4.610230653935757,-7.536911122307862,-91.14934376632026,-8.407236,12.391366,2.1768825,66.394295,-19.299515,-4.050835,5.5351477,7.516136,-15.807002,6.540804,-7.1828322,0.2854821,-1.731981,3.7070086,15.199089,3.6494029,12.324602,-29.004547,65.29429,-3.4477575,-1.4971553,10.381269,-1.4836302,-16.161758,42.317345,62.733906,18.86232,-5.0534153,-8.499579
24,1.1598294973373413,6.141531467437744,77.43792724609375,-4.631459773528154,-7.403702716499321,-91.14446643914515,-7.537197,12.43887,2.2755318,66.41925,-19.571676,-3.8725271,5.2627616,7.4964848,-15.819246,6.536658,-7.0826607,0.3572112,-1.8040037,3.7390819,14.982851,3.5613184,12.361953,-29.048908,65.30045,-3.4595304,-1.4888662,10.416184,-1.5235819,-16.187672,42.250385,62.66654,18.85754,-5.074407,-8.526995
25,1.2024548053741455,6.278301239013672,77.44693756103516,-4.658002948312946,-7.272733868080708,-91.13616926037353,-6.6523695,12.460198,2.357634,66.334595,-19.813623,-3.6664014,4.992745,7.481181,-15.853876,6.530563,-6.9629617,0.4191633,-1.8903581,3.7793927,14.771051,3.4552925,12.379125,-29.078932,65.31929,-3.4475496,-1.4826413,10.447474,-1.5880989,-16.19945,42.222343,62.640537,18.847744,-5.104175,-8.560443
26,1.2442773580551147,6.408976078033447,77.44768524169922,-4.690516561773816,-7.142676901718851,-91.12563997389822,-5.7522907,12.462274,2.4358916,66.14734,-20.032381,-3.4308279,4.723678,7.4673004,-15.900825,6.5229564,-6.830309,0.47639576,-1.9346837,3.8224316,14.5779295,3.3438916,12.443729,-29.163338,65.282684,-3.4459066,-1.471724,10.469092,-1.6095045,-16.24703,42.15375,62.55227,18.825901,-5.1366415,-8.589833
27,1.29607093334198,6.548449516296387,77.44471740722656,-4.720380081620953,-7.013894264149582,-91.11623188045505,-4.830362,12.439751,2.5189316,65.828964,-20.211586,-3.2183254,4.454571,7.4498353,-15.953691,6.51664,-6.692603,0.53855366,-1.9987446,3.8670206,14.38697,3.2279913,12.492255,-29.22626,65.24704,-3.427038,-1.4619378,10.49277,-1.6565666,-16.284775,42.120663,62.49452,18.820478,-5.1706696,-8.620208
28,1.357456088066101,6.695436477661133,77.44573211669922,-4.7476119482191335,-6.886458326539438,-91.11059915937791,-3.879677,12.387494,2.6151123,65.35004,-20.334656,-3.081594,4.186651,7.4245963,-16.00546,6.509788,-6.555799,0.6149425,-2.0636218,3.9108005,14.196417,3.1046937,12.531862,-29.293331,65.20983,-3.4020097,-1.4522194,10.522234,-1.7138171,-16.316101,42.09246,62.450527,18.836132,-5.1998034,-8.649495
29,1.4158869981765747,6.843234062194824,77.44715881347656,-4.767815663387845,-6.762216039894202,-91.10926706030097,-2.8907678,12.303047,2.7224536,64.70072,-20.42443,-3.0312479,3.9216187,7.391655,-16.059671,6.5028453,-6.417007,0.70401555,-2.1349022,3.9538798,14.005937,2.9719837,12.557868,-29.360605,65.18037,-3.3680298,-1.4431474,10.558654,-1.7922907,-16.336178,42.07636,62.435112,18.893606,-5.2254887,-8.675987
30,1.473449468612671,6.982301712036133,77.44983673095703,-4.786266046613377,-6.640422212191694,-91.11150575918838,-1.8698952,12.190303,2.8375053,63.89734,-20.481268,-3.0391698,3.6590738,7.3535886,-16.117556,6.4958773,-6.2747364,0.8018082,-2.1809416,3.9959955,13.822324,2.8353393,12.600092,-29.4677,65.121864,-3.3420103,-1.428054,10.600083,-1.846349,-16.369226,42.038647,62.38603,18.975021,-5.2447376,-8.703757
31,1.5319344997406006,7.11973237991333,77.4524154663086,-4.800132972623844,-6.517553110425915,-91.11587057215046,-0.83568853,12.052217,2.9632654,62.95156,-20.455915,-3.0999415,3.3942068,7.307484,-16.17109,6.4881616,-6.1354074,0.9148688,-2.2354379,4.0359106,13.640389,2.6961973,12.637154,-29.562412,65.053696,-3.303549,-1.4156816,10.641618,-1.9173236,-16.399723,42.01193,62.35469,19.05177,-5.2609315,-8.728446
32,1.5906915664672852,7.266966342926025,77.46302032470703,-4.8083762795123075,-6.390238920736825,-91.12203581599204,0.19318064,11.892632,3.103224,61.87684,-20.30093,-3.2089863,3.1213791,7.2508583,-16.211678,6.481485,-6.0066476,1.0495327,-2.2917564,4.072922,13.458638,2.5575364,12.672804,-29.645792,64.96494,-3.2545342,-1.406359,10.681631,-1.9940261,-16.432165,41.985764,62.326504,19.087597,-5.271057,-8.752004
33,1.6526566743850708,7.409477233886719,77.46300506591797,-4.803911094576847,-6.260950430517142,-91.13241014166438,1.2084528,11.684304,3.2348983,60.68077,-19.918032,-3.345258,2.8443925,7.1750593,-16.228918,6.4754605,-5.896783,1.2174696,-2.352764,4.098966,13.278392,2.420629,12.702863,-29.707954,64.85696,-3.186123,-1.3997436,10.715567,-2.0839398,-16.464891,41.96559,62.313164,19.063837,-5.27426,-8.772802
34,1.7276244163513184,7.562064170837402,77.46216583251953,-4.787571600282582,-6.130554419252248,-91.14649178988569,2.220848,11.434989,3.3603933,59.35628,-19.363297,-3.5176032,2.5644689,7.0840516,-16.229868,6.4687066,-5.7984023,1.4120548,-2.4242175,4.117516,13.096625,2.2793357,12.717003,-29.746473,64.74668,-3.0972412,-1.3961535,10.74782,-2.1983407,-16.482983,41.960182,62.334057,19.003162,-5.272924,-8.792374
35,1.8136498928070068,7.717516899108887,77.46327209472656,-4.77749657699824,-5.992765709175822,-91.15876761285968,3.2414448,11.198323,3.5220163,57.88986,-18.817709,-3.7667792,2.2730916,6.994249,-16.232283,6.4640384,-5.700863,1.6120473,-2.4968119,4.143439,12.91089,2.1345491,12.729604,-29.785238,64.622375,-3.0084286,-1.3961384,10.786093,-2.3140123,-16.501461,41.951393,62.35384,18.929195,-5.2673326,-8.813549
36,1.9000205993652344,7.87670373916626,77.46033477783203,-4.785967114579528,-5.841206251841005,-91.16396749399621,4.283098,11.02635,3.7653883,56.263836,-18.4609,-4.134132,1.9640859,6.9225936,-16.25415,6.4569883,-5.588305,1.7962037,-2.5539277,4.193547,12.724465,1.9876289,12.761902,-29.853352,64.46155,-2.940608,-1.3997196,10.836438,-2.3911846,-16.560358,41.91081,62.30497,18.866228,-5.2553496,-8.837016
37,1.9772244691848755,8.035351753234863,77.45289611816406,-4.824116075032131,-5.671909742226181,-91.16684606870358,5.386708,10.948669,4.1388073,54.425457,-18.339346,-4.7516856,1.6319396,6.880408,-16.297436,6.4482546,-5.4566555,1.9575217,-2.623909,4.2761893,12.521946,1.8349366,12.782734,-29.913034,64.30111,-2.8871684,-1.4147005,10.90787,-2.4819603,-16.607649,41.879665,62.269978,18.822693,-5.239556,-8.870444
38,2.069587230682373,8.201485633850098,77.44863891601562,-4.882244888842735,-5.489424873720077,-91.1673971779893,6.5377297,10.929022,4.61128,52.390034,-18.35012,-5.562574,1.2792397,6.857926,-16.355087,6.444838,-5.3176956,2.1076672,-2.702139,4.383887,12.30711,1.6764569,12.794669,-29.968952,64.13853,-2.8431897,-1.438421,10.994667,-2.5870566,-16.64023,41.85268,62.254883,18.783905,-5.2208853,-8.9100685
39,2.165708065032959,8.370015144348145,77.43486785888672,-4.948953484555049,-5.2994022453616925,-91.15464523189144,7.66372,10.916759,5.112531,50.247807,-18.445719,-6.322267,0.9153214,6.835769,-16.428728,6.444184,-5.1753263,2.254106,-2.7802052,4.4994555,12.090893,1.5083809,12.806085,-30.03356,63.965504,-2.79631,-1.4606607,11.089251,-2.678308,-16.68093,41.80786,62.21679,18.74505,-5.201749,-8.95077
40,2.251199960708618,8.540656089782715,77.42079162597656,-5.005308389059885,-5.107405889508113,-91.11764801537326,8.688573,10.866429,5.5656257,48.096916,-18.588327,-6.7821655,0.550291,6.7944827,-16.519121,6.4436326,-5.033845,2.4040475,-2.8730614,4.6064067,11.882091,1.3344915,12.815331,-30.092579,63.77902,-2.726994,-1.4737089,11.1830435,-2.761072,-16.72978,41.748077,62.15848,18.704264,-5.1896214,-8.984149
41,2.3390390872955322,8.716894149780273,77.40771484375,-5.05166557743947,-4.918073186352554,-91.05304103066551,9.590251,10.771367,5.9463224,45.93083,-18.820812,-6.7979827,0.19093736,6.7311187,-16.627201,6.443279,-4.8972497,2.5638077,-2.9956255,4.6990247,11.680332,1.1643542,12.819099,-30.12549,63.576668,-2.6180878,-1.4714619,11.276873,-2.8513062,-16.76663,41.684948,62.10181,18.66268,-5.1879826,-9.006196
42,2.432199001312256,8.89327335357666,77.39422607421875,-5.0925336134470465,-4.727516290760099,-90.96755222073713,10.406314,10.656214,6.2939916,43.721336,-19.157173,-6.5251126,-0.16895618,6.653292,-16.750795,6.4443965,-4.762501,2.728278,-3.1144993,4.79288,11.488588,0.9796762,12.819473,-30.16962,63.359592,-2.4900298,-1.459248,11.373655,-2.9047961,-16.838207,41.581078,61.982967,18.61468,-5.1882772,-9.017714
43,2.5332798957824707,9.06761360168457,77.38628387451172,-5.123727240330291,-4.529856231311158,-90.86556197667166,11.150646,10.526326,6.622455,41.53267,-19.518112,-6.16317,-0.53823996,6.55906,-16.88667,6.4458823,-4.6225367,2.8873963,-3.2526844,4.8777204,11.297932,0.7910103,12.8156595,-30.201866,63.136017,-2.35321,-1.445759,11.470628,-2.9687884,-16.904032,41.489075,61.873287,18.572638,-5.193737,-9.033878
44,2.632741928100586,9.255261421203613,77.37525939941406,-5.146589614619415,-4.318806558120769,-90.7507398708492,11.83861,10.387052,6.948882,39.42157,-19.819069,-5.9135876,-0.92679673,6.4462953,-17.032255,6.4474573,-4.4700837,3.0309186,-3.4040294,4.948155,11.103792,0.59073997,12.811605,-30.232626,62.920547,-2.2261543,-1.4438258,11.564334,-3.0553849,-16.952871,41.417446,61.79804,18.537256,-5.2047276,-9.066198
45,2.7277626991271973,9.448352813720703,77.3708267211914,-5.161633538715568,-4.076422428515369,-90.62720206515475,12.4717,10.24399,7.299726,37.35624,-20.033806,-5.8343716,-1.356249,6.320096,-17.185932,6.4496646,-4.301679,3.1500642,-3.5513337,5.0100513,10.890531,0.3666288,12.807624,-30.279099,62.713406,-2.1168072,-1.452831,11.6510105,-3.1453867,-17.006653,41.35923,61.730618,18.50891,-5.220673,-9.122681
46,2.830880880355835,9.644318580627441,77.37002563476562,-5.170330980399814,-3.8111272015954083,-90.49166507803498,13.044015,10.094296,7.6596804,35.314587,-20.204576,-5.816584,-1.8156456,6.1796675,-17.349169,6.4528303,-4.1210017,3.251996,-3.7067873,5.064014,10.665132,0.13159074,12.8047905,-30.327318,62.502968,-2.014046,-1.4681343,11.732802,-3.2447498,-17.059671,41.316612,61.674534,18.487425,-5.2422757,-9.195434
47,2.941216230392456,9.84762954711914,77.37193298339844,-5.167376656153141,-3.5562673065213444,-90.33689866433753,13.561701,9.9308605,7.9855094,33.36247,-20.344957,-5.8138475,-2.2637,6.0171843,-17.524939,6.45433,-3.9334562,3.350053,-3.8788612,5.1030364,10.461222,-0.11006626,12.80337,-30.373873,62.292454,-1.9142975,-1.4877491,11.817139,-3.3555393,-17.101046,41.274487,61.633785,18.468477,-5.265654,-9.270339
48,3.0568997859954834,10.061161994934082,77.37399291992188,-5.148353272304429,-3.344992639001719,-90.15570625798671,14.0303545,9.745461,8.2339945,31.566742,-20.468622,-5.780432,-2.661998,5.823953,-17.71602,6.4570475,-3.7464182,3.457551,-4.0660744,5.1238256,10.313552,-0.36069015,12.801497,-30.427559,62.085644,-1.8171792,-1.5093467,11.911885,-3.4608939,-17.138964,41.203453,61.58527,18.44524,-5.284449,-9.331777
49,3.172276258468628,10.285276412963867,77.37384033203125,-5.113897150037975,-3.199030763256547,-89.9396128290467,14.458355,9.538607,8.388042,29.954172,-20.584976,-5.711661,-2.9836113,5.6009517,-17.931402,6.4565783,-3.5600312,3.5825138,-4.2404933,5.1370387,10.25331,-0.6521756,12.79099,-30.531305,61.89455,-1.7358209,-1.5370219,12.029329,-3.5091395,-17.218552,41.034588,61.45519,18.398499,-5.291958,-9.367357
50,3.2842438220977783,10.523189544677734,77.38116455078125,-5.068787627494378,-3.096240413066604,-89.6943406586281,14.838706,9.314025,8.47286,28.487524,-20.683296,-5.630477,-3.2572784,5.351805,-18.167372,6.4573574,-3.3724566,3.7157116,-4.4569182,5.1306148,10.249528,-0.94243926,12.7792,-30.615026,61.703804,-1.6540805,-1.5722529,12.1600895,-3.583199,-17.27329,40.866142,61.35232,18.351046,-5.298707,-9.393194
51,3.397320508956909,10.766183853149414,77.39346313476562,-5.006192300837313,-3.0041829745935433,-89.4347454001793,15.15806,9.069183,8.509734,27.133423,-20.75232,-5.5336657,-3.5189166,5.076693,-18.407328,6.456923,-3.179627,3.8443458,-4.6586084,5.107709,10.260283,-1.2529603,12.76151,-30.725948,61.529995,-1.573883,-1.6040474,12.287838,-3.6338983,-17.332726,40.668896,61.235687,18.303997,-5.3025255,-9.4163475
52,3.5216801166534424,11.010242462158203,77.41255187988281,-4.922332561927236,-2.8903255128934986,-89.17520906697708,15.397287,8.802814,8.519019,25.871216,-20.780792,-5.4180946,-3.805901,4.776448,-18.634764,6.455335,-2.9776998,3.9551313,-4.8435926,5.063966,10.242964,-1.5662978,12.741646,-30.848377,61.371082,-1.4845043,-1.6252899,12.392713,-3.6710975,-17.388279,40.48692,61.12773,18.275253,-5.305533,-9.448811
53,3.637831926345825,11.259955406188965,77.43770599365234,-4.807622634404631,-2.7357529698240635,-88.91823608891346,15.533861,8.50135,8.502733,24.699997,-20.75397,-5.2737985,-4.1425567,4.4402056,-18.843554,6.4544272,-2.7716482,4.039599,-4.9965,4.9896727,10.174863,-1.8921299,12.71739,-30.999144,61.238754,-1.3873597,-1.6335883,12.467387,-3.6816068,-17.448313,40.317802,61.015804,18.265482,-5.3068433,-9.499142
54,3.746732711791992,11.504549980163574,77.46146392822266,-4.665563721131681,-2.5612954237175782,-88.65619576143413,15.583961,8.16852,8.45274,23.629698,-20.681326,-5.106957,-4.504908,4.073991,-19.043318,6.4517198,-2.5599263,4.1052837,-5.157629,4.8831234,10.082313,-2.2049117,12.700763,-31.139862,61.10726,-1.2788724,-1.6328423,12.519595,-3.7056398,-17.4857,40.18816,60.937107,18.276775,-5.308996,-9.561952
55,3.856600522994995,11.749090194702148,77.49117279052734,-4.513424768779856,-2.3939626758312387,-88.3884857457794,15.590473,7.8234825,8.373868,22.648039,-20.585548,-4.936047,-4.862508,3.695294,-19.23988,6.4467635,-2.339232,4.165225,-5.288796,4.768962,9.994144,-2.5352643,12.677352,-31.313797,60.992664,-1.1702728,-1.6258614,12.562987,-3.696821,-17.529095,40.02697,60.84479,18.29367,-5.3090696,-9.618687
56,3.975423812866211,12.009033203125,77.5171127319336,-4.369902477824725,-2.260553319984892,-88.11486055402916,15.594444,7.4904323,8.269488,21.744864,-20.490372,-4.778736,-5.1836653,3.3226888,-19.43985,6.442191,-2.104476,4.23203,-5.440545,4.66071,9.9440975,-2.8405688,12.658743,-31.454939,60.85505,-1.0471591,-1.6149228,12.602524,-3.6976256,-17.555748,39.879845,60.775192,18.327488,-5.3095975,-9.657235
57,4.100151538848877,12.271048545837402,77.53945922851562,-4.235660980157019,-2.169101309623245,-87.8257624688493,15.593058,7.1774936,8.130348,20.937748,-20.40021,-4.6344647,-5.4558673,2.9543955,-19.65258,6.433811,-1.8508356,4.320366,-5.607782,4.561922,9.942569,-3.1355076,12.642664,-31.581495,60.70367,-0.91969377,-1.5996442,12.640712,-3.695122,-17.571154,39.72081,60.71771,18.381989,-5.3075213,-9.672025
58,4.21655797958374,12.549805641174316,77.56002044677734,-4.105737324329678,-2.105045616404915,-87.52457632244003,15.566352,6.8744116,7.957186,20.230492,-20.305603,-4.493715,-5.6988373,2.582338,-19.87229,6.4261875,-1.583631,4.4194775,-5.748703,4.466954,9.9694195,-3.4517498,12.61808,-31.74193,60.5693,-0.7957861,-1.5792558,12.676656,-3.6591063,-17.585323,39.509304,60.65067,18.44172,-5.302403,-9.668758
59,4.331715106964111,12.819878578186035,77.58020782470703,-3.978027650690947,-2.061679789003428,-87.23087399574268,15.526937,6.5781755,7.766825,19.595621,-20.20946,-4.3591676,-5.9221287,2.21537,-20.082573,6.4172626,-1.3084186,4.5048876,-5.895389,4.373621,10.016003,-3.7412632,12.595867,-31.87335,60.41502,-0.6519066,-1.5553232,12.706734,-3.6303892,-17.592243,39.326115,60.599594,18.51181,-5.30009,-9.655337
60,4.441624641418457,13.101783752441406,77.597900390625,-3.8527046460632106,-2.0317538813627687,-86.96464824172334,15.488521,6.286013,7.576444,19.003138,-20.11362,-4.233582,-6.136936,1.862397,-20.266743,6.4086695,-1.0327977,4.552337,-6.006461,4.283336,10.06832,-4.0133333,12.571923,-32.0016,60.248775,-0.48493242,-1.5292672,12.733789,-3.5942862,-17.596075,39.154667,60.55438,18.570456,-5.3052297,-9.634872
61,4.558441638946533,13.374771118164062,77.61686706542969,-3.7339813597204485,-2.0195570366098567,-86.72519011667836,15.447788,6.003609,7.376047,18.46861,-20.022024,-4.1176143,-6.3378286,1.526473,-20.42655,6.400809,-0.75945175,4.540145,-6.084584,4.1985087,10.132164,-4.269822,12.544453,-32.125046,60.072002,-0.2804759,-1.4981133,12.750313,-3.5495672,-17.598274,38.9928,60.510437,18.618784,-5.320553,-9.602817
62,4.673194885253906,13.658501625061035,77.63689422607422,-3.619654608302307,-2.026494234345335,-86.5043738398006,15.397261,5.732015,7.160993,18.002882,-19.933372,-4.008775,-6.5217094,1.2019963,-20.569,6.392654,-0.4842084,4.4868736,-6.166427,4.115962,10.21511,-4.486732,12.526063,-32.208557,59.860565,-0.039882485,-1.461826,12.754781,-3.5148258,-17.597702,38.87386,60.475796,18.672821,-5.342813,-9.560374
63,4.7834858894348145,13.939526557922363,77.65572357177734,-3.505026049546012,-2.041704661463082,-86.30984199075749,15.343479,5.4603896,6.9557567,17.573393,-19.844875,-3.905337,-6.7020707,0.88407373,-20.685936,6.384674,-0.20711362,4.4288187,-6.190698,4.035535,10.295139,-4.704819,12.4976015,-32.315334,59.655872,0.19918296,-1.4275761,12.769116,-3.4596431,-17.596466,38.741283,60.446445,18.708733,-5.368204,-9.51493
64,4.892723083496094,14.216754913330078,77.66941833496094,-3.3841820605496853,-2.0538373826616874,-86.14916217198778,15.29355,5.1772265,6.784571,17.145174,-19.752367,-3.8060052,-6.891259,0.56826365,-20.76876,6.376681,0.0714437,4.4022136,-6.2095127,3.9527512,10.362879,-4.8636622,12.48029,-32.373455,59.403976,0.4264161,-1.4007894,12.803223,-3.4282103,-17.596012,38.686775,60.44838,18.744911,-5.392918,-9.480516
65,5.007399082183838,14.481290817260742,77.67826080322266,-3.255290421282504,-2.05098551401125,-86.02842864866953,15.239131,4.877644,6.651254,16.709759,-19.654654,-3.721206,-7.103252,0.25217855,-20.810545,6.3672833,0.35072246,4.4295216,-6.1747675,3.8667672,10.400769,-5.001195,12.46401,-32.432014,59.1352,0.62821406,-1.3836917,12.867221,-3.3949118,-17.59727,38.674522,60.475727,18.7625,-5.418989,-9.461127
66,5.129566192626953,14.752532958984375,77.68046569824219,-3.1199566664358085,-2.0417349718088644,-85.94161073535805,15.179551,4.568741,6.542943,16.2839,-19.552814,-3.648404,-7.328053,-0.061201975,-20.817703,6.357893,0.63073397,4.4875383,-6.093929,3.786083,10.417227,-5.1193366,12.436404,-32.495403,58.856186,0.8153314,-1.3716382,12.956253,-3.3562958,-17.602541,38.695503,60.524624,18.766647,-5.4473863,-9.450901
67,5.2493767738342285,15.02659797668457,77.67633819580078,-2.9833684835899006,-2.0458858791593713,-85.8794805891839,15.134497,4.256086,6.4610043,15.871738,-19.448303,-3.56729,-7.541753,-0.36783794,-20.799456,6.347496,0.9167023,4.5440226,-5.9970613,3.7050796,10.438148,-5.2123637,12.401408,-32.53029,58.575584,0.99499136,-1.3677992,13.055768,-3.3186965,-17.612326,38.744877,60.582115,18.770702,-5.472391,-9.4411125
68,5.368648529052734,15.297830581665039,77.67625427246094,-2.8474616862965774,-2.0834120588720704,-85.83296120434007,15.124166,3.944174,6.4067216,15.476658,-19.34143,-3.4575102,-7.722069,-0.66523427,-20.76579,6.3368993,1.2138034,4.566936,-5.8941116,3.6157563,10.491683,-5.2662854,12.380715,-32.53209,58.275192,1.1647742,-1.3703623,13.152623,-3.278297,-17.618708,38.784267,60.63134,18.773628,-5.4888897,-9.42134
69,5.491644382476807,15.563467025756836,77.6772232055664,-2.718737948679193,-2.1737218087328682,-85.80099079389187,15.173027,3.6379988,6.3856583,15.096799,-19.237398,-3.3115265,-7.8452473,-0.94806916,-20.71988,6.325744,1.5249573,4.5474277,-5.7964587,3.531158,10.590043,-5.294863,12.344269,-32.485485,57.986034,1.3342745,-1.3822479,13.249725,-3.2335901,-17.630056,38.823215,60.67075,18.794485,-5.493651,-9.389579
70,5.616412162780762,15.83498764038086,77.67627716064453,-2.5923009042543117,-2.301461347586369,-85.78839368937611,15.2599945,3.3332934,6.3954268,14.73909,-19.135664,-3.14123,-7.928095,-1.2196279,-20.656916,6.313015,1.8470165,4.503161,-5.687318,3.4492216,10.720985,-5.2997837,12.297774,-32.402157,57.69653,1.5028512,-1.40178,13.350138,-3.183116,-17.644531,38.857635,60.704422,18.817818,-5.4898667,-9.349191
71,5.735354900360107,16.102741241455078,77.67694854736328,-2.4583831512575487,-2.434053867752296,-85.79544102699515,15.349762,3.0184045,6.4267387,14.393895,-19.024069,-2.9553125,-8.010562,-1.4918172,-20.573036,6.3008485,2.1761858,4.442472,-5.5646615,3.3573306,10.849837,-5.281408,12.2483,-32.301136,57.420277,1.6531302,-1.4304024,13.455007,-3.1322336,-17.660221,38.904896,60.742283,18.834396,-5.4819055,-9.306986
72,5.857143402099609,16.364425659179688,77.68700408935547,-2.307201027665995,-2.5383068102214725,-85.82217728113758,15.40408,2.6832151,6.470252,14.05702,-18.891298,-2.7626753,-8.131086,-1.7748542,-20.464884,6.2885923,2.508799,4.3733783,-5.4274735,3.2434418,10.94364,-5.237702,12.204197,-32.1981,57.16624,1.7696532,-1.4693247,13.564585,-3.0857928,-17.67438,38.979397,60.79231,18.83137,-5.474031,-9.269469
73,5.978176116943359,16.634572982788086,77.69438934326172,-2.1345538076670234,-2.6010594263316436,-85.87392447559735,15.406635,2.3224268,6.529251,13.7332115,-18.734911,-2.5583572,-8.306948,-2.0715048,-20.327047,6.278295,2.8445694,4.2862997,-5.2926593,3.112417,10.985589,-5.170364,12.137838,-32.061356,56.95447,1.8639317,-1.5262463,13.681721,-3.0616736,-17.697088,39.12609,60.87259,18.814428,-5.466419,-9.244211
74,6.102158069610596,16.892576217651367,77.69924926757812,-1.9459290190462966,-2.640604487856222,-85.94847035482121,15.377684,1.9417012,6.606867,13.426762,-18.563108,-2.3404095,-8.51505,-2.3766959,-20.162687,6.2682996,3.1862147,4.181196,-5.1341968,2.9605074,10.998478,-5.075772,12.080055,-31.924484,56.752167,1.9264537,-1.5957203,13.804603,-3.038819,-17.717436,39.292725,60.965023,18.776838,-5.457988,-9.2245245
75,6.217371463775635,17.15077018737793,77.70272827148438,-1.7463011422090857,-2.6712647314075655,-86.03523120690458,15.336391,1.5487764,6.695067,13.128818,-18.379309,-2.1226826,-8.739786,-2.6894474,-19.980309,6.265888,3.527809,4.080449,-4.979864,2.7931814,10.995868,-4.958869,12.016802,-31.770052,56.583683,1.9659083,-1.669859,13.929734,-3.020871,-17.73962,39.484135,61.06127,18.733799,-5.4475627,-9.201043
76,6.333059787750244,17.410825729370117,77.70418548583984,-1.5380042366950681,-2.707947452734169,-86.12312685071846,15.302275,1.1502899,6.7844744,12.82844,-18.185884,-1.9183887,-8.960718,-3.007673,-19.788872,6.266756,3.8704147,4.0063515,-4.824781,2.6077034,10.993977,-4.8281884,11.961171,-31.626118,56.45449,1.973466,-1.7380216,14.05366,-2.989836,-17.757814,39.65754,61.139328,18.685068,-5.4346156,-9.162217
77,6.447526931762695,17.666826248168945,77.7001953125,-1.3235475169470843,-2.7562648109033105,-86.20345345981035,15.280526,0.7462542,6.8660426,12.525393,-17.983654,-1.7332717,-9.166198,-3.3343463,-19.593647,6.266222,4.207801,3.9703474,-4.681349,2.4039285,10.995728,-4.6820393,11.904156,-31.476799,56.37135,1.9525813,-1.8014027,14.191077,-2.9494743,-17.773806,39.832493,61.20341,18.646675,-5.421887,-9.099429
78,6.559138774871826,17.92388916015625,77.69658660888672,-1.0992610702238477,-2.807752240339958,-86.2837914193768,15.262839,0.3333262,6.9464993,12.220886,-17.769695,-1.5594215,-9.367583,-3.6692986,-19.388605,6.2660437,4.542259,3.9590447,-4.5399284,2.1813867,10.9929695,-4.519431,11.847938,-31.326153,56.327335,1.901791,-1.8639525,14.338793,-2.9019508,-17.786716,40.009827,61.26036,18.609121,-5.408936,-9.020339
79,6.6618218421936035,18.17682456970215,77.69452667236328,-0.8677999069226893,-2.8561554850685575,-86.37712650226051,15.245438,-0.08637965,7.039445,11.912353,-17.542156,-1.3899587,-9.577448,-4.00435,-19.165926,6.265322,4.8908634,3.9577858,-4.395898,1.9447147,10.984561,-4.3436184,11.797091,-31.18486,56.322987,1.8233279,-1.9217372,14.465937,-2.8474705,-17.795788,40.167515,61.303806,18.55066,-5.3900914,-8.939593
80,6.768742084503174,18.435331344604492,77.69185638427734,-0.6322834769982046,-2.8950635858477454,-86.49643398122342,15.227245,-0.5105152,7.15933,11.590782,-17.29618,-1.216818,-9.809059,-4.3318977,-18.917477,6.2660365,5.2687054,3.9519503,-4.24816,1.6993763,10.967902,-4.1592,11.751686,-31.059351,56.362648,1.7209041,-1.9711353,14.542279,-2.7889342,-17.801685,40.289352,61.328865,18.451506,-5.3596406,-8.872312
81,6.8846540451049805,18.694786071777344,77.69241333007812,-0.38675449999281075,-2.9086965755583467,-86.65355278902697,15.192177,-0.9449645,7.318321,11.256114,-17.026373,-1.037829,-10.239227,-4.7053785,-18.617863,6.612446,5.509134,3.9303207,-4.0912886,1.4427845,10.924623,-3.9603617,11.707557,-30.939898,56.446674,1.5930767,-2.0072515,14.554589,-2.723004,-17.805393,40.365627,61.331455,18.274021,-5.306466,-8.821911
82,6.994777202606201,18.94523811340332,77.69369506835938,-0.1317100631260759,-2.904805111783561,-86.83820768068512,15.14989,-1.3892605,7.5059686,10.902459,-16.731363,-0.8569657,-10.695856,-5.0709667,-18.286463,6.948899,5.787309,3.902472,-3.9154172,1.1703695,10.863823,-3.745658,11.679588,-30.845863,56.561096,1.4298196,-2.031757,14.520566,-2.6395218,-17.806248,40.39076,61.305042,18.036037,-5.2369766,-8.779475
83,7.093927383422852,19.19316864013672,77.69361877441406,0.1221993309301735,-2.9113865222708126,-87.03118122144349,15.117677,-1.8306736,7.7015424,10.552783,-16.433764,-0.6775634,-11.140236,-5.426647,-17.944874,7.273552,6.081207,3.8907006,-3.756656,0.89354515,10.818157,-3.5293777,11.651168,-30.76098,56.72791,1.252485,-2.0555706,14.456183,-2.5642612,-17.806278,40.409958,61.273056,17.813541,-5.1711044,-8.744249
84,7.199031829833984,19.453872680664062,77.69293975830078,0.3651851336078278,-2.957173703429385,-87.2133058055867,15.112583,-2.2557132,7.883818,10.230324,-16.155756,-0.5031236,-11.527246,-5.7687016,-17.615864,7.571343,6.37546,3.9166412,-3.620867,0.62027746,10.822648,-3.3301384,11.626166,-30.713303,56.95578,1.0636886,-2.0869913,14.378768,-2.4989004,-17.805857,40.4298,61.239597,17.672558,-5.128778,-8.714631
85,7.30733585357666,19.724645614624023,77.68749237060547,0.5982295519031385,-3.054836435574484,-87.3784351338482,15.14441,-2.6614192,8.045454,9.939636,-15.901295,-0.33400863,-11.846526,-6.0994296,-17.309036,7.8526306,6.6564207,3.9716349,-3.5173836,0.3527087,10.89061,-3.1569524,11.599008,-30.699753,57.261887,0.86350095,-2.1370573,14.288185,-2.4499738,-17.80483,40.45767,61.20979,17.660805,-5.1220093,-8.688934
86,7.410027980804443,19.996448516845703,77.68289184570312,0.823281139755789,-3.1877508470184424,-87.5374541014166,15.199631,-3.0543017,8.197933,9.672851,-15.660829,-0.16869484,-12.122003,-6.4200616,-17.01199,8.120446,6.9354906,4.0482993,-3.4309666,0.08512839,11.004577,-2.994683,11.579602,-30.721302,57.62364,0.6452348,-2.1957152,14.177027,-2.406801,-17.80366,40.476093,61.171944,17.728825,-5.1374254,-8.668962
87,7.50759220123291,20.27034568786621,77.67454528808594,1.0427773863169016,-3.341667875330692,-87.69692932762219,15.267412,-3.4354594,8.348257,9.4234295,-15.430697,-0.007737079,-12.363647,-6.7261033,-16.714872,8.359068,7.2287807,4.169294,-3.3588214,-0.18054476,11.147495,-2.8389409,11.566488,-30.768929,58.032555,0.41987526,-2.2491996,14.049461,-2.3731515,-17.802803,40.493225,61.132862,17.810284,-5.1584463,-8.655456
88,7.604313850402832,20.54216957092285,77.66732025146484,1.2534579955806653,-3.502062735642855,-87.86293323670596,15.335772,-3.804991,8.503357,9.189126,-15.209526,0.14815095,-12.573314,-7.009905,-16.408817,8.536476,7.5606375,4.3577056,-3.289856,-0.4388121,11.298936,-2.6859033,11.552025,-30.852919,58.48125,0.19137642,-2.2813523,13.915307,-2.3455746,-17.802296,40.512592,61.09873,17.840559,-5.16861,-8.651997
89,7.6989569664001465,20.815025329589844,77.65647888183594,1.4569188699256796,-3.67144799520216,-88.04263136748743,15.409189,-4.16499,8.667412,8.970848,-14.997387,0.29367483,-12.755082,-7.269614,-16.079031,8.66013,7.9313126,4.6134615,-3.2167327,-0.6930768,11.460733,-2.5424087,11.538625,-30.972738,58.982117,-0.038130127,-2.288817,13.777207,-2.3207896,-17.803152,40.53002,61.06718,17.798592,-5.1648016,-8.66079
90,7.798706531524658,21.089191436767578,77.64311981201172,1.6530160866510546,-3.856085077795291,-88.23050140582217,15.490236,-4.513335,8.835487,8.774556,-14.797514,0.43079606,-12.899347,-7.506823,-15.73628,8.728156,8.336599,4.9261384,-3.143939,-0.9400984,11.643074,-2.4057176,11.524061,-31.130297,59.529842,-0.269386,-2.277834,13.632575,-2.2996862,-17.806368,40.54048,61.03444,17.717764,-5.1542335,-8.680072
91,7.895071029663086,21.36927032470703,77.62919616699219,1.8480584351878087,-4.0455090193691765,-88.41441105430188,15.573662,-4.855736,9.00053,8.583031,-14.60336,0.5710394,-13.103946,-7.760779,-15.389204,8.941508,8.664797,5.3060083,-3.0875459,-1.1870998,11.83406,-2.2721636,11.511664,-31.311132,60.11199,-0.5057895,-2.255247,13.470282,-2.2861733,-17.811861,40.55485,61.002678,17.617548,-5.139811,-8.702907
92,7.988389492034912,21.64307975769043,77.62199401855469,2.0312808852734894,-4.229751502194317,-88.5847745683898,15.645277,-5.1822286,9.160052,8.400661,-14.419714,0.7236054,-13.309995,-8.011203,-15.070429,9.160246,8.98351,5.7596035,-3.0514731,-1.4282837,12.020698,-2.1430993,11.502091,-31.51905,60.721848,-0.75747657,-2.2277896,13.282079,-2.2795084,-17.819403,40.578403,60.975307,17.519611,-5.1249285,-8.723706
93,8.081006050109863,21.921579360961914,77.61528015136719,2.1931793024164747,-4.400301797173068,-88.74652204448712,15.685043,-5.4786534,9.324655,8.246669,-14.251174,0.89408374,-13.50078,-8.236546,-14.789406,9.312524,9.36762,6.2664194,-3.0270624,-1.6538879,12.199648,-2.027768,11.495144,-31.766262,61.370182,-1.0338459,-2.2005606,13.071139,-2.2831771,-17.829939,40.616146,60.95432,17.416008,-5.1061797,-8.746853
94,8.17089557647705,22.200267791748047,77.60684967041016,2.3396362761689935,-4.565103082771769,-88.90307708236662,15.703936,-5.750122,9.493891,8.119966,-14.098221,1.0761324,-13.674244,-8.439571,-14.532889,9.413101,9.799036,6.8300266,-3.0258977,-1.8682203,12.378978,-1.9150844,11.493295,-32.030476,62.04938,-1.3220512,-2.16873,12.837925,-2.3078187,-17.841463,40.67747,60.944942,17.30327,-5.083499,-8.772994
95,8.261110305786133,22.48115348815918,77.60005950927734,2.4756812080183592,-4.738180401742086,-89.04346368272017,15.737114,-6.009276,9.649299,7.986716,-13.955746,1.2600192,-13.796517,-8.633377,-14.301815,9.456835,10.204942,7.4912195,-3.0467484,-2.0770166,12.560276,-1.7948427,11.49527,-32.317223,62.739376,-1.6162716,-2.121274,12.577991,-2.3249114,-17.85362,40.731487,60.929096,17.197243,-5.064377,-8.792435
96,8.346260070800781,22.748699188232422,77.58589935302734,2.610246717400732,-4.933722217642337,-89.1565552545608,15.818688,-6.2679586,9.772087,7.8142643,-13.818384,1.4356723,-13.813124,-8.825326,-14.103177,9.394598,10.531985,8.289591,-3.0846713,-2.2846859,12.746403,-1.6602366,11.499917,-32.634453,63.425938,-1.9103914,-2.0515985,12.286106,-2.3068109,-17.868114,40.74182,60.88946,17.11291,-5.0565305,-8.794232
97,8.430806159973145,23.01241683959961,77.56436157226562,2.7511318041920885,-5.161826873032748,-89.2341678858232,15.96691,-6.5368342,9.850601,7.589759,-13.686854,1.601648,-13.69527,-9.025246,-13.92874,9.178594,10.7732725,9.291425,-3.1507647,-2.4989135,12.943909,-1.506968,11.506632,-32.982853,64.10915,-2.2048054,-1.9487514,11.945768,-2.2445595,-17.885033,40.692413,60.81654,17.055101,-5.0676823,-8.767223
98,8.50486946105957,23.271644592285156,77.5370101928711,2.8913867556878605,-5.411996050559355,-89.28416992300448,16.160471,-6.806565,9.896566,7.3309946,-13.562416,1.7627193,-13.477538,-9.228026,-13.784679,8.847151,10.9546,10.454651,-3.253288,-2.71603,13.146524,-1.3349606,11.514071,-33.34471,64.797264,-2.4963803,-1.820701,11.564656,-2.1646376,-17.900768,40.617867,60.73195,17.018831,-5.092267,-8.720473
99,8.582775115966797,23.524883270263672,77.50178527832031,3.0150789166692804,-5.6678217574935745,-89.32080577525743,16.280193,-7.0408754,9.938769,7.251277,-13.546843,1.9168651,-13.222018,-9.423546,-13.696888,8.523997,11.057977,11.655495,-3.3659818,-2.9191628,13.3445835,-1.1529375,11.52169,-33.717865,65.476555,-2.7773187,-1.6794854,11.172967,-2.0690324,-17.915485,40.526386,60.637966,16.991404,-5.1165075,-8.6715355
100,8.658758163452148,23.76803970336914,77.47190856933594,3.1102389811330653,-5.912669629528061,-89.35895129023197,16.362303,-7.230914,9.989146,7.2339015,-13.568468,2.0638115,-12.993243,-9.600168,-13.687633,8.338898,11.064325,12.770555,-3.481469,-3.0919795,13.527938,-0.9593276,11.527981,-34.07262,66.12819,-3.0303478,-1.538101,10.799251,-1.9774741,-17.927395,40.451,60.55032,16.966425,-5.126812,-8.638358
101,8.72851848602295,24.008703231811523,77.44966125488281,3.1788056170279653,-6.149781084448814,-89.39444305863262,16.441118,-7.3860593,10.039909,7.2139635,-13.592602,2.2037818,-12.753986,-9.754778,-13.774125,8.220448,11.030288,13.924619,-3.5803857,-3.2365215,13.700467,-0.76765037,11.534125,-34.445015,66.76332,-3.265425,-1.3945408,10.4484415,-1.8693851,-17.94224,40.364044,60.449467,16.940912,-5.1160855,-8.619632
102,8.787759780883789,24.24768829345703,77.42890930175781,3.221400791987121,-6.384117687627224,-89.4241332476818,16.519886,-7.5075226,10.087615,7.1946125,-13.625026,2.3352344,-12.497514,-9.886984,-13.966811,8.150263,10.946,15.000033,-3.685715,-3.356969,13.864229,-0.5667041,11.539047,-34.81686,67.381775,-3.480756,-1.2443132,10.105287,-1.7522664,-17.958912,40.277237,60.339478,16.9223,-5.0925746,-8.608176
103,8.83169937133789,24.485692977905273,77.41510009765625,3.187931893081859,-6.584819939256862,-89.54330157697994,16.561522,-7.5139656,10.233822,7.1999326,-13.685245,2.430538,-12.25057,-9.856471,-14.358059,8.071518,10.841525,15.000033,-3.7105274,-3.399316,14.00336,-0.35377207,11.5488205,-35.162518,67.967705,-3.668173,-1.0972703,9.770315,-1.6367137,-17.97257,40.20313,60.23411,16.902893,-5.064742,-8.61141
104,8.893838882446289,24.72157096862793,77.40957641601562,3.1254287397681932,-6.7685681516960825,-89.64623030233702,16.587574,-7.4921503,10.369747,7.1962204,-13.741727,2.5319467,-12.220968,-9.90133,-14.666329,8.561775,10.372033,15.000033,-3.7421696,-3.4023354,14.124678,-0.13927615,11.551118,-35.483986,68.515015,-3.827517,-0.95850706,9.448402,-1.5239502,-17.9827,40.127373,60.15186,16.865175,-5.0425634,-8.634077
105,8.951706886291504,24.964460372924805,77.41338348388672,3.0491516913326135,-6.941216577778584,-89.70646357692824,16.602936,-7.462905,10.468941,7.17869,-13.787103,2.6481323,-12.4678755,-10.086255,-14.848197,9.791223,9.393704,15.000033,-3.784755,-3.377005,14.232281,0.067223884,11.549996,-35.82293,69.02847,-3.9608712,-0.8281444,9.131842,-1.3980072,-17.994984,40.026424,60.08256,16.789791,-5.022441,-8.687867
106,9.018379211425781,25.19831085205078,77.41697692871094,2.9689972093217976,-7.107428334583855,-89.72681493407384,16.61495,-7.4367976,10.531715,7.148165,-13.824992,2.776435,-12.879724,-10.386517,-14.955919,11.517073,8.048181,15.000033,-3.842969,-3.3381732,14.328625,0.26632515,11.541868,-36.172012,69.51767,-4.0688972,-0.7038957,8.821479,-1.2569282,-18.013195,39.90627,60.016808,16.688824,-5.000618,-8.765566
107,9.080650329589844,25.42850112915039,77.42384338378906,2.8570622067033953,-7.251207652134338,-89.78366420356303,16.602394,-7.3603325,10.635337,7.128171,-13.8776655,2.8915672,-13.292982,-10.637542,-15.135058,13.283681,6.6466355,14.444439,-3.878582,-3.2658827,14.404641,0.48059022,11.532083,-36.455864,69.95959,-4.1527586,-0.5895669,8.531524,-1.1210029,-18.02705,39.80512,59.964237,16.595436,-4.9861035,-8.8461075
108,9.12611198425293,25.65770149230957,77.43283081054688,2.716639535201454,-7.375821376904153,-89.8662458836883,16.568125,-7.237765,10.76703,7.1180325,-13.9444895,2.9944856,-13.639207,-10.821209,-15.428503,14.943399,5.33179,13.402351,-3.880699,-3.166407,14.466709,0.7012525,11.523465,-36.677498,70.34786,-4.239142,-0.4870463,8.279417,-0.9705777,-18.035559,39.68788,59.911617,16.524797,-4.988778,-8.904584
109,9.166119575500488,25.889925003051758,77.44013214111328,2.5611421682352478,-7.4874294515252355,-89.94013791643972,16.521803,-7.091409,10.890886,7.1052985,-14.018197,3.1000297,-13.944663,-11.012843,-15.770637,16.60808,4.024426,12.302063,-3.8936098,-3.0512946,14.517746,0.940596,11.518453,-36.813187,70.67004,-4.344904,-0.3985398,8.066501,-0.8082768,-18.036545,39.55419,59.860634,16.481897,-5.021913,-8.934455
110,9.199544906616211,26.120826721191406,77.450927734375,2.389530491112562,-7.5863473598044795,-90.0075355605745,16.462364,-6.923478,11.010009,7.0937433,-14.097195,3.20703,-14.235896,-11.223233,-16.14113,18.339268,2.6539621,11.05094,-3.9098938,-2.9213839,14.556657,1.1943208,11.516765,-36.88551,70.93387,-4.458669,-0.3220544,7.8850236,-0.6350688,-18.03115,39.406998,59.81324,16.45605,-5.076888,-8.94859
111,9.229039192199707,26.34679412841797,77.46427917480469,2.2149297825155716,-7.678325821000777,-90.06564818304477,16.39557,-6.747603,11.119948,7.081997,-14.181437,3.31144,-14.478396,-11.44005,-16.526672,20.05644,1.3090318,9.816933,-3.9179423,-2.7873545,14.588868,1.4491128,11.518396,-36.920357,71.1481,-4.5491934,-0.2536523,7.7367787,-0.4545397,-18.020277,39.253643,59.77461,16.443466,-5.131623,-8.951315
112,9.251139640808105,26.56741714477539,77.47537231445312,2.044039014579069,-7.768411742726477,-90.11251720450532,16.325586,-6.5745206,11.217937,7.071807,-14.271532,3.4086237,-14.643653,-11.648903,-16.92119,21.689047,0.0837584,8.764715,-3.9285285,-2.6583655,14.618001,1.705064,11.522596,-36.91747,71.312256,-4.580371,-0.18990083,7.6238217,-0.28418043,-18.007845,39.132484,59.75472,16.45048,-5.163473,-8.94863
113,9.271578788757324,26.785627365112305,77.48572540283203,1.8669782442743428,-7.846474702173878,-90.15169646371577,16.239983,-6.389698,11.311599,7.0652747,-14.379631,3.497104,-14.729674,-11.845495,-17.381916,23.227255,-0.9740541,7.943476,-3.9230027,-2.5213466,14.636661,1.9539179,11.528668,-36.880943,71.428764,-4.5269933,-0.1252017,7.5508285,-0.11782497,-17.994991,39.034954,59.751087,16.482819,-5.1645093,-8.936194
114,9.295500755310059,27.00536346435547,77.49215698242188,1.6776638030569915,-7.912571072718731,-90.18349067883172,16.139572,-6.1882086,11.400921,7.0622516,-14.502477,3.5784926,-14.754913,-12.04092,-17.899878,24.723171,-1.9251128,7.25538,-3.9059186,-2.3738558,14.647923,2.2030692,11.542242,-36.800186,71.48852,-4.409166,-0.062987514,7.514514,0.04290343,-17.974459,38.946133,59.76467,16.533487,-5.1471815,-8.911659
115,9.317234992980957,27.22584342956543,77.49773406982422,1.4968609146014336,-7.987318693962216,-90.20557874643507,16.047964,-5.994073,11.475094,7.0591726,-14.614997,3.6528473,-14.730355,-12.2380905,-18.370583,26.207321,-2.8330803,6.644698,-3.8972862,-2.2360854,14.666886,2.4573343,11.562876,-36.689667,71.49637,-4.273193,-0.012980686,7.505235,0.19327438,-17.948591,38.881706,59.796772,16.588772,-5.121489,-8.88658
116,9.333341598510742,27.452415466308594,77.50039672851562,1.3431526033457917,-8.09110459921506,-90.21488463130532,15.990443,-5.832491,11.522766,7.0518913,-14.69279,3.720485,-14.668469,-12.435003,-18.687683,27.70339,-3.7567034,6.06038,-3.901248,-2.1308753,14.713793,2.7137144,11.59715,-36.573814,71.4562,-4.162518,0.015735064,7.51194,0.3338742,-17.91224,38.826874,59.84811,16.62111,-5.097285,-8.869487
117,9.33676528930664,27.679899215698242,77.49872589111328,1.221241400736878,-8.241546462417425,-90.20830878699718,15.979498,-5.7065306,11.536282,7.056652,-14.743143,3.7863622,-14.560294,-12.627071,-18.838945,29.225555,-4.720709,5.4916434,-3.909674,-2.0508842,14.806972,2.9544728,11.623956,-36.468414,71.3843,-4.085765,0.01903833,7.538262,0.4889913,-17.88556,38.75923,59.892593,16.607296,-5.0744557,-8.869247
118,9.348823547363281,27.90052032470703,77.50166320800781,1.1189297773048699,-8.423201219927337,-90.18833964038586,16.002337,-5.6037126,11.523598,7.063192,-14.771081,3.848502,-14.409527,-12.810155,-18.8774,30.761435,-5.6834345,4.9660745,-3.922963,-1.9920048,14.9335575,3.1928194,11.65745,-36.351177,71.26201,-4.016243,0.003493054,7.586214,0.6436151,-17.85575,38.68791,59.9467,16.561588,-5.049466,-8.87802
119,9.361604690551758,28.11334800720215,77.50627899169922,1.0389676247234356,-8.60787950882848,-90.16071355653497,16.028744,-5.524792,11.498139,7.06721,-14.769156,3.8981066,-14.245233,-12.977623,-18.795794,32.283524,-6.6040816,4.494554,-3.9401925,-1.9667375,15.063263,3.441305,11.725767,-36.233604,71.0819,-3.9659755,-0.027003808,7.647867,0.77970123,-17.801958,38.63338,60.02945,16.52368,-5.0233426,-8.880907
120,9.377511978149414,28.321456909179688,77.50961303710938,0.9831500198750662,-8.767299197086642,-90.13084261581173,16.02529,-5.4692287,11.473609,7.070639,-14.732902,3.9266276,-14.097078,-13.121092,-18.588554,33.766468,-7.4416537,4.087922,-3.9427977,-1.9565481,15.158986,3.6494663,11.774036,-36.155872,70.9331,-3.9501107,-0.0759087,7.725987,0.93149996,-17.764503,38.594887,60.099472,16.537598,-4.9903812,-8.860991
121,9.383305549621582,28.52562713623047,77.51373291015625,0.9562434138699597,-8.904082081067187,-90.10065321301272,15.996688,-5.440141,11.452349,7.0691886,-14.650601,3.9248412,-13.96593,-13.231164,-18.243185,35.212498,-8.182095,3.75846,-3.9365916,-1.9840078,15.224844,3.8481321,11.845703,-36.111187,70.768295,-3.991949,-0.14904104,7.824169,1.0727482,-17.7121,38.586433,60.18433,16.629673,-4.952447,-8.806445
122,9.390852928161621,28.729087829589844,77.51862335205078,0.9556069934148521,-9.029842443583433,-90.06748054209561,15.9553175,-5.435922,11.427724,7.0653887,-14.529186,3.899745,-13.841571,-13.305051,-17.772873,36.634457,-8.8444395,3.500248,-3.9212523,-2.0429907,15.273835,4.036318,11.935225,-36.09496,70.582985,-4.080218,-0.24453141,7.9421453,1.2091571,-17.648382,38.598328,60.28099,16.773264,-4.910118,-8.72884
123,9.392072677612305,28.935443878173828,77.53252410888672,0.9738928447890675,-9.129324753777837,-90.03079992735672,15.88514,-5.4516625,11.399491,7.059325,-14.386239,3.8671632,-13.737031,-13.347735,-17.209133,38.024414,-9.438516,3.2962725,-3.8998568,-2.117684,15.293591,4.202787,12.025303,-36.094444,70.399315,-4.163921,-0.3441936,8.061706,1.3455052,-17.584074,38.62336,60.386894,16.921337,-4.864522,-8.647218
124,9.385377883911133,29.13567352294922,77.54443359375,1.0037800026143513,-9.18761571484643,-89.98996814765829,15.769236,-5.482247,11.367506,7.053809,-14.241235,3.8428879,-13.666117,-13.367044,-16.581642,39.37704,-9.976388,3.128774,-3.8760018,-2.1956162,15.27237,4.3426065,12.107899,-36.096096,70.2297,-4.1926336,-0.42899406,8.163854,1.4808495,-17.523098,38.65852,60.506203,17.030336,-4.8180313,-8.581144
125,9.370731353759766,29.3310604095459,77.55945587158203,1.048405910786083,-9.190360127355515,-89.94477548982894,15.592047,-5.5293803,11.330087,7.0469866,-14.091588,3.8324668,-13.656512,-13.353344,-15.866701,40.7006,-10.435874,2.9902256,-3.8499913,-2.280787,15.196719,4.4590487,12.194027,-36.106937,70.06498,-4.14534,-0.49694282,8.241171,1.6081357,-17.456335,38.707005,60.655445,17.07207,-4.76866,-8.544528
126,9.364450454711914,29.530071258544922,77.56784057617188,1.1082961665418452,-9.149292534533094,-89.89577321600498,15.365845,-5.5932703,11.28826,7.039426,-13.930456,3.82693,-13.693067,-13.3009615,-15.062399,41.998158,-10.819542,2.8944285,-3.8198655,-2.3781292,15.076153,4.5517697,12.282358,-36.130505,69.90522,-4.0511966,-0.5571902,8.304908,1.7303659,-17.38327,38.769493,60.827175,17.075811,-4.7161517,-8.523941
127,9.359057426452637,29.7373046875,77.57831573486328,1.1785479272117716,-9.087520438133593,-89.84326498970994,15.116893,-5.6658664,11.245533,7.031606,-13.766985,3.8200665,-13.724346,-13.227529,-14.229833,43.252525,-11.176405,2.852983,-3.7894356,-2.4813793,14.933781,4.6277122,12.36719,-36.145664,69.75059,-3.9383802,-0.6051691,8.361922,1.8463612,-17.308416,38.840782,61.01119,17.079407,-4.667653,-8.4994545
128,9.35277271270752,29.934879302978516,77.58193969726562,1.2511410505072147,-9.027836843224526,-89.78699651877587,14.873255,-5.7406454,11.205285,7.0235043,-13.6114,3.8052442,-13.699826,-13.153368,-13.4296465,44.44659,-11.55646,2.8750556,-3.7611134,-2.5781803,14.792976,4.686232,12.431379,-36.13279,69.61203,-3.8333187,-0.63737494,8.41989,1.9656621,-17.247606,38.912476,61.181717,17.121113,-4.6285925,-8.450342
129,9.346081733703613,30.127290725708008,77.58641052246094,1.325727149409202,-8.966214436976095,-89.72405579832773,14.631519,-5.821253,11.1701145,7.014743,-13.469445,3.7750726,-13.617009,-13.078882,-12.655831,45.57138,-11.982656,2.995431,-3.7433085,-2.6820433,14.645093,4.754912,12.502964,-36.075027,69.45677,-3.7318757,-0.64353853,8.477472,2.0690122,-17.175177,39.002354,61.37031,17.21631,-4.6064467,-8.366168
130,9.33588695526123,30.311948776245117,77.59030151367188,1.4058276491043948,-8.89394513715676,-89.65553596881206,14.379493,-5.9084306,11.138013,7.006977,-13.33565,3.7345808,-13.499039,-12.995723,-11.885659,46.640762,-12.428088,3.1973734,-3.7187672,-2.774167,14.484081,4.7927723,12.543022,-36.00575,69.33175,-3.6252735,-0.63176215,8.535515,2.193074,-17.130947,39.085293,61.5339,17.339779,-4.5916944,-8.256902
131,9.323318481445312,30.493412017822266,77.59174346923828,1.485639620303921,-8.826758783614455,-89.5863663780344,14.13471,-5.996869,11.104668,6.9985213,-13.200148,3.6958506,-13.338152,-12.918424,-11.150125,47.67553,-12.870293,3.4108527,-3.7172196,-2.8778696,14.331676,4.845054,12.602151,-35.88991,69.178764,-3.525281,-0.6121435,8.5869665,2.2747095,-17.059689,39.195763,61.731388,17.483078,-4.5841327,-8.144744
132,9.313080787658691,30.67323875427246,77.59896087646484,1.5591795593193087,-8.780596241697975,-89.52176579906869,13.9116745,-6.079557,11.066206,6.9913874,-13.054131,3.6713393,-13.12612,-12.861049,-10.478931,48.693954,-13.2837715,3.5659952,-3.7063541,-2.971469,14.214268,4.866357,12.650991,-35.774456,69.04158,-3.4581428,-0.6011795,8.634144,2.3488133,-16.992487,39.277287,61.910465,17.62118,-4.5736346,-8.044279
133,9.3065185546875,30.86099624633789,77.60370635986328,1.6295838345149605,-8.76130879013185,-89.46454680315212,13.718748,-6.1586747,11.020545,6.9836617,-12.891876,3.6668344,-12.8576,-12.832072,-9.880091,49.70033,-13.673542,3.6413605,-3.6926322,-3.0561295,14.141103,4.8624063,12.69122,-35.643177,68.91124,-3.4287457,-0.6003268,8.670016,2.4083695,-16.925474,39.32597,62.073685,17.755396,-4.556951,-7.9579825
134,9.295082092285156,31.042644500732422,77.61192321777344,1.695827165471102,-8.759974687123167,-89.41115931368262,13.546437,-6.237401,10.97008,6.977196,-12.720416,3.6754372,-12.537621,-12.825113,-9.335935,50.682877,-14.047196,3.674152,-3.6666973,-3.1260455,14.100025,4.8222656,12.710483,-35.509007,68.80183,-3.429013,-0.60380703,8.699005,2.478389,-16.883194,39.338173,62.19605,17.892729,-4.5354476,-7.8757625
135,9.2832612991333,31.23250389099121,77.6220474243164,1.758096998161906,-8.769600596502977,-89.35800160912291,13.3864155,-6.311787,10.916859,6.9692554,-12.543925,3.6904173,-12.173622,-12.831284,-8.8376045,51.633133,-14.382433,3.6826205,-3.653088,-3.1954172,14.076515,4.7703295,12.728899,-35.35798,68.69813,-3.4442902,-0.6121366,8.73124,2.5173001,-16.82946,39.366367,62.33162,18.031748,-4.518535,-7.8021836
136,9.266889572143555,31.422588348388672,77.63220977783203,1.8161964258309151,-8.783544990000195,-89.30138708215497,13.228021,-6.3771896,10.863305,6.964091,-12.3712635,3.704916,-11.772612,-12.841242,-8.376569,52.54227,-14.656479,3.6855066,-3.630311,-3.2542665,14.061239,4.6855226,12.73846,-35.24113,68.62371,-3.4777923,-0.62768185,8.78122,2.5534065,-16.791319,39.403233,62.45104,18.163603,-4.5088015,-7.737385
137,9.256977081298828,31.609899520874023,77.64730834960938,1.8659675496709842,-8.802605455975192,-89.23522847242457,13.072084,-6.4319654,10.804289,6.95824,-12.200288,3.7200277,-11.327339,-12.863142,-7.968094,53.404465,-14.862026,3.6742604,-3.6239514,-3.3102047,14.052519,4.579821,12.746214,-35.137367,68.57475,-3.5318244,-0.6580187,8.85961,2.5577393,-16.745815,39.483288,62.58812,18.299181,-4.512527,-7.6833854
138,9.234999656677246,31.80065155029297,77.66313934326172,1.91094533173299,-8.829635014888703,-89.16329518813373,12.922533,-6.4786525,10.740256,6.953061,-12.02935,3.738673,-10.83677,-12.899608,-7.610514,54.22393,-15.010386,3.6428368,-3.6123455,-3.3566108,14.058105,4.441559,12.748881,-35.063293,68.5524,-3.6146755,-0.6998377,8.957535,2.5577683,-16.712002,39.56846,62.710045,18.433977,-4.5240903,-7.637657
139,9.209052085876465,31.991783142089844,77.67406463623047,1.9536408644193795,-8.86046275221266,-89.09578528590218,12.777718,-6.520932,10.681934,6.947156,-11.859164,3.756547,-10.317373,-12.93225,-7.2702913,55.009758,-15.109281,3.6141868,-3.5996175,-3.3990474,14.07158,4.2894554,12.747373,-34.988987,68.53661,-3.6940422,-0.73808724,9.054536,2.5402153,-16.68227,39.66737,62.828884,18.556246,-4.5382333,-7.6006775
140,9.185736656188965,32.18122863769531,77.68854522705078,1.9974894192108765,-8.89096771506659,-89.043596982218,12.634038,-6.56152,10.6402,6.942282,-11.691823,3.7690911,-9.784875,-12.941771,-6.9144897,55.769707,-15.165471,3.6117232,-3.5724685,-3.4389436,14.08914,4.1308627,12.742142,-34.906986,68.51355,-3.744062,-0.75734204,9.13084,2.5124795,-16.66015,39.76634,62.935253,18.649681,-4.5484962,-7.5723586
141,9.164021492004395,32.37291717529297,77.69812774658203,2.0427968390337536,-8.924287174118039,-89.00806959820913,12.497295,-6.6001196,10.616146,6.9357376,-11.525998,3.7715743,-9.2362385,-12.920491,-6.5331125,56.508625,-15.169854,3.6349373,-3.5366642,-3.4782424,14.114679,3.9699576,12.732481,-34.801807,68.48221,-3.7468486,-0.7473538,9.173187,2.462946,-16.641722,39.88096,63.042213,18.703539,-4.5511713,-7.5540924
142,9.137173652648926,32.55818176269531,77.70850372314453,2.087545792111473,-8.961271449965986,-88.98381372610237,12.366421,-6.6350894,10.604637,6.9288588,-11.361729,3.7674763,-8.666102,-12.8790045,-6.1442175,57.223515,-15.121941,3.6742291,-3.4977777,-3.516247,14.1487055,3.8013172,12.717324,-34.67929,68.450966,-3.718648,-0.718436,9.194748,2.3925571,-16.62614,40.0151,63.148346,18.729994,-4.550103,-7.5461044
143,9.108797073364258,32.741973876953125,77.71956634521484,2.13350734362674,-8.994117465839897,-88.9720398459608,12.231907,-6.6683264,10.6065445,6.9220514,-11.199902,3.7640834,-8.083217,-12.82412,-5.7582083,57.903896,-15.043972,3.7399507,-3.450581,-3.5508971,14.179459,3.6281404,12.698887,-34.55613,68.41088,-3.684457,-0.6857081,9.215382,2.3119345,-16.615921,40.144993,63.242405,18.746233,-4.5523586,-7.5447693
144,9.085805892944336,32.93191146850586,77.72501373291016,2.1827224576022264,-9.014978306367757,-88.97359087843917,12.084557,-6.7019486,10.622966,6.915607,-11.041576,3.7687936,-7.4997067,-12.763458,-5.3844028,58.54557,-14.957099,3.8422582,-3.4110553,-3.583082,14.19249,3.4626417,12.672747,-34.42025,68.35288,-3.659116,-0.6649794,9.255045,2.2148747,-16.608763,40.276543,63.326565,18.779034,-4.565176,-7.547924
145,9.063427925109863,33.125633239746094,77.72933197021484,2.2364941049301934,-9.019614638755439,-88.99586660333969,11.91985,-6.737696,10.66109,6.9082236,-10.887423,3.7855818,-6.925609,-12.694432,-5.012918,59.15986,-14.871616,3.9885085,-3.3730605,-3.6103618,14.183151,3.300033,12.631136,-34.27358,68.28461,-3.65252,-0.66068643,9.31952,2.0989163,-16.60589,40.40952,63.40308,18.840414,-4.597649,-7.5530934
146,9.036578178405762,33.320350646972656,77.73552703857422,2.2934443574061834,-9.01285019495277,-89.03583027853598,11.742682,-6.7738757,10.71821,6.901672,-10.737752,3.809651,-6.3533216,-12.61395,-4.64264,59.747505,-14.77595,4.1720247,-3.3055363,-3.6332788,14.164331,3.1331813,12.597284,-34.153446,68.19386,-3.6655238,-0.662183,9.396223,1.9873301,-16.610088,40.50707,63.452637,18.904726,-4.6432424,-7.560711
147,9.009383201599121,33.5075798034668,77.74252319335938,2.350852758289245,-9.000398152987946,-89.0796255151075,11.560256,-6.806269,10.780183,6.8951015,-10.589252,3.8349679,-5.7653027,-12.528831,-4.296671,60.28224,-14.656008,4.3815618,-3.2553315,-3.652399,14.1335745,2.9686038,12.549964,-34.016434,68.09575,-3.6707811,-0.66977733,9.484306,1.8631487,-16.621336,40.61049,63.488396,18.968695,-4.6857867,-7.576008
148,8.9698486328125,33.69034194946289,77.74800872802734,2.4037297454460114,-8.987871690269438,-89.1129862852983,11.379796,-6.832074,10.832785,6.8884068,-10.440002,3.8557522,-5.1440873,-12.446238,-3.9978833,60.736656,-14.496951,4.605329,-3.2076087,-3.6684217,14.09705,2.7996008,12.504361,-33.89828,67.98528,-3.6674469,-0.67943364,9.580196,1.7502233,-16.635834,40.679916,63.495388,19.005074,-4.709715,-7.6018696
149,8.930915832519531,33.87333679199219,77.75245666503906,2.4493977704570713,-8.98041987786887,-89.133228428751,11.2077055,-6.8479576,10.874296,6.8828254,-10.291382,3.8741984,-4.4787326,-12.358047,-3.7420568,61.108353,-14.2865925,4.8703256,-3.1672974,-3.6807618,14.058044,2.6307566,12.463942,-33.7968,67.85763,-3.6601858,-0.6928449,9.690936,1.6472312,-16.65103,40.719063,63.47321,19.008326,-4.7029543,-7.643741
150,8.892483711242676,34.057918548583984,77.7499771118164,2.4916225092140936,-8.973846642734244,-89.14768933708085,11.039267,-6.856834,10.911528,6.8767858,-10.143437,3.8922787,-3.7814367,-12.263225,-3.5195637,61.41125,-14.036156,5.1725154,-3.1361084,-3.6885586,14.0127,2.4616148,12.419661,-33.700005,67.71688,-3.647655,-0.70973676,9.816132,1.5461878,-16.669975,40.739624,63.427837,18.990673,-4.67646,-7.698355
151,8.850353240966797,34.24387741088867,77.75601196289062,2.5342644594901467,-8.959622957376459,-89.15708492158628,10.862479,-6.8635483,10.943244,6.870572,-9.993199,3.903476,-3.069237,-12.17893,-3.3453531,61.63991,-13.764308,5.4534345,-3.0994077,-3.7010431,13.956426,2.3016746,12.396394,-33.630516,67.54242,-3.630767,-0.7250922,9.938416,1.4495151,-16.681137,40.727757,63.36713,18.958246,-4.651286,-7.757638
152,8.807013511657715,34.42030715942383,77.771728515625,2.577214354289696,-8.93035434040579,-89.16121139659457,10.666537,-6.8721657,10.967258,6.8651185,-9.838899,3.901526,-2.358414,-12.122309,-3.2360752,61.789097,-13.489474,5.6543193,-3.0896046,-3.7163122,13.885193,2.1300707,12.35452,-33.531918,67.37716,-3.5640154,-0.73998225,10.041703,1.3435203,-16.702581,40.708946,63.290215,18.91869,-4.6419177,-7.8097973
153,8.7650785446167,34.5992317199707,77.7815933227539,2.623303949699465,-8.875020733271537,-89.158615194512,10.440199,-6.883192,10.98113,6.8581777,-9.679076,3.8778806,-1.6647584,-12.096544,-3.1993496,61.873245,-13.216946,5.733354,-3.082956,-3.7387588,13.78303,1.9668216,12.328205,-33.45384,67.18086,-3.4670475,-0.74175185,10.10958,1.2363827,-16.717709,40.662518,63.210167,18.868061,-4.6624956,-7.854661
154,8.720788955688477,34.774009704589844,77.78511047363281,2.6678763058423014,-8.80103895496132,-89.14931391883229,10.191454,-6.8948493,10.986415,6.8513227,-9.515216,3.8384764,-0.9760968,-12.09264,-3.226014,61.890156,-12.93553,5.729691,-3.0882907,-3.7653942,13.658806,1.8057274,12.305674,-33.376324,66.966446,-3.3362784,-0.736923,10.1538925,1.1271563,-16.732092,40.594494,63.11756,18.802725,-4.699471,-7.895852
155,8.664345741271973,34.96214294433594,77.78895568847656,2.717425040217909,-8.72653014746583,-89.13865025533524,9.941914,-6.9100294,10.988578,6.843245,-9.347426,3.798568,-0.26977095,-12.10985,-3.3056006,61.81137,-12.640525,5.705302,-3.0976837,-3.7989976,13.534307,1.6485455,12.289753,-33.304974,66.73387,-3.1934252,-0.7345489,10.20553,1.0135328,-16.743896,40.51056,63.014168,18.740171,-4.7408357,-7.9380856
156,8.60802173614502,35.14226531982422,77.79379272460938,2.7745200847938136,-8.670235267082418,-89.13179559813685,9.709478,-6.931342,10.993808,6.8363943,-9.176008,3.7734637,0.4772191,-12.147435,-3.4270828,61.6085,-12.327336,5.7224193,-3.101782,-3.8402288,13.435723,1.4858699,12.275034,-33.238224,66.49425,-3.0515702,-0.74543387,10.294067,0.90035367,-16.756607,40.409134,62.886482,18.692858,-4.772523,-7.984373
157,8.560253143310547,35.32424545288086,77.79548645019531,2.8403948806160275,-8.644856411554501,-89.13089583956311,9.510211,-6.9614906,11.002469,6.8288827,-8.998959,3.771066,1.276257,-12.208871,-3.5873897,61.28531,-11.970901,5.760523,-3.1031673,-3.8913023,13.3747635,1.325395,12.262331,-33.180016,66.23919,-2.9147403,-0.7729188,10.441239,0.78456354,-16.769127,40.287884,62.734375,18.68579,-4.7904677,-8.029853
158,8.494994163513184,35.51741027832031,77.80059814453125,2.9142920111934623,-8.638039009165547,-89.13286256272245,9.330179,-6.99846,11.011912,6.821584,-8.817341,3.782049,2.1131186,-12.292402,-3.792897,60.854576,-11.582364,5.79835,-3.10376,-3.9508207,13.336795,1.1649245,12.251397,-33.12902,65.9706,-2.7735965,-0.8113508,10.626493,0.6675433,-16.7815,40.144943,62.560112,18.70321,-4.8018894,-8.074216
159,8.439726829528809,35.7140007019043,77.80503845214844,2.993346405916603,-8.629736563850079,-89.13544643618938,9.146903,-7.0381284,11.022951,6.8134685,-8.633813,3.7955756,2.9731727,-12.389294,-4.046244,60.299522,-11.21076,5.89728,-3.0979497,-4.0141935,13.301143,0.99798214,12.242301,-33.08497,65.69945,-2.6346622,-0.85564035,10.818616,0.5522014,-16.794102,39.995186,62.37235,18.707712,-4.812212,-8.130427
160,8.38090705871582,35.90742874145508,77.80735778808594,3.071949773598036,-8.599726737368433,-89.13610650800518,8.93688,-7.076605,11.036506,6.805822,-8.4523535,3.800896,3.8411932,-12.490505,-4.3490653,59.60401,-10.9057455,6.118804,-3.0815787,-4.076592,13.246846,0.8192008,12.23499,-33.04699,65.43571,-2.5053089,-0.90076894,10.986666,0.4399316,-16.808615,39.854053,62.181118,18.661493,-4.8268256,-8.210602
161,8.314186096191406,36.0970573425293,77.81269836425781,3.149485489778991,-8.54122451489292,-89.12906553337722,8.69236,-7.111987,11.047008,6.7982073,-8.273944,3.795971,4.717074,-12.598138,-4.713646,58.773148,-10.63076,6.477673,-3.067373,-4.1365037,13.163339,0.6346524,12.231642,-33.00831,65.17521,-2.3924534,-0.95225096,11.121691,0.32527748,-16.821533,39.736496,61.991886,18.543434,-4.8474607,-8.331268
162,8.246339797973633,36.29018783569336,77.81175994873047,3.2259349011561445,-8.465638797843553,-89.11758985840882,8.425881,-7.1473584,11.056375,6.790483,-8.096324,3.7865329,5.6077414,-12.713714,-5.1343927,57.812527,-10.375766,6.9416914,-3.0467832,-4.197604,13.067472,0.43765026,12.231266,-32.972958,64.91856,-2.2873836,-1.0107411,11.23926,0.21781865,-16.836535,39.617,61.78634,18.368834,-4.8690677,-8.481018
163,8.176299095153809,36.49696350097656,77.80604553222656,3.309170482930364,-8.379401135126882,-89.11232175882661,8.146992,-7.1855483,11.075652,6.7816486,-7.9179153,3.7727764,6.509475,-12.827366,-5.588559,56.70282,-10.229807,7.5011764,-3.0198193,-4.263753,12.961106,0.24058308,12.23332,-32.93759,64.663506,-2.1840773,-1.0637016,11.349253,0.102105156,-16.848862,39.522602,61.590946,18.193058,-4.893988,-8.634792
164,8.108149528503418,36.696956634521484,77.79669952392578,3.403867182249577,-8.28933605577585,-89.12404362043387,7.8639193,-7.2294755,11.116353,6.772106,-7.737198,3.7549248,7.4160585,-12.932853,-6.0538306,55.430202,-10.28097,8.14527,-2.9638906,-4.3371334,12.862743,0.03518373,12.238617,-32.90512,64.41079,-2.066054,-1.0984087,11.456586,-0.011063278,-16.869986,39.430553,61.39029,18.047596,-4.9199624,-8.761943
165,8.027360916137695,36.90328598022461,77.78691864013672,3.5139615149133863,-8.193700167792171,-89.1532311050803,7.5762477,-7.282646,11.182312,6.7615647,-7.5549326,3.7277477,8.3496475,-13.039702,-6.5407605,53.940212,-10.6218,8.965285,-2.892791,-4.4241433,12.759026,-0.16801937,12.243728,-32.873077,64.1629,-1.927421,-1.1048139,11.563609,-0.13382193,-16.888103,39.37348,61.207317,17.95878,-4.952865,-8.860572
166,7.955228328704834,37.1142692565918,77.77687072753906,3.6355277046607952,-8.090024811064382,-89.19529780589582,7.279633,-7.3417144,11.267347,6.750309,-7.3716154,3.6924815,9.307773,-13.151183,-7.0648837,52.250546,-11.176201,9.932782,-2.8044426,-4.5215015,12.650954,-0.37643644,12.248701,-32.842636,63.92119,-1.7735342,-1.091424,11.666083,-0.2606038,-16.904911,39.33507,61.031452,17.896292,-4.9904275,-8.943429
167,7.873680591583252,37.320411682128906,77.76518249511719,3.76268000228598,-7.982669900733754,-89.25195651387753,6.9780903,-7.3987355,11.367221,6.7384844,-7.186203,3.6589346,10.247973,-13.252051,-7.607572,50.451935,-11.783543,10.858291,-2.6998594,-4.620798,12.550334,-0.5856973,12.256444,-32.802418,63.67885,-1.62152,-1.0757892,11.766759,-0.39059207,-16.933683,39.314926,60.850903,17.849075,-5.0250707,-9.012977
168,7.792349815368652,37.52851104736328,77.75310516357422,3.8844037427496416,-7.876281723410338,-89.32461718255297,6.6756644,-7.44623,11.477574,6.7268596,-6.9974074,3.6370764,11.125557,-13.325274,-8.139812,48.642746,-12.290348,11.553852,-2.5768623,-4.716265,12.452651,-0.795926,12.260876,-32.760063,63.45241,-1.5014197,-1.074996,11.874799,-0.54029286,-16.951088,39.32302,60.705795,17.811317,-5.0552154,-9.077071
169,7.705023765563965,37.74300765991211,77.7423324584961,4.002875440494273,-7.77829563169634,-89.41417611970097,6.380457,-7.484415,11.595922,6.7176476,-6.8050704,3.6382136,11.942305,-13.36303,-8.653179,46.797646,-12.650391,11.962802,-2.4563036,-4.807273,12.376028,-0.99501145,12.267348,-32.676884,63.218746,-1.4064957,-1.0968857,11.98847,-0.71632266,-16.980165,39.383648,60.56987,17.798105,-5.076916,-9.133204
170,7.62581729888916,37.96047592163086,77.730712890625,4.120039419497008,-7.6843300456915715,-89.5191454495354,6.088668,-7.5164075,11.724398,6.7081776,-6.6084995,3.6542222,12.715851,-13.376845,-9.156572,44.88816,-12.953899,12.186446,-2.3282518,-4.896654,12.30886,-1.1884049,12.273931,-32.57742,62.987823,-1.3348774,-1.1310698,12.108508,-0.91112477,-17.01231,39.48613,60.451366,17.808992,-5.094233,-9.181925
171,7.539636611938477,38.18284606933594,77.7198257446289,4.235400741355257,-7.581957767848025,-89.63797581188754,5.7860727,-7.5395217,11.866075,6.698471,-6.4111195,3.6662939,13.4258585,-13.374657,-9.642002,43.009502,-13.25508,12.274424,-2.1962953,-4.981659,12.242316,-1.3730766,12.280497,-32.45327,62.759434,-1.2693061,-1.1698148,12.22612,-1.1209685,-17.049171,39.61838,60.346977,17.81867,-5.1052675,-9.221713
172,7.4477152824401855,38.40856170654297,77.71018981933594,4.346581593798791,-7.4581789786936366,-89.76956632560265,5.4585137,-7.551275,12.024069,6.688665,-6.216764,3.6556225,14.052593,-13.364209,-10.1026945,41.25298,-13.605128,12.277234,-2.0435007,-5.0597177,12.165477,-1.5586733,12.2848,-32.322403,62.543022,-1.1996846,-1.2014492,12.334607,-1.3307034,-17.083368,39.742138,60.25619,17.792128,-5.1089063,-9.2515955
173,7.3555908203125,38.63718032836914,77.69371795654297,4.454826526018818,-7.300535296371955,-89.91295388247669,5.091756,-7.552522,12.199455,6.6785617,-6.029713,3.6096942,14.576553,-13.350221,-10.550315,39.649837,-14.028961,12.157059,-1.8760717,-5.130041,12.067702,-1.7432877,12.286444,-32.17309,62.337124,-1.1128544,-1.2253752,12.42619,-1.5429432,-17.120249,39.86653,60.178703,17.707195,-5.0972433,-9.274398
174,7.256426811218262,38.87001037597656,77.67921447753906,4.560414354188781,-7.119165254332377,-90.06890696386787,4.698022,-7.543902,12.390172,6.6671495,-5.8462315,3.541158,15.010366,-13.328763,-10.980156,38.154736,-14.498239,11.903057,-1.6913651,-5.1933393,11.957984,-1.9292146,12.284478,-32.010136,62.143074,-1.0189903,-1.2461824,12.506997,-1.7577814,-17.159681,39.994778,60.112846,17.58326,-5.073446,-9.289296
175,7.162789821624756,39.108150482177734,77.66288757324219,4.6610509953382655,-6.9348570537139915,-90.23924212019013,4.2995305,-7.5227494,12.595022,6.656706,-5.6593266,3.469384,15.384413,-13.295097,-11.3632765,36.73895,-14.98114,11.608203,-1.5016549,-5.2490907,11.854459,-2.1069627,12.277722,-31.82718,61.955086,-0.933624,-1.2646971,12.588692,-1.9791162,-17.205015,40.1348,60.05369,17.466074,-5.0511913,-9.290744
176,7.06336784362793,39.35187530517578,77.64845275878906,4.755230591925739,-6.768360638151876,-90.42577670127507,3.9198692,-7.48647,12.812571,6.647607,-5.461428,3.4135408,15.729382,-13.244797,-11.672276,35.371506,-15.444619,11.365659,-1.2991306,-5.2996593,11.773689,-2.2787921,12.26833,-31.645105,61.77737,-0.880781,-1.2808053,12.685006,-2.2061532,-17.244883,40.268585,60.00789,17.391312,-5.0457826,-9.273196
177,6.9696879386901855,39.60306167602539,77.63595581054688,4.849164843593021,-6.62379354946944,-90.63357721981897,3.5643394,-7.4419293,13.048994,6.63787,-5.247372,3.3824465,16.046837,-13.184218,-11.896316,34.049458,-15.897589,11.203836,-1.0953783,-5.350587,11.720487,-2.4351761,12.255904,-31.439377,61.599224,-0.86373514,-1.2911534,12.802178,-2.4443507,-17.283457,40.40765,59.970116,17.386936,-5.0678506,-9.223728
178,6.870591640472412,39.862117767333984,77.62872314453125,4.943190127115114,-6.4902532567499955,-90.86026378462375,3.2205958,-7.388498,13.3029995,6.62744,-5.0219584,3.3648639,16.321966,-13.114823,-12.051587,32.78615,-16.35084,11.071232,-0.88553745,-5.400134,11.685135,-2.5806549,12.240823,-31.215244,61.424324,-0.87300915,-1.2968373,12.932448,-2.691936,-17.320354,40.55114,59.94268,17.426075,-5.107519,-9.149087
179,6.766357898712158,40.11721420288086,77.62893676757812,5.02231248249783,-6.365797353039668,-91.09662767567171,2.8864756,-7.312745,13.561749,6.6179223,-4.7914295,3.3500905,16.564417,-13.023949,-12.153343,31.56914,-16.772078,10.94465,-0.6774599,-5.435902,11.663813,-2.7122817,12.223327,-30.982325,61.256542,-0.8954911,-1.3054953,13.064191,-2.9509842,-17.35605,40.711605,59.93044,17.477943,-5.1469364,-9.074274
180,6.66376256942749,40.36945343017578,77.63350677490234,5.074185115718374,-6.2483735283495045,-91.33337943280581,2.5602877,-7.20138,13.812075,6.6090035,-4.560652,3.3276072,16.782999,-12.900042,-12.216348,30.38879,-17.130495,10.803747,-0.48929092,-5.4429007,11.652208,-2.8230171,12.200542,-30.73737,61.096935,-0.9142373,-1.3251162,13.185025,-3.2247632,-17.395634,40.91237,59.9336,17.51367,-5.167768,-9.024576
181,6.568667411804199,40.62758255004883,77.63984680175781,5.09069131946797,-6.141546209641459,-91.57724379087931,2.2452714,-7.045136,14.056287,6.6025686,-4.332153,3.2998927,16.982046,-12.727913,-12.225645,29.231678,-17.406986,10.655258,-0.2972778,-5.413157,11.656946,-2.9228191,12.176392,-30.506632,60.94835,-0.938913,-1.35969,13.295132,-3.5121908,-17.43216,41.13832,59.96054,17.515419,-5.1614647,-9.011649
182,6.461511611938477,40.895835876464844,77.65022277832031,5.081708742844786,-6.044949040476943,-91.83023973593409,1.9414535,-6.854014,14.299149,6.597134,-4.1025944,3.2714396,17.156284,-12.513243,-12.18109,28.104979,-17.620123,10.509794,-0.11739877,-5.3538394,11.6759205,-3.0034616,12.146908,-30.261694,60.805115,-0.9670547,-1.4047666,13.398626,-3.8211787,-17.471113,41.405746,60.009457,17.509588,-5.138561,-9.02103
183,6.354763984680176,41.17298889160156,77.66211700439453,5.055319547584751,-5.9515703554167425,-92.07609085289315,1.6384326,-6.642673,14.531502,6.592812,-3.8696272,3.2344098,17.30624,-12.277093,-12.121514,27.016773,-17.793274,10.3549595,0.049405444,-5.281417,11.696776,-3.0699108,12.114345,-30.018353,60.677315,-0.99567014,-1.4536141,13.495216,-4.128207,-17.509052,41.685154,60.062263,17.500038,-5.111862,-9.035774
184,6.248907566070557,41.44523620605469,77.67679595947266,5.021889370623206,-5.854258889790906,-92.29915597401148,1.3276448,-6.425939,14.744071,6.587193,-3.6302505,3.1807334,17.4297,-12.03805,-12.085413,25.980602,-17.948462,10.177822,0.19446889,-5.2134714,11.70658,-3.121136,12.081311,-29.781088,60.57077,-1.017564,-1.4992948,13.583851,-4.4184623,-17.54369,41.959694,60.10743,17.49655,-5.0944014,-9.039275
185,6.131621837615967,41.718109130859375,77.6907958984375,4.981322709997009,-5.747185005163097,-92.49939017013162,1.0017344,-6.199538,14.938012,6.5817432,-3.3835027,3.1015666,17.518091,-11.792193,-12.073012,24.999744,-18.084507,9.971132,0.33276087,-5.152403,11.7007,-3.1636038,12.054958,-29.570984,60.49228,-1.0435767,-1.5449945,13.671814,-4.6852455,-17.569298,42.22126,60.14797,17.50417,-5.094592,-9.022889
186,6.023322105407715,41.99467086791992,77.7035903930664,4.928782954177866,-5.635484106213998,-92.6840259909915,0.66746354,-5.958551,15.116623,6.57621,-3.1310077,3.0034583,17.576887,-11.529254,-12.0688925,24.064362,-18.190977,9.747205,0.4192747,-5.085517,11.682612,-3.1748927,12.019838,-29.321798,60.429337,-1.0551822,-1.5945067,13.754866,-4.962578,-17.598793,42.539684,60.19518,17.536478,-5.1026106,-8.99904
187,5.9117841720581055,42.27001190185547,77.71607971191406,4.870035718692958,-5.527825618191831,-92.8482007571335,0.33375782,-5.7158113,15.274565,6.570239,-2.8736048,2.9008906,17.623163,-11.256966,-12.087504,23.16877,-18.276905,9.519453,0.50458455,-5.023274,11.664298,-3.1798651,11.990149,-29.102146,60.380707,-1.0644552,-1.6351655,13.821813,-5.2110815,-17.621105,42.812916,60.2273,17.548185,-5.1085563,-8.975427
188,5.796142578125,42.556671142578125,77.72929382324219,4.813523977808872,-5.432907883976714,-92.9869386597593,0.009841263,-5.483529,15.406375,6.56396,-2.6129038,2.8082907,17.670513,-10.992826,-12.140559,22.315659,-18.354584,9.298644,0.5526829,-4.9678235,11.650994,-3.161566,11.959687,-28.86993,60.328163,-1.050464,-1.6576618,13.856393,-5.4414644,-17.640501,43.05472,60.237007,17.531576,-5.1003304,-8.96422
189,5.69359827041626,42.832218170166016,77.73763275146484,4.760494464078548,-5.353578591027412,-93.09848508526477,-0.3019316,-5.2655697,15.51029,6.558043,-2.348468,2.7343485,17.715214,-10.74862,-12.241228,21.521072,-18.428547,9.070304,0.58349645,-4.925728,11.647005,-3.124976,11.934315,-28.643932,60.268078,-1.0047687,-1.648423,13.84441,-5.64112,-17.654568,43.23528,60.21601,17.460749,-5.06836,-8.969104
190,5.586114883422852,43.11953353881836,77.7448501586914,4.707732688012138,-5.285010042828551,-93.18563363756742,-0.60645056,-5.0549393,15.589266,6.552696,-2.080422,2.6694715,17.749996,-10.515591,-12.378651,20.781818,-18.492971,8.831364,0.58891207,-4.8919945,11.64727,-3.0665207,11.911587,-28.413656,60.204575,-0.93221354,-1.6166135,13.7965975,-5.820153,-17.665731,43.38193,60.174408,17.355396,-5.0209775,-8.984444
191,5.4690728187561035,43.41217041015625,77.75406646728516,4.6519851885432075,-5.2244297025250654,-93.2494542022732,-0.9063593,-4.848092,15.645367,6.5468683,-1.8098867,2.6006792,17.782286,-10.283294,-12.527812,20.074945,-18.54561,8.607801,0.5446688,-4.857669,11.648491,-2.9850175,11.883964,-28.163572,60.144512,-0.85388935,-1.5855159,13.737809,-5.990543,-17.67657,43.51998,60.118748,17.251501,-4.973477,-9.0047
192,5.360185146331787,43.69003677368164,77.76066589355469,4.591423173514402,-5.169020897470233,-93.29122118831268,-1.2045931,-4.6422296,15.680828,6.54035,-1.5385103,2.5148585,17.820421,-10.038463,-12.663646,19.373016,-18.581614,8.425084,0.5012322,-4.820584,11.651327,-2.912757,11.863722,-27.977556,60.10773,-0.823192,-1.5749477,13.698272,-6.118672,-17.682121,43.58018,60.039627,17.158741,-4.9432354,-9.021744
193,5.255864143371582,43.966102600097656,77.76512145996094,4.524306148576593,-5.1188074036460165,-93.30603699377319,-1.5015315,-4.4359465,15.69083,6.5330563,-1.2676604,2.4004529,17.871517,-9.778319,-12.781662,18.661297,-18.592731,8.297009,0.42177823,-4.7774415,11.654639,-2.8353252,11.845769,-27.821796,60.08721,-0.85354596,-1.6003289,13.685846,-6.2211185,-17.683699,43.5832,59.93969,17.09408,-4.937003,-9.034364
194,5.142601013183594,44.25048065185547,77.76718139648438,4.452428907278423,-5.074692643260626,-93.29517334110031,-1.7958417,-4.2317424,15.676081,6.524927,-0.99594826,2.266837,17.92793,-9.512964,-12.893006,17.957426,-18.583744,8.205016,0.32530403,-4.733106,11.657302,-2.7519896,11.8359,-27.71566,60.079098,-0.9351624,-1.646066,13.688449,-6.2873487,-17.681665,43.521587,59.815186,17.041975,-4.945957,-9.047155
195,5.03372049331665,44.53987503051758,77.76561737060547,4.379230554400015,-5.035590874953313,-93.26959053883925,-2.0875704,-4.03112,15.647308,6.5165024,-0.72247547,2.132354,17.97535,-9.2493925,-12.995303,17.286345,-18.57,8.126592,0.2142952,-4.6889806,11.663032,-2.6653206,11.8269615,-27.6216,60.086708,-1.009196,-1.6917717,13.689642,-6.3348475,-17.676691,43.431736,59.681206,16.993956,-4.95978,-9.060322
196,4.928340435028076,44.83328628540039,77.76075744628906,4.307774570807292,-5.000575581366329,-93.23971990464362,-2.3762043,-3.8352787,15.61485,6.5076027,-0.44552422,2.015306,18.001162,-8.993003,-13.087517,16.671783,-18.566578,8.040092,0.11222122,-4.6475105,11.672273,-2.587329,11.817974,-27.541805,60.122444,-1.0307052,-1.7166796,13.676921,-6.368492,-17.66824,43.333405,59.55388,16.93859,-4.969236,-9.074575
197,4.824967861175537,45.11297607421875,77.75651550292969,4.241714510088919,-4.969187798689938,-93.20319544851161,-2.6630902,-3.6491945,15.577366,6.499731,-0.16546907,1.9221678,17.998358,-8.7482815,-13.169079,16.12822,-18.58019,7.9450035,0.012721139,-4.6123,11.674471,-2.5026417,11.812316,-27.487764,60.17787,-0.99204344,-1.710845,13.652779,-6.3833585,-17.660713,43.252205,59.42989,16.893856,-4.972971,-9.098176
198,4.714840412139893,45.394107818603516,77.75135803222656,4.178214164499846,-4.942062363400404,-93.15606253096881,-2.9467082,-3.469996,15.530552,6.4911737,0.11751001,1.8420291,17.973915,-8.512476,-13.240526,15.642999,-18.602911,7.8508096,-0.0932197,-4.5811753,11.677237,-2.4153917,11.807617,-27.445776,60.252335,-0.9069903,-1.6870593,13.619803,-6.3823276,-17.651985,43.16325,59.304043,16.85093,-4.974593,-9.125848
199,4.60092306137085,45.683929443359375,77.74397277832031,4.11056273138909,-4.918952903580741,-93.10631806303908,-3.226861,-3.2875586,15.48113,6.482307,0.40285105,1.7672037,17.936172,-8.2754965,-13.303905,15.191604,-18.626501,7.7520475,-0.19104314,-4.546379,11.683299,-2.3338237,11.803052,-27.420292,60.351,-0.8104626,-1.6568058,13.578822,-6.3663244,-17.639154,43.06248,59.184803,16.806551,-4.9768715,-9.151815
200,4.500130653381348,45.96878433227539,77.73321533203125,4.033125043254361,-4.898722816876717,-93.06255813389744,-3.5031204,-3.0919094,15.436147,6.4742265,0.68829006,1.6903883,17.884344,-8.029069,-13.359321,14.769617,-18.647871,7.643323,-0.27867964,-4.4999323,11.69176,-2.252962,11.800407,-27.407516,60.468857,-0.7401936,-1.6313846,13.531872,-6.3429213,-17.625858,42.97129,59.08282,16.76869,-4.983052,-9.173291
201,4.390283107757568,46.25654220581055,77.72769927978516,3.9433029617716704,-4.878822559876921,-93.02706023227023,-3.7786875,-2.879102,15.40078,6.467074,0.97507113,1.6132048,17.814949,-7.7692456,-13.406063,14.374961,-18.665413,7.5274734,-0.36045787,-4.4397483,11.703568,-2.1721547,11.800196,-27.398361,60.603085,-0.6914928,-1.6094782,13.473152,-6.3167224,-17.614592,42.88958,58.99322,16.734015,-4.99448,-9.183462
202,4.282683372497559,46.54492950439453,77.72028350830078,3.844248099808236,-4.8603516521516354,-92.99500261335018,-4.108665,-2.638098,15.372241,6.5833426,1.1989185,1.5373683,17.727097,-7.5006647,-13.444308,14.014703,-18.68231,7.406656,-0.439285,-4.3695297,11.718481,-2.0908968,11.801918,-27.3951,60.754494,-0.6495882,-1.586485,13.40381,-6.2837086,-17.60474,42.813366,58.91162,16.703028,-5.0090857,-9.186438
203,4.176088333129883,46.84067153930664,77.71253967285156,3.740355363776521,-4.848597092435878,-92.96486197581316,-4.436456,-2.3887303,15.339583,6.712741,1.4154629,1.4580485,17.636808,-7.2253795,-13.478089,13.67263,-18.694605,7.275019,-0.49633753,-4.2928843,11.74108,-2.0169146,11.806807,-27.414165,60.926815,-0.62918735,-1.5682819,13.333416,-6.2326665,-17.590271,42.72407,58.845047,16.669746,-5.023967,-9.190882
204,4.070784091949463,47.122982025146484,77.70453643798828,3.6299485761103014,-4.848670737267803,-92.93445772390285,-4.751345,-2.136777,15.293571,6.8443727,1.6277344,1.3695533,17.560171,-6.9445963,-13.511408,13.331806,-18.697779,7.1265416,-0.54690826,-4.207882,11.768092,-1.9351438,11.812314,-27.449099,61.1123,-0.650226,-1.5616585,13.274201,-6.1678095,-17.576607,42.664753,58.801636,16.661572,-5.0360265,-9.212007
205,3.9632153511047363,47.40929412841797,77.69677734375,3.5193881575757673,-4.864681533377901,-92.90585448633071,-5.0488753,-1.8857795,15.230834,6.979209,1.8360305,1.2748555,17.499935,-6.662442,-13.541597,12.999049,-18.696068,6.961323,-0.5872261,-4.115211,11.804061,-1.844957,11.816615,-27.498291,61.313034,-0.7229188,-1.5731083,13.2362795,-6.0857453,-17.564451,42.631245,58.7818,16.67513,-5.0439467,-9.265172
206,3.8572914600372314,47.690711975097656,77.68767547607422,3.4039364616305177,-4.893176219190599,-92.8791334435755,-5.332472,-1.6330148,15.156223,7.1152015,2.042254,1.1756059,17.448912,-6.375884,-13.568264,12.6781,-18.689222,6.782154,-0.6016626,-4.0155206,11.844945,-1.7582616,11.822284,-27.58619,61.53871,-0.84543467,-1.5971376,13.213876,-5.9827504,-17.543316,42.599686,58.789482,16.701754,-5.050921,-9.340093
207,3.7569470405578613,47.96937561035156,77.67821502685547,3.2817860564378747,-4.927237113461291,-92.84976963060495,-5.6112366,-1.3723426,15.073643,7.2539625,2.24337,1.0639874,17.405628,-6.07745,-13.5974245,12.352836,-18.669027,6.5874457,-0.6161128,-3.9064965,11.887762,-1.6675836,11.827099,-27.67772,61.776627,-0.98223144,-1.6233314,13.185607,-5.873352,-17.520756,42.592903,58.819954,16.745083,-5.0566063,-9.407172
208,3.6501362323760986,48.2529296875,77.66534423828125,3.146835952410241,-4.960413499232828,-92.81375068867398,-5.88816,-1.1005616,14.987437,7.383458,2.4438133,0.9325599,17.370874,-5.7593136,-13.635434,12.002339,-18.624807,6.37579,-0.63160986,-3.7874947,11.927657,-1.5778506,11.832477,-27.772736,62.023613,-1.110088,-1.6406379,13.132649,-5.7561803,-17.497633,42.60407,58.867237,16.800377,-5.0619555,-9.43669
209,3.544282913208008,48.5341682434082,77.65225219726562,3.001185931299083,-4.988504600787946,-92.7718426243494,-6.171895,-0.81503546,14.900762,7.512371,2.6403718,0.7889366,17.338503,-5.4192514,-13.684648,11.629646,-18.557566,6.1431828,-0.6461739,-3.6597602,11.958842,-1.4909014,11.840622,-27.881622,62.28661,-1.2226664,-1.6419232,13.039122,-5.63133,-17.4714,42.629593,58.93875,16.881721,-5.0711713,-9.4127
210,3.4350197315216064,48.82335662841797,77.63728332519531,2.845628051818828,-5.015636637328823,-92.72574807623765,-6.4560523,-0.5196452,14.810759,7.6376023,2.8351238,0.63413066,17.31168,-5.0609407,-13.741932,11.241337,-18.471443,5.8922877,-0.6519344,-3.527882,11.982941,-1.40411,11.857686,-28.014652,62.565487,-1.3391705,-1.6350579,12.919445,-5.500439,-17.42605,42.663887,59.047604,16.981518,-5.084024,-9.354462
211,3.3226001262664795,49.10731506347656,77.62571716308594,2.680697607708494,-5.047524797390475,-92.67317181806925,-6.7282624,-0.21745694,14.713164,7.746141,3.0309756,0.45051828,17.303753,-4.6858344,-13.804215,10.822687,-18.360722,5.631908,-0.660723,-3.3872495,12.01291,-1.3126012,11.8770075,-28.136206,62.839287,-1.4581007,-1.6285459,12.797426,-5.3673873,-17.38316,42.724796,59.16942,17.077927,-5.0912404,-9.282721
212,3.2146923542022705,49.39164733886719,77.61468505859375,2.5065458139403405,-5.089569602350368,-92.61195844317922,-6.9771485,0.0879039,14.604066,7.8268166,3.2294605,0.22060911,17.324825,-4.297089,-13.868223,10.366135,-18.222952,5.370739,-0.6646984,-3.2375662,12.056099,-1.2186936,11.897639,-28.242884,63.095863,-1.5909654,-1.6311557,12.70035,-5.230563,-17.343378,42.807846,59.29643,17.141087,-5.0864797,-9.2196455
213,3.094135284423828,49.67718505859375,77.60274505615234,2.3242232583915845,-5.150177337170281,-92.53882093131071,-7.1905327,0.3966944,14.481556,7.873669,3.4318788,-0.06690017,17.393244,-3.891071,-13.930804,9.854443,-18.048788,5.1068897,-0.66088915,-3.0760643,12.121089,-1.1266531,11.917374,-28.333815,63.33885,-1.7496668,-1.6481355,12.638227,-5.0851755,-17.309988,42.91637,59.42639,17.145395,-5.062837,-9.177413
214,2.9853110313415527,49.95714569091797,77.58788299560547,2.1321271386440253,-5.22375526441238,-92.45625057007877,-7.376193,0.70836335,14.349563,7.889413,3.6391451,-0.39989364,17.497244,-3.468777,-13.993688,9.300161,-17.844646,4.8378105,-0.65255964,-2.9075778,12.198157,-1.0294528,11.942102,-28.416565,63.568794,-1.9297435,-1.6730174,12.596376,-4.9372053,-17.272427,43.054184,59.57471,17.114088,-5.0269923,-9.143522
215,2.871274709701538,50.24763870239258,77.57262420654297,1.9365877451439673,-5.294717094359235,-92.37160555690012,-7.553622,1.0191709,14.213558,7.877107,3.8531673,-0.7609308,17.605373,-3.0403585,-14.060148,8.729189,-17.625395,4.570979,-0.64430827,-2.7382176,12.275384,-0.92264646,11.974036,-28.485054,63.777996,-2.1083362,-1.7004591,12.56272,-4.7966084,-17.227972,43.213673,59.738,17.088587,-4.989702,-9.099748
216,2.7695064544677734,50.542694091796875,77.55428314208984,1.7437317058134865,-5.348126335702654,-92.29208808756685,-7.739338,1.324798,14.078794,7.8351955,4.077816,-1.1326597,17.683641,-2.6168091,-14.133958,8.173288,-17.408377,4.313147,-0.6406604,-2.5783124,12.340528,-0.7979942,12.023024,-28.533503,63.954357,-2.2635598,-1.7249151,12.523902,-4.678519,-17.16361,43.38998,59.92208,17.1111,-4.962383,-9.029371
217,2.663029193878174,50.83958435058594,77.53431701660156,1.5565674565422885,-5.372906376948653,-92.21818359886562,-7.944424,1.619893,13.946428,7.759542,4.3175235,-1.5115335,17.717138,-2.205895,-14.220066,7.633225,-17.19851,4.0687685,-0.6226579,-2.4194548,12.385024,-0.68910754,12.059676,-28.58198,64.1349,-2.388879,-1.7488003,12.481464,-4.5491605,-17.12,43.556583,60.08192,17.206459,-4.9493303,-8.911541
218,2.5542469024658203,51.142669677734375,77.51313781738281,1.3740463167380923,-5.3798583332474585,-92.14713241579732,-8.156424,1.9074594,13.814925,7.650405,4.569916,-1.9064542,17.627272,-1.828141,-14.311619,7.3087792,-17.100285,3.8334537,-0.6156261,-2.2750154,12.4151125,-0.55265546,12.119453,-28.603937,64.274666,-2.4962633,-1.7715981,12.436418,-4.447129,-17.05339,43.75798,60.272324,17.356842,-4.9478087,-8.763901
219,2.44557523727417,51.44565200805664,77.49191284179688,1.1862942766711704,-5.386356077965116,-92.07968873567101,-8.359183,2.198576,13.684768,7.5185003,4.825743,-2.3184965,17.411112,-1.4795969,-14.401492,7.250734,-17.12696,3.6000159,-0.5831674,-2.1126127,12.452595,-0.44511047,12.156668,-28.638496,64.42973,-2.5923612,-1.7946315,12.397731,-4.319926,-17.01565,43.93039,60.427246,17.498713,-4.937789,-8.61146
220,2.3399569988250732,51.74433135986328,77.47113037109375,0.9855950976896379,-5.409355349675374,-92.01645194282086,-8.539871,2.50375,13.55677,7.3812656,5.072179,-2.7488687,17.21222,-1.1173255,-14.486294,7.1905375,-17.128143,3.360092,-0.5695209,-1.947925,12.512143,-0.29673213,12.227562,-28.642736,64.52121,-2.6850615,-1.811203,12.359446,-4.227227,-16.945808,44.131363,60.613167,17.600964,-4.9126124,-8.489988
221,2.240093231201172,52.0458869934082,77.45062255859375,0.7739105726807646,-5.447183798897817,-91.95602945345054,-8.699651,2.8224692,13.433828,7.2347236,5.315948,-3.199414,17.02891,-0.74086,-14.569412,7.12831,-17.102175,3.1157053,-0.5356911,-1.7645051,12.595272,-0.15932891,12.296318,-28.653633,64.59814,-2.7690957,-1.8189567,12.328963,-4.1258683,-16.880293,44.308163,60.785934,17.62046,-4.8537183,-8.406667
222,2.1337921619415283,52.35113525390625,77.42845153808594,0.557524895798668,-5.494419726952661,-91.89909317750922,-8.845474,3.1461842,13.318088,7.076936,5.559372,-3.6686702,16.84206,-0.36416465,-14.653465,7.0878,-17.065964,2.8696353,-0.4913372,-1.5728382,12.695056,-0.02492226,12.363881,-28.661484,64.65768,-2.8428123,-1.8205997,12.304497,-4.0223,-16.81882,44.479137,60.950127,17.594275,-4.77233,-8.345483
223,2.0270705223083496,52.66439437866211,77.39913177490234,0.3260982788862333,-5.560585362769724,-91.84823021535273,-8.974479,3.490383,13.202812,6.9292808,5.781741,-4.1529636,16.659563,0.025198901,-14.729794,7.0785413,-17.026289,2.615521,-0.44212934,-1.3614284,12.819724,0.10904395,12.430148,-28.667048,64.70516,-2.9190419,-1.8255918,12.282987,-3.9203598,-16.761366,44.63531,61.107533,17.557686,-4.693479,-8.292726
224,1.9193294048309326,52.978782653808594,77.36646270751953,0.06303587417458871,-5.653163479145022,-91.8046635312958,-9.28994,3.9216516,13.065281,7.256575,5.727567,-4.6508875,16.50547,0.44724104,-14.789669,7.0657067,-16.964819,2.3466544,-0.3870863,-1.1087419,12.974506,0.22870457,12.478084,-28.681408,64.76678,-3.0113738,-1.8446846,12.263812,-3.8085825,-16.721748,44.757732,61.241035,17.545391,-4.6400633,-8.234011
225,1.8195244073867798,53.287452697753906,77.3328628540039,-0.22081153398276543,-5.774717505763317,-91.76993380203538,-9.666106,4.401435,12.916716,7.7887573,5.5374203,-5.168958,16.378227,0.8933816,-14.830445,7.052976,-16.876623,2.0548182,-0.3426025,-0.8405709,13.164456,0.36871484,12.545383,-28.689962,64.79935,-3.1362548,-1.8840927,12.245855,-3.7140868,-16.666103,44.860756,61.38393,17.572916,-4.627872,-8.167537
226,1.7181624174118042,53.59721755981445,77.30194091796875,-0.5208844157045425,-5.921001027817082,-91.7414411399595,-10.047156,4.908189,12.7637825,8.391293,5.288388,-5.7046013,16.274048,1.3569425,-14.858194,7.040006,-16.763653,1.7465154,-0.29394698,-0.5532906,13.38395,0.50332385,12.609577,-28.706415,64.830215,-3.2832196,-1.9383845,12.232708,-3.6190784,-16.612272,44.9317,61.519806,17.615278,-4.6398473,-8.09945
227,1.6295814514160156,53.90993881225586,77.26758575439453,-0.8255710575566525,-6.092538861787805,-91.71704505003882,-10.421329,5.4262514,12.607241,9.042869,4.9907904,-6.23752,16.195276,1.8245001,-14.87781,7.026636,-16.6349,1.4391271,-0.24441962,-0.25593314,13.631773,0.63828874,12.669687,-28.7201,64.85474,-3.424488,-1.9922045,12.213687,-3.5255268,-16.561296,44.986168,61.64479,17.662645,-4.659743,-8.032588
228,1.543248176574707,54.229347229003906,77.22794342041016,-1.1288798757400653,-6.289832349726516,-91.6943093430672,-10.785665,5.9416904,12.447525,9.743066,4.647225,-6.7474046,16.146091,2.282669,-14.893572,7.013263,-16.501831,1.1497668,-0.19492806,0.041962903,13.906037,0.77548987,12.723757,-28.724335,64.87287,-3.5343826,-2.0305798,12.178514,-3.4363668,-16.51674,45.03707,61.75806,17.704193,-4.6712804,-7.9695272
229,1.463019847869873,54.53837585449219,77.18714141845703,-1.4322926366610877,-6.515258463745589,-91.67546623253686,-11.1394825,6.4604354,12.27891,10.494316,4.2576475,-7.2540097,16.130682,2.7382412,-14.902403,6.9986744,-16.364077,0.87915856,-0.13607594,0.35562852,14.210285,0.89534396,12.75069,-28.715742,64.905876,-3.5967352,-2.0470994,12.120096,-3.336194,-16.496431,45.07238,61.837955,17.737558,-4.666982,-7.9067187
230,1.383158564567566,54.85338592529297,77.14482879638672,-1.740056742139776,-6.767434523590029,-91.66023352518604,-11.487207,6.9884453,12.103522,11.300809,3.8194637,-7.759477,16.145618,3.1955793,-14.902738,6.98624,-16.219255,0.6191142,-0.0832935,0.67422247,14.546018,1.0322496,12.785127,-28.685062,64.90983,-3.629522,-2.0478902,12.041581,-3.246968,-16.474642,45.1053,61.911182,17.77072,-4.6586905,-7.844879
231,1.306549310684204,55.16579055786133,77.101806640625,-2.041434752478631,-7.04169149908263,-91.6434604782438,-11.827542,7.5118465,11.932633,12.150564,3.3360984,-8.218038,16.189995,3.6409795,-14.900513,6.9728703,-16.071623,0.3734097,-0.034561932,0.98955625,14.902063,1.1683013,12.811051,-28.659777,64.915764,-3.6519701,-2.0463388,11.961971,-3.1586869,-16.461487,45.13536,61.970127,17.80085,-4.6506996,-7.790626
232,1.2298493385314941,55.466915130615234,77.06094360351562,-2.3258278774423373,-7.3333293924900635,-91.62028658661481,-12.15734,8.01713,11.776458,13.0305605,2.8110983,-8.585185,16.258095,4.0608945,-14.901532,6.959807,-15.925362,0.14553306,-0.00039066677,1.2871951,15.269389,1.3118314,12.831787,-28.652557,64.923325,-3.6822505,-2.0535636,11.897446,-3.0767896,-16.454372,45.178467,62.022984,17.827917,-4.6492715,-7.7510734
233,1.1575947999954224,55.765384674072266,77.0206069946289,-2.5998621214933455,-7.6530541549816835,-91.59093505677981,-12.4734535,8.511807,11.630025,13.94567,2.217449,-8.838495,16.360004,4.4637036,-14.901042,6.947446,-15.782287,-0.06426753,0.019218486,1.5745147,15.657463,1.4616426,12.844214,-28.671467,64.93543,-3.7171266,-2.0736265,11.854484,-2.9987283,-16.45281,45.230606,62.064014,17.846865,-4.655379,-7.733536
234,1.0936570167541504,56.06322479248047,76.98257446289062,-2.8685663289604615,-7.999578438253244,-91.5579033840946,-12.770891,8.999511,11.490041,14.887582,1.5665084,-9.007105,16.49465,4.855043,-14.895901,6.9352083,-15.6398,-0.2582319,0.028957563,1.8562331,16.067854,1.616242,12.849688,-28.705502,64.94902,-3.7477968,-2.0999231,11.82326,-2.926872,-16.454922,45.285526,62.097393,17.857927,-4.666509,-7.732138
235,1.0332159996032715,56.35436248779297,76.9473648071289,-3.1187514755009533,-8.349619369937411,-91.52085800469217,-13.054353,9.462955,11.367313,15.845541,0.91329455,-9.123184,16.638618,5.2185674,-14.895367,6.922394,-15.494995,-0.436646,0.02857767,2.118972,16.475935,1.7783043,12.851579,-28.751926,64.963356,-3.7927449,-2.1284966,11.797943,-2.861577,-16.461967,45.358696,62.13134,17.874228,-4.682125,-7.735339
236,0.9731332659721375,56.64208984375,76.91551971435547,-3.3378697965142714,-8.680266572315475,-91.4790930267035,-13.326359,9.884914,11.273123,16.804441,0.31351343,-9.218579,16.767418,5.5368814,-14.909539,6.909944,-15.345196,-0.5994117,0.023326382,2.350836,16.859898,1.9395343,12.846249,-28.805506,64.987495,-3.8634503,-2.1553326,11.772792,-2.8031528,-16.474787,45.449135,62.174957,17.899462,-4.701027,-7.7299604
237,0.9255768060684204,56.914649963378906,76.88910675048828,-3.525856684319129,-8.994224505365073,-91.43346343561886,-13.572577,10.263288,11.214327,17.725838,-0.23205294,-9.321133,16.886087,5.8086624,-14.941204,6.8977647,-15.19153,-0.7416793,0.015103942,2.5549068,17.221218,2.0958884,12.827983,-28.867025,65.0291,-3.9746854,-2.1833084,11.758156,-2.7540755,-16.498161,45.5737,62.233578,17.939505,-4.7277794,-7.712084
238,0.8773566484451294,57.186031341552734,76.87285614013672,-3.6897857773246336,-9.301025062304497,-91.3843970088684,-13.794553,10.606665,11.183885,18.627031,-0.7481602,-9.407505,17.00309,6.0425973,-14.985197,6.884806,-15.033914,-0.86479825,-0.00103915,2.7412374,17.569056,2.2419367,12.78334,-28.933779,65.09798,-4.1113443,-2.214626,11.755157,-2.7090094,-16.543663,45.72814,62.292107,17.991503,-4.7598667,-7.6884446
239,0.8342856764793396,57.46523666381836,76.86577606201172,-3.821838132977542,-9.587643203120573,-91.33157876467463,-14.025361,10.915327,11.171534,19.58684,-1.2199656,-9.431857,17.10159,6.2352986,-15.038551,6.8723216,-14.871437,-0.97813904,-0.020090654,2.8987324,17.891138,2.3781044,12.722628,-29.010195,65.18854,-4.249954,-2.242842,11.740532,-2.660854,-16.597057,45.87478,62.346645,18.043133,-4.788583,-7.662035
240,0.795968234539032,57.731842041015625,76.86482238769531,-3.919628038294473,-9.84166593939473,-91.27483092474863,-14.29307,11.190251,11.166344,20.674976,-1.6293201,-9.348118,17.1645,6.3843637,-15.09816,6.8624997,-14.704092,-1.0916177,-0.046713665,3.018636,18.174881,2.5084813,12.650451,-29.09093,65.29607,-4.365295,-2.2621052,11.691835,-2.6051311,-16.651424,45.990685,62.391098,18.088043,-4.804852,-7.6364064
