unveil-humanoid-operators/unveil-humanoid-operators.github.io/feature-analysis-animation/data/feature_matrix_instances/gender_ankle_rom_walking_A047_walk_arc_cw_stop_002__A047.csv
Frame,root_translateX,root_translateY,root_translateZ,root_rotateX,root_rotateY,root_rotateZ,left_hip_pitch_joint_dof,left_hip_roll_joint_dof,left_hip_yaw_joint_dof,left_knee_joint_dof,left_ankle_pitch_joint_dof,left_ankle_roll_joint_dof,right_hip_pitch_joint_dof,right_hip_roll_joint_dof,right_hip_yaw_joint_dof,right_knee_joint_dof,right_ankle_pitch_joint_dof,right_ankle_roll_joint_dof,waist_yaw_joint_dof,waist_roll_joint_dof,waist_pitch_joint_dof,left_shoulder_pitch_joint_dof,left_shoulder_roll_joint_dof,left_shoulder_yaw_joint_dof,left_elbow_joint_dof,left_wrist_roll_joint_dof,left_wrist_pitch_joint_dof,left_wrist_yaw_joint_dof,right_shoulder_pitch_joint_dof,right_shoulder_roll_joint_dof,right_shoulder_yaw_joint_dof,right_elbow_joint_dof,right_wrist_roll_joint_dof,right_wrist_pitch_joint_dof,right_wrist_yaw_joint_dof
0,-4.377011775970459,2.7955641746520996,77.3485107421875,2.0052412219915827,-1.3299374498754515,36.064501615251515,2.6937869,3.2795193,3.921992,10.194022,-10.217389,-7.4171643,3.288757,-12.714237,-5.2534313,7.6275973,-9.186742,13.01303,-1.284609,-1.9872904,6.519664,2.1736412,14.754399,-32.3977,55.659145,6.1405177,0.014170619,-4.886177,-4.9567866,-14.186794,31.992542,57.959362,-10.420271,10.075615,3.1720486
1,-4.443850040435791,2.9523003101348877,77.33763122558594,2.1196030258626357,-1.3465698041902625,36.00881532665187,2.8458314,2.9880948,3.9950013,10.020308,-10.214801,-7.232275,3.2865558,-12.998707,-5.1525927,7.682689,-9.189053,13.202011,-1.2572473,-2.123942,6.5404396,2.2359526,14.770863,-32.415154,55.626453,6.121056,0.03877721,-4.905492,-4.97754,-14.189667,31.93494,57.950798,-10.392291,10.081776,3.1432364
2,-4.514311790466309,3.1121675968170166,77.32296752929688,2.2333334604393307,-1.3631853226469453,35.95438698940525,3.000093,2.696946,4.065966,9.844486,-10.211815,-7.04811,3.288346,-13.283897,-5.0540414,7.731044,-9.18879,13.392993,-1.2295549,-2.2578387,6.5575714,2.2932582,14.777931,-32.433784,55.604767,6.1041117,0.0638184,-4.9229774,-5.000816,-14.193282,31.887665,57.950176,-10.362718,10.089413,3.1135387
3,-4.580763339996338,3.268828868865967,77.30619049072266,2.346659021127037,-1.3790975115814779,35.89754892980004,3.1546326,2.4062905,4.1373096,9.668315,-10.209832,-6.8642716,3.286622,-13.567468,-4.952903,7.7824254,-9.189009,13.57999,-1.1889608,-2.3916621,6.5797763,2.3388484,14.786266,-32.466984,55.58807,6.0805054,0.0877856,-4.9404426,-5.0106106,-14.200013,31.804651,57.93088,-10.339742,10.09437,3.0864153
4,-4.64596700668335,3.430742025375366,77.28973388671875,2.4590911756514084,-1.3935506229338033,35.83531457502918,3.3076272,2.1169477,4.2105613,9.491756,-10.209247,-6.6804557,3.2775571,-13.849143,-4.8454766,7.841377,-9.191242,13.757249,-1.1455992,-2.5235994,6.6087337,2.3753705,14.795273,-32.507957,55.576378,6.04403,0.10757484,-4.95834,-5.0109377,-14.20783,31.674885,57.888397,-10.315524,10.093104,3.0605147
5,-4.715268135070801,3.596609115600586,77.27220916748047,2.568880314219027,-1.409696618136192,35.76824802456155,3.4601192,1.829042,4.2837577,9.320834,-10.213666,-6.493515,3.2704678,-14.128249,-4.735348,7.8970437,-9.193537,13.922416,-1.1092882,-2.651795,6.6469817,2.4099429,14.8030405,-32.5444,55.565662,5.9874735,0.12236038,-4.9757814,-5.0078917,-14.2118435,31.49982,57.828976,-10.286667,10.084587,3.037302
6,-4.783173561096191,3.755742311477661,77.2545166015625,2.67719295621102,-1.4266328394049212,35.697730158121544,3.6130247,1.5421337,4.356843,9.152627,-10.221278,-6.3046117,3.25832,-14.405404,-4.621793,7.9611273,-9.201072,14.0787735,-1.0637616,-2.7792869,6.693117,2.4332,14.812183,-32.593822,55.56099,5.913227,0.13403805,-4.992426,-4.995253,-14.210975,31.271702,57.753864,-10.261789,10.070063,3.017317
7,-4.852299213409424,3.9113402366638184,77.23632049560547,2.7863240172975816,-1.4381085582470383,35.620837532896275,3.7635403,1.2563493,4.4343176,8.97655,-10.225884,-6.120142,3.2342227,-14.682303,-4.499095,8.029526,-9.202977,14.228487,-1.0231377,-2.9088862,6.738263,2.452569,14.822626,-32.64157,55.56166,5.8434525,0.14287928,-5.011282,-4.9877386,-14.203328,31.024927,57.673077,-10.235842,10.0516405,2.9926107
8,-4.922152996063232,4.067352771759033,77.21639251708984,2.9074920671023956,-1.4353429939277815,35.532785944605784,3.9106185,0.96200603,4.5243216,8.77395,-10.217047,-5.945389,3.065744,-14.972892,-4.327493,8.346802,-9.319429,14.374311,-0.97993314,-3.0540109,6.7736945,2.4622598,14.837604,-32.694225,55.57253,5.7959614,0.14979748,-5.035431,-4.985526,-14.188012,30.765516,57.584843,-10.213941,10.030935,2.957932
9,-4.985540866851807,4.211023330688477,77.19440460205078,3.0353633128137294,-1.4152926751012014,35.439665605410916,4.0429263,0.66549367,4.6195025,8.556158,-10.199527,-5.785965,2.8803596,-15.265885,-4.1457896,8.646327,-9.418349,14.5199175,-0.9366006,-3.2110171,6.797059,2.458859,14.861545,-32.76059,55.595043,5.7757697,0.15312824,-5.0695,-4.989961,-14.163477,30.493925,57.49316,-10.205709,10.003778,2.910037
10,-5.049121856689453,4.357173442840576,77.17061614990234,3.1647166161267988,-1.3829872940278483,35.342038557387724,4.1671095,0.3705707,4.718287,8.323319,-10.174425,-5.637668,2.7053556,-15.553612,-3.9619794,8.884689,-9.478319,14.662105,-0.9021073,-3.3728802,6.8131356,2.4520082,14.893063,-32.827385,55.62113,5.7748213,0.15292647,-5.111421,-5.003743,-14.131889,30.215134,57.398045,-10.203479,9.971315,2.8520954
11,-5.117597579956055,4.500670909881592,77.14458465576172,3.3002466943035427,-1.3453668803402874,35.22907109655561,4.2998824,0.07258933,4.833051,8.0637865,-10.136225,-5.4929657,2.4427626,-15.841724,-3.7360022,9.26906,-9.586724,14.791676,-0.8428466,-3.5530884,6.83223,2.4386082,14.949234,-32.915634,55.640423,5.7755876,0.15519167,-5.152623,-5.01741,-14.077049,29.888138,57.295242,-10.206101,9.939295,2.7892365
12,-5.181056976318359,4.6400861740112305,77.11602020263672,3.4448609704137576,-1.3095898425754458,35.09063304227226,4.457506,-0.23116347,4.975363,7.767839,-10.081053,-5.3445854,2.0131087,-16.134243,-3.4319577,9.971303,-9.812996,14.898294,-0.7934338,-3.7414277,6.858619,2.4405305,15.002886,-32.96368,55.649895,5.7867107,0.16131243,-5.1857166,-5.042592,-14.022311,29.5663,57.174213,-10.179099,9.918481,2.7248254
13,-5.244807720184326,4.774789333343506,77.08621978759766,3.604935272978541,-1.2725385945685614,34.923098906875474,4.637911,-0.54811686,5.150156,7.434262,-10.00848,-5.188629,1.396498,-16.440575,-3.0410423,11.023194,-10.1927185,14.983348,-0.712839,-3.9565308,6.891824,2.4462004,15.077734,-33.015274,55.64542,5.800803,0.17697318,-5.2058287,-5.0670586,-13.941939,29.188095,57.035786,-10.137004,9.912491,2.6634352
14,-5.3065104484558105,4.902100086212158,77.05744171142578,3.7722670441853996,-1.2321582466023566,34.73159918449868,4.817717,-0.86734045,5.3505144,7.104965,-9.940292,-5.0313115,0.6385775,-16.742655,-2.578118,12.326584,-10.675886,15.000033,-0.62862146,-4.182457,6.9280396,2.4607773,15.15736,-33.04593,55.633446,5.8289194,0.19747101,-5.2182693,-5.099443,-13.851205,28.791422,56.881886,-10.075892,9.917358,2.601137
15,-5.35866641998291,5.030013084411621,77.02733612060547,3.9368098876302593,-1.19879829533573,34.52310246937662,4.8641953,-1.1642029,5.5697107,7.083453,-10.03664,-4.8776097,-0.21600738,-17.030495,-2.0598161,13.814579,-11.18942,15.000033,-0.5396991,-4.409709,6.979369,2.4733224,15.243042,-33.06903,55.619892,5.850034,0.21848853,-5.2274966,-5.140909,-13.750746,28.38228,56.721634,-10.002499,9.92247,2.5319462
16,-5.41560697555542,5.154114246368408,76.9986801147461,4.084993285942936,-1.1812611391627037,34.3000839060746,4.9312744,-1.4361143,5.800731,7.0617213,-10.135567,-4.733587,-1.1183933,-17.279408,-1.4990965,15.407265,-11.652111,15.000033,-0.4481314,-4.624964,7.0564065,2.4795015,15.3365965,-33.088234,55.605328,5.8459024,0.235327,-5.238656,-5.1961193,-13.641857,27.977629,56.564056,-9.918868,9.917716,2.449532
17,-5.475554466247559,5.274886131286621,76.97103881835938,4.216339491902892,-1.1809117224459273,34.05507800823005,5.022862,-1.68142,6.0497236,7.034705,-10.234896,-4.5992107,-2.0727663,-17.483032,-0.88363314,17.11317,-12.054902,15.000033,-0.34611663,-4.828157,7.1636515,2.4783428,15.439541,-33.102894,55.584713,5.8077292,0.24707375,-5.253416,-5.2688146,-13.525878,27.576723,56.40979,-9.809607,9.901018,2.3629477
18,-5.527795791625977,5.391955852508545,76.9481201171875,4.332962068238774,-1.1923067021319982,33.78616611155138,5.131214,-1.9008394,6.3198895,7.0065336,-10.336037,-4.4736695,-3.0968854,-17.63873,-0.20822854,18.958086,-12.432297,14.946996,-0.23173577,-5.0207524,7.2952104,2.4729152,15.552488,-33.11179,55.55667,5.7460613,0.25606883,-5.2692657,-5.3532615,-13.401997,27.171339,56.25061,-9.679171,9.877595,2.272427
19,-5.57342004776001,5.505421161651611,76.92512512207031,4.431027472089656,-1.214630669742733,33.506576948748844,5.253378,-2.0910418,6.599126,6.981807,-10.441213,-4.359502,-4.1590633,-17.740213,0.49874368,20.884893,-12.769814,14.816426,-0.11978809,-5.2000875,7.444424,2.466922,15.675694,-33.115044,55.528152,5.6735897,0.26294646,-5.2851067,-5.446639,-13.270886,26.771885,56.091267,-9.556996,9.847693,2.1576192
20,-5.6162190437316895,5.611575126647949,76.90679168701172,4.511396814556476,-1.2473748656288934,33.23234003714086,5.3857775,-2.255301,6.872969,6.9638,-10.5506315,-4.2575727,-5.235378,-17.794773,1.2095232,22.855698,-13.057858,14.6147785,-0.028221173,-5.3667917,7.6048374,2.464981,15.808798,-33.111004,55.50464,5.603794,0.2682038,-5.299916,-5.5436954,-13.132958,26.388042,55.932983,-9.472998,9.811902,1.9984905
21,-5.654945373535156,5.716334819793701,76.88768768310547,4.576271520367145,-1.2971010067540178,32.95718683765165,5.5356693,-2.3954284,7.1470757,6.9551,-10.66744,-4.1679397,-6.3297396,-17.79643,1.9424115,24.896294,-13.275402,14.338112,0.04457877,-5.523624,7.784447,2.4683537,15.952287,-33.094322,55.483215,5.5285115,0.27081105,-5.3128767,-5.6469088,-12.987872,26.018995,55.776295,-9.448632,9.7710495,1.7826743
22,-5.690893173217773,5.8175554275512695,76.87582397460938,4.627093445317662,-1.3622186071639026,32.67678636887945,5.702282,-2.5130212,7.4251804,6.9521217,-10.791069,-4.089285,-7.448377,-17.745268,2.699182,27.014887,-13.431735,13.999406,0.10504975,-5.6717725,7.983274,2.475244,16.106564,-33.067024,55.461716,5.4444995,0.2708802,-5.324786,-5.7581987,-12.835209,25.661806,55.620407,-9.4621,9.725054,1.5232133
23,-5.714337348937988,5.911992073059082,76.86384582519531,4.662325873156569,-1.429661899797044,32.407144834737196,5.871124,-2.6082838,7.692069,6.952274,-10.913996,-4.0209866,-8.559931,-17.65294,3.4272742,29.122252,-13.555202,13.606197,0.14445733,-5.809336,8.182272,2.4844935,16.270592,-33.038605,55.447605,5.372885,0.2706264,-5.33717,-5.870347,-12.676352,25.321024,55.46517,-9.482672,9.671989,1.2378484
24,-5.732283592224121,6.008120059967041,76.85577392578125,4.678568704675519,-1.4864675859982526,32.164519054507295,6.02752,-2.679755,7.9324684,6.9516797,-11.032947,-3.962839,-9.63951,-17.532583,4.0766068,31.140743,-13.675941,13.164327,0.1540961,-5.9326367,8.362174,2.4934266,16.442238,-33.020252,55.450237,5.3339734,0.27198955,-5.351382,-5.9775634,-12.51422,25.004017,55.31091,-9.475474,9.6100025,0.94457114
25,-5.745971202850342,6.102593421936035,76.8511962890625,4.673409972712449,-1.5324441381689708,31.945907874767535,6.1713066,-2.7232368,8.149782,6.9504848,-11.14767,-3.9156682,-10.708009,-17.37901,4.6492677,33.1267,-13.810331,12.604672,0.1356359,-6.038789,8.524189,2.5019903,16.619497,-33.00715,55.472645,5.3359737,0.27210042,-5.3689075,-6.0782986,-12.349373,24.71107,55.15089,-9.42548,9.538243,0.6431261
26,-5.747003555297852,6.197559833526611,76.8490982055664,4.648665407119933,-1.5736981322114934,31.74505430149029,6.309398,-2.740642,8.349823,6.949803,-11.260237,-3.8791635,-11.768752,-17.19182,5.165015,35.09619,-13.9376335,11.948819,0.092317075,-6.129767,8.675934,2.508887,16.801857,-32.997242,55.51299,5.3663607,0.2707402,-5.388355,-6.1750445,-12.182147,24.439322,54.986927,-9.352227,9.457641,0.32589355
27,-5.736556053161621,6.289401531219482,76.8512954711914,4.609586723709849,-1.6065051054750925,31.573020032577915,6.437418,-2.74024,8.521689,6.949244,-11.369578,-3.8513014,-12.774098,-16.989391,5.6028514,36.917763,-14.0404005,11.338871,0.019214539,-6.2101326,8.809076,2.5126245,16.988585,-33.001995,55.56941,5.419181,0.27432397,-5.4069414,-6.261373,-12.015167,24.186934,54.823742,-9.278224,9.368649,0.00028596047
28,-5.7207932472229,6.385866641998291,76.85646057128906,4.560327223323141,-1.6270071489098403,31.440707972338206,6.55069,-2.7290606,8.654296,6.9490914,-11.475173,-3.830156,-13.680056,-16.792156,5.944178,38.465706,-14.10514,10.917867,-0.08800738,-6.2831225,8.915272,2.510254,17.17886,-33.03487,55.64158,5.4865823,0.28911126,-5.421764,-6.330088,-11.853238,23.951307,54.665394,-9.225578,9.272126,-0.3260304
29,-5.693246364593506,6.487776279449463,76.86042785644531,4.4997461669343535,-1.6320639924337594,31.35240323424557,6.645384,-2.7060122,8.743721,6.949842,-11.577023,-3.818155,-14.473741,-16.5964,6.191521,39.71167,-14.137262,10.75901,-0.23371954,-6.3472033,8.987885,2.499741,17.372526,-33.107697,55.73515,5.5850554,0.31948087,-5.433381,-6.37563,-11.69939,23.734577,54.509262,-9.194006,9.158187,-0.65532374
30,-5.655545234680176,6.589043140411377,76.86698150634766,4.42585982800484,-1.6243709609406711,31.30151055191137,6.7256966,-2.6679611,8.796252,6.949501,-11.67456,-3.8152266,-15.18357,-16.395416,6.353948,40.729965,-14.146622,10.776573,-0.41319412,-6.4002213,9.033569,2.4808881,17.569212,-33.213127,55.849743,5.7113247,0.3610093,-5.442834,-6.4005857,-11.555042,23.536732,54.35081,-9.172899,9.030057,-0.98953366
31,-5.608401775360107,6.690235614776611,76.87452697753906,4.341837701152457,-1.6088599644760773,31.28355357939768,6.796104,-2.6182342,8.816249,6.950967,-11.769432,-3.8158097,-15.830014,-16.211657,6.4258723,41.550526,-14.127732,10.8746,-0.61706483,-6.4430323,9.065042,2.4563339,17.766584,-33.331776,55.9708,5.833033,0.40710396,-5.448424,-6.403543,-11.420394,23.348091,54.183163,-9.172448,8.908006,-1.3197889
32,-5.554810523986816,6.787002086639404,76.88259887695312,4.251422290596317,-1.5903516889695073,31.294073370991608,6.863037,-2.5614977,8.808021,6.9534583,-11.861888,-3.814252,-16.432673,-16.067793,6.4022408,42.202034,-14.07367,10.955546,-0.8363013,-6.4776497,9.09433,2.4273624,17.96131,-33.44525,56.08697,5.9166293,0.45106664,-5.4479346,-6.3862624,-11.296043,23.161606,54.003418,-9.200342,8.812834,-1.6377355
33,-5.484496116638184,6.895185947418213,76.89682006835938,4.151614847836221,-1.5690995003036978,31.34498884827381,6.9254255,-2.4958787,8.759627,6.9557214,-11.948672,-3.806576,-16.982079,-15.963022,6.278509,42.667675,-13.976891,11.01744,-1.081113,-6.5011992,9.121366,2.3925576,18.15116,-33.556145,56.202854,5.937303,0.49138656,-5.4334908,-6.343409,-11.18109,22.979889,53.80116,-9.284399,8.75864,-1.9433992
34,-5.413933277130127,7.001356601715088,76.90858459472656,4.0420533322819425,-1.5426586081769842,31.43426312259636,6.980374,-2.4201436,8.673138,6.958962,-12.030829,-3.7965374,-17.473694,-15.891158,6.060808,42.940002,-13.843168,11.102567,-1.3524998,-6.5137963,9.139978,2.3497713,18.33554,-33.672028,56.326206,5.918163,0.53131527,-5.4080515,-6.2764463,-11.075812,22.805687,53.583046,-9.412651,8.732116,-2.2408483
35,-5.33469820022583,7.10437536239624,76.9208984375,3.9300673302067293,-1.5120973868811876,31.536408535302574,7.0342298,-2.340125,8.573781,6.962178,-12.113822,-3.7901728,-17.931248,-15.865832,5.7592406,43.05505,-13.680058,11.178539,-1.6266767,-6.519934,9.154691,2.3003712,18.513147,-33.78077,56.447273,5.9000173,0.5716237,-5.38652,-6.1949286,-10.981292,22.632282,53.367165,-9.528217,8.712195,-2.5272686
36,-5.248206615447998,7.207941055297852,76.92991638183594,3.822358201122406,-1.4784048330191368,31.625751912078414,7.092029,-2.2604387,8.486675,6.9659305,-12.203126,-3.7936099,-18.377295,-15.897526,5.3818436,43.049583,-13.495144,11.212273,-1.88053,-6.5238194,9.169031,2.2459114,18.682528,-33.86964,56.55707,5.9236417,0.6131348,-5.3836656,-6.1091514,-10.900475,22.453135,53.17273,-9.576976,8.676873,-2.7999222
37,-5.159721374511719,7.316722869873047,76.93533325195312,3.718299465804552,-1.4404893897234277,31.70346570907522,7.1523213,-2.1806133,8.41127,6.969763,-12.299032,-3.8122878,-18.810614,-15.999825,4.9068093,42.918087,-13.280508,11.200597,-2.1131494,-6.5237126,9.18097,2.181599,18.842405,-33.93964,56.663307,6.0101542,0.65861285,-5.4119854,-6.01735,-10.836657,22.270874,52.995083,-9.522014,8.616636,-3.0598562
38,-5.05961275100708,7.429909706115723,76.93962097167969,3.614841709524274,-1.3982104529084274,31.78046677717926,7.2134194,-2.0982378,8.336517,6.9727483,-12.398399,-3.8417747,-19.218204,-16.162592,4.335948,42.6449,-13.034856,11.158377,-2.335028,-6.5165415,9.189931,2.1077971,18.991941,-33.996,56.768005,6.135161,0.7064926,-5.460915,-5.9120193,-10.790009,22.086746,52.82271,-9.400744,8.543766,-3.3070612
39,-4.951388835906982,7.538197994232178,76.94281005859375,3.5164110683610006,-1.354553474614067,31.846405489387553,7.2800617,-2.0173218,8.272115,6.9770074,-12.503845,-3.8732758,-19.606426,-16.362503,3.7143404,42.25305,-12.7767515,11.080433,-2.539693,-6.5072303,9.201922,2.0322986,19.131092,-34.0339,56.855633,6.26906,0.75133914,-5.510197,-5.799522,-10.758805,21.89533,52.670147,-9.264655,8.469049,-3.538069
40,-4.835826873779297,7.644872188568115,76.94170379638672,3.4278930098981246,-1.312193044762849,31.89084625504912,7.359414,-1.942584,8.22768,6.980336,-12.616069,-3.897862,-19.982233,-16.577284,3.0876005,41.76499,-12.524784,10.961979,-2.7209907,-6.5012474,9.222806,1.9637164,19.260511,-34.04778,56.910038,6.382385,0.7877912,-5.5397983,-5.6850967,-10.73909,21.689407,52.55081,-9.167977,8.403782,-3.7496123
41,-4.713830471038818,7.752957344055176,76.94117736816406,3.352328380398432,-1.273453275113972,31.90925154970156,7.453914,-1.8771986,8.2071085,6.984563,-12.735774,-3.9110565,-20.347248,-16.813688,2.4484613,41.180145,-12.29485,10.783636,-2.8763897,-6.503039,9.25717,1.904989,19.380886,-34.03234,56.92408,6.473926,0.8153128,-5.540483,-5.5726,-10.727533,21.467468,52.468105,-9.125411,8.349277,-3.9363594
42,-4.584155082702637,7.859274864196777,76.93345642089844,3.2863025593546493,-1.2362773666290754,31.90787783508953,7.5596905,-1.8178653,8.204821,6.9891934,-12.861644,-3.9184012,-20.695518,-17.075808,1.7762129,40.48755,-12.074448,10.556297,-3.010076,-6.509841,9.300066,1.8523124,19.492622,-33.99079,56.907722,6.5571895,0.8364617,-5.5241785,-5.4610667,-10.723731,21.233274,52.419193,-9.109047,8.300359,-4.102355
43,-4.445059299468994,7.96681022644043,76.92208862304688,3.2252051689211765,-1.1976215003816526,31.891947890784465,7.6728477,-1.7595719,8.216434,6.994684,-12.995887,-3.9258862,-21.023027,-17.336006,1.0969112,39.69342,-11.838136,10.319682,-3.1259043,-6.515559,9.343431,1.8033634,19.596228,-33.93184,56.86837,6.6242356,0.851285,-5.5023813,-5.347259,-10.726697,20.98766,52.405277,-9.10697,8.258694,-4.258207
44,-4.301868915557861,8.076567649841309,76.90416717529297,3.1634670075734994,-1.154338433683498,31.86745860380782,7.789387,-1.6966197,8.237329,7.0002847,-13.139363,-3.9396944,-21.32496,-17.56352,0.43540558,38.79932,-11.557071,10.111935,-3.2277412,-6.513692,9.379255,1.7547685,19.692318,-33.865116,56.814644,6.666054,0.8594153,-5.4865522,-5.229392,-10.735897,20.731573,52.42962,-9.106867,8.226093,-4.4146986
45,-4.147500038146973,8.184325218200684,76.88664245605469,3.0994207680895136,-1.106146746633631,31.83155580428014,7.911032,-1.627161,8.27067,7.0048666,-13.294703,-3.9621925,-21.600176,-17.76087,-0.21520445,37.796318,-11.229813,9.937195,-3.313015,-6.501473,9.405688,1.7090031,19.780725,-33.785862,56.744213,6.6792254,0.8594549,-5.481146,-5.104608,-10.750759,20.4571,52.49075,-9.103294,8.204494,-4.569975
46,-3.9824419021606445,8.292329788208008,76.8706283569336,3.03588416147392,-1.0547153537907972,31.782851431694038,8.038264,-1.554271,8.317444,7.0100317,-13.46072,-3.989933,-21.849573,-17.938307,-0.86513597,36.683342,-10.867911,9.778227,-3.3808248,-6.4828362,9.4267845,1.6660928,19.861542,-33.692303,56.65486,6.6678553,0.85195076,-5.479573,-4.974822,-10.771323,20.165546,52.588356,-9.10468,8.192659,-4.720034
47,-3.8129429817199707,8.401412010192871,76.84973907470703,2.9754343021094596,-0.9994911499929221,31.728326361820482,8.168832,-1.4808396,8.369857,7.0156975,-13.632884,-4.0201616,-22.074833,-18.084003,-1.4906235,35.47664,-10.462093,9.639531,-3.4368467,-6.461846,9.444031,1.6213228,19.93565,-33.59617,56.55248,6.6381006,0.8398433,-5.4767213,-4.8441377,-10.796938,19.873304,52.725166,-9.115874,8.186849,-4.8718605
48,-3.6355361938476562,8.512201309204102,76.83032989501953,2.9209020664992353,-0.939940281052612,31.67532805138326,8.299956,-1.4099104,8.420115,7.0214543,-13.805624,-4.0500298,-22.277906,-18.185076,-2.0674872,34.19187,-10.002518,9.524051,-3.48691,-6.4426847,9.458885,1.5699214,20.004324,-33.509556,56.442448,6.595774,0.82608116,-5.46772,-4.716585,-10.8263235,19.596495,52.90328,-9.142445,8.183382,-5.0325294
49,-3.449610948562622,8.618496894836426,76.80618286132812,2.8726540981747672,-0.872992777625285,31.622235619344668,8.428281,-1.3413726,8.46852,7.028761,-13.979324,-4.073975,-22.466667,-18.240725,-2.5838487,32.82625,-9.481469,9.411875,-3.5442297,-6.425913,9.456387,1.502245,20.041975,-33.422665,56.35857,6.538508,0.8076052,-5.4425735,-4.614349,-10.847319,19.367876,53.163975,-9.1828985,8.1756315,-5.2287207
50,-3.2541613578796387,8.727185249328613,76.77616119384766,2.8300066989495596,-0.8001884303130632,31.56663109966339,8.5550995,-1.2745895,8.518315,7.039449,-14.157313,-4.0950885,-22.637596,-18.261108,-3.0523787,31.37031,-8.903876,9.30673,-3.5651975,-6.410728,9.465922,1.4304442,20.105907,-33.36481,56.22652,6.452372,0.78699476,-5.415713,-4.486202,-10.888484,19.114996,53.42992,-9.248092,8.165489,-5.431304
51,-3.0464227199554443,8.839987754821777,76.74173736572266,2.7924670034542234,-0.7273738911122256,31.514396632190916,8.687642,-1.2099793,8.565768,7.0488267,-14.3368225,-4.1237335,-22.776682,-18.250164,-3.4852319,29.833523,-8.281053,9.245799,-3.5925891,-6.3973937,9.474982,1.367631,20.169323,-33.302452,56.076538,6.3634286,0.76676184,-5.390736,-4.363291,-10.933177,18.87628,53.72777,-9.318735,8.169006,-5.619341
52,-2.8321518898010254,8.94121265411377,76.71098327636719,2.760702549895573,-0.6609498315226093,31.47134092900769,8.830647,-1.1484903,8.607149,7.058213,-14.517889,-4.1702065,-22.867544,-18.213774,-3.8935065,28.22054,-7.621789,9.26668,-3.630729,-6.38759,9.487526,1.3037634,20.220886,-33.23774,55.932003,6.291965,0.7502502,-5.374886,-4.25117,-10.971234,18.631153,54.053043,-9.395209,8.199255,-5.7591343
53,-2.6153688430786133,9.039081573486328,76.67469787597656,2.736248168424317,-0.6042000921754568,31.438749666224687,8.987965,-1.092536,8.642423,7.0665903,-14.70087,-4.243291,-22.902607,-18.153711,-4.278776,26.514183,-6.893963,9.40147,-3.6864834,-6.383817,9.503222,1.242063,20.255224,-33.16263,55.79598,6.2477536,0.739961,-5.3709188,-4.156698,-10.997613,18.375153,54.421986,-9.479993,8.261222,-5.8400974
54,-2.3866209983825684,9.140958786010742,76.63430786132812,2.7202868226000896,-0.5542151084784319,31.41462172313971,9.1559,-1.0426089,8.672249,7.0759497,-14.886267,-4.3352914,-22.883018,-18.073116,-4.6332517,24.700768,-6.0986276,9.621209,-3.7192667,-6.3849154,9.541331,1.1786146,20.309929,-33.11451,55.622616,6.2078276,0.7356872,-5.3803043,-4.0368595,-11.037698,18.064962,54.779583,-9.585159,8.345202,-5.865687
55,-2.151686429977417,9.24435806274414,76.58949279785156,2.711778471594714,-0.5083515013260007,31.401642016118032,9.332476,-0.99730617,8.69288,7.083847,-15.071993,-4.431781,-22.814386,-17.976482,-4.95423,22.807169,-5.2946806,9.871153,-3.767398,-6.39318,9.578892,1.1193626,20.3617,-33.06622,55.448555,6.169838,0.7316074,-5.3933635,-3.9274478,-11.074033,17.772552,55.15665,-9.689347,8.448251,-5.86539
56,-1.9044184684753418,9.34555435180664,76.54029083251953,2.7095780560762748,-0.4642052019465924,31.402264663216567,9.512596,-0.9545923,8.70064,7.0934253,-15.258306,-4.518241,-22.700792,-17.87088,-5.2405224,20.858921,-4.542173,10.096901,-3.8375685,-6.4088993,9.605428,1.0514582,20.394392,-33.019047,55.307163,6.128804,0.72289896,-5.402649,-3.8376505,-11.098153,17.523018,55.55336,-9.785561,8.565889,-5.8587923
57,-1.6496790647506714,9.448914527893066,76.49063873291016,2.718206454493413,-0.4222090113193841,31.419020492467606,9.697417,-0.9202852,8.692796,7.103521,-15.444732,-4.584797,-22.5303,-17.755764,-5.474978,18.824661,-3.8499372,10.296732,-3.898043,-6.4347177,9.636221,0.96596396,20.434338,-33.010605,55.17099,6.0678353,0.710025,-5.410646,-3.7339358,-11.130375,17.281282,55.930355,-9.879467,8.700016,-5.83655
58,-1.3867261409759521,9.548015594482422,76.43649291992188,2.7408265488825077,-0.38600581953471386,31.452960803747978,9.889989,-0.8980673,8.668434,7.1158385,-15.632909,-4.6402116,-22.296236,-17.638731,-5.6651697,16.691244,-3.1832726,10.492981,-3.9584854,-6.4724116,9.675972,0.8785403,20.487848,-33.02849,55.019867,5.9924765,0.6954794,-5.4213624,-3.6151352,-11.175945,17.048088,56.287502,-9.969665,8.851954,-5.790644
59,-1.120251178741455,9.645004272460938,76.37828063964844,2.7744173991450993,-0.35725052190214823,31.50435171193869,10.092868,-0.8839387,8.627435,7.126622,-15.820415,-4.697976,-22.011946,-17.534912,-5.8491473,14.512983,-2.5355098,10.669496,-4.0420337,-6.521446,9.716798,0.79297006,20.535976,-33.045555,54.87908,5.918552,0.67906165,-5.4338565,-3.5037282,-11.216645,16.836674,56.641674,-10.057641,9.013831,-5.728434
60,-0.8486455082893372,9.731154441833496,76.3138656616211,2.815112548740667,-0.33698421368400117,31.572265648140373,10.30789,-0.8726123,8.570873,7.1361594,-16.008438,-4.7717133,-21.694344,-17.45542,-6.064899,12.348918,-1.9014522,10.813261,-4.1425557,-6.5777493,9.762001,0.70508677,20.578873,-33.06663,54.75405,5.8503823,0.6621004,-5.44961,-3.390491,-11.249621,16.622005,56.971767,-10.154119,9.175983,-5.647939
61,-0.5726100206375122,9.819657325744629,76.2496109008789,2.8626436831154343,-0.3260824365010508,31.65588804974949,10.5337105,-0.86353415,8.499169,7.1462092,-16.198265,-4.8667974,-21.300056,-17.384884,-6.325262,10.10446,-1.2357237,10.918495,-4.266166,-6.642744,9.810258,0.6176526,20.61304,-33.084785,54.648335,5.7857184,0.6426285,-5.4721274,-3.2819638,-11.271574,16.40872,57.287594,-10.254308,9.336015,-5.5520372
62,-0.28321513533592224,9.90577220916748,76.18025207519531,2.9211411109124565,-0.3247630869942868,31.75741661049039,10.772719,-0.86208475,8.410076,7.154145,-16.38866,-4.9747663,-20.802593,-17.320387,-6.620909,7.7177367,-0.5174824,10.996061,-4.379079,-6.7187915,9.875464,0.51755166,20.661316,-33.139385,54.54009,5.7107368,0.62242854,-5.502571,-3.1467283,-11.294918,16.15551,57.556683,-10.3693695,9.496635,-5.429593
63,0.01674358732998371,9.995308876037598,76.10271453857422,2.9875076037767823,-0.3299425661611163,31.87663797534236,11.019371,-0.86304164,8.304586,7.162756,-16.577568,-5.0903406,-20.907421,-17.339813,-6.7639747,6.6431866,-0.49888933,11.053471,-4.5337434,-6.8035984,9.932879,0.42893597,20.695705,-33.17359,54.45158,5.6527524,0.60298055,-5.529066,-3.0312097,-11.307386,15.944169,57.823902,-10.482345,9.663531,-5.294949
64,0.3266187310218811,10.08193588256836,76.02734375,3.055092934736789,-0.33714284885173895,32.01086681880885,11.269374,-0.85826325,8.186244,7.172249,-16.76138,-5.208356,-21.441803,-17.428902,-6.8260274,6.5387397,-0.9787015,11.10549,-4.6502113,-6.8868537,10.00759,0.31774879,20.758083,-33.27132,54.351715,5.5966687,0.5914245,-5.548878,-2.8684683,-11.323313,15.670406,58.005352,-10.631259,9.83409,-5.1251287
65,0.6419425010681152,10.16768741607666,75.9494400024414,3.11437274079116,-0.3439791241410566,32.154282063787925,11.521649,-0.83638793,8.062036,7.1805673,-16.94273,-5.3315125,-21.959787,-17.522938,-6.917955,6.476296,-1.4707929,11.140053,-4.796175,-6.957036,10.075191,0.21879601,20.814316,-33.357677,54.25954,5.5731044,0.58763105,-5.5511546,-2.7196386,-11.333476,15.437646,58.16265,-10.805208,10.024,-4.9332466
66,0.9600237011909485,10.234197616577148,75.87455749511719,3.16393583869895,-0.34960142226160046,32.30488084856182,11.774985,-0.7963009,7.933734,7.189024,-17.121729,-5.4624944,-22.458681,-17.61369,-7.0393524,6.442451,-1.9727356,11.157395,-4.949836,-7.0128684,10.140874,0.11699017,20.865934,-33.452587,54.179314,5.570801,0.58912754,-5.541782,-2.5702014,-11.340127,15.213704,58.286304,-11.005728,10.226763,-4.716655
67,1.2841439247131348,10.314852714538574,75.80278778076172,3.2126093464191863,-0.3533131397998174,32.469484158127244,12.027839,-0.7481949,7.79289,7.197887,-17.296595,-5.5955057,-22.912683,-17.713404,-7.251126,6.416086,-2.4603765,11.195246,-5.1074214,-7.065457,10.201086,0.011525136,20.91646,-33.556595,54.110134,5.573689,0.59235305,-5.532083,-2.4088917,-11.344243,14.988872,58.369114,-11.195248,10.419912,-4.4839945
68,1.6231623888015747,10.396512031555176,75.72935485839844,3.261122049266471,-0.34953609439654854,32.649866553455915,12.274433,-0.6913787,7.636654,7.206926,-17.465012,-5.7279863,-23.317146,-17.828537,-7.609738,6.4103565,-2.9270623,11.288574,-5.2567563,-7.118413,10.250772,-0.0984828,20.974964,-33.674526,54.045643,5.563323,0.59400356,-5.533282,-2.223643,-11.3463545,14.746557,58.4022,-11.340213,10.580762,-4.243618
69,1.973836898803711,10.472404479980469,75.65306091308594,3.3105356350229367,-0.3408519381849037,32.84927115604655,12.516938,-0.6276766,7.4605136,7.216793,-17.627043,-5.853192,-23.664314,-17.972143,-8.150583,6.4161353,-3.3720198,11.4621,-5.419247,-7.174906,10.285222,-0.20435067,21.03355,-33.78361,53.99324,5.5403466,0.5921769,-5.552235,-2.0245168,-11.345381,14.512823,58.39097,-11.422489,10.7034,-3.9935277
70,2.3289897441864014,10.544939041137695,75.57678985595703,3.362104711744094,-0.32979536122975084,33.066776501875154,12.757753,-0.55971366,7.266223,7.2263517,-17.78272,-5.973491,-23.953838,-18.138344,-8.838588,6.421285,-3.7914634,11.694508,-5.608912,-7.232907,10.303554,-0.30372396,21.079496,-33.871952,53.96139,5.5191402,0.5880123,-5.580943,-1.824792,-11.341934,14.306387,58.349346,-11.456935,10.801271,-3.7338657
71,2.6890225410461426,10.614944458007812,75.49787902832031,3.411687541011313,-0.3095889810921844,33.29470216039104,12.98986,-0.48256037,7.0632114,7.236002,-17.931787,-6.0996423,-24.184803,-18.312344,-9.625163,6.42536,-4.170498,11.950878,-5.769163,-7.2860627,10.317796,-0.41397023,21.141323,-33.99467,53.924698,5.489463,0.5848806,-5.6109276,-1.5923244,-11.333815,14.057881,58.255486,-11.472244,10.878913,-3.4704566
72,3.0554656982421875,10.693482398986816,75.41812133789062,3.4573242123058785,-0.2741386649552817,33.526061800349034,13.206201,-0.39390326,6.8605046,7.246578,-18.074741,-6.2420216,-24.35749,-18.47683,-10.46106,6.427556,-4.494634,12.194466,-5.9447055,-7.3247867,10.309428,-0.50444984,21.193983,-34.08998,53.885796,5.477746,0.58098525,-5.6304913,-1.372722,-11.323181,13.835668,58.162453,-11.454095,10.946648,-3.2283995
73,3.4293394088745117,10.760504722595215,75.34243774414062,3.504516968767233,-0.22276911748422595,33.771185561216114,13.402141,-0.29881474,6.651373,7.262814,-18.220778,-6.4043536,-24.46819,-18.650827,-11.406694,6.4292545,-4.7735653,12.46369,-6.1272697,-7.353236,10.281671,-0.5853182,21.241835,-34.178886,53.842133,5.491242,0.57749313,-5.635408,-1.1456379,-11.308252,13.609785,58.048374,-11.398312,11.005562,-3.0069554
74,3.8114492893218994,10.831889152526855,75.26712036132812,3.553032228467992,-0.15760423885677566,34.02877768543335,13.583019,-0.19735363,6.4355,7.280178,-18.365881,-6.5808835,-24.517214,-18.8341,-12.463313,6.427153,-5.0083904,12.760542,-6.321705,-7.373108,10.233021,-0.6565267,21.281834,-34.256756,53.801163,5.522943,0.5734389,-5.6311703,-0.9178047,-11.290729,13.392001,57.917885,-11.30156,11.051907,-2.800018
75,4.2022013664245605,10.904507637023926,75.19721221923828,3.5934615527712674,-0.07748521924771978,34.275813064241696,13.7511015,-0.08031838,6.2299304,7.2983027,-18.495565,-6.767927,-24.51561,-18.9848,-13.491655,6.4234285,-5.1798563,12.992901,-6.467262,-7.378704,10.178575,-0.7416259,21.333096,-34.364044,53.759785,5.540168,0.57023185,-5.624456,-0.67026305,-11.262624,13.1356735,57.760296,-11.211439,11.083435,-2.6002128
76,4.596454620361328,10.978846549987793,75.12995910644531,3.616697431796925,0.01910613561822888,34.489951203263615,13.911174,0.06070166,6.0506134,7.3113246,-18.592407,-6.961394,-24.476677,-19.06066,-14.352276,6.423236,-5.2722063,13.068167,-6.596405,-7.3557725,10.104198,-0.8070844,21.37512,-34.43731,53.72171,5.538449,0.56479895,-5.6200266,-0.45340064,-11.235094,12.9212055,57.632313,-11.131672,11.10082,-2.4149284
77,4.991508960723877,11.049036979675293,75.06949615478516,3.6336809740058964,0.13497856798960625,34.66393671213914,14.06301,0.21167144,5.9023414,7.317649,-18.657017,-7.157691,-24.384228,-19.066383,-15.05717,6.427737,-5.3265038,12.9363785,-6.686179,-7.314715,10.008704,-0.8647106,21.410894,-34.494164,53.69181,5.501892,0.5549545,-5.6227717,-0.2508235,-11.208055,12.723055,57.518787,-11.075927,11.096643,-2.2377098
78,5.393120288848877,11.1168851852417,75.01294708251953,3.6446417544441423,0.26833970638122656,34.81066550213058,14.205518,0.37267536,5.775867,7.3194003,-18.696346,-7.3596387,-24.239733,-19.014996,-15.663371,6.4364586,-5.338971,12.653857,-6.7549067,-7.2543077,9.891589,-0.9100315,21.435898,-34.52849,53.668785,5.4459224,0.5416022,-5.6286383,-0.061237913,-11.1851225,12.548035,57.41413,-11.025829,11.073907,-2.070608
79,5.802654266357422,11.195000648498535,74.96443176269531,3.622121949838325,0.4124276200827383,34.93652325289087,14.342398,0.5772044,5.666912,7.3207374,-18.706388,-7.5736694,-24.079613,-18.876413,-16.101377,6.4432735,-5.2204804,12.28787,-6.8070436,-7.147758,9.768811,-0.9475332,21.450142,-34.54293,53.650505,5.3861427,0.5296996,-5.62912,0.106263876,-11.168167,12.404644,57.325897,-10.976705,11.045987,-1.9188528
80,6.2138261795043945,11.262639999389648,74.93839263916016,3.539591373887282,0.5607305353439559,35.0482911785946,14.478225,0.85699326,5.571179,7.3235445,-18.682095,-7.8059745,-23.941849,-18.625103,-16.302319,6.4443073,-4.8823085,11.906544,-6.833755,-6.969769,9.661418,-0.9879887,21.457804,-34.54949,53.631992,5.338722,0.5246945,-5.617686,0.2548328,-11.15395,12.278665,57.25032,-10.93493,11.025692,-1.7846519
81,6.623763084411621,11.330330848693848,74.93418884277344,3.3604227182955815,0.7225692305602143,35.13277645911753,14.604211,1.2541052,5.502873,7.3296547,-18.629522,-8.06706,-23.841572,-18.201103,-16.176973,6.4358263,-4.273886,11.441251,-6.8112626,-6.6838603,9.57747,-1.0482467,21.458883,-34.558113,53.61141,5.312105,0.5319183,-5.588743,0.3778212,-11.137788,12.1532545,57.18996,-10.90633,11.012024,-1.673652
82,7.039461135864258,11.408256530761719,74.9381103515625,3.1067578439423467,0.8972934149732575,35.19105647784528,14.722425,1.7422701,5.4592166,7.3376155,-18.54915,-8.351251,-23.75481,-17.638395,-15.792089,6.42203,-3.449256,10.8870325,-6.779007,-6.31045,9.495916,-1.0906178,21.451334,-34.535244,53.579678,5.295831,0.5474658,-5.544887,0.4601331,-11.130752,12.086833,57.161312,-10.864657,11.001696,-1.5895644
83,7.468578338623047,11.485335350036621,74.94793701171875,2.8390314975262996,1.0632161155717816,35.250428048360654,14.852495,2.252877,5.410893,7.347755,-18.428827,-8.641171,-23.65512,-17.049356,-15.313095,6.400427,-2.4738092,10.406158,-6.7365713,-5.913693,9.426524,-1.132836,21.431362,-34.50002,53.564484,5.284041,0.56130254,-5.4992023,0.53733724,-11.126485,12.030262,57.13564,-10.839601,10.997088,-1.5106964
84,7.913667678833008,11.560294151306152,74.95782470703125,2.6183065286303306,1.199862169742746,35.33868545072712,15.013938,2.7166073,5.3284674,7.3590536,-18.257114,-8.918843,-23.518301,-16.543543,-14.899379,6.367339,-1.4161471,10.158072,-6.718535,-5.560354,9.35587,-1.1433846,21.416405,-34.466457,53.561184,5.24421,0.56703347,-5.45558,0.6137599,-11.124726,12.010077,57.12761,-10.81455,11.002082,-1.4311819
85,8.374808311462402,11.632224082946777,74.96622467041016,2.4678645802099024,1.299411820853755,35.47145568774062,15.21428,3.1093757,5.201553,7.3711004,-18.035593,-9.179371,-23.354969,-16.140821,-14.490548,6.321734,-0.19426998,10.213215,-6.7377744,-5.2678456,9.289549,-1.1361523,21.384779,-34.41787,53.59622,5.191636,0.5560379,-5.4217625,0.70169526,-11.121754,12.000477,57.125748,-10.800643,11.018662,-1.3491323
86,8.849656105041504,11.700183868408203,74.97549438476562,2.351346033181211,1.374389752757975,35.63094337158278,15.44152,3.471926,5.047339,7.384269,-17.769083,-9.432454,-23.171045,-15.78093,-14.028258,6.2636223,1.1935352,10.47761,-6.77862,-5.000015,9.219754,-1.119474,21.330345,-34.369728,53.67293,5.1181693,0.5363042,-5.385265,0.78482556,-11.116827,12.021387,57.149136,-10.7825985,11.045591,-1.2773973
87,9.329197883605957,11.7774076461792,74.9828109741211,2.247175349133549,1.4355519760048592,35.7964063107148,15.681191,3.825283,4.875784,7.40105,-17.449488,-9.681307,-22.948286,-15.46379,-13.664577,6.203747,2.553395,10.860097,-6.8273506,-4.7409406,9.146298,-1.0961536,21.251343,-34.3005,53.793648,5.0529513,0.51284975,-5.347939,0.84886384,-11.1112175,12.080021,57.199196,-10.789327,11.078781,-1.2015613
88,9.815980911254883,11.844600677490234,75.00873565673828,2.131860627047986,1.4938752160181474,35.94695903863498,15.919861,4.1920357,4.697559,7.422537,-17.06826,-9.929504,-22.668688,-15.189707,-13.558805,6.1522903,3.6937926,11.263807,-6.872587,-4.4714665,9.07596,-1.0445354,21.16156,-34.18274,53.91736,5.02279,0.49832246,-5.310396,0.8827352,-11.109665,12.185577,57.26504,-10.848853,11.115871,-1.1080214
89,10.305682182312012,11.915803909301758,75.04447937011719,2.0012976847530526,1.553720951222274,36.09276549294471,16.149948,4.5783663,4.498838,7.448536,-16.62692,-10.185199,-22.309448,-14.99647,-13.8555975,6.110336,4.57666,11.73539,-6.943543,-4.1839156,8.99766,-0.9635641,21.036186,-33.981243,54.071644,5.0530567,0.49120012,-5.2715626,0.8678963,-11.119719,12.376305,57.37401,-10.970114,11.152849,-0.99531835
90,10.796592712402344,11.987030982971191,75.08956909179688,1.865347325804778,1.6111325766855538,36.239559868129895,16.111092,4.992586,4.256807,8.04256,-16.426758,-10.44348,-21.888832,-14.869977,-14.436434,6.0761037,5.3052588,12.29186,-7.005798,-3.8940187,8.927382,-0.8440536,20.936403,-33.75185,54.195053,5.1036415,0.49164328,-5.2372575,0.8422272,-11.134101,12.594697,57.48459,-11.148245,11.189367,-0.86005574
91,11.28902816772461,12.059431076049805,75.14161682128906,1.7200580705115311,1.6624299849577462,36.35903573319715,16.033592,5.4175777,4.0186963,8.737089,-16.214483,-10.691817,-21.444828,-14.732603,-15.074997,6.0477924,5.90021,12.796597,-7.093672,-3.584979,8.852642,-0.6909379,20.790436,-33.440838,54.344154,5.1872926,0.494153,-5.2022357,0.7643543,-11.164489,12.89356,57.623173,-11.3399315,11.238224,-0.71925014
92,11.785386085510254,12.125195503234863,75.20587158203125,1.5609535445003329,1.7026943678089483,36.42551716760434,15.934164,5.853829,3.8143096,9.519306,-15.976378,-10.916393,-21.017532,-14.507257,-15.546707,6.026991,6.3708067,13.1208315,-7.1256433,-3.2595654,8.796232,-0.5278284,20.643803,-33.139355,54.47787,5.255069,0.50319135,-5.168216,0.6822463,-11.198395,13.171539,57.72454,-11.544768,11.304831,-0.56678575
93,12.28188705444336,12.192935943603516,75.2778091430664,1.383041134595357,1.7272946264836457,36.43080256994058,15.822245,6.3067403,3.6467173,10.385612,-15.710174,-11.129256,-20.614191,-14.169744,-15.803974,6.0136824,6.6933064,13.252613,-7.1031055,-2.9160588,8.765347,-0.3412066,20.50344,-32.83139,54.58584,5.3151793,0.523074,-5.126995,0.5832365,-11.229836,13.4326515,57.796566,-11.788024,11.404412,-0.40142968
94,12.785905838012695,12.25618839263916,75.36276245117188,1.188512714384218,1.7390797132953684,36.392450499264896,15.696585,6.775265,3.4986386,11.323587,-15.41215,-11.333472,-20.216768,-13.760304,-15.967243,6.0074134,6.8666506,13.260056,-7.0568953,-2.5531118,8.748445,-0.13110733,20.348984,-32.492523,54.68995,5.3835883,0.5507233,-5.08045,0.45624056,-11.262683,13.710218,57.8609,-12.064323,11.528848,-0.2246698
95,13.288490295410156,12.314764976501465,75.45559692382812,0.9844700361827815,1.7438933506601537,36.324366393465766,15.54015,7.2518845,3.36635,12.346773,-15.08717,-11.501798,-19.825764,-13.30064,-16.065573,6.0066175,6.931158,13.137281,-6.9938664,-2.1811128,8.732604,0.09199897,20.184538,-32.14716,54.788727,5.4370174,0.57872736,-5.047124,0.31344217,-11.298542,14.001003,57.908607,-12.316266,11.650772,-0.04459331
96,13.79655933380127,12.373788833618164,75.55775451660156,0.7762676766997151,1.7481098387340592,36.240010130022206,15.337324,7.730511,3.2470036,13.46524,-14.737682,-11.607416,-19.44207,-12.813369,-16.12767,6.01165,6.9275546,12.876466,-6.922841,-1.8096809,8.706623,0.32706046,20.02191,-31.814425,54.867775,5.4527774,0.5999514,-5.046773,0.16704273,-11.337538,14.303555,57.928074,-12.486224,11.743281,0.13080616
97,14.308870315551758,12.42699146270752,75.66448211669922,0.5521291380204247,1.7528745157473946,36.133641856247294,15.081549,8.224313,3.1427891,14.695259,-14.3634,-11.639924,-19.067736,-12.2772455,-16.137495,6.025784,6.8278522,12.403046,-6.841709,-1.4286188,8.671584,0.5843303,19.863487,-31.478497,54.919136,5.4195056,0.6131438,-5.087062,0.011897001,-11.382465,14.632129,57.92119,-12.5477915,11.801319,0.30200234
98,14.823043823242188,12.487324714660645,75.77398681640625,0.3097607639742425,1.7550839839638663,36.003702007480406,14.791397,8.736478,3.0529625,16.004944,-13.953614,-11.616633,-18.701735,-11.685266,-16.089365,6.046213,6.6270595,11.74378,-6.750298,-1.0330144,8.633516,0.86714894,19.70927,-31.133762,54.94107,5.3508515,0.6222252,-5.1577454,-0.15423547,-11.432935,14.982897,57.888336,-12.534974,11.839036,0.4732961
99,15.344962120056152,12.543749809265137,75.8855972290039,0.07064918236322985,1.7558675776310937,35.86908370238321,14.470786,9.245094,2.9691885,17.36927,-13.505349,-11.5514145,-18.339226,-11.086107,-16.02766,6.0690546,6.394929,11.043714,-6.6649747,-0.6424683,8.586291,1.1610842,19.561514,-30.811344,54.938328,5.2614193,0.6278373,-5.250788,-0.32379955,-11.48742,15.336757,57.826153,-12.476453,11.858702,0.6397518
100,15.86740779876709,12.598893165588379,75.99787902832031,-0.14111887650429175,1.756114652225123,35.747166892294814,14.129083,9.724217,2.8862782,18.753225,-13.013437,-11.457481,-17.970776,-10.532359,-15.997887,6.08761,6.196442,10.449371,-6.598115,-0.2798901,8.523999,1.4512286,19.423792,-30.544434,54.915707,5.166221,0.6305369,-5.358018,-0.48751247,-11.543239,15.671195,57.73004,-12.401833,11.862428,0.7968491
101,16.396635055541992,12.652082443237305,76.10588836669922,-0.31415002874234865,1.7579336678170079,35.63809457100304,13.770104,10.160915,2.8126225,20.144623,-12.466759,-11.329687,-17.596941,-10.042277,-16.008106,6.104216,6.0353565,9.987423,-6.5497637,0.041583236,8.44223,1.7404073,19.298828,-30.341307,54.871613,5.0636134,0.63336504,-5.488526,-0.64217776,-11.597646,15.977415,57.594414,-12.317928,11.84962,0.9502592
102,16.92876434326172,12.703201293945312,76.2120590209961,-0.4601566930221722,1.760133660253493,35.53232597621693,13.392541,10.567948,2.7519033,21.554684,-11.867084,-11.163573,-17.216736,-9.591509,-16.034538,6.1190553,5.87766,9.585596,-6.5103445,0.33204585,8.345415,2.0343392,19.187702,-30.187243,54.80353,4.9462094,0.63558537,-5.6429167,-0.7927783,-11.649847,16.265709,57.42355,-12.209616,11.819602,1.099778
103,17.463760375976562,12.756976127624512,76.31311798095703,-0.5883086794340986,1.7593288714511888,35.431806712548486,12.993254,10.95565,2.6922128,22.99377,-11.233554,-10.973721,-16.826597,-9.1715975,-16.072601,6.132097,5.7289705,9.242305,-6.4667244,0.59591895,8.242554,2.325291,19.108307,-30.091114,54.70286,4.815407,0.63258106,-5.801524,-0.9381229,-11.692097,16.527058,57.224876,-12.082442,11.773335,1.232174
104,18.000146865844727,12.808906555175781,76.40453338623047,-0.7069947443176021,1.7520560581125053,35.339594766170094,12.56128,11.333662,2.618622,24.487688,-10.587478,-10.774677,-16.426044,-8.773389,-16.118177,6.1427126,5.5987186,8.954743,-6.4475203,0.85830086,8.136426,2.605477,19.02314,-30.014215,54.596706,4.693673,0.61552864,-5.9416556,-1.0924273,-11.7485485,16.808819,57.01416,-11.919641,11.714774,1.3334534
105,18.53671646118164,12.857562065124512,76.48297882080078,-0.7951712422744625,1.7409055112138205,35.25702684831349,12.096564,11.674759,2.5306451,26.027794,-9.913703,-10.540095,-16.019247,-8.419161,-16.16812,6.1492124,5.5134163,8.786603,-6.4122553,1.0829731,8.019757,2.864324,18.975044,-30.021671,54.46804,4.5478125,0.5836961,-6.0626974,-1.231689,-11.791055,17.05517,56.779785,-11.736136,11.641933,1.3993399
106,19.078750610351562,12.909343719482422,76.55772399902344,-0.8548419505612985,1.7265259813507265,35.181321646170794,11.602681,11.980954,2.438034,27.608248,-9.207043,-10.2734,-15.607297,-8.103455,-16.225067,6.1508017,5.46337,8.717281,-6.398024,1.2841814,7.8913507,3.123346,18.934664,-30.064272,54.319977,4.3948936,0.53849036,-6.174743,-1.3704901,-11.844378,17.31507,56.52202,-11.514479,11.556333,1.4370745
107,19.620229721069336,12.961594581604004,76.62816619873047,-0.9258204049326065,1.701241433849711,35.10842371873286,11.08647,12.300758,2.3405719,29.237246,-8.499594,-10.0334835,-15.185938,-7.7775846,-16.29049,6.1542163,5.3996015,8.616276,-6.381268,1.4970115,7.778725,3.3648202,18.905903,-30.133423,54.154957,4.258584,0.4866011,-6.274357,-1.5123947,-11.906386,17.563799,56.24295,-11.275093,11.4548025,1.4559929
108,20.149078369140625,13.010807037353516,76.69583129882812,-1.0481406281291281,1.6570532676457879,35.03480247367458,10.554714,12.68294,2.233966,30.925114,-7.825601,-9.877853,-14.748942,-7.3935328,-16.365208,6.1625786,5.276292,8.353066,-6.355947,1.7560272,7.707083,3.5823376,18.886055,-30.198997,53.97513,4.1700745,0.43424928,-6.3575253,-1.6754111,-11.971483,17.799797,55.958813,-11.032104,11.3357525,1.4617505
109,20.670093536376953,13.06006145477295,76.75965881347656,-1.2423136702803292,1.5933415072525903,34.95844293769284,10.012985,13.156186,2.1225607,32.675667,-7.205148,-9.840549,-14.295234,-6.9277983,-16.451096,6.17784,5.077029,7.8529396,-6.3243523,2.0843923,7.6781125,3.7719572,18.870209,-30.264116,53.783367,4.1468396,0.37768498,-6.428978,-1.8647728,-12.037765,18.026085,55.66483,-10.788351,11.194722,1.4519024
110,21.179954528808594,13.109339714050293,76.81702423095703,-1.483251839345679,1.5126456646163609,34.88191799751479,9.453131,13.6871805,1.9999529,34.49363,-6.621045,-9.883675,-13.829639,-6.408501,-16.543896,6.199948,4.8293633,7.1982923,-6.3065453,2.474831,7.6858764,3.9498444,18.84518,-30.320383,53.568363,4.175113,0.31369787,-6.4904175,-2.0591505,-12.149859,18.271202,55.32681,-10.5184145,11.035501,1.43106
111,21.686321258544922,13.16183853149414,76.87085723876953,-1.741900280830218,1.4108644793892016,34.808188331550916,8.867507,14.232117,1.8466171,36.377728,-6.0532746,-9.95561,-13.348681,-5.8659773,-16.633373,6.22331,4.5527325,6.494579,-6.280033,2.8828306,7.729628,4.0949826,18.813948,-30.372913,53.359188,4.228655,0.251378,-6.527531,-2.2638202,-12.275706,18.500082,54.98781,-10.240284,10.864318,1.4015325
112,22.187856674194336,13.20978832244873,76.91816711425781,-1.989780259537707,1.2849889805672219,34.74001433043514,8.245845,14.749087,1.6453952,38.33013,-5.481307,-10.003301,-12.848284,-5.333083,-16.710443,6.246045,4.260623,5.848327,-6.2515883,3.2729533,7.810489,4.2147727,18.774681,-30.391577,53.16273,4.288057,0.19918117,-6.5285187,-2.4911547,-12.40938,18.721434,54.684204,-9.952146,10.6893,1.3660616
113,22.679262161254883,13.256766319274902,76.96111297607422,-2.228080129384715,1.1302616564771424,34.67200474756133,7.592122,15.241898,1.3897729,40.361893,-4.889939,-10.061658,-12.322028,-4.808262,-16.7645,6.269177,3.9474883,5.2608976,-6.2211323,3.6463566,7.9339433,4.3106775,18.725458,-30.368519,52.97797,4.359497,0.15920796,-6.4796815,-2.7444758,-12.550613,18.936813,54.4137,-9.648138,10.509521,1.3291091
114,23.15872573852539,13.303707122802734,77.0000991821289,-2.468589880298526,0.949560113141396,34.604555595468476,6.9064207,15.728016,1.0881125,42.47406,-4.296663,-10.13898,-11.769763,-4.282541,-16.800356,6.293543,3.6036494,4.687023,-6.190183,4.0171256,8.096513,4.381067,18.665659,-30.314451,52.803757,4.451515,0.12692899,-6.3904924,-3.0231721,-12.700824,19.148626,54.16742,-9.329301,10.321571,1.2866315
115,23.633251190185547,13.355082511901855,77.03482818603516,-2.698756809108591,0.752278183578427,34.54834285893947,6.168439,16.189411,0.7483743,44.660442,-3.7321672,-10.140409,-11.198766,-3.777663,-16.834343,6.317379,3.237262,4.163523,-6.1630297,4.374032,8.287354,4.4255843,18.594683,-30.232082,52.64583,4.5455027,0.10076036,-6.284494,-3.3225064,-12.85872,19.358328,53.957916,-9.006295,10.130563,1.2315812
116,24.10018539428711,13.40330696105957,77.0649642944336,-2.9059733292945333,0.5474680247934208,34.51380544278378,5.360749,16.608894,0.38169783,46.908447,-3.2237756,-9.96909,-10.618408,-3.3136034,-16.884785,6.340011,2.8583202,3.7259264,-6.144456,4.7039423,8.495229,4.4443483,18.51207,-30.12323,52.51061,4.623902,0.07897012,-6.185188,-3.6404629,-13.022473,19.569118,53.801495,-8.689507,9.94131,1.1560775
117,24.558713912963867,13.45042610168457,77.0949478149414,-3.0865071562616824,0.329617025780881,34.5038321379013,4.461233,16.995235,-0.007774756,49.278038,-2.76194,-9.571266,-10.022451,-2.8933523,-16.95968,6.3609247,2.4642558,3.3970413,-6.137366,5.002,8.728692,4.435375,18.416853,-29.979734,52.40077,4.683595,0.061313305,-6.0905643,-3.9825244,-13.191428,19.784288,53.702328,-8.356951,9.7429495,1.0504067
118,25.006454467773438,13.49904727935791,77.12456512451172,-3.247435993341954,0.0972136289937496,34.51201169850083,3.484463,17.359623,-0.42211503,51.75293,-2.3377893,-8.997453,-9.409531,-2.5066657,-17.049433,6.379149,2.0543244,3.1537573,-6.1389403,5.2753444,8.989078,4.3986945,18.308836,-29.802723,52.31412,4.733855,0.048517656,-5.990648,-4.3491325,-13.365463,20.002205,53.653965,-8.012023,9.536724,0.92118406
119,25.444692611694336,13.541470527648926,77.152099609375,-3.3921376809164547,-0.13412376228276157,34.53577248378089,2.464349,17.687262,-0.8597806,54.21364,-1.982175,-8.310386,-8.798094,-2.1507044,-17.147875,6.397133,1.6388005,2.9606192,-6.144334,5.5287313,9.254192,4.337422,18.189287,-29.60851,52.248898,4.7749925,0.040483706,-5.897282,-4.73127,-13.5434,20.218737,53.65652,-7.701411,9.34531,0.7842533
120,25.875621795654297,13.587671279907227,77.18312072753906,-3.524187786116093,-0.3486168451959975,34.57299823781056,1.4372749,17.957653,-1.3201984,56.53925,-1.7236387,-7.5823054,-8.207009,-1.8214527,-17.24899,6.4151855,1.2301557,2.7813663,-6.14785,5.767366,9.50261,4.25441,18.060268,-29.414482,52.20203,4.807057,0.037216675,-5.822448,-5.1180024,-13.721697,20.427963,53.707928,-7.4709277,9.192257,0.6553123
121,26.298677444458008,13.636930465698242,77.21136474609375,-3.6482907559334703,-0.5424369017924962,34.631990650758695,0.3646844,18.208212,-1.7725108,58.787544,-1.494824,-6.6948633,-7.63889,-1.515139,-17.364573,6.4310603,0.83103025,2.6101656,-6.1541233,5.9935145,9.733244,4.1457343,17.92251,-29.215797,52.18044,4.8300242,0.03912587,-5.7705345,-5.5139875,-13.899413,20.630037,53.818012,-7.3385,9.080956,0.53195894
122,26.711181640625,13.685342788696289,77.23408508300781,-3.7615190188620216,-0.7236501727721307,34.71087123650258,-0.7576682,18.435745,-2.2249734,60.994625,-1.306317,-5.653588,-7.0871267,-1.2325417,-17.495413,6.4458594,0.43639413,2.4634295,-6.1634817,6.203379,9.955671,4.011152,17.776104,-29.007027,52.18259,4.8432684,0.04624127,-5.7349873,-5.9226527,-14.076271,20.826874,53.984962,-7.278045,9.000433,0.40729734
123,27.113685607910156,13.7330322265625,77.25283813476562,-3.8557465761903167,-0.8942009571072597,34.79219313501905,-1.8396324,18.544603,-2.7367716,63.012672,-1.3045486,-4.7316966,-6.5514064,-0.97590035,-17.619135,6.460159,0.046682056,2.338478,-6.1638303,6.3917427,10.163539,3.8596594,17.623247,-28.804497,52.193184,4.846776,0.057927877,-5.71045,-6.3353243,-14.251553,21.01596,54.195366,-7.270438,8.951813,0.28919017
124,27.519399642944336,13.786988258361816,77.27345275878906,-3.92200932859234,-1.056597087347283,34.858795936581245,-2.790855,18.42703,-3.368533,64.70598,-1.6346986,-4.2172503,-6.0312696,-0.7500444,-17.713306,6.474499,-0.33740577,2.233582,-6.1420536,6.5527887,10.350851,3.6996756,17.467665,-28.626839,52.19626,4.838357,0.07374042,-5.691754,-6.742714,-14.423894,21.19398,54.434414,-7.295529,8.936165,0.18572927
125,27.9141845703125,13.84697151184082,77.29601287841797,-3.9606533202456244,-1.210999671531356,34.915892220976474,-3.5509946,18.003773,-4.185038,66.007614,-2.4657228,-4.3140774,-5.526001,-0.556913,-17.78062,6.4903846,-0.71748185,2.1543937,-6.10001,6.684994,10.515573,3.5325897,17.31111,-28.474821,52.193222,4.8141036,0.09996447,-5.6804676,-7.145087,-14.593678,21.361006,54.709946,-7.3506107,8.9603405,0.09528828
126,28.30133819580078,13.91043472290039,77.32315826416016,-3.976181694467125,-1.3570174167513527,34.96915174198951,-4.17331,17.349451,-5.1214824,67.01541,-3.6862738,-4.8291016,-5.0344977,-0.3930428,-17.831488,6.5063906,-1.093382,2.0995991,-6.0418897,6.791594,10.661985,3.3556721,17.154018,-28.340637,52.18774,4.775337,0.13496798,-5.6787014,-7.5455956,-14.761127,21.517344,55.024826,-7.44572,9.021762,0.015126899
127,28.687786102294922,13.979108810424805,77.35460662841797,-3.9674031084480816,-1.4960092853239255,35.001971552003745,-4.7360935,16.585192,-6.0484295,67.8329,-5.01495,-5.4598265,-4.557461,-0.2557278,-17.855734,6.5214515,-1.4621979,2.0572894,-5.9582987,6.874052,10.793323,3.1733994,16.99907,-28.229134,52.166122,4.729274,0.16633697,-5.681682,-7.9420223,-14.925482,21.66095,55.36037,-7.579547,9.1068535,-0.048928805
128,29.071565628051758,14.049683570861816,77.3896484375,-3.9306752822452444,-1.6291114252762886,34.99871265636927,-5.3213787,15.815044,-6.854867,68.55524,-6.158286,-5.9194136,-4.0974684,-0.14508353,-17.842924,6.537796,-1.8226022,2.0157158,-5.8401356,6.931338,10.912542,2.991546,16.850378,-28.145237,52.113,4.682865,0.18179375,-5.6848903,-8.32974,-15.085195,21.78629,55.695736,-7.754078,9.202263,-0.090652026
129,29.452251434326172,14.117775917053223,77.42435455322266,-3.8555417084575256,-1.7572118680592423,34.95661362181575,-5.9507113,14.99682,-7.5674973,69.19486,-7.045126,-6.1378016,-3.65401,-0.071293354,-17.789951,6.5552297,-2.1747587,1.9706258,-5.6811748,6.951352,11.020938,2.8080869,16.71144,-28.092793,52.024956,4.6373706,0.17798233,-5.6905017,-8.7076235,-15.238344,21.88824,56.035053,-7.9865346,9.309981,-0.09641169
130,29.830482482910156,14.195140838623047,77.46247863769531,-3.747118766109871,-1.8794220559488597,34.88375340084277,-6.580333,14.098254,-8.232419,69.699646,-7.823692,-6.267012,-3.2249944,-0.030710453,-17.703571,6.571484,-2.5184913,1.9280989,-5.487282,6.9372463,11.117698,2.6247137,16.583445,-28.067963,51.90506,4.5888114,0.16183114,-5.700338,-9.078633,-15.385019,21.970022,56.387165,-8.2708845,9.434897,-0.07325339
131,30.201751708984375,14.273134231567383,77.49897766113281,-3.6248149539945045,-1.9942102439387444,34.780704050518594,-7.1992254,13.228277,-8.781256,70.06439,-8.52379,-6.366538,-2.8129401,-0.0035067808,-17.588356,6.5887427,-2.8539138,1.8920844,-5.268231,6.9115686,11.202777,2.4509106,16.466946,-28.065779,51.74824,4.5347567,0.13616669,-5.7091956,-9.443945,-15.526027,22.04035,56.735462,-8.571549,9.568053,-0.046071228
132,30.566654205322266,14.352193832397461,77.529541015625,-3.5075893495043666,-2.099152406090832,34.648340519563284,-7.7997103,12.497553,-9.145582,70.28429,-9.176147,-6.494887,-2.4186375,0.029945413,-17.448845,6.605022,-3.1790743,1.8665798,-5.0337434,6.896864,11.275384,2.2968152,16.361933,-28.080122,51.54885,4.4738994,0.10373241,-5.711894,-9.802518,-15.662197,22.105951,57.0617,-8.856107,9.700883,-0.03964269
133,30.926715850830078,14.440073013305664,77.55880737304688,-3.3932092830362603,-2.1902180043811383,34.4813073453323,-8.380984,11.938903,-9.281793,70.340965,-9.7596855,-6.7003164,-2.0465064,0.068124026,-17.280947,6.618463,-3.4916105,1.8589866,-4.779595,6.8924236,11.328696,2.1634135,16.269592,-28.119972,51.301987,4.3883758,0.060834404,-5.7071233,-10.15976,-15.795072,22.175144,57.380875,-9.127467,9.83126,-0.06271623
134,31.288110733032227,14.534777641296387,77.58553314208984,-3.274045159823384,-2.2691300807572667,34.28093076143426,-8.950686,11.495398,-9.23777,70.23885,-10.264699,-6.942005,-1.6952744,0.10285584,-17.084473,6.630922,-3.793313,1.8647015,-4.503182,6.8886414,11.365374,2.0472698,16.190311,-28.184504,51.00987,4.2846875,0.0074944915,-5.6979604,-10.513543,-15.92494,22.242323,57.694668,-9.399294,9.963925,-0.101029076
135,31.651893615722656,14.630643844604492,77.60779571533203,-3.1600544064195955,-2.342561757027146,34.05814705365168,-9.512869,11.1413355,-9.081586,70.00748,-10.7407465,-7.1449175,-1.3560946,0.14313975,-16.868372,6.643162,-4.0868735,1.870317,-4.216351,6.893665,11.397599,1.9504522,16.122055,-28.253027,50.6793,4.1984243,-0.0480587,-5.685632,-10.855423,-16.050537,22.298168,57.96917,-9.650212,10.100361,-0.14575408
136,32.00490951538086,14.723970413208008,77.62615966796875,-3.061911471088505,-2.417274417825715,33.823852056095674,-10.070501,10.850479,-8.882272,69.6754,-11.237205,-7.2343235,-1.0182619,0.19943306,-16.641771,6.65359,-4.374554,1.8624058,-3.9324327,6.916506,11.437116,1.8744265,16.061453,-28.303886,50.318615,4.1651363,-0.097381,-5.671038,-11.177425,-16.169844,22.332163,58.171474,-9.86164,10.241996,-0.18847403
137,32.354915618896484,14.823283195495605,77.639892578125,-2.984252134456431,-2.4974257321186317,33.56870160086976,-10.622424,10.637704,-8.623524,69.252686,-11.783942,-7.152793,-0.6816643,0.27823898,-16.395548,6.6648827,-4.655612,1.8351603,-3.6470673,6.966398,11.487929,1.8221482,16.006054,-28.335575,49.917755,4.2101064,-0.13545397,-5.653865,-11.483809,-16.281128,22.33776,58.29306,-10.0318,10.412419,-0.23564954
138,32.70423126220703,14.929628372192383,77.6516342163086,-2.9206009541313827,-2.578844807641801,33.290933169846646,-11.164207,10.505609,-8.281367,68.721375,-12.350098,-6.9577985,-0.35042724,0.372609,-16.128376,6.6758003,-4.92875,1.7966696,-3.3564925,7.036467,11.541977,1.7901282,15.955486,-28.357826,49.48021,4.3097477,-0.16760625,-5.6333065,-11.779052,-16.384674,22.322407,58.355404,-10.1702385,10.602977,-0.28963608
139,33.044734954833984,15.036084175109863,77.65625762939453,-2.8650781478609018,-2.6553402485400524,33.01307194024124,-11.696821,10.409706,-7.913911,68.071625,-12.895631,-6.745329,-0.024907172,0.4715184,-15.860658,6.6869197,-5.1982703,1.7544612,-3.0745716,7.111919,11.593404,1.7711895,15.909536,-28.365456,49.03454,4.426872,-0.20184319,-5.609225,-12.057829,-16.481756,22.301025,58.371544,-10.268741,10.767218,-0.33636022
140,33.38169860839844,15.144639015197754,77.65788269042969,-2.812439626559006,-2.721077316841443,32.757837676699516,-12.223507,10.308079,-7.5774064,67.29479,-13.379126,-6.6076355,0.2953939,0.56424135,-15.613228,6.696826,-5.467843,1.7160058,-2.8159525,7.1779146,11.636772,1.758334,15.868144,-28.351784,48.608826,4.5246344,-0.24585404,-5.5817146,-12.314108,-16.574322,22.288132,58.35354,-10.320734,10.858464,-0.3618783
141,33.722965240478516,15.255345344543457,77.66217041015625,-2.762858753556515,-2.775866658802509,32.525687527676226,-12.741051,10.210544,-7.259436,66.374596,-13.803926,-6.580682,0.6089816,0.6504053,-15.385519,6.706828,-5.7358146,1.6815939,-2.5807488,7.2330146,11.672365,1.753005,15.831365,-28.309086,48.198936,4.6023955,-0.3060821,-5.5507493,-12.544974,-16.66464,22.288467,58.296974,-10.333902,10.852182,-0.3559594
142,34.067474365234375,15.363245010375977,77.66259002685547,-2.7186132219177024,-2.822496616278638,32.30625559483305,-13.246795,10.131343,-6.9362626,65.31718,-14.185645,-6.6124372,0.91612226,0.7349391,-15.168497,6.717397,-6.001352,1.6478852,-2.3636637,7.2819743,11.702002,1.7598217,15.801459,-28.241472,47.792744,4.6766253,-0.37662372,-5.516238,-12.757839,-16.748009,22.294699,58.20315,-10.310231,10.777094,-0.32942998
143,34.41654586791992,15.477739334106445,77.6607437133789,-2.6773924360098764,-2.8594360507855288,32.106090422986185,-13.746732,10.035057,-6.6494465,64.14897,-14.501414,-6.6626244,1.2186519,0.8142952,-14.969837,6.7273273,-6.270167,1.6171805,-2.1689038,7.327638,11.726721,1.7732059,15.773512,-28.161257,47.405666,4.737737,-0.4482367,-5.4791303,-12.947939,-16.832767,22.305151,58.06995,-10.22403,10.667175,-0.29564324
144,34.75230026245117,15.597274780273438,77.65166473388672,-2.6364945210524806,-2.885040185576502,31.93183284435824,-14.247831,9.88766,-6.441746,62.896915,-14.728952,-6.689004,1.5175661,0.88514096,-14.797172,6.73773,-6.5493703,1.5916195,-2.000059,7.3673286,11.7444725,1.787484,15.7469425,-28.082594,47.055424,4.774792,-0.5110351,-5.4394207,-13.117419,-16.91205,22.313065,57.909393,-10.058134,10.555547,-0.2708613
145,35.09400939941406,15.72109603881836,77.64173889160156,-2.5959129756192425,-2.8957073870397982,31.78414342278435,-14.756706,9.671617,-6.340414,61.556053,-14.858278,-6.6835876,1.8094801,0.94582224,-14.651535,6.7484536,-6.8391647,1.5719094,-1.86035,7.393378,11.74874,1.807008,15.727673,-28.003996,46.739143,4.775716,-0.5612876,-5.3912077,-13.278828,-16.964453,22.308275,57.736465,-9.771646,10.436958,-0.26587862
146,35.43656539916992,15.839630126953125,77.63517761230469,-2.5572593749087877,-2.893351524245756,31.659673638159646,-15.267786,9.40982,-6.318333,60.115803,-14.903513,-6.6646924,2.094905,0.9987054,-14.5290785,6.7600427,-7.1372766,1.5570431,-1.7505805,7.417597,11.746295,1.8321277,15.705043,-27.913553,46.44973,4.7528906,-0.6055972,-5.3379865,-13.417718,-17.01981,22.303465,57.522285,-9.379951,10.299204,-0.2655692
147,35.77946853637695,15.965282440185547,77.62590026855469,-2.5195267517152775,-2.884763479613311,31.559381888155777,-15.768371,9.128662,-6.3372264,58.591953,-14.878229,-6.6298614,2.3800182,1.044831,-14.430707,6.7717333,-7.443953,1.5469052,-1.6580064,7.4280167,11.73604,1.8517376,15.689681,-27.833826,46.208817,4.7177334,-0.6456147,-5.2861676,-13.548288,-17.052277,22.30314,57.312134,-8.976398,10.161625,-0.26662615
148,36.12062454223633,16.088603973388672,77.61038208007812,-2.4821586476160022,-2.876469734557596,31.48397763695909,-16.246603,8.852881,-6.357884,57.00152,-14.796557,-6.5781326,2.6711893,1.0851743,-14.356896,6.783225,-7.759568,1.5414817,-1.5852152,7.4304233,11.727195,1.8604591,15.674659,-27.76419,46.029526,4.6910396,-0.68513864,-5.247409,-13.669715,-17.082523,22.336313,57.11061,-8.636846,10.045933,-0.2577223
149,36.463809967041016,16.21585464477539,77.59915924072266,-2.444631591904933,-2.87017570315281,31.442899328750947,-16.701088,8.587408,-6.371846,55.33577,-14.662151,-6.494217,2.970479,1.1180466,-14.3182535,6.7952595,-8.088528,1.536297,-1.529371,7.4214664,11.719124,1.849092,15.66134,-27.713932,45.922806,4.6711054,-0.72986096,-5.2236643,-13.776821,-17.108934,22.404985,56.917892,-8.374483,9.957313,-0.23860206
150,36.806983947753906,16.35209083557129,77.57891082763672,-2.407403822413359,-2.8621384431437766,31.43243811667398,-17.137875,8.317592,-6.3982453,53.592278,-14.467282,-6.384544,3.2737668,1.1432562,-14.310818,6.808892,-8.429805,1.5335997,-1.5040462,7.4089475,11.712414,1.829821,15.641286,-27.662415,45.874756,4.65505,-0.777468,-5.211779,-13.871092,-17.146198,22.51784,56.718285,-8.138993,9.885733,-0.21194603
151,37.14977264404297,16.48748207092285,77.5615005493164,-2.370899379136059,-2.8518267963372126,31.43437043533642,-17.549755,8.039024,-6.438371,51.78214,-14.209069,-6.2813563,3.5792947,1.1639401,-14.314027,6.821464,-8.774323,1.5433904,-1.4829705,7.389838,11.703885,1.7979321,15.622684,-27.631414,45.882095,4.6423793,-0.81565773,-5.205748,-13.9489765,-17.175592,22.632477,56.52046,-7.9498906,9.8258705,-0.17794931
152,37.49638366699219,16.624265670776367,77.54188537597656,-2.335462278201899,-2.8382480417757536,31.429953818774717,-17.932104,7.7498703,-6.4954515,49.91982,-13.884787,-6.2151775,3.8834746,1.1827298,-14.30714,6.833429,-9.114586,1.5754668,-1.4620199,7.367354,11.695387,1.7651361,15.607467,-27.61504,45.928894,4.6395516,-0.83321786,-5.2035713,-14.017635,-17.19364,22.739065,56.33056,-7.8123426,9.773314,-0.13616848
153,37.84052658081055,16.772817611694336,77.51773834228516,-2.3007944487986984,-2.823907847413828,31.42064987679389,-18.284512,7.4624567,-6.5557876,48.002544,-13.492242,-6.177365,4.190461,1.1985185,-14.289725,6.8439474,-9.449021,1.6437136,-1.453624,7.345197,11.691232,1.7397345,15.590381,-27.604336,46.013054,4.650574,-0.8237884,-5.2027903,-14.077353,-17.204704,22.840885,56.143795,-7.746101,9.727947,-0.084842876
154,38.18081283569336,16.923110961914062,77.4917984008789,-2.266783856245956,-2.8081989276801727,31.413681190209886,-18.608448,7.175624,-6.6235075,46.02214,-13.032039,-6.1559405,4.500073,1.2102185,-14.271248,6.853427,-9.781473,1.7396436,-1.4608161,7.3225336,11.688084,1.7140666,15.5657,-27.598478,46.147053,4.6739774,-0.7948912,-5.204917,-14.131307,-17.20966,22.951296,55.965595,-7.7379723,9.691907,-0.026110757
155,38.524757385253906,17.074914932250977,77.46566772460938,-2.2357004813533594,-2.7861817993473386,31.40028619376334,-18.903316,6.8730383,-6.7326565,43.983894,-12.504743,-6.1734266,4.803303,1.2221966,-14.245663,6.8638816,-10.112079,1.8385777,-1.4565,7.2965035,11.6817875,1.6787589,15.546958,-27.61184,46.32139,4.7045283,-0.7557021,-5.2161846,-14.172421,-17.2077,23.057308,55.792175,-7.7509007,9.664011,0.03943049
156,38.862632751464844,17.23063850402832,77.43991088867188,-2.209631419035872,-2.7530671976726535,31.371323245151167,-19.16796,6.5426106,-6.9195867,41.892,-11.910399,-6.2495465,5.093128,1.2394226,-14.20677,6.874032,-10.4403515,1.9154756,-1.4548707,7.2753406,11.662007,1.6390557,15.514523,-27.61926,46.54192,4.7474546,-0.71778786,-5.24119,-14.228801,-17.19754,23.210455,55.654987,-7.727752,9.645748,0.10280381
157,39.20923614501953,17.390480041503906,77.40792846679688,-2.1883047133519655,-2.704645966758888,31.32811635644483,-19.408838,6.177774,-7.21856,39.74203,-11.231693,-6.3922286,5.3652105,1.2616501,-14.15573,6.885044,-10.76776,1.9655879,-1.4324198,7.252394,11.62954,1.5848181,15.48554,-27.639292,46.808197,4.802319,-0.68240553,-5.286244,-14.282464,-17.184284,23.3904,55.53052,-7.6566,9.643205,0.16600788
158,39.5551872253418,17.550657272338867,77.3751220703125,-2.1718669539919873,-2.645119500119922,31.273810780506576,-19.622648,5.800121,-7.609778,37.52874,-10.473189,-6.583143,5.6247196,1.2880746,-14.094257,6.8958206,-11.093116,2.0009165,-1.4029901,7.2297583,11.588457,1.5259134,15.457733,-27.664583,47.115257,4.869128,-0.64447314,-5.347393,-14.336025,-17.167835,23.599993,55.419914,-7.561042,9.654496,0.2302038
159,39.9005012512207,17.712909698486328,77.33898162841797,-2.1628501572227368,-2.5815894289613492,31.202247363163963,-19.79617,5.4399285,-8.048617,35.258507,-9.669817,-6.802286,5.879048,1.3230869,-14.017028,6.906691,-11.416917,2.0210638,-1.3760239,7.213487,11.542896,1.467681,15.42216,-27.684988,47.451344,4.9434905,-0.60314274,-5.416778,-14.400775,-17.139782,23.83138,55.344833,-7.4655447,9.665302,0.29860184
160,40.246360778808594,17.87916374206543,77.30116271972656,-2.163618504554698,-2.521341193238511,31.107502443008045,-19.916367,5.1237845,-8.488292,32.937183,-8.854889,-7.0314636,6.134977,1.3709313,-13.918563,6.9173446,-11.738452,2.0255694,-1.3317136,7.2061925,11.503265,1.4114112,15.395054,-27.721434,47.783455,5.0105276,-0.55559015,-5.4877396,-14.449775,-17.108149,24.03165,55.282864,-7.4069195,9.660689,0.38219014
161,40.593929290771484,18.051382064819336,77.26058197021484,-2.176908372775711,-2.4646913623562683,30.984407559482612,-19.973215,4.8560567,-8.935501,30.533028,-8.00383,-7.2810607,6.39054,1.4354572,-13.795543,6.9282575,-12.055692,2.004075,-1.2745551,7.211876,11.472463,1.3605206,15.375124,-27.766586,48.111145,5.0636277,-0.49870357,-5.5625153,-14.492523,-17.072287,24.204205,55.24321,-7.386272,9.629915,0.48484078
162,40.93801498413086,18.22410011291504,77.2186508178711,-2.2024967108392755,-2.4094088236374738,30.836227233203577,-19.972172,4.634523,-9.411878,28.044817,-7.1063538,-7.5523505,6.645056,1.5160462,-13.649845,6.9379845,-12.369083,1.959353,-1.205511,7.229054,11.446865,1.3126953,15.360772,-27.81964,48.445095,5.1091094,-0.43432915,-5.6435523,-14.529785,-17.030176,24.361067,55.224686,-7.391575,9.58281,0.60180473
163,41.284576416015625,18.404233932495117,77.17564392089844,-2.239448009095478,-2.3588933784720307,30.66883280855271,-19.924444,4.469349,-9.8883915,25.525187,-6.2163515,-7.816691,6.90483,1.6104901,-13.48401,6.9487906,-12.683647,1.9106339,-1.1268241,7.2542,11.4236,1.272655,15.352736,-27.880604,48.775562,5.160652,-0.3684195,-5.724652,-14.561188,-16.979988,24.513454,55.228,-7.4175763,9.536415,0.7244699
164,41.640777587890625,18.591121673583984,77.12531280517578,-2.2868391531083465,-2.316465075100453,30.48799988073859,-19.837374,4.3661118,-10.3325815,23.01893,-5.3863516,-8.048356,7.1778216,1.7169015,-13.300448,6.958175,-13.001916,1.8772985,-1.0380087,7.285045,11.401394,1.2450793,15.353877,-27.95202,49.088657,5.230685,-0.30663285,-5.800223,-14.577713,-16.928507,24.667233,55.242527,-7.461657,9.508072,0.84640396
165,42.0068244934082,18.783889770507812,77.06709289550781,-2.347683762074787,-2.281952528347275,30.291671676192976,-19.712751,4.323822,-10.745119,20.521996,-4.6331177,-8.241811,7.463744,1.8389838,-13.095012,6.966436,-13.324767,1.8678684,-0.93899816,7.322592,11.376219,1.231752,15.365915,-28.038313,49.388084,5.326027,-0.24950607,-5.8674555,-14.586821,-16.86638,24.833668,55.28303,-7.5324535,9.500898,0.96969396
166,42.37298583984375,18.983558654785156,77.002685546875,-2.425985083350362,-2.2560849643216594,30.074518431503087,-19.541542,4.3453736,-11.136188,18.007,-3.923543,-8.412378,7.761642,1.9819101,-12.864712,6.9739494,-13.650642,1.8698196,-0.8256119,7.3722634,11.35279,1.2321985,15.390232,-28.137972,49.67398,5.4378204,-0.19394433,-5.9305463,-14.588402,-16.797415,25.006163,55.34572,-7.6266437,9.506215,1.0976832
167,42.7453727722168,19.18216896057129,76.93487548828125,-2.520975768128356,-2.243808183900646,29.838016405857395,-19.321445,4.4320316,-11.484336,15.499663,-3.2357717,-8.568659,8.077451,2.1435285,-12.613861,6.9803414,-13.979125,1.8715872,-0.6987244,7.437974,11.339788,1.2447212,15.419253,-28.23844,49.93883,5.5582414,-0.14153202,-5.992703,-14.565497,-16.73633,25.164598,55.40161,-7.7322416,9.523072,1.2228336
168,43.12310791015625,19.386634826660156,76.86084747314453,-2.6306664985702426,-2.2489361422764818,29.58446176872828,-19.04823,4.5807247,-11.767307,13.020366,-2.5454612,-8.72134,8.416007,2.3202107,-12.347157,6.987146,-14.311017,1.8618019,-0.5673033,7.5158315,11.342188,1.2754014,15.451877,-28.32066,50.172752,5.6783447,-0.093293905,-6.0570116,-14.523093,-16.67497,25.300232,55.451042,-7.8355894,9.550177,1.3328785
169,43.50645446777344,19.592613220214844,76.78167724609375,-2.7587020623821,-2.2753596682576607,29.313127302008777,-18.67566,4.8048205,-11.937961,10.473205,-1.8086506,-8.876043,8.781036,2.5165732,-12.065041,6.9930906,-14.644097,1.8332998,-0.4414414,7.6018395,11.363242,1.3406696,15.498916,-28.372786,50.358635,5.8111196,-0.04632061,-6.1296215,-14.482225,-16.58916,25.41712,55.521355,-7.931362,9.588801,1.4199157
170,43.89226150512695,19.799732208251953,76.69839477539062,-2.9050690370539245,-2.319756511461014,29.02317723994039,-18.167206,5.1036806,-12.0115795,7.764218,-0.9918508,-9.033337,9.169087,2.7324977,-11.764055,6.9988155,-14.979521,1.7934334,-0.31583562,7.696793,11.398778,1.4348288,15.559418,-28.403637,50.505405,5.957158,-0.0010415174,-6.207474,-14.441376,-16.483288,25.520609,55.61334,-8.027712,9.638897,1.4911653
171,44.28997039794922,20.015474319458008,76.61067199707031,-3.0514787649118706,-2.3728924817220567,28.72088934037605,-18.35463,5.251965,-12.130106,6.6857367,-1.0057155,-9.179794,9.570263,2.9433737,-11.447964,7.0059943,-15.319411,1.7552785,-0.19113356,7.7810187,11.4362955,1.5522397,15.636132,-28.41896,50.62404,6.083725,0.037809692,-6.2797327,-14.397507,-16.354893,25.613455,55.723766,-8.135799,9.695215,1.5485653
172,44.689456939697266,20.2326717376709,76.52269744873047,-3.1782578412131555,-2.4243628140470026,28.413740542709185,-18.93411,5.28214,-12.345678,6.57607,-1.4723165,-9.320097,9.975112,3.1238213,-11.12263,7.0137525,-15.664867,1.7320035,-0.062082734,7.841488,11.463852,1.6720061,15.716179,-28.431326,50.74004,6.160678,0.0647596,-6.3343496,-14.329968,-16.228012,25.694044,55.825428,-8.262064,9.753509,1.5981503
173,45.08931350708008,20.456144332885742,76.43365478515625,-3.2726848941651965,-2.4706806381066997,28.112120813471144,-19.484293,5.266972,-12.652108,6.5039926,-1.8942493,-9.455096,10.381794,3.2572243,-10.7989855,7.024444,-16.021841,1.7301438,0.067190975,7.86451,11.477761,1.7871507,15.797703,-28.444431,50.85934,6.171996,0.07419791,-6.3663406,-14.230056,-16.106054,25.758945,55.910313,-8.412424,9.822219,1.6383549
174,45.498817443847656,20.68537712097168,76.34752655029297,-3.341368868684412,-2.514138336202222,27.814051530942795,-19.998028,5.2175493,-13.005084,6.4582357,-2.280823,-9.58727,10.792288,3.351969,-10.476442,7.036097,-16.387098,1.7436528,0.20055631,7.868215,11.48377,1.8855038,15.861329,-28.460556,50.992832,6.140352,0.06878145,-6.3805885,-14.0837755,-16.014898,25.805767,55.956615,-8.573624,9.901798,1.6726177
175,45.91051483154297,20.926908493041992,76.26437377929688,-3.3955694742378446,-2.553866331713356,27.50780043500601,-20.455505,5.1582932,-13.367232,6.425824,-2.6285152,-9.730678,11.20136,3.4216006,-10.143451,7.048564,-16.752604,1.7661264,0.33163306,7.847536,11.47966,2.000084,15.939052,-28.467943,51.11037,6.081383,0.05975717,-6.384778,-13.931996,-15.906449,25.84274,56.01491,-8.7486,9.972554,1.6983563
176,46.31840896606445,21.17683219909668,76.17959594726562,-3.4465378657306425,-2.5887524183095856,27.18243439262419,-20.838654,5.1127863,-13.702097,6.397282,-2.9305515,-9.897666,11.604651,3.4795198,-9.788911,7.061876,-17.111376,1.7909877,0.4579307,7.8072686,11.46587,2.151181,16.046032,-28.456177,51.19369,6.015508,0.05726783,-6.386521,-13.79724,-15.75924,25.874949,56.107998,-8.935557,10.015826,1.7175798
177,46.722999572753906,21.423751831054688,76.09088134765625,-3.5005343178662804,-2.619199834609115,26.835572010837843,-21.148413,5.0906153,-14.014489,6.3717523,-3.1908574,-10.114321,12.002215,3.5338998,-9.41007,7.0746703,-17.46274,1.8162687,0.58409005,7.7666264,11.44433,2.3242977,16.163069,-28.429842,51.255547,5.9386134,0.062947735,-6.385757,-13.662857,-15.5990925,25.897905,56.214684,-9.1461525,10.017976,1.7399286
178,47.134132385253906,21.689672470092773,75.99972534179688,-3.5524649578660314,-2.6444740589449856,26.474552599272148,-21.392994,5.0795875,-14.3211155,6.3517237,-3.4083776,-10.366811,12.395503,3.5776274,-9.0149975,7.0868225,-17.81022,1.8456624,0.71733207,7.735149,11.413913,2.4891944,16.259312,-28.401966,51.328846,5.8471904,0.069784015,-6.376545,-13.495841,-15.466462,25.90512,56.293964,-9.371397,9.99363,1.7670445
179,47.55144119262695,21.96077537536621,75.90849304199219,-3.591723167014628,-2.6614357074891095,26.10316146106064,-21.571291,5.0677266,-14.602232,6.340736,-3.5775273,-10.607785,12.779179,3.5965896,-8.60886,7.1017494,-18.151888,1.8804872,0.84641343,7.6829047,11.369896,2.670392,16.362492,-28.36081,51.396015,5.7599244,0.076744534,-6.360528,-13.326195,-15.321778,25.908648,56.38049,-9.5822,9.964612,1.7827648
180,47.97225570678711,22.23402976989746,75.81829071044922,-3.6094097510400673,-2.6670938647742237,25.724121202973713,-21.677645,5.046199,-14.83802,6.3354015,-3.6911275,-10.789099,13.152775,3.5791075,-8.195725,7.1156435,-18.48383,1.9222745,0.97511214,7.6126356,11.309769,2.8463352,16.444857,-28.31032,51.491028,5.702958,0.07919594,-6.334873,-13.132541,-15.2007675,25.915487,56.437836,-9.735163,9.956353,1.7822719
181,48.391929626464844,22.509571075439453,75.7320785522461,-3.6214187571876497,-2.6554949792374645,25.34321641567799,-21.719238,5.034766,-15.03122,6.342491,-3.8030846,-10.877468,13.509883,3.544064,-7.778207,7.130942,-18.813383,1.9651904,1.0938512,7.5355115,11.222519,3.034042,16.516697,-28.245468,51.604073,5.681017,0.07344516,-6.297722,-12.923244,-15.086072,25.927122,56.486824,-9.824286,9.9769,1.7468253
182,48.81069564819336,22.791677474975586,75.64520263671875,-3.626490966418588,-2.629915637352723,24.95821311726894,-21.695,5.0326443,-15.190798,6.357937,-3.8976405,-10.904971,13.855352,3.49078,-7.3547893,7.1452656,-19.139284,2.010329,1.1983378,7.442079,11.111951,3.2423863,16.59064,-28.160563,51.72124,5.681116,0.06298685,-6.251198,-12.715846,-14.9565,25.946125,56.550396,-9.869414,10.012057,1.682534
183,49.23596954345703,23.08326530456543,75.55928039550781,-3.591367697745896,-2.5998135656888524,24.55987218408365,-21.595028,4.9991136,-15.3082,6.3760076,-3.8681245,-10.921873,14.193701,3.3779824,-6.926077,7.1614633,-19.448523,2.0705826,1.3183641,7.3201747,11.000153,3.4195862,16.629848,-28.081276,51.878376,5.70068,0.053463683,-6.1974072,-12.464453,-14.877898,25.955446,56.550346,-9.875083,10.054513,1.6296593
184,49.66358184814453,23.37310218811035,75.48226928710938,-3.4783227769798244,-2.5747263592995178,24.139229764349032,-21.407463,4.890382,-15.372967,6.387969,-3.6054804,-10.978519,14.532955,3.1611292,-6.493479,7.176984,-19.725666,2.158683,1.4494834,7.110875,10.906176,3.5792,16.661386,-27.991888,52.05139,5.7341027,0.05410098,-6.1446943,-12.210338,-14.807148,25.96761,56.522118,-9.857282,10.093746,1.6101513
185,50.07646560668945,23.655363082885742,75.44046783447266,-3.255842387020361,-2.5501157110667667,23.694248642635486,-21.101068,4.6807404,-15.35868,6.3846316,-3.036426,-11.096261,14.867636,2.804352,-6.072302,7.1934233,-19.984995,2.2818058,1.5708905,6.7610345,10.833346,3.753317,16.715014,-27.860706,52.207153,5.802836,0.07179611,-6.0993834,-12.016807,-14.682889,26.004011,56.535446,-9.8192625,10.130558,1.6325309
186,50.496437072753906,23.945375442504883,75.40780639648438,-2.947015553908161,-2.5253242229628796,23.2323006533017,-20.690891,4.392698,-15.282395,6.3746586,-2.2322142,-11.246662,15.192317,2.3359115,-5.661962,7.2282896,-20.238945,2.4314792,1.7030545,6.31263,10.777841,3.9085648,16.764874,-27.72388,52.38071,5.8975496,0.09965084,-6.053369,-11.818924,-14.560948,26.039263,56.521545,-9.751436,10.171719,1.6863186
187,50.92556381225586,24.23367691040039,75.3663558959961,-2.592772628043488,-2.513167790889882,22.75325315460824,-20.225016,4.0531745,-15.190801,6.3675766,-1.30256,-11.401703,15.522096,1.8021011,-5.2373,7.276126,-20.453234,2.6006901,1.8520584,5.827874,10.745458,4.037418,16.790281,-27.599049,52.58097,5.9778085,0.13041784,-6.004008,-11.582788,-14.487838,26.064585,56.45045,-9.658529,10.204089,1.7536831
188,51.35689926147461,24.52836799621582,75.32565307617188,-2.238470145419175,-2.5272448472452407,22.256246571592396,-19.752392,3.694067,-15.131346,6.372056,-0.36060706,-11.5355015,15.873132,1.2538612,-4.7717514,7.3304276,-20.593851,2.7816372,1.975084,5.3342905,10.733209,4.198005,16.814156,-27.441883,52.77156,6.01068,0.15894754,-5.953585,-11.378413,-14.398818,26.12552,56.423973,-9.546493,10.2117605,1.7958707
189,51.78411102294922,24.835750579833984,75.29439544677734,-1.8685177006125544,-2.579661020685285,21.725449309611655,-19.272161,3.2832732,-15.150204,6.3883195,0.6791467,-11.628836,16.262943,0.6659138,-4.2446537,7.385721,-20.67889,2.9961638,2.0918307,4.8232,10.744972,4.3856497,16.82608,-27.254988,52.958923,5.988743,0.18503413,-5.9031277,-11.191408,-14.311384,26.220688,56.422787,-9.386274,10.186962,1.8199732
190,52.20909118652344,25.145153045654297,75.27291870117188,-1.4647650962056684,-2.6606709879065202,21.1617041165888,-18.762003,2.8137064,-15.208265,6.4137526,1.8359251,-11.703917,16.680109,0.02024054,-3.6725664,7.4450793,-20.715973,3.2420278,2.227004,4.2837977,10.783309,4.572814,16.822083,-27.066317,53.15625,5.9263325,0.21121766,-5.851513,-10.989677,-14.253096,26.321356,56.40182,-9.186141,10.139138,1.8428925
191,52.63522720336914,25.454504013061523,75.25786590576172,-1.0620235517432859,-2.7485763365444265,20.58985396448576,-18.241224,2.3516102,-15.220189,6.4502254,2.907156,-11.790303,17.08854,-0.6305011,-3.086392,7.5289187,-20.667585,3.4772487,2.3371162,3.7445297,10.833402,4.767662,16.80547,-26.863953,53.36666,5.828896,0.23460895,-5.794095,-10.804015,-14.191159,26.4476,56.40825,-9.000218,10.080675,1.8391662
192,53.05831527709961,25.773630142211914,75.25346374511719,-0.6911435786758515,-2.8166329926001183,20.033572762657823,-17.734228,1.9622817,-15.095786,6.502036,3.6891053,-11.908001,17.06396,-1.2569611,-2.5085568,8.467118,-20.916548,3.6614094,2.454098,3.240762,10.877475,4.9220505,16.788363,-26.729761,53.614956,5.6751704,0.25359267,-5.721039,-10.579769,-14.149448,26.530254,56.400253,-8.896801,10.023298,1.7975951
193,53.474300384521484,26.086551666259766,75.2565689086914,-0.3389419364531554,-2.850132790141015,19.47996884483137,-17.26891,1.6561532,-14.747383,6.6141047,4.065361,-12.047318,16.42766,-1.8746653,-1.9118326,10.596812,-21.642168,3.7989638,2.5271297,2.7470129,10.893979,5.0715823,16.752201,-26.58611,53.90591,5.4514313,0.2585624,-5.6170254,-10.407357,-14.064554,26.656456,56.485813,-8.86372,9.962964,1.679813
194,53.87652587890625,26.398351669311523,75.26810455322266,0.02325253342182695,-2.8554915500029225,18.914064236623556,-17.460058,1.2202646,-14.234843,8.142317,3.44459,-12.178688,15.579628,-2.4985926,-1.2818631,13.085412,-22.425785,3.913144,2.6483347,2.2447255,10.898592,5.182859,16.730307,-26.5195,54.21943,5.140491,0.25548708,-5.4910154,-10.180777,-14.012104,26.73005,56.532047,-8.889454,9.896212,1.5215129
195,54.292518615722656,26.70210838317871,75.28643798828125,0.38007071313154295,-2.84164022483968,18.35946415957391,-17.560423,0.85066134,-13.66092,9.438088,2.8178732,-12.32563,14.632545,-3.0930429,-0.6462084,15.719594,-23.131723,3.9867318,2.7375178,1.7400981,10.878528,5.282605,16.70096,-26.464642,54.57039,4.840352,0.25671458,-5.371929,-9.971142,-13.927628,26.797611,56.631313,-8.989256,9.833696,1.3441398
196,54.7053108215332,26.99998664855957,75.30894470214844,0.7050785538049372,-2.821985824348072,17.84422098096115,-17.515951,0.5394104,-13.156781,10.384886,2.366523,-12.504015,13.705064,-3.6134038,-0.03915337,18.28398,-23.623808,3.999394,2.7886586,1.2594529,10.83972,5.3572364,16.673822,-26.448328,54.96104,4.620154,0.2782419,-5.288486,-9.750187,-13.813667,26.810953,56.755913,-9.191013,9.787558,1.1877421
197,55.11475372314453,27.288135528564453,75.34310150146484,0.9749664796587475,-2.794970816867304,17.389737347985385,-17.32615,0.28770903,-12.776811,10.960323,2.1395957,-12.760772,12.821455,-4.024394,0.52723795,20.743351,-23.892157,3.9495468,2.7884648,0.8251132,10.781917,5.40972,16.65845,-26.470201,55.397224,4.4742465,0.31829083,-5.2527027,-9.488957,-13.685879,26.757704,56.878464,-9.525639,9.752656,1.0419703
198,55.52714920043945,27.571218490600586,75.39168548583984,1.1975196876313778,-2.7596839243917435,16.983606215929196,-17.037987,0.091000006,-12.458029,11.279655,2.0099158,-13.078289,11.923814,-4.347181,1.0621629,23.209045,-24.00277,3.8425524,2.743515,0.42829672,10.705702,5.4441085,16.65424,-26.526093,55.870403,4.370308,0.3712646,-5.2479835,-9.203006,-13.538844,26.653221,57.01147,-9.973556,9.725892,0.89342827
199,55.93879318237305,27.844560623168945,75.45396423339844,1.3940296118907376,-2.729759686476632,16.601399767657114,-16.652325,-0.069213614,-12.152717,11.397031,1.9142427,-13.377323,10.995923,-4.6249294,1.5622184,25.714588,-23.942791,3.669829,2.6681054,0.054943047,10.626959,5.4678173,16.659912,-26.619555,56.33439,4.340691,0.4472347,-5.2659984,-8.919704,-13.377078,26.510447,57.15502,-10.472991,9.72173,0.7830739
200,56.33571243286133,28.11594009399414,75.52915954589844,1.5876225632997387,-2.7180125146003107,16.217366088615687,-16.167154,-0.21087186,-11.811054,11.359309,1.7930273,-13.577701,10.024237,-4.9007297,2.025702,28.285574,-23.694485,3.426669,2.5799732,-0.30846402,10.563274,5.4870925,16.673334,-26.755959,56.741882,4.417888,0.55618054,-5.2991652,-8.657016,-13.209949,26.338455,57.29691,-10.963047,9.754262,0.75358605
201,56.731849670410156,28.380510330200195,75.61554718017578,1.7770051881782425,-2.735310587438908,15.833378794738797,-15.558921,-0.3297292,-11.4210415,11.1479025,1.621452,-13.653519,9.027144,-5.1709456,2.4302895,30.921122,-23.222208,3.1085136,2.4743378,-0.65756404,10.524406,5.4996057,16.692577,-26.948784,57.09875,4.648095,0.71913373,-5.3496513,-8.412171,-13.042442,26.134193,57.436726,-11.486605,9.832664,0.8298591
202,57.13358688354492,28.655513763427734,75.71270751953125,1.9503945696359652,-2.7724017290665484,15.460647524530103,-14.834494,-0.42140862,-11.010415,10.742294,1.436742,-13.6482,8.003487,-5.4175005,2.7775283,33.614,-22.5429,2.7222142,2.3463814,-0.9832786,10.499521,5.501661,16.716713,-27.193754,57.425674,5.0012136,0.9242147,-5.421162,-8.172804,-12.875249,25.89316,57.57147,-12.055726,9.945894,0.9867703
203,57.5190315246582,28.926530838012695,75.81761169433594,2.116106958162707,-2.8116267752276554,15.086155600117905,-14.039654,-0.5028951,-10.588501,10.190703,1.2709243,-13.58622,6.9271398,-5.657764,3.1011996,36.34548,-21.706799,2.2869298,2.2144246,-1.2928851,10.475929,5.4991803,16.745462,-27.466974,57.69565,5.3972936,1.1316742,-5.5076747,-7.9424434,-12.714408,25.622694,57.685246,-12.563421,10.078443,1.1917343
204,57.899208068847656,29.196266174316406,75.93097686767578,2.2827923599147533,-2.8352889487077158,14.696722516622886,-13.21952,-0.5894733,-10.164353,9.542104,1.1547273,-13.494406,5.774075,-5.905091,3.4358568,39.09516,-20.761084,1.8275588,2.0922017,-1.590195,10.444171,5.4998364,16.7764,-27.73956,57.876835,5.7567153,1.3019531,-5.6032934,-7.718565,-12.578164,25.337482,57.74825,-12.897672,10.216957,1.4136057
205,58.27475357055664,29.470741271972656,76.0497055053711,2.4549685903922254,-2.83744997454926,14.281149315654208,-12.358959,-0.68474615,-9.739533,8.760645,1.104059,-13.356436,4.5153832,-6.160961,3.7887385,41.899475,-19.657043,1.3214923,1.9980471,-1.8815832,10.397315,5.50209,16.810081,-28.017317,57.96422,6.0904684,1.4379547,-5.715689,-7.499148,-12.460642,25.016415,57.75766,-13.020608,10.376707,1.6576816
206,58.65486145019531,29.753557205200195,76.17228698730469,2.6258155999317103,-2.827148911877161,13.84994529075093,-11.434724,-0.7793709,-9.311352,7.821769,1.1069679,-13.16887,3.1782455,-6.4100957,4.133712,44.745155,-18.377832,0.78724355,1.9163647,-2.1589897,10.344058,5.504035,16.845545,-28.307592,57.97028,6.4315953,1.5558451,-5.8453803,-7.2796407,-12.365304,24.662766,57.715565,-12.992983,10.560547,1.9373175
207,59.02130126953125,30.03584098815918,76.28518676757812,2.786132844782567,-2.809902227536867,13.422759964910313,-10.469517,-0.86453867,-8.88337,6.769348,1.1635052,-12.979601,1.8152437,-6.639317,4.4603887,47.55495,-17.029644,0.3035572,1.8337708,-2.4156055,10.292448,5.4940805,16.887812,-28.614637,57.90827,6.723377,1.6382824,-5.9710994,-7.067139,-12.289779,24.297464,57.637314,-12.86341,10.73371,2.2268243
208,59.380088806152344,30.31509017944336,76.39153289794922,2.927759618935735,-2.7918219311989234,13.018923726692599,-9.967805,-1.0093385,-8.448746,6.6792765,0.734179,-12.827601,0.47121367,-6.840966,4.7665267,50.267097,-15.731634,-0.066432565,1.6920702,-2.6372185,10.250594,5.4887114,16.924593,-28.88604,57.777374,6.9263234,1.6661849,-6.0742073,-6.886754,-12.249949,24.000473,57.53908,-12.660393,10.863481,2.500148
209,59.73045349121094,30.58782196044922,76.48851776123047,3.046744052227417,-2.7746947778153634,12.638092579084057,-9.502091,-1.1316347,-8.004589,6.630156,0.31132132,-12.725901,-0.8843063,-6.9979734,5.0910044,52.940308,-14.485371,-0.36143643,1.5422496,-2.828823,10.218314,5.451132,16.97313,-29.19379,57.587433,7.0044866,1.6314492,-6.154025,-6.7270207,-12.220777,23.702303,57.435387,-12.390787,10.939678,2.7625525
210,60.079647064208984,30.848730087280273,76.5787124633789,3.148511372432397,-2.7556632518742266,12.272118372674957,-9.052259,-1.235846,-7.5527835,6.580963,-0.09631699,-12.651489,-2.2680402,-7.1195526,5.426002,55.600494,-13.248425,-0.6016876,1.4360013,-3.007009,10.199477,5.378559,17.075363,-29.589617,57.31265,6.9658093,1.5489502,-6.2215366,-6.5562673,-12.195136,23.335781,57.296658,-12.054493,10.978495,3.027063
211,60.42996597290039,31.101560592651367,76.65986633300781,3.2374591406723656,-2.7344537229634707,11.927840457247653,-8.6193495,-1.3289876,-7.1136827,6.5361133,-0.49655595,-12.60224,-3.620964,-7.238885,5.7060075,58.150528,-12.0876045,-0.71537924,1.2702798,-3.1674323,10.189721,5.3279605,17.191832,-29.936766,56.961163,6.863087,1.4302832,-6.267298,-6.415957,-12.188356,23.034948,57.13448,-11.666114,10.988743,3.2697332
212,60.76782989501953,31.343799591064453,76.72848510742188,3.317647922338657,-2.7112543471657555,11.612258443026029,-8.204524,-1.4181995,-6.708068,6.499442,-0.8962275,-12.576502,-4.8881187,-7.399175,5.8709683,60.50208,-11.076141,-0.63835114,1.0789977,-3.315456,10.185836,5.254641,17.311384,-30.273117,56.604767,6.6986823,1.2917303,-6.272046,-6.2764177,-12.192866,22.758656,56.93532,-11.294208,10.9720335,3.473257
213,61.0994987487793,31.571834564208984,76.78792572021484,3.3910393263823013,-2.688395192508314,11.322546647145943,-7.8059034,-1.5032378,-6.3354306,6.4705634,-1.297916,-12.585886,-6.058112,-7.6104755,5.9287214,62.658634,-10.179974,-0.26481068,0.8902914,-3.4598978,10.1987505,5.1504216,17.465569,-30.640217,56.216244,6.4251776,1.1269149,-6.2271595,-6.1178126,-12.207937,22.471489,56.661987,-10.947462,10.923707,3.6457195
214,61.43380355834961,31.795188903808594,76.84221649169922,3.455716326823413,-2.6654292867695513,11.0565085197154,-7.4234805,-1.5815369,-5.9864626,6.4462447,-1.6958413,-12.626539,-7.168505,-7.8590994,5.9120545,64.68268,-9.391936,0.3240962,0.6863796,-3.5971982,10.225297,5.0319242,17.64874,-31.016588,55.77763,6.0555754,0.93052965,-6.1442475,-5.958953,-12.232652,22.195225,56.337112,-10.595263,10.843804,3.7920692
215,61.76215362548828,32.00845718383789,76.89310455322266,3.510996228574224,-2.638462344083386,10.8208684592645,-7.0594916,-1.657567,-5.668083,6.4282303,-2.0880852,-12.673319,-8.234564,-8.158099,5.79649,66.562164,-8.824005,0.907858,0.4672204,-3.7253819,10.254277,4.9013386,17.849058,-31.385916,55.325764,5.6608458,0.7237244,-6.0400686,-5.796525,-12.263935,21.92966,55.99781,-10.25897,10.737971,3.8972008
216,62.095558166503906,32.21550750732422,76.93910217285156,3.557277939419704,-2.6037850133026783,10.622884238019028,-6.7172613,-1.7367555,-5.3875227,6.4189215,-2.471502,-12.701886,-9.268959,-8.527397,5.5537515,68.27647,-8.583739,1.2668962,0.23621488,-3.8438852,10.275861,4.761296,18.058317,-31.73606,54.894497,5.3101816,0.52824694,-5.9306154,-5.6252985,-12.299679,21.671612,55.678787,-9.959177,10.611622,3.9464674
217,62.42641067504883,32.417694091796875,76.98102569580078,3.594908407130599,-2.5552604337800306,10.470368351938326,-6.405591,-1.8221561,-5.148455,6.41798,-2.8469186,-12.710884,-10.271876,-9.00556,5.143597,69.81886,-8.793947,1.3434014,-0.014152356,-3.951642,10.281713,4.6041765,18.2725,-32.070927,54.49098,5.0051565,0.33933276,-5.806611,-5.443308,-12.337489,21.41558,55.381767,-9.70057,10.454044,3.9374998
218,62.7574462890625,32.61027526855469,77.0211181640625,3.6240638742071556,-2.4974455420066017,10.357152349547114,-6.119059,-1.9105699,-4.9465075,6.4251122,-3.2161896,-12.711644,-11.233458,-9.581942,4.5936294,71.19837,-9.363672,1.2499051,-0.28195658,-4.0485845,10.277854,4.42676,18.49075,-32.39636,54.10589,4.7156634,0.14838819,-5.662644,-5.2546473,-12.377011,21.164263,55.095184,-9.4732,10.265582,3.8771255
219,63.09443283081055,32.80392074584961,77.06341552734375,3.64467966533812,-2.4425875828703094,10.269422590262359,-5.8366647,-1.9983628,-4.7765765,6.4347777,-3.5728798,-12.699073,-12.152059,-10.199541,3.976971,72.41412,-10.078967,1.0276191,-0.5527925,-4.135092,10.275789,4.2378154,18.70805,-32.700085,53.750706,4.461764,-0.027790373,-5.5195103,-5.0640655,-12.419659,20.928946,54.83314,-9.276443,10.068306,3.7642622
220,63.43290328979492,32.994117736816406,77.10753631591797,3.656013577798756,-2.40280102944729,10.193399713047153,-5.5378795,-2.0811596,-4.633862,6.4431524,-3.9136977,-12.66831,-13.027973,-10.795328,3.3625677,73.46379,-10.724262,0.716334,-0.8152094,-4.208322,10.285104,4.041097,18.909517,-32.967022,53.44807,4.265689,-0.17295855,-5.396667,-4.8780317,-12.464735,20.724659,54.612812,-9.108049,9.884628,3.5969307
221,63.771907806396484,33.179779052734375,77.15034484863281,3.6590605842873134,-2.3792246274337367,10.135962673528594,-5.2214546,-2.162943,-4.5294347,6.4492607,-4.236405,-12.610045,-13.867793,-11.381202,2.735069,74.35204,-11.2879715,0.24893951,-1.0659517,-4.2719107,10.31006,3.836651,19.106287,-33.20305,53.193676,4.1341877,-0.2847577,-5.2969913,-4.689457,-12.519254,20.56076,54.425114,-8.966072,9.708362,3.3469355
222,64.11583709716797,33.364383697509766,77.19314575195312,3.6533848149502055,-2.3664634036790932,10.100859517230461,-4.8964033,-2.2431583,-4.4623165,6.4551377,-4.5446644,-12.530102,-14.666227,-11.975878,2.0697775,75.07574,-11.870765,-0.36326867,-1.3172127,-4.322422,10.342036,3.6174114,19.286581,-33.406452,52.995174,4.058869,-0.37200177,-5.208713,-4.5029345,-12.58138,20.435772,54.27242,-8.850659,9.531804,3.0231605
223,64.46734619140625,33.54887390136719,77.23755645751953,3.640276281180046,-2.3664217341936333,10.06863538549567,-4.557332,-2.315038,-4.406929,6.4617214,-4.834946,-12.444703,-15.412829,-12.533082,1.4177659,75.62256,-12.421824,-0.97076255,-1.5561712,-4.3577647,10.383845,3.3922658,19.448256,-33.57579,52.84194,4.0255704,-0.4313998,-5.1342688,-4.317293,-12.648244,20.318361,54.155464,-8.767298,9.373698,2.6851027
224,64.81417083740234,33.730064392089844,77.28018188476562,3.621191416005648,-2.381087946523814,10.01983637453859,-4.198362,-2.3720076,-4.3379135,6.466557,-5.1009617,-12.370114,-16.098927,-13.009847,0.8286422,75.97851,-12.886413,-1.4244523,-1.7781132,-4.3759184,10.4314,3.161481,19.569462,-33.701366,52.74983,4.02609,-0.4611758,-5.073614,-4.1454344,-12.705654,20.186312,54.09646,-8.722088,9.253396,2.387994
225,65.16893005371094,33.907447814941406,77.31779479980469,3.595736876408274,-2.418734910386511,9.950787515013209,-3.8099253,-2.4148464,-4.253662,6.4711714,-5.3372335,-12.30467,-16.710682,-13.410096,0.2918914,76.12862,-13.229419,-1.6850485,-1.9581193,-4.376022,10.506326,2.9412766,19.692505,-33.80372,52.669754,4.050408,-0.44802895,-5.030949,-3.9564424,-12.771441,20.006977,54.06026,-8.715211,9.172416,2.137961
226,65.5286636352539,34.08058166503906,77.34967041015625,3.5638784557739047,-2.4760219716552214,9.871118138950854,-3.3967004,-2.4465623,-4.1653233,6.474203,-5.547374,-12.241434,-17.258442,-13.750412,-0.21501294,76.08245,-13.483147,-1.8311781,-2.1212,-4.3602085,10.593164,2.7177966,19.785875,-33.864616,52.64618,4.114479,-0.3990371,-5.001664,-3.778472,-12.829103,19.818594,54.083485,-8.744098,9.122464,1.9013681
227,65.89044952392578,34.24962615966797,77.37745666503906,3.5259938519477454,-2.5369528812043054,9.78115502451829,-2.9783442,-2.463923,-4.0669503,6.478676,-5.744391,-12.188808,-17.774897,-14.006058,-0.66377884,75.867935,-13.694679,-1.8948655,-2.2793517,-4.3339357,10.672604,2.4885275,19.838625,-33.877167,52.686443,4.211267,-0.3345936,-4.9862537,-3.629138,-12.868962,19.637012,54.17,-8.809014,9.106442,1.6978841
228,66.24076080322266,34.40200424194336,77.40375518798828,3.4825240130978217,-2.585027379533615,9.681505459133225,-2.5731504,-2.4640582,-3.9521475,6.483054,-5.9387674,-12.154973,-18.292437,-14.153619,-1.0247544,75.5104,-13.91028,-1.9087554,-2.4129868,-4.298715,10.744777,2.2576013,19.882004,-33.86694,52.743217,4.317721,-0.27232635,-4.990621,-3.476095,-12.909734,19.435072,54.255394,-8.915505,9.126471,1.561398
229,66.59329223632812,34.55499267578125,77.42381286621094,3.429956728320359,-2.621652325371986,9.571068708145523,-2.177997,-2.442378,-3.817591,6.4867387,-6.134871,-12.141795,-18.815203,-14.14887,-1.2588056,75.00205,-14.155783,-1.8739219,-2.536113,-4.2543883,10.804829,2.0348976,19.909555,-33.806953,52.827152,4.458535,-0.21492395,-5.024872,-3.338701,-12.942975,19.239548,54.359352,-9.081648,9.2011595,1.5050695
230,66.95063781738281,34.70751190185547,77.44010925292969,3.3694120111804113,-2.653545849630157,9.450072118917229,-1.7863686,-2.4027767,-3.6665444,6.4912057,-6.3266044,-12.144683,-19.329178,-14.022183,-1.3907883,74.33213,-14.401375,-1.7793745,-2.627052,-4.1950865,10.871655,1.8151617,19.936483,-33.71752,52.918995,4.6276326,-0.15227552,-5.0884385,-3.1857152,-12.989884,19.014503,54.44859,-9.306347,9.322024,1.5232993
231,67.3184585571289,34.85839080810547,77.45166778564453,3.309174149583837,-2.673001747532874,9.321221211101456,-1.407802,-2.3557208,-3.5035567,6.494382,-6.5080943,-12.162045,-19.838936,-13.856666,-1.4875125,73.525154,-14.613659,-1.639429,-2.7302165,-4.1377993,10.915855,1.6108726,19.944685,-33.585026,53.03101,4.787541,-0.087867305,-5.1543427,-3.0704978,-13.015051,18.814585,54.594276,-9.527328,9.454824,1.5686398
232,67.68252563476562,35.00159454345703,77.454833984375,3.2574239551118467,-2.671904411076371,9.187092283752763,-1.054157,-2.3112166,-3.3328109,6.497567,-6.674484,-12.192502,-20.347902,-13.733352,-1.6160375,72.604904,-14.757796,-1.4641175,-2.8248734,-4.0840883,10.949496,1.4086225,19.947674,-33.44329,53.12718,4.897977,-0.022392066,-5.2067103,-2.9534535,-13.039563,18.586517,54.73881,-9.714429,9.564354,1.6271335
233,68.04154968261719,35.14114761352539,77.45877838134766,3.211424096140354,-2.644261095771252,9.044310629911001,-0.7315255,-2.2638898,-3.1475785,6.498595,-6.8196445,-12.257982,-20.862698,-13.63888,-1.7697047,71.55939,-14.806099,-1.2346246,-2.913919,-4.0303473,10.961511,1.214162,19.945353,-33.29109,53.205227,4.9332438,0.04881016,-5.2416215,-2.8433352,-13.060607,18.331419,54.902157,-9.834419,9.639517,1.7002331
234,68.41260528564453,35.27263259887695,77.4561996459961,3.168076980855432,-2.5953381276260843,8.893300392758116,-0.43314564,-2.2111344,-2.9483654,6.497864,-6.9480076,-12.351845,-21.378267,-13.542924,-1.9205242,70.38083,-14.784036,-0.95207036,-3.0034683,-3.9775352,10.950147,1.0351974,19.939339,-33.12018,53.27357,4.913986,0.12544584,-5.2666674,-2.7515726,-13.072427,18.073484,55.09995,-9.908042,9.699665,1.7930768
235,68.77616119384766,35.39329528808594,77.4493637084961,3.135324847582499,-2.5344036322749974,8.741412101147993,-0.15035497,-2.1673052,-2.7501671,6.4989166,-7.070071,-12.429648,-21.878113,-13.495137,-2.107808,69.096375,-14.733851,-0.6580458,-3.079752,-3.9329295,10.93987,0.8492212,19.928642,-32.942505,53.33668,4.881577,0.19653411,-5.2850122,-2.6544456,-13.081263,17.787542,55.28426,-9.997028,9.753325,1.8979641
236,69.1437759399414,35.503456115722656,77.43949127197266,3.121261452898876,-2.4695124009552933,8.596748644578431,0.12551475,-2.147237,-2.5689557,6.5020003,-7.194326,-12.446956,-22.347973,-13.544928,-2.3719437,67.734024,-14.697251,-0.39220023,-3.1671746,-3.911321,10.921645,0.67262465,19.920233,-32.772472,53.39477,4.845541,0.25259933,-5.2870126,-2.5704215,-13.084074,17.541557,55.473225,-10.108668,9.810809,1.9803362
237,69.51394653320312,35.611663818359375,77.42679595947266,3.1250977235467707,-2.399228743256207,8.463851249291997,0.38977864,-2.1497605,-2.4125447,6.50794,-7.319381,-12.41593,-22.77858,-13.71261,-2.747349,66.280876,-14.690624,-0.1284181,-3.2655802,-3.9132624,10.896993,0.5005578,19.916042,-32.613094,53.449154,4.8121943,0.29233205,-5.268885,-2.4919612,-13.083633,17.337072,55.659573,-10.264628,9.87461,2.0428998
238,69.88504791259766,35.71688461303711,77.41380310058594,3.1431439783117865,-2.320466917813714,8.337713991546568,0.6411649,-2.1685405,-2.271678,6.5158854,-7.442092,-12.352038,-23.176374,-13.963004,-3.208918,64.72655,-14.687556,0.14729394,-3.3582814,-3.9303472,10.885666,0.3241176,19.913624,-32.433437,53.487114,4.797596,0.31969303,-5.244984,-2.4180534,-13.080143,17.105892,55.831062,-10.480938,9.935671,2.1110532
239,70.26286315917969,35.80771255493164,77.39518737792969,3.1792859027273765,-2.239454661195136,8.210446812678304,0.88965386,-2.209423,-2.1356905,6.5263724,-7.565409,-12.217182,-23.5524,-14.261285,-3.7058713,63.10699,-14.668256,0.37720305,-3.4420643,-3.967404,10.877377,0.15087338,19.91645,-32.26246,53.5122,4.776551,0.33467963,-5.2154026,-2.3435273,-13.068776,16.870031,55.98534,-10.710958,9.995726,2.1671574
240,70.64167022705078,35.8940315246582,77.37296295166016,3.2375806476067726,-2.1613263524583264,8.074590497047113,1.1450123,-2.2781265,-1.994604,6.539338,-7.6918325,-11.972966,-23.919737,-14.573041,-4.186332,61.458252,-14.614491,0.5003652,-3.527712,-4.0263133,10.857829,-7.1858616e-05,19.924917,-32.114136,53.52441,4.7227693,0.3361232,-5.179884,-2.2717483,-13.055101,16.672663,56.12682,-10.894084,10.057099,2.1906426
