unveil-humanoid-operators/unveil-humanoid-operators.github.io/feature-analysis-animation/data/feature_matrix_instances/gender_shoulder_rom_jogging_A056_jog_ff_loop_180_R_004__A056.csv
Frame,root_translateX,root_translateY,root_translateZ,root_rotateX,root_rotateY,root_rotateZ,left_hip_pitch_joint_dof,left_hip_roll_joint_dof,left_hip_yaw_joint_dof,left_knee_joint_dof,left_ankle_pitch_joint_dof,left_ankle_roll_joint_dof,right_hip_pitch_joint_dof,right_hip_roll_joint_dof,right_hip_yaw_joint_dof,right_knee_joint_dof,right_ankle_pitch_joint_dof,right_ankle_roll_joint_dof,waist_yaw_joint_dof,waist_roll_joint_dof,waist_pitch_joint_dof,left_shoulder_pitch_joint_dof,left_shoulder_roll_joint_dof,left_shoulder_yaw_joint_dof,left_elbow_joint_dof,left_wrist_roll_joint_dof,left_wrist_pitch_joint_dof,left_wrist_yaw_joint_dof,right_shoulder_pitch_joint_dof,right_shoulder_roll_joint_dof,right_shoulder_yaw_joint_dof,right_elbow_joint_dof,right_wrist_roll_joint_dof,right_wrist_pitch_joint_dof,right_wrist_yaw_joint_dof
0,-0.10489757359027863,-1.1844326257705688,78.87977600097656,1.0814619242848043,8.702929462562505,88.71517311843749,-3.4362245,3.0087748,9.987525,49.105976,-4.351975,-0.5223899,-26.145187,0.3527706,-1.8721144,14.684624,-10.608654,2.6987615,-10.964928,-1.0916015,5.7532744,1.8470596,32.204807,-29.551027,-23.759,-3.9510417,5.229622,7.8434114,40.496143,-21.272133,13.201181,-3.379429,5.6927867,4.938971,-13.19249
1,0.0028334916569292545,-0.24584615230560303,78.7063217163086,0.7848068378834598,8.568860901013824,88.4099570143853,-4.2345204,3.685555,9.927882,52.33938,-4.6561666,-0.05624258,-26.433064,0.8383045,-1.8354934,16.211855,-9.858995,2.9383042,-10.651458,-0.7698444,5.898577,2.2549145,32.2798,-29.839422,-24.002375,-4.2205725,5.3432317,8.00254,39.889164,-21.326565,13.165664,-3.6318636,6.0571723,4.979496,-13.340894
2,0.09336958825588226,0.6870734691619873,78.47715759277344,0.5116084752761989,8.425511180227513,88.1170788233021,-4.9931626,4.3268275,9.856624,55.52952,-4.8949485,0.44661248,-26.648705,1.3102317,-1.7937489,17.562838,-8.976521,3.2473242,-10.352363,-0.46178415,6.033752,2.6269026,32.322384,-30.148876,-24.19763,-4.5077047,5.4574695,8.168362,39.317528,-21.379433,13.119731,-3.9005044,6.452192,5.026241,-13.495776
3,0.19282765686511993,1.6181836128234863,78.17826080322266,0.22239119795316928,8.280989741350146,87.81596220810295,-5.7487917,4.9782915,9.768782,58.703793,-5.22267,0.87016803,-26.961695,1.78777,-1.7657074,19.196327,-8.326617,3.4420524,-10.021347,-0.13564157,6.174033,2.9812853,32.354378,-30.46997,-24.37707,-4.7433167,5.5688972,8.316646,38.72539,-21.449505,13.071447,-4.1674786,6.7945666,5.0596757,-13.639059
4,0.2736327350139618,2.5443954467773438,77.7979965209961,-0.1002993931983808,8.136661183405177,87.49213921023708,-6.5249453,5.6609263,9.658162,61.878643,-5.7922487,1.0996503,-27.514484,2.274544,-1.7759619,21.525225,-8.252415,3.3497012,-9.634266,0.22386181,6.3345666,3.3449135,32.37576,-30.766695,-24.562954,-4.847304,5.676126,8.405583,38.035416,-21.557615,13.044187,-4.39642,6.9959536,5.061294,-13.754942
5,0.35718950629234314,3.4712131023406982,77.36457061767578,-0.4536285972288508,7.976025370615058,87.14706845685156,-7.2879796,6.3821597,9.543424,65.0933,-6.6695113,1.0309088,-28.39932,2.7723439,-1.8447006,24.849747,-8.880797,2.8362226,-9.19375,0.6135031,6.5200152,3.7200887,32.389374,-31.043583,-24.780201,-4.771324,5.799853,8.436693,37.23785,-21.7082,13.035979,-4.5818663,6.9907084,5.017896,-13.787403
6,0.4556882083415985,4.362696647644043,76.89191436767578,-0.7904304420260762,7.791489804004399,86.80058692499873,-8.020383,7.085211,9.431805,68.33022,-7.7712626,0.7588849,-29.471418,3.2636755,-1.9530547,28.7978,-9.962748,2.0509067,-8.73494,0.9907084,6.7282324,4.116297,32.401276,-31.296926,-25.02929,-4.5675426,5.9342155,8.425779,36.370968,-21.903666,13.048084,-4.750801,6.845876,4.9432535,-13.764454
7,0.5432221293449402,5.219731330871582,76.36853790283203,-1.0822156536368566,7.603022087606128,86.45955066351681,-8.783385,7.7112412,9.296248,71.53354,-9.028991,0.46326375,-30.555525,3.7320707,-2.0693285,32.8474,-11.30813,1.233756,-8.271,1.3198731,6.95916,4.5573044,32.40915,-31.48338,-25.281294,-4.3017282,6.0396085,8.346968,35.407837,-22.140062,13.1079445,-4.8853593,6.6578584,4.8588314,-13.794056
8,0.5971511602401733,6.04880952835083,75.78858184814453,-1.3258197551802877,7.439583746529579,86.12088428517227,-9.653213,8.224789,9.101255,74.65125,-10.372662,0.31336075,-31.518398,4.1625824,-2.163183,36.559483,-12.78073,0.5988247,-7.806909,1.5918926,7.207624,5.0633793,32.404743,-31.559622,-25.50287,-4.039769,6.0760527,8.174348,34.315517,-22.409605,13.246877,-4.962148,6.5221367,4.786441,-13.984401
9,0.6540737748146057,6.86398458480835,75.1827621459961,-1.5271324237499968,7.295092491512539,85.75923687186018,-10.658319,8.609252,8.824878,77.752884,-11.889255,0.3840043,-32.4044,4.5486026,-2.2131262,40.031055,-14.531474,0.18056127,-7.3249745,1.8125393,7.5086102,5.6358743,32.38469,-31.494284,-25.710852,-3.7932708,5.977649,7.8525596,33.06872,-22.70891,13.461627,-4.986268,6.4693456,4.7128706,-14.360904
10,0.7279879450798035,7.675173282623291,74.56963348388672,-1.7053752291195667,7.1657582503097625,85.37710862950149,-11.767155,8.893159,8.490736,80.8518,-13.583656,0.5647046,-33.2839,4.904633,-2.2369099,43.48132,-16.605278,-0.1480287,-6.8258977,2.0030072,7.8493104,6.2669554,32.348763,-31.313984,-25.91396,-3.5300019,5.7826843,7.412042,31.679188,-23.03826,13.748427,-4.957802,6.4467974,4.6327085,-14.867485
11,0.7944620251655579,8.467355728149414,73.98650360107422,-1.8767967376696224,7.086596914845963,85.00962477634974,-12.973335,9.121331,8.123951,83.80822,-15.259287,0.7446285,-34.083553,5.236721,-2.26332,46.69892,-18.734692,-0.42635515,-6.333545,2.1841085,8.150106,6.951927,32.288013,-31.070696,-26.05778,-3.2488334,5.607479,6.9551487,30.173544,-23.391605,14.132739,-4.8482666,6.424612,4.5793605,-15.489541
12,0.8569162487983704,9.241031646728516,73.45032501220703,-2.056382939548511,7.0922050216736565,84.69205139439083,-14.273915,9.349087,7.746888,86.48175,-16.715391,0.81799114,-34.730778,5.5535564,-2.3244,49.461895,-20.644413,-0.69037163,-5.866837,2.3732433,8.330007,7.6773705,32.18655,-30.825714,-26.073975,-2.9432497,5.5696096,6.582181,28.583693,-23.758383,14.633068,-4.6325064,6.3719635,4.5868773,-16.212673
13,0.9242546558380127,10.043074607849121,72.9685287475586,-2.2772255835120983,7.254951374985175,84.42549638966635,-15.762327,9.63935,7.347563,88.87226,-17.888214,0.7500245,-35.26058,5.8749733,-2.4464302,51.672283,-22.269777,-0.95703226,-5.414805,2.5978143,8.316562,8.416569,32.021942,-30.608757,-25.905067,-2.6619172,5.66667,6.268044,26.851011,-24.135136,15.297263,-4.2190857,6.306953,4.684021,-17.148968
14,0.980932354927063,10.864829063415527,72.53097534179688,-2.5267206347631475,7.536448009270009,84.19135513017766,-17.4161,9.958334,6.912719,91.044815,-18.883398,0.6034981,-35.70371,6.1890264,-2.6072385,53.47744,-23.763113,-1.2094563,-4.9635134,2.8468447,8.1643095,9.158363,31.782476,-30.400091,-25.565823,-2.385142,5.847913,5.9721427,24.989784,-24.51435,16.095007,-3.658988,6.2405505,4.847021,-18.269133
15,1.008125901222229,11.6787748336792,72.13079833984375,-2.7520910194595234,7.8046903896516815,83.9989856327713,-19.052599,10.22264,6.466631,92.946236,-19.754953,0.42571202,-35.969624,6.458781,-2.7618334,55.009724,-25.164734,-1.4298823,-4.5207067,3.0735683,7.984313,9.898739,31.475603,-30.200373,-25.095295,-2.005104,6.1591973,5.771231,23.145979,-24.879581,16.912134,-3.1353097,6.1216083,5.033045,-19.342144
16,1.057499647140503,12.503984451293945,71.77936553955078,-2.89946166060803,7.92758511483933,83.85996935452,-20.486567,10.34971,6.0403194,94.52048,-20.555084,0.26337203,-35.961956,6.646104,-2.8653316,56.39447,-26.514864,-1.5999017,-4.0902305,3.2283597,7.8899846,10.633754,31.122421,-30.016935,-24.539478,-1.4173572,6.647167,5.7444186,21.463284,-25.211918,17.631332,-2.8203576,5.8912816,5.199975,-20.133102
17,1.131322979927063,13.361350059509277,71.49193572998047,-2.9397204321304904,7.838949184600844,83.77606868927437,-21.63183,10.284361,5.627411,95.73026,-21.277643,0.11305745,-35.605045,6.734032,-2.8824213,57.663643,-27.840494,-1.7053071,-3.6660867,3.270181,7.933279,11.371248,30.73159,-29.840097,-23.850721,-0.5848668,7.331872,5.8642344,19.966562,-25.49298,18.228886,-2.715373,5.4507675,5.36045,-20.563633
18,1.1816887855529785,14.237359046936035,71.2549057006836,-2.907146195565676,7.619292219743349,83.74203175693059,-22.600203,10.088469,5.220848,96.61223,-21.895514,-0.04271097,-34.96157,6.738497,-2.8425508,58.75014,-29.115854,-1.7601051,-3.2363627,3.2294312,8.04833,12.103125,30.306108,-29.686722,-23.026114,0.42781267,8.190424,6.1005445,18.580925,-25.722761,18.752623,-2.7260013,4.8454175,5.528337,-20.758005
19,1.2324883937835693,15.104752540588379,71.07308197021484,-2.8386016411193533,7.35603767781015,83.75953824934327,-23.50509,9.857857,4.8504825,97.22497,-22.433128,-0.17861304,-34.1417,6.6743765,-2.7964983,59.626114,-30.300138,-1.7877009,-2.804193,3.1646023,8.173609,12.815098,29.868088,-29.589928,-22.19528,1.5656596,9.209099,6.5285034,17.298098,-25.918835,19.202091,-2.8806105,4.232312,5.661416,-20.787184
20,1.2684885263442993,15.996390342712402,70.94259643554688,-2.7749917149256365,7.137204258712057,83.8302978229581,-24.461033,9.685691,4.544377,97.625404,-22.913454,-0.2693674,-33.258564,6.5600967,-2.7975514,60.266907,-31.353315,-1.8113229,-2.3742995,3.1322663,8.250014,13.505979,29.453382,-29.57523,-21.506767,2.7680547,10.378057,7.2287936,16.115448,-26.110306,19.575691,-3.220677,3.7745323,5.7186413,-20.72362
21,1.2870020866394043,16.88469123840332,70.85653686523438,-2.71881920176282,6.962378455243772,83.96611627610176,-25.48021,9.595627,4.3109965,97.80978,-23.334343,-0.34105602,-32.29841,6.383063,-2.8714995,60.650723,-32.28413,-1.8448043,-1.9609063,3.1464405,8.287824,14.205028,29.092546,-29.668653,-21.038067,4.2457185,11.898345,8.372283,15.035467,-26.321133,19.868225,-3.790806,3.5301034,5.662011,-20.5459
22,1.3039798736572266,17.77101707458496,70.8268814086914,-2.653466314629378,6.792300260476584,84.16187853187674,-26.507729,9.537297,4.1358237,97.75178,-23.684229,-0.39687458,-31.217644,6.1408296,-2.98785,60.799206,-33.110252,-1.8723323,-1.562354,3.1762304,8.319403,14.939163,28.79501,-29.830925,-20.747768,5.919938,13.735982,9.852801,14.072295,-26.556591,20.083334,-4.586081,3.4181163,5.5210547,-20.230753
23,1.3219256401062012,18.62645721435547,70.8453140258789,-2.579973905209176,6.656783443647489,84.39438095360173,-27.555317,9.491037,4.013423,97.46981,-23.972128,-0.3776419,-30.082453,5.8709145,-3.1142359,60.746765,-33.795414,-1.8735458,-1.1645446,3.2079146,8.31781,15.711863,28.564453,-29.98138,-20.61887,7.310827,15.501317,11.364809,13.229297,-26.815453,20.24034,-5.564511,3.3956056,5.358205,-19.849127
24,1.3263599872589111,19.49275016784668,70.92335510253906,-2.5002882115217875,6.585949710877479,84.64051696948833,-28.634068,9.436075,3.9378347,96.98209,-24.20793,-0.22714996,-28.959854,5.609262,-3.217909,60.52838,-34.307354,-1.8290396,-0.75581765,3.2264538,8.255851,16.527964,28.402485,-30.035547,-20.633947,7.9658775,16.767921,12.637462,12.510745,-27.091753,20.35989,-6.685303,3.4151628,5.235627,-19.472666
25,1.3323837518692017,20.36622428894043,71.04190063476562,-2.4167893258084545,6.609234845809227,84.89425110857056,-29.794691,9.400337,3.9299605,96.31093,-24.429256,0.15859775,-27.890266,5.3667583,-3.2914543,60.14993,-34.638668,-1.7314771,-0.33775502,3.2278178,8.105601,17.421822,28.319075,-29.964865,-20.833761,7.6457577,17.360079,13.740076,11.912295,-27.384308,20.4447,-7.977989,3.4877625,5.1628866,-19.097317
26,1.3337419033050537,21.24457550048828,71.19898223876953,-2.3261867113288757,6.7032633627753055,85.16800533160271,-31.007582,9.375283,3.992814,95.43568,-24.624596,0.71169716,-26.831638,5.122741,-3.3512564,59.595993,-34.808422,-1.592579,0.07865066,3.2131176,7.8912115,18.402063,28.322142,-29.80077,-21.237411,6.6504607,17.49068,14.789872,11.430381,-27.693707,20.490257,-9.452683,3.6301441,5.109806,-18.694408
27,1.3419864177703857,22.129680633544922,71.41329956054688,-2.2215687260004087,6.819050687567317,85.46608502412104,-32.16587,9.292911,4.092482,94.31615,-24.731207,1.2445984,-25.72809,4.8665495,-3.3989131,58.87303,-34.820965,-1.4210573,0.49554193,3.175179,7.6615596,19.423063,28.403383,-29.556368,-21.774551,5.355736,17.315655,15.593204,11.062732,-28.015491,20.50101,-11.027086,3.8045292,5.0777984,-18.297775
28,1.333524227142334,23.0329532623291,71.67436981201172,-2.0929019640502378,6.907671526142144,85.7926448501626,-33.163834,9.0911875,4.191487,92.9105,-24.680798,1.5703926,-24.523323,4.587411,-3.437056,57.985508,-34.679264,-1.2247642,0.9146677,3.1107428,7.4628572,20.429834,28.54198,-29.24838,-22.363771,4.1318626,17.012003,15.959127,10.805147,-28.341482,20.483582,-12.614154,3.9700341,5.0684743,-17.941744
29,1.318669080734253,23.933088302612305,71.97518920898438,-1.941937606916161,6.961759364752851,86.16120915559218,-33.98584,8.775241,4.288571,91.194244,-24.42541,1.6220608,-23.189356,4.2784915,-3.4741807,56.89711,-34.390884,-0.9861217,1.3369055,3.0236266,7.29373,21.404108,28.720907,-28.861584,-22.97209,2.930369,16.539356,15.720717,10.664665,-28.667917,20.428965,-14.221166,4.1040754,5.1073666,-17.65078
30,1.3103206157684326,24.849720001220703,72.32372283935547,-1.7717166396375374,7.005125256338314,86.56550430184146,-34.678387,8.371783,4.4012365,89.19085,-24.01139,1.5040799,-21.762177,3.9475086,-3.507016,55.619503,-33.95242,-0.70620704,1.7623616,2.9173055,7.1298885,22.362392,28.933355,-28.399508,-23.624195,1.6053851,15.857149,15.003203,10.640334,-28.99506,20.334875,-15.878906,4.228059,5.18542,-17.40171
31,1.3000601530075073,25.770055770874023,72.71588897705078,-1.5826333502780505,7.035824172284104,86.97961026056319,-35.230072,7.8592567,4.512129,86.928276,-23.507528,1.292179,-20.277657,3.6063008,-3.521477,54.222633,-33.349415,-0.4207986,2.1936803,2.7899575,6.982224,23.291548,29.171164,-27.911222,-24.307817,0.37499455,15.143535,14.0721245,10.706493,-29.321177,20.217018,-17.515247,4.3661184,5.2494864,-17.155222
32,1.262588381767273,26.728015899658203,73.14324188232422,-1.3731248855235616,7.0514698725817935,87.37772887744798,-35.632133,7.223291,4.5991273,84.43615,-22.986734,1.0674515,-18.771908,3.2669146,-3.5023293,52.77715,-32.5675,-0.1676969,2.6347833,2.6400957,6.860984,24.17157,29.424313,-27.448624,-25.002092,-0.5345648,14.558151,13.204126,10.834432,-29.641973,20.091482,-19.059435,4.5431347,5.2467933,-16.871672
33,1.2405576705932617,27.678834915161133,73.59686279296875,-1.140926930028637,7.042992710016143,87.75119744068269,-35.88063,6.448603,4.642798,81.71211,-22.469185,0.8723457,-17.222204,2.932265,-3.426282,51.25615,-31.597303,0.0458156,3.100232,2.463415,6.7763834,24.97807,29.687176,-27.01499,-25.693926,-1.0377042,14.121646,12.392455,11.029444,-29.952682,19.942572,-20.499117,4.7677965,5.1527286,-16.526009
34,1.208168864250183,28.603130340576172,74.0653076171875,-0.8871673943697184,7.013930061093152,88.11414210240807,-35.97914,5.564303,4.6411233,78.74196,-21.920921,0.6697709,-15.622828,2.5965395,-3.308747,49.64096,-30.448189,0.23785098,3.585857,2.265661,6.7193565,25.715052,29.956968,-26.59106,-26.379827,-1.2613347,13.747541,11.5243,11.299454,-30.25253,19.765905,-21.864931,5.024435,5.0001235,-16.142056
35,1.1847171783447266,29.569429397583008,74.56077575683594,-0.6280950751106735,6.9820624902214465,88.47445395550096,-35.930305,4.6214557,4.595524,75.53306,-21.3315,0.4186342,-14.033569,2.2565854,-3.1946526,48.01306,-29.143322,0.41025293,4.0652347,2.060917,6.6704626,26.402369,30.227854,-26.192926,-27.053446,-1.2915455,13.422157,10.720164,11.615836,-30.54284,19.599228,-23.140036,5.3021717,4.8224497,-15.754382
36,1.130903959274292,30.543508529663086,75.07243347167969,-0.3740442344406836,6.964904162583774,88.84055602350121,-35.736427,3.6650665,4.5116296,72.08756,-20.686348,0.07321199,-12.513258,1.9110247,-3.1285124,46.45387,-27.70409,0.5642922,4.510378,1.862667,6.609008,27.056053,30.490858,-25.83734,-27.699402,-1.2126814,13.134376,10.0985365,11.945488,-30.8265,19.483004,-24.302904,5.5900664,4.6526794,-15.397777
37,1.0629472732543945,31.5188045501709,75.57786560058594,-0.11280820645137143,6.9647881010075094,89.22544528410653,-35.37864,2.6486592,4.363479,68.33848,-19.941431,-0.419317,-11.049505,1.5418746,-3.120668,44.9414,-26.11048,0.6975469,4.907492,1.6634767,6.531743,27.666452,30.739016,-25.538456,-28.304258,-0.94481134,12.890081,9.698419,12.288087,-31.105736,19.43123,-25.33452,5.8922114,4.480521,-15.084938
38,1.0129977464675903,32.508750915527344,76.08306121826172,0.15345312693432725,6.972038674165132,89.6213326855695,-34.854874,1.581928,4.1384563,64.29428,-19.116707,-1.0103667,-9.621114,1.161137,-3.150508,43.453873,-24.36376,0.8085955,5.2699966,1.4655646,6.4476175,28.222164,30.96933,-25.285192,-28.865156,-0.4705051,12.689158,9.45375,12.651631,-31.381678,19.4261,-26.246206,6.212455,4.295312,-14.796113
39,0.9518638253211975,33.5196418762207,76.59431457519531,0.39001553608111444,6.9866232939563835,90.00421690442273,-34.188713,0.5788182,3.8783083,60.051266,-18.282001,-1.6039569,-8.267202,0.8107758,-3.2106712,42.060196,-22.508173,0.9005543,5.611296,1.2940867,6.3537636,28.741014,31.17893,-25.054895,-29.399359,0.03222625,12.514521,9.323097,13.0229845,-31.65491,19.460356,-27.0627,6.5364037,4.1285706,-14.517716
40,0.8995623588562012,34.51155471801758,77.08488464355469,0.5673269657093072,7.009248271392533,90.35013274679825,-33.408283,-0.25763953,3.637989,55.704594,-17.502087,-2.1141226,-7.0264087,0.53128856,-3.2925608,40.825836,-20.584888,0.9770295,5.9436555,1.1723974,6.2464576,29.242409,31.365536,-24.822613,-29.920975,0.38420886,12.350346,9.26404,13.382205,-31.926805,19.529755,-27.805302,6.849989,4.0120864,-14.236673
41,0.8385307788848877,35.52695846557617,77.55006408691406,0.676517725427625,7.045127244462662,90.65583536993904,-32.48539,-0.9273139,3.447705,51.15734,-16.780226,-2.554371,-5.9047766,0.33101594,-3.399058,39.745193,-18.549866,1.0148607,6.2733693,1.1047778,6.121491,29.728178,31.525444,-24.584066,-30.425547,0.5302777,12.189512,9.300081,13.729685,-32.1989,19.640009,-28.470968,7.17077,3.9615893,-13.9550295
42,0.7692009806632996,36.55105972290039,77.98463439941406,0.7323187216186904,7.091112566337809,90.93096626798953,-31.400232,-1.4828005,3.2819417,46.355324,-16.064098,-2.968011,-4.8785076,0.19120649,-3.5305789,38.7841,-16.39386,1.0186158,6.5926204,1.0818436,5.98231,30.19034,31.657614,-24.350847,-30.90718,0.5717874,12.0428915,9.44016,14.070162,-32.473248,19.793812,-29.048923,7.4985986,3.9580996,-13.678156
43,0.7074496746063232,37.58082580566406,78.39215087890625,0.7255224240016871,7.135522891816647,91.17054547964807,-30.212383,-1.9062854,3.1202438,41.4917,-15.341388,-3.327146,-3.9422753,0.12206276,-3.674607,37.967102,-14.210391,1.0330848,6.893519,1.1168513,5.836725,30.633062,31.765446,-24.120285,-31.382597,0.5596843,11.920564,9.620578,14.396597,-32.74919,19.982344,-29.55603,7.7936945,3.9806068,-13.399926
44,0.6390315890312195,38.6059684753418,78.76659393310547,0.6494860490874288,7.167258246528683,91.37013467449466,-28.987894,-2.1839635,2.9469793,36.772003,-14.611138,-3.6086018,-3.0897534,0.13433492,-3.8155086,37.316708,-12.092099,1.1045634,7.1682863,1.220686,5.692107,31.06499,31.856304,-23.888617,-31.873104,0.5448043,11.8328905,9.778461,14.700718,-33.025238,20.195856,-30.007406,8.016375,4.007656,-13.113103
45,0.5796481370925903,39.647056579589844,79.10201263427734,0.47778965585812866,7.181917023714072,91.51675427934455,-27.697063,-2.2966144,2.7662287,32.119125,-13.83776,-3.8449793,-2.3001766,0.26008475,-3.955613,36.791603,-10.007143,1.2620243,7.4275355,1.4161929,5.5485992,31.504843,31.93508,-23.653255,-32.39538,0.54233253,11.804174,9.922081,14.9844475,-33.3009,20.438234,-30.400675,8.154471,4.0422664,-12.797976
46,0.5035734176635742,40.67245864868164,79.39178466796875,0.20633660999773912,7.18184245425087,91.61130000135057,-26.312202,-2.2568378,2.5985281,27.44062,-13.020052,-4.0596523,-1.5691968,0.50501066,-4.0935774,36.37293,-7.9117417,1.4752856,7.677902,1.7057201,5.405525,31.948645,32.003693,-23.414785,-32.94368,0.52200955,11.821845,10.077593,15.252549,-33.576855,20.710564,-30.731314,8.229335,4.0924125,-12.463536
47,0.4417394697666168,41.71554946899414,79.63761901855469,-0.13390710827648356,7.167948066400455,91.67249051065109,-24.920702,-2.1039793,2.4556074,22.956337,-12.225137,-4.2151375,-0.9161119,0.8339137,-4.2105055,36.11445,-5.8780637,1.7039627,7.9045553,2.0636618,5.2681546,32.37346,32.065613,-23.17528,-33.50682,0.46844652,11.84021,10.2097025,15.505966,-33.851887,20.998146,-31.018288,8.251301,4.143605,-12.145383
48,0.3762669563293457,42.7449951171875,79.83258056640625,-0.5015475127725925,7.145518325892521,91.72342417149406,-23.633776,-1.8890572,2.3498602,18.934233,-11.542693,-4.2671037,-0.3687994,1.1938323,-4.2913604,36.079887,-3.9847796,1.9094453,8.089511,2.4498928,5.1398892,32.75231,32.126118,-22.937885,-34.06625,0.3654009,11.813577,10.283211,15.742122,-34.12396,21.285486,-31.271585,8.2310295,4.18139,-11.878487
49,0.31317487359046936,43.77672576904297,79.97920227050781,-0.8770312257328706,7.127226464704598,91.76894363735566,-22.495054,-1.6134168,2.3221161,15.433041,-11.041092,-4.13232,0.043825015,1.5600812,-4.3417273,36.298626,-2.2337875,2.0638294,8.225693,2.8428504,5.007666,33.086254,32.18889,-22.701319,-34.61207,0.16289754,11.714667,10.287756,15.948276,-34.392002,21.58756,-31.48264,8.166838,4.195913,-11.684353
50,0.2428203523159027,44.7950553894043,80.08472442626953,-1.2609975820904389,7.114492501898034,91.80560665618789,-21.465483,-1.295757,2.3699532,12.336006,-10.671591,-3.8660712,0.32803825,1.9343827,-4.3708405,36.749027,-0.5977033,2.2025404,8.316291,3.239866,4.87098,33.387108,32.255413,-22.463747,-35.15657,-0.117002785,11.572604,10.242759,16.125877,-34.65426,21.908533,-31.647745,8.054207,4.196205,-11.540364
51,0.17424066364765167,45.80732727050781,80.14443969726562,-1.6197078245037524,7.101358011910749,91.85003922512315,-20.511177,-1.0171318,2.43046,9.604844,-10.33371,-3.6113286,0.49374688,2.2833278,-4.3720365,37.44285,0.87409717,2.3839324,8.354388,3.6135323,4.7496533,33.638905,32.327873,-22.23014,-35.711258,-0.38353086,11.427286,10.158748,16.294697,-34.90406,22.215866,-31.781496,7.901841,4.195799,-11.416364
52,0.1034586951136589,46.81388854980469,80.15771484375,-1.9251795683719752,7.081297890988674,91.91738331721831,-19.677109,-0.8339301,2.4324737,7.3768344,-10.011311,-3.4963295,0.55261415,2.580533,-4.3367534,38.39148,2.131078,2.6644576,8.337374,3.9412878,4.663459,33.820915,32.40991,-22.008772,-36.288006,-0.54718924,11.318111,10.047551,16.480133,-35.13213,22.471952,-31.904108,7.7171707,4.2082896,-11.280605
53,0.03388390317559242,47.80787658691406,80.12055969238281,-2.184600064545935,7.057222751986814,92.01042605988115,-19.740257,-0.6982888,2.3514316,7.306214,-10.603777,-3.543014,0.5000065,2.838406,-4.2606964,39.605373,3.1500835,3.1116927,8.263799,4.227765,4.6073914,33.937626,32.503296,-21.802713,-36.888294,-0.5730085,11.256816,9.898523,16.684645,-35.332302,22.667437,-32.01866,7.4686065,4.2447863,-11.108526
54,-0.04593351483345032,48.78767013549805,80.02666473388672,-2.386798640974426,7.037925515801871,92.12771043484177,-19.714828,-0.6395133,2.207765,7.265673,-11.014489,-3.6645768,0.3167182,3.0461314,-4.1496882,41.10051,3.9446023,3.684609,8.132663,4.4594746,4.5701995,33.990696,32.60974,-21.611538,-37.500046,-0.5135937,11.2213955,9.711705,16.89261,-35.50162,22.821356,-32.107647,7.1620445,4.2949376,-10.920453
55,-0.11956099420785904,49.75609588623047,79.87811279296875,-2.4872833233971385,7.023992006249031,92.27606463618382,-19.602737,-0.69968355,2.026572,7.2484756,-11.152149,-3.816205,0.0011470356,3.149333,-4.010609,42.885117,4.524576,4.2740865,7.9433312,4.5912285,4.5622163,33.957825,32.73457,-21.437744,-38.121418,-0.40969458,11.200708,9.5148325,17.108034,-35.63558,22.938154,-32.163425,6.8574414,4.3407993,-10.75164
56,-0.17796944081783295,50.723533630371094,79.67353820800781,-2.4415400809475045,7.014895242793342,92.46142974817393,-19.406557,-0.92204905,1.8330033,7.253676,-10.930105,-3.953505,-0.44359046,3.0929627,-3.8486056,44.95969,4.9058414,4.7705545,7.6980686,4.578252,4.5938754,33.81866,32.885487,-21.285765,-38.754337,-0.30194348,11.1838665,9.336683,17.337791,-35.727455,23.019438,-32.183777,6.6173377,4.3649693,-10.637768
57,-0.22331571578979492,51.67504119873047,79.4134292602539,-2.2380111328522063,7.0051095348068175,92.68082006185514,-19.100039,-1.3367363,1.5689822,7.27748,-10.229367,-4.1865683,-1.0308595,2.8625028,-3.665379,47.366383,5.1384854,5.07752,7.40066,4.4085827,4.6667566,33.572422,33.069725,-21.169632,-39.40635,-0.19701256,11.178954,9.18238,17.588188,-35.77179,23.06602,-32.16833,6.460196,4.3608255,-10.597741
58,-0.29702648520469666,52.604251861572266,79.13129425048828,-1.9031250794071906,6.992897166078912,92.9299642986657,-18.693058,-1.9174159,1.2401379,7.3274674,-9.134465,-4.5124106,-1.7398498,2.4946558,-3.4512403,50.065235,5.211034,5.276871,7.054832,4.1054473,4.774336,33.232655,33.289898,-21.084322,-40.078827,-0.07629503,11.187985,9.039581,17.855217,-35.76495,23.07612,-32.115273,6.35131,4.3389373,-10.60858
59,-0.3669895529747009,53.51526641845703,78.81285095214844,-1.4522418936197041,6.981388224929123,93.21125603839528,-19.26168,-2.6012912,1.014578,9.582611,-9.005197,-4.718876,-2.5134456,2.0199945,-3.1926498,52.935432,5.046777,5.5253563,6.6640477,3.6809301,4.914363,32.799118,33.547504,-21.00271,-40.772797,0.055325557,11.191923,8.909405,18.125334,-35.70715,23.046652,-32.017223,6.2700295,4.3086863,-10.640642
60,-0.41125208139419556,54.44245147705078,78.4244155883789,-0.9071875738043254,6.972658559270949,93.5257624270344,-20.118977,-3.3385804,1.0091568,12.483825,-9.214008,-4.579573,-3.2963004,1.4778292,-2.8830948,55.86664,4.5630317,5.9758034,6.2323337,3.157481,5.085486,32.274426,33.84298,-20.896526,-41.486923,0.19379103,11.171839,8.792722,18.387175,-35.601585,22.973843,-31.87044,6.1966324,4.2791834,-10.665008
61,-0.4512493908405304,55.35309982299805,77.97230529785156,-0.2685348788932098,6.9564499004895355,93.8724565809007,-21.2581,-4.0890107,1.3166734,16.036627,-9.59816,-3.9299183,-4.0460496,0.90170264,-2.4930184,58.85677,3.74518,6.798935,5.757994,2.5323653,5.290186,31.68356,34.17873,-20.75993,-42.241135,0.35817888,11.11584,8.679846,18.625166,-35.455597,22.861927,-31.68696,6.1468782,4.262138,-10.658611
62,-0.5051003098487854,56.234092712402344,77.48177337646484,0.4029203715434041,6.915837868573026,94.23343885661824,-22.618702,-4.8053217,1.8452146,20.179407,-10.082953,-2.9471016,-4.7692904,0.3402523,-2.0638344,61.936146,2.6402905,7.846522,5.25774,1.870222,5.5361576,31.029411,34.55571,-20.605705,-43.044006,0.5432016,11.036792,8.574119,18.85927,-35.27436,22.704744,-31.475874,6.125549,4.2502165,-10.641475
63,-0.5533848404884338,57.0845947265625,76.93315887451172,1.0327778174684166,6.855718281257845,94.59613058588647,-23.991793,-5.450863,2.4279428,24.423452,-10.787798,-1.8804468,-5.506918,-0.2049869,-1.6873925,65.06491,1.2461083,8.79835,4.7524085,1.2505318,5.8241076,30.270485,34.969692,-20.436613,-43.87116,0.70762235,10.951812,8.496117,19.129272,-35.05327,22.487265,-31.231562,6.0975466,4.2232504,-10.651511
64,-0.5911834239959717,57.902835845947266,76.33892059326172,1.6083751661339023,6.796383967171319,94.9633884977842,-25.205053,-6.0685763,2.900099,28.332874,-11.867166,-0.9585956,-6.3269653,-0.80028236,-1.4229405,68.22733,-0.4462627,9.352064,4.2478185,0.6893427,6.144844,29.359142,35.41334,-20.256742,-44.691795,0.8127582,10.878154,8.465414,19.461979,-34.779045,22.20276,-30.93048,6.026059,4.1608005,-10.72648
65,-0.6122532486915588,58.697879791259766,75.71603393554688,2.1939704440426224,6.736394582317036,95.37580821442354,-26.324785,-6.7521367,3.211968,32.040283,-13.580728,-0.17003174,-7.262386,-1.5512955,-1.2829869,71.55181,-2.6136312,9.376324,3.7099361,0.1266647,6.5305753,28.254347,35.89692,-20.03806,-45.519848,0.8368632,10.804419,8.472808,19.850065,-34.43415,21.838833,-30.570787,5.8975744,4.0187716,-10.853213
66,-0.6340926289558411,59.484840393066406,75.08589172363281,2.807404847804495,6.675673512176482,95.82789237675951,-27.442184,-7.501626,3.444805,35.756454,-15.807078,0.6020329,-8.287122,-2.4364562,-1.2019956,75.02086,-5.203323,9.062512,3.1457489,-0.4693117,6.9638276,26.9875,36.4256,-19.790857,-46.362877,0.8037058,10.726649,8.5137205,20.26466,-34.01178,21.409767,-30.142033,5.7290444,3.8215504,-11.017157
67,-0.660956859588623,60.28338623046875,74.48136138916016,3.400593857532746,6.643813383920908,96.26103612562679,-28.450209,-8.242409,3.6388946,39.215374,-18.161255,1.2950737,-9.392916,-3.3511012,-1.1084385,78.404175,-7.8751674,8.597069,2.607031,-1.0556842,7.358889,25.607489,36.970463,-19.57513,-47.1528,0.7454527,10.673055,8.613081,20.694292,-33.51385,20.958548,-29.608473,5.5323153,3.6509776,-11.255447
68,-0.6788676381111145,61.079776763916016,73.9073715209961,3.919370557403035,6.67118201908905,96.6162493106344,-29.234348,-8.887159,3.839287,42.1404,-20.25495,1.8457029,-10.575299,-4.193174,-0.9467677,81.46995,-10.282743,8.158049,2.1352613,-1.5789369,7.631925,24.14759,37.47826,-19.453241,-47.802418,0.70242363,10.672632,8.789696,21.126858,-32.9522,20.53124,-28.927816,5.318481,3.5897949,-11.604163
69,-0.7088505029678345,61.88709259033203,73.36984252929688,4.373074097886704,6.807363345708281,96.90854809726865,-29.800205,-9.438696,4.052949,44.439342,-22.024555,2.221454,-11.894213,-4.9888024,-0.7171455,84.21513,-12.356699,7.757783,1.7111875,-2.017566,7.7235785,22.518162,37.908607,-19.457222,-48.225708,0.61720705,10.720036,9.06368,21.552162,-32.332977,20.137732,-28.020943,5.109417,3.6451952,-12.088048
70,-0.7520710229873657,62.716209411621094,72.88936614990234,4.790107931970787,7.02586342357678,97.16317580744192,-30.206545,-9.930035,4.259188,46.29487,-23.681343,2.4684708,-13.343684,-5.777604,-0.434012,86.7507,-14.271492,7.3146005,1.3050084,-2.3953092,7.685858,20.70581,38.24653,-19.553625,-48.44544,0.5079416,10.805272,9.406769,21.971209,-31.659632,19.76307,-26.920341,4.892582,3.780197,-12.681803
71,-0.8015210032463074,63.553619384765625,72.47286987304688,5.148279374455817,7.24345956849636,97.33480928071614,-30.40718,-10.321718,4.4630313,47.819687,-25.24003,2.6402037,-14.821182,-6.4787564,-0.085743874,89.01207,-16.042917,6.8555374,0.9359919,-2.722209,7.6072006,18.86364,38.47584,-19.69664,-48.540894,0.52688706,10.952084,9.762384,22.389067,-30.950827,19.419598,-25.760458,4.6325784,4.011696,-13.34817
72,-0.8395150303840637,64.41635131835938,72.12261962890625,5.422564055435114,7.376800619405255,97.3761839897902,-30.352488,-10.571944,4.666828,49.118923,-26.710337,2.788573,-16.221558,-7.0146003,0.33193555,90.93156,-17.684668,6.408785,0.620539,-3.0057597,7.5782704,17.14641,38.57995,-19.839586,-48.59138,0.8253217,11.186165,10.071783,22.813335,-30.233442,19.126232,-24.689024,4.2982965,4.3564005,-14.054872
73,-0.8741645216941833,65.30670928955078,71.83487701416016,5.596265463801992,7.3804474287285915,97.24310096087419,-29.970709,-10.649119,4.8825965,50.194202,-28.11271,2.9170084,-17.49606,-7.3484473,0.84292424,92.49166,-19.20338,5.959488,0.38268298,-3.2363324,7.6411242,15.582667,38.533653,-19.967867,-48.59191,1.5757064,11.557255,10.279367,23.241354,-29.521425,18.899044,-23.685123,3.8170855,4.888378,-14.861804
74,-0.9194322824478149,66.2025146484375,71.60254669189453,5.687033947423693,7.30700602750266,96.97023341474532,-29.303358,-10.5823965,5.105461,50.996666,-29.434679,3.00167,-18.70894,-7.52246,1.4254696,93.727356,-20.585878,5.501619,0.19404897,-3.4053347,7.742888,14.090957,38.328033,-20.096205,-48.49313,2.6605551,12.040976,10.41172,23.67263,-28.823383,18.734608,-22.69835,3.2387917,5.580398,-15.766915
75,-0.9381433129310608,67.11072540283203,71.43324279785156,5.715681505915353,7.219689521510972,96.62808797246791,-28.465622,-10.423148,5.312595,51.54304,-30.639397,3.0533776,-19.926552,-7.5794535,2.0107226,94.654625,-21.813362,5.0754747,0.00010198967,-3.522559,7.834341,12.661902,37.98317,-20.236187,-48.318687,3.794438,12.549989,10.541892,24.130356,-28.161682,18.615715,-21.839647,2.71698,6.2914824,-16.65009
76,-0.9120599627494812,68.038330078125,71.33055877685547,5.704223302859727,7.181962305603478,96.28787207485485,-27.573734,-10.226488,5.4813538,51.849213,-31.689142,3.0841007,-21.212982,-7.5618916,2.5284152,95.28482,-22.866947,4.719564,-0.25113314,-3.6003032,7.870428,11.303887,37.53803,-20.394974,-48.11769,4.6828136,12.99664,10.758998,24.649296,-27.566496,18.517754,-21.237854,2.4041233,6.8735414,-17.39769
77,-0.9012321829795837,68.95293426513672,71.28108215332031,5.646578177235116,7.207611827451684,95.95110907721894,-26.64993,-9.978852,5.6123667,51.925205,-32.597412,3.0997846,-22.602879,-7.471272,2.956168,95.612434,-23.723934,4.456557,-0.5622268,-3.6411254,7.8571143,10.066596,37.008537,-20.558203,-47.95512,5.291385,13.391738,11.127192,25.279179,-27.057219,18.43203,-21.003323,2.33911,7.3060155,-18.02666
78,-0.9042061567306519,69.8740234375,71.29122924804688,5.5364773686969215,7.262527111210587,95.58633477330221,-25.63553,-9.660796,5.719634,51.762775,-33.37912,3.094715,-24.05031,-7.2877073,3.3176904,95.62917,-24.397131,4.261779,-0.91022545,-3.6371152,7.821146,8.950397,36.39539,-20.720333,-47.81857,5.748034,13.770439,11.599682,26.009747,-26.637407,18.36711,-21.076258,2.4504128,7.65518,-18.589924
79,-0.8865467309951782,70.80178833007812,71.36196899414062,5.390843384365321,7.3388118858057325,95.21493423550586,-24.529613,-9.3133335,5.7979946,51.35638,-33.994827,3.0625381,-25.499487,-7.0305805,3.6161556,95.34526,-24.923336,4.103459,-1.302787,-3.5891902,7.7500896,7.9062767,35.722607,-20.903662,-47.658924,6.007576,14.078434,12.111701,26.79213,-26.30946,18.315962,-21.334625,2.7176964,7.900393,-19.028204
80,-0.8614813685417175,71.71971893310547,71.47588348388672,5.224505970303237,7.429372589527394,94.85837252955427,-23.33098,-8.973693,5.840206,50.698223,-34.40832,2.994889,-26.895857,-6.718257,3.8581057,94.771225,-25.33966,3.9487917,-1.7440139,-3.5022402,7.634073,6.892497,35.028965,-21.123638,-47.438538,6.019663,14.259167,12.604281,27.585014,-26.07117,18.266731,-21.663145,3.1194913,8.0223675,-19.281456
81,-0.8315657377243042,72.65677642822266,71.64784240722656,5.045919171326938,7.546698092237203,94.52643049489663,-22.031563,-8.652275,5.842039,49.733444,-34.62958,2.8571408,-28.264517,-6.3629255,4.0416803,93.90656,-25.666965,3.7831075,-2.244224,-3.3903453,7.4630766,5.9315534,34.34063,-21.368599,-47.197117,5.7038646,14.301751,13.122092,28.404036,-25.921278,18.207815,-22.104685,3.7549052,7.976665,-19.289032
82,-0.8064319491386414,73.61487579345703,71.87492370605469,4.845546696146323,7.689501100385396,94.20652554332862,-20.634537,-8.324365,5.8077183,48.48161,-34.6729,2.662342,-29.612919,-5.957132,4.1580873,92.74032,-25.882679,3.6255658,-2.796065,-3.2535646,7.2525873,5.062377,33.665363,-21.62241,-46.97577,5.100073,14.227792,13.688696,29.265423,-25.856703,18.145025,-22.703354,4.600164,7.790759,-19.092676
83,-0.8055555820465088,74.5914077758789,72.15509033203125,4.61302100968639,7.830665588320016,93.88635284088379,-19.161879,-7.978586,5.7438416,47.0576,-34.50324,2.471383,-30.862911,-5.492542,4.2141514,91.27614,-25.969961,3.5004025,-3.3771958,-3.07896,7.030359,4.274026,33.01533,-21.891844,-46.740734,4.343828,14.031225,14.211466,30.125887,-25.86564,18.095366,-23.351398,5.450398,7.552505,-18.787172
84,-0.791353166103363,75.58075714111328,72.48158264160156,4.340933192634375,7.943115539030437,93.5536041195055,-17.634655,-7.606137,5.657993,45.57265,-34.09125,2.344225,-31.937994,-4.9620442,4.218845,89.51731,-25.910728,3.4301925,-3.9625993,-2.856963,6.823268,3.5520627,32.405205,-22.18651,-46.456696,3.5690122,13.710803,14.5982065,30.937344,-25.930016,18.074024,-23.928759,6.0970383,7.3444448,-18.470308
85,-0.7802833318710327,76.59873962402344,72.85697937011719,4.021371268378575,8.011509960141264,93.20325368697121,-16.015194,-7.2113576,5.530485,43.98464,-33.413963,2.3454704,-32.817116,-4.3557944,4.1756597,87.44576,-25.6907,3.3935473,-4.556007,-2.5877347,6.640044,2.9015875,31.847395,-22.513948,-46.12449,2.7127857,13.2230015,14.850154,31.668287,-26.042751,18.0994,-24.394161,6.502858,7.1661625,-18.135803
86,-0.7508106827735901,77.61896514892578,73.26863098144531,3.6618454987837645,8.052648907315646,92.84223621236839,-14.31324,-6.795128,5.3705573,42.263927,-32.49792,2.4225476,-33.53618,-3.6866794,4.08343,85.062035,-25.325706,3.3857362,-5.166419,-2.2842607,6.4690094,2.3390942,31.347767,-22.865425,-45.775345,1.734609,12.585003,15.004286,32.339306,-26.200804,18.160622,-24.802406,6.7680764,6.9801292,-17.741316
87,-0.7266324758529663,78.65607452392578,73.70609283447266,3.279574508456309,8.087212551841668,92.47528300121367,-12.619415,-6.344228,5.2274947,40.53998,-31.382748,2.4623606,-34.10512,-2.985589,3.952437,82.39721,-24.846886,3.458829,-5.7748156,-1.9562747,6.3050437,1.862368,30.909828,-23.229162,-45.418285,0.79852766,11.892198,15.025999,32.97922,-26.387362,18.22731,-25.176384,6.889135,6.8080072,-17.333225
88,-0.6816393733024597,79.71383666992188,74.16844177246094,2.889168376743156,8.135871894125826,92.10721082926192,-11.020127,-5.849132,5.1445994,38.936924,-30.101068,2.3556793,-34.53527,-2.2826736,3.7933702,79.478584,-24.282085,3.6631813,-6.3588276,-1.6134574,6.1406,1.4601234,30.535866,-23.598127,-45.052822,0.06408424,11.24127,14.887315,33.614838,-26.576054,18.269098,-25.532717,6.8586845,6.6708636,-16.956055
89,-0.6288981437683105,80.78334045410156,74.64818572998047,2.4731652273292566,8.201277996481302,91.73182776719149,-9.499083,-5.2873588,5.123561,37.424873,-28.624155,2.0180569,-34.8196,-1.5457293,3.6167698,76.26477,-23.587091,4.0541196,-6.909053,-1.2451637,5.9725423,1.1285897,30.232622,-23.978802,-44.679604,-0.42224944,10.661821,14.538533,34.23403,-26.751835,18.286259,-25.848852,6.5877776,6.5931635,-16.600725
90,-0.5749061703681946,81.85823059082031,75.14006805419922,2.0338242984087183,8.272310665942713,91.3490361587684,-8.024694,-4.6800675,5.136322,35.958553,-26.942162,1.5330346,-34.950714,-0.7781828,3.4276264,72.74399,-22.76072,4.585996,-7.432444,-0.8565082,5.804673,0.8675442,30.004473,-24.381405,-44.296005,-0.75452167,10.104318,14.016119,34.821186,-26.910454,18.291912,-26.110403,6.100855,6.55397,-16.247118
91,-0.5050020217895508,82.93937683105469,75.63966369628906,1.6056595571728192,8.349926400770183,90.97247130109486,-6.656385,-4.0823026,5.178111,34.637856,-25.117533,1.0458207,-34.940376,-0.06094382,3.2245946,68.98316,-21.891815,5.157926,-7.9287915,-0.481031,5.638136,0.6678989,29.846188,-24.8093,-43.89281,-0.97905356,9.545362,13.423597,35.396545,-27.040514,18.273153,-26.340582,5.5603633,6.5079455,-15.921283
92,-0.40865516662597656,84.02123260498047,76.1377182006836,1.2302687591157306,8.434943219445755,90.61583703440702,-5.451743,-3.5438929,5.248663,33.567333,-23.21776,0.6992308,-34.802204,0.5285552,2.999787,65.049706,-21.068497,5.6726522,-8.393817,-0.15219757,5.471734,0.50955606,29.746248,-25.272337,-43.451042,-1.1383913,8.960903,12.862017,35.983574,-27.127432,18.213068,-26.561178,5.1259527,6.4125266,-15.6487875
93,-0.3147764503955841,85.11892700195312,76.63475799560547,0.9115063281832525,8.53809240347783,90.28077832117826,-4.426243,-3.066841,5.3507657,32.76228,-21.214157,0.5675676,-34.520416,0.9589615,2.714047,60.86,-20.290628,6.144778,-8.823841,0.12582165,5.291144,0.3697219,29.701048,-25.800446,-42.924,-1.2061794,8.299043,12.348519,36.586636,-27.156647,18.098495,-26.761108,4.8012,6.2437167,-15.423548
94,-0.21866410970687866,86.22129821777344,77.11244201660156,0.6327351552167227,8.654072693733557,89.96159815016033,-3.545183,-2.6276636,5.4846478,32.17515,-19.089521,0.5641515,-34.083164,1.2774633,2.3836005,56.387474,-19.50638,6.615681,-9.213425,0.364074,5.097815,0.24396682,29.709679,-26.395277,-42.314854,-1.1714804,7.5857944,11.833982,37.193996,-27.122484,17.93715,-26.926949,4.507689,6.0300035,-15.233052
95,-0.12849149107933044,87.3242416381836,77.57020568847656,0.4010301136389181,8.761501459181968,89.66164894202774,-2.7826676,-2.2337003,5.647152,31.80034,-16.919806,0.58512574,-33.51277,1.5242487,2.0769036,51.784992,-18.724968,7.024285,-9.560584,0.5551375,4.913555,0.14489661,29.760221,-27.019741,-41.677647,-1.0947709,6.914498,11.315728,37.796276,-27.027555,17.748583,-27.064594,4.2870784,5.8088927,-15.09441
96,-0.04006236419081688,88.42898559570312,77.99977111816406,0.22251506606203,8.83941355467355,89.38464001505844,-2.111763,-1.8961372,5.8292356,31.627972,-14.777942,0.52801704,-32.838505,1.7344853,1.863836,47.21278,-17.962408,7.3062377,-9.866445,0.6945618,4.7598248,0.08527236,29.834322,-27.634535,-41.064625,-1.0310669,6.3797154,10.786705,38.388603,-26.882555,17.550888,-27.18899,4.181371,5.6184435,-15.025787
97,0.04152367636561394,89.53987884521484,78.39862060546875,0.10108501668508457,8.890941829634368,89.14026008497683,-1.5251294,-1.6254475,6.030713,31.624537,-12.59841,0.35479712,-32.038486,1.9122499,1.7678051,42.58836,-17.210468,7.427894,-10.1394415,0.78980744,4.6331277,0.054292146,29.92148,-28.2368,-40.4653,-0.9393163,6.013332,10.212311,38.99152,-26.692955,17.338356,-27.307095,4.195407,5.4652185,-15.05424
98,0.1287931501865387,90.65737915039062,78.75691986083984,0.04092546554478963,8.922345800071191,88.92838061318142,-1.021887,-1.4282086,6.2468414,31.781641,-10.356493,0.119285874,-31.100185,2.0205827,1.7538347,37.8489,-16.457464,7.4233923,-10.3830385,0.8352175,4.5234356,0.04162033,30.018747,-28.845573,-39.845642,-0.8017848,5.7620983,9.602796,39.605362,-26.460512,17.103844,-27.41619,4.3106027,5.3307705,-15.164223
99,0.2106667011976242,91.77729797363281,79.07465362548828,0.0463673861708587,8.918515065942616,88.73635021974653,-0.5865838,-1.3049489,6.4621696,32.128345,-8.187137,-0.13995902,-30.080053,2.0434542,1.7969898,33.208473,-15.716811,7.3356876,-10.590647,0.8141343,4.4429193,0.059045423,30.118134,-29.45073,-39.22722,-0.7098871,5.595455,9.014976,40.19872,-26.194553,16.863398,-27.523104,4.5347342,5.2153325,-15.31036
100,0.2986081540584564,92.89391326904297,79.34587097167969,0.11777868022736485,8.865678818093055,88.55134595633398,-0.20679213,-1.2498381,6.6651173,32.6938,-6.2245975,-0.3803503,-29.041636,1.9805038,1.8640702,28.893595,-15.006355,7.218976,-10.758992,0.71515477,4.4031043,0.122093774,30.209341,-30.037262,-38.632687,-0.75488573,5.4847174,8.503797,40.73938,-25.910782,16.634659,-27.634056,4.8781714,5.1188955,-15.449067
101,0.37632685899734497,94.01210021972656,79.5731201171875,0.26819776781158394,8.75930332513712,88.37343657324432,0.11267605,-1.2686844,6.8737116,33.49471,-4.4715614,-0.56934583,-27.986732,1.8160748,1.9254693,24.907307,-14.329898,7.064639,-10.890742,0.5278982,4.4096513,0.25020555,30.282116,-30.596401,-38.07684,-0.99936646,5.451848,8.070272,41.242207,-25.619781,16.415897,-27.764578,5.4022307,5.0461407,-15.597407
102,0.4519990086555481,95.1338119506836,79.7455825805664,0.49765850736582534,8.606575367174434,88.20949147042201,0.37216118,-1.3661675,7.0917754,34.504036,-2.861308,-0.73461413,-26.90248,1.565209,1.9927392,21.168558,-13.692066,6.8699536,-10.991757,0.26142535,4.4540653,0.42760798,30.333223,-31.134817,-37.536896,-1.3769915,5.50486,7.6858945,41.725006,-25.325954,16.198112,-27.91757,6.0859785,4.994155,-15.772151
103,0.5249271392822266,96.25672149658203,79.8576431274414,0.7761912800298743,8.416254133949856,88.05023328890772,0.578574,-1.5186355,7.291079,35.705284,-1.4366987,-0.923183,-25.848238,1.2864206,2.0954826,17.80629,-13.121496,6.6942663,-11.057678,-0.055297334,4.5250955,0.61924255,30.365166,-31.658922,-36.979904,-1.7881794,5.5936475,7.362773,42.156303,-25.037506,15.989122,-28.07538,6.817775,4.9532113,-15.929796
104,0.5935214757919312,97.37389373779297,79.91339874267578,1.0621613890767891,8.201698561903694,87.88192672726852,0.7295179,-1.6896245,7.442831,37.094696,-0.24920392,-1.1862605,-24.887972,1.041929,2.2690246,14.957041,-12.645329,6.5840387,-11.082408,-0.3808181,4.6104784,0.7971412,30.383713,-32.171368,-36.381542,-2.1345139,5.6661434,7.113659,42.50313,-24.764452,15.799676,-28.222368,7.4858184,4.9150023,-16.027418
105,0.6579498648643494,98.48894500732422,79.91728973388672,1.3449788498039335,7.9640495387928905,87.69408166723167,0.81085026,-1.877626,7.5350986,38.717632,0.65970147,-1.5703646,-24.045105,0.8392404,2.5458748,12.6737175,-12.326178,6.498744,-11.058496,-0.70236593,4.7094936,0.9593669,30.393896,-32.66935,-35.737038,-2.3853755,5.716005,6.945704,42.766224,-24.51141,15.628075,-28.355387,8.120248,4.87791,-16.04951
106,0.7307024002075195,99.59505462646484,79.87384796142578,1.6170106952049081,7.710580128783477,87.48226678108529,0.79968876,-2.0610642,7.590826,40.59975,1.3034141,-2.0455148,-23.312439,0.67904454,2.8996792,10.904114,-12.140609,6.419587,-10.981583,-1.0082345,4.823751,1.1256572,30.395338,-33.14748,-35.065163,-2.5963805,5.766161,6.852984,42.955326,-24.280272,15.470598,-28.481434,8.763869,4.8471913,-16.02169
107,0.8042449355125427,100.68875885009766,79.77235412597656,1.829544987982505,7.4636472553625755,87.24257689399084,0.6804657,-2.17409,7.6330075,42.71017,1.7106816,-2.5496895,-22.71049,0.60899204,3.2840886,9.638262,-11.994928,6.414771,-10.852367,-1.2562101,4.9443307,1.3031425,30.384304,-33.601585,-34.3806,-2.7989795,5.8078337,6.8275905,43.051136,-24.077713,15.336642,-28.593954,9.324473,4.8253775,-15.962824
108,0.8610475659370422,101.77735137939453,79.61206817626953,1.943162391069684,7.242772307371516,86.97422124841499,0.44740373,-2.1586506,7.6831427,45.00342,1.9191194,-3.0203047,-22.264698,0.67163205,3.6538312,8.885993,-11.804317,6.5505414,-10.675111,-1.4087095,5.0625844,1.4971389,30.355087,-34.0264,-33.69337,-3.024787,5.832631,6.860443,43.0363,-23.913628,15.23545,-28.690697,9.710984,4.8143296,-15.892485
109,0.924985945224762,102.86538696289062,79.3850326538086,1.9761047306499022,7.040165164751357,86.68322050054199,0.12265115,-2.0493188,7.7423825,47.469547,1.9803795,-3.4572313,-21.917978,0.85803205,4.049278,8.545537,-11.5854435,6.9901013,-10.458537,-1.4841158,5.177176,1.7228132,30.30045,-34.420246,-32.99989,-3.2924008,5.8193345,6.974354,42.912594,-23.798838,15.175779,-28.779243,9.874781,4.8229733,-15.803231
110,0.9847326874732971,103.95367431640625,79.09719848632812,1.9320204159030239,6.8514609307363425,86.36650993679557,-0.29634926,-1.8549651,7.801674,50.131847,1.8579779,-3.892054,-21.718437,1.1664699,4.4781785,8.729589,-11.416727,7.6452746,-10.201638,-1.4815166,5.289205,1.9739009,30.217045,-34.781853,-32.29296,-3.580248,5.7776303,7.1638536,42.688023,-23.736744,15.152707,-28.860317,9.877283,4.846863,-15.692084
111,1.0440826416015625,105.02169036865234,78.77534484863281,1.7555528628201231,6.698257923244155,86.01263937081154,-0.8422815,-1.4848914,7.8607116,52.981773,1.465273,-4.3095465,-21.821625,1.6512539,4.842574,9.720408,-11.280744,8.2106695,-9.895319,-1.340035,5.396486,2.2245874,30.111052,-35.106285,-31.5772,-3.8604898,5.74619,7.3783884,42.358616,-23.725716,15.150789,-28.928387,9.789009,4.8675632,-15.583672
112,1.1248458623886108,106.06015014648438,78.4371337890625,1.3987024744795842,6.596742793786759,85.61475443099533,-1.5360075,-0.8610356,7.9126353,55.999844,0.7233636,-4.691994,-22.313238,2.3490343,5.0389113,11.656645,-11.077858,8.390283,-9.530569,-1.0096233,5.4973035,2.4400983,29.984009,-35.395756,-30.85196,-4.106001,5.7647095,7.5686007,41.923065,-23.755598,15.153981,-28.978994,9.679566,4.867142,-15.501741
113,1.2054795026779175,107.09073638916016,78.04924774169922,0.8242887055540754,6.541022087320585,85.16166488573609,-2.3471162,0.09609705,7.9887056,59.217827,-0.45669982,-5.0557547,-23.198494,3.3011909,4.99209,14.612426,-10.384136,8.110559,-9.0930805,-0.45333105,5.583881,2.6032894,29.834581,-35.67063,-30.10029,-4.359783,5.8433533,7.749685,41.382023,-23.827965,15.16209,-29.008755,9.563689,4.848039,-15.450162
114,1.259289026260376,108.12200164794922,77.58232879638672,0.13046788212168212,6.49742663639509,84.68449497386919,-3.2205162,1.2440337,8.070102,62.582806,-1.983029,-5.388819,-24.327436,4.3978224,4.7411337,18.29115,-9.268134,7.5872035,-8.614891,0.22226489,5.6689663,2.7421186,29.672686,-35.921265,-29.339216,-4.6206264,5.962202,7.938521,40.747696,-23.941273,15.1838,-29.033981,9.402693,4.818111,-15.416204
115,1.3242616653442383,109.12687683105469,77.07014465332031,-0.5307452951709313,6.448330051610752,84.23395355262349,-4.1568484,2.3419638,8.0780115,65.96102,-3.6733365,-5.634207,-25.578493,5.4564238,4.370684,22.325914,-8.385945,6.922294,-8.15107,0.867579,5.778258,2.8813899,29.505863,-36.10601,-28.607363,-4.795038,6.1169314,8.08762,40.031914,-24.085428,15.215063,-29.072586,9.187805,4.767654,-15.400447
116,1.4075396060943604,110.10140991210938,76.51777648925781,-1.0584697678533594,6.39824122506521,83.84202909592754,-5.196925,3.2054553,7.934734,69.2553,-5.364578,-5.748102,-26.86247,6.3504558,3.9965825,26.416687,-8.435797,6.1552434,-7.7389054,1.3856078,5.930265,3.045907,29.343187,-36.184036,-27.941343,-4.7896686,6.302894,8.150479,39.234703,-24.244152,15.254543,-29.127026,8.907843,4.68633,-15.401901
117,1.466352105140686,111.03559875488281,75.90444946289062,-1.4539171957919284,6.343984921185391,83.50716629864158,-6.3927503,3.7940388,7.580771,72.55498,-7.090762,-5.693856,-28.326084,7.0812716,3.655265,30.901594,-9.908971,5.1240506,-7.3801427,1.7779917,6.160285,3.2207596,29.196983,-36.13207,-27.369503,-4.5420766,6.527498,8.0661545,38.351994,-24.406511,15.280637,-29.222713,8.551295,4.5441575,-15.385253
118,1.5124629735946655,111.94161224365234,75.26234436035156,-1.7664012427621691,6.291162214864819,83.21171973774496,-7.721792,4.194183,7.0766816,75.88936,-8.91805,-5.5099196,-29.957792,7.7048516,3.332802,35.819626,-12.3465,3.8285615,-7.053292,2.0901012,6.449607,3.4068594,29.074629,-35.974808,-26.878567,-4.1165566,6.7892237,7.876152,37.372753,-24.57017,15.305604,-29.33732,8.12275,4.3554077,-15.360635
119,1.5653477907180786,112.84893798828125,74.64152526855469,-2.022763962288165,6.2741019147963275,82.94668678186326,-9.147827,4.4803863,6.5158625,79.10366,-10.745214,-5.274206,-31.48528,8.240924,3.0612538,40.515324,-15.067905,2.5234597,-6.740658,2.3432274,6.7282214,3.6468508,28.971186,-35.74826,-26.44665,-3.60785,7.070216,7.6879315,36.279137,-24.733244,15.371741,-29.395224,7.6365576,4.177398,-15.393995
120,1.6334381103515625,113.7248306274414,74.0591812133789,-2.2625489089115685,6.329759279912325,82.69878275917996,-10.640917,4.7555614,5.984141,82.04337,-12.474828,-5.0604362,-32.66752,8.721632,2.8285823,44.37536,-17.407263,1.4681447,-6.419758,2.571092,6.922167,3.978328,28.871998,-35.491135,-26.039219,-3.110215,7.3548145,7.6091027,35.055794,-24.89305,15.520764,-29.326614,7.1067014,4.0684032,-15.551384
121,1.696151852607727,114.5949478149414,73.52814483642578,-2.525120762633821,6.523251578409549,82.43179780981598,-12.286594,5.0724545,5.468375,84.72493,-14.136369,-4.8882704,-33.515705,9.191787,2.6093988,47.25054,-19.264296,0.7362085,-6.0574193,2.8078756,6.9777927,4.3886623,28.758642,-35.208263,-25.61797,-2.6483788,7.58691,7.62651,33.641773,-25.047977,15.780271,-29.072248,6.513996,4.0460587,-15.894461
122,1.7419672012329102,115.49417877197266,73.03258514404297,-2.802339735124145,6.822324710662374,82.15605660011808,-14.0837965,5.3964,4.9234624,87.22431,-15.764947,-4.71651,-34.169098,9.644266,2.3996747,49.52959,-21.001373,0.18342596,-5.665722,3.0495765,6.938206,4.851073,28.62317,-34.88751,-25.185772,-2.1695955,7.793474,7.6944227,32.067406,-25.193947,16.119974,-28.685028,5.8589873,4.0825443,-16.37374
123,1.7758432626724243,116.41326141357422,72.58683776855469,-3.057956002996474,7.1166846428039126,81.9279619180897,-15.877938,5.7107267,4.3845596,89.477234,-17.272917,-4.524209,-34.582172,10.027551,2.1987035,51.401936,-22.637613,-0.25676998,-5.284476,3.2693565,6.8758287,5.379458,28.467865,-34.54928,-24.771378,-1.6544327,8.086267,7.872897,30.45641,-25.32386,16.488764,-28.257627,5.18595,4.1670804,-16.885693
124,1.8182618618011475,117.34712982177734,72.20651245117188,-3.2522570302236606,7.295985078497979,81.80599706065728,-17.513355,6.001668,3.8902023,91.41854,-18.57278,-4.289717,-34.700676,10.288752,2.010361,53.041622,-24.190407,-0.65055966,-4.9525023,3.4377909,6.8663917,5.986059,28.301819,-34.21758,-24.40734,-1.0867745,8.578255,8.221846,28.929033,-25.430393,16.835552,-27.8733,4.536625,4.286351,-17.324629
125,1.8617805242538452,118.2935562133789,71.89837646484375,-3.3775994485472944,7.313029673028393,81.81345472038005,-18.938059,6.2904224,3.4336436,93.03484,-19.610413,-3.9957178,-34.45863,10.414415,1.8343912,54.45805,-25.674294,-1.0014333,-4.6950603,3.5398986,6.9436474,6.7160273,28.124332,-33.879753,-24.098715,-0.39380914,9.352315,8.773093,27.47443,-25.502556,17.171423,-27.483837,3.8056455,4.473457,-17.674234
126,1.9140286445617676,119.26611328125,71.65908813476562,-3.4565449781390845,7.2330321657518715,81.91744295045953,-20.244883,6.585541,2.997861,94.36047,-20.439589,-3.6545424,-33.899555,10.430387,1.6696628,55.57178,-27.07957,-1.2795436,-4.4803953,3.5918896,7.0642204,7.5412636,27.933447,-33.539894,-23.824911,0.3837452,10.337122,9.484363,26.041452,-25.537941,17.512043,-27.060534,3.0049868,4.723385,-17.980762
127,1.9366363286972046,120.25226593017578,71.47579956054688,-3.488707692131351,7.113793253248691,82.09324513559677,-21.493721,6.8569336,2.6109967,95.399475,-21.1323,-3.287363,-33.133163,10.343346,1.5175307,56.419163,-28.378536,-1.499836,-4.264941,3.6109078,7.1892996,8.370991,27.74321,-33.242043,-23.597534,1.0907813,11.412689,10.309491,24.683813,-25.549316,17.81685,-26.717884,2.3550823,4.9604216,-18.23499
128,1.9431968927383423,121.24758911132812,71.34576416015625,-3.4735867624505583,7.012817072479717,82.3158880051472,-22.740442,7.0716586,2.3039098,96.15269,-21.75999,-2.9176846,-32.268887,10.163112,1.3779035,57.03477,-29.54243,-1.6784381,-4.0061426,3.6153355,7.2826886,9.124251,27.579292,-33.02398,-23.440119,1.5730484,12.452765,11.212958,23.463877,-25.558851,18.042887,-26.582014,2.0789294,5.1062374,-18.431938
129,1.9387474060058594,122.23523712158203,71.27239227294922,-3.3934042973109793,6.921410933735137,82.60234217994955,-23.986513,7.231133,2.1082077,96.61376,-22.337177,-2.5367322,-31.291397,9.857612,1.2455325,57.416637,-30.590603,-1.8093106,-3.709475,3.5990198,7.3612814,9.793092,27.465075,-32.912987,-23.382652,1.7782507,13.532148,12.325386,22.394867,-25.585926,18.172592,-26.710209,2.3348067,5.124897,-18.578653
130,1.9319531917572021,123.2218017578125,71.26227569580078,-3.2551012977634017,6.815755088133594,82.95735421818061,-25.203348,7.3502717,2.008021,96.78256,-22.827839,-2.1390824,-30.157145,9.436001,1.1135021,57.55217,-31.530046,-1.8883468,-3.395327,3.5571227,7.4440804,10.441001,27.408625,-32.869568,-23.443602,1.7733167,14.675113,13.6357975,21.454903,-25.635372,18.230007,-27.048254,2.9783022,5.059277,-18.679117
131,1.9116116762161255,124.2025146484375,71.3137435913086,-3.0935479224872884,6.7307410712146725,83.33791638652035,-26.401934,7.4159594,1.9644989,96.67029,-23.226746,-1.7538315,-28.93592,8.969802,0.98149854,57.459538,-32.31183,-1.9349394,-3.047035,3.5065544,7.4967384,11.099651,27.413023,-32.824894,-23.628876,1.6015933,15.674495,14.89601,20.64655,-25.70842,18.23856,-27.551132,3.775889,4.9507556,-18.724527
132,1.880491852760315,125.1824722290039,71.41107177734375,-2.9443587625341565,6.702061770675329,83.70108859122259,-27.593801,7.4160805,1.9361987,96.28802,-23.527096,-1.410063,-27.698042,8.529511,0.8551422,57.158073,-32.886375,-1.9674468,-2.6478043,3.464753,7.483335,11.799553,27.477732,-32.712082,-23.946112,1.3252275,16.326698,15.847776,19.974026,-25.803816,18.22118,-28.17715,4.493545,4.841985,-18.707071
133,1.8511344194412231,126.1766586303711,71.56494903564453,-2.81705790354137,6.75925074629531,84.03575604798903,-28.822737,7.3439856,1.9167452,95.63285,-23.72284,-1.0899091,-26.468527,8.120532,0.7239609,56.62457,-33.255367,-1.9940634,-2.1819189,3.4404178,7.3747563,12.551233,27.607231,-32.518276,-24.422821,0.88006043,16.516924,16.45702,19.454361,-25.92271,18.16955,-28.958736,5.1369095,4.7313004,-18.61505
134,1.8209835290908813,127.1935806274414,71.7685546875,-2.6918596685292187,6.8764174389692645,84.3645864661966,-30.061993,7.2090936,1.9317622,94.69746,-23.820484,-0.78817254,-25.209259,7.7096825,0.59075373,55.86089,-33.441277,-2.0031753,-1.6657047,3.420015,7.197915,13.351018,27.805458,-32.269024,-25.060514,0.27549243,16.372623,16.841372,19.07881,-26.066507,18.079823,-29.906794,5.8093395,4.6020956,-18.457155
135,1.8009953498840332,128.2137451171875,72.0169448852539,-2.5604060155198938,7.007591392641092,84.69508135660398,-31.218683,7.026049,1.9853134,93.48831,-23.832785,-0.54982215,-23.897524,7.304741,0.4810838,54.927567,-33.428925,-1.9797198,-1.1281489,3.387043,6.9986887,14.201754,28.065556,-31.960861,-25.815418,-0.30965984,16.06134,16.966356,18.812199,-26.234509,17.977478,-30.937288,6.420369,4.474125,-18.255663
136,1.7809566259384155,129.24221801757812,72.3128662109375,-2.414777132479484,7.106596818934401,85.03526886308363,-32.201633,6.809049,2.0803516,92.01146,-23.770517,-0.41956705,-22.510328,6.9117274,0.41958246,53.882248,-33.202854,-1.9077502,-0.6012839,3.3272665,6.8219113,15.103182,28.372591,-31.5876,-26.632648,-0.6992176,15.751959,16.801777,18.611275,-26.424213,17.893166,-31.958813,6.8797054,4.366111,-18.034279
137,1.756540298461914,130.283935546875,72.65151977539062,-2.262273200856136,7.166187188631369,85.38184449924212,-32.990585,6.567731,2.2200458,90.241165,-23.614222,-0.43658778,-21.017519,6.542323,0.42788905,52.679344,-32.757996,-1.770119,-0.077320926,3.2452185,6.665458,16.058077,28.71582,-31.129265,-27.50366,-0.8174142,15.4537325,16.227701,18.482698,-26.633278,17.826641,-32.98,7.144903,4.308265,-17.794333
138,1.7245256900787354,131.34133911132812,73.03243255615234,-2.1024665662643924,7.2095064634333585,85.73249559374284,-33.62815,6.2936907,2.4016993,88.18021,-23.365997,-0.56876236,-19.441236,6.187322,0.488706,51.30805,-32.104015,-1.5777549,0.4543609,3.1466799,6.507814,17.061512,29.090654,-30.593939,-28.441326,-0.7705408,15.090069,15.297796,18.439526,-26.862236,17.76508,-34.032574,7.268772,4.281345,-17.525038
139,1.6836881637573242,132.41111755371094,73.45255279541016,-1.9242293753187403,7.236037901196301,86.09620024359583,-34.118774,5.9711647,2.6185248,85.87558,-23.072577,-0.7563773,-17.840595,5.8224483,0.5681725,49.885883,-31.249876,-1.3596729,0.9670951,3.0222876,6.3648853,18.096107,29.487732,-30.02009,-29.422476,-0.65484977,14.699268,14.246066,18.454262,-27.110598,17.720259,-35.06324,7.3029337,4.2292256,-17.233248
140,1.6552025079727173,133.4937286376953,73.89810943603516,-1.7147425474529674,7.244760673014734,86.4820703865727,-34.46814,5.5841093,2.8635507,83.37307,-22.779514,-0.93955606,-16.271675,5.4245834,0.6312949,48.526867,-30.20725,-1.1459844,1.4354067,2.8626165,6.2510424,19.134865,29.893965,-29.449806,-30.412136,-0.56078106,14.32282,13.303788,18.495176,-27.378368,17.703606,-36.012962,7.2983146,4.0966578,-16.924473
141,1.6112439632415771,134.5858612060547,74.36918640136719,-1.4625526898079613,7.223983461022134,86.89714709827939,-34.6586,5.1059775,3.1307323,80.652275,-22.499058,-1.1268039,-14.71953,4.9858537,0.6849365,47.23014,-28.955137,-0.93758655,1.8529783,2.6612754,6.175549,20.171463,30.299128,-28.889872,-31.40304,-0.48708797,13.965829,12.485237,18.55672,-27.6666,17.723637,-36.848755,7.2373114,3.8159385,-16.602552
142,1.5533363819122314,135.68209838867188,74.8527603149414,-1.180052014464137,7.176832637690098,87.33516633089145,-34.68924,4.5516253,3.4208353,77.69181,-22.20574,-1.3424891,-13.167078,4.5198827,0.7413568,45.949615,-27.498201,-0.7230434,2.2352538,2.4284837,6.12684,21.203447,30.697464,-28.325706,-32.388733,-0.39052138,13.607506,11.68181,18.655073,-27.975658,17.769897,-37.604897,7.103952,3.4337575,-16.26415
143,1.4974719285964966,136.78160095214844,75.34410858154297,-0.8841689398339356,7.125310655907287,87.78502425127668,-34.59131,3.967379,3.737732,74.53317,-21.88874,-1.5518864,-11.666734,4.0384693,0.77375454,44.73136,-25.884237,-0.5158481,2.589583,2.182372,6.087857,22.208088,31.082153,-27.771133,-33.34718,-0.29247737,13.252979,10.939239,18.793224,-28.301504,17.826254,-38.321796,6.952552,3.0662966,-15.904669
144,1.4292936325073242,137.8865203857422,75.84223937988281,-0.592149457592089,7.091733538782324,88.23585797481542,-34.398872,3.397803,4.0875187,71.22026,-21.534245,-1.7216146,-10.268055,3.553883,0.75570524,43.62057,-24.160257,-0.32844496,2.9254923,1.9399514,6.0405536,23.156807,31.445704,-27.243828,-34.24773,-0.2128186,12.908282,10.303101,18.977417,-28.6372,17.874187,-39.04085,6.8337526,2.8305879,-15.517026
145,1.3458160161972046,139.0012969970703,76.34235382080078,-0.2925623289119714,7.0802528656520725,88.69355858541887,-34.10292,2.8442037,4.506658,67.72299,-21.140741,-1.8446066,-8.968955,3.0504534,0.68457514,42.614803,-22.295595,-0.15421279,3.2422986,1.6907623,5.980793,24.032387,31.7827,-26.75233,-35.063507,-0.14058346,12.55961,9.778835,19.221827,-28.979183,17.899174,-39.7816,6.742071,2.7942271,-15.067593
146,1.2765222787857056,140.12672424316406,76.83138275146484,0.015095698278540933,7.078483048584651,89.16180732395354,-33.687927,2.2804246,4.977674,64.02334,-20.711693,-1.9427752,-7.746075,2.5323937,0.5723647,41.698788,-20.281393,0.010111039,3.5384743,1.4339736,5.9161816,24.837084,32.091537,-26.295626,-35.80043,-0.06554283,12.209747,9.343157,19.520452,-29.328463,17.909685,-40.515484,6.6517754,2.883066,-14.567072
147,1.1938607692718506,141.25550842285156,77.30711364746094,0.30306233253520015,7.085137459966805,89.62435902377054,-33.17299,1.71119,5.4306464,60.166435,-20.237148,-2.0246198,-6.610423,2.0387077,0.41820836,40.889317,-18.190979,0.14962257,3.8216982,1.1991578,5.8458505,25.576223,32.37126,-25.873856,-36.4833,-0.008558073,11.890344,8.997825,19.847889,-29.68177,17.926113,-41.214985,6.5844126,3.00215,-14.076461
148,1.098797082901001,142.38819885253906,77.7571792602539,0.5373552132311135,7.099429505160577,90.06519919934382,-32.584133,1.1503062,5.790859,56.21001,-19.714472,-2.0950468,-5.5745807,1.6129175,0.21902509,40.205963,-16.09824,0.2489067,4.0993376,1.0186812,5.7676525,26.255766,32.621735,-25.486845,-37.133408,0.010504045,11.633369,8.744221,20.173662,-30.034054,17.970549,-41.848034,6.5621777,3.0573776,-13.656131
149,1.007318139076233,143.5334014892578,78.18413543701172,0.726632628669013,7.126255839288793,90.48405498934311,-31.900915,0.5991108,6.0682325,52.087788,-19.11521,-2.1086342,-4.644409,1.2441107,-0.0407836,39.63877,-13.970077,0.28075534,4.374709,0.88552755,5.6803412,26.871683,32.841652,-25.143185,-37.753113,-0.016835982,11.469749,8.616559,20.49713,-30.380478,18.051268,-42.40202,6.5992923,3.0205631,-13.321802
150,0.9169794321060181,144.6811981201172,78.58670806884766,0.8771988115326658,7.163860163551394,90.88657645756841,-31.107365,0.055583287,6.289659,47.770454,-18.441349,-2.0778165,-3.8039315,0.9204363,-0.3552135,39.17002,-11.775069,0.26502657,4.6433477,0.7901681,5.5840907,27.421686,33.031376,-24.840618,-38.328907,-0.07496174,11.375697,8.600997,20.821564,-30.720526,18.15986,-42.883263,6.680325,2.9444046,-13.039492
151,0.8341535925865173,145.83018493652344,78.9515609741211,0.96708339515293,7.202686482101222,91.26441029319773,-30.239609,-0.46638566,6.409213,43.373142,-17.728197,-2.0870337,-3.037938,0.6763253,-0.68886733,38.81111,-9.591079,0.25549436,4.9014473,0.75430393,5.480288,27.91684,33.19542,-24.559488,-38.86727,-0.15145814,11.300624,8.62729,21.13162,-31.05532,18.296305,-43.30402,6.7803655,2.855635,-12.796542
152,0.7533860802650452,146.97914123535156,79.2790756225586,0.9714328871029245,7.233102304861774,91.60842712263455,-29.33436,-0.94390774,6.3788724,39.00897,-17.012083,-2.2154083,-2.3322728,0.54981405,-1.0014156,38.573532,-7.499035,0.30370298,5.144617,0.7996925,5.3708596,28.374308,33.341244,-24.276379,-39.38032,-0.23536646,11.193956,8.6253395,21.407446,-31.38747,18.462,-43.674274,6.8765826,2.7808392,-12.580836
153,0.6636384725570679,148.12991333007812,79.55890655517578,0.8645897900037924,7.255789045183503,91.91146127323351,-28.361889,-1.3552241,6.175015,34.57812,-16.279413,-2.4918914,-1.6704232,0.57685477,-1.2848593,38.41273,-5.475311,0.42110962,5.378427,0.9490621,5.249003,28.805273,33.475433,-23.989845,-39.868305,-0.29773614,11.045217,8.5822,21.643438,-31.723621,18.672066,-43.99419,6.9901304,2.7356663,-12.407794
154,0.5835702419281006,149.28912353515625,79.79118347167969,0.6474762922544953,7.270808507916702,92.17303113584043,-27.299217,-1.6751565,5.815516,30.031763,-15.504028,-2.8592227,-1.0530298,0.75156784,-1.5527143,38.318726,-3.4802845,0.57930785,5.608292,1.2024198,5.1208673,29.210241,33.600082,-23.705145,-40.338707,-0.3553615,10.88022,8.53444,21.851938,-32.065895,18.921232,-44.268223,7.126038,2.702956,-12.279258
155,0.5091098546981812,150.44400024414062,79.97309112548828,0.3393653712768408,7.267230192343275,92.39493958638094,-26.202213,-1.8803548,5.319162,25.581516,-14.711469,-3.2721817,-0.4863803,1.0472904,-1.7990929,38.342968,-1.563544,0.76433843,5.8307104,1.5465088,5.0078106,29.58743,33.7158,-23.410858,-40.818737,-0.46672082,10.702932,8.485842,22.041273,-32.40696,19.179586,-44.50243,7.23463,2.6599627,-12.161379
156,0.4318174421787262,151.59596252441406,80.09943389892578,-0.032321745413620324,7.236528243185332,92.58247347278788,-25.145859,-1.968336,4.7142773,21.473269,-13.940752,-3.6955202,0.013701629,1.4249964,-2.0215352,38.55334,0.21663228,0.9603315,6.039698,1.957683,4.928388,29.932322,33.823505,-23.096401,-41.33316,-0.68997633,10.517462,8.439679,22.216957,-32.73371,19.417849,-44.696125,7.2647843,2.5840492,-12.018755
157,0.37510889768600464,152.74671936035156,80.16181945800781,-0.48548252930916236,7.178356429503083,92.73035070912127,-24.152676,-1.923051,3.9788873,17.731306,-13.190693,-4.1525865,0.42909095,1.8939823,-2.2370431,38.974873,1.88237,1.136625,6.238721,2.448117,4.8800073,30.24577,33.925106,-22.756725,-41.874283,-1.1171535,10.293004,8.391532,22.362589,-33.037014,19.635195,-44.827053,7.193047,2.4382763,-11.829946
158,0.30552276968955994,153.89378356933594,80.17135620117188,-1.0230924393527145,7.096523063327002,92.83970020313113,-23.190935,-1.7517748,3.1208398,14.245134,-12.450645,-4.6589394,0.76691157,2.4593413,-2.4435182,39.58248,3.4471629,1.3026952,6.4304028,3.0191698,4.85384,30.52855,34.02322,-22.39948,-42.43347,-1.6919165,10.038307,8.340044,22.475304,-33.314728,19.846966,-44.894424,7.0475383,2.2449737,-11.614964
159,0.22155898809432983,155.02792358398438,80.13097381591797,-1.5715144767307823,6.997861934103517,92.93482238657562,-22.2652,-1.5316668,2.220925,11.06409,-11.733737,-5.1690035,1.035454,3.0448925,-2.6107173,40.38397,4.828819,1.5097721,6.598549,3.6017888,4.853109,30.773365,34.119507,-22.035118,-43.02376,-2.2487893,9.817593,8.295123,22.582043,-33.562973,20.048128,-44.929226,6.8526206,2.0703893,-11.400288
160,0.14558543264865875,156.15365600585938,80.04309844970703,-2.044010887179455,6.893835365870034,93.04339771606416,-21.347107,-1.3547612,1.3553932,8.166812,-11.0174465,-5.6340084,1.2359587,3.568634,-2.7073698,41.393234,5.940446,1.8178027,6.724654,4.117147,4.8783727,30.9667,34.21568,-21.676266,-43.651447,-2.6237137,9.694349,8.2690325,22.709562,-33.77689,20.232311,-44.959835,6.631636,1.9808257,-11.211104
161,0.069377601146698,157.27296447753906,79.8929672241211,-2.445016527912302,6.790034427737728,93.17108135784413,-21.331163,-1.222233,0.47020513,7.426874,-11.474855,-6.0305066,1.3516583,4.042037,-2.7305253,42.64271,6.771954,2.2421231,6.805253,4.5706205,4.9244447,31.11258,34.31288,-21.330101,-44.32889,-2.7242515,9.724034,8.271625,22.87622,-33.952618,20.391579,-45.005264,6.3372593,2.017984,-11.034385
162,-0.010287044569849968,158.38446044921875,79.68345642089844,-2.7794056850216267,6.691122686132322,93.31485578923312,-21.539732,-1.165258,-0.45723516,7.371531,-12.272071,-6.3855915,1.3630404,4.4636292,-2.7008095,44.15072,7.344031,2.7596972,6.840585,4.9628253,4.985349,31.208748,34.41204,-20.99166,-45.04214,-2.6552181,9.859441,8.296057,23.060097,-34.08699,20.533121,-45.038116,5.9736853,2.1376636,-10.861626
163,-0.0866759866476059,159.50299072265625,79.41658020019531,-2.9686781818058567,6.609565316571224,93.48974855168346,-21.650335,-1.2545499,-1.2645106,7.340117,-12.684601,-6.716125,1.2680769,4.7370563,-2.6223586,45.90648,7.6136456,3.3797917,6.8223705,5.2067733,5.0551553,31.20928,34.503822,-20.672884,-45.73388,-2.5409226,10.010228,8.328832,23.226635,-34.168148,20.669144,-45.01366,5.6362295,2.2799869,-10.719381
164,-0.1654844880104065,160.5902557373047,79.10265350341797,-2.9283335912242845,6.558069863890505,93.71048986049136,-21.647844,-1.550047,-1.7878824,7.3222237,-12.32832,-7.032302,1.0678376,4.767891,-2.4987173,47.893234,7.539219,4.1137614,6.7229085,5.2111115,5.1364536,31.13253,34.602646,-20.339647,-46.407875,-2.519014,10.083813,8.359638,23.332905,-34.209576,20.828966,-44.89904,5.432189,2.3830276,-10.649753
165,-0.20509439706802368,161.682861328125,78.72740173339844,-2.622240122970388,6.53218919972286,93.97151707483461,-21.499557,-2.0770419,-1.9462414,7.294932,-10.835992,-7.573125,0.79521614,4.558435,-2.2758026,50.083504,7.1355047,5.0919976,6.546641,4.935,5.228744,30.982252,34.718475,-19.99268,-47.06119,-2.6825225,10.041471,8.396423,23.360216,-34.2074,21.036125,-44.68419,5.4366217,2.441202,-10.686651
166,-0.2929614186286926,162.73448181152344,78.35869598388672,-2.0927848035150434,6.526824976187051,94.26958612167168,-21.229452,-2.8060827,-1.8592299,7.273414,-8.503152,-8.250518,0.4473711,4.1486244,-1.9780848,52.487045,6.4084945,6.2704744,6.3071084,4.428354,5.3268404,30.734535,34.83665,-19.658205,-47.680195,-2.9366052,9.93759,8.440449,23.339844,-34.156338,21.264334,-44.387283,5.5780973,2.4841337,-10.799909
167,-0.37604936957359314,163.7683563232422,77.94476318359375,-1.3865491734122652,6.547006876176983,94.61736160698885,-21.23714,-3.7090921,-1.6210477,8.003882,-6.310879,-8.59881,-0.014437605,3.509583,-1.7167771,55.1282,5.318875,7.393151,5.9846673,3.7281091,5.4320135,30.428242,34.970318,-19.296263,-48.306442,-3.1479936,9.817995,8.476392,23.266687,-34.04287,21.498274,-43.996407,5.7330246,2.5045035,-10.932439
168,-0.44850391149520874,164.83135986328125,77.45779418945312,-0.5807587093752582,6.5897800384980245,95.0195589497403,-22.616112,-4.72995,-1.2194017,11.716162,-6.018546,-8.16921,-0.61018807,2.6384413,-1.589734,58.00441,3.8493736,8.196504,5.5870247,2.917025,5.54608,30.038074,35.10399,-18.916424,-48.93204,-3.1726005,9.730612,8.488048,23.18236,-33.86781,21.684404,-43.53082,5.7809105,2.4964318,-11.022742
169,-0.5074291825294495,165.86842346191406,76.91398620605469,0.29909734213033184,6.6406610704219835,95.47212267437459,-24.471785,-5.7937217,-0.6379566,16.560925,-6.5723243,-6.5461044,-1.3169247,1.5101889,-1.6393851,61.180267,1.8903198,8.584104,5.1197963,2.0171306,5.6721,29.58221,35.238194,-18.516874,-49.587982,-2.961314,9.697998,8.470838,23.077044,-33.634502,21.816143,-42.999065,5.7066684,2.4487896,-11.038541
170,-0.5766797065734863,166.8645782470703,76.33568572998047,1.1254726923184262,6.654980966171411,95.92392647525385,-26.66632,-6.770419,0.12706378,22.35393,-7.6049595,-4.1391864,-2.039385,0.3123311,-1.8037115,64.53459,-0.4489792,8.66094,4.634258,1.1644133,5.838072,29.068274,35.374012,-18.106026,-50.280983,-2.5910885,9.693039,8.433497,22.964895,-33.352158,21.896015,-42.41499,5.568534,2.370408,-11.012347
171,-0.6515403985977173,167.82144165039062,75.72352600097656,1.7897676229906754,6.62358333743795,96.34363260433746,-28.739515,-7.572896,0.89393497,28.064564,-8.870134,-1.6974835,-2.7617276,-0.77001464,-2.0054657,67.86591,-2.8963547,8.49788,4.1594067,0.47510138,6.0620556,28.469791,35.507324,-17.682018,-50.965515,-2.114581,9.687684,8.3803005,22.886038,-33.022823,21.915823,-41.784824,5.352953,2.2839906,-10.985385
172,-0.6865838766098022,168.7516326904297,75.08231353759766,2.3386595969545523,6.5803236625525825,96.7477202304471,-30.33763,-8.268528,1.5061237,32.808426,-10.251923,0.09839183,-3.5404172,-1.7132869,-2.1539257,71.04486,-5.226468,8.205913,3.6759744,-0.0927145,6.327763,27.746094,35.63141,-17.24336,-51.576374,-1.5835724,9.652776,8.314278,22.858118,-32.63645,21.884073,-41.087555,5.048181,2.2108414,-11.002378
173,-0.6984652876853943,169.67880249023438,74.43907928466797,2.884026244723406,6.5491062109154194,97.21780028847266,-31.497454,-8.987923,1.9063267,36.613186,-12.023484,1.085227,-4.4367466,-2.6338046,-2.255851,74.17038,-7.5012865,7.7446017,3.1053054,-0.65499675,6.6486344,26.856033,35.7535,-16.749474,-52.100407,-0.93607014,9.551165,8.181821,22.858374,-32.17077,21.796059,-40.30692,4.66,2.1376464,-11.051362
174,-0.7177304625511169,170.5972900390625,73.83186340332031,3.4519847697409523,6.531148584870761,97.74637712690182,-32.457882,-9.752112,2.1832552,40.027054,-14.256378,1.6679623,-5.4473195,-3.5773244,-2.3257353,77.310844,-9.829551,7.1102905,2.4584785,-1.2485459,7.0013947,25.820627,35.878944,-16.214237,-52.556335,-0.17111509,9.405973,7.99983,22.856106,-31.617006,21.664614,-39.428085,4.1888747,2.0597522,-11.114872
175,-0.7391857504844666,171.5105438232422,73.2815170288086,3.979918499348816,6.534702421875037,98.22605476701828,-33.21536,-10.453467,2.410678,43.05357,-16.612543,2.0382817,-6.5475383,-4.4458237,-2.298369,80.29899,-12.055759,6.4632173,1.8366107,-1.8114647,7.311301,24.68945,35.988464,-15.719579,-52.9107,0.5757087,9.280892,7.8741727,22.861725,-30.988533,21.524704,-38.428413,3.614891,2.0118814,-11.230709
176,-0.798557698726654,172.3893585205078,72.77622985839844,4.3968777497339735,6.5678076260755525,98.54599184259553,-33.74301,-10.979445,2.6536674,45.647923,-18.725494,2.380631,-7.7131963,-5.142379,-2.1200876,82.96573,-14.020653,5.9540815,1.3382077,-2.2617528,7.5126843,23.502502,36.04408,-15.350121,-53.12104,1.1744788,9.244123,7.904215,22.902319,-30.31706,21.4045,-37.304478,2.9191964,2.0294852,-11.438093
177,-0.8620201349258423,173.29905700683594,72.34795379638672,4.687112958338923,6.66955614899426,98.68227675992834,-34.0366,-11.302244,2.9238849,47.745365,-20.532393,2.7119567,-8.996394,-5.6556993,-1.7564738,85.30329,-15.652382,5.6151075,0.9849697,-2.5489619,7.5595675,22.211046,36.002197,-15.134296,-53.116623,1.6361941,9.319462,8.075455,23.00684,-29.619991,21.295038,-35.99931,2.0656254,2.089127,-11.768813
178,-0.9234961271286011,174.2411651611328,71.99275207519531,4.894113990749296,6.827356150224721,98.69448499440618,-34.110695,-11.475623,3.1852283,49.403854,-22.226164,2.9507241,-10.400253,-6.0362306,-1.2504154,87.395,-17.041336,5.3633094,0.711945,-2.712182,7.4976974,20.791964,35.848522,-15.025584,-52.907574,2.029016,9.472329,8.332094,23.167479,-28.905195,21.182734,-34.543903,1.0778381,2.1877265,-12.197474
179,-0.9952444434165955,175.1976776123047,71.70680236816406,5.0225306843014765,6.970735858194482,98.59368324282589,-33.95415,-11.51756,3.4266958,50.732674,-23.813148,3.1286707,-11.826049,-6.28661,-0.671153,89.21057,-18.270813,5.1728425,0.48627007,-2.7980945,7.406365,19.3383,35.595734,-14.989307,-52.58048,2.3036368,9.683803,8.715114,23.365753,-28.198244,21.093061,-33.08448,0.0336252,2.3894322,-12.681852
180,-1.049440860748291,176.18173217773438,71.48662567138672,5.081538705834734,7.028422525826401,98.390259862852,-33.557064,-11.447583,3.6393526,51.840073,-25.293465,3.2768412,-13.175186,-6.411846,-0.08969498,90.717255,-19.421473,5.016072,0.27920127,-2.856278,7.3678355,17.950214,35.272842,-14.995404,-52.240494,2.4042573,9.933063,9.273773,23.592812,-27.53501,21.04691,-31.781326,-0.98474056,2.75522,-13.1822605
181,-1.0852433443069458,177.1648712158203,71.3333511352539,5.045190056242313,6.93989279993302,98.04770750296561,-32.841526,-11.227312,3.8175201,52.74514,-26.700413,3.4008896,-14.372792,-6.3750615,0.49742937,91.88384,-20.50526,4.9262896,0.11137959,-2.87979,7.443146,16.670076,34.88783,-15.040825,-51.92266,2.2905712,10.246068,10.084867,23.865564,-26.935337,21.062105,-30.668783,-2.0693116,3.3961627,-13.742656
182,-1.119180679321289,178.1531982421875,71.2427749633789,4.9188446352087105,6.7554072322027485,97.57353885791,-31.835766,-10.861508,3.9741397,53.392715,-28.022263,3.4852471,-15.487381,-6.1895604,1.1111199,92.735435,-21.47813,4.9034376,-0.016379677,-2.8492723,7.5830965,15.461539,34.437164,-15.124617,-51.59747,1.9872221,10.616831,11.110928,24.197466,-26.40353,21.125996,-29.692617,-3.2099261,4.251247,-14.366541
183,-1.1426893472671509,179.1071014404297,71.20368194580078,4.761550428547988,6.570570624907293,97.04460290749095,-30.68992,-10.436052,4.1273036,53.776913,-29.19217,3.528875,-16.63583,-5.938227,1.7103742,93.32528,-22.336107,4.872491,-0.15694675,-2.7959235,7.704898,14.300641,33.941555,-15.231534,-51.27141,1.5340549,10.974761,12.234456,24.585867,-25.949831,21.20831,-28.893906,-4.1715837,5.1142735,-14.964259
184,-1.1345473527908325,180.0978240966797,71.23988342285156,4.626441268884388,6.482455897375238,96.5372217025444,-29.55594,-10.036727,4.29044,53.89522,-30.143826,3.5308652,-17.933231,-5.6968384,2.2581732,93.69949,-23.082846,4.7626486,-0.3597157,-2.754727,7.728484,13.172784,33.43805,-15.343234,-50.967663,0.96875834,11.2508745,13.342631,25.037054,-25.588594,21.272144,-28.326834,-4.7223034,5.771155,-15.458727
185,-1.12403404712677,181.06277465820312,71.31995391845703,4.526537278314145,6.5368659811565495,96.04697029350109,-28.47938,-9.664449,4.4866166,53.72123,-30.87235,3.4754894,-19.476564,-5.4731107,2.7574425,93.8848,-23.710703,4.5208483,-0.62016416,-2.7471712,7.624199,12.093845,32.9543,-15.454877,-50.73935,0.24020931,11.455219,14.503165,25.5804,-25.334766,21.316517,-28.0822,-4.7668047,6.188775,-15.875988
186,-1.117546796798706,182.01161193847656,71.43972778320312,4.4319461923506935,6.675053874449972,95.54169568348456,-27.378935,-9.280324,4.7028346,53.26771,-31.409452,3.3671753,-21.17797,-5.2235384,3.2174847,93.84464,-24.221188,4.1997004,-0.9154894,-2.7554986,7.445352,11.085851,32.494884,-15.5708885,-50.58996,-0.662663,11.603475,15.758348,26.220778,-25.190317,21.353834,-28.134558,-4.4340415,6.4647274,-16.253563
187,-1.1170228719711304,182.96694946289062,71.6070556640625,4.332390215671507,6.838947597105966,95.05663521376876,-26.222137,-8.911869,4.894912,52.59838,-31.746403,3.2352026,-22.880066,-4.956196,3.608765,93.53423,-24.622467,3.8788633,-1.2663456,-2.7550113,7.2355127,10.146933,32.06083,-15.687361,-50.475597,-1.6330533,11.643659,16.951826,26.927279,-25.142893,21.366724,-28.36316,-3.834688,6.579895,-16.53298
188,-1.116711974143982,183.92970275878906,71.82525634765625,4.219268144452529,6.970659368395147,94.62684559950986,-24.975895,-8.580937,5.01684,51.775555,-31.874773,3.108659,-24.428387,-4.6811943,3.9040604,92.91227,-24.923706,3.6379302,-1.692263,-2.7222157,7.0363073,9.26934,31.652136,-15.800634,-50.34084,-2.5619845,11.53378,17.923033,27.664528,-25.170591,21.337475,-28.635979,-3.0837276,6.518436,-16.651106
189,-1.106352686882019,184.9060516357422,72.09696960449219,4.102657822633093,7.064868673419853,94.27603588382541,-23.622368,-8.312116,5.0452433,50.767437,-31.783133,3.00175,-25.801865,-4.4256697,4.0892696,91.94978,-25.136053,3.5248082,-2.2234867,-2.6630638,6.840773,8.454835,31.269127,-15.906506,-50.189373,-3.4889865,11.237513,18.656826,28.423634,-25.260279,21.255657,-28.935286,-2.064868,6.185163,-16.53316
190,-1.1185182332992554,185.8792724609375,72.41590118408203,3.9819916967221034,7.149495866855027,93.98104933080737,-22.183298,-8.082926,5.0052633,49.557964,-31.480783,2.8954308,-27.070957,-4.181225,4.177256,90.67135,-25.25437,3.4904933,-2.838467,-2.5884156,6.6307774,7.7026005,30.914192,-16.012907,-50.039513,-4.4431367,10.792134,19.22176,29.21298,-25.409067,21.132418,-29.308392,-0.7712383,5.6271396,-16.21576
191,-1.124192714691162,186.88592529296875,72.77090454101562,3.8380227216281444,7.216426589967486,93.70624945617689,-20.687508,-7.848574,4.9256415,48.23392,-30.987938,2.7698934,-28.218508,-3.9142582,4.1844635,89.11781,-25.265265,3.4680195,-3.4804616,-2.482274,6.4320993,7.008699,30.590069,-16.130928,-49.873547,-5.301391,10.275556,19.585522,30.024302,-25.605011,20.98436,-29.724096,0.51562846,5.039841,-15.810586
192,-1.1160188913345337,187.88819885253906,73.16561126708984,3.6503819590720674,7.25725959228486,93.41587635389935,-19.162104,-7.5647106,4.83688,46.879272,-30.326885,2.605727,-29.227823,-3.5920372,4.1287584,87.33007,-25.155825,3.3902361,-4.0915985,-2.3316696,6.27024,6.368477,30.299503,-16.274534,-49.670483,-5.9420767,9.767622,19.720455,30.843422,-25.829906,20.829062,-30.143074,1.5093163,4.609686,-15.442143
193,-1.1050055027008057,188.90313720703125,73.60006713867188,3.4074892548931435,7.25648457950837,93.10678161724692,-17.580936,-7.2206903,4.7227864,45.473976,-29.489023,2.3913193,-30.090155,-3.218047,3.9875667,85.309654,-24.904856,3.174693,-4.663754,-2.1318629,6.1637397,5.775061,30.045887,-16.451416,-49.42982,-6.335255,9.2824955,19.566658,31.663454,-26.073471,20.667057,-30.539988,2.1116633,4.3775253,-15.121513
194,-1.091354250907898,189.90965270996094,74.05117797851562,3.122361404344197,7.222736744267047,92.7957667109662,-15.944215,-6.838349,4.576768,43.99098,-28.469456,2.1392741,-30.809267,-2.8075147,3.7573974,83.0356,-24.530659,2.8806982,-5.222766,-1.8956064,6.095552,5.23103,29.830942,-16.657688,-49.160004,-6.552239,8.786063,19.161709,32.48511,-26.331047,20.491968,-30.926825,2.4766567,4.243218,-14.793663
195,-1.0750499963760376,190.9336395263672,74.52271270751953,2.815368852299149,7.183498071366851,92.47666175138431,-14.317277,-6.426527,4.44399,42.502064,-27.294374,1.8682733,-31.391117,-2.34392,3.4939756,80.514084,-24.080217,2.6550674,-5.759632,-1.638311,6.036962,4.7437587,29.654703,-16.891626,-48.8545,-6.6225176,8.284187,18.62679,33.29997,-26.593403,20.30609,-31.314878,2.693839,4.174934,-14.4893675
196,-1.036663293838501,191.97653198242188,75.00503540039062,2.5071323859733874,7.166335494373905,92.14339494397986,-12.762954,-5.9969563,4.368946,41.07759,-25.988857,1.5976965,-31.842894,-1.8150826,3.2597222,77.74677,-23.59611,2.6400628,-6.265252,-1.3746164,5.95801,4.317287,29.516514,-17.151022,-48.500744,-6.574843,7.781441,18.08144,34.096603,-26.847383,20.114067,-31.706764,2.8516364,4.141659,-14.237653
197,-1.0082533359527588,193.0162811279297,75.48685455322266,2.19430111416692,7.175146704896236,91.7906397618377,-11.270779,-5.545151,4.354087,39.693798,-24.528635,1.3270483,-32.154472,-1.1963446,3.0896945,74.69068,-23.062958,2.9216459,-6.734121,-1.1014426,5.851096,3.9480405,29.419939,-17.445213,-48.080357,-6.347896,7.2580223,17.536804,34.871788,-27.085293,19.910023,-32.104645,2.905095,4.1733522,-14.037732
198,-0.9691392779350281,194.0694580078125,75.97321319580078,1.8693008406121268,7.195648771070029,91.42297865988532,-9.816942,-5.073398,4.3778806,38.33101,-22.912148,1.0501508,-32.322033,-0.5137522,2.9616907,71.34634,-22.461748,3.3987892,-7.1690054,-0.8176526,5.7314177,3.6306782,29.367172,-17.776554,-47.59966,-5.9521856,6.7142005,16.940443,35.624294,-27.304213,19.694366,-32.495472,2.8268833,4.2722254,-13.875127
199,-0.914286196231842,195.14151000976562,76.46194458007812,1.5523858654831721,7.227218588675775,91.04859373739491,-8.4396515,-4.605538,4.4474406,37.060383,-21.195055,0.7778424,-32.368412,0.1670029,2.8537793,67.78093,-21.8247,3.9316907,-7.5728564,-0.54060286,5.6023164,3.367927,29.353727,-18.132595,-47.09222,-5.5186553,6.187378,16.313395,36.3505,-27.499151,19.479046,-32.865864,2.727464,4.366849,-13.757151
200,-0.8531914949417114,196.21212768554688,76.9433822631836,1.2602134927435606,7.2696302035559635,90.67559046655478,-7.177017,-4.1636424,4.569388,35.952595,-19.431915,0.52132964,-32.316833,0.7845672,2.7373374,64.06146,-21.183418,4.3827524,-7.950823,-0.2850629,5.4660816,3.1622555,29.371403,-18.499266,-46.58549,-5.1750736,5.718097,15.6720915,37.048023,-27.662973,19.281116,-33.20467,2.714612,4.38665,-13.69256
201,-0.7959949970245361,197.28990173339844,77.41145324707031,0.9877107198791697,7.328305477940443,90.29510641535623,-6.0244946,-3.7392774,4.763464,34.987526,-17.581827,0.27105588,-32.159523,1.3369339,2.5988176,60.128323,-20.528032,4.730806,-8.295101,-0.04461103,5.3144655,3.0090914,29.418524,-18.876127,-46.068626,-4.9525166,5.3019276,14.990643,37.705307,-27.7917,19.107655,-33.48149,2.8007894,4.2967362,-13.706032
202,-0.7399836182594299,198.3699951171875,77.84990692138672,0.7314407875622516,7.400429800845236,89.90721376531535,-4.963802,-3.3304992,5.016806,34.139618,-15.632181,0.028690727,-31.880863,1.843712,2.4622998,55.95142,-19.838625,5.0381484,-8.606427,0.1833282,5.147959,2.9059618,29.496222,-19.271011,-45.528683,-4.781219,4.9238324,14.266908,38.325348,-27.883926,18.951986,-33.708744,2.9300237,4.1401734,-13.784534
203,-0.6806621551513672,199.4547882080078,78.25882720947266,0.5100643492211115,7.473993584292722,89.53403270351187,-4.005997,-2.9656458,5.2867994,33.46017,-13.674684,-0.18387929,-31.495121,2.2849185,2.3466592,51.64647,-19.133718,5.300774,-8.8975935,0.3778913,4.980941,2.8471346,29.599258,-19.68782,-44.981693,-4.636225,4.6110206,13.548989,38.916027,-27.941233,18.798775,-33.921627,3.1149528,3.964047,-13.878436
204,-0.6201934814453125,200.5301971435547,78.62445068359375,0.33956538638003747,7.5379274541556756,89.19788889731036,-3.162359,-2.6704538,5.532072,32.999195,-11.800199,-0.3455038,-31.017134,2.645364,2.2662945,47.32591,-18.431658,5.5191255,-9.182476,0.5203399,4.827649,2.827546,29.717684,-20.131405,-44.44428,-4.488957,4.3902726,12.884267,39.478985,-27.967152,18.632317,-34.150784,3.374059,3.8154511,-13.939254
205,-0.554785430431366,201.624267578125,78.9622802734375,0.22887169853654163,7.596013057412914,88.90939728514131,-2.4343548,-2.4555018,5.748686,32.748096,-10.002322,-0.41462028,-30.414028,2.9202514,2.211774,42.88188,-17.717861,5.693145,-9.470491,0.60738814,4.6820626,2.8434799,29.844585,-20.612429,-43.906788,-4.3096747,4.277592,12.269167,40.02978,-27.96461,18.443918,-34.408813,3.7387373,3.697448,-13.957577
206,-0.4879297614097595,202.71096801757812,79.26715850830078,0.1775972673196578,7.649496910987575,88.65966408847719,-1.8059196,-2.3141458,5.957294,32.672718,-8.233926,-0.41383266,-29.677238,3.1069133,2.1809711,38.270466,-16.975294,5.824676,-9.754912,0.6412669,4.5392303,2.8906517,29.978016,-21.129671,-43.35806,-4.1144605,4.256145,11.680356,40.572918,-27.934502,18.239454,-34.688065,4.189439,3.5884914,-13.958189
207,-0.4268871545791626,203.81410217285156,79.52567291259766,0.1856276948605771,7.68370694765781,88.44143304396637,-1.2573398,-2.2421105,6.150886,32.77364,-6.519743,-0.4185754,-28.864944,3.2067695,2.188776,33.717968,-16.217068,5.925059,-10.026456,0.6167354,4.415172,2.9587054,30.11551,-21.666887,-42.80314,-3.947372,4.304345,11.13443,41.084133,-27.877676,18.026768,-34.974586,4.6722198,3.4987235,-13.9445915
208,-0.37309831380844116,204.90359497070312,79.73481750488281,0.2515649915399748,7.685053823409869,88.245483751996,-0.7750124,-2.2324302,6.320168,33.06034,-4.889418,-0.5038576,-28.04911,3.2326627,2.2450013,29.475834,-15.466786,6.0127525,-10.275672,0.53166336,4.3251276,3.0406404,30.254568,-22.20528,-42.251217,-3.8524494,4.401416,10.648073,41.554733,-27.794462,17.817041,-35.27251,5.123488,3.4384503,-13.920666
209,-0.31510448455810547,206.00238037109375,79.90139770507812,0.38846102054567433,7.653005464463722,88.08077107862839,-0.35200268,-2.2976756,6.4651837,33.517426,-3.3332894,-0.69732,-27.234856,3.1727464,2.348921,25.531176,-14.707444,6.1126747,-10.510701,0.37445667,4.273316,3.138443,30.394152,-22.73749,-41.69637,-3.8516502,4.5542655,10.217304,41.986237,-27.683615,17.605303,-35.588787,5.548996,3.4237394,-13.883273
210,-0.2535523474216461,207.09165954589844,80.01663970947266,0.6009753927081448,7.591023920948015,87.95228797210477,0.009734792,-2.4484727,6.5862865,34.137165,-1.8351983,-0.95270705,-26.396841,3.0273438,2.4860284,21.788383,-13.940531,6.2252584,-10.737434,0.13963434,4.251607,3.2542741,30.535055,-23.273207,-41.137154,-3.916297,4.771611,9.83493,42.382286,-27.545496,17.389437,-35.921055,5.974765,3.4450147,-13.832549
211,-0.19172097742557526,208.171875,80.07960510253906,0.8659531092116534,7.4980909771845585,87.83747548485752,0.30000442,-2.6577225,6.67674,34.952824,-0.4250728,-1.2381076,-25.584862,2.8438597,2.6444778,18.41601,-13.237586,6.327367,-10.935891,-0.15041153,4.254657,3.3795516,30.67709,-23.821108,-40.584797,-4.016262,5.0352316,9.514043,42.732327,-27.384916,17.182934,-36.250515,6.369603,3.4740653,-13.777592
212,-0.1350349336862564,209.2517547607422,80.10108184814453,1.1366485426540536,7.37990159881882,87.7065556085163,0.49713048,-2.87715,6.7334614,36.009407,0.8603842,-1.5279572,-24.862947,2.6850305,2.813796,15.603066,-12.677238,6.384992,-11.07884,-0.4538574,4.274648,3.5035942,30.818975,-24.39029,-40.04958,-4.1226163,5.3261647,9.267845,43.020275,-27.211468,16.995739,-36.55049,6.705054,3.4826446,-13.726619
213,-0.07404102385044098,210.3350830078125,80.07759094238281,1.3754881594986716,7.255393100120791,87.54128533267631,0.53931534,-3.0609946,6.7537036,37.38424,2.017688,-1.794722,-24.288649,2.5900548,2.972088,13.445953,-12.317367,6.3284593,-11.15004,-0.72662807,4.3008113,3.6169486,30.959812,-24.99412,-39.527897,-4.247765,5.664004,9.122079,43.240887,-27.0282,16.8268,-36.80556,6.9690766,3.4484267,-13.675572
214,-0.013267181813716888,211.41714477539062,80.00238800048828,1.5756554239784906,7.130957941938401,87.34525883069574,0.42846322,-3.201931,6.7473097,39.06324,3.0463278,-2.0717661,-23.85536,2.5628946,3.1267028,11.877447,-12.126597,6.1861863,-11.152784,-0.9606639,4.3343463,3.7231026,31.096672,-25.625475,-39.011055,-4.401594,6.0497904,9.064325,43.401707,-26.835243,16.670269,-37.031376,7.1791005,3.3908513,-13.622671
215,0.04811224713921547,212.4789276123047,79.87248229980469,1.738451090599984,6.995330293164987,87.11993675869827,0.23663363,-3.3070428,6.7293468,40.956135,3.9108453,-2.4285064,-23.528687,2.6077278,3.317162,10.8387375,-12.053677,6.061047,-11.0910225,-1.1610886,4.384802,3.8382537,31.22303,-26.25714,-38.510513,-4.5499134,6.4359417,9.048665,43.493023,-26.640223,16.53354,-37.237686,7.359399,3.3438265,-13.581625
216,0.10887519270181656,213.53860473632812,79.67994689941406,1.875374202170178,6.834965008538717,86.8694088443705,0.035543036,-3.3928998,6.713102,42.980553,4.5718703,-2.9327815,-23.27739,2.7161393,3.5842164,10.280711,-12.048947,6.0538983,-10.974385,-1.3398534,4.4626546,3.9836764,31.33101,-26.857452,-38.038944,-4.656392,6.7752266,9.02692,43.50745,-26.457157,16.42476,-37.440296,7.5352206,3.341257,-13.56749
217,0.1715134233236313,214.5913848876953,79.4330062866211,2.0552468300720754,6.621564691923536,86.59971077251758,-0.11575512,-3.5657392,6.7040815,45.099438,5.058724,-3.6518548,-23.039595,2.8318038,4.031811,10.152869,-12.279058,6.285669,-10.814398,-1.566402,4.577799,4.189408,31.414135,-27.410875,-37.609623,-4.7054186,7.054776,8.99094,43.461487,-26.29989,16.348995,-37.668087,7.732496,3.418295,-13.597722
218,0.2314079850912094,215.64894104003906,79.12185668945312,2.246911310953887,6.374121336390153,86.30417980181869,-0.278726,-3.781324,6.6966567,47.38236,5.363774,-4.5384784,-22.874945,2.9845326,4.604478,10.540918,-12.736437,6.665047,-10.608133,-1.801762,4.7206016,4.4419546,31.470661,-27.927992,-37.210316,-4.7165437,7.2996993,8.961611,43.35726,-26.174294,16.303087,-37.912197,7.9353013,3.547493,-13.664732
219,0.2742557227611542,216.73275756835938,78.74455261230469,2.3093259528252337,6.146173708318936,85.97200077239123,-0.5458181,-3.8386815,6.686086,49.887085,5.3987594,-5.487726,-22.9097,3.293818,5.105503,11.555741,-13.08537,6.982104,-10.367207,-1.8963891,4.8746986,4.7263765,31.4964,-28.387144,-36.838326,-4.703335,7.520265,8.926175,43.14862,-26.104204,16.295176,-38.126396,8.113673,3.6686149,-13.751864
220,0.3060751259326935,217.79835510253906,78.32841491699219,2.1107173129997223,5.984930762094551,85.59735005813651,-0.9910385,-3.5493217,6.6641555,52.64798,5.0888186,-6.3946095,-23.241587,3.8667796,5.3406205,13.250784,-12.954633,7.0379186,-10.047289,-1.7210205,5.0203905,4.9481406,31.504047,-28.857115,-36.446526,-4.6887255,7.725664,8.898578,42.82827,-26.046352,16.2976,-38.269257,8.225934,3.722058,-13.826076
221,0.3795105516910553,218.8150634765625,77.92998504638672,1.5633164025696247,5.896505889243268,85.16449014792235,-1.5973982,-2.8138688,6.63633,55.689445,4.4152293,-7.3031015,-23.85227,4.769207,5.19688,15.588921,-11.721862,6.8418474,-9.656874,-1.1837614,5.1523886,5.1283927,31.494646,-29.315615,-36.05182,-4.692976,7.9165096,8.889246,42.360916,-26.01326,16.331476,-38.29597,8.23278,3.6743085,-13.875953
222,0.4324021339416504,219.82762145996094,77.47383117675781,0.7928687907566675,5.83488325190997,84.69853388552555,-2.2829545,-1.8076985,6.599089,58.932316,3.4376943,-8.24317,-24.644209,5.8785896,4.7704253,18.427948,-9.686151,6.5294447,-9.179153,-0.41797027,5.274102,5.2126274,31.449484,-29.830437,-35.598217,-4.7007065,8.088978,8.910177,41.807537,-25.977413,16.371426,-38.25131,8.1610985,3.5632064,-13.914028
223,0.4593554437160492,220.84402465820312,76.94093322753906,-0.009431008622930401,5.773342254034407,84.2526969781219,-3.0344577,-0.7479844,6.531262,62.266296,2.2063737,-9.083167,-25.613571,7.008842,4.19018,21.705341,-7.8698177,6.0602117,-8.724676,0.37711027,5.41799,5.3425193,31.40225,-30.247324,-35.211678,-4.673767,8.248284,8.881941,41.135025,-25.9706,16.44638,-38.18683,8.071209,3.4397979,-13.956467
224,0.5140335559844971,221.82154846191406,76.37429809570312,-0.6667554804707563,5.698127245129522,83.87274167707449,-3.8637135,0.17449035,6.414475,65.60558,0.76370734,-9.68758,-26.760532,7.990641,3.6137257,25.402382,-7.3239517,5.340657,-8.298462,1.0177975,5.5853133,5.450168,31.32399,-30.612076,-34.82681,-4.570025,8.398964,8.773449,40.39684,-25.97205,16.52352,-38.172832,8.025516,3.352565,-14.021751
225,0.5613664984703064,222.77857971191406,75.75735473632812,-1.14934946252041,5.586559954056856,83.56637217221383,-4.7745485,0.94881576,6.2420197,69.05355,-0.9981923,-10.019598,-28.252323,8.810044,3.0801537,29.974806,-8.66162,4.1398697,-7.928999,1.4750594,5.8208413,5.545466,31.228107,-30.88375,-34.498615,-4.3798184,8.546017,8.571147,39.586487,-25.988205,16.596243,-38.26536,8.058615,3.3189163,-14.102105
226,0.6013233661651611,223.6868896484375,75.09249877929688,-1.5251581222358936,5.452073271636133,83.31483939539939,-5.7592893,1.6443952,6.027337,72.619736,-3.0598972,-10.141298,-29.999138,9.511504,2.5708034,35.254723,-11.207994,2.5421076,-7.600727,1.8174825,6.111732,5.647202,31.134937,-31.07251,-34.239082,-4.128261,8.6842165,8.3034,38.69173,-26.021324,16.67815,-38.42171,8.132815,3.31067,-14.193491
227,0.670274555683136,224.5802001953125,74.4397964477539,-1.8124474760777292,5.3521797099544095,83.10877087529971,-6.847583,2.2496603,5.768776,76.10912,-5.2004304,-10.075818,-31.6624,10.088867,2.1451583,40.376904,-14.123123,0.9078835,-7.2999845,2.0609884,6.3864684,5.8187733,31.034233,-31.168669,-34.006447,-3.8201318,8.803517,7.9556193,37.6789,-26.06525,16.801298,-38.517838,8.196845,3.310955,-14.309447
228,0.7599672675132751,225.4477081298828,73.83384704589844,-2.0542517146652894,5.349698660193486,82.93010217439632,-8.084361,2.7789943,5.4576073,79.33814,-7.2026057,-9.852272,-32.954655,10.565309,1.7943162,44.548332,-16.587702,-0.39608592,-7.004143,2.2447617,6.5682893,6.117242,30.904118,-31.163239,-33.750916,-3.45791,8.893785,7.5100327,36.512672,-26.110659,16.997356,-38.424057,8.196927,3.3030822,-14.462774
229,0.8496308922767639,226.31976318359375,73.29136657714844,-2.2791852766721585,5.523725703041571,82.73947780699869,-9.587828,3.2417562,5.0585284,82.330795,-9.063691,-9.41515,-33.89367,10.980802,1.491602,47.602844,-18.474913,-1.2644123,-6.6756735,2.395985,6.589727,6.550155,30.71637,-31.023237,-33.43608,-3.0146797,8.885284,6.8023767,35.121178,-26.153654,17.282452,-38.059723,8.135988,3.2572906,-14.653347
230,0.9073660969734192,227.20263671875,72.7934341430664,-2.483492616827261,5.827689443171126,82.54924906129291,-11.319229,3.6421137,4.5667577,85.1756,-10.878643,-8.780242,-34.643475,11.347278,1.2236149,50.021946,-20.222069,-1.8947012,-6.327272,2.5150523,6.4988422,7.0686064,30.460855,-30.771513,-33.0649,-2.4933407,8.80129,5.891009,33.546104,-26.191998,17.63247,-37.504913,8.034986,3.1909726,-14.877235
231,0.9586256742477417,228.10414123535156,72.35868835449219,-2.656970081684008,6.135328058281195,82.42074284277699,-13.088229,3.9964771,4.0241365,87.77989,-12.575562,-8.076192,-35.14393,11.633124,0.9631734,51.99586,-21.861004,-2.3771935,-6.0040736,2.5971303,6.393821,7.634938,30.147903,-30.493948,-32.635788,-1.9415247,8.775477,5.0926957,31.929234,-26.216635,18.007933,-36.88127,7.8675594,3.159691,-15.136955
232,1.007007360458374,228.99923706054688,71.98912811279297,-2.7856005199521476,6.319675337735113,82.41728669892193,-14.703018,4.3329268,3.4771988,90.04754,-14.085178,-7.427479,-35.32676,11.803842,0.6911203,53.699577,-23.412052,-2.8022106,-5.749237,2.6334262,6.375567,8.216173,29.801182,-30.282322,-32.163,-1.4048386,8.947916,4.7250137,30.406113,-26.213057,18.373137,-36.301445,7.6060195,3.219785,-15.431434
233,1.081007957458496,229.9029998779297,71.6971206665039,-2.861333217897948,6.326858110881878,82.57044058752234,-16.099691,4.685043,2.9192088,91.95211,-15.355366,-6.8652415,-35.107567,11.836268,0.39642736,55.121918,-24.89068,-3.1624813,-5.591396,2.5969515,6.494321,8.8575325,29.430187,-30.140305,-31.636932,-0.8395338,9.357377,4.868714,28.975235,-26.158491,18.74051,-35.725952,7.2001023,3.4223955,-15.799868
234,1.1666985750198364,230.80926513671875,71.47579193115234,-2.89552052947015,6.23129992251036,82.84185778587968,-17.39336,5.042172,2.3309302,93.54778,-16.43343,-6.317752,-34.543987,11.753176,0.08830299,56.19222,-26.284346,-3.4220521,-5.488977,2.4956906,6.6902184,9.551697,29.036915,-30.041677,-31.056387,-0.24676216,9.9369955,5.356234,27.57288,-26.044853,19.115198,-35.10742,6.6748734,3.72929,-16.219612
235,1.2462290525436401,231.7345428466797,71.31013488769531,-2.8981897168186177,6.097947687650834,83.19129151102207,-18.660614,5.37603,1.7479901,94.85891,-17.398603,-5.7466226,-33.77527,11.586647,-0.21858193,56.988728,-27.572477,-3.6268547,-5.3843956,2.3727887,6.899908,10.198347,28.642145,-30.025599,-30.468605,0.2571593,10.671951,6.1349306,26.238811,-25.890345,19.457117,-34.541077,6.1145625,4.0611186,-16.597733
236,1.2965136766433716,232.66473388671875,71.19428253173828,-2.8751105306631906,5.991620863301713,83.5784540050993,-19.975674,5.6530995,1.2080107,95.90938,-18.331242,-5.116184,-32.943657,11.368847,-0.50837684,57.59132,-28.73402,-3.8228528,-5.223797,2.273727,7.0640535,10.7103815,28.27742,-30.122902,-29.934484,0.5508027,11.542035,7.1614184,25.023373,-25.72843,19.725355,-34.14251,5.6071863,4.333926,-16.8469
237,1.336310863494873,233.59832763671875,71.13187408447266,-2.8208998512839734,5.901146985258811,84.02735738469401,-21.34694,5.8506746,0.70869833,96.70604,-19.274574,-4.391627,-32.035034,11.078087,-0.7894764,58.010345,-29.787748,-4.0261493,-5.0231977,2.209858,7.1972895,11.073736,27.969172,-30.38724,-29.492645,0.5633097,12.69504,8.682867,23.952265,-25.586502,19.910782,-33.96594,5.126489,4.543059,-16.955065
238,1.3631387948989868,234.5191192626953,71.12130737304688,-2.7345455991068772,5.800181225212951,84.54767893063841,-22.73955,5.984194,0.24180861,97.23553,-20.180157,-3.6049674,-30.992918,10.706871,-1.0693831,58.210133,-30.73795,-4.208948,-4.8063326,2.1584685,7.330538,11.361987,27.724937,-30.770908,-29.147568,0.32782948,14.079672,10.661772,23.010216,-25.469383,20.035183,-33.975475,4.652258,4.7233467,-16.97114
239,1.382476806640625,235.42352294921875,71.16095733642578,-2.6324545500165693,5.731885993710582,85.07670048703554,-24.153923,6.077627,-0.16045482,97.484314,-20.988184,-2.8207686,-29.891209,10.309725,-1.3287888,58.197346,-31.541306,-4.3531895,-4.537508,2.111813,7.428087,11.62908,27.546528,-31.144432,-28.908863,-0.08911937,15.373778,12.620148,22.169384,-25.379107,20.111252,-34.12834,4.2802477,4.848504,-16.902729
240,1.3932952880859375,236.32464599609375,71.24101257324219,-2.529428249518527,5.739820825761076,85.55193225387724,-25.590374,6.1611814,-0.46551728,97.44037,-21.637283,-2.101504,-28.80707,9.941177,-1.5478226,57.983223,-32.155983,-4.442985,-4.184335,2.0639565,7.4533224,11.935516,27.433176,-31.3753,-28.79795,-0.57483464,16.266516,14.058034,21.39915,-25.316643,20.155403,-34.383335,4.106551,4.893147,-16.75964
241,1.408891201019287,237.2018280029297,71.36980438232422,-2.4247652943527167,5.861040597567252,85.96381836039296,-27.101149,6.260064,-0.6421326,97.0982,-22.105364,-1.4269847,-27.77759,9.6017685,-1.7298913,57.548214,-32.578247,-4.467727,-3.734361,2.0130334,7.380552,12.310198,27.402534,-31.422167,-28.869848,-1.1287556,16.664457,14.815005,20.710718,-25.29592,20.152027,-34.78483,4.235486,4.8235073,-16.511591
