unveil-humanoid-operators/unveil-humanoid-operators.github.io/feature-analysis-animation/data/feature_matrix_instances/height_ankle_rom_walking_A049_walk_hands_on_back_start_002__A049.csv
Frame,root_translateX,root_translateY,root_translateZ,root_rotateX,root_rotateY,root_rotateZ,left_hip_pitch_joint_dof,left_hip_roll_joint_dof,left_hip_yaw_joint_dof,left_knee_joint_dof,left_ankle_pitch_joint_dof,left_ankle_roll_joint_dof,right_hip_pitch_joint_dof,right_hip_roll_joint_dof,right_hip_yaw_joint_dof,right_knee_joint_dof,right_ankle_pitch_joint_dof,right_ankle_roll_joint_dof,waist_yaw_joint_dof,waist_roll_joint_dof,waist_pitch_joint_dof,left_shoulder_pitch_joint_dof,left_shoulder_roll_joint_dof,left_shoulder_yaw_joint_dof,left_elbow_joint_dof,left_wrist_roll_joint_dof,left_wrist_pitch_joint_dof,left_wrist_yaw_joint_dof,right_shoulder_pitch_joint_dof,right_shoulder_roll_joint_dof,right_shoulder_yaw_joint_dof,right_elbow_joint_dof,right_wrist_roll_joint_dof,right_wrist_pitch_joint_dof,right_wrist_yaw_joint_dof
0,0.07314115017652512,-2.022387981414795,78.0787582397461,0.0020196376180675133,0.6799221323556207,89.25494895473643,0.4010943,1.0402281,-0.16395605,10.492216,-11.80325,-0.7996756,0.9709749,-1.9282035,-11.878368,9.912432,-12.59596,-0.58980316,-1.7906858,1.824485,2.5229971,16.051807,7.185847,-96.379944,48.336727,13.73571,-10.362126,-5.0436587,23.557947,-6.136744,75.138626,46.380463,-23.70565,-15.915016,6.6605496
1,0.06529904901981354,-2.013767719268799,78.06702423095703,-0.010810042258906619,0.6827738748655774,89.27148714500254,0.28670162,1.0443124,-0.18294586,10.768164,-11.990733,-0.7866771,0.9472783,-1.9330286,-11.877713,10.0106945,-12.710455,-0.5562294,-1.8005658,1.8411521,2.4978895,16.074318,7.204754,-96.342384,48.307392,13.721531,-10.356878,-5.0430245,23.56852,-6.1651964,75.15633,46.34372,-23.744621,-15.905555,6.62949
2,0.058387499302625656,-1.9974324703216553,78.05377197265625,-0.022960663443158336,0.6850125582725394,89.28824625292286,0.17218632,1.048692,-0.20233746,11.045469,-12.178791,-0.7758762,0.9248287,-1.9381312,-11.876437,10.107853,-12.825928,-0.52204245,-1.819906,1.8596205,2.470767,16.101875,7.223911,-96.29362,48.274242,13.709132,-10.352628,-5.042964,23.574816,-6.1923494,75.18372,46.318836,-23.7839,-15.898662,6.5934052
3,0.05124413222074509,-1.9771546125411987,78.03904724121094,-0.03523629242610913,0.6879539208052537,89.30420214000969,0.055329747,1.0529441,-0.22106689,11.326633,-12.368215,-0.7600825,0.8990365,-1.9435034,-11.87601,10.210067,-12.940808,-0.4890302,-1.8293884,1.8725038,2.447843,16.123192,7.240982,-96.25494,48.25419,13.696772,-10.349882,-5.0422816,23.583195,-6.214618,75.20278,46.289074,-23.819782,-15.891035,6.5645146
4,0.04260469228029251,-1.9542006254196167,78.02359771728516,-0.05064944689889814,0.6929018094283459,89.31820069638589,-0.07632564,1.0574205,-0.23862156,11.635675,-12.56628,-0.73216665,0.86627686,-1.9481841,-11.87818,10.322344,-13.053361,-0.4590579,-1.8135818,1.8724741,2.4349246,16.12864,7.250901,-96.2432,48.26907,13.683638,-10.350785,-5.039607,23.59804,-6.2254157,75.20055,46.243885,-23.846848,-15.881613,6.554159
5,0.030852466821670532,-1.9335074424743652,78.007080078125,-0.07016083963764407,0.7033543002848438,89.32959021361081,-0.24003361,1.064309,-0.25459972,11.99736,-12.779655,-0.6876079,0.81606346,-1.9504036,-11.884051,10.454257,-13.162465,-0.43691906,-1.7627976,1.8496644,2.4369907,16.109653,7.2633576,-96.259865,48.32564,13.673332,-10.356829,-5.0352907,23.620378,-6.23476,75.17622,46.157993,-23.858255,-15.871328,6.5685935
6,0.021068667992949486,-1.915907621383667,77.99152374267578,-0.09228664620876532,0.7177993626578548,89.33835323290351,-0.4260682,1.0731192,-0.26894405,12.395846,-13.003962,-0.6310396,0.7524517,-1.9508181,-11.892087,10.60204,-13.270225,-0.42034754,-1.67226,1.8146085,2.4492378,16.06784,7.279448,-96.315186,48.40604,13.658652,-10.362737,-5.0295186,23.656563,-6.240883,75.11884,46.036243,-23.864641,-15.858073,6.603388
7,0.007439996115863323,-1.8893563747406006,77.97553253173828,-0.11525266809000473,0.7293104803815136,89.34690067743573,-0.60448253,1.0797908,-0.28374228,12.7908745,-13.229402,-0.5691222,0.6980594,-1.952072,-11.901231,10.7430105,-13.375372,-0.40043053,-1.5711855,1.781694,2.4641027,16.022364,7.299006,-96.39294,48.488277,13.641671,-10.371678,-5.0209765,23.697584,-6.2427754,75.040794,45.916462,-23.871098,-15.843724,6.648136
8,-0.012114081531763077,-1.8657252788543701,77.95978546142578,-0.13553469541133262,0.7313428153687477,89.35743812457972,-0.7463176,1.0799657,-0.300465,13.14416,-13.447301,-0.5085599,0.6757711,-1.9563575,-11.910633,10.852795,-13.475714,-0.3683905,-1.501277,1.7630775,2.4748852,15.994176,7.3190827,-96.45786,48.54543,13.628672,-10.383297,-5.0120845,23.738495,-6.241264,74.971725,45.829273,-23.880314,-15.825782,6.692606
9,-0.030591540038585663,-1.8323285579681396,77.94329833984375,-0.15351033039040546,0.7184765358861092,89.36975846222032,-0.8351696,1.0737135,-0.31889796,13.436773,-13.654311,-0.4541409,0.6955607,-1.9629371,-11.919399,10.925382,-13.57207,-0.3232924,-1.4682037,1.764649,2.4805052,15.987805,7.3458476,-96.51671,48.563942,13.619584,-10.401359,-4.9998403,23.784311,-6.237603,74.90516,45.780594,-23.89476,-15.804951,6.740876
10,-0.050651926547288895,-1.7952793836593628,77.92765808105469,-0.17076304802805892,0.6955077240316604,89.38339710674387,-0.8902956,1.0627338,-0.33877102,13.6937,-13.856199,-0.4014173,0.74393773,-1.9712845,-11.928824,10.973588,-13.665101,-0.2692699,-1.4857928,1.770711,2.4860642,16.003357,7.354448,-96.53932,48.584343,13.623077,-10.4272585,-4.987253,23.823523,-6.2366204,74.87412,45.75826,-23.900215,-15.779348,6.791657
11,-0.07507241517305374,-1.7450270652770996,77.91287994384766,-0.1850116183455094,0.6713190574189183,89.39813928653247,-0.93190885,1.0460422,-0.35995996,13.933565,-14.053664,-0.34311312,0.80806243,-1.982874,-11.939151,11.000857,-13.752088,-0.20522733,-1.496739,1.788852,2.4886186,16.01964,7.368246,-96.57495,48.58624,13.622136,-10.448428,-4.9764223,23.867088,-6.23591,74.82287,45.74392,-23.915533,-15.750734,6.842644
12,-0.10459979623556137,-1.696515440940857,77.89778900146484,-0.19789833824785222,0.654559129876713,89.41499751954018,-0.9784871,1.0220239,-0.38353854,14.171496,-14.245683,-0.27188727,0.8735314,-2.0005598,-11.951643,11.014754,-13.832181,-0.12971587,-1.517791,1.8063937,2.4880998,16.039057,7.378733,-96.58131,48.584465,13.6239805,-10.457663,-4.974462,23.895336,-6.2356596,74.793915,45.737335,-23.929775,-15.71563,6.879151
13,-0.14107011258602142,-1.6394920349121094,77.8846206665039,-0.20798510725007507,0.6472816332494646,89.43458158332592,-1.0364478,0.9882441,-0.4102106,14.415373,-14.433258,-0.18205887,0.9417731,-2.0258427,-11.966292,11.008132,-13.902886,-0.035609957,-1.5376861,1.8264666,2.4864175,16.057276,7.382756,-96.565834,48.57775,13.6249695,-10.446089,-4.98633,23.908306,-6.235419,74.78178,45.738453,-23.936235,-15.660126,6.897419
14,-0.1763916313648224,-1.5890289545059204,77.86958312988281,-0.21452464652917405,0.6451090889645382,89.45667891684263,-1.0955613,0.9461564,-0.43972525,14.656155,-14.616759,-0.078827396,1.0183911,-2.0569565,-11.983176,10.980407,-13.965606,0.07408805,-1.5628089,1.8496578,2.48349,16.078112,7.387943,-96.526405,48.561096,13.630345,-10.422871,-5.0096765,23.910332,-6.234794,74.7775,45.750217,-23.940483,-15.5912075,6.9063315
15,-0.21034611761569977,-1.5170632600784302,77.85384368896484,-0.22084229494492952,0.6464237404453191,89.47936015874366,-1.1499856,0.9007762,-0.47020864,14.88464,-14.794539,0.029029513,1.0975537,-2.0905793,-12.002153,10.945811,-14.02443,0.18542361,-1.6113123,1.8746326,2.476899,16.10481,7.3956738,-96.448006,48.528927,13.645897,-10.396616,-5.0404606,23.901478,-6.2337337,74.79415,45.77258,-23.958761,-15.535505,6.9105873
16,-0.25782832503318787,-1.4542620182037354,77.84078979492188,-0.2297186337732697,0.6504380873589717,89.4991475595646,-1.1934049,0.8568968,-0.49787796,15.089994,-14.964197,0.13269183,1.1690316,-2.1247227,-12.019807,10.92496,-14.085982,0.283511,-1.6573895,1.9030635,2.4576242,16.132982,7.4016376,-96.38298,48.495216,13.647983,-10.375528,-5.057677,23.89807,-6.23378,74.80846,45.787933,-24.009523,-15.516338,6.9092493
17,-0.3040710687637329,-1.388881802558899,77.82821655273438,-0.24230299268781685,0.6562555877574704,89.51422913795862,-1.2242476,0.8153457,-0.52059084,15.27018,-15.123591,0.23474735,1.2292962,-2.1594787,-12.035566,10.925733,-14.152838,0.36268696,-1.6864929,1.9386902,2.4231281,16.155499,7.402813,-96.36171,48.465622,13.621113,-10.3604765,-5.049679,23.905863,-6.2341733,74.805595,45.790794,-24.123316,-15.5814705,6.8843527
18,-0.3532308042049408,-1.317874789237976,77.81494140625,-0.2598219621580773,0.6663502673362609,89.52835828940633,-1.2576832,0.7785414,-0.54359096,15.450689,-15.284504,0.33727172,1.2856618,-2.1898048,-12.05363,10.928451,-14.216942,0.4304329,-1.7306935,1.9854324,2.3723989,16.186592,7.405685,-96.313156,48.423164,13.59901,-10.349086,-5.0425305,23.918657,-6.236938,74.79662,45.798386,-24.295385,-15.710626,6.8481154
19,-0.40902531147003174,-1.2421293258666992,77.80341339111328,-0.2772034234886719,0.6786343169780251,89.54129647307995,-1.2732357,0.7378321,-0.5649919,15.596187,-15.432529,0.43362772,1.3402959,-2.2250798,-12.070279,10.93609,-14.281208,0.49580917,-1.7803512,2.0295494,2.3219147,16.218082,7.409737,-96.25186,48.37352,13.581836,-10.341963,-5.037774,23.926565,-6.2436,74.793076,45.797417,-24.45742,-15.8095,6.8359685
20,-0.4642409384250641,-1.1575145721435547,77.79072570800781,-0.2907141099044104,0.694076125423271,89.5535217861614,-1.268098,0.6918544,-0.585668,15.701183,-15.568717,0.5158912,1.3965683,-2.2656517,-12.084559,10.941381,-14.343186,0.56661856,-1.8148106,2.0683894,2.2713242,16.251074,7.413404,-96.20706,48.327007,13.558227,-10.337542,-5.031707,23.940683,-6.2511687,74.79376,45.78364,-24.550278,-15.786035,6.876562
21,-0.5240769982337952,-1.0703821182250977,77.78018188476562,-0.30106634215779854,0.7170151173376691,89.56525056288999,-1.238958,0.64194787,-0.60612863,15.750025,-15.689043,0.572489,1.4525248,-2.3099377,-12.09691,10.938029,-14.397381,0.64322233,-1.858301,2.1003568,2.220737,16.29719,7.421231,-96.13076,48.267475,13.54819,-10.338365,-5.0369544,23.955574,-6.267347,74.81351,45.751236,-24.524107,-15.545817,7.024155
22,-0.5864773392677307,-0.9823464155197144,77.77000427246094,-0.3105582759005606,0.7461992186633634,89.57598803281238,-1.1902294,0.5891608,-0.6256305,15.753687,-15.7963915,0.6105258,1.5082172,-2.3568385,-12.107388,10.928326,-14.44547,0.72188926,-1.8968868,2.1301906,2.1652062,16.350552,7.4302626,-96.052246,48.201668,13.537581,-10.343114,-5.0437727,23.97477,-6.284666,74.8384,45.706818,-24.423246,-15.160181,7.2424827
23,-0.6552274823188782,-0.8857889175415039,77.75923919677734,-0.31685527308582795,0.7722233078836743,89.58727278426403,-1.1258969,0.529289,-0.6451775,15.739227,-15.896193,0.65045726,1.5676764,-2.4117465,-12.116966,10.925837,-14.498137,0.80473727,-1.9138058,2.1561983,2.1149526,16.394192,7.4352393,-96.00644,48.148117,13.52033,-10.349353,-5.048472,23.995846,-6.2934914,74.85156,45.665577,-24.335724,-14.7921505,7.4483514
24,-0.7190936207771301,-0.7813466787338257,77.74620819091797,-0.31789470536715064,0.7857402583080888,89.60107989839418,-1.0494555,0.45797122,-0.6658817,15.733557,-15.994882,0.7127117,1.6370727,-2.4796472,-12.12708,10.940581,-14.564945,0.8939722,-1.9400308,2.1662424,2.083867,16.422567,7.45041,-95.954315,48.099495,13.515214,-10.355358,-5.059044,24.009035,-6.3205204,74.891335,45.61443,-24.334942,-14.602714,7.5609465
25,-0.788652777671814,-0.684181272983551,77.73434448242188,-0.3156102842437489,0.7773120469691818,89.61677730388449,-0.9520489,0.37516442,-0.6867128,15.741361,-16.090256,0.80951566,1.7360553,-2.558484,-12.137181,10.954013,-14.6392565,0.99092734,-1.9205806,2.1673684,2.075088,16.415493,7.4626293,-95.98915,48.084465,13.49228,-10.360996,-5.060134,24.024899,-6.3428893,74.90527,45.566864,-24.502188,-14.714489,7.527602
26,-0.8611594438552856,-0.5765368342399597,77.71966552734375,-0.30814758546972587,0.7541347707343272,89.6336841155188,-0.8356628,0.28309253,-0.70771724,15.751363,-16.181973,0.9276342,1.8558176,-2.646683,-12.14733,10.967035,-14.7186985,1.0942255,-1.8707838,2.1600537,2.0824826,16.385044,7.474,-96.078575,48.090748,13.460527,-10.366837,-5.0570173,24.043257,-6.363665,74.90518,45.518055,-24.775982,-15.013767,7.401831
27,-0.9506007432937622,-0.4675615131855011,77.70572662353516,-0.29585830790233253,0.7323600507314745,89.65368678438335,-0.7176849,0.17991914,-0.73125166,15.757445,-16.271997,1.0496883,1.9570645,-2.7505298,-12.157962,11.023519,-14.821134,1.2020699,-1.8081977,2.1489322,2.095428,16.344574,7.486068,-96.186775,48.101818,13.429728,-10.37043,-5.0553813,24.05934,-6.385221,74.89313,45.46894,-25.03983,-15.313911,7.262024
28,-1.0486953258514404,-0.3515293002128601,77.6907730102539,-0.2765359197145436,0.727678126997141,89.67938114416864,-0.6150575,0.063857675,-0.76036334,15.75401,-16.363,1.158301,1.9990791,-2.8765838,-12.170488,11.170665,-14.966033,1.3126004,-1.7777998,2.1338902,2.106079,16.315933,7.490907,-96.234474,48.10828,13.427601,-10.371588,-5.068897,24.05647,-6.3940926,74.89798,45.447384,-25.170525,-15.432209,7.189607
29,-1.1370227336883545,-0.24641525745391846,77.66954040527344,-0.2513274158251873,0.7486952618487916,89.7117193730854,-0.5355031,-0.061029464,-0.7942534,15.73647,-16.454363,1.2421148,1.977274,-3.0217106,-12.186148,11.397942,-15.150884,1.4274908,-1.7544783,2.1185458,2.1072578,16.294468,7.4940457,-96.25481,48.10726,13.440935,-10.36212,-5.097155,24.048004,-6.4000626,74.899025,45.41949,-25.084763,-15.242708,7.2205215
30,-1.2362183332443237,-0.13231363892555237,77.6488037109375,-0.2217819556689869,0.7848241051850458,89.75065920117504,-0.46976262,-0.19378898,-0.83355063,15.711881,-16.546555,1.3124576,1.9144627,-3.1821885,-12.205622,11.683278,-15.365642,1.5467229,-1.741398,2.1031876,2.1070054,16.276367,7.4977064,-96.252625,48.10161,13.472325,-10.346947,-5.137837,24.029545,-6.407348,74.90038,45.3953,-24.86334,-14.8728695,7.307441
31,-1.3377442359924316,-0.0161889661103487,77.62657165527344,-0.1805321733587278,0.8267227159129381,89.79092404334898,-0.40796918,-0.34711578,-0.8759618,15.682166,-16.638502,1.3870622,1.7951881,-3.3728967,-12.220841,12.079126,-15.629086,1.6667347,-1.7400217,2.080562,2.1067119,16.259172,7.502802,-96.23095,48.08606,13.509869,-10.332834,-5.175676,24.004713,-6.4189644,74.91137,45.380733,-24.634491,-14.497941,7.399916
32,-1.4472901821136475,0.09894025325775146,77.59623718261719,-0.11908559379101048,0.8646180040514293,89.82828539882921,-0.3411244,-0.5326167,-0.92081094,15.652021,-16.73044,1.4833779,1.607815,-3.6073372,-12.224872,12.630466,-15.955762,1.7837597,-1.7520205,2.045306,2.105251,16.244135,7.508898,-96.20201,48.055916,13.540455,-10.326066,-5.191847,23.977476,-6.4388814,74.9431,45.382824,-24.522621,-14.293768,7.44843
33,-1.5599383115768433,0.21633684635162354,77.56575775146484,-0.0408509292144311,0.8943768958970866,89.8651030072374,-0.27101353,-0.75119764,-0.9729372,15.635814,-16.82818,1.6105137,1.3519456,-3.888932,-12.218161,13.349225,-16.356092,1.8965069,-1.7600144,2.010634,2.097981,16.223125,7.51013,-96.204155,48.016026,13.551354,-10.333792,-5.1611853,23.95265,-6.4524183,74.968056,45.429596,-24.600677,-14.343256,7.4489083
34,-1.6891766786575317,0.3338891863822937,77.52847290039062,0.05709067442351368,0.9224311603223222,89.90234639244825,-0.19823013,-1.0013171,-1.0304177,15.618462,-16.924938,1.7583256,1.0295799,-4.2161713,-12.201097,14.215785,-16.821957,2.0068905,-1.7766004,1.965867,2.0854619,16.20196,7.5077963,-96.2135,47.968506,13.552475,-10.349022,-5.097456,23.927383,-6.471995,75.00791,45.49133,-24.781069,-14.534632,7.4222245
35,-1.818294644355774,0.44735851883888245,77.48782348632812,0.17372065140362622,0.9524848843092405,89.93379718230359,-0.120994195,-1.2785491,-1.08503,15.58911,-17.019312,1.913344,0.6439569,-4.580884,-12.168907,15.209118,-17.33091,2.1132116,-1.7870177,1.9067547,2.075241,16.182833,7.497889,-96.22358,47.923756,13.5445,-10.363473,-5.0407043,23.904827,-6.5048027,75.04932,45.549335,-24.981836,-14.775264,7.3669877
36,-1.948521614074707,0.5529383420944214,77.43787384033203,0.3126803774154695,0.9890372558296951,89.95339549086817,-0.03913484,-1.5812669,-1.1278445,15.5382185,-17.110512,2.0623288,0.19295038,-4.979176,-12.11581,16.317719,-17.868687,2.213882,-1.769411,1.822142,2.073394,16.165564,7.493199,-96.23271,47.877632,13.527744,-10.366105,-5.031675,23.883951,-6.5159297,75.07208,45.619198,-25.122528,-14.970546,7.282349
37,-2.0747170448303223,0.6662149429321289,77.38585662841797,0.48163353149884386,1.0384930544737996,89.95655849090099,0.049162254,-1.9221071,-1.1554812,15.447129,-17.191542,2.2058418,-0.3448972,-5.427704,-12.036406,17.566742,-18.457441,2.3063972,-1.7351156,1.694805,2.0767713,16.158375,7.474498,-96.22481,47.85447,13.488186,-10.351511,-5.0847807,23.86826,-6.555671,75.120926,45.638813,-25.166449,-15.129672,7.1180773
38,-2.2091331481933594,0.7899609208106995,77.32662200927734,0.6745806491726177,1.0960724902474395,89.94874408657157,0.14077361,-2.2932472,-1.1751993,15.335109,-17.270174,2.3485417,-0.95663744,-5.919879,-11.933554,18.941952,-19.091167,2.3886702,-1.678386,1.5449203,2.086533,16.152584,7.453061,-96.210655,47.83298,13.43537,-10.326916,-5.183916,23.8529,-6.5986304,75.15927,45.65187,-25.175793,-15.298255,6.8987436
39,-2.3563311100006104,0.9085329174995422,77.25735473632812,0.8819897752033973,1.1527813038038186,89.93452892530017,0.2452999,-2.6803799,-1.1878083,15.202624,-17.341963,2.4869206,-1.6165872,-6.436175,-11.805454,20.410952,-19.727865,2.4624262,-1.61466,1.374064,2.1042695,16.153275,7.435832,-96.19688,47.81124,13.38482,-10.297322,-5.292472,23.844229,-6.6332245,75.19815,45.66623,-25.14957,-15.402948,6.7042866
40,-2.4974098205566406,1.012514591217041,77.18636322021484,1.09411205476673,1.1998567256445478,89.919012510767,0.36703593,-3.0668743,-1.1945835,15.059933,-17.407753,2.6171823,-2.3012311,-6.955112,-11.6520605,21.949238,-20.326788,2.5299473,-1.5661012,1.1890486,2.1339889,16.165709,7.418019,-96.180916,47.79429,13.355091,-10.269044,-5.3764167,23.847998,-6.6710477,75.24982,45.66785,-25.087883,-15.371141,6.6186905
41,-2.6322479248046875,1.1170016527175903,77.11447143554688,1.3190823947130474,1.2441478404845738,89.90794074343786,0.49577236,-3.4643538,-1.1983297,14.90778,-17.465626,2.7395694,-2.9883096,-7.481688,-11.476544,23.506277,-20.918951,2.5978258,-1.5365068,0.97821087,2.1644175,16.195295,7.4044285,-96.16225,47.776882,13.355558,-10.243012,-5.4245543,23.870867,-6.704604,75.313774,45.65443,-24.961584,-15.0843725,6.712399
42,-2.7734694480895996,1.2400816679000854,77.03828430175781,1.5591106308108507,1.2874722882070566,89.89733309604796,0.6317114,-3.8755713,-1.1981567,14.743007,-17.51653,2.8556745,-3.697164,-8.023621,-11.276426,25.11058,-21.512562,2.6610756,-1.5303458,0.74109924,2.1985679,16.241972,7.385006,-96.12439,47.767174,13.378234,-10.216827,-5.4561534,23.910374,-6.7664914,75.40522,45.5981,-24.775797,-14.610795,6.9230986
43,-2.9065420627593994,1.3606661558151245,76.95832061767578,1.7921999287513768,1.312945747035082,89.87700583168021,0.8014263,-4.273989,-1.1889657,14.553949,-17.556562,2.9643788,-4.461694,-8.563082,-11.04326,26.848162,-22.029715,2.7044213,-1.5113974,0.50617176,2.2572393,16.287807,7.3764305,-96.10673,47.75365,13.40409,-10.189163,-5.481245,23.952263,-6.8038554,75.48248,45.56849,-24.603115,-14.168575,7.1374907
44,-3.0270702838897705,1.4831502437591553,76.88919067382812,1.9965292549902272,1.303504130963177,89.83673632712387,1.0327764,-4.633371,-1.1655911,14.326787,-17.580965,3.0647075,-5.3094234,-9.080023,-10.76953,28.794878,-22.389803,2.7121463,-1.4772333,0.29664743,2.3635776,16.324186,7.372564,-96.10797,47.745327,13.423746,-10.160614,-5.512209,23.98461,-6.8258276,75.54598,45.57767,-24.50083,-13.971787,7.2448897
45,-3.1551673412323,1.6217116117477417,76.82319641113281,2.168038845108621,1.2473717440386296,89.76482104660538,1.3493375,-4.9454527,-1.1203903,14.039557,-17.582851,3.1408339,-6.2446737,-9.570853,-10.448736,30.997028,-22.597488,2.6830707,-1.4300052,0.11793014,2.53334,16.34963,7.366935,-96.119965,47.745815,13.43207,-10.128854,-5.5504146,24.006275,-6.860184,75.616714,45.608932,-24.514338,-14.153837,7.188604
46,-3.2733089923858643,1.7230186462402344,76.77558898925781,2.316391076370544,1.1557718452877734,89.67006795530826,1.7280835,-5.224612,-1.0587018,13.710977,-17.569374,3.1987305,-7.2472596,-10.039819,-10.088425,33.395447,-22.68354,2.6254544,-1.3570127,-0.03519251,2.7553737,16.362381,7.365674,-96.14574,47.74794,13.443218,-10.096974,-5.5992165,24.018002,-6.866891,75.64892,45.690712,-24.619995,-14.582911,7.0479546
47,-3.4139838218688965,1.8611981868743896,76.71869659423828,2.452074382552907,1.0483971420766456,89.57102519914464,2.1409442,-5.4855676,-0.9930564,13.353943,-17.537907,3.2713208,-8.316913,-10.487567,-9.69687,35.922943,-22.604195,2.5377781,-1.2942076,-0.18680286,2.9942615,16.381828,7.3613605,-96.20081,47.767365,13.439507,-10.063005,-5.631805,24.035686,-6.889833,75.71698,45.75776,-24.693361,-15.040931,6.870755
48,-3.515953540802002,1.9753870964050293,76.68031311035156,2.579371120920464,0.9430140259234435,89.48909222368785,2.5463135,-5.7345443,-0.938154,13.01521,-17.503624,3.3898003,-9.451707,-10.910247,-9.286657,38.51396,-22.316553,2.4133453,-1.2619233,-0.33616534,3.232711,16.411484,7.358767,-96.24165,47.795605,13.456529,-10.036963,-5.6695976,24.055578,-6.906319,75.77459,45.822865,-24.671291,-15.339069,6.757136
49,-3.615346908569336,2.096738576889038,76.64720916748047,2.702778562628879,0.8491710345467295,89.43224359452373,2.9238358,-5.9766254,-0.8933137,12.712292,-17.46247,3.5897176,-10.66744,-11.316042,-8.851398,41.180367,-21.752249,2.31181,-1.2703491,-0.4928067,3.4602323,16.452631,7.358964,-96.27943,47.840847,13.496466,-10.021205,-5.7007837,24.070559,-6.912368,75.84655,45.891552,-24.502865,-15.385989,6.718152
50,-3.714778184890747,2.232907295227051,76.61512756347656,2.8187633536618955,0.7554328065500499,89.38881187097357,3.2975295,-6.206729,-0.85196185,12.422961,-17.411966,3.8447735,-11.960616,-11.704945,-8.388003,43.949356,-20.953516,2.2091563,-1.3176304,-0.65615684,3.686304,16.507671,7.3621454,-96.31533,47.899868,13.547412,-10.010695,-5.721896,24.082531,-6.914912,75.95773,45.963387,-24.229988,-15.295815,6.704712
51,-3.816284656524658,2.3874945640563965,76.57875061035156,2.9239488039976758,0.6483096848989056,89.34832698747074,3.7029788,-6.422419,-0.81808114,12.112087,-17.356756,4.0947165,-13.300995,-12.0698,-7.913162,46.78028,-20.043018,1.9754679,-1.3779354,-0.81692827,3.9254572,16.571081,7.3687134,-96.339676,47.958992,13.602719,-10.001489,-5.7537165,24.105158,-6.9113626,76.04693,46.031834,-23.924292,-15.18537,6.7201467
52,-3.923802375793457,2.546066999435425,76.54693603515625,3.01427940841001,0.5149274261170754,89.3010870349982,4.174258,-6.619978,-0.7970668,11.746257,-17.30192,4.2791634,-14.656229,-12.402696,-7.4512043,49.62752,-19.140022,1.4872587,-1.4266616,-0.96261436,4.190795,16.639008,7.3714027,-96.35106,48.010983,13.650175,-9.988579,-5.8119655,24.155384,-6.9089313,76.05863,46.080486,-23.652351,-15.168985,6.765146
53,-4.02165412902832,2.7102725505828857,76.51390075683594,3.0919596243488794,0.33742320748992743,89.23752759665281,4.7507777,-6.8049273,-0.79087245,11.28751,-17.240944,4.373684,-16.051895,-12.709177,-6.9958196,52.56503,-18.167456,0.6098612,-1.4439043,-1.1040623,4.4963984,16.717308,7.3892345,-96.36801,48.04382,13.671268,-9.968822,-5.901708,24.24985,-6.8900714,75.992424,46.110703,-23.429235,-15.296481,6.827755
54,-4.126493453979492,2.8711318969726562,76.47476959228516,3.1548135852112913,0.12743377305585726,89.16690712467872,5.403586,-6.9738717,-0.79874253,10.765636,-17.174751,4.412837,-17.48632,-12.995859,-6.56079,55.572014,-17.084427,-0.55555636,-1.4415488,-1.2324911,4.8393373,16.797174,7.4092584,-96.38203,48.07049,13.683356,-9.9480915,-6.021163,24.37248,-6.86816,75.843155,46.119976,-23.233076,-15.50488,6.9225945
55,-4.218133449554443,3.0438361167907715,76.4330062866211,3.2050773199817044,-0.08291203976578365,89.10226168810804,6.0706587,-7.123185,-0.81584543,10.229166,-17.108227,4.4271836,-18.896929,-13.264272,-6.179722,58.48349,-16.076334,-1.7723202,-1.4397074,-1.3455236,5.1734977,16.881468,7.4401827,-96.40279,48.078094,13.692001,-9.921561,-6.1407914,24.511478,-6.8344784,75.64615,46.133553,-23.02528,-15.720214,7.048126
56,-4.300312519073486,3.237544298171997,76.39617156982422,3.242291440720076,-0.2614035005381362,89.05640715749179,6.690882,-7.2480574,-0.83681977,9.725554,-17.046026,4.447142,-20.224602,-13.505851,-5.8697643,61.147762,-15.344762,-2.8002458,-1.4825104,-1.4446551,5.455697,16.977884,7.4706864,-96.40472,48.07061,13.713784,-9.886813,-6.2361827,24.645676,-6.801752,75.46134,46.1613,-22.762983,-15.867464,7.203111
57,-4.37856912612915,3.434821128845215,76.35758972167969,3.273180728562827,-0.4027622647121778,89.02978535516407,7.2521,-7.354823,-0.8547931,9.266206,-16.99007,4.479784,-21.459496,-13.745977,-5.645882,63.59465,-15.0085745,-3.606034,-1.5761418,-1.5354737,5.6760736,17.097876,7.5039077,-96.38468,48.03753,13.744126,-9.830464,-6.3124013,24.78437,-6.768519,75.27675,46.209347,-22.412277,-15.913182,7.405721
58,-4.435192584991455,3.6513044834136963,76.32099151611328,3.2957124365077743,-0.5229030417762892,89.01597249988585,7.78396,-7.4432025,-0.8728855,8.828329,-16.938522,4.5097065,-22.635756,-13.974792,-5.482214,65.901634,-14.951848,-4.303106,-1.7056271,-1.6174399,5.8568926,17.236202,7.5414853,-96.34645,47.982403,13.779682,-9.75819,-6.3792095,24.932259,-6.734304,75.07983,46.26626,-22.00111,-15.899993,7.649114
59,-4.49232292175293,3.867337226867676,76.29427337646484,3.2947417979256937,-0.6219269092312933,89.01640585495166,8.282442,-7.498484,-0.89872926,8.422181,-16.899454,4.533199,-23.762762,-14.121198,-5.3292947,67.99664,-15.0208235,-4.8629994,-1.8510656,-1.6761042,6.003986,17.364498,7.587587,-96.31398,47.9149,13.828056,-9.695306,-6.4171896,25.0677,-6.6949596,74.88263,46.335625,-21.59219,-15.871542,7.8980827
60,-4.562273025512695,4.092287063598633,76.27351379394531,3.2560244216471625,-0.6997085366048128,89.03264647108281,8.741405,-7.5056696,-0.9392751,8.06295,-16.883791,4.5462008,-24.848415,-14.111856,-5.1448574,69.8023,-15.056237,-5.253373,-1.9987859,-1.6977012,6.1237435,17.457,7.6322603,-96.30476,47.858707,13.897483,-9.667929,-6.406968,25.168833,-6.6554966,74.705986,46.410805,-21.245508,-15.87138,8.117853
61,-4.6161675453186035,4.342312335968018,76.26094818115234,3.171048197372345,-0.7534040186245938,89.06735974271501,9.155271,-7.4524856,-0.99831086,7.7546926,-16.891901,4.5443025,-25.89524,-13.886769,-4.8983636,71.3038,-15.045678,-5.4128747,-2.168258,-1.6736013,6.2090416,17.511204,7.6548505,-96.313194,47.834545,14.001261,-9.691849,-6.3272386,25.229877,-6.631132,74.56936,46.487015,-20.941938,-15.921199,8.315402
62,-4.645435810089111,4.593360424041748,76.24991607666016,3.0475839055024854,-0.7845264843907409,89.118193212499,9.532067,-7.349499,-1.0703118,7.4832172,-16.918163,4.530556,-26.899256,-13.490264,-4.624241,72.54519,-15.064074,-5.364704,-2.3371346,-1.6069555,6.260532,17.531925,7.683919,-96.35987,47.809483,14.125195,-9.748855,-6.1922956,25.262817,-6.5889587,74.42699,46.591404,-20.669712,-15.997707,8.506081
63,-4.687925815582275,4.838467121124268,76.24563598632812,2.9038776811031553,-0.7990782341071386,89.17916188199084,9.837946,-7.2180896,-1.1423016,7.3376327,-17.010033,4.5118923,-27.858665,-13.010226,-4.378215,73.53123,-15.079207,-5.2068276,-2.5111377,-1.524654,6.2956457,17.533926,7.6962595,-96.402054,47.807755,14.258638,-9.819655,-6.0402613,25.27436,-6.5629697,74.31511,46.675953,-20.467005,-16.067238,8.661947
64,-4.740360260009766,5.102440357208252,76.23936462402344,2.7477683458798494,-0.8034048096265808,89.24564285051594,10.080185,-7.0742154,-1.2083867,7.3202925,-17.174192,4.4955525,-28.772799,-12.534472,-4.2155437,74.26708,-15.058312,-5.03941,-2.637217,-1.4301066,6.332899,17.51108,7.705791,-96.47324,47.820286,14.3720255,-9.88264,-5.904786,25.278614,-6.53138,74.186165,46.735344,-20.397438,-16.10386,8.761345
65,-4.792573928833008,5.376702308654785,76.23049926757812,2.57602814033193,-0.7992338661153906,89.3204481853797,10.323587,-6.912368,-1.2794131,7.3020906,-17.346416,4.48282,-29.635872,-12.068487,-4.1479807,74.739365,-14.991554,-4.8643737,-2.7161229,-1.3261756,6.3788958,17.451788,7.7083077,-96.566956,47.86459,14.462571,-9.937427,-5.7934747,25.270775,-6.5057025,74.04576,46.747177,-20.52003,-16.086176,8.768117
66,-4.834445953369141,5.662642478942871,76.2197265625,2.3872580804177184,-0.7828817428833349,89.40435726648408,10.552946,-6.730762,-1.3555716,7.3046436,-17.535471,4.4704275,-30.45031,-11.579287,-4.1417646,74.944756,-14.895089,-4.6396275,-2.7571278,-1.2084153,6.423165,17.358566,7.703654,-96.68872,47.93461,14.539858,-9.993304,-5.6873336,25.250288,-6.48527,73.89404,46.722675,-20.79278,-16.034399,8.706281
67,-4.874180793762207,5.953039646148682,76.20989990234375,2.1963089443785946,-0.7529203157347555,89.49132595107476,10.769607,-6.5419607,-1.4308573,7.315563,-17.727064,4.45894,-31.22917,-11.095645,-4.1885977,74.90775,-14.775483,-4.404953,-2.7814023,-1.0830029,6.4571204,17.265665,7.6920586,-96.81183,48.003117,14.612538,-10.045296,-5.586295,25.221815,-6.4700775,73.75852,46.68855,-21.101746,-15.97845,8.634582
68,-4.909872531890869,6.24707555770874,76.19608306884766,2.017727444743121,-0.708876253713969,89.5739464870038,10.970701,-6.36245,-1.4971882,7.334197,-17.914207,4.448984,-31.984018,-10.647278,-4.276931,74.651276,-14.637153,-4.199698,-2.8277612,-0.9669594,6.4724536,17.211655,7.6818376,-96.88165,48.033386,14.696869,-10.088233,-5.493224,25.181124,-6.4652853,73.6939,46.66886,-21.325964,-15.947517,8.609276
69,-4.947080612182617,6.551093101501465,76.17938232421875,1.8543785425237969,-0.6470906178730812,89.65130839168982,11.133594,-6.191795,-1.5507219,7.400099,-18.11338,4.442802,-32.719475,-10.238282,-4.4108706,74.16194,-14.478296,-4.031241,-2.8899026,-0.84888923,6.4612164,17.203997,7.671988,-96.91379,48.00901,14.810084,-10.116476,-5.402132,25.129818,-6.465687,73.690575,46.679802,-21.451353,-15.979962,8.652759
70,-4.967305660247803,6.8604936599731445,76.15951538085938,1.6979938014877944,-0.5692567465828466,89.72625211409702,11.261309,-6.0239296,-1.5952215,7.5137925,-18.329805,4.439353,-33.42627,-9.856103,-4.591539,73.430336,-14.296125,-3.881951,-2.955802,-0.73031104,6.4291716,17.224575,7.6576457,-96.92289,47.95996,14.937176,-10.135881,-5.311466,25.06854,-6.47299,73.73989,46.70267,-21.532047,-16.048744,8.728771
71,-4.9851765632629395,7.17290735244751,76.13640594482422,1.553456629855269,-0.48223226211170395,89.79938628575594,11.388923,-5.8653092,-1.636381,7.615476,-18.537348,4.434698,-34.096054,-9.505202,-4.805118,72.49051,-14.096451,-3.7519832,-3.024922,-0.6240266,6.3912573,17.262743,7.640478,-96.89642,47.89977,15.044397,-10.152955,-5.235079,25.00268,-6.4897423,73.82932,46.717136,-21.571138,-16.091743,8.820688
72,-5.004112243652344,7.493870735168457,76.11028289794922,1.4229459375068925,-0.39290122454443427,89.87043731189371,11.52653,-5.722026,-1.6760486,7.6981583,-18.738083,4.4246683,-34.720146,-9.1880865,-5.0378113,71.37594,-13.884644,-3.6405838,-3.0701046,-0.5367876,6.3621755,17.299818,7.6229568,-96.85869,47.85091,15.084061,-10.17576,-5.1802893,24.947918,-6.5150146,73.91827,46.697193,-21.578789,-16.047495,8.91214
73,-5.014642238616943,7.8226470947265625,76.07382202148438,1.3096021983678865,-0.3036172899044255,89.94125538828511,11.675947,-5.595471,-1.7146938,7.7610707,-18.933788,4.4081674,-35.29844,-8.912436,-5.2952085,70.08228,-13.672929,-3.564446,-3.075417,-0.4720829,6.34843,17.330862,7.6070743,-96.82284,47.817707,15.031656,-10.208928,-5.150882,24.90921,-6.548109,73.99737,46.627296,-21.547098,-15.859483,8.999689
74,-5.033068656921387,8.14100456237793,76.0391845703125,1.208883374245417,-0.21059857919042987,90.01132621502703,11.831377,-5.482376,-1.7509983,7.8093605,-19.123672,4.387586,-35.83195,-8.672873,-5.581233,68.5939,-13.454518,-3.517156,-3.055357,-0.42437387,6.3414226,17.364386,7.5912,-96.77854,47.78878,14.914849,-10.247476,-5.14152,24.881622,-6.600407,74.08387,46.511673,-21.475433,-15.573374,9.092533
75,-5.052610397338867,8.472696304321289,75.99781036376953,1.1207513532857718,-0.11124339497343999,90.07725787678534,11.992682,-5.381322,-1.7848767,7.8419137,-19.306078,4.3638473,-36.313885,-8.452608,-5.8824105,66.92672,-13.207417,-3.467985,-3.0157394,-0.38443026,6.3323064,17.398571,7.5829787,-96.730446,47.754387,14.760439,-10.284246,-5.145182,24.861843,-6.6505637,74.15952,46.39237,-21.38975,-15.283369,9.192002
76,-5.071476936340332,8.809925079345703,75.95420837402344,1.0421019612213696,-0.003165132630843474,90.13571964417956,12.157396,-5.2914815,-1.8160456,7.8637486,-19.482826,4.337911,-36.737915,-8.234886,-6.1850443,65.09544,-12.908771,-3.3863735,-2.970294,-0.34512925,6.3121986,17.434721,7.5807137,-96.673744,47.713047,14.597545,-10.312741,-5.155305,24.844997,-6.6861954,74.215805,46.306416,-21.313257,-15.083232,9.299566
77,-5.0793890953063965,9.14968490600586,75.90491485595703,0.9735710277159464,0.11507085209661856,90.18149819881928,12.323997,-5.21211,-1.8438343,7.8724337,-19.654703,4.3089437,-37.101048,-8.012591,-6.4906964,63.075523,-12.540375,-3.2542622,-2.928451,-0.30612907,6.280661,17.47941,7.5813236,-96.585045,47.662907,14.420238,-10.332379,-5.18116,24.832035,-6.7227354,74.26719,46.243214,-21.23462,-15.007368,9.427875
78,-5.087456703186035,9.501543998718262,75.84968566894531,0.9142498004182718,0.24186061726261182,90.21792979601825,12.493935,-5.1443563,-1.8687403,7.867422,-19.821358,4.2770863,-37.403454,-7.791759,-6.8054357,60.86279,-12.11625,-3.089365,-2.891768,-0.2733986,6.242346,17.532408,7.5864067,-96.45949,47.60311,14.221903,-10.346495,-5.2242284,24.82533,-6.7803087,74.32553,46.172977,-21.143501,-15.00145,9.572416
79,-5.0894083976745605,9.863137245178223,75.79042053222656,0.8677456528302078,0.3744521160414034,90.2550450755828,12.669777,-5.088603,-1.8926526,7.853339,-19.980066,4.2444687,-37.643005,-7.5760956,-7.12262,58.500053,-11.660675,-2.9152384,-2.8426144,-0.24471377,6.1953516,17.581318,7.5923057,-96.350136,47.54864,14.0208235,-10.354043,-5.2615767,24.82525,-6.8182735,74.3563,46.128315,-21.070017,-15.027233,9.709523
80,-5.096522331237793,10.228251457214355,75.72940826416016,0.8348207440102994,0.5106114079251755,90.30252860260114,12.853954,-5.045564,-1.9173892,7.8350744,-20.128506,4.212951,-37.819195,-7.3709893,-7.434989,56.03119,-11.199099,-2.7561426,-2.80174,-0.22899131,6.139463,17.622677,7.5985527,-96.25562,47.505924,13.850927,-10.355305,-5.276216,24.827398,-6.8483086,74.373314,46.10186,-21.030794,-15.042487,9.813628
81,-5.097396373748779,10.609969139099121,75.66104888916016,0.8158378692110555,0.6483206335053837,90.35871853752097,13.052919,-5.01518,-1.9405153,7.80586,-20.266745,4.1818395,-37.92599,-7.1669545,-7.7329903,53.43335,-10.731868,-2.6193125,-2.7703753,-0.22476207,6.075025,17.658653,7.605421,-96.17101,47.47611,13.753122,-10.34787,-5.267188,24.834911,-6.875499,74.37616,46.096363,-21.039293,-15.044654,9.86996
82,-5.0961384773254395,11.0052490234375,75.58670806884766,0.8096075461029295,0.7890358239978177,90.42047448776133,13.26318,-4.997501,-1.9627271,7.7671633,-20.39649,4.150281,-37.96268,-6.963713,-8.023036,50.688362,-10.2431345,-2.491057,-2.7424562,-0.2298159,6.0025434,17.691326,7.6121583,-96.094406,47.45679,13.700169,-10.332658,-5.2426486,24.849144,-6.8971286,74.362885,46.110584,-21.082312,-15.053079,9.8947315
83,-5.096015453338623,11.416093826293945,75.5099105834961,0.8187647582669751,0.934956680541361,90.4954495504736,13.477984,-4.9941707,-1.9904828,7.7222643,-20.510345,4.1201344,-37.9359,-6.7812676,-8.321267,47.84209,-9.738208,-2.3642478,-2.7168567,-0.24987568,5.9203596,17.713928,7.614718,-96.04824,47.451496,13.615825,-10.31405,-5.1956167,24.866673,-6.9039793,74.33427,46.135735,-21.139454,-15.0587225,9.907744
84,-5.087584018707275,11.821098327636719,75.43363952636719,0.8464357183474199,1.0881230577392464,90.59119794017069,13.69125,-5.006669,-2.0305474,7.6736026,-20.599586,4.093435,-37.85251,-6.638128,-8.644885,44.939846,-9.220773,-2.230734,-2.7085915,-0.29339978,5.8308287,17.72116,7.6164675,-96.022606,47.453075,13.437255,-10.297911,-5.126984,24.881205,-6.9082174,74.30017,46.143845,-21.190676,-15.053297,9.933741
85,-5.074944496154785,12.239374160766602,75.3555679321289,0.8991767635049944,1.2474551360387856,90.71498449668657,13.902253,-5.042187,-2.087155,7.621695,-20.660324,4.0740833,-37.701595,-6.550439,-9.011039,41.954037,-8.679214,-2.0757802,-2.7170877,-0.37177777,5.7381234,17.701271,7.617254,-96.03106,47.472767,13.181217,-10.280405,-5.043044,24.893427,-6.9108386,74.25098,46.11889,-21.21703,-14.957261,10.001588
86,-5.06837272644043,12.676298141479492,75.2712173461914,0.9743428394521331,1.4110012136065258,90.86279023845523,14.119214,-5.098303,-2.158221,7.5569935,-20.692814,4.0600758,-37.477547,-6.4997845,-9.409569,38.858826,-8.107438,-1.9040986,-2.7193422,-0.47195378,5.6410213,17.654608,7.6164193,-96.09955,47.511417,12.861116,-10.260043,-4.936992,24.915915,-6.9116106,74.16191,46.06692,-21.23973,-14.801526,10.092799
87,-5.0499091148376465,13.123008728027344,75.18309020996094,1.062822868000552,1.5790985808931604,91.02458286301187,14.337625,-5.165315,-2.2388945,7.4936247,-20.711412,4.044839,-37.19873,-6.457225,-9.813099,35.70971,-7.5224113,-1.7377969,-2.7283914,-0.5799955,5.533782,17.605492,7.612734,-96.193665,47.544903,12.426614,-10.247488,-4.798457,24.940456,-6.9093375,74.064095,46.01566,-21.288704,-14.741602,10.158398
88,-5.036330699920654,13.570255279541016,75.09696197509766,1.1572874392349213,1.7520050261118143,91.18965930472801,14.552296,-5.23433,-2.323515,7.4501853,-20.732601,4.0218863,-36.88625,-6.3982434,-10.191739,32.568417,-6.9455285,-1.6018689,-2.759978,-0.68268454,5.4124885,17.576448,7.6082234,-96.26836,47.54486,11.830672,-10.25462,-4.6204696,24.958767,-6.907694,73.99101,45.985054,-21.39586,-14.933424,10.152371
89,-5.023449897766113,14.037606239318848,75.00782012939453,1.25561315447328,1.934274690124196,91.35433720834745,14.750831,-5.3057857,-2.405583,7.4451194,-20.776222,3.990618,-36.53856,-6.322606,-10.545588,29.408915,-6.3821583,-1.4991924,-2.7984433,-0.7646411,5.269769,17.564465,7.600419,-96.3541,47.499355,10.869381,-10.302781,-4.33907,24.976986,-6.9094963,73.915474,45.986095,-21.636066,-15.572063,10.013796
90,-5.004034996032715,14.523463249206543,74.91130065917969,1.3680709333818226,2.120355477776448,91.52989408473316,14.955706,-5.388096,-2.4967558,7.4379067,-20.813553,3.9551291,-36.13807,-6.2506537,-10.888179,26.198866,-5.8153753,-1.4185572,-2.863412,-0.8464969,5.1137443,17.564388,7.5910225,-96.43668,47.421883,9.63872,-10.385343,-3.9831586,24.991581,-6.9168067,73.85335,46.00265,-21.969732,-16.521193,9.776887
91,-4.9772467613220215,15.029714584350586,74.80614471435547,1.4986417016727251,2.295859515814633,91.72809336602816,15.181691,-5.484229,-2.615611,7.428088,-20.827156,3.9153917,-35.687008,-6.192964,-11.20925,23.004667,-5.240519,-1.3664501,-2.9529953,-0.9463439,4.9629564,17.577093,7.583528,-96.50585,47.333332,8.512519,-10.46481,-3.671258,25.005154,-6.9265847,73.805176,46.01141,-22.276472,-17.444939,9.55071
92,-4.948147296905518,15.53071403503418,74.70243835449219,1.6510496599091753,2.4477337796363474,91.95899595271864,15.441484,-5.59541,-2.7790596,7.4170866,-20.80081,3.8712673,-35.197895,-6.1606207,-11.498089,19.911732,-4.661383,-1.3501418,-3.0455606,-1.072968,4.8347588,17.598724,7.5754356,-96.58155,47.260902,7.8551946,-10.495762,-3.514555,25.028511,-6.943562,73.74897,45.972767,-22.433275,-18.009718,9.455866
93,-4.919599533081055,16.049530029296875,74.60037994384766,1.8268303029061914,2.578199865930307,92.22880286838938,15.7335005,-5.725078,-2.9953382,7.402305,-20.733513,3.8223884,-34.67685,-6.162072,-11.745434,16.908268,-4.086093,-1.4269259,-3.1603732,-1.2433925,4.725056,17.643845,7.5728855,-96.6305,47.20299,7.9141226,-10.443705,-3.59654,25.06367,-6.9577847,73.70722,45.886223,-22.346941,-18.040907,9.559852
94,-4.910438537597656,16.58578872680664,74.49742889404297,2.025878634284776,2.691728882292305,92.53202591159051,16.052803,-5.8716326,-3.2557876,7.385924,-20.634117,3.7688806,-34.12867,-6.1993246,-11.959692,13.986023,-3.5229204,-1.577482,-3.2890866,-1.4438576,4.627548,17.705975,7.5748305,-96.67506,47.148247,8.439681,-10.338208,-3.8366485,25.108406,-6.9743257,73.66542,45.76189,-22.105303,-17.745714,9.790432
95,-4.904936790466309,17.134654998779297,74.3941421508789,2.2419404747360927,2.781113341500944,92.85559304304344,16.405172,-6.026288,-3.546511,7.3679748,-20.49448,3.7103245,-33.548897,-6.260706,-12.157863,11.197995,-2.9611325,-1.6942873,-3.427433,-1.6595678,4.553553,17.766499,7.584216,-96.716415,47.091167,9.079947,-10.225843,-4.114694,25.15043,-6.999302,73.629776,45.61431,-21.835052,-17.360771,10.054909
96,-4.8378472328186035,17.728147506713867,74.28414154052734,2.467635858437254,2.84091835448229,93.18505862150204,16.795088,-6.1777954,-3.852039,7.3479137,-20.306248,3.645671,-32.906475,-6.322507,-12.359723,8.536108,-2.3570814,-1.6684643,-3.5835896,-1.8760669,4.5108747,17.813683,7.5978584,-96.74073,47.030285,9.48707,-10.14881,-4.3099537,25.170277,-7.024237,73.624596,45.48075,-21.654156,-17.125559,10.260596
97,-4.813582420349121,18.30723762512207,74.17804718017578,2.7048596674186682,2.87057819645039,93.52764610930889,17.221628,-6.329244,-4.1804695,7.326297,-20.073166,3.5771701,-32.62823,-6.483443,-12.542885,6.9139414,-2.2034152,-1.404395,-3.7621043,-2.088687,4.50456,17.838902,7.6074104,-96.75118,46.971188,9.545695,-10.122831,-4.3932166,25.157475,-7.039596,73.640686,45.379932,-21.604227,-17.115618,10.40144
98,-4.76291561126709,18.89720344543457,74.07673645019531,2.950458510732878,2.8791961742090693,93.87851264225036,17.67634,-6.477181,-4.5264635,7.302879,-19.798082,3.5019631,-32.961666,-6.79524,-12.658407,6.82296,-2.7758732,-0.980707,-3.954669,-2.3010495,4.5217366,17.852793,7.6222296,-96.7499,46.90371,9.447129,-10.119831,-4.4251165,25.12737,-7.061565,73.68524,45.27321,-21.610954,-17.194727,10.518858
99,-4.711617946624756,19.495759963989258,73.98656463623047,3.175453235599337,2.881004573243354,94.19889904182806,18.147003,-6.594401,-4.846096,7.279525,-19.474754,3.4100301,-33.210026,-7.0523953,-12.73809,6.757399,-3.236376,-0.55363524,-4.130404,-2.494949,4.5440803,17.865938,7.6495953,-96.72452,46.826427,9.309404,-10.12181,-4.426878,25.085701,-7.1002445,73.76718,45.15838,-21.634096,-17.30118,10.601295
100,-4.663110733032227,20.11566162109375,73.90524291992188,3.3557008944673568,2.8890959047339257,94.44935048907105,18.621706,-6.6565714,-5.0945406,7.2590685,-19.09753,3.292144,-33.37036,-7.2067065,-12.734877,6.71622,-3.547907,-0.27379522,-4.2359247,-2.6480749,4.556842,17.882427,7.687006,-96.69164,46.752205,9.241514,-10.114099,-4.4163337,25.039785,-7.149908,73.86675,45.04131,-21.64182,-17.37813,10.639458
101,-4.607325553894043,20.73980712890625,73.83206939697266,3.483247396203289,2.9040715979512655,94.61892806772933,19.102287,-6.6581783,-5.260166,7.240778,-18.675797,3.143612,-33.439472,-7.2377887,-12.602434,6.696283,-3.67907,-0.15775223,-4.2328176,-2.7557383,4.5677137,17.896704,7.712523,-96.67445,46.715565,9.258968,-10.092247,-4.376471,24.9895,-7.1792884,73.96678,44.94491,-21.637089,-17.40944,10.601015
102,-4.547985553741455,21.384403228759766,73.76862335205078,3.569803734143072,2.922404904096457,94.72557339089344,19.591465,-6.613103,-5.361791,7.2237945,-18.210154,2.9690702,-33.41748,-7.1677384,-12.37737,6.692574,-3.655205,-0.1337195,-4.1692176,-2.8318594,4.577918,17.91326,7.745184,-96.63911,46.684265,9.313251,-10.061934,-4.306063,24.928354,-7.210673,74.1049,44.84982,-21.625425,-17.422134,10.498276
103,-4.4897332191467285,22.05426025390625,73.72200012207031,3.618653686336865,2.95036399217919,94.77546588993397,20.081186,-6.5278316,-5.402203,7.207058,-17.678064,2.7739372,-33.30615,-7.01598,-12.137472,6.703853,-3.5236151,-0.21943687,-4.0615587,-2.8669107,4.568968,17.9359,7.7787185,-96.598274,46.65418,9.392818,-10.030781,-4.2403607,24.860188,-7.2382326,74.25248,44.776524,-21.607866,-17.436296,10.395135
104,-4.43028450012207,22.74561309814453,73.67889404296875,3.6328302313131773,2.9938971360411726,94.77485337002346,20.563526,-6.4078946,-5.3849735,7.1885047,-17.056705,2.5636284,-33.107777,-6.8015814,-11.960376,6.728205,-3.3314188,-0.4329792,-3.953738,-2.8589456,4.5189137,17.977661,7.8214746,-96.53128,46.59828,9.495142,-10.00172,-4.2161555,24.783878,-7.2714763,74.423035,44.731766,-21.57179,-17.4645,10.350638
105,-4.3887939453125,23.46343421936035,73.64812469482422,3.6098629130392936,3.0348679534206258,94.70960124192727,21.065353,-6.2556963,-5.2939267,7.1714115,-16.357014,2.3440518,-32.763485,-6.5141087,-11.875717,6.7785254,-3.1444705,-0.7949287,-3.839734,-2.790481,4.4366336,18.056314,7.8581185,-96.44602,46.52533,9.685567,-9.972628,-4.273089,24.701002,-7.3025255,74.61829,44.741444,-21.52082,-17.519438,10.379597
106,-4.3082075119018555,24.201526641845703,73.62657928466797,3.547444659010437,3.0720158110234577,94.58532895951623,21.587301,-6.069259,-5.1368804,7.1544185,-15.585017,2.1110713,-32.289772,-6.1543465,-11.836206,6.8572164,-2.9241452,-1.2917302,-3.7165499,-2.6712227,4.3321524,18.163336,7.8899584,-96.3352,46.442738,9.946636,-9.94279,-4.382738,24.608227,-7.3355417,74.84775,44.791817,-21.454676,-17.589605,10.448578
107,-4.211588382720947,24.943782806396484,73.63363647460938,3.4557601155074003,3.135991175679664,94.44049570108926,21.963085,-5.8597794,-4.9445753,7.3841343,-14.84562,1.8549249,-31.801844,-5.759716,-11.80825,6.949468,-2.5625024,-1.8893056,-3.585628,-2.5260053,4.1900277,18.260925,7.9195724,-96.22144,46.36133,10.13558,-9.920468,-4.4734325,24.516422,-7.3737564,75.06326,44.835854,-21.376749,-17.65813,10.555687
108,-4.148782253265381,25.724288940429688,73.64639282226562,3.346514449062677,3.2604830500015787,94.31216592122608,22.159058,-5.6282206,-4.7624197,7.819231,-14.091428,1.5648139,-32.191444,-5.532315,-11.688161,8.707808,-2.8294957,-2.545276,-3.4279249,-2.3768108,3.9933057,18.304672,7.942778,-96.15403,46.301235,10.101426,-9.91362,-4.470726,24.435307,-7.407496,75.18787,44.842136,-21.297962,-17.71066,10.700497
109,-4.050168991088867,26.536014556884766,73.6663818359375,3.2021433868162474,3.4908181966670435,94.22192281670709,22.057222,-5.3520384,-4.5933394,8.600694,-13.401599,1.222044,-32.825844,-5.316962,-11.590132,10.601644,-2.7703664,-3.3683836,-3.2480183,-2.2210054,3.7024994,18.281229,7.9496174,-96.1398,46.285404,9.670461,-9.938317,-4.3100553,24.372128,-7.4159107,75.175865,44.80585,-21.146917,-17.737389,10.951234
110,-3.976396083831787,27.338716506958008,73.72193908691406,3.013798638243335,3.7980888202953333,94.16596298989859,21.71253,-5.0211334,-4.4401493,9.696662,-12.768592,0.8327973,-33.527927,-5.0837297,-11.562673,12.419247,-2.3619022,-4.3386483,-3.0591674,-2.0341105,3.3386393,18.207495,7.96926,-96.16853,46.26993,8.966732,-9.986013,-4.0470953,24.33105,-7.430044,75.05287,44.716717,-20.949673,-17.74724,11.291187
111,-3.879445791244507,28.126970291137695,73.80496978759766,2.80603918669021,4.113002122548819,94.13435395287885,21.289537,-4.6647773,-4.332479,10.914471,-12.068643,0.4220928,-34.18526,-4.8466997,-11.5660515,14.136977,-1.8483711,-5.2342014,-2.898756,-1.8267674,2.9577763,18.111998,7.9816546,-96.20946,46.2604,8.292107,-10.030952,-3.784969,24.27721,-7.433607,74.93919,44.64059,-20.837175,-17.754938,11.568509
112,-3.785224676132202,28.932174682617188,73.88868713378906,2.5827700299733727,4.3705268092739855,94.11642524111416,20.854616,-4.299605,-4.2845745,12.259094,-11.287079,0.013057383,-34.693897,-4.597408,-11.555165,15.740698,-1.4798535,-5.837853,-2.7497592,-1.5720587,2.620353,18.000444,7.9932327,-96.28905,46.22914,7.936319,-10.039572,-3.62638,24.199713,-7.435766,74.87388,44.601604,-20.966188,-17.779737,11.647846
113,-3.7124178409576416,29.752958297729492,73.96678161621094,2.344258889325733,4.567630546238207,94.10177360971088,20.434593,-3.9253433,-4.2945776,13.6898575,-10.393341,-0.37572438,-35.079857,-4.3240275,-11.463084,17.31014,-1.347104,-6.0607905,-2.6356514,-1.2639534,2.3159199,17.881977,7.9976053,-96.38094,46.16189,8.087119,-9.971786,-3.6292448,24.081682,-7.441155,74.900826,44.627415,-21.439957,-17.848003,11.438961
114,-3.628257989883423,30.593753814697266,74.05149841308594,2.080491662256558,4.740125824356361,94.08886776662897,19.99919,-3.5290947,-4.3500557,15.189997,-9.391445,-0.7687086,-35.40565,-4.02034,-11.318867,18.869999,-1.3322732,-6.0312514,-2.536749,-0.90481114,2.016788,17.74714,7.994568,-96.49181,46.07324,8.549898,-9.854399,-3.7280178,23.938274,-7.453209,74.97836,44.68665,-22.15826,-17.938643,11.032574
115,-3.538051128387451,31.461679458618164,74.1327896118164,1.7929496652922683,4.881325586290625,94.07546499590006,19.55026,-3.1230865,-4.446641,16.756035,-8.288685,-1.1985906,-35.61028,-3.6926548,-11.198407,20.303038,-1.3773127,-5.857942,-2.4482722,-0.51927876,1.7494353,17.605835,7.979968,-96.60318,46.001534,9.065423,-9.755904,-3.8433924,23.773617,-7.4807086,75.13056,44.738476,-22.932718,-17.997026,10.549807
116,-3.4441041946411133,32.355438232421875,74.2170181274414,1.4909295410839767,4.982148282439505,94.06047930011879,19.089115,-2.7223468,-4.582575,18.388725,-7.0933514,-1.6908147,-35.626522,-3.351572,-11.175812,21.482378,-1.4180987,-5.649025,-2.3870082,-0.14000015,1.5470088,17.471952,7.946346,-96.6618,45.986904,9.387085,-9.744307,-3.9025586,23.581964,-7.5373764,75.39548,44.742367,-23.572687,-17.974398,10.116813
117,-3.3486218452453613,33.246246337890625,74.3038558959961,1.1721386248504657,5.025046186211003,94.03333301999358,18.655375,-2.327604,-4.7841268,20.052532,-5.7987795,-2.2854893,-35.411247,-3.0016153,-11.28275,22.367025,-1.4390539,-5.3577223,-2.3341036,0.23043784,1.4381789,17.339634,7.906251,-96.65717,46.03859,9.451192,-9.855587,-3.8794773,23.342117,-7.6093316,75.8198,44.704384,-24.097095,-17.857286,9.7368145
118,-3.2507729530334473,34.100303649902344,74.40737915039062,0.8390481470440594,5.019417921950277,93.99158662297572,18.231842,-1.9365886,-5.0431757,21.762342,-4.4049754,-2.9453936,-35.01601,-2.6364443,-11.462909,23.041155,-1.4809531,-4.9523735,-2.278614,0.6022641,1.398892,17.203274,7.87106,-96.61967,46.124607,9.389081,-10.046694,-3.8159978,23.06343,-7.680532,76.36494,44.653023,-24.585262,-17.673607,9.355518
119,-3.1533923149108887,34.954261779785156,74.51856994628906,0.5058496667205297,4.994564278791102,93.94979034151925,17.727203,-1.5612624,-5.308267,23.61367,-2.9318511,-3.579528,-34.50896,-2.253108,-11.660801,23.553467,-1.5570369,-4.562347,-2.2620041,0.96073276,1.382981,17.079609,7.830131,-96.55295,46.2225,9.24416,-10.26558,-3.7391276,22.795403,-7.774067,76.95439,44.572742,-24.930386,-17.440697,9.010018
120,-3.052830934524536,35.80620574951172,74.640380859375,0.18854333920604535,4.979573100280051,93.92352236112697,17.063524,-1.2131622,-5.525556,25.679516,-1.3905725,-4.1040287,-33.95774,-1.8482587,-11.823132,23.95178,-1.6805539,-4.315969,-2.275791,1.3011813,1.3455697,16.970285,7.7948327,-96.52345,46.29288,9.045442,-10.458529,-3.6703885,22.590797,-7.869483,77.44555,44.48359,-25.044937,-17.18321,8.73992
121,-2.933851718902588,36.682373046875,74.77336120605469,-0.10863416787277289,4.9872816122867825,93.89387440551742,16.227875,-0.90903515,-5.655019,27.98165,0.22398652,-4.443677,-33.35686,-1.4019961,-11.914074,24.195642,-1.8343236,-4.2384667,-2.326339,1.6186194,1.2572833,16.903019,7.770074,-96.515465,46.322403,8.737806,-10.630337,-3.6201277,22.46094,-7.9617863,77.84504,44.394238,-24.827888,-16.896173,8.556005
122,-2.818077802658081,37.541683197021484,74.90995788574219,-0.39095603848290783,4.999613580630158,93.85965457953225,15.265646,-0.6366512,-5.728277,30.467188,1.9247679,-4.659477,-32.678776,-0.9209704,-11.966418,24.278269,-2.0160522,-4.2641063,-2.4016302,1.9169738,1.1491383,16.863771,7.7599373,-96.51936,46.324184,8.32359,-10.80285,-3.5750284,22.378687,-8.044957,78.197266,44.309265,-24.357555,-16.574203,8.433992
123,-2.7105395793914795,38.391029357910156,75.06013488769531,-0.6651479260333669,4.998644466920187,93.86330131356578,14.190704,-0.37126535,-5.804798,33.095608,3.7111938,-4.883753,-31.947737,-0.44167614,-12.031249,24.279512,-2.2606468,-4.3848658,-2.4885082,2.2009664,1.0681831,16.798872,7.7627273,-96.58234,46.307316,7.9246097,-10.948913,-3.5241814,22.326323,-8.088974,78.44521,44.251453,-23.810326,-16.240082,8.358248
124,-2.608124017715454,39.222164154052734,75.20731353759766,-0.9367377867805197,4.966792215426661,93.9471968570416,13.0128565,-0.09899666,-5.9526505,35.84061,5.5780625,-5.257294,-31.188568,-0.0035118673,-12.158272,24.28395,-2.6046267,-4.5910835,-2.6194866,2.466484,1.0617596,16.669458,7.7726045,-96.70007,46.279655,7.673745,-11.040823,-3.4564438,22.286842,-8.130116,78.59745,44.18136,-23.341156,-15.907525,8.30937
125,-2.4929463863372803,40.03506088256836,75.34565734863281,-1.21126206186108,4.896985073321187,94.162590180223,11.6869,0.17725582,-6.2185745,38.80168,7.543696,-5.8474765,-30.400381,0.36834285,-12.382598,24.31775,-3.0932572,-4.933523,-2.795464,2.721826,1.163658,16.419752,7.8018336,-96.95345,46.219944,7.616567,-11.037708,-3.3632643,22.268042,-8.189433,78.56356,44.054176,-22.948202,-15.524874,8.3299
126,-2.3595292568206787,40.831626892089844,75.48969268798828,-1.4794957479576392,4.798742539793392,94.47188177477592,10.227145,0.42093825,-6.5710335,41.966393,9.597352,-6.5938573,-29.57206,0.6940774,-12.660567,24.342566,-3.7006898,-5.3951826,-3.0045748,2.9579074,1.3449378,16.087082,7.8455186,-97.31076,46.134632,7.681373,-10.965684,-3.2539387,22.27215,-8.2299385,78.37241,43.91863,-22.56391,-15.103185,8.413288
127,-2.2770817279815674,41.512088775634766,75.62975311279297,-1.7277198151974442,4.679905744871436,94.78537535991136,8.726995,0.5947315,-6.962137,45.155663,11.678803,-7.448973,-28.71063,1.004396,-12.927808,24.336905,-4.355352,-5.865487,-3.1958625,3.1639245,1.5553601,15.7497225,7.8959756,-97.69074,46.050724,7.8001747,-10.895129,-3.1319733,22.296003,-8.248541,78.12645,43.806953,-22.264324,-14.753056,8.482963
128,-2.1722867488861084,42.26636505126953,75.76110076904297,-1.9466308172065747,4.548883749940312,95.01435960811577,7.276763,0.6768369,-7.3350916,48.18922,13.732264,-8.354657,-27.82647,1.331211,-13.125672,24.28252,-4.9795856,-6.2371283,-3.3013213,3.3383183,1.7408307,15.479513,7.957762,-98.032616,45.98364,7.9009385,-10.89627,-2.9986696,22.35158,-8.253013,77.902695,43.733685,-22.1312,-14.587403,8.469616
129,-2.0606844425201416,43.036964416503906,75.88813018798828,-2.1372474099324874,4.405969131698572,95.12248398215428,5.8896494,0.68683654,-7.633839,51.06025,15.877295,-9.373578,-26.930504,1.6974677,-13.231435,24.1857,-5.565712,-6.5039177,-3.3102403,3.4793677,1.887351,15.296971,8.016378,-98.30909,45.956654,7.973696,-11.001547,-2.8401458,22.437357,-8.249385,77.74262,43.709118,-22.26395,-14.693249,8.326063
130,-1.9574662446975708,43.78524398803711,76.00943756103516,-2.301929920977097,4.24753660130944,95.16242884534367,4.517662,0.6151959,-7.9045324,53.863148,18.09285,-10.525187,-26.016264,2.0765393,-13.279539,24.056536,-6.151123,-6.7152343,-3.253965,3.5897286,2.0206811,15.161909,8.072163,-98.56075,45.95777,8.052932,-11.168995,-2.6590726,22.555244,-8.241686,77.59347,43.711113,-22.595236,-14.990367,8.100308
131,-1.862025499343872,44.51615524291992,76.12374114990234,-2.437332801600538,4.075920437877344,95.17448174721058,3.1464942,0.4165368,-8.219107,56.590107,20.103811,-11.66958,-25.08137,2.4309185,-13.30121,23.893204,-6.72428,-6.8528748,-3.169652,3.668368,2.1516511,15.070837,8.117229,-98.76574,45.983566,8.148579,-11.359537,-2.4887226,22.684801,-8.232169,77.4518,43.73096,-22.93947,-15.339044,7.858304
132,-1.7762081623077393,45.23814010620117,76.2303237915039,-2.5388787984108805,3.893670235834486,95.20889635588314,1.78466,0.059405614,-8.640655,59.189194,21.654612,-12.650567,-24.102581,2.7233973,-13.33632,23.670324,-7.272633,-6.8991017,-3.090203,3.715924,2.289496,15.015383,8.157925,-98.92077,46.01703,8.265836,-11.533241,-2.3605323,22.815859,-8.217797,77.2958,43.760464,-23.113346,-15.602576,7.6720634
133,-1.695227026939392,45.94732666015625,76.3405532836914,-2.5953511306522996,3.711160386220294,95.27031180106283,0.4111856,-0.5451594,-9.247348,61.67119,22.783796,-13.446084,-23.101585,2.932809,-13.399133,23.409903,-7.807248,-6.8304644,-3.0284264,3.7241917,2.4265137,15.00199,8.188695,-99.016014,46.056126,8.419879,-11.6878195,-2.304903,22.944857,-8.196188,77.12944,43.809593,-22.990282,-15.786945,7.5589075
134,-1.6283531188964844,46.654937744140625,76.4557113647461,-2.612479393823236,3.5228322372512624,95.33737920035307,-0.9590113,-1.3478705,-9.956612,64.048065,23.594282,-14.123712,-22.07735,3.0857172,-13.476219,23.110348,-8.330339,-6.667599,-2.9835916,3.6926749,2.5631554,15.038802,8.195744,-99.03721,46.121845,8.607383,-11.842663,-2.2986803,23.074644,-8.180601,76.98253,43.87067,-22.687017,-15.949915,7.4805055
135,-1.5549976825714111,47.371910095214844,76.57231140136719,-2.6219876677397047,3.3078950663475997,95.41472879072515,-2.2799425,-2.134453,-10.588391,66.285995,23.923529,-14.6345625,-20.977812,3.232064,-13.566303,22.710997,-8.811487,-6.4623704,-2.9231887,3.652615,2.719832,15.104403,8.192258,-99.021255,46.21378,8.794403,-11.989336,-2.2914805,23.209509,-8.159477,76.81745,43.93517,-22.399986,-16.038713,7.4327154
136,-1.4807980060577393,48.08286666870117,76.69322204589844,-2.6582347673205295,3.047733250285119,95.50830610261788,-3.522535,-2.6680117,-10.980768,68.357864,23.614267,-14.914376,-19.749979,3.4254355,-13.667668,22.145777,-9.217226,-6.2665935,-2.8601696,3.62754,2.9173508,15.193504,8.177762,-98.94892,46.344414,8.96127,-12.1199465,-2.2369654,23.338379,-8.130342,76.65809,43.99394,-22.308498,-15.99548,7.4024243
137,-1.4135581254959106,48.78498458862305,76.80989074707031,-2.742924627677662,2.7329244541726037,95.62890047228919,-4.685483,-2.871726,-11.1405735,70.28069,22.471169,-14.899074,-18.356577,3.6930015,-13.793914,21.363445,-9.530123,-6.096234,-2.8015432,3.6305285,3.168404,15.31179,8.154634,-98.8033,46.529373,9.036446,-12.243565,-2.1170905,23.4573,-8.097043,76.51234,44.036583,-22.493484,-15.726651,7.4201713
138,-1.3315939903259277,49.495357513427734,76.92472076416016,-2.8580668523192476,2.3767396182562295,95.77103948837082,-5.7980666,-2.843464,-11.158501,72.06951,20.638351,-14.616455,-16.82811,4.013116,-13.940227,20.392874,-9.762659,-5.92905,-2.7486043,3.6488802,3.4589424,15.463662,8.109689,-98.58514,46.77107,9.056238,-12.361653,-1.9607918,23.566914,-8.04371,76.37814,44.088196,-22.846025,-15.289519,7.4820175
139,-1.2444549798965454,50.19818115234375,77.03455352783203,-2.9802513569944513,1.9952773806480635,95.91654967521167,-6.8800797,-2.6035593,-11.010535,73.688446,18.47006,-14.141224,-15.209764,4.3645515,-14.074268,19.280773,-9.921286,-5.7576227,-2.6954765,3.6690373,3.7662215,15.636884,8.052801,-98.32046,47.025845,9.157251,-12.451617,-1.7871013,23.673283,-7.9822025,76.25774,44.147026,-23.25911,-14.8497095,7.521571
140,-1.1601618528366089,50.90968704223633,77.13714599609375,-3.0840704077344627,1.604112909759324,96.04650630517754,-7.946553,-2.1744838,-10.671148,75.09704,16.318727,-13.55241,-13.545027,4.7231402,-14.165045,18.074297,-10.012514,-5.5725927,-2.6364403,3.677853,4.0691414,15.817688,7.9951124,-98.031715,47.249126,9.477019,-12.49038,-1.6168857,23.782333,-7.9190755,76.15024,44.215927,-23.627813,-14.572375,7.471256
141,-1.0718095302581787,51.626747131347656,77.23887634277344,-3.169379207729418,1.191555682255371,96.16275420443232,-8.976594,-1.4967757,-10.096318,76.2829,14.134445,-12.84509,-11.796184,5.094246,-14.204565,16.728077,-10.011634,-5.3488245,-2.5728838,3.675875,4.37141,16.016739,7.9357443,-97.69517,47.425625,10.196196,-12.438746,-1.4386833,23.897892,-7.8466363,76.058464,44.308514,-23.95917,-14.523736,7.280648
142,-0.9915561676025391,52.32440185546875,77.33169555664062,-3.2393244577359717,0.753173201258242,96.27059699630678,-9.955462,-0.5923688,-9.325439,77.26078,11.769496,-12.003709,-9.951898,5.477366,-14.199501,15.235227,-9.926305,-5.0995708,-2.5025213,3.6616907,4.6817503,16.234491,7.8799872,-97.31018,47.570118,11.19265,-12.317252,-1.2491158,24.017902,-7.766462,75.97913,44.41544,-24.298946,-14.606898,6.9951215
143,-0.9159270524978638,53.032554626464844,77.41448211669922,-3.279982794664117,0.3156397091529605,96.35590243178761,-10.90899,0.39797026,-8.452471,78.03207,9.431464,-11.08847,-8.106746,5.839203,-14.148725,13.724681,-9.815667,-4.870765,-2.4210348,3.6220734,4.9868727,16.446629,7.8297706,-96.92604,47.702763,12.152101,-12.195201,-1.0800449,24.132896,-7.679592,75.911736,44.528915,-24.597744,-14.743374,6.6863656
144,-0.8312699198722839,53.74542999267578,77.49195861816406,-3.2838844336768314,-0.09366429569194895,96.4057700834546,-11.872038,1.3450505,-7.565275,78.60202,7.332777,-10.146321,-6.3510814,6.1541624,-14.057526,12.314482,-9.734654,-4.7072473,-2.3241427,3.551062,5.272933,16.628778,7.786434,-96.59449,47.843517,12.760987,-12.14471,-0.95941603,24.233908,-7.588531,75.8542,44.638218,-24.805468,-14.856255,6.4276586
145,-0.7645403146743774,54.44865417480469,77.56291961669922,-3.2492824620393943,-0.474189139191284,96.41316412058639,-12.854582,2.2693558,-6.629708,78.96513,5.5525455,-9.1585,-4.688841,6.4178843,-13.924911,11.011219,-9.686305,-4.6212525,-2.2072527,3.450759,5.540389,16.775501,7.7513027,-96.324745,48.008125,12.883844,-12.215929,-0.8563101,24.316957,-7.4962416,75.807076,44.74073,-24.909588,-14.966156,6.224211
146,-0.6975566744804382,55.14303970336914,77.63038635253906,-3.1845738297533175,-0.8389447961786697,96.385537785948,-13.82832,3.2181213,-5.6156983,79.12247,3.9606104,-8.119124,-3.0834928,6.64259,-13.753631,9.777152,-9.650704,-4.587042,-2.072261,3.3292353,5.7962317,16.899607,7.7253985,-96.09199,48.179882,12.70566,-12.36186,-0.76767397,24.38732,-7.403641,75.76997,44.837326,-24.936728,-15.101288,6.042342
147,-0.6383610963821411,55.83535385131836,77.68476867675781,-3.1004947808452625,-1.1799197666711292,96.33373441512742,-14.783634,4.1126456,-4.6123195,79.087135,2.4649541,-7.080937,-1.5484068,6.8359942,-13.558531,8.624407,-9.636411,-4.5912886,-1.9266835,3.1923616,6.0359955,17.003445,7.7091556,-95.897995,48.330994,12.393061,-12.509606,-0.76179063,24.455954,-7.311044,75.73885,44.927776,-24.894035,-15.196977,5.8975463
148,-0.5709434151649475,56.52617645263672,77.73218536376953,-3.0051733730572465,-1.4885832078019003,96.26906342575059,-15.720864,4.8728576,-3.7089798,78.874306,0.978792,-6.0946083,-0.1024777,7.0054226,-13.355196,7.572094,-9.653986,-4.6200213,-1.7783271,3.0456836,6.254754,17.0893,7.702659,-95.74514,48.43383,12.112376,-12.585144,-0.9057272,24.52944,-7.2174726,75.70909,45.01052,-24.787918,-15.188385,5.8053727
149,-0.5136942267417908,57.20523452758789,77.75749206542969,-2.894066166137184,-1.7665346477884207,96.19017121248689,-16.643711,5.4717216,-2.9130874,78.479774,-0.52765167,-5.135767,1.0345135,7.0879374,-13.175214,7.0998044,-9.965108,-4.654413,-1.622556,2.8788483,6.4543777,17.156868,7.706526,-95.64207,48.466686,11.869324,-12.543725,-1.3002088,24.614601,-7.1215434,75.68284,45.081978,-24.568384,-14.993712,5.8032575
150,-0.4543258249759674,57.88397979736328,77.77802276611328,-2.7653765903257237,-2.0169424716373765,96.0938371271401,-17.556839,5.951466,-2.1780696,77.8979,-2.0036407,-4.1895995,1.9436263,7.1051335,-13.006527,7.0384088,-10.476879,-4.7041335,-1.4588447,2.6955101,6.6370716,17.20493,7.7214003,-95.58533,48.448143,11.588818,-12.430807,-1.881171,24.703728,-7.0226493,75.66087,45.145172,-24.249695,-14.668926,5.870331
151,-0.39796847105026245,58.56021499633789,77.78456115722656,-2.640206173174601,-2.2326855469159006,95.99011758562378,-18.46306,6.3382764,-1.5101216,77.133736,-3.4053445,-3.3152544,2.805047,7.123174,-12.826937,6.98305,-10.961973,-4.7928777,-1.3019017,2.5195456,6.7970934,17.23556,7.7466083,-95.5588,48.41242,11.315816,-12.30871,-2.4677992,24.790802,-6.921229,75.63721,45.209686,-23.934717,-14.355583,5.9355636
152,-0.35328444838523865,59.230621337890625,77.76882934570312,-2.5195163727007786,-2.408019214031974,95.88659215906053,-19.368166,6.649591,-0.9030502,76.20622,-4.696732,-2.567386,3.6056635,7.144874,-12.633142,6.948967,-11.40833,-4.9412093,-1.1641971,2.3586988,6.9289546,17.250511,7.7805123,-95.545586,48.395752,11.093203,-12.242575,-2.8805497,24.86895,-6.8191524,75.6059,45.285496,-23.723799,-14.196444,5.9307995
153,-0.29893481731414795,59.90575408935547,77.75460815429688,-2.434975964104077,-2.5335575604593457,95.78908730958291,-20.288527,6.928616,-0.35703304,75.10471,-5.890109,-1.9349184,4.3368607,7.205994,-12.409514,6.926952,-11.776127,-5.2150383,-1.0511096,2.2446468,7.021662,17.247833,7.8223567,-95.5491,48.414013,10.93239,-12.262813,-3.0450633,24.93983,-6.7186623,75.56366,45.374245,-23.664644,-14.273954,5.8223076
154,-0.2574830651283264,60.577022552490234,77.7288818359375,-2.3805904832131835,-2.616241656581863,95.69437025730556,-21.217764,7.1627398,0.12681022,73.82296,-6.994541,-1.3917437,4.992475,7.2980304,-12.167534,6.9457445,-12.099019,-5.5827484,-0.95795983,2.1696396,7.0821314,17.227598,7.8715305,-95.57558,48.446888,10.809519,-12.332021,-3.066514,25.007837,-6.6207366,75.514565,45.467724,-23.696585,-14.497064,5.6527367
155,-0.23421989381313324,61.228668212890625,77.6835708618164,-2.3313593028471176,-2.6705636192044424,95.59835382969833,-22.118542,7.3087196,0.5469387,72.34633,-7.9404063,-0.9631344,5.613498,7.385233,-11.94146,6.9641166,-12.422857,-5.9154468,-0.8843727,2.1019812,7.1290245,17.195053,7.926029,-95.61195,48.478443,10.714656,-12.414861,-3.0349143,25.065826,-6.52541,75.464905,45.562378,-23.757265,-14.748467,5.469007
156,-0.21021299064159393,61.870704650878906,77.6305160522461,-2.2648118811611506,-2.71161426403094,95.49643823269976,-22.955976,7.333139,0.89667827,70.664276,-8.66016,-0.672659,6.220388,7.433928,-11.769375,6.9823627,-12.816404,-6.085586,-0.82989323,2.015604,7.181253,17.156113,7.9823513,-95.64428,48.493603,10.637774,-12.475457,-3.0402782,25.109394,-6.432007,75.42152,45.654484,-23.782894,-14.911161,5.319185
157,-0.18537244200706482,62.51736831665039,77.57268524169922,-2.170853200803455,-2.74044249097131,95.3849680684528,-23.725069,7.2075915,1.1614953,68.74954,-9.112411,-0.5671973,6.8131733,7.4196706,-11.68733,6.9989486,-13.316413,-5.997755,-0.79717886,1.8972642,7.246481,17.10673,8.0371,-95.66858,48.489742,10.577946,-12.508501,-3.1116447,25.130068,-6.339632,75.393654,45.745754,-23.758732,-14.936727,5.211055
158,-0.17016007006168365,63.16533660888672,77.51045989990234,-2.062052426526965,-2.7484675320356953,95.26448496165486,-24.442156,6.9707265,1.3536979,66.61033,-9.337785,-0.60691,7.380158,7.364027,-11.667488,7.0144606,-13.880085,-5.737362,-0.78393847,1.7621447,7.3118153,17.04674,8.088307,-95.69068,48.479126,10.540465,-12.531927,-3.199259,25.134506,-6.2478914,75.37654,45.83737,-23.717604,-14.893361,5.120866
159,-0.13999420404434204,63.82863998413086,77.45709228515625,-1.954537114543002,-2.736116398548278,95.13712862259001,-25.10444,6.690019,1.5031787,64.29038,-9.393097,-0.68728274,7.926288,7.3039365,-11.65199,7.0289774,-14.455929,-5.449036,-0.7819718,1.62855,7.3665147,16.98453,8.134805,-95.714325,48.46955,10.522137,-12.544823,-3.2747297,25.13051,-6.1576066,75.35447,45.9283,-23.665792,-14.839415,5.0491853
160,-0.12038177996873856,64.4801025390625,77.3895263671875,-1.8683527203319055,-2.7043268605193775,95.00715263638544,-25.71209,6.426531,1.6385462,61.839718,-9.338708,-0.70829743,8.455844,7.2773056,-11.581563,7.046448,-14.996322,-5.279364,-0.7846331,1.5153563,7.4007783,16.929264,8.176014,-95.74294,48.468063,10.520648,-12.5463295,-3.3098066,25.128601,-6.0707884,75.31126,46.017128,-23.6097,-14.833232,4.996802
161,-0.1066126748919487,65.13957977294922,77.31512451171875,-1.809153730848279,-2.6575029460343322,94.87456270129536,-26.268652,6.1771393,1.7431877,59.264297,-9.1748495,-0.6095152,8.976303,7.299482,-11.425101,7.0651965,-15.488888,-5.2870355,-0.7929193,1.4304879,7.4168124,16.884146,8.211285,-95.77161,48.4749,10.567633,-12.526258,-3.2825797,25.128748,-5.9892707,75.23888,46.10361,-23.559896,-14.90897,4.9626994
162,-0.09275899827480316,65.80159759521484,77.2335205078125,-1.7662012055215421,-2.5941766845731906,94.73837327695075,-26.771038,5.9156165,1.8093104,56.539898,-8.8772745,-0.45275086,9.484221,7.346475,-11.217489,7.0842285,-15.960247,-5.3874855,-0.8100195,1.3616345,7.4186077,16.844273,8.239995,-95.80066,48.488422,10.653806,-12.488485,-3.2128534,25.127316,-5.914097,75.14666,46.18714,-23.510094,-15.029226,4.94701
163,-0.09374242275953293,66.45858001708984,77.14976501464844,-1.7328483601927185,-2.507548649720729,94.60224440317778,-27.206726,5.663988,1.8784965,53.664436,-8.467065,-0.32758436,9.969393,7.400819,-10.998425,7.1032495,-16.417711,-5.514345,-0.83533907,1.3001958,7.400952,16.805275,8.261364,-95.840805,48.51048,10.713724,-12.452976,-3.1348705,25.127024,-5.8481364,75.0465,46.258366,-23.441385,-15.14467,4.9532986
164,-0.08836791664361954,67.12484741210938,77.06714630126953,-1.6988621384335216,-2.3909308077605917,94.46885513652941,-27.562649,5.439951,1.9941708,50.629486,-7.9573236,-0.32707143,10.422044,7.446299,-10.807992,7.1211853,-16.868032,-5.6017237,-0.86715776,1.2372241,7.3576193,16.763027,8.275982,-95.902794,48.54251,10.682428,-12.439759,-3.082919,25.134401,-5.792407,74.95041,46.308987,-23.335138,-15.206172,4.984775
165,-0.07627306878566742,67.79971313476562,76.97476959228516,-1.6639468717534653,-2.2347625351898257,94.34009784391137,-27.83353,5.2284,2.1427412,47.372925,-7.3043685,-0.5194248,10.8295,7.4796886,-10.656902,7.134965,-17.312508,-5.6341505,-0.90509754,1.1683774,7.282606,16.708887,8.286677,-96.01241,48.592648,10.500425,-12.46094,-3.0590312,25.146132,-5.73557,74.85576,46.351963,-23.153046,-15.181278,5.048838
166,-0.07641930878162384,68.47698974609375,76.87228393554688,-1.6325756500268087,-2.0462725609148036,94.21220646228942,-28.014921,5.0193505,2.3109848,43.891193,-6.500753,-0.84594005,11.19977,7.511776,-10.5227,7.1489215,-17.748558,-5.647575,-0.95018226,1.0997343,7.1814747,16.648405,8.29176,-96.15374,48.65734,10.217458,-12.503608,-3.0475488,25.161299,-5.682913,74.76093,46.383476,-22.916058,-15.102116,5.1410875
167,-0.08348509669303894,69.15835571289062,76.76512908935547,-1.6109854040225757,-1.843945462467117,94.07963369045196,-28.096285,4.8368535,2.5424836,40.262096,-5.6176157,-1.2124063,11.56046,7.5499115,-10.3954,7.162305,-18.172253,-5.653168,-0.993378,1.0416684,7.065613,16.595036,8.292223,-96.28653,48.715668,9.928322,-12.550024,-3.0557306,25.184736,-5.64133,74.6664,46.39533,-22.695862,-15.018016,5.2468085
168,-0.0772821456193924,69.84207153320312,76.64872741699219,-1.6034872021730004,-1.646322143063281,93.93696591955296,-28.06999,4.70614,2.882483,36.56722,-4.729226,-1.524247,11.937983,7.6008425,-10.264669,7.173445,-18.577713,-5.6619973,-1.0235355,1.0045142,6.945847,16.561756,8.29077,-96.37324,48.744877,9.727878,-12.582248,-3.090086,25.221523,-5.61239,74.56987,46.383465,-22.565283,-14.978689,5.35214
169,-0.07691288739442825,70.53295135498047,76.528564453125,-1.6112836454222885,-1.450212166313708,93.78461981190323,-27.926031,4.6314735,3.3501458,32.762455,-3.8180041,-1.7596352,12.327997,7.6654944,-10.129459,7.1850324,-18.97638,-5.679941,-1.0305341,0.99310476,6.8180594,16.550587,8.288532,-96.41311,48.730213,9.635995,-12.590464,-3.1594791,25.278158,-5.58272,74.4477,46.3555,-22.578344,-15.024628,5.4654303
170,-0.082603320479393,71.24063873291016,76.40301513671875,-1.6354262385234326,-1.2517609166635921,93.6196541812946,-27.655504,4.5971756,3.9224617,28.79358,-2.840458,-1.9743943,12.726227,7.747439,-9.988706,7.19265,-19.3648,-5.7017636,-1.0355707,1.0003718,6.6819983,16.560907,8.287185,-96.39918,48.681293,9.610648,-12.58549,-3.2594748,25.347843,-5.5711713,74.3344,46.300304,-22.677061,-15.118113,5.5870824
171,-0.09828926622867584,71.963134765625,76.270751953125,-1.6883451086854486,-1.0685755750689534,93.4313540072289,-27.258505,4.6013947,4.583611,24.736828,-1.8363539,-2.190114,13.149913,7.8546267,-9.832587,7.2000494,-19.72244,-5.721556,-1.0055324,1.0418073,6.554172,16.579893,8.286402,-96.37491,48.621857,9.62912,-12.580775,-3.370896,25.424147,-5.5667267,74.219124,46.228226,-22.794237,-15.201037,5.7014875
172,-0.11418551206588745,72.69572448730469,76.1320571899414,-1.7829437836371862,-0.9192692069604654,93.20652861794755,-26.732141,4.646683,5.3185697,20.66446,-0.84751844,-2.42805,13.622308,7.998386,-9.64808,7.202948,-20.024494,-5.7334104,-0.9326881,1.1249279,6.4504004,16.60553,8.286273,-96.350174,48.573338,9.676458,-12.589147,-3.4751196,25.496784,-5.568008,74.13596,46.144665,-22.848537,-15.210552,5.786268
173,-0.1283494383096695,73.43639373779297,75.98663330078125,-1.9336991625497428,-0.8143747523793244,92.93176722620032,-26.049578,4.758087,6.1626964,16.529358,0.14358045,-2.6844287,14.157029,8.196673,-9.429516,7.1994004,-20.271929,-5.743807,-0.7917028,1.2668769,6.378613,16.63677,8.28728,-96.33355,48.543697,9.763655,-12.614933,-3.5682206,25.568335,-5.5759964,74.07007,46.04324,-22.805986,-15.11787,5.8401556
174,-0.1526791751384735,74.19242095947266,75.83222961425781,-2.1535699345431927,-0.7533930491798339,92.59656367636315,-25.195541,4.9440794,7.12163,12.276555,1.1687479,-2.9623983,14.749574,8.461723,-9.160239,7.1934915,-20.474041,-5.7579117,-0.5830628,1.4768529,6.3361206,16.681211,8.288629,-96.31183,48.52028,9.893347,-12.649749,-3.6567707,25.6413,-5.5859694,74.03284,45.933254,-22.706459,-14.957154,5.8657117
175,-0.18913576006889343,74.95867919921875,75.67109680175781,-2.4381266352689246,-0.7344436300515508,92.20048177539573,-24.1518,5.1695614,8.138626,7.8829055,2.2644007,-3.2870204,15.399617,8.785441,-8.817502,7.180901,-20.61769,-5.764885,-0.30766833,1.7611943,6.327907,16.727175,8.290576,-96.287704,48.488865,10.041774,-12.690711,-3.7493985,25.713165,-5.605545,74.009865,45.8117,-22.613329,-14.772269,5.8737173
176,-0.21568603813648224,75.74141693115234,75.50033569335938,-2.7584284542735547,-0.7432509880450554,91.76475112386841,-24.400509,5.606907,9.00791,6.505228,1.7904546,-3.6768413,16.087082,9.13154,-8.404478,7.1685767,-20.696793,-5.7480664,0.0046396465,2.095077,6.343542,16.768614,8.291479,-96.26389,48.44215,10.179166,-12.734242,-3.8489647,25.774572,-5.62714,74.01124,45.696606,-22.577496,-14.603589,5.8655543
177,-0.26522016525268555,76.53190612792969,75.33271789550781,-3.100523316564639,-0.7701931768589442,91.2994781782766,-25.139585,6.156436,9.837104,6.389169,0.61670756,-4.1656356,16.805252,9.481086,-7.9277215,7.153813,-20.710863,-5.6740317,0.34699342,2.4686127,6.3712325,16.81084,8.291114,-96.22951,48.369236,10.316786,-12.78009,-3.9640477,25.82846,-5.6486783,74.032455,45.58514,-22.606802,-14.456685,5.8459687
178,-0.3161584138870239,77.33528900146484,75.16403198242188,-3.452360461390563,-0.8046692105511829,90.82411467710357,-25.813755,6.7181864,10.687327,6.313412,-0.6017968,-4.7240796,17.544716,9.821531,-7.4195914,7.14093,-20.672762,-5.5509815,0.66647,2.8563585,6.4032516,16.863226,8.2851515,-96.13891,48.281113,10.475461,-12.831788,-4.0941257,25.878792,-5.7457337,74.1169,45.40239,-22.661633,-14.307131,5.8144174
179,-0.37490591406822205,78.16014099121094,75.00506591796875,-3.750590409441144,-0.817279777585524,90.40703510564163,-26.45954,7.1793165,11.429484,6.3551116,-1.7801013,-5.250506,18.27366,10.081292,-6.9627233,7.130334,-20.586266,-5.41438,0.9378747,3.191322,6.416131,16.893639,8.278903,-96.08338,48.208263,10.600458,-12.891967,-4.219939,25.91394,-5.816684,74.20563,45.250004,-22.761332,-14.167663,5.7701664
180,-0.43319618701934814,78.97773742675781,74.86380004882812,-3.9937058920409223,-0.8214888325431696,90.04538775029522,-26.978428,7.5231953,11.96063,6.386163,-2.7234979,-5.6586294,18.986132,10.268349,-6.559254,7.118566,-20.427948,-5.3303585,1.1478188,3.4631975,6.4319153,16.890585,8.271938,-96.07369,48.165382,10.665732,-12.9596195,-4.3286734,25.930973,-5.8813024,74.31416,45.118496,-22.909117,-14.040286,5.7083793
181,-0.4867056906223297,79.8021240234375,74.74992370605469,-4.192870489429651,-0.8120166850836873,89.74164739745567,-27.369093,7.751325,12.246066,6.40424,-3.4235587,-5.942114,19.676256,10.3919,-6.211725,7.1051826,-20.210873,-5.327618,1.2956377,3.6874607,6.45386,16.841402,8.26539,-96.12159,48.160095,10.656355,-13.040567,-4.4164095,25.921824,-5.932599,74.45367,45.019928,-23.165318,-13.928737,5.608532
182,-0.5354610085487366,80.62660217285156,74.65210723876953,-4.372924938754059,-0.7907620147846044,89.48124166132546,-27.652872,7.9004664,12.340841,6.428147,-3.9536536,-6.1353736,20.351019,10.479887,-5.9017134,7.092397,-19.936174,-5.3756003,1.3907305,3.8879788,6.478228,16.760857,8.256734,-96.206856,48.182476,10.591565,-13.1312475,-4.488269,25.894138,-5.9887533,74.63391,44.926968,-23.501661,-13.824253,5.4767275
183,-0.607391357421875,81.46502685546875,74.56705474853516,-4.5208188258951,-0.7661080117617373,89.2919069026246,-27.81627,7.939064,12.247964,6.4380655,-4.2853394,-6.197145,21.001905,10.532533,-5.662158,7.1225595,-19.60373,-5.4375257,1.4136955,4.0506725,6.5046697,16.661657,8.247523,-96.32481,48.217873,10.491143,-13.22117,-4.5526967,25.861736,-6.0390067,74.80352,44.851994,-23.81067,-13.73034,5.357608
184,-0.6696206331253052,82.30353546142578,74.49554443359375,-4.622052003148529,-0.7301822701299032,89.16839414990716,-27.86603,7.85637,11.99651,6.4489713,-4.41762,-6.0890937,21.640102,10.540944,-5.489243,7.1598907,-19.16712,-5.472826,1.3732423,4.1519613,6.511864,16.562628,8.235847,-96.47477,48.258556,10.369861,-13.297938,-4.6104126,25.85139,-6.095179,74.9319,44.770912,-23.976925,-13.642626,5.291306
185,-0.7244826555252075,83.15093231201172,74.43565368652344,-4.66383828286926,-0.6921802002840975,89.12721288143078,-27.762,7.627074,11.556338,6.4492764,-4.3007383,-5.7703586,22.280823,10.495845,-5.405264,7.2005534,-18.640688,-5.485694,1.250646,4.17513,6.5152736,16.453371,8.225593,-96.687164,48.308407,10.198586,-13.3720455,-4.6379495,25.860243,-6.142062,75.00234,44.70784,-23.944296,-13.569565,5.297107
186,-0.777145266532898,84.00822448730469,74.3930435180664,-4.639714889323856,-0.652457539637505,89.16085104082312,-27.50921,7.257724,10.933712,6.4372272,-3.952888,-5.271932,22.91905,10.385505,-5.403359,7.245745,-18.031807,-5.4930506,1.0573231,4.117364,6.518317,16.32942,8.217457,-96.9599,48.372177,9.976988,-13.445199,-4.640524,25.880991,-6.1793027,75.03397,44.658436,-23.782389,-13.507909,5.34943
187,-0.8284050226211548,84.88129425048828,74.37289428710938,-4.559280603772321,-0.5863906042520598,89.23627876950972,-27.191925,6.7917285,10.196411,6.438894,-3.4653506,-4.6672535,23.51144,10.214811,-5.44586,7.303636,-17.293026,-5.475859,0.8470481,4.003552,6.4805336,16.211857,8.210066,-97.24525,48.426872,9.770877,-13.492817,-4.6699357,25.922638,-6.2150187,75.01169,44.601715,-23.578983,-13.448911,5.428864
188,-0.880153477191925,85.78609466552734,74.36206817626953,-4.404261019688839,-0.4608237109552088,89.33717098976729,-26.894264,6.222774,9.421944,6.4764752,-2.9348538,-4.019676,24.019888,9.95734,-5.5165906,7.3823986,-16.393452,-5.40068,0.6301142,3.8166523,6.3601108,16.125517,8.205594,-97.44363,48.45313,9.661744,-13.493236,-4.788463,25.97784,-6.245205,74.94995,44.531464,-23.415884,-13.383405,5.5186963
189,-0.9418690800666809,86.71764373779297,74.364501953125,-4.195925982304205,-0.24086750651168243,89.46137221816103,-26.629765,5.5604043,8.553747,6.5545597,-2.4256437,-3.3149014,23.824224,9.580552,-5.7249255,8.751267,-16.036112,-5.253905,0.39831197,3.55644,6.1008925,16.111803,8.206946,-97.50623,48.446373,9.741113,-13.417353,-5.0550056,26.075827,-6.255967,74.87298,44.44692,-23.279707,-13.290361,5.631716
190,-1.022126317024231,87.64901733398438,74.39348602294922,-3.9189676300125,0.04688349187694175,89.60108646487619,-26.350367,4.795636,7.5964627,6.6542435,-1.863395,-2.5393982,23.302546,9.101085,-5.99197,10.658729,-15.824943,-5.0545025,0.18706565,3.22068,5.7364388,16.138824,8.214459,-97.52281,48.4164,9.934288,-13.285191,-5.4187336,26.221336,-6.259971,74.73903,44.33455,-23.14721,-13.181023,5.7752857
191,-1.0908699035644531,88.61595916748047,74.42528533935547,-3.5839247688739495,0.3447884345650056,89.68619427287236,-26.055534,4.0003643,6.7082386,6.761533,-1.134369,-1.7649443,22.612223,8.517119,-6.1842422,12.834202,-15.537622,-4.8110185,0.022167116,2.8486571,5.3588157,16.155497,8.228801,-97.472374,48.353085,10.115257,-13.146473,-5.7908225,26.331493,-6.256912,74.58679,44.241188,-23.052729,-13.090788,5.9036136
192,-1.1742600202560425,89.58816528320312,74.47345733642578,-3.199313698406754,0.598887845357646,89.64351967969941,-26.496937,3.3264112,6.0164957,8.458129,-0.9790829,-1.0534492,21.714361,7.8022084,-6.197656,15.4133835,-15.171463,-4.5245395,-0.05952124,2.4703019,5.0563607,16.110355,8.240389,-97.348045,48.25964,10.1477585,-13.048346,-6.0762105,26.325241,-6.252171,74.45816,44.203133,-23.02802,-13.051781,5.96664
193,-1.2030491828918457,90.56046295166016,74.54161834716797,-2.7282111838011462,0.796228725721115,89.39447134603584,-27.226793,2.7172503,5.6555295,10.74257,-0.6766994,-0.35729247,20.542967,6.8930764,-5.941424,18.5362,-14.77813,-4.187122,-0.0101366835,2.0824857,4.881369,15.975354,8.245226,-97.06581,48.103374,9.945295,-13.01924,-6.273895,26.144173,-6.2520795,74.32696,44.237217,-23.113043,-13.096951,5.9617496
194,-1.3779948949813843,91.4676284790039,74.63386535644531,-2.1736760571101654,0.968113977448609,88.99118447725199,-27.79208,2.1051755,5.5689745,12.672924,0.15824358,0.3498963,19.211433,5.8468294,-5.455183,21.942375,-14.267157,-3.7803357,0.11446153,1.655863,4.7831655,15.7952175,8.233638,-96.6125,47.90866,9.608963,-13.02931,-6.4305696,25.832554,-6.266381,74.22209,44.31508,-23.271221,-13.198303,5.9089074
195,-1.6122701168060303,92.36222076416016,74.72264862060547,-1.6040930769098103,1.1261589842444826,88.57148144437829,-28.219646,1.5167013,5.643489,14.390486,1.0757562,0.9854115,17.899889,4.8159776,-4.8591537,25.269382,-13.466919,-3.2922642,0.24768364,1.2130693,4.6931725,15.601032,8.192119,-96.17931,47.755566,9.261345,-13.035405,-6.5167546,25.492432,-6.304342,74.17163,44.389,-23.446737,-13.305036,5.8078895
196,-1.7522072792053223,93.30711364746094,74.80877685546875,-1.0910911326525359,1.280191974552082,88.27576132071906,-28.516867,0.9681248,5.7490063,15.99915,1.6434466,1.4623753,16.73561,3.9347625,-4.2947392,28.260902,-12.255578,-2.7239623,0.3403831,0.7851773,4.5396347,15.408819,8.1455965,-95.974,47.684566,9.027077,-12.994124,-6.5076966,25.222702,-6.338492,74.163994,44.44656,-23.596313,-13.373034,5.6667156
197,-1.8362975120544434,94.35270690917969,74.88720703125,-0.6570215360300559,1.4427397752465683,88.171163158958,-28.714233,0.46649596,5.8433714,17.594135,1.6989326,1.6950262,15.74725,3.2455647,-3.8182118,30.863089,-10.58681,-2.0681179,0.34042028,0.36681584,4.2682962,15.225937,8.136368,-96.0185,47.6904,9.007918,-12.891042,-6.3984656,25.051249,-6.342536,74.20602,44.500256,-23.741192,-13.363417,5.4571524
198,-1.923742651939392,95.4161376953125,74.97020721435547,-0.26535121528065,1.6074789573616826,88.18698812659622,-28.831774,0.010034168,5.965997,19.16971,1.4485877,1.7601236,14.822293,2.676912,-3.3647645,33.29279,-8.572435,-1.3230474,0.2804896,-0.053059384,3.9146967,15.043747,8.107752,-96.26864,47.79668,9.080578,-12.748457,-6.1762166,24.930712,-6.3362985,74.33445,44.54583,-23.868341,-13.297484,5.1621175
199,-2.0149219036102295,96.46501159667969,75.05671691894531,0.10549180942162655,1.7513517914775254,88.25419603963404,-28.84569,-0.41522017,6.1081963,20.647587,1.0372777,1.798216,13.87124,2.1801078,-2.8961911,35.718327,-6.3403397,-0.507738,0.20324482,-0.44902724,3.566427,14.84664,8.0844755,-96.62566,47.910725,9.153741,-12.584132,-5.9011846,24.809433,-6.309388,74.47377,44.62777,-23.965494,-13.262313,4.8831
200,-2.1198010444641113,97.49874877929688,75.1414794921875,0.46814309311208757,1.8504054220153943,88.29987892050879,-28.723785,-0.833138,6.265878,21.925198,0.6208712,1.9389715,12.814363,1.7141786,-2.3682225,38.293705,-4.0073996,0.35941702,0.15785936,-0.8049487,3.3054566,14.624425,8.063372,-97.05184,47.979145,9.093859,-12.412371,-5.5956,24.646585,-6.260574,74.61795,44.775105,-23.98027,-13.327384,4.683428
201,-2.2303128242492676,98.51553344726562,75.22814178466797,0.8270398494038653,1.890979296114743,88.31545453146872,-28.435122,-1.2735214,6.442967,22.93695,0.26885056,2.2155678,11.627676,1.2958304,-1.7314029,41.11152,-1.5704554,1.2869728,0.13007365,-1.1170695,3.1679378,14.3466015,8.050281,-97.557625,47.972134,8.867586,-12.210333,-5.2423267,24.418158,-6.2183776,74.78299,44.990974,-23.898813,-13.538053,4.5840406
202,-2.3401920795440674,99.51366424560547,75.31368255615234,1.1701601539138349,1.887538082197512,88.33573524901365,-28.00744,-1.73022,6.637371,23.746748,-0.10645726,2.5482626,10.351391,0.9611648,-1.0114493,44.085114,1.0157332,2.2953115,0.13297026,-1.3860519,3.104354,14.023332,8.037647,-98.2084,47.932682,8.525266,-11.980113,-4.8254995,24.159426,-6.1617556,74.941765,45.266323,-23.751303,-13.848148,4.5468526
203,-2.4535272121429443,100.49308776855469,75.40291595458984,1.4930094349116858,1.8578747144790677,88.35206026174943,-27.48329,-2.1803713,6.8408833,24.419268,-0.5730833,2.9019856,8.99975,0.6940691,-0.27646613,47.10699,3.6958506,3.3786366,0.1318358,-1.6279361,3.0799985,13.731401,8.03249,-98.840645,47.870605,8.133241,-11.775944,-4.4064775,23.893631,-6.113828,75.14936,45.541706,-23.530357,-14.186711,4.5563707
204,-2.562267303466797,101.44918060302734,75.49500274658203,1.790611913298912,1.8204540142422974,88.35902153298457,-26.910074,-2.5942063,7.042312,25.030594,-1.2051888,3.2449212,7.5792685,0.47064853,0.40350232,50.079826,6.4125814,4.526261,0.11207705,-1.8512001,3.05999,13.537692,8.035301,-99.32184,47.80541,7.7478065,-11.650995,-4.043098,23.647373,-6.0915914,75.42948,45.758232,-23.236092,-14.484926,4.5990877
205,-2.6516835689544678,102.39910888671875,75.5851058959961,2.0611036355468806,1.7857976599016885,88.34872354715289,-26.303997,-2.9607422,7.251085,25.612982,-2.0976336,3.6036632,6.0394588,0.24790901,0.9814694,53.04517,9.494185,5.888448,0.121093296,-2.0524457,3.0309427,13.45594,8.048097,-99.70016,47.747906,7.3075337,-11.646742,-3.706813,23.430582,-6.070008,75.77721,45.92018,-22.824213,-14.733494,4.6942496
206,-2.7407689094543457,103.34583282470703,75.67267608642578,2.303237207370407,1.743144908412365,88.32496482468663,-25.643232,-3.29138,7.4632287,26.134865,-3.1921563,3.982468,4.387169,0.07456525,1.5243897,56.04501,12.858741,7.431609,0.12841064,-2.2290642,3.0146072,13.453674,8.073685,-99.97695,47.681377,6.8222947,-11.726647,-3.390126,23.21801,-6.053912,76.20371,46.05509,-22.305883,-14.965603,4.843787
207,-2.8238296508789062,104.28097534179688,75.76642608642578,2.5115326505441646,1.680208419266525,88.3012204244827,-24.90507,-3.5915604,7.646655,26.549932,-4.3270774,4.3157625,2.7229192,0.014211725,2.0754054,58.961483,15.849794,8.824127,0.117755614,-2.3746076,3.0147738,13.504406,8.114182,-100.15782,47.598644,6.3845406,-11.820426,-3.1411116,23.025301,-6.0444927,76.65702,46.159744,-21.776674,-15.174535,4.995234
208,-2.9058666229248047,105.20303344726562,75.85399627685547,2.6906571043186,1.5837645906289803,88.29183457590615,-24.063965,-3.87453,7.778411,26.807405,-5.337215,4.5408273,1.1540467,0.07466476,2.6330223,61.66666,17.813,9.698697,0.07406906,-2.489782,3.0362997,13.580499,8.174364,-100.25004,47.488438,6.0870824,-11.85655,-3.007979,22.869589,-6.0432005,77.07833,46.23551,-21.335836,-15.356055,5.0965066
209,-2.9799203872680664,106.12017059326172,75.94493865966797,2.8501108032641573,1.4557278099642006,88.30137940644077,-23.106348,-4.150874,7.864101,26.867453,-6.1796055,4.627062,-0.31438345,0.26701483,3.2294633,64.166275,18.512978,9.7914,0.007964212,-2.574616,3.0765955,13.681407,8.231179,-100.26311,47.36467,5.973813,-11.808758,-3.049131,22.749111,-6.0497212,77.47795,46.271572,-21.003923,-15.502927,5.1125455
210,-3.0421996116638184,107.03333282470703,76.0475845336914,2.996347142527754,1.3009355801533926,88.3227566999937,-22.041138,-4.4215107,7.9221506,26.753149,-6.9358845,4.615939,-1.7334323,0.53229845,3.8183281,66.522484,18.329021,9.3203745,-0.09111032,-2.6435611,3.133047,13.822664,8.3020935,-100.172745,47.21468,5.9937477,-11.715485,-3.2248435,22.65419,-6.066669,77.89722,46.27138,-20.725233,-15.619132,5.07469
211,-3.0951526165008545,107.93624877929688,76.15607452392578,3.131411460348863,1.1108662444518442,88.35281949840139,-20.87322,-4.6902657,7.952084,26.496471,-7.620678,4.5556717,-3.087658,0.74284816,4.2821445,68.70044,17.528786,8.623462,-0.2047205,-2.7027826,3.2169561,13.988718,8.371938,-100.028206,47.07464,6.0709443,-11.607225,-3.4263315,22.601553,-6.090604,78.23029,46.248627,-20.511557,-15.723195,5.041944
212,-3.1511728763580322,108.84021759033203,76.26954650878906,3.2589820643495124,0.8777888356891551,88.38773393437704,-19.606234,-4.960687,7.9519935,26.126375,-8.247199,4.4946055,-4.365126,0.75396556,4.5059843,70.6637,16.374166,8.026839,-0.3280443,-2.7618327,3.337195,14.169103,8.43456,-99.85579,46.970997,6.1348453,-11.513384,-3.5467615,22.606531,-6.1174827,78.39223,46.223053,-20.368174,-15.832023,5.070986
213,-3.1942195892333984,109.74398803710938,76.38914489746094,3.3812823598228356,0.5913228924667095,88.43262702380602,-18.231773,-5.238252,7.9134817,25.651989,-8.8211355,4.432468,-5.539793,0.51294327,4.467759,72.408875,14.663664,7.641073,-0.4699902,-2.8225133,3.5047,14.362353,8.491708,-99.64909,46.91195,6.1566186,-11.440581,-3.5428038,22.676596,-6.146263,78.33971,46.19525,-20.309069,-15.962325,5.172525
214,-3.2422001361846924,110.64069366455078,76.50614929199219,3.4951084580524485,0.2590848496456939,88.48786949271967,-16.74657,-5.5207562,7.83845,25.047026,-9.332134,4.350742,-6.631926,0.07626823,4.23754,73.95995,12.344531,7.2733307,-0.6272194,-2.8800879,3.7109256,14.574812,8.533217,-99.40183,46.8961,6.1751485,-11.374259,-3.4759276,22.803675,-6.170349,78.12036,46.167717,-20.328075,-16.101795,5.3173265
215,-3.2896268367767334,111.52513122558594,76.62350463867188,3.597484234627565,-0.09985126863243714,88.54233294408793,-15.176097,-5.7972603,7.740944,24.318108,-9.775984,4.2694654,-7.6925845,-0.5363634,3.8456085,75.31543,9.893055,6.8033376,-0.78639513,-2.9362159,3.9357696,14.805368,8.556849,-99.13351,46.912003,6.224729,-11.310256,-3.3967662,22.972208,-6.1863594,77.80277,46.146603,-20.397285,-16.221537,5.4995522
216,-3.3393959999084473,112.42196655273438,76.74717712402344,3.6862467399936185,-0.46677819348542227,88.58534704648746,-13.542167,-6.0586977,7.636181,23.465668,-10.146971,4.2073793,-8.77184,-1.2934743,3.331312,76.47598,7.7792864,6.1199174,-0.9277803,-2.9923608,4.161042,15.049375,8.573524,-98.86492,46.93412,6.3416576,-11.243823,-3.358017,23.171637,-6.2001915,77.441864,46.13106,-20.49305,-16.293695,5.7175856
217,-3.3781230449676514,113.31571197509766,76.87053680419922,3.765169092565644,-0.8458866162627386,88.61497143829695,-11.82338,-6.3051605,7.529991,22.458103,-10.427581,4.158646,-9.88124,-2.2606804,2.636085,77.44755,6.1375613,5.15443,-1.0483859,-3.057871,4.3864574,15.313151,8.58492,-98.60311,46.969738,6.5639963,-11.180834,-3.3770661,23.414272,-6.2127132,77.020996,46.121128,-20.633703,-16.29281,5.9959326
218,-3.4061572551727295,114.20455169677734,76.99308013916016,3.8339791279561313,-1.2455219201468588,88.63820078090902,-10.014738,-6.538761,7.4108276,21.305286,-10.625945,4.1162295,-10.977904,-3.4180577,1.7722627,78.22395,4.694285,3.9962282,-1.1634514,-3.1308963,4.6203823,15.5982,8.5882015,-98.33415,47.025654,6.862116,-11.1210575,-3.423197,23.699137,-6.220758,76.53183,46.116817,-20.819582,-16.239235,6.3240285
219,-3.428969621658325,115.08594512939453,77.10992431640625,3.88455379478278,-1.6530430091198294,88.65677023092348,-8.162455,-6.7538614,7.2702646,20.072395,-10.77544,4.0947685,-12.037283,-4.6020985,0.8803599,78.78799,3.3120232,2.7668028,-1.2598101,-3.1890998,4.8636646,15.883944,8.584678,-98.06047,47.076447,7.172995,-11.052312,-3.4825447,24.000715,-6.2267566,75.99724,46.112064,-21.017656,-16.17797,6.660097
220,-3.453420400619507,115.97124481201172,77.22533416748047,3.9082517493003865,-2.054315482830236,88.6710002191267,-6.315176,-6.943478,7.102453,18.826654,-10.9103565,4.106865,-13.047764,-5.644868,0.0976845,79.12167,1.8679928,1.5884978,-1.343492,-3.2188666,5.1091976,16.160952,8.574929,-97.76968,47.099606,7.431649,-10.960954,-3.5356193,24.290472,-6.2313185,75.48704,46.103344,-21.177078,-16.148363,6.949642
221,-3.477933645248413,116.85985565185547,77.32878112792969,3.898954654903159,-2.460969352359228,88.67578792980795,-4.4621577,-7.098187,6.9026256,17.578411,-11.0425825,4.157611,-13.9994955,-6.5069227,-0.5624379,79.21307,0.3141277,0.43055868,-1.4025468,-3.2077503,5.370893,16.42778,8.554788,-97.448364,47.0835,7.6468625,-10.828751,-3.5888007,24.573133,-6.237872,74.979164,46.08722,-21.28825,-16.163836,7.1870303
222,-3.5088882446289062,117.73561096191406,77.41624450683594,3.8633982796819004,-2.87490141914103,88.67138308457407,-2.5835936,-7.220039,6.67787,16.29182,-11.155819,4.233679,-14.904382,-7.2578645,-1.1722115,79.07221,-1.2781928,-0.73785967,-1.454445,-3.174802,5.6416326,16.69742,8.530644,-97.09434,47.03751,7.843216,-10.666474,-3.6439745,24.856565,-6.2452946,74.4901,46.06815,-21.36169,-16.197367,7.3868747
223,-3.5134201049804688,118.6122055053711,77.49385833740234,3.8134002895706187,-3.2681989962751796,88.6650495507524,-0.73039293,-7.3170915,6.443294,14.996552,-11.246054,4.3200097,-15.790841,-7.9001737,-1.7261845,78.71087,-2.8338814,-1.80301,-1.4964485,-3.125902,5.9052486,16.953398,8.495439,-96.73706,46.98909,7.9914637,-10.509456,-3.6961584,25.123,-6.2577724,74.00829,46.043327,-21.431229,-16.24422,7.5682216
224,-3.5178606510162354,119.479248046875,77.54986572265625,3.760564707723083,-3.612331722736572,88.66460170786924,1.0509173,-7.4004097,6.2125945,13.713222,-11.31,4.4047494,-16.688032,-8.446636,-2.224364,78.1412,-4.272972,-2.6611605,-1.5430847,-3.0747728,6.1366973,17.18984,8.434446,-96.40512,46.975487,8.0534115,-10.391843,-3.7295277,25.360352,-6.2848644,73.57136,46.00427,-21.511044,-16.292894,7.7344956
225,-3.537379264831543,120.33543395996094,77.59332275390625,3.7075429134488918,-3.9066773313177974,88.66661988674831,2.780703,-7.478534,5.987473,12.394016,-11.32059,4.494616,-17.597147,-8.913454,-2.6818013,77.34655,-5.600888,-3.2389984,-1.5973727,-3.0221374,6.33164,17.411469,8.390238,-96.078156,46.960926,7.984599,-10.3222475,-3.7327604,25.561787,-6.311738,73.19191,45.97339,-21.63028,-16.36162,7.8549647
226,-3.548752784729004,121.19339752197266,77.62688446044922,3.648606345902031,-4.164358935370409,88.6683707504516,4.466358,-7.545477,5.7643833,11.061627,-11.294661,4.591652,-18.504608,-9.297531,-3.1081965,76.32235,-6.839559,-3.6161292,-1.6509581,-2.9598196,6.5047607,17.619802,8.3297,-95.75195,46.96586,7.816099,-10.284311,-3.7161124,25.73947,-6.3623924,72.84361,45.923607,-21.775026,-16.449274,7.941872
227,-3.560087203979492,122.0429916381836,77.6371841430664,3.5872743632625013,-4.377010025349139,88.67886756948036,6.0690084,-7.596436,5.5448823,9.782164,-11.275028,4.682203,-19.418732,-9.588672,-3.4956355,75.09924,-7.933949,-3.9247224,-1.7074001,-2.9031699,6.6478195,17.80405,8.273221,-95.467384,46.96346,7.628415,-10.264538,-3.6961267,25.894093,-6.423961,72.541626,45.85805,-21.880249,-16.513758,8.045375
228,-3.556932210922241,122.87691497802734,77.62982940673828,3.5262268466584565,-4.535828596663765,88.70752713484096,7.540567,-7.625617,5.33137,8.63843,-11.311114,4.755593,-20.348282,-9.774649,-3.8319879,73.709816,-8.834866,-4.2968106,-1.7676451,-2.8634853,6.755061,17.952497,8.221059,-95.26564,46.94695,7.5034003,-10.25105,-3.690923,26.024544,-6.492818,72.28923,45.76989,-21.885794,-16.514061,8.22054
229,-3.5390071868896484,123.70934295654297,77.60150146484375,3.46394467612445,-4.629170772237486,88.758374130548,8.856007,-7.633042,5.1172986,7.6525664,-11.40665,4.821274,-21.32326,-9.817441,-4.0838013,72.1591,-9.515108,-4.8478127,-1.8331108,-2.8468304,6.815655,18.060534,8.17452,-95.16272,46.912315,7.485128,-10.251547,-3.7101283,26.130152,-6.5650835,72.093056,45.652153,-21.726812,-16.392534,8.511434
230,-3.520163059234619,124.52848815917969,77.54496002197266,3.3715421046052154,-4.66527085009171,88.83335825372775,9.926308,-7.583071,4.912593,7.0340295,-11.670356,4.8841357,-22.33346,-9.72097,-4.2924986,70.453606,-10.021943,-5.4938912,-1.9082004,-2.8165123,6.837176,18.1342,8.134718,-95.136696,46.862328,7.5221767,-10.268736,-3.7427826,26.208893,-6.639332,71.94543,45.51631,-21.454203,-16.185907,8.877793
231,-3.5007224082946777,125.33995819091797,77.4679183959961,3.268419530270023,-4.660144680801864,88.92713725655187,10.648773,-7.4854712,4.7513146,7.0447106,-12.2632475,4.930161,-23.320219,-9.582975,-4.5145288,68.58306,-10.39255,-6.0642467,-1.9885651,-2.7811985,6.8336773,18.18007,8.100561,-95.171455,46.802696,7.553829,-10.282593,-3.7756734,26.26622,-6.7144175,71.83524,45.37974,-21.177776,-15.994428,9.24925
232,-3.488593816757202,126.16561889648438,77.39042663574219,3.1752232002519056,-4.633059089442631,89.03046305630052,11.339241,-7.388409,4.61607,7.0713663,-12.88364,4.9467025,-24.222261,-9.494709,-4.8037677,66.53607,-10.662365,-6.381057,-2.0677156,-2.7527936,6.8223195,18.204628,8.077632,-95.24646,46.732933,7.5201745,-10.272924,-3.7966642,26.296595,-6.769589,71.75446,45.284393,-21.004538,-15.921391,9.554938
233,-3.4636802673339844,126.98014831542969,77.30274963378906,3.0876175798626777,-4.5840157141163225,89.14684585711471,12.005858,-7.2852964,4.514956,7.0967107,-13.541443,4.913914,-25.021427,-9.494428,-5.21001,64.27623,-10.814796,-6.340672,-2.140658,-2.7198372,6.8055587,18.199156,8.044526,-95.39727,46.667706,7.411368,-10.223153,-3.8038385,26.31224,-6.8493876,71.68969,45.188072,-20.984241,-16.038559,9.7713995
234,-3.440424919128418,127.79291534423828,77.1927261352539,3.0055078391937657,-4.504861031224202,89.27758016739416,12.638528,-7.177924,4.4375587,7.1195445,-14.220076,4.8461094,-25.743938,-9.52636,-5.695422,61.80329,-10.82424,-6.0500364,-2.220298,-2.6934826,6.773516,18.167374,8.013488,-95.60466,46.59482,7.262328,-10.147454,-3.8058786,26.30116,-6.9196467,71.66441,45.118725,-21.048285,-16.27768,9.93476
235,-3.4040372371673584,128.60755920410156,77.07603454589844,2.9348026222049675,-4.402518780110232,89.41482766346373,13.245473,-7.079242,4.3713236,7.142049,-14.890286,4.775454,-26.402702,-9.530194,-6.1920013,59.17289,-10.719274,-5.6502213,-2.2936985,-2.6761518,6.73273,18.120188,7.981845,-95.833626,46.53107,7.0586467,-10.074882,-3.7936716,26.271553,-6.986851,71.66335,45.06034,-21.138348,-16.529594,10.082437
236,-3.3698861598968506,129.4162139892578,76.95083618164062,2.8818374409812266,-4.284502848215452,89.55035743927942,13.8356905,-7.0026345,4.303307,7.163491,-15.521027,4.732016,-27.012426,-9.458195,-6.6234922,56.44368,-10.538494,-5.2912264,-2.3549337,-2.6745398,6.6892624,18.070549,7.951084,-96.0378,46.489212,6.7890654,-10.034396,-3.7600515,26.22812,-7.050075,71.68199,45.006264,-21.194443,-16.685081,10.250699
237,-3.339876651763916,130.2217559814453,76.82090759277344,2.8488463076640858,-4.150366905933159,89.67988833354264,14.40695,-6.952491,4.233746,7.1838574,-16.110497,4.728811,-27.594984,-9.3171015,-6.960619,53.633865,-10.26381,-5.0349436,-2.3992682,-2.6934006,6.649794,18.011684,7.922849,-96.2101,46.481632,6.3750243,-10.04918,-3.6876774,26.163355,-7.1088343,71.72329,44.957798,-21.200756,-16.687965,10.461835
238,-3.30696964263916,131.0324249267578,76.6771011352539,2.830747832226251,-3.99706846830682,89.80952693318375,14.955993,-6.9190397,4.1670136,7.2037973,-16.67341,4.7440734,-28.137524,-9.138873,-7.2391505,50.71123,-9.889131,-4.8055763,-2.4355497,-2.7290885,6.6090155,17.9407,7.9032087,-96.36613,46.491264,5.850277,-10.099085,-3.5880172,26.07328,-7.1508255,71.79297,44.929905,-21.189426,-16.605799,10.691617
239,-3.2618086338043213,131.83995056152344,76.52515411376953,2.8257563374307604,-3.828015386724513,89.94581997210828,15.489698,-6.8958807,4.0965214,7.2223015,-17.20065,4.7572308,-28.608286,-8.925863,-7.472585,47.66448,-9.46998,-4.553137,-2.4643617,-2.769516,6.5561767,17.874996,7.8701706,-96.522644,46.516785,5.361473,-10.148539,-3.4880164,25.988443,-7.221715,71.874176,44.87273,-21.172466,-16.511995,10.909427
240,-3.220374584197998,132.66151428222656,76.37325286865234,2.832944076569585,-3.6472278412112606,90.09595972587422,16.017555,-6.8787208,4.0148005,7.237123,-17.68343,4.7502394,-28.976315,-8.6832485,-7.6739817,44.482033,-9.061564,-4.228298,-2.506529,-2.815268,6.4788427,17.836834,7.843581,-96.65168,46.514393,5.073404,-10.159082,-3.4265308,25.908724,-7.276535,71.97409,44.83354,-21.15971,-16.48393,11.080256
