unveil-humanoid-operators/unveil-humanoid-operators.github.io/feature-analysis-animation/data/feature_matrix_instances/height_ankle_rom_jogging_A039_jog_sideway_090_stop_003__A039.csv
Frame,root_translateX,root_translateY,root_translateZ,root_rotateX,root_rotateY,root_rotateZ,left_hip_pitch_joint_dof,left_hip_roll_joint_dof,left_hip_yaw_joint_dof,left_knee_joint_dof,left_ankle_pitch_joint_dof,left_ankle_roll_joint_dof,right_hip_pitch_joint_dof,right_hip_roll_joint_dof,right_hip_yaw_joint_dof,right_knee_joint_dof,right_ankle_pitch_joint_dof,right_ankle_roll_joint_dof,waist_yaw_joint_dof,waist_roll_joint_dof,waist_pitch_joint_dof,left_shoulder_pitch_joint_dof,left_shoulder_roll_joint_dof,left_shoulder_yaw_joint_dof,left_elbow_joint_dof,left_wrist_roll_joint_dof,left_wrist_pitch_joint_dof,left_wrist_yaw_joint_dof,right_shoulder_pitch_joint_dof,right_shoulder_roll_joint_dof,right_shoulder_yaw_joint_dof,right_elbow_joint_dof,right_wrist_roll_joint_dof,right_wrist_pitch_joint_dof,right_wrist_yaw_joint_dof
0,0.21387343108654022,1.9888935089111328,79.11827850341797,0.1244258270403613,0.028751738610349763,-93.79788087971937,1.3321092,7.777792,23.107391,8.320556,-7.9390616,-5.4192615,-0.1922509,-8.601378,-24.151825,8.606472,-5.60535,5.2178707,-0.46861476,0.59569746,8.509608,3.7603412,8.948917,-19.15268,62.681557,8.312951,-0.82917583,10.454812,-5.138795,-11.254621,38.075592,67.696556,0.18063177,-2.8348444,-6.902451
1,0.2157296985387802,2.0020482540130615,79.11683654785156,0.11916567596124962,0.06932422854382721,-93.76279633998436,1.1229297,7.8331814,23.051321,8.636164,-8.084216,-5.3685007,-0.21421261,-8.593819,-24.189106,8.555599,-5.5882106,5.2551627,-0.44720647,0.5811569,8.501674,3.7205908,8.951123,-19.137232,62.67307,8.325213,-0.8155456,10.491331,-5.165449,-11.251363,38.080845,67.67044,0.15317288,-2.9220421,-7.038436
2,0.2165803462266922,2.017854928970337,79.11164855957031,0.11124080618586075,0.10847901629527602,-93.72823737204764,0.90457785,7.89933,22.99327,8.978841,-8.243188,-5.320059,-0.22844978,-8.578167,-24.22801,8.492286,-5.5643964,5.291231,-0.44246373,0.56403387,8.502929,3.676994,8.958181,-19.094414,62.665863,8.350849,-0.8017498,10.523368,-5.2026315,-11.244212,38.10302,67.644226,0.13081521,-3.0062916,-7.1704807
3,0.21962420642375946,2.0334391593933105,79.10723876953125,0.10449938189052725,0.1517905348915849,-93.69050470860341,0.68241394,7.9600525,22.931992,9.313349,-8.397317,-5.2681007,-0.25146326,-8.567267,-24.268661,8.437173,-5.545922,5.3281126,-0.42697275,0.5506495,8.494965,3.6407993,8.961593,-19.068657,62.650658,8.362634,-0.7903444,10.558181,-5.229205,-11.242166,38.111565,67.61038,0.09977595,-3.0931888,-7.3111167
4,0.22456663846969604,2.053863525390625,79.09765625,0.09936537404846739,0.21456084725732835,-93.64246252321819,0.3802609,8.036421,22.851425,9.762697,-8.603413,-5.2087603,-0.44126996,-8.628443,-24.29629,8.712845,-5.7032866,5.367674,-0.4236681,0.5303583,8.4865675,3.5993912,8.969494,-18.99665,62.618126,8.373146,-0.7922509,10.581331,-5.277754,-11.239565,38.12668,67.56432,0.063368216,-3.1882634,-7.4687724
5,0.23259612917900085,2.0771048069000244,79.08611297607422,0.09538461194423428,0.2928269984680311,-93.58083016346146,0.018703254,8.12059,22.750694,10.288948,-8.843584,-5.140431,-0.68976754,-8.715968,-24.329874,9.084008,-5.917356,5.407261,-0.43695194,0.5066661,8.474922,3.572612,8.980296,-18.88741,62.552452,8.377124,-0.8088071,10.596851,-5.339177,-11.239789,38.14478,67.503494,0.005336546,-3.2938185,-7.6514897
6,0.24148470163345337,2.102036476135254,79.07013702392578,0.08826719555980718,0.382170248384878,-93.50899827184651,-0.39226687,8.217287,22.632582,10.885162,-9.115903,-5.0659094,-0.9673135,-8.812066,-24.370884,9.494829,-6.1575665,5.4459963,-0.43278143,0.49074543,8.452033,3.5334847,8.986056,-18.798344,62.49062,8.356988,-0.8343558,10.615797,-5.3935213,-11.24362,38.140343,67.432365,-0.067249626,-3.407552,-7.85509
7,0.24928197264671326,2.1309194564819336,79.0514144897461,0.07100647747912171,0.4814499436474322,-93.42796439955113,-0.86231536,8.337472,22.494719,11.573424,-9.427656,-4.986682,-1.2766235,-8.909546,-24.417597,9.951832,-6.4196606,5.485958,-0.43261212,0.48467708,8.432498,3.49513,8.990114,-18.682835,62.410023,8.336933,-0.86586595,10.625968,-5.4598427,-11.2518,38.126495,67.349556,-0.14428787,-3.5236788,-8.0642
8,0.2619379460811615,2.1651642322540283,79.02735900878906,0.036060987402854454,0.5894979988470883,-93.3395818247451,-1.4024426,8.493761,22.334425,12.379255,-9.788643,-4.9043965,-1.608023,-8.993891,-24.47033,10.433707,-6.688793,5.52877,-0.44404462,0.49738732,8.424093,3.4661193,8.991427,-18.518448,62.298008,8.327488,-0.8995015,10.621724,-5.541648,-11.269922,38.105034,67.247765,-0.21653932,-3.636378,-8.265854
9,0.2752140462398529,2.2005765438079834,78.99868774414062,-0.01435477842261199,0.7078431151360558,-93.24341912077995,-2.0102053,8.681682,22.151342,13.292968,-10.195938,-4.8169003,-1.9642227,-9.068215,-24.526138,10.944504,-6.9665785,5.5803685,-0.44504514,0.5300831,8.413237,3.4325943,8.987694,-18.358767,62.17564,8.309094,-0.9295365,10.608415,-5.627156,-11.290133,38.06151,67.13572,-0.27595976,-3.7485561,-8.466529
10,0.293931245803833,2.245870590209961,78.9628677368164,-0.07861087010987969,0.8357036883955837,-93.1385549517763,-2.6813526,8.89781,21.94487,14.306435,-10.646767,-4.7233963,-2.346379,-9.1370125,-24.586359,11.491245,-7.2594533,5.6373253,-0.45579177,0.5793988,8.411215,3.3973746,8.976428,-18.161772,62.035675,8.301796,-0.9625672,10.581008,-5.72655,-11.323538,38.01224,67.00289,-0.3291266,-3.8601875,-8.665586
11,0.3160018026828766,2.2933127880096436,78.92040252685547,-0.1644879141673767,0.9707443026137287,-93.02790801392102,-3.424353,9.155061,21.712769,15.444252,-11.147894,-4.62734,-2.7618515,-9.196135,-24.65351,12.093786,-7.5732346,5.6871924,-0.45994315,0.65613246,8.413623,3.3666255,8.956255,-17.937923,61.86952,8.288811,-0.9968054,10.550872,-5.834194,-11.366326,37.943207,66.85997,-0.38359755,-3.9677536,-8.8586445
12,0.3374819755554199,2.344632625579834,78.86946105957031,-0.28017393698789017,1.1101091317533767,-92.91357222687576,-4.242371,9.463228,21.452639,16.718843,-11.703185,-4.532321,-3.2148383,-9.240482,-24.73084,12.766503,-7.9112353,5.7177987,-0.45474094,0.7653892,8.4232855,3.3499017,8.928405,-17.66959,61.661625,8.269571,-1.0322282,10.523894,-5.9500093,-11.413268,37.835857,66.71228,-0.4644259,-4.0648394,-9.038076
13,0.3615313768386841,2.3971846103668213,78.80665588378906,-0.4346149429836048,1.2554752136913356,-92.7927085560194,-5.1594863,9.836759,21.151985,18.17414,-12.330338,-4.4330215,-3.6998987,-9.254435,-24.824001,13.491939,-8.2677,5.7248325,-0.4606063,0.93193287,8.449049,3.3359888,8.862278,-17.309765,61.42268,8.259588,-1.0699524,10.497849,-6.065384,-11.5049305,37.71005,66.52635,-0.5632542,-4.1461005,-9.200573
14,0.39081430435180664,2.4576854705810547,78.7308349609375,-0.6216854483921075,1.4077202614388022,-92.66588460079748,-6.164901,10.2640085,20.812601,19.782352,-13.019324,-4.32833,-4.2219067,-9.248388,-24.928425,14.282634,-8.648943,5.714447,-0.4503728,1.1352344,8.478193,3.3213813,8.784632,-16.918982,61.158474,8.236554,-1.1071225,10.474279,-6.189464,-11.598296,37.547066,66.33918,-0.6748317,-4.217037,-9.355171
15,0.4218856692314148,2.5216166973114014,78.64043426513672,-0.8273831022613924,1.5624432929668413,-92.53939744214685,-7.2185063,10.721083,20.452112,21.472168,-13.737021,-4.229955,-4.784033,-9.245823,-25.035917,15.158252,-9.06106,5.6911135,-0.4347362,1.3627369,8.515752,3.3198757,8.696419,-16.489649,60.851765,8.218085,-1.1475904,10.454392,-6.3310337,-11.697095,37.35833,66.1545,-0.8054721,-4.285163,-9.493706
16,0.4575083553791046,2.593842029571533,78.53499603271484,-1.0375198622611579,1.7154616351106633,-92.41979150373129,-8.282219,11.183071,20.090118,23.178602,-14.45252,-4.1517515,-5.4062986,-9.277878,-25.134148,16.173714,-9.521069,5.6597557,-0.4110065,1.6020169,8.564325,3.3418972,8.600225,-16.035507,60.488064,8.214164,-1.1943223,10.441565,-6.4974737,-11.805831,37.153015,65.97809,-0.9502279,-4.358983,-9.608691
17,0.4934195280075073,2.657275915145874,78.41291046142578,-1.254084870752588,1.8673706137659298,-92.30715691380938,-9.356554,11.649954,19.73246,24.904587,-15.165521,-4.1006026,-6.101088,-9.34385,-25.223888,17.350586,-10.033778,5.620894,-0.37736785,1.8551787,8.623298,3.392472,8.495619,-15.545619,60.058376,8.236777,-1.2447563,10.4359455,-6.6842375,-11.926473,36.91869,65.809265,-1.1177298,-4.437949,-9.689455
18,0.536338210105896,2.7279300689697266,78.27583312988281,-1.4819566935169608,2.020069283166699,-92.19859975395188,-10.458744,12.128644,19.368628,26.678679,-15.889134,-4.071878,-6.8579574,-9.429303,-25.30944,18.658478,-10.589118,5.5744615,-0.3357598,2.1266978,8.692123,3.4641774,8.381495,-15.016493,59.569958,8.277659,-1.2982922,10.4355755,-6.8883386,-12.059895,36.655575,65.64202,-1.3072027,-4.518469,-9.742246
19,0.589562177658081,2.8068292140960693,78.12068176269531,-1.7117036650054476,2.1710577925378916,-92.09588218689741,-11.572035,12.604306,18.997234,28.470594,-16.61212,-4.063975,-7.6527615,-9.539141,-25.38775,20.051933,-11.1730585,5.5270514,-0.28821686,2.4067104,8.7741995,3.5492876,8.261726,-14.476286,59.032986,8.312609,-1.3608072,10.441055,-7.1209607,-12.20981,36.3964,65.473495,-1.4938829,-4.60416,-9.785246
20,0.6406726837158203,2.884169578552246,77.9476547241211,-1.9329937543325708,2.317666437076357,-92.00032676872372,-12.6851,13.0636835,18.616056,30.261356,-17.323256,-4.0750675,-8.460239,-9.677608,-25.45568,21.48312,-11.770072,5.4850707,-0.23661901,2.684386,8.873564,3.6439238,8.143045,-13.953005,58.45379,8.317803,-1.4382545,10.451994,-7.389319,-12.381878,36.17122,65.296326,-1.6564178,-4.6985593,-9.836087
21,0.6976220011711121,2.9650731086730957,77.76232147216797,-2.145652085671238,2.4589801914472926,-91.91422554941143,-13.791608,13.500606,18.231041,32.041748,-18.046215,-4.0667815,-9.286644,-9.845762,-25.51109,22.960234,-12.377718,5.444667,-0.17751887,2.960532,8.995942,3.754087,8.028096,-13.446734,57.8104,8.282316,-1.5304551,10.463084,-7.6932116,-12.581187,35.982567,65.10143,-1.7953988,-4.8062515,-9.898141
22,0.757229745388031,3.0480008125305176,77.55824279785156,-2.353538177326325,2.5966127968304877,-91.8361892281989,-14.898761,13.918432,17.843447,33.82459,-18.776701,-4.057151,-10.140477,-10.037941,-25.555979,24.496178,-13.000204,5.408,-0.11062624,3.2382576,9.1388645,3.8831203,7.916311,-12.945234,57.101673,8.219829,-1.6346873,10.474533,-8.024515,-12.809321,35.81855,64.88376,-1.9168805,-4.922068,-9.961095
23,0.8265841603279114,3.1263551712036133,77.33875274658203,-2.551080712536048,2.7314431137793584,-91.76165805037947,-16.01152,14.317493,17.446898,35.61551,-19.464495,-4.1281643,-10.997904,-10.251013,-25.594156,26.045952,-13.631294,5.3893895,-0.042603612,3.5086143,9.294799,4.0240207,7.811618,-12.460185,56.36568,8.141328,-1.7535976,10.494729,-8.378743,-13.065651,35.680973,64.65157,-2.0166676,-5.0413284,-10.022358
24,0.9045965075492859,3.214956760406494,77.11210632324219,-2.733371870561636,2.8647983049782897,-91.68641337297724,-17.135927,14.6999035,17.03627,37.42246,-20.063372,-4.3610353,-11.840924,-10.4861,-25.628582,27.581463,-14.269911,5.401419,0.020983834,3.7615552,9.456672,4.1712704,7.720425,-12.004336,55.638504,8.05754,-1.8897312,10.531034,-8.7518015,-13.347239,35.57315,64.41105,-2.0871882,-5.1586385,-10.079354
25,0.9742466807365417,3.2924764156341553,76.8796157836914,-2.89918374736128,3.0027291854010905,-91.60881507181227,-18.29259,15.061118,16.605902,39.271492,-20.53929,-4.8023014,-12.669737,-10.743566,-25.664629,29.09295,-14.918469,5.450576,0.07782341,3.9941185,9.621619,4.331701,7.6497808,-11.592744,54.90547,7.976787,-2.0464094,10.577151,-9.147407,-13.65225,35.49671,64.15928,-2.1172512,-5.2839627,-10.124776
26,1.049115777015686,3.359145402908325,76.639404296875,-3.0499864848449225,3.1431843648093065,-91.53119541315294,-19.47528,15.399773,16.1643,41.159416,-20.934591,-5.4041305,-13.495746,-11.025082,-25.698843,30.603931,-15.580883,5.5300164,0.13260981,4.2074294,9.794514,4.5101314,7.6006904,-11.217378,54.15056,7.8897195,-2.2214363,10.629944,-9.566566,-13.979826,35.451164,63.893692,-2.1110072,-5.41669,-10.161933
27,1.1344685554504395,3.431529998779297,76.3875961303711,-3.1838359344099736,3.2741860603143977,-91.45411016206894,-20.648714,15.724985,15.725044,43.048798,-21.314995,-6.1018033,-14.30237,-11.328399,-25.722216,32.101547,-16.242876,5.6302805,0.18811496,4.3977733,9.978789,4.697588,7.5691385,-10.853723,53.410954,7.781667,-2.409815,10.702892,-9.999116,-14.328172,35.429047,63.623108,-2.0956388,-5.536063,-10.204632
28,1.2157355546951294,3.4958019256591797,76.12860107421875,-3.2999228023607383,3.3838964526251734,-91.3783940399224,-21.776844,16.04956,15.300847,44.900555,-21.742634,-6.8290496,-15.073174,-11.651424,-25.725744,33.576122,-16.892046,5.7407475,0.24644941,4.5631247,10.177321,4.882806,7.548474,-10.476762,52.72712,7.6385674,-2.6064308,10.810291,-10.439338,-14.6958065,35.427334,63.361973,-2.0951555,-5.6213317,-10.267371
29,1.2958085536956787,3.549511671066284,75.86901092529297,-3.4124424845656898,3.4715654148346635,-91.3040252079918,-22.861633,16.34249,14.806487,46.683617,-22.224575,-7.7030125,-15.797438,-11.977489,-25.717787,35.013893,-17.52137,5.858262,0.30446395,4.7217574,10.391827,5.067301,7.5350704,-10.085341,52.101395,7.4934087,-2.820631,10.97521,-10.8953905,-15.083158,35.465755,63.109375,-2.1215928,-5.6593456,-10.369693
30,1.3935374021530151,3.5990257263183594,75.60650634765625,-3.5170087666373115,3.5428022796902887,-91.23038332936592,-23.9191,16.609024,14.269636,48.430943,-22.737072,-8.712714,-16.484573,-12.313634,-25.69971,36.422684,-18.138159,5.9873886,0.36048812,4.869585,10.61951,5.254804,7.529097,-9.689232,51.51931,7.3437953,-3.0522408,11.184503,-11.371658,-15.490325,35.54396,62.864265,-2.1580508,-5.663747,-10.499296
31,1.5018095970153809,3.6384437084198,75.34761810302734,-3.584922926401609,3.59505325728957,-91.15755909796691,-24.93468,16.925697,13.86137,50.19599,-23.283695,-9.58883,-17.14903,-12.691939,-25.651169,37.826073,-18.752455,6.1277094,0.42072368,4.974146,10.856892,5.4355674,7.528415,-9.281672,50.9955,7.12183,-3.2817996,11.397826,-11.845027,-15.911832,35.61562,62.62936,-2.1953456,-5.6533647,-10.622559
32,1.6192072629928589,3.6747262477874756,75.08845520019531,-3.5889810829103337,3.625602026810974,-91.08599943417464,-25.89183,17.376808,13.741823,52.024647,-23.85289,-10.057217,-17.802675,-13.142528,-25.551142,39.243717,-19.372055,6.2779307,0.49166048,5.0038795,11.099712,5.598968,7.530389,-8.8558235,50.546486,6.7590594,-3.4901197,11.574927,-12.295805,-16.340012,35.634155,62.41498,-2.2247446,-5.647427,-10.706389
33,1.737379789352417,3.700425148010254,74.83137512207031,-3.5084011801481614,3.630388362943512,-91.01778530853308,-26.766478,18.003326,13.99728,53.933907,-24.4458,-9.990348,-18.453037,-13.692078,-25.382656,40.69546,-20.005035,6.4349456,0.57844865,4.934555,11.352024,5.733636,7.5321403,-8.403039,50.194496,6.208017,-3.6819515,11.725208,-12.732175,-16.770674,35.605953,62.24411,-2.2279518,-5.651886,-10.731038
34,1.8612209558486938,3.720717430114746,74.57884216308594,-3.3639593115211777,3.6110586633089303,-90.95237553310844,-27.563154,18.772367,14.512012,55.890232,-25.060135,-9.538497,-19.089506,-14.315912,-25.15862,42.1606,-20.642385,6.5975437,0.6761816,4.7903137,11.613836,5.847264,7.533986,-7.92819,49.9277,5.515375,-3.8650417,11.863262,-13.164795,-17.203033,35.549786,62.114468,-2.2158632,-5.6567225,-10.719061
35,1.996418833732605,3.7376060485839844,74.3261947631836,-3.1917665016726144,3.573773425905255,-90.88656906627573,-28.300116,19.655067,15.142578,57.846493,-25.68191,-8.844543,-19.698284,-14.966559,-24.903246,43.602142,-21.269012,6.767457,0.77695036,4.6110597,11.87448,5.9584394,7.5395775,-7.445378,49.709045,4.753139,-4.0229783,11.95698,-13.577025,-17.635513,35.437695,61.99916,-2.2223337,-5.657261,-10.699706
36,2.13905930519104,3.7496964931488037,74.0754623413086,-3.027386844564169,3.5249373362459915,-90.81699978722452,-29.00257,20.615795,15.748407,59.755486,-26.292421,-8.05656,-20.264582,-15.596969,-24.642935,44.982433,-21.869534,6.947278,0.8749912,4.435807,12.1235285,6.0849495,7.5551,-6.9718995,49.501194,3.990937,-4.1385083,11.974548,-13.947079,-18.065874,35.23651,61.866287,-2.2831602,-5.6487327,-10.702163
37,2.286741256713867,3.747741460800171,73.8232192993164,-2.8691042740629134,3.46117796287737,-90.74681853713965,-29.661366,21.68476,16.36309,61.630924,-26.903313,-7.1299624,-20.788958,-16.205112,-24.372908,46.304783,-22.444963,7.136442,0.9786596,4.258757,12.364748,6.227119,7.581969,-6.4955697,49.307034,3.211007,-4.189126,11.901862,-14.2748575,-18.491276,34.92489,61.728577,-2.421297,-5.6249037,-10.735301
38,2.4367775917053223,3.7462732791900635,73.57276153564453,-2.7022823608475863,3.3805967560329324,-90.67684960440474,-30.262419,22.870409,17.03543,63.487125,-27.530355,-6.0101395,-21.277554,-16.81256,-24.083488,47.58477,-23.00171,7.333059,1.0892277,4.063474,12.601801,6.377078,7.619739,-6.013918,49.14094,2.386436,-4.1874566,11.758637,-14.563048,-18.910492,34.5138,61.59232,-2.6227136,-5.5897574,-10.782851
39,2.594747543334961,3.7371840476989746,73.32483673095703,-2.541971153702597,3.2917790624849967,-90.59986037302815,-30.83682,24.098213,17.651794,65.280914,-28.151436,-4.8330946,-21.727388,-17.41117,-23.796036,48.81095,-23.536074,7.5387836,1.1916342,3.8704994,12.823845,6.5414853,7.6750345,-5.5600915,48.98094,1.5730988,-4.16839,11.5639715,-14.823038,-19.328714,34.054527,61.43845,-2.8286393,-5.555453,-10.836268
40,2.7668659687042236,3.717482566833496,73.07920837402344,-2.4028583808318,3.2031291895855345,-90.50832591952565,-31.423729,25.288883,18.099594,66.96793,-28.732452,-3.7412107,-22.134277,-17.992163,-23.532242,49.97041,-24.043827,7.7556767,1.2718303,3.698439,13.02049,6.729107,7.758163,-5.167973,48.80216,0.82602566,-4.1675467,11.335253,-15.066808,-19.756477,33.60088,61.244617,-2.9764962,-5.534175,-10.886817
41,2.945751428604126,3.6935231685638428,72.83462524414062,-2.291579487921032,3.1168601258540254,-90.39752671585858,-32.04825,26.432037,18.348272,68.54909,-29.254463,-2.7442658,-22.494999,-18.553074,-23.303738,51.063637,-24.527918,7.984098,1.3243067,3.5553007,13.188887,6.94736,7.873069,-4.8519454,48.601353,0.15201011,-4.1890416,11.065181,-15.280541,-20.199419,33.13681,60.992294,-3.0365832,-5.5233545,-10.926253
42,3.142634391784668,3.660102128982544,72.59552764892578,-2.1991900685870522,3.0284581450846777,-90.27230207313569,-32.696774,27.560392,18.458145,70.04384,-29.732294,-1.779849,-22.812351,-19.099665,-23.098278,52.097664,-24.989819,8.223031,1.3612196,3.4286585,13.336228,7.1899476,8.0191555,-4.5958185,48.38827,-0.47772026,-4.214637,10.746943,-15.462799,-20.659615,32.648033,60.690483,-3.035349,-5.518331,-10.959986
43,3.3466410636901855,3.6185898780822754,72.35872650146484,-2.117125179423271,2.937083753484422,-90.13945701064615,-33.353344,28.658054,18.455036,71.43465,-30.173695,-0.88518745,-23.092508,-19.637287,-22.90202,53.072758,-25.423237,8.473055,1.3915309,3.3072221,13.46645,7.4469385,8.198704,-4.3861217,48.157593,-1.0631397,-4.2476716,10.396813,-15.613038,-21.140596,32.156467,60.331554,-3.0353131,-5.5266776,-10.999402
44,3.5618934631347656,3.5747642517089844,72.1298599243164,-2.036521283061215,2.841537285787937,-90.00589268466443,-33.999073,29.710615,18.367598,72.70544,-30.587563,-0.0978248,-23.340773,-20.170511,-22.700893,53.98585,-25.82503,8.735054,1.4231671,3.179605,13.583643,7.7093425,8.414502,-4.208351,47.90278,-1.6044824,-4.2918406,10.03053,-15.723301,-21.645401,31.677828,59.901024,-3.105728,-5.5557094,-11.055747
45,3.791584014892578,3.519432544708252,71.91060638427734,-1.9542342692490025,2.7388361725138437,-89.8715991002324,-34.639423,30.699745,18.176683,73.84917,-30.970947,0.5518757,-23.55749,-20.703777,-22.490738,54.844296,-26.197872,9.008685,1.4556916,3.0430505,13.68916,7.967626,8.670316,-4.076091,47.646633,-2.1371412,-4.3556147,9.620903,-15.807149,-22.177223,31.23168,59.40535,-3.2277071,-5.6057,-11.12152
46,4.028538227081299,3.469979763031006,71.7002182006836,-1.8750553474558977,2.630271476625627,-89.73348992956349,-35.28631,31.634525,17.878107,74.876686,-31.314722,1.0868444,-23.74076,-21.23431,-22.27959,55.648804,-26.544132,9.294071,1.4848884,2.9030652,13.780161,8.229795,8.964823,-3.9906378,47.38436,-2.650188,-4.434055,9.168666,-15.839534,-22.735188,30.782503,58.827637,-3.3992238,-5.672511,-11.193501
47,4.285079479217529,3.417283773422241,71.50199127197266,-1.801355068946898,2.5224265602020584,-89.5934191041931,-35.930492,32.539352,17.520327,75.79773,-31.6175,1.5493408,-23.891277,-21.755856,-22.072353,56.382835,-26.851875,9.592375,1.5202792,2.7591615,13.858422,8.508419,9.295222,-3.924199,47.0676,-3.073938,-4.512239,8.733238,-15.838622,-23.320559,30.349176,58.186222,-3.6151066,-5.758637,-11.291324
48,4.551560878753662,3.358880043029785,71.31407165527344,-1.7364037143874858,2.4216530075874028,-89.45324352025197,-36.562725,33.44097,17.15053,76.6241,-31.88035,1.9826512,-24.0113,-22.262445,-21.873392,57.033417,-27.110792,9.904467,1.5649076,2.6125956,13.9236765,8.821148,9.65403,-3.8422766,46.6467,-3.3358746,-4.5773277,8.374253,-15.784222,-23.930994,29.91243,57.469086,-3.9175286,-5.8653097,-11.434467
49,4.829237461090088,3.300610065460205,71.14291381835938,-1.6811487632022828,2.326271441627837,-89.31210470450762,-37.19182,34.338245,16.754288,77.359215,-32.087563,2.3728874,-24.098703,-22.754873,-21.683907,57.60246,-27.321335,10.232309,1.617875,2.4651663,13.979969,9.166078,10.03699,-3.731887,46.130596,-3.3835416,-4.637213,8.099661,-15.680168,-24.565304,29.462715,56.685627,-4.3407235,-6.0026965,-11.634886
50,5.1212158203125,3.235525608062744,70.98287200927734,-1.6337169365144524,2.2341137522273313,-89.16932750071787,-37.82142,35.219208,16.315855,77.99747,-32.24199,2.704688,-24.15405,-23.236437,-21.501362,58.097122,-27.488623,10.574671,1.6751045,2.3173232,14.025634,9.538151,10.44406,-3.608784,45.537823,-3.2637744,-4.697888,7.881651,-15.529881,-25.223185,29.007078,55.835873,-4.8616486,-6.1653194,-11.881322
51,5.427392959594727,3.166797637939453,70.84085845947266,-1.5932713621348624,2.1503237090516003,-89.02751328494618,-38.430397,36.094875,15.882967,78.53432,-32.374176,3.0197794,-24.179834,-23.703993,-21.325987,58.50603,-27.606472,10.927381,1.7324017,2.1675658,14.048437,9.952418,10.873889,-3.4804647,44.834354,-3.0551724,-4.743315,7.726232,-15.287923,-25.903275,28.53627,54.87215,-5.4536843,-6.3309097,-12.158013
52,5.746517181396484,3.096224784851074,70.71831512451172,-1.5587446472834172,2.0804082845546303,-88.88901027059937,-38.99787,36.977116,15.502836,78.9666,-32.515816,3.3596694,-24.180313,-24.155094,-21.157671,58.820568,-27.669907,11.286352,1.7984881,2.0150065,14.048081,10.414799,11.329092,-3.3634827,43.97964,-2.8355994,-4.7565637,7.6397557,-15.039459,-26.607298,28.131748,53.854,-5.98529,-6.478423,-12.448716
53,6.082923889160156,3.0253562927246094,70.61370849609375,-1.5265997193593726,2.022873898229939,-88.75454785281018,-39.519897,37.888325,15.193499,79.30439,-32.680237,3.7473896,-24.159431,-24.593134,-20.990221,59.05016,-27.6865,11.651188,1.8658642,1.8525058,14.021859,10.939429,11.809309,-3.2426422,42.95526,-2.5811,-4.7298727,7.6455936,-14.756246,-27.334572,27.772938,52.754856,-6.4663415,-6.6091623,-12.743375
54,6.43234920501709,2.9482858180999756,70.527099609375,-1.498728760044167,1.9758688584336566,-88.62267024438349,-40.006428,38.816235,14.930328,79.54604,-32.849586,4.15592,-24.114218,-25.018383,-20.825626,59.19621,-27.656055,12.023662,1.930708,1.6820692,13.970054,11.523403,12.3129835,-3.1115193,41.781197,-2.2647924,-4.6720867,7.7324796,-14.394379,-28.084007,27.421598,51.54231,-6.9589863,-6.731664,-13.052548
55,6.8013763427734375,2.867015838623047,70.46199798583984,-1.4806399280603781,1.9443307928997795,-88.4924462148017,-40.456177,39.720528,14.698392,79.67229,-33.009846,4.5510836,-24.03815,-25.423817,-20.675507,59.236446,-27.561136,12.402883,1.9969577,1.5164342,13.892252,12.154693,12.83724,-2.9912915,40.47456,-1.9604473,-4.5913615,7.8540263,-13.956688,-28.852127,27.076622,50.218136,-7.480613,-6.8344007,-13.3903
56,7.185346603393555,2.7837042808532715,70.41917419433594,-1.4782471784207585,1.9331471803572415,-88.36277756547074,-40.865837,40.561066,14.484204,79.6632,-33.145515,4.898702,-23.923977,-25.802343,-20.551804,59.14862,-27.384321,12.787883,2.0563164,1.3659408,13.776942,12.830337,13.375942,-2.893964,39.056694,-1.7401369,-4.496466,7.964119,-13.348,-29.633595,26.68643,48.70243,-8.105159,-6.9058886,-13.771813
57,7.5905351638793945,2.7004330158233643,70.40193939208984,-1.494142881135895,1.9431315261866107,-88.2365027699461,-41.23808,41.357937,14.295618,79.526115,-33.26556,5.2003093,-23.779335,-26.150673,-20.447788,58.94282,-27.128708,13.180835,2.130421,1.2374716,13.642846,13.548779,13.933178,-2.8244715,37.482887,-1.6409394,-4.377927,8.069324,-12.765333,-30.43267,26.36343,47.124603,-8.8182125,-6.902787,-14.230705
58,8.014276504516602,2.6129343509674072,70.4156265258789,-1.5246917886911837,1.9719494185913145,-88.11299529398859,-41.570156,42.121544,14.140577,79.2679,-33.372986,5.468975,-23.60349,-26.47254,-20.360518,58.623703,-26.799984,13.581243,2.2025125,1.1209506,13.481945,14.326999,14.506343,-2.761529,35.75209,-1.6168803,-4.2343116,8.187602,-12.119292,-31.248156,26.059004,45.41855,-9.629958,-6.841191,-14.748884
59,8.462145805358887,2.5259125232696533,70.45447540283203,-1.566619875558468,2.0203728842162714,-87.98622197129293,-41.850067,42.80032,14.00593,78.871216,-33.44455,5.6879005,-23.38176,-26.772476,-20.305285,58.16933,-26.388859,13.984682,2.2650356,1.0160841,13.291915,15.140056,15.09045,-2.7268467,33.937,-1.6187977,-4.087897,8.2937975,-11.292491,-32.062447,25.666187,43.555187,-10.421341,-6.7980227,-15.261128
60,8.930521011352539,2.4295811653137207,70.52257537841797,-1.6175426712704752,2.089264771917034,-87.85020767490018,-42.064995,43.342285,13.878459,78.318565,-33.456913,5.8407946,-23.097466,-27.054308,-20.298431,57.554935,-25.884516,14.386418,2.3238487,0.9272433,13.08224,15.949213,15.683479,-2.7540808,32.108616,-1.5983502,-3.9616492,8.3630495,-10.268225,-32.842266,25.111488,41.597855,-11.031505,-6.8538723,-15.704486
61,9.424951553344727,2.3341917991638184,70.62468719482422,-1.6738424954577615,2.1820695651593183,-87.70615207666302,-42.2194,43.745514,13.755886,77.61245,-33.40203,5.924754,-22.768728,-27.323578,-20.327547,56.801983,-25.296635,14.779094,2.370615,0.8468254,12.846774,16.77713,16.297047,-2.8460572,30.222609,-1.5520858,-3.8403342,8.399396,-9.063446,-33.570503,24.39282,39.526108,-11.475486,-7.027336,-16.068018
62,9.931791305541992,2.236609935760498,70.75404357910156,-1.7675219986426436,2.3100665160325575,-87.57809951948131,-42.34556,44.076683,13.62078,76.763664,-33.286556,5.9393373,-22.411673,-27.518358,-20.408413,55.896572,-24.61616,15.000033,2.4264371,0.79611874,12.57,17.638374,16.936388,-2.9842885,28.255323,-1.5056146,-3.7182763,8.412385,-7.6876984,-34.241547,23.533388,37.330215,-11.81917,-7.2793574,-16.387985
63,10.45690631866455,2.1383893489837646,70.91715240478516,-1.9191689028107835,2.472973122640559,-87.47220586296592,-42.437225,44.34498,13.464955,75.764145,-33.116283,5.8814692,-21.990952,-27.600193,-20.578548,54.77956,-23.814981,15.000033,2.5127048,0.7980654,12.256039,18.483852,17.583235,-3.1658142,26.314434,-1.4508498,-3.6337476,8.386608,-6.1237836,-34.826935,22.50735,35.10431,-11.985445,-7.6070313,-16.675476
64,11.006031036376953,2.0330593585968018,71.1163101196289,-2.0935351621741796,2.6469425284158614,-87.3546699868363,-42.422005,44.48364,13.33632,74.59773,-32.908367,5.7643147,-21.44432,-27.631907,-20.840967,53.42277,-22.884642,15.000033,2.5983262,0.8226659,11.922263,19.271374,18.210043,-3.378614,24.518362,-1.3742315,-3.6257277,8.309201,-4.2974234,-35.286583,21.278702,32.89889,-11.927682,-8.008488,-16.94288
65,11.574042320251465,1.9172844886779785,71.34886169433594,-2.2948694570108117,2.841139023899809,-87.21781088400712,-42.317852,44.485287,13.215181,73.25846,-32.6696,5.598488,-20.778875,-27.61238,-21.209532,51.83668,-21.845882,15.000033,2.6770055,0.88295263,11.562694,19.996157,18.812603,-3.6278555,22.850824,-1.2315849,-3.7094815,8.140221,-2.3060586,-35.576706,19.864687,30.831446,-11.489907,-8.558235,-17.19185
66,12.16839599609375,1.7947229146957397,71.61478424072266,-2.517752233760935,3.0548657248149285,-87.06551620937084,-42.12337,44.357643,13.106556,71.75376,-32.39662,5.3822103,-20.010786,-27.54647,-21.66244,50.041935,-20.70087,15.000033,2.723622,0.96156603,11.162267,20.699831,19.39406,-3.895065,21.270466,-1.0374559,-3.864201,7.901341,-0.12064208,-35.673073,18.288036,28.811827,-10.783178,-9.235277,-17.418467
67,12.787471771240234,1.6697317361831665,71.91471099853516,-2.757399648160787,3.268391093471069,-86.91207134126465,-41.79243,44.11705,13.047916,70.0953,-32.08463,5.0976453,-19.11063,-27.415781,-22.17625,47.98983,-19.40239,15.000033,2.7511966,1.0467768,10.743553,21.361183,19.937458,-4.173335,19.854942,-0.8671424,-4.0754294,7.674853,2.0974019,-35.570274,16.691204,26.955849,-10.015732,-9.893395,-17.625774
68,13.425827026367188,1.5341331958770752,72.2486343383789,-3.0095258431861796,3.4618567855582536,-86.77130447926577,-41.28116,43.77893,13.074452,68.292694,-31.727903,4.727133,-18.047096,-27.20485,-22.72656,45.628723,-17.90098,15.000033,2.758653,1.1258234,10.322974,21.968033,20.41207,-4.4433584,18.683739,-0.7864796,-4.327379,7.5436916,4.251934,-35.284626,15.204255,25.32674,-9.424776,-10.386332,-17.823631
69,14.090707778930664,1.3860116004943848,72.60664367675781,-3.296695685518082,3.626540925291076,-86.63114975982342,-40.57697,43.36317,13.184999,66.320496,-31.334099,4.2737937,-16.741014,-26.855783,-23.35514,42.834442,-16.201279,15.000033,2.7265646,1.226022,9.902753,22.5184,20.7951,-4.7023168,17.787827,-0.7839898,-4.6598244,7.529331,6.3408914,-34.82653,13.86119,23.939117,-9.027933,-10.67393,-18.034704
70,14.7905912399292,1.2330304384231567,72.98297119140625,-3.6137887424458883,3.773799016883062,-86.48821097757354,-39.708054,42.855892,13.354503,64.1823,-30.907028,3.7489238,-15.231859,-26.386011,-24.044033,39.661125,-14.322191,15.000033,2.6448226,1.347779,9.472712,23.023153,21.083822,-4.9484324,17.126547,-0.81857646,-5.066897,7.5879965,8.382759,-34.202415,12.637625,22.773928,-8.721797,-10.836083,-18.250122
71,15.508749961853027,1.0782036781311035,73.3743896484375,-3.9161689847263106,3.912854386582184,-86.3708773352612,-38.69125,42.226063,13.585756,61.929417,-30.436455,3.1468635,-13.668929,-25.886711,-24.68522,36.324314,-12.234849,15.000033,2.5398064,1.4431905,9.03781,23.476645,21.280266,-5.175314,16.674559,-0.9110574,-5.4648504,7.7035847,10.307774,-33.44297,11.564131,21.850662,-8.546288,-10.901119,-18.43076
72,16.25146484375,0.9121133685112,73.76939392089844,-4.1614572181998355,4.053629156861154,-86.30721324262225,-37.561214,41.44087,13.859788,59.62093,-29.915571,2.4660375,-12.205204,-25.458258,-25.18741,33.05185,-9.911054,15.000033,2.4384255,1.4702581,8.604401,23.87374,21.384724,-5.376985,16.40336,-1.0849866,-5.770341,7.8586035,12.057314,-32.591576,10.659854,21.176773,-8.53603,-10.897459,-18.537714
73,17.010644912719727,0.746911883354187,74.15960693359375,-4.351318140336089,4.192902249557763,-86.30968933959997,-36.28708,40.496098,14.178615,57.20733,-29.333294,1.6814731,-10.813829,-25.0696,-25.565435,29.75316,-7.2258,15.000033,2.3512197,1.4344609,8.17233,24.214947,21.38384,-5.564074,16.3452,-1.4262693,-5.98192,8.095639,13.663814,-31.668417,9.932514,20.746698,-8.730691,-10.794272,-18.58285
74,17.80015754699707,0.5982757210731506,74.53203582763672,-4.508005178611865,4.32655761069334,-86.36099831098404,-34.881042,39.409576,14.522857,54.672325,-28.705627,0.813439,-9.443206,-24.684479,-25.860626,26.362825,-4.232028,15.000033,2.2614639,1.3663751,7.741126,24.497454,21.27079,-5.740183,16.505938,-1.8934455,-6.1395903,8.405769,15.168311,-30.682598,9.362025,20.533693,-9.093973,-10.588342,-18.575693
75,18.611614227294922,0.45868605375289917,74.87247467041016,-4.6213434466304895,4.463622831168819,-86.44734335665116,-33.440353,38.18913,14.847362,52.12726,-28.060123,-0.07647886,-8.218027,-24.40689,-26.035316,23.173561,-1.1804458,15.000033,2.164552,1.2675831,7.31793,24.703552,21.059504,-5.896348,16.81881,-2.3248475,-6.2209263,8.694398,16.528057,-29.666147,8.91067,20.511768,-9.53752,-10.350332,-18.472927
76,19.44975471496582,0.3261582553386688,75.17144775390625,-4.683172260450699,4.614142187384819,-86.55725448360836,-32.05651,36.844532,15.113362,49.676857,-27.420616,-0.9314153,-7.2793455,-24.342686,-26.05434,20.511444,1.6593593,15.000033,2.0610042,1.1435157,6.9091864,24.812347,20.771145,-6.028558,17.216774,-2.567207,-6.201141,8.867007,17.715502,-28.659449,8.530976,20.640385,-9.966281,-10.151061,-18.23195
77,20.30743980407715,0.19834555685520172,75.4278335571289,-4.688961018603912,4.7933163006678745,-86.7102493070224,-30.651524,35.301113,15.318759,47.165962,-26.803501,-1.8344195,-6.700667,-24.530182,-25.849365,18.393932,4.4398804,15.000033,1.9715741,0.99969673,6.4891343,24.828875,20.403868,-6.134117,17.704908,-2.5691316,-6.022786,8.865485,18.784153,-27.6772,8.1860695,20.913443,-10.39751,-9.984155,-17.79284
78,21.193817138671875,0.08142634481191635,75.64131927490234,-4.652962473652921,4.993106399659735,-86.90869837990597,-29.221071,33.591614,15.459154,44.581882,-26.19185,-2.7735205,-6.456458,-24.905891,-25.44793,16.759615,7.180189,15.000033,1.8952589,0.8483042,6.061562,24.753765,19.948864,-6.2227607,18.31653,-2.422792,-5.7159667,8.749871,19.75077,-26.719868,7.89342,21.333805,-10.857737,-9.823165,-17.192532
79,22.097217559814453,-0.018653104081749916,75.81800079345703,-4.586025091700565,5.190550405793519,-87.11598075102779,-27.947975,31.874237,15.525849,42.243916,-25.540491,-3.5701902,-6.523398,-25.44991,-24.956297,15.812222,9.417657,15.000033,1.8024873,0.6936319,5.6752133,24.56238,19.423962,-6.308183,19.023764,-2.1950126,-5.385861,8.602819,20.540901,-25.812836,7.681471,21.870113,-11.2649,-9.705768,-16.535582
80,23.01556968688965,-0.10594005137681961,75.96753692626953,-4.483667984419902,5.362329765137384,-87.29269495484607,-27.004335,30.284254,15.541241,40.489326,-24.796967,-4.0672755,-6.8192606,-26.15325,-24.497614,15.663076,10.73598,15.000033,1.6618503,0.5237465,5.3788524,24.2373,18.858532,-6.4048753,19.791208,-1.9633275,-5.1361337,8.50658,21.088083,-24.990486,7.580135,22.485405,-11.525527,-9.665742,-15.925355
81,23.943052291870117,-0.16015632450580597,76.09062194824219,-4.280555092373315,5.51315912553256,-87.43359762769472,-26.4281,28.767315,15.556245,39.422348,-23.819399,-4.2259803,-7.3480906,-27.14161,-24.054277,16.30676,10.9711075,15.000033,1.4542443,0.27320167,5.167215,23.774906,18.256388,-6.490825,20.642738,-1.7456741,-4.9706283,8.419235,21.36952,-24.275291,7.605931,23.196894,-11.571443,-9.74723,-15.314356
82,24.88495445251465,-0.20023928582668304,76.18354797363281,-3.965368046890771,5.649617636397228,-87.55232264011653,-26.10299,27.23738,15.601032,38.85363,-22.658749,-4.151325,-8.080898,-28.401491,-23.58078,17.560215,10.430202,15.000033,1.1864,-0.06616855,5.022183,23.204613,17.610128,-6.553321,21.567303,-1.5113646,-4.8409815,8.314986,21.430727,-23.667501,7.743067,24.006153,-11.449491,-9.914312,-14.670282
83,25.824499130249023,-0.22389677166938782,76.2300796508789,-3.6227193918723364,5.746801145597036,-87.63364488154546,-25.970371,25.790707,15.668248,38.701912,-21.557259,-3.9081511,-8.810587,-29.71469,-23.198248,19.180115,9.45364,15.000033,0.8678649,-0.41280112,4.9766326,22.55197,16.940699,-6.6280346,22.483131,-1.2708329,-4.7729144,8.302164,21.308392,-23.1605,7.968869,24.856491,-11.239591,-10.0826235,-14.119839
84,26.76967430114746,-0.23126788437366486,76.21585845947266,-3.357609304131737,5.781812690747102,-87.66598029253876,-25.984856,24.54633,15.72778,38.90051,-20.768631,-3.5579531,-9.349906,-30.847977,-23.030397,20.988184,8.345349,15.000033,0.52322966,-0.6681375,5.060676,21.834871,16.284653,-6.764967,23.309801,-1.043003,-4.788314,8.49041,21.048658,-22.741726,8.250926,25.686872,-11.025668,-10.170383,-13.789513
85,27.709266662597656,-0.21495279669761658,76.15470886230469,-3.2438747847257146,5.758556365681324,-87.64744607339651,-26.247854,23.620506,15.74943,39.620766,-20.420626,-2.9679515,-9.650961,-31.738272,-23.180342,23.02875,7.0374956,15.000033,0.15966737,-0.76201797,5.2912188,21.028978,15.662474,-6.9984593,24.053635,-0.88008183,-4.929463,8.960319,20.627825,-22.400517,8.579359,26.525848,-10.747571,-10.156786,-13.738029
86,28.631725311279297,-0.1557563692331314,76.0599594116211,-3.338376565543568,5.725011959715193,-87.64608555526799,-26.828362,23.097172,15.714089,40.897137,-20.374094,-2.181387,-9.843155,-32.36709,-23.759077,25.356327,5.415153,14.207545,-0.16684605,-0.65480435,5.6108503,20.128288,15.071095,-7.3106346,24.74888,-0.76761943,-5.1706414,9.638282,20.040922,-22.130207,8.954397,27.391972,-10.391545,-10.089417,-13.888877
87,29.523273468017578,-0.06509225070476532,75.93365478515625,-3.528474509617611,5.661873198157926,-87.65132417972036,-27.502777,22.770662,15.667983,42.388554,-20.479729,-1.470253,-10.007632,-32.86022,-24.392815,28.036037,3.5983777,13.309696,-0.44366366,-0.45737368,5.9998503,19.17313,14.513859,-7.6749473,25.363335,-0.6240621,-5.4314785,10.401668,19.364632,-21.918917,9.364448,28.208267,-10.111825,-9.990677,-14.166273
88,30.389616012573242,0.037463922053575516,75.78060150146484,-3.6629112923610814,5.534875518821928,-87.62984439599579,-28.020285,22.383032,15.6722145,43.725883,-20.569008,-1.1073699,-10.172109,-33.381916,-24.870422,31.071196,1.7437792,12.379121,-0.679396,-0.327789,6.453706,18.200499,14.001187,-8.069014,25.86755,-0.3712053,-5.630423,11.127692,18.676348,-21.752438,9.797429,28.900997,-10.06449,-9.881288,-14.4940195
89,31.243669509887695,0.15062567591667175,75.58553314208984,-3.7264373662698644,5.305334881043351,-87.56009090800853,-28.318659,21.89835,15.714915,44.828423,-20.549604,-1.3391472,-10.316259,-33.96372,-25.124252,34.559963,-0.19773296,11.361413,-0.87587655,-0.29130983,7.024356,17.1894,13.545945,-8.506993,26.258528,0.04447085,-5.7377486,11.852933,17.979599,-21.619282,10.252314,29.466045,-10.401233,-9.73579,-14.921567
90,32.0868034362793,0.2636289596557617,75.36089324951172,-3.754514885219372,4.990530485474884,-87.44427280692813,-28.511774,21.386808,15.785239,45.876827,-20.530891,-1.9573292,-10.441193,-34.60522,-25.21396,38.53777,-2.3253267,10.300568,-1.0370756,-0.3115984,7.7052126,16.124634,13.149279,-9.008631,26.557348,0.5651581,-5.7950788,12.619776,17.23971,-21.514063,10.731544,29.944387,-11.005593,-9.549253,-15.465013
91,32.93023681640625,0.3521713614463806,75.11045837402344,-3.746627032616949,4.665558196784514,-87.32759414198816,-28.672462,20.856646,15.917997,46.93791,-20.653568,-2.5755444,-10.578394,-35.284866,-25.219812,42.771008,-4.4769435,9.258104,-1.1379547,-0.3801354,8.374199,15.054009,12.801681,-9.558186,26.76701,1.1017979,-5.827633,13.313711,16.47958,-21.433002,11.231519,30.323227,-11.632151,-9.370872,-15.998515
92,33.76663589477539,0.4244987964630127,74.83135223388672,-3.7009916883785423,4.404123794292209,-87.25439988935591,-28.86929,20.31914,16.146729,48.073235,-21.047886,-2.8043487,-10.7491,-35.96382,-25.246176,47.01839,-6.4722157,8.301842,-1.1589731,-0.4863883,8.912417,14.026926,12.489836,-10.131114,26.887589,1.5694704,-5.8652577,13.82074,15.719585,-21.37526,11.750579,30.588516,-12.037213,-9.256353,-16.399624
93,34.59751892089844,0.48558422923088074,74.53118896484375,-3.5904881802823776,4.224376238231159,-87.2389837813288,-29.123337,19.762796,16.500397,49.34239,-21.830677,-2.4779093,-10.976209,-36.71224,-25.374792,51.365406,-8.274815,7.4162498,-1.0848984,-0.6543205,9.2864685,13.044488,12.21527,-10.73993,26.902975,1.9725655,-5.9078474,14.096673,14.9814825,-21.35002,12.286476,30.68797,-12.133605,-9.232618,-16.625216
94,35.41429138183594,0.5401776432991028,74.22496795654297,-3.4223144322881742,4.086015057685396,-87.25582715972656,-29.396559,19.17845,16.946674,50.69099,-22.897028,-1.8218566,-11.219797,-37.51648,-25.552202,55.88856,-9.971154,6.573204,-0.93273336,-0.8799408,9.562065,12.083557,11.979298,-11.392355,26.820843,2.3482177,-5.9460564,14.206371,14.2487,-21.35958,12.841879,30.643055,-12.058303,-9.269118,-16.74469
95,36.21720886230469,0.595070481300354,73.92772674560547,-3.244892329300129,3.9737182013746075,-87.29024831847885,-29.663137,18.585045,17.426777,52.00688,-24.040379,-1.0323977,-11.414432,-38.175568,-25.703934,60.326447,-11.541795,5.835081,-0.73531353,-1.110707,9.771485,11.1581545,11.7657175,-12.046091,26.67249,2.6672616,-5.9982524,14.200885,13.476529,-21.390682,13.424113,30.554132,-11.907702,-9.338123,-16.806454
96,37.00932693481445,0.635479211807251,73.64411163330078,-3.107462093137442,3.872997914823077,-87.32762617274517,-29.894325,18.009697,17.889832,53.179916,-25.058346,-0.30626547,-11.505539,-38.480846,-25.762877,64.40878,-12.958159,5.275548,-0.52782047,-1.2928728,9.945684,10.2787695,11.552334,-12.651922,26.493195,2.9073958,-6.0822067,14.133023,12.612439,-21.424181,14.043153,30.52968,-11.782034,-9.410958,-16.86161
97,37.80204772949219,0.669126033782959,73.37324523925781,-3.0217578019323263,3.794021661499004,-87.376447854397,-30.09298,17.4782,18.337723,54.206272,-25.932634,0.32180485,-11.482486,-38.419865,-25.792965,68.142845,-14.208947,4.878177,-0.30639583,-1.4084202,10.059108,9.4149885,11.333701,-13.220847,26.311853,3.0139756,-6.2021637,13.975714,11.632108,-21.45227,14.71057,30.610867,-11.667957,-9.50189,-16.908829
98,38.59052276611328,0.6969214081764221,73.12007904052734,-2.961818219116256,3.739805066666692,-87.44009540549771,-30.265879,16.971954,18.792002,55.133877,-26.762962,0.951995,-11.377277,-38.067646,-25.828455,71.6452,-15.294369,4.6304345,-0.059326593,-1.4871423,10.106042,8.564382,11.114801,-13.763472,26.110437,3.0229423,-6.3494787,13.715807,10.557844,-21.47556,15.418796,30.74423,-11.530543,-9.618386,-16.928059
99,39.352664947509766,0.7162911891937256,72.8958740234375,-2.920274878267408,3.685801096258787,-87.49655758157766,-30.395662,16.462072,19.234938,55.94565,-27.525843,1.5889996,-11.226775,-37.330334,-25.761665,74.811195,-16.191607,4.622257,0.19044024,-1.5461469,10.146029,7.779967,10.889086,-14.229269,25.855043,3.0507045,-6.5223327,13.427867,9.40458,-21.489075,16.149807,30.898773,-11.439067,-9.721187,-16.944231
100,40.10945129394531,0.7394986152648926,72.69969940185547,-2.890023175491774,3.607483351188694,-87.52482587781029,-30.463045,15.919306,19.6496,56.62085,-28.197596,2.2371693,-11.075104,-36.108635,-25.489553,77.529205,-16.876574,4.952249,0.41793287,-1.6016616,10.235652,7.114787,10.643594,-14.567429,25.518047,3.217276,-6.7201676,13.187352,8.184851,-21.485561,16.890303,31.049786,-11.464639,-9.770844,-16.98366
101,40.85689926147461,0.7687487006187439,72.52685546875,-2.874708202630775,3.483879265141325,-87.49687934561415,-30.459845,15.328757,20.007055,57.170162,-28.780025,2.902028,-10.909517,-34.305073,-24.981504,79.77221,-17.358086,5.689186,0.59656405,-1.6524819,10.40396,6.5687056,10.36625,-14.750891,25.105577,3.5976584,-6.976944,12.991544,6.868966,-21.456667,17.651152,31.256926,-11.687436,-9.747164,-17.065228
102,41.6013069152832,0.798836350440979,72.37901306152344,-2.8780644920241976,3.3330503626283168,-87.43192434614674,-30.394033,14.712418,20.322601,57.60069,-29.287231,3.5791814,-10.730296,-31.96831,-24.329731,81.59451,-17.652065,6.7848296,0.744601,-1.6895329,10.611461,6.111623,10.057673,-14.809726,24.640875,4.1201735,-7.282594,12.810501,5.4555206,-21.401022,18.440052,31.52274,-12.051051,-9.673394,-17.172085
103,42.33802032470703,0.83159339427948,72.26372528076172,-2.8913436089801023,3.18870351055801,-87.38011344053727,-30.274075,14.094592,20.648455,57.887707,-29.712557,4.257782,-10.597141,-29.23347,-23.611591,83.00091,-17.750198,8.156845,0.9057739,-1.7187088,10.8120165,5.7527137,9.726938,-14.783204,24.123438,4.6826982,-7.572183,12.678848,4.002734,-21.326355,19.239277,31.7353,-12.421713,-9.575878,-17.276398
104,43.07413101196289,0.8717029094696045,72.18109130859375,-2.9035294410672448,3.0845466407677242,-87.39149905885797,-30.11122,13.495684,21.039545,58.005085,-30.046331,4.9273834,-10.569842,-26.245792,-22.88657,83.99579,-17.63756,9.719446,1.1237634,-1.747417,10.960823,5.5074987,9.387497,-14.711823,23.54171,5.18062,-7.7769547,12.628006,2.571718,-21.246647,20.030378,31.77803,-12.664315,-9.482235,-17.349836
105,43.80303192138672,0.9104169607162476,72.13526153564453,-2.908746853240853,3.035989904568867,-87.47512375234668,-29.91835,12.917767,21.518375,57.94844,-30.286068,5.596159,-10.707976,-22.917776,-22.066927,84.55683,-17.24803,11.570771,1.4089342,-1.7821878,11.048633,5.3857884,9.044572,-14.594644,22.867826,5.633274,-7.878107,12.700197,1.1723882,-21.166876,20.804523,31.620844,-12.757582,-9.390037,-17.357939
106,44.52464294433594,0.9475191235542297,72.12940216064453,-2.9109914853859484,3.0220068156017827,-87.603726325553,-29.689137,12.3456545,22.055975,57.731808,-30.435772,6.266735,-10.955011,-19.223003,-21.155376,84.685265,-16.64732,13.7247715,1.7374761,-1.820872,11.101573,5.382772,8.697565,-14.417753,22.105032,6.0759597,-7.9095654,12.865089,-0.21702108,-21.085726,21.573606,31.31483,-12.764509,-9.288439,-17.322392
107,45.22939682006836,1.011854887008667,72.16015625,-3.100199447916895,3.084736759149446,-87.88509082411002,-29.552847,12.057123,22.552034,57.500053,-30.543682,6.8659306,-11.221468,-15.384604,-20.668863,84.364525,-15.923162,15.000033,2.1990964,-1.6865816,11.056581,5.4978323,8.349378,-14.200986,21.28331,6.425588,-7.883574,13.04377,-1.5806036,-21.008463,22.353428,30.860624,-12.675714,-9.192798,-17.300026
108,45.91130447387695,1.078290343284607,72.22506713867188,-3.449944891828102,3.1916756147211336,-88.30282734347611,-29.474422,12.012218,23.002405,57.25144,-30.608532,7.38128,-11.393716,-11.751498,-20.784452,83.63,-15.156331,15.000033,2.7732055,-1.4027816,10.931708,5.7318225,8.007091,-13.964267,20.430267,6.598504,-7.81426,13.156382,-2.8953156,-20.942932,23.158173,30.249527,-12.480364,-9.117674,-17.346754
109,46.59440612792969,1.1423784494400024,72.32188415527344,-3.748308177654752,3.2682202041829314,-88.75155425409802,-29.266914,11.900182,23.522352,56.811066,-30.590807,7.872262,-11.478496,-8.280496,-20.97811,82.49066,-14.353324,15.000033,3.3704479,-1.1610211,10.808834,6.0792994,7.681881,-13.723005,19.538963,6.535097,-7.670995,13.193934,-4.166743,-20.900846,24.011902,29.439657,-12.131479,-9.059631,-17.505672
110,47.28109359741211,1.217955470085144,72.44715118408203,-4.001995533309518,3.330189220220149,-89.23546623996579,-28.9543,11.732805,24.11507,56.187527,-30.48694,8.347019,-11.514131,-4.8809996,-21.184671,80.930756,-13.462909,15.000033,3.9949026,-0.9582349,10.681369,6.5504494,7.374266,-13.463801,18.584198,6.2870836,-7.458373,13.194279,-5.392278,-20.883018,24.903687,28.430716,-11.64401,-9.013489,-17.735937
111,47.987037658691406,1.2839534282684326,72.59849548339844,-4.173892119312571,3.374654798934153,-89.70367053510726,-28.544853,11.434918,24.759825,55.37642,-30.25755,8.815634,-11.453854,-1.7587135,-21.429672,79.059875,-12.597897,15.000033,4.593958,-0.8247595,10.559031,7.165085,7.0732837,-13.163848,17.570833,5.9411426,-7.241224,13.146579,-6.5389915,-20.87581,25.791025,27.285814,-11.103566,-8.992538,-17.968575
112,48.69814682006836,1.3552122116088867,72.77645111083984,-4.239474192340358,3.402748427830588,-90.10941394468898,-28.051517,10.943691,25.42813,54.369785,-29.863369,9.284987,-11.2569275,0.8981721,-21.75485,76.98955,-11.858448,15.000033,5.1186256,-0.78096604,10.444546,7.9373846,6.762734,-12.801038,16.514809,5.587745,-7.084216,13.0407295,-7.5820994,-20.860888,26.631674,26.08009,-10.60084,-9.006085,-18.135727
113,49.42731857299805,1.4271700382232666,72.9824447631836,-4.211912881603038,3.4235964309344595,-90.45340780534734,-27.466164,10.247382,26.098152,53.109978,-29.31701,9.770249,-10.890702,3.0426135,-22.247906,74.69516,-11.253705,15.000033,5.563287,-0.8170177,10.324184,8.890079,6.432438,-12.368242,15.403812,5.198369,-6.992106,12.859867,-8.542649,-20.830175,27.439121,24.818796,-10.133188,-9.044668,-18.260887
114,50.17549514770508,1.5044186115264893,73.21307373046875,-4.120092109197226,3.441296396536812,-90.76422133619474,-26.798664,9.399652,26.771917,51.616673,-28.629951,10.257411,-10.380561,4.825722,-22.86845,72.11946,-10.711803,15.000033,5.9545474,-0.90650296,10.1898,10.005765,6.080208,-11.876793,14.245975,4.747609,-6.933787,12.615176,-9.435944,-20.785883,28.23396,23.488663,-9.666559,-9.105889,-18.368845
115,50.938926696777344,1.5766618251800537,73.47071838378906,-3.967936621948939,3.4501553470950306,-91.03688909153927,-26.097412,8.443924,27.452572,50.013367,-27.758972,10.707671,-9.773727,6.3516784,-23.484158,69.33486,-10.213827,15.000033,6.295946,-1.039205,10.052105,11.235006,5.7011003,-11.338065,13.092223,4.329428,-6.9207373,12.337342,-10.226804,-20.725737,28.976608,22.141087,-9.247797,-9.212389,-18.394201
116,51.71669006347656,1.6520112752914429,73.745361328125,-3.753725835384886,3.442614349303255,-91.26411051122591,-25.404982,7.419355,28.14799,48.41837,-26.65741,11.084273,-9.11729,7.702117,-23.958172,66.42014,-9.745024,15.000033,6.592215,-1.2087709,9.92341,12.524689,5.289962,-10.767115,11.999146,4.0388393,-6.9659452,12.057448,-10.883611,-20.644894,29.623608,20.8307,-8.922704,-9.38618,-18.270845
117,52.50677490234375,1.7256975173950195,74.0367202758789,-3.454683399207322,3.407467393207282,-91.42912418698344,-24.678518,6.274584,28.867212,46.76185,-25.29813,11.425308,-8.374673,8.804648,-24.31783,63.37282,-9.38547,15.000033,6.831667,-1.4372978,9.811608,13.903727,4.8390536,-10.159877,10.943266,3.916933,-7.093071,11.759995,-11.400382,-20.537613,30.149475,19.567194,-8.706667,-9.6539755,-17.959642
118,53.31627655029297,1.8066518306732178,74.33854675292969,-3.088179821007393,3.352243599607478,-91.5433034814688,-23.913706,5.0143323,29.593414,45.00325,-23.703074,11.73207,-7.522488,9.651432,-24.653725,60.15355,-9.110268,15.000033,7.020081,-1.7087623,9.703557,15.382666,4.3465633,-9.52173,9.920869,3.909209,-7.2900476,11.43642,-11.801283,-20.405119,30.580702,18.33747,-8.57526,-9.997139,-17.503069
119,54.13560104370117,1.8922462463378906,74.6480712890625,-2.7033254101182034,3.2965720857956464,-91.63907222604814,-23.211771,3.7621357,30.305609,43.320053,-21.908527,11.9151945,-6.635464,10.402372,-24.8842,56.798515,-8.770641,15.000033,7.1840677,-1.9700552,9.583025,16.882574,3.8209066,-8.87815,9.014565,3.967042,-7.5168586,11.128141,-12.107229,-20.258005,30.952559,17.1648,-8.514341,-10.36995,-16.95781
120,54.95957565307617,1.9753655195236206,74.95943450927734,-2.343900047689067,3.2602706635774936,-91.74657040361086,-22.67416,2.637725,30.987932,41.893887,-19.951109,11.887469,-5.787777,11.203169,-24.896706,53.33962,-8.211802,15.000033,7.350588,-2.174505,9.437983,18.325497,3.2758296,-8.252384,8.298211,4.0394974,-7.732432,10.876504,-12.330619,-20.112452,31.294613,16.057207,-8.509948,-10.726616,-16.379053
121,55.78411865234375,2.0766148567199707,75.2637710571289,-2.024845666582965,3.263471593430715,-91.86624430129027,-22.346052,1.7153687,31.743637,40.81994,-17.80152,11.728154,-4.9679823,12.118423,-24.652906,49.628704,-7.2990804,15.000033,7.533604,-2.3111622,9.249492,19.702702,2.7206016,-7.650841,7.766559,4.1243324,-7.917875,10.671468,-12.456844,-19.979092,31.593393,14.989838,-8.565289,-11.068188,-15.745834
122,56.618892669677734,2.1942107677459717,75.55445098876953,-1.7102853707135102,3.28945824832423,-91.98126780329636,-22.163654,0.90403247,32.54972,39.978413,-15.448323,11.452907,-4.120988,13.0255,-24.183044,45.683327,-6.1368036,15.000033,7.7203884,-2.415118,9.035755,21.052315,2.155748,-7.0690823,7.383673,4.2403507,-8.09738,10.49877,-12.474269,-19.861834,31.829947,13.945804,-8.681507,-11.416227,-15.039755
123,57.46009826660156,2.324206829071045,75.83351135253906,-1.3718358813093252,3.303723246825228,-92.09683692564192,-22.077736,0.07386425,33.192085,39.244442,-12.964484,10.872715,-3.2723029,13.790823,-23.47036,41.81124,-4.949549,15.000033,7.897709,-2.5058856,8.839926,22.365652,1.5807471,-6.506006,7.1727366,4.369084,-8.294545,10.392528,-12.400402,-19.767578,32.026653,12.943379,-8.841325,-11.755073,-14.319177
124,58.32345962524414,2.467677116394043,76.0948257446289,-0.9912226126280036,3.274949812276824,-92.22224101537212,-22.03646,-0.90339917,33.436626,38.47204,-10.412209,9.784746,-2.480662,14.2647295,-22.574545,38.371746,-3.9495673,15.000033,8.054363,-2.5923991,8.701074,23.63195,0.9936437,-5.955146,7.1556916,4.4927225,-8.53284,10.386498,-12.251895,-19.705082,32.20734,11.999705,-9.029046,-12.068731,-13.642827
125,59.211246490478516,2.6085317134857178,76.32948303222656,-0.5675857078070018,3.213577641654325,-92.37242131585286,-22.066566,-2.0306194,33.279377,37.69875,-7.7882843,8.171754,-1.8217452,14.421701,-21.530025,35.42415,-3.0799556,15.000033,8.214777,-2.6684642,8.610346,24.838999,0.38364977,-5.3990912,7.3735356,4.617526,-8.863654,10.48943,-12.019117,-19.685593,32.371418,11.095464,-9.289316,-12.353328,-13.013945
126,60.119773864746094,2.7464165687561035,76.5386962890625,-0.11927922414271902,3.13487951297318,-92.54273996713842,-22.195469,-3.254123,32.791687,36.989937,-5.1066227,6.0919075,-1.294037,14.319518,-20.345728,32.874783,-2.2957578,15.000033,8.37894,-2.718227,8.548403,25.990013,-0.2524964,-4.841157,7.8034763,4.75393,-9.259201,10.683168,-11.693267,-19.714155,32.50859,10.218251,-9.613347,-12.618167,-12.405564
127,61.0401611328125,2.896552801132202,76.72372436523438,0.33251674108033263,3.017329922654933,-92.7165646999827,-22.364195,-4.6162186,31.837976,36.232166,-2.458738,3.4420364,-0.89655244,13.941582,-19.108688,30.926197,-1.8470002,15.000033,8.503117,-2.7276394,8.53565,27.098068,-0.8997648,-4.3043604,8.367454,4.887193,-9.624137,10.961369,-11.291404,-19.785221,32.625626,9.396259,-9.904073,-12.865094,-11.830745
128,61.98490905761719,3.049363851547241,76.8598403930664,0.7639366994647939,2.83924257327621,-92.87839511601817,-22.505985,-6.1507497,30.28342,35.33585,0.04186868,0.120541744,-0.6306068,13.297716,-17.896801,29.769901,-2.0001986,15.000033,8.545136,-2.6866105,8.592103,28.179712,-1.5324851,-3.812242,8.982277,4.9969897,-9.862932,11.318416,-10.830656,-19.88447,32.72637,8.658592,-10.065369,-13.093293,-11.301955
129,62.89945983886719,3.2221593856811523,76.9417724609375,0.781183446205485,2.732884736072691,-93.27929472093683,-23.034168,-7.3558598,27.682999,34.827946,2.0884724,-4.6302586,-0.48190674,12.954105,-17.107103,28.980324,-2.509176,11.609086,8.740329,-2.2686243,8.542677,29.258524,-2.1426504,-3.3530598,9.670024,5.1046624,-9.959436,11.811041,-10.305253,-20.000261,32.80821,8.000858,-10.054339,-13.316538,-10.803838
130,63.78768539428711,3.4045681953430176,76.98177337646484,0.6486487575108654,2.6028468715736053,-93.73927162472113,-23.625822,-8.673871,24.222351,34.40209,3.7014303,-10.523045,-0.54351866,12.607771,-16.456676,28.889929,-3.5999777,6.6134963,8.935881,-1.6952467,8.50836,30.316462,-2.731932,-2.9171038,10.459002,5.205212,-9.961331,12.424836,-9.713536,-20.129887,32.865578,7.423412,-9.93248,-13.529725,-10.334656
131,64.68260192871094,3.601620674133301,76.97228240966797,0.6048241226073531,2.481002357996623,-94.11737192147037,-24.183384,-9.972612,21.14464,34.276592,4.7423477,-15.000033,-0.87459326,12.056604,-15.880198,29.50398,-5.3135324,1.7509636,8.985396,-1.1955683,8.493305,31.335957,-3.2749844,-2.5227294,11.239601,5.236104,-9.866475,13.042613,-9.083433,-20.265978,32.901287,6.953154,-9.756705,-13.7018585,-9.927277
132,65.62741088867188,3.8038265705108643,76.89031219482422,0.942608489120577,2.4202066771537196,-94.23519774322394,-24.668686,-11.079383,19.947865,34.502167,5.5164714,-15.000033,-1.5327032,10.987152,-15.4427,30.82817,-7.626798,-1.8420031,8.708141,-1.0613571,8.489258,32.312485,-3.7310863,-2.19904,11.894345,5.1281853,-9.673525,13.550532,-8.438201,-20.398981,32.911747,6.616041,-9.584941,-13.803461,-9.61297
133,66.5345458984375,4.003460884094238,76.76221466064453,1.3621396742569398,2.299668881913115,-94.44633733917854,-25.475033,-11.624175,19.316128,35.93823,5.777138,-15.000033,-1.8697367,9.972456,-14.817333,31.824326,-10.009476,-3.9476006,8.43464,-1.0461913,8.57894,33.24033,-4.051857,-1.9401021,12.403287,4.8129253,-9.296013,13.931152,-7.7747755,-20.505493,32.899406,6.4043765,-9.410891,-13.819868,-9.409183
134,67.42619323730469,4.210883140563965,76.61161804199219,1.824987651846343,2.1409506410167483,-94.71029898189994,-26.51126,-11.796494,18.984903,38.178036,5.6787825,-15.000033,-2.0220022,8.953349,-14.076558,32.702267,-12.546583,-5.1331697,8.14899,-1.1124661,8.729996,34.12765,-4.2274485,-1.7421126,12.823316,4.324764,-8.764371,14.247855,-7.076772,-20.574245,32.848236,6.3162837,-9.215775,-13.771577,-9.294931
135,68.30414581298828,4.42411994934082,76.44328308105469,2.2364115509451485,1.9784859520162028,-94.99847452236014,-27.63116,-11.48811,19.03478,40.948193,5.1751685,-15.000033,-2.1211665,7.99076,-13.359084,33.49273,-15.057587,-5.790183,7.8527484,-1.1741868,8.888127,34.9439,-4.247485,-1.6010079,13.185146,3.7459214,-8.254079,14.499321,-6.3694897,-20.583618,32.745464,6.401148,-9.039641,-13.682838,-9.265612
136,69.15388488769531,4.643207550048828,76.23698425292969,2.5054389806450805,1.8410792216869303,-95.28718501085072,-28.68064,-10.553606,19.547464,44.018177,4.184801,-15.000033,-2.2911,7.16,-12.780605,34.2475,-17.3803,-6.3216724,7.529426,-1.1201258,9.026447,35.61492,-4.193288,-1.4707435,13.550901,3.213298,-7.943828,14.65794,-5.6455355,-20.58251,32.567898,6.6300497,-8.91457,-13.5769615,-9.294233
137,69.98268127441406,4.862387657165527,75.99504852294922,2.5780716903750585,1.7066794583414973,-95.58110467488635,-29.54964,-8.717836,20.71872,47.502552,2.4712908,-15.000033,-2.4861085,6.5077457,-12.411868,34.935806,-19.490448,-6.7722487,7.1771035,-0.8984949,9.144282,36.178387,-4.0148697,-1.4053408,13.885586,2.6545198,-7.911821,14.711086,-4.9210095,-20.547876,32.34033,7.036419,-8.849089,-13.445166,-9.406333
138,70.78722381591797,5.0921406745910645,75.72923278808594,2.4866161032737124,1.5481940980369358,-95.91526651183757,-30.217377,-6.054218,22.311459,51.40603,0.112048164,-15.000033,-2.6296935,6.004866,-12.186185,35.54804,-21.458227,-6.9704704,6.815443,-0.5383923,9.2781,36.642834,-3.7259872,-1.3919889,14.184438,2.0533502,-8.051536,14.664789,-4.192541,-20.47776,32.07104,7.611578,-8.824611,-13.279845,-9.5983
139,71.5772933959961,5.318914890289307,75.44318389892578,2.285454982478811,1.3925654101694764,-96.30309172717263,-30.72181,-2.9772685,23.82866,55.368896,-2.511055,-15.000033,-2.8087165,5.6153913,-11.99181,36.18221,-23.277798,-6.9998784,6.499314,-0.10147962,9.420134,36.967392,-3.3469996,-1.3813905,14.495619,1.5315557,-8.255562,14.557462,-3.4553382,-20.377178,31.733648,8.357686,-8.831508,-13.103602,-9.8489685
140,72.36668395996094,5.537148952484131,75.14505767822266,2.0393832250790926,1.2886761918809582,-96.7328614669157,-31.22439,0.03976752,24.832611,59.065998,-4.95745,-15.000033,-3.1448252,5.2890067,-11.731508,36.948402,-24.949938,-6.9405036,6.2541876,0.34227416,9.541545,37.115456,-2.9112816,-1.320692,14.865389,1.2165989,-8.418163,14.430353,-2.703418,-20.254313,31.307339,9.272082,-8.860748,-12.938669,-10.138878
141,73.14497375488281,5.759830951690674,74.83775329589844,1.7990381566134477,1.3090576801359517,-97.15148601119301,-31.839458,2.963975,25.560013,62.4669,-7.1264954,-14.035948,-3.7910814,4.9368167,-11.436264,37.990536,-26.531685,-6.757437,6.021752,0.74932414,9.582472,37.07692,-2.4384348,-1.1962849,15.315223,1.1921728,-8.543813,14.2180195,-1.9307675,-20.117796,30.785894,10.3412285,-8.943367,-12.811562,-10.467842
142,73.95225524902344,5.990058422088623,74.51777648925781,1.701479972163832,1.499200003510455,-97.38649179660594,-32.482224,5.871861,26.614704,65.57922,-9.169869,-11.133874,-4.8593087,4.2997127,-11.270049,39.500797,-28.16786,-6.358586,5.615841,0.99651194,9.500145,36.883133,-1.9336085,-1.0373641,15.810118,1.3836651,-8.679478,13.926297,-1.138006,-19.97399,30.19187,11.562814,-9.070715,-12.701496,-10.84391
143,74.75723266601562,6.2143049240112305,74.1933364868164,1.5800898295312478,1.715231923708553,-97.60381790046405,-33.152054,8.699328,27.350836,68.49636,-11.161175,-8.269512,-6.018534,3.6771328,-11.107092,41.10699,-29.673304,-5.874257,5.2050047,1.2412951,9.414933,36.550022,-1.4067227,-0.8381648,16.31988,1.683913,-8.784699,13.700224,-0.34727368,-19.824602,29.554913,12.964142,-9.172702,-12.560302,-11.263323
144,75.54004669189453,6.449520587921143,73.8553466796875,1.4482531145785276,1.8873258770215848,-97.79174650056814,-33.785442,11.331915,27.732094,71.1284,-13.009953,-5.7607903,-7.1449084,3.0660348,-10.9343195,42.732296,-31.02681,-5.3621078,4.7889495,1.4709433,9.387809,36.100845,-0.8733917,-0.59691674,16.810925,1.9875787,-8.816893,13.684873,0.41604087,-19.670752,28.903658,14.576804,-9.17941,-12.340829,-11.720469
145,76.31377410888672,6.677054405212402,73.5203628540039,1.3099933640008186,2.012002512807592,-97.96497502606952,-34.414352,13.770699,27.772211,73.48826,-14.663132,-3.6025693,-8.268319,2.4695354,-10.723453,44.432255,-32.207012,-4.816666,4.3671203,1.6863595,9.43678,35.521,-0.34904608,-0.30521563,17.31504,2.3541195,-8.746747,13.959071,1.1334193,-19.509392,28.2325,16.465794,-8.999968,-12.066032,-12.205189
146,77.08472442626953,6.898824214935303,73.18804168701172,1.1603573101026028,2.122405536219193,-98.123604466112,-35.09734,16.060974,27.508356,75.621284,-16.13607,-1.6517003,-9.435497,1.8875942,-10.488339,46.22492,-33.23347,-4.212511,3.9272199,1.8921403,9.527892,34.81082,0.16378267,0.040655043,17.83613,2.8165874,-8.600009,14.429445,1.8113496,-19.341537,27.539452,18.602034,-8.695285,-11.750961,-12.724327
147,77.84441375732422,7.102371692657471,72.86441802978516,1.0013520380211942,2.20369453570275,-98.23339813481778,-35.807133,18.15797,26.953415,77.490326,-17.424917,-0.019289423,-10.547799,1.3093098,-10.277593,47.97587,-34.141953,-3.5787768,3.4545574,2.0794938,9.644749,34.012817,0.67347735,0.43347597,18.302717,3.228711,-8.417423,14.982253,2.4681566,-19.177338,26.855732,20.869719,-8.421318,-11.335454,-13.297918
148,78.58868408203125,7.299356937408447,72.55326843261719,0.8355823802024481,2.241244282087818,-98.26005520387044,-36.510105,20.01756,26.123262,79.05816,-18.525429,1.1801206,-11.506684,0.7200086,-10.141423,49.551464,-34.968822,-2.945236,2.9396808,2.2390718,9.771459,33.166767,1.1939449,0.86203057,18.644293,3.4429271,-8.244032,15.505174,3.1297455,-19.032507,26.208813,23.147055,-8.329643,-10.755993,-13.945192
149,79.31786346435547,7.488384246826172,72.26083374023438,0.6662689817995322,2.219236152033754,-98.19112828385083,-37.197857,21.587036,24.96957,80.28625,-19.375843,1.7978886,-12.2875,0.10790391,-10.0993,50.941795,-35.702766,-2.3124168,2.374124,2.3625963,9.921723,32.264725,1.7333429,1.3302375,18.867996,3.4078023,-8.074032,16.02544,3.7790623,-18.9126,25.59915,25.496025,-8.504008,-9.8454895,-14.700578
150,80.03260803222656,7.65481424331665,71.98828125,0.4933764602019165,2.1501811075561275,-98.04605179834125,-37.888344,22.903353,23.5266,81.215004,-19.979689,1.9392364,-12.943288,-0.5212651,-10.12212,52.213223,-36.331615,-1.6664982,1.7711989,2.4552212,10.096934,31.286625,2.292642,1.8335369,19.00933,3.2017822,-7.8931155,16.58414,4.424632,-18.817158,25.008898,27.937424,-8.83316,-8.681127,-15.536854
151,80.73808288574219,7.804147243499756,71.73672485351562,0.3155640019096718,2.0620302071675645,-97.8379596221592,-38.579998,24.060526,21.925568,81.91976,-20.438143,1.8616136,-13.489275,-1.1571988,-10.189262,53.339565,-36.888336,-1.016475,1.1578871,2.5298028,10.263896,30.251917,2.876422,2.3442996,19.040865,2.872907,-7.7357273,17.091915,5.1358886,-18.756594,24.436699,30.283386,-9.17989,-7.5669246,-16.386377
152,81.44709777832031,7.934236526489258,71.50489044189453,0.13091288133243134,1.9827644919443739,-97.57990625506717,-39.27653,25.153112,20.292267,82.47442,-20.854176,1.8242182,-13.944135,-1.7891611,-10.280751,54.30041,-37.402348,-0.3719919,0.5645143,2.6026773,10.390996,29.177412,3.4909697,2.8317215,18.935764,2.468553,-7.634458,17.458797,5.9919815,-18.749865,23.87784,32.33332,-9.418555,-6.811884,-17.190231
153,82.14889526367188,8.055564880371094,71.28975677490234,-0.06279494135434863,1.9137732148550854,-97.25561208111374,-40.004852,26.142471,18.571152,82.87642,-21.21901,1.8219212,-14.298128,-2.417752,-10.409473,55.082966,-37.884953,0.25399944,-0.008243,2.6813762,10.475527,28.05418,4.145559,3.2888467,18.671932,1.9229554,-7.600644,17.6339,7.034776,-18.820398,23.320957,34.03174,-9.622236,-6.547349,-18.02271
154,82.84361267089844,8.159860610961914,71.09688568115234,-0.26350112072372656,1.8427646149170689,-96.86454039245987,-40.746197,26.997246,16.731834,83.10024,-21.491167,1.7434896,-14.547405,-3.0489283,-10.581501,55.70355,-38.317577,0.8697618,-0.56371856,2.7637084,10.532889,26.866507,4.8420463,3.7146542,18.279985,1.2319556,-7.6148,17.673174,8.244555,-18.97301,22.762054,35.45788,-9.827649,-6.5922785,-18.887152
155,83.53594207763672,8.257294654846191,70.92415618896484,-0.4676618288903636,1.777133408069456,-96.44407257575513,-41.444157,27.826622,14.93068,83.17285,-21.725136,1.6866093,-14.716783,-3.6789527,-10.766455,56.177753,-38.68574,1.4969918,-1.081717,2.8506389,10.558682,25.624538,5.5716114,4.0923295,17.80951,0.53739595,-7.6618147,17.646587,9.594274,-19.191988,22.208527,36.626114,-9.863784,-6.795646,-19.6225
156,84.24061584472656,8.34161376953125,70.77196502685547,-0.671967422627724,1.7239945420849223,-96.03151019980702,-42.054237,28.746738,13.320139,83.12256,-21.97369,1.7486624,-14.834271,-4.3038945,-10.93327,56.52539,-38.974697,2.1569626,-1.548324,2.9418998,10.548608,24.344685,6.319389,4.413086,17.303427,-0.015355907,-7.7280912,17.624517,11.041402,-19.447353,21.672123,37.5647,-9.556768,-7.0109096,-20.066305
157,84.947021484375,8.408061981201172,70.64451599121094,-0.8797279064537885,1.6851387766150392,-95.62673151175858,-42.5801,29.808632,11.931616,82.95961,-22.25438,1.9476672,-14.902416,-4.9195666,-11.080715,56.74616,-39.18913,2.8609579,-1.9667386,3.0369065,10.494512,23.017677,7.0859194,4.6829166,16.762005,-0.36053815,-7.8284774,17.605736,12.581686,-19.725391,21.135777,38.25809,-8.690322,-7.260072,-20.070864
158,85.66569519042969,8.465192794799805,70.54551696777344,-1.0923934902678278,1.6570424438058289,-95.21214941370708,-43.052425,30.95004,10.684304,82.67308,-22.540901,2.23158,-14.910237,-5.528554,-11.224531,56.835606,-39.335575,3.5957963,-2.3455608,3.1346254,10.400203,21.64278,7.8752513,4.9039683,16.163128,-0.5808338,-7.963306,17.559864,14.21681,-20.023813,20.5968,38.721977,-7.4179316,-7.597611,-19.753103
159,86.38890838623047,8.50892162322998,70.47917938232422,-1.300114762876365,1.6384754851041925,-94.80151539497646,-43.45974,32.116707,9.570539,82.2423,-22.818773,2.591366,-14.862472,-6.1364627,-11.356375,56.794403,-39.390507,4.3453364,-2.6857612,3.2261727,10.279283,20.25602,8.672326,5.0752497,15.508145,-0.749084,-8.09878,17.51403,15.887406,-20.327969,20.097845,39.054802,-6.121538,-7.9298763,-19.353617
160,87.11945343017578,8.540377616882324,70.44532775878906,-1.4946993214854247,1.6280338023960943,-94.40723590223332,-43.786793,33.254997,8.5831785,81.65256,-23.076939,3.0181367,-14.763726,-6.7483487,-11.468359,56.62544,-39.332455,5.0941124,-2.998924,3.3018093,10.144584,18.90168,9.450574,5.20825,14.790943,-0.9313543,-8.201214,17.496565,17.516565,-20.617908,19.693514,39.371758,-5.191151,-8.176781,-19.124403
161,87.85823822021484,8.567219734191895,70.44835662841797,-1.671526990125967,1.6246640034645734,-94.02577084767216,-44.023735,34.395245,7.761104,80.90701,-23.338486,3.5344121,-14.618395,-7.368153,-11.557261,56.34073,-39.16223,5.839678,-3.291062,3.3524668,9.997578,17.5698,10.19709,5.316075,14.002,-1.1140177,-8.262365,17.527117,19.073412,-20.88813,19.43852,39.710224,-4.769913,-8.299315,-19.146
162,88.61323547363281,8.584017753601074,70.48320007324219,-1.8359844083233612,1.6294356897786928,-93.65162262993042,-44.175068,35.55079,7.103353,80.01348,-23.608112,4.1297073,-14.425014,-7.989927,-11.627998,55.93439,-38.88644,6.5894513,-3.5663397,3.3839214,9.8331785,16.254433,10.912273,5.4038277,13.1337185,-1.2615863,-8.29992,17.586746,20.578386,-21.142948,19.297937,40.02791,-4.6442204,-8.350093,-19.289562
163,89.3855209350586,8.587163925170898,70.55137634277344,-1.9932442046300307,1.6436890767649073,-93.29614273202839,-44.239273,36.643932,6.5484285,78.97184,-23.842619,4.7494717,-14.17965,-8.604597,-11.682575,55.38545,-38.497913,7.342651,-3.834336,3.406322,9.653899,15.007954,11.586646,5.475575,12.180174,-1.4067141,-8.318709,17.646338,22.033155,-21.374933,19.195606,40.31982,-4.6723814,-8.394574,-19.494898
164,90.17388153076172,8.579375267028809,70.64973449707031,-2.1495154233373337,1.6687001732923665,-92.97049790404284,-44.21019,37.601555,6.0347676,77.77943,-23.999043,5.3440456,-13.877887,-9.202185,-11.723198,54.672302,-37.9894,8.098434,-4.105712,3.42943,9.463047,13.886315,12.206997,5.538359,11.130619,-1.578837,-8.323445,17.677841,23.42998,-21.570782,19.058704,40.5906,-4.7145157,-8.498337,-19.702528
165,90.97310638427734,8.565185546875,70.78063201904297,-2.302622969878232,1.7083741057113617,-92.6687275545659,-44.09541,38.43282,5.5639744,76.447235,-24.052685,5.952304,-13.530075,-9.7840185,-11.74733,53.810474,-37.36439,8.85733,-4.388536,3.4489257,9.261383,12.904751,12.764297,5.6096416,9.941355,-1.8031026,-8.306145,17.685863,24.760752,-21.720688,18.88758,40.860588,-4.8797917,-8.692452,-19.930637
166,91.79588317871094,8.545080184936523,70.9474105834961,-2.4504500604262502,1.7607561146799415,-92.3880203245622,-43.88123,39.171833,5.173362,74.97884,-24.035673,6.5848594,-13.135402,-10.350983,-11.754067,52.802746,-36.625004,9.619203,-4.6742153,3.4617815,9.049189,12.037533,13.260147,5.686514,8.621556,-2.0517914,-8.266735,17.683067,26.02458,-21.82713,18.711681,41.127926,-5.200631,-8.936472,-20.203949
167,92.63748168945312,8.505229949951172,71.14761352539062,-2.5997069066286436,1.8182298653874631,-92.14404779237336,-43.529537,39.786755,4.8491564,73.36209,-23.985348,7.152833,-12.670148,-10.891633,-11.748228,51.60756,-35.758736,10.382829,-4.9497833,3.4813726,8.829206,11.279864,13.697882,5.746885,7.241423,-2.27817,-8.22188,17.65329,27.228453,-21.892805,18.505877,41.35965,-5.4193277,-9.19104,-20.468895
168,93.4946060180664,8.449423789978027,71.3790283203125,-2.7570354930611893,1.8729991602748286,-91.95265367618065,-43.00241,40.248863,4.5741744,71.58402,-23.936096,7.5690665,-12.108547,-11.394345,-11.734934,50.179432,-34.75517,11.147235,-5.1990075,3.5210936,8.604743,10.624286,14.082432,5.764547,5.872699,-2.4364064,-8.188361,17.580507,28.380234,-21.921165,18.241873,41.52163,-5.2778673,-9.419101,-20.668938
169,94.36811065673828,8.387223243713379,71.63505554199219,-2.935307448263103,1.9229044904288752,-91.81655972443302,-42.29043,40.556404,4.312846,69.62417,-23.902016,7.8241043,-11.43447,-11.842965,-11.727617,48.496346,-33.626392,11.905311,-5.419895,3.5940611,8.383039,10.080464,14.413988,5.739362,4.4813113,-2.5607417,-8.142234,17.45949,29.490545,-21.907707,17.894272,41.59577,-4.610988,-9.627747,-20.755648
170,95.27295684814453,8.316726684570312,71.91902160644531,-3.1279833019580487,1.9717433554094301,-91.72797810246209,-41.409,40.733086,4.0787177,67.50358,-23.864084,7.967906,-10.660844,-12.244445,-11.719258,46.579735,-32.372147,12.660093,-5.6160264,3.6895063,8.162355,9.6484375,14.692158,5.6836348,3.0432825,-2.6615245,-8.083899,17.2999,30.551449,-21.849958,17.482777,41.602238,-3.587698,-9.831671,-20.76642
171,96.20162963867188,8.239631652832031,72.22248077392578,-3.311226671787547,2.019464304057574,-91.68932207153853,-40.33744,40.796562,3.9542985,65.25477,-23.814365,8.00739,-9.81262,-12.624761,-11.676304,44.46618,-30.967714,13.423689,-5.782004,3.785703,7.9322023,9.305793,14.921304,5.5911846,1.6485213,-2.6585934,-8.067736,17.106474,31.543457,-21.756193,17.052351,41.562767,-2.4482877,-10.0068,-20.773571
172,97.14269256591797,8.139820098876953,72.5471420288086,-3.4614734422857123,2.0662840375877694,-91.70254902685885,-39.06193,40.757996,4.0172944,62.909836,-23.742603,7.9457,-8.914603,-13.012462,-11.563633,42.189804,-29.387943,14.207357,-5.913526,3.8611834,7.6814694,9.027582,15.107738,5.455581,0.39067793,-2.4743438,-8.148989,16.883263,32.45274,-21.641462,16.647125,41.4929,-1.4321353,-10.131255,-20.85012
173,98.10623168945312,8.027562141418457,72.88544464111328,-3.602064783419858,2.1037261749420306,-91.77614975039832,-37.549503,40.651497,4.284239,60.424686,-23.633724,7.7696733,-7.904255,-13.361802,-11.371138,39.637753,-27.615242,15.000033,-6.0074553,3.9377873,7.4102774,8.827093,15.252329,5.275888,-0.73448586,-2.0623515,-8.361889,16.610603,33.293045,-21.514706,16.27419,41.375378,-0.5049167,-10.178085,-21.029016
174,99.08887481689453,7.9149065017700195,73.23239135742188,-3.867184317786837,2.1559364172311852,-91.96099478665042,-35.924095,40.617554,4.586374,57.80149,-23.480446,7.447369,-6.8000674,-13.3787985,-11.062566,36.71473,-25.601097,15.000033,-6.020428,4.1421614,7.1137714,8.711535,15.351529,5.0598893,-1.7672827,-1.4765899,-8.673606,16.294939,34.06793,-21.377182,15.915286,41.203518,0.4326387,-10.167994,-21.266575
175,100.088134765625,7.795153617858887,73.58351135253906,-4.095021124740846,2.219438662684235,-92.19405044552225,-34.169304,40.4576,5.017237,55.13723,-23.333237,7.0501404,-5.705572,-13.447717,-10.683327,33.739143,-23.430067,15.000033,-6.0049014,4.3248086,6.7993884,8.64621,15.408356,4.814743,-2.666991,-0.7887991,-9.037899,15.978206,34.75327,-21.2347,15.576097,41.00482,1.2371684,-10.150447,-21.522846
176,101.114013671875,7.663488388061523,73.92852020263672,-4.266483153730718,2.316768009861986,-92.47486010251434,-32.385532,40.142002,5.5254254,52.522053,-23.217682,6.603301,-4.756642,-13.62384,-10.237674,30.92743,-21.118025,15.000033,-5.9558935,4.4702086,6.4601264,8.594247,15.428075,4.5458546,-3.3896475,-0.072374,-9.407142,15.701581,35.323307,-21.095764,15.262434,40.807823,1.7674035,-10.172282,-21.755503
177,102.1581802368164,7.530949115753174,74.26458740234375,-4.384130199333169,2.4551208399478424,-92.819487354748,-30.550638,39.654934,6.0929937,49.898018,-23.153223,6.127582,-3.9480228,-13.880322,-9.681389,28.213778,-18.567621,15.000033,-5.8592997,4.582216,6.076479,8.562377,15.410515,4.243322,-3.926195,0.739481,-9.809606,15.473888,35.788727,-20.96862,14.990273,40.615547,1.9070938,-10.236804,-22.011051
178,103.22048950195312,7.405473232269287,74.58045196533203,-4.457542082315277,2.622290232062403,-93.22257625423934,-28.649866,39.01191,6.7244973,47.24361,-23.127823,5.614666,-3.2230642,-14.211827,-9.032968,25.53204,-15.809765,15.000033,-5.7256255,4.6669726,5.658332,8.56633,15.353867,3.911207,-4.299307,1.6563885,-10.257318,15.276397,36.159325,-20.855074,14.75398,40.410477,1.7603817,-10.31845,-22.291656
179,104.30132293701172,7.289687633514404,74.87244415283203,-4.481074196733062,2.813373042714322,-93.6541107311356,-26.792574,38.23374,7.4013734,44.69143,-23.10772,5.038679,-2.664126,-14.686496,-8.398805,23.122993,-13.054775,15.000033,-5.583399,4.7161613,5.240801,8.580036,15.262704,3.5740454,-4.5097337,2.518343,-10.675814,15.105446,36.408463,-20.75135,14.527205,40.19369,1.5158901,-10.421577,-22.488054
180,105.40337371826172,7.18208122253418,75.139892578125,-4.450677134657162,3.024205308840538,-94.08550309789652,-25.080034,37.340477,8.109403,42.36103,-23.048018,4.364284,-2.368687,-15.351078,-7.8841023,21.23422,-10.514082,15.000033,-5.4564414,4.7226624,4.8576283,8.57394,15.145525,3.2529418,-4.5552883,3.1636076,-10.989591,14.953918,36.507515,-20.650692,14.283107,39.970123,1.3627326,-10.55333,-22.490381
181,106.52230072021484,7.090748310089111,75.37889099121094,-4.376014294345645,3.2685981832485393,-94.54488388291568,-23.465456,36.298462,8.846764,40.169785,-22.965233,3.533221,-2.4065506,-16.160603,-7.3596864,19.862722,-8.114032,15.000033,-5.323468,4.7010455,4.4943748,8.545255,15.004988,2.9379942,-4.4255295,3.530547,-11.18623,14.84122,36.452232,-20.552742,14.003011,39.742096,1.3269762,-10.73978,-22.201147
182,107.65093231201172,6.9978461265563965,75.59390258789062,-4.2581132117679426,3.5455408260128936,-95.03768033238963,-21.92154,35.102375,9.609885,38.05719,-22.856995,2.5765095,-2.7489204,-17.082682,-6.8090043,18.927162,-5.794586,15.000033,-5.1746826,4.649769,4.1391225,8.502465,14.840836,2.6184447,-4.1205225,3.7104259,-11.301583,14.761387,36.256664,-20.458447,13.702873,39.510002,1.316881,-10.97,-21.701378
183,108.79248046875,6.932677268981934,75.79976654052734,-4.076835793279673,3.829649092672371,-95.50256645381813,-20.559431,33.80879,10.398231,36.16246,-22.636309,1.5826575,-3.364959,-18.18265,-6.4910927,18.593742,-3.7982295,15.000033,-5.0507245,4.535053,3.8281019,8.432545,14.659554,2.315311,-3.6533997,3.7688243,-11.332494,14.668116,35.918983,-20.358952,13.408488,39.276188,1.3416263,-11.195355,-21.148462
184,109.93058776855469,6.883060932159424,75.97882080078125,-3.802219800976401,4.0940495211515735,-95.87572049574099,-19.4825,32.464436,11.220079,34.632347,-22.217253,0.6362431,-4.1969776,-19.546865,-6.6625905,18.999546,-2.357061,15.000033,-4.991378,4.3116837,3.5974936,8.321334,14.473011,2.0483322,-3.0370011,3.7703009,-11.27556,14.515852,35.43721,-20.240993,13.14372,39.045605,1.4065015,-11.36772,-20.701248
185,111.08329010009766,6.851869583129883,76.1131820678711,-3.331845588029195,4.336348836457343,-96.15159869047767,-18.619617,30.976183,12.254809,33.384377,-21.40954,-0.41600412,-5.2921953,-21.403606,-7.426759,20.230343,-1.5166258,15.000033,-5.0179005,3.8727233,3.4447832,8.185134,14.289696,1.8367327,-2.2894065,3.6844368,-11.106984,14.271526,34.792343,-20.096224,12.903574,38.81185,1.4925742,-11.485159,-20.350527
186,112.24110412597656,6.835125923156738,76.21709442138672,-2.670627471573245,4.55488868716894,-96.34354424179963,-17.904676,29.286407,13.452352,32.328476,-20.286364,-1.563706,-6.581766,-23.717701,-8.5839205,22.109009,-1.1617334,15.000033,-5.1170883,3.2254162,3.3645003,8.02388,14.113638,1.6652153,-1.4014745,3.49021,-10.833545,13.966697,33.998726,-19.921362,12.677491,38.57071,1.6002054,-11.569774,-20.031212
187,113.38330841064453,6.844242095947266,76.28936004638672,-2.0475586007081885,4.738253068822813,-96.44665465211705,-17.50589,27.654583,14.457484,31.684505,-19.193253,-2.5093002,-7.7878537,-26.048847,-10.07129,24.276672,-1.2232145,14.55695,-5.2477803,2.5911987,3.380052,7.7972684,13.950226,1.4987389,-0.34275302,3.2648466,-10.499162,13.655629,33.10175,-19.708174,12.479017,38.33338,1.7624398,-11.610747,-19.818142
188,114.49004364013672,6.8902482986450195,76.33344268798828,-1.881634071239147,4.933445766181623,-96.54370618122114,-17.72789,26.629347,14.886318,31.827255,-18.535263,-3.0133471,-8.702192,-27.695187,-12.020497,26.356623,-1.5872444,12.64377,-5.283136,2.3752258,3.4742415,7.4605513,13.801345,1.2958394,0.9246184,3.084158,-10.150052,13.394973,32.134743,-19.447634,12.318422,38.126266,2.0120351,-11.597764,-19.784546
189,115.57994842529297,6.966524600982666,76.33799743652344,-1.858679397361077,5.0867560112318735,-96.4524850990231,-18.639286,25.759888,14.683589,32.992935,-18.49914,-2.5503387,-9.263167,-29.208084,-14.293743,28.666754,-2.5862217,11.089385,-5.382492,2.2827325,3.7040567,6.9760003,13.679495,1.0556175,2.417679,2.938789,-9.781894,13.150928,31.083397,-19.115072,12.18865,37.960693,2.3863444,-11.53616,-20.002838
190,116.64607238769531,7.0725321769714355,76.3094253540039,-1.9390132408639118,5.205668167962627,-96.21322558599071,-20.103695,24.993,14.06745,34.973362,-18.81588,-1.4460406,-9.551151,-30.69591,-16.9106,31.308216,-4.1860814,9.675185,-5.521153,2.2663457,4.051853,6.3665056,13.588131,0.7846377,4.1191683,2.7947066,-9.375348,12.91438,29.935617,-18.701511,12.074954,37.8306,2.853201,-11.432823,-20.417858
191,117.6945571899414,7.204499244689941,76.2463607788086,-2.0490380347514847,5.257214478511887,-95.89941513044215,-21.627687,24.247461,13.397786,37.1056,-19.161636,-0.46005255,-9.65828,-32.108105,-19.389067,34.270153,-6.048226,8.383858,-5.6275883,2.2525826,4.4883585,5.696381,13.515442,0.47155052,5.9991145,2.6937563,-8.954044,12.767338,28.739342,-18.232286,11.993049,37.713593,3.3443766,-11.277874,-20.914185
192,118.71781158447266,7.343745231628418,76.14540100097656,-2.108577114953209,5.207931517597152,-95.58123042610704,-22.729433,23.479773,13.012292,38.764626,-19.300526,-0.31406045,-9.705081,-33.381966,-21.255442,37.498417,-7.7825365,7.1911497,-5.6466813,2.1691327,4.9824524,5.043649,13.439917,0.116700076,8.022414,2.6789703,-8.543159,12.78714,27.541832,-17.754803,11.969767,37.58071,3.7982628,-11.057331,-21.374277
193,119.73726654052734,7.4745588302612305,76.01107025146484,-2.1051260893463337,5.005151518236838,-95.24148529322095,-23.225748,22.725317,12.991274,39.737446,-19.115732,-1.5219492,-9.74818,-34.479748,-22.316662,41.124893,-9.316386,6.090837,-5.596562,2.0138595,5.5922065,4.3763046,13.333651,-0.25990677,10.291595,2.795443,-8.117587,12.991209,26.355595,-17.291243,12.024391,37.40809,4.253726,-10.699814,-21.823622
194,120.76943969726562,7.5873613357543945,75.83301544189453,-2.0824044800200117,4.684478863934931,-94.8551571069227,-23.41277,22.009241,13.13629,40.42468,-18.812103,-3.563541,-9.772411,-35.402714,-22.835398,45.144787,-10.817555,5.108449,-5.5122423,1.8391579,6.3091927,3.6937768,13.187968,-0.6507354,12.775715,3.0145288,-7.674987,13.331941,25.153727,-16.846415,12.152374,37.20817,4.736682,-10.233548,-22.305426
195,121.81210327148438,7.675671577453613,75.62186431884766,-2.0401634062283787,4.341737995270616,-94.47837376874672,-23.521347,21.29938,13.364542,41.117687,-18.655416,-5.590439,-9.800033,-36.152348,-23.038618,49.28431,-12.245472,4.2644706,-5.374665,1.6523376,7.00275,3.1260448,13.017203,-1.065021,15.239016,3.2639062,-7.2744293,13.7899475,23.924385,-16.447699,12.354466,37.003456,5.170677,-9.790023,-22.723766
196,122.84488677978516,7.735024929046631,75.38738250732422,-1.9748941484505564,4.070821268403311,-94.16728526924115,-23.764555,20.562624,13.607887,42.06812,-18.888641,-6.7715673,-9.834046,-36.755642,-23.157206,53.273125,-13.567455,3.568948,-5.172597,1.4567882,7.54572,2.8032475,12.846343,-1.502884,17.443737,3.463412,-6.976294,14.348828,22.660437,-16.130072,12.634862,36.805393,5.4844737,-9.498123,-22.976164
197,123.86380767822266,7.77446985244751,75.12743377685547,-1.8740892501949078,3.89263270899224,-93.92215359058487,-24.216312,19.77338,13.838217,43.396454,-19.656988,-6.7676034,-9.89696,-37.245537,-23.194572,57.152607,-14.812268,3.05604,-4.911419,1.2474939,7.903306,2.730569,12.693158,-1.9966277,19.403257,3.5945795,-6.8017006,15.118905,21.377811,-15.922395,13.018862,36.5766,5.6913896,-9.384792,-23.00677
198,124.86650848388672,7.812823295593262,74.85881042480469,-1.744056842881634,3.757590301445042,-93.719315329704,-24.749382,18.947554,14.089375,44.91936,-20.767803,-6.062458,-9.989405,-37.580654,-23.059181,61.04334,-15.981612,2.7249038,-4.60867,1.0280563,8.146041,2.8567722,12.554043,-2.52359,21.213264,3.6875472,-6.717122,16.070086,20.079176,-15.820898,13.510685,36.3063,5.833958,-9.378918,-22.870947
199,125.8635025024414,7.844561576843262,74.62882232666016,-1.6072980005266153,3.6519539506380005,-93.57733301806311,-25.261976,18.113907,14.392858,46.40869,-21.952108,-5.068586,-10.0633135,-37.6999,-22.844774,64.78419,-17.00615,2.5173917,-4.2687397,0.8100638,8.306793,3.2176201,12.420989,-3.0024226,22.765682,3.741892,-6.702475,16.976902,18.736002,-15.800612,14.076999,36.048374,5.8797345,-9.463007,-22.634235
200,126.86727142333984,7.85000467300415,74.42887115478516,-1.4847024169576037,3.5625005306359134,-93.51422167477288,-25.648321,17.31552,14.788937,47.64575,-22.960205,-4.1987205,-10.071996,-37.549576,-22.644003,68.208305,-17.807772,2.37122,-3.8915038,0.60203743,8.418041,3.8399506,12.284744,-3.357161,23.960875,3.7592363,-6.739845,17.614634,17.320242,-15.825646,14.678829,35.859886,5.79209,-9.62132,-22.365229
201,127.85250091552734,7.836063861846924,74.24958038330078,-1.368753704642809,3.4980143402912685,-93.57315957212546,-25.8622,16.580048,15.334853,48.580116,-23.764456,-3.513718,-10.017885,-37.174175,-22.504189,71.32042,-18.373995,2.1862268,-3.4381876,0.3825126,8.454055,4.770685,12.139853,-3.568392,24.727564,3.7589846,-6.8523192,17.927032,15.789163,-15.878746,15.334769,35.812267,5.531572,-9.917091,-22.01414
202,128.80442810058594,7.797425270080566,74.09966278076172,-1.2510471826288148,3.4617053615641455,-93.73114263913365,-25.95918,15.883647,15.988119,49.32532,-24.491234,-2.806547,-9.921579,-36.583176,-22.378382,74.188965,-18.732624,2.0242586,-2.9157054,0.14932555,8.408732,5.9606185,11.988871,-3.693111,25.158543,3.7413952,-7.0413766,18.033747,14.163905,-15.957466,16.04429,35.861324,5.12159,-10.339693,-21.5746
203,129.7305450439453,7.764016151428223,73.98113250732422,-1.1520007264620404,3.431681201033201,-93.9064513610686,-25.983952,15.202064,16.649803,49.91388,-25.132366,-2.0895877,-9.770205,-35.67172,-22.22136,76.73414,-18.863028,2.0705044,-2.383691,-0.060486205,8.342062,7.293573,11.837765,-3.7749424,25.393318,3.677479,-7.253111,17.97384,12.516781,-16.047264,16.734602,35.895382,4.613484,-10.76314,-21.17972
204,130.634765625,7.736651420593262,73.88712310791016,-1.093671230877496,3.3861881506115243,-94.01828740514101,-25.984911,14.512498,17.223886,50.379715,-25.677303,-1.3756481,-9.561095,-34.315514,-21.990211,78.86994,-18.74551,2.5245745,-1.8979402,-0.21094967,8.3107815,8.658645,11.697064,-3.8516445,25.564814,3.5381234,-7.432739,17.78759,10.915981,-16.130766,17.336828,35.817383,4.050326,-11.059877,-20.959892
205,131.52174377441406,7.710507392883301,73.80988311767578,-1.0868777362762092,3.312779247770356,-94.0255850430232,-25.977797,13.807052,17.660723,50.740414,-26.12152,-0.6670093,-9.270632,-32.43474,-21.699665,80.57942,-18.349379,3.4858615,-1.4859872,-0.29408848,8.332651,10.061358,11.57841,-3.9117286,25.658821,3.2494955,-7.5762453,17.388897,9.344298,-16.194178,17.84666,35.673225,3.3233325,-11.199247,-20.958378
206,132.40390014648438,7.6863484382629395,73.75799560546875,-1.1205908140716523,3.226163968842383,-93.97959168692546,-25.935768,13.102763,18.021317,50.97852,-26.473433,0.042541496,-8.936582,-30.079155,-21.364931,81.898186,-17.710192,4.858313,-1.1062305,-0.33549762,8.3710985,11.55011,11.486479,-3.9450607,25.621254,2.8444943,-7.705369,16.788694,7.768941,-16.237204,18.29762,35.51145,2.4404547,-11.246213,-21.101841
207,133.28707885742188,7.665271282196045,73.73509216308594,-1.1832463304977099,3.1447958553484905,-93.93761503379133,-25.846132,12.415685,18.375889,51.075733,-26.738113,0.7514288,-8.645397,-27.319498,-20.94753,82.81421,-16.916222,6.549036,-0.7136964,-0.34612778,8.400102,13.08593,11.419243,-3.9794955,25.516611,2.455378,-7.8064723,16.174206,6.231859,-16.267502,18.690485,35.244865,1.6245375,-11.215048,-21.341236
208,134.1604766845703,7.641193866729736,73.73516082763672,-1.2623579440150903,3.0866007603700067,-93.95684819062068,-25.699036,11.759969,18.793787,51.015034,-26.921097,1.4586188,-8.469181,-24.240747,-20.412113,83.32093,-16.051512,8.457387,-0.23669769,-0.3357871,8.395472,14.60933,11.385969,-4.0726233,25.422949,2.2093744,-7.8707714,15.7384405,4.8030257,-16.29131,18.990025,34.76556,1.0923765,-11.122753,-21.620737
209,135.0304412841797,7.628084182739258,73.76596069335938,-1.3644684425233458,3.062260524755664,-94.05281004629677,-25.504622,11.157668,19.29908,50.80548,-27.032042,2.167867,-8.453971,-20.71969,-19.658724,83.38124,-15.073602,10.698103,0.26547113,-0.2914125,8.341152,16.172358,11.352539,-4.164145,25.323719,2.2116516,-7.8905587,15.529196,3.4425023,-16.328041,19.284256,34.075687,0.9773896,-10.927582,-22.015598
210,135.91622924804688,7.611555576324463,73.82670593261719,-1.4874107750840933,3.058247033695931,-94.19437174791405,-25.261425,10.58858,19.857866,50.448063,-27.06351,2.8803067,-8.537056,-16.769411,-18.731796,83.00541,-14.016755,13.2866335,0.8446116,-0.21477818,8.256744,17.735605,11.345197,-4.310226,25.220053,2.364553,-7.8738666,15.4571905,2.185125,-16.35882,19.475327,33.190254,1.118655,-10.638144,-22.506817
211,136.7693634033203,7.609046936035156,73.92167663574219,-1.7749830129867523,3.1086086081548934,-94.45316843421618,-25.08198,10.258468,20.38405,50.0705,-27.052645,3.5418265,-8.626481,-12.7163725,-18.16452,82.208595,-12.989544,15.000033,1.5046082,0.015759666,8.095504,19.34853,11.338415,-4.420995,25.060326,2.5276256,-7.844879,15.457373,0.982147,-16.415771,19.682396,32.162197,1.4017718,-10.344058,-22.977034
212,137.5977325439453,7.619304180145264,74.0468978881836,-2.2535985899016464,3.2099413067207467,-94.84480764011793,-24.995914,10.206272,20.840834,49.721954,-27.009377,4.130327,-8.62858,-8.963475,-18.30507,81.02767,-12.031238,15.000033,2.288808,0.4234155,7.8537564,20.973928,11.314621,-4.494524,24.851925,2.572979,-7.8261757,15.479174,-0.14893183,-16.510975,19.881142,31.0025,1.6643635,-10.13254,-23.279102
213,138.4416046142578,7.625860214233398,74.1961898803711,-2.6062382138217517,3.2615722621912213,-95.23031463770967,-24.725836,9.9543,21.368929,49.08657,-26.859457,4.7460637,-8.537579,-5.440642,-18.420546,79.50035,-11.2172785,15.000033,3.0658283,0.7183926,7.6379294,22.62803,11.262248,-4.5084486,24.587286,2.4748042,-7.827002,15.51684,-1.2134808,-16.64573,20.081945,29.69246,1.9698421,-10.012942,-23.373934
214,139.2985382080078,7.635074615478516,74.36592102050781,-2.862781843051352,3.280750034048907,-95.61983006621792,-24.307972,9.551722,21.966955,48.206146,-26.611216,5.383234,-8.381339,-2.0285456,-18.45528,77.60253,-10.4829645,15.000033,3.8347886,0.93562275,7.4362493,24.318298,11.17672,-4.470008,24.26616,2.305861,-7.8348155,15.595381,-2.2120025,-16.824322,20.28896,28.22501,2.367155,-9.94156,-23.33726
215,140.16363525390625,7.650766372680664,74.55047607421875,-3.016246930630917,3.2813802113987713,-95.96552628614384,-23.811104,8.984587,22.600569,47.156025,-26.20259,6.0281463,-8.138786,1.0582002,-18.499819,75.449814,-9.829964,15.000033,4.5464077,1.0740724,7.240171,26.025625,11.060243,-4.400675,23.886242,2.0812988,-7.8387685,15.708809,-3.1456726,-17.04604,20.512606,26.649494,2.6783323,-9.919969,-23.206373
216,141.02938842773438,7.673130989074707,74.74935913085938,-3.074897263102149,3.282366082343916,-96.22656307871031,-23.31249,8.260646,23.23003,46.016766,-25.571842,6.663439,-7.8033547,3.6197038,-18.673462,73.16203,-9.238257,15.000033,5.1601396,1.1450015,7.035367,27.728394,10.918701,-4.326221,23.447819,1.8147835,-7.827782,15.851082,-4.0170736,-17.306376,20.758802,25.02178,2.7239974,-9.956565,-23.017393
217,141.91575622558594,7.686225414276123,74.96980285644531,-3.062511885397659,3.296967203084437,-96.40017987640263,-22.812746,7.3820066,23.828148,44.73418,-24.709156,7.3113527,-7.3525906,5.57724,-19.114342,70.7343,-8.688715,15.000033,5.671089,1.1664934,6.8067856,29.444237,10.754715,-4.2435184,22.929167,1.4877007,-7.793983,16.054607,-4.8377776,-17.611462,21.05135,23.316069,2.407194,-10.038669,-22.798418
218,142.81968688964844,7.710648536682129,75.20903015136719,-2.999732095715397,3.3211805107246226,-96.5159660367535,-22.289629,6.3810396,24.405827,43.290417,-23.643461,7.9634676,-6.7957077,7.1046314,-19.761879,68.10158,-8.158888,15.000033,6.1110644,1.1578617,6.558979,31.175068,10.564626,-4.1486855,22.337679,1.0979819,-7.74603,16.311625,-5.598613,-17.964525,21.377064,21.510992,1.8419988,-10.170628,-22.522963
219,143.72813415527344,7.746938705444336,75.46571350097656,-2.8896485390978226,3.3478381311077396,-96.58273026010612,-21.785463,5.316495,24.982557,41.8215,-22.368929,8.5561905,-6.1725173,8.375103,-20.452074,65.28476,-7.629602,15.000033,6.4945097,1.1282934,6.305476,32.875122,10.349117,-4.067235,21.720116,0.6853815,-7.6962004,16.557083,-6.2742,-18.354021,21.683802,19.669382,1.158299,-10.383591,-22.147762
220,144.6513214111328,7.788684368133545,75.73622131347656,-2.725922064830731,3.368373742664974,-96.60639808734811,-21.340458,4.2367516,25.583826,40.458996,-20.875616,9.03072,-5.527831,9.530382,-20.999071,62.3118,-7.082847,15.000033,6.8357263,1.0749791,6.0619483,34.497635,10.114878,-4.024457,21.124483,0.28925776,-7.6564436,16.725657,-6.8433104,-18.758883,21.915026,17.860498,0.4843003,-10.7093315,-21.630726
221,145.57745361328125,7.81925630569458,76.014892578125,-2.4846773358443737,3.3853444324246316,-96.57515760498603,-20.94561,3.1159112,26.25052,39.181107,-19.11513,9.476357,-4.8498397,10.508283,-21.406876,59.16679,-6.5596323,15.000033,7.1241035,0.9634833,5.8212647,36.062157,9.873353,-4.028493,20.528658,-0.09224419,-7.61546,16.828499,-7.327143,-19.17029,22.058302,16.102398,-0.18513303,-11.210201,-20.897457
222,146.5080108642578,7.865312576293945,76.29251098632812,-2.1816446305038446,3.401178583972046,-96.49116599169614,-20.585976,1.95063,26.956959,37.930496,-17.102127,9.888833,-4.1111846,11.266049,-21.784748,55.839844,-6.0570807,15.000033,7.362017,0.8052412,5.5792933,37.582714,9.629751,-4.0690517,19.918566,-0.47902703,-7.570882,16.891415,-7.7339892,-19.588743,22.133821,14.367803,-0.90442926,-11.8594,-19.994738
223,147.44528198242188,7.918000221252441,76.56515502929688,-1.858548547355225,3.4067556997179564,-96.37894736268397,-20.291819,0.8048413,27.62535,36.78131,-14.916495,10.07066,-3.3366997,11.938414,-22.065964,52.369938,-5.484598,15.000033,7.57808,0.65517014,5.356729,39.00874,9.381438,-4.1393857,19.348719,-0.8568374,-7.5434365,16.870457,-8.036478,-20.006105,22.135984,12.67166,-1.6228267,-12.551769,-19.062082
224,148.38662719726562,7.980517387390137,76.82562255859375,-1.5528037684826208,3.393276129654823,-96.26210102488652,-20.09302,-0.2692244,28.169916,35.804012,-12.635288,9.82416,-2.550895,12.648584,-22.15497,48.79195,-4.749736,15.000033,7.7969327,0.56319976,5.1731906,40.292385,9.123286,-4.228829,18.872652,-1.2091895,-7.553305,16.7225,-8.212456,-20.409798,22.061172,11.035358,-2.2971063,-13.177333,-18.237179
225,149.3236083984375,8.055571556091309,77.07197570800781,-1.2740126614658436,3.366072384888142,-96.13138490674845,-20.01789,-1.2254679,28.682316,35.08633,-10.266518,9.244984,-1.7097512,13.443745,-22.046509,44.945736,-3.7679424,15.000033,8.013304,0.5449566,5.0206347,41.42898,8.856027,-4.353947,18.506302,-1.5505838,-7.6090145,16.387682,-8.259166,-20.786541,21.876963,9.456488,-2.99153,-13.735991,-17.49392
226,150.2714080810547,8.14165210723877,77.30631256103516,-0.9891237341078856,3.32648624593136,-95.97732182348958,-20.04371,-2.1308224,29.156874,34.55287,-7.7704563,8.383268,-0.79149985,14.211978,-21.745218,40.84745,-2.6001399,15.000033,8.213092,0.5568224,4.893331,42.445637,8.583935,-4.5082817,18.218472,-1.8827378,-7.6963677,15.905136,-8.199719,-21.13323,21.594019,7.941164,-3.7108784,-14.276746,-16.780111
227,151.23313903808594,8.235876083374023,77.51910400390625,-0.6755579180084125,3.261197325976717,-95.82403596248368,-20.128057,-3.1060004,29.335766,34.040752,-5.1635594,6.958659,0.13005881,14.8302355,-21.18447,36.829716,-1.3760536,15.000033,8.406358,0.56577206,4.8133607,43.341454,8.302265,-4.6451163,17.991716,-2.1690686,-7.802853,15.379535,-8.046935,-21.453915,21.275509,6.519246,-4.3273635,-14.755295,-16.191635
228,152.22067260742188,8.335906028747559,77.7046127319336,-0.3233107264268088,3.158738168996309,-95.69809939870011,-20.23494,-4.26485,28.93838,33.405586,-2.4855363,4.6698866,0.947465,15.192511,-20.34273,33.270287,-0.24138097,15.000033,8.600897,0.5534626,4.7994986,44.114998,7.9975805,-4.7157025,17.809694,-2.3694963,-7.918446,14.916084,-7.8139663,-21.75715,20.990362,5.220003,-4.714081,-15.122376,-15.822605
229,153.22830200195312,8.433892250061035,77.85552215576172,0.042493525795911286,3.03424651280046,-95.63093041017702,-20.397371,-5.705984,27.674292,32.570515,0.32182428,1.0483246,1.6087476,15.344645,-19.203283,30.113005,0.9846567,15.000033,8.835422,0.553128,4.834689,44.765175,7.647478,-4.6980147,17.690163,-2.4277155,-8.074654,14.47724,-7.4796367,-22.051344,20.750853,4.018696,-4.8018856,-15.324854,-15.762098
230,154.2437744140625,8.544361114501953,77.9615478515625,0.4226614374727329,2.8923998765655323,-95.60130445825999,-20.62003,-7.385379,25.693464,31.679525,3.0893722,-3.696538,2.1339056,15.304995,-17.815367,27.276953,2.27972,15.000033,9.082367,0.5715385,4.9128337,45.290813,7.243932,-4.6144595,17.63813,-2.372717,-8.26877,14.028882,-7.0496902,-22.336847,20.533247,2.9085698,-4.671987,-15.39681,-15.9373455
231,155.2664031982422,8.656952857971191,78.02477264404297,0.8421357210030188,2.7091415882664474,-95.5615165133874,-20.843876,-9.142801,23.416033,30.963236,5.4634633,-8.817546,2.4502215,14.959498,-16.32051,25.19887,3.1586943,15.000033,9.257643,0.5723044,5.061231,45.687325,6.8008175,-4.4857507,17.621914,-2.2933273,-8.43908,13.682202,-6.5759897,-22.60949,20.349758,1.9492698,-4.4242115,-15.420046,-16.198084
232,156.2740936279297,8.777332305908203,78.07365417480469,1.3134661905497385,2.462598778275044,-95.46761456255693,-21.039045,-10.767738,21.321138,30.63906,7.2412996,-13.515886,2.4515016,14.217571,-14.886984,24.358395,3.1192248,15.000033,9.286239,0.52769333,5.3010173,45.949158,6.3435116,-4.335462,17.611317,-2.281889,-8.521856,13.547811,-6.1068,-22.860409,20.207718,1.2018951,-4.1602182,-15.476118,-16.393415
233,157.317138671875,8.907661437988281,78.06139373779297,1.7984905033620315,2.277547852890056,-95.26981876637947,-21.305977,-12.094362,20.237133,30.631416,8.68944,-15.000033,1.7247883,13.013462,-13.887252,25.298004,1.8648249,13.043166,9.130966,0.45844215,5.505846,46.101723,5.8763237,-4.1620016,17.582191,-2.3621342,-8.493018,13.729797,-5.6314297,-23.085762,20.09925,0.6654602,-3.8180125,-15.60308,-16.496336
234,158.3553466796875,9.063821792602539,77.97268676757812,2.170108609944945,2.181974361198113,-95.11608412806599,-21.889915,-12.910138,19.792343,31.322584,9.711623,-15.000033,0.47634178,11.7281475,-13.485717,27.334518,-0.19939505,7.2530355,8.944427,0.458095,5.636353,46.14308,5.4002647,-3.951157,17.547216,-2.4898295,-8.388295,14.143199,-5.1346264,-23.282846,20.021587,0.31598192,-3.3739579,-15.752237,-16.581232
235,159.4052276611328,9.234699249267578,77.84963989257812,2.5545374187062726,2.05887471777912,-95.00276590229225,-22.6494,-13.301524,19.761778,32.759995,10.114178,-15.000033,-0.8266352,10.417879,-13.105719,29.783752,-2.8399997,1.4975648,8.720001,0.4239347,5.8146667,46.04188,4.942555,-3.7228405,17.52113,-2.65916,-8.231897,14.618141,-4.651662,-23.444899,19.979773,0.1817381,-2.987256,-15.87369,-16.646236
236,160.42750549316406,9.418522834777832,77.70225524902344,2.9569864149226044,1.911116356805597,-94.89062378864723,-23.610794,-13.108141,20.256268,35.12851,9.684979,-15.000033,-1.7839041,9.209248,-12.803067,31.816864,-5.5872207,-2.7722673,8.426984,0.34428272,6.028825,45.782608,4.544819,-3.5075161,17.503302,-2.8697493,-8.046436,14.986577,-4.208432,-23.566845,19.966686,0.286751,-2.8175476,-15.916903,-16.686779
237,161.39501953125,9.601311683654785,77.48798370361328,3.369093337064233,1.7059649246203652,-94.79857185641644,-24.735306,-12.137521,21.348593,38.64318,8.171611,-15.000033,-2.164734,8.071092,-12.680048,33.20425,-8.382126,-5.074887,8.089244,0.22577907,6.3028936,45.371567,4.240586,-3.3312886,17.46104,-3.1935248,-7.7926903,15.224462,-3.7831638,-23.643955,19.968426,0.6272538,-2.95506,-15.859702,-16.692842
238,162.32315063476562,9.785650253295898,77.21878051757812,3.741625013798496,1.4381928964760666,-94.7503909458402,-25.873585,-10.50296,22.710474,42.951916,5.805642,-15.000033,-2.1510048,6.963787,-12.698937,34.290455,-11.349856,-6.208689,7.746848,0.11570608,6.6389685,44.817307,4.0372815,-3.187137,17.398966,-3.621508,-7.472644,15.417067,-3.3469758,-23.674921,19.967323,1.182301,-3.3006632,-15.732203,-16.66641
239,163.20343017578125,9.962848663330078,76.92802429199219,3.998504965983329,1.1491178037767382,-94.70310886943221,-26.91457,-8.46784,23.909779,47.429768,3.1209018,-15.000033,-1.9655795,5.9639606,-12.803314,35.15666,-14.241437,-6.690661,7.3828435,0.08631606,6.992349,44.102535,3.9317188,-3.0570824,17.378445,-4.0294466,-7.1699386,15.558794,-2.9132483,-23.662151,19.95158,1.9486188,-3.7274482,-15.562474,-16.622215
240,164.07958984375,10.136563301086426,76.62112426757812,4.08685807240957,0.9004485191185939,-94.58411455355446,-27.886616,-6.3547063,24.59707,51.551823,0.6533133,-15.000033,-1.8699101,5.1501327,-12.920536,35.922634,-16.84504,-7.047239,6.9544606,0.19237706,7.303141,43.207615,3.9181058,-2.9294083,17.461668,-4.2952743,-6.9676933,15.642898,-2.4829502,-23.625782,19.91102,2.9057438,-4.10278,-15.3770075,-16.580492
241,164.94290161132812,10.312657356262207,76.29689025878906,3.946529116882171,0.7096699276355997,-94.31068977513192,-28.90793,-4.183972,24.678162,55.371243,-1.5595663,-15.000033,-1.8908353,4.5868464,-13.131166,36.562996,-19.106417,-7.3318233,6.3676186,0.4770243,7.5487547,42.10899,3.9796834,-2.7601638,17.661936,-4.356706,-6.910366,15.593368,-2.0840666,-23.527143,19.849678,4.087993,-4.4200444,-15.199672,-16.503164
