unveil-humanoid-operators/unveil-humanoid-operators.github.io/feature-analysis-animation/data/feature_matrix_instances/height_ankle_rom_walking_A445_walk_arc_cw_start_R_very_slow_001__A445.csv
Frame,root_translateX,root_translateY,root_translateZ,root_rotateX,root_rotateY,root_rotateZ,left_hip_pitch_joint_dof,left_hip_roll_joint_dof,left_hip_yaw_joint_dof,left_knee_joint_dof,left_ankle_pitch_joint_dof,left_ankle_roll_joint_dof,right_hip_pitch_joint_dof,right_hip_roll_joint_dof,right_hip_yaw_joint_dof,right_knee_joint_dof,right_ankle_pitch_joint_dof,right_ankle_roll_joint_dof,waist_yaw_joint_dof,waist_roll_joint_dof,waist_pitch_joint_dof,left_shoulder_pitch_joint_dof,left_shoulder_roll_joint_dof,left_shoulder_yaw_joint_dof,left_elbow_joint_dof,left_wrist_roll_joint_dof,left_wrist_pitch_joint_dof,left_wrist_yaw_joint_dof,right_shoulder_pitch_joint_dof,right_shoulder_roll_joint_dof,right_shoulder_yaw_joint_dof,right_elbow_joint_dof,right_wrist_roll_joint_dof,right_wrist_pitch_joint_dof,right_wrist_yaw_joint_dof
0,1.7471764087677002,1.9082307815551758,78.40547180175781,1.1839720145935262,-5.963206218076478,-89.20031466618978,8.533985,0.60969853,11.1073065,7.097423,-9.423015,-2.2903779,6.3234015,-10.903357,-15.1150675,14.374583,-13.86675,9.138693,1.8362164,-0.78724205,12.362118,-12.627874,16.364994,-66.48082,55.622276,-7.392053,4.7658076,-4.365169,-7.409532,-14.721187,52.40797,51.83091,8.5016165,9.54681,-0.3884578
1,1.8257673978805542,1.9072717428207397,78.3931884765625,1.2443627319645547,-5.984304938997645,-89.27962749874222,8.606967,0.4659628,11.184329,7.031842,-9.422636,-2.1982663,6.167986,-11.076109,-14.989657,14.705904,-13.992869,9.222287,1.8685081,-0.8599171,12.401603,-12.612847,16.36088,-66.4352,55.629017,-7.408033,4.74593,-4.3642564,-7.401521,-14.749606,52.345287,51.83124,8.542411,9.495934,-0.48326895
2,1.9088687896728516,1.9063892364501953,78.3770980834961,1.3029409371111365,-6.00539831423284,-89.35780534184534,8.679797,0.32546958,11.259409,6.9681387,-9.423785,-2.106825,6.019753,-11.243611,-14.866774,15.02299,-14.11298,9.30678,1.9076115,-0.9275148,12.445987,-12.604799,16.35511,-66.391624,55.635204,-7.42243,4.7253113,-4.3646784,-7.377492,-14.804682,52.27302,51.79577,8.579335,9.448501,-0.57328486
3,1.9950850009918213,1.9085088968276978,78.36163330078125,1.3646012784051826,-6.026553752945994,-89.43817183555487,8.750554,0.1795833,11.337485,6.907773,-9.426573,-2.014404,5.859944,-11.418792,-14.738569,15.360766,-14.241327,9.389194,1.9432478,-1.0000747,12.489757,-12.592022,16.350863,-66.34622,55.63951,-7.434482,4.706693,-4.3644853,-7.3583646,-14.854241,52.202003,51.77117,8.618444,9.399438,-0.6690353
4,2.081672430038452,1.9091066122055054,78.34693908691406,1.438804195853764,-6.048612557884736,-89.52467770313274,8.793883,0.025439473,11.423122,6.9052362,-9.459261,-1.9195505,5.666779,-11.616342,-14.596132,15.763032,-14.395448,9.466717,1.9820837,-1.0807724,12.542674,-12.579097,16.344933,-66.29743,55.640556,-7.4331193,4.693256,-4.365584,-7.3230186,-14.936066,52.11343,51.710293,8.656967,9.353066,-0.7749529
5,2.1698427200317383,1.9169827699661255,78.32844543457031,1.5257672540155967,-6.070690983334594,-89.61970272217616,8.836207,-0.1439639,11.519526,6.9016695,-9.490286,-1.8215177,5.440773,-11.838047,-14.438109,16.2241,-14.57594,9.532591,2.0236871,-1.1714743,12.60193,-12.561623,16.337172,-66.240845,55.63812,-7.4045,4.687575,-4.37181,-7.273077,-15.046481,52.01466,51.615746,8.694908,9.309319,-0.9041518
6,2.2595109939575195,1.9223002195358276,78.30855560302734,1.6206450319307657,-6.09261734657341,-89.72069270805763,8.877401,-0.324629,11.623537,6.8980546,-9.52083,-1.7212263,5.1874957,-12.077839,-14.267614,16.734596,-14.777415,9.590259,2.0638814,-1.2716022,12.663481,-12.53801,16.329147,-66.17571,55.63389,-7.356646,4.6875715,-4.381795,-7.223535,-15.157345,51.910988,51.521164,8.730389,9.265869,-1.0500438
7,2.348782777786255,1.9277708530426025,78.28592681884766,1.725611094435159,-6.1164104555622,-89.8238470015878,8.919678,-0.51568496,11.730712,6.8935513,-9.5507145,-1.6196084,4.9177527,-12.32965,-14.0881815,17.277481,-14.989997,9.652425,2.1013691,-1.3800904,12.731442,-12.514646,16.3206,-66.11151,55.630013,-7.316846,4.688974,-4.386429,-7.1701446,-15.277853,51.792507,51.4202,8.769059,9.222782,-1.1911389
8,2.440371036529541,1.9372656345367432,78.2610092163086,1.8375906855472899,-6.1441388831304975,-89.92536025892657,8.963723,-0.71675426,11.836776,6.8894897,-9.580984,-1.5173776,4.641342,-12.590751,-13.902968,17.84024,-15.206582,9.731889,2.1326709,-1.4980317,12.80825,-12.495789,16.31265,-66.05665,55.62864,-7.312961,4.6880116,-4.376776,-7.1154714,-15.401594,51.65136,51.323708,8.814656,9.179128,-1.3065553
9,2.5292060375213623,1.949375867843628,78.23541259765625,1.9583670671860165,-6.174722104503032,-90.02355739752002,9.008259,-0.9305962,11.939929,6.8843913,-9.6101675,-1.4128352,4.3608456,-12.861601,-13.71207,18.414154,-15.42496,9.841888,2.156269,-1.6269146,12.893676,-12.483534,16.305923,-66.01551,55.629295,-7.363028,4.683454,-4.344415,-7.060924,-15.527577,51.480484,51.234997,8.8721485,9.131543,-1.3820593
10,2.6234469413757324,1.9642959833145142,78.20638275146484,2.0891518922679237,-6.2075502219042615,-90.12068196097455,9.052829,-1.1558896,12.042423,6.8792725,-9.638684,-1.3062774,4.0701942,-13.142783,-13.514057,19.009521,-15.650281,9.972059,2.1743207,-1.7658979,12.986438,-12.474591,16.300468,-65.98293,55.63069,-7.448536,4.67747,-4.296115,-7.0061493,-15.655773,51.28469,51.15236,8.936957,9.081285,-1.4316638
11,2.7126245498657227,1.9765214920043945,78.17422485351562,2.2239316862477994,-6.245632436710334,-90.21856696198542,9.102525,-1.3864726,12.146103,6.8735337,-9.668078,-1.2015107,3.7684782,-13.431493,-13.309944,19.636547,-15.882679,10.100308,2.1895254,-1.9111742,13.08785,-12.467748,16.296503,-65.95558,55.63354,-7.544885,4.671028,-4.245532,-6.9478154,-15.785624,51.07505,51.069397,9.001706,9.034842,-1.4767798
12,2.803642988204956,1.991842269897461,78.14380645751953,2.359581797353904,-6.291743891870012,-90.31918798114928,9.161509,-1.6164645,12.252561,6.8693643,-9.701812,-1.1021422,3.454012,-13.723683,-13.100366,20.30595,-16.122791,10.204185,2.204039,-2.059353,13.199059,-12.46231,16.294542,-65.93143,55.639446,-7.629278,4.664973,-4.206268,-6.8829327,-15.916714,50.86197,50.98193,9.056745,8.998241,-1.5389344
13,2.8948466777801514,2.005730628967285,78.11128234863281,2.4977806133859026,-6.34740892288026,-90.42171160376472,9.2322445,-1.8462267,12.361473,6.86361,-9.739679,-1.0112822,3.1307178,-14.023306,-12.890212,21.01722,-16.377298,10.273974,2.2174523,-2.2109728,13.32035,-12.456155,16.294888,-65.907295,55.6467,-7.694977,4.659852,-4.1803617,-6.809283,-16.048399,50.645897,50.886654,9.09612,8.978016,-1.6191975
14,2.984391689300537,2.022006034851074,78.07479095458984,2.63819331039105,-6.41096968445693,-90.52573406468177,9.311536,-2.0787306,12.471973,6.8577147,-9.781197,-0.92600554,2.7973478,-14.329735,-12.677045,21.765522,-16.643547,10.322474,2.228292,-2.3677871,13.450977,-12.451087,16.298016,-65.88663,55.65543,-7.757096,4.654936,-4.1611066,-6.7296424,-16.180386,50.42248,50.788082,9.125074,8.969129,-1.7077574
15,3.0713534355163574,2.041905641555786,78.03880310058594,2.780315574667872,-6.479676768723141,-90.63316358884232,9.395604,-2.3107464,12.585113,6.8518157,-9.822116,-0.84144056,2.4475822,-14.636621,-12.450708,22.552101,-16.906307,10.361683,2.2381015,-2.5270693,13.59041,-12.446084,16.304094,-65.86746,55.665337,-7.812426,4.650366,-4.148979,-6.6482887,-16.31234,50.195488,50.69087,9.15622,8.960906,-1.8097484
16,3.1577744483947754,2.0603322982788086,78.00442504882812,2.921043281167667,-6.551495372451841,-90.74628599612265,9.481784,-2.539768,12.701906,6.847595,-9.860365,-0.7526219,2.074216,-14.938835,-12.200644,23.380627,-17.15193,10.40363,2.2478032,-2.686257,13.738411,-12.443087,16.31349,-65.8519,55.67708,-7.863493,4.6457815,-4.1445103,-6.5676923,-16.443419,49.96814,50.598366,9.200737,8.942837,-1.930552
17,3.242217779159546,2.0823769569396973,77.97091674804688,3.0648473508529213,-6.625825526472458,-90.86760147990208,9.57051,-2.7703567,12.824579,6.8425217,-9.892445,-0.657706,1.6706477,-15.239478,-11.918712,24.2592,-17.386362,10.448769,2.259143,-2.8495884,13.896089,-12.440394,16.326448,-65.838615,55.69017,-7.9058776,4.6411395,-4.1499853,-6.4931583,-16.573536,49.745304,50.513668,9.270841,8.908832,-2.075344
18,3.3278346061706543,2.1069235801696777,77.93510437011719,3.211644420455274,-6.70386779830644,-90.99535779913911,9.663879,-3.0022378,12.951801,6.8366785,-9.921306,-0.5595773,1.2421694,-15.541029,-11.61155,25.184372,-17.614445,10.491677,2.2706757,-3.0166519,14.063193,-12.438298,16.343304,-65.827896,55.70436,-7.941597,4.636364,-4.1644015,-6.4202285,-16.70221,49.523132,50.43339,9.3558855,8.865589,-2.2401114
19,3.410341501235962,2.1277823448181152,77.89918518066406,3.3512434849743804,-6.785780342472272,-91.1249927937614,9.759965,-3.2249424,13.079285,6.832897,-9.949755,-0.46047857,0.7996772,-15.829716,-11.29226,26.138115,-17.817408,10.534957,2.2792656,-3.178464,14.237146,-12.438118,16.364187,-65.82023,55.719448,-7.9764223,4.6321826,-4.183395,-6.345425,-16.82856,49.297077,50.35848,9.439633,8.820989,-2.4160082
20,3.4923932552337646,2.1484215259552,77.8659896850586,3.477210851431255,-6.871741251997606,-91.25198001365685,9.860983,-3.428363,13.20276,6.829451,-9.980007,-0.36271876,0.3542188,-16.096727,-10.973491,27.105303,-17.97772,10.581507,2.2815418,-3.325966,14.414995,-12.440423,16.389086,-65.81586,55.735992,-8.015534,4.6289406,-4.2025075,-6.2625046,-16.951254,49.060413,50.28882,9.502691,8.782923,-2.5942993
21,3.5748178958892822,2.172966957092285,77.83560943603516,3.589403234199443,-6.966893141104892,-91.37611373515301,9.971339,-3.6150212,13.32143,6.8262424,-10.012185,-0.26215976,-0.09207722,-16.34459,-10.6547785,28.09406,-18.096188,10.6329,2.2769685,-3.4616756,14.602023,-12.447683,16.418348,-65.81467,55.751682,-8.066062,4.6280985,-4.2219625,-6.1733,-17.06936,48.80717,50.22653,9.528586,8.755136,-2.765747
22,3.65134859085083,2.1953604221343994,77.80562591552734,3.6928734907969827,-7.0696398740987165,-91.49955112894462,10.089829,-3.788909,13.437304,6.8226385,-10.04497,-0.15914507,-0.5438229,-16.576788,-10.330939,29.107191,-18.181307,10.686828,2.267406,-3.5889294,14.797711,-12.458159,16.452072,-65.8162,55.7668,-8.122718,4.62902,-4.2436304,-6.0796103,-17.182352,48.541508,50.171677,9.530481,8.732883,-2.9374378
23,3.725001335144043,2.215075969696045,77.78091430664062,3.780093505844989,-7.1698512604887465,-91.62109849784889,10.205184,-3.9412773,13.551034,6.821395,-10.078535,-0.062635675,-1.0043266,-16.785051,-10.006002,30.12943,-18.22619,10.739523,2.2527075,-3.701024,14.989896,-12.469765,16.489809,-65.82433,55.78717,-8.177073,4.628997,-4.265657,-5.9806695,-17.290123,48.275368,50.12564,9.537747,8.711733,-3.1248772
24,3.7949371337890625,2.2339987754821777,77.76144409179688,3.843438677626866,-7.257714797079407,-91.73935017469714,10.308927,-4.064595,13.663014,6.8196445,-10.110125,0.01854611,-1.4732553,-16.958443,-9.685666,31.137625,-18.224407,10.787774,2.2324965,-3.791197,15.166446,-12.479443,16.530437,-65.84146,55.81899,-8.219357,4.62535,-4.2862487,-5.8758817,-17.392958,48.02094,50.0893,9.580164,8.687053,-3.3437407
25,3.8677432537078857,2.2508320808410645,77.74628448486328,3.88187973012382,-7.331545709588751,-91.85386209090285,10.399149,-4.1551523,13.7736225,6.817979,-10.140381,0.078653224,-1.949798,-17.092846,-9.366591,32.12906,-18.169758,10.836571,2.205122,-3.8559246,15.323771,-12.487955,16.573008,-65.87562,55.866848,-8.2532425,4.612703,-4.302338,-5.765239,-17.491333,47.787743,50.064224,9.671941,8.660599,-3.6048882
26,3.938784122467041,2.265860080718994,77.73619079589844,3.897415183673229,-7.396425899991326,-91.9652329568449,10.48078,-4.2178044,13.8826885,6.816326,-10.16967,0.123551376,-2.4340463,-17.193907,-9.048073,33.115902,-18.06822,10.885789,2.1710355,-3.8991148,15.4684,-12.495641,16.616854,-65.921135,55.92764,-8.27992,4.594067,-4.3157296,-5.6496687,-17.58522,47.56829,50.04944,9.796336,8.633406,-3.8977573
27,4.006982326507568,2.274419069290161,77.72943115234375,3.8964288395319464,-7.45269924849743,-92.07431728136251,10.552845,-4.257084,13.990104,6.8165073,-10.19763,0.16191147,-2.9265885,-17.267958,-8.739948,34.09713,-17.930042,10.924698,2.1326413,-3.9259238,15.603049,-12.503994,16.661846,-65.967674,55.997272,-8.294474,4.578775,-4.331992,-5.5266027,-17.673939,47.346165,50.041134,9.93201,8.600027,-4.2058296
28,4.065065860748291,2.2890281677246094,77.7276611328125,3.882598203512136,-7.50051290060662,-92.18180579534982,10.616305,-4.27884,14.095574,6.8162055,-10.222032,0.2024519,-3.4274738,-17.323202,-8.451449,35.07115,-17.76518,10.942565,2.0746844,-3.9457843,15.722121,-12.505331,16.690456,-65.98081,56.09326,-8.282044,4.5748796,-4.357022,-5.4228888,-17.723372,47.132996,50.081882,10.064222,8.552465,-4.515923
29,4.1243696212768555,2.3008971214294434,77.73115539550781,3.8543042770609217,-7.538486186237209,-92.28981287940965,10.669519,-4.280984,14.201091,6.8159566,-10.242183,0.2482092,-3.941153,-17.35598,-8.173793,36.038757,-17.567867,10.940381,2.050908,-3.9478154,15.846465,-12.525059,16.74112,-66.021355,56.171547,-8.251848,4.5927024,-4.3953786,-5.266563,-17.803764,46.838882,50.065998,10.165718,8.500307,-4.818219
30,4.1802659034729,2.308744192123413,77.73577880859375,3.810853831995205,-7.567053053933685,-92.39744464425348,10.712855,-4.2617917,14.3064,6.816509,-10.259613,0.29432237,-4.4659805,-17.36384,-7.906281,37.00114,-17.335636,10.921969,2.0082674,-3.9369943,15.958132,-12.537599,16.786047,-66.03327,56.26513,-8.1914015,4.6231155,-4.4440002,-5.117067,-17.86551,46.549633,50.074238,10.267953,8.440497,-5.1288767
31,4.233194351196289,2.3183434009552,77.7440414428711,3.7585966711043373,-7.589239232583243,-92.5006350882483,10.748683,-4.2268105,14.40708,6.819207,-10.276106,0.3376474,-4.9926553,-17.360243,-7.670261,37.957413,-17.084547,10.880346,1.9674361,-3.9162645,16.064322,-12.549548,16.838438,-66.0432,56.35245,-8.127101,4.656203,-4.492225,-4.953367,-17.927465,46.25276,50.075073,10.373982,8.365942,-5.4393263
32,4.282535076141357,2.324223041534424,77.7535629272461,3.698431255373863,-7.608433539313678,-92.59524480272805,10.7821865,-4.1826453,14.499025,6.8210416,-10.292435,0.3751289,-5.5114155,-17.35759,-7.487098,38.904804,-16.829498,10.807981,1.9108173,-3.893594,16.1605,-12.550364,16.886885,-66.03136,56.439415,-8.0716715,4.680021,-4.5306363,-4.7966094,-17.975231,45.990852,50.09328,10.50039,8.266729,-5.747083
33,4.327396392822266,2.3281517028808594,77.763671875,3.6301634298214753,-7.624681820256714,-92.68037113053872,10.8130455,-4.1286335,14.580513,6.8218956,-10.307967,0.40626156,-6.0257106,-17.355467,-7.357863,39.85064,-16.56568,10.706864,1.8472602,-3.866913,16.250036,-12.539443,16.943916,-66.00129,56.512146,-8.03347,4.691127,-4.555765,-4.631808,-18.023127,45.754993,50.110283,10.65138,8.131422,-6.0544724
34,4.367371559143066,2.3300724029541016,77.77653503417969,3.5541253622590228,-7.636525426585747,-92.75804814552855,10.838436,-4.062413,14.654177,6.824466,-10.323533,0.43264037,-6.5381575,-17.34969,-7.2733264,40.792908,-16.287827,10.578158,1.7719036,-3.8346741,16.331863,-12.51608,17.007896,-65.94828,56.5748,-8.000076,4.6958036,-4.5732803,-4.4638214,-18.068022,45.543476,50.13084,10.822053,7.9674425,-6.362849
35,4.404605388641357,2.330470085144043,77.78972625732422,3.4722216053429795,-7.644603042384087,-92.82897839123065,10.859823,-3.9863777,14.721502,6.828341,-10.33979,0.45405436,-7.03994,-17.34767,-7.2388124,41.718872,-16.012522,10.413449,1.6884118,-3.799538,16.40727,-12.487828,17.077454,-65.89053,56.625618,-7.96849,4.6990294,-4.586035,-4.2948294,-18.107946,45.346897,50.15117,10.998592,7.7967544,-6.6618896
36,4.438294887542725,2.3264901638031006,77.80433654785156,3.387961155664071,-7.649561566212168,-92.89372098911383,10.880288,-3.9041889,14.78402,6.831129,-10.356768,0.47049895,-7.5218625,-17.355444,-7.2599125,42.614212,-15.755437,10.204702,1.6016577,-3.763876,16.47874,-12.461597,17.153828,-65.847565,56.65873,-7.9359317,4.706061,-4.596721,-4.1235867,-18.142626,45.154293,50.161663,11.166818,7.6418424,-6.941121
37,4.467400074005127,2.3188490867614746,77.82112121582031,3.2969654388038157,-7.653418563319539,-92.95031873708943,10.901288,-3.8128073,14.841239,6.8337493,-10.375019,0.4813036,-7.980644,-17.374092,-7.3475647,43.486557,-15.515855,9.935141,1.5123621,-3.726279,16.547783,-12.437823,17.237944,-65.821526,56.669773,-7.903868,4.720868,-4.6015472,-3.9488451,-18.172348,44.96126,50.160194,11.326682,7.508468,-7.2014985
38,4.493051528930664,2.3098549842834473,77.83756256103516,3.2011210923497493,-7.655055168260447,-92.99931860210121,10.920706,-3.7114909,14.892426,6.838306,-10.395123,0.48670298,-8.4204445,-17.401579,-7.4964542,44.338192,-15.286899,9.613265,1.419248,-3.6857564,16.613348,-12.413556,17.33031,-65.80494,56.661224,-7.8739886,4.739909,-4.6005955,-3.7695103,-18.19739,44.771763,50.14944,11.4834,7.384817,-7.4472785
39,4.513905048370361,2.2991976737976074,77.85443115234375,3.1032849370570177,-7.650934369182705,-93.04424703492982,10.935437,-3.607348,14.939662,6.841288,-10.414719,0.4879965,-8.844905,-17.438782,-7.6874123,45.149784,-15.076948,9.269663,1.3161527,-3.6466014,16.667221,-12.395124,17.395737,-65.790726,56.67766,-7.836325,4.754691,-4.602089,-3.5990336,-18.209904,44.60468,50.14891,11.639424,7.2664022,-7.675232
40,4.533383846282959,2.287578582763672,77.8719482421875,3.0125446466415484,-7.637004699663247,-93.08915401997652,10.940173,-3.5070055,14.985074,6.8443375,-10.433725,0.48645607,-9.257394,-17.484272,-7.901492,45.899837,-14.893084,8.935137,1.228251,-3.6145113,16.720274,-12.374954,17.51038,-65.80646,56.639847,-7.793621,4.765307,-4.6141787,-3.416682,-18.228176,44.42504,50.124805,11.778443,7.151427,-7.8751855
41,4.546335697174072,2.2728207111358643,77.88735961914062,2.9278568218575414,-7.6127558619346445,-93.13316632478568,10.933189,-3.4121227,15.026976,6.847859,-10.451124,0.48252913,-9.659835,-17.546974,-8.151568,46.604862,-14.733487,8.599691,1.12838,-3.591678,16.762213,-12.34986,17.63194,-65.82375,56.59258,-7.7279196,4.7648673,-4.6451035,-3.2441378,-18.24267,44.27526,50.099445,11.915454,7.0357356,-8.053191
42,4.557668209075928,2.2568631172180176,77.90229797363281,2.849084460854058,-7.579990465652249,-93.17504833529722,10.918365,-3.3194945,15.064901,6.8494773,-10.466701,0.47549352,-10.049714,-17.625788,-8.441542,47.26908,-14.596502,8.253242,1.0244504,-3.5750315,16.795631,-12.324242,17.761072,-65.85115,56.534058,-7.647462,4.757267,-4.688477,-3.0751724,-18.253777,44.14055,50.069843,12.046923,6.9221725,-8.209847
43,4.563332557678223,2.2379958629608154,77.9173812866211,2.7701213139454097,-7.538605521877595,-93.21722160816445,10.894848,-3.2265832,15.102895,6.85264,-10.483763,0.4647547,-10.424623,-17.697863,-8.739561,47.85419,-14.488275,7.9276156,0.92142045,-3.5613334,16.822126,-12.300873,17.89708,-65.888596,56.46922,-7.5689855,4.7470074,-4.7309265,-2.9095623,-18.261059,44.01625,50.042034,12.169531,6.8158646,-8.340669
44,4.567118167877197,2.216400384902954,77.9335708618164,2.69359788890079,-7.488518042653653,-93.26280139578253,10.864751,-3.1308436,15.144639,6.856279,-10.5037985,0.44960368,-10.7835865,-17.738977,-9.013607,48.323994,-14.41532,7.6560388,0.8236033,-3.5474243,16.842926,-12.280434,18.03808,-65.93225,56.403866,-7.5050817,4.7387033,-4.759137,-2.7485638,-18.263756,43.897194,50.02418,12.278737,6.7217484,-8.441125
45,4.56979513168335,2.1921229362487793,77.94731903076172,2.6163531271627583,-7.428643443701855,-93.31164891364558,10.827352,-3.032907,15.190785,6.8581915,-10.525335,0.42977846,-11.123185,-17.75025,-9.267601,48.66957,-14.398279,7.454946,0.73136115,-3.534404,16.856153,-12.264992,18.182802,-65.98671,56.340427,-7.458183,4.7336783,-4.7662115,-2.5914364,-18.260841,43.783207,50.01771,12.372725,6.6431165,-8.50512
46,4.566840648651123,2.16633939743042,77.95989227294922,2.5411088073961583,-7.359212525285324,-93.36264040718623,10.781559,-2.9330943,15.239586,6.861699,-10.550092,0.40558186,-11.445595,-17.738749,-9.514519,48.909203,-14.4259205,7.306702,0.64307725,-3.5235338,16.86153,-12.253559,18.33053,-66.05153,56.277996,-7.4207296,4.729296,-4.7603374,-2.4387023,-18.252338,43.675903,50.020992,12.45314,6.576731,-8.5368395
47,4.5619683265686035,2.1353108882904053,77.97517395019531,2.4652757782634094,-7.282702211428393,-93.41685831688066,10.731115,-2.8305938,15.290876,6.8631964,-10.575147,0.3774122,-11.758953,-17.69405,-9.734951,49.049686,-14.457199,7.1941814,0.5600804,-3.5106163,16.863008,-12.246163,18.479929,-66.12062,56.21793,-7.396287,4.7243013,-4.751001,-2.2919788,-18.23806,43.5753,50.032887,12.525328,6.5179176,-8.547396
48,4.554068088531494,2.104166030883789,77.99066925048828,2.388271358773781,-7.201194140334417,-93.47524856877654,10.677181,-2.7231085,15.3446045,6.8673153,-10.60369,0.3454639,-12.071042,-17.605846,-9.909592,49.096184,-14.450849,7.0999093,0.48345032,-3.4922245,16.863981,-12.243157,18.629234,-66.18813,56.162903,-7.3890996,4.7173576,-4.747627,-2.1560678,-18.219067,43.482,50.056507,12.594145,6.461987,-8.547895
49,4.545823574066162,2.066485643386841,78.00641632080078,2.3091199373076123,-7.113798808138687,-93.53886026590791,10.620213,-2.6095414,15.400192,6.8700814,-10.633246,0.3079226,-12.385259,-17.467066,-10.029152,49.04615,-14.39925,7.0123367,0.41513208,-3.4668255,16.863605,-12.246315,18.777004,-66.26116,56.1161,-7.4112363,4.703732,-4.751883,-2.028837,-18.195604,43.3941,50.090725,12.660609,6.40707,-8.537654
50,4.534780502319336,2.026061534881592,78.02174377441406,2.2275320652548114,-7.019842051098061,-93.60659808141565,10.558742,-2.4907892,15.457681,6.872978,-10.66458,0.26523784,-12.698117,-17.28352,-10.105519,48.898804,-14.323203,6.943576,0.354351,-3.4361682,16.860415,-12.256052,18.922306,-66.34088,56.077934,-7.4575005,4.6853333,-4.759005,-1.9083208,-18.16767,43.311398,50.13404,12.721935,6.3561125,-8.511987
51,4.517951488494873,1.9872770309448242,78.03678131103516,2.146983128304655,-6.922042932751142,-93.6777040916758,10.495561,-2.3701355,15.518566,6.876887,-10.6986685,0.22130722,-13.003326,-17.067755,-10.150967,48.655766,-14.221033,6.9114723,0.29799187,-3.402038,16.857845,-12.268995,19.06403,-66.40957,56.045704,-7.502538,4.6711187,-4.7689013,-1.7982218,-18.136164,43.237743,50.187134,12.778781,6.3110642,-8.475885
52,4.499250411987305,1.9502460956573486,78.0520248413086,2.068608218743459,-6.823042405516614,-93.75089109660922,10.434717,-2.2509902,15.584174,6.879027,-10.734405,0.17990278,-13.295003,-16.83208,-10.177649,48.319527,-14.091369,6.9337144,0.24215958,-3.3657901,16.859486,-12.280123,19.201061,-66.447205,56.01584,-7.5192704,4.6698756,-4.7815533,-1.7017614,-18.102434,43.17792,50.249466,12.832037,6.2741485,-8.434482
53,4.482826232910156,1.9056830406188965,78.06710815429688,1.9913838740614072,-6.721669638483348,-93.82507990680695,10.373541,-2.131817,15.655621,6.883393,-10.77518,0.14402002,-13.572139,-16.57427,-10.187468,47.882786,-13.934404,7.0297747,0.18448107,-3.326859,16.864222,-12.288263,19.332495,-66.44376,55.991077,-7.4921145,4.688015,-4.79959,-1.622271,-18.06834,43.14046,50.327793,12.87695,6.243958,-8.38676
54,4.463583946228027,1.855697512626648,78.07978057861328,1.9139982280804924,-6.617106256999266,-93.90121147515852,10.312628,-2.012133,15.731897,6.886816,-10.8188505,0.11098146,-13.836636,-16.290106,-10.173513,47.344833,-13.75032,7.1846457,0.12654191,-3.2844818,16.871128,-12.294931,19.457958,-66.40914,55.972412,-7.436415,4.7193556,-4.822207,-1.5558558,-18.034227,43.121304,50.417316,12.915216,6.220269,-8.330863
55,4.442428112030029,1.806267499923706,78.09430694580078,1.8396526205739565,-6.512959123890185,-93.9805827029499,10.254632,-1.8948666,15.81137,6.8908114,-10.864255,0.0760612,-14.089203,-15.992218,-10.134296,46.722645,-13.540029,7.3643003,0.070798844,-3.240563,16.883251,-12.303578,19.577654,-66.35938,55.95637,-7.379013,4.753733,-4.8442574,-1.4990392,-17.999853,43.105904,50.505657,12.957255,6.206384,-8.270506
56,4.4163079261779785,1.757981777191162,78.10449981689453,1.7728468840802023,-6.412668038281714,-94.06514438127546,10.203806,-1.7832311,15.8925495,6.893437,-10.908332,0.034476444,-14.331014,-15.692837,-10.068119,46.034897,-13.305247,7.535218,0.020479701,-3.1974783,16.903648,-12.317116,19.692091,-66.310326,55.939003,-7.34534,4.781348,-4.860611,-1.4488081,-17.964933,43.079605,50.58128,13.013638,6.2057223,-8.209339
57,4.3965911865234375,1.7055435180664062,78.11383056640625,1.7131364746490765,-6.317410281587535,-94.15726634329332,10.1605015,-1.6799895,15.976588,6.895246,-10.949487,-0.016357556,-14.566373,-15.389843,-9.961655,45.285786,-13.028914,7.6976657,-0.020479104,-3.1570961,16.935247,-12.337209,19.801556,-66.26353,55.919174,-7.346066,4.801005,-4.869436,-1.4044409,-17.92904,43.036556,50.639713,13.097125,6.2292914,-8.154708
58,4.370957374572754,1.6507049798965454,78.12332916259766,1.6600199094671788,-6.225378256414665,-94.25549966093914,10.1229315,-1.5824505,16.063814,6.8976583,-10.990328,-0.0735308,-14.792302,-15.079032,-9.819561,44.46562,-12.716637,7.865816,-0.05348646,-3.1167858,16.975824,-12.36413,19.901937,-66.213615,55.903076,-7.3669715,4.8171887,-4.873514,-1.3654096,-17.893276,42.983776,50.6853,13.198562,6.2721024,-8.102453
59,4.340672492980957,1.5927692651748657,78.13074493408203,1.610138935583645,-6.135281803393117,-94.35474296941354,10.09072,-1.4874148,16.151632,6.8991365,-11.032652,-0.13316536,-14.9976845,-14.770022,-9.667343,43.56799,-12.399996,8.027289,-0.08482194,-3.0759895,17.020653,-12.393459,20.001812,-66.16354,55.88244,-7.3963823,4.82959,-4.874701,-1.3340505,-17.8554,42.926006,50.72661,13.294735,6.3128853,-8.039053
60,4.312038898468018,1.5294677019119263,78.13639831542969,1.5609655160584037,-6.046259575460707,-94.45047677820311,10.063039,-1.3912257,16.237724,6.901091,-11.080341,-0.19140822,-15.171849,-14.472545,-9.530793,42.586987,-12.110834,8.169583,-0.11937623,-3.0319743,17.065113,-12.425937,20.096466,-66.11858,55.86276,-7.4226155,4.836739,-4.8747396,-1.306718,-17.818007,42.866184,50.764767,13.361775,6.330971,-7.9506173
61,4.278370380401611,1.4693489074707031,78.14248657226562,1.5113354845469276,-5.960058241013985,-94.54212139387955,10.042535,-1.294284,16.32295,6.902722,-11.134337,-0.24807873,-15.312703,-14.183789,-9.397331,41.514874,-11.860917,8.284447,-0.15806414,-2.9844496,17.109737,-12.460928,20.185852,-66.078,55.84416,-7.4457364,4.8363914,-4.8717012,-1.2818409,-17.782764,42.797623,50.802345,13.383319,6.3093376,-7.832845
62,4.2424211502075195,1.4009525775909424,78.1480941772461,1.462761566383305,-5.87639098541934,-94.631937520921,10.027944,-1.1978357,16.408272,6.9053154,-11.193538,-0.30493018,-15.4251175,-13.90131,-9.25944,40.356907,-11.631949,8.379211,-0.19793633,-2.9337113,17.157017,-12.499558,20.269934,-66.04046,55.825985,-7.470989,4.8296022,-4.865437,-1.2573705,-17.74955,42.720135,50.832153,13.375338,6.2632613,-7.69324
63,4.209638595581055,1.3264023065567017,78.15065002441406,1.4156393103631717,-5.791579832793123,-94.71877296683223,10.01538,-1.1003437,16.490437,6.907649,-11.255514,-0.36102378,-15.507834,-13.633544,-9.1519,39.121277,-11.408434,8.464798,-0.23853253,-2.8798826,17.203114,-12.544654,20.342628,-66.0092,55.81497,-7.4934635,4.820613,-4.8602824,-1.2406636,-17.72139,42.64872,50.855118,13.364501,6.2192454,-7.5356884
64,4.168154239654541,1.2425068616867065,78.15626525878906,1.3673714464687823,-5.702228706120283,-94.8016207306876,10.000092,-1.0000991,16.566393,6.910569,-11.319096,-0.4154051,-15.559308,-13.387991,-9.109851,37.814896,-11.174066,8.553014,-0.2798271,-2.8203754,17.244116,-12.603163,20.384748,-65.9873,55.83156,-7.507862,4.8123236,-4.860249,-1.2307914,-17.7048,42.598965,50.8621,13.378396,6.204618,-7.364484
65,4.1267218589782715,1.1671844720840454,78.16178131103516,1.314571761920846,-5.607027194881638,-94.87923950769508,9.980461,-0.8950053,16.63437,6.912911,-11.383233,-0.46672767,-15.57488,-13.166011,-9.151776,36.42028,-10.926807,8.650352,-0.32284516,-2.761172,17.283321,-12.657997,20.455872,-65.97612,55.8155,-7.513893,4.8094826,-4.866133,-1.2480384,-17.677687,42.569195,50.876766,13.423469,6.2286105,-7.1747003
66,4.082844257354736,1.086298942565918,78.16706848144531,1.261055843529795,-5.508087320010473,-94.9525155975567,9.958698,-0.7860548,16.696215,6.9159894,-11.449541,-0.51589614,-15.556011,-12.962453,-9.256529,34.93717,-10.67318,8.750021,-0.3729424,-2.6978977,17.319286,-12.716436,20.518724,-65.96872,55.804325,-7.512138,4.8070974,-4.8753986,-1.282074,-17.654325,42.562958,50.88713,13.491174,6.2769237,-6.967461
67,4.034249305725098,0.9934564828872681,78.17324829101562,1.2094277750487603,-5.406595675577005,-95.02285437558903,9.937287,-0.6787751,16.754326,6.9195523,-11.518171,-0.56527656,-15.509394,-12.775829,-9.399394,33.396378,-10.408335,8.8445835,-0.41912732,-2.6334743,17.351196,-12.785368,20.559502,-65.96826,55.81028,-7.5052104,4.8053393,-4.8896694,-1.3177321,-17.639482,42.56841,50.88238,13.559916,6.3373227,-6.7507443
68,3.983767032623291,0.8968698978424072,78.17796325683594,1.1660898021076507,-5.303685845766426,-95.091975907859,9.918976,-0.5781494,16.810688,6.9226995,-11.588477,-0.6173627,-15.443398,-12.60439,-9.555187,31.832611,-10.128892,8.927189,-0.45699823,-2.574974,17.379112,-12.855698,20.60126,-65.96976,55.80673,-7.495654,4.8071785,-4.910705,-1.3495489,-17.624023,42.581104,50.863216,13.607578,6.3963723,-6.533273
69,3.932173252105713,0.7956833839416504,78.1810531616211,1.1296404712737802,-5.197923908128474,-95.16097362392793,9.902498,-0.485514,16.866467,6.925103,-11.659707,-0.67243546,-15.355603,-12.450154,-9.736364,30.232199,-9.828084,8.997435,-0.4858374,-2.5256343,17.402267,-12.923538,20.65452,-65.9676,55.781616,-7.4758515,4.816946,-4.9478273,-1.3804402,-17.60433,42.60048,50.83228,13.631404,6.452416,-6.3045135
70,3.875340461730957,0.6893919706344604,78.18240356445312,1.1004798613155047,-5.089533711724768,-95.22871472469703,9.887498,-0.39879194,16.920292,6.9268274,-11.731868,-0.72915727,-15.241416,-12.310389,-9.951066,28.580145,-9.507116,9.060902,-0.5066106,-2.4805026,17.420958,-12.997521,20.6988,-65.96842,55.75792,-7.4481716,4.831439,-4.9970965,-1.4081999,-17.587976,42.626957,50.783733,13.642189,6.512231,-6.063859
71,3.812997341156006,0.5822111368179321,78.18022918701172,1.0768955144630616,-4.9818182447201425,-95.29261744279385,9.876645,-0.31770888,16.970505,6.9291854,-11.80748,-0.78773195,-15.105413,-12.175698,-10.169295,26.908663,-9.175991,9.118942,-0.5205575,-2.4374845,17.436752,-13.080898,20.7239,-65.97889,55.7485,-7.4267015,4.8426194,-5.040937,-1.4293383,-17.578527,42.661224,50.71786,13.63749,6.574113,-5.8353806
72,3.750884532928467,0.4726506173610687,78.17849731445312,1.0617953556782582,-4.878305915482734,-95.35050182763904,9.873795,-0.24255462,17.015636,6.931664,-11.887354,-0.84820455,-14.955045,-12.038723,-10.359813,25.25452,-8.845672,9.172248,-0.5340817,-2.3980687,17.451841,-13.165629,20.74558,-65.999756,55.7383,-7.4265437,4.8446727,-5.061643,-1.4513249,-17.570108,42.710125,50.647465,13.6156435,6.635308,-5.643398
73,3.680482864379883,0.35425397753715515,78.17166137695312,1.0518428223502412,-4.779224771146098,-95.40292752960183,9.879465,-0.17219298,17.056545,6.9327345,-11.971042,-0.910579,-14.78957,-11.897105,-10.50907,23.60747,-8.509378,9.209622,-0.5565619,-2.3631332,17.464365,-13.238989,20.78317,-66.030975,55.70397,-7.466095,4.834804,-5.041259,-1.4867545,-17.554802,42.79656,50.58354,13.574161,6.6980166,-5.497319
74,3.606464385986328,0.23535573482513428,78.16577911376953,1.04935222942629,-4.683284002737959,-95.45045925457178,9.891868,-0.107826926,17.093657,6.934227,-12.058936,-0.97458756,-14.606626,-11.754381,-10.635671,21.955416,-8.163349,9.235871,-0.5719552,-2.331591,17.47778,-13.322249,20.807545,-66.07801,55.680508,-7.528779,4.8136883,-4.996355,-1.514905,-17.54436,42.89224,50.500027,13.506913,6.764481,-5.380316
75,3.529014825820923,0.10842899978160858,78.15430450439453,1.0569511570847931,-4.591227260314837,-95.48981040410914,9.9121685,-0.054550372,17.123112,6.935198,-12.150686,-1.0398836,-14.401829,-11.614255,-10.758187,20.314182,-7.8223557,9.274388,-0.5905198,-2.3075159,17.487288,-13.40305,20.830156,-66.12738,55.652954,-7.593237,4.792305,-4.950383,-1.5452222,-17.533897,42.997437,50.42093,13.437215,6.824753,-5.2889433
76,3.4508328437805176,-0.023820195347070694,78.13851928710938,1.078496463294795,-4.503868477889335,-95.51767474181868,9.941453,-0.017649703,17.141298,6.9349356,-12.245739,-1.1059299,-14.172603,-11.4829035,-10.894168,18.703783,-7.5028934,9.346952,-0.6156274,-2.2933216,17.491526,-13.478522,20.853584,-66.170586,55.617355,-7.6373243,4.7800813,-4.9286017,-1.5757223,-17.521399,43.099316,50.35609,13.382286,6.870226,-5.2175303
77,3.3644192218780518,-0.16150881350040436,78.12010192871094,1.115140714595532,-4.4209750077760415,-95.53187459508725,9.979547,-0.00043274392,17.145906,6.934002,-12.344623,-1.1709031,-13.910607,-11.364529,-11.049878,17.098732,-7.211836,9.464686,-0.641617,-2.289531,17.49198,-13.555471,20.868391,-66.20658,55.580414,-7.648597,4.780338,-4.945959,-1.598536,-17.512388,43.1826,50.299267,13.342388,6.8971086,-5.169359
78,3.284348487854004,-0.3029109835624695,78.09746551513672,1.16887016887138,-4.342569858557356,-95.53377002556587,10.025579,-0.0018893412,17.138449,6.933045,-12.4474125,-1.2350874,-13.620511,-11.260276,-11.2143135,15.500135,-6.940032,9.612316,-0.6749913,-2.298565,17.4871,-13.628864,20.883219,-66.23903,55.53642,-7.645617,4.7878237,-4.9855585,-1.6210262,-17.501644,43.268707,50.252445,13.314276,6.9100966,-5.147861
79,3.196526050567627,-0.4547354280948639,78.07223510742188,1.236114616683939,-4.269576308671055,-95.52544137609398,10.081683,-0.020003593,17.12147,6.929642,-12.553036,-1.3018781,-13.316264,-11.171721,-11.379737,13.961303,-6.6778245,9.771698,-0.7140348,-2.318809,17.477127,-13.696367,20.897493,-66.271324,55.48852,-7.6355815,4.7988415,-5.0276995,-1.647242,-17.489424,43.35532,50.22043,13.291409,6.915419,-5.139902
80,3.104292154312134,-0.6077061891555786,78.04119873046875,1.3159308065140973,-4.202267083974074,-95.50974028701172,10.146855,-0.049202718,17.09856,6.9272027,-12.663652,-1.3749908,-13.01794,-11.097458,-11.537798,12.546797,-6.4191766,9.924851,-0.7541608,-2.3455794,17.46287,-13.762613,20.907715,-66.31475,55.446064,-7.6326303,4.8089633,-5.052868,-1.6748691,-17.479105,43.438297,50.198162,13.267593,6.920127,-5.1324873
81,3.0104753971099854,-0.7670416831970215,78.00995635986328,1.4073276242071169,-4.138961094213014,-95.48826682439973,10.219468,-0.08974858,17.07189,6.924531,-12.778719,-1.4555342,-12.728004,-11.036732,-11.695399,11.252991,-6.154958,10.079293,-0.79767686,-2.3793082,17.441273,-13.82576,20.915363,-66.37523,55.408684,-7.645049,4.8193054,-5.0483627,-1.7102323,-17.469034,43.529396,50.193253,13.246853,6.9207244,-5.1257596
82,2.9120984077453613,-0.9341086149215698,77.97332000732422,1.508347593598763,-4.079585164796523,-95.46015258321091,10.300573,-0.14134552,17.040627,6.9201074,-12.897627,-1.5418719,-12.435131,-10.986828,-11.854837,10.046649,-5.8890295,10.239663,-0.8410027,-2.4183853,17.415411,-13.888906,20.919104,-66.44619,55.374763,-7.6614776,4.831491,-5.0286446,-1.7481927,-17.461512,43.616497,50.198868,13.224371,6.9160614,-5.123251
83,2.810629367828369,-1.1046522855758667,77.93589782714844,1.6139710493005732,-4.025383027617524,-95.42665060438614,10.391087,-0.19417126,17.0037,6.916719,-13.021061,-1.6342933,-12.152598,-10.942451,-11.997651,8.977319,-5.6473327,10.383732,-0.885381,-2.456675,17.381952,-13.945556,20.919909,-66.519936,55.341877,-7.6773634,4.8418145,-5.0073576,-1.7867817,-17.454361,43.703045,50.215088,13.207815,6.913235,-5.1269774
84,2.705535650253296,-1.276863694190979,77.89697265625,1.7145669454135717,-3.977959850806751,-95.38869859860921,10.494215,-0.23873247,16.960821,6.914681,-13.149287,-1.7331114,-11.890786,-10.896856,-12.106222,8.08874,-5.455184,10.489747,-0.9289232,-2.484271,17.347466,-13.995655,20.918867,-66.57457,55.30462,-7.674733,4.847059,-5.0044384,-1.8217008,-17.450489,43.7672,50.232723,13.184473,6.9211364,-5.1307397
85,2.5971157550811768,-1.4616546630859375,77.85476684570312,1.8181019573979484,-3.9389929194697517,-95.34665243470553,10.612744,-0.2836604,16.911535,6.912958,-13.282753,-1.8380677,-11.6508875,-10.8588085,-12.190313,7.3980627,-5.35568,10.5643215,-0.9760169,-2.5156887,17.29605,-14.03076,20.912853,-66.63286,55.276485,-7.6720924,4.842907,-5.0187907,-1.8543017,-17.440697,43.854404,50.264896,13.190232,6.942752,-5.154637
86,2.4832346439361572,-1.646323323249817,77.808837890625,1.9223092408364124,-3.906843027208611,-95.30137576595345,10.743551,-0.32616305,16.857803,6.9119496,-13.420563,-1.9497867,-11.511373,-10.84102,-12.238951,7.0572224,-5.416843,10.614828,-1.0191306,-2.5405672,17.24751,-14.05959,20.906544,-66.66635,55.240925,-7.6410875,4.8340383,-5.0529904,-1.8835676,-17.433369,43.91279,50.297264,13.184228,6.976652,-5.179819
87,2.365994453430176,-1.8376846313476562,77.76458740234375,2.005674541253236,-3.8768487251449972,-95.25515196642354,10.881786,-0.34075853,16.802883,6.9131827,-13.563461,-2.0698552,-11.475417,-10.816392,-12.226369,7.046049,-5.5607977,10.620371,-1.0639782,-2.5399716,17.189314,-14.079329,20.89943,-66.693954,55.202396,-7.611429,4.823301,-5.0872946,-1.9187762,-17.4272,43.96758,50.34403,13.179802,7.0103173,-5.2024665
88,2.247340679168701,-2.0392699241638184,77.73140716552734,2.044561275874062,-3.8451301013974524,-95.2107163308591,11.022923,-0.3010869,16.751143,6.916351,-13.709259,-2.2000725,-11.403195,-10.72728,-12.153015,7.041683,-5.5487514,10.5602455,-1.1085883,-2.490189,17.124063,-14.0933275,20.890833,-66.71603,55.152386,-7.5881877,4.8179812,-5.110868,-1.960568,-17.421715,44.01039,50.400177,13.16023,7.0362024,-5.20851
89,2.126753807067871,-2.237473249435425,77.70891571044922,2.031568941187393,-3.8100679702836513,-95.17264764979532,11.165006,-0.19495179,16.707804,6.922607,-13.858997,-2.3403914,-11.282838,-10.550123,-11.980042,7.0487823,-5.3483768,10.404818,-1.1541224,-2.3798554,17.04654,-14.102359,20.86899,-66.73606,55.104107,-7.5799546,4.818559,-5.119634,-2.019011,-17.411846,44.050995,50.482746,13.125399,7.0461016,-5.1913624
90,2.007612705230713,-2.445887327194214,77.6858139038086,1.9766224622644886,-3.7744884962067378,-95.13745443943681,11.311161,-0.03863009,16.669378,6.9312186,-14.012348,-2.4900746,-11.347941,-10.352329,-11.690892,7.5670185,-5.263781,10.175792,-1.1923972,-2.2214658,16.96136,-14.119124,20.81435,-66.75487,55.08388,-7.575335,4.818531,-5.1241813,-2.0881279,-17.394844,44.067707,50.59062,13.069764,7.0459337,-5.1534214
91,1.8847289085388184,-2.6616454124450684,77.66194152832031,1.8976418613988868,-3.741503430856828,-95.0967546431556,11.46628,0.14993806,16.626205,6.939284,-14.16814,-2.6496406,-11.467142,-10.13883,-11.386014,8.250105,-5.1588926,9.928971,-1.2299497,-2.034195,16.87307,-14.127107,20.772137,-66.771034,55.03969,-7.5714555,4.8227324,-5.1206784,-2.1509354,-17.386963,44.067245,50.69063,13.009358,7.0488462,-5.113206
92,1.759974479675293,-2.890024185180664,77.63884735107422,1.8073424757670957,-3.713052913253777,-95.04246224456965,11.630621,0.35589126,16.56957,6.9511266,-14.328893,-2.819819,-11.541205,-9.92247,-11.157882,8.817513,-4.932919,9.718123,-1.2725787,-1.8328394,16.771769,-14.139087,20.684813,-66.789314,55.041653,-7.5642405,4.8246665,-5.1067324,-2.2059336,-17.376244,44.06222,50.794537,12.963173,7.0631604,-5.0893784
93,1.6260849237442017,-3.121858835220337,77.6214828491211,1.7016404889147307,-3.6892056616028897,-94.97414003124383,11.807087,0.58418894,16.49815,6.9610605,-14.490529,-3.0048797,-11.565331,-9.69246,-10.993487,9.2250805,-4.5431037,9.538837,-1.3277245,-1.6162212,16.664858,-14.136198,20.617815,-66.80198,55.015728,-7.5545516,4.8302407,-5.0780187,-2.2556758,-17.37086,44.05997,50.88959,12.941088,7.0943756,-5.093075
94,1.4894285202026367,-3.365900993347168,77.60684204101562,1.5759727710145306,-3.6688748153947213,-94.89542493544515,11.993606,0.841134,16.416676,6.971945,-14.655591,-3.203182,-11.567285,-9.443175,-10.86021,9.573149,-4.0276923,9.369838,-1.3877965,-1.3746041,16.548044,-14.134715,20.520878,-66.81511,55.01609,-7.54324,4.8362455,-5.0367484,-2.301579,-17.365036,44.053684,50.987774,12.933328,7.135869,-5.1133294
95,1.346603512763977,-3.6172616481781006,77.58621978759766,1.439572618312647,-3.652255379633424,-94.80619720727115,12.18941,1.1124612,16.327196,6.9829044,-14.823574,-3.4071,-11.559151,-9.208425,-10.806072,9.93052,-3.480278,9.235812,-1.4558724,-1.1231191,16.42142,-14.122029,20.416018,-66.81935,55.02357,-7.5308175,4.8402863,-4.991761,-2.3434618,-17.360958,44.044945,51.08819,12.926523,7.1818204,-5.1322246
96,1.202613353729248,-3.8739590644836426,77.56298065185547,1.3065941565791461,-3.6392738832991585,-94.70568660232294,12.3930435,1.3841672,16.230684,6.993972,-14.994663,-3.608959,-11.551416,-9.021934,-10.878492,10.364777,-2.9948466,9.159166,-1.5349326,-0.8751878,16.283533,-14.088993,20.308237,-66.80411,55.035946,-7.513908,4.8389335,-4.9519386,-2.3780017,-17.358543,44.035316,51.18846,12.908276,7.2265205,-5.1321287
97,1.0544097423553467,-4.1410651206970215,77.53881072998047,1.1823389413364014,-3.6305722582906705,-94.58851558096336,12.60491,1.6497694,16.122833,7.0063887,-15.172506,-3.8076873,-11.516265,-8.91217,-11.151355,10.846809,-2.49738,9.21666,-1.6297222,-0.6364167,16.130154,-14.029678,20.197668,-66.76591,55.056164,-7.4917927,4.827512,-4.9162593,-2.4018164,-17.358166,44.026806,51.292698,12.868104,7.269066,-5.114308
98,0.8972811698913574,-4.411269664764404,77.51212310791016,1.0581134123599367,-3.625859506131987,-94.45663109739675,12.825114,1.9180615,16.00476,7.0187407,-15.354685,-4.0071807,-11.460328,-8.857277,-11.575285,11.364219,-1.9750971,9.366595,-1.737965,-0.39837044,15.963837,-13.949513,20.08458,-66.71016,55.080765,-7.466654,4.809227,-4.881239,-2.4167936,-17.35947,44.01903,51.39905,12.815448,7.31242,-5.0862703
99,0.7403785586357117,-4.689654350280762,77.48553466796875,0.9299118478535754,-3.6235662772469617,-94.32070557956503,13.051921,2.1969202,15.885801,7.0307946,-15.535816,-4.207108,-11.442821,-8.817778,-12.015288,12.001503,-1.6102637,9.45637,-1.8517122,-0.1566564,15.79161,-13.85665,19.969957,-66.639946,55.10555,-7.4386034,4.7924128,-4.8517165,-2.433323,-17.362276,44.009712,51.50434,12.766275,7.355901,-5.0392747
100,0.5833775997161865,-4.977891445159912,77.46153259277344,0.7893725666980143,-3.6227095105113185,-94.19023435577363,13.282677,2.4920657,15.774516,7.042558,-15.709687,-4.4066634,-11.517902,-8.753839,-12.340293,12.830768,-1.5796034,9.339785,-1.9637988,0.09137503,15.621016,-13.759787,19.855574,-66.55976,55.125435,-7.4097004,4.785293,-4.8326864,-2.4618979,-17.366415,43.99771,51.604904,12.737688,7.3990164,-4.964842
101,0.41755223274230957,-5.260190963745117,77.43810272216797,0.6392145166995181,-3.61863883728303,-94.07016590189116,13.512325,2.8041346,15.675409,7.0563474,-15.877703,-4.6027107,-11.738863,-8.656647,-12.492963,13.941783,-2.0188196,8.915648,-2.070259,0.34728208,15.447066,-13.658142,19.742289,-66.46602,55.138416,-7.380121,4.7940702,-4.830877,-2.5040288,-17.372202,43.983753,51.703064,12.730854,7.441592,-4.851971
102,0.25041502714157104,-5.540338516235352,77.41387176513672,0.4862451703357582,-3.613695445938915,-93.95334385663297,13.744728,3.1248732,15.582308,7.069075,-16.040789,-4.795633,-12.061002,-8.54509,-12.548077,15.262049,-2.7951393,8.287201,-2.1766677,0.6042634,15.268112,-13.547933,19.630816,-66.3585,55.14582,-7.34943,4.813016,-4.8418875,-2.5551531,-17.379873,43.968964,51.800022,12.738538,7.4841137,-4.7083173
103,0.08021881431341171,-5.8297038078308105,77.38502502441406,0.33463840570682063,-3.6173340562604595,-93.83157261271509,13.986458,3.4501936,15.487834,7.0819507,-16.197035,-4.990728,-12.380878,-8.419012,-12.576905,16.597399,-3.6779914,7.6169786,-2.2902834,0.854165,15.096712,-13.433248,19.52352,-66.246544,55.146717,-7.319466,4.832891,-4.854318,-2.61218,-17.38767,43.94958,51.886917,12.761737,7.52678,-4.5527544
104,-0.09506771713495255,-6.112810134887695,77.35575866699219,0.18550784638481913,-3.6380624508758883,-93.69789333936455,14.246323,3.7797875,15.386562,7.092636,-16.342598,-5.1939063,-12.593275,-8.281571,-12.655381,17.756971,-4.4467344,7.065084,-2.417177,1.0922427,14.945254,-13.319482,19.423967,-66.14153,55.140167,-7.294425,4.8444147,-4.856204,-2.676092,-17.39351,43.9226,51.960205,12.802004,7.5696616,-4.4045157
105,-0.2784985899925232,-6.395570755004883,77.32791137695312,0.0320135489582609,-3.675004376291644,-93.5613829555317,14.524311,4.1219244,15.289615,7.1045413,-16.48439,-5.4082522,-12.677057,-8.128223,-12.795594,18.697887,-5.0642104,6.685988,-2.55395,1.3267816,14.814979,-13.200229,19.334528,-66.032616,55.12533,-7.281415,4.8421144,-4.8423624,-2.7527153,-17.395403,43.891758,52.02748,12.870409,7.6140914,-4.259771
106,-0.4657333195209503,-6.680602550506592,77.3023452758789,-0.12798572233688196,-3.724012238743372,-93.4233658677245,14.818079,4.47738,15.1982765,7.114844,-16.620522,-5.6308575,-12.691489,-7.9615974,-12.958545,19.536379,-5.6507335,6.3877892,-2.698782,1.5593427,14.699843,-13.073682,19.259504,-65.918274,55.096027,-7.277813,4.832437,-4.819571,-2.8430295,-17.392794,43.857853,52.091774,12.961858,7.659419,-4.1114707
107,-0.6609698534011841,-6.969540596008301,77.27454376220703,-0.28435384111575135,-3.7892038938734407,-93.2656676173006,15.126039,4.837293,15.092108,7.1232576,-16.7398,-5.8591895,-12.646418,-7.798719,-13.147509,20.308706,-6.2247076,6.111093,-2.856135,1.7759224,14.603837,-12.9468,19.222382,-65.82625,55.02326,-7.2727895,4.825257,-4.793804,-2.931604,-17.387947,43.808674,52.13001,13.054553,7.7028155,-3.9732842
108,-0.8655939102172852,-7.2586774826049805,77.24678802490234,-0.43065137312392554,-3.875219363389862,-93.06925707746295,15.439174,5.19429,14.949231,7.1478167,-16.84167,-6.0904098,-12.553501,-7.6551943,-13.365615,21.052017,-6.802649,5.7976027,-3.044155,1.9647518,14.527233,-12.83778,19.19237,-65.767525,54.93839,-7.247479,4.8260183,-4.773433,-3.0149055,-17.378672,43.747875,52.135227,13.1298275,7.741365,-3.8595748
109,-1.0721770524978638,-7.546610355377197,77.2119140625,-0.5885138981227659,-3.989387412568182,-92.81445471012059,15.742819,5.580967,14.752516,7.233817,-16.957666,-6.3280687,-12.420253,-7.5189834,-13.633554,21.80703,-7.404381,5.419734,-3.2732828,2.14454,14.475119,-12.74635,19.170902,-65.75597,54.836708,-7.189615,4.843111,-4.7582054,-3.0808325,-17.362997,43.655952,52.09391,13.197858,7.7733183,-3.77829
110,-1.2842490673065186,-7.8357696533203125,77.1744613647461,-0.7511152311313396,-4.124851781960659,-92.51668485389395,16.058254,5.9816623,14.519712,7.3260393,-17.060776,-6.5727983,-12.227324,-7.3856583,-13.942428,22.514637,-8.002035,5.012252,-3.5302105,2.310545,14.442245,-12.668839,19.162136,-65.78529,54.716537,-7.1134186,4.870639,-4.7445765,-3.1340158,-17.34143,43.53596,52.014965,13.262862,7.8004208,-3.720094
111,-1.4992464780807495,-8.119406700134277,77.13603973388672,-0.9071198695529016,-4.269237333347193,-92.19565606716326,16.139856,6.4408154,14.23849,7.932923,-17.398897,-6.821736,-11.993954,-7.25952,-14.2731085,23.170712,-8.592656,4.6110888,-3.7947052,2.4567285,14.421479,-12.613744,19.16665,-65.854805,54.58301,-7.0435677,4.8958955,-4.7333446,-3.187516,-17.314657,43.40509,51.92065,13.291628,7.8241906,-3.6735086
112,-1.720377802848816,-8.399024963378906,77.09613800048828,-1.0432058002352105,-4.410861545126692,-91.8722877145941,16.113756,6.902679,13.934997,8.750369,-17.79437,-7.070235,-11.740327,-7.145875,-14.605505,23.772463,-9.173644,4.2520204,-4.049219,2.5772111,14.405683,-12.589416,19.18281,-65.96164,54.44262,-7.0050297,4.9059477,-4.725191,-3.2542646,-17.285551,43.28631,51.83018,13.254183,7.846535,-3.6273975
113,-1.9481128454208374,-8.677085876464844,77.05937957763672,-1.157201219761913,-4.548579623250734,-91.53912800887443,16.056614,7.3423557,13.612696,9.603059,-18.153555,-7.3152227,-11.471583,-7.053276,-14.945939,24.331932,-9.757573,3.9478965,-4.276994,2.658963,14.394203,-12.607631,19.231953,-66.143654,54.27526,-7.0242023,4.899269,-4.7218227,-3.337686,-17.229147,43.146107,51.755768,13.10787,7.8698964,-3.5724435
114,-2.1766088008880615,-8.95079517364502,77.02588653564453,-1.2543336678703405,-4.687847959931032,-91.18992211201751,15.976061,7.7676067,13.266957,10.488888,-18.484549,-7.5601625,-11.177986,-6.975617,-15.301484,24.848125,-10.342116,3.6788127,-4.5275116,2.7145355,14.391672,-12.645761,19.291937,-66.341606,54.094048,-7.065828,4.8802595,-4.7244334,-3.4398565,-17.17796,43.034557,51.670547,12.899078,7.8945875,-3.519821
115,-2.4077587127685547,-9.224364280700684,77.00232696533203,-1.3389100708080741,-4.827450691267655,-90.84657539394516,15.879769,8.177258,12.912404,11.40116,-18.776329,-7.8100176,-10.858171,-6.899354,-15.653158,25.3022,-10.904771,3.4314897,-4.774131,2.7576985,14.39256,-12.70348,19.34401,-66.549576,53.926422,-7.106398,4.850521,-4.7269673,-3.5466056,-17.140898,42.951298,51.58317,12.673195,7.9126396,-3.479817
116,-2.633310317993164,-9.493446350097656,76.98409271240234,-1.413358050423652,-4.96671186207845,-90.53161522654057,15.777545,8.568092,12.564256,12.3285055,-19.014986,-8.069106,-10.513443,-6.8132806,-15.981061,25.68091,-11.4256315,3.192707,-4.955334,2.7891836,14.39003,-12.7796955,19.440762,-66.81455,53.733486,-7.1464524,4.8176117,-4.7205524,-3.6468375,-17.078981,42.849377,51.53653,12.454379,7.911309,-3.4611769
117,-2.8594226837158203,-9.768230438232422,76.97367095947266,-1.4703889478361134,-5.107703203865313,-90.25411462566747,15.687366,8.933244,12.230923,13.242899,-19.187498,-8.344233,-10.14217,-6.717004,-16.276222,25.980577,-11.900836,2.960835,-5.113118,2.8124342,14.383054,-12.862374,19.546711,-67.0916,53.54854,-7.1668077,4.769254,-4.706183,-3.758442,-17.017956,42.802834,51.5281,12.27648,7.8796787,-3.4790022
118,-3.0857157707214355,-10.036600112915039,76.96903991699219,-1.5105701412957762,-5.251152463039125,-90.00190420940578,15.602617,9.27404,11.903706,14.1527605,-19.301329,-8.630835,-9.745361,-6.616842,-16.549799,26.210812,-12.34179,2.7428396,-5.2547827,2.8286839,14.374841,-12.9689865,19.61815,-67.38053,53.40986,-7.172671,4.704175,-4.6876144,-3.8683522,-16.979897,42.801903,51.52332,12.118298,7.828496,-3.5239115
119,-3.309279680252075,-10.306652069091797,76.97184753417969,-1.5415586965749626,-5.393299677675341,-89.76539982001614,15.4901,9.602417,11.5703335,15.113762,-19.378471,-8.916025,-9.32645,-6.510258,-16.81136,26.373638,-12.748059,2.538389,-5.3471074,2.834833,14.367635,-13.09044,19.716085,-67.68932,53.25816,-7.16982,4.645467,-4.663653,-3.9710667,-16.928198,42.779064,51.54198,11.953789,7.7786613,-3.5749185
120,-3.532343626022339,-10.577539443969727,76.98180389404297,-1.5721238663419026,-5.530618581428576,-89.53483847196651,15.328238,9.929322,11.220415,16.155848,-19.43201,-9.187365,-8.886092,-6.39193,-17.071573,26.46585,-13.116738,2.3470368,-5.4324436,2.8443403,14.366278,-13.200546,19.813072,-67.91534,53.113426,-7.1199236,4.6092343,-4.6409044,-4.0791893,-16.876022,42.76148,51.579315,11.788009,7.7563324,-3.615524
121,-3.755481243133545,-10.841611862182617,76.9975357055664,-1.6033884949696513,-5.6575130220540215,-89.3052065687846,15.106664,10.255465,10.847981,17.284557,-19.461842,-9.44743,-8.4253435,-6.261558,-17.336748,26.479486,-13.444325,2.1697338,-5.5068927,2.8543677,14.365678,-13.297093,19.924768,-68.061005,52.965088,-6.997145,4.6057396,-4.620763,-4.196696,-16.812033,42.73821,51.6542,11.601713,7.765721,-3.6470327
122,-3.9740469455718994,-11.105409622192383,77.01740264892578,-1.6296094827152523,-5.777635945624092,-89.08296841128616,14.840079,10.575261,10.458973,18.480995,-19.461012,-9.700697,-7.9433403,-6.1209354,-17.600023,26.418379,-13.732995,2.0069788,-5.5697985,2.8684788,14.365796,-13.397421,20.005814,-68.144714,52.857914,-6.814344,4.620617,-4.60176,-4.3107634,-16.760998,42.724346,51.74051,11.409801,7.796483,-3.6770692
123,-4.184235095977783,-11.363304138183594,77.04145812988281,-1.6517543751026293,-5.901179929509149,-88.87477916162926,14.535788,10.889161,10.059137,19.75698,-19.432512,-9.937441,-7.439606,-5.9696264,-17.852009,26.298815,-13.98962,1.8570399,-5.610214,2.8789334,14.375365,-13.490706,20.104774,-68.179565,52.740166,-6.6359305,4.644999,-4.5794992,-4.4356976,-16.69293,42.71006,51.852,11.234601,7.8428044,-3.6961305
124,-4.401422500610352,-11.619140625,77.06993103027344,-1.673125375547468,-6.0378872741061915,-88.68716842842242,14.207184,11.197353,9.65576,21.11156,-19.378077,-10.149122,-6.9125457,-5.805294,-18.084036,26.134981,-14.220137,1.7177036,-5.6312857,2.8911462,14.4038315,-13.578682,20.20172,-68.1579,52.624996,-6.515838,4.6650753,-4.551042,-4.5700774,-16.624866,42.70752,51.962906,11.112592,7.9030595,-3.6949446
125,-4.614767074584961,-11.869948387145996,77.10038757324219,-1.6931995149494674,-6.193546378240835,-88.51896212528852,13.851983,11.5025015,9.244596,22.567707,-19.304373,-10.334844,-6.3541183,-5.624751,-18.297844,25.92295,-14.423648,1.5899237,-5.630021,2.90759,14.457247,-13.664914,20.292759,-68.08072,52.518204,-6.46866,4.6814375,-4.5145087,-4.7022495,-16.561064,42.705276,52.06028,11.060612,7.989884,-3.6679685
126,-4.8228535652160645,-12.117639541625977,77.1326675415039,-1.7120431807410577,-6.361893276108192,-88.36743378423598,13.468768,11.801193,8.824694,24.110558,-19.206501,-10.500285,-5.767998,-5.429727,-18.496574,25.65804,-14.597744,1.4739639,-5.6071005,2.926872,14.529679,-13.751046,20.37825,-67.95076,52.42178,-6.465846,4.6992207,-4.4720306,-4.832979,-16.502064,42.703716,52.15214,11.058213,8.100589,-3.6209733
127,-5.025485515594482,-12.357707023620605,77.1690673828125,-1.7266016158423445,-6.534864421120793,-88.23788988259508,13.056559,12.087879,8.404314,25.716589,-19.07288,-10.645805,-5.170358,-5.2249866,-18.674255,25.351778,-14.744583,1.3659527,-5.5581017,2.9496393,14.613684,-13.836826,20.451723,-67.77357,52.3338,-6.4960356,4.712289,-4.425273,-4.967746,-16.454035,42.715286,52.233448,11.082424,8.210231,-3.560959
128,-5.225691795349121,-12.59114933013916,77.20446014404297,-1.7358002908560917,-6.7039244562626275,-88.13505868506005,12.61473,12.357807,7.9919243,27.361757,-18.891502,-10.771154,-4.5790377,-5.0162005,-18.824768,25.019247,-14.867822,1.261932,-5.4814925,2.9751768,14.701928,-13.920191,20.514399,-67.55437,52.24504,-6.5508585,4.71507,-4.376109,-5.1151214,-16.418192,42.75446,52.30412,11.108897,8.293513,-3.4949381
129,-5.423614978790283,-12.825634956359863,77.24354553222656,-1.7388257815512174,-6.868069385632195,-88.06358775803545,12.144439,12.612244,7.591676,29.04631,-18.652576,-10.904668,-3.993552,-4.800066,-18.944832,24.652538,-14.9621105,1.1595467,-5.383571,3.0020814,14.794657,-13.988399,20.584457,-67.26711,52.137115,-6.6335363,4.704553,-4.333036,-5.286559,-16.387556,42.83411,52.37544,11.150445,8.34119,-3.4207823
130,-5.613913536071777,-13.046632766723633,77.28363800048828,-1.7356876346429644,-7.0314224142783734,-88.01987883382884,11.643681,12.852206,7.197917,30.785648,-18.364603,-11.037383,-3.4068692,-4.575872,-19.0383,24.249336,-15.028017,1.0605333,-5.253935,3.032761,14.895467,-14.054491,20.64814,-66.92991,52.027466,-6.750098,4.683834,-4.291711,-5.4635873,-16.371023,42.93172,52.431614,11.2109,8.3682165,-3.3350098
131,-5.793731689453125,-13.267311096191406,77.32366943359375,-1.727003044823679,-7.193537498458974,-87.9968138535539,11.111508,13.073927,6.8053,32.57028,-18.04729,-11.112144,-2.824901,-4.352855,-19.109913,23.829332,-15.077416,0.9671021,-5.10671,3.0657709,15.002368,-14.114918,20.705366,-66.55922,51.911827,-6.880996,4.658608,-4.2376847,-5.65205,-16.369766,43.06155,52.473793,11.264868,8.383666,-3.2468705
132,-5.96937370300293,-13.48674488067627,77.36661529541016,-1.7119361576305843,-7.353864357786944,-87.98750893913045,10.547962,13.275453,6.4090123,34.387535,-17.716463,-11.070596,-2.2551413,-4.14025,-19.164885,23.415705,-15.123826,0.8816839,-4.953203,3.0998292,15.113174,-14.167759,20.755909,-66.17449,51.78626,-7.0061374,4.634678,-4.15613,-5.856106,-16.385122,43.23337,52.50242,11.2850895,8.396508,-3.1654556
133,-6.140616416931152,-13.69592571258545,77.4039306640625,-1.689579993127638,-7.5132847506981655,-87.9897884914437,9.944713,13.459308,6.0019665,36.25208,-17.365417,-10.894382,-1.697096,-3.9394295,-19.20391,23.008379,-15.16807,0.8073036,-4.775131,3.135768,15.22711,-14.230416,20.787941,-65.799126,51.660145,-7.1339393,4.6131353,-4.0472674,-6.067599,-16.41167,43.429325,52.515514,11.249101,8.404389,-3.0883703
134,-6.305690288543701,-13.90563678741455,77.44351196289062,-1.6601275160478577,-7.671498143101884,-88.00768089538772,9.30516,13.628933,5.5899086,38.161983,-16.986559,-10.613082,-1.1470748,-3.7451625,-19.22537,22.596378,-15.2035475,0.7412282,-4.615666,3.1760745,15.348479,-14.267901,20.822378,-65.35994,51.50829,-7.253961,4.591393,-3.9206047,-6.308347,-16.461306,43.705006,52.515736,11.193101,8.405167,-3.0156593
135,-6.461881160736084,-14.113404273986816,77.48068237304688,-1.6280669741963987,-7.826327031027369,-88.04193191803517,8.6463,13.783687,5.1876464,40.08139,-16.59612,-10.238458,-0.6074739,-3.5561202,-19.231112,22.183855,-15.231053,0.6769971,-4.443671,3.2194445,15.473361,-14.296133,20.853754,-64.91316,51.35032,-7.3708453,4.567954,-3.7655997,-6.553969,-16.532162,44.007767,52.493156,11.124698,8.404948,-2.9488382
136,-6.615013122558594,-14.318056106567383,77.51679992675781,-1.5922274165038688,-7.97587737752195,-88.09411676313783,7.985261,13.923996,4.8097687,41.97416,-16.209951,-9.782141,-0.07798741,-3.3696957,-19.22284,21.769611,-15.24826,0.6085279,-4.2586637,3.2656827,15.597557,-14.314365,20.87752,-64.47749,51.202816,-7.480513,4.540972,-3.5743294,-6.801066,-16.618473,44.323666,52.45284,11.062373,8.409599,-2.8923671
137,-6.763874530792236,-14.519289016723633,77.55393981933594,-1.554267759375096,-8.119578269730301,-88.16705012286631,7.308938,14.049265,4.4488444,43.87182,-15.8319025,-9.192685,0.43920732,-3.189086,-19.201754,21.35721,-15.255625,0.5301527,-4.061854,3.3132381,15.721655,-14.319953,20.89295,-64.04329,51.063858,-7.5643377,4.5158763,-3.343236,-7.0582013,-16.720833,44.66649,52.397327,11.010648,8.424956,-2.853248
138,-6.9024248123168945,-14.722603797912598,77.5903549194336,-1.510581651227129,-8.258600428301463,-88.25946221425987,6.6139164,14.163734,4.103013,45.77929,-15.453437,-8.478012,0.94621104,-3.013403,-19.167349,20.943464,-15.252603,0.44631645,-3.8540409,3.3641467,15.846867,-14.315094,20.899708,-63.60521,50.92914,-7.6306996,4.4913697,-3.0772166,-7.323505,-16.838623,45.038345,52.323257,10.959214,8.446501,-2.8272972
139,-7.034780979156494,-14.923022270202637,77.62677001953125,-1.469067035992605,-8.392573658107686,-88.3650716591,5.929932,14.275718,3.793214,47.627537,-15.076548,-7.7391343,1.4451447,-2.837029,-19.11756,20.525259,-15.240359,0.36673015,-3.6430302,3.4196553,15.970496,-14.297829,20.897655,-63.172916,50.80903,-7.7089787,4.455937,-2.7812843,-7.59099,-16.970192,45.42483,52.236828,10.911148,8.464535,-2.8030143
140,-7.16421365737915,-15.122203826904297,77.6598129272461,-1.4311621974598032,-8.521705016711909,-88.4782453792018,5.2857647,14.3923435,3.5383804,49.349617,-14.704494,-7.0773535,1.9386265,-2.6545744,-19.050274,20.098957,-15.220087,0.3011258,-3.4357586,3.4805112,16.089724,-14.26696,20.886454,-62.75791,50.713566,-7.8295975,4.397584,-2.4603598,-7.854614,-17.113428,45.80975,52.144867,10.868314,8.468961,-2.7688074
141,-7.28664493560791,-15.32787799835205,77.69288635253906,-1.4019291437534915,-8.647771749358503,-88.60155476263698,4.6864705,14.5277,3.3536518,50.961567,-14.303189,-6.5007296,2.4295523,-2.4608588,-18.95806,19.659508,-15.188537,0.2532973,-3.2312005,3.5504217,16.205467,-14.223616,20.864902,-62.366474,50.648445,-8.023468,4.3010955,-2.1036944,-8.115726,-17.26795,46.195168,52.04734,10.835284,8.455009,-2.717408
142,-7.402362823486328,-15.530328750610352,77.72322082519531,-1.376419673928702,-8.770311903658214,-88.73685903244859,4.1151805,14.678402,3.2238872,52.49402,-13.8869095,-5.956992,2.9148386,-2.2608588,-18.844164,19.212563,-15.147678,0.2178203,-3.0255365,3.6276405,16.31817,-14.169789,20.832207,-61.993675,50.609276,-8.267713,4.1758595,-1.7129565,-8.377284,-17.433636,46.58662,51.94263,10.809009,8.428469,-2.6563954
143,-7.516599655151367,-15.722538948059082,77.749267578125,-1.352104062711147,-8.88535009695691,-88.87718409805989,3.5679185,14.821353,3.121125,53.904797,-13.532958,-5.4612575,3.3924325,-2.063286,-18.72176,18.76065,-15.099164,0.19070786,-2.821227,3.7042491,16.425081,-14.103184,20.78894,-61.63093,50.589287,-8.507677,4.0469356,-1.3117663,-8.632944,-17.607162,46.97205,51.83225,10.78024,8.3959255,-2.5967045
144,-7.625939846038818,-15.916669845581055,77.77954864501953,-1.3223198474052889,-8.98895221526665,-89.01494943640792,3.0412204,14.928885,3.0173974,55.14981,-13.316464,-5.033435,3.8629882,-1.875705,-18.604658,18.299862,-15.04694,0.16781525,-2.6211824,3.7713182,16.52302,-14.023483,20.736994,-61.273014,50.582428,-8.692965,3.9403615,-0.92343396,-8.88007,-17.783615,47.34052,51.72341,10.739969,8.363547,-2.5492291
145,-7.737372875213623,-16.112564086914062,77.8102035522461,-1.2865687488687947,-9.082450673873295,-89.14857321582906,2.5423622,14.997882,2.9178956,56.221733,-13.28441,-4.6995506,4.327758,-1.6985803,-18.496868,17.832617,-14.98872,0.14959252,-2.4262698,3.8277988,16.61212,-13.925045,20.677765,-60.91426,50.58401,-8.813914,3.858447,-0.5505964,-9.120684,-17.959547,47.69871,51.62141,10.678542,8.32599,-2.5217202
146,-7.842741012573242,-16.30824089050293,77.8380126953125,-1.2485798651510787,-9.167059617148801,-89.28164507874361,2.0705414,15.036901,2.8322804,57.144665,-13.387408,-4.4476056,4.789602,-1.5278721,-18.391214,17.351942,-14.922796,0.13773455,-2.2363987,3.876122,16.693453,-13.809519,20.61211,-60.559677,50.596916,-8.8983755,3.7898042,-0.18188304,-9.35983,-18.133505,48.05084,51.5288,10.603139,8.281672,-2.5070112
147,-7.948148250579834,-16.509227752685547,77.86479949951172,-1.203268860664411,-9.239133707750314,-89.41534181070472,1.6071856,15.033318,2.739488,57.92735,-13.556504,-4.2432914,5.230822,-1.3712472,-18.284199,16.8863,-14.860527,0.12987998,-2.0519886,3.9134681,16.765476,-13.682551,20.540897,-60.213715,50.62342,-8.945621,3.7405477,0.1812128,-9.595523,-18.302643,48.37907,51.44452,10.528318,8.242794,-2.4938583
148,-8.050337791442871,-16.709827423095703,77.89107513427734,-1.1506191089809779,-9.295039444000073,-89.55093384091006,1.1366831,14.974375,2.6201408,58.57158,-13.723438,-4.051809,5.639117,-1.2348005,-18.172926,16.452097,-14.809682,0.12365735,-1.8730192,3.9365683,16.826262,-13.552233,20.465214,-59.884754,50.66764,-8.958521,3.716652,0.53710294,-9.829028,-18.464273,48.66738,51.371872,10.47071,8.220795,-2.4706974
149,-8.143624305725098,-16.903581619262695,77.9192886352539,-1.0854048909539584,-9.331544586328999,-89.69094710615394,0.65282845,14.848381,2.4671538,59.074158,-13.896445,-3.8651352,6.0061703,-1.1220381,-18.05515,16.057583,-14.772546,0.118671104,-1.6981556,3.9421127,16.873459,-13.418757,20.38529,-59.57409,50.731606,-8.926987,3.7221262,0.8845774,-10.0659685,-18.61592,48.916492,51.31716,10.441045,8.221496,-2.430344
150,-8.240619659423828,-17.10064697265625,77.94657135009766,-1.0114171928745286,-9.351234348123246,-89.83352920546601,0.16581932,14.662663,2.2931972,59.433537,-14.101679,-3.7039926,6.339775,-1.0293564,-17.933456,15.694329,-14.74613,0.11590005,-1.5280014,3.9318852,16.908417,-13.277973,20.301096,-59.277473,50.812748,-8.853002,3.753748,1.2247518,-10.307184,-18.756695,49.133842,51.282917,10.428222,8.237363,-2.3802068
151,-8.334704399108887,-17.298946380615234,77.97313690185547,-0.9323495690971518,-9.359379820530187,-89.97467712331601,-0.31782812,14.434166,2.1077988,59.659492,-14.2956705,-3.575369,6.6539173,-0.9499638,-17.812334,15.348319,-14.726492,0.11511943,-1.3650347,3.9119394,16.935328,-13.131806,20.213623,-58.996193,50.906273,-8.760011,3.806643,1.5598642,-10.539262,-18.885534,49.309544,51.25837,10.4149885,8.260851,-2.3313823
152,-8.424676895141602,-17.493881225585938,77.99576568603516,-0.8518697611032522,-9.361337276379576,-90.11020668211638,-0.7915566,14.18035,1.9202815,59.76116,-14.434585,-3.4859538,6.9612446,-0.8776851,-17.695738,15.008105,-14.710924,0.116448715,-1.2114587,3.8875847,16.95807,-12.981316,20.124529,-58.73112,51.00724,-8.669772,3.8756032,1.8920285,-10.749204,-19.002525,49.431137,51.233807,10.381094,8.284794,-2.2946765
153,-8.512606620788574,-17.6912784576416,78.01679992675781,-0.7695690709426193,-9.360866042699918,-90.24097490671245,-1.2470714,13.893194,1.7285224,59.73093,-14.488511,-3.4515681,7.2705646,-0.81348455,-17.583763,14.664858,-14.695908,0.12046896,-1.0668875,3.8575323,16.978777,-12.820433,20.034817,-58.478252,51.109383,-8.579866,3.9662216,2.2300735,-10.934316,-19.107595,49.497105,51.21194,10.311111,8.309548,-2.271315
154,-8.593612670898438,-17.89161491394043,78.0387191772461,-0.6829895581836526,-9.35430409892366,-90.36863263439695,-1.6892122,13.567942,1.5296723,59.56658,-14.486388,-3.4639382,7.572831,-0.7597579,-17.474503,14.327558,-14.684452,0.12752225,-0.9305789,3.8195922,16.995106,-12.650379,19.94519,-58.238914,51.215477,-8.482443,4.0790386,2.5700214,-11.100762,-19.20057,49.512238,51.19631,10.218137,8.3384495,-2.2559967
155,-8.672276496887207,-18.095653533935547,78.0634536743164,-0.5983383209482402,-9.335941548585186,-90.48961249188021,-2.1308446,13.227652,1.3315167,59.284748,-14.473652,-3.493471,7.860421,-0.71026933,-17.370241,13.996338,-14.677289,0.13719685,-0.80333346,3.778487,17.004519,-12.481203,19.85675,-58.019577,51.331955,-8.38779,4.201651,2.8950758,-11.250613,-19.282131,49.47822,51.17922,10.129719,8.367407,-2.2496984
156,-8.746928215026855,-18.29701805114746,78.08130645751953,-0.5202920497118815,-9.299935286739005,-90.60049690423486,-2.584864,12.894468,1.1424704,58.902115,-14.49565,-3.509533,8.115525,-0.6627769,-17.27253,13.695061,-14.681938,0.1489226,-0.68550843,3.7372591,17.004894,-12.321067,19.78051,-57.829678,51.45581,-8.310001,4.321882,3.1886563,-11.385997,-19.34475,49.394093,51.155704,10.07123,8.392219,-2.253727
157,-8.823314666748047,-18.49476432800293,78.09534454345703,-0.4521630382023744,-9.242149377849943,-90.69733625447395,-3.0629601,12.566175,0.94844556,58.421112,-14.567755,-3.4983127,8.337251,-0.6127841,-17.183765,13.415724,-14.695016,0.16466646,-0.5842775,3.69697,16.993692,-12.162852,19.725595,-57.66608,51.57661,-8.24521,4.4403815,3.4559114,-11.511475,-19.384766,49.253914,51.129585,10.050683,8.414562,-2.2693102
158,-8.895489692687988,-18.6923885345459,78.10700988769531,-0.3908343062589409,-9.16676626737081,-90.78300700759797,-3.5546403,12.234119,0.7506549,57.83293,-14.664826,-3.4758494,8.531894,-0.56340784,-17.102541,13.154732,-14.71548,0.1839028,-0.4996868,3.6587963,16.97414,-12.009548,19.674126,-57.52123,51.708233,-8.186647,4.5613337,3.7016234,-11.618538,-19.417892,49.06121,51.08825,10.054353,8.437072,-2.2952209
159,-8.964247703552246,-18.898954391479492,78.11521911621094,-0.33175165829827696,-9.07977767273023,-90.8645413468975,-4.0397186,11.911638,0.5780954,57.13462,-14.771388,-3.4637408,8.703746,-0.51893073,-17.024178,12.916502,-14.7469015,0.20230769,-0.406818,3.6239116,16.949022,-11.886911,19.594048,-57.41156,51.888924,-8.141016,4.678266,3.9108853,-11.69063,-19.464836,48.817253,51.011944,10.075298,8.455317,-2.3277576
160,-9.029650688171387,-19.088306427001953,78.12271118164062,-0.2697394456258697,-8.987237783852642,-90.94944343122036,-4.501077,11.611189,0.4595213,56.32971,-14.870982,-3.4834077,8.857117,-0.48442677,-16.944492,12.705058,-14.792321,0.21571971,-0.3108763,3.583433,16.921444,-11.774731,19.517149,-57.326157,52.085594,-8.1195345,4.788416,4.069738,-11.749056,-19.504658,48.566887,50.92821,10.117124,8.461401,-2.3693335
161,-9.092874526977539,-19.284870147705078,78.12920379638672,-0.20148791259881516,-8.88709900535781,-91.03890489599203,-4.9345098,11.337732,0.40907714,55.401814,-14.983035,-3.5544374,8.98625,-0.46339384,-16.863674,12.527253,-14.856457,0.22163807,-0.21673584,3.5334878,16.891644,-11.664851,19.455526,-57.25139,52.28283,-8.133013,4.8923006,4.166043,-11.79927,-19.532068,48.30499,50.83866,10.182932,8.452798,-2.419836
162,-9.161197662353516,-19.483394622802734,78.13164520263672,-0.13055087179602784,-8.777302889014377,-91.1292022249556,-5.3484106,11.084177,0.4093781,54.35288,-15.107038,-3.661418,9.092956,-0.4515496,-16.783607,12.374887,-14.93416,0.22295634,-0.12714931,3.4773858,16.8589,-11.557722,19.407007,-57.19003,52.48216,-8.173,4.9918027,4.2103667,-11.837569,-19.549448,48.023197,50.73921,10.272857,8.433335,-2.4795809
163,-9.221131324768066,-19.682537078857422,78.1353530883789,-0.06145965961208864,-8.664254669713392,-91.2201366417655,-5.7426014,10.844879,0.4422924,53.209423,-15.199373,-3.773657,9.185071,-0.44551015,-16.703024,12.2471695,-15.023277,0.22428688,-0.029104661,3.418899,16.82592,-11.469205,19.355808,-57.16473,52.707916,-8.217886,5.085055,4.219756,-11.85828,-19.56442,47.732292,50.631897,10.373181,8.405465,-2.546163
164,-9.277369499206543,-19.886089324951172,78.13715362548828,0.006886339147979791,-8.553828996083162,-91.31164989089868,-6.1182227,10.615359,0.48855802,52.00001,-15.2177105,-3.8600154,9.275463,-0.44003132,-16.619299,12.13246,-15.115908,0.22883454,0.06429462,3.3590407,16.797129,-11.387797,19.312191,-57.16726,52.95111,-8.240722,5.1714635,4.2101316,-11.877122,-19.573883,47.479416,50.533955,10.481105,8.3712435,-2.6207058
165,-9.341265678405762,-20.088048934936523,78.1364974975586,0.07255549687070816,-8.445305119870508,-91.40611940959273,-6.4782157,10.402667,0.5583274,50.726383,-15.15189,-3.9090161,9.359769,-0.43427938,-16.530703,12.036089,-15.21284,0.23918225,0.13044079,3.2970026,16.772688,-11.292383,19.29292,-57.177433,53.188927,-8.219721,5.250479,4.1852274,-11.914525,-19.575432,47.30454,50.453648,10.624432,8.32716,-2.7155144
166,-9.39533805847168,-20.291879653930664,78.13807678222656,0.13665653885489223,-8.336341983355398,-91.5035108302337,-6.8203325,10.207318,0.6568805,49.374687,-15.024557,-3.93852,9.43517,-0.4304318,-16.43793,11.958304,-15.3152895,0.25288475,0.24668008,3.2327209,16.750938,-11.250903,19.26152,-57.27486,53.480625,-8.185579,5.321522,4.1355767,-11.909415,-19.57497,47.077858,50.35453,10.756636,8.274144,-2.814782
167,-9.441455841064453,-20.494142532348633,78.13320922851562,0.19901850411076485,-8.230307793083831,-91.59747101696192,-7.140767,10.012991,0.75493056,47.953217,-14.844294,-3.960295,9.511454,-0.42978072,-16.347263,11.890947,-15.422957,0.26793668,0.32888076,3.1676817,16.73346,-11.192073,19.241514,-57.35892,53.77283,-8.147977,5.387721,4.060485,-11.917536,-19.571901,46.92115,50.27239,10.896082,8.2188015,-2.9156337
168,-9.490804672241211,-20.69736671447754,78.12777709960938,0.25870298085144033,-8.130934815369448,-91.68249935556213,-7.433241,9.803952,0.8245153,46.466595,-14.617887,-3.9856238,9.592366,-0.43582657,-16.263384,11.839525,-15.542223,0.282445,0.41654122,3.101966,16.721638,-11.14483,19.218693,-57.467438,54.088516,-8.143921,5.4514766,3.9588044,-11.909942,-19.56563,46.773525,50.202263,10.989969,8.168776,-2.9947789
169,-9.53519058227539,-20.90699577331543,78.12125396728516,0.3207470184033522,-8.040700950612418,-91.75793814459209,-7.692553,9.57485,0.862399,44.90563,-14.345072,-4.013606,9.680589,-0.45486027,-16.186174,11.805054,-15.67355,0.2976003,0.47213957,3.032577,16.721226,-11.080747,19.203913,-57.554115,54.406143,-8.146819,5.520975,3.8330784,-11.910773,-19.559637,46.68549,50.15469,11.044778,8.12086,-3.0542576
170,-9.572103500366211,-21.118249893188477,78.11163330078125,0.38418884036913814,-7.9569132322908525,-91.82714830213398,-7.92175,9.335596,0.88205624,43.268734,-14.022004,-4.0385866,9.772427,-0.48380324,-16.11279,11.787128,-15.814909,0.31376022,0.5336254,2.9592657,16.726892,-11.030923,19.186468,-57.66988,54.75148,-8.163429,5.591607,3.6839743,-11.894988,-19.5506,46.607735,50.11759,11.059573,8.07219,-3.0985048
171,-9.608972549438477,-21.33139991760254,78.10247039794922,0.43819227283991313,-7.876247258581705,-91.88849925570757,-8.132082,9.09416,0.8769893,41.581505,-13.655635,-4.0641694,9.871354,-0.50820637,-16.0467,11.768758,-15.95903,0.32765207,0.582003,2.8904903,16.7353,-10.978597,19.17067,-57.783833,55.109207,-8.2194395,5.649401,3.5017085,-11.877185,-19.540781,46.566772,50.090763,11.056756,8.033899,-3.1281934
172,-9.640787124633789,-21.54873275756836,78.09150695800781,0.47701539653618835,-7.794850810719181,-91.94178342404018,-8.334114,8.859855,0.8412324,39.867466,-13.252041,-4.0937133,9.980378,-0.5134893,-15.99037,11.733734,-16.098711,0.33585113,0.6325687,2.8332074,16.738174,-10.935009,19.149137,-57.911777,55.490482,-8.357759,5.6793923,3.2782805,-11.8462715,-19.524477,46.54331,50.069878,11.040722,8.015689,-3.1415486
173,-9.672455787658691,-21.76441192626953,78.07516479492188,0.4937292308304997,-7.713319394744301,-91.98410933354509,-8.530288,8.640647,0.7719402,38.124268,-12.812653,-4.112148,10.103076,-0.4940425,-15.947025,11.676091,-16.23,0.3332309,0.6638933,2.7907598,16.740316,-10.8859625,19.13273,-58.028027,55.883457,-8.572704,5.686089,3.006207,-11.815756,-19.50786,46.565865,50.05374,11.019306,8.026544,-3.137993
174,-9.70120906829834,-21.984859466552734,78.05438995361328,0.4959039774531692,-7.633320920824058,-92.01696447288701,-8.715817,8.432612,0.67125887,36.343964,-12.335582,-4.121223,10.237782,-0.458126,-15.91439,11.604413,-16.357342,0.32308683,0.6741261,2.7592638,16.754549,-10.829682,19.129013,-58.11048,56.274357,-8.829065,5.677142,2.6856685,-11.782032,-19.501234,46.616943,50.02633,10.973739,8.06151,-3.1117098
175,-9.729775428771973,-22.209463119506836,78.03199005126953,0.487375904852092,-7.551526742838321,-92.04511344893085,-8.890946,8.226554,0.5405815,34.538727,-11.819965,-4.148916,10.374756,-0.4137542,-15.886533,11.529446,-16.487562,0.31476843,0.70122075,2.7318017,16.742035,-10.782001,19.116083,-58.258873,56.694202,-9.19816,5.6376977,2.3440762,-11.732093,-19.473574,46.702843,50.03054,10.939372,8.099679,-3.0841627
176,-9.7529296875,-22.434940338134766,78.00919342041016,0.4756620485930923,-7.466812448217069,-92.07370766468738,-9.053612,8.014909,0.3802473,32.71998,-11.265367,-4.2235837,10.512238,-0.36595458,-15.857409,11.449392,-16.621002,0.31741595,0.71637243,2.7062392,16.736675,-10.723863,19.11148,-58.350487,57.09135,-9.610379,5.5618663,1.9672651,-11.671935,-19.455837,46.79122,50.01619,10.8781185,8.137076,-3.0355554
177,-9.773561477661133,-22.659910202026367,77.98258972167969,0.4574148481745919,-7.37709509182577,-92.10143903934315,-9.204255,7.798042,0.18658301,30.877422,-10.680522,-4.344983,10.644705,-0.31492972,-15.828413,11.369781,-16.763823,0.33369586,0.7295189,2.6808422,16.715073,-10.656127,19.107538,-58.433167,57.48959,-10.146177,5.429971,1.5604614,-11.607251,-19.423723,46.90653,50.022278,10.806257,8.167066,-2.9700522
178,-9.790775299072266,-22.892419815063477,77.95198059082031,0.43092587760908413,-7.284424356846345,-92.12673114854478,-9.342896,7.584211,-0.042007294,29.008652,-10.061923,-4.4985847,10.776673,-0.2573168,-15.801656,11.287425,-16.912361,0.35845098,0.7385965,2.658344,16.69087,-10.582784,19.108944,-58.49289,57.88286,-10.772527,5.2570953,1.116061,-11.529914,-19.393967,47.034424,50.021927,10.709499,8.200336,-2.8832564
179,-9.804085731506348,-23.12716293334961,77.91875457763672,0.3986564631968539,-7.190456928038664,-92.15411537444291,-9.46253,7.375074,-0.30022016,27.120686,-9.387222,-4.6920953,10.914083,-0.19416699,-15.772136,11.194936,-17.05716,0.3888864,0.7481804,2.6403315,16.66197,-10.504958,19.114477,-58.545975,58.25984,-11.417715,5.0732327,0.64925116,-11.439725,-19.36644,47.176853,50.021248,10.619341,8.229046,-2.7945797
180,-9.820075035095215,-23.362455368041992,77.88507080078125,0.3647989259238223,-7.096973483476684,-92.18791622314073,-9.560668,7.170592,-0.58310115,25.229984,-8.633688,-4.9346123,11.061181,-0.12646528,-15.735085,11.088943,-17.190563,0.42212465,0.75165135,2.6249938,16.62505,-10.41561,19.126808,-58.59457,58.605698,-12.004678,4.907502,0.1754956,-11.349663,-19.326683,47.348286,50.04495,10.564338,8.245271,-2.7246144
181,-9.829774856567383,-23.60808753967285,77.85221862792969,0.3255659753976821,-7.004208198632148,-92.2287182847257,-9.631726,6.969752,-0.8930129,23.319216,-7.791235,-5.232187,11.220852,-0.05187718,-15.6887455,10.963295,-17.306274,0.45859563,0.7636504,2.6164668,16.583265,-10.325967,19.142235,-58.645763,58.924046,-12.526073,4.758356,-0.3240165,-11.244368,-19.289875,47.53038,50.074566,10.55636,8.243339,-2.67882
182,-9.837267875671387,-23.8499698638916,77.81900787353516,0.27962279391910133,-6.911405041154252,-92.27490092919773,-9.6751795,6.7754607,-1.2331569,21.379097,-6.86984,-5.579902,11.391441,0.031397574,-15.635218,10.819774,-17.408916,0.49924535,0.7675964,2.6123667,16.533195,-10.221345,19.168432,-58.683376,59.212116,-13.019106,4.613254,-0.8487696,-11.1428175,-19.237442,47.74798,50.133476,10.585692,8.226905,-2.6499517
183,-9.841151237487793,-24.1024227142334,77.78548431396484,0.22732282629591283,-6.819783203789006,-92.3278264647266,-9.692529,6.59229,-1.598936,19.432013,-5.874953,-5.9722166,11.572507,0.12120221,-15.575143,10.661757,-17.50402,0.54222304,0.77556556,2.6132696,16.480026,-10.111991,19.201057,-58.725628,59.47133,-13.468015,4.4839587,-1.3581617,-11.03109,-19.180935,47.96757,50.19873,10.613485,8.209839,-2.6218417
184,-9.84077262878418,-24.354656219482422,77.75235748291016,0.16950999269539663,-6.730328382669557,-92.3888427450276,-9.68746,6.424791,-1.9857905,17.5053,-4.814206,-6.4042883,11.7636175,0.21658145,-15.509091,10.491692,-17.59673,0.5852975,0.7949508,2.6219654,16.427423,-10.007632,19.229307,-58.789066,59.70925,-13.858786,4.380244,-1.8103228,-10.892122,-19.136545,48.16424,50.24245,10.60417,8.20619,-2.5802827
185,-9.836207389831543,-24.612274169921875,77.71311950683594,0.10277014077403349,-6.643398478888111,-92.45803248570871,-9.656283,6.272657,-2.401535,15.585101,-3.63544,-6.895426,11.968453,0.32179293,-15.437944,10.302227,-17.685308,0.6252449,0.8045675,2.632636,16.371948,-9.884196,19.277983,-58.85899,59.899193,-14.176622,4.3099246,-2.19889,-10.761772,-19.062021,48.370735,50.315823,10.547377,8.217374,-2.5212526
186,-9.829273223876953,-24.869281768798828,77.6748275756836,0.02511166070857493,-6.558915765222853,-92.5361099644649,-9.597224,6.1392198,-2.8489008,13.661636,-2.3520737,-7.444722,12.189607,0.44206467,-15.359425,10.0875225,-17.764183,0.6630617,0.8296805,2.6570444,16.31633,-9.7678995,19.32097,-58.954235,60.07095,-14.433857,4.262794,-2.5441332,-10.604545,-18.998873,48.557507,50.371677,10.455542,8.239321,-2.4485612
187,-9.818845748901367,-25.132816314697266,77.63074493408203,-0.06581303294132745,-6.477821110139696,-92.62557089766882,-9.511233,6.032725,-3.3124192,11.756608,-1.0667844,-8.017036,12.426383,0.5770832,-15.269417,9.850544,-17.832603,0.7027298,0.8585124,2.694115,16.257912,-9.643189,19.369781,-59.051735,60.212315,-14.652206,4.227394,-2.843353,-10.438447,-18.928019,48.73932,50.435604,10.357754,8.265031,-2.3765602
188,-9.809937477111816,-25.401792526245117,77.58428192138672,-0.16887696033121424,-6.4008740501082055,-92.72863218866082,-9.402213,5.9598045,-3.7733579,9.8965645,0.11707113,-8.575923,12.677759,0.7257408,-15.16432,9.595062,-17.8898,0.7484683,0.89209986,2.7457354,16.196106,-9.508112,19.422794,-59.14086,60.32496,-14.852839,4.191943,-3.0940785,-10.263277,-18.851624,48.911705,50.507343,10.278466,8.289351,-2.3169692
189,-9.793307304382324,-25.675886154174805,77.53575897216797,-0.2854144055514432,-6.328737558115842,-92.84559265833144,-9.24924,5.9193764,-4.227302,8.031203,1.2331117,-9.159383,12.947343,0.8910612,-15.042849,9.316242,-17.933424,0.80136585,0.9319433,2.816002,16.13068,-9.366073,19.474583,-59.225716,60.413956,-15.038303,4.154674,-3.2996085,-10.06997,-18.777485,49.0683,50.577324,10.221482,8.312092,-2.2760773
190,-9.77331829071045,-25.958040237426758,77.4830551147461,-0.41778761771360495,-6.260951671593865,-92.97597861109301,-9.151759,5.900847,-4.6906624,6.3633504,2.2089772,-9.770897,13.236471,1.074087,-14.905511,9.00931,-17.96155,0.858834,0.97907525,2.9051425,16.061974,-9.218349,19.524683,-59.31049,60.479416,-15.197728,4.1205306,-3.4598722,-9.858319,-18.705622,49.2117,50.643787,10.174937,8.335984,-2.2463655
191,-9.740583419799805,-26.245573043823242,77.41834259033203,-0.575333975806163,-6.197201709475694,-93.12325162601034,-9.768325,5.8568926,-5.221153,6.3082614,2.2600496,-10.3158045,13.506922,1.272233,-14.750299,8.762114,-18.02304,0.92264,1.0369881,3.023903,15.992538,-9.067424,19.570894,-59.38923,60.525875,-15.335434,4.0867977,-3.5674055,-9.637157,-18.638794,49.34919,50.708256,10.139951,8.361037,-2.219041
192,-9.70203685760498,-26.531005859375,77.35000610351562,-0.729032953739327,-6.13528725035192,-93.28242326484059,-10.344644,5.8222275,-5.7254004,6.283718,2.1830747,-10.709246,13.762278,1.4519223,-14.584012,8.555696,-18.105146,0.99336845,1.100079,3.1371982,15.923936,-8.912383,19.615301,-59.452496,60.55325,-15.45384,4.051105,-3.6148868,-9.41498,-18.572752,49.48802,50.77424,10.116244,8.387055,-2.185743
193,-9.668314933776855,-26.8194580078125,77.28960418701172,-0.8640975842332794,-6.070833455985924,-93.44955697731325,-10.886773,5.7833085,-6.220311,6.279054,1.9368914,-10.900494,14.006732,1.6030923,-14.412062,8.365624,-18.193064,1.0715443,1.1691906,3.2342942,15.853565,-8.759057,19.647764,-59.503204,60.565983,-15.559889,4.0114155,-3.578483,-9.184552,-18.52257,49.626247,50.8264,10.110537,8.415738,-2.1441023
194,-9.624637603759766,-27.11100959777832,77.22815704345703,-0.9856889351907064,-6.004837480211201,-93.62385889721605,-11.390704,5.739082,-6.7019176,6.282588,1.5637529,-10.945701,14.243236,1.730284,-14.234867,8.190212,-18.286697,1.1572524,1.2316628,3.313069,15.7786875,-8.590898,19.689417,-59.53227,60.54403,-15.648872,3.970416,-3.4692705,-8.96577,-18.455519,49.776726,50.902092,10.122353,8.444573,-2.1006658
195,-9.577138900756836,-27.408716201782227,77.16717529296875,-1.0892171616833994,-5.943076638360542,-93.80761208051949,-11.834983,5.689818,-7.1211863,6.2907057,1.151411,-10.915317,14.471762,1.8279768,-14.050152,8.042268,-18.39229,1.2489251,1.2948161,3.3729906,15.706022,-8.418981,19.733068,-59.548832,60.507576,-15.709726,3.928698,-3.3329566,-8.747366,-18.381538,49.923798,50.98683,10.135869,8.472785,-2.0545738
196,-9.530041694641113,-27.702613830566406,77.1107406616211,-1.1716834860629939,-5.891102281276853,-94.00316129148248,-12.198668,5.6369896,-7.42895,6.2985077,0.7890815,-10.880884,14.692605,1.8905288,-13.855564,7.9350495,-18.516975,1.3451651,1.3686942,3.415612,15.641906,-8.260938,19.76253,-59.56702,60.486683,-15.734279,3.8864424,-3.214875,-8.5110655,-18.327324,50.052185,51.05057,10.138583,8.500967,-2.0049176
197,-9.4793119430542,-28.00275993347168,77.05441284179688,-1.242188930814498,-5.8492064719213985,-94.21005321330682,-12.483869,5.600449,-7.594629,6.3065715,0.4176104,-10.852091,14.909684,1.9320954,-13.649306,7.860228,-18.657488,1.4425455,1.4394093,3.44721,15.583261,-8.098228,19.794783,-59.571438,60.464535,-15.68711,3.841066,-3.1158752,-8.2777605,-18.260878,50.178215,51.13369,10.132934,8.525899,-1.9518338
198,-9.4231538772583,-28.300323486328125,76.99978637695312,-1.3045508278494573,-5.813883309749327,-94.42634827105785,-12.7017145,5.5766654,-7.6526246,6.317496,0.017309941,-10.796325,15.117862,1.9518406,-13.434245,7.8212132,-18.81543,1.5431764,1.517442,3.4714968,15.52898,-7.943446,19.818075,-59.575214,60.448006,-15.587307,3.7926364,-3.0154474,-8.030546,-18.205236,50.28869,51.20721,10.122202,8.550195,-1.8939952
199,-9.36512565612793,-28.597843170166016,76.94780731201172,-1.334209343096753,-5.785182526085388,-94.65154248231018,-12.840455,5.531184,-7.650433,6.3259597,-0.2637628,-10.7201805,15.303591,1.9211407,-13.216486,7.8474197,-19.003714,1.6535558,1.5924089,3.463203,15.480176,-7.7899747,19.840061,-59.56598,60.429726,-15.492166,3.7499409,-2.926737,-7.787857,-18.143383,50.39725,51.287903,10.101883,8.573621,-1.8367394
200,-9.303251266479492,-28.90204429626465,76.90898895263672,-1.3134230062878922,-5.762915906078832,-94.88495337643103,-12.888488,5.429344,-7.63474,6.3272023,-0.2775704,-10.628917,15.454286,1.8114865,-13.001717,7.9669056,-19.234962,1.7803355,1.6692172,3.4016924,15.440899,-7.645395,19.856833,-59.546215,60.413895,-15.459415,3.7209344,-2.8633173,-7.5444584,-18.086262,50.49649,51.356205,10.063193,8.598231,-1.7829071
201,-9.241392135620117,-29.199331283569336,76.88237762451172,-1.220105893644395,-5.7457855465035905,-95.12219563012347,-12.829641,5.254625,-7.584658,6.316533,0.07350123,-10.518324,15.558511,1.6000228,-12.798441,8.19991,-19.519093,1.9283557,1.7390051,3.2657483,15.4156065,-7.5107956,19.87209,-59.505047,60.396286,-15.521343,3.7130916,-2.8316457,-7.311651,-18.02245,50.591347,51.424534,9.993094,8.620577,-1.7377406
202,-9.174188613891602,-29.499536514282227,76.86080169677734,-1.0707732426551018,-5.734114065382887,-95.36491593115056,-12.6741905,5.025812,-7.4855847,6.2982497,0.6903667,-10.385339,15.629075,1.3053943,-12.60108,8.518778,-19.842327,2.0935116,1.8036014,3.0685594,15.401668,-7.3825307,19.886219,-59.44529,60.376804,-15.640897,3.720297,-2.8239412,-7.088185,-17.94828,50.68153,51.4996,9.898175,8.640948,-1.6978234
203,-9.103036880493164,-29.805767059326172,76.84223175048828,-0.8867651589258638,-5.73031690627724,-95.62274908277395,-12.450049,4.7608256,-7.393602,6.2769628,1.4306158,-10.237844,15.687983,0.9610777,-12.395299,8.884294,-20.185312,2.2686815,1.8686043,2.8367906,15.389498,-7.25013,19.898848,-59.377556,60.358875,-15.774294,3.730478,-2.8314672,-6.8735046,-17.86161,50.775307,51.58692,9.806957,8.664203,-1.6559166
204,-9.027294158935547,-30.120948791503906,76.8223648071289,-0.6982412069573813,-5.736928663656171,-95.90484283017214,-12.184328,4.4790535,-7.365318,6.25712,2.1507785,-10.0860815,15.756838,0.60240453,-12.166345,9.258696,-20.529219,2.4465134,1.940421,2.5993013,15.369333,-7.103783,19.908155,-59.312786,60.346863,-15.87681,3.7313876,-2.8456624,-6.664511,-17.767345,50.878864,51.687786,9.746257,8.695326,-1.6044924
205,-8.947832107543945,-30.439626693725586,76.80152893066406,-0.507117937274332,-5.7542497847104,-96.21591253772424,-11.869511,4.171643,-7.471529,6.2398114,2.8490543,-9.928398,15.84175,0.2378161,-11.908786,9.629371,-20.871145,2.6254342,2.0254812,2.3651702,15.341133,-6.942384,19.911463,-59.252884,60.343063,-15.94564,3.7160022,-2.8697298,-6.450392,-17.68027,50.994617,51.782837,9.732371,8.741838,-1.5385063
206,-8.867042541503906,-30.771217346191406,76.7804946899414,-0.3008878539843734,-5.781834168573797,-96.55177605668008,-11.495228,3.8314376,-7.662953,6.222714,3.5902538,-9.7652025,15.934774,-0.15161957,-11.629574,10.011162,-21.217339,2.8093114,2.1298108,2.121303,15.313777,-6.77894,19.909029,-59.20357,60.344746,-16.004026,3.6920369,-2.9063258,-6.2158628,-17.625353,51.105362,51.84069,9.74669,8.801309,-1.4614933
207,-8.777129173278809,-31.104602813720703,76.76815032958984,-0.07402842838215506,-5.820082633890528,-96.907808276853,-11.084855,3.4810717,-7.8171706,6.205034,4.331593,-9.608072,16.031956,-0.5713187,-11.3343,10.412987,-21.565048,2.9989357,2.2323246,1.8589351,15.285389,-6.606044,19.90197,-59.15051,60.349464,-16.039639,3.6690865,-2.9463387,-5.987458,-17.569443,51.224648,51.904396,9.771857,8.860809,-1.3823948
208,-8.680163383483887,-31.44807243347168,76.75149536132812,0.1585435290811415,-5.869066072689606,-97.28071808715535,-10.683725,3.1560826,-7.816433,6.232949,5.0033145,-9.464614,16.112179,-1.0169377,-11.025617,10.886423,-21.93702,3.196335,2.3322613,1.586986,15.255201,-6.4316654,19.8877,-59.103336,60.36112,-16.046028,3.6564703,-2.98035,-5.769163,-17.499706,51.339123,51.98763,9.783369,8.908871,-1.3080785
209,-8.579113960266113,-31.79990577697754,76.7325439453125,0.40780012860280557,-5.929833342883083,-97.67570517425463,-10.407568,2.8430657,-7.6186914,6.546691,5.5484858,-9.343996,16.188026,-1.4950284,-10.69852,11.404412,-22.32345,3.4002967,2.443751,1.3025507,15.225038,-6.2577524,19.869123,-59.07889,60.36723,-16.00696,3.6620002,-3.007536,-5.5416284,-17.440042,51.439144,52.057766,9.773721,8.946626,-1.2375089
210,-8.477212905883789,-32.1623420715332,76.71187591552734,0.6782192835555417,-6.001141138140017,-98.09264070300175,-10.324221,2.5122674,-7.291644,7.315241,5.8756227,-9.232716,16.267174,-2.007817,-10.353329,11.945687,-22.713448,3.6107254,2.560811,0.99863243,15.193492,-6.0802946,19.843603,-59.065586,60.3744,-15.930621,3.678701,-3.0324075,-5.3132987,-17.383347,51.536205,52.127174,9.755899,8.978336,-1.1682574
211,-8.368992805480957,-32.53136444091797,76.69538879394531,0.9675749815987874,-6.075811327488489,-98.51703001879231,-10.182903,2.1909165,-6.873887,7.988768,6.1176023,-9.104277,16.34158,-2.5481062,-10.005149,12.510031,-23.092356,3.8286667,2.6881723,0.6773501,15.167266,-5.914152,19.82904,-59.07458,60.375515,-15.857737,3.6971996,-3.052928,-5.060329,-17.35989,51.592796,52.151787,9.72843,9.005509,-1.0991337
212,-8.256424903869629,-32.89828109741211,76.69284057617188,1.2714730375060435,-6.146583637187579,-98.93283726880888,-10.012707,1.8623219,-6.4194446,8.612887,6.098697,-8.931704,16.402014,-3.1094105,-9.670089,13.098296,-23.445337,4.055372,2.7990823,0.33691263,15.136444,-5.7663326,19.809023,-59.092094,60.409393,-15.828565,3.7010489,-3.0677173,-4.8112054,-17.333763,51.620045,52.18695,9.705528,9.0195055,-1.0327007
213,-8.14505386352539,-33.26484298706055,76.69741821289062,1.6093354195042335,-6.208546969852961,-99.34035107634213,-9.818374,1.5045857,-5.914377,9.197522,5.696741,-8.688799,16.44099,-3.7156832,-9.35359,13.71593,-23.781193,4.295,2.9136076,-0.047378276,15.095045,-5.659061,19.769812,-59.153976,60.50296,-15.891937,3.6856976,-3.0601661,-4.558935,-17.290804,51.592625,52.235523,9.675506,9.017347,-0.9612786
214,-8.028630256652832,-33.63437271118164,76.70086669921875,1.9776849609419531,-6.264873690665641,-99.74544215190761,-9.594329,1.1267165,-5.3449554,9.735313,5.0219707,-8.398836,16.46656,-4.3644395,-9.047212,14.351946,-24.101263,4.5460973,3.025844,-0.46920615,15.0509205,-5.5712123,19.736086,-59.240166,60.61342,-16.010445,3.6598923,-3.0372622,-4.2971315,-17.259089,51.52623,52.266743,9.641238,9.003083,-0.8860556
215,-7.918659687042236,-34.01060485839844,76.71253967285156,2.340018526265406,-6.321176825303338,-100.1422663728749,-9.352531,0.7577878,-4.762772,10.244165,4.2472434,-8.110471,16.47802,-5.012065,-8.743235,15.015108,-24.387146,4.800805,3.1308608,-0.88333887,15.009975,-5.497726,19.703869,-59.32719,60.735275,-16.107504,3.631896,-3.0288503,-4.0248938,-17.233923,51.41334,52.291397,9.602348,8.985956,-0.823038
216,-7.80011510848999,-34.37556838989258,76.72831726074219,2.6584486550585646,-6.38400165153546,-100.52550939413112,-9.099283,0.42880595,-4.21476,10.729603,3.5528145,-7.8699646,16.477257,-5.6124887,-8.434144,15.712459,-24.62236,5.050961,3.2287471,-1.242864,14.978577,-5.438025,19.667086,-59.397015,60.86668,-16.108282,3.6103656,-3.064644,-3.7410314,-17.213696,51.240368,52.32029,9.556131,8.975308,-0.7874362
217,-7.669549942016602,-34.74235534667969,76.74657440185547,2.9190040922854057,-6.458670379388064,-100.88138924276026,-8.845899,0.14612384,-3.713502,11.215272,2.964194,-7.696533,16.49207,-6.1469054,-8.137132,16.405798,-24.787008,5.2913756,3.3009598,-1.5341198,14.962425,-5.3814635,19.633919,-59.425865,61.00228,-15.988345,3.5873778,-3.1625407,-3.4400182,-17.202406,51.005737,52.35088,9.496501,8.975371,-0.7905697
218,-7.5375823974609375,-35.108642578125,76.76820373535156,3.1428263249805846,-6.541680854001261,-101.21657976064868,-8.586822,-0.10916982,-3.232017,11.689269,2.394922,-7.5629177,16.511845,-6.641024,-7.849893,17.107773,-24.89662,5.5264187,3.368437,-1.7797997,14.956312,-5.3451033,19.59577,-59.44855,61.157837,-15.79383,3.5608962,-3.3030903,-3.117277,-17.197523,50.69437,52.378197,9.418882,8.980457,-0.82020146
219,-7.406472206115723,-35.47502517700195,76.78952026367188,3.3387671338040903,-6.626682431551187,-101.55665293150545,-8.304992,-0.34171486,-2.7556758,12.110569,1.8536744,-7.4443417,16.492474,-7.111301,-7.535389,17.878939,-24.976221,5.762538,3.4383907,-1.9887296,14.953619,-5.323541,19.550009,-59.46245,61.315582,-15.534114,3.549696,-3.4608784,-2.7938666,-17.203184,50.34518,52.395,9.351366,8.9868,-0.8619767
220,-7.269205093383789,-35.846370697021484,76.81278228759766,3.5222130226525223,-6.70657510930542,-101.92709273017795,-7.9846706,-0.5541849,-2.2710156,12.442761,1.3465021,-7.3161087,16.394014,-7.5725865,-7.15716,18.77163,-25.046124,6.0073814,3.4977455,-2.17376,14.946901,-5.2913756,19.509588,-59.43814,61.43629,-15.211885,3.573927,-3.6105044,-2.5036383,-17.219542,50.023674,52.40421,9.32857,8.989867,-0.90393335
221,-7.117166519165039,-36.209877014160156,76.8380126953125,3.6828248609467535,-6.776259291402651,-102.33454872886463,-7.6221204,-0.7321138,-1.7794437,12.67293,0.87319326,-7.186483,16.213812,-8.010102,-6.701188,19.774313,-25.106789,6.26895,3.5825903,-2.314375,14.933316,-5.2795877,19.445122,-59.41203,61.549904,-14.791099,3.6494515,-3.758917,-2.2110028,-17.26824,49.659344,52.370293,9.332723,8.998757,-0.9423191
222,-6.9691338539123535,-36.57582092285156,76.86518096923828,3.819853790022343,-6.8407697083052215,-102.76521238719413,-7.227202,-0.87844193,-1.2870345,12.828603,0.42839736,-7.0636463,15.978465,-8.417482,-6.190059,20.853905,-25.146894,6.5433717,3.637766,-2.4203966,14.913441,-5.2439766,19.395712,-59.3259,61.61816,-14.2701845,3.7633543,-3.9156184,-1.9532795,-17.32103,49.313587,52.33944,9.37469,9.010553,-0.990448
223,-6.811061382293701,-36.93775939941406,76.89111328125,3.9500544237255233,-6.908992646068628,-103.21395713599325,-6.7934985,-1.018841,-0.7882652,12.910181,0.018967295,-6.9236455,15.678554,-8.819099,-5.6379714,22.053974,-25.169788,6.821427,3.7140675,-2.507332,14.904416,-5.2367806,19.32627,-59.249756,61.691174,-13.750573,3.8844779,-4.0600886,-1.6916479,-17.422384,48.968575,52.25466,9.449997,9.013054,-1.033391
224,-6.6482439041137695,-37.29022979736328,76.91692352294922,4.096041134021329,-6.9891985669380645,-103.67615304970799,-6.3225827,-1.1808554,-0.27785164,12.934819,-0.35293794,-6.7423115,15.313423,-9.239858,-5.060681,23.400024,-25.176077,7.094554,3.7844877,-2.610835,14.912385,-5.235444,19.261827,-59.163185,61.746655,-13.319101,3.985824,-4.170704,-1.4709468,-17.547087,48.71868,52.159477,9.584917,8.988711,-1.0678048
225,-6.486839771270752,-37.645362854003906,76.94561004638672,4.26197631081242,-7.084796963243453,-104.1599879881035,-5.804244,-1.3660997,0.2498542,12.898356,-0.68574566,-6.5087075,14.890662,-9.680882,-4.4546075,24.890615,-25.169535,7.3767176,3.8603199,-2.7316337,14.940857,-5.2381744,19.204489,-59.06235,61.77552,-13.011546,4.0694647,-4.2412357,-1.2927173,-17.697546,48.578293,52.05372,9.81666,8.928124,-1.0859624
226,-6.324796199798584,-37.9946403503418,76.97288513183594,4.436009865182142,-7.191805912351306,-104.66456463624664,-5.241854,-1.5614773,0.788887,12.798807,-0.983537,-6.238279,14.413066,-10.124144,-3.8151906,26.5076,-25.147417,7.6725516,3.9375808,-2.856072,14.985183,-5.2428756,19.155499,-58.943916,61.77546,-12.77626,4.148274,-4.2829237,-1.1480707,-17.874462,48.518635,51.93158,10.126241,8.841431,-1.0930816
227,-6.163392543792725,-38.34169387817383,77.00206756591797,4.620561839596894,-7.303693052342974,-105.17293436025584,-4.6512866,-1.7719258,1.3272431,12.641748,-1.2463222,-5.946779,13.874817,-10.564566,-3.1549356,28.244293,-25.093075,7.9588747,4.007733,-2.991341,15.04423,-5.2595153,19.117674,-58.832508,61.7604,-12.573298,4.2113423,-4.3005247,-1.02909,-18.074764,48.508488,51.79258,10.433917,8.741759,-1.0991195
228,-6.008962631225586,-38.68726348876953,77.02859497070312,4.812936032167436,-7.414810917526652,-105.66779340936924,-4.050708,-2.0020227,1.8531846,12.4365635,-1.476173,-5.6493964,13.268717,-11.001262,-2.4848824,30.095537,-24.992336,8.210988,4.0628934,-3.1447444,15.116547,-5.2990527,19.094866,-58.75554,61.74425,-12.36523,4.2477183,-4.298803,-0.9263894,-18.291277,48.515373,51.63567,10.659631,8.642011,-1.1144695
229,-5.852275848388672,-39.02361297607422,77.05484008789062,5.0182302619819374,-7.516132373151899,-106.14828270689937,-3.4408953,-2.2552512,2.3689854,12.162857,-1.6624873,-5.3409643,12.571616,-11.435574,-1.7912097,32.089752,-24.847034,8.429264,4.1039076,-3.3219552,15.192835,-5.35895,19.089836,-58.714897,61.72751,-12.133811,4.244383,-4.271124,-0.84967005,-18.520031,48.556507,51.466637,10.780057,8.538657,-1.1417922
230,-5.708097457885742,-39.35503005981445,77.07575988769531,5.233696655058921,-7.61320959658387,-106.62202355676781,-2.8176374,-2.5283813,2.8785598,11.832829,-1.8109702,-5.01691,11.796336,-11.860816,-1.0730752,34.215904,-24.662207,8.628514,4.1340184,-3.5185578,15.276339,-5.433394,19.10394,-58.69791,61.69985,-11.901857,4.2113028,-4.217393,-0.8021451,-18.759207,48.64037,51.289513,10.837229,8.42675,-1.1758602
231,-5.565486431121826,-39.67127990722656,77.0915756225586,5.453835431706543,-7.7214646488626615,-107.08514273333208,-2.1758182,-2.8161743,3.3725061,11.469579,-1.9380949,-4.693252,10.982701,-12.272342,-0.35763833,36.42584,-24.424623,8.801919,4.150447,-3.72719,15.383979,-5.529012,19.13876,-58.71287,61.66048,-11.695514,4.1713004,-4.1523433,-0.7698282,-19.003796,48.722027,51.107872,10.850427,8.316516,-1.2156416
232,-5.423169136047363,-39.98261260986328,77.10375213623047,5.67403442392233,-7.855874963342244,-107.53373180609111,-1.5130552,-3.113196,3.8416781,11.101756,-2.061539,-4.3857503,10.167788,-12.664145,0.32788765,38.675728,-24.122055,8.938589,4.1530433,-3.9413843,15.53208,-5.6526194,19.19533,-58.76832,61.60865,-11.538645,4.1474886,-4.0908403,-0.73749506,-19.247156,48.75216,50.926292,10.837108,8.218122,-1.2599213
233,-5.285024642944336,-40.288169860839844,77.10997772216797,5.89741299018621,-8.020968528762427,-107.96993161835653,-0.8242757,-3.4210052,4.286504,10.727801,-2.180609,-4.0965767,9.339387,-13.040671,1.0049398,41.00093,-23.738031,9.022776,4.143962,-4.164667,15.72845,-5.8064575,19.274336,-58.868412,61.54459,-11.4358015,4.1457353,-4.0257335,-0.7127673,-19.484974,48.733166,50.75485,10.777006,8.126003,-1.3090007
234,-5.157192707061768,-40.587581634521484,77.10916137695312,6.125554863471422,-8.208150269514261,-108.39485783412,-0.1140738,-3.740344,4.7105293,10.339965,-2.2902348,-3.8184419,8.48374,-13.400309,1.679059,43.41022,-23.282106,9.061882,4.1239076,-4.3995247,15.962068,-5.986636,19.376024,-59.009483,61.467896,-11.375494,4.1539755,-3.9529328,-0.70155513,-19.714973,48.68475,50.594902,10.667596,8.037189,-1.3636229
235,-5.03514289855957,-40.87522888183594,77.10330200195312,6.351116141102959,-8.413845839173309,-108.8042108561567,0.6174873,-4.065736,5.1085796,9.932999,-2.3876326,-3.5528696,7.6314807,-13.750478,2.3050127,45.83209,-22.787558,9.076093,4.091145,-4.63761,16.221434,-6.192106,19.500553,-59.19133,61.3782,-11.359286,4.1677356,-3.8924196,-0.6883766,-19.9336,48.58408,50.439445,10.555203,7.9653177,-1.4227598
236,-4.923485279083252,-41.164337158203125,77.094482421875,6.569131573717897,-8.634725321745131,-109.1931629218185,1.3541373,-4.390754,5.477106,9.533083,-2.486472,-3.3008962,6.8138757,-14.098559,2.8352962,48.191196,-22.284496,9.082523,4.045299,-4.8715286,16.494928,-6.4233294,19.647707,-59.416405,61.275993,-11.390112,4.1828423,-3.863781,-0.65725994,-20.13725,48.406155,50.28279,10.484995,7.924301,-1.485059
237,-4.809521198272705,-41.44580841064453,77.07950592041016,6.792853930679815,-8.878714175452753,-109.57134865878886,2.1139247,-4.7292447,5.8241506,9.12151,-2.5786788,-3.0594206,6.0254173,-14.460763,3.290229,50.514477,-21.788473,9.079354,3.993278,-5.112914,16.792181,-6.6792483,19.817871,-59.679028,61.15227,-11.493975,4.2032156,-3.8783529,-0.6065757,-20.32246,48.134125,50.12381,10.461635,7.9301906,-1.5505856
238,-4.70643949508667,-41.72060012817383,77.06425476074219,7.019888831738469,-9.144441165561656,-109.93786073764731,2.8947806,-5.078509,6.1482983,8.699714,-2.6643033,-2.8290544,5.250346,-14.837168,3.6866276,52.83233,-21.282469,9.050892,3.9336123,-5.3619885,17.11427,-6.961537,20.011099,-59.983894,61.009678,-11.663616,4.2296185,-3.923658,-0.54649746,-20.487585,47.784454,49.970913,10.462911,7.971133,-1.6196285
239,-4.604058742523193,-41.993160247802734,77.04480743408203,7.2243438978317265,-9.4150658650608,-110.27203535304292,3.667157,-5.409101,6.432273,8.288806,-2.7496943,-2.6153076,4.50124,-15.213611,3.9737587,55.083668,-20.753359,8.989531,3.853403,-5.594329,17.437517,-7.2712293,20.225199,-60.34168,60.864132,-11.843649,4.2529488,-3.9838908,-0.4741397,-20.631386,47.3808,49.826824,10.494719,8.01899,-1.6918837
240,-4.513020992279053,-42.27058029174805,77.0306167602539,7.380097013779856,-9.672840073719257,-110.55372842208644,4.3963065,-5.6914287,6.6609907,7.920203,-2.8466604,-2.422942,3.7906852,-15.578493,4.1007233,57.20733,-20.186073,8.885819,3.739359,-5.786198,17.737883,-7.611753,20.456175,-60.765587,60.7348,-11.982004,4.2638183,-4.043206,-0.38778484,-20.753567,46.947533,49.69576,10.562492,8.045402,-1.766975
