unveil-humanoid-operators/unveil-humanoid-operators.github.io/feature-analysis-animation/data/feature_matrix_instances/height_root_translate_rom_walking_turning_A519.csv
Frame,root_translateX,root_translateY,root_translateZ,root_rotateX,root_rotateY,root_rotateZ,left_hip_pitch_joint_dof,left_hip_roll_joint_dof,left_hip_yaw_joint_dof,left_knee_joint_dof,left_ankle_pitch_joint_dof,left_ankle_roll_joint_dof,right_hip_pitch_joint_dof,right_hip_roll_joint_dof,right_hip_yaw_joint_dof,right_knee_joint_dof,right_ankle_pitch_joint_dof,right_ankle_roll_joint_dof,waist_yaw_joint_dof,waist_roll_joint_dof,waist_pitch_joint_dof,left_shoulder_pitch_joint_dof,left_shoulder_roll_joint_dof,left_shoulder_yaw_joint_dof,left_elbow_joint_dof,left_wrist_roll_joint_dof,left_wrist_pitch_joint_dof,left_wrist_yaw_joint_dof,right_shoulder_pitch_joint_dof,right_shoulder_roll_joint_dof,right_shoulder_yaw_joint_dof,right_elbow_joint_dof,right_wrist_roll_joint_dof,right_wrist_pitch_joint_dof,right_wrist_yaw_joint_dof
0,1.1444108486175537,0.2054111808538437,77.90011596679688,1.8577278769549723,8.753938866717055,176.98320234368308,-24.358313,-4.1424093,3.0451584,18.525084,-1.3029807,2.6647806,-23.482212,-13.656798,-23.19122,45.546543,-15.416147,0.63811946,0.22652397,-0.7384915,29.793802,-13.632761,11.423993,-37.400818,43.32529,2.8761277,5.287094,52.800587,-15.253456,-10.565817,30.178473,39.497383,-13.078463,11.461729,-62.208336
1,1.1441502571105957,0.20556484162807465,77.90032958984375,1.8671180715197355,8.758922010362923,176.96167764756873,-24.366291,-4.138192,3.0739481,18.543066,-1.3084525,2.6855474,-23.496237,-13.654333,-23.166,45.552532,-15.415666,0.64320654,0.22027957,-0.7448895,29.793802,-13.650658,11.400817,-37.41636,43.363987,2.880856,5.266591,52.834297,-15.262528,-10.544002,30.190094,39.495228,-13.070781,11.486006,-62.247486
2,1.14007568359375,0.2119089961051941,77.90133666992188,1.8764369491178863,8.764159175118284,176.9404222509125,-24.374947,-4.134049,3.10321,18.562086,-1.3141851,2.7073674,-23.510002,-13.651543,-23.140762,45.55758,-15.415214,0.6488521,0.21428779,-0.75118697,29.793802,-13.668829,11.378954,-37.43389,43.402283,2.883256,5.2426944,52.869625,-15.27339,-10.521706,30.201448,39.49387,-13.059235,11.509979,-62.28848
3,1.1331279277801514,0.21780012547969818,77.903076171875,1.8858369663719816,8.768967326666822,176.91869099720338,-24.38168,-4.1298013,3.1315422,18.57835,-1.3191241,2.727081,-23.523888,-13.649057,-23.115614,45.563972,-15.414401,0.65337133,0.20814036,-0.75836134,29.793802,-13.684322,11.357291,-37.44842,43.438564,2.8894744,5.225429,52.901863,-15.282799,-10.498017,30.213009,39.49429,-13.055574,11.533989,-62.325943
4,1.1272220611572266,0.22515906393527985,77.90400695800781,1.8950499611971092,8.774353753146519,176.89573538484896,-24.38496,-4.1248436,3.1576467,18.58691,-1.3215692,2.7414997,-23.540344,-13.647053,-23.090956,45.57492,-15.412963,0.65471274,0.20308456,-0.76576567,29.793802,-13.6777725,11.350654,-37.454777,43.444294,2.9063592,5.2257166,52.92302,-15.269966,-10.4904175,30.223585,39.470966,-13.070234,11.558177,-62.3497
5,1.120424509048462,0.2335653007030487,77.90367889404297,1.9046876356927749,8.776386321501127,176.87012107058464,-24.380442,-4.119265,3.1813989,18.587915,-1.3228031,2.747691,-23.55578,-13.646036,-23.066118,45.591816,-15.411071,0.65104765,0.19675367,-0.7775664,29.793802,-13.669397,11.334919,-37.44955,43.456886,2.936538,5.2512183,52.93601,-15.257107,-10.472757,30.242308,39.462906,-13.111062,11.58583,-62.366234
6,1.1148613691329956,0.24109458923339844,77.90293884277344,1.9140489118016801,8.77857633100018,176.84245869966395,-24.371717,-4.1127186,3.2033894,18.580616,-1.3213505,2.7479692,-23.573172,-13.645053,-23.041483,45.612694,-15.408351,0.6435345,0.19763114,-0.78709155,29.793802,-13.647738,11.328886,-37.44362,43.447987,2.9733014,5.295627,52.93763,-15.228536,-10.466202,30.251684,39.443447,-13.171492,11.6130085,-62.36741
7,1.111241102218628,0.24942955374717712,77.9007339477539,1.9233791591645335,8.77971184537004,176.81590629638612,-24.361044,-4.106784,3.2236733,18.571804,-1.3195516,2.747437,-23.589243,-13.644514,-23.017645,45.633785,-15.404668,0.6363808,0.18714069,-0.802579,29.793802,-13.621533,11.315561,-37.419212,43.445477,3.0247269,5.3428535,52.93885,-15.198285,-10.452539,30.274986,39.423252,-13.240896,11.640891,-62.370632
8,1.1079360246658325,0.2550315856933594,77.90223693847656,1.9315554429220712,8.783120265024245,176.79291369924505,-24.353823,-4.1013865,3.2420866,18.563828,-1.3163198,2.7510095,-23.60525,-13.643018,-22.99582,45.65057,-15.398942,0.6331859,0.17122388,-0.81483173,29.793802,-13.59367,11.299922,-37.393097,43.442844,3.0779455,5.3770704,52.943005,-15.177596,-10.4366455,30.295677,39.409454,-13.304121,11.658861,-62.372368
9,1.1016693115234375,0.26037901639938354,77.90193176269531,1.9389556055124448,8.789729159093836,176.77411683481495,-24.351439,-4.0974293,3.2594166,18.558023,-1.3118006,2.7616093,-23.621014,-13.640762,-22.975784,45.66082,-15.389992,0.6362533,0.15097879,-0.8245521,29.793802,-13.561489,11.284018,-37.36842,43.4375,3.1337702,5.3914523,52.95214,-15.158296,-10.4201355,30.31161,39.391186,-13.362372,11.667091,-62.373577
10,1.0990301370620728,0.2651577591896057,77.90494537353516,1.9455451673779354,8.798911898543725,176.7580074917727,-24.351562,-4.0942125,3.275362,18.551449,-1.3055358,2.7759979,-23.637323,-13.637947,-22.957094,45.667194,-15.378757,0.64316064,0.1313096,-0.8321358,29.793802,-13.520787,11.272765,-37.347782,43.420757,3.1924841,5.3967214,52.963703,-15.130421,-10.408532,30.321308,39.358925,-13.421205,11.669312,-62.371666
11,1.091221809387207,0.2707475423812866,77.90855407714844,1.9507520131643437,8.809499329225897,176.7445858541878,-24.354515,-4.0905514,3.2886248,18.545795,-1.298884,2.7900996,-23.653688,-13.633613,-22.940775,45.67115,-15.365853,0.65031767,0.11479669,-0.835579,29.793802,-13.4782715,11.26865,-37.337605,43.39626,3.2455692,5.400557,52.9776,-15.097736,-10.404407,30.324017,39.318317,-13.475289,11.663646,-62.366932
12,1.0864510536193848,0.27783089876174927,77.911865234375,1.9542792604861863,8.818063577103121,176.73360075417793,-24.358273,-4.0853124,3.2981584,18.543873,-1.2947013,2.7998717,-23.668444,-13.628053,-22.927534,45.676483,-15.353558,0.6543918,0.08720779,-0.8403147,29.793802,-13.43558,11.256709,-37.309536,43.379738,3.3071604,5.41113,52.99125,-15.069906,-10.392279,30.333036,39.284946,-13.530696,11.651484,-62.36334
13,1.0850704908370972,0.28831592202186584,77.91102600097656,1.9553589557363606,8.825296867914009,176.72666427525465,-24.364975,-4.077976,3.3015404,18.547493,-1.2937258,2.8034728,-23.68147,-13.619914,-22.918179,45.68201,-15.340284,0.65498084,0.06566323,-0.83848256,29.793802,-13.404997,11.253984,-37.304,43.369102,3.355209,5.4399657,53.007145,-15.0484,-10.389582,30.333183,39.258293,-13.571346,11.622512,-62.35759
14,1.0838191509246826,0.29562580585479736,77.91032409667969,1.9548140346960174,8.830982206688855,176.72318818948256,-24.37253,-4.069577,3.3002367,18.553787,-1.2940735,2.8033893,-23.692532,-13.610095,-22.911743,45.68748,-15.32629,0.65389544,0.04028488,-0.83481336,29.793802,-13.369003,11.249962,-37.296394,43.35618,3.4099529,5.481225,53.02552,-15.021684,-10.385692,30.330973,39.2273,-13.610859,11.582273,-62.351654
15,1.0826218128204346,0.3018193542957306,77.91107177734375,1.952973479851461,8.837099351120695,176.72037584818045,-24.38279,-4.059776,3.298159,18.563084,-1.2960622,2.8017344,-23.704191,-13.599489,-22.907875,45.693157,-15.313524,0.65036947,0.0141296,-0.830358,29.793802,-13.331374,11.244241,-37.282326,43.34069,3.463723,5.513107,53.04595,-14.991325,-10.380249,30.325983,39.192978,-13.656612,11.544194,-62.344543
16,1.0816205739974976,0.3114818334579468,77.91368103027344,1.9505134556372297,8.846077659310442,176.71527774076475,-24.397707,-4.048217,3.299336,18.575182,-1.2990118,2.800672,-23.718431,-13.588828,-22.906185,45.69753,-15.3032255,0.6436332,-0.011571174,-0.8271723,29.793802,-13.31078,11.228802,-37.256508,43.338497,3.4985685,5.510678,53.066597,-14.978479,-10.365742,30.324354,39.17526,-13.705983,11.521391,-62.33662
17,1.081446647644043,0.31789228320121765,77.91404724121094,1.9466118810016775,8.859569130652183,176.70585868257643,-24.418272,-4.0328836,3.306448,18.589188,-1.303851,2.799178,-23.737856,-13.577737,-22.907722,45.701912,-15.296339,0.6313001,-0.029578997,-0.8231725,29.793802,-13.29358,11.2170515,-37.230576,43.325584,3.4997673,5.452482,53.092346,-14.96578,-10.35484,30.326841,39.151627,-13.757608,11.5225315,-62.328484
18,1.0801464319229126,0.32210400700569153,77.91588592529297,1.9413507172288853,8.876586299223208,176.6941212329259,-24.443844,-4.014625,3.3168137,18.605274,-1.3103563,2.7966716,-23.760902,-13.565474,-22.912424,45.70479,-15.2911005,0.61449814,-0.039447486,-0.8165981,29.793802,-13.277648,11.212426,-37.210728,43.299614,3.4733143,5.3568225,53.122498,-14.946063,-10.3504925,30.327805,39.115192,-13.810429,11.539065,-62.318764
19,1.0818020105361938,0.3285064995288849,77.915771484375,1.9363506340396206,8.894797939342938,176.68319249147615,-24.473358,-3.9974034,3.3263469,18.625051,-1.3165402,2.7958002,-23.785072,-13.554135,-22.917725,45.70757,-15.288174,0.5976968,-0.05994317,-0.8142502,29.793802,-13.263476,11.201637,-37.16619,43.277283,3.4531472,5.261551,53.14974,-14.936356,-10.340384,30.339354,39.086563,-13.865264,11.560128,-62.31019
20,1.0846089124679565,0.33738696575164795,77.91250610351562,1.9330762201911946,8.913310308838147,176.6763003425275,-24.50775,-3.984721,3.331004,18.650984,-1.3208765,2.79916,-23.809467,-13.544851,-22.921412,45.710064,-15.287018,0.585085,-0.080517426,-0.81251836,29.793802,-13.248133,11.193135,-37.125786,43.24972,3.4435098,5.2080455,53.17968,-14.926907,-10.332729,30.350054,39.05732,-13.916606,11.574811,-62.305954
21,1.0881248712539673,0.3460234999656677,77.91088104248047,1.9331074107209187,8.933142489522286,176.673458149471,-24.548983,-3.97874,3.3297312,18.685345,-1.3220038,2.8090832,-23.836075,-13.538613,-22.92056,45.71358,-15.287266,0.57814556,-0.09742082,-0.8120402,29.793802,-13.234723,11.188193,-37.097466,43.216965,3.4469395,5.2154655,53.21491,-14.910877,-10.328865,30.354767,39.01934,-13.962084,11.581494,-62.30729
22,1.0907230377197266,0.3541502058506012,77.90777587890625,1.9351968621025197,8.954256791227923,176.67328248685897,-24.595188,-3.9773712,3.3247082,18.724855,-1.3200786,2.8236907,-23.864717,-13.53458,-22.916945,45.717926,-15.28933,0.5746299,-0.12654571,-0.8167697,29.793802,-13.220899,11.17745,-37.047752,43.185513,3.469886,5.258599,53.24876,-14.902528,-10.322212,30.36985,38.985073,-14.005639,11.586215,-62.312435
23,1.0934529304504395,0.3589218556880951,77.90618896484375,1.9368639854641636,8.974684796395866,176.67677329079547,-24.644426,-3.9771204,3.3163657,18.769295,-1.3196976,2.8390276,-23.890581,-13.530961,-22.916378,45.71974,-15.293509,0.5727409,-0.13981842,-0.81482786,29.793802,-13.21288,11.174059,-37.02771,43.15128,3.4783757,5.3128166,53.28799,-14.889889,-10.3205595,30.37118,38.951565,-14.045225,11.586138,-62.319935
24,1.0957690477371216,0.36422646045684814,77.90340423583984,1.9357411448808666,8.992092940521943,176.6850027723787,-24.694214,-3.9749079,3.3052197,18.819176,-1.3258741,2.851354,-23.908972,-13.526454,-22.923683,45.718166,-15.301741,0.57122463,-0.18233626,-0.8168527,29.793802,-13.192179,11.157758,-36.944653,43.12243,3.5179172,5.3534904,53.307346,-14.887778,-10.314914,30.39725,38.927578,-14.097169,11.58496,-62.323006
25,1.0987739562988281,0.3678227365016937,77.90105438232422,1.929858232168411,9.005934293341964,176.69689206274776,-24.745296,-3.9673464,3.2926047,18.877708,-1.3437968,2.8598146,-23.917109,-13.518351,-22.941746,45.70957,-15.314799,0.56809264,-0.2112888,-0.8081637,29.793802,-13.1745825,11.142149,-36.874863,43.098602,3.5443347,5.3743587,53.323402,-14.883487,-10.310599,30.414759,38.913128,-14.156189,11.577466,-62.327297
26,1.1031638383865356,0.37362051010131836,77.89657592773438,1.9210096584549716,9.016992979188986,176.7127463369817,-24.797852,-3.9572074,3.2775092,18.943027,-1.3691154,2.8664527,-23.917543,-13.508266,-22.96755,45.69599,-15.331963,0.56474566,-0.24463968,-0.7951988,29.793802,-13.156881,11.122119,-36.79009,43.082,3.5760105,5.386908,53.330814,-14.886301,-10.306121,30.437155,38.911495,-14.221181,11.564567,-62.331573
27,1.1118247509002686,0.38142144680023193,77.88959503173828,1.9122706804912788,9.026142242904442,176.73391753592418,-24.850796,-3.949487,3.2583346,19.010662,-1.3942981,2.8714561,-23.914629,-13.500468,-22.996916,45.682316,-15.350875,0.5642522,-0.28652003,-0.7826396,29.793802,-13.140888,11.093623,-36.691833,43.073288,3.6130695,5.396857,53.334904,-14.8979225,-10.300176,30.467314,38.91968,-14.281771,11.551835,-62.334866
28,1.1200419664382935,0.3872377574443817,77.88373565673828,1.9069839324627953,9.034302312074535,176.76191421565966,-24.903008,-3.9490683,3.2331784,19.075129,-1.4110289,2.8750715,-23.914015,-13.4997425,-23.025503,45.676674,-15.370374,0.569527,-0.33375564,-0.77388775,29.793802,-13.128808,11.062124,-36.59592,43.067,3.6474514,5.4101267,53.341335,-14.914948,-10.293729,30.497036,38.929996,-14.330371,11.543953,-62.33356
29,1.128076434135437,0.3922198414802551,77.876708984375,1.9061782760239903,9.040251526951728,176.79673665149627,-24.954844,-3.9572303,3.201118,19.138971,-1.4167523,2.877341,-23.914286,-13.506217,-23.050797,45.67742,-15.389992,0.58487976,-0.3869449,-0.77150977,29.793802,-13.113445,11.029123,-36.490784,43.055256,3.6767197,5.420905,53.34915,-14.938386,-10.286862,30.53235,38.946312,-14.368572,11.537094,-62.32591
30,1.138899564743042,0.39676278829574585,77.86964416503906,1.9081639945643436,9.043822711338658,176.83770993288266,-25.006191,-3.971703,3.1633244,19.203278,-1.4156475,2.878149,-23.914095,-13.518266,-23.075218,45.683765,-15.411477,0.6076134,-0.45175493,-0.7738934,29.793802,-13.099838,10.987769,-36.368053,43.0496,3.7054513,5.4279513,53.355648,-14.972489,-10.277111,30.579687,38.974262,-14.398684,11.530814,-62.31507
31,1.1470630168914795,0.40219229459762573,77.86678314208984,1.9116788658923887,9.04646576548622,176.88544473326445,-25.05543,-3.991039,3.1210399,19.262482,-1.4110024,2.8773997,-23.914036,-13.535893,-23.103241,45.694923,-15.432658,0.63027453,-0.53089476,-0.7778738,29.793802,-13.104661,10.925079,-36.24271,43.073936,3.7479713,5.4435353,53.364147,-15.028689,-10.260777,30.632318,39.019176,-14.412009,11.533722,-62.304947
32,1.156618356704712,0.40601104497909546,77.862060546875,1.9156048872362794,9.054128756838427,176.9406378285639,-25.10375,-4.014227,3.075472,19.306671,-1.4032825,2.8749886,-23.92088,-13.559627,-23.138983,45.713764,-15.452696,0.6450055,-0.60624313,-0.77967536,29.793802,-13.105179,10.889504,-36.168255,43.075207,3.7945333,5.4852676,53.376884,-15.082592,-10.253265,30.657036,39.042583,-14.406384,11.55306,-62.29061
33,1.1670281887054443,0.4060719609260559,77.85452270507812,1.91876832289576,9.063668182574013,177.00914948920735,-25.14815,-4.0429096,3.0229008,19.33495,-1.3947726,2.8687353,-23.931507,-13.59192,-23.187899,45.743538,-15.472312,0.6498232,-0.7113382,-0.7788049,29.793802,-13.133076,10.832713,-36.11315,43.117622,3.874757,5.561154,53.393616,-15.169482,-10.242998,30.684162,39.072384,-14.362057,11.599183,-62.280235
34,1.1805639266967773,0.40958672761917114,77.84654235839844,1.9224640494300997,9.076611047138012,177.08885189784837,-25.192055,-4.077188,2.964092,19.350956,-1.3832717,2.8593872,-23.947342,-13.632082,-23.246355,45.78263,-15.491742,0.648567,-0.82313794,-0.7761142,29.793802,-13.159236,10.79406,-36.098442,43.14686,3.965066,5.665228,53.41396,-15.260974,-10.238546,30.692959,39.085342,-14.293564,11.66426,-62.266994
35,1.188490629196167,0.41259750723838806,77.83918762207031,1.9273849040161628,9.090716510205295,177.16788036474375,-25.232893,-4.1128387,2.9066734,19.358875,-1.36916,2.851476,-23.965994,-13.674531,-23.304478,45.824448,-15.509921,0.64378226,-0.934409,-0.77150154,29.793802,-13.219301,10.721775,-36.08945,43.22301,4.065868,5.771414,53.437046,-15.363569,-10.235038,30.696867,39.10923,-14.215356,11.734682,-62.25484
36,1.1942700147628784,0.4167148768901825,77.8335952758789,1.9351533569904966,9.109666082464157,177.23446324733501,-25.273472,-4.1463637,2.8586595,19.360683,-1.3508412,2.8494484,-23.991858,-13.714146,-23.352129,45.863693,-15.525463,0.6372761,-1.0318547,-0.7743756,29.793802,-13.262486,10.667708,-36.074184,43.26719,4.153765,5.8614287,53.456223,-15.4575405,-10.238284,30.699411,39.13233,-14.144664,11.7955885,-62.240116
37,1.1978262662887573,0.4196878969669342,77.83238983154297,1.945981031736241,9.134884204918892,177.28598007251705,-25.315704,-4.1770763,2.8211591,19.358362,-1.3277129,2.8567288,-24.026524,-13.750373,-23.388407,45.89961,-15.537315,0.6290096,-1.1168787,-0.7860524,29.793802,-13.298049,10.620701,-36.04431,43.290314,4.228536,5.931418,53.470177,-15.549408,-10.246601,30.705374,39.16722,-14.087055,11.852109,-62.22459
38,1.201760172843933,0.42350658774375916,77.82836151123047,1.9588679855153164,9.163931946455836,177.32866317289455,-25.357111,-4.206747,2.7899792,19.349201,-1.3001031,2.8702157,-24.067303,-13.785638,-23.41823,45.93483,-15.546159,0.61809146,-1.1950462,-0.79869324,29.793802,-13.355955,10.548619,-36.005424,43.339157,4.3040113,5.989771,53.482334,-15.638443,-10.266699,30.713333,39.204872,-14.030851,11.909911,-62.20958
39,1.2057101726531982,0.42374953627586365,77.82582092285156,1.974135529593314,9.194424697864777,177.36367563677447,-25.394732,-4.2352834,2.7659097,19.333307,-1.2701286,2.8846269,-24.111387,-13.81925,-23.439835,45.96885,-15.554611,0.60569704,-1.2621143,-0.8142525,29.793802,-13.407609,10.481874,-35.966553,43.379463,4.3745894,6.0374904,53.494667,-15.718947,-10.2933,30.71801,39.23558,-13.970914,11.953368,-62.19205
40,1.210140347480774,0.42633163928985596,77.82415771484375,1.9920364164920203,9.223197728352194,177.39228940131125,-25.425232,-4.2628546,2.7497964,19.310455,-1.2395629,2.8947244,-24.155603,-13.8505335,-23.451036,46.001495,-15.565155,0.59308976,-1.3207952,-0.83672875,29.793802,-13.429493,10.444785,-35.929264,43.38642,4.435761,6.074762,53.509045,-15.798068,-10.312873,30.721174,39.26463,-13.9026,11.966979,-62.171337
41,1.2140611410140991,0.43083423376083374,77.82030487060547,2.013407390686208,9.249985975478031,177.41323851750087,-25.447369,-4.289695,2.7438602,19.27945,-1.2082105,2.8986847,-24.201584,-13.879651,-23.448185,46.035072,-15.578855,0.580444,-1.3707352,-0.8561682,29.793802,-13.468076,10.377622,-35.879276,43.435043,4.5080657,6.0931587,53.527615,-15.8554945,-10.354681,30.732277,39.26362,-13.807078,11.935141,-62.148296
42,1.216667890548706,0.4358518421649933,77.8193130493164,2.0381165681459494,9.27680265412978,177.42635326778512,-25.462593,-4.315685,2.7470694,19.238937,-1.174488,2.89937,-24.250582,-13.90688,-23.433239,46.068,-15.593707,0.56714535,-1.4052948,-0.8773661,29.793802,-13.503688,10.312159,-35.83344,43.485455,4.577473,6.097364,53.549656,-15.898973,-10.404161,30.737719,39.24767,-13.697867,11.868752,-62.121647
43,1.2189666032791138,0.44083306193351746,77.81745147705078,2.0630249376799457,9.300446649055324,177.4349323644062,-25.47286,-4.339729,2.7543297,19.19842,-1.1428205,2.8989127,-24.295631,-13.931152,-23.413881,46.09799,-15.6101675,0.5535152,-1.4307524,-0.89667016,29.793802,-13.532787,10.24884,-35.788,43.53272,4.639069,6.0946674,53.57244,-15.928793,-10.459552,30.739046,39.21787,-13.590898,11.799471,-62.092598
44,1.2164723873138428,0.44556137919425964,77.8165283203125,2.0855501512630044,9.317572036845158,177.44216844057794,-25.478064,-4.3607655,2.7607057,19.163973,-1.1161133,2.8993738,-24.328123,-13.951427,-23.397896,46.119705,-15.626859,0.5398168,-1.4518017,-0.91347957,29.793802,-13.54316,10.1987,-35.742817,43.559265,4.6849694,6.093436,53.59357,-15.953291,-10.506829,30.733284,39.187725,-13.505366,11.757894,-62.062263
45,1.2135372161865234,0.4504410922527313,77.8167495727539,2.1051540602995202,9.32467563281772,177.44767456647654,-25.475077,-4.378585,2.7652938,19.138664,-1.0976907,2.8990273,-24.342657,-13.967569,-23.386227,46.132298,-15.645615,0.5262768,-1.4654678,-0.92235166,29.793802,-13.547951,10.14398,-35.697155,43.5853,4.7076387,6.093301,53.613197,-15.9590025,-10.558333,30.715532,39.140717,-13.442781,11.759533,-62.027897
46,1.2131009101867676,0.4553156793117523,77.81580352783203,2.1235594952942156,9.324123359443286,177.4500413812578,-25.463785,-4.3940797,2.770803,19.116703,-1.0841691,2.8975267,-24.344622,-13.980262,-23.374895,46.137714,-15.666066,0.5126898,-1.4752461,-0.933385,29.793802,-13.5259695,10.109044,-35.64914,43.582794,4.7098393,6.0924945,53.632347,-15.970368,-10.590388,30.68901,39.10725,-13.399596,11.7841425,-61.991047
47,1.212864875793457,0.4595789611339569,77.81680297851562,2.139737994242803,9.321805216898467,177.45150496356425,-25.452776,-4.4066634,2.7767649,19.100117,-1.0729382,2.8990726,-24.341888,-13.98924,-23.364964,46.138367,-15.685684,0.49900293,-1.4791495,-0.93665284,29.793802,-13.513005,10.061788,-35.602024,43.59603,4.7149086,6.0888925,53.650646,-15.963314,-10.631515,30.662497,39.05693,-13.366736,11.814725,-61.95654
48,1.2123523950576782,0.4677867591381073,77.81343078613281,2.153292971099075,9.323707207925995,177.4541088760828,-25.451067,-4.416273,2.783095,19.09199,-1.0623354,2.907823,-24.343784,-13.995205,-23.356686,46.138515,-15.702736,0.48505652,-1.4784024,-0.93489116,29.793802,-13.506651,10.013744,-35.563667,43.61568,4.73671,6.0840607,53.668743,-15.9486885,-10.671539,30.640377,39.00546,-13.345322,11.831706,-61.93047
49,1.2129178047180176,0.474474161863327,77.8117446899414,2.1648129999771673,9.330694375088616,177.45601229488227,-25.459019,-4.422459,2.7935896,19.091045,-1.0513854,2.9278815,-24.351454,-13.997288,-23.347778,46.136497,-15.717235,0.47057748,-1.4761821,-0.9386865,29.793802,-13.474067,10.000839,-35.535965,43.597897,4.776609,6.080876,53.686886,-15.951448,-10.68199,30.627632,38.98778,-13.338575,11.82343,-61.917156
50,1.2101439237594604,0.4811432361602783,77.8147964477539,2.173953221693923,9.340335305990676,177.45699760136284,-25.47384,-4.4250464,2.8068738,19.098776,-1.0423428,2.956057,-24.361189,-13.995406,-23.338955,46.13242,-15.7303295,0.45560092,-1.475469,-0.9358447,29.793802,-13.450765,9.972443,-35.49348,43.598354,4.8455987,6.074464,53.698605,-15.942417,-10.704432,30.625196,38.95911,-13.3404665,11.803252,-61.907574
51,1.2105462551116943,0.48851287364959717,77.81561279296875,2.179915180211983,9.351924649280052,177.46119590602606,-25.494879,-4.425815,2.8157794,19.112179,-1.0332631,2.9855242,-24.371769,-13.991221,-23.334864,46.12649,-15.739856,0.44082877,-1.4719131,-0.9272687,29.793802,-13.435104,9.944864,-35.46553,43.603817,4.911043,6.0667567,53.71281,-15.921884,-10.724884,30.62557,38.922325,-13.353752,11.786017,-61.90517
52,1.2120580673217773,0.49308812618255615,77.8178939819336,2.181971592431729,9.365368074840749,177.47281296482902,-25.522413,-4.4264016,2.8132818,19.128725,-1.021952,3.0095854,-24.383968,-13.987187,-23.339865,46.121826,-15.744664,0.42674562,-1.4714528,-0.91144526,29.793802,-13.43266,9.917037,-35.451973,43.616047,4.958775,6.057339,53.728943,-15.888816,-10.74307,30.626734,38.871017,-13.379153,11.785936,-61.90657
53,1.2140026092529297,0.49866098165512085,77.8174057006836,2.179508971255568,9.381796831921115,177.4937769401085,-25.558287,-4.4274306,2.795599,19.148336,-1.0077091,3.0246694,-24.398846,-13.983217,-23.355824,46.11916,-15.74329,0.4125829,-1.4780084,-0.8921332,29.793802,-13.429558,9.90735,-35.45528,43.612926,4.9823117,6.0480022,53.74761,-15.852773,-10.747372,30.631567,38.811684,-13.415833,11.812519,-61.911278
54,1.2174535989761353,0.5049445033073425,77.81695556640625,2.172630612359887,9.400159166964178,177.52156886990738,-25.601028,-4.4276466,2.766988,19.171686,-0.99145603,3.0349762,-24.415302,-13.978235,-23.38044,46.11733,-15.737146,0.39838675,-1.4859909,-0.86415535,29.793802,-13.44601,9.889546,-35.47413,43.627415,4.993474,6.036992,53.770138,-15.801196,-10.752162,30.641855,38.733425,-13.460482,11.857386,-61.922314
55,1.2234230041503906,0.5130764842033386,77.81509399414062,2.1632739391491316,9.420021952369588,177.5537380471603,-25.648888,-4.4274287,2.732896,19.199097,-0.97462654,3.0452814,-24.432194,-13.973042,-23.41088,46.114643,-15.727591,0.38574556,-1.4991784,-0.8330937,29.793802,-13.461183,9.879333,-35.494926,43.63391,4.996825,6.0241385,53.789295,-15.746275,-10.751969,30.650534,38.65717,-13.526063,11.903036,-61.934826
56,1.2314112186431885,0.5207877159118652,77.81546783447266,2.1523366226300853,9.43878641573891,177.58760844239075,-25.696146,-4.4261246,2.6981483,19.227184,-0.95732206,3.0602176,-24.445545,-13.967563,-23.444885,46.10924,-15.716085,0.3762472,-1.5076221,-0.7993884,29.793802,-13.494331,9.861947,-35.52538,43.66194,4.9900017,6.006814,53.80822,-15.68052,-10.748114,30.647846,38.585743,-13.621212,11.936282,-61.952694
57,1.2358169555664062,0.5270394682884216,77.81597137451172,2.138917118556307,9.45766493791383,177.6230739329806,-25.74546,-4.4228473,2.6630414,19.25877,-0.94042265,3.0828476,-24.456665,-13.961024,-23.482555,46.100655,-15.701199,0.37147212,-1.5218631,-0.7634243,29.793802,-13.525877,9.848501,-35.54707,43.68692,4.9749546,5.980064,53.820225,-15.615071,-10.741027,30.637962,38.537075,-13.761792,11.947949,-61.973034
58,1.241038203239441,0.5348114967346191,77.81816864013672,2.1227594024699736,9.477781862531074,177.66124536809687,-25.798138,-4.4180665,2.6252527,19.293201,-0.92310876,3.1100864,-24.466696,-13.953432,-23.525162,46.08885,-15.682278,0.3701322,-1.550716,-0.7240288,29.793802,-13.544815,9.845386,-35.55575,43.693935,4.9524794,5.9460993,53.825974,-15.555361,-10.73723,30.635654,38.50387,-13.930406,11.947627,-61.99524
59,1.248384714126587,0.5405675768852234,77.8228530883789,2.106597605070708,9.496555549624134,177.7018539673664,-25.849983,-4.414085,2.5862496,19.327183,-0.9047063,3.1374192,-24.47433,-13.94719,-23.570993,46.077053,-15.664042,0.36968756,-1.5650787,-0.6863473,29.793802,-13.588315,9.836679,-35.58571,43.726406,4.9248743,5.9174256,53.831486,-15.468916,-10.721567,30.611315,38.45351,-14.119022,11.945033,-62.021324
60,1.25775945186615,0.5492319464683533,77.82332611083984,2.0931445459780105,9.514482030711404,177.74398353817728,-25.897305,-4.4130254,2.5476565,19.352043,-0.8822365,3.160343,-24.480982,-13.9440975,-23.61827,46.06593,-15.6494255,0.3673884,-1.5862664,-0.6509711,29.793802,-13.633313,9.830538,-35.611813,43.757458,4.907131,5.9027724,53.828953,-15.396287,-10.702482,30.587214,38.40626,-14.286065,11.9416,-62.0399
61,1.2709470987319946,0.5573891401290894,77.82231903076172,2.083409422506936,9.532058191676269,177.79022540520086,-25.940279,-4.4169507,2.5084522,19.365772,-0.8529528,3.177729,-24.487906,-13.946976,-23.668728,46.0597,-15.642053,0.36190107,-1.6234587,-0.61955106,29.793802,-13.670882,9.8294,-35.62568,43.77653,4.914225,5.9155536,53.812073,-15.325066,-10.690811,30.576767,38.337944,-14.418943,11.941628,-62.05204
62,1.2820135354995728,0.5667808651924133,77.82147216796875,2.075875435951452,9.54755840494731,177.83999977608158,-25.980541,-4.4242263,2.4684381,19.375532,-0.8209841,3.1918821,-24.492134,-13.95359,-23.72262,46.054688,-15.63838,0.35489812,-1.6519275,-0.59282374,29.793802,-13.725055,9.830404,-35.657963,43.809547,4.927289,5.9471602,53.78865,-15.258807,-10.655922,30.545319,38.2778,-14.549692,11.93972,-62.060406
63,1.2880135774612427,0.5743720531463623,77.82210540771484,2.0693943672916193,9.563362986445588,177.88853848318675,-26.017057,-4.431958,2.4297264,19.376911,-0.78612465,3.2038155,-24.496832,-13.960857,-23.776003,46.04927,-15.635653,0.3480747,-1.6919363,-0.5683576,29.793802,-13.77058,9.834696,-35.67613,43.831627,4.939625,5.9771624,53.764614,-15.188539,-10.627975,30.525822,38.20324,-14.6702175,11.938755,-62.06762
64,1.29685640335083,0.5819656252861023,77.82608032226562,2.0635442009027694,9.577528028721362,177.93064577353533,-26.047506,-4.4379077,2.3953376,19.372036,-0.7521165,3.214517,-24.49955,-13.965563,-23.824417,46.03908,-15.630174,0.3432912,-1.7265831,-0.55241585,29.793802,-13.810895,9.851402,-35.699154,43.845158,4.923175,5.9875674,53.75613,-15.15073,-10.563232,30.493292,38.178406,-14.807583,11.934547,-62.076164
65,1.3042843341827393,0.5879727005958557,77.82978057861328,2.057480326355631,9.592316225236742,177.96472309680354,-26.071846,-4.4407034,2.365749,19.35724,-0.7193794,3.2239296,-24.502686,-13.966578,-23.86749,46.023407,-15.621246,0.341117,-1.7614299,-0.5349067,29.793802,-13.84778,9.8647,-35.71177,43.853836,4.8776026,5.9636784,53.76561,-15.079143,-10.527704,30.467146,38.107086,-14.943462,11.93207,-62.087162
66,1.3131968975067139,0.5939944982528687,77.83292388916016,2.0523102593275553,9.605782432564789,177.9934620985668,-26.090578,-4.4422107,2.339874,19.33562,-0.68758786,3.231608,-24.504618,-13.966077,-23.906784,46.00525,-15.611407,0.34056467,-1.7900269,-0.5240816,29.793802,-13.876863,9.893219,-35.731197,43.848354,4.8042955,5.9205346,53.789467,-15.019956,-10.467556,30.4258,38.057114,-15.090969,11.926907,-62.099174
67,1.3243536949157715,0.6015542149543762,77.83370971679688,2.047240637554758,9.620218811737892,178.01913952141905,-26.107147,-4.4430323,2.3161545,19.307966,-0.6531364,3.2380514,-24.50745,-13.964154,-23.943623,45.98301,-15.598954,0.3407865,-1.8227844,-0.51653486,29.793802,-13.900295,9.928442,-35.74553,43.832863,4.7234187,5.8758836,53.81417,-14.9664955,-10.406205,30.391567,38.011368,-15.238307,11.923196,-62.108505
68,1.332189917564392,0.6075975894927979,77.83223724365234,2.041636734017054,9.637157913692297,178.04388826209137,-26.128649,-4.443451,2.2933443,19.282988,-0.6161833,3.2436864,-24.514544,-13.961854,-23.978548,45.96033,-15.584687,0.34079954,-1.8609846,-0.5115063,29.793802,-13.917355,9.972379,-35.756847,43.80537,4.649047,5.8490376,53.828888,-14.928989,-10.340623,30.368313,37.983135,-15.384817,11.922493,-62.110405
69,1.3429486751556396,0.613762617111206,77.8342514038086,2.034537760285429,9.657793019930525,178.06854829222638,-26.157778,-4.4429746,2.2703261,19.262968,-0.5752907,3.2482922,-24.52538,-13.957682,-24.013084,45.93291,-15.566731,0.34181464,-1.8995534,-0.49868703,29.793802,-13.953059,9.999157,-35.769917,43.79793,4.584345,5.842055,53.830833,-14.873455,-10.3055315,30.358465,37.93102,-15.52645,11.925779,-62.099926
70,1.3532378673553467,0.6170501708984375,77.83815002441406,2.0269576016750492,9.680393325030371,178.0917561072675,-26.188915,-4.4419966,2.2483315,19.241077,-0.52960044,3.2517288,-24.538486,-13.952638,-24.046124,45.902393,-15.546358,0.34374487,-1.9407728,-0.49070776,29.793802,-13.978016,10.0440035,-35.787228,43.770195,4.514217,5.848245,53.827168,-14.840954,-10.253919,30.352495,37.9107,-15.674747,11.929021,-62.08143
71,1.3653340339660645,0.6182514429092407,77.84478759765625,2.0196367410280844,9.704654279500238,178.11303961563152,-26.221155,-4.440959,2.2281835,19.217619,-0.48334482,3.2545745,-24.555935,-13.947586,-24.075783,45.87349,-15.52491,0.3441579,-1.9858332,-0.48486245,29.793802,-13.99617,10.09418,-35.797688,43.731503,4.4524217,5.8643346,53.81766,-14.817748,-10.201868,30.353865,37.894253,-15.8173275,11.936895,-62.060627
72,1.3776419162750244,0.6207026243209839,77.84705352783203,2.013228803205097,9.729610071190715,178.1319895328492,-26.251514,-4.4405737,2.2106736,19.188906,-0.43835127,3.2574363,-24.579294,-13.9438925,-24.100855,45.850758,-15.5041275,0.34044668,-2.0273392,-0.47500432,29.793802,-14.018639,10.13483,-35.80365,43.695507,4.4076424,5.8878374,53.804592,-14.790529,-10.16165,30.351994,37.85817,-15.943769,11.952448,-62.041878
73,1.3929390907287598,0.6212347149848938,77.84931945800781,2.007923293838835,9.754620972373708,178.15027759320964,-26.278406,-4.441555,2.1943336,19.152725,-0.3946568,3.2607074,-24.609016,-13.942713,-24.121923,45.838898,-15.485106,0.3301249,-2.0638857,-0.45908833,29.793802,-14.0506735,10.161606,-35.806484,43.667885,4.385658,5.925403,53.785145,-14.756885,-10.13476,30.344105,37.796932,-16.053862,11.982717,-62.026516
74,1.4074158668518066,0.6231508255004883,77.84806823730469,2.0038062714538167,9.77996430737953,178.16752597646789,-26.302498,-4.443699,2.1795163,19.10996,-0.35101095,3.26396,-24.644548,-13.943975,-24.13906,45.83525,-15.467257,0.31516072,-2.1025875,-0.4480931,29.793802,-14.06505,10.206931,-35.80566,43.61205,4.3751597,5.977861,53.75915,-14.749565,-10.088076,30.333551,37.75721,-16.158127,12.022002,-62.012787
75,1.4192912578582764,0.6237361431121826,77.84986877441406,1.999970930732496,9.806907402456128,178.18023619113646,-26.3267,-4.445158,2.1688223,19.064537,-0.30759132,3.2665884,-24.684189,-13.943997,-24.150879,45.83088,-15.4481535,0.29976553,-2.1364343,-0.43228737,29.793802,-14.093367,10.231428,-35.799988,43.57548,4.3758464,6.027638,53.73428,-14.731701,-10.061735,30.323774,37.69504,-16.247595,12.06034,-61.99858
76,1.434511423110962,0.6183050274848938,77.85335540771484,1.9965921546971166,9.83657115647707,178.18477349543681,-26.352716,-4.4447494,2.1653497,19.017748,-0.2636416,3.2679594,-24.728313,-13.94163,-24.154713,45.82252,-15.428206,0.28803736,-2.168071,-0.42188153,29.793802,-14.109008,10.260501,-35.78779,43.525894,4.3756857,6.0624175,53.71766,-14.732111,-10.029672,30.314936,37.651993,-16.328026,12.082581,-61.982685
77,1.4484169483184814,0.6128456592559814,77.85757446289062,1.9922459141618458,9.870590196873804,178.17995789258197,-26.383644,-4.4405894,2.1716805,18.972614,-0.22083321,3.2680864,-24.7777,-13.934373,-24.15002,45.806267,-15.405452,0.2810177,-2.1903281,-0.4037822,29.793802,-14.13486,10.26543,-35.77822,43.492367,4.371104,6.073309,53.716846,-14.727052,-10.024161,30.310148,37.596146,-16.383236,12.081213,-61.965332
78,1.4620612859725952,0.6064799427986145,77.85970306396484,1.9888225275123617,9.908948146573962,178.16741728504635,-26.417122,-4.435004,2.1866217,18.92365,-0.1768084,3.2673373,-24.83479,-13.925106,-24.136585,45.787903,-15.38157,0.2764151,-2.2137861,-0.40126014,29.793802,-14.152176,10.28651,-35.741585,43.44536,4.375234,6.0707355,53.707973,-14.735991,-10.000949,30.298874,37.55075,-16.444336,12.062929,-61.937893
79,1.4780449867248535,0.5979872941970825,77.86156463623047,1.9858880886359813,9.947083182070303,178.14905422987084,-26.448751,-4.4288483,2.2038555,18.873016,-0.13223925,3.2652247,-24.89171,-13.914362,-24.11816,45.76555,-15.357001,0.2737777,-2.232353,-0.39624044,29.793802,-14.164645,10.299293,-35.713863,43.39928,4.378184,6.0629134,53.712734,-14.749787,-9.986819,30.293503,37.508934,-16.488607,12.044748,-61.917473
80,1.4918094873428345,0.5877656936645508,77.8606948852539,1.9847193472940778,9.981489790516573,178.1266383475449,-26.474445,-4.4246063,2.2184055,18.819677,-0.08572896,3.26151,-24.944704,-13.90491,-24.09632,45.742115,-15.334236,0.27282402,-2.2445467,-0.38874882,29.793802,-14.170217,10.301498,-35.703285,43.35633,4.3828073,6.05992,53.73069,-14.762065,-9.984148,30.290112,37.468445,-16.52491,12.040853,-61.90808
81,1.509960651397705,0.5778801441192627,77.86141967773438,1.9872635527942788,10.013015918092771,178.10072601928763,-26.494291,-4.425085,2.2257366,18.76198,-0.033555884,3.2542953,-24.99544,-13.899238,-24.070116,45.71933,-15.313358,0.2754108,-2.2648728,-0.39158544,29.793802,-14.155312,10.308632,-35.675323,43.303093,4.4016705,6.0594,53.74925,-14.785774,-9.974506,30.285723,37.438927,-16.566542,12.057284,-61.90209
82,1.5238149166107178,0.5681990385055542,77.86357879638672,1.99232945394075,10.041833737419434,178.07072355017857,-26.509418,-4.428412,2.2292778,18.701488,0.02226434,3.2443616,-25.04334,-13.895242,-24.039461,45.69461,-15.293198,0.28124997,-2.279377,-0.39629918,29.793802,-14.133446,10.311446,-35.663715,43.251053,4.416525,6.0582232,53.78245,-14.811087,-9.969172,30.284729,37.412304,-16.596022,12.0867815,-61.90885
83,1.5380219221115112,0.5576387047767639,77.86600494384766,1.9966130671051818,10.069025189986588,178.03471476324955,-26.521309,-4.4292006,2.2375643,18.641273,0.07468842,3.2352078,-25.088568,-13.888346,-24.005894,45.665527,-15.273459,0.28569517,-2.2872982,-0.40223125,29.793802,-14.108072,10.311999,-35.65596,43.20123,4.4400296,6.0623183,53.81947,-14.835346,-9.96657,30.283722,37.387825,-16.626223,12.119911,-61.91853
84,1.5469458103179932,0.5446485877037048,77.87168884277344,1.9971482178505642,10.094966305225519,177.99110340457457,-26.53008,-4.422479,2.2589347,18.580976,0.11911142,3.2304435,-25.130405,-13.874584,-23.970823,45.631,-15.25513,0.28434289,-2.2897985,-0.40623528,29.793802,-14.073153,10.311534,-35.64429,43.14513,4.484237,6.078477,53.85438,-14.862253,-9.964666,30.283451,37.372437,-16.666311,12.14726,-61.924767
85,1.5596622228622437,0.5302603244781494,77.87591552734375,1.99325280463844,10.119250376937146,177.93833987640866,-26.533985,-4.406551,2.29877,18.519686,0.1517924,3.232281,-25.167873,-13.853307,-23.93534,45.59106,-15.241206,0.27422684,-2.2985315,-0.41013896,29.793802,-14.0175495,10.30858,-35.60948,43.076378,4.5647974,6.112399,53.882507,-14.907263,-9.961166,30.29565,37.383297,-16.723242,12.165006,-61.921864
86,1.5705273151397705,0.5157219171524048,77.87791442871094,1.9864909631704706,10.141952329560553,177.87749441451953,-26.534576,-4.3839126,2.3515065,18.459156,0.17507735,3.2382805,-25.201971,-13.826199,-23.898518,45.54629,-15.2303,0.2581587,-2.29218,-0.4146059,29.793802,-13.966687,10.304251,-35.587414,43.016327,4.6564713,6.1588845,53.91201,-14.939455,-9.961113,30.30477,37.38775,-16.791815,12.180474,-61.918217
87,1.5845258235931396,0.4988417625427246,77.88130950927734,1.9770991490644392,10.163698739058031,177.81150956970328,-26.533352,-4.3570294,2.4093773,18.399435,0.19641824,3.2453954,-25.23353,-13.793603,-23.858807,45.49532,-15.216277,0.24084358,-2.2918298,-0.41647187,29.793802,-13.899695,10.296907,-35.546383,42.94411,4.7676044,6.2089906,53.93902,-14.984532,-9.963531,30.323282,37.406406,-16.853598,12.194507,-61.916756
88,1.5948885679244995,0.483907014131546,77.88410949707031,1.9656119786654194,10.185227427173109,177.74232703901131,-26.533304,-4.327463,2.4653113,18.343634,0.2214401,3.2505078,-25.26448,-13.755123,-23.814077,45.436676,-15.192975,0.2266667,-2.291279,-0.41821203,29.793802,-13.835713,10.283507,-35.487934,42.877384,4.8829694,6.2515025,53.96392,-15.028769,-9.96985,30.350565,37.41816,-16.89317,12.2125225,-61.926632
89,1.6064345836639404,0.46918559074401855,77.88999938964844,1.9519957275330608,10.205412040082026,177.67055677580288,-26.53228,-4.2960377,2.5200465,18.290998,0.25082952,3.2550783,-25.29179,-13.709629,-23.76342,45.366627,-15.158738,0.21910144,-2.2707715,-0.41575593,29.793802,-13.769282,10.274407,-35.438034,42.803165,4.991184,6.284634,53.992283,-15.065829,-9.974991,30.360489,37.42499,-16.908926,12.233432,-61.94965
90,1.6181107759475708,0.4540565311908722,77.89793395996094,1.936487667900131,10.224154692166586,177.59486861508904,-26.53038,-4.261851,2.5769718,18.242157,0.28091404,3.260175,-25.316454,-13.6583395,-23.70729,45.288387,-15.117456,0.215227,-2.2759883,-0.41433138,29.793802,-13.697571,10.241802,-35.324787,42.740765,5.1282554,6.309699,54.010742,-15.113514,-9.993378,30.408281,37.431534,-16.894547,12.2582855,-61.98333
91,1.6315586566925049,0.4363252818584442,77.90624237060547,1.9179380233151166,10.244459675175015,177.5152819473476,-26.532185,-4.22358,2.6311045,18.19732,0.3132194,3.261437,-25.343288,-13.601751,-23.648909,45.206287,-15.069111,0.20901771,-2.25224,-0.4069113,29.793802,-13.630852,10.221547,-35.252174,42.668858,5.2516866,6.3373218,54.035534,-15.151672,-10.004973,30.424765,37.433487,-16.883854,12.2824745,-62.01938
92,1.6465095281600952,0.41879141330718994,77.91793823242188,1.8958523465588173,10.268750989433048,177.43235335272604,-26.54342,-4.180761,2.6773565,18.159065,0.3481101,3.254893,-25.378225,-13.541761,-23.59062,45.127647,-15.015489,0.19524477,-2.2376406,-0.39751953,29.793802,-13.581668,10.18835,-35.170883,42.617344,5.385676,6.3662043,54.05588,-15.190161,-10.022826,30.457853,37.424263,-16.87178,12.308859,-62.056034
93,1.662926435470581,0.40013623237609863,77.92886352539062,1.8681739880814991,10.299475530722946,177.34669529206667,-26.569326,-4.131072,2.7156909,18.13133,0.38531098,3.2391691,-25.424122,-13.477189,-23.535263,45.052998,-14.957228,0.16738237,-2.206132,-0.3819163,29.793802,-13.540653,10.1715765,-35.13306,42.55371,5.507214,6.404689,54.07838,-15.226209,-10.031479,30.467945,37.410362,-16.87424,12.334197,-62.09208
94,1.679221510887146,0.3819083869457245,77.93797302246094,1.8360347188067878,10.334338306948789,177.25802204281203,-26.606724,-4.0757966,2.7483637,18.114246,0.4234232,3.2166686,-25.477545,-13.407866,-23.480667,44.97988,-14.893862,0.13020611,-2.1848063,-0.36190623,29.793802,-13.514136,10.139583,-35.08356,42.50725,5.6409187,6.445097,54.095417,-15.265378,-10.046195,30.492033,37.389313,-16.872215,12.361302,-62.13148
95,1.6966935396194458,0.3654188811779022,77.94891357421875,1.802805356214427,10.370247286217964,177.1641824660963,-26.645863,-4.018737,2.7746074,18.097057,0.46510988,3.188543,-25.535112,-13.336155,-23.421818,44.907337,-14.822783,0.0941484,-2.1490693,-0.34202862,29.793802,-13.493142,10.115545,-35.052925,42.458042,5.76918,6.4865017,54.11624,-15.302133,-10.056009,30.50739,37.365284,-16.876705,12.38843,-62.167347
96,1.7134371995925903,0.34798023104667664,77.95934295654297,1.7722096373739713,10.404163654596752,177.06317364854027,-26.680983,-3.9635632,2.7938952,18.077763,0.50844604,3.1560073,-25.594578,-13.264584,-23.353415,44.836906,-14.7428055,0.069853984,-2.1048415,-0.3267101,29.793802,-13.477837,10.092419,-35.021786,42.41376,5.896356,6.5235734,54.141193,-15.333439,-10.063624,30.526846,37.335594,-16.886501,12.4163065,-62.195084
97,1.7319295406341553,0.3306741714477539,77.97100830078125,1.7441464287140398,10.435656133811634,176.95489074741118,-26.70751,-3.9080253,2.81993,18.050676,0.5517602,3.1245496,-25.655272,-13.193195,-23.274288,44.76689,-14.65053,0.062189788,-2.053793,-0.3155453,29.793802,-13.470895,10.065654,-34.989338,42.37966,6.0254807,6.551975,54.173843,-15.361776,-10.069817,30.557503,37.30073,-16.90214,12.442508,-62.210823
98,1.746628999710083,0.312649130821228,77.98487854003906,1.7167584140824441,10.466041821463248,176.84048507685299,-26.729918,-3.8512146,2.848145,18.01994,0.59579265,3.0917728,-25.718216,-13.120755,-23.187572,44.69817,-14.5482855,0.06477673,-1.997651,-0.30768135,29.793802,-13.477347,10.034927,-34.956474,42.361427,6.156849,6.5732136,54.21125,-15.389359,-10.073589,30.597486,37.262398,-16.92121,12.468098,-62.219135
99,1.7636140584945679,0.29598236083984375,78.00013732910156,1.6918797809239536,10.494561967882817,176.71900875148313,-26.75391,-3.7988753,2.8514898,17.993294,0.64502245,3.0472252,-25.78351,-13.048185,-23.092703,44.6322,-14.441093,0.07187663,-1.9329876,-0.30372402,29.793802,-13.489409,10.000898,-34.919624,42.34904,6.2873917,6.5972905,54.248955,-15.415378,-10.074347,30.63673,37.22487,-16.943785,12.497763,-62.22565
100,1.7781965732574463,0.28330081701278687,78.01152801513672,1.6706580719667967,10.51964477101883,176.58982293623987,-26.783003,-3.7563696,2.8020344,17.9767,0.7047436,2.980357,-25.849428,-12.975651,-22.990202,44.569492,-14.33339,0.07744242,-1.8605251,-0.30516323,29.793802,-13.513857,9.954926,-34.86754,42.35504,6.4172726,6.6301413,54.28099,-15.44166,-10.071043,30.671276,37.195038,-16.967632,12.536777,-62.237423
101,1.7977142333984375,0.2707994878292084,78.02570343017578,1.6549315363651598,10.54314129222693,176.45151730277817,-26.82263,-3.7254074,2.695753,17.974566,0.7804745,2.8870187,-25.920021,-12.903929,-22.876535,44.510864,-14.224052,0.08147384,-1.7702389,-0.31573898,29.793802,-13.530079,9.921745,-34.810265,42.342346,6.5438385,6.682039,54.30497,-15.460621,-10.065632,30.690248,37.16226,-16.99413,12.592886,-62.253716
102,1.8173823356628418,0.2624899744987488,78.03890991210938,1.6435961389235192,10.564966202885506,176.30488779954305,-26.868814,-3.7028666,2.5460787,17.982332,0.86801565,2.7732165,-25.99431,-12.8325205,-22.752607,44.455433,-14.111385,0.086827435,-1.6685904,-0.33410642,29.793802,-13.544945,9.894957,-34.744877,42.323063,6.668375,6.74564,54.323727,-15.474243,-10.058629,30.704302,37.12658,-17.021479,12.661521,-62.272533
103,1.8337299823760986,0.2516050934791565,78.05193328857422,1.6334998184260365,10.581908863546872,176.15253248432202,-26.91469,-3.6878588,2.3524396,17.995455,0.957361,2.6436982,-26.06558,-12.760717,-22.625433,44.40333,-13.999821,0.09134725,-1.5747317,-0.3561632,29.793802,-13.579267,9.841505,-34.65057,42.343086,6.7950673,6.805824,54.338825,-15.503666,-10.038669,30.727888,37.118042,-17.050852,12.727936,-62.295715
104,1.8493446111679077,0.23811787366867065,78.06610870361328,1.621448006230021,10.595861222707793,175.9968948645553,-26.958496,-3.6786108,2.114327,18.008236,1.0395391,2.5029552,-26.131283,-12.687055,-22.502316,44.352318,-13.892072,0.09239513,-1.4674081,-0.37411848,29.793802,-13.601509,9.8103075,-34.577938,42.345573,6.8911467,6.8547683,54.355522,-15.512498,-10.023735,30.73006,37.09919,-17.091137,12.774788,-62.31408
105,1.8652011156082153,0.22750596702098846,78.08032989501953,1.6060147539565595,10.60473323325458,175.83704914269222,-26.998032,-3.6753411,1.8247622,18.020363,1.109724,2.3552153,-26.188082,-12.6106415,-22.386538,44.301315,-13.7904,0.08799276,-1.3541085,-0.38799646,29.793802,-13.6063795,9.796671,-34.516262,42.334698,6.9586954,6.8880277,54.378014,-15.502884,-10.015514,30.720646,37.074387,-17.141262,12.795954,-62.32862
106,1.8787916898727417,0.2187865525484085,78.09221649169922,1.5891472868223082,10.608503085612961,175.67210617523082,-27.033495,-3.679004,1.4863797,18.03208,1.174688,2.1969573,-26.23749,-12.532291,-22.273834,44.25055,-13.692369,0.07996707,-1.2507038,-0.40410146,29.793802,-13.609388,9.777874,-34.42647,42.337547,7.021123,6.9090796,54.39601,-15.498834,-10.000059,30.713942,37.0675,-17.201906,12.800011,-62.339878
107,1.891080617904663,0.20887444913387299,78.1050033569336,1.5726459654608134,10.610790665184547,175.50493081931435,-27.068542,-3.6886115,1.1128023,18.045645,1.2376602,2.0208948,-26.286951,-12.453916,-22.159546,44.204475,-13.5957575,0.0715081,-1.1366372,-0.41709352,29.793802,-13.614794,9.769441,-34.358692,42.335922,7.054672,6.925228,54.413548,-15.479578,-9.989106,30.697966,37.04992,-17.261137,12.797929,-62.35386
108,1.898545742034912,0.20056487619876862,78.11502075195312,1.5581893409432297,10.61453634685955,175.3383897019015,-27.104797,-3.704011,0.71779627,18.060299,1.3039347,1.820009,-26.3431,-12.377678,-22.039028,44.16831,-13.49905,0.06596289,-1.0189608,-0.4281461,29.793802,-13.634087,9.766801,-34.308014,42.33683,7.0620394,6.938435,54.420113,-15.459323,-9.981802,30.68157,37.03005,-17.311245,12.797598,-62.371674
109,1.9075771570205688,0.19243958592414856,78.12403106689453,1.547010138323279,10.619279976995637,175.1740110350492,-27.141432,-3.7269037,0.2998365,18.076393,1.3758302,1.5836629,-26.406916,-12.303883,-21.907192,44.143047,-13.400988,0.06747129,-0.9009832,-0.43708706,29.793802,-13.666216,9.767191,-34.27278,42.3388,7.0406556,6.945347,54.412674,-15.437372,-9.9751835,30.666172,37.00836,-17.345879,12.799271,-62.396984
110,1.9151445627212524,0.1858839988708496,78.13404846191406,1.537921296258495,10.624430121351926,175.00988145131384,-27.177395,-3.7570329,-0.14656581,18.092602,1.4506689,1.3183714,-26.475985,-12.231646,-21.76755,44.12665,-13.3028,0.07327008,-0.7828002,-0.44945455,29.793802,-13.716685,9.770965,-34.235054,42.35398,7.0031066,6.943525,54.38372,-15.410483,-9.967126,30.64299,36.98408,-17.383326,12.796483,-62.42076
111,1.9225239753723145,0.17833571135997772,78.14386749267578,1.5294526479513935,10.630548121310138,174.84420951474112,-27.213783,-3.790931,-0.6139536,18.109266,1.5237128,1.0428808,-26.548346,-12.16079,-21.629147,44.11661,-13.205554,0.07618736,-0.6612134,-0.4585666,29.793802,-13.778707,9.777656,-34.210426,42.372845,6.944067,6.9441414,54.352882,-15.385893,-9.95959,30.62125,36.960102,-17.41667,12.796604,-62.445904
112,1.9330700635910034,0.16852925717830658,78.15338134765625,1.5201050414591435,10.639984137898812,174.67478112849957,-27.25461,-3.8247833,-1.0945097,18.128204,1.590026,0.7759147,-26.624466,-12.091155,-21.500574,44.110413,-13.109739,0.06893094,-0.5321072,-0.47152817,29.793802,-13.853271,9.801092,-34.186768,42.389297,6.874643,6.956825,54.31551,-15.368756,-9.9400015,30.584465,36.939705,-17.469624,12.801273,-62.459965
113,1.9405434131622314,0.16604579985141754,78.16529083251953,1.5110157118964562,10.652777489225924,174.4970478574609,-27.300846,-3.8597636,-1.5989854,18.148758,1.6526244,0.51891077,-26.706211,-12.022625,-21.3816,44.10965,-13.015758,0.04795281,-0.39895377,-0.48394236,29.793802,-13.945406,9.828776,-34.170288,42.409702,6.7895784,6.988395,54.28398,-15.363101,-9.922631,30.561083,36.918705,-17.524363,12.817801,-62.472794
114,1.9465817213058472,0.16621161997318268,78.17384338378906,1.5024460833990148,10.668879900524956,174.31321517686632,-27.349993,-3.8971152,-2.127025,18.168186,1.7135171,0.26300663,-26.793863,-11.955362,-21.26831,44.11476,-12.92318,0.017569685,-0.2625889,-0.49768513,29.793802,-14.046404,9.868656,-34.156845,42.42255,6.6892223,7.0334363,54.248817,-15.367624,-9.902225,30.539677,36.90103,-17.586351,12.840142,-62.480503
115,1.9526548385620117,0.16033771634101868,78.18075561523438,1.4915135066129344,10.686111225005059,174.13256606451185,-27.398956,-3.9341128,-2.655232,18.18989,1.7644396,0.011758161,-26.881561,-11.890257,-21.164598,44.124504,-12.83281,-0.017246539,-0.13364828,-0.5099703,29.793802,-14.13864,9.923556,-34.141987,42.420258,6.5775337,7.081625,54.212204,-15.379066,-9.877697,30.520262,36.887985,-17.65058,12.865262,-62.486187
116,1.9582033157348633,0.1508251577615738,78.18611907958984,1.4754200508723148,10.702696617962049,173.96426322551162,-27.440578,-3.9677498,-3.1604083,18.206953,1.8023978,-0.23115338,-26.962608,-11.827956,-21.074015,44.13482,-12.743936,-0.051544648,-0.02505684,-0.517876,29.793802,-14.196356,9.999515,-34.118855,42.38334,6.458946,7.123993,54.17541,-15.396176,-9.845484,30.50308,36.883133,-17.712051,12.889044,-62.492157
117,1.9599239826202393,0.1388443261384964,78.19184875488281,1.4494897508983773,10.717531718735058,173.81400201404756,-27.476875,-3.9958005,-3.6440701,18.226639,1.8208585,-0.47174817,-27.031855,-11.767894,-21.006836,44.143616,-12.655616,-0.08818602,0.061479684,-0.5094493,29.793802,-14.238389,10.077179,-34.087692,42.3383,6.328593,7.158947,54.140823,-15.41221,-9.812686,30.48144,36.880287,-17.769627,12.91217,-62.497765
118,1.9559396505355835,0.12650206685066223,78.19805908203125,1.4161181714300723,10.730827723364792,173.6758131574246,-27.50784,-4.0198727,-4.116404,18.245918,1.8250245,-0.70947516,-27.09259,-11.709596,-20.958208,44.152348,-12.567894,-0.12835115,0.13873154,-0.48294845,29.793802,-14.2934475,10.135177,-34.05503,42.316578,6.190399,7.1895275,54.108883,-15.41838,-9.787722,30.450863,36.86789,-17.824224,12.936741,-62.5021
119,1.9523967504501343,0.11177226901054382,78.20218658447266,1.383322371536835,10.743385785885286,173.54164065657926,-27.533403,-4.0433273,-4.566275,18.263573,1.8196733,-0.9310528,-27.153006,-11.654689,-20.909496,44.167202,-12.484912,-0.16452731,0.21384805,-0.45131603,29.793802,-14.356681,10.1718235,-34.02276,42.316696,6.0611935,7.2140956,54.07903,-15.418501,-9.772202,30.420397,36.85115,-17.875605,12.960965,-62.507786
120,1.9506428241729736,0.09732862561941147,78.20404815673828,1.3594857169694057,10.756365525887448,173.40340823977095,-27.55443,-4.0688205,-4.9812174,18.2779,1.8097038,-1.1211928,-27.22194,-11.604675,-20.84157,44.1943,-12.410704,-0.18910117,0.29066154,-0.43303427,29.793802,-14.401057,10.2085905,-33.989567,42.30619,5.956716,7.2320395,54.048176,-15.420681,-9.756683,30.397192,36.83963,-17.926285,12.982229,-62.51623
121,1.9455127716064453,0.0864422619342804,78.20166015625,1.344957476601845,10.769567724063918,173.25995149098094,-27.566896,-4.0982924,-5.37189,18.281982,1.7937717,-1.2801023,-27.300877,-11.557465,-20.748325,44.23549,-12.34536,-0.19503164,0.36888915,-0.4283658,29.793802,-14.418775,10.248744,-33.952156,42.27614,5.8750696,7.2411585,54.013435,-15.4341755,-9.740164,30.390177,36.846783,-17.977009,13.0051365,-62.534046
122,1.9380526542663574,0.07458308339118958,78.1993179321289,1.3360992884678498,10.78291265425659,173.115199081564,-27.572735,-4.129398,-5.7397275,18.279726,1.7702162,-1.4136753,-27.385607,-11.512916,-20.640146,44.2872,-12.287049,-0.18792935,0.44367218,-0.43296468,29.793802,-14.415776,10.291742,-33.908417,42.233273,5.8091865,7.241874,53.975655,-15.451902,-9.722471,30.396086,36.862686,-18.026747,13.029711,-62.558895
123,1.932073950767517,0.05947788059711456,78.19674682617188,1.3345430086003653,10.796803533406813,172.96889192981845,-27.57741,-4.1605043,-6.062135,18.278816,1.7472794,-1.5199429,-27.475346,-11.475671,-20.523207,44.348038,-12.236765,-0.17968431,0.5136787,-0.4478913,29.793802,-14.399893,10.328286,-33.863537,42.186794,5.768931,7.2407403,53.94189,-15.472333,-9.708034,30.407034,36.878586,-18.070372,13.045257,-62.579063
124,1.9227361679077148,0.04577507823705673,78.19319152832031,1.3421511413930465,10.812409779456816,172.82037605811158,-27.586884,-4.189824,-6.31612,18.287052,1.7337271,-1.5970124,-27.569153,-11.450118,-20.403725,44.414753,-12.194971,-0.18218607,0.57109565,-0.47892222,29.793802,-14.361114,10.363862,-33.814423,42.123943,5.765165,7.244828,53.916748,-15.497218,-9.695026,30.420916,36.888557,-18.102299,13.041085,-62.582848
125,1.9100182056427002,0.02704956941306591,78.1915283203125,1.3605953343444408,10.830107473612482,172.66530805249158,-27.603722,-4.217316,-6.493822,18.308886,1.7307681,-1.6402754,-27.670591,-11.438605,-20.278994,44.492985,-12.166856,-0.20361324,0.61052835,-0.5326522,29.793802,-14.287852,10.406036,-33.754803,42.029423,5.8029037,7.254813,53.898632,-15.530929,-9.682107,30.439621,36.89196,-18.121534,13.005438,-62.56072
126,1.8978387117385864,0.0112485745921731,78.19084167480469,1.388491643838453,10.849334489931206,172.50535401160528,-27.62465,-4.243776,-6.6080585,18.339056,1.7345607,-1.652085,-27.777689,-11.437897,-20.147512,44.5794,-12.14896,-0.23612094,0.6392108,-0.6039176,29.793802,-14.187491,10.449542,-33.689407,41.91283,5.876868,7.2674513,53.886257,-15.569976,-9.672712,30.462202,36.889946,-18.129953,12.946877,-62.520386
127,1.8852112293243408,-0.0021373447962105274,78.18821716308594,1.4228943844898703,10.8696334056398,172.34934027767898,-27.64768,-4.268737,-6.6672897,18.37276,1.7451022,-1.6413141,-27.885885,-11.445653,-20.015823,44.668472,-12.1344385,-0.26700616,0.6687155,-0.67956734,29.793802,-14.091397,10.476583,-33.636696,41.81298,5.9753127,7.282847,53.885437,-15.602132,-9.669854,30.479301,36.878056,-18.130873,12.8853655,-62.4776
128,1.8723812103271484,-0.016138778999447823,78.18415069580078,1.4615812308805,10.891447710172207,172.2061182186007,-27.671133,-4.292115,-6.6796184,18.40346,1.7622739,-1.6166917,-27.990843,-11.459984,-19.890306,44.752205,-12.11445,-0.28372708,0.68946165,-0.7567581,29.793802,-13.988864,10.50001,-33.59074,41.717457,6.0902405,7.3033614,53.89708,-15.636725,-9.669696,30.506847,36.868027,-18.121992,12.841163,-62.448895
129,1.8575823307037354,-0.029888752847909927,78.18116760253906,1.5075935078706348,10.913025349456293,172.078645866721,-27.692736,-4.3137236,-6.6220856,18.43185,1.7848911,-1.5717971,-28.089449,-11.484749,-19.771236,44.8306,-12.09017,-0.2763219,0.71833104,-0.8341166,29.793802,-13.904595,10.50936,-33.57395,41.658043,6.217772,7.3282948,53.925167,-15.663344,-9.671141,30.526674,36.85602,-18.104193,12.821484,-62.440876
130,1.8408842086791992,-0.044386863708496094,78.18305206298828,1.56169347363232,10.935423282674368,171.96258030011498,-27.714245,-4.3343034,-6.4987097,18.459166,1.814316,-1.5046924,-28.18595,-11.520757,-19.655354,44.907913,-12.065415,-0.2534426,0.72256035,-0.9187228,29.793802,-13.787593,10.519417,-33.548515,41.576435,6.371779,7.359517,53.963913,-15.704843,-9.675043,30.572403,36.853973,-18.066507,12.816468,-62.44676
131,1.8283843994140625,-0.05398860573768616,78.18771362304688,1.6155619015044271,10.960949547011925,171.85376566706583,-27.73856,-4.352598,-6.3580437,18.483646,1.8516614,-1.4313724,-28.282633,-11.557142,-19.544662,44.9809,-12.035318,-0.23134191,0.72813684,-1.0035843,29.793802,-13.679495,10.524312,-33.533577,41.51052,6.5386124,7.3938236,54.01351,-15.744277,-9.679784,30.616669,36.849,-18.031225,12.815211,-62.453827
132,1.8163787126541138,-0.06553931534290314,78.19354248046875,1.6615021635706564,10.992788138329356,171.7491726517271,-27.768538,-4.367668,-6.2494516,18.500668,1.9007621,-1.3678885,-28.383154,-11.5846615,-19.442055,45.047176,-11.994965,-0.22634135,0.74877083,-1.0833524,29.793802,-13.607602,10.523571,-33.533928,41.478874,6.7077484,7.4282727,54.066193,-15.770464,-9.682155,30.637741,36.83039,-18.018534,12.806335,-62.44671
133,1.8043972253799438,-0.07604508846998215,78.20143127441406,1.699547334239923,11.031044657114766,171.64727005682138,-27.801466,-4.3808665,-6.1810813,18.50451,1.9644564,-1.316823,-28.489594,-11.604412,-19.347946,45.11048,-11.944097,-0.24121346,0.74702305,-1.1521499,29.793802,-13.495346,10.519683,-33.5229,41.403458,6.893184,7.4761224,54.14701,-15.821926,-9.686604,30.686583,36.835247,-18.013779,12.789318,-62.4329
134,1.794542908668518,-0.08203940093517303,78.20991516113281,1.732715118241921,11.074772751258326,171.5502646516553,-27.837753,-4.3916545,-6.128971,18.499186,2.0404189,-1.2703389,-28.599459,-11.619726,-19.26197,45.16931,-11.884058,-0.26814672,0.722045,-1.2229962,29.793802,-13.38998,10.506684,-33.484722,41.34401,7.095306,7.5269747,54.235725,-15.883584,-9.6952915,30.769167,36.84064,-18.009394,12.770817,-62.416763
135,1.7848305702209473,-0.08805584162473679,78.21887969970703,1.7603912962973307,11.122168798522875,171.45972616967794,-27.879484,-4.399813,-6.090909,18.492584,2.124068,-1.227789,-28.71033,-11.628468,-19.180687,45.221706,-11.817774,-0.30570024,0.7065886,-1.2871326,29.793802,-13.303415,10.486904,-33.46471,41.302315,7.305546,7.575312,54.324368,-15.938527,-9.702545,30.832945,36.837936,-18.013975,12.752862,-62.39603
136,1.7738101482391357,-0.09133551269769669,78.22991943359375,1.7827012643428937,11.171054775983448,171.37733425987165,-27.927374,-4.4055853,-6.064364,18.49113,2.211962,-1.1884046,-28.818336,-11.628908,-19.10048,45.264694,-11.747786,-0.35229152,0.69391316,-1.343297,29.793802,-13.22674,10.459314,-33.46252,41.26915,7.525712,7.614121,54.40334,-15.9932375,-9.7084,30.887756,36.829613,-18.010342,12.743056,-62.38123
137,1.7617464065551758,-0.0931791365146637,78.24510955810547,1.7971043054739462,11.219706707237576,171.30329611582255,-27.983616,-4.406703,-6.049118,18.5032,2.2998743,-1.1521919,-28.922451,-11.617372,-19.020327,45.29761,-11.674598,-0.4166968,0.6842622,-1.3820746,29.793802,-13.189766,10.39006,-33.479813,41.28862,7.768732,7.633767,54.46757,-16.048431,-9.716933,30.935007,36.81444,-17.989475,12.747897,-62.38113
138,1.7481253147125244,-0.09448697417974472,78.26301574707031,1.8047030770452588,11.271283035375575,171.23679386722512,-28.048033,-4.404278,-6.0460987,18.521614,2.391997,-1.1194847,-29.025824,-11.596036,-18.942041,45.321033,-11.596406,-0.4967819,0.681323,-1.413004,29.793802,-13.151454,10.328339,-33.524094,41.29847,8.020818,7.643845,54.522392,-16.103506,-9.721092,30.966078,36.793217,-17.965849,12.760372,-62.385727
139,1.735774278640747,-0.0981585681438446,78.28131103515625,1.80984931721312,11.323182443058947,171.17825661684213,-28.114067,-4.401967,-6.0558844,18.537968,2.4909587,-1.0899036,-29.125359,-11.571719,-18.86736,45.3387,-11.514974,-0.57423806,0.68180954,-1.4353162,29.793802,-13.149555,10.230203,-33.576065,41.356716,8.280221,7.6528425,54.581257,-16.160204,-9.7256775,30.990166,36.77742,-17.941801,12.77417,-62.389744
140,1.7281107902526855,-0.10421930253505707,78.30046844482422,1.817493832952704,11.377219977574207,171.12819366653287,-28.179272,-4.4042177,-6.0784216,18.543772,2.599915,-1.0632011,-29.22147,-11.551008,-18.797455,45.351772,-11.430422,-0.6308829,0.6759386,-1.46308,29.793802,-13.143449,10.13808,-33.62078,41.405804,8.527885,7.6744046,54.650215,-16.21729,-9.729256,31.018002,36.766537,-17.92359,12.780906,-62.38264
141,1.723283290863037,-0.10905309021472931,78.31605529785156,1.8262211076690602,11.43189858599309,171.0879484858535,-28.238997,-4.410521,-6.123678,18.533083,2.7154791,-1.049038,-29.30973,-11.5333395,-18.736553,45.35884,-11.345631,-0.6613816,0.66307294,-1.4923564,29.793802,-13.152924,10.02853,-33.657417,41.475517,8.769954,7.7164288,54.736897,-16.277107,-9.733705,31.05414,36.768597,-17.914116,12.77724,-62.358604
142,1.714917778968811,-0.10555411875247955,78.3321533203125,1.8345869844372238,11.48832109539575,171.05691286322056,-28.296698,-4.41908,-6.1882973,18.510132,2.8382847,-1.0444363,-29.392334,-11.515838,-18.68256,45.357998,-11.258549,-0.6756266,0.6423059,-1.5239075,29.793802,-13.160847,9.920825,-33.69064,41.54027,9.00741,7.7718644,54.8329,-16.33812,-9.73809,31.097273,36.775455,-17.909521,12.76778,-62.323097
143,1.704911708831787,-0.09515528380870819,78.35028839111328,1.8467304601210326,11.546774383372533,171.0324791460891,-28.35863,-4.4326234,-6.2527156,18.486668,2.9747574,-1.0300189,-29.476475,-11.502611,-18.627344,45.357117,-11.165817,-0.6780919,0.6207246,-1.5587262,29.793802,-13.175488,9.807745,-33.7169,41.611923,9.235844,7.8261113,54.931324,-16.399967,-9.742807,31.136696,36.78329,-17.90391,12.757317,-62.287457
144,1.6906523704528809,-0.07531450688838959,78.37509155273438,1.8672859606405896,11.608689955448508,171.01212441993042,-28.434795,-4.45429,-6.296698,18.479721,3.1283844,-0.9859348,-29.569738,-11.497329,-18.562677,45.36048,-11.061842,-0.67325824,0.6019528,-1.6023473,29.793802,-13.180103,9.70903,-33.73214,41.666065,9.4466305,7.8660817,55.02269,-16.459795,-9.74663,31.163736,36.78275,-17.892288,12.750405,-62.26178
145,1.6773098707199097,-0.061629753559827805,78.39874267578125,1.899251365225485,11.675202861382228,170.99223578541995,-28.525244,-4.484924,-6.309365,18.486979,3.3071003,-0.89782107,-29.677052,-11.501536,-18.480843,45.371952,-10.944765,-0.6592124,0.5922944,-1.6552187,29.793802,-13.19777,9.600168,-33.73697,41.734474,9.6426735,7.885314,55.109512,-16.516747,-9.749834,31.171871,36.77385,-17.876808,12.750098,-62.25323
146,1.6648722887039185,-0.047875214368104935,78.4262466430664,1.9398024502724491,11.74592919918649,170.97517259119422,-28.628595,-4.5229692,-6.3015947,18.506329,3.503914,-0.7770971,-29.793932,-11.512893,-18.387915,45.386578,-10.8164425,-0.6346054,0.5864133,-1.7177342,29.793802,-13.211917,9.497627,-33.733543,41.793663,9.823927,7.892705,55.193787,-16.571978,-9.751581,31.16803,36.758312,-17.859335,12.753098,-62.254295
147,1.6581354141235352,-0.029877323657274246,78.45133972167969,1.9838717268173585,11.817142274960275,170.96737010921916,-28.739044,-4.5665965,-6.2910776,18.533577,3.7126799,-0.6506272,-29.910961,-11.529835,-18.296638,45.401474,-10.681289,-0.6045518,0.57777315,-1.7827903,29.793802,-13.217277,9.4082575,-33.717873,41.839504,9.990904,7.8938274,55.27224,-16.63075,-9.752838,31.159151,36.74378,-17.83373,12.755262,-62.25575
148,1.652388334274292,-0.013355732895433903,78.47803497314453,2.0265358856609863,11.88482285227808,170.97535431474944,-28.852428,-4.6144705,-6.294512,18.56774,3.925242,-0.54344815,-30.0177,-11.550629,-18.21996,45.410637,-10.541712,-0.5740447,0.5617266,-1.8419935,29.793802,-13.213843,9.336567,-33.6883,41.8721,10.142375,7.8940716,55.341774,-16.691916,-9.754555,31.148304,36.732418,-17.79628,12.75257,-62.24888
149,1.650579810142517,0.0047251395881175995,78.50565338134766,2.0682975690541516,11.94751976270609,171.00480832496606,-28.970383,-4.669014,-6.307892,18.613918,4.13919,-0.45477185,-30.11278,-11.579436,-18.161858,45.41698,-10.396657,-0.54232615,0.53382355,-1.8936634,29.793802,-13.197313,9.283381,-33.638046,41.891296,10.279879,7.8937354,55.403732,-16.755707,-9.75726,31.134466,36.723385,-17.73995,12.741604,-62.229664
150,1.647103190422058,0.02478523552417755,78.53471374511719,2.111205212131982,12.005588617150162,171.0509832676276,-29.091518,-4.730017,-6.3251414,18.669859,4.359392,-0.3733106,-30.19942,-11.615683,-18.115175,45.422546,-10.245743,-0.50718737,0.49724275,-1.9361839,29.793802,-13.204657,9.206211,-33.56145,41.950428,10.41356,7.8875556,55.461082,-16.823477,-9.762928,31.1183,36.71991,-17.667664,12.726275,-62.205597
151,1.6450779438018799,0.04770318418741226,78.56653594970703,2.151726720258031,12.06148274879857,171.1045915913099,-29.21436,-4.791711,-6.360473,18.728827,4.585958,-0.3093017,-30.277527,-11.650247,-18.076704,45.419586,-10.091843,-0.4721532,0.46708226,-1.9689381,29.793802,-13.23659,9.11617,-33.485332,42.035934,10.5347,7.8779893,55.51145,-16.890537,-9.7733135,31.093908,36.720222,-17.591995,12.711287,-62.17967
152,1.6380823850631714,0.07110851258039474,78.6004638671875,2.186798420255699,12.117790849840405,171.15620481100333,-29.333843,-4.8479347,-6.4280944,18.77577,4.823301,-0.27327162,-30.347567,-11.673648,-18.042772,45.39965,-9.937497,-0.44068,0.45059872,-1.9961733,29.793802,-13.274213,9.037892,-33.425663,42.111465,10.637806,7.867692,55.549862,-16.955978,-9.787214,31.064156,36.724182,-17.525192,12.701342,-62.155174
153,1.6373209953308105,0.09822148084640503,78.63653564453125,2.214065579465265,12.1778695505151,171.20452856088772,-29.452316,-4.896229,-6.534486,18.807402,5.0764647,-0.27126065,-30.411476,-11.683328,-18.016972,45.35981,-9.779725,-0.4157658,0.4457802,-2.0190332,29.793802,-13.306972,8.990105,-33.387775,42.15347,10.714792,7.8560953,55.569664,-17.025433,-9.799906,31.028568,36.73782,-17.47517,12.697835,-62.133816
154,1.6377633810043335,0.12732964754104614,78.67125701904297,2.2356962884611753,12.238872503544496,171.2541163860593,-29.569834,-4.940102,-6.6713634,18.82957,5.342539,-0.29698336,-30.468187,-11.684289,-17.999653,45.304783,-9.618329,-0.39485216,0.4495967,-2.034751,29.793802,-13.351535,8.950146,-33.360188,42.193428,10.772768,7.841545,55.57525,-17.098413,-9.814655,30.987822,36.760098,-17.433344,12.698346,-62.11388
155,1.6363146305084229,0.15915919840335846,78.70533752441406,2.255007512543132,12.295986001439942,171.30442327259672,-29.683468,-4.9833713,-6.831853,18.849934,5.6107655,-0.34266695,-30.514248,-11.678631,-17.982838,45.23912,-9.460803,-0.37342218,0.469463,-2.0396326,29.793802,-13.428615,8.883354,-33.34043,42.27336,10.825074,7.8258734,55.57808,-17.155918,-9.844236,30.940744,36.770836,-17.387348,12.701899,-62.092686
156,1.6315112113952637,0.19275188446044922,78.73897552490234,2.2772520696079885,12.345877480528014,171.35471174371577,-29.789097,-5.0303006,-7.007553,18.86813,5.874683,-0.4004425,-30.549454,-11.669848,-17.957165,45.16777,-9.3143635,-0.34705415,0.48663205,-2.057206,29.793802,-13.467122,8.848732,-33.311996,42.311165,10.869507,7.8156657,55.5827,-17.220942,-9.861771,30.912956,36.79257,-17.328259,12.705993,-62.06956
157,1.6343225240707397,0.23090901970863342,78.77133178710938,2.3007484828817506,12.385342850823271,171.40432825036999,-29.887144,-5.079363,-7.2002654,18.891113,6.1314497,-0.47206903,-30.568537,-11.655697,-17.923754,45.088047,-9.178804,-0.31428492,0.5134109,-2.0720098,29.793802,-13.529093,8.782373,-33.273228,42.39453,10.917879,7.810759,55.59348,-17.27152,-9.892779,30.903364,36.804474,-17.248016,12.713202,-62.043285
158,1.6277650594711304,0.2653188407421112,78.8079833984375,2.32432435455005,12.417542921746646,171.45367423108377,-29.97888,-5.1295857,-7.412855,18.914528,6.3858633,-0.5607356,-30.574417,-11.635816,-17.886028,44.998455,-9.050779,-0.27769753,0.54611456,-2.089469,29.793802,-13.588843,8.71837,-33.23112,42.480225,10.958735,7.8107343,55.605453,-17.323198,-9.9204235,30.907862,36.82462,-17.156317,12.722795,-62.015526
159,1.627909541130066,0.30389443039894104,78.84214782714844,2.350558003816232,12.444475925846948,171.5041040131466,-30.06216,-5.18436,-7.64085,18.933353,6.6363306,-0.6604551,-30.572493,-11.614187,-17.83987,44.906506,-8.933598,-0.23810291,0.5791863,-2.1105561,29.793802,-13.638463,8.655404,-33.182064,42.56053,10.999727,7.8088455,55.61817,-17.374092,-9.944786,30.915117,36.84457,-17.056227,12.732381,-61.987434
160,1.6255017518997192,0.33771073818206787,78.87737274169922,2.382136335255071,12.468526597713193,171.556840521742,-30.13554,-5.2468762,-7.8798156,18.943422,6.880995,-0.7651522,-30.568449,-11.59446,-17.781326,44.818394,-8.829465,-0.1965643,0.6080532,-2.1383765,29.793802,-13.658326,8.608113,-33.128006,42.608685,11.042557,7.7994833,55.630978,-17.423841,-9.961121,30.912113,36.858177,-16.950909,12.739059,-61.95963
161,1.6206424236297607,0.37429165840148926,78.90853881835938,2.420518970861138,12.488188467030268,171.61351167406556,-30.195694,-5.320827,-8.139198,18.941307,7.124575,-0.87796736,-30.562208,-11.576926,-17.706112,44.736034,-8.73592,-0.15177868,0.63116413,-2.1684837,29.793802,-13.67202,8.546723,-33.060436,42.66211,11.096468,7.779788,55.644993,-17.4673,-9.978983,30.897196,36.85317,-16.83138,12.741391,-61.933277
162,1.6136832237243652,0.4167270064353943,78.93598937988281,2.4638030093829535,12.502462754774227,171.67312761492124,-30.24532,-5.403028,-8.4173565,18.933372,7.36422,-0.99956155,-30.550983,-11.5598135,-17.617388,44.65606,-8.652615,-0.10356308,0.6576624,-2.1963139,29.793802,-13.69546,8.459239,-32.986755,42.74056,11.160089,7.7527432,55.662315,-17.499966,-9.999777,30.868643,36.832794,-16.700441,12.741168,-61.90782
163,1.6051726341247559,0.4566318690776825,78.9608154296875,2.509632492259338,12.514352979154806,171.7326123355991,-30.28612,-5.48754,-8.69524,18.91812,7.593332,-1.123689,-30.535076,-11.543635,-17.522963,44.576122,-8.585875,-0.054794993,0.6836483,-2.229493,29.793802,-13.693937,8.389169,-32.912956,42.788662,11.220654,7.720158,55.67979,-17.53226,-10.014996,30.83657,36.814808,-16.57287,12.741591,-61.881668
164,1.5969663858413696,0.4945032298564911,78.9834213256836,2.5550856473915613,12.524493393894346,171.78925552337765,-30.320875,-5.5678,-8.952624,18.90196,7.800554,-1.2420847,-30.512499,-11.529023,-17.431505,44.494526,-8.542303,-0.008291672,0.7113639,-2.259077,29.793802,-13.701474,8.299721,-32.83478,42.852886,11.286678,7.678966,55.699608,-17.557915,-10.034771,30.807465,36.80296,-16.459524,12.748052,-61.856506
165,1.5858253240585327,0.5318925976753235,79.00282287597656,2.6014515662256295,12.533507694247376,171.84342723301498,-30.35094,-5.6456676,-9.191427,18.884483,7.98596,-1.3531194,-30.483246,-11.516902,-17.33929,44.410545,-8.526213,0.038229305,0.74145496,-2.291677,29.793802,-13.692478,8.220505,-32.753094,42.8931,11.346127,7.6210804,55.718315,-17.577656,-10.055632,30.7801,36.800423,-16.369211,12.764524,-61.828705
166,1.5721423625946045,0.5678427815437317,79.02105712890625,2.649311389279562,12.540092604826635,171.89629923085167,-30.374157,-5.723098,-9.420047,18.863844,8.15409,-1.4605969,-30.44667,-11.506382,-17.244326,44.323563,-8.532158,0.08519559,0.7737511,-2.323139,29.793802,-13.68165,8.13197,-32.66498,42.933807,11.40668,7.548973,55.73756,-17.585938,-10.082724,30.752062,36.795868,-16.291407,12.788275,-61.79975
167,1.5584156513214111,0.6035301089286804,79.03642272949219,2.6957091675889244,12.546221187563571,171.94603507136296,-30.39022,-5.794208,-9.62719,18.83834,8.3039,-1.5648023,-30.405931,-11.4961605,-17.155523,44.236015,-8.555211,0.1279234,0.8062282,-2.3517168,29.793802,-13.66863,8.038878,-32.581963,42.974594,11.473927,7.482457,55.759953,-17.587416,-10.116115,30.728043,36.787785,-16.217138,12.811009,-61.773483
168,1.551662564277649,0.6338001489639282,79.04796600341797,2.7380032184419454,12.55357319220998,171.99072784634484,-30.397137,-5.852748,-9.801797,18.802946,8.435708,-1.6660751,-30.362549,-11.484834,-17.082384,44.147335,-8.588328,0.16109134,0.8337337,-2.3774898,29.793802,-13.645846,7.952025,-32.512913,43.00608,11.553438,7.441478,55.787327,-17.58742,-10.151972,30.714546,36.775738,-16.138018,12.824463,-61.75416
169,1.5386600494384766,0.6640173196792603,79.05517578125,2.7766665232892094,12.563199308278898,172.02808426341173,-30.395538,-5.8967466,-9.937987,18.757315,8.552179,-1.7702878,-30.317217,-11.47045,-17.022507,44.05609,-8.635517,0.18380864,0.85932094,-2.3977334,29.793802,-13.626437,7.8550553,-32.461815,43.04889,11.658271,7.4409623,55.823227,-17.582033,-10.197211,30.719088,36.754765,-16.04838,12.826423,-61.749126
170,1.5272289514541626,0.694749116897583,79.06123352050781,2.813363249213971,12.574459751872533,172.05981292926225,-30.386,-5.929704,-10.04243,18.702044,8.653339,-1.8751677,-30.269596,-11.454939,-16.972446,43.962997,-8.698448,0.19866012,0.88160795,-2.4178305,29.793802,-13.59308,7.766946,-32.424793,43.077183,11.777008,7.468132,55.864353,-17.575418,-10.243088,30.736826,36.732807,-15.9554405,12.820676,-61.753807
171,1.518187403678894,0.7221570611000061,79.06563568115234,2.844297566389814,12.584790418456613,172.0897445476233,-30.368187,-5.953001,-10.1234045,18.64212,8.731076,-1.9685469,-30.217451,-11.439733,-16.940292,43.871437,-8.767846,0.205825,0.90039295,-2.4291205,29.793802,-13.565101,7.66834,-32.392487,43.115482,11.899903,7.496834,55.907543,-17.559269,-10.299609,30.752836,36.69838,-15.862003,12.810762,-61.75565
172,1.5044975280761719,0.7447139024734497,79.0702133178711,2.86690574158556,12.5920066330725,172.12194214427487,-30.33928,-5.9676275,-10.188936,18.575766,8.78128,-2.0383437,-30.160303,-11.427274,-16.933313,43.78654,-8.835311,0.20549883,0.9133197,-2.4289331,29.793802,-13.540737,7.567656,-32.36112,43.156197,12.007627,7.502426,55.948124,-17.53132,-10.362329,30.748789,36.648502,-15.773372,12.799362,-61.741558
173,1.4910160303115845,0.762471616268158,79.07252502441406,2.879077999457631,12.594942692342805,172.1595854266675,-30.300173,-5.973518,-10.236745,18.509367,8.795568,-2.0792985,-30.093685,-11.419665,-16.961624,43.70684,-8.899658,0.19583167,0.9145345,-2.418118,29.793802,-13.507328,7.4749136,-32.328377,43.183884,12.091154,7.4712405,55.985992,-17.49922,-10.42574,30.721043,36.591656,-15.696049,12.784219,-61.699207
174,1.47907555103302,0.7852026224136353,79.07035064697266,2.8829005963586236,12.594951740946168,172.19986144673183,-30.250637,-5.9699826,-10.263981,18.43864,8.780584,-2.098451,-30.02063,-11.415575,-17.018078,43.63292,-8.966415,0.17737727,0.907045,-2.3979263,29.793802,-13.467142,7.385881,-32.29712,43.202454,12.161617,7.4190226,56.02314,-17.459759,-10.491999,30.677622,36.5245,-15.625426,12.765046,-61.638607
175,1.4662365913391113,0.8062393665313721,79.0654067993164,2.8815137159964848,12.594193034416726,172.23754614809175,-30.192778,-5.9587135,-10.277195,18.360008,8.746087,-2.101983,-29.947937,-11.410854,-17.085867,43.564903,-9.032391,0.15380351,0.89407575,-2.374281,29.793802,-13.42281,7.304742,-32.265778,43.213654,12.2281685,7.365756,56.056744,-17.419012,-10.556753,30.628721,36.453594,-15.553618,12.746008,-61.580284
176,1.4543181657791138,0.8237600326538086,79.0605697631836,2.877386768755187,12.594941100669734,172.2672856336632,-30.130589,-5.941448,-10.282721,18.274498,8.699463,-2.0960753,-29.884686,-11.402339,-17.147577,43.50821,-9.097051,0.12859303,0.8833255,-2.3486006,29.793802,-13.389524,7.2228613,-32.234802,43.235973,12.302061,7.33089,56.085094,-17.375956,-10.625931,30.582788,36.37602,-15.471283,12.73189,-61.544216
177,1.442445993423462,0.8419147729873657,79.05426025390625,2.8728138753046175,12.599277116397332,172.28457632909138,-30.06061,-5.9169774,-10.2735615,18.171713,8.644509,-2.076482,-29.83468,-11.389522,-17.198502,43.462265,-9.16045,0.09835989,0.8605109,-2.3398333,29.793802,-13.31754,7.186931,-32.196636,43.206272,12.389,7.3259196,56.105057,-17.377216,-10.657459,30.54947,36.34411,-15.377176,12.724081,-61.54306
178,1.4273779392242432,0.857768177986145,79.04855346679688,2.864429785704694,12.605311387527967,172.29343252488164,-29.98542,-5.8845606,-10.250125,18.061815,8.572807,-2.0420501,-29.792648,-11.373006,-17.249119,43.426537,-9.223916,0.062472314,0.83977056,-2.3275716,29.793802,-13.272095,7.136867,-32.15207,43.212,12.494169,7.3321548,56.117844,-17.364191,-10.702908,30.515835,36.286564,-15.268742,12.723729,-61.56131
179,1.4144171476364136,0.8723195791244507,79.04324340820312,2.8517334710311624,12.60953251057784,172.3009270298483,-29.904568,-5.848155,-10.227224,17.947672,8.489401,-2.0032008,-29.753443,-11.354781,-17.300655,43.39966,-9.284374,0.029176712,0.82178634,-2.3038714,29.793802,-13.245827,7.0739856,-32.11201,43.235428,12.587824,7.3449526,56.129063,-17.333838,-10.761834,30.481398,36.211803,-15.159771,12.72222,-61.58627
180,1.4030230045318604,0.8855365514755249,79.03699493408203,2.834786840452003,12.608166048785503,172.31414048818024,-29.817678,-5.811769,-10.219711,17.83231,8.3993,-1.9704397,-29.713043,-11.337049,-17.354538,43.38346,-9.34089,0.0064725615,0.79610103,-2.2798405,29.793802,-13.211112,7.033825,-32.071754,43.23578,12.639872,7.3566017,56.137756,-17.306887,-10.800951,30.455385,36.15337,-15.07005,12.711793,-61.60496
181,1.3951897621154785,0.8970155119895935,79.02912902832031,2.810928269693476,12.59788374760909,172.33573799160905,-29.720675,-5.7749457,-10.2354965,17.71541,8.298419,-1.9437367,-29.666279,-11.318047,-17.41303,43.376793,-9.391775,-0.0039091706,0.7614064,-2.2507956,29.793802,-13.167856,7.0123343,-32.028553,43.21134,12.636737,7.3691196,56.14562,-17.284643,-10.822637,30.44182,36.11502,-14.993097,12.685295,-61.61585
182,1.3859057426452637,0.9066091179847717,79.0197525024414,2.7806663176928135,12.58152001986863,172.36188904419782,-29.61523,-5.7358913,-10.265721,17.595608,8.186052,-1.9185002,-29.61739,-11.297176,-17.475325,43.380314,-9.438808,-0.00622677,0.72057617,-2.216629,29.793802,-13.138771,6.9922976,-31.975378,43.196266,12.601689,7.3813963,56.14856,-17.24646,-10.843626,30.438927,36.06418,-14.921536,12.650906,-61.62449
183,1.3774471282958984,0.9183012247085571,79.007080078125,2.7493941448755534,12.56423274415112,172.3893016008508,-29.510685,-5.696955,-10.299154,17.478155,8.06982,-1.8979558,-29.57221,-11.278139,-17.537077,43.391605,-9.48158,-0.0012262588,0.67559326,-2.176684,29.793802,-13.123375,6.968942,-31.923237,43.190594,12.55175,7.3906503,56.148964,-17.19637,-10.869887,30.442448,36.00481,-14.868112,12.618463,-61.631046
184,1.3675364255905151,0.9291247725486755,78.99220275878906,2.721657084390544,12.55102574219759,172.41464493762535,-29.416035,-5.6604176,-10.325299,17.368187,7.957331,-1.885505,-29.537376,-11.264351,-17.594198,43.410347,-9.521061,0.010389431,0.63652074,-2.1385932,29.793802,-13.113991,6.958242,-31.895575,43.184265,12.497994,7.3932056,56.14965,-17.143785,-10.883688,30.435652,35.95293,-14.854919,12.598356,-61.635036
185,1.3597956895828247,0.9400433897972107,78.98002624511719,2.6999266125182024,12.543932164330007,172.43723471063663,-29.334667,-5.6273565,-10.338555,17.266907,7.852903,-1.8842988,-29.516882,-11.258163,-17.644184,43.437565,-9.554703,0.03015393,0.5957405,-2.1049187,29.793802,-13.120335,6.9549513,-31.886549,43.19057,12.449717,7.384347,56.14966,-17.087572,-10.890162,30.426907,35.906677,-14.891473,12.594499,-61.63425
186,1.351165533065796,0.9457966089248657,78.96646881103516,2.6812357661923114,12.540284251462044,172.4586746211027,-29.26183,-5.596156,-10.345626,17.17137,7.7519526,-1.8917665,-29.506832,-11.257214,-17.689903,43.472992,-9.582913,0.057765935,0.5579425,-2.0722759,29.793802,-13.145545,6.955051,-31.892693,43.212185,12.3987875,7.3668623,56.14699,-17.01375,-10.896882,30.412079,35.849346,-14.969378,12.601545,-61.62764
187,1.3458173274993896,0.9529775977134705,78.94911193847656,2.662184557155241,12.537605514176349,172.4797134987903,-29.194033,-5.5656123,-10.353983,17.082405,7.647518,-1.9026622,-29.500925,-11.257717,-17.735313,43.51355,-9.610435,0.09007446,0.52902496,-2.0340366,29.793802,-13.179731,6.9605827,-31.914515,43.23696,12.337165,7.3464274,56.14158,-16.924906,-10.902429,30.387175,35.778202,-15.066449,12.615763,-61.620495
188,1.343643307685852,0.9609566926956177,78.93016815185547,2.6392512529151295,12.533457086740306,172.5008015812937,-29.12861,-5.534008,-10.371093,17.001709,7.5317698,-1.9118471,-29.492903,-11.256118,-17.784588,43.555904,-9.641777,0.12355207,0.5132082,-1.9848597,29.793802,-13.211313,6.972571,-31.944424,43.251465,12.2616825,7.328001,56.129417,-16.819424,-10.905864,30.34882,35.68628,-15.163332,12.633864,-61.61691
189,1.3373087644577026,0.9703894853591919,78.91158294677734,2.611966564663748,12.527489947487448,172.5225588894301,-29.062935,-5.5012727,-10.399861,16.925255,7.4033012,-1.9173281,-29.482004,-11.252429,-17.838562,43.5994,-9.675026,0.16457874,0.50026554,-1.9248391,29.793802,-13.241359,6.9864445,-31.967255,43.260715,12.174557,7.3117037,56.107166,-16.706951,-10.905726,30.30722,35.57422,-15.242826,12.658619,-61.621403
190,1.33440101146698,0.9771602153778076,78.89037322998047,2.5815583194137126,12.522182094261806,172.54435970474373,-29.000504,-5.467675,-10.436307,16.853733,7.266287,-1.922194,-29.47206,-11.247709,-17.895452,43.645115,-9.7082615,0.21233839,0.51242733,-1.8553531,29.793802,-13.267678,7.023378,-32.01907,43.250134,12.065548,7.2974224,56.077026,-16.56914,-10.902197,30.230932,35.432556,-15.331557,12.688153,-61.623253
191,1.3328213691711426,0.9812939763069153,78.8671646118164,2.5495834387936993,12.51467695684774,172.56586054612262,-28.942566,-5.4347687,-10.476133,16.795795,7.1203184,-1.9282641,-29.461832,-11.242525,-17.953632,43.695854,-9.748627,0.25368094,0.5140221,-1.783166,29.793802,-13.29252,7.0553684,-32.05085,43.240486,11.957827,7.2806697,56.042583,-16.431797,-10.894968,30.17627,35.291973,-15.42863,12.721598,-61.63154
192,1.329507827758789,0.9798904657363892,78.84809875488281,2.516684028029988,12.504158020018744,172.58658170193624,-28.887716,-5.402815,-10.515943,16.749235,6.9716225,-1.9375812,-29.4516,-11.236625,-18.012196,43.7535,-9.802676,0.2749802,0.52102304,-1.7114615,29.793802,-13.30836,7.094671,-32.083996,43.21852,11.849113,7.2621274,56.00914,-16.288877,-10.882492,30.127321,35.160854,-15.560932,12.752186,-61.638676
193,1.3271313905715942,0.9798650741577148,78.8263168334961,2.4826143150062996,12.488322654166938,172.6068174287376,-28.837364,-5.3726068,-10.559252,16.723013,6.817652,-1.9581927,-29.440279,-11.229976,-18.071527,43.821407,-9.87647,0.26741096,0.5144449,-1.6310143,29.793802,-13.327082,7.1060376,-32.087486,43.21107,11.747811,7.2362223,55.979458,-16.164429,-10.876487,30.11637,35.065445,-15.722655,12.77518,-61.647556
194,1.326814889907837,0.9805477857589722,78.80402374267578,2.446987849978972,12.470510128008364,172.62660800536136,-28.792961,-5.3432117,-10.60664,16.711996,6.65847,-1.9868084,-29.430372,-11.221927,-18.132154,43.89723,-9.964845,0.23951147,0.5418367,-1.5647681,29.793802,-13.32815,7.173575,-32.120804,43.164085,11.6240425,7.20923,55.943317,-15.986434,-10.841863,30.072672,34.93841,-15.9505415,12.79423,-61.652405
195,1.325726866722107,0.9796131253242493,78.7787857055664,2.4114679655117377,12.451604834016456,172.6451972124093,-28.753267,-5.3154874,-10.648377,16.712465,6.492274,-2.0074222,-29.42109,-11.214617,-18.1915,43.97652,-10.057997,0.20525612,0.5412946,-1.5047755,29.793802,-13.288213,7.2600126,-32.132458,43.070694,11.5081625,7.1848993,55.906662,-15.855633,-10.789467,30.065159,34.861473,-16.17893,12.8175955,-61.66203
196,1.323143720626831,0.9771794080734253,78.75274658203125,2.3762137030352823,12.433357423243887,172.66191529125027,-28.719004,-5.2883167,-10.676092,16.721891,6.316469,-2.0046191,-29.411667,-11.208227,-18.248808,44.05312,-10.144852,0.17784998,0.53214324,-1.4485905,29.793802,-13.2461195,7.3421063,-32.147423,42.977814,11.412577,7.1677523,55.871532,-15.7335825,-10.733055,30.064735,34.78765,-16.3968,12.856481,-61.67685
197,1.3207224607467651,0.9753047227859497,78.72193145751953,2.3370989867323155,12.418885182018714,172.67517367799684,-28.695267,-5.2578244,-10.687314,16.746588,6.1186156,-1.9703428,-29.40217,-11.197741,-18.30635,44.122623,-10.222825,0.15775487,0.5221428,-1.3896871,29.793802,-13.206261,7.419047,-32.176792,42.886,11.342073,7.162563,55.839363,-15.609681,-10.677414,30.063957,34.702625,-16.603928,12.922018,-61.70002
198,1.3198301792144775,0.9688670039176941,78.69207763671875,2.2946958264201505,12.406002923631753,172.68585065963094,-28.679478,-5.2249546,-10.68754,16.784222,5.904798,-1.9143826,-29.39175,-11.184032,-18.364502,44.187828,-10.296871,0.13881283,0.5164183,-1.3220179,29.793802,-13.186353,7.473458,-32.21704,42.819016,11.291929,7.163982,55.81022,-15.468864,-10.637018,30.063362,34.59353,-16.806938,13.007152,-61.72874
199,1.3176087141036987,0.9611749053001404,78.66331481933594,2.2575824209810604,12.390594253785912,172.69708505656664,-28.666206,-5.1991267,-10.678588,16.8299,5.694827,-1.8478422,-29.381922,-11.177463,-18.41798,44.257072,-10.369871,0.12475357,0.5084577,-1.2614172,29.793802,-13.157555,7.5304837,-32.267746,42.74429,11.248518,7.1669827,55.782135,-15.330326,-10.59462,30.05823,34.487885,-17.006767,13.09097,-61.75378
200,1.3103998899459839,0.9518406391143799,78.63928985595703,2.234588384659324,12.368317604870313,172.7118835970968,-28.648264,-5.1896605,-10.662273,16.874271,5.5107446,-1.7817775,-29.373074,-11.187735,-18.46125,44.336826,-10.443999,0.11947021,0.48836523,-1.2249323,29.793802,-13.091223,7.6148834,-32.323803,42.63045,11.19852,7.166087,55.752613,-15.218089,-10.530912,30.04891,34.417767,-17.203188,13.152664,-61.766205
201,1.3111990690231323,0.942505419254303,78.61500549316406,2.2316791906829416,12.335168052432905,172.7333960731915,-28.624325,-5.204115,-10.634898,16.920727,5.358564,-1.7145026,-29.362875,-11.222981,-18.492369,44.431538,-10.522992,0.1290323,0.45619038,-1.2051426,29.793802,-13.031496,7.6731443,-32.381107,42.54197,11.151019,7.1515255,55.719482,-15.101822,-10.482075,30.03893,34.346516,-17.385675,13.189559,-61.75893
202,1.3131816387176514,0.9323406219482422,78.5941390991211,2.243547415702612,12.294555134079598,172.75920841828452,-28.59868,-5.236241,-10.596281,16.973604,5.22585,-1.6416764,-29.353174,-11.276841,-18.513885,44.538963,-10.6059,0.1497001,0.415835,-1.2056751,29.793802,-12.950518,7.742811,-32.45034,42.434414,11.1003,7.1313186,55.684364,-15.002795,-10.418494,30.021395,34.30116,-17.566216,13.209538,-61.737305
203,1.3184969425201416,0.9198302626609802,78.57298278808594,2.258724958035694,12.25125269960154,172.78425114871405,-28.570143,-5.272733,-10.556468,17.023254,5.1077037,-1.5703698,-29.343403,-11.334408,-18.53031,44.646553,-10.682462,0.17051002,0.37144276,-1.2096773,29.793802,-12.870121,7.802111,-32.515434,42.33783,11.059329,7.113626,55.654373,-14.908622,-10.358283,30.001696,34.262066,-17.737022,13.218725,-61.717087
204,1.3214287757873535,0.9026426672935486,78.55596160888672,2.265701768908659,12.21064868496681,172.80362593331427,-28.54,-5.3005238,-10.524711,17.06438,4.9972725,-1.5071602,-29.334887,-11.381508,-18.546165,44.743958,-10.743613,0.18043528,0.33182976,-1.2015499,29.793802,-12.805996,7.838157,-32.567562,42.271156,11.037592,7.107817,55.637035,-14.808932,-10.3174925,29.979591,34.212257,-17.895292,13.22272,-61.711727
205,1.3234834671020508,0.8813440799713135,78.54322814941406,2.2635957810642737,12.174793373754133,172.81755699009378,-28.509983,-5.319064,-10.504571,17.09446,4.9026217,-1.4548731,-29.329298,-11.417503,-18.562471,44.829117,-10.784414,0.1727921,0.29754928,-1.1845735,29.793802,-12.742239,7.868684,-32.611404,42.215366,11.038264,7.122729,55.639126,-14.714424,-10.279519,29.944496,34.170834,-18.052313,13.212126,-61.730556
206,1.3264561891555786,0.8621465563774109,78.53163146972656,2.257880357465595,12.140714775838678,172.82823920283383,-28.4793,-5.334736,-10.490625,17.117493,4.8235574,-1.4099714,-29.326153,-11.449163,-18.57672,44.90786,-10.810812,0.15481699,0.26439393,-1.1653961,29.793802,-12.676053,7.8951015,-32.64844,42.166553,11.056472,7.1512303,55.65455,-14.62645,-10.242313,29.900675,34.13867,-18.205332,13.18795,-61.764297
207,1.3282681703567505,0.8436833620071411,78.52061462402344,2.246984313384921,12.106084049379863,172.83338053630322,-28.443007,-5.343332,-10.479028,17.132446,4.744311,-1.3694556,-29.321352,-11.472945,-18.588224,44.97978,-10.82904,0.1358114,0.2346028,-1.1419486,29.793802,-12.610598,7.9157596,-32.67899,42.122837,11.077508,7.1819196,55.67303,-14.546638,-10.209125,29.85841,34.11022,-18.342176,13.167568,-61.79855
208,1.3302780389785767,0.8240010738372803,78.50920104980469,2.2294821626852968,12.068471586713255,172.83061723226746,-28.39519,-5.3412204,-10.466824,17.136278,4.649913,-1.3331902,-29.31222,-11.485952,-18.595663,45.04776,-10.846961,0.12523577,0.21396564,-1.1132613,29.793802,-12.545567,7.9365306,-32.709755,42.074432,11.082152,7.204366,55.685,-14.478761,-10.172602,29.820154,34.08776,-18.456257,13.166687,-61.818447
209,1.3319813013076782,0.8046555519104004,78.49533081054688,2.200810613559862,12.027326461923243,172.8205559425228,-28.33302,-5.323539,-10.458447,17.126099,4.5358753,-1.3048525,-29.293785,-11.4823065,-18.602242,45.104862,-10.861612,0.12807415,0.19987117,-1.0735921,29.793802,-12.484422,7.949385,-32.730232,42.02727,11.068358,7.2123632,55.686096,-14.410573,-10.147698,29.79836,34.044758,-18.52823,13.20359,-61.817394
210,1.331986665725708,0.7808464765548706,78.48200988769531,2.163342328730518,11.983513250865172,172.80381793136817,-28.25906,-5.2937245,-10.453602,17.103584,4.4105144,-1.2837825,-29.26859,-11.465299,-18.607244,45.152767,-10.870948,0.13845748,0.19550374,-1.025206,29.793802,-12.418669,7.9634085,-32.75127,41.97071,11.039351,7.2147965,55.683693,-14.358848,-10.119755,29.777008,34.012005,-18.574717,13.2610855,-61.80237
211,1.3363264799118042,0.7571617364883423,78.4664535522461,2.125035856759608,11.93889174589797,172.77922760347806,-28.179876,-5.2598257,-10.443422,17.074347,4.278072,-1.262202,-29.246103,-11.445117,-18.605005,45.202435,-10.881037,0.14940327,0.19099045,-0.97794944,29.793802,-12.35988,7.970516,-32.7623,41.923557,11.011978,7.213819,55.676838,-14.303965,-10.104431,29.768797,33.96786,-18.605913,13.319517,-61.78593
212,1.338675618171692,0.7310945391654968,78.4565658569336,2.094287689368665,11.893651025176592,172.74451599579297,-28.099766,-5.230143,-10.418043,17.04476,4.141801,-1.2323291,-29.234076,-11.432013,-18.588581,45.265537,-10.898467,0.15405585,0.1911804,-0.942316,29.793802,-12.303323,7.983035,-32.782673,41.87721,10.985968,7.2175903,55.67191,-14.263156,-10.081553,29.758644,33.95131,-18.651299,13.35111,-61.778683
213,1.3401834964752197,0.705571711063385,78.44548034667969,2.07419155538382,11.848231567327183,172.6973233621882,-28.01883,-5.2065473,-10.372119,17.012114,4.0050035,-1.1881572,-29.237488,-11.429601,-18.555374,45.347855,-10.925151,0.14426464,0.18738885,-0.9236226,29.793802,-12.260534,7.991359,-32.79981,41.851776,10.976873,7.224114,55.667347,-14.228867,-10.068288,29.76442,33.950497,-18.7095,13.343608,-61.786945
214,1.342974066734314,0.6772118806838989,78.42842102050781,2.060606828937436,11.801556023979753,172.6386488670966,-27.935356,-5.185172,-10.310591,16.977808,3.8627548,-1.1350551,-29.250557,-11.432254,-18.50836,45.442375,-10.957408,0.12578267,0.18522565,-0.916029,29.793802,-12.216547,8.002746,-32.82406,41.825424,10.969772,7.234706,55.6678,-14.2088,-10.053553,29.779238,33.97495,-18.773998,13.311802,-61.807186
215,1.3509612083435059,0.6449092030525208,78.40794372558594,2.04874076647128,11.755245459343959,172.57478939191125,-27.849413,-5.1639953,-10.244419,16.939259,3.7164607,-1.0829254,-29.267212,-11.435412,-18.453682,45.539608,-10.992826,0.11254195,0.1847531,-0.91363925,29.793802,-12.177013,8.0190935,-32.842102,41.800884,10.95964,7.244015,55.659824,-14.190339,-10.037554,29.794336,33.996212,-18.834017,13.277157,-61.824528
216,1.359259843826294,0.6116524934768677,78.38550567626953,2.0350007628642723,11.710182662366712,172.51117554959322,-27.760794,-5.1420918,-10.182834,16.895836,3.565907,-1.0413529,-29.282017,-11.435532,-18.396101,45.631508,-11.02935,0.118403,0.18408626,-0.9038343,29.793802,-12.132516,8.037917,-32.84633,41.7609,10.937273,7.25316,55.637005,-14.171358,-10.023438,29.799215,34.002716,-18.877596,13.258221,-61.82752
217,1.3625234365463257,0.5785073637962341,78.3622055053711,2.01945640629333,11.666583926025364,172.4498555830152,-27.667675,-5.1200814,-10.129106,16.84356,3.4149694,-1.0171788,-29.292624,-11.432206,-18.334953,45.7142,-11.065102,0.15307008,0.18326603,-0.883905,29.793802,-12.080299,8.05805,-32.831757,41.69838,10.903637,7.2603602,55.587456,-14.152791,-10.013134,29.786737,33.9878,-18.896713,13.258591,-61.804276
218,1.366295337677002,0.5440970659255981,78.33972930908203,2.003582991936846,11.624378179420788,172.38761402855746,-27.571306,-5.0981035,-10.07787,16.783592,3.2627625,-1.003931,-29.3029,-11.426985,-18.268328,45.792576,-11.101464,0.20706466,0.18462436,-0.863875,29.793802,-12.025942,8.090284,-32.80359,41.62269,10.859266,7.263414,55.5156,-14.129365,-10.00273,29.761362,33.951706,-18.899664,13.268718,-61.76288
219,1.3683381080627441,0.5103044509887695,78.31574249267578,1.9857734063180301,11.583393317562162,172.32244881469632,-27.476006,-5.0741253,-10.026046,16.72616,3.1001105,-0.9910405,-29.314201,-11.41907,-18.199955,45.87038,-11.141133,0.26557285,0.18898568,-0.84092015,29.793802,-11.968862,8.12693,-32.769768,41.538334,10.806092,7.269848,55.44353,-14.10037,-9.996631,29.734283,33.90391,-18.902231,13.288333,-61.720707
220,1.3711410760879517,0.4738844037055969,78.29237365722656,1.9644253434001595,11.543662609752912,172.25227818921286,-27.386229,-5.045985,-9.97046,16.68081,2.9182851,-0.9680513,-29.327795,-11.407596,-18.133205,45.950462,-11.186081,0.31376663,0.19726062,-0.8159595,29.793802,-11.909381,8.1677885,-32.736607,41.44937,10.743451,7.285246,55.39025,-14.063425,-9.995065,29.714664,33.85175,-18.921595,13.317291,-61.69366
221,1.3738982677459717,0.43751880526542664,78.26513671875,1.9349455530329835,11.50425475832679,172.17587757002235,-27.296915,-5.007845,-9.913787,16.64141,2.7079153,-0.93329257,-29.342228,-11.388278,-18.072401,46.033894,-11.238864,0.34561756,0.21940655,-0.77580285,29.793802,-11.889806,8.177783,-32.718952,41.41116,10.659693,7.317317,55.378628,-14.030276,-9.995478,29.704948,33.81628,-18.952694,13.364455,-61.701263
222,1.3773988485336304,0.3996918797492981,78.23614501953125,1.9005437429177852,11.471469736074656,172.09377841419612,-27.21633,-4.963054,-9.855124,16.610155,2.4741328,-0.8922196,-29.365454,-11.363323,-18.012802,46.120537,-11.297475,0.3694607,0.23705654,-0.7462335,29.793802,-11.814573,8.242174,-32.66919,41.28824,10.576695,7.3634915,55.359245,-13.960625,-10.006402,29.697289,33.727222,-19.016462,13.425295,-61.705982
223,1.37848961353302,0.36154407262802124,78.20536804199219,1.8677791106265311,11.435429403666655,172.00925643830124,-27.136679,-4.921216,-9.791371,16.588207,2.2391965,-0.84446377,-29.385569,-11.340181,-17.950397,46.206814,-11.35807,0.39295346,0.25965557,-0.7111365,29.793802,-11.760303,8.28416,-32.634514,41.200485,10.486344,7.4046793,55.356476,-13.89916,-10.016216,29.692726,33.658585,-19.079157,13.4850855,-61.719696
224,1.3829594850540161,0.3232062757015228,78.17433166503906,1.8447777645387913,11.395787349843546,171.9243753263552,-27.063128,-4.89218,-9.7171545,16.582075,2.0237737,-0.7898774,-29.403854,-11.326744,-17.878685,46.292946,-11.417017,0.42323434,0.27330518,-0.6857018,29.793802,-11.67637,8.340058,-32.600735,41.086998,10.408192,7.426468,55.343174,-13.827233,-10.031592,29.689283,33.58357,-19.146385,13.527036,-61.717457
225,1.383805751800537,0.27938365936279297,78.1476058959961,1.8338345321395788,11.349920627559998,171.83955510161016,-26.994713,-4.879821,-9.630299,16.597273,1.8259844,-0.7229253,-29.417257,-11.326091,-17.795631,46.379635,-11.477796,0.4634531,0.2816395,-0.6694747,29.793802,-11.580926,8.393087,-32.57339,40.977264,10.346852,7.4199595,55.32096,-13.750603,-10.04785,29.679762,33.516994,-19.223288,13.5442,-61.693604
226,1.3840582370758057,0.2361794263124466,78.12300109863281,1.8310206468475483,11.301217655185525,171.75355919358427,-26.930012,-4.8781247,-9.533834,16.624218,1.6404527,-0.64559776,-29.428186,-11.333221,-17.704819,46.464897,-11.539543,0.50912166,0.2847184,-0.66160256,29.793802,-11.455911,8.46469,-32.550083,40.8393,10.292574,7.3961825,55.292767,-13.661238,-10.071357,29.670387,33.442486,-19.308079,13.54604,-61.655643
227,1.384092092514038,0.19357655942440033,78.09949493408203,1.833492643694617,11.248797887794986,171.6664787590855,-26.872416,-4.883719,-9.430643,16.669617,1.4673381,-0.5685793,-29.437899,-11.345731,-17.607788,46.551342,-11.597522,0.55708164,0.28692293,-0.6559188,29.793802,-11.343952,8.512619,-32.52631,40.73053,10.249466,7.362799,55.262344,-13.575654,-10.087132,29.65658,33.380608,-19.397934,13.540337,-61.61487
228,1.3863469362258911,0.1474989950656891,78.07787322998047,1.838515089500395,11.19611892098632,171.5783087250168,-26.826517,-4.892484,-9.323579,16.732595,1.3118103,-0.5027257,-29.449278,-11.360055,-17.506586,46.635513,-11.643344,0.60382926,0.28578895,-0.6541997,29.793802,-11.224809,8.55764,-32.4984,40.616997,10.211227,7.330327,55.225113,-13.486634,-10.100284,29.644892,33.311375,-19.484295,13.534736,-61.578228
229,1.3924404382705688,0.10325997322797775,78.05575561523438,1.8495843273535484,11.144248885553415,171.49097146353864,-26.798409,-4.9087687,-9.210867,16.81975,1.1780038,-0.45016974,-29.46792,-11.380998,-17.39903,46.725178,-11.676118,0.6508681,0.27422053,-0.66360784,29.793802,-11.076295,8.616548,-32.459023,40.467567,10.177158,7.298318,55.171997,-13.393647,-10.112255,29.639904,33.22415,-19.560041,13.531518,-61.54383
230,1.396582841873169,0.05642615631222725,78.03722381591797,1.8663427707611178,11.089306447237616,171.40392061416358,-26.781467,-4.932453,-9.091974,16.928612,1.0624766,-0.40522522,-29.486813,-11.407915,-17.285484,46.816193,-11.69875,0.6994727,0.26418427,-0.6756663,29.793802,-10.951762,8.645579,-32.419544,40.358707,10.151531,7.2597504,55.11328,-13.302878,-10.114042,29.627352,33.142746,-19.633696,13.52636,-61.51191
231,1.3985681533813477,0.006102747283875942,78.0258560180664,1.8822120750649871,11.03471598847555,171.31298488973394,-26.770231,-4.954272,-8.970513,17.04579,0.959149,-0.36694747,-29.504831,-11.431386,-17.169415,46.899403,-11.712998,0.7451012,0.24315087,-0.692131,29.793802,-10.7928295,8.689885,-32.37004,40.211903,10.13246,7.2257967,55.052254,-13.217292,-10.11127,29.628506,33.067204,-19.712107,13.517652,-61.482613
232,1.4020341634750366,-0.04193873330950737,78.01466369628906,1.8892861764502509,10.979376296274246,171.21406609866796,-26.755802,-4.9643483,-8.850672,17.16098,0.8593722,-0.33447298,-29.514431,-11.440651,-17.055578,46.962547,-11.71988,0.7833761,0.22338647,-0.70600307,29.793802,-10.626604,8.744487,-32.325573,40.06489,10.112831,7.1994123,55.007126,-13.146027,-10.1006,29.645021,33.02068,-19.802784,13.503363,-61.464508
233,1.4084677696228027,-0.09448187798261642,78.00724029541016,1.884677181137454,10.920000004049694,171.1067055293871,-26.734318,-4.9592414,-8.735729,17.274069,0.7639045,-0.31375554,-29.510931,-11.432095,-16.945923,47.00296,-11.718617,0.8086828,0.22526753,-0.7018923,29.793802,-10.503551,8.764284,-32.30777,39.98373,10.104374,7.1947665,54.991093,-13.06627,-10.092527,29.656998,32.99481,-19.920238,13.482754,-61.46292
234,1.4123241901397705,-0.14781443774700165,78.00192260742188,1.8736740175528417,10.85873706635575,170.99291537588198,-26.712252,-4.945212,-8.621902,17.391129,0.6755553,-0.3030342,-29.501085,-11.412401,-16.83705,47.028713,-11.709445,0.8247637,0.22421245,-0.69395596,29.793802,-10.367868,8.782819,-32.292137,39.896072,10.105621,7.2078485,54.989765,-12.99663,-10.081008,29.68386,32.99505,-20.054756,13.456967,-61.47361
235,1.411756157875061,-0.19687318801879883,77.99918365478516,1.857471291571268,10.798515292430256,170.87246440088742,-26.689144,-4.924335,-8.5060835,17.50448,0.59239763,-0.29041496,-29.485037,-11.3838215,-16.728575,47.03657,-11.693348,0.8414876,0.22094516,-0.6842993,29.793802,-10.227371,8.805969,-32.271152,39.81091,10.100147,7.206169,54.991188,-12.939308,-10.062501,29.72212,33.00826,-20.184628,13.427635,-61.48559
236,1.4085373878479004,-0.2492288053035736,77.99752044677734,1.8381152417027182,10.7426657310639,170.74549609414692,-26.662876,-4.8987594,-8.384784,17.602829,0.5148685,-0.2638884,-29.464117,-11.349338,-16.61974,47.02531,-11.672178,0.86857367,0.22218545,-0.6670031,29.793802,-10.09197,8.8250475,-32.245968,39.73544,10.072932,7.161164,54.98391,-12.891736,-10.045861,29.755037,33.015743,-20.291206,13.394705,-61.483425
237,1.4099804162979126,-0.3065982758998871,77.99752044677734,1.8119991339589128,10.691726208115794,170.60933281908783,-26.637129,-4.864847,-8.256617,17.693663,0.43961364,-0.2200891,-29.435286,-11.305092,-16.512775,46.988045,-11.6414385,0.9099173,0.2198287,-0.64436406,29.793802,-9.94686,8.852632,-32.202744,39.648415,10.016135,7.065772,54.959557,-12.859868,-10.024721,29.795643,33.01657,-20.363243,13.363328,-61.466366
238,1.4100747108459473,-0.36507314443588257,77.99833679199219,1.7792981974183282,10.643882354460077,170.4647896806597,-26.609766,-4.8225527,-8.123677,17.775738,0.36951715,-0.16549169,-29.398321,-11.250665,-16.407185,46.9264,-11.601265,0.9598936,0.21793468,-0.6140814,29.793802,-9.793194,8.883551,-32.15174,39.55292,9.939562,6.9365106,54.92708,-12.841766,-10.0051155,29.840776,33.0175,-20.41248,13.330477,-61.439003
