unveil-humanoid-operators/unveil-humanoid-operators.github.io/feature-analysis-animation/data/feature_matrix_instances/height_root_translate_rom_jogging_A138_jog_ff_loop_180_R_002__A138.csv
Frame,root_translateX,root_translateY,root_translateZ,root_rotateX,root_rotateY,root_rotateZ,left_hip_pitch_joint_dof,left_hip_roll_joint_dof,left_hip_yaw_joint_dof,left_knee_joint_dof,left_ankle_pitch_joint_dof,left_ankle_roll_joint_dof,right_hip_pitch_joint_dof,right_hip_roll_joint_dof,right_hip_yaw_joint_dof,right_knee_joint_dof,right_ankle_pitch_joint_dof,right_ankle_roll_joint_dof,waist_yaw_joint_dof,waist_roll_joint_dof,waist_pitch_joint_dof,left_shoulder_pitch_joint_dof,left_shoulder_roll_joint_dof,left_shoulder_yaw_joint_dof,left_elbow_joint_dof,left_wrist_roll_joint_dof,left_wrist_pitch_joint_dof,left_wrist_yaw_joint_dof,right_shoulder_pitch_joint_dof,right_shoulder_roll_joint_dof,right_shoulder_yaw_joint_dof,right_elbow_joint_dof,right_wrist_roll_joint_dof,right_wrist_pitch_joint_dof,right_wrist_yaw_joint_dof
0,0.7707231640815735,2.1807861328125,72.77629852294922,-6.459040868001471,2.747178013462671,-93.60824715890132,5.7124557,20.994314,10.601293,79.91811,-8.620517,-0.731488,-23.52768,1.2498486,-11.862492,46.732338,-26.493498,-0.80661917,-9.846616,7.177423,20.376099,10.619839,25.627499,-33.20272,-13.245799,19.46763,-2.5695114,7.97046,13.433784,-22.611567,24.00986,29.325798,6.168018,-2.136078,-15.371072
1,0.6457721590995789,1.1291301250457764,72.59339141845703,-6.491393175249736,2.5217675567677613,-93.7392901425049,3.5674717,20.68353,9.291884,82.71787,-9.392071,-0.7501046,-22.525742,1.4300592,-11.70359,47.26947,-27.74908,-0.708624,-9.295101,7.269678,20.879198,11.254391,25.452047,-32.595303,-10.944429,17.968674,-2.3485467,9.196796,11.305164,-22.379503,24.322733,28.807987,5.3509526,-2.2940483,-16.26269
2,0.5500566363334656,0.07827076315879822,72.42127227783203,-6.520186757709247,2.290463518197809,-93.86858543035655,1.4397509,20.292631,7.967058,85.60491,-10.173491,-0.7959822,-21.542805,1.5936521,-11.540101,47.863247,-29.034672,-0.6102166,-8.7504425,7.332305,21.340918,11.782903,25.111277,-31.998833,-8.404543,16.514198,-2.2093008,10.406951,9.055628,-21.986265,24.62073,28.524076,4.4754343,-2.438445,-17.288189
3,0.4575643241405487,-0.9775972962379456,72.2968978881836,-6.541937385764185,2.067518363772195,-94.00071142868167,-0.6673822,19.87682,6.742074,88.34574,-10.970102,-0.8608572,-20.51732,1.7468864,-11.3589735,48.3449,-30.25721,-0.50017565,-8.155417,7.386465,21.730585,12.161597,24.665024,-31.481167,-5.6867976,15.070351,-2.0126436,11.562093,6.770504,-21.501541,24.94699,28.304968,3.6031535,-2.593955,-18.119709
4,0.36735695600509644,-2.0458922386169434,72.18461608886719,-6.55150106871395,1.867511052524676,-94.13617648376238,-2.7528365,19.5031,5.7212534,90.686005,-11.773692,-0.92595917,-19.377535,1.8951439,-11.150941,48.536575,-31.323969,-0.36707667,-7.5026627,7.434696,22.017693,12.400138,24.171387,-31.04868,-2.8765683,13.5997925,-1.6235332,12.61914,4.4778914,-20.985094,25.42485,28.028711,2.8075259,-2.798985,-18.44062
5,0.28767910599708557,-3.116790294647217,72.1183090209961,-6.576416486718336,1.6832396895186508,-94.28249670907238,-4.83364,19.22789,4.888879,92.594154,-12.577979,-1.0080512,-18.09646,2.0775506,-10.918119,48.39272,-32.21409,-0.21487388,-6.8015256,7.5091405,22.226868,12.49659,23.658401,-30.70021,0.13738324,11.7533,-0.86423993,13.713194,2.1770973,-20.465855,26.110123,27.657421,2.2678292,-3.1242595,-17.93974
6,0.24624277651309967,-4.203290939331055,72.08198547363281,-6.612883998932224,1.5107963698587399,-94.43643565397483,-6.915036,19.027414,4.18945,94.18865,-13.381048,-1.096944,-16.71276,2.2829885,-10.667876,48.006134,-32.975994,-0.049323794,-6.0739694,7.6020412,22.378927,12.510951,23.14175,-30.39911,3.274319,9.635357,0.13500127,14.852734,-0.11647676,-19.953308,26.958403,27.199173,1.9203571,-3.5398903,-16.854591
7,0.1827983260154724,-5.297316074371338,72.09002685546875,-6.60882218283544,1.369329089729195,-94.58311849659401,-8.986332,18.859432,3.6629598,95.43876,-14.174755,-1.1270319,-15.251755,2.4424381,-10.40075,47.398384,-33.61725,0.13876416,-5.3362575,7.6528893,22.43857,12.554306,22.662266,-30.095167,6.1525154,7.9002414,1.0794634,15.784261,-2.3667388,-19.468641,27.961344,26.624771,1.4690492,-3.9412303,-15.693824
8,0.11317591369152069,-6.405967712402344,72.15647888183594,-6.511935334378565,1.278151260299993,-94.70777549340237,-11.0341425,18.680262,3.3532166,96.31183,-14.9498625,-1.0361073,-13.739724,2.4858472,-10.119457,46.592804,-34.142487,0.3592971,-4.607896,7.6017604,22.379116,12.757842,22.27737,-29.736563,8.357244,7.2165036,1.7101158,16.219763,-4.5339136,-19.03741,29.111208,25.888165,0.61018884,-4.2225924,-14.968599
9,0.02974538318812847,-7.507218360900879,72.24607849121094,-6.312832342784781,1.2455551806104235,-94.81865375290535,-13.083068,18.523,3.2945316,96.80432,-15.745841,-0.75353026,-12.196271,2.4036336,-9.812728,45.60905,-34.573704,0.61989254,-3.8931448,7.429742,22.201319,13.200303,22.041954,-29.266895,9.697547,8.135225,1.976754,15.977703,-6.6395383,-18.679935,30.512981,24.947762,-0.94223887,-4.285913,-14.923578
10,-0.02076932229101658,-8.659998893737793,72.37432098388672,-6.037850973453806,1.2597068050433562,-94.92028492850379,-15.1273365,18.402231,3.4563615,96.9244,-16.549591,-0.33528692,-10.603988,2.2280962,-9.488002,44.430416,-34.902428,0.9146009,-3.191076,7.164912,21.941006,13.864458,21.97591,-28.718636,10.32321,10.171562,2.015738,15.229071,-8.661516,-18.389656,32.15578,23.78146,-2.9479074,-4.1947155,-15.241624
11,-0.05027179792523384,-9.848625183105469,72.53731536865234,-5.688715126324404,1.3093304275981779,-94.99260334188949,-17.100712,18.251179,3.7988508,96.65639,-17.280762,0.09799635,-8.934868,1.9507446,-9.181362,43.02931,-35.088493,1.2366346,-2.5026786,6.817545,21.621428,14.711781,22.072357,-28.184244,10.356602,12.442125,1.8608711,14.209791,-10.517946,-18.150982,33.843933,22.397697,-4.931652,-4.0941334,-15.595102
12,-0.09846781939268112,-11.070021629333496,72.73112487792969,-5.26796244116213,1.382935858177117,-95.01591026962802,-18.93698,18.006191,4.2836328,95.98528,-17.857903,0.42747304,-7.1593723,1.5655314,-8.929355,41.375664,-35.09166,1.5779303,-1.818926,6.4017243,21.261168,15.672558,22.305054,-27.76245,9.950916,14.063388,1.5812418,13.153473,-12.1263075,-17.951296,35.3591,20.810276,-6.435793,-4.155216,-15.668853
13,-0.12298298627138138,-12.276053428649902,72.95743560791016,-4.760084182981876,1.5012304539843977,-94.95992970545852,-20.666986,17.64464,4.922653,94.899414,-18.275064,0.6193807,-5.241859,1.0493406,-8.767701,39.36423,-34.94837,1.9504182,-1.1482054,5.9115868,20.821924,16.741129,22.665964,-27.49108,9.055778,14.872045,1.1544273,11.953892,-13.482763,-17.798937,36.655163,19.009333,-7.3306847,-4.5244284,-15.339308
14,-0.15468454360961914,-13.536988258361816,73.22297668457031,-4.16825986962868,1.6605478455946832,-94.84267824515715,-22.292627,17.199305,5.7436285,93.39949,-18.573736,0.7267424,-3.2059484,0.41371605,-8.67758,37.0452,-34.66544,2.3513181,-0.4829864,5.3434663,20.31244,17.924189,23.156197,-27.320084,7.6418695,15.305594,0.5658456,10.540518,-14.628856,-17.706152,37.83133,16.99256,-7.863321,-5.0845675,-14.790952
15,-0.18537212908267975,-14.820090293884277,73.50687408447266,-3.523076197036174,1.8138492475548273,-94.7164015611559,-23.710672,16.692505,6.7232747,91.491066,-18.742231,0.76469404,-1.1140542,-0.29287192,-8.610394,34.62694,-34.169727,2.7514377,0.21107483,4.716359,19.815746,19.157278,23.747847,-27.211954,5.916992,15.395222,-0.06484104,9.190556,-15.565645,-17.669014,38.882023,14.803399,-8.150699,-5.6211543,-14.1772785
16,-0.21085944771766663,-16.099258422851562,73.80482482910156,-2.85703592281062,1.9154444267228417,-94.63398501594763,-24.824854,16.150188,7.829859,89.18296,-18.77318,0.7555491,0.9702264,-1.0230638,-8.514137,32.318462,-33.38468,3.12614,0.9719427,4.054752,19.405735,20.355108,24.394339,-27.140198,4.1235332,15.187886,-0.6195508,8.186707,-16.305323,-17.67673,39.79919,12.507491,-8.317509,-5.9195075,-13.651991
17,-0.2188001126050949,-17.429800033569336,74.13489532470703,-2.13904372037621,1.9161559324734008,-94.59837316069212,-25.552069,15.538152,9.088646,86.434494,-18.660244,0.70056593,3.155789,-1.7968436,-8.372317,30.02152,-32.261494,3.4870186,1.8173769,3.335628,19.12571,21.470304,25.0667,-27.13378,2.306859,14.512683,-1.0807436,7.6729546,-16.837893,-17.722902,40.55821,10.097832,-8.357203,-5.8613067,-13.28782
18,-0.23843835294246674,-18.741802215576172,74.49995422363281,-1.3689216227098213,1.8524662156476044,-94.58387072488006,-25.963459,14.846052,10.490422,83.253075,-18.414797,0.58363307,5.428721,-2.62565,-8.217576,27.68928,-30.859657,3.8430552,2.7195513,2.5688713,18.924902,22.530968,25.756903,-27.194807,0.39283454,13.425431,-1.501459,7.470659,-17.184875,-17.812828,41.172417,7.5774574,-8.224261,-5.5764194,-12.992215
19,-0.24574480950832367,-20.067411422729492,74.86175537109375,-0.6277255805396407,1.8080552642729966,-94.5980960286044,-26.197552,14.135111,11.942472,79.70935,-18.049265,0.39847258,7.537018,-3.4449453,-8.0526285,25.6142,-29.265354,4.1583333,3.6477706,1.8293047,18.731201,23.55498,26.444231,-27.263947,-1.5439309,12.318017,-1.8777542,7.3871684,-17.385674,-17.950264,41.687077,5.0141172,-8.000951,-5.225056,-12.674145
20,-0.23486551642417908,-21.404420852661133,75.21820831298828,0.006445109748029953,1.8678065279053742,-94.64865218834686,-26.393597,13.47017,13.359429,75.872505,-17.571651,0.14142144,9.231031,-4.191055,-7.8693295,24.083694,-27.560883,4.39559,4.5664506,1.1858648,18.465288,24.556074,27.097292,-27.283955,-3.420527,11.583792,-2.2026415,7.2339697,-17.48373,-18.135454,42.15524,2.484273,-7.767014,-4.9686165,-12.241803
21,-0.19731982052326202,-22.76100730895996,75.57536315917969,0.5270508459812054,2.0908637643330645,-94.76839063822996,-26.5871,12.921345,14.840405,71.67919,-16.98523,-0.18582197,10.38073,-4.8681436,-7.6300063,23.21964,-25.728462,4.5397587,5.504493,0.644089,18.07198,25.501959,27.689547,-27.261532,-5.2201505,11.380896,-2.451969,6.993943,-17.503077,-18.370583,42.585033,-0.013422723,-7.447149,-4.8468046,-11.635085
22,-0.15361224114894867,-24.125694274902344,75.93260192871094,0.9730592105350357,2.422559308625995,-94.94066968250458,-26.701185,12.418884,16.395357,67.10611,-16.28222,-0.58552575,11.128298,-5.506018,-7.3343496,22.8775,-23.74882,4.614525,6.4591155,0.16889329,17.59434,26.373768,28.210241,-27.229086,-6.9484744,11.493207,-2.6422658,6.760007,-17.425877,-18.656466,42.956398,-2.5018446,-7.031292,-4.7710714,-10.916135
23,-0.10212212800979614,-25.500246047973633,76.28658294677734,1.3375737584749872,2.776604276224634,-95.10485587692783,-26.707212,11.835566,17.799917,62.263386,-15.439681,-1.0568209,11.672861,-6.074968,-7.02573,22.853157,-21.655613,4.6369267,7.3518214,-0.2376929,17.094707,27.20182,28.65395,-27.169798,-8.553204,11.746573,-2.8239086,6.5105805,-17.244774,-18.98665,43.284527,-4.9241614,-6.689201,-4.715831,-10.173252
24,-0.045371487736701965,-26.868671417236328,76.6311264038086,1.6095814205596046,3.063815123760557,-95.19988284491158,-26.582073,11.076203,18.81208,57.266197,-14.445322,-1.5770067,12.203406,-6.5423594,-6.7545233,22.972118,-19.49596,4.6245995,8.100991,-0.5643707,16.636274,28.028522,29.017866,-27.059624,-9.993187,11.967133,-3.045894,6.2224283,-16.953896,-19.346199,43.58739,-7.2185864,-6.592884,-4.661642,-9.495544
25,0.02673524059355259,-28.252002716064453,76.95907592773438,1.7747177848461837,3.278173862920491,-95.2280516424052,-26.290527,10.107203,19.352169,51.93992,-13.234969,-2.1616893,12.756415,-6.8976097,-6.5134377,23.162437,-17.197386,4.6015964,8.686834,-0.79050595,16.2158,28.896456,29.294888,-26.864515,-11.28455,12.150618,-3.341787,5.854957,-16.582735,-19.723597,43.894253,-9.343148,-6.8337536,-4.630211,-8.889914
26,0.11470212042331696,-29.676273345947266,77.27374267578125,1.8410976732381483,3.4601382743819356,-95.22293982542612,-25.829617,9.033919,19.526361,46.252007,-11.831276,-2.7717164,13.246207,-7.1539254,-6.2803574,23.502022,-14.744864,4.560093,9.152567,-0.92359704,15.7985525,29.775402,29.480597,-26.605085,-12.436862,12.377222,-3.6800685,5.4312162,-16.13941,-20.110466,44.195732,-11.3166485,-7.308098,-4.6315913,-8.313717
27,0.2141486555337906,-31.13562774658203,77.56668090820312,1.822860352940822,3.588604796102042,-95.16868390974824,-25.235792,7.979403,19.371855,40.56047,-10.367465,-3.3081656,13.679765,-7.3062315,-6.0910287,24.043522,-12.273927,4.458754,9.509635,-0.9828061,15.400216,30.600782,29.581947,-26.33753,-13.401946,12.597902,-4.0093155,5.023859,-15.59976,-20.495256,44.45246,-13.153697,-7.889343,-4.626654,-7.7793317
28,0.30053073167800903,-32.591087341308594,77.82293701171875,1.7359405268545531,3.643358845817029,-95.04765248227882,-24.563385,7.0345225,18.948572,35.24348,-8.971461,-3.699871,14.062063,-7.3566008,-5.9873376,24.8406,-9.921223,4.2418184,9.769953,-0.99106425,15.038322,31.306627,29.61462,-26.116245,-14.135848,12.760219,-4.276151,4.705988,-14.938254,-20.865131,44.62086,-14.873891,-8.452373,-4.573881,-7.2979126
29,0.3841170072555542,-34.067962646484375,78.03593444824219,1.5527614645819625,3.6079023354083493,-94.84044783755577,-23.79816,6.1863666,18.197517,30.250383,-7.587527,-3.9608448,14.416061,-7.2757077,-6.0016546,25.8975,-7.673553,3.8170826,9.93378,-0.92528206,14.709905,31.906404,29.589153,-25.951952,-14.619755,12.825919,-4.486592,4.5138445,-14.113649,-21.207287,44.67402,-16.51981,-9.083469,-4.4465485,-6.8468013
30,0.4619065225124359,-35.5408821105957,78.19631958007812,1.266800918998779,3.4956941958589467,-94.5646664835669,-22.912897,5.417104,17.120798,25.428728,-6.172499,-4.126806,14.740389,-7.08561,-6.119577,27.174128,-5.468033,3.200647,10.002382,-0.77339715,14.408244,32.434,29.508715,-25.814743,-14.894192,12.828421,-4.6597967,4.4047537,-13.161086,-21.515802,44.63775,-18.056105,-9.810941,-4.2733216,-6.4238043
31,0.5166077017784119,-37.012420654296875,78.31990814208984,0.9316338430485548,3.33328682685394,-94.25295828176522,-21.986935,4.7683897,15.89041,21.059122,-4.8880715,-4.1879816,14.997551,-6.871284,-6.3110156,28.669935,-3.373475,2.505211,9.984698,-0.5836617,14.146247,32.857544,29.379774,-25.695217,-15.009634,12.824821,-4.7619767,4.3325477,-12.157527,-21.789463,44.547905,-19.387114,-10.42924,-4.090627,-6.0736914
32,0.5797424912452698,-38.489131927490234,78.39639282226562,0.6122118225317025,3.1504683507431617,-93.93303772722432,-21.121704,4.2490582,14.684522,17.445164,-3.9054866,-4.142784,15.145715,-6.711225,-6.5386276,30.383636,-1.4524503,1.8746617,9.885673,-0.41695234,13.934717,33.14095,29.210682,-25.586164,-15.013359,12.871007,-4.7597733,4.2513494,-11.179688,-22.030382,44.438023,-20.423944,-10.729026,-3.9313161,-5.844057
33,0.6457445025444031,-39.94337463378906,78.42935943603516,0.31337174935368467,2.9696834995256407,-93.58285025134222,-20.405605,3.871018,13.533849,14.747765,-3.3678372,-3.928795,15.147101,-6.600297,-6.8398404,32.379642,0.28253707,1.3178388,9.679505,-0.28584722,13.75465,33.28726,29.002586,-25.480968,-14.913298,13.001035,-4.5967574,4.136875,-10.225615,-22.2356,44.311703,-21.132917,-10.572588,-3.8144991,-5.756124
34,0.7048486471176147,-41.39015197753906,78.42076110839844,0.033897028912285555,2.779363671243807,-93.18100695997624,-19.819958,3.5659413,12.362624,12.835252,-3.1812055,-3.5880144,15.021991,-6.530635,-7.227218,34.655087,1.8558618,0.7913482,9.356865,-0.19056964,13.605009,33.3111,28.754995,-25.384466,-14.685699,13.17775,-4.307139,4.016268,-9.266213,-22.399479,44.157967,-21.562218,-10.097584,-3.7167308,-5.784673
35,0.7678316235542297,-42.833290100097656,78.39768981933594,-0.16401125624207258,2.5603720390039957,-92.75549960193842,-19.31832,3.2226267,11.183949,11.606998,-3.168448,-3.2599237,14.801808,-6.5655103,-7.612614,37.132957,3.25502,0.3850034,8.947376,-0.1814634,13.521631,33.18849,28.476982,-25.30892,-14.326932,13.347301,-3.9940002,3.9211905,-8.329557,-22.520973,43.981007,-21.748009,-9.506615,-3.6072319,-5.9093757
36,0.8330193161964417,-44.25147247314453,78.32472229003906,-0.22669165383885134,2.290835459375214,-92.3380463419614,-18.850195,2.755844,10.00659,10.978149,-3.1513221,-3.0688012,14.522013,-6.760192,-7.9007416,39.73349,4.464624,0.18298143,8.486002,-0.30391043,13.539318,32.90084,28.184269,-25.264591,-13.840881,13.454342,-3.7595332,3.8854911,-7.443982,-22.604115,43.78158,-21.729269,-9.000256,-3.4550798,-6.1090703
37,0.8796741962432861,-45.65339660644531,78.19623565673828,-0.1351964424252927,1.9624835181747362,-91.91886490270798,-18.388855,2.114853,8.721744,10.912457,-2.9612446,-3.156846,14.188117,-7.1315794,-8.090033,42.48106,5.5535364,0.24447015,7.971604,-0.58607745,13.669996,32.438988,27.88964,-25.247175,-13.221053,13.48124,-3.630927,3.8955219,-6.599054,-22.65039,43.546158,-21.502531,-8.535489,-3.2152016,-6.4169345
38,0.9180911779403687,-47.039939880371094,78.00706481933594,0.08541812775651404,1.5871694825180496,-91.485516921992,-17.977568,1.3451209,7.3599296,11.485072,-2.7451398,-3.4169648,13.774531,-7.6445956,-8.207293,45.431435,6.4867663,0.52872103,7.393117,-1.010896,13.889608,31.819962,27.597504,-25.25359,-12.479308,13.453243,-3.5532491,3.9432054,-5.777666,-22.658777,43.273212,-21.060543,-8.034788,-2.9194145,-6.8328943
39,0.9855670928955078,-48.42009353637695,77.81843566894531,0.41392175566805195,1.1694775835210465,-91.07035505787792,-17.663137,0.5131533,6.1433144,12.763948,-2.7869272,-3.5975194,13.276009,-8.264706,-8.196659,48.547787,7.095208,0.9679292,6.776283,-1.5480356,14.179926,31.068825,27.310665,-25.293777,-11.650764,13.3800125,-3.505024,4.071454,-4.996747,-22.63438,42.980885,-20.436182,-7.651162,-2.647968,-7.2828193
40,1.0849617719650269,-49.75764465332031,77.61466217041016,0.8204968511882134,0.7116907914433209,-90.71061622309114,-17.490704,-0.29822147,5.294967,14.808574,-3.3585997,-3.4403665,12.692674,-8.942731,-8.0049305,51.78867,7.2138515,1.4933186,6.1513186,-2.1556718,14.527062,30.210642,27.03045,-25.37686,-10.771417,13.271695,-3.464944,4.3229246,-4.266114,-22.586695,42.685577,-19.672735,-7.5402637,-2.4774456,-7.691066
41,1.1558705568313599,-51.10413360595703,77.32514953613281,1.2768736729522094,0.16515514322725197,-90.41849421652303,-17.576967,-1.0332317,4.89477,18.077154,-4.6365423,-2.7609007,12.099793,-9.630551,-7.628713,55.19,6.7006483,2.2106297,5.5068064,-2.802469,14.967858,29.28926,26.75007,-25.489645,-9.861876,13.147578,-3.4370914,4.7287335,-3.6069877,-22.531023,42.410725,-18.777657,-7.863692,-2.4474256,-7.995269
42,1.2608977556228638,-52.44929122924805,77.0122299194336,1.739158460133903,-0.47293601136783925,-90.19490689060679,-17.804266,-1.6886119,4.794794,22.291025,-6.382291,-1.7515167,11.498496,-10.272201,-7.1010714,58.75255,5.670018,3.1056833,4.8532267,-3.4485292,15.505082,28.28821,26.466263,-25.6297,-8.908428,12.998552,-3.430204,5.2591867,-2.9958944,-22.477234,42.139603,-17.749292,-8.499395,-2.5056286,-8.249996
43,1.3528157472610474,-53.75376892089844,76.65613555908203,2.207147432791275,-1.1175139577567872,-90.04474942294257,-17.912186,-2.3018944,4.8819294,26.466476,-8.283585,-0.69532245,10.761194,-10.864294,-6.424374,62.38867,4.34524,3.945746,4.243529,-4.094758,16.070461,27.136824,26.190588,-25.821386,-7.893743,12.790191,-3.4308996,5.867726,-2.380751,-22.424068,41.82398,-16.602736,-9.176028,-2.590524,-8.554136
44,1.4557691812515259,-55.037559509277344,76.24722290039062,2.741687292815062,-1.6693343198355464,-89.95757225383869,-17.722826,-2.9668427,5.068884,29.762316,-10.099564,0.14135247,9.746721,-11.462969,-5.5821137,66.007515,2.9585133,4.52539,3.721173,-4.8064976,16.587992,25.762619,25.945433,-26.088684,-6.8037434,12.483682,-3.4265125,6.5102115,-1.7090236,-22.35963,41.41265,-15.350393,-9.623826,-2.6422272,-9.004243
45,1.5256963968276978,-56.284027099609375,75.86123657226562,3.4535659883229615,-2.091733546983873,-89.9307724450992,-17.2309,-3.7792463,5.425434,32.050415,-11.895223,0.7227302,8.371897,-12.139633,-4.457317,69.679955,1.5055346,4.7915783,3.3137827,-5.7043514,17.04369,24.127405,25.752693,-26.437256,-5.639746,11.951529,-3.428949,7.185974,-0.9401137,-22.271076,40.867287,-14.067919,-9.829653,-2.639133,-9.661205
46,1.6006605625152588,-57.54288864135742,75.47972106933594,4.312400136150441,-2.4312151824706705,-89.96234715666542,-16.566988,-4.6956124,5.9638863,33.82272,-13.79722,1.191874,6.732611,-12.834,-3.0880895,73.41316,-0.10221047,4.883625,2.9958777,-6.7562923,17.472708,22.291653,25.61695,-26.849968,-4.4387717,11.243773,-3.4449146,7.9207606,-0.10489762,-22.155127,40.213863,-12.720275,-9.918077,-2.6184921,-10.459523
47,1.6736931800842285,-58.79643630981445,75.12693786621094,5.174333947924272,-2.710525750762438,-90.0408581804596,-15.7736845,-5.601526,6.5313973,35.209373,-15.684649,1.5547268,4.9419966,-13.438223,-1.6721082,77.01853,-1.7469923,4.879387,2.725013,-7.8055305,17.87214,20.331177,25.52915,-27.313148,-3.2384012,10.588281,-3.4510562,8.708864,0.7423974,-22.0097,39.50173,-11.158829,-9.825936,-2.6105049,-11.305878
48,1.7550500631332397,-60.07883071899414,74.83475494384766,5.894385161004945,-2.9532197240107685,-90.15518667210851,-14.8805485,-6.37824,6.9866652,36.32653,-17.430277,1.816557,3.096719,-13.886957,-0.4076189,80.31633,-3.3184557,4.8321977,2.4555986,-8.691003,18.240486,18.314425,25.471937,-27.81285,-2.0638156,10.215783,-3.4174185,9.542973,1.5386137,-21.83348,38.783463,-9.227918,-9.491245,-2.6490386,-12.106826
49,1.8292386531829834,-61.32210922241211,74.57321166992188,6.4650362217011565,-3.156495960850699,-90.3452216456274,-13.84545,-7.006819,7.356672,37.110416,-19.018295,1.9617496,1.1500695,-14.210467,0.7466691,83.33295,-4.808233,4.7214007,2.2066007,-9.38318,18.5852,16.150728,25.437893,-28.416264,-0.78002346,10.196098,-3.32861,10.494854,2.2423184,-21.614681,38.051136,-6.7271204,-8.824416,-2.8526707,-12.8965435
50,1.8886985778808594,-62.56294250488281,74.33856964111328,6.956761301914837,-3.3083156584697795,-90.60056091359694,-12.666134,-7.5471716,7.7068043,37.527897,-20.510265,1.9967746,-0.94193435,-14.451655,1.8765073,86.146866,-6.26101,4.509659,1.9844058,-9.964043,18.904943,13.8438015,25.420135,-29.094809,0.57391435,10.403652,-3.1932685,11.544922,2.884644,-21.349173,37.28741,-3.7791226,-7.889926,-3.1767938,-13.696302
51,1.9297407865524292,-63.7890739440918,74.11674499511719,7.342675052122065,-3.4212506021156766,-90.83616967271422,-11.422537,-7.995484,7.9609976,37.731693,-21.890137,1.9597207,-3.0931408,-14.603152,2.8536797,88.66283,-7.6468472,4.2169085,1.7194229,-10.440043,19.181084,11.590741,25.40148,-29.69607,1.7417045,10.78124,-3.014267,12.5417795,3.504977,-21.058964,36.540634,-0.7156843,-6.8525596,-3.4037733,-14.402889
52,1.981276273727417,-65.01305389404297,73.93570709228516,7.597653805474409,-3.509685896553467,-90.96728589463618,-10.193509,-8.346342,8.042769,37.875668,-23.14252,1.8880922,-5.215134,-14.659897,3.5451603,90.7797,-8.932451,3.8664455,1.3375478,-10.816046,19.392958,9.572898,25.36447,-30.078724,2.495253,11.277369,-2.8008494,13.327492,4.142748,-20.782818,35.866913,2.123463,-5.8642273,-3.3081377,-14.929369
53,2.023014545440674,-66.23784637451172,73.79966735839844,7.700452825810207,-3.588658022032445,-90.98525354390902,-8.999302,-8.580159,7.9275455,38.046375,-24.285425,1.7698833,-7.3274455,-14.604057,3.9439225,92.50212,-10.095522,3.4099786,0.82673126,-11.078302,19.567583,7.8049703,25.295553,-30.190575,2.8329098,12.039284,-2.541045,13.861522,4.783436,-20.534344,35.28364,4.8339643,-4.835211,-2.6234896,-15.273876
54,2.051643133163452,-67.4831771850586,73.6966323852539,7.673746394421601,-3.6486922584925545,-90.9298091221268,-7.7948337,-8.698194,7.6667356,38.149952,-25.323483,1.5929544,-9.467945,-14.466986,4.107388,93.87138,-11.150965,2.8463414,0.21587244,-11.224613,19.703922,6.1749754,25.19417,-30.12753,2.896678,13.048449,-2.2355998,14.216314,5.4162607,-20.317633,34.76534,7.5227265,-3.7148294,-1.5323273,-15.500425
55,2.0785417556762695,-68.70246124267578,73.62541198730469,7.543126544424345,-3.667509424044754,-90.78837105907994,-6.5581074,-8.722809,7.2942915,38.068424,-26.219332,1.3948337,-11.574688,-14.335537,4.0005836,94.83781,-12.123087,2.272048,-0.49387437,-11.273088,19.745588,4.6585975,25.070463,-29.993063,2.6824875,14.004858,-1.9212126,14.40788,6.121365,-20.168495,34.28551,9.83293,-2.7146506,-0.4773834,-15.618341
56,2.092622995376587,-69.94703674316406,73.60665130615234,7.338473456038273,-3.6221828374371783,-90.54829160058493,-5.2695093,-8.679411,6.841309,37.686302,-26.936039,1.2146933,-13.58412,-14.297335,3.5892394,95.3525,-13.039901,1.7832,-1.2957778,-11.238398,19.645084,3.2399998,24.943827,-29.88853,2.1676645,14.606695,-1.6361816,14.458449,7.0020785,-20.149649,33.81155,11.370338,-2.041208,0.09965478,-15.617859
57,2.1272382736206055,-71.19193267822266,73.63477325439453,7.046307065937978,-3.5060242199740843,-90.16602024521303,-3.9271903,-8.556737,6.280979,36.964546,-27.495848,1.0694377,-15.474014,-14.421474,2.7727242,95.37796,-13.917142,1.4265757,-2.2072768,-11.100581,19.404638,1.9244432,24.823687,-29.819843,1.2321235,14.685416,-1.3660634,14.327216,8.202145,-20.32908,33.297333,11.798049,-1.8394159,-0.008416911,-15.4469795
58,2.1499216556549072,-72.48958587646484,73.71263122558594,6.655239611550448,-3.32979996725668,-89.66132600360501,-2.5414932,-8.336024,5.6068025,35.97855,-27.914679,0.9427496,-17.259956,-14.65851,1.5886303,94.94154,-14.739559,1.1533011,-3.20137,-10.842381,19.07648,0.7072695,24.711998,-29.767954,-0.09519026,14.428644,-1.0999789,14.026711,9.719884,-20.733044,32.74744,11.282102,-1.9533719,-0.52913415,-15.111484
59,2.157151222229004,-73.80844116210938,73.84502410888672,6.201823959373173,-3.0975453117902187,-89.11706623758141,-1.1151506,-8.028216,4.8792186,34.788284,-28.14794,0.8177908,-18.93604,-14.917111,0.20930783,94.092354,-15.493829,0.9130211,-4.2090015,-10.483842,18.684507,-0.43567604,24.62122,-29.785545,-1.6184473,14.061724,-0.8808315,13.658962,11.428876,-21.346144,32.209175,10.199578,-2.1413162,-1.1861459,-14.680405
60,2.170034408569336,-75.13622283935547,74.0041275024414,5.7236998118410565,-2.8145282284947193,-88.6167160470697,0.346531,-7.6476173,4.1613035,33.448536,-28.147472,0.6686849,-20.507174,-15.09672,-1.1886225,92.87877,-16.165516,0.65307844,-5.1703153,-10.052241,18.242785,-1.5102218,24.568523,-29.912607,-3.1531482,13.808612,-0.75415784,13.322696,13.167524,-22.120495,31.725933,8.973662,-2.1713505,-1.7038243,-14.225196
61,2.1732730865478516,-76.48931121826172,74.20020294189453,5.215733056290027,-2.4735816388509826,-88.17611178659595,1.8841462,-7.1904674,3.4513674,31.861433,-27.910997,0.47414374,-21.98653,-15.180212,-2.603935,91.291664,-16.80903,0.347959,-6.068618,-9.552352,17.72754,-2.5035768,24.566805,-30.160316,-4.724269,13.714328,-0.7191426,13.012267,14.880942,-23.027737,31.32735,7.67188,-1.9247681,-2.0368478,-13.730019
62,2.1937458515167236,-77.87091827392578,74.42224884033203,4.663602946188927,-2.074065428396572,-87.75561529839196,3.4766731,-6.646371,2.7278798,30.038973,-27.4623,0.24132852,-23.354136,-15.202689,-4.124603,89.30405,-17.417477,0.045544576,-6.9370894,-8.976603,17.142616,-3.3936934,24.620205,-30.49829,-6.4272227,13.658541,-0.7550934,12.686085,16.63452,-24.056646,30.980438,6.126528,-1.5518614,-2.3209221,-13.165602
63,2.2162952423095703,-79.28050231933594,74.68939971923828,4.088514696325537,-1.6325211885149307,-87.35536971728617,5.0291004,-6.03111,2.0244808,28.190197,-26.786022,-0.01620451,-24.578344,-15.1428175,-5.7010813,86.93794,-17.883944,-0.2049092,-7.8014708,-8.338837,16.532574,-4.1639442,24.732428,-30.890633,-8.18509,13.618082,-0.8812622,12.385539,18.415758,-25.169498,30.635374,4.4436784,-1.2293023,-2.555682,-12.588823
64,2.207034111022949,-80.67949676513672,74.96870422363281,3.5091393938857216,-1.1658594638694513,-86.97543044313817,6.4488773,-5.365649,1.3706566,26.527142,-25.869532,-0.27973586,-25.633326,-14.982339,-7.2805486,84.21606,-18.100618,-0.35978004,-8.689835,-7.659428,15.934554,-4.801032,24.907581,-31.299944,-9.911281,13.571476,-1.1162808,12.151703,20.18942,-26.31099,30.249432,2.7623508,-1.1405162,-2.7469006,-12.059938
65,2.188053607940674,-82.10655212402344,75.27742004394531,2.9105296385505515,-0.6693069493656374,-86.60458705081604,7.7377663,-4.6349206,0.7404685,25.042883,-24.69107,-0.5578998,-26.523462,-14.698681,-8.88177,81.1225,-18.036982,-0.42637524,-9.636719,-6.9296455,15.333121,-5.3044853,25.157127,-31.725687,-11.583026,13.516408,-1.5310035,12.039973,21.897781,-27.44553,29.850868,1.166635,-1.4780364,-2.8894484,-11.593959
66,2.189408302307129,-83.56375122070312,75.61170959472656,2.291723479466593,-0.13779411237694447,-86.25046396619285,8.925766,-3.8485787,0.12742233,23.657597,-23.268082,-0.8541482,-27.254597,-14.290817,-10.522681,77.64238,-17.751259,-0.41539368,-10.61702,-6.155715,14.71238,-5.6742406,25.489027,-32.176224,-13.24659,13.462353,-2.093604,12.013419,23.524578,-28.561071,29.45893,-0.36084715,-2.1082883,-2.9918497,-11.16218
67,2.1747968196868896,-85.00553131103516,75.95445251464844,1.700049672302715,0.4107865486442485,-85.93973842676237,9.972529,-3.065991,-0.416133,22.470985,-21.648497,-1.1352481,-27.810638,-13.777842,-12.14268,73.79144,-17.261427,-0.29607728,-11.575547,-5.3807774,14.100722,-5.8969765,25.898512,-32.6243,-14.913134,13.407691,-2.664951,11.973437,25.107428,-29.632654,29.023478,-1.8410184,-2.7334034,-3.079987,-10.761272
68,2.1565611362457275,-86.46113586425781,76.31332397460938,1.179349971951359,0.9580195060912937,-85.69641969630584,10.845014,-2.343232,-0.8405629,21.582972,-19.875725,-1.3694236,-28.180796,-13.184242,-13.676213,69.57839,-16.582628,-0.04278756,-12.455418,-4.649274,13.519033,-5.9672637,26.372046,-33.0497,-16.585295,13.354428,-3.1065688,11.821611,26.65591,-30.62881,28.502163,-3.265267,-3.044557,-3.175068,-10.387567
69,2.12099289894104,-87.94020080566406,76.68399047851562,0.7224468596547932,1.5272988049968854,-85.52466892389737,11.509898,-1.6650776,-1.1233698,21.02654,-17.906616,-1.5365039,-28.375364,-12.527481,-15.152232,64.904686,-15.645904,0.30971175,-13.255405,-3.9566438,12.935761,-5.909692,26.905745,-33.47284,-18.22668,13.271864,-3.3836694,11.511047,28.200363,-31.52389,27.876835,-4.6464314,-2.9863997,-3.30724,-10.0263195
70,2.0821340084075928,-89.42328643798828,77.0485610961914,0.30993758723122294,2.1172177659408056,-85.40992973782892,12.001164,-1.013932,-1.3037854,20.745707,-15.734038,-1.6581547,-28.39144,-11.770388,-16.582933,59.764595,-14.451582,0.76176506,-13.990192,-3.2884007,12.342625,-5.741559,27.499762,-33.90926,-19.820871,13.173228,-3.5687094,11.101028,29.58349,-32.312447,27.209532,-5.846496,-2.662015,-3.4545548,-9.683574
71,2.0387542247772217,-90.9051513671875,77.39803314208984,-0.03290060417981684,2.6719713297951313,-85.3441250941457,12.39819,-0.4381731,-1.4243441,20.689642,-13.445416,-1.7687609,-28.20799,-10.884486,-17.864824,54.300873,-13.120436,1.3691112,-14.65344,-2.6780238,11.781593,-5.429784,28.14269,-34.309925,-21.401535,13.127869,-3.6862025,10.648882,30.9082,-32.983818,26.51196,-6.9468474,-2.19749,-3.5546732,-9.386066
72,1.9697295427322388,-92.4378662109375,77.73279571533203,-0.2775609840343738,3.134862719007155,-85.31671548032085,12.789608,0.009501486,-1.5271323,20.788645,-11.120039,-1.9032154,-27.803583,-9.874621,-18.881239,48.642345,-11.77413,2.168676,-15.237562,-2.1632116,11.294288,-4.951511,28.815157,-34.63099,-22.987587,13.205273,-3.7619731,10.212236,32.244225,-33.529423,25.797459,-8.001752,-1.6987835,-3.5474102,-9.16128
73,1.9149068593978882,-93.9557113647461,78.04194641113281,-0.4086355945102449,3.5035097100757335,-85.31629909470162,13.18525,0.30919087,-1.629712,21.007029,-8.664584,-2.0311215,-27.109266,-8.717047,-19.537838,42.529198,-10.343621,3.243015,-15.744497,-1.7546608,10.877485,-4.31391,29.506214,-34.886826,-24.572454,13.466579,-3.7920945,9.799553,33.526577,-33.943943,25.078154,-8.932097,-1.0333704,-3.4025517,-9.063907
74,1.8557846546173096,-95.48861694335938,78.32225799560547,-0.4227303410902591,3.797185275941394,-85.3346369726595,13.576747,0.4643063,-1.7208561,21.330467,-6.0404325,-2.161772,-26.106108,-7.498347,-19.875868,35.88346,-8.768419,4.4946384,-16.193789,-1.4611223,10.5021305,-3.5381308,30.212383,-35.0919,-26.122972,13.864621,-3.7694163,9.37847,34.82993,-34.22104,24.33555,-9.811652,-0.24815874,-3.1574264,-9.066491
75,1.8010096549987793,-97.04491424560547,78.56074523925781,-0.30456446570379464,3.9893495986164353,-85.36611273762949,14.027649,0.4496212,-1.801303,21.714062,-3.3992941,-2.3767257,-24.85715,-6.395773,-20.0,29.138071,-7.1782417,5.701031,-16.561543,-1.3172897,10.188056,-2.665053,30.919441,-35.249146,-27.619434,14.307608,-3.7136488,8.949526,35.791374,-34.381325,23.65064,-10.379784,0.5999128,-2.8571281,-9.073615
76,1.75509774684906,-98.60602569580078,78.73970031738281,-0.0361912112657174,4.05626251289956,-85.40739567919739,14.585525,0.2369854,-1.8736959,22.138521,-0.9076914,-2.7385383,-23.484575,-5.5627055,-20.041344,22.83336,-5.733289,6.677275,-16.884598,-1.3638643,9.932251,-1.6704543,31.609287,-35.297367,-29.054398,14.708026,-3.6454263,8.507059,36.80977,-34.425358,22.978136,-11.028466,1.0876052,-2.5392509,-8.9892435
77,1.7318874597549438,-100.16275787353516,78.87651062011719,0.4443856896442794,3.9760362027442233,-85.45589996068026,15.307684,-0.2564516,-1.9628172,22.536743,1.4564359,-3.2602062,-22.01574,-5.0505943,-20.00426,17.03231,-4.500497,7.4483643,-17.131231,-1.6619482,9.731364,-0.5690397,32.26468,-35.26781,-30.423891,15.092916,-3.554738,8.006502,37.57586,-34.373367,22.360277,-11.481143,1.3215641,-2.2023156,-8.768627
78,1.695356845855713,-101.71662902832031,78.95552825927734,1.1450248112735588,3.761563353706667,-85.5076822336597,16.155346,-1.0239779,-2.0790548,22.943909,3.7661836,-3.8822503,-20.413,-4.8335776,-19.85318,11.53162,-3.4090335,8.1014385,-17.326347,-2.2113771,9.569551,0.6455324,32.878426,-35.15976,-31.720858,15.497172,-3.4377515,7.4585285,38.28305,-34.224792,21.763298,-11.8898735,1.3334868,-1.8278661,-8.4694
79,1.657683253288269,-103.26329803466797,78.99442291259766,1.914514884978012,3.4664826132162943,-85.59433596358333,16.965761,-1.8641682,-2.1638582,23.591057,5.8717246,-4.57324,-19.023249,-4.8834996,-19.672783,7.1068377,-2.7203887,8.575627,-17.442055,-2.8578975,9.46597,1.8997602,33.443962,-34.988556,-32.896877,15.836001,-3.317824,6.9567575,38.82457,-33.991333,21.216301,-12.200719,1.194603,-1.4371527,-8.13773
80,1.6190353631973267,-104.79776763916016,78.98767852783203,2.565595224464153,3.1549916729500516,-85.759921569959,17.561165,-2.5509756,-2.1296844,24.721922,7.6059093,-5.324026,-19.277067,-5.479668,-19.428728,6.931703,-3.9579022,8.828726,-17.44704,-3.4079907,9.442648,3.129144,33.95257,-34.75754,-33.90683,16.023289,-3.2165766,6.595574,39.154243,-33.686115,20.74511,-12.413346,0.94509155,-1.0506957,-7.822732
81,1.5723602771759033,-106.29950714111328,78.94621276855469,3.0747173001790844,2.8410013998544903,-86.0358293011988,17.917723,-3.0720143,-1.8866757,26.39304,8.892006,-6.2097387,-19.297005,-5.898243,-19.398567,6.828795,-4.9293313,8.912138,-17.312346,-3.8286102,9.496141,4.313015,34.393147,-34.47139,-34.723015,15.977899,-3.1537397,6.398715,39.23315,-33.31666,20.346222,-12.516745,0.5494515,-0.6251441,-7.497437
82,1.5234363079071045,-107.77164459228516,78.87057495117188,3.4831196143523653,2.5101597246646157,-86.42037166597717,18.072643,-3.4955947,-1.4616177,28.554253,9.777289,-7.2311687,-19.10034,-6.160678,-19.506174,6.781678,-5.689123,8.848043,-17.033882,-4.158326,9.620102,5.472489,34.753876,-34.13774,-35.356033,15.7642975,-3.1112373,6.317785,39.09935,-32.884285,20.00818,-12.517439,0.00109005,-0.16861475,-7.14702
83,1.498473882675171,-109.2571029663086,78.76590728759766,3.7291162425268047,2.1736807655181405,-86.89117338863228,17.991999,-3.754605,-0.94664824,31.200466,10.323606,-8.267313,-18.730955,-6.167082,-19.555191,6.770963,-6.1640697,8.503195,-16.6231,-4.3381486,9.832239,6.5968757,35.025352,-33.772453,-35.81383,15.514129,-3.0535297,6.3384447,38.752556,-32.397537,19.750969,-12.380455,-0.57841855,0.22395173,-6.841871
84,1.4904162883758545,-110.73603820800781,78.62812805175781,3.740117925155981,1.8418435696018458,-87.42114515570127,17.656174,-3.758829,-0.44296014,34.309288,10.611647,-9.195817,-18.23508,-5.815007,-19.3542,6.7889404,-6.288206,7.729035,-16.100002,-4.2962804,10.150182,7.6830206,35.1999,-33.385387,-36.110043,15.360357,-2.9452913,6.4463177,38.20011,-31.869095,19.59347,-12.07967,-1.0663129,0.46061507,-6.657115
85,1.4980343580245972,-112.19651794433594,78.43640899658203,3.458629068285771,1.503729048419093,-88.03497769090724,17.077768,-3.4520738,0.04944468,37.931175,10.7099285,-9.982051,-17.59637,-5.005099,-18.71933,6.829405,-5.9125023,6.3276954,-15.446957,-3.968985,10.596674,8.746411,35.265312,-32.984756,-36.253315,15.327431,-2.747228,6.694848,37.426693,-31.312952,19.545918,-11.588853,-1.4083508,0.44735116,-6.648935
86,1.4739631414413452,-113.59235382080078,78.25348663330078,2.9373481471446845,1.1423056947315973,-88.71784981023617,16.320778,-2.8897793,0.5415319,41.98908,10.594496,-10.701112,-16.787378,-3.841526,-17.805145,6.906648,-5.1059217,4.4280915,-14.684757,-3.3977392,11.154539,9.776713,35.21353,-32.569656,-36.226032,15.347043,-2.487907,7.0693927,36.459606,-30.734108,19.583593,-10.951204,-1.6723859,0.2596751,-6.771016
87,1.4084213972091675,-114.9783706665039,78.06583404541016,2.2821085920066873,0.7573851299821907,-89.38247528875424,15.452795,-2.1568787,0.9488321,46.263187,10.214483,-11.383065,-15.832799,-2.5362084,-16.91248,7.032859,-4.130225,2.369924,-13.888881,-2.686463,11.78084,10.733979,35.05187,-32.135265,-36.00628,15.414732,-2.23324,7.453167,35.36452,-30.13327,19.665386,-10.239544,-1.9187366,0.06071446,-6.942593
88,1.3661525249481201,-116.36216735839844,77.78389739990234,1.6173573833713981,0.35599468705700005,-89.94780359148534,14.518775,-1.3545436,1.2112923,50.567047,9.506696,-12.0416155,-16.370127,-1.8064916,-16.255823,10.77391,-5.1465073,0.50001997,-13.130248,-1.9644251,12.431494,11.590375,34.800224,-31.666296,-35.583015,15.526556,-2.0494852,7.7310805,34.202053,-29.505558,19.75765,-9.5251665,-2.2076564,0.012997454,-7.081869
89,1.3319292068481445,-117.7612533569336,77.42654418945312,0.9721165711688111,-0.07740755691210596,-90.39000596088006,13.543342,-0.49353883,1.317601,54.9667,8.340491,-12.766281,-17.226437,-1.3511399,-15.967887,15.667326,-6.7649603,-1.2758483,-12.41973,-1.2704918,13.122487,12.341831,34.484894,-31.133806,-35.004463,15.690307,-1.9625211,7.8291893,33.02335,-28.831535,19.824663,-8.871763,-2.5195324,0.22339016,-7.1631193
90,1.2381500005722046,-119.10868835449219,77.06140899658203,0.38076193789545204,-0.5578359311725385,-90.73167340667906,12.52702,0.37879825,1.3068836,59.50989,6.8004274,-13.478903,-18.224398,-1.1607103,-15.835619,21.360281,-8.728995,-3.0942295,-11.741869,-0.6430453,13.865536,13.027604,34.122425,-30.54147,-34.29343,15.9032955,-1.9333733,7.8245354,31.790598,-28.105057,19.89014,-8.233215,-2.8387158,0.5841507,-7.2278943
91,1.1406630277633667,-120.39152526855469,76.6490249633789,-0.15789985475098284,-1.0444785555646567,-90.9968994588132,11.421198,1.2479272,1.2093815,64.04525,5.1078277,-13.972942,-18.995617,-1.0921266,-15.771611,26.7612,-10.790176,-4.719276,-11.097915,-0.075992465,14.617526,13.6854725,33.71117,-29.918686,-33.40402,16.147188,-1.9325687,7.832653,30.414278,-27.349281,20.009825,-7.5029907,-3.2254248,0.93470335,-7.2963166
92,1.0704004764556885,-121.68329620361328,76.21796417236328,-0.7038625045845918,-1.483537914070119,-91.22541018582022,10.160063,2.1515303,1.0370989,68.424866,3.485441,-14.068861,-19.262396,-0.89892817,-15.747033,30.92884,-12.745042,-5.880689,-10.482633,0.5038527,15.331831,14.346559,33.230923,-29.292732,-32.27424,16.403585,-1.9306201,7.968041,28.814095,-26.604853,20.23449,-6.586949,-3.7323143,1.1149284,-7.3935966
93,1.0075324773788452,-122.99376678466797,75.81633758544922,-1.3651589812756642,-1.8336944294177449,-91.44012490272202,8.658925,3.1707537,0.7040982,72.729355,1.9201314,-13.640582,-19.00326,-0.3854566,-15.856158,33.668297,-14.641907,-6.4022636,-9.912749,1.2150015,15.993128,15.0523615,32.6492,-28.62843,-30.894678,16.809809,-1.9730326,8.254881,26.935402,-25.904322,20.572712,-5.429866,-4.451826,1.0390972,-7.523016
94,0.9609888195991516,-124.30661010742188,75.4533462524414,-2.138745662207648,-2.1169468372541056,-91.63114361741641,6.953404,4.2969947,0.2022951,77.01076,0.3130376,-12.840378,-18.438307,0.3590124,-16.119804,35.60531,-16.612268,-6.4531403,-9.392294,2.0597625,16.621172,15.771413,31.953154,-27.905832,-29.275787,17.331114,-2.058608,8.6288395,24.853392,-25.250114,20.987087,-4.127291,-5.3119726,0.80943054,-7.686032
95,0.9160313010215759,-125.60195922851562,75.11405944824219,-2.897482509781133,-2.377955660460764,-91.78535061412249,5.156791,5.4325995,-0.3368385,81.06885,-1.230568,-11.887483,-17.658194,1.1503019,-16.420433,37.052647,-18.571766,-6.26302,-8.894009,2.915294,17.22304,16.424564,31.157333,-27.184275,-27.389593,17.692186,-2.0894914,9.071196,22.680735,-24.632942,21.45967,-2.8078117,-6.1217585,0.54792684,-7.900949
96,0.8859912157058716,-126.91597747802734,74.8130111694336,-3.5138457215969354,-2.662861922660837,-91.89077886131523,3.3723328,6.5088673,-0.76944876,84.72134,-2.6173773,-10.987446,-16.73164,1.7958865,-16.63311,38.29472,-20.421799,-6.060702,-8.381585,3.6503804,17.81341,16.938488,30.294333,-26.53246,-25.221764,17.61285,-1.9713429,9.5678835,20.515644,-24.03637,21.980312,-1.5836064,-6.6928663,0.3750762,-8.176046
97,0.856247067451477,-128.20339965820312,74.55279541015625,-3.948731189922183,-3.010237515149823,-91.89947186816195,1.6217471,7.562506,-1.0731223,87.962326,-3.7915432,-10.156613,-15.587739,2.2132947,-16.7687,39.350002,-22.185415,-5.862146,-7.8666067,4.2186165,18.45744,17.262648,29.37155,-25.993553,-22.594198,16.653225,-1.6215249,10.209749,18.353746,-23.428907,22.548613,-0.38489255,-6.8610096,0.320862,-8.587008
98,0.7988334894180298,-129.48406982421875,74.3236083984375,-4.272537951049208,-3.3851492921428883,-91.83302206869006,-0.16668463,8.639507,-1.3278768,90.892395,-4.8182535,-9.278558,-14.20899,2.5200555,-16.895947,40.072384,-23.894993,-5.5670657,-7.3438993,4.6868877,19.132524,17.441694,28.391169,-25.534243,-19.575596,15.077095,-1.1268924,10.984834,16.141716,-22.798655,23.162931,0.83264965,-6.771984,0.3185413,-9.096608
99,0.7512364387512207,-130.82113647460938,74.13800811767578,-4.525009312006711,-3.7248913083968476,-91.77643696405181,-2.019382,9.695902,-1.5277703,93.46521,-5.767521,-8.34905,-12.713801,2.8077512,-16.961756,40.471645,-25.458145,-5.221277,-6.7732873,5.086069,19.724133,17.582626,27.395002,-25.091536,-16.567217,13.660692,-0.6326773,11.726071,13.900732,-22.169312,23.839933,1.914388,-6.699599,0.3444606,-9.542789
100,0.6923999190330505,-132.1432342529297,73.98019409179688,-4.742052502006806,-3.9671671533410438,-91.8150549332578,-3.957185,10.66987,-1.6610154,95.62489,-6.7052236,-7.3820314,-11.228361,3.1518598,-16.90377,40.574238,-26.78911,-4.864723,-6.125573,5.444474,20.121855,17.830296,26.450504,-24.585077,-14.016353,13.177466,-0.25445646,12.260161,11.647433,-21.586498,24.612778,2.6964948,-6.904139,0.37864578,-9.766245
101,0.6324958801269531,-133.4532012939453,73.8745346069336,-4.951401274178784,-4.0867753248206435,-91.96440994041323,-6.0531507,11.561343,-1.7517465,97.400246,-7.6467414,-6.338048,-9.779175,3.5879977,-16.696669,40.360947,-27.86553,-4.4840193,-5.407157,5.768317,20.298235,18.27982,25.599207,-23.944565,-12.01807,14.107812,0.06627607,12.608204,9.355116,-21.08353,25.555435,3.122761,-7.491917,0.45656338,-9.6888895
102,0.5812633037567139,-134.7688446044922,73.82251739501953,-5.126935334828725,-4.120566477742478,-92.18355137506778,-8.27687,12.390554,-1.7868372,98.805885,-8.547527,-5.2340193,-8.298076,4.0486174,-16.368052,39.83185,-28.734077,-4.060274,-4.644011,6.034221,20.328661,18.910921,24.848953,-23.199627,-10.439206,15.930357,0.37892914,12.838882,7.035403,-20.656706,26.662136,3.2430675,-8.288362,0.5721481,-9.409208
103,0.5292755961418152,-136.0904998779297,73.82099151611328,-5.223834286916694,-4.099407528810913,-92.47263673172438,-10.492474,13.128435,-1.6868291,99.77297,-9.377275,-4.1710844,-6.768866,4.4523873,-15.931163,39.042007,-29.411451,-3.6234848,-3.8336296,6.2237453,20.255514,19.691757,24.220264,-22.426394,-9.38116,17.916132,0.5538977,12.858155,4.7610846,-20.292238,27.850645,3.061555,-9.137232,0.64399254,-9.031894
104,0.4823610186576843,-137.45193481445312,73.8604507446289,-5.196177247120033,-4.053814001034273,-92.83143155346336,-12.557645,13.754247,-1.3665065,100.23279,-10.109101,-3.2498524,-5.178726,4.722002,-15.404557,38.050777,-29.91873,-3.2074745,-2.9655447,6.3154616,20.12222,20.590254,23.74494,-21.706177,-8.946165,19.333118,0.453359,12.586467,2.61004,-19.975103,29.032984,2.5861833,-9.890786,0.59451866,-8.6626425
105,0.44291821122169495,-138.82521057128906,73.94710540771484,-5.023439684011659,-3.9842812925497357,-93.30813370204503,-14.447541,14.280061,-0.7525934,100.15422,-10.732381,-2.485172,-3.533215,4.844962,-14.743355,36.855682,-30.28743,-2.8344443,-1.9871137,6.2974143,19.933903,21.660921,23.462484,-21.031607,-9.33257,20.044018,-0.07044564,11.83819,0.5701233,-19.704222,30.222889,1.7696505,-10.636332,0.36851755,-8.299866
106,0.36785176396369934,-140.19358825683594,74.07669067382812,-4.730699558184842,-3.875796418512301,-93.88689135360555,-16.215942,14.728026,0.11359378,99.57714,-11.265472,-1.8325446,-1.8364546,4.849382,-13.957037,35.44048,-30.505823,-2.4863803,-0.9105102,6.165615,19.681583,22.934597,23.382877,-20.37328,-10.470587,20.389198,-0.9098542,10.713997,-1.3806001,-19.479952,31.469995,0.62455374,-11.411022,0.015531499,-7.897874
107,0.3095172941684723,-141.6295623779297,74.25787353515625,-4.34618448407701,-3.735847855253329,-94.47041979396583,-17.832966,15.088111,1.1508234,98.53658,-11.727017,-1.3044939,-0.07219952,4.725525,-13.146914,33.834324,-30.526012,-2.1376412,0.18373495,5.913284,19.383034,24.316692,23.480055,-19.784027,-12.026273,20.368103,-1.809371,9.561631,-3.1911514,-19.29085,32.729,-0.7332134,-11.993162,-0.3776153,-7.4952307
108,0.2534794807434082,-143.0583953857422,74.47615051269531,-3.894894200929036,-3.573360191525011,-94.9615162971421,-19.271875,15.339752,2.2780406,97.066345,-12.13467,-0.9157641,1.7741821,4.4686165,-12.415781,32.06181,-30.29632,-1.755981,1.2212374,5.5414257,19.04855,25.673693,23.708897,-19.325842,-13.623653,20.010603,-2.5132177,8.733904,-4.8161707,-19.122322,33.9344,-2.1787438,-12.167066,-0.720147,-7.1251473
109,0.2172430455684662,-144.55697631835938,74.72892761230469,-3.3502890519911652,-3.400478687579982,-95.3234406693854,-20.494844,15.451564,3.5326447,95.13239,-12.523079,-0.7269736,3.7918916,4.050845,-11.787414,29.981524,-29.811903,-1.3069452,2.1663601,5.0162416,18.665152,26.969133,24.054127,-19.049242,-15.204329,19.128902,-2.9436865,8.35688,-6.2552915,-18.966997,35.08779,-3.7116895,-11.776242,-0.97929966,-6.7895393
110,0.13246996700763702,-146.03350830078125,74.9813232421875,-2.707171577836629,-3.209593546714333,-95.60919859637518,-21.508091,15.424055,4.9547925,92.72017,-12.874887,-0.72829187,5.936767,3.4828541,-11.218253,27.632061,-29.097328,-0.8086467,3.0602882,4.349854,18.233435,28.247017,24.516117,-18.906286,-16.914206,17.79205,-3.2364645,8.223908,-7.534518,-18.82819,36.21426,-5.3685555,-10.9768915,-1.1993369,-6.469466
111,0.09323311597108841,-147.54910278320312,75.29202270507812,-2.0312855518824815,-2.9817068590973435,-95.85496084214397,-22.355244,15.282188,6.4652953,89.88957,-13.131925,-0.8219403,8.018342,2.8232117,-10.708954,25.316996,-28.14847,-0.30135706,3.9424055,3.6162026,17.777178,29.47611,25.063631,-18.813202,-18.661133,16.433357,-3.4668617,8.200794,-8.660097,-18.713312,37.27879,-7.0724797,-10.024516,-1.4046617,-6.1654634
112,0.010821680538356304,-149.02891540527344,75.62024688720703,-1.3912348060446045,-2.6978457065485566,-96.09649895099791,-23.086224,15.058478,7.975788,86.70072,-13.239346,-0.905011,9.846117,2.1375372,-10.250206,23.348845,-26.965519,0.16877252,4.8489156,2.8982687,17.31441,30.610085,25.643932,-18.697996,-20.335835,15.492863,-3.7055008,8.152572,-9.642164,-18.632807,38.2481,-8.742583,-9.175394,-1.6224307,-5.878081
113,-0.031027695164084435,-150.53445434570312,75.96251678466797,-0.7756765838686884,-2.356111630857866,-96.35513297509914,-23.702147,14.744651,9.50025,83.12788,-13.162372,-0.92850983,11.393683,1.4204232,-9.811064,21.781666,-25.516674,0.57209915,5.8056483,2.2024088,16.85037,31.603891,26.223166,-18.55027,-21.90651,15.181206,-3.9720588,8.041101,-10.5037,-18.60122,39.130543,-10.37463,-8.378353,-1.8608745,-5.6302733
114,-0.058607738465070724,-152.06077575683594,76.31230163574219,-0.1665241563048338,-1.9681133439403602,-96.60264183900797,-24.1749,14.318507,11.065134,79.14253,-12.944285,-0.9603268,12.741652,0.6606675,-9.397617,20.482155,-23.822151,0.9332831,6.7695427,1.5039139,16.37423,32.464672,26.793608,-18.409737,-23.391785,15.249887,-4.2341623,7.9374514,-11.244123,-18.62696,39.948307,-12.000417,-7.5356917,-2.1050472,-5.415528
115,-0.09802211821079254,-153.57884216308594,76.67804718017578,0.3939243528610306,-1.5345707167616207,-96.80243921792531,-24.520214,13.79868,12.59741,74.7974,-12.640151,-1.0648602,13.882277,-0.08320296,-9.044397,19.450762,-21.955564,1.2833033,7.6754093,0.836375,15.870095,33.217556,27.339094,-18.287966,-24.748434,15.449976,-4.4801607,7.8705263,-11.850433,-18.711203,40.692207,-13.583663,-6.837362,-2.3466744,-5.187762
116,-0.11676380783319473,-155.1023712158203,77.0434341430664,0.8623289949698592,-1.0559799210077112,-96.92138460674339,-24.755983,13.2056055,14.0271435,70.12909,-12.298188,-1.3039631,14.819102,-0.7557263,-8.783567,18.676624,-19.982265,1.6568035,8.459093,0.23315705,15.316357,33.886143,27.838356,-18.197622,-25.930094,15.534453,-4.6972666,7.866519,-12.312637,-18.848043,41.35479,-15.081953,-6.4754825,-2.5789824,-4.9018397
117,-0.1264553964138031,-156.6551055908203,77.40281677246094,1.2461552101979085,-0.48554324487757633,-96.9512889004416,-24.914385,12.55556,15.396173,65.023994,-11.928863,-1.6596359,15.524056,-1.3659562,-8.642632,18.123592,-17.847837,2.1156402,9.103714,-0.30723834,14.659773,34.44304,28.281002,-18.151358,-26.894476,15.450116,-4.905179,7.937795,-12.65798,-19.035397,41.94033,-16.484337,-6.6299624,-2.786805,-4.5074353
118,-0.12692952156066895,-158.21131896972656,77.75277709960938,1.5655947289373453,0.1614444032877054,-96.91397887839763,-24.96537,11.812242,16.728037,59.453262,-11.483001,-2.1166456,16.01814,-1.9335916,-8.577805,17.79946,-15.536117,2.6346366,9.640435,-0.79786885,13.917393,34.875317,28.664444,-18.146378,-27.662563,15.331825,-5.1037116,8.065153,-12.899901,-19.273087,42.454395,-17.800003,-7.1559277,-2.9840088,-4.0422454
119,-0.11469228565692902,-159.77613830566406,78.08464813232422,1.7982392509665892,0.792054078714193,-96.82377048553823,-24.845669,10.946647,17.908371,53.577522,-10.920123,-2.7185915,16.39742,-2.4141967,-8.524268,17.719284,-13.162243,3.120554,10.07786,-1.2164953,13.1691885,35.230953,28.977869,-18.168482,-28.280073,15.215019,-5.2499824,8.226514,-13.012213,-19.553562,42.89287,-19.00826,-7.759278,-3.2053163,-3.5930026
120,-0.09557205438613892,-161.36700439453125,78.38888549804688,1.919841301326987,1.3124762574958893,-96.69861824596923,-24.496063,9.966698,18.808025,47.562607,-10.20624,-3.4820352,16.754831,-2.7621844,-8.428135,17.897123,-10.833355,3.4709973,10.4263,-1.5374268,12.495754,35.56109,29.205324,-18.20106,-28.790169,15.137398,-5.3010573,8.399082,-12.968723,-19.863386,43.252567,-20.086575,-8.149232,-3.479036,-3.2459044
121,-0.06904629617929459,-162.9713592529297,78.65876770019531,1.8992829033756569,1.7117676787969165,-96.54423198210128,-23.823675,8.866793,19.36928,41.127018,-9.269734,-4.460582,17.106226,-2.9441965,-8.283032,18.313644,-8.478097,3.5983207,10.67766,-1.7410496,11.885644,35.915802,29.32366,-18.227732,-29.206263,15.115237,-5.2307777,8.593431,-12.768736,-20.192003,43.53647,-21.024164,-8.284434,-3.8443847,-3.0036697
122,-0.0331123024225235,-164.58633422851562,78.89627838134766,1.739695137320362,2.0313429503765086,-96.36879672937387,-22.824877,7.719818,19.638233,34.162197,-8.102472,-5.5714583,17.4272,-2.9702022,-8.116915,18.916132,-6.034059,3.5779204,10.835743,-1.815915,11.301725,36.25826,29.325323,-18.258053,-29.497038,15.13297,-5.067652,8.811069,-12.445598,-20.533915,43.754925,-21.808313,-8.310986,-4.2725453,-2.8251915
123,-0.01820247992873192,-166.21856689453125,79.08818817138672,1.4609313108895603,2.253493416480094,-96.19360580292027,-21.586348,6.6633153,19.64843,27.136013,-6.7780547,-6.6350203,17.752426,-2.852738,-7.930604,19.66293,-3.6171565,3.5317357,10.932416,-1.7450502,10.788123,36.509773,29.226675,-18.312965,-29.645922,15.175241,-4.850351,9.01794,-12.026392,-20.882833,43.910606,-22.413086,-8.213855,-4.6864467,-2.7284253
124,-0.018778230994939804,-167.84921264648438,79.21414184570312,1.0787042531414976,2.360617426819322,-96.03462080400102,-20.255877,5.819187,19.448002,20.641638,-5.414626,-7.510894,18.107382,-2.6010904,-7.719412,20.535862,-1.3606775,3.570373,11.002819,-1.512674,10.38932,36.598698,29.059923,-18.413754,-29.644,15.222472,-4.6165643,9.183866,-11.527944,-21.23256,43.998516,-22.819452,-7.980535,-5.0098658,-2.73089
125,-0.01685825176537037,-169.47930908203125,79.28473663330078,0.538566200128785,2.3379164544716704,-95.90293398951263,-18.872952,5.247751,19.045668,14.780476,-4.0199165,-8.295187,18.519226,-2.1745646,-7.4961534,21.5314,0.7029585,3.6828182,11.084473,-1.0479436,10.108391,36.52104,28.849016,-18.575071,-29.499718,15.259325,-4.3407087,9.293165,-10.89664,-21.57939,43.99661,-23.02401,-7.4813867,-5.2268834,-2.8746212
126,-0.0100349560379982,-171.08631896972656,79.30215454101562,-0.1750382877158893,2.195100232957035,-95.78229857104614,-17.36435,4.9182563,18.425714,9.263564,-2.5350864,-9.0338545,18.956003,-1.5755873,-7.262598,22.696007,2.628719,3.7868693,11.159767,-0.35903448,9.923344,36.323715,28.599083,-18.784113,-29.23313,15.29044,-4.0120497,9.3712845,-10.131885,-21.923237,43.89772,-23.043118,-6.769065,-5.3796644,-3.1348126
127,0.03358642756938934,-172.69175720214844,79.27633666992188,-0.8891241921489604,1.9752613871145397,-95.61265706713164,-17.014017,5.060858,17.52264,6.9201736,-2.4637754,-9.539749,19.308735,-0.9841249,-7.028359,24.1506,4.3684373,3.9182856,11.147158,0.34413242,9.841158,36.000446,28.314764,-19.017826,-28.84526,15.326585,-3.69257,9.450239,-9.330995,-22.260448,43.72102,-22.890358,-6.102489,-5.479357,-3.4333148
128,0.06713754683732986,-174.2763214111328,79.23008728027344,-1.4191588430231026,1.7266395417813198,-95.33532818376207,-17.391201,5.2544017,16.421356,6.7458544,-3.2825189,-9.616651,19.469927,-0.5697008,-6.8037853,26.000814,5.885976,4.1379104,10.960461,0.83688825,9.867874,35.539703,27.99951,-19.251322,-28.330996,15.3766985,-3.444343,9.561483,-8.599434,-22.582481,43.495262,-22.571041,-5.7408543,-5.533186,-3.6915834
129,0.08174999803304672,-175.83534240722656,79.18205261230469,-1.7043700607027228,1.4749456034599941,-94.89452059527298,-17.557816,5.105103,15.194719,6.6572156,-3.9312978,-9.064983,19.399935,-0.36744502,-6.651253,28.297726,7.2507105,4.5032487,10.527209,1.0297241,9.993929,34.9447,27.644976,-19.469624,-27.679056,15.455677,-3.2645745,9.70104,-7.9881797,-22.8784,43.23256,-22.044596,-5.7676187,-5.5602913,-3.8908768
130,0.09927000850439072,-177.34982299804688,79.09556579589844,-1.8016545753717659,1.2042445526797727,-94.3162466641747,-17.512,4.6698246,13.835613,6.62994,-4.3861036,-8.04741,19.144243,-0.32796764,-6.5584354,30.997631,8.438261,4.995223,9.884796,0.9983482,10.212639,34.213806,27.247074,-19.685131,-26.885916,15.553752,-3.1275175,9.854441,-7.4471617,-23.137638,42.9302,-21.300554,-6.0393486,-5.549291,-4.074479
131,0.09929930418729782,-178.84326171875,78.97562408447266,-1.7458858575604659,0.8903757355442509,-93.68164915143555,-17.24011,3.9907684,12.392399,6.631194,-4.5440593,-6.908562,18.765673,-0.41798458,-6.408528,33.986324,9.310699,5.574236,9.129088,0.8086753,10.5311575,33.33526,26.821644,-19.914997,-25.961971,15.641638,-3.0600789,10.039932,-6.92761,-23.351011,42.59178,-20.386616,-6.47234,-5.458731,-4.255094
132,0.09572889655828476,-180.35552978515625,78.80087280273438,-1.5670572852098184,0.5085490152739465,-93.07136893391754,-16.729761,3.110369,10.916752,6.6399016,-4.296222,-5.986862,18.324974,-0.6029269,-6.09286,37.158875,9.72356,6.2064066,8.361979,0.51918083,10.960209,32.305176,26.397537,-20.17446,-24.93488,15.686352,-3.0886161,10.279754,-6.374096,-23.511242,42.21208,-19.359997,-6.9824266,-5.247965,-4.4437394
133,0.08585649728775024,-181.88638305664062,78.56453704833984,-1.2919049569956471,0.016677926399514893,-92.49348036705055,-15.902529,2.029836,9.217361,6.636366,-3.4031966,-5.507664,17.894722,-0.78433776,-5.559564,40.514156,9.580283,6.9209538,7.6004043,0.15349975,11.524063,31.142021,25.998869,-20.467138,-23.804096,15.689929,-3.27396,10.594901,-5.734432,-23.611391,41.777832,-18.247137,-7.6331005,-4.856124,-4.617484
134,0.044046323746442795,-183.3737335205078,78.27828216552734,-0.902574455498528,-0.5703919091032337,-91.91812250596854,-14.775961,0.7808266,7.317375,6.6545362,-1.9939569,-5.25723,17.441528,-0.97205025,-4.877221,44.101692,8.962747,7.7500043,6.811902,-0.33357474,12.209643,29.861866,25.632168,-20.782345,-22.586973,15.658586,-3.583004,10.975674,-5.040862,-23.646992,41.28783,-17.017735,-8.439931,-4.320921,-4.7730865
135,0.07323983311653137,-184.79916381835938,78.0501708984375,-0.363963781343834,-1.1914860068476836,-91.36970490934053,-13.47563,-0.5696905,5.5937324,6.714776,-0.4823116,-4.9072194,16.870234,-1.2940656,-4.121201,47.889576,8.000419,8.657123,6.025254,-0.9827317,12.974032,28.45575,25.297762,-21.11214,-21.32991,15.565531,-3.901958,11.398418,-4.367056,-23.618193,40.751263,-15.64523,-9.246203,-3.7498019,-4.9526596
136,0.09772372245788574,-186.2252655029297,77.7642593383789,0.3500962784912333,-1.7849955486793674,-90.8738840329792,-13.374437,-1.86122,4.460749,9.460007,-0.666659,-4.1120534,16.094791,-1.8721204,-3.3541324,51.82573,6.84023,9.597637,5.270631,-1.816115,13.772293,26.91375,24.991432,-21.4488,-20.078821,15.384027,-4.1174293,11.838178,-3.784356,-23.529955,40.17636,-14.107202,-9.896935,-3.2498207,-5.203326
137,0.11578720062971115,-187.6285400390625,77.41397094726562,1.3109627318638897,-2.375517144649567,-90.40966933416131,-13.969736,-3.2429523,4.135342,13.8427105,-1.9554728,-2.5108929,15.150141,-2.7729921,-2.5444968,55.981678,5.424305,10.698519,4.5263467,-2.904596,14.654175,25.23744,24.704826,-21.77989,-18.882751,15.034729,-4.1755366,12.298358,-3.344628,-23.391428,39.55502,-12.418668,-10.417564,-2.862736,-5.5171337
138,0.17529425024986267,-188.9796905517578,77.0631103515625,2.3849453813928845,-3.0003000874619277,-89.99437425887751,-14.796761,-4.6071887,4.327355,18.99713,-3.7399783,-0.36943266,14.119865,-3.7841518,-1.6829906,60.29946,3.7281733,11.919427,3.806672,-4.1112633,15.621709,23.443268,24.433453,-22.109913,-17.718847,14.556892,-4.146695,12.789052,-2.9911642,-23.21112,38.88451,-10.597691,-10.868224,-2.5244317,-5.876299
139,0.22924421727657318,-190.29588317871094,76.67782592773438,3.3806152626015127,-3.5946006991947717,-89.69094873126528,-15.483198,-5.763041,4.728269,23.94196,-5.732791,1.7352152,12.945185,-4.744943,-0.8395196,64.569176,1.9468724,12.974608,3.179213,-5.239052,16.561142,21.5322,24.180082,-22.453535,-16.522228,14.101181,-4.1031494,13.296105,-2.6319497,-22.990625,38.176956,-8.621316,-11.145012,-2.1891015,-6.3200045
140,0.26706209778785706,-191.6293182373047,76.26030731201172,4.203556906871946,-4.076720643855316,-89.54094931043346,-15.703758,-6.6720085,5.0795155,27.760626,-7.656193,3.2169697,11.517794,-5.6236687,-0.047634907,68.62824,0.27266163,13.593892,2.6913314,-6.1862893,17.359924,19.499111,23.953634,-22.819853,-15.223813,13.816625,-4.115155,13.805291,-2.1813679,-22.722433,37.445663,-6.458148,-11.143037,-1.8127326,-6.8883734
141,0.28925997018814087,-192.96055603027344,75.9025650024414,4.913614476112296,-4.380763670875248,-89.57972895161944,-15.424416,-7.407128,5.4445586,30.27042,-9.580809,3.8350823,9.692316,-6.5314417,0.7975255,72.55585,-1.2433994,13.6497965,2.3944106,-7.003752,17.984827,17.242857,23.771198,-23.227316,-13.717394,13.700854,-4.267289,14.337136,-1.6252948,-22.385014,36.660477,-4.0244894,-10.715888,-1.3858796,-7.611222
142,0.33291861414909363,-194.29986572265625,75.60983276367188,5.595865773880479,-4.546673916683449,-89.76123287474121,-14.86551,-8.05752,5.948853,32.03226,-11.647809,3.9325516,7.5266895,-7.5204487,1.730331,76.419,-2.6904175,13.308778,2.2364173,-7.781629,18.499683,14.820528,23.636162,-23.645979,-12.100823,13.686221,-4.495489,14.897653,-1.0144465,-21.972303,35.81623,-1.3446012,-9.9603615,-0.94325006,-8.461734
143,0.3766111433506012,-195.6141357421875,75.3680419921875,6.196210797296521,-4.65190059364778,-90.00636150313272,-14.102033,-8.613702,6.4598393,33.3102,-13.702317,3.791261,5.207253,-8.500907,2.624255,80.028786,-4.075176,12.726103,2.1052706,-8.476418,18.935732,12.449244,23.532055,-24.01937,-10.578131,13.82435,-4.648454,15.445073,-0.3731799,-21.509092,34.979164,1.4517988,-9.130732,-0.50448513,-9.396727
144,0.36769312620162964,-196.93824768066406,75.1820068359375,6.654809803792974,-4.7792664283492865,-90.23955517210604,-13.1812525,-9.058057,6.827064,34.330135,-15.57008,3.6889615,2.9236166,-9.398211,3.3317811,83.20018,-5.4102764,12.051186,1.8910553,-9.033897,19.323256,10.311512,23.431559,-24.31013,-9.313853,14.16629,-4.5755644,15.928826,0.28335866,-21.040188,34.229294,4.21171,-8.477578,-0.07971812,-10.375837
145,0.3536736071109772,-198.24325561523438,74.9933853149414,6.942748843966058,-4.972546268152196,-90.49905940005698,-12.040583,-9.342522,7.0401444,35.09339,-17.251778,3.6533296,0.6809118,-10.220963,3.8555202,85.94414,-6.7243032,11.270415,1.6066778,-9.400815,19.716948,8.363681,23.30716,-24.544964,-8.211057,14.842161,-4.1339865,16.380594,0.942458,-20.583935,33.582855,7.0727053,-8.047474,0.40095466,-11.563426
146,0.39363712072372437,-199.5832977294922,74.85679626464844,7.097810425979547,-5.181469576298179,-90.80536899821665,-10.668045,-9.490903,7.17939,35.484554,-18.819069,3.5584817,-1.6255573,-11.02112,4.267427,88.35129,-8.002417,10.3060465,1.2895699,-9.607665,20.081295,6.495714,23.152336,-24.752104,-7.1731114,15.788974,-3.435425,16.793497,1.6283326,-20.145271,33.006226,10.03122,-7.703074,0.9230302,-12.925477
147,0.43574395775794983,-200.91433715820312,74.76539611816406,7.159429257664063,-5.351031889597573,-91.05693186931612,-9.188145,-9.5821295,7.2133,35.57156,-20.211105,3.4437737,-3.9616823,-11.799902,4.5050964,90.35375,-9.197853,9.218115,0.8788116,-9.726344,20.316204,4.7773895,22.97963,-24.918262,-6.3586745,16.77136,-2.718173,17.063395,2.40096,-19.763363,32.49505,12.696585,-7.4255567,1.3577204,-14.128738
148,0.4587697386741638,-202.26097106933594,74.71603393554688,7.16622112294331,-5.426028806965753,-91.15152067579663,-7.725646,-9.685838,7.1016855,35.422085,-21.364798,3.3425179,-6.2864513,-12.56299,4.498444,91.880516,-10.259903,8.069887,0.31977582,-9.825442,20.33427,3.2897136,22.81573,-25.027245,-5.955636,17.554243,-2.2269535,17.101555,3.3391469,-19.501112,32.03704,14.6394615,-7.193986,1.5772535,-14.8441105
149,0.4956745207309723,-203.64639282226562,74.71761322021484,7.121838679305698,-5.376486897219508,-91.03598064218929,-6.3224664,-9.818403,6.8020463,35.03891,-22.281115,3.2559261,-8.6487,-13.339077,4.2055974,92.94311,-11.163443,6.7694335,-0.41931024,-9.920321,20.100693,2.0979002,22.677715,-25.043688,-6.124077,18.142967,-2.0394773,16.830599,4.555399,-19.42023,31.598305,15.563768,-7.0223637,1.5437058,-14.899905
150,0.513243556022644,-205.009033203125,74.75870513916016,7.0082906075446605,-5.2380056853236,-90.77164270329727,-4.908419,-9.925534,6.3403425,34.397915,-22.991121,3.16295,-11.037402,-14.136617,3.6564493,93.570114,-11.94369,5.324199,-1.2894542,-9.959923,19.694675,1.1424513,22.57004,-25.006454,-6.7609224,18.633581,-2.0282533,16.32491,6.049329,-19.54254,31.175373,15.650006,-6.900397,1.3358375,-14.495672
151,0.5173496007919312,-206.4034881591797,74.84176635742188,6.831496252082394,-5.053085088404613,-90.4284019820424,-3.4430583,-9.966569,5.776735,33.53303,-23.480509,3.060424,-13.315295,-14.928983,2.8788464,93.7153,-12.638783,3.94792,-2.2203293,-9.915915,19.199078,0.32448968,22.502731,-25.00776,-7.6651716,18.926826,-2.1265924,15.732939,7.7157416,-19.860706,30.80299,15.207673,-6.776853,0.9994736,-13.858482
152,0.5106989741325378,-207.825927734375,74.9792709350586,6.5923485710990315,-4.864409902078365,-90.07646792067602,-1.8860025,-9.905251,5.1739144,32.47673,-23.73428,2.947806,-15.343105,-15.685549,1.8966308,93.33178,-13.2829075,2.858375,-3.147346,-9.767222,18.691511,-0.43995222,22.48899,-25.130219,-8.64199,18.924364,-2.2631004,15.201121,9.42671,-20.344376,30.517773,14.579251,-6.604518,0.5767141,-13.218964
153,0.5170521140098572,-209.25961303710938,75.17147827148438,6.273458825615987,-4.682861995415212,-89.69595645520764,-0.1892025,-9.717767,4.507134,31.158789,-23.76478,2.831852,-17.055319,-16.450872,0.59761906,92.36628,-13.898748,2.159107,-4.0811014,-9.497943,18.174337,-1.1511643,22.538733,-25.389637,-9.716221,18.465559,-2.4564948,14.719265,11.153049,-20.978836,30.363632,13.798582,-6.333128,-0.041921884,-12.563452
154,0.507288932800293,-210.7127685546875,75.3974609375,5.8784142592357504,-4.484988646193362,-89.26337529684746,1.605159,-9.417104,3.7624147,29.602753,-23.58355,2.7092302,-18.502243,-17.219141,-1.025071,90.853966,-14.465585,1.7383301,-5.0469546,-9.123682,17.620115,-1.7529992,22.654543,-25.73723,-10.983642,17.64088,-2.723241,14.224772,12.947776,-21.755146,30.311312,12.7288265,-5.9981823,-0.8363302,-11.786977
155,0.48795267939567566,-212.18411254882812,75.64913177490234,5.443765776584542,-4.262217416167822,-88.84518971021451,3.4049926,-9.028128,3.0196908,27.97357,-23.171618,2.5643091,-19.732153,-17.866262,-2.784269,88.87631,-14.944637,1.4904227,-6.0086775,-8.679176,17.051796,-2.2333274,22.837952,-26.15105,-12.360392,16.736637,-2.9900668,13.785298,14.782206,-22.63807,30.286932,11.486805,-5.692132,-1.5754567,-10.992253
156,0.4541599154472351,-213.66796875,75.92561340332031,5.008911003455279,-4.007326996827392,-88.50810382205185,5.1205273,-8.587266,2.3575723,26.429708,-22.505043,2.3797183,-20.813993,-18.277067,-4.4777546,86.51298,-15.29979,1.2983906,-6.928772,-8.205323,16.4838,-2.5895722,23.089518,-26.611652,-13.745666,16.04283,-3.1922228,13.473504,16.61295,-23.576021,30.213995,10.211762,-5.520841,-2.034198,-10.29007
157,0.42680874466896057,-215.15867614746094,76.22895812988281,4.570822202642262,-3.718945193631723,-88.27533393563354,6.766841,-8.095773,1.7759849,24.945568,-21.552593,2.1388261,-21.773666,-18.389135,-6.057505,83.74664,-15.557066,1.1577799,-7.806827,-7.707409,15.897001,-2.828699,23.421629,-27.140036,-15.120454,15.640862,-3.293257,13.373141,18.387703,-24.53838,30.108896,8.975797,-5.607039,-2.108682,-9.710989
158,0.40316182374954224,-216.67420959472656,76.54944610595703,4.116119917293937,-3.402363858041261,-88.11317346992472,8.373925,-7.5494223,1.2425264,23.458952,-20.336931,1.8535348,-22.575577,-18.26725,-7.6249514,80.534355,-15.723352,1.1258157,-8.655775,-7.1791286,15.2862,-2.9484854,23.842077,-27.733667,-16.53173,15.376053,-3.3377209,13.425993,20.107218,-25.515608,30.000511,7.7489634,-5.8813586,-1.9414282,-9.199995
159,0.3630000054836273,-218.18695068359375,76.88329315185547,3.6739365983557972,-3.0618764358340553,-88.00193881951462,9.872343,-6.983403,0.7827653,22.088705,-18.913317,1.552803,-23.21009,-17.988342,-9.191124,76.9198,-15.735901,1.1695977,-9.463791,-6.6430993,14.678518,-2.9309554,24.33774,-28.335009,-17.981047,15.18929,-3.3830736,13.492395,21.811924,-26.484877,29.832079,6.5162354,-6.169973,-1.6774771,-8.744147
160,0.3196662664413452,-219.71990966796875,77.22667694091797,3.2681161985582374,-2.7008086863008005,-87.92132409311523,11.203044,-6.4302526,0.4188027,20.944117,-17.335653,1.2671174,-23.667048,-17.625082,-10.770747,72.93809,-15.531583,1.2567129,-10.217043,-6.1188326,14.093966,-2.7731776,24.882008,-28.891668,-19.445745,15.024451,-3.4862773,13.431312,23.542152,-27.415205,29.546211,5.2725224,-6.299785,-1.4589683,-8.332371
161,0.26585277915000916,-221.25067138671875,77.5798110961914,2.8827019559478826,-2.299662932287683,-87.8650900303809,12.336132,-5.8697796,0.15403703,20.056946,-15.577183,1.00978,-23.94738,-17.186985,-12.427481,68.51038,-15.069694,1.336959,-10.917148,-5.588769,13.512932,-2.4950824,25.4568,-29.408108,-20.882679,14.880883,-3.6811306,13.213772,25.290438,-28.283522,29.115572,4.040956,-6.2490396,-1.2991774,-7.952003
162,0.2175404280424118,-222.79803466796875,77.93877410888672,2.5110936556502086,-1.8648532449067585,-87.84626734432534,13.313786,-5.3019466,-0.030036248,19.370691,-13.62533,0.7647022,-24.052097,-16.613829,-14.133077,63.62528,-14.387883,1.4482584,-11.561439,-5.050557,12.920887,-2.1179323,26.058443,-29.914223,-22.276,14.790766,-3.9315202,12.9095335,27.042004,-29.081041,28.572802,2.8404183,-6.1168933,-1.1294497,-7.613585
163,0.15572911500930786,-224.35726928710938,78.29005432128906,2.1921458814107,-1.438156767689362,-87.87014897301448,14.190436,-4.7855573,-0.14628883,18.856197,-11.550865,0.5149571,-23.981571,-15.886797,-15.754467,58.4118,-13.5359745,1.6813742,-12.132021,-4.546374,12.3428135,-1.643487,26.678774,-30.399364,-23.630007,14.749305,-4.1895995,12.526085,28.746868,-29.803535,27.971462,1.7253082,-5.8692083,-0.96813476,-7.3437157
164,0.08173142373561859,-225.92263793945312,78.63156127929688,1.9673046943741048,-1.06121113165886,-87.93889960518464,15.027671,-4.3796945,-0.20860258,18.467264,-9.413135,0.24174301,-23.742035,-15.015657,-17.146172,52.98581,-12.559592,2.1057346,-12.621021,-4.1204433,11.800222,-1.0650811,27.307745,-30.845,-24.954042,14.753283,-4.4081464,12.069452,30.436722,-30.446957,27.348656,0.6775303,-5.515656,-0.8329689,-7.1688457
165,0.0113814203068614,-227.48434448242188,78.94535064697266,1.8365620804101155,-0.7308025663479971,-88.05753245247249,15.8614025,-4.089162,-0.20062877,18.111242,-7.1114187,-0.07612609,-23.288752,-13.991994,-18.295998,47.13957,-11.360226,2.676713,-13.017825,-3.769871,11.287975,-0.38791305,27.939674,-31.263756,-26.229696,14.794812,-4.60496,11.524256,32.041386,-31.010933,26.715332,-0.2183119,-4.9127836,-0.7286524,-7.122453
166,-0.06321723014116287,-229.07101440429688,79.23011779785156,1.7850946595636275,-0.4309526830058077,-88.21643297154205,16.675346,-3.8957174,-0.136415,17.798927,-4.6327677,-0.43919033,-22.61777,-12.846556,-19.243355,40.819645,-9.926708,3.3432913,-13.337352,-3.484633,10.790068,0.38067523,28.571959,-31.658075,-27.445745,14.879906,-4.7968407,10.89038,33.61641,-31.492357,26.042608,-1.0215523,-4.1322694,-0.6461853,-7.1827307
167,-0.1402643769979477,-230.6744384765625,79.47454833984375,1.831135150369034,-0.18321258237349802,-88.38923214324207,17.449135,-3.825438,-0.075216085,17.640444,-2.1603458,-0.8280247,-21.790382,-11.679382,-19.923637,34.37075,-8.426921,4.1498637,-13.599866,-3.2973602,10.317092,1.2250178,29.197924,-32.014416,-28.618881,15.027556,-4.9344563,10.199952,35.126877,-31.894766,25.36192,-1.751776,-3.3713102,-0.5853699,-7.294107
168,-0.20948097109794617,-232.28955078125,79.65660095214844,1.9941858138920088,-0.009718568049372735,-88.54514951638254,18.163832,-3.9096756,-0.07559884,17.739553,0.123560034,-1.209905,-20.862434,-10.602356,-20.285837,28.14329,-7.0258355,5.1432347,-13.8290205,-3.2458267,9.881008,2.1278179,29.809437,-32.320347,-29.762432,15.259343,-4.9692783,9.483029,36.47683,-32.23099,24.721035,-2.37697,-2.7964725,-0.54422563,-7.401291
169,-0.2782415449619293,-233.9142608642578,79.77983093261719,2.370965531379575,0.07339362265095846,-88.65985200418827,18.865059,-4.2646465,-0.19203857,18.029997,2.2522786,-1.5113574,-19.755379,-9.680237,-20.227184,21.928843,-5.686967,6.525854,-14.0655,-3.4224086,9.455713,3.1277196,30.404053,-32.568024,-30.896072,15.6727085,-4.865136,8.682736,37.807644,-32.507137,24.091513,-2.9966996,-2.5377421,-0.54603696,-7.516188
170,-0.3458844721317291,-235.55027770996094,79.84281158447266,3.0126475814540705,0.05788305223053151,-88.7172031891737,19.615818,-4.9341116,-0.42390853,18.378227,4.3654656,-1.7430227,-18.37584,-9.014755,-19.79787,15.521852,-4.312905,8.1811495,-14.322425,-3.8791468,9.040313,4.2208505,30.984663,-32.766678,-32.010235,16.230965,-4.660616,7.7981215,39.098007,-32.728096,23.467934,-3.5862093,-2.4578469,-0.5823324,-7.6595187
171,-0.42641064524650574,-237.15240478515625,79.85502624511719,3.842697852184424,-0.054673934746524065,-88.71591773031473,20.381508,-5.799912,-0.724134,18.850525,6.4105573,-1.9986515,-16.81421,-8.68938,-19.215942,9.347498,-2.9716759,9.714674,-14.593739,-4.5544286,8.674766,5.351721,31.5508,-32.90226,-33.084805,16.751183,-4.4154415,6.9429874,40.284904,-32.894543,22.88621,-4.163659,-2.4650934,-0.5999191,-7.789318
172,-0.5085797905921936,-238.7251434326172,79.83222961425781,4.621463047285702,-0.22027139155878847,-88.71616934469353,21.005919,-6.578579,-0.9649427,19.69296,8.21844,-2.4148757,-16.61408,-8.980038,-18.512331,6.913278,-3.3268216,10.756711,-14.809999,-5.2154465,8.407414,6.449977,32.091335,-32.96877,-34.08301,17.047878,-4.1838784,6.240108,41.257076,-33.005558,22.392582,-4.696919,-2.4609647,-0.54867536,-7.862752
173,-0.5989879965782166,-240.2657012939453,79.77100372314453,5.17892048166182,-0.3824229250882327,-88.78253425582612,21.312273,-7.1039634,-1.0501223,21.189856,9.616782,-3.07177,-17.159641,-9.372299,-17.918734,6.7431445,-4.5417886,11.17015,-14.898076,-5.6801815,8.239781,7.4607315,32.588512,-32.981266,-34.971443,16.98457,-3.9413497,5.723401,41.983967,-33.052917,21.999464,-5.1739335,-2.4543521,-0.37022272,-7.8488007
174,-0.6889829635620117,-241.80615234375,79.70228576660156,5.569371722150688,-0.5463908559496843,-88.92243104613752,21.33534,-7.460157,-0.99163157,23.27972,10.6452,-3.9123359,-17.512674,-9.53962,-17.442703,6.6478157,-5.5480576,11.185424,-14.850145,-5.9968057,8.151584,8.3976145,33.028416,-32.960224,-35.73872,16.68875,-3.6665187,5.3320785,42.48854,-33.03397,21.694538,-5.568779,-2.4843712,-0.10815951,-7.775797
175,-0.7773646712303162,-243.33851623535156,79.61177825927734,5.831147133366357,-0.7420921608413826,-89.1255019809879,21.177044,-7.674298,-0.793198,25.778557,11.40743,-4.879401,-17.659277,-9.492393,-16.930382,6.600068,-6.3498225,10.972059,-14.681994,-6.205486,8.160998,9.294593,33.3984,-32.90535,-36.375023,16.369518,-3.4182343,5.0500097,42.759537,-32.956757,21.485504,-5.84642,-2.5097938,0.13446242,-7.691121
176,-0.8514803647994995,-244.84735107421875,79.47636413574219,5.996814694431298,-1.001388441403517,-89.374162980259,20.942715,-7.760592,-0.46919662,28.50369,12.012624,-5.906018,-17.583555,-9.254021,-16.231438,6.5807486,-6.9589577,10.690051,-14.423385,-6.346286,8.286117,10.19614,33.688545,-32.806435,-36.877735,16.234236,-3.2582688,4.8579383,42.80642,-32.836575,21.375546,-5.994928,-2.49375,0.2552452,-7.6430674
177,-0.9195895791053772,-246.35302734375,79.28759002685547,6.148998601949795,-1.358229664903212,-89.66582733849708,20.71008,-7.809512,-0.025605697,31.390425,12.616606,-7.0771065,-17.24081,-8.90241,-15.185012,6.597811,-7.5768976,10.502133,-14.080961,-6.494433,8.535948,11.127816,33.89152,-32.668964,-37.26018,16.385324,-3.2191453,4.7554555,42.6415,-32.689556,21.361084,-6.0170035,-2.3767085,0.17560235,-7.6435843
178,-0.9872676730155945,-247.8350830078125,79.03776550292969,6.246039146714584,-1.788287758159466,-90.00549311298207,20.409647,-7.7716484,0.53941035,34.55023,13.116369,-8.379365,-16.640545,-8.428375,-13.905114,6.6501365,-8.129135,10.287605,-13.646765,-6.600842,8.898596,12.058748,34.00115,-32.498634,-37.510586,16.696396,-3.2637017,4.7489324,42.27141,-32.52136,21.43627,-5.935052,-2.1900327,-0.031935696,-7.667944
179,-1.0533801317214966,-249.32225036621094,78.74088287353516,6.1291575843660215,-2.237410722271426,-90.38035993578002,19.945646,-7.4182296,1.2180442,38.04257,13.252216,-9.596303,-15.852042,-7.7091155,-12.661919,6.7218056,-8.210293,9.767614,-13.133114,-6.4990277,9.363578,12.947947,34.010967,-32.286156,-37.597,17.031576,-3.3489497,4.8291593,41.687843,-32.331413,21.59802,-5.7575045,-2.0291152,-0.24342622,-7.710104
180,-1.1588135957717896,-250.7556610107422,78.49456787109375,5.635125405569095,-2.6580012670165436,-90.76821283673932,19.257833,-6.515356,1.9863821,41.878605,12.78958,-10.516571,-14.942213,-6.6069155,-11.734505,6.7978916,-7.421109,8.657354,-12.56064,-6.021489,9.919811,13.753491,33.914967,-32.023098,-37.486984,17.255493,-3.4321342,4.9854426,40.868565,-32.116302,21.843485,-5.480748,-1.9831884,-0.33464852,-7.764922
181,-1.275577187538147,-252.16818237304688,78.2739028930664,4.608172631508646,-3.0646055558477463,-91.16700265136592,18.398764,-4.8377037,2.8789177,46.116608,11.569785,-11.124228,-13.874038,-4.9491167,-11.203311,6.877237,-5.0726795,6.5530314,-11.924366,-5.018788,10.597735,14.467781,33.705048,-31.707735,-37.196125,17.324078,-3.4984488,5.2397056,39.83227,-31.865269,22.163797,-5.1402636,-2.1105566,-0.23167416,-7.8181925
182,-1.3466150760650635,-253.5681915283203,77.93343353271484,3.2526820358453623,-3.5161956155513883,-91.54391305568394,17.512806,-2.6312394,3.804831,50.59099,9.832123,-11.503225,-13.903155,-3.23945,-10.897761,9.743381,-3.0187826,3.731024,-11.260153,-3.6979454,11.389032,15.111,33.38338,-31.349955,-36.73508,17.314661,-3.5705678,5.581711,38.599174,-31.578548,22.548855,-4.739664,-2.3484697,-0.012803736,-7.8763647
183,-1.442007064819336,-254.96881103515625,77.54205322265625,1.9394974435204713,-4.010734283372442,-91.8457961658899,16.629492,-0.378339,4.590237,55.012016,7.917504,-11.592759,-14.833977,-1.8766193,-10.866619,14.810689,-2.1870365,0.9049327,-10.648061,-2.4233437,12.214628,15.705685,32.96531,-30.93966,-36.076744,17.272213,-3.663894,5.9552135,37.21859,-31.267334,22.990097,-4.2923517,-2.639136,0.21783374,-7.9682927
184,-1.5780072212219238,-256.310546875,77.1572036743164,0.828886646584442,-4.493932768780537,-92.07114221101116,15.647695,1.663636,5.1192374,59.250877,6.0628953,-11.382194,-15.347253,-0.7477896,-11.023928,19.025723,-2.2312257,-1.2632041,-10.115085,-1.3314185,13.011449,16.260086,32.464005,-30.471542,-35.18177,17.237375,-3.7955513,6.3158317,35.65654,-30.949665,23.490864,-3.7387984,-2.8956616,0.3527077,-8.123139
185,-1.6967501640319824,-257.6609191894531,76.7396240234375,-0.2676661536584843,-4.90990979760553,-92.27235853987081,14.4312,3.6790283,5.3330507,63.499138,4.1377406,-10.872339,-15.583732,0.3929009,-11.305123,22.597782,-3.7707787,-2.589137,-9.63958,-0.21205892,13.786939,16.779997,31.880812,-29.903011,-34.091324,17.298304,-4.040703,6.650608,33.869778,-30.642218,24.049252,-3.0705266,-3.1383684,0.35687357,-8.328733
186,-1.7896556854248047,-258.986572265625,76.3158187866211,-1.4759102869235579,-5.2681477034145185,-92.46244579347818,12.99525,5.8160143,5.2965345,67.827896,2.0295916,-10.113327,-15.753672,1.6262271,-11.695336,26.068937,-6.3713455,-3.4452562,-9.206054,1.0546561,14.56311,17.272873,31.212252,-29.231474,-32.821117,17.403656,-4.368923,6.9903936,31.871819,-30.343534,24.662903,-2.3172066,-3.3846104,0.2891057,-8.579748
187,-1.871634840965271,-260.2751770019531,75.92494201660156,-2.6403864797110663,-5.594215808750181,-92.60657036150076,11.420311,7.88708,5.1018314,71.97856,-0.034555938,-9.185576,-15.770373,2.7739286,-12.072629,29.275917,-9.361198,-3.9926047,-8.817653,2.3006482,15.312397,17.730118,30.456581,-28.523941,-31.283678,17.384092,-4.639975,7.358422,29.728792,-30.034363,25.324911,-1.4823413,-3.5572913,0.18131454,-8.913953
188,-1.9670672416687012,-261.5685119628906,75.60140228271484,-3.5833977748302597,-5.920251126045408,-92.65905397305671,9.785211,9.697057,4.858313,75.70175,-1.8287957,-8.140219,-15.484374,3.6570866,-12.352723,31.913982,-11.982201,-4.393168,-8.468132,3.3182414,16.019009,18.12696,29.615484,-27.86495,-29.38451,17.068178,-4.714801,7.7744913,27.469442,-29.686716,26.027426,-0.5292826,-3.5640662,0.06470845,-9.365946
189,-2.052061080932617,-262.86456298828125,75.34132385253906,-4.219501168232028,-6.256598429514713,-92.58099425919018,8.049552,11.195047,4.567418,79.0068,-3.2710385,-6.85937,-14.79127,4.2098637,-12.563654,33.804424,-14.081643,-4.619559,-8.166649,3.999935,16.704132,18.460869,28.664232,-27.251541,-26.957266,16.20356,-4.5292907,8.2179985,25.069523,-29.269743,26.79894,0.65426946,-3.2837024,-0.08543904,-10.017415
190,-2.1201648712158203,-264.1262512207031,75.13146209716797,-4.653969852706797,-6.584103962940423,-92.40762880315413,6.163891,12.489569,4.1854725,82.02363,-4.500857,-5.337965,-13.783985,4.5696335,-12.775804,35.10713,-16.018566,-4.6084957,-7.8911076,4.4653254,17.37653,18.704308,27.595428,-26.664804,-24.064993,14.951471,-4.175597,8.6818495,22.505241,-28.769169,27.613113,2.0445597,-2.7957606,-0.2798687,-10.82179
191,-2.18037748336792,-265.3937683105469,74.95236206054688,-4.9759969500200585,-6.894057638625384,-92.20235333441443,4.199138,13.631134,3.7778957,84.687485,-5.6218076,-3.7873716,-12.569176,4.856377,-12.971026,35.95418,-17.777006,-4.471971,-7.596219,4.8282766,18.001654,18.830526,26.460995,-26.15243,-20.99527,13.760831,-3.7449977,9.215338,19.939554,-28.185608,28.369024,3.3646107,-2.3765922,-0.46205416,-11.6191435
192,-2.254371404647827,-266.66461181640625,74.8204116821289,-5.26213659193283,-7.177535999614353,-92.02276561865567,2.2409286,14.661869,3.4118485,86.91342,-6.71941,-2.4302936,-11.241638,5.1678257,-13.112789,36.466236,-19.339361,-4.313976,-7.2396502,5.1949863,18.544718,18.849428,25.354706,-25.756477,-18.073553,13.073849,-3.3198652,9.878987,17.512709,-27.533417,28.98252,4.355839,-2.2909784,-0.5686828,-12.250589
193,-2.3421976566314697,-267.94854736328125,74.72804260253906,-5.545314983589957,-7.454759796427859,-91.82886215231642,0.27345175,15.608817,3.0589266,88.72028,-7.8072157,-1.2973331,-9.746105,5.5107617,-13.234657,36.590908,-20.700132,-4.1268754,-6.834215,5.5863175,19.041277,18.765678,24.347874,-25.510252,-15.298332,12.964371,-2.778004,10.910817,15.259345,-26.813803,29.40888,4.9599943,-2.6641583,-0.55153984,-12.68824
194,-2.4302382469177246,-269.21246337890625,74.67696380615234,-5.775044220232795,-7.723330131109604,-91.6079720181835,-1.735971,16.438408,2.7215714,90.13962,-8.832435,-0.28194,-8.050528,5.8263397,-13.340827,36.285374,-21.868599,-3.8680499,-6.375782,5.930401,19.501968,18.633188,23.463858,-25.380844,-12.606745,13.179236,-2.1096494,12.225411,13.111879,-26.025795,29.702576,5.302109,-3.3382719,-0.4516782,-13.00748
195,-2.513373613357544,-270.49639892578125,74.6775131225586,-5.9172557918636075,-7.941580157556565,-91.46233589937894,-3.7215726,17.113955,2.5203462,91.116325,-9.780886,0.59124625,-6.298992,6.098592,-13.338627,35.71067,-22.855665,-3.5794704,-5.8100386,6.1969337,19.853703,18.561272,22.72776,-25.296293,-10.257369,13.681736,-1.5545144,13.395502,11.016755,-25.194723,29.960247,5.425781,-4.138282,-0.33862275,-13.208881
196,-2.5857393741607666,-271.74786376953125,74.7176742553711,-5.936477587004877,-8.06851642700756,-91.49399015511187,-5.609061,17.608002,2.57669,91.5931,-10.63669,1.293066,-4.6341476,6.307839,-13.13454,35.03063,-23.673536,-3.3005774,-5.09455,6.357009,20.028736,18.672876,22.164335,-25.174107,-8.527504,14.450133,-1.3602655,13.996212,8.931678,-24.363317,30.280945,5.351757,-4.8831987,-0.28255486,-13.296379
197,-2.6786906719207764,-273.0597229003906,74.81132507324219,-5.811280463814023,-8.088617007251278,-91.77857669238234,-7.3778453,17.923668,2.9732068,91.54113,-11.409867,1.8093286,-3.101265,6.452351,-12.650224,34.274464,-24.32475,-3.0307636,-4.1866274,6.3952622,20.006258,19.05279,21.79767,-24.950558,-7.605166,15.766475,-1.7113475,13.791757,6.858939,-23.561554,30.697296,4.9886127,-5.5712447,-0.31452727,-13.238612
198,-2.7398483753204346,-274.3680725097656,74.93012237548828,-5.566521149570247,-8.024572525524878,-92.24626408329081,-9.051431,18.095814,3.6486146,90.99433,-12.101489,2.1539469,-1.6218034,6.5222416,-11.954042,33.366447,-24.806147,-2.7437992,-3.1379986,6.322329,19.840078,19.666748,21.633364,-24.668596,-7.362591,17.532925,-2.456558,13.063779,4.830294,-22.794731,31.177742,4.3162923,-6.2680774,-0.3960356,-13.048726
199,-2.7840328216552734,-275.6954650878906,75.07875061035156,-5.234535818711916,-7.893051924893949,-92.780823169746,-10.621488,18.146185,4.5065928,89.98841,-12.684115,2.3403413,-0.15862836,6.4882565,-11.176034,32.317352,-25.120867,-2.442453,-2.0470955,6.151044,19.574146,20.444006,21.65424,-24.408873,-7.587597,19.168148,-3.3356173,12.154908,2.8459723,-22.068117,31.721682,3.47086,-6.8920555,-0.49363643,-12.797233
200,-2.823166847229004,-276.99896240234375,75.25570678710938,-4.848829032355227,-7.711858579553814,-93.26594524280658,-12.079226,18.085766,5.4514723,88.55786,-13.130817,2.380368,1.3272216,6.3289795,-10.447248,31.136122,-25.273876,-2.134437,-1.01106,5.8988442,19.247719,21.297087,21.82667,-24.251436,-8.046461,20.109764,-4.0562353,11.380587,0.90868354,-21.38635,32.329285,2.591161,-7.362582,-0.5711332,-12.554457
201,-2.8808963298797607,-278.33306884765625,75.47655487060547,-4.400719828650775,-7.471465428982119,-93.68970826427353,-13.434733,17.902227,6.5025535,86.684074,-13.4407625,2.224027,2.8639355,6.0340533,-9.776676,29.752556,-25.274652,-1.8356013,-0.053091463,5.5593057,18.8367,22.214947,22.135124,-24.231411,-8.730534,20.104652,-4.5492573,10.715167,-1.0112083,-20.756195,33.055393,1.715383,-7.6464825,-0.6172783,-12.335902
202,-2.9066498279571533,-279.69976806640625,75.7145767211914,-3.8806663663522296,-7.1667343739752285,-94.10545785047428,-14.677357,17.59529,7.702035,84.34727,-13.626646,1.8764381,4.421212,5.6194263,-9.109424,28.188719,-25.120884,-1.5386692,0.8724362,5.1298537,18.33477,23.222387,22.571602,-24.300945,-9.718224,19.49349,-4.950554,10.006606,-2.8891912,-20.178337,33.89726,0.76434445,-7.7864356,-0.6499373,-12.105174
203,-2.9322142601013184,-281.0611572265625,75.9663314819336,-3.322346884882892,-6.8236462870936565,-94.49487322029557,-15.767084,17.181286,8.9908085,81.57621,-13.685022,1.4325918,5.9479027,5.1079044,-8.480527,26.598925,-24.80382,-1.2196652,1.7754318,4.6382933,17.8004,24.26797,23.105433,-24.416248,-10.886223,18.622473,-5.262593,9.371366,-4.6496406,-19.649023,34.762756,-0.2881797,-7.8232903,-0.6746664,-11.8535
204,-2.944073438644409,-282.44207763671875,76.23589324951172,-2.753431230993234,-6.4688358813813736,-94.84016414455134,-16.66638,16.669115,10.308229,78.39843,-13.613294,0.9861615,7.395314,4.5248976,-7.921754,25.134218,-24.312965,-0.85491765,2.6684513,4.117755,17.285988,25.281044,23.693184,-24.54301,-12.088212,17.844666,-5.500198,8.932257,-6.2316217,-19.166351,35.550545,-1.4582195,-7.801054,-0.69695145,-11.571018
205,-2.9459915161132812,-283.8309631347656,76.52189636230469,-2.135744591261557,-6.10961261251638,-95.14018350613489,-17.339418,15.995916,11.6844015,74.74398,-13.38364,0.52288043,8.772589,3.818794,-7.4362273,23.803438,-23.65118,-0.4312815,3.5639393,3.542651,16.796827,26.212336,24.31237,-24.7128,-13.284177,17.166075,-5.650352,8.778868,-7.6278925,-18.734365,36.24151,-2.7705116,-7.680705,-0.71100163,-11.253133
206,-2.9490926265716553,-285.2388000488281,76.8241958618164,-1.4690203457662765,-5.7327860504238375,-95.40014814945258,-17.806286,15.154761,13.132361,70.602036,-13.003331,-0.00447315,10.099501,3.0043302,-7.0075293,22.535362,-22.825369,0.0342135,4.4459133,2.9169118,16.305191,27.076727,24.95844,-24.93745,-14.5104065,16.441761,-5.717327,8.827351,-8.879264,-18.3604,36.890976,-4.1986556,-7.4584417,-0.7135694,-10.905479
207,-2.9515793323516846,-286.6509094238281,77.12814331054688,-0.8475821663442801,-5.3362703598881795,-95.61365224217803,-18.120193,14.239062,14.563926,66.09121,-12.522322,-0.5534904,11.334935,2.2055228,-6.631709,21.38413,-21.83415,0.51921654,5.28605,2.3194356,15.808819,27.901163,25.611343,-25.154232,-15.732444,15.802576,-5.7499566,8.9428,-10.001929,-18.048168,37.50359,-5.6844716,-7.23251,-0.7152284,-10.533809
208,-2.948046922683716,-288.06005859375,77.4145278930664,-0.3665458185975498,-4.917393713859923,-95.77609241184204,-18.340454,13.353714,15.890955,61.333176,-11.993934,-1.0745375,12.443334,1.5468638,-6.300477,20.398884,-20.67694,1.0012946,6.054682,1.8301153,15.297697,28.714497,26.240944,-25.299314,-16.912514,15.382445,-5.7924824,8.988228,-11.020253,-17.800014,38.086487,-7.1601768,-7.101012,-0.727918,-10.143035
209,-2.9278180599212646,-289.45904541015625,77.70599365234375,-0.03772965174044266,-4.446747748217693,-95.88000469972175,-18.48537,12.541898,17.156765,56.22722,-11.43939,-1.4367979,13.401846,1.0472327,-6.0126,19.558355,-19.306822,1.4767871,6.746464,1.462091,14.741583,29.495136,26.825045,-25.362913,-18.031954,15.281179,-5.863623,8.933552,-11.965998,-17.622105,38.649544,-8.618938,-7.07914,-0.75711715,-9.735678
210,-2.9161171913146973,-290.8697814941406,77.97238159179688,0.1877076817941772,-3.936404775440428,-95.93259986072347,-18.510036,11.721391,18.38986,50.714005,-10.817374,-1.7132125,14.241476,0.64983004,-5.7586455,18.842669,-17.737873,1.9577767,7.371043,1.1809239,14.145811,30.224846,27.355946,-25.377779,-19.089668,15.414884,-5.93911,8.847036,-12.829548,-17.518553,39.192947,-10.089821,-7.1176147,-0.79538894,-9.308765
211,-2.9070193767547607,-292.29486083984375,78.22754669189453,0.3029941558282367,-3.4468872879069092,-95.95644789229004,-18.385876,10.849073,19.470528,44.97407,-10.075493,-2.1308215,15.018525,0.36877942,-5.5156765,18.271338,-16.045513,2.445873,7.9295835,0.99754846,13.551452,30.938395,27.82579,-25.346033,-20.077322,15.642277,-5.99694,8.739398,-13.570265,-17.483227,39.7038,-11.556688,-7.2190075,-0.83920765,-8.859159
212,-2.865604877471924,-293.7293701171875,78.45384216308594,0.2953003492790281,-3.0388386341225044,-95.97648342478168,-18.082195,9.924523,20.262482,39.17683,-9.15999,-2.8857877,15.785186,0.2221337,-5.2610793,17.873629,-14.302235,2.9424095,8.424627,0.92744553,12.999028,31.672716,28.227453,-25.266232,-20.985947,15.821562,-6.0145674,8.620636,-14.150063,-17.501877,40.169464,-12.997921,-7.387363,-0.88410187,-8.383884
213,-2.835832357406616,-295.168701171875,78.64612579345703,0.1045268934082896,-2.7328177799068945,-96.01126879788151,-17.493582,8.984862,20.692451,33.043335,-7.947289,-4.167825,16.628597,0.29653126,-4.972488,17.513716,-12.429775,3.4556172,8.864568,1.0341507,12.476052,32.47483,28.557543,-25.12276,-21.822567,15.957179,-5.995408,8.483227,-14.572793,-17.566654,40.603455,-14.400416,-7.6795473,-0.9296048,-7.837931
214,-2.800098419189453,-296.6475830078125,78.78863525390625,-0.2793150000303773,-2.5019283668121752,-96.06191199227764,-16.59313,8.115586,20.810844,26.446507,-6.4534674,-5.767101,17.527035,0.59832764,-4.642378,17.166607,-10.38761,3.9811425,9.260793,1.3279549,11.963411,33.32032,28.814049,-24.919407,-22.592403,16.113699,-5.948183,8.324175,-14.869394,-17.676094,41.00847,-15.761265,-8.076773,-0.9802813,-7.235702
215,-2.7767343521118164,-298.1165771484375,78.896484375,-0.7944592535799821,-2.337368196875947,-96.12936779020687,-15.497533,7.409968,20.677254,19.859005,-4.8536267,-7.293278,18.376192,1.039894,-4.2730427,17.011385,-8.299529,4.500192,9.623647,1.7568834,11.491933,34.13991,28.991941,-24.686354,-23.285204,16.23971,-5.857295,8.161286,-15.042849,-17.822998,41.353294,-17.067345,-8.472496,-1.0373008,-6.6627264
216,-2.764909505844116,-299.59112548828125,78.9684829711914,-1.3657688578582357,-2.2251859537644285,-96.20428471297946,-14.4208765,6.924141,20.37607,13.940722,-3.3890438,-8.397715,19.054811,1.517116,-3.8856256,17.255375,-6.304428,4.999918,9.953812,2.2508388,11.090214,34.855606,29.08498,-24.45795,-23.876385,16.283728,-5.7067065,8.012874,-15.10051,-17.996767,41.606586,-18.297726,-8.761086,-1.0988685,-6.204044
217,-2.7514655590057373,-301.0501708984375,79.01182556152344,-1.9420003370359957,-2.14472115482015,-96.27778525481854,-13.4236145,6.579822,19.948563,8.768059,-2.086736,-9.107549,19.481228,1.9707084,-3.5179746,18.035725,-4.457387,5.480418,10.252587,2.7565796,10.753848,35.46362,29.07921,-24.232328,-24.355963,16.221235,-5.475025,7.8648763,-15.033359,-18.189596,41.745293,-19.461485,-8.963698,-1.1611112,-5.8640137
218,-2.7102084159851074,-302.5032958984375,79.01981353759766,-2.5070841464625704,-2.0975825734850795,-96.33234842712929,-13.67554,6.7421627,19.229921,6.8505445,-2.3122036,-9.585253,19.693018,2.402703,-3.1894429,19.291517,-2.7229407,5.982204,10.495998,3.256428,10.4732685,35.97466,28.96993,-24.003046,-24.70918,16.086004,-5.1771326,7.713466,-14.8522835,-18.395872,41.79108,-20.547949,-9.124484,-1.2255449,-5.6038165
219,-2.657402515411377,-303.9361572265625,79.01485443115234,-2.968332582378252,-2.086013825937249,-96.32030578496338,-14.48223,7.011877,18.330866,6.671838,-3.2184477,-9.68647,19.699167,2.7177534,-2.928581,21.015596,-1.1545944,6.5617647,10.621512,3.6512794,10.271379,36.33184,28.771856,-23.794983,-24.910728,15.913934,-4.851513,7.5921435,-14.600589,-18.604263,41.775383,-21.504194,-9.1671095,-1.2978144,-5.445592
220,-2.6158463954925537,-305.3560791015625,79.00340270996094,-3.278821659949264,-2.114950727595166,-96.20707999011869,-15.064519,7.047195,17.36598,6.56358,-3.8681939,-9.288677,19.532658,2.8706074,-2.7395275,23.148882,0.22740455,7.25263,10.580391,3.890596,10.16477,36.492676,28.512863,-23.629572,-24.954023,15.735941,-4.535484,7.5359898,-14.31653,-18.799437,41.727974,-22.275639,-9.018037,-1.3827854,-5.4097056
221,-2.559021472930908,-306.7510986328125,78.9725112915039,-3.4091442636067675,-2.1589338502117026,-95.95683876994566,-15.432,6.7964754,16.25845,6.525588,-4.2317967,-8.08664,19.144812,2.829864,-2.6453505,25.76226,1.3851851,8.090824,10.330953,3.9294622,10.14061,36.47075,28.204975,-23.492815,-24.85178,15.536523,-4.2196455,7.5602474,-14.015786,-18.966465,41.650585,-22.834446,-8.560579,-1.5054804,-5.542979
222,-2.5032107830047607,-308.145751953125,78.92210388183594,-3.3813643481652247,-2.215665590679179,-95.59422566279227,-15.599693,6.283982,15.031203,6.5425625,-4.342071,-6.2507453,18.55103,2.6215487,-2.6257303,28.821836,2.3547854,9.049287,9.905444,3.7886088,10.188488,36.292767,27.850485,-23.372639,-24.616146,15.299411,-3.8901067,7.6468625,-13.686431,-19.095045,41.530018,-23.194025,-7.8695335,-1.6581951,-5.8176613
223,-2.457292318344116,-309.5157775878906,78.83423614501953,-3.254278699711632,-2.333150955781498,-95.18538386728378,-15.522876,5.614347,13.848649,6.5885653,-4.2349267,-4.3841968,17.890743,2.3162856,-2.6071227,32.107845,3.2389994,10.050993,9.378333,3.5495791,10.327435,35.957493,27.470482,-23.290686,-24.263588,15.057373,-3.5768168,7.782166,-13.324791,-19.179913,41.371223,-23.369581,-7.155971,-1.7951192,-6.1421866
224,-2.447117567062378,-310.9021911621094,78.67713928222656,-3.089838867982762,-2.5625911847838756,-94.79540769961841,-15.148706,4.8942666,12.8715315,6.6372137,-3.9243157,-3.0918047,17.298763,1.9854232,-2.5288634,35.415756,4.131893,11.019413,8.828865,3.291048,10.582731,35.46617,27.098576,-23.269865,-23.8193,14.840034,-3.3088088,7.9548774,-12.91803,-19.220512,41.171852,-23.3878,-6.6310906,-1.8664287,-6.427282
225,-2.457263231277466,-312.3065490722656,78.46114349365234,-2.9703842080058376,-2.9600946606030742,-94.42669266675637,-14.369293,4.215822,12.087518,6.681263,-3.3563044,-2.805756,16.862982,1.7667551,-2.338098,38.701015,5.2143073,11.935327,8.271896,3.097371,10.984848,34.829197,26.767767,-23.32753,-23.293291,14.628014,-3.0948043,8.188108,-12.417395,-19.21491,40.909023,-23.269035,-6.320621,-1.8486536,-6.654735
226,-2.485208511352539,-313.7000427246094,78.18516540527344,-2.847407030421149,-3.4881993892733187,-94.05138241516364,-13.23537,3.528167,11.412888,6.7340517,-2.5374517,-3.1113508,16.497864,1.5887798,-2.080354,42.074642,6.3824944,12.843394,7.6833777,2.894319,11.515192,34.059357,26.490002,-23.448061,-22.698826,14.403118,-2.917754,8.486385,-11.828855,-19.161877,40.577072,-23.01051,-6.123836,-1.7707771,-6.8705688
227,-2.4378888607025146,-315.0617980957031,77.94047546386719,-2.5723447225328275,-4.059605058573647,-93.69133682154454,-12.245693,2.769811,10.887341,7.4806457,-1.9129455,-3.3484972,16.078377,1.1998667,-1.8488299,45.57682,7.300978,13.750266,7.0840282,2.5244555,12.124985,33.16583,26.260529,-23.603655,-22.070835,14.200539,-2.767411,8.808758,-11.231527,-19.068136,40.20157,-22.588755,-6.054902,-1.6589235,-7.082513
228,-2.3722567558288574,-316.40521240234375,77.69001007080078,-2.024714249469436,-4.594899329619432,-93.37771880132605,-12.259291,1.9676107,10.553234,10.3875265,-2.3408258,-2.863587,15.4978285,0.36130482,-1.7264031,49.229923,7.6456723,14.639118,6.499517,1.8638968,12.76471,32.158493,26.062378,-23.763828,-21.440592,14.0596285,-2.6334722,9.111326,-10.703774,-18.946083,39.81297,-21.986094,-6.1297026,-1.5383095,-7.298464
229,-2.349061965942383,-317.7366943359375,77.37611389160156,-1.164799456932885,-5.108708153194158,-93.1301911874543,-12.882738,1.0145794,10.491876,14.587455,-3.1062093,-1.1869655,14.789507,-1.1988277,-2.0520415,53.08055,7.3318415,15.000033,5.9328694,0.8719023,13.456048,31.065983,25.868982,-23.899656,-20.850264,14.006461,-2.5071502,9.36775,-10.298675,-18.81008,39.421844,-21.220858,-6.4079413,-1.4016649,-7.518155
230,-2.304720401763916,-319.0153503417969,77.043701171875,-0.23237038824583123,-5.643325548585822,-92.96542604612856,-13.882242,0.14999673,10.636234,19.75514,-4.0793104,1.2073687,14.0278015,-3.1728787,-2.6803718,57.032505,6.6003876,15.000033,5.3991494,-0.19496556,14.195724,29.883114,25.669947,-24.033136,-20.273994,14.022872,-2.3953507,9.60222,-9.958368,-18.669127,39.020054,-20.303331,-6.859872,-1.2365534,-7.7376604
231,-2.2340087890625,-320.2532958984375,76.68360900878906,0.7096864236308822,-6.160016223437501,-92.87173906704233,-14.681383,-0.6891884,10.933581,24.563665,-5.101902,3.6082299,13.147508,-5.204928,-3.1301887,60.98461,5.525856,15.000033,4.9100137,-1.2605019,14.926174,28.556541,25.479769,-24.206385,-19.63159,14.079463,-2.311546,9.847648,-9.589656,-18.52546,38.604927,-19.21454,-7.368184,-1.0625138,-7.961957
232,-2.1693930625915527,-321.4803161621094,76.25021362304688,1.6275306148588753,-6.594635536543524,-92.82305734757321,-14.951208,-1.5682998,11.298483,28.170385,-6.2660227,5.2866488,12.040322,-7.019034,-3.0936813,64.83261,4.186403,15.000033,4.474547,-2.2957408,15.572791,27.023895,25.330965,-24.461456,-18.842026,14.140882,-2.270132,10.140177,-9.097647,-18.37199,38.163834,-17.930424,-7.816676,-0.90201885,-8.198519
233,-2.0912349224090576,-322.7562561035156,75.82695770263672,2.6350928467674595,-6.887099224849665,-92.79350855851226,-14.692653,-2.6391356,11.7722845,30.479652,-7.8169923,5.9574547,10.577308,-8.603553,-2.3545008,68.68492,2.404039,15.000033,4.098411,-3.4253018,16.090614,25.194332,25.266512,-24.840979,-17.861383,14.16964,-2.3137045,10.506121,-8.450144,-18.197205,37.653584,-16.440638,-8.235407,-0.8323591,-8.422058
234,-2.0053186416625977,-324.0193786621094,75.46723937988281,3.7795553436050513,-7.067774103717781,-92.78468644844823,-14.165447,-3.8948076,12.370729,32.099613,-9.730272,6.0425577,8.817037,-10.093684,-1.0876352,72.56209,0.19709815,15.000033,3.779876,-4.706076,16.521578,23.136646,25.29562,-25.317612,-16.77828,14.179963,-2.4195664,10.932456,-7.687372,-18.000015,37.065678,-14.768869,-8.668569,-0.81990206,-8.637842
235,-1.962276577949524,-325.2370910644531,75.17078399658203,4.683613523553765,-7.194517359167034,-92.84627786009368,-13.60189,-4.8297286,12.88845,33.627937,-11.90115,5.800221,6.8903365,-11.503873,-0.08640284,76.17384,-1.9922357,13.897056,3.5362558,-5.7581153,16.899559,21.021185,25.384962,-25.825396,-15.690503,14.21559,-2.505511,11.392232,-6.832371,-17.790125,36.45744,-12.935953,-9.020072,-0.72192043,-8.898214
236,-1.9531015157699585,-326.43841552734375,74.95005798339844,5.381631283677675,-7.3679139101072275,-92.96474740297674,-12.88324,-5.5304685,13.276004,34.953632,-13.870033,5.6066484,4.9869294,-12.7799225,0.6811098,79.3478,-3.877526,12.392954,3.3110912,-6.59225,17.323294,19.014347,25.480133,-26.281454,-14.674551,14.330627,-2.4901032,11.845395,-5.9204364,-17.581272,35.91553,-10.956833,-9.18777,-0.39391062,-9.256525
237,-1.9287371635437012,-327.63330078125,74.76238250732422,5.864597782921137,-7.637320141644574,-93.19461777190565,-11.898587,-5.9937835,13.557938,35.965816,-15.546891,5.5141687,3.129557,-13.830677,1.3680425,82.090355,-5.367496,10.890997,3.1189058,-7.16227,17.862642,17.081179,25.531576,-26.687567,-13.597387,14.524663,-2.3344905,12.3245945,-4.9577775,-17.36862,35.461174,-8.70668,-9.094802,0.33561733,-9.712225
238,-1.9061052799224854,-328.8147277832031,74.59900665283203,6.188575407867976,-7.950299713797893,-93.51328194434642,-10.660828,-6.305217,13.797447,36.59551,-17.088985,5.365399,1.2229741,-14.700532,2.046377,84.513695,-6.6591163,9.257301,2.9432697,-7.5292964,18.45766,15.138396,25.524857,-27.072945,-12.417154,14.7891445,-2.0877829,12.821715,-3.9557743,-17.149757,35.079803,-6.184935,-8.804288,1.3432802,-10.245214
