unveil-humanoid-operators/unveil-humanoid-operators.github.io/feature-analysis-animation/data/feature_matrix_instances/height_root_translate_rom_jogging_A037_jog_sideway_135_stop_003__A037.csv
Frame,root_translateX,root_translateY,root_translateZ,root_rotateX,root_rotateY,root_rotateZ,left_hip_pitch_joint_dof,left_hip_roll_joint_dof,left_hip_yaw_joint_dof,left_knee_joint_dof,left_ankle_pitch_joint_dof,left_ankle_roll_joint_dof,right_hip_pitch_joint_dof,right_hip_roll_joint_dof,right_hip_yaw_joint_dof,right_knee_joint_dof,right_ankle_pitch_joint_dof,right_ankle_roll_joint_dof,waist_yaw_joint_dof,waist_roll_joint_dof,waist_pitch_joint_dof,left_shoulder_pitch_joint_dof,left_shoulder_roll_joint_dof,left_shoulder_yaw_joint_dof,left_elbow_joint_dof,left_wrist_roll_joint_dof,left_wrist_pitch_joint_dof,left_wrist_yaw_joint_dof,right_shoulder_pitch_joint_dof,right_shoulder_roll_joint_dof,right_shoulder_yaw_joint_dof,right_elbow_joint_dof,right_wrist_roll_joint_dof,right_wrist_pitch_joint_dof,right_wrist_yaw_joint_dof
0,2.1930534839630127,-0.5053557753562927,77.16062927246094,-2.3057003283775424,-2.189913028388489,175.5831280008053,5.5690045,16.30649,10.736761,11.59885,-11.260582,-10.91195,6.6102443,-0.15712136,-13.108166,6.9907722,-12.173058,2.7019358,6.5565524,5.9143577,5.436303,0.14202076,9.216137,-22.339598,62.07955,-9.829665,9.417279,2.5007434,-0.932375,-11.633383,17.650892,62.115944,-16.754826,3.9102037,-5.732981
1,2.1898961067199707,-0.49524828791618347,77.16313171386719,-2.299791282831395,-2.218605173311282,175.55912909837934,5.619552,16.310726,10.776381,11.588458,-11.263855,-10.932742,6.6397247,-0.15644386,-13.073105,6.991608,-12.180157,2.695411,6.5948367,5.9322014,5.4688168,0.10896132,9.206876,-22.616411,61.905552,-9.073093,9.496759,2.6421893,-1.1118151,-11.645301,17.776726,61.920177,-16.921505,3.8980305,-5.927755
2,2.1910390853881836,-0.48495376110076904,77.1610336303711,-2.2935616546464144,-2.2463080021776056,175.53157506104597,5.6704373,16.314644,10.820564,11.57848,-11.268638,-10.955158,6.667974,-0.1564048,-13.033513,6.9922338,-12.186702,2.689624,6.6416354,5.943598,5.4968204,0.072092876,9.201016,-22.898712,61.735195,-8.295301,9.583174,2.7687752,-1.3002024,-11.644451,17.894176,61.73619,-17.095652,3.8949513,-6.1351
3,2.1920909881591797,-0.4755803942680359,77.15902709960938,-2.287907817859221,-2.275514179783126,175.5113530784351,5.7187715,16.318983,10.85497,11.569762,-11.271151,-10.97441,6.698302,-0.15511174,-13.0032625,6.993118,-12.194077,2.6822824,6.696182,5.9509487,5.519289,0.029395835,9.195869,-23.20969,61.579254,-7.575068,9.661233,2.9313178,-1.4761747,-11.634303,18.001263,61.558628,-17.26563,3.875853,-6.3279486
4,2.1917197704315186,-0.46901437640190125,77.15861511230469,-2.285058706177727,-2.3093988932164375,175.50984861458397,5.7564716,16.326548,10.863304,11.572261,-11.271084,-10.98603,6.735932,-0.14943281,-12.996643,6.9939,-12.203503,2.6710157,6.7252636,5.954955,5.555062,-0.014428445,9.192908,-23.502823,61.43183,-6.9537277,9.717184,3.1654427,-1.646798,-11.618445,18.10567,61.388103,-17.43377,3.8130639,-6.4719563
5,2.2061667442321777,-0.44134730100631714,77.15447235107422,-2.287055060413892,-2.350018008469844,175.53740191066484,5.773537,16.340782,10.828565,11.599374,-11.269945,-10.984564,6.783646,-0.13538766,-13.026844,6.9938736,-12.215153,2.6517031,6.7254367,5.955674,5.6048727,-0.06330623,9.191509,-23.790087,61.30068,-6.4573927,9.740964,3.52088,-1.8030902,-11.598236,18.208445,61.219353,-17.588696,3.6807811,-6.5690923
6,2.2175400257110596,-0.4270695149898529,77.15290832519531,-2.292585325270152,-2.39530473023048,175.5854408906976,5.7766943,16.359623,10.763786,11.642892,-11.267527,-10.973845,6.838134,-0.11557769,-13.083038,6.993861,-12.228421,2.6268191,6.7102814,5.95292,5.6616073,-0.11622177,9.191387,-24.083485,61.182487,-6.0576577,9.743438,3.9662066,-1.9485046,-11.573202,18.306423,61.056164,-17.734184,3.4998991,-6.6348333
7,2.2255313396453857,-0.42110583186149597,77.1492691040039,-2.2981964765123193,-2.44089282118299,175.63663523471467,5.7784543,16.377817,10.696409,11.687201,-11.265777,-10.963374,6.893385,-0.09653851,-13.143299,6.994692,-12.242989,2.6035538,6.6943073,5.948552,5.714888,-0.1698928,9.192427,-24.383833,61.07576,-5.73928,9.7385235,4.4215407,-2.0815501,-11.5416975,18.398575,60.902035,-17.881565,3.3120716,-6.656626
8,2.228740930557251,-0.41452962160110474,77.14653015136719,-2.3002913800945817,-2.482041758506011,175.67347610802477,5.792512,16.39033,10.654694,11.7156515,-11.266308,-10.962601,6.9445734,-0.08467534,-13.185219,6.994657,-12.25715,2.5891418,6.6916924,5.943485,5.7536664,-0.21902925,9.195066,-24.691029,60.977077,-5.488495,9.740317,4.8096814,-2.204234,-11.503165,18.484568,60.765743,-18.042566,3.1600814,-6.6247773
9,2.2247612476348877,-0.4101499915122986,77.14485168457031,-2.2972661161947974,-2.5170611586656246,175.6875440925876,5.824805,16.394768,10.653533,11.722103,-11.270959,-10.976165,6.9880795,-0.08314384,-13.199132,6.994796,-12.270698,2.587729,6.7072964,5.9379063,5.7753406,-0.2571138,9.198394,-24.986265,60.877533,-5.3022156,9.755901,5.108678,-2.314914,-11.457671,18.55391,60.639767,-18.234224,3.059511,-6.5016327
10,2.224363088607788,-0.40011370182037354,77.14273071289062,-2.2906691633813883,-2.5492572240464346,175.6898413657243,5.868867,16.393496,10.675627,11.713649,-11.277206,-10.998141,7.0283637,-0.08867988,-13.198492,6.994762,-12.284431,2.5949197,6.7028832,5.939717,5.8018255,-0.27241424,9.199513,-25.225954,60.757034,-5.1637306,9.775496,5.3504453,-2.4226515,-11.429756,18.635862,60.50811,-18.44159,2.9856117,-6.296136
11,2.2242507934570312,-0.3957766890525818,77.14066314697266,-2.2836645266704365,-2.579023708990201,175.68937498551745,5.9163337,16.39011,10.701865,11.697827,-11.282746,-11.022484,7.0664825,-0.09622999,-13.194027,6.995469,-12.298038,2.6044192,6.7357574,5.9378657,5.799569,-0.30918694,9.202269,-25.550938,60.68427,-5.129225,9.785018,5.573422,-2.5016654,-11.383455,18.707155,60.4077,-18.632315,2.9198442,-6.0939174
12,2.222198724746704,-0.39477747678756714,77.13956451416016,-2.2803381063297583,-2.610011909347156,175.69813436649176,5.955079,16.389656,10.709,11.693354,-11.290443,-11.043212,7.1075153,-0.100388706,-13.199149,6.9956603,-12.31056,2.610235,6.738154,5.946744,5.8062944,-0.3470549,9.207194,-25.884825,60.624973,-5.1421633,9.773001,5.7694516,-2.5806284,-11.348134,18.833506,60.332176,-18.776354,2.8429537,-5.948514
13,2.22379469871521,-0.39057013392448425,77.13728332519531,-2.281369922017769,-2.640898649621668,175.718942678055,5.9862137,16.392305,10.691344,11.691115,-11.2930975,-11.056947,7.150242,-0.09970319,-13.217714,6.996146,-12.322205,2.609936,6.7428646,5.9587836,5.8024507,-0.4047625,9.219534,-26.304377,60.609867,-5.277367,9.728183,5.961541,-2.6437871,-11.305171,19.004057,60.296143,-18.857338,2.7499008,-5.8883166
14,2.220571994781494,-0.38957667350769043,77.13358306884766,-2.2857357133251894,-2.67067749743279,175.74635259816182,6.0080967,16.398233,10.658238,11.698599,-11.298235,-11.067745,7.1930313,-0.09608469,-13.243519,6.99612,-12.33238,2.6068795,6.7534294,5.967155,5.7887774,-0.47260883,9.2476,-26.788448,60.62167,-5.5184407,9.659912,6.137128,-2.6965113,-11.242932,19.198883,60.297844,-18.899685,2.6505992,-5.8760424
15,2.208453893661499,-0.3960114121437073,77.13057708740234,-2.2898988073627518,-2.7028016854668007,175.776205424837,6.034818,16.402115,10.621704,11.701308,-11.301181,-11.079827,7.2396417,-0.093638636,-13.2702875,6.996563,-12.3431835,2.604263,6.7293396,5.989297,5.786865,-0.535687,9.268008,-27.24719,60.63729,-5.747212,9.583905,6.2685323,-2.7472591,-11.206214,19.440184,60.31085,-18.914179,2.5511525,-5.885081
16,2.208104133605957,-0.3851737380027771,77.12725830078125,-2.291570934017511,-2.7394249444946377,175.80486226127547,6.0722346,16.401518,10.590733,11.697833,-11.303722,-11.09797,7.292977,-0.095117465,-13.292848,6.996089,-12.355007,2.6048887,6.73735,6.0012965,5.7719865,-0.6051022,9.302324,-27.77791,60.666016,-5.929906,9.520476,6.359066,-2.7680273,-11.151296,19.653822,60.343353,-18.927273,2.4601564,-5.912474
17,2.2008183002471924,-0.38685154914855957,77.12956237792969,-2.29074797638081,-2.7854792491851397,175.8300020231571,6.125262,16.396355,10.56791,11.693586,-11.310517,-11.125669,7.357494,-0.10084065,-13.306025,6.9974694,-12.369446,2.6098301,6.7284565,6.020335,5.772279,-0.67181534,9.330988,-28.285557,60.69629,-6.001571,9.465106,6.3902555,-2.783608,-11.10726,19.87765,60.38915,-18.943886,2.3752625,-5.9497714
18,2.1897470951080322,-0.3926634192466736,77.1294937133789,-2.2875882677225308,-2.838194527114165,175.85379925941874,6.1943426,16.385973,10.549878,11.677734,-11.314321,-11.159527,7.431452,-0.10988502,-13.313619,6.9980464,-12.384817,2.6174824,6.7341924,6.036871,5.7683625,-0.7455545,9.364448,-28.841455,60.74465,-6.038751,9.41175,6.3814454,-2.777303,-11.05789,20.098467,60.455463,-18.950851,2.29516,-6.0107255
19,2.181791305541992,-0.3988080322742462,77.12821197509766,-2.2834406006659442,-2.889441585659555,175.88027952012735,6.259816,16.373936,10.530708,11.664159,-11.319444,-11.194287,7.505341,-0.12137517,-13.324877,6.997639,-12.40087,2.6266613,6.733865,6.0540013,5.76366,-0.8231227,9.397468,-29.39763,60.79795,-6.0265093,9.372793,6.324442,-2.7610497,-11.010415,20.312435,60.535282,-18.955362,2.221131,-6.079191
20,2.170386791229248,-0.4038042426109314,77.1252670288086,-2.2782807837117933,-2.9307740661103763,175.9129024584716,6.3109403,16.360819,10.508012,11.649705,-11.321869,-11.224477,7.5671926,-0.13572247,-13.3481245,6.9994907,-12.418966,2.636167,6.763276,6.0533237,5.740629,-0.91058433,9.452914,-30.00608,60.849873,-5.997994,9.363401,6.2256207,-2.725559,-10.935485,20.466913,60.63394,-18.971027,2.1555793,-6.1510363
21,2.160654306411743,-0.4087267518043518,77.12062072753906,-2.2723760344658563,-2.9603858011285222,175.95988866401612,6.3391037,16.347654,10.474047,11.637693,-11.320967,-11.247238,7.6177883,-0.15280542,-13.395741,6.999538,-12.43895,2.6473608,6.7297826,6.0670815,5.7247806,-0.9994536,9.486842,-30.54503,60.897335,-5.876071,9.384635,6.0627036,-2.7014396,-10.89007,20.66177,60.737495,-18.998589,2.1068249,-6.239629
22,2.1555368900299072,-0.4102519750595093,77.11532592773438,-2.265134707202333,-2.9819039920765027,176.01677860775766,6.3541813,16.333017,10.433754,11.62261,-11.315572,-11.266026,7.65985,-0.17335571,-13.4595785,6.9998565,-12.460638,2.660194,6.743047,6.0599666,5.688319,-1.1117051,9.547497,-31.185593,60.954113,-5.738325,9.433283,5.858802,-2.6459677,-10.811503,20.789595,60.858894,-19.053009,2.0704844,-6.3554535
23,2.1515440940856934,-0.415155291557312,77.11038208007812,-2.257701414045072,-2.998521492737532,176.06860509475837,6.3644314,16.317915,10.398367,11.6121435,-11.313677,-11.284617,7.696453,-0.19472918,-13.518472,7.000354,-12.481911,2.6719584,6.705937,6.0707192,5.657914,-1.2019612,9.582038,-31.712091,60.999973,-5.5422945,9.4971,5.603587,-2.600838,-10.767116,20.940619,60.98411,-19.06632,2.0329561,-6.428106
24,2.1445748805999756,-0.4194841682910919,77.10912322998047,-2.249114425197397,-3.0128723878961856,176.0998910233129,6.3899856,16.299286,10.38364,11.589583,-11.310675,-11.306665,7.728482,-0.2165441,-13.550591,7.00133,-12.499443,2.6799598,6.7125874,6.077938,5.609537,-1.2759274,9.616397,-32.212914,61.040783,-5.373801,9.571389,5.322306,-2.5245464,-10.72294,21.005283,61.103718,-19.013466,1.9784502,-6.406842
25,2.1315383911132812,-0.43383416533470154,77.1124267578125,-2.2405979253541997,-3.022277201055786,176.09389893996095,6.432998,16.279293,10.4036875,11.563279,-11.31534,-11.338231,7.7525077,-0.23636402,-13.53621,7.002593,-12.511823,2.6800506,6.767583,6.084987,5.5365086,-1.3186064,9.649702,-32.669117,61.06751,-5.2079973,9.668147,4.9789586,-2.418776,-10.680975,20.976799,61.22054,-18.902142,1.9018364,-6.2594085
26,2.1105446815490723,-0.4458366334438324,77.11335754394531,-2.2310914698829376,-3.0267989845418595,176.0627292384119,6.491425,16.256046,10.44946,11.523481,-11.319598,-11.375382,7.768983,-0.25645033,-13.491369,7.003992,-12.520361,2.6749842,6.8572855,6.09193,5.4460278,-1.3424292,9.681322,-33.09227,61.085327,-5.0323796,9.785828,4.5785956,-2.2871966,-10.642962,20.873137,61.334896,-18.748642,1.8116161,-6.020453
27,2.0851707458496094,-0.4608375132083893,77.11685180664062,-2.220865983852798,-3.0317823549191276,176.03575842417425,6.545482,16.230751,10.490237,11.488105,-11.3246,-11.407775,7.785926,-0.27800947,-13.448976,7.006078,-12.528434,2.6716151,6.9323626,6.100885,5.360808,-1.3544643,9.705617,-33.434845,61.09723,-4.8754563,9.897595,4.187887,-2.1555324,-10.616605,20.741581,61.451637,-18.517376,1.7142813,-5.7330503
28,2.0641024112701416,-0.47235554456710815,77.11654663085938,-2.209768007191019,-3.042667547557437,176.04222900932731,6.58065,16.203274,10.49717,11.465737,-11.326368,-11.425062,7.811979,-0.30315953,-13.441963,7.007096,-12.537546,2.676918,6.989561,6.103882,5.297704,-1.3802196,9.729823,-33.712997,61.11388,-4.7893624,9.97882,3.8786974,-2.0266955,-10.59669,20.572632,61.566845,-18.189058,1.6145425,-5.44
29,2.055039405822754,-0.48069027066230774,77.11404418945312,-2.195459903214897,-3.0574403792781486,176.0829079354405,6.5911508,16.172224,10.472203,11.462387,-11.325552,-11.418153,7.8443394,-0.33500952,-13.472204,7.007759,-12.548085,2.6962917,6.994792,6.1024337,5.261112,-1.4047114,9.750948,-33.86485,61.125416,-4.799478,10.022906,3.6530335,-1.9228469,-10.587134,20.385292,61.690983,-17.69611,1.5105283,-5.116879
30,2.0551111698150635,-0.49022260308265686,77.11190795898438,-2.1784317557978388,-3.074310327884852,176.14510313403727,6.588556,16.137283,10.427935,11.4660425,-11.32026,-11.394582,7.880711,-0.3721219,-13.524882,7.0079246,-12.558881,2.724983,6.9485164,6.1002207,5.2381377,-1.4137423,9.765037,-33.896496,61.13107,-4.8766313,10.043025,3.4806979,-1.8443253,-10.585233,20.198406,61.83525,-17.059408,1.4045763,-4.756304
31,2.0560410022735596,-0.500640332698822,77.1133804321289,-2.163215618556407,-3.0997267754902174,176.2350455403906,6.576121,16.10246,10.351232,11.476093,-11.312435,-11.369616,7.9287086,-0.4082657,-13.605735,7.0083027,-12.5717125,2.7542984,6.927382,6.089937,5.2400336,-1.453316,9.788021,-33.92569,61.143147,-4.973924,10.047782,3.374122,-1.7398611,-10.588402,19.945105,61.95398,-16.426525,1.3010316,-4.411934
32,2.0624163150787354,-0.5035310387611389,77.11566162109375,-2.153918225549585,-3.1390323173534154,176.3633618254773,6.557588,16.070093,10.225595,11.487161,-11.30107,-11.357853,7.996279,-0.43856558,-13.724589,7.0079966,-12.587465,2.7761626,6.8500223,6.0812535,5.2605624,-1.4856474,9.807093,-33.91791,61.16348,-5.019993,10.036808,3.3502073,-1.6646154,-10.593638,19.78379,62.1121,-15.856691,1.2125072,-4.1642814
33,2.068796157836914,-0.5097553730010986,77.1160659790039,-2.1544473424063493,-3.2055063397355865,176.5552722400616,6.5356016,16.042364,10.020391,11.494731,-11.281399,-11.368844,8.100483,-0.45827115,-13.905999,7.0079036,-12.609797,2.786634,6.7418737,6.067795,5.3323126,-1.5545664,9.828126,-33.91296,61.20419,-4.98232,10.006635,3.4357839,-1.5789043,-10.60052,19.648314,62.253914,-15.362181,1.1270317,-4.0228734
34,2.101724147796631,-0.5157317519187927,77.11481475830078,-2.162084498807105,-3.291431068728691,176.7998470448835,6.5052176,16.017302,9.750866,11.504274,-11.255862,-11.39265,8.23313,-0.47100914,-14.139622,7.0049763,-12.635457,2.7909224,6.5986896,6.049681,5.4402704,-1.6370214,9.860083,-33.891872,61.24957,-4.906804,9.955535,3.615604,-1.5037837,-10.611072,19.533539,62.40806,-14.890209,1.0400128,-3.954043
35,2.1274054050445557,-0.51338130235672,77.11186981201172,-2.169733908131608,-3.374729618391497,177.04363502286563,6.471278,15.990655,9.480178,11.514454,-11.22992,-11.41577,8.36105,-0.48457763,-14.372782,7.004694,-12.661366,2.79376,6.4518056,6.028966,5.544127,-1.7045878,9.893794,-33.840336,61.28587,-4.8280125,9.901366,3.834024,-1.4334651,-10.623015,19.469957,62.579712,-14.514805,0.9751771,-3.946656
36,2.1555593013763428,-0.4849206209182739,77.10599517822266,-2.170618466241435,-3.433161110972258,177.23393298018664,6.437975,15.958942,9.270527,11.524465,-11.209733,-11.42473,8.456196,-0.5053052,-14.554077,7.003133,-12.6800995,2.7996635,6.348552,6.0095778,5.6081862,-1.73293,9.928621,-33.761627,61.291042,-4.784445,9.861961,4.0335045,-1.3551159,-10.639063,19.457888,62.76477,-14.31944,0.9537339,-3.9844012
37,2.1640286445617676,-0.4898141622543335,77.1038818359375,-2.161228801253555,-3.45655131682172,177.34797422296924,6.40826,15.919524,9.147964,11.52868,-11.192987,-11.412583,8.501563,-0.5372533,-14.661512,7.0047073,-12.690365,2.8082733,6.320219,5.992039,5.607646,-1.7239947,9.951921,-33.66021,61.279327,-4.7895613,9.842349,4.2088957,-1.2642411,-10.657268,19.496597,62.972893,-14.357512,0.9858941,-4.0854425
38,2.161397695541382,-0.5097508430480957,77.10543823242188,-2.1463781105726043,-3.458051450332197,177.41764010199716,6.375426,15.876265,9.074325,11.536831,-11.1819105,-11.387699,8.517581,-0.57497823,-14.726222,7.0049915,-12.6935215,2.8175118,6.305955,5.9812984,5.5788364,-1.6614573,9.9788265,-33.494995,61.21834,-4.809399,9.8345585,4.381417,-1.1763695,-10.69341,19.617418,63.19158,-14.564707,1.060272,-4.2472644
39,2.1552975177764893,-0.5311343669891357,77.11135864257812,-2.1285111668840324,-3.451242030119867,177.46897673298622,6.3452396,15.830036,9.022736,11.5401945,-11.172297,-11.359186,8.522151,-0.6168239,-14.773029,7.0057807,-12.694998,2.8298595,6.3103356,5.9733596,5.536172,-1.5895693,9.997542,-33.32295,61.156254,-4.8499827,9.828917,4.5538006,-1.0789785,-10.737404,19.769615,63.416813,-14.874901,1.1623492,-4.4331055
40,2.158937692642212,-0.5452759861946106,77.1170654296875,-2.1119323784216726,-3.449116414911302,177.52940045318906,6.3166995,15.783919,8.963174,11.542416,-11.166448,-11.336301,8.533484,-0.65910596,-14.82813,7.006051,-12.698169,2.847707,6.3100333,5.9664006,5.5033875,-1.5277662,10.008209,-33.166786,61.108437,-4.90662,9.818151,4.724432,-0.9762322,-10.783281,19.929623,63.64764,-15.2168665,1.2784626,-4.6060767
41,2.162777900695801,-0.5572153925895691,77.11907958984375,-2.09529269582517,-3.454677623346883,177.60204633745866,6.2992377,15.734829,8.896084,11.528279,-11.159584,-11.321486,8.555265,-0.70441353,-14.8929825,7.0060935,-12.704013,2.8749056,6.3109183,5.955989,5.4854712,-1.486081,10.0121,-33.043465,61.0808,-4.999411,9.799213,4.9043727,-0.86713076,-10.823517,20.095776,63.889297,-15.615552,1.409876,-4.7811856
42,2.16348934173584,-0.5698245167732239,77.11905670166016,-2.078200318306813,-3.4606447429663554,177.6741328311114,6.2825394,15.684909,8.832136,11.514972,-11.159118,-11.310123,8.576837,-0.7524853,-14.956077,7.0063553,-12.710023,2.908979,6.3093805,5.9456716,5.4711857,-1.4443717,10.011105,-32.922955,61.057224,-5.119469,9.776397,5.089311,-0.7576235,-10.866675,20.293911,64.144356,-16.089203,1.5633949,-4.969663
43,2.1638104915618896,-0.5999542474746704,77.12042999267578,-2.06139932407385,-3.4668137511395707,177.74738852478018,6.2686925,15.63425,8.767314,11.496027,-11.156395,-11.29949,8.599604,-0.80058265,-15.021725,7.0067625,-12.717147,2.9434617,6.302051,5.9370937,5.4584494,-1.3966725,10.0049095,-32.79684,61.034977,-5.229633,9.753696,5.2582955,-0.6428985,-10.9120245,20.497784,64.39992,-16.573843,1.7314599,-5.128678
44,2.1666505336761475,-0.6223807334899902,77.12076568603516,-2.0472948780891773,-3.4722182713307963,177.82414441740275,6.2485437,15.586838,8.693728,11.485032,-11.152675,-11.287327,8.622334,-0.84469384,-15.094518,7.0077214,-12.724814,2.9717083,6.3104877,5.925094,5.4388123,-1.3517926,9.997372,-32.68794,61.024937,-5.300954,9.735819,5.392537,-0.5159682,-10.941528,20.647152,64.653595,-17.018267,1.9039994,-5.218963
45,2.1630032062530518,-0.643614649772644,77.1224365234375,-2.036727529429634,-3.475538604257964,177.9063734590676,6.2187366,15.543642,8.607238,11.485028,-11.146053,-11.271262,8.646023,-0.8828181,-15.18059,7.0068307,-12.732772,2.990313,6.2899637,5.917306,5.4144945,-1.2802788,9.985765,-32.539623,61.007935,-5.2901583,9.722901,5.4786263,-0.39166352,-10.97194,20.792147,64.90638,-17.399826,2.0778916,-5.216772
46,2.1666555404663086,-0.6571489572525024,77.12335968017578,-2.028492370294188,-3.4773832609678528,177.9923311685669,6.1834173,15.503173,8.512497,11.490346,-11.137128,-11.253297,8.6694565,-0.9174013,-15.275514,7.006768,-12.742202,3.0032818,6.2755327,5.907535,5.384599,-1.2035625,9.973741,-32.39603,60.996216,-5.233961,9.713576,5.531463,-0.25658974,-10.993977,20.902882,65.15771,-17.763632,2.2558582,-5.148177
47,2.169827461242676,-0.6698480844497681,77.12444305419922,-2.020647660476405,-3.480663533424859,178.07885161412585,6.15028,15.4625845,8.416652,11.494124,-11.128146,-11.236856,8.693886,-0.95156085,-15.369431,7.007217,-12.751456,3.0154848,6.2535367,5.8979363,5.3574576,-1.1207588,9.9597,-32.24514,60.9833,-5.1738133,9.708225,5.5626335,-0.12210929,-11.01139,21.006374,65.409805,-18.086905,2.4439921,-5.0459943
48,2.1635184288024902,-0.6904184222221375,77.12512969970703,-2.011568272198835,-3.487671668657108,178.16261716948165,6.125605,15.41997,8.326607,11.492046,-11.123043,-11.22553,8.721787,-0.98733824,-15.452612,7.006977,-12.759677,3.031621,6.2344327,5.8872337,5.337742,-1.0441319,9.943742,-32.10248,60.972984,-5.157943,9.707661,5.5858727,0.013450953,-11.023715,21.099436,65.658165,-18.356182,2.6490326,-4.943414
49,2.1646389961242676,-0.7090539336204529,77.1270523071289,-2.00005336764993,-3.50092762669825,178.2465231364137,6.1147184,15.372616,8.240942,11.476965,-11.122152,-11.221993,8.756049,-1.0270685,-15.523467,7.0064387,-12.767827,3.0543861,6.199053,5.8782363,5.330293,-0.96671313,9.923239,-31.953201,60.958157,-5.199723,9.712906,5.6025424,0.13320689,-11.030901,21.199087,65.91991,-18.55062,2.8767474,-4.841218
50,2.170625925064087,-0.7262327671051025,77.12772369384766,-1.9871817031972838,-3.518106739218923,178.33037689477115,6.111342,15.32274,8.157087,11.456434,-11.125562,-11.223849,8.793087,-1.069027,-15.586201,7.008075,-12.776997,3.0806623,6.197394,5.864394,5.3278255,-0.9049047,9.911312,-31.857746,60.94378,-5.295394,9.72512,5.609709,0.27931765,-11.030307,21.246069,66.15965,-18.696846,3.122555,-4.7227182
51,2.176095962524414,-0.7440435886383057,77.12902069091797,-1.974799534355983,-3.536176373402873,178.40918542850434,6.1095586,15.27452,8.079556,11.438133,-11.130515,-11.226765,8.829914,-1.1097853,-15.642343,7.0083694,-12.783588,3.1069026,6.165755,5.8527765,5.3312154,-0.8305357,9.890256,-31.716484,60.929035,-5.3871436,9.738975,5.6009083,0.39931914,-11.023401,21.323334,66.41895,-18.804276,3.3746374,-4.603017
52,2.168701171875,-0.7589918971061707,77.1307601928711,-1.9637633510485062,-3.5521526397606413,178.4770265399591,6.1086736,15.230674,8.01498,11.420192,-11.129798,-11.226435,8.861093,-1.1474482,-15.692024,7.0081453,-12.786271,3.12956,6.1469827,5.842217,5.3326516,-0.75538933,9.865415,-31.575407,60.92118,-5.4696717,9.752055,5.580052,0.5164764,-11.009272,21.39321,66.68171,-18.907024,3.617036,-4.4921117
53,2.16719388961792,-0.7764513492584229,77.13156127929688,-1.9554678869744717,-3.5643064358343834,178.52735137214233,6.1078215,15.195363,7.9707594,11.407157,-11.124786,-11.225424,8.883546,-1.1789126,-15.730554,7.0085654,-12.785358,3.1460316,6.161666,5.8324094,5.3311443,-0.68206,9.840995,-31.450779,60.919247,-5.5402675,9.763692,5.5420947,0.649996,-10.98956,21.454725,66.932,-19.020424,3.847382,-4.3996935
54,2.175034284591675,-0.7890638113021851,77.1347427368164,-1.9490729405063425,-3.5746085218743775,178.56580484799642,6.1075993,15.166147,7.9403744,11.398022,-11.118045,-11.2248125,8.900693,-1.2062234,-15.76009,7.0085526,-12.780768,3.1588178,6.182469,5.823971,5.327381,-0.6051357,9.812337,-31.317642,60.92674,-5.601965,9.772855,5.48612,0.76948696,-10.960259,21.52454,67.20287,-19.123383,4.070663,-4.3186445
55,2.1792492866516113,-0.8098219633102417,77.13774871826172,-1.9424270392862473,-3.584767151731848,178.60110004772037,6.104441,15.1362,7.913062,11.393179,-11.109693,-11.218093,8.9151745,-1.2343328,-15.788188,7.0091085,-12.774,3.1715946,6.2010922,5.8144073,5.3262916,-0.52852017,9.779652,-31.176073,60.934654,-5.667241,9.786378,5.4260993,0.88243824,-10.922323,21.57514,67.470726,-19.203869,4.291758,-4.231623
56,2.186906099319458,-0.8346650004386902,77.13956451416016,-1.9343758763050174,-3.5963206157811953,178.64319165189565,6.0942287,15.100156,7.876263,11.394043,-11.100639,-11.1989565,8.929866,-1.2680314,-15.823584,7.009457,-12.764967,3.1881824,6.2273703,5.808994,5.335294,-0.4473056,9.761909,-31.06218,60.908463,-5.7670603,9.810045,5.3733354,1.0150146,-10.901006,21.5616,67.6883,-19.244307,4.509466,-4.111653
57,2.1952362060546875,-0.8536847233772278,77.141357421875,-1.9235826512975363,-3.612386206337059,178.69997735480132,6.0691257,15.053692,7.819365,11.413171,-11.093115,-11.158868,8.948696,-1.3109715,-15.873583,7.0091085,-12.752431,3.210688,6.185072,5.802864,5.3612714,-0.37037954,9.718391,-30.861917,60.893135,-5.840806,9.841941,5.32414,1.0770357,-10.851168,21.534407,67.95621,-19.29072,4.724553,-3.960545
58,2.205641269683838,-0.8714808821678162,77.14471435546875,-1.9112639302393613,-3.6310836505033897,178.7644953321374,6.03573,15.000521,7.7519474,11.441857,-11.084434,-11.103403,8.96921,-1.3595167,-15.932148,7.009068,-12.737688,3.2367454,6.1302805,5.7975993,5.383446,-0.3140833,9.647797,-30.662588,60.91199,-5.925889,9.878757,5.285561,1.1119133,-10.777888,21.475191,68.25499,-19.326986,4.937196,-3.792194
59,2.2324600219726562,-0.9179142117500305,77.15267944335938,-1.8992791532721849,-3.647222047178284,178.8246382875978,5.9992337,14.948126,7.688627,11.4723625,-11.077791,-11.04778,8.985172,-1.407845,-15.987494,7.0084367,-12.7211075,3.26327,6.089919,5.7949815,5.408957,-0.25736392,9.58256,-30.469196,60.91395,-6.0367007,9.921428,5.2470274,1.1621257,-10.716518,21.35659,68.50633,-19.28567,5.148545,-3.6091025
60,2.2513411045074463,-0.9483336210250854,77.15745544433594,-1.8887894033222765,-3.6562579620563787,178.86804665320503,5.9733696,14.902094,7.646422,11.482031,-11.069538,-11.006805,8.990581,-1.4504106,-16.027716,7.008237,-12.704605,3.2872243,6.06858,5.7921557,5.4341207,-0.18119016,9.538215,-30.262419,60.877213,-6.180617,9.968169,5.2012553,1.2360996,-10.674787,21.185083,68.68302,-19.089724,5.361773,-3.4238832
61,2.261253833770752,-0.9712222814559937,77.16016387939453,-1.881673363416854,-3.65648512464386,178.89099354219235,5.9564357,14.86732,7.6289716,11.474743,-11.067332,-10.989118,8.983966,-1.4835324,-16.049732,7.008522,-12.690353,3.306804,6.0649233,5.7857585,5.4475923,-0.110459566,9.485679,-30.017105,60.850384,-6.367069,10.025115,5.144217,1.3061243,-10.620801,20.942566,68.82788,-18.695757,5.596513,-3.2381735
62,2.2722973823547363,-0.9973843693733215,77.16033172607422,-1.8764234980244971,-3.6506627212976013,178.90014442285232,5.9451365,14.839043,7.628426,11.455316,-11.068282,-10.98517,8.968232,-1.5111709,-16.059698,7.008764,-12.6761265,3.3239825,6.074663,5.776668,5.4543247,-0.0393939,9.4334,-29.751223,60.820217,-6.593098,10.091431,5.0807047,1.3763025,-10.561243,20.63922,68.94011,-18.148123,5.8462377,-3.0479677
63,2.2885208129882812,-1.0134801864624023,77.16289520263672,-1.871117276916202,-3.6401377793500633,178.8993389842264,5.937393,14.812262,7.6390204,11.426703,-11.065189,-10.983019,8.946558,-1.5369279,-16.060469,7.006984,-12.659461,3.3409927,6.089877,5.7655883,5.4584794,0.0460717,9.390724,-29.476643,60.77051,-6.818353,10.149362,5.023768,1.4519631,-10.508665,20.315002,69.010475,-17.52268,6.0774097,-2.8734612
64,2.302682876586914,-1.0332129001617432,77.16910552978516,-1.8650007245388407,-3.6260466904707553,178.89302179731496,5.9197655,14.784891,7.652067,11.413415,-11.061476,-10.971169,8.917496,-1.563922,-16.055769,7.00816,-12.640406,3.3598106,6.108353,5.7496862,5.4602027,0.12892745,9.343063,-29.194386,60.731136,-6.98686,10.178527,4.987554,1.5133765,-10.450198,19.985462,69.06868,-16.914083,6.254851,-2.7398424
65,2.3131213188171387,-1.0552080869674683,77.17638397216797,-1.8582569685383117,-3.6073329865859147,178.87455998884846,5.89685,14.757682,7.673788,11.409914,-11.051541,-10.9470415,8.88103,-1.5906476,-16.038832,7.0075974,-12.61467,3.3815346,6.127512,5.7320423,5.4553766,0.23090027,9.293781,-28.89551,60.6853,-7.0923123,10.168881,4.9774613,1.5694969,-10.394456,19.651712,69.10146,-16.26508,6.368942,-2.6469607
66,2.3208870887756348,-1.0826928615570068,77.184326171875,-1.8511251046973667,-3.583993991427881,178.84428589392598,5.8721313,14.731211,7.70576,11.409813,-11.037268,-10.916538,8.837143,-1.6163738,-16.010427,7.0071006,-12.58491,3.404892,6.1511164,5.7114453,5.441099,0.3266059,9.223677,-28.572144,60.66616,-7.149038,10.130263,4.987588,1.6075336,-10.32477,19.29354,69.13,-15.564149,6.4379807,-2.588458
67,2.3312597274780273,-1.104572057723999,77.19010162353516,-1.842631870460728,-3.5580949686094585,178.81656335453866,5.8397436,14.702601,7.7346673,11.414807,-11.021751,-10.880865,8.789478,-1.6445079,-15.984474,7.0069304,-12.554062,3.4284983,6.1671557,5.6901784,5.4308453,0.43743166,9.173308,-28.26645,60.61826,-7.189293,10.080513,5.0096884,1.6580011,-10.281483,18.974047,69.10782,-14.91113,6.469249,-2.557085
68,2.345801830291748,-1.1293796300888062,77.19476318359375,-1.830635878397951,-3.532883438698281,178.80551102501002,5.7987843,14.666811,7.748593,11.420533,-11.0060625,-10.8408575,8.744381,-1.6791906,-15.974821,7.0066814,-12.52569,3.4510546,6.1735163,5.66205,5.4271636,0.52747005,9.133054,-28.003065,60.57803,-7.217738,10.032163,5.0414624,1.7062769,-10.250813,18.720932,69.06364,-14.435308,6.4703827,-2.5605497
69,2.3642807006835938,-1.1550023555755615,77.19776916503906,-1.813003279624552,-3.508954684510668,178.81996972571739,5.7452564,14.619975,7.7403097,11.427057,-10.988898,-10.79307,8.703295,-1.7243186,-15.991391,7.0065722,-12.501106,3.4716728,6.1647234,5.6230526,5.4326024,0.5852419,9.099774,-27.787256,60.557083,-7.223604,9.97827,5.0890403,1.7505097,-10.227814,18.540045,68.99822,-14.177346,6.42987,-2.6087413
70,2.381742477416992,-1.1857200860977173,77.20260620117188,-1.79090217691111,-3.48553125728634,178.85057626016027,5.682749,14.564992,7.7180014,11.434238,-10.969671,-10.738129,8.663809,-1.7769743,-16.02469,7.0065084,-12.478263,3.4913132,6.138352,5.575521,5.445699,0.6059668,9.054138,-27.57772,60.57329,-7.1851544,9.913101,5.1503634,1.7716001,-10.200298,18.40455,68.93164,-14.083858,6.347211,-2.698971
71,2.4051759243011475,-1.2083550691604614,77.20899200439453,-1.7691616737703015,-3.460993075314386,178.8848579639733,5.6154037,14.509385,7.6912475,11.444596,-10.951833,-10.683554,8.623161,-1.8304199,-16.059519,7.006773,-12.455455,3.5111375,6.1145844,5.5262427,5.4548063,0.62236285,9.021869,-27.416817,60.586445,-7.1589665,9.857545,5.219243,1.7978878,-10.184243,18.3266,68.8442,-14.095049,6.2494802,-2.8137565
72,2.429335594177246,-1.225746750831604,77.21733856201172,-1.751408277733936,-3.4352444665797006,178.91006043681878,5.555698,14.458574,7.6715784,11.447119,-10.932374,-10.636541,8.580597,-1.8787538,-16.08078,7.0070715,-12.430507,3.5325081,6.106147,5.4806437,5.457852,0.63419944,9.002962,-27.297136,60.59684,-7.161736,9.828874,5.278919,1.8200152,-10.176765,18.288084,68.7538,-14.184875,6.159441,-2.9335222
73,2.444816827774048,-1.251836895942688,77.22672271728516,-1.7410858213594902,-3.410099042935721,178.92944473854283,5.5035944,14.417038,7.652838,11.442184,-10.911508,-10.602927,8.538792,-1.9170233,-16.088703,7.0059104,-12.4021435,3.5549755,6.093059,5.441358,5.4675856,0.6276726,8.981801,-27.172136,60.61727,-7.170942,9.841146,5.3241806,1.8175265,-10.1703825,18.290253,68.66709,-14.394167,6.081589,-3.0526745
74,2.4616434574127197,-1.2790517807006836,77.23540496826172,-1.7356777052850862,-3.3848739659328406,178.9476912638281,5.4517155,14.381437,7.631409,11.43845,-10.892603,-10.577583,8.496258,-1.9494588,-16.090136,7.005702,-12.372479,3.5780752,6.0608916,5.405902,5.4737425,0.60793793,8.9527,-27.044209,60.658237,-7.1826787,9.879804,5.3654337,1.7857327,-10.16541,18.364353,68.59602,-14.712164,6.0054965,-3.1854742
75,2.4849119186401367,-1.29160737991333,77.24024200439453,-1.729667188477928,-3.356834301456441,178.95390390344357,5.404054,14.344845,7.623045,11.431684,-10.873981,-10.551263,8.448994,-1.9835874,-16.07898,7.005485,-12.341392,3.6031013,6.0252476,5.377061,5.468982,0.58758664,8.915584,-26.931162,60.71058,-7.2031493,9.9228735,5.402538,1.7363545,-10.1671505,18.50486,68.54272,-15.069841,5.9329376,-3.3397014
76,2.4976859092712402,-1.3413172960281372,77.24623107910156,-1.7181120441585007,-3.323690465201243,178.9372942875128,5.362432,14.301028,7.6426673,11.423373,-10.857305,-10.514778,8.392494,-2.0266542,-16.049017,7.004681,-12.307882,3.631223,6.0806932,5.3458023,5.460628,0.55423754,8.910309,-26.924217,60.74181,-7.2473416,9.954594,5.4262204,1.7168493,-10.169754,18.57225,68.46902,-15.456381,5.8585644,-3.5090175
77,2.497833490371704,-1.39614737033844,77.25297546386719,-1.6972772910135703,-3.282945042865191,178.88742556454906,5.3286715,14.245876,7.7036643,11.413786,-10.842764,-10.461556,8.321297,-2.0839136,-15.991786,7.0063934,-12.273834,3.6635053,6.1110373,5.3188896,5.427176,0.5499463,8.894681,-26.90516,60.77566,-7.306083,9.96218,5.438154,1.6687257,-10.182798,18.787554,68.44001,-15.7841015,5.789314,-3.7292566
78,2.5053791999816895,-1.439461588859558,77.26107025146484,-1.6715997530527158,-3.2363811569262193,178.81416021986945,5.297523,14.184684,7.7924848,11.409112,-10.833223,-10.397902,8.240204,-2.1493056,-15.914178,7.0076323,-12.237623,3.6990972,6.122633,5.3028235,5.377884,0.5750377,8.87372,-26.877422,60.79836,-7.367707,9.958166,5.43755,1.5901754,-10.210387,19.099857,68.44674,-16.104797,5.7234855,-3.9840372
79,2.5157105922698975,-1.4819855690002441,77.26951599121094,-1.6450665045892559,-3.18770608030793,178.73161822397077,5.2723365,14.121317,7.892389,11.396718,-10.822358,-10.33359,8.155681,-2.2169816,-15.828016,7.0082693,-12.199788,3.7364244,6.1418266,5.295754,5.330821,0.59539926,8.8483715,-26.858635,60.819588,-7.418845,9.948832,5.4295144,1.50917,-10.255176,19.425537,68.44648,-16.431189,5.6654963,-4.2372594
80,2.531096935272217,-1.5243843793869019,77.27778625488281,-1.6218233092611283,-3.1401224536134382,178.6563799999386,5.247514,14.060875,7.982411,11.3782835,-10.810868,-10.278467,8.072357,-2.2810187,-15.747212,7.0096197,-12.160775,3.773944,6.1853127,5.2868676,5.292297,0.5910171,8.830902,-26.870468,60.84912,-7.4522514,9.939132,5.4242563,1.4339646,-10.292976,19.688509,68.430855,-16.766562,5.621874,-4.4623194
81,2.542221784591675,-1.5685436725616455,77.2866439819336,-1.6043968687624992,-3.0926842231736833,178.59368946253514,5.2186947,14.006812,8.056545,11.356852,-10.800838,-10.2371235,7.990584,-2.3380427,-15.674819,7.0102,-12.119189,3.811878,6.2155976,5.279614,5.262468,0.5770803,8.8161335,-26.873758,60.88136,-7.444123,9.927168,5.41862,1.3482713,-10.331006,19.940464,68.40833,-17.08582,5.6002684,-4.6707535
82,2.5525126457214355,-1.6110671758651733,77.2917709350586,-1.5897807093647065,-3.0443551782350102,178.53488888067974,5.1914935,13.955122,8.126148,11.32713,-10.789269,-10.203558,7.908072,-2.392234,-15.604208,7.0105705,-12.075613,3.8509111,6.2326145,5.276202,5.2364793,0.5640872,8.802693,-26.869818,60.9097,-7.4066978,9.911643,5.4104557,1.2481393,-10.371804,20.20468,68.38804,-17.392263,5.5959654,-4.873039
83,2.562413215637207,-1.6613749265670776,77.2981948852539,-1.5760636239988328,-2.997420398010548,178.4749958664994,5.1660795,13.903068,8.194539,11.296381,-10.779107,-10.172158,7.827112,-2.445858,-15.533624,7.0092006,-12.030435,3.8897114,6.2281957,5.279879,5.216911,0.55964625,8.786178,-26.847113,60.929848,-7.3643427,9.895012,5.4064307,1.138899,-10.427651,20.485561,68.360565,-17.685068,5.6000075,-5.037702
84,2.5735015869140625,-1.7179826498031616,77.30625915527344,-1.5610300943379807,-2.9547035179119985,178.40934885870158,5.145174,13.847157,8.264961,11.267349,-10.770827,-10.137331,7.7477045,-2.5026197,-15.461693,7.0101995,-11.986512,3.927067,6.2572823,5.2773466,5.2013593,0.53566694,8.7756405,-26.86252,60.96091,-7.354078,9.881704,5.416169,1.0325243,-10.466256,20.690037,68.3341,-18.003586,5.6001697,-5.138411
85,2.581247568130493,-1.7803930044174194,77.31640625,-1.5436034340977673,-2.9176471008379394,178.3351358092537,5.132904,13.785039,8.339047,11.238628,-10.764249,-10.099058,7.673124,-2.5634062,-15.388327,7.0107183,-11.9437895,3.961118,6.265619,5.2817507,5.1895294,0.5347045,8.760555,-26.86735,60.9775,-7.3908534,9.869936,5.4523163,0.9243684,-10.521876,20.901995,68.297676,-18.340775,5.5970144,-5.139996
86,2.599196672439575,-1.8266383409500122,77.32438659667969,-1.5249647354927278,-2.884868168448179,178.25513001951214,5.1263967,13.718954,8.414732,11.210612,-10.760048,-10.059886,7.601838,-2.6266518,-15.3138075,7.0114784,-11.902022,3.9929898,6.2879305,5.2865114,5.1821346,0.5255895,8.745095,-26.890501,61.000313,-7.4569063,9.858918,5.505825,0.81757295,-10.578033,21.069342,68.25589,-18.710114,5.5914865,-5.0660415
87,2.6126034259796143,-1.8871009349822998,77.33324432373047,-1.506532362801417,-2.8532781212360763,178.17413683310775,5.120557,13.651856,8.490501,11.180746,-10.754764,-10.017656,7.5295773,-2.6910813,-15.239034,7.0131507,-11.858616,4.026317,6.3187137,5.2916694,5.1798563,0.50580126,8.731148,-26.926022,61.02485,-7.5223927,9.8511305,5.5566554,0.7051804,-10.626695,21.204582,68.21646,-19.045685,5.5870094,-4.9764366
88,2.6277666091918945,-1.9493844509124756,77.33988952636719,-1.4906669434077928,-2.819760552126426,178.09751708268698,5.103804,13.588031,8.562768,11.158768,-10.751802,-9.970306,7.452981,-2.754393,-15.164974,7.0130954,-11.80889,4.0645947,6.3454065,5.302269,5.1861935,0.47728595,8.71761,-26.960352,61.04109,-7.5557656,9.849208,5.585026,0.5876893,-10.671662,21.330927,68.17172,-19.2758,5.589781,-4.9289894
89,2.6522083282470703,-2.0119831562042236,77.34188079833984,-1.4771337049930704,-2.782717050582089,178.02611239937443,5.0731907,13.527614,8.632647,11.143038,-10.748057,-9.913084,7.3683486,-2.8176699,-15.091112,7.012555,-11.751382,4.1111712,6.361658,5.3245554,5.2055693,0.43730637,8.699227,-26.982235,61.04387,-7.541093,9.861626,5.577878,0.46225026,-10.725936,21.460478,68.11615,-19.368946,5.605948,-4.9409647
90,2.680450201034546,-2.071533203125,77.35140991210938,-1.4650247513311516,-2.744023759392352,177.95733651299255,5.033896,13.468862,8.701142,11.131798,-10.74418,-9.848574,7.278338,-2.8815625,-15.016962,7.011637,-11.687809,4.163296,6.3799133,5.3492146,5.2341,0.3823174,8.682488,-27.004398,61.042667,-7.497258,9.88452,5.5475388,0.321934,-10.769106,21.569807,68.06801,-19.372932,5.630073,-4.983044
91,2.7114548683166504,-2.133345365524292,77.36034393310547,-1.4548786052507772,-2.706251328119094,177.89062754204747,4.9946184,13.411292,8.766915,11.119539,-10.74118,-9.785287,7.188795,-2.9438534,-14.944019,7.0106845,-11.622934,4.215826,6.39492,5.3757105,5.2664022,0.3241911,8.666423,-27.029236,61.04126,-7.4413047,9.901294,5.5128837,0.17920646,-10.805638,21.662184,68.01941,-19.318207,5.652608,-5.0354486
92,2.732257127761841,-2.199634075164795,77.36949157714844,-1.4471916540515406,-2.6713435346825682,177.82545071356975,4.962146,13.355187,8.827962,11.103773,-10.7410145,-9.731899,7.105217,-3.0025063,-14.873663,7.009893,-11.561428,4.2635684,6.404981,5.404673,5.298105,0.2707845,8.649261,-27.062492,61.045525,-7.3910446,9.894919,5.4926357,0.04859738,-10.840416,21.735014,67.95966,-19.237179,5.663576,-5.0770755
93,2.7539010047912598,-2.2584235668182373,77.37763977050781,-1.4447367902095216,-2.6443926030520615,177.76419035635786,4.945728,13.3033495,8.88124,11.077409,-10.743201,-9.696235,7.034946,-3.052636,-14.808512,7.0088105,-11.504601,4.302472,6.41135,5.4312754,5.333936,0.21857436,8.637767,-27.113153,61.06279,-7.355176,9.84814,5.4981155,-0.07199733,-10.862674,21.773321,67.89208,-19.116161,5.6623297,-5.1098576
94,2.785038471221924,-2.3092033863067627,77.38407135009766,-1.4469935419053919,-2.622420162925762,177.70633425701553,4.9371405,13.255687,8.927962,11.047301,-10.748691,-9.671959,6.9724436,-3.0964198,-14.747238,7.007844,-11.4500065,4.336182,6.420464,5.464449,5.372744,0.16189805,8.62375,-27.188604,61.0911,-7.329446,9.773546,5.5197763,-0.175101,-10.886978,21.782318,67.8057,-18.939617,5.6529565,-5.1397285
95,2.8016488552093506,-2.385834217071533,77.3914566040039,-1.4467525307533633,-2.5970864614141695,177.64667564332734,4.9270678,13.203762,8.975777,11.015598,-10.753468,-9.646065,6.9062376,-3.1440344,-14.684571,7.0075397,-11.396249,4.3709164,6.4189587,5.4878974,5.40879,0.11982822,8.619432,-27.240372,61.105164,-7.28255,9.702964,5.532458,-0.28603312,-10.8940325,21.782148,67.72917,-18.7675,5.6346345,-5.1638393
96,2.8144638538360596,-2.4531478881835938,77.3955078125,-1.4382142332293735,-2.5594370523146477,177.57994559309952,4.905624,13.139968,9.032404,10.984932,-10.754146,-9.605577,6.8259225,-3.2046142,-14.615062,7.0067315,-11.341552,4.4128985,6.4299135,5.5051126,5.425548,0.091030315,8.616014,-27.289072,61.10284,-7.2169995,9.665065,5.5240626,-0.38376713,-10.898282,21.776676,67.65122,-18.641388,5.6062746,-5.1748614
97,2.8337759971618652,-2.5237233638763428,77.40049743652344,-1.4161615118369186,-2.503164828262902,177.49902051699829,4.8705134,13.058023,9.106512,10.953085,-10.747512,-9.542527,6.722672,-3.2850943,-14.531377,7.0073195,-11.286601,4.4657545,6.461422,5.513586,5.4141984,0.08302064,8.611338,-27.330582,61.07354,-7.116729,9.677699,5.4770484,-0.4684781,-10.90186,21.763689,67.573784,-18.575888,5.5671988,-5.1676216
98,2.841400146484375,-2.60646915435791,77.4087142944336,-1.3854058267177758,-2.4342940764518155,177.40867073392852,4.8258615,12.963816,9.19133,10.921446,-10.7373705,-9.465302,6.604827,-3.3787615,-14.438248,7.006999,-11.230293,4.525544,6.5077786,5.5181327,5.383755,0.08953705,8.604116,-27.365871,61.02661,-6.9885798,9.721439,5.4047875,-0.5396149,-10.904828,21.736,67.492035,-18.546955,5.518017,-5.145401
99,2.849497079849243,-2.6822621822357178,77.41934967041016,-1.3527803492171233,-2.362563442614577,177.3212272709356,4.777728,12.865199,9.274031,10.887495,-10.724737,-9.385354,6.484276,-3.4766288,-14.348528,7.007721,-11.175041,4.587483,6.551126,5.520977,5.351317,0.09607627,8.594241,-27.39393,60.979797,-6.85565,9.770682,5.3342547,-0.6069911,-10.906519,21.700811,67.41025,-18.544361,5.4595966,-5.1166825
100,2.8670217990875244,-2.74981951713562,77.43035888671875,-1.327045658820327,-2.2985870606723324,177.24936376040625,4.726924,12.773585,9.339566,10.860738,-10.717129,-9.314629,6.374696,-3.5670025,-14.275971,7.0065756,-11.119498,4.6463747,6.5636444,5.5231123,5.33134,0.09698581,8.591513,-27.407341,60.94514,-6.7457824,9.799051,5.2913237,-0.66588306,-10.906158,21.689867,67.315865,-18.546661,5.395983,-5.091177
101,2.894195795059204,-2.814330577850342,77.43815612792969,-1.3046681593947755,-2.243058238990269,177.19615287563246,4.6847105,12.681419,9.387163,10.81386,-10.701695,-9.255522,6.274792,-3.6552627,-14.224412,7.006972,-11.06434,4.7022743,6.5653095,5.530808,5.337521,0.07493889,8.585322,-27.4418,60.92167,-6.6780796,9.800368,5.300224,-0.7478204,-10.904077,21.661837,67.23552,-18.570755,5.3226004,-5.062371
102,2.9084839820861816,-2.8912792205810547,77.44556427001953,-1.2868538698359007,-2.193102951795204,177.15550342268776,4.6398826,12.5926895,9.420648,10.770839,-10.689221,-9.203027,6.1821594,-3.7399113,-14.187703,7.007141,-11.009382,4.756697,6.5967503,5.5411015,5.344335,0.0051896954,8.568804,-27.534302,60.949703,-6.651561,9.785346,5.346355,-0.8090754,-10.893407,21.583355,67.1513,-18.629272,5.2388864,-5.02977
103,2.9206888675689697,-2.969511032104492,77.45286560058594,-1.2705898198679264,-2.145458330081996,177.12299845136937,4.5947137,12.505164,9.446942,10.728293,-10.676301,-9.152779,6.094183,-3.8224058,-14.158474,7.00623,-10.954341,4.8099937,6.587469,5.5490923,5.359871,-0.040159065,8.561891,-27.582409,60.958157,-6.618911,9.76551,5.391906,-0.87262654,-10.886203,21.545832,67.062996,-18.679285,5.1496654,-5.0047174
104,2.9531824588775635,-3.0452404022216797,77.45854949951172,-1.254098691351529,-2.098598896324672,177.09343083727788,4.5483212,12.419575,9.472487,10.691226,-10.662947,-9.101002,6.00895,-3.903619,-14.128749,7.0061564,-10.900778,4.8624234,6.582472,5.553798,5.372455,-0.07888687,8.555941,-27.62448,60.96862,-6.5739923,9.74883,5.4176636,-0.9196069,-10.876965,21.498943,66.97299,-18.71885,5.0522294,-4.997602
105,2.9800844192504883,-3.102027177810669,77.46578216552734,-1.2369335823792145,-2.0544442882350857,177.06694680953026,4.502774,12.337145,9.4981575,10.6609955,-10.648381,-9.047221,5.926549,-3.9825964,-14.097475,7.0119033,-10.851679,4.9121966,6.5822406,5.552039,5.383418,-0.1198094,8.5515175,-27.655525,60.993736,-6.5120854,9.7335205,5.4084516,-0.94521874,-10.866959,21.451138,66.875916,-18.739552,4.9377484,-5.0151205
106,2.999507427215576,-3.1703929901123047,77.47437286376953,-1.220430913702124,-2.013145031311398,177.0458416832591,4.4570947,12.2577305,9.5207815,10.63633,-10.633205,-8.993334,5.841897,-4.060587,-14.068201,7.0355053,-10.813552,4.9598494,6.591116,5.545804,5.3954763,-0.1685754,8.546692,-27.687933,61.033623,-6.442924,9.717139,5.3821588,-0.9526055,-10.851007,21.387646,66.7734,-18.757786,4.809325,-5.0505276
107,3.0187766551971436,-3.2365520000457764,77.48184204101562,-1.2037834126199345,-1.9702070274677117,177.02759356003472,4.4090447,12.177921,9.541217,10.611431,-10.617368,-8.9388275,5.7576175,-4.1392493,-14.039933,7.0569386,-10.774132,5.008923,6.5880585,5.539109,5.403156,-0.19598183,8.543158,-27.70254,61.060596,-6.36647,9.703546,5.355632,-0.957901,-10.832582,21.324314,66.681786,-18.771585,4.684359,-5.0938244
108,3.023233652114868,-3.324913501739502,77.48744201660156,-1.1861135670157665,-1.9209037476910444,177.006768058796,4.3583174,12.094054,9.563938,10.580013,-10.60135,-8.8831415,5.66571,-4.2224917,-14.008293,7.0790377,-10.733471,5.063004,6.578438,5.5327263,5.400158,-0.21430948,8.540455,-27.699045,61.08998,-6.2873454,9.69132,5.33802,-0.95558566,-10.818943,21.247663,66.59942,-18.792076,4.573786,-5.128322
109,3.020854949951172,-3.407423496246338,77.49397277832031,-1.1667822782815778,-1.8610408382618537,176.98428365537808,4.29961,12.004033,9.587689,10.541937,-10.585483,-8.823506,5.56186,-4.313047,-13.972987,7.1008306,-10.68941,5.1255193,6.586931,5.525806,5.386017,-0.22845648,8.534164,-27.69302,61.11836,-6.1865916,9.684226,5.33975,-0.94948405,-10.796102,21.098326,66.53472,-18.865055,4.477294,-5.1455083
110,3.02669358253479,-3.4857842922210693,77.49822235107422,-1.146610397881103,-1.7937494561942913,176.96121926222187,4.2346067,11.910482,9.612171,10.501051,-10.570207,-8.761129,5.451427,-4.4074707,-13.935058,7.1196656,-10.641837,5.1936054,6.5729356,5.523402,5.3569207,-0.21013169,8.528536,-27.664991,61.13174,-6.081852,9.67832,5.352581,-0.9344444,-10.783281,20.96912,66.47642,-18.931484,4.3903413,-5.1573157
111,3.042200803756714,-3.5571601390838623,77.5032958984375,-1.126916353394522,-1.7270530681836451,176.93819986538315,4.172783,11.816657,9.635908,10.456752,-10.554832,-8.701389,5.3424764,-4.5021973,-13.897882,7.138129,-10.595046,5.262031,6.5885363,5.5197754,5.3327427,-0.21713305,8.51607,-27.642303,61.162476,-5.9757147,9.677359,5.366053,-0.90977764,-10.763677,20.758432,66.4249,-19.021687,4.316306,-5.1702414
112,3.074772596359253,-3.6297295093536377,77.5123519897461,-1.1093729608195446,-1.668090059975646,176.9153365002456,4.1211057,11.726571,9.6580515,10.41094,-10.539717,-8.649703,5.2429404,-4.5924287,-13.863958,7.156425,-10.55212,5.3254247,6.6006846,5.5171175,5.31154,-0.226427,8.501641,-27.621412,61.195377,-5.910991,9.6819,5.3803444,-0.87736493,-10.74545,20.547745,66.379906,-19.061764,4.2694583,-5.205325
113,3.1069021224975586,-3.699204444885254,77.52000427246094,-1.0947766070642029,-1.6196341114092496,176.8909891594309,4.082529,11.642437,9.678645,10.366017,-10.526048,-8.61005,5.155043,-4.676409,-13.834215,7.1757436,-10.515162,5.380528,6.594435,5.5159616,5.3016887,-0.22272152,8.493725,-27.57854,61.205997,-5.8976283,9.696751,5.3907247,-0.84292096,-10.735503,20.36213,66.33932,-19.044956,4.2532167,-5.2731743
114,3.1186039447784424,-3.7676782608032227,77.52452850341797,-1.082041028299037,-1.5776344720295798,176.86556501002713,4.054206,11.561461,9.698473,10.317425,-10.511675,-8.578661,5.07532,-4.7566705,-13.806925,7.1941466,-10.481631,5.430844,6.587531,5.5145373,5.2979665,-0.21823876,8.488703,-27.528492,61.208984,-5.920375,9.7196245,5.4005527,-0.8015573,-10.728471,20.167568,66.303566,-18.997879,4.261038,-5.362646
115,3.1197054386138916,-3.8426551818847656,77.52754974365234,-1.0700958378481928,-1.5390264476860065,176.84269819332926,4.0294027,11.481512,9.715545,10.2686405,-10.498188,-8.549537,4.9997616,-4.8359914,-13.782243,7.2139616,-10.449853,5.4810815,6.6194644,5.512164,5.306222,-0.24812208,8.480896,-27.50429,61.230373,-5.9442234,9.744508,5.4067874,-0.740602,-10.715908,19.872663,66.257645,-18.954134,4.283972,-5.4462967
116,3.1210432052612305,-3.9234235286712646,77.53086853027344,-1.0574519342368147,-1.4996720013213516,176.8258734884288,4.0016026,11.399954,9.728755,10.220566,-10.486075,-8.516704,4.9267917,-4.916195,-13.760671,7.230617,-10.415458,5.535963,6.621303,5.5116673,5.3092756,-0.25326607,8.475489,-27.471739,61.243183,-5.9552937,9.764411,5.416672,-0.68670833,-10.7054405,19.592655,66.22709,-18.848639,4.3259163,-5.5167437
117,3.129582166671753,-3.996060848236084,77.53556060791016,-1.0449508688951146,-1.4606019490698154,176.8209351030734,3.966787,11.317082,9.7325325,10.178192,-10.477601,-8.477659,4.859818,-4.9968433,-13.745927,7.240695,-10.374726,5.5991254,6.592042,5.514633,5.315519,-0.2396601,8.471715,-27.424702,61.24926,-5.9320917,9.781232,5.4269547,-0.64043033,-10.696692,19.302444,66.20597,-18.687458,4.3959794,-5.5693526
118,3.144984722137451,-4.060086250305176,77.54105377197266,-1.0324859817208765,-1.423453557655739,176.8243426050483,3.9308596,11.23328,9.729921,10.136946,-10.470712,-8.435822,4.798017,-5.07791,-13.736596,7.249777,-10.332836,5.6673117,6.5919766,5.51738,5.328861,-0.25133753,8.465425,-27.412731,61.274124,-5.8944354,9.797558,5.438021,-0.5767089,-10.6815195,18.917322,66.177925,-18.512451,4.4878097,-5.6076365
119,3.1536002159118652,-4.1348466873168945,77.54618072509766,-1.019420844606165,-1.3845719345484366,176.82588805401963,3.8943427,11.149577,9.729414,10.095631,-10.464832,-8.394428,4.735393,-5.1589994,-13.725306,7.257209,-10.290834,5.7347794,6.533564,5.523163,5.332479,-0.21509685,8.462536,-27.355415,61.27383,-5.8586354,9.807181,5.4503484,-0.5353915,-10.672767,18.613922,66.178986,-18.261518,4.5868497,-5.64027
120,3.162900686264038,-4.212374687194824,77.55042266845703,-1.003824977963093,-1.342074842965664,176.81530762086135,3.862765,11.064885,9.740766,10.047882,-10.457232,-8.356469,4.6648917,-5.241867,-13.704494,7.270227,-10.254631,5.795866,6.5466356,5.5238137,5.3370175,-0.22421844,8.458528,-27.348497,61.29916,-5.8354325,9.806305,5.4570456,-0.46803138,-10.657195,18.19597,66.16867,-18.034948,4.657759,-5.644926
121,3.1833252906799316,-4.282783031463623,77.55341339111328,-0.9846941271034136,-1.2899108467963327,176.78316245788415,3.8351715,10.978025,9.772539,9.990792,-10.449291,-8.324222,4.577479,-5.3282757,-13.665616,7.290415,-10.225772,5.847347,6.559008,5.5235276,5.3149347,-0.2081634,8.45641,-27.339102,61.31406,-5.846328,9.786669,5.4630055,-0.40225184,-10.6428585,17.806087,66.18627,-17.755201,4.700346,-5.631621
122,3.182255506515503,-4.336824893951416,77.5557861328125,-0.9629862457054232,-1.2310977194998376,176.73758039205256,3.8094456,10.889773,9.817217,9.928513,-10.442043,-8.295619,4.4793034,-5.4170585,-13.615015,7.314554,-10.201361,5.892811,6.5752983,5.5225425,5.2791348,-0.18078192,8.456287,-27.328463,61.32335,-5.874091,9.753168,5.465935,-0.33624324,-10.629669,17.411205,66.2206,-17.436289,4.7262845,-5.5994906
123,3.1659960746765137,-4.406754016876221,77.55876922607422,-0.9412638804152564,-1.175711840193991,176.69260529383027,3.787046,10.803479,9.861656,9.866114,-10.432483,-8.267166,4.385421,-5.503529,-13.566368,7.3386726,-10.178377,5.9366345,6.605196,5.5176935,5.249947,-0.17023511,8.458006,-27.333654,61.34584,-5.9058485,9.718445,5.469307,-0.2596673,-10.615738,16.997116,66.24498,-17.114254,4.745486,-5.5538435
124,3.1745285987854004,-4.4779767990112305,77.56298828125,-0.9222182349445699,-1.1328582788361086,176.66628151411928,3.7639096,10.723054,9.888213,9.817387,-10.421833,-8.235355,4.311957,-5.5833063,-13.536899,7.3559356,-10.152166,5.9834595,6.664159,5.5077186,5.2429833,-0.19321822,8.463512,-27.395756,61.387455,-5.938405,9.69665,5.48327,-0.17281044,-10.590103,16.535488,66.25157,-16.819729,4.7675457,-5.5036445
125,3.197361469268799,-4.524564266204834,77.56796264648438,-0.9069614020144153,-1.1103946179537987,176.66983205714178,3.7413337,10.650386,9.886169,9.786816,-10.407527,-8.198589,4.2697906,-5.6537366,-13.539039,7.3658385,-10.122576,6.0354533,6.6457615,5.4960556,5.2730284,-0.20005894,8.471325,-27.401653,61.422268,-5.9456787,9.68824,5.505562,-0.12688276,-10.56571,16.16451,66.2682,-16.4966,4.80396,-5.4518223
126,3.218580722808838,-4.560575485229492,77.57319641113281,-0.8937579477832005,-1.1016258408510229,176.69212367061917,3.7204947,10.582711,9.866316,9.767204,-10.39007,-8.158959,4.2489786,-5.718059,-13.561524,7.370093,-10.091059,6.0898724,6.587006,5.483714,5.3273115,-0.2026057,8.479483,-27.383335,61.456932,-5.9415107,9.687247,5.5338635,-0.100753754,-10.544782,15.838344,66.28736,-16.151932,4.846057,-5.3927493
127,3.2207601070404053,-4.622140884399414,77.5775375366211,-0.8809752418023531,-1.0938988581279547,176.71444338521,3.7001445,10.517471,9.847024,9.749666,-10.372985,-8.11841,4.228991,-5.7799406,-13.583369,7.3750696,-10.060063,6.1437817,6.5843673,5.4590516,5.3845544,-0.2402671,8.49866,-27.437292,61.509716,-5.9453807,9.694865,5.5662374,-0.05704839,-10.500511,15.445081,66.29551,-15.856354,4.881895,-5.3355365
128,3.2176032066345215,-4.693611145019531,77.58016967773438,-0.8672726715273655,-1.0741959130725636,176.7180261776614,3.6776922,10.452176,9.84622,9.725506,-10.359255,-8.07904,4.1917095,-5.8430986,-13.583595,7.3809624,-10.028791,6.1944284,6.530965,5.442104,5.4225535,-0.2349466,8.512101,-27.446217,61.53504,-5.939195,9.707925,5.593173,-0.040624306,-10.476345,15.176896,66.32472,-15.562235,4.911654,-5.29926
129,3.2222650051116943,-4.750569820404053,77.5833740234375,-0.8501403029542753,-1.0332701161886684,176.68642195542512,3.654584,10.383335,9.8805685,9.685391,-10.350302,-8.040236,4.121427,-5.911228,-13.543609,7.392212,-9.998442,6.24119,6.5459642,5.4177623,5.4294744,-0.23891656,8.53445,-27.52465,61.555805,-5.9436216,9.738168,5.6168227,-0.002351231,-10.442597,14.8813305,66.34883,-15.339392,4.9254932,-5.2817855
130,3.2265923023223877,-4.801459789276123,77.58551025390625,-0.831616255193601,-0.9796829359176205,176.63359866345306,3.6293652,10.313962,9.936032,9.638523,-10.344802,-8.00141,4.0314026,-5.981137,-13.479228,7.406365,-9.968539,6.2855515,6.5854907,5.385683,5.4156227,-0.23397167,8.569115,-27.638115,61.563858,-5.9554524,9.782799,5.640221,0.03984699,-10.401106,14.605462,66.37637,-15.152696,4.932269,-5.28067
131,3.2214787006378174,-4.8600287437438965,77.58879089355469,-0.814734607330801,-0.928229076656877,176.5858613780075,3.6040106,10.248337,9.986399,9.5934105,-10.338811,-7.964276,3.9458337,-6.0474067,-13.419462,7.4189706,-9.938603,6.327745,6.5897613,5.359026,5.4060564,-0.21894161,8.599378,-27.734566,61.56515,-5.9593835,9.82086,5.6600437,0.06585526,-10.371511,14.391437,66.408936,-14.974325,4.932881,-5.2883224
132,3.2307612895965576,-4.905814170837402,77.59231567382812,-0.803172203526085,-0.8935100754139481,176.5699498478176,3.5771093,10.191911,10.004875,9.563099,-10.329682,-7.9307985,3.888703,-6.1042624,-13.394291,7.4265113,-9.90936,6.367911,6.574767,5.332497,5.4191384,-0.22181395,8.635736,-27.858156,61.57605,-5.9691834,9.8346195,5.6788015,0.08794155,-10.33913,14.180665,66.4356,-14.81068,4.92638,-5.299461
133,3.242403984069824,-4.94529914855957,77.5943603515625,-0.798701912684419,-0.8861821894523354,176.6126515793447,3.5446503,10.147193,9.964619,9.556348,-10.312389,-7.901088,3.878926,-6.1483417,-13.431385,7.42419,-9.879379,6.405917,6.5069976,5.3057165,5.471787,-0.2524825,8.678482,-28.008108,61.60439,-5.977996,9.8139515,5.6971674,0.092927344,-10.302134,13.980053,66.462944,-14.647434,4.9101367,-5.313033
134,3.262176275253296,-4.969747543334961,77.59671783447266,-0.7990206615189692,-0.8961238635106936,176.69320539392552,3.50844,10.110591,9.886621,9.564286,-10.289463,-7.87426,3.8986287,-6.1841598,-13.508371,7.4176626,-9.850317,6.441715,6.4302816,5.2638373,5.5488324,-0.30274954,8.751471,-28.216064,61.631866,-5.998812,9.772891,5.715089,0.09379987,-10.239201,13.759353,66.48897,-14.506473,4.883594,-5.333764
135,3.2789924144744873,-4.984565258026123,77.59967803955078,-0.8012065420122529,-0.9070270156766685,176.76680831338925,3.4785173,10.078698,9.815929,9.57036,-10.269054,-7.850703,3.9199739,-6.214882,-13.5795765,7.4090953,-9.821171,6.4753213,6.3462515,5.2174172,5.6242995,-0.33676848,8.832789,-28.40955,61.64703,-6.0226583,9.723138,5.7289042,0.08240457,-10.172559,13.579808,66.52256,-14.387233,4.855444,-5.3641458
136,3.283660888671875,-5.029772758483887,77.60176086425781,-0.8029915901913177,-0.9027926265787037,176.7886426991076,3.4631925,10.04836,9.79729,9.561175,-10.260611,-7.8307195,3.9155667,-6.2439857,-13.599609,7.401353,-9.792049,6.506848,6.280307,5.188968,5.6697145,-0.34354138,8.878572,-28.542841,61.664776,-6.045233,9.674465,5.738236,0.07195422,-10.137924,13.4728,66.555046,-14.295772,4.8333044,-5.401426
137,3.248481035232544,-5.107203006744385,77.60069274902344,-0.8032288185596941,-0.8734213439949269,176.72975969139017,3.4720974,10.018259,9.859429,9.521876,-10.268884,-7.818836,3.8644931,-6.273255,-13.538978,7.405174,-9.767595,6.5354166,6.3395176,5.1409144,5.666599,-0.3118891,8.963732,-28.727264,61.63927,-6.109667,9.637689,5.7436576,0.101976775,-10.082387,13.347156,66.56825,-14.280095,4.8194823,-5.452752
138,3.232229232788086,-5.153229236602783,77.60132598876953,-0.8043023998974265,-0.8298851805873174,176.62009918973413,3.4981973,9.990889,9.972103,9.464198,-10.288499,-7.813292,3.7908401,-6.2988095,-13.428638,7.4071555,-9.74214,6.5614023,6.410565,5.1119223,5.6326413,-0.2541416,9.012398,-28.857233,61.620754,-6.170213,9.59709,5.7443523,0.12830874,-10.058003,13.305428,66.58608,-14.291111,4.8126435,-5.513636
139,3.23453950881958,-5.180740833282471,77.60301208496094,-0.8049351810075533,-0.7852915669146182,176.50155734011662,3.5262232,9.965382,10.094893,9.4093485,-10.311452,-7.805427,3.7140765,-6.32298,-13.309686,7.4099803,-9.717946,6.5862784,6.500048,5.08133,5.598448,-0.19061922,9.063528,-28.97803,61.592224,-6.2434134,9.557001,5.743216,0.16366306,-10.037686,13.264334,66.58963,-14.330402,4.8017,-5.576371
140,3.233236074447632,-5.19990348815918,77.60369873046875,-0.8036253067297511,-0.7534651673748866,176.4162151321232,3.543135,9.940334,10.187546,9.374413,-10.327626,-7.7863035,3.656606,-6.347775,-13.223593,7.4131465,-9.6963215,6.611548,6.547672,5.050065,5.592276,-0.14215697,9.101193,-29.04392,61.575245,-6.3123364,9.514704,5.741489,0.18240161,-10.023803,13.223906,66.59154,-14.375106,4.778295,-5.6349387
141,3.238182544708252,-5.233487129211426,77.6048812866211,-0.7987281349551304,-0.7419856191324523,176.38515388476785,3.5433686,9.91554,10.230873,9.369438,-10.3324175,-7.7489243,3.6314914,-6.374479,-13.191006,7.4150314,-9.678266,6.637679,6.5619693,4.9966083,5.637727,-0.097764544,9.176478,-29.079088,61.517536,-6.4024553,9.479578,5.736,0.19759727,-9.991555,13.134191,66.56922,-14.443117,4.7338104,-5.6898565
142,3.2387635707855225,-5.259853839874268,77.60646057128906,-0.7919793137292166,-0.742586553328707,176.38313511409996,3.5339153,9.892429,10.248711,9.385553,-10.333045,-7.6994414,3.6255937,-6.4009647,-13.187311,7.415202,-9.662459,6.66388,6.5313396,4.945341,5.706878,-0.07117869,9.227124,-29.046074,61.48236,-6.4922547,9.441681,5.7286787,0.19225934,-9.964955,13.057748,66.55203,-14.523933,4.676144,-5.7455626
143,3.236560106277466,-5.282207012176514,77.6090316772461,-0.7848832861360804,-0.7433819268560651,176.38054379173926,3.5222268,9.870136,10.267286,9.405268,-10.333327,-7.649208,3.6193836,-6.4266124,-13.183713,7.414643,-9.645831,6.68954,6.4983187,4.9059815,5.7646213,-0.053298492,9.241911,-29.009499,61.48107,-6.5849476,9.398398,5.7347097,0.19441746,-9.956386,13.013109,66.53182,-14.5905695,4.6205087,-5.8033547
144,3.245918035507202,-5.29199743270874,77.60608673095703,-0.7788651038044302,-0.7335271008760702,176.34814642545513,3.5202777,9.847613,10.313139,9.404773,-10.333744,-7.609658,3.594149,-6.450623,-13.151682,7.4163084,-9.626662,6.714002,6.495933,4.8678794,5.8131843,-0.022221098,9.258048,-28.97046,61.46795,-6.637183,9.353252,5.7432,0.19306237,-9.946791,12.969534,66.50918,-14.668202,4.575999,-5.8528833
145,3.2515480518341064,-5.308796405792236,77.60830688476562,-0.7751973433188994,-0.708408694896998,176.2713440226188,3.5321915,9.824835,10.397356,9.377394,-10.337781,-7.587907,3.542057,-6.4720945,-13.07679,7.4207892,-9.60473,6.7350965,6.5333705,4.8155456,5.8431787,0.058435448,9.313189,-28.933475,61.402946,-6.6331697,9.303019,5.75492,0.18342629,-9.915059,12.942885,66.49122,-14.748408,4.5491834,-5.8970733
146,3.253345489501953,-5.334836006164551,77.61293029785156,-0.77293702653332,-0.6742499269327688,176.16791344511637,3.5522106,9.802057,10.504688,9.334581,-10.343598,-7.576373,3.4733691,-6.4917207,-12.976364,7.4270134,-9.580848,6.753989,6.6003737,4.7760954,5.841911,0.14363445,9.338617,-28.921625,61.366165,-6.6117153,9.242302,5.784922,0.1952914,-9.901697,12.955866,66.46309,-14.803676,4.5362663,-5.940343
147,3.227231740951538,-5.389631271362305,77.61474609375,-0.7716196459516032,-0.636485128918815,176.0586570130683,3.5676284,9.781998,10.618841,9.295652,-10.350981,-7.565283,3.4029057,-6.5079694,-12.872098,7.423484,-9.549224,6.774306,6.6789227,4.7480803,5.8419714,0.21017139,9.344167,-28.916872,61.34883,-6.5964565,9.186017,5.8191323,0.2034694,-9.89908,12.966979,66.43425,-14.864795,4.5242496,-5.9785666
148,3.2173547744750977,-5.41891622543335,77.61920928955078,-0.7651211708689756,-0.5983351450719893,175.95935966428692,3.5773184,9.759072,10.731578,9.254263,-10.347123,-7.5438895,3.327735,-6.5285225,-12.777996,7.428412,-9.518936,6.8004346,6.713765,4.7113748,5.8486104,0.30914083,9.365344,-28.877789,61.298977,-6.6167793,9.145907,5.8480706,0.19433872,-9.890838,13.020616,66.41764,-14.927813,4.5092936,-6.020384
149,3.2226898670196533,-5.438023090362549,77.62328338623047,-0.7556462936219774,-0.5664610037734649,175.8817833935841,3.5725873,9.738931,10.833822,9.233695,-10.340449,-7.509523,3.2663288,-6.5491147,-12.706146,7.421357,-9.479232,6.83657,6.723664,4.675065,5.884167,0.36827722,9.383049,-28.828003,61.273315,-6.7050962,9.126361,5.8669176,0.16463754,-9.883996,13.066893,66.40775,-15.006444,4.4814954,-6.0588956
150,3.227954626083374,-5.4569573402404785,77.62705993652344,-0.7439335586276338,-0.5362419968584312,175.8130835719561,3.5591094,9.720273,10.935045,9.224189,-10.33186,-7.4675794,3.2082536,-6.5701118,-12.64361,7.41018,-9.434216,6.879551,6.734472,4.6403646,5.9310865,0.39783183,9.392887,-28.787771,61.271957,-6.8405557,9.119724,5.8832035,0.14031684,-9.879417,13.101638,66.38743,-15.098324,4.4481945,-6.09392
151,3.2351233959198,-5.4754862785339355,77.63141632080078,-0.7315101064605534,-0.4998655036527494,175.7442160414673,3.5358558,9.702754,11.036426,9.216238,-10.318619,-7.4211864,3.1428616,-6.589652,-12.584123,7.3967266,-9.385805,6.921477,6.7140985,4.604344,5.9796805,0.44813803,9.405579,-28.711716,61.251064,-6.968783,9.119826,5.896057,0.07963631,-9.872094,13.171045,66.39782,-15.193473,4.4153824,-6.1299133
152,3.2418150901794434,-5.492345333099365,77.63662719726562,-0.7215501306559804,-0.4485104685168071,175.66364601138875,3.4989004,9.68819,11.141581,9.206579,-10.302295,-7.3737063,3.057195,-6.6036606,-12.518781,7.3821483,-9.333943,6.9540606,6.739102,4.571363,6.008575,0.47573882,9.408579,-28.680021,61.25454,-7.072633,9.113466,5.911584,0.05577473,-9.8693495,13.204673,66.37859,-15.308634,4.390344,-6.159158
153,3.252573013305664,-5.506482124328613,77.64399719238281,-0.71352100096265,-0.37793178463200194,175.5723733025698,3.4426742,9.674976,11.246652,9.195463,-10.281307,-7.3223357,2.9452984,-6.6135554,-12.452537,7.370484,-9.281778,6.973993,6.7188826,4.5300527,6.0181065,0.544826,9.413859,-28.580153,61.23826,-7.0988264,9.096314,5.9233265,-0.011593101,-9.859355,13.311793,66.39962,-15.417924,4.377812,-6.1932597
154,3.259805679321289,-5.5242743492126465,77.64938354492188,-0.706771402951902,-0.2932428210283878,175.4745564729367,3.3699746,9.663467,11.3518715,9.186358,-10.256913,-7.266545,2.8155806,-6.619812,-12.387175,7.357454,-9.226897,6.9859548,6.742124,4.490014,6.012226,0.5933404,9.412973,-28.527304,61.24105,-7.1049175,9.074128,5.9376736,-0.04714474,-9.853527,13.376605,66.39479,-15.550284,4.3709455,-6.2202806
155,3.2654852867126465,-5.543130874633789,77.6541748046875,-0.7024320897032502,-0.20056612022179826,175.36633228633963,3.2920516,9.655891,11.464415,9.174918,-10.231027,-7.2127786,2.673164,-6.6211114,-12.311373,7.3444924,-9.168592,6.994343,6.7619,4.4528923,5.998334,0.6452723,9.407913,-28.4634,61.242737,-7.103791,9.056078,5.9506726,-0.092826374,-9.847261,13.4587,66.4009,-15.687622,4.367599,-6.2463555
156,3.2743852138519287,-5.558748722076416,77.66248321533203,-0.7019688654942475,-0.10625453841348477,175.24369050558073,3.2193327,9.654951,11.591271,9.158718,-10.206585,-7.167607,2.5251367,-6.615467,-12.213959,7.3289456,-9.104319,7.003399,6.7937737,4.4255724,5.983479,0.6912004,9.399925,-28.407503,61.238968,-7.1291776,9.051626,5.9615316,-0.13763863,-9.842861,13.538937,66.40661,-15.83263,4.363279,-6.2678776
157,3.2831742763519287,-5.563308238983154,77.6668472290039,-0.7070730750275271,-0.011795087600221575,175.10456783814254,3.1564744,9.662486,11.735269,9.135198,-10.183568,-7.1352973,2.3740819,-6.600689,-12.088783,7.307431,-9.030475,7.0145564,6.8573236,4.411652,5.9697967,0.7226863,9.393679,-28.381245,61.228634,-7.1978903,9.069007,5.967926,-0.16984476,-9.841684,13.596471,66.40244,-15.995161,4.354249,-6.280081
158,3.289902687072754,-5.58399772644043,77.67266845703125,-0.7166245368596694,0.0862937864203685,174.9512827672794,3.096098,9.676949,11.892205,9.107884,-10.161015,-7.1115317,2.2142208,-6.5788236,-11.942406,7.2855763,-8.950939,7.025547,6.8749394,4.409899,5.9460506,0.77427346,9.369311,-28.3015,61.216244,-7.2757554,9.098587,5.9732246,-0.24026737,-9.842393,13.740392,66.43842,-16.138233,4.3487396,-6.2972703
159,3.2977728843688965,-5.6042985916137695,77.6798324584961,-0.7276272426413223,0.1883754589350212,174.78686952668102,3.0356824,9.6954775,12.059174,9.077734,-10.139436,-7.0899863,2.0480955,-6.5520873,-11.784441,7.2590923,-8.867054,7.035011,6.924431,4.412914,5.9231877,0.80908513,9.344011,-28.247623,61.202827,-7.3633037,9.131566,5.9783497,-0.29414538,-9.847808,13.84321,66.455215,-16.299221,4.3438706,-6.307793
160,3.312171220779419,-5.61883020401001,77.689208984375,-0.7371431218649683,0.29522892412213964,174.61405709229865,2.9707057,9.715909,12.233279,9.047611,-10.119459,-7.0644345,1.874035,-6.523335,-11.623878,7.230968,-8.783254,7.0415077,7.0082445,4.4083652,5.904814,0.832779,9.333949,-28.223593,61.17515,-7.449973,9.157648,5.9853654,-0.32668707,-9.851067,13.888895,66.44279,-16.477139,4.343068,-6.314857
161,3.328568458557129,-5.631575107574463,77.69650268554688,-0.7443590948522718,0.4088663215905981,174.4291798100634,2.8991892,9.738391,12.419241,9.020728,-10.105945,-7.0323715,1.689653,-6.492331,-11.459536,7.201339,-8.700881,7.045798,7.063012,4.405062,5.8831677,0.8686665,9.305174,-28.149218,61.140476,-7.5087295,9.174771,5.995666,-0.3774368,-9.862425,13.968994,66.435875,-16.65142,4.3559456,-6.3206506
162,3.33829927444458,-5.639662742614746,77.70133972167969,-0.750835077260811,0.5275397117894557,174.23427715369866,2.8253713,9.763058,12.615211,8.991419,-10.094719,-6.997206,1.4989234,-6.4580593,-11.289924,7.165488,-8.615389,7.0484767,7.071486,4.412878,5.85961,0.9131335,9.244802,-28.000086,61.112682,-7.532619,9.182878,6.0018506,-0.4759956,-9.887968,14.095477,66.46734,-16.82111,4.3753657,-6.322113
163,3.349271297454834,-5.651796817779541,77.70536804199219,-0.7575916930628082,0.6489653137528792,174.0337661874752,2.7480063,9.789964,12.813679,8.963211,-10.082744,-6.961983,1.3012344,-6.421005,-11.116361,7.1320167,-8.530929,7.0470457,7.1519337,4.405133,5.8413744,0.9416511,9.226628,-27.943079,61.058506,-7.591053,9.189102,6.0163655,-0.5210034,-9.896489,14.128484,66.44536,-17.001822,4.3925576,-6.3299747
164,3.3697731494903564,-5.6593475341796875,77.70784759521484,-0.7655427793530013,0.768890225362976,173.83626438138688,2.6677418,9.817932,13.003642,8.937181,-10.065015,-6.9290566,1.1041136,-6.3815,-10.94432,7.0987773,-8.446487,7.039538,7.1876955,4.4075546,5.832794,0.97003484,9.190883,-27.839293,61.01385,-7.640134,9.179817,6.037534,-0.5899532,-9.914126,14.203091,66.43687,-17.131208,4.4023037,-6.363006
165,3.391284942626953,-5.663140773773193,77.71115112304688,-0.7754976688200365,0.8841670374073913,173.64262628575827,2.5843832,9.8473,13.180525,8.919073,-10.038914,-6.8947434,0.9070097,-6.3397555,-10.775647,7.0740047,-8.366223,7.0212636,7.2299886,4.414404,5.8338666,0.9862512,9.15809,-27.761068,60.974537,-7.7174754,9.149079,6.0732555,-0.64754236,-9.931222,14.267311,66.417114,-17.214605,4.4012437,-6.432679
166,3.415071964263916,-5.665660858154297,77.71549224853516,-0.7870777372048247,0.997357726349248,173.44954927424322,2.4963746,9.879014,13.349817,8.909496,-10.009094,-6.8590226,0.70789385,-6.295012,-10.607986,7.0543213,-8.288271,6.9947257,7.271758,4.424884,5.843161,0.9962353,9.127763,-27.691217,60.933937,-7.809328,9.101964,6.118496,-0.70167,-9.947312,14.326556,66.39023,-17.264765,4.3937287,-6.5281363
167,3.44085693359375,-5.664931774139404,77.72286224365234,-0.7980217491290974,1.1145900449942527,173.25598142460325,2.407326,9.91008,13.519642,8.890051,-9.975454,-6.830022,0.50586206,-6.2488756,-10.437389,7.0286074,-8.207072,6.968727,7.3039613,4.43593,5.8534713,0.9998316,9.092661,-27.619003,60.897144,-7.8972898,9.053133,6.1701756,-0.7569977,-9.966873,14.384399,66.360214,-17.2851,4.3811383,-6.630614
168,3.4649078845977783,-5.673213958740234,77.73117065429688,-0.8065421389279938,1.2417843062024618,173.06131573762906,2.317124,9.939638,13.696929,8.850797,-9.9422655,-6.8160477,0.29773197,-6.2023973,-10.260055,6.9913836,-8.120135,6.952,7.336729,4.440558,5.8589783,0.99739665,9.061674,-27.55988,60.856087,-7.972481,9.019496,6.225029,-0.8053535,-9.984918,14.418887,66.32005,-17.286985,4.36405,-6.7203217
169,3.4898464679718018,-5.678838729858398,77.73893737792969,-0.8114179764638667,1.3824615523203443,172.86368763495412,2.2270968,9.966492,13.888302,8.782116,-9.91093,-6.8228445,0.083299436,-6.1558757,-10.070267,6.9331455,-8.023165,6.948415,7.367145,4.4399505,5.85928,0.98601073,9.025489,-27.502619,60.810776,-8.021236,9.011422,6.2890735,-0.8499179,-10.006356,14.430599,66.271324,-17.273619,4.34214,-6.7937202
170,3.514920473098755,-5.68060302734375,77.74273681640625,-0.8144660284282182,1.5326988400503676,172.66411916309806,2.134991,9.992959,14.0881605,8.695884,-9.881213,-6.8450656,-0.14517267,-6.1100473,-9.870713,6.8793335,-7.928752,6.9527535,7.4020147,4.4327054,5.8574667,0.966929,8.994622,-27.459263,60.757645,-8.058593,9.019041,6.361852,-0.88835096,-10.02483,14.416029,66.21329,-17.242855,4.31487,-6.8609447
171,3.5425353050231934,-5.665536403656006,77.7474365234375,-0.816605136619045,1.6877462874180018,172.46602424715562,2.04156,10.019255,14.285651,8.60038,-9.847637,-6.8739877,-0.39994815,-6.0671678,-9.670017,6.8722534,-7.858838,6.9599934,7.4300194,4.4195547,5.8515344,0.94868815,8.972806,-27.427784,60.704212,-8.096706,9.025539,6.430458,-0.9225285,-10.03944,14.392329,66.148,-17.184826,4.2847013,-6.922836
172,3.572720766067505,-5.664945602416992,77.75228881835938,-0.8215105589801481,1.8426255804755776,172.2728812225322,1.9434341,10.04924,14.46904,8.512913,-9.809684,-6.9009886,-0.65257686,-6.020221,-9.481842,6.8662024,-7.7883005,6.9650884,7.4415555,4.40818,5.8391795,0.9345639,8.956301,-27.407629,60.662834,-8.147641,9.013835,6.482935,-0.9536634,-10.0533695,14.374458,66.08073,-17.088573,4.250037,-6.980526
173,3.5946693420410156,-5.655140399932861,77.75591278076172,-0.8288105954504593,2.0004702277336475,172.0847127960901,1.8352952,10.081334,14.634379,8.434534,-9.761337,-6.9237137,-0.9067873,-5.9692984,-9.308802,6.858882,-7.7122955,6.9640045,7.4370065,4.393041,5.815213,0.9213863,8.951059,-27.399754,60.641613,-8.222311,8.971849,6.5140967,-0.981261,-10.060061,14.370296,66.010506,-16.955133,4.2144136,-7.032918
174,3.621044635772705,-5.650516510009766,77.7591323852539,-0.8382670288960553,2.1627309442597515,171.89955814006723,1.7204952,10.11519,14.788645,8.35677,-9.704863,-6.946489,-1.1656547,-5.9150076,-9.144751,6.8526015,-7.633355,6.960405,7.411206,4.390281,5.788377,0.90088475,8.936746,-27.389278,60.637585,-8.30857,8.911416,6.529461,-1.0110539,-10.086457,14.380742,65.93201,-16.780163,4.1742554,-7.072607
175,3.6455187797546387,-5.637771129608154,77.76244354248047,-0.8489242511707495,2.3194633843724346,171.71993559217916,1.6104046,10.152146,14.934688,8.2831,-9.651389,-6.971782,-1.4134166,-5.85834,-8.988954,6.845251,-7.558023,6.960215,7.3708854,4.3797197,5.7555423,0.89515865,8.933031,-27.389374,60.637363,-8.383817,8.848805,6.535794,-1.0321151,-10.098953,14.37995,65.85311,-16.580673,4.1313596,-7.113864
176,3.6667227745056152,-5.626274108886719,77.76158142089844,-0.8485168136952557,2.4633529024071357,171.5444220691516,1.5242474,10.179368,15.083158,8.198992,-9.604053,-7.0008583,-1.6639311,-5.816196,-8.831611,6.8882565,-7.519786,6.9712687,7.3232117,4.365704,5.747015,0.8669109,8.928848,-27.39668,60.659172,-8.42897,8.793666,6.5241027,-1.031433,-10.131178,14.350267,65.732414,-16.342245,4.0799255,-7.141309
177,3.683685541152954,-5.604952335357666,77.76075744628906,-0.8456740455761443,2.5873371316597185,171.37486271079774,1.4650286,10.209142,15.232532,8.115466,-9.572782,-7.0369267,-1.9693186,-5.7882757,-8.670187,7.113351,-7.590306,6.995676,7.2727766,4.346231,5.7547574,0.8393811,8.931135,-27.41349,60.69292,-8.410193,8.753316,6.4891424,-1.0057435,-10.165239,14.269247,65.58594,-16.101568,4.021826,-7.1603584
178,3.693561553955078,-5.579416275024414,77.75959014892578,-0.8420517501051628,2.6977052177620773,171.21020296369593,1.4249039,10.241686,15.380301,8.031378,-9.551339,-7.078202,-2.2838364,-5.763824,-8.510928,7.4023623,-7.7031484,7.029455,7.2231755,4.3227434,5.776156,0.80441016,8.942766,-27.446915,60.74045,-8.352313,8.71952,6.4332438,-0.95612013,-10.199658,14.145265,65.41011,-15.847731,3.9580107,-7.170092
179,3.707021474838257,-5.548652172088623,77.75719451904297,-0.8376171722496977,2.8011080851613195,171.05394854556366,1.3920776,10.275042,15.519123,7.950332,-9.534713,-7.1212525,-2.5786521,-5.7372394,-8.360259,7.6802535,-7.818003,7.067204,7.133684,4.2919626,5.7951026,0.7760569,8.956316,-27.467424,60.80637,-8.292998,8.68808,6.381123,-0.92836106,-10.216614,14.031767,65.26266,-15.538871,3.8878467,-7.188591
180,3.715703248977661,-5.512802600860596,77.75383758544922,-0.8323864851396044,2.9032335190953606,170.90634905482244,1.3584913,10.307246,15.645025,7.8730783,-9.517796,-7.1627283,-2.8518324,-5.7065897,-8.218559,7.926826,-7.926028,7.1036816,7.0706472,4.2609143,5.82375,0.72911125,8.9868965,-27.551378,60.86418,-8.290911,8.663404,6.349759,-0.85304105,-10.238285,13.838411,65.05933,-15.181257,3.804929,-7.2003202
181,3.722249746322632,-5.476950645446777,77.75403594970703,-0.8251148398566763,3.0084301827075532,170.7711507074588,1.3201457,10.33431,15.751754,7.7935176,-9.496393,-7.20327,-3.110661,-5.674341,-8.0892315,8.148905,-8.03044,7.1415515,6.9885473,4.2265615,5.8481197,0.6923605,9.036445,-27.671461,60.90296,-8.366852,8.64692,6.363393,-0.77435696,-10.257851,13.61917,64.85261,-14.7089615,3.7112107,-7.2298
182,3.728685140609741,-5.433180332183838,77.74967193603516,-0.8159165716598799,3.112526531094362,170.64604971188552,1.281494,10.358169,15.843728,7.7152147,-9.475361,-7.2441983,-3.3549657,-5.6412473,-7.9698663,8.3550825,-8.135324,7.182304,6.8863807,4.185759,5.8740315,0.6645624,9.103554,-27.811283,60.927963,-8.487547,8.638569,6.4037247,-0.6900175,-10.270059,13.377377,64.63495,-14.150786,3.610499,-7.2696185
183,3.725590467453003,-5.3860883712768555,77.74526977539062,-0.8068551842114117,3.2102556815563754,170.52845585610262,1.2471887,10.385032,15.928683,7.6448913,-9.457091,-7.2828374,-3.5816076,-5.6043262,-7.857249,8.552236,-8.242995,7.2187667,6.7748446,4.1396837,5.9037538,0.6356449,9.189427,-27.969816,60.957222,-8.6273365,8.627871,6.4347343,-0.600112,-10.274482,13.117807,64.41571,-13.578449,3.495644,-7.295423
184,3.712660074234009,-5.335930824279785,77.73944854736328,-0.7994826034946546,3.296291950673559,170.41595497196633,1.221203,10.420976,16.013714,7.592496,-9.446508,-7.316266,-3.788412,-5.5611424,-7.7478266,8.748435,-8.356317,7.2437577,6.657971,4.091908,5.937887,0.5932177,9.286328,-28.137392,61.017647,-8.75715,8.60358,6.421217,-0.50763524,-10.274468,12.853634,64.206604,-13.06163,3.3618414,-7.2838907
185,3.7047982215881348,-5.275458812713623,77.73562622070312,-0.7950280801747076,3.3672295841135402,170.30967839376416,1.2030895,10.469828,16.098406,7.5661016,-9.444357,-7.339001,-3.9675794,-5.5093627,-7.6436157,8.938196,-8.474341,7.2514358,6.5405498,4.045058,5.979555,0.53144383,9.396318,-28.335693,61.121346,-8.900546,8.5548725,6.353172,-0.4014306,-10.270421,12.559783,63.995346,-12.600609,3.204618,-7.2056146
186,3.693613052368164,-5.219325065612793,77.73123168945312,-0.7918698729074181,3.4265392470040594,170.21036323655653,1.190739,10.527534,16.17963,7.560033,-9.449105,-7.354042,-4.1235743,-5.4515758,-7.5453506,9.1209135,-8.596407,7.2469206,6.4189334,3.997998,6.026278,0.4535621,9.5162,-28.561499,61.25994,-9.062488,8.489705,6.250293,-0.28447706,-10.263639,12.239421,63.782017,-12.163863,3.02875,-7.080766
187,3.673978090286255,-5.152080535888672,77.72557830810547,-0.7880419742647276,3.4796550694520394,170.11452512670698,1.1872038,10.588201,16.26095,7.5580673,-9.459146,-7.3712873,-4.2692275,-5.3920217,-7.4474645,9.30756,-8.724677,7.239311,6.3019056,3.9466896,6.0771866,0.37323108,9.655495,-28.789864,61.39492,-9.193153,8.429119,6.118099,-0.16118221,-10.256379,11.9265585,63.57209,-11.776156,2.840535,-6.9540052
188,3.6534876823425293,-5.080445289611816,77.7190933227539,-0.7815916343307374,3.5315724749286095,170.01891705697324,1.1957196,10.645856,16.345585,7.543294,-9.471956,-7.400601,-4.4177947,-5.3348007,-7.3443594,9.5088825,-8.860583,7.2378373,6.1836643,3.890833,6.1287894,0.3011073,9.807823,-28.975546,61.50296,-9.234644,8.392046,5.963513,-0.047098927,-10.254109,11.675134,63.38327,-11.456952,2.6467237,-6.8732214
189,3.6245133876800537,-5.011063098907471,77.71166229248047,-0.7738824854427907,3.583039541979469,169.9247007582518,1.2178112,10.70227,16.434563,7.511382,-9.489531,-7.451077,-4.571642,-5.2771807,-7.235891,9.7277355,-9.004367,7.237378,6.058972,3.8327012,6.1840754,0.24186932,9.971924,-29.104572,61.574543,-9.124931,8.388358,5.773031,0.060320586,-10.258289,11.496723,63.217678,-11.216597,2.4332247,-6.8610516
190,3.599153518676758,-4.9327263832092285,77.70172119140625,-0.7651698484440771,3.6314490410181075,169.83275856692129,1.252988,10.759245,16.526283,7.4682026,-9.5106735,-7.515187,-4.7253447,-5.2185955,-7.124293,9.960451,-9.156039,7.2356296,5.9270005,3.773045,6.2433085,0.19057927,10.147616,-29.194098,61.623993,-8.907227,8.405241,5.5479503,0.1644482,-10.269225,11.370512,63.068577,-11.04101,2.2013807,-6.889324
191,3.5729970932006836,-4.851174354553223,77.69160461425781,-0.7527814170993486,3.677408603469329,169.7400234879239,1.294998,10.812434,16.619446,7.4266677,-9.536301,-7.578019,-4.876146,-5.1649103,-7.0090137,10.200432,-9.314147,7.2457914,5.7974544,3.7102196,6.3009505,0.14152303,10.337038,-29.26096,61.65885,-8.68908,8.428364,5.316927,0.26001698,-10.290475,11.28927,62.93105,-10.916295,1.9801434,-6.927494
192,3.5353939533233643,-4.773524761199951,77.67924499511719,-0.7337107562078093,3.7215066315368643,169.64273753251388,1.3423712,10.856175,16.71342,7.3900175,-9.562319,-7.6248264,-5.022633,-5.122106,-6.8892727,10.442631,-9.477246,7.281278,5.679056,3.6427467,6.3519244,0.09143847,10.543404,-29.320799,61.68288,-8.577654,8.444362,5.1083107,0.34244746,-10.327342,11.246266,62.798096,-10.828337,1.7986124,-6.944485
193,3.497507095336914,-4.684514045715332,77.66688537597656,-0.7070932922180928,3.7580381942500596,169.53381476515125,1.402179,10.891295,16.81333,7.3629656,-9.591584,-7.6546216,-5.163928,-5.089329,-6.7598834,10.69754,-9.652336,7.343885,5.5769057,3.5679762,6.398353,0.040740434,10.769049,-29.387775,61.699055,-8.636327,8.454303,4.931269,0.4152077,-10.382278,11.249047,62.670166,-10.764823,1.6607186,-6.9391165
194,3.4482293128967285,-4.592746257781982,77.65342712402344,-0.6743973893874383,3.7888443152961866,169.4172170998823,1.4741285,10.919419,16.917835,7.3399096,-9.62383,-7.6742125,-5.299946,-5.0638514,-6.6234093,10.961165,-9.836406,7.4273,5.485899,3.488365,6.442994,-0.007126273,11.013927,-29.451275,61.699703,-8.796948,8.464889,4.769393,0.4813894,-10.454396,11.297521,62.546524,-10.735299,1.5519682,-6.92466
195,3.4022841453552246,-4.5157151222229,77.64013671875,-0.6365083283074336,3.825112129377536,169.30611736045722,1.5398542,10.938286,17.016315,7.318479,-9.654233,-7.6809044,-5.4343457,-5.0488515,-6.489701,11.216836,-10.018985,7.5327206,5.3999124,3.409607,6.4814153,-0.052366383,11.277729,-29.489443,61.675026,-8.969894,8.471828,4.6132855,0.5347323,-10.545473,11.373286,62.419933,-10.758718,1.4745398,-6.892006
196,3.338987112045288,-4.455855369567871,77.62444305419922,-0.5931481830936364,3.8785165968639195,169.2138712197585,1.5806224,10.943769,17.098196,7.2970004,-9.678457,-7.6714187,-5.5687404,-5.0487933,-6.368658,11.443922,-10.187751,7.661242,5.3129306,3.3362987,6.5092635,-0.09482013,11.559742,-29.480207,61.61536,-9.064643,8.470392,4.453403,0.5688699,-10.65939,11.457842,62.28301,-10.853547,1.4303286,-6.831812
197,3.2707459926605225,-4.378170490264893,77.60964965820312,-0.532926661861455,3.953115390867675,169.13650857848222,1.6065675,10.921177,17.175808,7.255573,-9.703952,-7.645802,-5.701327,-5.076438,-6.251531,11.629184,-10.33558,7.831934,5.228229,3.2601664,6.515969,-0.1293326,11.859628,-29.420895,61.514263,-9.056207,8.459671,4.277709,0.5899905,-10.800528,11.564427,62.13663,-11.031332,1.4300036,-6.7318854
198,3.210777759552002,-4.29966402053833,77.59883117675781,-0.45478097119822897,4.04261206106347,169.06926129476682,1.6226728,10.870517,17.250496,7.201356,-9.730379,-7.604914,-5.829107,-5.130151,-6.1358604,11.780551,-10.466858,8.037895,5.1464267,3.1784167,6.5080156,-0.15619153,12.176952,-29.320946,61.376896,-8.99244,8.441694,4.0941253,0.60022414,-10.9690075,11.6983185,61.981457,-11.278884,1.4686718,-6.5992713
199,3.160010576248169,-4.234924793243408,77.5941162109375,-0.3706946440777027,4.142081190547177,169.02374324360804,1.6121864,10.806305,17.297556,7.1541986,-9.7312355,-7.5483847,-5.938784,-5.1933956,-6.0400567,11.879124,-10.57512,8.2415,5.0606527,3.101164,6.505939,-0.18527749,12.510897,-29.17863,61.21202,-8.894282,8.415892,3.9234624,0.5880175,-11.1607485,11.827514,61.80999,-11.578486,1.5250155,-6.4538302
200,3.1016244888305664,-4.181246757507324,77.59463500976562,-0.3004476242635159,4.246450209630472,169.01191489241776,1.552806,10.753718,17.29042,7.147334,-9.68732,-7.473455,-6.031711,-5.244373,-5.9834104,11.936746,-10.663941,8.404797,4.964288,3.0457492,6.529478,-0.22783434,12.860278,-28.993176,61.03018,-8.782513,8.381915,3.7867544,0.5423686,-11.36838,11.918717,61.61532,-11.913215,1.5779978,-6.3158474
201,3.0614824295043945,-4.1390299797058105,77.57705688476562,-0.3191820924186904,4.3799776646398305,169.0419201129536,0.86043,10.972164,17.10686,8.391516,-10.254763,-7.405042,-6.172929,-5.2088165,-5.991458,12.030567,-10.766101,8.50019,4.843298,3.0862856,6.549095,-0.2805575,13.223837,-28.750704,60.825043,-8.6424265,8.347824,3.6767223,0.45345896,-11.58895,11.959535,61.410378,-12.320783,1.6240274,-6.168742
202,3.0176243782043457,-4.099286079406738,77.5526351928711,-0.38781831074048423,4.534681304684361,169.10265125253125,-0.1608946,11.3256445,16.815454,10.255329,-11.111968,-7.3336053,-6.327258,-5.123679,-6.0438986,12.105789,-10.855136,8.552643,4.708838,3.1842835,6.5678186,-0.3412076,13.601409,-28.457382,60.598206,-8.470229,8.311076,3.5870645,0.3292226,-11.822678,11.968367,61.19657,-12.79733,1.6732384,-6.0095186
203,2.972043037414551,-4.062552452087402,77.52478790283203,-0.466116424459571,4.670884767700584,169.1992138178934,-1.2855015,11.703838,16.439953,12.324986,-11.988815,-7.2259426,-6.4360847,-5.037177,-6.1359844,12.146995,-10.937019,8.599693,4.571651,3.2981353,6.62836,-0.41928506,13.993536,-28.142805,60.37014,-8.301334,8.255731,3.5407152,0.18171363,-12.069943,11.956853,60.954662,-13.264914,1.7257848,-5.8803253
204,2.941432237625122,-4.024154186248779,77.48855590820312,-0.527007747894561,4.751456825938173,169.34030521683619,-2.4504476,12.057502,15.970324,14.533508,-12.79398,-7.056448,-6.4453006,-4.984668,-6.2700615,12.143985,-11.0204735,8.677735,4.4402304,3.3993025,6.769411,-0.52520645,14.400651,-27.838139,60.160885,-8.171404,8.16653,3.5608215,0.024007104,-12.330831,11.935114,60.664024,-13.645614,1.7830408,-5.8229494
205,2.9042105674743652,-4.0003886222839355,77.45824432373047,-0.5734758516750555,4.75543699061414,169.5406419487315,-3.6584911,12.391901,15.411366,16.963692,-13.504761,-6.79252,-6.321936,-4.9663854,-6.4633946,12.088288,-11.110862,8.794371,4.2992673,3.494651,7.014741,-0.658183,14.823743,-27.546478,59.97555,-8.080634,8.022058,3.668689,-0.137314,-12.60575,11.890135,60.298183,-13.911282,1.8551425,-5.855143
206,2.868032217025757,-3.973917245864868,77.43635559082031,-0.6198846798591469,4.7066871880258985,169.7916888461908,-4.921798,12.717014,14.767634,19.580765,-14.147092,-6.460331,-6.0972214,-4.9616504,-6.7106066,11.979467,-11.198559,8.930216,4.1510434,3.5965457,7.3385973,-0.81417507,15.262697,-27.254658,59.80296,-8.01236,7.8367906,3.8467016,-0.30960065,-12.894766,11.820475,59.87403,-14.106123,1.9392257,-5.951864
207,2.8174853324890137,-3.9636905193328857,77.42247009277344,-0.653051689203771,4.63604924517109,170.06759670215402,-6.1944885,12.987781,14.035502,22.148323,-14.710369,-6.1240034,-5.818788,-4.9788995,-6.9793954,11.828903,-11.273767,9.08187,4.029454,3.682829,7.704671,-1.0001687,15.716013,-26.970587,59.641933,-7.980851,7.6482124,4.059645,-0.500388,-13.196198,11.75462,59.43657,-14.259794,2.017128,-6.0913286
208,2.757582187652588,-3.9542808532714844,77.41395568847656,-0.6562764461769047,4.574222865239735,170.34264050870104,-7.451372,13.1612425,13.209885,24.47887,-15.201313,-5.8485746,-5.537116,-5.031138,-7.2362247,11.653752,-11.329614,9.2466545,3.9686103,3.7295063,8.076328,-1.2236565,16.18142,-26.701578,59.49224,-7.9992037,7.4938645,4.272382,-0.71720135,-13.506814,11.721417,59.031334,-14.401979,2.0706918,-6.2522426
209,2.6903934478759766,-3.947226047515869,77.412353515625,-0.6246114293454433,4.515338583307418,170.63118872936025,-8.72065,13.217261,12.24623,26.640854,-15.640281,-5.6398034,-5.2485476,-5.1258335,-7.488693,11.46353,-11.370668,9.422406,3.968803,3.733359,8.463749,-1.5137439,16.66102,-26.468164,59.37567,-8.079333,7.388456,4.478551,-0.95358956,-13.827796,11.723371,58.646523,-14.523167,2.0910509,-6.4507875
210,2.6279478073120117,-3.93496036529541,77.41895294189453,-0.5643436197758752,4.447499147091697,170.94002356251224,-10.009157,13.169555,11.169115,28.714191,-16.02621,-5.4760075,-4.931008,-5.2578697,-7.749102,11.245755,-11.396902,9.612024,4.0153785,3.7043102,8.879423,-1.8578081,17.155582,-26.261858,59.285908,-8.211794,7.3097925,4.695831,-1.2084576,-14.159662,11.746472,58.265793,-14.613759,2.0892763,-6.6915545
211,2.5646352767944336,-3.9427649974823,77.43284606933594,-0.47451322433923265,4.392406682846074,171.23227498748423,-11.265216,13.036092,10.075265,30.541357,-16.342045,-5.3760605,-4.6160555,-5.4246554,-7.9897637,11.002942,-11.405017,9.820314,4.1189637,3.6391554,9.289575,-2.1997392,17.658566,-26.042532,59.181747,-8.377136,7.2397985,4.9253874,-1.4996817,-14.494632,11.797161,57.930534,-14.703076,2.0769403,-6.9365935
212,2.5001912117004395,-3.9713542461395264,77.4532470703125,-0.3549730105623024,4.371833301601178,171.47110864050933,-12.4341955,12.846391,9.058092,31.955841,-16.57161,-5.351261,-4.3307304,-5.622527,-8.183838,10.727783,-11.386204,10.0519905,4.28797,3.5334544,9.658486,-2.48489,18.16029,-25.767178,59.029346,-8.554915,7.1599383,5.1695976,-1.8501111,-14.822732,11.883602,57.68932,-14.822413,2.0662696,-7.1500797
213,2.4071290493011475,-3.9973020553588867,77.48465728759766,-0.19900566073352835,4.390465060114049,171.65335879137092,-13.507109,12.591715,8.119597,32.92152,-16.733442,-5.420082,-4.074665,-5.857062,-8.327876,10.407752,-11.33057,10.307851,4.53219,3.3776186,9.976499,-2.7140439,18.654238,-25.424171,58.82742,-8.764273,7.0720134,5.4406114,-2.2698188,-15.140427,12.023877,57.577473,-14.975684,2.0557427,-7.3338494
214,2.3103535175323486,-4.0288286209106445,77.52747344970703,-0.009377925977864885,4.436739990520485,171.79653318616053,-14.51131,12.276199,7.216369,33.53229,-16.835497,-5.565119,-3.8367882,-6.1273074,-8.435733,10.0507965,-11.245252,10.586038,4.8428936,3.1777952,10.26154,-2.9136999,19.140429,-25.03298,58.6017,-9.006049,6.982391,5.734793,-2.7508376,-15.448773,12.211589,57.569416,-15.1489725,2.0410564,-7.505733
215,2.185802459716797,-4.070139408111572,77.5712661743164,0.19940556005956228,4.508615412163864,171.89463515559206,-15.44773,11.95474,6.3689137,33.81369,-16.842834,-5.737891,-3.6171331,-6.4180684,-8.504984,9.656915,-11.135444,10.885524,5.202769,2.9534938,10.519698,-3.0670147,19.619232,-24.597557,58.355713,-9.230939,6.880264,6.030316,-3.2858148,-15.742184,12.417641,57.6209,-15.345295,2.0298822,-7.6532564
216,2.062032699584961,-4.118130207061768,77.61320495605469,0.41163364024843746,4.604230923756576,171.9418400109349,-16.31895,11.681537,5.595678,33.79033,-16.71893,-5.8902874,-3.4231575,-6.7145114,-8.532873,9.242955,-11.011781,11.204515,5.5945945,2.7229316,10.7556925,-3.159031,20.092333,-24.123621,58.09548,-9.391653,6.75568,6.3057833,-3.8703513,-16.012917,12.613777,57.69218,-15.568181,2.0300605,-7.764952
217,1.9315210580825806,-4.18259859085083,77.65043640136719,0.6352870335784273,4.7366811019935735,171.93279410283807,-17.125725,11.459636,4.930784,33.4027,-16.434973,-6.0014215,-3.2649276,-7.026852,-8.514232,8.7955065,-10.868994,11.555491,6.0248814,2.4765465,10.959112,-3.1886802,20.559702,-23.615004,57.825935,-9.449264,6.6014524,6.557671,-4.5156765,-16.253742,12.793354,57.80843,-15.833663,2.0561686,-7.836631
218,1.7791612148284912,-4.24979305267334,77.68768310546875,0.8736482334251767,4.902335114674005,171.87183058579657,-17.862255,11.268157,4.3531322,32.648613,-16.010746,-6.0961123,-3.1330945,-7.3575406,-8.452008,8.307648,-10.702225,11.934225,6.501071,2.2070615,11.131241,-3.1631105,21.02111,-23.068907,57.544956,-9.438539,6.425353,6.7973146,-5.221985,-16.464012,12.970979,57.98473,-16.137068,2.0996652,-7.87593
219,1.6249369382858276,-4.319942951202393,77.72671508789062,1.103034622510752,5.074896957991147,171.76735969719164,-18.522322,11.122505,3.7979317,31.636168,-15.480635,-6.1960764,-2.9975648,-7.6788893,-8.356098,7.7886605,-10.518511,12.313734,7.005548,1.9378861,11.293914,-3.0742095,21.477839,-22.477516,57.241642,-9.420079,6.240348,7.0248265,-5.9660287,-16.646248,13.150301,58.16273,-16.450378,2.1333673,-7.888388
220,1.4642232656478882,-4.408165454864502,77.76033782958984,1.3011935044204186,5.228258041021497,171.62778915338353,-19.100817,11.038126,3.1991594,30.475245,-14.879974,-6.322806,-2.8572009,-7.9685483,-8.232801,7.308384,-10.356993,12.667352,7.5209727,1.6924026,11.468749,-2.9118745,21.932121,-21.83236,56.902058,-9.453712,6.059036,7.239631,-6.723788,-16.805134,13.334063,58.282104,-16.744724,2.130215,-7.8792086
221,1.2762539386749268,-4.487131118774414,77.78814697265625,1.4644458876845592,5.353475619148769,171.4526055586176,-19.582249,11.018159,2.5302167,29.119604,-14.167779,-6.4905577,-2.8896368,-8.245651,-8.054562,7.2682943,-10.4321,12.993112,8.045849,1.4763921,11.665365,-2.672069,22.388365,-21.122322,56.50919,-9.554122,5.8865104,7.4207826,-7.49278,-16.939468,13.506442,58.331696,-17.0309,2.085151,-7.831061
222,1.080793023109436,-4.573931694030762,77.80937194824219,1.6026925874320868,5.464889145896468,171.23738717890728,-19.969328,11.056437,1.8280277,27.52373,-13.336402,-6.6850295,-2.9051182,-8.493918,-7.8447347,7.226635,-10.509337,13.303143,8.588718,1.2788109,11.872109,-2.3515549,22.84605,-20.351126,56.06513,-9.689288,5.716149,7.5736523,-8.282647,-17.046692,13.672208,58.339123,-17.316542,2.0112667,-7.746761
223,0.8778281211853027,-4.686638355255127,77.81403350830078,1.7130491046176957,5.571239317288151,170.98450876363165,-20.297049,11.156944,1.1184613,25.821167,-12.481856,-6.885425,-2.9153028,-8.715091,-7.60579,7.1856847,-10.587725,13.589303,9.146109,1.0994359,12.076695,-1.9488866,23.297928,-19.536842,55.593903,-9.854722,5.541338,7.737855,-9.088147,-17.132826,13.864534,58.30196,-17.569042,1.9088638,-7.6621366
224,0.6585685610771179,-4.797379493713379,77.81063079833984,1.7929992887289135,5.6814168119153114,170.69670941543518,-20.601795,11.321387,0.4288048,24.145641,-11.698705,-7.0713034,-2.932476,-8.911128,-7.3408027,7.1495104,-10.66679,13.843578,9.714784,0.94054765,12.2667055,-1.4645039,23.730888,-18.696478,55.12109,-10.040897,5.3550215,7.9532256,-9.898816,-17.207819,14.115283,58.211884,-17.755072,1.7788113,-7.6115046
225,0.4261433184146881,-4.923551559448242,77.79661560058594,1.8394162602700501,5.8030556730707135,170.37289673360485,-20.899641,11.560042,-0.23912801,22.49351,-11.019902,-7.233708,-2.9646094,-9.077639,-7.051472,7.113646,-10.742617,14.05681,10.3009615,0.8090027,12.434915,-0.91081923,24.135685,-17.833574,54.659737,-10.231585,5.1548696,8.223697,-10.708116,-17.279516,14.435739,58.046837,-17.85783,1.6194608,-7.609259
226,0.16812042891979218,-5.0564751625061035,77.77090454101562,1.8520018744533946,5.928295365926978,170.01112507221586,-21.169455,11.868072,-0.89640915,20.80144,-10.388227,-7.387234,-3.0039763,-9.213063,-6.7357,7.081464,-10.818776,14.234991,10.906248,0.7093691,12.587364,-0.28961527,24.507902,-16.942173,54.20317,-10.43327,4.943243,8.531098,-11.515139,-17.348543,14.806456,57.810875,-17.89594,1.4313301,-7.6333675
227,-0.09348472952842712,-5.203283786773682,77.74100494384766,1.8352149931627724,6.04366273106461,169.6137875486065,-21.392807,12.222735,-1.5346881,19.115799,-9.771191,-7.5456595,-3.033286,-9.325533,-6.391535,7.0547776,-10.898791,14.393625,11.521249,0.6381698,12.730867,0.40660894,24.84126,-16.030317,53.755177,-10.674798,4.7194066,8.882396,-12.319291,-17.412985,15.21368,57.53586,-17.887005,1.2185824,-7.6637425
228,-0.3763100802898407,-5.362813949584961,77.70356750488281,1.7939286148513207,6.136097857002163,169.1841089461988,-21.552591,12.604755,-2.14746,17.486599,-9.138562,-7.7222233,-3.0337844,-9.4231415,-6.018497,7.030589,-10.983592,14.548662,12.1352,0.59117,12.870957,1.1817077,25.128937,-15.107686,53.323364,-10.986098,4.4819884,9.285095,-13.122602,-17.471048,15.643533,57.257236,-17.849957,0.9854102,-7.6812534
229,-0.6759379506111145,-5.53262996673584,77.65666198730469,1.729237383464051,6.204372651371243,168.7144480430064,-21.638102,13.021271,-2.7381742,15.892832,-8.507742,-7.9035344,-3.0044646,-9.506831,-5.6108346,7.0092545,-11.080465,14.717372,12.75259,0.5653619,13.008097,2.0401525,25.36671,-14.165384,52.903458,-11.400779,4.2140045,9.7612505,-13.9292,-17.524742,16.109983,56.968445,-17.786238,0.7195666,-7.6785817
230,-1.0017459392547607,-5.721597194671631,77.59659576416016,1.6362423100554446,6.255160601618942,168.2051588570676,-21.665869,13.485107,-3.30976,14.325089,-7.889709,-8.089182,-2.9549093,-9.569046,-5.1703405,6.99069,-11.185591,14.886144,13.378539,0.5678109,13.135907,2.9718184,25.55254,-13.207114,52.500324,-11.893369,3.9187427,10.29956,-14.734871,-17.574053,16.613811,56.655033,-17.686298,0.42345077,-7.666349
231,-1.3363714218139648,-5.917738914489746,77.52730560302734,1.5092233535152195,6.290829766563548,167.67026414300142,-21.679815,13.990282,-3.8629367,12.889942,-7.2628465,-8.3074465,-2.8880925,-9.598313,-4.70298,6.9751763,-11.284444,15.000033,14.007099,0.609019,13.24648,3.9579613,25.682512,-12.259811,52.13324,-12.401045,3.6259017,10.858299,-15.527937,-17.612724,17.116858,56.34181,-17.554916,0.123129524,-7.6531363
232,-1.6972359418869019,-6.120042324066162,77.45586395263672,1.3695850908067995,6.307098361917979,167.13647840268587,-21.690773,14.495895,-4.3887935,11.645623,-6.5813746,-8.576492,-2.799292,-9.620684,-4.2257266,6.96958,-11.367866,15.000033,14.621464,0.6763556,13.343274,4.9743204,25.752335,-11.354671,51.82659,-12.863161,3.366721,11.398496,-16.297102,-17.632652,17.578604,56.056854,-17.39882,-0.15501936,-7.6486025
233,-2.0765535831451416,-6.34054708480835,77.37992858886719,1.2152960836589066,6.30157380238797,166.6018046515248,-21.679668,15.004165,-4.921772,10.549612,-5.7733893,-8.95224,-2.6853652,-9.647567,-3.745957,6.9732885,-11.432823,15.000033,15.224153,0.77249444,13.425584,6.019766,25.758,-10.494166,51.598038,-13.280333,3.115817,11.943709,-17.053537,-17.629936,17.99851,55.811077,-17.204905,-0.40497848,-7.658823
234,-2.4657254219055176,-6.571826934814453,77.2977294921875,1.0485004091831773,6.277200570382676,166.06061489915024,-21.65063,15.521025,-5.458059,9.598028,-4.885796,-9.403739,-2.549872,-9.679265,-3.2592983,6.985048,-11.48456,15.000033,15.816694,0.89284617,13.4909725,7.097448,25.7003,-9.667374,51.43683,-13.677857,2.8675194,12.50588,-17.802862,-17.606169,18.3937,55.596684,-16.977562,-0.640082,-7.6791115
235,-2.8679356575012207,-6.8220696449279785,77.2135238647461,0.8845724208572376,6.242034594783199,165.5282128922058,-21.656496,16.024052,-5.93241,8.912626,-4.0636864,-9.822164,-2.3989458,-9.736134,-2.7825816,7.003737,-11.522934,15.000033,16.386559,1.025073,13.535108,8.184901,25.58662,-8.888253,51.326786,-14.038868,2.6842992,13.029699,-18.527866,-17.56265,18.750751,55.414684,-16.748491,-0.8637548,-7.7034864
236,-3.278927803039551,-7.073132514953613,77.12384796142578,0.7389904016720914,6.204815159049173,165.02010297895637,-21.759453,16.487623,-6.279009,8.63365,-3.4592395,-10.09846,-2.23926,-9.834717,-2.3293316,7.0283575,-11.548435,14.968227,16.922905,1.1545119,13.554499,9.260054,25.428984,-8.172653,51.250114,-14.349349,2.6300392,13.460329,-19.2103,-17.502035,19.05307,55.263813,-16.550602,-1.0794421,-7.725705
237,-3.7103540897369385,-7.34775447845459,77.03337860107422,0.6129597963401906,6.164677021099818,164.53055703729652,-21.983734,16.907457,-6.493176,8.837716,-3.1162095,-10.190534,-2.0763273,-9.97205,-1.8861762,7.0635743,-11.550071,14.832197,17.427877,1.2806348,13.555608,10.319135,25.230932,-7.5159936,51.204967,-14.610668,2.755388,13.788446,-19.856817,-17.426416,19.287594,55.142017,-16.395214,-1.2953063,-7.732514
238,-4.151045799255371,-7.633584976196289,76.94414520263672,0.4847747466579892,6.12188328983039,164.04893168896595,-22.310165,17.312069,-6.61228,9.463217,-2.9639332,-10.167775,-1.9103408,-10.122786,-1.4469434,7.106015,-11.528513,14.636963,17.913235,1.4201643,13.532251,11.372836,24.993254,-6.914041,51.195248,-14.831632,3.0176005,14.041587,-20.472273,-17.336632,19.462616,55.046955,-16.26375,-1.5071417,-7.730529
239,-4.617007732391357,-7.930408954620361,76.85826110839844,0.36927577839241216,6.076297412575375,163.59616837532067,-22.6789,17.686234,-6.609391,10.359428,-2.9398997,-10.075709,-1.7274678,-10.311086,-1.0458738,7.1489887,-11.5087185,14.483975,18.367533,1.5554566,13.482883,12.421052,24.727188,-6.385366,51.213055,-15.015306,3.3408701,14.220619,-21.035952,-17.234709,19.593716,54.978203,-16.145294,-1.7007524,-7.7435884
240,-5.095705509185791,-8.243582725524902,76.77114868164062,0.2799489142623572,6.029082713524088,163.19321881781983,-23.044334,18.0156,-6.461248,11.39937,-2.994449,-9.958374,-1.5135182,-10.559947,-0.7175229,7.1819463,-11.513101,14.474193,18.781359,1.6677288,13.406445,13.464824,24.449919,-5.9494066,51.247917,-15.166037,3.649661,14.3247,-21.524023,-17.123264,19.693512,54.93039,-16.028776,-1.8620862,-7.7949095
241,-5.583019733428955,-8.568943977355957,76.67584228515625,0.22349795152600685,5.980254641918893,162.8370456439341,-23.393631,18.307962,-6.120431,12.58885,-3.1537197,-9.827791,-1.2650119,-10.878971,-0.46801376,7.2004056,-11.568215,14.657477,19.15845,1.7471241,13.306431,14.509603,24.172977,-5.6161575,51.30139,-15.242825,3.9828036,14.318177,-21.938534,-17.002602,19.76467,54.902195,-15.913643,-1.9842824,-7.894163
