unveil-humanoid-operators/unveil-humanoid-operators.github.io/feature-analysis-animation/data/feature_matrix_instances/height_root_translate_rom_walking_A041_arc_walk_left_loop_002__A041.csv
Frame,root_translateX,root_translateY,root_translateZ,root_rotateX,root_rotateY,root_rotateZ,left_hip_pitch_joint_dof,left_hip_roll_joint_dof,left_hip_yaw_joint_dof,left_knee_joint_dof,left_ankle_pitch_joint_dof,left_ankle_roll_joint_dof,right_hip_pitch_joint_dof,right_hip_roll_joint_dof,right_hip_yaw_joint_dof,right_knee_joint_dof,right_ankle_pitch_joint_dof,right_ankle_roll_joint_dof,waist_yaw_joint_dof,waist_roll_joint_dof,waist_pitch_joint_dof,left_shoulder_pitch_joint_dof,left_shoulder_roll_joint_dof,left_shoulder_yaw_joint_dof,left_elbow_joint_dof,left_wrist_roll_joint_dof,left_wrist_pitch_joint_dof,left_wrist_yaw_joint_dof,right_shoulder_pitch_joint_dof,right_shoulder_roll_joint_dof,right_shoulder_yaw_joint_dof,right_elbow_joint_dof,right_wrist_roll_joint_dof,right_wrist_pitch_joint_dof,right_wrist_yaw_joint_dof
0,-2.3858609199523926,0.8275408148765564,78.41122436523438,-0.6958698033808599,0.02688224806131671,-7.669731250636054,3.386354,5.1493177,12.261634,7.9021974,-10.82738,-5.4375486,-3.2940385,-4.098637,-7.994719,10.838552,-8.311659,3.9526346,4.072134,0.20355947,4.79332,5.7567344,13.667739,-22.933247,54.52909,2.7294164,3.4626217,7.296432,-4.9806714,-16.422445,33.13638,60.304302,-9.044521,5.0105977,-0.5383639
1,-2.383419990539551,0.8310892581939697,78.41346740722656,-0.6908636243307159,0.028599076732630097,-7.671350389147649,3.4113867,5.1285753,12.260079,7.839599,-10.805387,-5.422766,-3.293017,-4.109978,-7.9894323,10.828663,-8.304195,3.9688516,4.10258,0.18949145,4.782915,5.8633165,13.659416,-22.974953,54.523212,2.6993234,3.4549954,7.263132,-4.887421,-16.41953,33.155148,60.160152,-9.03909,5.005357,-0.50453776
2,-2.3799338340759277,0.8397319316864014,78.41520690917969,-0.6860333070316718,0.030691961570132865,-7.673516666652279,3.4357824,5.10809,12.259078,7.7783523,-10.784872,-5.4076943,-3.2915235,-4.121074,-7.9834356,10.817043,-8.295713,3.9854767,4.1365256,0.17783305,4.7628207,5.9552,13.639861,-23.025993,54.54601,2.663027,3.4431367,7.236101,-4.8032475,-16.408754,33.177,60.040432,-9.031072,4.9976997,-0.47243556
3,-2.3807930946350098,0.8483402729034424,78.4166488647461,-0.6810343589828844,0.032353678912705824,-7.674607666602758,3.4649448,5.08629,12.257337,7.707074,-10.759414,-5.393271,-3.2905316,-4.132635,-7.9788413,10.808045,-8.288872,4.001292,4.166011,0.1680021,4.7468386,6.048825,13.613826,-23.07043,54.563,2.6372535,3.4364126,7.204291,-4.7236905,-16.39288,33.19769,59.92388,-9.026359,4.991293,-0.44162393
4,-2.381108045578003,0.8562977313995361,78.41871643066406,-0.6755711594234556,0.03465349384520862,-7.67350243896739,3.4854603,5.0660534,12.252345,7.651214,-10.736885,-5.3804903,-3.2920637,-4.1450725,-7.977506,10.803698,-8.284628,4.0150075,4.1954403,0.1661743,4.719933,6.124429,13.573376,-23.12621,54.609802,2.6165788,3.4361537,7.1654716,-4.6563087,-16.365278,33.219097,59.8452,-9.018087,4.981628,-0.41681898
5,-2.3824901580810547,0.8611816763877869,78.42013549804688,-0.668405362290835,0.03680475701923275,-7.669411254839145,3.5025568,5.044466,12.242766,7.599985,-10.711124,-5.368072,-3.2961426,-4.1602507,-7.980472,10.806726,-8.284847,4.026564,4.215992,0.17236461,4.685987,6.178016,13.4963255,-23.174728,54.690544,2.6241102,3.4527094,7.111004,-4.6210136,-16.306503,33.24305,59.82602,-9.01234,4.968799,-0.40277556
6,-2.386626720428467,0.8639919757843018,78.41947174072266,-0.6601367816851723,0.03928077656420599,-7.6632122903117414,3.5174563,5.0218525,12.230015,7.5511484,-10.682682,-5.355981,-3.3031795,-4.177285,-7.986431,10.816485,-8.288765,4.036513,4.230125,0.172921,4.6709633,6.2647424,13.455772,-23.210384,54.70271,2.6428452,3.4853551,7.0298595,-4.5670943,-16.271235,33.264557,59.75832,-9.000287,4.956189,-0.38644174
7,-2.3850317001342773,0.8694872260093689,78.42036437988281,-0.6527741989169555,0.04163741241037043,-7.655597742115232,3.530413,5.0013685,12.216751,7.506972,-10.656437,-5.347089,-3.3113124,-4.193653,-7.994112,10.8297615,-8.295174,4.044654,4.242468,0.17707363,4.656325,6.34869,13.413526,-23.252014,54.718597,2.6594176,3.5145695,6.9513373,-4.515686,-16.230515,33.28289,59.70025,-8.991799,4.945205,-0.36952105
8,-2.3847572803497314,0.8698438405990601,78.42259216308594,-0.6485799938827842,0.04385073293426439,-7.647328022229007,3.54485,4.985485,12.205943,7.4632072,-10.633715,-5.3441052,-3.316421,-4.206182,-8.002205,10.838753,-8.300273,4.0508394,4.2538714,0.18927298,4.6290617,6.407151,13.345998,-23.308199,54.787712,2.6627858,3.5219524,6.899961,-4.489582,-16.157642,33.30153,59.701355,-8.993769,4.93708,-0.35184819
9,-2.383216142654419,0.8745624423027039,78.42185974121094,-0.650471166891222,0.045142527428252054,-7.639623464489,3.565117,4.977972,12.200748,7.415767,-10.614588,-5.3541512,-3.318659,-4.2115026,-8.009875,10.845888,-8.305233,4.052174,4.2642198,0.20706448,4.611126,6.474972,13.298904,-23.38112,54.843052,2.6372805,3.4991684,6.874839,-4.4471436,-16.099733,33.310703,59.67424,-9.007874,4.936616,-0.31835064
10,-2.382754325866699,0.8829234838485718,78.41987609863281,-0.6563653091578545,0.04570353906668222,-7.631744813491431,3.5887008,4.9764276,12.199022,7.367309,-10.598196,-5.373584,-3.3194935,-4.212104,-8.017889,10.852766,-8.310406,4.0497475,4.277374,0.23114087,4.588288,6.5283966,13.244053,-23.4752,54.926502,2.5944898,3.4561,6.8732896,-4.413554,-16.02285,33.30951,59.67577,-9.035626,4.9401565,-0.27984628
11,-2.383111000061035,0.8889769315719604,78.41537475585938,-0.6614149801691384,0.04739164691905766,-7.621537500618498,3.6074104,4.9740543,12.195021,7.3247805,-10.584938,-5.3892455,-3.3205662,-4.2142305,-8.027482,10.859058,-8.316615,4.0491295,4.2902923,0.2535871,4.568881,6.5834975,13.197583,-23.568222,55.00249,2.5473053,3.4095025,6.870637,-4.3773713,-15.948351,33.310078,59.675285,-9.058794,4.9444504,-0.24103117
12,-2.383594512939453,0.891707181930542,78.41075897216797,-0.6602370579263362,0.05165140034181043,-7.6068345330381355,3.6124575,4.964308,12.18299,7.298428,-10.577629,-5.387982,-3.3235228,-4.2243233,-8.039675,10.863698,-8.32341,4.0559897,4.304708,0.26815224,4.5511127,6.6378284,13.156864,-23.648127,55.068455,2.5081208,3.3756933,6.8492355,-4.3408694,-15.875804,33.31933,59.67876,-9.06452,4.945496,-0.21096468
13,-2.384381055831909,0.8954627513885498,78.40819549560547,-0.6484430689192061,0.05964860985613558,-7.586852134017208,3.5971036,4.94203,12.160254,7.297324,-10.581695,-5.356122,-3.3291888,-4.247591,-8.053572,10.865765,-8.331728,4.0768404,4.3212905,0.27109352,4.54188,6.7005606,13.129838,-23.705921,55.10301,2.4789848,3.35763,6.795267,-4.289045,-15.824832,33.338062,59.65519,-9.040145,4.943284,-0.1897773
14,-2.386998414993286,0.8972699046134949,78.41094970703125,-0.6299600236655256,0.06996097466359373,-7.562805749273844,3.568696,4.9115243,12.1302805,7.312136,-10.593491,-5.3040853,-3.3365474,-4.279502,-8.068992,10.865996,-8.341351,4.1069674,4.3409495,0.2671793,4.5324616,6.758358,13.102898,-23.755547,55.13693,2.4537206,3.3466396,6.725843,-4.237589,-15.772255,33.36074,59.640736,-8.999928,4.9389334,-0.17690708
15,-2.389857292175293,0.9012911319732666,78.41609954833984,-0.6117025944968764,0.08164285308523345,-7.535558261466897,3.534438,4.881705,12.09668,7.3330655,-10.604657,-5.254659,-3.345659,-4.3117666,-8.088003,10.867726,-8.351106,4.1353397,4.3598967,0.26384437,4.5221953,6.8099318,13.075335,-23.800592,55.175083,2.4339101,3.3426373,6.6548524,-4.190514,-15.716211,33.390865,59.639427,-8.957709,4.932867,-0.16783446
16,-2.3883450031280518,0.9054876565933228,78.4212875366211,-0.6006416906014451,0.09337221080288403,-7.506102538009648,3.5043552,4.860751,12.063371,7.345897,-10.604907,-5.230532,-3.3570383,-4.336412,-8.112507,10.875754,-8.360802,4.1508107,4.3734484,0.26753664,4.50303,6.846847,13.037135,-23.846846,55.240944,2.4218836,3.3450396,6.6001186,-4.1678896,-15.632786,33.433125,59.688644,-8.9313135,4.9247108,-0.16215734
17,-2.38594388961792,0.9089829325675964,78.42285919189453,-0.6010381627766692,0.10662080236852883,-7.475909098727893,3.4788487,4.854111,12.032282,7.3464017,-10.586552,-5.2473726,-3.3738048,-4.3478127,-8.143772,10.89204,-8.368375,4.144948,4.3824167,0.2836269,4.4835706,6.875806,13.003912,-23.902477,55.313835,2.4186072,3.3591821,6.560004,-4.146186,-15.552918,33.482063,59.743027,-8.922931,4.9142036,-0.1493484
18,-2.385326385498047,0.9106356501579285,78.42149353027344,-0.6087290181579902,0.12152838949285483,-7.444006782643638,3.4538832,4.856513,12.001011,7.3409843,-10.555927,-5.289844,-3.395274,-4.3514285,-8.180407,10.914712,-8.375009,4.1254907,4.391931,0.30863038,4.467917,6.900432,12.979076,-23.965181,55.38229,2.4216728,3.383735,6.5258145,-4.1136994,-15.489102,33.53485,59.782074,-8.920731,4.902088,-0.13083395
19,-2.3905937671661377,0.9141034483909607,78.41609191894531,-0.6168051072125335,0.13427429845399846,-7.407916868231716,3.4305272,4.8594255,11.966935,7.336777,-10.52695,-5.3342133,-3.4136608,-4.3556323,-8.220816,10.938993,-8.38359,4.1058054,4.4055123,0.33557934,4.4844794,6.928166,12.974696,-23.997229,55.40681,2.4389682,3.4089792,6.482507,-4.0513744,-15.47801,33.566147,59.748184,-8.936375,4.890739,-0.10115135
20,-2.3924734592437744,0.9191271662712097,78.41165924072266,-0.6187593615381312,0.14320917261904137,-7.36479490954201,3.4083624,4.854563,11.927165,7.338442,-10.511482,-5.356861,-3.4226596,-4.3686233,-8.26341,10.958639,-8.396119,4.0991483,4.4206676,0.35652244,4.4523916,6.9471135,12.939094,-24.055983,55.49159,2.4169188,3.4258628,6.468457,-4.0305243,-15.392882,33.65082,59.84272,-8.931019,4.8828044,-0.112089545
21,-2.398143768310547,0.9267969727516174,78.41085815429688,-0.6117398871851405,0.14288138624656962,-7.3120377856709124,3.392937,4.838549,11.880596,7.3473725,-10.517867,-5.346448,-3.4138572,-4.3944664,-8.308191,10.970759,-8.414477,4.113574,4.4432297,0.36717382,4.4564404,6.9738975,12.919229,-24.05722,55.52742,2.3947792,3.427941,6.44439,-3.9893012,-15.347602,33.71857,59.882698,-8.943631,4.880014,-0.12701768
22,-2.399914026260376,0.9298097491264343,78.41170501708984,-0.5994938773805742,0.13660697200096378,-7.25194640072566,3.38267,4.815719,11.829146,7.359683,-10.537089,-5.3171735,-3.3934138,-4.428266,-8.355499,10.978937,-8.437175,4.1405287,4.4729743,0.37252432,4.470006,7.001601,12.901876,-24.03741,55.549473,2.3622262,3.4220858,6.423847,-3.9371986,-15.312507,33.789047,59.911385,-8.962745,4.882083,-0.15332703
23,-2.3982162475585938,0.931627094745636,78.41529083251953,-0.585844944845576,0.13110026337424283,-7.188355701700177,3.3684497,4.7911716,11.773499,7.376673,-10.558368,-5.2839017,-3.3727176,-4.4645176,-8.405836,10.987197,-8.46094,4.1684456,4.4777803,0.37924975,4.471968,7.033207,12.86889,-23.985405,55.582207,2.3421392,3.414513,6.407895,-3.9292455,-15.249532,33.893658,60.0058,-8.977597,4.880831,-0.19080523
24,-2.3937830924987793,0.9317306876182556,78.41857147216797,-0.5747892829831388,0.1328279088361084,-7.126433519300284,3.3464596,4.768166,11.716231,7.390565,-10.566538,-5.2613235,-3.3629103,-4.497153,-8.458079,10.999049,-8.482422,4.1857796,4.498378,0.38878855,4.472194,7.0520186,12.84781,-23.963913,55.607506,2.3355696,3.4170558,6.391746,-3.8967721,-15.209085,33.970615,60.063835,-8.991441,4.8765817,-0.22174473
25,-2.3884902000427246,0.9321030974388123,78.41989135742188,-0.5670191463470743,0.14641844122982706,-7.070083832941474,3.3099344,4.7478437,11.659432,7.4036145,-10.555472,-5.255488,-3.3729832,-4.5247297,-8.510338,11.018823,-8.500525,4.186737,4.5128293,0.4030052,4.455622,7.0614023,12.823755,-23.956396,55.64285,2.3662329,3.434829,6.3726525,-3.8776746,-15.160931,34.052193,60.141075,-9.001351,4.8642282,-0.253642
26,-2.3857758045196533,0.9314225912094116,78.42023468017578,-0.560607311191349,0.1675378912271671,-7.015928585270893,3.2630076,4.7283597,11.601519,7.4186053,-10.534268,-5.257868,-3.3956027,-4.5502424,-8.563325,11.044722,-8.517946,4.1783376,4.5330515,0.41926715,4.4316416,7.0616117,12.804372,-23.964502,55.678146,2.4181154,3.462351,6.3519583,-3.8540275,-15.118286,34.12471,60.21446,-9.01268,4.84697,-0.28638822
27,-2.383244514465332,0.932569682598114,78.41708374023438,-0.555098493820319,0.18902395047085974,-6.957310336995968,3.2148364,4.709275,11.538292,7.433255,-10.511889,-5.2613783,-3.4164147,-4.575613,-8.621261,11.06965,-8.535541,4.1684666,4.563277,0.43671533,4.417746,7.058317,12.798779,-23.981787,55.691216,2.4644,3.489914,6.3343163,-3.8050282,-15.104316,34.167015,60.242687,-9.024893,4.8308463,-0.3091472
28,-2.3830060958862305,0.9354225397109985,78.41471862792969,-0.5498455733148429,0.20437405670304895,-6.887289423009982,3.173671,4.6904683,11.465299,7.4460516,-10.497726,-5.258947,-3.4232242,-4.6028748,-8.68834,11.088813,-8.555378,4.164985,4.5835495,0.4549329,4.404882,7.0605516,12.793146,-23.991558,55.69634,2.4754083,3.5064785,6.3357615,-3.765115,-15.088636,34.203884,60.2846,-9.023287,4.820538,-0.32675248
29,-2.379478931427002,0.9340437054634094,78.41246032714844,-0.5446491981315307,0.21015954106758342,-6.802730448742816,3.1420968,4.671665,11.379159,7.460056,-10.499086,-5.2458153,-3.4079456,-4.6330214,-8.767085,11.097543,-8.577573,4.171938,4.5917187,0.47296444,4.3982162,7.0691957,12.785926,-23.984432,55.691303,2.4369786,3.5062544,6.3653803,-3.7400303,-15.063123,34.22864,60.345966,-9.001655,4.816397,-0.33405307
30,-2.3738667964935303,0.9337186813354492,78.41214752197266,-0.5399564140221088,0.21004821576753055,-6.708030026723387,3.117777,4.6527133,11.283318,7.4709296,-10.507205,-5.2267694,-3.379801,-4.665096,-8.854517,11.102065,-8.602103,4.1845636,4.6023755,0.49158385,4.4039807,7.076269,12.784835,-23.97591,55.668808,2.3657327,3.496719,6.413745,-3.6997151,-15.054828,34.224934,60.378227,-8.970762,4.8187914,-0.3297138
31,-2.371731996536255,0.9377244114875793,78.41361236572266,-0.5360624821739409,0.2095335808637579,-6.606624797203757,3.0911574,4.6351805,11.182107,7.4860945,-10.518079,-5.208812,-3.3476381,-4.697067,-8.947849,11.103552,-8.62672,4.197267,4.6081543,0.5099164,4.408189,7.084439,12.785988,-23.961838,55.640205,2.2934086,3.4842296,6.462167,-3.6671646,-15.041762,34.209038,60.423286,-8.94938,4.8222404,-0.32303777
32,-2.366137742996216,0.9415545463562012,78.41403198242188,-0.533256802853108,0.21289528123708376,-6.5030815212446464,3.0589468,4.619246,11.081471,7.5026984,-10.522548,-5.199033,-3.3184369,-4.726902,-9.043597,11.102034,-8.648512,4.2045546,4.6111126,0.5322204,4.4083343,7.087039,12.787677,-23.953472,55.611755,2.239245,3.474715,6.492346,-3.6380532,-15.03726,34.195957,60.47031,-8.942408,4.824866,-0.31959268
33,-2.3643484115600586,0.941199541091919,78.41500854492188,-0.5332395300372551,0.22161508740094113,-6.3955311029429645,3.0164104,4.6076097,10.981036,7.526028,-10.519938,-5.2027636,-3.2937195,-4.752594,-9.143545,11.096825,-8.666373,4.2032022,4.6071725,0.55893946,4.4022055,7.0865655,12.789331,-23.94734,55.579624,2.21611,3.4715114,6.4951615,-3.6156929,-15.035296,34.184063,60.527103,-8.96792,4.825802,-0.3213345
34,-2.360898733139038,0.9406126737594604,78.41798400878906,-0.53584350514724,0.23327282890372888,-6.281756812081536,2.9632993,4.6003637,10.877117,7.561869,-10.517516,-5.215225,-3.2685978,-4.7747974,-9.249776,11.085884,-8.680859,4.196607,4.608948,0.5826998,4.398262,7.0844584,12.804334,-23.940535,55.531227,2.217822,3.4716263,6.4763107,-3.594325,-15.02544,34.131527,60.58901,-9.03856,4.823711,-0.3195938
35,-2.359771490097046,0.937766969203949,78.4203872680664,-0.5373067603802228,0.2468461867690222,-6.167676293544218,2.9099636,4.5913672,10.773298,7.593944,-10.511394,-5.228021,-3.2457328,-4.7983356,-9.356535,11.076171,-8.696001,4.1894903,4.6061835,0.6071791,4.3891163,7.0813694,12.818552,-23.938025,55.48547,2.2204678,3.4718425,6.456493,-3.5806766,-15.020024,34.09528,60.65789,-9.09749,4.8241725,-0.32239777
36,-2.352323293685913,0.9345519542694092,78.42288208007812,-0.5358928412906007,0.26201179895295357,-6.056991100918845,2.8573675,4.577919,10.669972,7.623217,-10.50603,-5.233134,-3.2258155,-4.8256297,-9.461032,11.069283,-8.712934,4.18617,4.604264,0.6290027,4.377658,7.0758157,12.831366,-23.93512,55.447376,2.2213795,3.4701076,6.4466076,-3.5747216,-15.017342,34.066624,60.731148,-9.13352,4.827795,-0.32675633
37,-2.343808174133301,0.9298902750015259,78.42298126220703,-0.5291274319467965,0.2797499796001631,-5.952515979546357,2.8059683,4.556511,10.568621,7.6468463,-10.500684,-5.226324,-3.213279,-4.8604,-9.561206,11.071734,-8.735656,4.188663,4.6167727,0.64017624,4.3708754,7.072679,12.856211,-23.93918,55.395554,2.2238574,3.469702,6.448141,-3.5693135,-15.015774,34.02431,60.7962,-9.147617,4.835307,-0.3337301
38,-2.3355941772460938,0.9256253838539124,78.42092895507812,-0.5187149191586198,0.30031457216654756,-5.85098108867959,2.752793,4.52987,10.467728,7.66854,-10.494602,-5.212526,-3.2058437,-4.9000983,-9.65985,11.078787,-8.761213,4.194383,4.626521,0.650231,4.358989,7.0682697,12.87591,-23.941982,55.35041,2.2298217,3.4678588,6.4576874,-3.5739276,-15.017094,33.995174,60.869278,-9.136836,4.8465023,-0.3459016
39,-2.329578161239624,0.9218427538871765,78.41896057128906,-0.5089811124060956,0.3203116285409883,-5.7494811583026735,2.7016962,4.5036645,10.366169,7.6888638,-10.489351,-5.1976304,-3.1959548,-4.938711,-9.7582035,11.082822,-8.785014,4.2006683,4.634492,0.6626179,4.3459563,7.0598993,12.89067,-23.941551,55.31583,2.2347603,3.465157,6.4706526,-3.585526,-15.0197935,33.970745,60.948746,-9.123159,4.8587575,-0.35473925
40,-2.319573163986206,0.9238751530647278,78.41716003417969,-0.5034978639196761,0.33622807222795437,-5.645235276197268,2.6553028,4.4834585,10.262822,7.707513,-10.484437,-5.1877084,-3.1777308,-4.970722,-9.857432,11.080224,-8.804504,4.2048454,4.6519604,0.67269826,4.344543,7.054292,12.926458,-23.946108,55.26575,2.226847,3.4648452,6.4775357,-3.5883648,-15.029916,33.92836,61.007847,-9.130718,4.8698254,-0.3489391
41,-2.314258575439453,0.9231892228126526,78.41673278808594,-0.5057018667117502,0.346419980079927,-5.536600216517872,2.6149795,4.473346,10.155466,7.7263293,-10.482708,-5.1853294,-3.14711,-4.991837,-9.95815,11.066775,-8.815793,4.2054667,4.6644864,0.6907653,4.3472342,7.046466,12.963544,-23.945549,55.22372,2.2058766,3.4650226,6.4807773,-3.5929017,-15.044968,33.88882,61.065998,-9.162422,4.880661,-0.31862226
42,-2.309195041656494,0.9247274994850159,78.4184799194336,-0.5126422072700456,0.35285517855170395,-5.425473153076863,2.578943,4.4693255,10.045513,7.744844,-10.483187,-5.186987,-3.107804,-5.0058823,-10.05948,11.044654,-8.820713,4.204233,4.6733212,0.7160162,4.3511314,7.0297723,12.992379,-23.940485,55.19911,2.1779726,3.465103,6.4846635,-3.6061685,-15.060925,33.8535,61.133675,-9.207591,4.891883,-0.2724488
43,-2.300841808319092,0.9221881628036499,78.4188232421875,-0.5194934281959988,0.3584776642096471,-5.313694903352714,2.544261,4.465468,9.936277,7.762996,-10.483362,-5.189236,-3.0660255,-5.0196548,-10.161245,11.020969,-8.826543,4.2032657,4.67583,0.7466469,4.343739,7.0061564,13.000971,-23.93224,55.205208,2.1473417,3.4638178,6.4961715,-3.6341774,-15.067035,33.836807,61.229725,-9.245736,4.902329,-0.23902081
44,-2.289059638977051,0.9177237749099731,78.41899871826172,-0.5218037129612225,0.3651774898313008,-5.202995815041204,2.5070555,4.456393,9.830855,7.7859926,-10.483986,-5.1887794,-3.0265734,-5.0396214,-10.2632265,11.000944,-8.839033,4.204595,4.6910315,0.768372,4.356825,6.988807,13.027951,-23.915903,55.180717,2.1243272,3.4626079,6.5011687,-3.6553266,-15.089005,33.795208,61.2902,-9.278645,4.907938,-0.22654423
45,-2.2769856452941895,0.9121179580688477,78.41848754882812,-0.5157427878219275,0.3744695211420412,-5.0937748965290135,2.4663277,4.4375286,9.7320595,7.813102,-10.483726,-5.1828694,-2.9935026,-5.070929,-10.364986,10.990743,-8.864575,4.2090864,4.70788,0.7844351,4.363896,6.9806705,13.052124,-23.896399,55.158955,2.099183,3.4591124,6.515959,-3.6805992,-15.112923,33.76971,61.356895,-9.280533,4.911096,-0.2616763
46,-2.2672483921051025,0.907859206199646,78.41905212402344,-0.5048669667742052,0.3847277455820188,-4.985064833031498,2.4240706,4.412932,9.637481,7.84322,-10.483236,-5.1739297,-2.9626157,-5.108728,-10.466819,10.984811,-8.897633,4.2154956,4.7256804,0.7977989,4.3709364,6.974081,13.072434,-23.869747,55.142654,2.0734322,3.4531534,6.5355144,-3.7141726,-15.137731,33.751305,61.430534,-9.265995,4.9107656,-0.32613093
47,-2.257870674133301,0.903549075126648,78.42024993896484,-0.4939735267900858,0.3952891556035984,-4.876875531795521,2.3762085,4.389539,9.542722,7.885583,-10.487035,-5.166153,-2.9311068,-5.14616,-10.569127,10.977086,-8.93017,4.223038,4.741078,0.81065094,4.384356,6.9792256,13.099835,-23.836561,55.107304,2.0535269,3.4498558,6.54922,-3.7381043,-15.179145,33.73608,61.472828,-9.242853,4.909856,-0.3972316
48,-2.2479522228240967,0.901965320110321,78.42140197753906,-0.4878587134437122,0.40602982337049287,-4.769857321535338,2.332496,4.3713036,9.445279,7.9183187,-10.487958,-5.163772,-2.8971307,-5.176672,-10.671407,10.962597,-8.954372,4.2308207,4.758876,0.8264629,4.3721356,6.96415,13.102715,-23.825596,55.12386,2.037746,3.4481664,6.562484,-3.7761416,-15.18424,33.72829,61.56021,-9.2181635,4.9052954,-0.46683723
49,-2.2371938228607178,0.898451566696167,78.4245376586914,-0.4899022643178124,0.41706271725507715,-4.661314856912119,2.2816274,4.363785,9.339087,7.9626307,-10.49449,-5.169527,-2.855309,-5.1955905,-10.77737,10.930627,-8.963148,4.2409744,4.7620616,0.8503238,4.39214,6.961991,13.128787,-23.781775,55.087826,2.0481563,3.448858,6.5377736,-3.81393,-15.233247,33.710655,61.587307,-9.196668,4.888612,-0.50485665
50,-2.223940849304199,0.8923588991165161,78.42693328857422,-0.4955163857552242,0.42905964646044137,-4.553420904041646,2.2299404,4.3602905,9.229592,8.005446,-10.499801,-5.180429,-2.8124106,-5.2095194,-10.883785,10.89309,-8.964984,4.253381,4.7703385,0.8749697,4.395001,6.952088,13.145725,-23.756954,55.076866,2.0620368,3.4512625,6.506448,-3.8468177,-15.267283,33.697006,61.62339,-9.16852,4.8671913,-0.5441444
51,-2.2147915363311768,0.8859828114509583,78.4255142211914,-0.5033112440723094,0.4402495878920892,-4.447149564342131,2.1778538,4.360537,9.120695,8.053429,-10.508974,-5.192952,-2.767791,-5.219499,-10.989582,10.853887,-8.964628,4.2629123,4.7767024,0.9006731,4.395391,6.9391065,13.159576,-23.737806,55.0743,2.0771873,3.456784,6.476322,-3.8874643,-15.295687,33.684242,61.663414,-9.141466,4.8469567,-0.57959384
52,-2.2011470794677734,0.881420910358429,78.42233276367188,-0.5116079619161096,0.44893413935583154,-4.344200503707196,2.128924,4.3630877,9.017284,8.104761,-10.521814,-5.2035236,-2.7233686,-5.227938,-11.092639,10.821017,-8.968599,4.2645445,4.782792,0.9261614,4.4049263,6.935597,13.181532,-23.726519,55.053802,2.0857792,3.4695213,6.459258,-3.9126403,-15.34228,33.665813,61.66038,-9.121341,4.8405185,-0.60814595
53,-2.189267158508301,0.8766763806343079,78.41883850097656,-0.5221288906148093,0.45427422511729576,-4.244386940885595,2.0815423,4.371171,8.919962,8.166313,-10.541546,-5.213695,-2.6789594,-5.2325654,-11.193887,10.796803,-8.977578,4.2516828,4.7869725,0.95418835,4.4123454,6.9267855,13.196163,-23.731897,55.04611,2.083579,3.496172,6.4702315,-3.9484234,-15.374709,33.644302,61.665874,-9.117997,4.851766,-0.63399094
54,-2.176961660385132,0.8725472688674927,78.41578674316406,-0.5350443140040608,0.4572027834987454,-4.1471394402464,2.0358691,4.3839965,8.82649,8.234428,-10.56645,-5.2245584,-2.6343324,-5.233287,-11.293691,10.778149,-8.98908,4.2287664,4.7978716,0.9846416,4.4266114,6.919115,13.218049,-23.756025,55.027336,2.0732613,3.5343184,6.495131,-3.9659588,-15.426202,33.60994,61.63003,-9.1244545,4.8765736,-0.65146524
55,-2.164105176925659,0.8654928803443909,78.41656494140625,-0.5465472666647112,0.45925714264109435,-4.053037675148564,1.9923126,4.395617,8.736741,8.30292,-10.593656,-5.231813,-2.5897174,-5.2348433,-11.390097,10.760884,-9.002774,4.2072306,4.8067784,1.0121975,4.4395676,6.9118104,13.236192,-23.782484,55.017666,2.0619938,3.5658364,6.521401,-3.989385,-15.471971,33.575146,61.59557,-9.129054,4.9008336,-0.66715825
56,-2.149209976196289,0.8600062727928162,78.41920471191406,-0.55284280140002,0.4617674452397168,-3.9627005690394363,1.9523038,4.399991,8.650713,8.3640175,-10.619875,-5.2312307,-2.5446687,-5.2416525,-11.480834,10.739509,-9.017576,4.1984963,4.8120027,1.0313307,4.448753,6.909071,13.24893,-23.79842,55.020405,2.0570867,3.5735886,6.53341,-4.02288,-15.504653,33.54163,61.572586,-9.121436,4.9120283,-0.6840537
57,-2.1333954334259033,0.8519858121871948,78.42338562011719,-0.5502089906996671,0.4649690148361819,-3.8747353257994113,1.9142947,4.39155,8.566951,8.419282,-10.647864,-5.2155166,-2.4987562,-5.2587123,-11.565827,10.713053,-9.035789,4.211016,4.8081083,1.0384407,4.450235,6.914395,13.254931,-23.798563,55.04393,2.0588555,3.5394878,6.522576,-4.075249,-15.519372,33.517456,61.57744,-9.088981,4.900678,-0.7069717
58,-2.1178946495056152,0.8465417623519897,78.4254150390625,-0.542021055663866,0.46715817052821806,-3.7898367034173455,1.8783557,4.3757296,8.486328,8.474001,-10.679764,-5.189148,-2.4501586,-5.2814765,-11.645788,10.681662,-9.055805,4.2368164,4.816269,1.0358458,4.4640317,6.922629,13.268985,-23.801815,55.05847,2.0646482,3.4810123,6.4955997,-4.1009545,-15.5500345,33.46509,61.53167,-9.05425,4.8804574,-0.7262304
59,-2.1098949909210205,0.8386989831924438,78.42481231689453,-0.5334490625024051,0.4703084047055766,-3.7101203618042318,1.8467897,4.359627,8.411147,8.520358,-10.707574,-5.1648273,-2.4049234,-5.3036003,-11.720682,10.652767,-9.076159,4.2630005,4.8185735,1.0309304,4.470562,6.9360933,13.279459,-23.800026,55.08081,2.0708227,3.421959,6.4676275,-4.1405425,-15.572376,33.424217,61.501198,-9.012578,4.857383,-0.74187267
60,-2.091874837875366,0.8307798504829407,78.42317962646484,-0.5304678695996876,0.47539726104453517,-3.6385745955017477,1.8216592,4.351843,8.344183,8.554372,-10.725816,-5.155563,-2.366076,-5.317121,-11.790269,10.630216,-9.094226,4.2764897,4.8140945,1.0289849,4.464403,6.9532266,13.282669,-23.795973,55.109825,2.0757594,3.3910563,6.45395,-4.1918993,-15.5796795,33.403236,61.4867,-8.975179,4.845298,-0.75143665
61,-2.0728421211242676,0.8263079524040222,78.42223358154297,-0.537327598106094,0.48287226793284305,-3.5765839786719047,1.8035504,4.3584576,8.287217,8.5746355,-10.731097,-5.1704454,-2.333116,-5.3162723,-11.854742,10.610948,-9.105346,4.2716465,4.82567,1.0345076,4.468571,6.971401,13.293026,-23.792847,55.1092,2.0899556,3.4073904,6.449953,-4.2320895,-15.605426,33.34867,61.434166,-8.972581,4.846891,-0.7297691
62,-2.0564048290252686,0.8191588521003723,78.42144012451172,-0.5489505851417524,0.49288695530208587,-3.5226789512807533,1.7913752,4.372477,8.238921,8.581883,-10.726307,-5.2005067,-2.3079123,-5.307812,-11.91349,10.599353,-9.11528,4.256297,4.826435,1.0406007,4.452444,6.993899,13.294961,-23.789097,55.12388,2.0980365,3.4504118,6.4596076,-4.285792,-15.612246,33.328476,61.404167,-8.963214,4.8590255,-0.7033254
63,-2.038773536682129,0.8128525018692017,78.42056274414062,-0.5615936140809549,0.5023172683653909,-3.474184233900159,1.7830522,4.3883305,8.195109,8.58631,-10.720981,-5.2323627,-2.2836502,-5.296968,-11.967652,10.589088,-9.124326,4.2369304,4.836391,1.0496323,4.4501414,7.0189633,13.299931,-23.784077,55.12093,2.1141367,3.4969351,6.468818,-4.33512,-15.63331,33.28078,61.351086,-8.971007,4.870787,-0.6681428
64,-2.020343065261841,0.8052820563316345,78.4180908203125,-0.5694319067506882,0.5095993773297085,-3.429362412548692,1.7773371,4.3979406,8.152991,8.592655,-10.721873,-5.2522845,-2.2610323,-5.2921405,-12.016596,10.585948,-9.139185,4.220404,4.8489428,1.052874,4.4496603,7.0360146,13.30494,-23.79174,55.135727,2.1208408,3.519289,6.4785323,-4.36514,-15.6609125,33.240604,61.27354,-8.965434,4.881619,-0.65210325
65,-2.005836009979248,0.7977464199066162,78.41450500488281,-0.5702354827662464,0.5146884057063965,-3.387739200667305,1.7725184,4.3980513,8.111183,8.603991,-10.731036,-5.254924,-2.2429252,-5.2967734,-12.0595875,10.596094,-9.163103,4.204707,4.8454795,1.046202,4.445129,7.053733,13.305697,-23.796951,55.177948,2.1216044,3.504026,6.4925194,-4.412725,-15.666609,33.23037,61.223694,-8.938858,4.8865166,-0.6694276
66,-1.9887827634811401,0.7941919565200806,78.41375732421875,-0.5677918908108556,0.5177957261163102,-3.350118627024482,1.7690383,4.3940163,8.070948,8.619909,-10.746262,-5.248122,-2.2267141,-5.3054814,-12.097603,10.614017,-9.192036,4.1874604,4.858027,1.0406457,4.4536557,7.061656,13.308969,-23.829153,55.223335,2.1115286,3.4678793,6.5123262,-4.447175,-15.690783,33.19947,61.145714,-8.908042,4.8887215,-0.69573253
67,-1.966477394104004,0.7871297001838684,78.41047668457031,-0.5638801055588434,0.5195859010154106,-3.316497797775902,1.7701379,4.388269,8.034343,8.631472,-10.762473,-5.2380977,-2.2091079,-5.3150167,-12.13175,10.630126,-9.221228,4.174885,4.8559294,1.0283343,4.4565554,7.078291,13.309444,-23.838905,55.273373,2.1091561,3.4280584,6.5241838,-4.4930058,-15.695678,33.192276,61.086273,-8.874711,4.8893185,-0.7297272
68,-1.9451035261154175,0.7770229578018188,78.41153717041016,-0.5612265528449977,0.5200126364840686,-3.2861611284974663,1.7784151,4.3844314,8.002406,8.6340065,-10.777044,-5.2309723,-2.1850028,-5.321162,-12.163805,10.634306,-9.246443,4.1732345,4.867892,1.0187804,4.4611664,7.094408,13.309855,-23.850756,55.310505,2.110266,3.4024627,6.520242,-4.5285354,-15.708555,33.17266,61.017014,-8.849498,4.887066,-0.74939495
69,-1.9306687116622925,0.7672978043556213,78.41377258300781,-0.5596874435508923,0.5179615770803979,-3.2597958669221487,1.7980218,4.3822823,7.975994,8.620809,-10.788873,-5.2267623,-2.149623,-5.3230844,-12.194121,10.618856,-9.266458,4.190822,4.884414,1.0060568,4.459184,7.1195536,13.309233,-23.84236,55.334095,2.1231,3.395765,6.48914,-4.558896,-15.713003,33.15955,60.95176,-8.834074,4.8836665,-0.7549579
70,-1.9088821411132812,0.7610198855400085,78.41705322265625,-0.5584445055749229,0.5127851782263518,-3.237193242202672,1.8274245,4.3804593,7.9540877,8.597179,-10.800651,-5.2227006,-2.1048815,-5.3225384,-12.222165,10.589197,-9.2828,4.2221093,4.9054694,0.99330026,4.464485,7.1541257,13.307174,-23.809942,55.33577,2.1558404,3.3987327,6.435155,-4.58762,-15.720267,33.13638,60.879475,-8.834429,4.877164,-0.74677473
71,-1.8857002258300781,0.7553749084472656,78.42084503173828,-0.558289441110685,0.5080845379983562,-3.2175306707814477,1.8578967,4.380565,7.935928,8.572527,-10.810874,-5.2209516,-2.0606546,-5.319839,-12.247421,10.557949,-9.296623,4.2524514,4.918472,0.98158723,4.4749527,7.191572,13.302884,-23.761166,55.32927,2.196967,3.407649,6.3772287,-4.616904,-15.731632,33.11877,60.79874,-8.83726,4.869323,-0.73328173
72,-1.863596796989441,0.7481359243392944,78.42102813720703,-0.5599907561843569,0.507315172383176,-3.20013018794491,1.8784994,4.3843384,7.920726,8.560498,-10.820761,-5.2236576,-2.0277517,-5.315086,-12.269165,10.539865,-9.310543,4.2670364,4.9298778,0.9711508,4.475114,7.217841,13.299856,-23.74472,55.34246,2.2120645,3.4183033,6.3417106,-4.645147,-15.736968,33.11329,60.729324,-8.822959,4.8591685,-0.72807837
73,-1.837554931640625,0.7446155548095703,78.4188003540039,-0.5645751720008454,0.5125643358581062,-3.1853772761235684,1.8861122,4.3934717,7.9095774,8.563567,-10.827596,-5.2329917,-2.010867,-5.307105,-12.285997,10.5390005,-9.32286,4.2577605,4.929809,0.9631419,4.473033,7.2337956,13.298023,-23.74226,55.371777,2.213273,3.4331763,6.3290806,-4.674381,-15.739281,33.11258,60.65976,-8.80216,4.844269,-0.72643405
74,-1.8194477558135986,0.7405239939689636,78.41333770751953,-0.5718194154637881,0.5202573088149559,-3.172504793129123,1.8859286,4.4073176,7.901381,8.579263,-10.834253,-5.2473044,-2.0007064,-5.2957473,-12.2999325,10.545639,-9.332668,4.2338943,4.923067,0.96341586,4.4715896,7.240766,13.287834,-23.757473,55.41151,2.1996136,3.4546847,6.336277,-4.709549,-15.74956,33.121975,60.591938,-8.767371,4.8275037,-0.7246317
75,-1.7991360425949097,0.7299299240112305,78.40858459472656,-0.5791811137225807,0.5291015769246177,-3.1624557492577363,1.8858945,4.421588,7.896183,8.592603,-10.838578,-5.2630067,-1.9948896,-5.2840867,-12.311162,10.556586,-9.3427305,4.206759,4.916161,0.9585493,4.4688363,7.2479463,13.284821,-23.770842,55.44802,2.1897068,3.4738126,6.34278,-4.7369566,-15.751641,33.126694,60.52286,-8.7404585,4.8091636,-0.72526443
76,-1.7832345962524414,0.7245725989341736,78.40579223632812,-0.5869610910233056,0.5352608991339562,-3.153272100907717,1.8847283,4.4368324,7.8898926,8.612941,-10.851163,-5.2769775,-1.984153,-5.271933,-12.323788,10.560834,-9.352391,4.1874666,4.9165688,0.9570996,4.4683204,7.2456684,13.278491,-23.800169,55.484993,2.1696112,3.4841633,6.3547,-4.7634554,-15.75432,33.136475,60.457703,-8.702942,4.795083,-0.7297212
77,-1.7678943872451782,0.7188300490379333,78.4065933227539,-0.5943681941931699,0.5371541412525279,-3.145704354392735,1.8887252,4.4517674,7.883638,8.631237,-10.869927,-5.288668,-1.9669908,-5.2602577,-12.33773,10.5594015,-9.363963,4.178567,4.9243608,0.95646775,4.470373,7.2380886,13.268981,-23.82621,55.521248,2.1617355,3.478114,6.3588934,-4.781283,-15.756441,33.142563,60.392357,-8.668929,4.782679,-0.7407963
78,-1.7510216236114502,0.7128996253013611,78.4089584350586,-0.6021640692087783,0.536313802593133,-3.1396899038907127,1.8938175,4.46755,7.877918,8.652673,-10.893957,-5.2997584,-1.9464202,-5.248178,-12.352168,10.554665,-9.37589,4.174258,4.9302907,0.9568589,4.480264,7.2350416,13.258846,-23.841291,55.541664,2.1665175,3.4638584,6.3605947,-4.7985773,-15.7574,33.14854,60.32422,-8.638702,4.7721915,-0.75517625
79,-1.7326099872589111,0.7082656025886536,78.41156005859375,-0.609015721227535,0.5361786257118647,-3.135841193003635,1.899659,4.482002,7.873317,8.670924,-10.917141,-5.309735,-1.9273751,-5.2369456,-12.364653,10.549599,-9.387867,4.1733894,4.934558,0.95390713,4.492138,7.2325697,13.255316,-23.84864,55.55279,2.1711955,3.446911,6.3584094,-4.8120785,-15.757141,33.153114,60.253803,-8.615064,4.762776,-0.7642084
80,-1.7126123905181885,0.7009300589561462,78.41407775878906,-0.6137114046713726,0.5391657667439993,-3.1344980791396413,1.9036466,4.492917,7.870102,8.684905,-10.935554,-5.3180704,-1.912147,-5.2274256,-12.373311,10.54304,-9.397301,4.174917,4.9367194,0.9505804,4.5021067,7.229431,13.248691,-23.859705,55.554554,2.1643145,3.4386714,6.358968,-4.8251443,-15.756089,33.16109,60.18768,-8.598838,4.7563076,-0.76287055
81,-1.6963675022125244,0.6968045830726624,78.41616821289062,-0.6150676544317427,0.5473190928557605,-3.1372001363436772,1.9062308,4.4977326,7.868447,8.689916,-10.945758,-5.3235536,-1.9013706,-5.2206097,-12.376402,10.531427,-9.401724,4.18169,4.9380646,0.95087284,4.497172,7.2145762,13.228562,-23.887808,55.572662,2.1289656,3.4421053,6.371635,-4.8375173,-15.75055,33.175156,60.1397,-8.590384,4.7549024,-0.74938864
82,-1.6821281909942627,0.6891947984695435,78.41444396972656,-0.6132762061129173,0.5588804139677939,-3.1434642087781897,1.9052415,4.4979653,7.8681335,8.693823,-10.953607,-5.326757,-1.8987887,-5.217602,-12.3744335,10.526371,-9.408014,4.1933403,4.936472,0.94618565,4.4952393,7.2069974,13.215449,-23.907478,55.567715,2.08732,3.452863,6.3810296,-4.847587,-15.744845,33.183002,60.087643,-8.598323,4.75464,-0.7202609
83,-1.6651431322097778,0.6819887161254883,78.4124984741211,-0.6117600512652734,0.5710694246750457,-3.150209687167658,1.9060048,4.498318,7.8693037,8.692671,-10.958434,-5.329969,-1.8952745,-5.213502,-12.37198,10.517177,-9.41203,4.203616,4.9368744,0.94341695,4.4878225,7.191271,13.195627,-23.930944,55.569977,2.0465553,3.463854,6.392624,-4.8575954,-15.732803,33.191082,60.050533,-8.610388,4.756198,-0.69079465
84,-1.6462944746017456,0.675561249256134,78.40925598144531,-0.613529723119523,0.5813522279188711,-3.1544926854161375,1.9075402,4.5042706,7.871752,8.695538,-10.966639,-5.3355165,-1.8899794,-5.206069,-12.372299,10.509717,-9.41765,4.2064114,4.937512,0.9400915,4.4869113,7.181052,13.1838665,-23.94339,55.553448,2.026445,3.470008,6.3970103,-4.8600187,-15.723421,33.203514,60.00306,-8.614848,4.75993,-0.6670112
85,-1.6278388500213623,0.6715191602706909,78.40447998046875,-0.620294623107022,0.5884223949050059,-3.1539987692921168,1.9108608,4.5186267,7.875458,8.703208,-10.97899,-5.344452,-1.8805226,-5.19327,-12.377975,10.503864,-9.426133,4.197853,4.943043,0.9385723,4.489917,7.168646,13.178931,-23.947712,55.52945,2.034391,3.4681315,6.391423,-4.8546104,-15.718844,33.21531,59.953014,-8.611063,4.764204,-0.65148306
86,-1.6129063367843628,0.6657137870788574,78.3994140625,-0.630105065097104,0.5938065367893254,-3.1508520032541654,1.9148402,4.53805,7.880508,8.71447,-10.994134,-5.3553877,-1.8689386,-5.1771326,-12.386366,10.4989605,-9.436345,4.181987,4.952797,0.9395918,4.496435,7.155698,13.176131,-23.94924,55.494183,2.059462,3.4630015,6.380723,-4.8427706,-15.715973,33.226048,59.900017,-8.603229,4.7705054,-0.6395068
87,-1.5987002849578857,0.6610379219055176,78.39969635009766,-0.6408377735757629,0.5994302529538001,-3.1485618239014204,1.9184992,4.5589266,7.886726,8.725774,-11.009478,-5.3670354,-1.8572,-5.159456,-12.394528,10.491815,-9.444575,4.1643395,4.9483075,0.9413523,4.4933443,7.14015,13.161013,-23.937773,55.474373,2.0898757,3.4534016,6.373506,-4.838418,-15.700055,33.267166,59.86929,-8.585394,4.779697,-0.6371342
88,-1.5869919061660767,0.6581061482429504,78.40164184570312,-0.6492640775559402,0.6075690231309716,-3.150829737504606,1.922181,4.576018,7.894392,8.730809,-11.020893,-5.3778405,-1.8501619,-5.144168,-12.398577,10.485229,-9.450148,4.1507487,4.9421287,0.9426434,4.49022,7.1263905,13.146562,-23.923416,55.45012,2.1139212,3.4395747,6.3689694,-4.8410974,-15.682416,33.304787,59.852356,-8.575525,4.784457,-0.6299909
89,-1.570040225982666,0.6566404104232788,78.40726470947266,-0.6551639807511841,0.6192897997000183,-3.16041779667938,1.9234172,4.589141,7.904351,8.732514,-11.030124,-5.3878417,-1.8504738,-5.1304274,-12.3965845,10.479749,-9.451718,4.1415677,4.948541,0.9412936,4.490685,7.1117663,13.142463,-23.921976,55.41512,2.123091,3.4174476,6.3682885,-4.824404,-15.676217,33.321804,59.813595,-8.578452,4.7861304,-0.6153186
90,-1.555778980255127,0.6520480513572693,78.41195678710938,-0.659731808963388,0.633482235622006,-3.1746088026335784,1.9236377,4.6001034,7.9162025,8.730176,-11.036977,-5.3976517,-1.8556542,-5.1177034,-12.3911,10.475004,-9.450582,4.134232,4.946295,0.93913454,4.483702,7.0976434,13.136241,-23.916119,55.38766,2.1250598,3.38704,6.372209,-4.8133183,-15.665086,33.357773,59.79181,-8.576351,4.786449,-0.6036649
91,-1.5396562814712524,0.6439816951751709,78.41503143310547,-0.6631703825474676,0.6482190119194123,-3.1894601697459692,1.9248475,4.6092596,7.9282713,8.724096,-11.041201,-5.4069066,-1.8607919,-5.1061096,-12.384347,10.46845,-9.448309,4.1294956,4.931295,0.9365069,4.4732184,7.090215,13.126127,-23.898392,55.355934,2.1261356,3.3602283,6.3782935,-4.8159122,-15.643362,33.409267,59.793972,-8.573613,4.7862163,-0.5940555
92,-1.5220487117767334,0.6341438293457031,78.41340637207031,-0.6659193524245076,0.6616375743704992,-3.2010818276204476,1.9289478,4.6170774,7.9390826,8.715497,-11.043608,-5.4152255,-1.8611466,-5.0961213,-12.378747,10.457867,-9.446542,4.128183,4.933327,0.9324384,4.471275,7.074496,13.122773,-23.895845,55.308983,2.125649,3.3496163,6.3820157,-4.798677,-15.634172,33.428032,59.774918,-8.583765,4.785977,-0.578194
93,-1.505906581878662,0.6290664076805115,78.41165924072266,-0.6673156019723052,0.6737994196760405,-3.2077399167336944,1.9385805,4.622069,7.9477844,8.698918,-11.040538,-5.422018,-1.8540611,-5.0884967,-12.373699,10.440373,-9.444994,4.1335106,4.910369,0.92335933,4.4577975,7.0639353,13.112941,-23.873009,55.264805,2.1230476,3.3630774,6.3878016,-4.8015785,-15.603581,33.48221,59.793995,-8.584123,4.791761,-0.5707898
94,-1.4928069114685059,0.6237961053848267,78.4089126586914,-0.6674514487137025,0.6852786358539991,-3.2123350359185268,1.9505991,4.625079,7.955782,8.67963,-11.035102,-5.427685,-1.8434001,-5.0831532,-12.367787,10.419634,-9.44349,4.144065,4.9022193,0.91337585,4.450882,7.0490694,13.108294,-23.861055,55.201878,2.1189425,3.394854,6.3913946,-4.785202,-15.585388,33.50948,59.79334,-8.596178,4.798204,-0.55579865
95,-1.479867696762085,0.6206029057502747,78.40680694580078,-0.6675487229182694,0.6961890765696166,-3.2153497527879913,1.963681,4.6277027,7.96282,8.657902,-11.028419,-5.433186,-1.831154,-5.0779233,-12.364629,10.396922,-9.44236,4.1536508,4.8997607,0.90542924,4.450785,7.0271544,13.107318,-23.860323,55.135902,2.1105711,3.426068,6.395603,-4.7574296,-15.580315,33.521343,59.77829,-8.611755,4.8029084,-0.5401314
96,-1.4655832052230835,0.6191052198410034,78.40568542480469,-0.6686388201591279,0.7063586418327238,-3.217345229413731,1.9754754,4.6318583,7.968701,8.637508,-11.023639,-5.439551,-1.8206912,-5.0716724,-12.368222,10.37735,-9.444002,4.1561036,4.8881135,0.8963384,4.4495597,6.9977574,13.106381,-23.86517,55.092144,2.0972412,3.4391031,6.404238,-4.731811,-15.570972,33.54475,59.772152,-8.617692,4.8043985,-0.5377561
97,-1.454897403717041,0.6170690059661865,78.40533447265625,-0.6713159561075631,0.7155520006770518,-3.2169453479414627,1.984904,4.6389394,7.9727674,8.619014,-11.021499,-5.4472365,-1.814103,-5.064117,-12.382994,10.364761,-9.45114,4.147499,4.8679156,0.89013803,4.4520583,6.9593916,13.1065855,-23.88386,55.071396,2.0734758,3.4216769,6.4196367,-4.715697,-15.560857,33.573906,59.780052,-8.609768,4.795237,-0.55217063
98,-1.4428192377090454,0.6110650300979614,78.40522766113281,-0.674959306038882,0.7241132410005615,-3.2143102553068905,1.9930634,4.6474175,7.9753375,8.601397,-11.020957,-5.455568,-1.8084346,-5.0557804,-12.406053,10.354435,-9.46152,4.1318593,4.8449636,0.8837343,4.451393,6.910522,13.109144,-23.92488,55.07374,2.0327487,3.385728,6.4429536,-4.70733,-15.542615,33.61003,59.809704,-8.587243,4.778914,-0.58212703
99,-1.4327621459960938,0.604266881942749,78.40401458740234,-0.6784425745090809,0.7326506060168464,-3.212636312339817,2.0005674,4.655528,7.9776607,8.583769,-11.020401,-5.46417,-1.8042554,-5.0474753,-12.428583,10.344682,-9.471388,4.115032,4.826068,0.8762055,4.4530826,6.85924,13.114487,-23.96838,55.076332,1.9979311,3.3497458,6.4652963,-4.6986074,-15.522808,33.63475,59.843628,-8.573779,4.764253,-0.6094005
100,-1.4224157333374023,0.6017656922340393,78.40149688720703,-0.6807495302369707,0.7419308583867256,-3.2149089914070395,2.0085385,4.66144,7.980729,8.563871,-11.017529,-5.472495,-1.8012273,-5.039898,-12.442131,10.33342,-9.477271,4.102849,4.8096895,0.86950886,4.4580536,6.816494,13.118775,-23.995186,55.060204,1.984891,3.3314152,6.4811764,-4.6807556,-15.511809,33.64992,59.861988,-8.579651,4.7630906,-0.6198501
101,-1.411612629890442,0.5988345146179199,78.40406036376953,-0.681198849248959,0.7521830513593527,-3.2229378266666893,2.0184445,4.6635504,7.9840837,8.538987,-11.010656,-5.4815936,-1.7990147,-5.0333796,-12.444575,10.317736,-9.476176,4.0961404,4.8016467,0.86104935,4.4574084,6.7847614,13.124916,-24.01611,55.025574,1.9942243,3.3416414,6.4919543,-4.659342,-15.497967,33.65679,59.8853,-8.611542,4.782306,-0.61095846
102,-1.4001597166061401,0.5939348340034485,78.40861511230469,-0.6805863097311493,0.7629580160268611,-3.23458794772659,2.0280712,4.6633387,7.987193,8.512834,-11.001884,-5.4912753,-1.7980809,-5.0277915,-12.4402485,10.300433,-9.471244,4.0921364,4.792929,0.85570365,4.4589424,6.761102,13.127654,-24.021965,54.976315,2.0266736,3.3676858,6.497414,-4.636887,-15.492456,33.660194,59.904484,-8.661134,4.8144765,-0.5863744
103,-1.3902347087860107,0.5898652076721191,78.41180419921875,-0.6799201145001842,0.7744313888422286,-3.2477674148398763,2.0373743,4.662938,7.992074,8.486206,-10.992777,-5.499498,-1.7983131,-5.0218534,-12.4310255,10.282548,-9.4645815,4.0909023,4.78659,0.8494371,4.459282,6.7386217,13.130042,-24.025248,54.92488,2.0578818,3.3968,6.5024905,-4.6096973,-15.4879055,33.660744,59.921238,-8.710341,4.848506,-0.5593593
104,-1.3811858892440796,0.5840624570846558,78.41386413574219,-0.6805134866497183,0.7875211774013745,-3.2597684859040448,2.041757,4.6652484,7.999822,8.46599,-10.986994,-5.5042124,-1.8010721,-5.014633,-12.419054,10.265501,-9.458027,4.0926657,4.782232,0.8379778,4.458901,6.7182293,13.138445,-24.026962,54.872353,2.0726988,3.4135594,6.508091,-4.589636,-15.473696,33.65603,59.95201,-8.7444935,4.8681993,-0.5387978
105,-1.3737473487854004,0.57967609167099,78.41618347167969,-0.683243282254216,0.8028961426798503,-3.26996958230673,2.0382144,4.6719155,8.011963,8.456918,-10.987158,-5.5029936,-1.8063636,-5.0050406,-12.403041,10.248905,-9.452247,4.1003,4.7747726,0.83019215,4.45973,6.702464,13.141875,-24.02046,54.816154,2.0631351,3.4107604,6.520148,-4.5719905,-15.468082,33.653946,59.982887,-8.751185,4.867457,-0.522038
106,-1.3668512105941772,0.5779908299446106,78.4138412475586,-0.6869265422451674,0.8195041673917003,-3.2792494031180817,2.0305862,4.6807137,8.026993,8.453029,-10.989866,-5.4974833,-1.814269,-4.9946394,-12.382796,10.234212,-9.447214,4.1129236,4.7681704,0.8233428,4.4593105,6.688958,13.142992,-24.012308,54.7593,2.0370586,3.3966978,6.5358806,-4.5554714,-15.46616,33.651566,60.017776,-8.741102,4.8557744,-0.50647515
107,-1.3609850406646729,0.5817112326622009,78.40830993652344,-0.6910927386216421,0.8360839738233838,-3.288398802563917,2.0226429,4.6899886,8.042652,8.449869,-10.993009,-5.4919295,-1.8224733,-4.983868,-12.361467,10.21942,-9.441077,4.1246305,4.7606683,0.81690276,4.4584484,6.6766186,13.143473,-24.004986,54.704777,2.0095081,3.3819807,6.54759,-4.540303,-15.46539,33.649307,60.055946,-8.725266,4.842352,-0.49614432
108,-1.3552255630493164,0.5806000828742981,78.40557861328125,-0.694929433978445,0.8538480122695722,-3.299919304287507,2.0147858,4.698462,8.05826,8.44229,-10.9931965,-5.490623,-1.8350743,-4.9736238,-12.340456,10.208343,-9.434486,4.129276,4.747246,0.8116092,4.4646077,6.661146,13.145805,-23.982906,54.649555,1.9986104,3.3754787,6.542134,-4.5347085,-15.463157,33.644764,60.100185,-8.715092,4.8304186,-0.49330878
109,-1.351473331451416,0.5756164193153381,78.40623474121094,-0.6980523867057526,0.8686694959092753,-3.310608724850233,2.0126326,4.704481,8.070343,8.42803,-10.989444,-5.495917,-1.849439,-4.9660797,-12.322255,10.207579,-9.43037,4.122603,4.731917,0.8093687,4.466503,6.643781,13.148961,-23.975752,54.60767,1.9971489,3.379353,6.514804,-4.5277896,-15.461555,33.6459,60.149273,-8.699989,4.8335147,-0.50617254
110,-1.3420490026474,0.5754886865615845,78.40721893310547,-0.7003491434925089,0.8822891585370777,-3.321731224931878,2.0150962,4.708692,8.081929,8.40507,-10.980544,-5.5050917,-1.8661916,-4.960331,-12.30418,10.213925,-9.427994,4.1087155,4.7173843,0.8103192,4.4681826,6.62266,13.153041,-23.977312,54.571655,1.9993773,3.3907247,6.469714,-4.5262775,-15.460522,33.64935,60.209076,-8.676695,4.8402605,-0.5311528
111,-1.334969162940979,0.5734764337539673,78.41173553466797,-0.7022360713868815,0.8968293036271372,-3.3339558439353283,2.0169547,4.7117867,8.093117,8.381403,-10.971628,-5.514438,-1.8836756,-4.9551415,-12.28755,10.217994,-9.424136,4.095109,4.704932,0.808701,4.4680843,6.6024504,13.162323,-23.989342,54.540043,1.9991958,3.4030526,6.4293947,-4.523884,-15.459636,33.652847,60.27025,-8.655416,4.849129,-0.5588092
112,-1.3308969736099243,0.5720475316047668,78.41305541992188,-0.7034597188565332,0.9123847664116014,-3.3476651596183804,2.0139477,4.7146597,8.1035595,8.364073,-10.966129,-5.520217,-1.8992656,-4.9495606,-12.274198,10.214113,-9.418719,4.0894885,4.6893272,0.8039358,4.4675937,6.5885396,13.163622,-23.992802,54.516388,2.0106137,3.4095495,6.415608,-4.5179753,-15.45985,33.654022,60.324146,-8.652533,4.857759,-0.5758325
113,-1.324297308921814,0.5714205503463745,78.41212463378906,-0.7017479634208221,0.9348528851358546,-3.3658277897800186,2.0046694,4.713815,8.115324,8.34321,-10.959175,-5.5202723,-1.9186015,-4.9452705,-12.263691,10.198714,-9.410439,4.0971675,4.6811056,0.7956449,4.466148,6.5615873,13.167811,-24.006054,54.5077,2.0211244,3.4136815,6.4319005,-4.522872,-15.460805,33.65795,60.389545,-8.661181,4.861161,-0.5874953
114,-1.321589469909668,0.5695751905441284,78.41072845458984,-0.6987685071527002,0.9586769314917188,-3.3852515800532625,1.9915404,4.7114406,8.125275,8.3251915,-10.95385,-5.517159,-1.936272,-4.941647,-12.257674,10.174742,-9.400214,4.1131167,4.6720943,0.78066254,4.4642024,6.539777,13.174255,-24.022852,54.505917,2.0372362,3.413552,6.475402,-4.5244308,-15.462956,33.66118,60.44946,-8.686111,4.8659987,-0.59164286
115,-1.3169825077056885,0.5674653649330139,78.41046142578125,-0.6962893734165866,0.9825866428428974,-3.406035679667043,1.9777246,4.7096176,8.137085,8.309988,-10.950547,-5.5133576,-1.9538976,-4.9373364,-12.250594,10.149693,-9.389495,4.128913,4.663624,0.76623446,4.462182,6.522392,13.18126,-24.038412,54.50327,2.0524364,3.4119003,6.520938,-4.525867,-15.466162,33.662376,60.507927,-8.712902,4.868546,-0.59317803
116,-1.3129769563674927,0.5658090114593506,78.4113540649414,-0.6964298837535677,1.0033401976048366,-3.4276837245253082,1.967593,4.711647,8.153519,8.297252,-10.948883,-5.5115104,-1.9710027,-4.9307203,-12.23746,10.130752,-9.379925,4.1361465,4.656185,0.7580969,4.460969,6.508064,13.186665,-24.053946,54.496773,2.0549407,3.409254,6.5487175,-4.528341,-15.469406,33.658123,60.568886,-8.730175,4.8656178,-0.5952947
117,-1.304628849029541,0.5681997537612915,78.4127426147461,-0.7010836550617167,1.0203462755836201,-3.4498880220144494,1.9603034,4.719538,8.175716,8.291628,-10.951195,-5.512257,-1.9884982,-4.9202876,-12.214463,10.121664,-9.371398,4.1295896,4.653161,0.7587275,4.46013,6.5003695,13.196603,-24.07297,54.47821,2.0430667,3.4044771,6.5488725,-4.5293655,-15.476559,33.639675,60.631695,-8.736823,4.851116,-0.5954364
118,-1.2997323274612427,0.5681189894676208,78.41118621826172,-0.708461053605087,1.0352762831123132,-3.4731465236253367,1.9544203,4.7313585,8.202241,8.291231,-10.956537,-5.514252,-2.006739,-4.9074,-12.1847315,10.118531,-9.36335,4.114768,4.652572,0.76439637,4.4616866,6.498268,13.209659,-24.090937,54.4496,2.0222054,3.3975203,6.5321813,-4.5281906,-15.487845,33.60903,60.69131,-8.740276,4.8278356,-0.5917974
119,-1.2962353229522705,0.5678446888923645,78.40892028808594,-0.7159717502703078,1.0482703121234436,-3.496645131663795,1.951535,4.743335,8.23063,8.289429,-10.961727,-5.5169497,-2.0228317,-4.894584,-12.155971,10.115355,-9.356187,4.0993414,4.6425743,0.7722365,4.461115,6.5010867,13.214305,-24.095673,54.42821,2.0053296,3.3907485,6.511979,-4.536158,-15.492744,33.592308,60.760136,-8.738878,4.809277,-0.592418
120,-1.2951815128326416,0.5706279873847961,78.40650177001953,-0.7209441402256552,1.0600661007818588,-3.519042163321694,1.9505619,4.75207,8.257539,8.285206,-10.966557,-5.519789,-2.0338705,-4.884324,-12.136067,10.104966,-9.349372,4.090994,4.645613,0.7753618,4.468013,6.4995074,13.226241,-24.108335,54.409866,1.9951788,3.3865774,6.4946284,-4.5337734,-15.507273,33.55972,60.80609,-8.745397,4.804539,-0.5926139
121,-1.2926435470581055,0.5726312398910522,78.40736389160156,-0.7222397871226197,1.0694638356249544,-3.5402280026407564,1.9553546,4.755663,8.283663,8.272986,-10.969744,-5.5225034,-2.0366318,-4.8780575,-12.130589,10.083725,-9.344468,4.093597,4.6438932,0.7735503,4.474233,6.500671,13.231749,-24.108923,54.405373,1.9992563,3.3862534,6.485936,-4.537945,-15.516004,33.545364,60.853477,-8.752499,4.823963,-0.60219467
122,-1.2895914316177368,0.5726777911186218,78.40789794921875,-0.7212949504180974,1.0764655297605292,-3.5608524331785816,1.964129,4.7566185,8.310067,8.257461,-10.973051,-5.525481,-2.033295,-4.8740087,-12.134082,10.055958,-9.341208,4.1024337,4.647229,0.7687698,4.4879913,6.50459,13.240396,-24.104635,54.398193,2.0127585,3.389203,6.4776645,-4.5325794,-15.534637,33.52653,60.876194,-8.764343,4.8599553,-0.6138967
123,-1.2859967947006226,0.5759847164154053,78.40877532958984,-0.719928867786266,1.0836309385264582,-3.5808732264086376,1.9724634,4.756679,8.335135,8.240806,-10.974467,-5.5289917,-2.030402,-4.8707585,-12.138108,10.028156,-9.336956,4.1123633,4.6457014,0.76423347,4.499561,6.5073514,13.245893,-24.100218,54.403687,2.027156,3.3914979,6.4705815,-4.5328956,-15.550699,33.514828,60.903503,-8.773763,4.897475,-0.6263652
124,-1.2810132503509521,0.5765658020973206,78.40869140625,-0.7194374147212488,1.093465712585498,-3.5999584421177118,1.974265,4.757587,8.356698,8.229606,-10.974741,-5.533348,-2.0353427,-4.867351,-12.134663,10.010545,-9.331887,4.118402,4.6338043,0.7578222,4.503146,6.5093694,13.2472515,-24.10068,54.425293,2.0379672,3.3922799,6.466258,-4.539767,-15.554761,33.511326,60.94451,-8.781087,4.92299,-0.6385766
125,-1.2790189981460571,0.5767702460289001,78.4110107421875,-0.7216580772646625,1.107526951039266,-3.618980504123379,1.9685453,4.761122,8.373945,8.221322,-10.970268,-5.540257,-2.047682,-4.860556,-12.119533,9.995968,-9.317657,4.1177125,4.6145167,0.7585246,4.509724,6.498379,13.250617,-24.113028,54.4655,2.0417113,3.3839788,6.4540324,-4.5655985,-15.56328,33.50314,60.997288,-8.784101,4.930696,-0.6382858
126,-1.2745260000228882,0.5786722302436829,78.41216278076172,-0.724334317309409,1.1243997449023144,-3.636656318482291,1.9567887,4.764948,8.386804,8.216507,-10.963106,-5.5487757,-2.0674677,-4.8540106,-12.098369,9.989997,-9.301484,4.113795,4.609381,0.75880295,4.5162883,6.4763384,13.264286,-24.164076,54.515812,2.0306828,3.3745496,6.444291,-4.5619674,-15.593992,33.473988,61.01375,-8.7846575,4.929372,-0.63243234
127,-1.2708747386932373,0.5791568756103516,78.4129409790039,-0.7274189660004382,1.141226354846693,-3.654585308781441,1.9437917,4.7691226,8.400026,8.214263,-10.957148,-5.556265,-2.0884771,-4.8473263,-12.074704,9.986531,-9.285961,4.109682,4.6003327,0.75900817,4.5223155,6.4603705,13.278133,-24.207575,54.56359,2.0193434,3.3654888,6.4325814,-4.559955,-15.622871,33.446774,61.028564,-8.789244,4.9231977,-0.62335026
128,-1.2692286968231201,0.5808988213539124,78.41065216064453,-0.729627488405109,1.155033458066928,-3.6739573839971817,1.935976,4.772487,8.41806,8.210659,-10.954598,-5.55982,-2.1057057,-4.841814,-12.051859,9.981925,-9.275025,4.108725,4.5917773,0.75852853,4.528149,6.455411,13.288592,-24.231018,54.598686,2.0091078,3.3607924,6.4194803,-4.56231,-15.645219,33.424656,61.04549,-8.800189,4.916521,-0.6121936
129,-1.2677726745605469,0.5853267312049866,78.41043090820312,-0.7312050795307994,1.1640999208476295,-3.6954592900370797,1.9355875,4.7753396,8.444075,8.206716,-10.958959,-5.5580378,-2.1176462,-4.837597,-12.030026,9.977184,-9.273026,4.1131005,4.5913134,0.7584676,4.5380154,6.4661517,13.299042,-24.23185,54.608177,1.9939889,3.3630905,6.4015713,-4.553943,-15.673767,33.397617,61.043083,-8.826254,4.9084845,-0.59258956
130,-1.267257571220398,0.5862607359886169,78.4115982055664,-0.7324368110853923,1.1704663616217026,-3.7182077748862588,1.939208,4.7781262,8.474929,8.203283,-10.967609,-5.552714,-2.12722,-4.8342514,-12.007753,9.973953,-9.276905,4.1205897,4.59,0.75702316,4.536685,6.482531,13.300346,-24.222137,54.625385,1.9695762,3.3692427,6.38644,-4.5608654,-15.679716,33.387787,61.07139,-8.852358,4.897419,-0.5750854
131,-1.2665338516235352,0.5895599722862244,78.4100570678711,-0.7332145800027207,1.1761639514898112,-3.7415585071645694,1.9425042,4.7803025,8.505868,8.202128,-10.977658,-5.5456576,-2.1361465,-4.831362,-11.985591,9.970209,-9.280185,4.1279063,4.585379,0.7582706,4.5534496,6.5111947,13.304718,-24.183819,54.61071,1.967612,3.3764024,6.363127,-4.5571933,-15.708171,33.36051,61.05747,-8.894336,4.88613,-0.5480402
132,-1.2581079006195068,0.5937744975090027,78.40687561035156,-0.7331777171493732,1.1843472438576217,-3.7641957589748216,1.9417388,4.78137,8.531689,8.20157,-10.984041,-5.5388927,-2.150227,-4.8294377,-11.964692,9.971764,-9.280787,4.1316915,4.5804486,0.75658584,4.55441,6.5288987,13.305624,-24.17255,54.623306,1.9645661,3.3804836,6.3532486,-4.5653114,-15.715826,33.350197,61.07252,-8.913135,4.878896,-0.53996044
133,-1.2526122331619263,0.5947040319442749,78.40648651123047,-0.7315840197462625,1.1965222854987785,-3.786241774726808,1.9316199,4.7800217,8.5493,8.208153,-10.988161,-5.5308604,-2.169784,-4.829213,-11.94633,9.975414,-9.274007,4.1298275,4.570418,0.75261223,4.554124,6.541885,13.306988,-24.165989,54.642033,1.9863969,3.3788085,6.3512077,-4.57587,-15.72459,33.34021,61.082726,-8.918484,4.8767447,-0.5460087
134,-1.2480891942977905,0.594462513923645,78.40748596191406,-0.7286432421910293,1.2106364992247831,-3.808142302342722,1.9179497,4.776775,8.562112,8.21549,-10.9889345,-5.521179,-2.1935322,-4.830611,-11.929585,9.982583,-9.263741,4.124527,4.5615263,0.7491213,4.5578866,6.5538044,13.310401,-24.164045,54.65553,2.0253654,3.3737252,6.3523674,-4.5821295,-15.741856,33.325386,61.07583,-8.915954,4.876452,-0.557361
135,-1.247791051864624,0.5974906086921692,78.40780639648438,-0.7266228636234063,1.2246453505373749,-3.829650416087035,1.9036293,4.7750244,8.5743685,8.224593,-10.990637,-5.5136623,-2.2168207,-4.830642,-11.912026,9.989679,-9.252812,4.1188626,4.554758,0.744069,4.560864,6.5635195,13.314936,-24.170242,54.670506,2.0627003,3.3717515,6.3577967,-4.5810914,-15.756577,33.309998,61.057434,-8.911666,4.881654,-0.57453215
136,-1.2463594675064087,0.5996453762054443,78.41018676757812,-0.7276073691957111,1.2359237747793905,-3.8499364158594753,1.8957633,4.777574,8.5899315,8.227742,-10.991903,-5.511999,-2.2343245,-4.8266263,-11.891979,9.99273,-9.243371,4.11603,4.5424433,0.7418802,4.5605435,6.569171,13.31731,-24.175749,54.6977,2.0825117,3.3733811,6.359519,-4.5917416,-15.762237,33.305645,61.057796,-8.908371,4.8839803,-0.58915395
137,-1.2425116300582886,0.6023950576782227,78.41178894042969,-0.7340095591140797,1.2437765165157382,-3.8683249517742273,1.8969148,4.7879596,8.610706,8.223255,-10.993705,-5.519863,-2.2449,-4.8153896,-11.8663025,9.9922905,-9.23652,4.117316,4.5292034,0.7451217,4.563622,6.5690413,13.32061,-24.186312,54.72949,2.0749218,3.3833723,6.3546658,-4.604516,-15.768129,33.30436,61.057285,-8.910909,4.884438,-0.5977605
138,-1.2416242361068726,0.6021313667297363,78.41168212890625,-0.7439079832382126,1.2493583982092165,-3.8853943352169926,1.9032815,4.8034043,8.634403,8.213896,-10.99521,-5.534306,-2.250477,-4.7991357,-11.83702,9.987575,-9.229224,4.120952,4.529588,0.7519394,4.57223,6.562715,13.340706,-24.226967,54.754333,2.0346527,3.3991895,6.345822,-4.592558,-15.79852,33.296497,61.01795,-8.907495,4.88521,-0.6013653
139,-1.2343107461929321,0.6052969694137573,78.4090805053711,-0.7534978827035704,1.2537854058251932,-3.9027119199468134,1.9122578,4.818403,8.658895,8.202696,-10.996749,-5.549341,-2.2542136,-4.783414,-11.808628,9.982479,-9.224384,4.125261,4.5147514,0.75814325,4.5775785,6.557698,13.344901,-24.238668,54.791805,2.009974,3.4142418,6.337333,-4.606658,-15.8036585,33.300137,61.0143,-8.911579,4.885708,-0.6059366
140,-1.2302786111831665,0.6046000123023987,78.4081039428711,-0.7589174967109923,1.2584449015453008,-3.9222908421800295,1.919758,4.8273864,8.682547,8.194889,-11.000099,-5.558865,-2.258475,-4.773135,-11.7851925,9.9763,-9.221599,4.128548,4.515487,0.7594814,4.5880075,6.560429,13.368087,-24.268932,54.805344,1.980927,3.4253986,6.333006,-4.595388,-15.828947,33.295074,60.97268,-8.904816,4.8889694,-0.6063297
141,-1.2289985418319702,0.6088057160377502,78.40522766113281,-0.7570379244458475,1.262590934861669,-3.945121830870335,1.9264244,4.825441,8.704951,8.1902275,-11.004804,-5.5596495,-2.2630932,-4.772724,-11.7708,9.969324,-9.223858,4.130562,4.511824,0.75573087,4.597089,6.565459,13.374928,-24.273134,54.825916,1.9848887,3.4281645,6.336539,-4.599598,-15.835472,33.28978,60.95432,-8.905063,4.8959713,-0.6087839
142,-1.2248716354370117,0.6121280193328857,78.40467834472656,-0.7506553021366281,1.2658743094433715,-3.9701718112881688,1.9334655,4.8168616,8.727102,8.186802,-11.010415,-5.5554986,-2.2664897,-4.778394,-11.762025,9.960437,-9.229543,4.132101,4.5117273,0.7481504,4.607447,6.573815,13.378964,-24.273533,54.84222,1.999428,3.4272485,6.3457737,-4.6012897,-15.838735,33.283154,60.932106,-8.90498,4.9070425,-0.6118227
143,-1.2205159664154053,0.612589418888092,78.40591430664062,-0.7445542214893835,1.2698033823337094,-3.9957299296600244,1.9392558,4.8087687,8.749069,8.185133,-11.0168705,-5.550778,-2.2709324,-4.783571,-11.752831,9.952217,-9.234646,4.13329,4.5172772,0.7391152,4.6204977,6.5820312,13.3905325,-24.272518,54.852352,2.0161982,3.4235637,6.3524036,-4.5987344,-15.846562,33.26732,60.901844,-8.9023285,4.914148,-0.6062974
144,-1.214691400527954,0.6122660636901855,78.40850830078125,-0.743872453287069,1.275365559707947,-4.020522801260652,1.943552,4.8086267,8.771314,8.183212,-11.023097,-5.5499244,-2.2757893,-4.7806234,-11.736921,9.942403,-9.233179,4.1341176,4.5216737,0.73477733,4.629881,6.5879736,13.400049,-24.272255,54.86501,2.0254653,3.421417,6.357493,-4.594465,-15.851639,33.25698,60.87068,-8.887807,4.915863,-0.5923574
145,-1.2086554765701294,0.6117055416107178,78.40827178955078,-0.7512492220212348,1.2833429984141338,-4.0424367361548565,1.9452664,4.820277,8.791945,8.181196,-11.028526,-5.555493,-2.2826295,-4.766402,-11.710985,9.934157,-9.223169,4.135625,4.52124,0.74109226,4.6296787,6.590813,13.402248,-24.272177,54.888496,2.0252292,3.4202292,6.3592873,-4.5976434,-15.852477,33.255882,60.858685,-8.857288,4.9031467,-0.56783503
146,-1.2046458721160889,0.6090539693832397,78.40772247314453,-0.7651356466918945,1.294052925949656,-4.067417092870886,1.9433209,4.8421755,8.816016,8.18225,-11.035294,-5.5654116,-2.2892754,-4.7411838,-11.674682,9.918083,-9.202284,4.1365542,4.5275316,0.74504524,4.6298857,6.5853353,13.420364,-24.273212,54.915268,2.0136273,3.4136512,6.3532205,-4.600755,-15.85791,33.25509,60.838047,-8.804734,4.8783245,-0.5221303
147,-1.1992498636245728,0.6097846031188965,78.40653991699219,-0.7786893362392447,1.3046117490816143,-4.090218418667747,1.941621,4.863328,8.838416,8.181998,-11.041487,-5.574597,-2.2970288,-4.7173543,-11.640746,9.905789,-9.183059,4.136703,4.5306406,0.75371253,4.626579,6.582867,13.4284725,-24.273146,54.940964,2.0043867,3.410249,6.350591,-4.604325,-15.859605,33.257072,60.823753,-8.754156,4.8572245,-0.47896475
148,-1.1958057880401611,0.6101178526878357,78.40602111816406,-0.7874521484221965,1.3142330303003582,-4.112361378163163,1.9417411,4.8773527,8.860672,8.179018,-11.047121,-5.5791645,-2.3052423,-4.7009997,-11.615446,9.896462,-9.170266,4.1343904,4.534444,0.75711066,4.626939,6.5802913,13.439454,-24.271805,54.9605,1.9968501,3.40644,6.347729,-4.606638,-15.86091,33.26095,60.803257,-8.705816,4.848041,-0.4404232
149,-1.1933043003082275,0.6134395003318787,78.40609741210938,-0.7885645040527187,1.3218229409479532,-4.13392568839326,1.9455042,4.8802323,8.883235,8.170641,-11.051629,-5.5764,-2.313737,-4.696185,-11.602991,9.890542,-9.166389,4.1273937,4.540611,0.7568773,4.6300673,6.5791073,13.444654,-24.269905,54.975204,1.9946836,3.402904,6.3480988,-4.6082573,-15.861054,33.263256,60.78024,-8.662057,4.856319,-0.40843543
150,-1.1901977062225342,0.613713800907135,78.41043090820312,-0.7851976783299401,1.3283938288155925,-4.155247568056982,1.9526857,4.876509,8.906344,8.156753,-11.054626,-5.5691094,-2.3228846,-4.6982822,-11.598337,9.887839,-9.168234,4.1169405,4.542392,0.7446942,4.641213,6.590129,13.469903,-24.257082,54.964653,1.9923313,3.3991601,6.3432446,-4.6110897,-15.859676,33.274715,60.745186,-8.612478,4.875865,-0.37798646
151,-1.1861186027526855,0.6142274737358093,78.4110336303711,-0.7812659736891907,1.335277381664546,-4.175535358807816,1.9572455,4.8720756,8.928422,8.146868,-11.059216,-5.5612183,-2.332544,-4.7015605,-11.59603,9.885443,-9.170979,4.1073093,4.549555,0.73881644,4.647038,6.5858083,13.47838,-24.253597,54.974586,1.9934094,3.3959725,6.3441143,-4.612014,-15.858167,33.279007,60.717113,-8.573766,4.899569,-0.35047624
152,-1.1792538166046143,0.6154911518096924,78.41088104248047,-0.7797294049946382,1.3438590795793204,-4.19432956218607,1.9583018,4.8713017,8.948815,8.140547,-11.063331,-5.556623,-2.3424947,-4.700954,-11.590178,9.881276,-9.170484,4.1026835,4.554335,0.73487186,4.6517386,6.5787845,13.484441,-24.25214,54.98284,1.9962348,3.3957353,6.345165,-4.612666,-15.856562,33.28546,60.687786,-8.544536,4.921549,-0.32594547
153,-1.1723664999008179,0.6136060953140259,78.40958404541016,-0.7814114970241806,1.355701618418099,-4.211025706131991,1.9518625,4.876066,8.967425,8.141964,-11.067829,-5.557038,-2.3537014,-4.6948624,-11.5809355,9.874081,-9.1659565,4.1060386,4.5524664,0.7258876,4.65289,6.5773077,13.509,-24.25348,54.977062,1.9954424,3.4022245,6.345851,-4.617892,-15.848085,33.304806,60.663536,-8.527678,4.941969,-0.30613926
154,-1.1695282459259033,0.6117907762527466,78.40763092041016,-0.7846465336301964,1.3695721170177755,-4.226023113707155,1.9410747,4.883359,8.984745,8.147382,-11.072194,-5.5600643,-2.3660994,-4.6863465,-11.570604,9.865467,-9.159504,4.114574,4.552754,0.71634394,4.6512957,6.5741563,13.537571,-24.262648,54.966724,1.9952852,3.4137828,6.348413,-4.6216497,-15.83463,33.31919,60.6413,-8.528076,4.963399,-0.2890518
155,-1.1655375957489014,0.6118312478065491,78.40664672851562,-0.7889641390781074,1.382140406444881,-4.24024525671558,1.9309977,4.892016,9.000131,8.154423,-11.077001,-5.563795,-2.3763163,-4.676147,-11.558044,9.856177,-9.151311,4.1236415,4.5532956,0.71700966,4.650632,6.5608225,13.547345,-24.268967,54.96989,2.0063343,3.4216077,6.3508983,-4.6229568,-15.829124,33.327293,60.617905,-8.534416,4.9801726,-0.27225068
156,-1.162104606628418,0.612857460975647,78.40573120117188,-0.7938484817746696,1.393268245185791,-4.255942036984004,1.9238775,4.9011106,9.01451,8.159358,-11.081907,-5.5665736,-2.3872833,-4.6654115,-11.540291,9.851715,-9.143496,4.1282287,4.554793,0.7045213,4.6505504,6.5529265,13.580212,-24.285025,54.961975,1.9959391,3.423003,6.348425,-4.62737,-15.808515,33.34557,60.594547,-8.512131,4.9956336,-0.26377743
157,-1.1579549312591553,0.6140692830085754,78.40563201904297,-0.8002141257301959,1.398786095982968,-4.273125150384203,1.9241807,4.9112797,9.025753,8.162326,-11.087716,-5.567223,-2.394832,-4.653122,-11.513652,9.852784,-9.134124,4.126065,4.554538,0.70006585,4.657777,6.546665,13.603775,-24.290934,54.95485,1.9930273,3.4078867,6.3368707,-4.6331673,-15.792618,33.357777,60.569355,-8.471226,5.001784,-0.26032373
158,-1.150586485862732,0.6154557466506958,78.40803527832031,-0.8080446127087328,1.4014432292757755,-4.29120593650523,1.9285326,4.922788,9.034662,8.164135,-11.093777,-5.567034,-2.4017951,-4.6391544,-11.480031,9.859278,-9.12397,4.120009,4.5519094,0.69511455,4.669026,6.5456285,13.633346,-24.294765,54.93953,1.9864482,3.383166,6.318581,-4.6428995,-15.771992,33.372505,60.545418,-8.412947,5.002687,-0.26332477
159,-1.1430693864822388,0.6116365790367126,78.41012573242188,-0.8154432268278143,1.4032085233759108,-4.308693976722281,1.9347165,4.9333706,9.0434,8.164128,-11.099547,-5.5671864,-2.4059224,-4.625942,-11.448836,9.863129,-9.114479,4.1136293,4.5511875,0.6964538,4.6808724,6.5327253,13.645655,-24.297903,54.939373,1.9863886,3.3583431,6.3027625,-4.645824,-15.763308,33.383957,60.51207,-8.356522,4.9995704,-0.26171643
160,-1.140620470046997,0.609239399433136,78.40966033935547,-0.8199373297230067,1.406570469932464,-4.324028255694481,1.9422624,4.940006,9.0544405,8.1579275,-11.102622,-5.5689344,-2.4089975,-4.616957,-11.42886,9.862822,-9.109761,4.1104593,4.5497665,0.69361883,4.691036,6.521302,13.656602,-24.298397,54.936565,1.9933225,3.3460646,6.2934194,-4.6466165,-15.755346,33.394775,60.477367,-8.320549,4.99212,-0.24806768
161,-1.1352148056030273,0.6129064559936523,78.40611267089844,-0.8201208603703346,1.411643288663132,-4.3365220469855705,1.9535823,4.94056,9.069744,8.14024,-11.100842,-5.574027,-2.4096916,-4.614734,-11.426187,9.857188,-9.113746,4.112631,4.543572,0.67864656,4.7006736,6.524387,13.678351,-24.288637,54.913597,2.0118227,3.3551908,6.2895856,-4.652318,-15.73762,33.40839,60.44977,-8.315599,4.9760723,-0.21480688
162,-1.1314969062805176,0.6107007265090942,78.40533447265625,-0.8175985986069009,1.4172406617612863,-4.347153857336314,1.9678961,4.93726,9.08759,8.1155815,-11.096594,-5.5813546,-2.4073734,-4.616321,-11.434741,9.846764,-9.123109,4.1178174,4.537153,0.66030943,4.710392,6.526461,13.696496,-24.274105,54.890083,2.0408244,3.376647,6.290413,-4.6570573,-15.720024,33.41874,60.421925,-8.332164,4.95306,-0.16714604
163,-1.124498724937439,0.610024631023407,78.40676879882812,-0.8143258705822207,1.424252313338382,-4.356685291901139,1.9810936,4.932704,9.104822,8.089918,-11.091262,-5.587778,-2.4063635,-4.6192894,-11.445848,9.836135,-9.133033,4.123038,4.535806,0.64734715,4.717944,6.516978,13.701552,-24.268164,54.880314,2.0677063,3.3986545,6.297657,-4.65271,-15.714277,33.424572,60.383705,-8.351042,4.930859,-0.11892199
164,-1.1174812316894531,0.6121715903282166,78.40762329101562,-0.8123373118317018,1.433231929910848,-4.366060341473017,1.9866945,4.930291,9.118072,8.073109,-11.0882225,-5.5904403,-2.4091206,-4.6199265,-11.4503975,9.827474,-9.138427,4.124977,4.5301256,0.6340318,4.723319,6.506502,13.710659,-24.26337,54.872894,2.0807214,3.410312,6.3061147,-4.6524973,-15.7034235,33.435364,60.348118,-8.358645,4.916342,-0.08680518
165,-1.1137157678604126,0.6116544604301453,78.40998840332031,-0.8107916669622011,1.4461721465468074,-4.374626048472223,1.981632,4.928843,9.1249485,8.066169,-11.086547,-5.5857334,-2.4208436,-4.6199875,-11.447169,9.826526,-9.139907,4.1220827,4.5187626,0.61852944,4.7232814,6.500332,13.727353,-24.267042,54.862843,2.066623,3.4089432,6.3193965,-4.6653023,-15.683129,33.456474,60.326706,-8.341827,4.912074,-0.07830944
166,-1.107529640197754,0.6086273193359375,78.41254425048828,-0.8095364983556101,1.4619795105861084,-4.382336547219725,1.9687691,4.927971,9.127725,8.06651,-11.086066,-5.57627,-2.4368298,-4.619251,-11.440465,9.826804,-9.13783,4.116176,4.5113387,0.6052749,4.7198687,6.48276,13.7399435,-24.28262,54.86618,2.036909,3.3992453,6.3387733,-4.6711097,-15.667927,33.4739,60.295704,-8.315465,4.9157205,-0.08199159
167,-1.1002994775772095,0.6112938523292542,78.4112548828125,-0.8096157175256021,1.477574251135348,-4.390366708975599,1.9558438,4.9288473,9.130237,8.067716,-11.085929,-5.5678425,-2.453513,-4.6167135,-11.430253,9.828928,-9.134722,4.1098075,4.505263,0.5943936,4.7153106,6.4662676,13.753574,-24.303482,54.867718,2.0035176,3.3861744,6.3579617,-4.677896,-15.651687,33.49063,60.26898,-8.289495,4.9201503,-0.0917649
168,-1.0954514741897583,0.6105209589004517,78.40733337402344,-0.8121318086284043,1.489720220766355,-4.3999794363223925,1.9498026,4.9327593,9.136277,8.0656395,-11.086283,-5.566243,-2.4657211,-4.6111326,-11.416152,9.830044,-9.1308975,4.105579,4.5012856,0.58726937,4.713572,6.448722,13.764891,-24.322348,54.86973,1.9830458,3.3725572,6.3710127,-4.6830587,-15.6388,33.50637,60.243168,-8.275115,4.9214234,-0.099954806
169,-1.0870972871780396,0.6094440817832947,78.40431213378906,-0.8197358289768696,1.496404118771174,-4.412779450150498,1.9543445,4.9430413,9.148346,8.059107,-11.087648,-5.576138,-2.470982,-4.5992637,-11.393275,9.8296175,-9.124543,4.104045,4.500689,0.58711946,4.7162485,6.4331455,13.773806,-24.336435,54.86748,1.9867326,3.356474,6.373916,-4.686187,-15.629496,33.521767,60.21825,-8.275805,4.9178987,-0.10559661
170,-1.081783652305603,0.6066423654556274,78.40291595458984,-0.830606832916134,1.5001985371028796,-4.427737848862318,1.9658628,4.9573326,9.164199,8.048192,-11.088743,-5.5933285,-2.473362,-4.583225,-11.3630295,9.830374,-9.116737,4.1039467,4.5008054,0.59200233,4.71796,6.421848,13.781896,-24.351915,54.861782,1.9976819,3.3374922,6.3713512,-4.6912665,-15.621739,33.540672,60.202225,-8.28269,4.9109735,-0.11412616
171,-1.072810411453247,0.6048184633255005,78.40501403808594,-0.8408820222600544,1.5034529091265763,-4.4419402044171745,1.9778907,4.970813,9.179659,8.037484,-11.090291,-5.6106305,-2.4738598,-4.5678635,-11.335977,9.82901,-9.109748,4.104764,4.499141,0.5921526,4.7203608,6.4166446,13.798343,-24.367516,54.84881,2.0059872,3.3211231,6.367832,-4.701678,-15.606305,33.564793,60.194237,-8.291556,4.9037,-0.12433418
172,-1.0644875764846802,0.6025900840759277,78.4056625366211,-0.8460989578329856,1.508625599294429,-4.452536843770942,1.9852971,4.97795,9.190901,8.028019,-11.091366,-5.6206956,-2.474947,-4.558969,-11.322067,9.825363,-9.107558,4.106233,4.4960933,0.5875151,4.725748,6.403877,13.810447,-24.379072,54.84405,2.0065606,3.311423,6.368825,-4.7109327,-15.594332,33.58067,60.18216,-8.307526,4.897382,-0.13131554
173,-1.0577116012573242,0.601436972618103,78.40518188476562,-0.8431912540348091,1.5165294653681227,-4.457721782617997,1.985696,4.9746265,9.195725,8.020688,-11.091502,-5.6199055,-2.476902,-4.560397,-11.329084,9.818171,-9.113413,4.10926,4.4897294,0.5787623,4.7353354,6.3836884,13.813905,-24.38699,54.849255,1.9936489,3.3107605,6.3799486,-4.7209373,-15.590466,33.589382,60.165707,-8.333547,4.892391,-0.13191006
174,-1.0548393726348877,0.6033272743225098,78.40389251708984,-0.8349797571128207,1.5258403693624156,-4.459383063304568,1.9825317,4.9644527,9.196626,8.01417,-11.091097,-5.6127095,-2.4783082,-4.5683403,-11.349758,9.807801,-9.124666,4.113615,4.482767,0.5600322,4.7427535,6.3569837,13.82224,-24.4058,54.864883,1.9586053,3.3163002,6.398974,-4.7385736,-15.577403,33.602417,60.163754,-8.360119,4.8880124,-0.13413319
175,-1.0489251613616943,0.6036834716796875,78.40393829345703,-0.8266692212348656,1.5359592070076424,-4.460149975039683,1.9776895,4.9541,9.196614,8.009044,-11.091729,-5.6039057,-2.4804258,-4.5768557,-11.372477,9.797687,-9.136142,4.1174216,4.474831,0.54447085,4.7529635,6.3316197,13.824126,-24.41399,54.876476,1.9318354,3.3260314,6.4147673,-4.7534504,-15.573329,33.609226,60.154915,-8.387597,4.883207,-0.13453482
176,-1.0435274839401245,0.6041561961174011,78.4045181274414,-0.8230433813475712,1.5464959479864224,-4.4627290270611795,1.9723684,4.9498377,9.198797,8.0067425,-11.095051,-5.598298,-2.483691,-4.5796013,-11.385479,9.789278,-9.142208,4.11861,4.4698,0.5338704,4.758531,6.3155484,13.825482,-24.419868,54.87496,1.9175482,3.3384807,6.421721,-4.763456,-15.5693865,33.615204,60.145733,-8.402617,4.877553,-0.14051607
177,-1.0370008945465088,0.6045461893081665,78.40506744384766,-0.82699133113436,1.557273810470443,-4.467812082707244,1.9666741,4.955187,9.203922,8.008367,-11.102951,-5.5977297,-2.489429,-4.5738425,-11.384387,9.785813,-9.140932,4.1159706,4.4681773,0.5299156,4.7602143,6.296657,13.826546,-24.424519,54.868927,1.9097294,3.3544939,6.414867,-4.776779,-15.565127,33.62419,60.145206,-8.38728,4.8666863,-0.15644118
178,-1.0256706476211548,0.6057183146476746,78.4074935913086,-0.8353080322624166,1.5688353045421595,-4.474184119422396,1.9606727,4.966032,9.210649,8.011255,-11.113137,-5.599446,-2.496692,-4.563011,-11.375494,9.784205,-9.134953,4.1107655,4.4644527,0.5301808,4.7570148,6.289629,13.827745,-24.421463,54.848763,1.9109207,3.374857,6.398747,-4.7928987,-15.559052,33.639244,60.15259,-8.35287,4.853299,-0.17947695
179,-1.0204710960388184,0.6019467711448669,78.40660095214844,-0.8442001937824619,1.5806063381923692,-4.480729559483396,1.9535282,4.9777937,9.217703,8.016668,-11.124125,-5.6014047,-2.5053298,-4.551649,-11.364658,9.785093,-9.129044,4.104913,4.463353,0.53140515,4.754426,6.2859383,13.828264,-24.416151,54.82201,1.9210346,3.3963501,6.3802276,-4.8050523,-15.555655,33.64972,60.154728,-8.322168,4.8420925,-0.2012629
180,-1.0136744976043701,0.6016198396682739,78.4051513671875,-0.8496329995021037,1.5920191920170925,-4.486104602142506,1.946365,4.98547,9.2236,8.021563,-11.132198,-5.601626,-2.5120907,-4.5437603,-11.358033,9.782726,-9.124551,4.1003213,4.4634356,0.52914727,4.7524495,6.282413,13.828273,-24.413986,54.798832,1.9347777,3.4149752,6.3680296,-4.8153653,-15.554674,33.655754,60.15557,-8.314181,4.838089,-0.2170789
181,-1.0087205171585083,0.6005616784095764,78.40445709228516,-0.8503661897627857,1.6034486000469932,-4.490239827867457,1.9389749,4.987904,9.228952,8.024929,-11.134462,-5.6001034,-2.5180912,-4.5405884,-11.356986,9.777745,-9.122878,4.096842,4.4602814,0.5223108,4.754056,6.280778,13.827714,-24.409748,54.775913,1.9552668,3.4332542,6.3642993,-4.8304815,-15.552851,33.668034,60.156315,-8.335235,4.8461757,-0.22410226
182,-1.0000269412994385,0.6013049483299255,78.40406036376953,-0.8484625547661256,1.614642446896174,-4.493548183112051,1.930184,4.9875946,9.233963,8.030581,-11.134865,-5.5976887,-2.523853,-4.540103,-11.35842,9.772121,-9.122851,4.0937614,4.461038,0.5114951,4.754996,6.277909,13.826924,-24.40917,54.75775,1.9821016,3.4503171,6.3647275,-4.840595,-15.551968,33.674873,60.153767,-8.378871,4.8616548,-0.22491337
183,-0.988734781742096,0.6014293432235718,78.40560913085938,-0.8457920868550156,1.625881568695516,-4.496529131352881,1.9222794,4.986018,9.237961,8.034123,-11.13428,-5.5938945,-2.5276146,-4.540443,-11.361174,9.762908,-9.1220875,4.091742,4.4552913,0.50204504,4.7559524,6.280916,13.823088,-24.404732,54.73572,2.0095308,3.4650044,6.3685775,-4.860607,-15.549326,33.690613,60.161026,-8.419976,4.879057,-0.2277368
184,-0.9811919927597046,0.5975595116615295,78.40760040283203,-0.8438884647204714,1.6365673947003734,-4.499918423526332,1.9170852,4.984148,9.240564,8.034051,-11.135448,-5.588162,-2.5306182,-4.5409236,-11.363483,9.755442,-9.122549,4.0915785,4.455109,0.49198523,4.7561636,6.2802663,13.820897,-24.405548,54.71923,2.0327702,3.4697895,6.37122,-4.8738856,-15.548611,33.696625,60.165745,-8.444534,4.88947,-0.23749109
185,-0.9734423756599426,0.5948249101638794,78.40774536132812,-0.8420214310183658,1.6460702833967413,-4.504280899026371,1.9150149,4.9807186,9.240631,8.031855,-11.141732,-5.5770154,-2.5293422,-4.542266,-11.367174,9.743919,-9.122382,4.095368,4.4544363,0.4829397,4.7555923,6.2819233,13.817633,-24.407595,54.703186,2.0503347,3.4626997,6.3734465,-4.889069,-15.548428,33.703037,60.17649,-8.438565,4.8907323,-0.26063716
186,-0.9638740420341492,0.5940210819244385,78.40716552734375,-0.839697822098047,1.6549259387070079,-4.509055520288028,1.915596,4.9754586,9.238725,8.026383,-11.149972,-5.561836,-2.5249107,-4.5447025,-11.37232,9.729603,-9.122628,4.10202,4.455223,0.47207916,4.754353,6.2844768,13.815999,-24.410328,54.688576,2.0659275,3.4463918,6.3751426,-4.9032454,-15.548896,33.706345,60.189938,-8.415577,4.886683,-0.29169136
187,-0.9543271064758301,0.5935354828834534,78.40653228759766,-0.8392005047548701,1.6641440655363193,-4.513281915936058,1.9170681,4.9721484,9.2367935,8.018107,-11.156759,-5.549436,-2.5205855,-4.5451627,-11.375461,9.715152,-9.1212,4.1076117,4.454537,0.4661812,4.752527,6.2881465,13.811805,-24.416979,54.674686,2.0759034,3.4261246,6.3791876,-4.9219866,-15.551172,33.712986,60.208736,-8.385752,4.8805046,-0.3229453
188,-0.9480493068695068,0.594212532043457,78.40482330322266,-0.8422698552449374,1.674476539983594,-4.515631475007907,1.9157766,4.974443,9.236405,8.011923,-11.160932,-5.5465465,-2.5213575,-4.541199,-11.373172,9.707506,-9.118267,4.1082363,4.450671,0.46098897,4.747553,6.289259,13.81101,-24.41997,54.66686,2.082463,3.4084973,6.382114,-4.9325137,-15.551872,33.713985,60.2204,-8.373795,4.876313,-0.34265307
189,-0.9401372671127319,0.5970564484596252,78.40583038330078,-0.8533815582802997,1.6886829104177872,-4.514943176036833,1.9099274,4.988077,9.23875,8.004225,-11.157828,-5.56097,-2.5288146,-4.526744,-11.36084,9.702388,-9.106981,4.1001945,4.4481773,0.47486323,4.7404723,6.2845073,13.802901,-24.443274,54.667862,2.0729287,3.3850155,6.3944945,-4.9572053,-15.559394,33.715866,60.24902,-8.368001,4.8699217,-0.35077968
190,-0.9326046109199524,0.5978240370750427,78.40882873535156,-0.8693899603016146,1.7044703383393405,-4.512113000491602,1.9028425,5.0086083,9.242858,7.9949102,-11.150454,-5.5870643,-2.5418112,-4.506509,-11.341126,9.704302,-9.092924,4.086599,4.4384866,0.4878558,4.732006,6.280169,13.800424,-24.454441,54.67179,2.0648143,3.3607666,6.404928,-4.97536,-15.562278,33.713943,60.26847,-8.378722,4.865432,-0.34740734
191,-0.9258589744567871,0.5978215932846069,78.40967559814453,-0.8843715561209234,1.7199773073295748,-4.509253961849371,1.8947815,5.027913,9.246621,7.9877753,-11.1439705,-5.611583,-2.5544882,-4.4875145,-11.32301,9.706181,-9.080151,4.0731306,4.431059,0.50274545,4.723213,6.2752337,13.796535,-24.472,54.67577,2.0508702,3.3394542,6.414679,-4.993616,-15.567131,33.708824,60.29117,-8.39316,4.8601046,-0.34346744
192,-0.9149433970451355,0.5959913730621338,78.4111557006836,-0.8921795659162248,1.7327059617322091,-4.509232664815621,1.8898714,5.036919,9.248886,7.981774,-11.142293,-5.621287,-2.561862,-4.477466,-11.314609,9.70383,-9.074002,4.0654774,4.4434657,0.51548684,4.7142878,6.257854,13.785087,-24.507723,54.689392,2.032632,3.3258412,6.4218154,-4.9938645,-15.581677,33.687866,60.30202,-8.406325,4.854307,-0.34654382
193,-0.9045029878616333,0.5982888340950012,78.40899658203125,-0.8879391591634885,1.7413867275633874,-4.513989385411072,1.8894109,5.029048,9.248638,7.9779406,-11.148632,-5.606274,-2.5604613,-4.4824467,-11.322486,9.693624,-9.078696,4.067088,4.4531393,0.5170825,4.7099724,6.2556443,13.773678,-24.524952,54.68277,2.0230374,3.3250375,6.4155574,-4.9952025,-15.597023,33.671608,60.314617,-8.419743,4.8467765,-0.36180416
194,-0.8955023288726807,0.5987412333488464,78.40711212158203,-0.8760097810418704,1.7474267100921326,-4.521875530911901,1.8926816,5.010159,9.247029,7.97374,-11.1590185,-5.575689,-2.5537508,-4.496786,-11.340492,9.678607,-9.090242,4.0742702,4.4628716,0.5119028,4.7075567,6.260943,13.762956,-24.534739,54.66615,2.0145602,3.3328094,6.4011674,-4.9969454,-15.611656,33.658836,60.329815,-8.432642,4.838035,-0.38450012
195,-0.8849117159843445,0.5989792346954346,78.40716552734375,-0.8636643454915648,1.7528495750670452,-4.52878591940293,1.8950423,4.9907575,9.244624,7.971563,-11.170045,-5.54504,-2.5473459,-4.512243,-11.359379,9.665775,-9.10316,4.0820975,4.4733253,0.50777733,4.7067194,6.2643833,13.749099,-24.542206,54.651413,2.0085766,3.3419032,6.385975,-4.9949036,-15.630522,33.646034,60.33866,-8.4436455,4.8303432,-0.40779737
196,-0.8809943795204163,0.6018358469009399,78.40933990478516,-0.8577031025281948,1.7597256153399414,-4.5305890250379095,1.8955324,4.9800234,9.242272,7.9675407,-11.175603,-5.5295963,-2.546399,-4.5209084,-11.369901,9.661322,-9.111749,4.0857406,4.4772267,0.50583756,4.7060847,6.271605,13.740874,-24.544556,54.634987,2.0055552,3.3463213,6.3754244,-5.003223,-15.641919,33.639267,60.35669,-8.451195,4.8241277,-0.4274226
197,-0.8756097555160522,0.603619396686554,78.41089630126953,-0.8622030939882093,1.7689307750581214,-4.524945015356623,1.8918589,4.9838758,9.239443,7.9620876,-11.173099,-5.5381236,-2.5547802,-4.518323,-11.365302,9.670273,-9.112749,4.0827494,4.4767194,0.509626,4.7055697,6.2760158,13.736226,-24.54443,54.62471,2.0038657,3.342377,6.372184,-5.0172615,-15.64854,33.636387,60.3768,-8.454833,4.820436,-0.4417508
198,-0.8727223873138428,0.6038164496421814,78.41266632080078,-0.8729492158923413,1.7788705261005764,-4.514473807286682,1.8851634,4.996233,9.235847,7.9579844,-11.167049,-5.5608277,-2.5684168,-4.509365,-11.351968,9.688534,-9.110428,4.0761104,4.4741893,0.5233668,4.708661,6.2738094,13.723981,-24.540243,54.621777,2.0071576,3.3334026,6.373638,-5.029807,-15.666095,33.635166,60.385796,-8.454052,4.8191385,-0.4506668
199,-0.8681567311286926,0.6061397790908813,78.41275024414062,-0.8841723515262586,1.7891364805357162,-4.50257393644648,1.878253,5.009119,9.232836,7.9531617,-11.159535,-5.5855417,-2.5825045,-4.5000663,-11.339972,9.707234,-9.107539,4.068989,4.4695907,0.53677005,4.7111473,6.2720284,13.712706,-24.536465,54.620655,2.0129435,3.3246431,6.3768115,-5.0437293,-15.682641,33.636265,60.396614,-8.450297,4.818956,-0.45807457
200,-0.8618618249893188,0.6073922514915466,78.41107177734375,-0.8903515607121857,1.7984730656707268,-4.492606465632982,1.8716179,5.0152106,9.231326,7.951319,-11.155743,-5.6000724,-2.593112,-4.4968367,-11.339037,9.720229,-9.108454,4.0646586,4.465167,0.5508151,4.714398,6.2672615,13.694561,-24.536469,54.624043,2.024797,3.32004,6.3801394,-5.0488305,-15.708999,33.63521,60.396458,-8.443834,4.8200126,-0.4628889
201,-0.8548004627227783,0.6096928119659424,78.40872192382812,-0.8885079380393325,1.807029869456475,-4.486141028617978,1.8659084,5.0106425,9.233323,7.9528165,-11.156918,-5.599922,-2.598373,-4.502336,-11.355588,9.724377,-9.116408,4.0638237,4.4589844,0.5477372,4.714579,6.2726316,13.692108,-24.539074,54.618515,2.0457728,3.323264,6.38106,-5.0603814,-15.712573,33.633156,60.41382,-8.436753,4.8210063,-0.46920925
202,-0.8489393591880798,0.6109048128128052,78.407470703125,-0.8822008677592136,1.8152464266343835,-4.481003214574402,1.8594224,5.0000587,9.237512,7.9582253,-11.161578,-5.5918674,-2.6008525,-4.513109,-11.383202,9.722993,-9.127889,4.064969,4.458081,0.5515601,4.716724,6.273586,13.677736,-24.554712,54.61612,2.0739453,3.3312154,6.3861,-5.066824,-15.732118,33.620094,60.424644,-8.428151,4.82165,-0.46894914
203,-0.843585193157196,0.6115838885307312,78.40514373779297,-0.8752670400794659,1.8227467373499706,-4.475519101243479,1.8530964,4.9886365,9.240703,7.9646926,-11.167299,-5.581179,-2.602356,-4.5249233,-11.412305,9.721782,-9.139548,4.0673213,4.459399,0.552686,4.718091,6.2673674,13.663581,-24.5734,54.623676,2.0983706,3.3389685,6.39007,-5.0638337,-15.751192,33.60455,60.426495,-8.420381,4.824751,-0.46977437
204,-0.837566614151001,0.6118990182876587,78.40564727783203,-0.8716618391938342,1.8291486622265758,-4.4677391507303925,1.8469104,4.980975,9.239303,7.9698033,-11.171781,-5.572981,-2.6055725,-4.533918,-11.433746,9.7270775,-9.148358,4.070208,4.4580793,0.5559804,4.7203093,6.2661448,13.652382,-24.58777,54.626087,2.1084077,3.3445334,6.3912086,-5.063377,-15.765755,33.59091,60.430225,-8.416952,4.8286276,-0.47299686
205,-0.8325810432434082,0.6130901575088501,78.40867614746094,-0.8719405414409652,1.8332568094241317,-4.456628442929113,1.8422462,4.977544,9.231421,7.9726777,-11.175008,-5.56646,-2.6087027,-4.539637,-11.443453,9.7395525,-9.153357,4.074959,4.453142,0.56199837,4.7246685,6.2687936,13.643476,-24.597403,54.624603,2.0952582,3.3461537,6.388482,-5.065384,-15.776884,33.579872,60.435394,-8.421145,4.835621,-0.4804613
206,-0.8275920748710632,0.6126851439476013,78.41036987304688,-0.8743899276024018,1.8356801310605362,-4.443404467054032,1.8381912,4.976442,9.219139,7.975342,-11.178344,-5.5596676,-2.6132462,-4.5442967,-11.446705,9.75966,-9.15762,4.081421,4.448049,0.5702806,4.7304926,6.2700243,13.634479,-24.6074,54.62529,2.066014,3.3454273,6.3834887,-5.0628633,-15.787488,33.56567,60.43491,-8.432262,4.845446,-0.48996243
207,-0.8218455910682678,0.6185270547866821,78.40958404541016,-0.8785305081892828,1.838746500110256,-4.429416763568465,1.8324916,4.9777875,9.205433,7.978644,-11.181057,-5.555735,-2.6190298,-4.5467467,-11.448731,9.780618,-9.159055,4.0867414,4.4439735,0.58069146,4.7351127,6.2698164,13.624612,-24.616922,54.628544,2.0352025,3.3442945,6.378093,-5.0582204,-15.798628,33.551117,60.432552,-8.442721,4.8537498,-0.499009
208,-0.8182641863822937,0.6217365264892578,78.4113998413086,-0.8846894114783713,1.8447716491161201,-4.416027503806157,1.8235917,4.9822087,9.193334,7.981802,-11.181383,-5.5579004,-2.627635,-4.5460186,-11.454607,9.798699,-9.156852,4.0879903,4.43986,0.5920965,4.7364364,6.2707543,13.616754,-24.622902,54.631557,2.0164635,3.344791,6.3734937,-5.0543623,-15.806946,33.54073,60.43148,-8.445122,4.8564467,-0.505324
209,-0.816780686378479,0.6270884275436401,78.41221618652344,-0.8939042385085204,1.8542512444774721,-4.404000927742624,1.8132802,4.9916134,9.18415,7.981777,-11.17753,-5.5701227,-2.6384962,-4.539469,-11.4640665,9.810944,-9.147597,4.082844,4.432824,0.60198647,4.733218,6.275106,13.61546,-24.623175,54.63416,2.0141053,3.348011,6.3704863,-5.054541,-15.808251,33.538734,60.43732,-8.438387,4.8509455,-0.5093386
210,-0.8141542673110962,0.6301429867744446,78.4139175415039,-0.9063153706980854,1.869644416192058,-4.390844992622163,1.7929574,5.0060987,9.173948,7.9879265,-11.173918,-5.5895233,-2.6563392,-4.5288186,-11.476931,9.8231325,-9.134138,4.073342,4.4273934,0.6213551,4.723877,6.2823977,13.608422,-24.622135,54.633965,2.0246325,3.3544898,6.367508,-5.056585,-15.814725,33.53239,60.448025,-8.428041,4.836218,-0.50838614
211,-0.8123041391372681,0.6276550889015198,78.41637420654297,-0.9180567871702987,1.8839274262098396,-4.378382078092725,1.7769259,5.0194597,9.165133,7.9877076,-11.166736,-5.6094203,-2.6726613,-4.518588,-11.491718,9.833472,-9.120109,4.063253,4.4224343,0.636319,4.715097,6.287197,13.606289,-24.620544,54.636562,2.0344915,3.3595672,6.36527,-5.0553885,-15.816507,33.530468,60.454487,-8.413212,4.8224635,-0.50773257
212,-0.806943953037262,0.6288470029830933,78.41769409179688,-0.926129935930743,1.8964651698513786,-4.365724487213255,1.7616371,5.0279365,9.156304,7.9887714,-11.160825,-5.6229663,-2.6898353,-4.5139904,-11.509825,9.849264,-9.113048,4.0563097,4.419497,0.6485024,4.7086015,6.292795,13.603446,-24.61801,54.63498,2.0390804,3.3620117,6.362196,-5.0526743,-15.818529,33.52847,60.457115,-8.395716,4.8130174,-0.5065649
213,-0.8064476847648621,0.6313029527664185,78.41603088378906,-0.9274464541420038,1.9067890372991751,-4.352271463724023,1.7490813,5.0271673,9.148243,7.987454,-11.153891,-5.6270323,-2.7072167,-4.5191364,-11.534034,9.870504,-9.116698,4.053641,4.4180875,0.65523237,4.704442,6.2975173,13.59895,-24.613964,54.63097,2.034502,3.359528,6.3595033,-5.04552,-15.821233,33.524857,60.453194,-8.379058,4.81042,-0.5073918
214,-0.8024333119392395,0.6293818354606628,78.41650390625,-0.9244868637078636,1.915563688282104,-4.338403388564209,1.7390856,5.02049,9.141103,7.9834356,-11.1454,-5.6256466,-2.7247276,-4.530486,-11.562794,9.895741,-9.127591,4.0532107,4.420476,0.6577647,4.701895,6.298447,13.592142,-24.610884,54.628304,2.024341,3.353447,6.3574862,-5.0337944,-15.824637,33.520393,60.44299,-8.359526,4.8121676,-0.50950986
215,-0.8032429218292236,0.634053647518158,78.41446685791016,-0.9232661462474169,1.9222007279135551,-4.326005559419002,1.731458,5.0158124,9.133792,7.979252,-11.138379,-5.623177,-2.737595,-4.5390368,-11.591232,9.9136915,-9.133247,4.053694,4.4240174,0.66154426,4.701782,6.3009043,13.591044,-24.609667,54.622303,2.0128837,3.3476305,6.354177,-5.025692,-15.824921,33.51876,60.43618,-8.336625,4.813295,-0.5078623
216,-0.8013415932655334,0.6336696147918701,78.41893768310547,-0.9249799883877184,1.9312484924780466,-4.313823209124116,1.7214612,5.0143795,9.122931,7.973121,-11.132091,-5.6225305,-2.759318,-4.545062,-11.615419,9.944457,-9.138654,4.0548553,4.4271173,0.67018265,4.69826,6.3051453,13.584349,-24.60441,54.61659,2.0155883,3.3470588,6.347192,-5.0106664,-15.82654,33.512657,60.422707,-8.311488,4.813425,-0.49813586
217,-0.8016844987869263,0.6398611664772034,78.42097473144531,-0.9360927577309244,1.938836694445003,-4.305440734417012,1.7130789,5.0243034,9.109216,7.968044,-11.131268,-5.6253676,-2.7753687,-4.538186,-11.632019,9.962905,-9.126917,4.056979,4.42948,0.68964356,4.697015,6.3119807,13.582,-24.600868,54.607006,2.0277789,3.3525858,6.3337235,-5.0040445,-15.8268175,33.511135,60.418404,-8.27852,4.805682,-0.476231
218,-0.8012495040893555,0.6397334337234497,78.4232177734375,-0.9517844220836851,1.9464708383919413,-4.299237986844336,1.7062732,5.039539,9.093285,7.9601197,-11.132236,-5.6291995,-2.791058,-4.524961,-11.644133,9.978402,-9.106657,4.0604987,4.4293156,0.71616924,4.6954293,6.325866,13.578124,-24.590296,54.590965,2.0535376,3.362754,6.3146496,-4.9993224,-15.827076,33.510456,60.41668,-8.243274,4.7940626,-0.4448748
219,-0.8012984991073608,0.6393200159072876,78.42903900146484,-0.9689248816456975,1.9533461111998554,-4.2931870070265425,1.698751,5.056647,9.076637,7.9541483,-11.1341305,-5.6344123,-2.8074405,-4.5101404,-11.655038,9.9959755,-9.085832,4.0627384,4.423441,0.74575925,4.6962595,6.342183,13.571367,-24.572218,54.573906,2.0840666,3.3742795,6.297114,-4.9987397,-15.826796,33.515305,60.414257,-8.20773,4.784712,-0.41008118
220,-0.801222026348114,0.6416721940040588,78.43170166015625,-0.9834257817770722,1.9592482164369458,-4.285151838780333,1.6915091,5.0711164,9.060879,7.947496,-11.132189,-5.6411476,-2.8243918,-4.4983773,-11.668169,10.016658,-9.069723,4.0609536,4.422401,0.7696545,4.697905,6.349708,13.568185,-24.564651,54.567753,2.1048696,3.38401,6.2891326,-4.9974456,-15.826145,33.52074,60.408363,-8.171637,4.7834635,-0.3783684
221,-0.8009642362594604,0.6398507952690125,78.43260192871094,-0.9947995350751798,1.964681064933139,-4.274373461831235,1.6835998,5.0825877,9.046739,7.9403524,-11.124608,-5.6517334,-2.8435233,-4.4910297,-11.684934,10.043556,-9.060681,4.052643,4.4186573,0.78910697,4.7005715,6.3510785,13.563091,-24.55863,54.572662,2.118021,3.3937888,6.2935634,-4.9975734,-15.823937,33.532696,60.396175,-8.1428175,4.797041,-0.34998295
222,-0.8047562837600708,0.6441840529441833,78.43180084228516,-1.005307963154663,1.9689105344452895,-4.262050826998254,1.6760402,5.093543,9.03321,7.9334617,-11.114312,-5.6653867,-2.8623927,-4.4843597,-11.703747,10.071796,-9.053619,4.039634,4.4206448,0.8061228,4.706342,6.3479047,13.5612,-24.560225,54.581146,2.1274123,3.4046402,6.3053846,-4.9959583,-15.822489,33.539272,60.3784,-8.121178,4.8184423,-0.32129776
223,-0.811859667301178,0.645182728767395,78.43161010742188,-1.013611862487045,1.9729936085479387,-4.249315921916337,1.6681005,5.101833,9.019805,7.9258313,-11.102575,-5.677309,-2.882512,-4.480476,-11.721622,10.102825,-9.049881,4.0266776,4.422492,0.81904286,4.7106676,6.3367114,13.558759,-24.56637,54.601627,2.1289823,3.4118035,6.322981,-4.993913,-15.81982,33.55143,60.35857,-8.088682,4.842273,-0.2947084
224,-0.8147335648536682,0.6458783149719238,78.43428039550781,-1.0209079915225108,1.9747912280726576,-4.237409646861166,1.6603835,5.108638,9.005743,7.9230285,-11.095313,-5.6832952,-2.8968043,-4.4767547,-11.736918,10.125523,-9.04414,4.0177903,4.4230824,0.83264416,4.7179127,6.3298283,13.557187,-24.572235,54.615177,2.1264508,3.4114585,6.3403034,-4.9915643,-15.817179,33.55972,60.3429,-8.046836,4.8533826,-0.27088895
225,-0.8170819878578186,0.6471520662307739,78.43842315673828,-1.0268102951450664,1.9737694373018517,-4.227107295342081,1.652915,5.1136546,8.991085,7.9271674,-11.09463,-5.6804876,-2.9046938,-4.4733405,-11.747999,10.1400795,-9.036578,4.0131474,4.422385,0.84535944,4.727789,6.3244367,13.55502,-24.5805,54.626625,2.11268,3.3982856,6.3616214,-4.989852,-15.8112755,33.56972,60.334747,-7.9926324,4.8495054,-0.2544506
226,-0.8220751881599426,0.6479157209396362,78.44094848632812,-1.03116713638298,1.9708327137705266,-4.217432857588734,1.6453868,5.116636,8.976,7.9353366,-11.097048,-5.671711,-2.9083493,-4.4708514,-11.756505,10.14935,-9.0285,4.010844,4.420505,0.8565423,4.7363853,6.314177,13.553037,-24.592894,54.64821,2.0853436,3.3735018,6.38761,-4.9937057,-15.801492,33.581646,60.341827,-7.927761,4.8346777,-0.24361084
227,-0.8289229869842529,0.652830183506012,78.44132995605469,-1.034285855976224,1.9675570517452086,-4.2075633036777935,1.636798,5.118079,8.96033,7.945001,-11.10072,-5.66123,-2.909736,-4.469268,-11.764317,10.153681,-9.019999,4.012023,4.418668,0.86646545,4.7487645,6.3071537,13.552766,-24.600843,54.660362,2.0664597,3.3501048,6.40875,-4.994459,-15.794021,33.588024,60.34041,-7.851473,4.816198,-0.22912511
228,-0.8377018570899963,0.6501809358596802,78.43948364257812,-1.0361110763007844,1.966456594680012,-4.196432891122207,1.627394,5.117404,8.943919,7.9490814,-11.101068,-5.653182,-2.9125326,-4.4696865,-11.773363,10.155123,-9.011787,4.017988,4.4165983,0.8758037,4.7582407,6.300951,13.553126,-24.605322,54.668625,2.0640225,3.337315,6.4188514,-4.994065,-15.790688,33.590744,60.334194,-7.7542877,4.7990065,-0.20611578
229,-0.8431158065795898,0.6492360234260559,78.43839263916016,-1.0361389477801024,1.9688263226301808,-4.182462704369225,1.6143582,5.1142144,8.924723,7.9487686,-11.098446,-5.648673,-2.9169896,-4.4726276,-11.785395,10.151793,-9.003404,4.033134,4.417385,0.88022065,4.7601047,6.2881794,13.556184,-24.618074,54.681545,2.0838177,3.3396614,6.4144297,-4.998776,-15.77845,33.598053,60.333668,-7.6121225,4.78579,-0.17596231
230,-0.8495115637779236,0.6503078937530518,78.43795013427734,-1.0344627318020962,1.9732375953514207,-4.16672510710211,1.5992686,5.1086802,8.903727,7.944632,-11.093462,-5.6455264,-2.9210844,-4.4773717,-11.799009,10.14232,-8.993975,4.055433,4.416795,0.8806838,4.758523,6.280245,13.564111,-24.626875,54.68599,2.1240227,3.3520262,6.397415,-5.007243,-15.759327,33.599655,60.338215,-7.448251,4.77253,-0.13905023
231,-0.8594200015068054,0.6513685584068298,78.43878936767578,-1.032175181551401,1.9776128871871688,-4.151783739286559,1.5845944,5.1023774,8.884125,7.939431,-11.087755,-5.642927,-2.9251814,-4.4827585,-11.811673,10.131887,-8.98573,4.0763807,4.4167104,0.8783411,4.758121,6.272889,13.57447,-24.631002,54.687954,2.1637213,3.3671267,6.378581,-5.0131955,-15.7413025,33.599907,60.335682,-7.2794256,4.7583675,-0.09833531
232,-0.865787148475647,0.6509930491447449,78.44092559814453,-1.0300537564859473,1.9800899377783798,-4.140221919535279,1.5730685,5.0969934,8.869283,7.935004,-11.082235,-5.640085,-2.9287822,-4.48714,-11.82072,10.123514,-8.97964,4.08757,4.416763,0.8770324,4.7604384,6.2711086,13.586123,-24.63091,54.685192,2.179034,3.3791924,6.368684,-5.0198693,-15.72345,33.598915,60.334274,-7.1305413,4.7376695,-0.0563706
233,-0.878374457359314,0.6531878113746643,78.4384765625,-1.0291890631346887,1.979827955494433,-4.1326877639894795,1.5644823,5.0940375,8.859688,7.9343786,-11.079151,-5.6362863,-2.9310677,-4.4889817,-11.825825,10.117347,-8.975884,4.0840654,4.4176416,0.8784785,4.7667093,6.2682896,13.593014,-24.625618,54.686367,2.1572037,3.3877325,6.3740125,-5.0197186,-15.712509,33.596523,60.3237,-7.008839,4.710058,-0.013296628
234,-0.8861880898475647,0.6531482934951782,78.43809509277344,-1.0286059311369422,1.9779998877271288,-4.12780022562705,1.5582207,5.0920525,8.853845,7.934069,-11.076263,-5.632167,-2.9328706,-4.4896455,-11.82796,10.112848,-8.974665,4.071257,4.415169,0.87478375,4.774856,6.2750583,13.608091,-24.610546,54.677963,2.112413,3.3965757,6.3856597,-5.031251,-15.686851,33.594376,60.329582,-6.903966,4.674635,0.030593922
235,-0.8944397568702698,0.6594005227088928,78.44054412841797,-1.0273142916142857,1.9753888532299613,-4.125188356115977,1.5537597,5.089422,8.851392,7.933776,-11.072481,-5.628899,-2.9342985,-4.4910407,-11.828029,10.107883,-8.974126,4.056075,4.417308,0.8721517,4.7825694,6.2749085,13.617836,-24.59841,54.68098,2.0645752,3.401291,6.400815,-5.0311613,-15.669097,33.59225,60.31956,-6.8017044,4.6415844,0.07490014
236,-0.9051606059074402,0.6591154336929321,78.44196319580078,-1.0232219595999896,1.9726896055080856,-4.124221205747016,1.5509704,5.0834446,8.852054,7.93109,-11.065134,-5.6274767,-2.9360926,-4.495871,-11.826483,10.102499,-8.974617,4.0455184,4.422939,0.87466687,4.7879667,6.275656,13.620173,-24.593222,54.68718,2.0339825,3.400239,6.4133024,-5.026887,-15.664578,33.59052,60.303265,-6.696438,4.6131654,0.119523235
237,-0.9108877778053284,0.65876704454422,78.44381713867188,-1.0151886846434715,1.969228908025747,-4.125723441756602,1.5538788,5.0723553,8.857526,7.9194903,-11.048776,-5.630107,-2.9380488,-4.5060997,-11.8239765,10.097144,-8.977382,4.0408525,4.428241,0.8627168,4.7905064,6.275775,13.633997,-24.582842,54.701656,2.0353775,3.3895426,6.4155626,-5.0301504,-15.641165,33.59615,60.296314,-6.5829372,4.592582,0.16091591
238,-0.9233206510543823,0.6570099592208862,78.44451141357422,-1.004286211535222,1.965083141564214,-4.129507985119476,1.5606912,5.057913,8.867187,7.903435,-11.027262,-5.6354465,-2.9397292,-4.5198007,-11.820179,10.090875,-8.981334,4.038597,4.440858,0.8544743,4.791062,6.2712445,13.640267,-24.581911,54.725807,2.051983,3.371952,6.416577,-5.023457,-15.631567,33.601463,60.275486,-6.4649286,4.5774,0.20287794
239,-0.9308642745018005,0.6583960056304932,78.44187927246094,-0.9929963129798675,1.961401526472838,-4.134416008763802,1.5670146,5.0428877,8.878245,7.8870683,-11.005693,-5.640081,-2.9426868,-4.53408,-11.8137245,10.085022,-8.985078,4.0382733,4.4505363,0.8386296,4.788765,6.277148,13.659006,-24.579979,54.740753,2.0651581,3.3531892,6.4171047,-5.0258327,-15.605031,33.612675,60.26848,-6.34955,4.5638742,0.24068795
240,-0.9389292597770691,0.6600521802902222,78.43989562988281,-0.983715618210116,1.9592702246518585,-4.139155643294802,1.5689412,5.0301814,8.887757,7.873659,-10.98884,-5.64047,-2.9458148,-4.5450225,-11.803456,10.074768,-8.983425,4.0394254,4.461583,0.83214647,4.7889347,6.276272,13.664925,-24.578945,54.760284,2.064313,3.336623,6.4234624,-5.0181785,-15.596864,33.61729,60.243446,-6.244737,4.5513477,0.2797551
241,-0.9493491649627686,0.66285640001297,78.43756103515625,-0.9777421968328274,1.960665304642625,-4.1437944293734095,1.563822,5.021567,8.895694,7.8636227,-10.978919,-5.634785,-2.9518876,-4.550798,-11.788343,10.060933,-8.974869,4.042439,4.465822,0.82729083,4.787291,6.287518,13.674691,-24.573158,54.765285,2.0371573,3.3250873,6.438495,-5.0220466,-15.582926,33.629143,60.230423,-6.140791,4.5355225,0.31910884
242,-0.9628024697303772,0.6634112596511841,78.43533325195312,-0.973876453002343,1.9641011151447432,-4.149135897716226,1.554273,5.0154896,8.90341,7.8563137,-10.973715,-5.6251864,-2.959931,-4.553488,-11.768841,10.044412,-8.961428,4.047376,4.4709363,0.82616657,4.7867208,6.2954736,13.679909,-24.567759,54.772064,1.9965214,3.314841,6.459951,-5.02116,-15.574655,33.63709,60.207233,-6.0423923,4.520405,0.36066034
