unveil-humanoid-operators/unveil-humanoid-operators.github.io/feature-analysis-animation/data/feature_matrix_instances/height_root_translate_peak_vel_walking_A161_lift_crate_walk_ff_start_180_R_002__A161.csv
Frame,root_translateX,root_translateY,root_translateZ,root_rotateX,root_rotateY,root_rotateZ,left_hip_pitch_joint_dof,left_hip_roll_joint_dof,left_hip_yaw_joint_dof,left_knee_joint_dof,left_ankle_pitch_joint_dof,left_ankle_roll_joint_dof,right_hip_pitch_joint_dof,right_hip_roll_joint_dof,right_hip_yaw_joint_dof,right_knee_joint_dof,right_ankle_pitch_joint_dof,right_ankle_roll_joint_dof,waist_yaw_joint_dof,waist_roll_joint_dof,waist_pitch_joint_dof,left_shoulder_pitch_joint_dof,left_shoulder_roll_joint_dof,left_shoulder_yaw_joint_dof,left_elbow_joint_dof,left_wrist_roll_joint_dof,left_wrist_pitch_joint_dof,left_wrist_yaw_joint_dof,right_shoulder_pitch_joint_dof,right_shoulder_roll_joint_dof,right_shoulder_yaw_joint_dof,right_elbow_joint_dof,right_wrist_roll_joint_dof,right_wrist_pitch_joint_dof,right_wrist_yaw_joint_dof
0,0.04188399389386177,-2.819164991378784,77.0483169555664,1.5934460882078652,-7.351456225994168,85.06696333463717,12.029446,7.607403,19.927618,6.9249744,-10.2622595,-8.574235,10.44927,-17.630526,-19.305695,9.867032,-9.131235,15.000033,-1.2531149,-1.1261806,6.085922,-12.181818,20.263527,-13.424979,56.609394,-17.971571,4.4083304,13.283115,-18.854883,-18.445553,25.305927,55.93626,23.168781,4.690323,-7.6126194
1,0.04181697964668274,-2.8057355880737305,77.04861450195312,1.5914482751719254,-7.331185585142554,85.0632112189772,12.0182495,7.6092863,19.932081,6.9255867,-10.2684145,-8.575837,10.458172,-17.61938,-19.309938,9.813854,-9.112902,15.000033,-1.2647033,-1.0981971,6.063765,-12.187428,20.296429,-13.684649,56.73465,-18.193218,4.2601223,13.467057,-18.890142,-18.45478,25.369816,55.966007,23.146116,4.686142,-7.6511254
2,0.04291842505335808,-2.793064594268799,77.0490493774414,1.5891878182083792,-7.309751985482208,85.0604147329869,12.005135,7.6110954,19.935806,6.926215,-10.273908,-8.577501,10.466014,-17.60817,-19.315077,9.760843,-9.094997,15.000033,-1.2464167,-1.0809987,6.03556,-12.2266245,20.338362,-14.006836,56.886616,-18.436714,4.107043,13.666679,-18.897038,-18.462368,25.400457,55.984146,23.117014,4.6777596,-7.690317
3,0.0391099639236927,-2.78303861618042,77.04972839355469,1.5873079114177744,-7.290405959231517,85.0560422663718,11.995379,7.612745,19.940931,6.9266376,-10.280248,-8.579071,10.475023,-17.597775,-19.318264,9.70956,-9.077409,15.000033,-1.2244945,-1.0662756,6.010359,-12.269095,20.380934,-14.314127,57.040127,-18.676928,3.959627,13.842487,-18.903301,-18.468193,25.421227,55.999542,23.087252,4.6764383,-7.724881
4,0.03802882879972458,-2.770839214324951,77.0503158569336,1.5848192200910634,-7.275863454280135,85.04818371879115,11.992667,7.61483,19.949068,6.926975,-10.288485,-8.580166,10.487047,-17.586685,-19.317535,9.661886,-9.060581,15.000033,-1.2085447,-1.0497366,5.9901853,-12.306724,20.415787,-14.563013,57.19346,-18.902435,3.827152,13.960076,-18.923618,-18.47211,25.444895,56.020477,23.065975,4.6920223,-7.7513394
5,0.0341547355055809,-2.758836269378662,77.05062866210938,1.5815622850337183,-7.266914544957961,85.03557785563663,11.998131,7.6173697,19.96158,6.9277167,-10.29948,-8.580433,10.500464,-17.577597,-19.31033,9.622703,-9.046255,15.000033,-1.1938021,-1.0313108,5.97577,-12.345217,20.443195,-14.751325,57.35313,-19.126965,3.7113407,13.9971285,-18.958025,-18.474426,25.4652,56.045994,23.056131,4.7325926,-7.7650275
6,0.03259236738085747,-2.7432878017425537,77.0504379272461,1.577902530706123,-7.262051242629733,85.0195095510788,12.009786,7.6204443,19.977285,6.9281754,-10.31209,-8.580245,10.516092,-17.569155,-19.299028,9.587216,-9.032538,15.000033,-1.1716139,-1.016552,5.9638543,-12.395193,20.47002,-14.911928,57.526154,-19.357475,3.6077847,13.977411,-18.992807,-18.476242,25.475048,56.06878,23.054678,4.7907295,-7.76986
7,0.028257429599761963,-2.7284514904022217,77.04943084716797,1.5750939878753123,-7.260779201593792,85.00160242567404,12.026526,7.6234784,19.994244,6.9286346,-10.325813,-8.580305,10.535098,-17.55967,-19.286089,9.552364,-9.018667,15.000033,-1.1604029,-0.9972842,5.9572253,-12.432847,20.486816,-15.021597,57.688286,-19.55774,3.517305,13.933691,-19.038279,-18.476887,25.492662,56.093777,23.056414,4.8542333,-7.772422
8,0.02617955394089222,-2.7142155170440674,77.04857635498047,1.5719259379923247,-7.263015131631168,84.98374808438209,12.04764,7.625754,20.010828,6.928756,-10.339973,-8.581618,10.559405,-17.551544,-19.273518,9.515874,-9.004633,15.000033,-1.1545943,-0.97845185,5.9539332,-12.462718,20.497585,-15.105392,57.837307,-19.713284,3.4401202,13.901758,-19.080826,-18.476772,25.512524,56.113964,23.055883,4.9100804,-7.7790217
9,0.02462043985724449,-2.700801372528076,77.04821014404297,1.5686369588886173,-7.270852822748445,84.96631702684141,12.075257,7.6277685,20.026285,6.929056,-10.354662,-8.585586,10.59299,-17.542522,-19.263115,9.474366,-8.98838,15.000033,-1.1446309,-0.9653817,5.9526057,-12.4958315,20.506588,-15.179803,57.98225,-19.823841,3.380326,13.883327,-19.105133,-18.47516,25.527382,56.11775,23.060614,4.9570255,-7.793647
10,0.021035728976130486,-2.68668794631958,77.04551696777344,1.5650591738857358,-7.283661975922585,84.94876548706891,12.109063,7.6294975,20.041397,6.929586,-10.370608,-8.591111,10.634058,-17.532675,-19.253433,9.430135,-8.970965,15.000033,-1.1379144,-0.95396423,5.957327,-12.521441,20.511625,-15.222314,58.113205,-19.890663,3.3373432,13.861125,-19.12447,-18.472387,25.538338,56.1114,23.06555,5.0023065,-7.810593
11,0.016226576641201973,-2.672957420349121,77.04259490966797,1.5617127134448887,-7.297044924766344,84.9298670273624,12.14399,7.630275,20.057695,6.929841,-10.386892,-8.596425,10.673846,-17.525215,-19.241598,9.388974,-8.955597,15.000033,-1.1342665,-0.9426288,5.964145,-12.540189,20.512589,-15.243108,58.231907,-19.931425,3.3017464,13.846636,-19.140795,-18.470049,25.548548,56.100533,23.062206,5.042184,-7.8266144
12,0.01207368727773428,-2.655585765838623,77.04158782958984,1.5600533400660623,-7.306128271832147,84.9087702344665,12.174265,7.629841,20.07629,6.9303823,-10.403336,-8.599333,10.705238,-17.518234,-19.226332,9.352417,-8.943555,15.000033,-1.1303744,-0.9306787,5.9652514,-12.561392,20.510998,-15.268786,58.351463,-19.973759,3.263017,13.852815,-19.1552,-18.465612,25.561897,56.096546,23.045723,5.0718255,-7.8402057
13,0.0092121297493577,-2.6455748081207275,77.03956604003906,1.560397555172801,-7.310385096552314,84.88353460569805,12.200686,7.627494,20.098648,6.930704,-10.4205475,-8.597931,10.7262945,-17.513506,-19.204407,9.322378,-8.937166,15.000033,-1.1268854,-0.91788465,5.965238,-12.572056,20.50807,-15.288131,58.458275,-20.007673,3.2183208,13.890136,-19.165808,-18.461859,25.57368,56.091732,22.999327,5.0901036,-7.8469024
14,0.003248328808695078,-2.628075361251831,77.03850555419922,1.5618994000193747,-7.31243797826274,84.85545514317694,12.225504,7.6239276,20.123545,6.9312725,-10.438611,-8.593853,10.74333,-17.509392,-19.178774,9.293239,-8.933028,15.000033,-1.1209009,-0.90595835,5.960638,-12.586834,20.50337,-15.311494,58.570065,-20.036228,3.1716127,13.951702,-19.17133,-18.457539,25.587738,56.089622,22.937536,5.0981545,-7.851944
15,-0.004033389501273632,-2.6064672470092773,77.03777313232422,1.5631277005750386,-7.3113399735798925,84.8277840902417,12.245928,7.619512,20.148922,6.9316044,-10.456106,-8.590181,10.752572,-17.507847,-19.15203,9.271575,-8.931638,15.000033,-1.1088853,-0.89422286,5.943609,-12.622204,20.488903,-15.350588,58.70178,-20.06901,3.1259289,14.019887,-19.175966,-18.44678,25.60072,56.10659,22.87873,5.0973682,-7.8587837
16,-0.007719510234892368,-2.5940725803375244,77.03617858886719,1.565331412680166,-7.30617130630238,84.80366864923346,12.258766,7.6148376,20.172485,6.933038,-10.473488,-8.589721,10.75042,-17.509546,-19.12776,9.264834,-8.934307,15.000033,-1.106873,-0.8802926,5.9360847,-12.627806,20.479364,-15.358386,58.768517,-20.090446,3.09677,14.065355,-19.179996,-18.440346,25.599493,56.110466,22.825644,5.0988226,-7.8610463
17,-0.013397897593677044,-2.5800068378448486,77.0339584350586,1.5654511813497067,-7.294059971395557,84.78428844926877,12.260721,7.6101527,20.194773,6.932719,-10.489003,-8.595469,10.732363,-17.513002,-19.106983,9.273093,-8.93846,15.000033,-1.1033121,-0.8657627,5.9181323,-12.672985,20.462109,-15.362283,58.861713,-20.119019,3.075187,14.077784,-19.19333,-18.429306,25.579142,56.142685,22.783922,5.0969553,-7.856837
18,-0.019110051915049553,-2.5642340183258057,77.03253173828125,1.566066695830954,-7.2762876692131755,84.76833776920044,12.253556,7.605434,20.215803,6.932727,-10.504182,-8.605175,10.701464,-17.519962,-19.088295,9.294693,-8.945208,15.000033,-1.1037526,-0.84907174,5.9014273,-12.7087345,20.440762,-15.350141,58.91746,-20.1468,3.0680778,14.073573,-19.205997,-18.416338,25.545542,56.173836,22.74818,5.093399,-7.8498616
19,-0.029273957014083862,-2.5709455013275146,77.02964782714844,1.567601897722967,-7.258717566372641,84.75328422606647,12.246405,7.599438,20.236015,6.932322,-10.518309,-8.61401,10.6692095,-17.528723,-19.070242,9.320523,-8.953942,15.000033,-1.103333,-0.8315917,5.8826065,-12.752566,20.41369,-15.334691,58.974983,-20.158323,3.062223,14.067007,-19.223951,-18.40038,25.501226,56.219555,22.71005,5.08677,-7.8420777
20,-0.0347440168261528,-2.559803009033203,77.02985382080078,1.5706541602025812,-7.247228474173427,84.73728249962167,12.247899,7.5903983,20.255062,6.9314566,-10.531674,-8.617264,10.646204,-17.539785,-19.051512,9.343059,-8.964303,15.000033,-1.1054063,-0.8156886,5.86381,-12.779383,20.389006,-15.327768,59.016582,-20.155222,3.0517256,14.073437,-19.235308,-18.38586,25.466488,56.258904,22.682772,5.0784116,-7.8406906
21,-0.042303964495658875,-2.5444087982177734,77.02810668945312,1.5780240762661217,-7.245345514465149,84.72073367420693,12.262232,7.5775824,20.270992,6.931964,-10.544823,-8.611644,10.6397295,-17.556282,-19.032915,9.359186,-8.976123,15.000033,-1.118898,-0.80545056,5.851749,-12.77259,20.384611,-15.327792,59.020756,-20.133371,3.0400672,14.09653,-19.235216,-18.383207,25.456675,56.273937,22.679049,5.0702233,-7.8481994
22,-0.04816542938351631,-2.5315327644348145,77.0258560180664,1.5884275832061094,-7.2487064500556935,84.70361242242413,12.284157,7.5600286,20.285696,6.932139,-10.557003,-8.600278,10.637708,-17.578293,-19.012827,9.380694,-8.993365,15.000033,-1.1223081,-0.7969917,5.836877,-12.7629175,20.365973,-15.342052,59.020836,-20.081947,3.0252445,14.137061,-19.231245,-18.371357,25.423233,56.3003,22.664366,5.0601516,-7.858204
23,-0.053348053246736526,-2.519181251525879,77.02265167236328,1.598897384329454,-7.252962435843305,84.68590891169208,12.307195,7.543022,20.300537,6.93287,-10.569321,-8.588278,10.638989,-17.59856,-18.992973,9.397451,-9.009127,15.000033,-1.1287678,-0.78874516,5.8212495,-12.745805,20.35168,-15.358533,59.010433,-20.033026,3.0071082,14.178122,-19.223679,-18.362278,25.401783,56.32067,22.6613,5.048095,-7.8739076
24,-0.0581350103020668,-2.5029659271240234,77.02063751220703,1.6062900033802245,-7.252922259759306,84.66713722134516,12.325168,7.5301695,20.317545,6.933512,-10.582496,-8.580539,10.638383,-17.613523,-18.973341,9.405628,-9.020055,15.000033,-1.1426864,-0.77869475,5.8089185,-12.735246,20.349855,-15.360986,58.99914,-20.005877,2.9857311,14.199494,-19.219229,-18.361143,25.396805,56.329235,22.668121,5.03617,-7.8891287
25,-0.06371618062257767,-2.488212823867798,77.01985168457031,1.6139879098508043,-7.244992525276431,84.6433494804014,12.335721,7.5184927,20.34131,6.9332533,-10.597353,-8.578891,10.622116,-17.626923,-18.947433,9.42261,-9.034987,15.000033,-1.1394856,-0.76497763,5.7863407,-12.69438,20.33848,-15.369071,58.954727,-19.993109,2.9467714,14.221564,-19.20258,-18.355011,25.370262,56.340942,22.657589,5.015035,-7.9077697
26,-0.06879976391792297,-2.4753358364105225,77.01628875732422,1.6179577738108202,-7.233230341680826,84.61874721949849,12.3415785,7.5105233,20.366745,6.9329314,-10.613021,-8.580676,10.605392,-17.634102,-18.92238,9.429446,-9.045195,15.000033,-1.1347054,-0.74819034,5.7610765,-12.672955,20.326017,-15.376267,58.926994,-19.994802,2.8994782,14.233533,-19.188759,-18.349754,25.344603,56.356213,22.645796,4.9908915,-7.9270854
27,-0.07553286850452423,-2.4586498737335205,77.01416015625,1.6215046593101186,-7.2226763636604545,84.59455440761202,12.348106,7.504344,20.39181,6.9336514,-10.629093,-8.583278,10.592993,-17.639137,-18.898525,9.430376,-9.051908,15.000033,-1.1367162,-0.73286873,5.740944,-12.6591625,20.319826,-15.376464,58.90242,-20.005861,2.8561952,14.234598,-19.179272,-18.34791,25.335382,56.36246,22.649853,4.9709754,-7.9483743
28,-0.08098138123750687,-2.449368953704834,77.0116195678711,1.626719806071055,-7.2139189901330765,84.56694000204165,12.358419,7.495799,20.420439,6.932931,-10.643187,-8.583904,10.573262,-17.649357,-18.868021,9.447691,-9.064364,15.000033,-1.1263452,-0.7158796,5.7200375,-12.627877,20.306526,-15.376623,58.858864,-20.003317,2.8193874,14.239234,-19.162968,-18.346167,25.316582,56.36254,22.646368,4.958365,-7.975019
29,-0.0872526466846466,-2.4404680728912354,77.01000213623047,1.6302170923211399,-7.2132970450652465,84.5423429589518,12.376759,7.4875073,20.445845,6.9330244,-10.65514,-8.581828,10.565889,-17.658777,-18.840612,9.460514,-9.072285,15.000033,-1.1213108,-0.7055786,5.710041,-12.624299,20.302628,-15.374666,58.835827,-20.002853,2.8034697,14.23068,-19.158188,-18.346323,25.314655,56.355118,22.663876,4.9616766,-8.004104
30,-0.09499187022447586,-2.428518056869507,77.00926971435547,1.63716927811491,-7.214616798885279,84.51266153754344,12.398976,7.476287,20.4765,6.9322686,-10.665444,-8.57833,10.550419,-17.673138,-18.804585,9.490666,-9.086292,15.000033,-1.1112117,-0.69030637,5.702048,-12.609864,20.284801,-15.357714,58.799633,-19.98651,2.7958372,14.218744,-19.149345,-18.352024,25.322653,56.331844,22.68772,4.9776707,-8.048796
31,-0.0996616780757904,-2.4140710830688477,77.00804138183594,1.6408179022448657,-7.218765891003258,84.48581058467268,12.423349,7.4669504,20.504147,6.932127,-10.676144,-8.574612,10.543749,-17.684034,-18.773325,9.510624,-9.0953865,15.000033,-1.1007233,-0.68159246,5.697443,-12.607887,20.278929,-15.3521385,58.775352,-19.981106,2.7917528,14.204496,-19.145664,-18.355152,25.328884,56.31322,22.716507,4.993121,-8.084322
32,-0.10613701492547989,-2.400113344192505,77.00702667236328,1.6456140114691094,-7.221905760298604,84.45926643518857,12.4474325,7.458116,20.530804,6.9311643,-10.688976,-8.571485,10.540194,-17.69377,-18.744587,9.524197,-9.10355,15.000033,-1.0959002,-0.6670257,5.689645,-12.598438,20.265982,-15.342721,58.758434,-19.972868,2.779416,14.199677,-19.140789,-18.364574,25.346107,56.2953,22.751505,5.0018034,-8.112012
33,-0.11190618574619293,-2.386789560317993,77.00506591796875,1.64745771471626,-7.225342388146687,84.4341987270775,12.47096,7.451601,20.5551,6.9323654,-10.706779,-8.56903,10.543933,-17.69876,-18.721437,9.524918,-9.108515,15.000033,-1.0947875,-0.64883566,5.6783075,-12.585712,20.250975,-15.34071,58.75667,-19.967813,2.7529926,14.207456,-19.136837,-18.377464,25.368738,56.286404,22.797829,5.001498,-8.125506
34,-0.12019777297973633,-2.373114824295044,77.0043716430664,1.6489468525459503,-7.22982301339854,84.40991527685857,12.496178,7.446231,20.577925,6.932884,-10.726466,-8.566894,10.5549555,-17.70128,-18.702255,9.515237,-9.1103525,15.000033,-1.0899416,-0.6359125,5.667862,-12.576809,20.241627,-15.349808,58.76564,-19.966557,2.7208161,14.221336,-19.134132,-18.386425,25.38241,56.28561,22.844498,4.9956446,-8.126763
35,-0.12638232111930847,-2.358394145965576,77.00218200683594,1.6498783515754931,-7.23316332108105,84.38702915139486,12.520348,7.441522,20.599295,6.932975,-10.7465105,-8.565439,10.567972,-17.701237,-18.685175,9.50005,-9.109963,15.000033,-1.0826125,-0.6181879,5.651432,-12.575575,20.224949,-15.369119,58.791866,-19.97039,2.6864107,14.240757,-19.124746,-18.403337,25.402182,56.281082,22.89451,4.985289,-8.125106
36,-0.1289048045873642,-2.3433239459991455,76.99878692626953,1.6512027906559585,-7.233628577289468,84.36682276825428,12.539764,7.437369,20.618074,6.933514,-10.764745,-8.564973,10.578728,-17.70228,-18.66912,9.485699,-9.109714,15.000033,-1.0792576,-0.60709554,5.637375,-12.570682,20.217123,-15.377291,58.808746,-19.969694,2.6617868,14.253794,-19.119947,-18.411634,25.411818,56.274914,22.916735,4.970751,-8.120723
37,-0.13373374938964844,-2.3292059898376465,76.99651336669922,1.6512470001735247,-7.229268720566751,84.34955932263847,12.553301,7.434588,20.634018,6.9339266,-10.781664,-8.5664215,10.588793,-17.699697,-18.654436,9.463901,-9.105006,15.000033,-1.0777291,-0.59222496,5.6137424,-12.570311,20.205656,-15.386184,58.836433,-19.973803,2.645398,14.265505,-19.109974,-18.42441,25.433754,56.26142,22.925074,4.947281,-8.120483
38,-0.13967905938625336,-2.315187931060791,76.99468231201172,1.6490790460239773,-7.221196758347546,84.33508947640952,12.561596,7.433647,20.647242,6.9345913,-10.797505,-8.569405,10.597808,-17.695454,-18.641314,9.438383,-9.098384,15.000033,-1.0822064,-0.57265896,5.5845914,-12.575291,20.187183,-15.387727,58.877697,-19.97729,2.6333075,14.27515,-19.094606,-18.445438,25.46918,56.23617,22.92615,4.917883,-8.12214
39,-0.14241185784339905,-2.297398090362549,76.993896484375,1.648673662352249,-7.2136454253896805,84.32211633081612,12.570492,7.4317226,20.65948,6.934368,-10.811993,-8.572208,10.608047,-17.692236,-18.629833,9.41339,-9.092192,15.000033,-1.0885049,-0.5539797,5.559362,-12.575698,20.17019,-15.383276,58.911213,-19.975405,2.6235895,14.284263,-19.083645,-18.465015,25.497662,56.211937,22.91644,4.8895903,-8.118807
40,-0.14473360776901245,-2.2837154865264893,76.99319458007812,1.6498104105849205,-7.2106810396110275,84.30987999075975,12.583816,7.4278097,20.67206,6.934646,-10.825295,-8.57336,10.621179,-17.6929,-18.619993,9.393712,-9.08938,15.000033,-1.0938113,-0.5454181,5.542739,-12.574094,20.166897,-15.383568,58.93648,-19.972708,2.610713,14.293042,-19.080673,-18.46892,25.506042,56.19758,22.900671,4.8699517,-8.1099615
41,-0.1490001380443573,-2.2691235542297363,76.9936294555664,1.6511186432797589,-7.215511767766862,84.29902785737501,12.605387,7.421408,20.685335,6.934477,-10.836127,-8.572046,10.643651,-17.696362,-18.61484,9.374011,-9.087696,15.000033,-1.1054394,-0.5339617,5.5320683,-12.571199,20.159752,-15.383684,58.964993,-19.962633,2.5905256,14.303946,-19.07887,-18.476822,25.519499,56.184124,22.901817,4.860702,-8.096869
42,-0.15183496475219727,-2.2556350231170654,76.9929428100586,1.6546166324128553,-7.224757906031586,84.28920774079151,12.6312685,7.4129934,20.698587,6.9341974,-10.844991,-8.56913,10.670578,-17.702078,-18.612612,9.356457,-9.088053,15.000033,-1.1193105,-0.5208734,5.5274863,-12.570626,20.149652,-15.382799,58.99702,-19.94514,2.5661385,14.316295,-19.078295,-18.48705,25.529087,56.16865,22.909369,4.859568,-8.079293
43,-0.15739598870277405,-2.2446725368499756,76.99098205566406,1.658927180101013,-7.235015752749666,84.28002933572257,12.65814,7.404163,20.711582,6.934249,-10.854344,-8.566125,10.69749,-17.708294,-18.610386,9.341822,-9.089628,15.000033,-1.1325983,-0.5112051,5.5262794,-12.567691,20.145632,-15.38436,59.0226,-19.93334,2.5397236,14.329001,-19.080645,-18.490744,25.529806,56.156605,22.90821,4.8630786,-8.060614
44,-0.16220635175704956,-2.231739044189453,76.98945617675781,1.6619326249696038,-7.243565599709902,84.27123079327609,12.682682,7.397078,20.724,6.933893,-10.865224,-8.564971,10.721418,-17.714102,-18.605383,9.328694,-9.090634,15.000033,-1.1445081,-0.49950653,5.523356,-12.564651,20.140633,-15.390473,59.046642,-19.93781,2.5096617,14.344686,-19.084158,-18.495132,25.531374,56.14708,22.895456,4.869613,-8.047157
45,-0.1663895845413208,-2.2178823947906494,76.98748016357422,1.663641006347331,-7.247864841074972,84.26337469334902,12.701104,7.39183,20.734966,6.9348693,-10.8798895,-8.566349,10.740332,-17.715557,-18.5974,9.314689,-9.089093,15.000033,-1.1570184,-0.48698226,5.517194,-12.558921,20.138124,-15.3971815,59.065327,-19.963547,2.475022,14.362204,-19.087969,-18.497374,25.533695,56.13778,22.86347,4.879516,-8.041347
46,-0.17172777652740479,-2.2063982486724854,76.98487091064453,1.6634040931403598,-7.251890750702275,84.25711129559231,12.719106,7.3885884,20.744482,6.9345274,-10.895967,-8.569564,10.76267,-17.714205,-18.589499,9.2934675,-9.082871,15.000033,-1.1700294,-0.46986282,5.508459,-12.550948,20.134209,-15.415615,59.085087,-20.012953,2.4306617,14.385257,-19.091713,-18.50087,25.53918,56.13006,22.820536,4.8951483,-8.040058
47,-0.17465025186538696,-2.1933679580688477,76.98258972167969,1.6637208197117255,-7.255792867227032,84.2495009901699,12.7371435,7.3854513,20.755165,6.934459,-10.912185,-8.572905,10.779295,-17.71486,-18.578264,9.282698,-9.081652,15.000033,-1.1821964,-0.45426923,5.5026765,-12.544626,20.132608,-15.42856,59.10164,-20.062544,2.3896492,14.40668,-19.096436,-18.502405,25.542978,56.1222,22.776047,4.9119663,-8.040823
48,-0.17761296033859253,-2.179962635040283,76.9811782836914,1.6636436263089454,-7.2637924295883485,84.23945023083851,12.760761,7.3828397,20.76782,6.9342613,-10.927246,-8.575445,10.797521,-17.716032,-18.56598,9.276257,-9.083562,15.000033,-1.183046,-0.4378426,5.4952374,-12.542741,20.127527,-15.464232,59.12279,-20.117355,2.352915,14.432901,-19.09938,-18.50708,25.549124,56.121628,22.75021,4.927658,-8.043081
49,-0.1824522316455841,-2.1687755584716797,76.97880554199219,1.6641002125397288,-7.276658482318951,84.22376373402993,12.791617,7.380859,20.78563,6.9346337,-10.941068,-8.576201,10.8134,-17.718084,-18.54913,9.280919,-9.091995,15.000033,-1.1829454,-0.4230958,5.4989142,-12.543684,20.125113,-15.48399,59.139977,-20.15658,2.326912,14.455272,-19.104658,-18.509281,25.552176,56.11691,22.732403,4.9470496,-8.042031
50,-0.1860935091972351,-2.1575703620910645,76.97693634033203,1.664320402479781,-7.29315954442706,84.2043637921262,12.8279085,7.379698,20.80663,6.934817,-10.953999,-8.576111,10.826546,-17.722069,-18.528175,9.297096,-9.106939,15.000033,-1.1767776,-0.40786284,5.505397,-12.546904,20.123121,-15.511051,59.15619,-20.198883,2.3065934,14.480402,-19.112267,-18.511143,25.556646,56.117123,22.724932,4.968916,-8.041411
51,-0.19174489378929138,-2.1450693607330322,76.9753646850586,1.66463964317759,-7.307814539674736,84.18728184671184,12.861133,7.3783894,20.8253,6.9353113,-10.965891,-8.575827,10.839796,-17.724703,-18.511225,9.310166,-9.12054,15.000033,-1.1752205,-0.395907,5.5135484,-12.546405,20.12288,-15.518307,59.16524,-20.220783,2.292701,14.497576,-19.118309,-18.511465,25.558693,56.115955,22.720446,4.9837446,-8.041884
52,-0.1912442445755005,-2.133378505706787,76.97383880615234,1.666853089409791,-7.325212116513414,84.1716175284126,12.897439,7.3736773,20.843046,6.9336843,-10.977129,-8.577013,10.85336,-17.732965,-18.494646,9.331097,-9.13888,15.000033,-1.1632967,-0.3873585,5.5180078,-12.555715,20.121283,-15.556648,59.191174,-20.25795,2.270203,14.518164,-19.13018,-18.512722,25.56763,56.133293,22.736988,4.9882383,-8.049127
53,-0.1952725499868393,-2.1222023963928223,76.97221374511719,1.6700608104821049,-7.336876120245172,84.16384028269422,12.92326,7.3668733,20.853205,6.9340587,-10.988154,-8.579642,10.868165,-17.741539,-18.48856,9.343429,-9.153621,15.000033,-1.1575421,-0.38563323,5.520129,-12.561664,20.120695,-15.569028,59.211666,-20.26255,2.250732,14.526195,-19.134968,-18.513111,25.570538,56.148926,22.759825,4.971254,-8.063361
54,-0.19932200014591217,-2.1100900173187256,76.97071075439453,1.6751488871631195,-7.3473146373508476,84.15957781581932,12.946417,7.35748,20.860083,6.9339857,-10.998454,-8.583211,10.882224,-17.752338,-18.4868,9.357476,-9.169914,15.000033,-1.1483159,-0.3887998,5.5188274,-12.573449,20.119452,-15.587987,59.240856,-20.259813,2.2288954,14.530212,-19.140705,-18.513744,25.576435,56.175304,22.79913,4.93911,-8.084579
55,-0.2024221271276474,-2.099947690963745,76.96793365478516,1.6805978804832553,-7.356695159525272,84.15777577096321,12.967119,7.347337,20.864702,6.9342012,-11.008113,-8.586815,10.894189,-17.766193,-18.486536,9.376073,-9.188386,15.000033,-1.1379496,-0.39414382,5.5149703,-12.591163,20.117897,-15.607526,59.2791,-20.254755,2.207551,14.529956,-19.14563,-18.514217,25.58232,56.20656,22.843359,4.9025154,-8.105335
56,-0.20377026498317719,-2.0909266471862793,76.9654541015625,1.6858492898522064,-7.365837073572669,84.15790000116633,12.987575,7.3376207,20.867393,6.9331474,-11.01673,-8.589377,10.902988,-17.779905,-18.486029,9.4015,-9.209201,15.000033,-1.1261249,-0.39887312,5.5089283,-12.614709,20.113146,-15.63605,59.324684,-20.254673,2.188742,14.528377,-19.149853,-18.514639,25.586672,56.239616,22.880405,4.873297,-8.119426
57,-0.20674946904182434,-2.076533317565918,76.96349334716797,1.691320844182518,-7.374658601326745,84.15990919261014,13.00705,7.328599,20.868656,6.932835,-11.0252495,-8.590024,10.905469,-17.796326,-18.483334,9.440424,-9.234912,15.000033,-1.1153419,-0.40242296,5.5038705,-12.639939,20.106451,-15.6608715,59.371124,-20.254065,2.1756165,14.522426,-19.153534,-18.514435,25.583086,56.27119,22.903389,4.85555,-8.126113
58,-0.20674020051956177,-2.0663676261901855,76.96117401123047,1.6950359958531533,-7.383671986880151,84.16547968928579,13.024672,7.321598,20.866468,6.9333787,-11.032939,-8.589826,10.909059,-17.810215,-18.483204,9.479299,-9.259686,15.000033,-1.116446,-0.40515435,5.50404,-12.644793,20.104269,-15.6660595,59.392147,-20.244904,2.1699874,14.511294,-19.157543,-18.514355,25.580935,56.293133,22.916615,4.8456554,-8.129608
59,-0.20913097262382507,-2.0553555488586426,76.95975494384766,1.6992640849920473,-7.392229047186335,84.17204647821512,13.042498,7.3136535,20.863106,6.933066,-11.040474,-8.589532,10.910876,-17.826319,-18.482977,9.522501,-9.286681,15.000033,-1.1150101,-0.408129,5.5030746,-12.652808,20.100159,-15.674754,59.419918,-20.236767,2.1622767,14.499451,-19.164286,-18.51388,25.578054,56.322124,22.926184,4.8358116,-8.124971
60,-0.21013838052749634,-2.045677661895752,76.95829010009766,1.7028093042523342,-7.399553698324773,84.17854932766636,13.059848,7.3067985,20.858526,6.931665,-11.047556,-8.590586,10.916358,-17.839005,-18.48464,9.556701,-9.31052,15.000033,-1.1126817,-0.41076118,5.4994206,-12.662085,20.095781,-15.685966,59.455856,-20.23228,2.1484408,14.492339,-19.173456,-18.51325,25.577585,56.357536,22.928108,4.8234177,-8.10905
61,-0.21128758788108826,-2.029315948486328,76.95623779296875,1.7057006802644934,-7.407581477613808,84.1849509088112,13.078029,7.301071,20.852207,6.9321027,-11.0573225,-8.596153,10.927998,-17.84859,-18.488329,9.583327,-9.333227,15.000033,-1.1040628,-0.41290623,5.4884305,-12.6932745,20.089533,-15.716744,59.53245,-20.241632,2.1186929,14.488739,-19.197197,-18.511435,25.584684,56.426395,22.929527,4.8005414,-8.072713
62,-0.2108399122953415,-2.0151960849761963,76.95426177978516,1.7047744493049173,-7.417181002649931,84.19421444899993,13.097855,7.2995133,20.84179,6.9326386,-11.067972,-8.605238,10.95615,-17.848776,-18.499685,9.583246,-9.344144,15.000033,-1.0974958,-0.411391,5.476039,-12.714953,20.080322,-15.7561865,59.604652,-20.25602,2.0845187,14.494798,-19.216263,-18.508524,25.598293,56.493763,22.923347,4.7769217,-8.031048
63,-0.20957791805267334,-2.0035219192504883,76.95270538330078,1.7034051656545082,-7.42408151964134,84.20369733850248,13.114474,7.298427,20.830906,6.9327564,-11.076446,-8.611017,10.983287,-17.848288,-18.511806,9.578853,-9.352798,15.000033,-1.0909724,-0.40938252,5.460733,-12.730399,20.068827,-15.790946,59.673058,-20.270342,2.05021,14.505099,-19.233534,-18.504976,25.610807,56.558838,22.912394,4.7555,-7.9838066
64,-0.2087496668100357,-1.9922524690628052,76.95237731933594,1.7047696116764124,-7.424942253385767,84.2118744998937,13.123837,7.296029,20.821676,6.9337516,-11.081558,-8.606737,11.000333,-17.849636,-18.52183,9.577613,-9.361717,15.000033,-1.0839974,-0.41134608,5.442406,-12.751656,20.060595,-15.814315,59.74575,-20.286505,2.020387,14.510893,-19.250849,-18.501951,25.615433,56.61758,22.901083,4.7396364,-7.93117
65,-0.2056039422750473,-1.9816951751708984,76.95293426513672,1.7103912461929363,-7.418334822088985,84.2177515144379,13.125278,7.2897034,20.815496,6.9335585,-11.079186,-8.583117,11.000557,-17.859482,-18.526522,9.588618,-9.374785,15.000033,-1.0670204,-0.41778547,5.414869,-12.779603,20.04587,-15.843044,59.82412,-20.311726,1.9958204,14.526212,-19.260256,-18.496216,25.602673,56.667225,22.886002,4.735463,-7.8754306
66,-0.20513778924942017,-1.9703693389892578,76.9535140991211,1.7185852716627692,-7.406457066930443,84.2220638759456,13.119587,7.2818546,20.810873,6.935909,-11.073378,-8.546281,10.992578,-17.871374,-18.52929,9.59989,-9.386674,15.000033,-1.0444123,-0.42790115,5.383931,-12.812625,20.02971,-15.86756,59.906822,-20.340425,1.973794,14.54454,-19.26302,-18.489794,25.574316,56.706486,22.864246,4.7393146,-7.811606
67,-0.2030293196439743,-1.9611643552780151,76.95474243164062,1.7245258539350459,-7.390718655193132,84.22751207655568,13.109022,7.275873,20.805807,6.9371405,-11.066564,-8.512531,10.981677,-17.881517,-18.53339,9.6085205,-9.396598,15.000033,-1.0260241,-0.43734288,5.3519516,-12.832001,20.01807,-15.879269,59.97086,-20.364044,1.9576886,14.55922,-19.264885,-18.485289,25.549393,56.738953,22.843876,4.74252,-7.750929
68,-0.202193021774292,-1.9546928405761719,76.9551773071289,1.7252128214456992,-7.372528929095754,84.23602424529076,13.094957,7.2763257,20.79856,6.937459,-11.063709,-8.498242,10.974719,-17.883327,-18.542595,9.606126,-9.4002,15.000033,-0.9923923,-0.44293898,5.312705,-12.883384,19.990685,-15.901954,60.06745,-20.36907,1.9430013,14.567481,-19.260204,-18.475317,25.5057,56.783016,22.813301,4.7342496,-7.7010193
69,-0.1980825513601303,-1.9427199363708496,76.95584106445312,1.716559107482121,-7.349384027601955,84.24962926074048,13.073088,7.286681,20.787811,6.937002,-11.067488,-8.515469,10.97374,-17.869963,-18.560236,9.583375,-9.392088,15.000033,-0.9752375,-0.43874103,5.2740617,-12.90162,19.973356,-15.898602,60.12304,-20.353992,1.938002,14.560651,-19.258171,-18.469463,25.484783,56.821346,22.789669,4.708767,-7.664831
70,-0.19264981150627136,-1.9321600198745728,76.95648956298828,1.702116394681701,-7.3215288154114,84.2662968836812,13.044419,7.3040605,20.775024,6.9360723,-11.075411,-8.553045,10.974952,-17.846659,-18.583265,9.547536,-9.376344,15.000033,-0.9595173,-0.42503154,5.2284093,-12.923374,19.943707,-15.882913,60.185738,-20.316452,1.9362153,14.54814,-19.261934,-18.459795,25.465405,56.873585,22.759785,4.6709037,-7.637588
71,-0.1901129186153412,-1.9223878383636475,76.95730590820312,1.6865761475265757,-7.294202625403412,84.28439845643697,13.015995,7.3225164,20.760914,6.9351444,-11.082945,-8.591854,10.978449,-17.822002,-18.608337,9.509591,-9.35985,15.000033,-0.9465826,-0.41363913,5.185829,-12.93083,19.921387,-15.857786,60.22256,-20.275448,1.9414892,14.530428,-19.26123,-18.452536,25.453241,56.916008,22.738937,4.635292,-7.6227503
72,-0.18429556488990784,-1.9118001461029053,76.95858764648438,1.6757660612438179,-7.272556771971241,84.30220340092956,12.995095,7.3371944,20.746027,6.9350586,-11.08665,-8.613394,10.987148,-17.803352,-18.633053,9.476557,-9.348058,15.000033,-0.9290049,-0.41151968,5.1496468,-12.933044,19.908045,-15.832414,60.239006,-20.240505,1.952275,14.511275,-19.254581,-18.447748,25.441967,56.94995,22.732502,4.6141543,-7.6220365
73,-0.180544912815094,-1.90142023563385,76.95982360839844,1.6722415989967425,-7.25911924238213,84.31909053339734,12.985366,7.3448343,20.730612,6.935487,-11.083939,-8.607141,11.001879,-17.79438,-18.656805,9.453077,-9.344267,15.000033,-0.90735483,-0.41679195,5.120305,-12.932977,19.88674,-15.788188,60.23916,-20.192923,1.9716761,14.493376,-19.245422,-18.439266,25.42796,56.983467,22.737076,4.616407,-7.6498566
74,-0.17160046100616455,-1.8878536224365234,76.9638442993164,1.671049363811505,-7.25136238336135,84.33713118308573,12.981864,7.3498955,20.713362,6.9374666,-11.077434,-8.585001,11.023603,-17.78978,-18.681957,9.430876,-9.342894,15.000033,-0.8887947,-0.42606804,5.0972977,-12.924792,19.864046,-15.720503,60.221207,-20.129322,1.9979942,14.46843,-19.245733,-18.428518,25.41775,57.02721,22.750221,4.6322193,-7.695222
75,-0.1636447161436081,-1.8755624294281006,76.96421813964844,1.6718959940516198,-7.245344974098247,84.35469040857494,12.981791,7.354288,20.696157,6.937515,-11.069685,-8.561187,11.047881,-17.784754,-18.707386,9.408232,-9.342423,15.000033,-0.8746729,-0.4335993,5.0742416,-12.910529,19.835348,-15.6480665,60.195007,-20.068666,2.0228968,14.450591,-19.253078,-18.412191,25.417833,57.076355,22.76539,4.6498814,-7.7441278
76,-0.15832576155662537,-1.8644886016845703,76.96512603759766,1.6678876854840368,-7.238968956479734,84.37232452104597,12.979019,7.3627124,20.678856,6.9394827,-11.065613,-8.550442,11.073926,-17.774632,-18.73355,9.378108,-9.33765,15.000033,-0.85460585,-0.44210288,5.053089,-12.8990965,19.817211,-15.60157,60.165337,-20.02777,2.0389872,14.443955,-19.249676,-18.400444,25.409885,57.10588,22.767855,4.659335,-7.7716093
77,-0.1513330340385437,-1.8536714315414429,76.96765899658203,1.659889636663677,-7.229898926486469,84.38947465276928,12.973254,7.3770947,20.66177,6.939396,-11.0649805,-8.559224,11.102237,-17.754429,-18.761314,9.333676,-9.324898,15.000033,-0.8347348,-0.44472662,5.0347786,-12.883229,19.810278,-15.574511,60.123363,-20.006971,2.0436044,14.452128,-19.250284,-18.395456,25.399693,57.125275,22.753544,4.6575212,-7.76113
78,-0.1450783759355545,-1.842537760734558,76.9684066772461,1.6477664266030747,-7.220634949680992,84.40659918097758,12.966507,7.39511,20.644688,6.9398327,-11.067399,-8.57909,11.134689,-17.727097,-18.79064,9.277386,-9.305877,15.000033,-0.82261014,-0.44090912,5.0218525,-12.855641,19.799007,-15.533378,60.065365,-19.97976,2.0408125,14.472538,-19.262014,-18.386168,25.384895,57.144287,22.715555,4.651613,-7.7290606
79,-0.13621637225151062,-1.832206130027771,76.96843719482422,1.6355549191267638,-7.213637521896024,84.4239643809559,12.961745,7.4131207,20.627087,6.940061,-11.070081,-8.601211,11.168095,-17.700914,-18.819735,9.224418,-9.289109,15.000033,-0.80761415,-0.43902397,5.0103297,-12.833004,19.792383,-15.508915,60.011726,-19.966125,2.0328977,14.494281,-19.270884,-18.379707,25.373028,57.157726,22.679022,4.640372,-7.6949677
80,-0.1282145082950592,-1.825385570526123,76.96723937988281,1.6261793715151152,-7.211608921965432,84.4421461466458,12.961758,7.427927,20.608658,6.9406466,-11.071452,-8.616916,11.201014,-17.681995,-18.84757,9.186539,-9.280894,15.000033,-0.79075176,-0.44163793,5.005286,-12.815447,19.78802,-15.490199,59.96519,-19.956953,2.022914,14.506583,-19.27233,-18.374327,25.361017,57.16122,22.647581,4.6256685,-7.6773224
81,-0.12192829698324203,-1.816896677017212,76.96658325195312,1.6223030044879452,-7.216425724651734,84.46094959286371,12.970372,7.4371986,20.589117,6.939701,-11.070475,-8.622806,11.233241,-17.671186,-18.873442,9.1688175,-9.284286,15.000033,-0.7731701,-0.44985923,5.0083194,-12.805765,19.786356,-15.480309,59.9312,-19.955612,2.0079265,14.505585,-19.267855,-18.371458,25.351887,57.155956,22.61661,4.6068907,-7.6839495
82,-0.1119551956653595,-1.8076635599136353,76.96540069580078,1.6199803011527647,-7.226195539630122,84.48027672049635,12.982764,7.4441195,20.568697,6.9408865,-11.069297,-8.623923,11.263758,-17.666367,-18.89735,9.167251,-9.296954,15.000033,-0.7552165,-0.46135443,5.01778,-12.799318,19.785282,-15.473856,59.902805,-19.958529,1.9880861,14.496847,-19.261839,-18.368134,25.34289,57.14497,22.583426,4.5844913,-7.702561
83,-0.1044478490948677,-1.7986767292022705,76.9646224975586,1.6189155520455285,-7.239148467205021,84.50095177598686,12.998386,7.450444,20.547302,6.94152,-11.067844,-8.624169,11.298394,-17.66283,-18.923046,9.165891,-9.310101,15.000033,-0.7361131,-0.47564223,5.0326276,-12.790021,19.785362,-15.4665165,59.869816,-19.95713,1.9693323,14.486173,-19.251627,-18.363264,25.326168,57.12936,22.551039,4.5576825,-7.7255855
84,-0.09497097879648209,-1.7918099164962769,76.9640884399414,1.617487086969495,-7.249662977438008,84.5216194924138,13.0110655,7.4564266,20.527185,6.941575,-11.06692,-8.627187,11.32709,-17.660818,-18.947943,9.170658,-9.326123,15.000033,-0.71508825,-0.491507,5.0395813,-12.788102,19.785997,-15.462498,59.849453,-19.959257,1.9570903,14.47443,-19.244986,-18.360561,25.318542,57.121796,22.554386,4.5291653,-7.742163
85,-0.08314788341522217,-1.784061312675476,76.96511840820312,1.6161637986845252,-7.257847147761311,84.54282451276593,13.020602,7.4624557,20.508488,6.9412293,-11.067216,-8.634428,11.354007,-17.656328,-18.974943,9.172329,-9.340404,15.000033,-0.69125193,-0.50970906,5.040431,-12.787892,19.786413,-15.457182,59.83285,-19.960056,1.954331,14.463244,-19.238394,-18.359423,25.314182,57.117756,22.600964,4.497443,-7.756115
86,-0.07721860706806183,-1.7775429487228394,76.96284484863281,1.6150151960978147,-7.267765453366262,84.56628083237042,13.030539,7.468119,20.488676,6.9416943,-11.068816,-8.643674,11.384601,-17.652998,-19.00518,9.172625,-9.354854,15.000033,-0.6675573,-0.5326211,5.0453467,-12.786034,19.788097,-15.438035,59.811493,-19.946754,1.9602602,14.4472,-19.225866,-18.358196,25.31045,57.10809,22.68223,4.4557195,-7.773122
87,-0.07004991173744202,-1.7721381187438965,76.96142578125,1.6132185583114933,-7.276926607508577,84.589335955134,13.039636,7.473971,20.469692,6.941803,-11.07005,-8.653648,11.411752,-17.649641,-19.033943,9.17685,-9.370677,15.000033,-0.6461809,-0.55410343,5.0451574,-12.786388,19.789536,-15.422872,59.799267,-19.939005,1.966376,14.432589,-19.222485,-18.358606,25.314224,57.11029,22.765907,4.4160895,-7.7803082
88,-0.06322357058525085,-1.7643319368362427,76.96058654785156,1.6107811718629752,-7.287758470665346,84.61281136496491,13.05077,7.481665,20.449455,6.941814,-11.070325,-8.663398,11.442702,-17.643116,-19.062864,9.17717,-9.383711,15.000033,-0.6295281,-0.5716619,5.046184,-12.784554,19.790716,-15.41142,59.78782,-19.932491,1.9692495,14.422266,-19.222395,-18.359533,25.318731,57.11762,22.817286,4.3787575,-7.7714305
89,-0.055544283241033554,-1.75879967212677,76.96051788330078,1.6069814648658372,-7.301144336390639,84.63622035416753,13.065668,7.4915605,20.428398,6.940812,-11.06864,-8.673036,11.477883,-17.634573,-19.090286,9.174689,-9.394375,15.000033,-0.6165685,-0.58587545,5.04847,-12.782302,19.791473,-15.406727,59.780758,-19.925922,1.9673061,14.418812,-19.224422,-18.360165,25.320152,57.133488,22.821623,4.3396697,-7.7384896
90,-0.04842573031783104,-1.7518322467803955,76.96063232421875,1.6012504141811454,-7.3170793926596325,84.66032171131886,13.083177,7.503153,20.406166,6.9407134,-11.066849,-8.68293,11.518105,-17.62345,-19.11781,9.168183,-9.402627,15.000033,-0.6076902,-0.5979212,5.0529394,-12.778587,19.79318,-15.403426,59.775543,-19.917803,1.9636897,14.419138,-19.231047,-18.361305,25.320898,57.159195,22.798588,4.296872,-7.686185
91,-0.04037538915872574,-1.74555504322052,76.9610824584961,1.5946864933925728,-7.333133942874556,84.68510664463514,13.1000185,7.515648,20.382944,6.9413214,-11.064799,-8.69252,11.558157,-17.612612,-19.14564,9.162154,-9.410433,15.000033,-0.59983206,-0.6086202,5.057062,-12.774537,19.795135,-15.40305,59.770245,-19.911303,1.9592409,14.420317,-19.241018,-18.362316,25.321484,57.18672,22.763556,4.2617745,-7.6291876
92,-0.028576519340276718,-1.737210750579834,76.96173858642578,1.589691540845241,-7.347214522608736,84.71010623379259,13.11486,7.526859,20.359396,6.9415507,-11.063218,-8.701071,11.596054,-17.60287,-19.174677,9.15636,-9.417945,15.000033,-0.590082,-0.6204037,5.0590644,-12.772897,19.797585,-15.405067,59.76597,-19.90879,1.9545624,14.419127,-19.251951,-18.363455,25.324453,57.20578,22.73403,4.246454,-7.583663
93,-0.02214064821600914,-1.7314735651016235,76.9616470336914,1.5845869458044664,-7.35556398997814,84.7367121411644,13.121559,7.5369167,20.334488,6.941394,-11.060555,-8.708506,11.624356,-17.594568,-19.205744,9.155654,-9.426497,15.000033,-0.58005965,-0.63357764,5.0547147,-12.774707,19.802568,-15.410634,59.76259,-19.915066,1.950931,14.41328,-19.263739,-18.365812,25.336975,57.20964,22.710382,4.262977,-7.554437
94,-0.013375603593885899,-1.7240900993347168,76.96240234375,1.5798020297812922,-7.359906818032465,84.76385923848149,13.122994,7.545869,20.309156,6.941097,-11.057486,-8.715151,11.644527,-17.590317,-19.23673,9.162077,-9.437516,15.000033,-0.5677608,-0.6481069,5.0461907,-12.78079,19.804232,-15.414635,59.762306,-19.919,1.9475297,14.405345,-19.272137,-18.366812,25.346205,57.200832,22.676584,4.3022194,-7.5332217
95,-0.006746821571141481,-1.7158929109573364,76.9619140625,1.575705683802303,-7.367159803601414,84.79051082404199,13.127613,7.5546813,20.283615,6.941877,-11.0554285,-8.720789,11.669631,-17.584513,-19.268133,9.165446,-9.447543,15.000033,-0.5606237,-0.66171336,5.0361447,-12.788153,19.810555,-15.4247875,59.769917,-19.934679,1.9413247,14.397474,-19.28448,-18.370968,25.375593,57.19498,22.66493,4.343176,-7.5194983
96,0.0020802433136850595,-1.7108656167984009,76.96142578125,1.571887711684157,-7.3833470093739875,84.81413283724338,13.145406,7.563636,20.260172,6.9418674,-11.054417,-8.725268,11.708056,-17.577358,-19.296824,9.162555,-9.456107,15.000033,-0.54967624,-0.6745467,5.0354576,-12.7923155,19.814667,-15.431553,59.77587,-19.942457,1.9319768,14.39277,-19.291107,-18.37394,25.393848,57.193863,22.667646,4.3638577,-7.5076084
97,0.010528888553380966,-1.703827142715454,76.96240997314453,1.5672101335981015,-7.414341924641772,84.83302658750078,13.18345,7.573438,20.240114,6.942604,-11.055841,-8.728136,11.767154,-17.567986,-19.32125,9.152851,-9.46445,15.000033,-0.5349933,-0.68567884,5.046262,-12.79491,19.81697,-15.437811,59.787525,-19.94778,1.9175814,14.39121,-19.292578,-18.37562,25.4051,57.204803,22.703657,4.3534923,-7.499415
98,0.02210560254752636,-1.6808741092681885,76.9634780883789,1.5628602097793902,-7.455932711454094,84.84871723625001,13.236163,7.583982,20.222204,6.9429817,-11.058208,-8.729692,11.843968,-17.55404,-19.344282,9.131566,-9.46897,15.000033,-0.5187924,-0.6958527,5.06292,-12.798714,19.821075,-15.450151,59.80752,-19.957796,1.8990415,14.391689,-19.291637,-18.378628,25.421057,57.225037,22.769022,4.3244367,-7.4968305
99,0.031924229115247726,-1.6741371154785156,76.9616928100586,1.5583506448346707,-7.497726607241049,84.86433113425224,13.288866,7.593441,20.203894,6.9437785,-11.061273,-8.730859,11.919506,-17.543062,-19.36619,9.113457,-9.475316,15.000033,-0.50171036,-0.7064573,5.081201,-12.80065,19.824617,-15.461804,59.82434,-19.962635,1.8787962,14.395791,-19.28869,-18.3814,25.432983,57.244587,22.832815,4.292612,-7.4959126
100,0.03644559159874916,-1.6718112230300903,76.96011352539062,1.5552208755103174,-7.531085329398425,84.88344089726209,13.32955,7.600757,20.181906,6.9435835,-11.063541,-8.7325945,11.985493,-17.532625,-19.391985,9.095025,-9.480642,15.000033,-0.487621,-0.7172712,5.094303,-12.803128,19.82726,-15.474869,59.836872,-19.963762,1.8577117,14.40559,-19.28659,-18.383926,25.446304,57.25902,22.875185,4.272277,-7.4959564
101,0.04427044466137886,-1.6664068698883057,76.95780944824219,1.5531801851835694,-7.550694551664077,84.9089128839515,13.349466,7.6052027,20.152386,6.944365,-11.065376,-8.73494,12.034125,-17.526405,-19.423302,9.081119,-9.48736,15.000033,-0.47965133,-0.7293227,5.0961537,-12.806418,19.82925,-15.492403,59.846844,-19.959383,1.834619,14.424929,-19.287148,-18.387026,25.467228,57.268635,22.886734,4.2685733,-7.496897
102,0.04976704344153404,-1.6616060733795166,76.95597076416016,1.5525400059501988,-7.5622660248815725,84.93785573141247,13.3576145,7.6067224,20.118431,6.945443,-11.067355,-8.737234,12.072391,-17.523325,-19.457523,9.070544,-9.495673,15.000033,-0.47547495,-0.74216396,5.0932174,-12.80786,19.829885,-15.508169,59.851387,-19.94462,1.8099831,14.450967,-19.290215,-18.390196,25.489977,57.27596,22.876335,4.2737274,-7.498036
103,0.05226399376988411,-1.6562869548797607,76.95513153076172,1.5508950548585008,-7.572497133520195,84.9662672893115,13.364134,7.6077495,20.086124,6.9455314,-11.068958,-8.740379,12.107394,-17.519632,-19.491163,9.06137,-9.503409,15.000033,-0.4711928,-0.7541129,5.0920095,-12.808159,19.829632,-15.519428,59.850273,-19.927961,1.7858784,14.477729,-19.293812,-18.392128,25.50728,57.281376,22.859138,4.281881,-7.500688
104,0.05766597017645836,-1.6489486694335938,76.9544906616211,1.5483023730736023,-7.588831568022061,84.9900397108587,13.379107,7.6117,20.060808,6.945746,-11.070845,-8.7452965,12.147722,-17.514587,-19.520689,9.051028,-9.507882,15.000033,-0.46533158,-0.76048696,5.094439,-12.80715,19.828705,-15.534438,59.847782,-19.927279,1.7629182,14.50212,-19.299765,-18.394876,25.530453,57.292774,22.862904,4.2855783,-7.508835
105,0.06739067286252975,-1.6428723335266113,76.95327758789062,1.5427278187518145,-7.6130554431203015,85.00672241627791,13.40554,7.6209507,20.047249,6.9463844,-11.07384,-8.754368,12.195251,-17.5037,-19.544468,9.037826,-9.50672,15.000033,-0.4541322,-0.7619271,5.1062617,-12.805539,19.827684,-15.545436,59.8372,-19.938896,1.7472547,14.522605,-19.30485,-18.397438,25.545895,57.3059,22.881453,4.2853923,-7.5179152
106,0.06948234140872955,-1.6411058902740479,76.95335388183594,1.5348032650050154,-7.642092848151671,85.01946600151592,13.438851,7.633886,20.040667,6.9466944,-11.077403,-8.766351,12.25291,-17.4858,-19.567244,9.010102,-9.496611,15.000033,-0.44018614,-0.75621134,5.122239,-12.801865,19.82543,-15.560943,59.82018,-19.965527,1.7355168,14.543379,-19.309927,-18.402903,25.564716,57.321014,22.915733,4.283512,-7.5295906
107,0.07167001068592072,-1.6399747133255005,76.95305633544922,1.527359967428264,-7.673079595720964,85.03037095328065,13.474058,7.6446805,20.035713,6.947048,-11.080622,-8.776859,12.30497,-17.473837,-19.585703,8.995684,-9.491456,15.000033,-0.42424673,-0.75118995,5.141859,-12.798103,19.8234,-15.573448,59.802326,-19.992233,1.7194186,14.559423,-19.315048,-18.407877,25.576868,57.33466,22.953499,4.280054,-7.5469265
108,0.07385603338479996,-1.6370800733566284,76.95277404785156,1.5259874173492085,-7.702280950304002,85.04148285818074,13.50582,7.647316,20.02696,6.9477744,-11.0828705,-8.780958,12.347367,-17.472174,-19.601278,8.994763,-9.495631,15.000033,-0.4080391,-0.7522083,5.1624746,-12.794573,19.822054,-15.578655,59.788647,-20.00491,1.6913998,14.565915,-19.31888,-18.410461,25.58146,57.34125,22.987406,4.2750435,-7.573064
109,0.07830726355314255,-1.6357696056365967,76.95204162597656,1.5315868357337301,-7.733351211982732,85.05460977312983,13.5371,7.6390204,20.010014,6.9475546,-11.082799,-8.776162,12.388138,-17.481398,-19.617443,9.000604,-9.509245,15.000033,-0.39431685,-0.7577449,5.186758,-12.786194,19.820147,-15.584419,59.777203,-20.012947,1.6398263,14.562923,-19.328123,-18.413612,25.587812,57.345226,23.031237,4.2696853,-7.620342
110,0.07660709321498871,-1.6367498636245728,76.94944763183594,1.542520953353724,-7.765214175814073,85.06787420439122,13.568261,7.622356,19.989393,6.9465737,-11.081427,-8.764993,12.423991,-17.501375,-19.631716,9.016155,-9.530861,15.000033,-0.3817802,-0.76332384,5.2116194,-12.776431,19.814066,-15.590743,59.77086,-20.019575,1.5719314,14.552103,-19.338446,-18.422043,25.598751,57.344433,23.086256,4.2642107,-7.68249
111,0.07382043451070786,-1.6374760866165161,76.94768524169922,1.5535462945361314,-7.794925364670168,85.07989212630993,13.595637,7.6045117,19.969687,6.947059,-11.07985,-8.752299,12.452936,-17.52432,-19.642418,9.038449,-9.554692,15.000033,-0.36657006,-0.7709625,5.2358747,-12.767899,19.808266,-15.589862,59.766174,-20.013515,1.5061417,14.537647,-19.345423,-18.428518,25.602798,57.34003,23.134998,4.253558,-7.7413497
112,0.07105971872806549,-1.639238715171814,76.94586944580078,1.5625580845207965,-7.8192050394193195,85.08885252974343,13.618515,7.590044,19.956215,6.947084,-11.078555,-8.74233,12.473473,-17.543133,-19.64817,9.062103,-9.573065,15.000033,-0.34707117,-0.771211,5.255621,-12.756614,19.794523,-15.574374,59.75617,-19.984118,1.4595829,14.527072,-19.348375,-18.440683,25.602213,57.335506,23.166685,4.233194,-7.778333
113,0.06777870655059814,-1.6416141986846924,76.9442138671875,1.5645350242834883,-7.839129694764499,85.09344962693127,13.637808,7.583606,19.95177,6.946908,-11.076753,-8.737733,12.487409,-17.552183,-19.64655,9.0841465,-9.581533,15.000033,-0.3185409,-0.7685534,5.272289,-12.743976,19.781086,-15.54482,59.740757,-19.924164,1.4398835,14.518064,-19.34468,-18.449844,25.58837,57.330727,23.170263,4.1951118,-7.7811985
114,0.06468795984983444,-1.6416219472885132,76.94548034667969,1.5637976816397745,-7.855661484722996,85.09436038994009,13.653889,7.5806155,19.95329,6.946689,-11.07453,-8.735294,12.488808,-17.558727,-19.63674,9.119848,-9.589481,15.000033,-0.28514245,-0.75091183,5.289852,-12.735724,19.741539,-15.485022,59.73095,-19.822186,1.4341635,14.509734,-19.33646,-18.47416,25.564642,57.3192,23.151148,4.146799,-7.760284
115,0.05916696786880493,-1.6433758735656738,76.94495391845703,1.5638528963163583,-7.8660135258602955,85.09534762495502,13.6634245,7.576344,19.956163,6.945698,-11.071751,-8.732422,12.488287,-17.566244,-19.628563,9.1448345,-9.591824,15.000033,-0.24636675,-0.72919077,5.2969203,-12.736756,19.691591,-15.431689,59.73078,-19.719133,1.4358597,14.508195,-19.321304,-18.503191,25.540026,57.310467,23.131744,4.09784,-7.737035
116,0.052259188145399094,-1.6453583240509033,76.9458236694336,1.5693437089165572,-7.866971233876976,85.09947228932452,13.661746,7.5646772,19.956095,6.9456935,-11.069571,-8.725721,12.477373,-17.58173,-19.626076,9.17156,-9.597651,15.000033,-0.20965119,-0.70933604,5.290253,-12.741639,19.6375,-15.388651,59.73169,-19.634113,1.4390229,14.516165,-19.304272,-18.534006,25.522188,57.31037,23.125868,4.060854,-7.72918
117,0.045059934258461,-1.6486337184906006,76.94542694091797,1.5826114723801321,-7.855103950567576,85.10611642223253,13.64483,7.5421653,19.95383,6.9457974,-11.066805,-8.713208,12.450629,-17.610401,-19.629877,9.201595,-9.609114,15.000033,-0.18004155,-0.7080616,5.2679152,-12.731525,19.60992,-15.3577585,59.70413,-19.586208,1.4538653,14.531195,-19.294708,-18.548517,25.515244,57.331142,23.139688,4.0356483,-7.7456636
118,0.03582218661904335,-1.6486538648605347,76.9468994140625,1.6004390618297428,-7.8329522237162745,85.11390563047023,13.616343,7.512103,19.95141,6.9452834,-11.063367,-8.696641,12.410249,-17.649063,-19.63676,9.235762,-9.624227,15.000033,-0.1562455,-0.6999291,5.2321253,-12.723509,19.562452,-15.316022,59.678215,-19.540718,1.4756057,14.555572,-19.289051,-18.571934,25.522795,57.363567,23.165627,4.019242,-7.7754407
119,0.027778051793575287,-1.649957299232483,76.94863891601562,1.619331725948027,-7.806493516667137,85.12573305568655,13.582209,7.48076,19.944832,6.945131,-11.06033,-8.680012,12.370148,-17.687601,-19.648632,9.26399,-9.636663,15.000033,-0.13602422,-0.6900214,5.1882057,-12.717518,19.512815,-15.282896,59.657497,-19.501387,1.49235,14.586515,-19.279991,-18.595556,25.531729,57.398235,23.193216,4.010445,-7.806799
120,0.018091144040226936,-1.6472816467285156,76.94855499267578,1.6342128660117603,-7.782191824996801,85.14429439211682,13.549452,7.4530644,19.93051,6.9447384,-11.058897,-8.666533,12.341964,-17.71937,-19.666355,9.282085,-9.642951,15.000033,-0.11995853,-0.6726,5.1434064,-12.719122,19.457577,-15.261367,59.655396,-19.457066,1.489625,14.621578,-19.260939,-18.621746,25.532423,57.421787,23.210737,4.0102935,-7.8271694
121,0.009295494295656681,-1.6423943042755127,76.949951171875,1.6415811387312642,-7.758893335069883,85.17353844040977,13.515875,7.431606,19.904232,6.944624,-11.059239,-8.657577,12.325814,-17.743113,-19.69204,9.2914915,-9.641666,15.000033,-0.12135183,-0.6652259,5.1013937,-12.697773,19.442495,-15.255634,59.634476,-19.42282,1.4626482,14.655816,-19.239439,-18.628351,25.522552,57.435726,23.207026,4.022644,-7.832817
122,-0.0011155371321365237,-1.6359707117080688,76.95027923583984,1.6453798609745143,-7.734065406937552,85.2103406496761,13.478969,7.413598,19.86931,6.9446173,-11.060718,-8.65113,12.316895,-17.760763,-19.724503,9.292697,-9.63467,15.000033,-0.11863159,-0.6376785,5.0529685,-12.698868,19.394073,-15.262791,59.6512,-19.372158,1.4102513,14.702625,-19.196676,-18.650387,25.491713,57.433117,23.183493,4.049834,-7.8294897
123,-0.010490438900887966,-1.629359245300293,76.94883728027344,1.6486431533005879,-7.7120728538293095,85.24944177094841,13.445129,7.3953724,19.832033,6.945192,-11.063941,-8.646204,12.3171625,-17.777088,-19.759764,9.285155,-9.624821,15.000033,-0.13218078,-0.62324643,5.0088544,-12.677739,19.382238,-15.266661,59.641735,-19.335033,1.362669,14.742035,-19.166277,-18.655476,25.477066,57.435207,23.172028,4.0748653,-7.821652
124,-0.021414652466773987,-1.6229215860366821,76.9471435546875,1.6544762633106738,-7.696965471641948,85.28452412520258,13.420729,7.3747034,19.799318,6.945158,-11.067827,-8.641907,12.326345,-17.794857,-19.792673,9.271244,-9.616606,15.000033,-0.12121537,-0.6044399,4.9662004,-12.692186,19.343966,-15.283849,59.66655,-19.290247,1.3295425,14.781733,-19.11931,-18.673931,25.445992,57.42845,23.175566,4.089508,-7.809141
125,-0.031209880486130714,-1.6178840398788452,76.94346618652344,1.6636764623510558,-7.68959878300514,85.31274794661849,13.407053,7.3504663,19.774498,6.945561,-11.073779,-8.639603,12.345017,-17.813011,-19.82067,9.247718,-9.609984,15.000033,-0.114235334,-0.5970818,4.932167,-12.695604,19.328844,-15.286326,59.669758,-19.250078,1.3278273,14.812815,-19.090538,-18.68187,25.439705,57.43417,23.222103,4.0838704,-7.78759
126,-0.04149090498685837,-1.6111891269683838,76.94151306152344,1.6755289766851185,-7.687931450958627,85.3372298250603,13.401888,7.3246636,19.753893,6.945008,-11.080797,-8.639296,12.373553,-17.831038,-19.846489,9.214349,-9.602953,15.000033,-0.09878036,-0.5885036,4.9001412,-12.719881,19.304787,-15.289958,59.694744,-19.20477,1.339528,14.843002,-19.054739,-18.696184,25.437897,57.433403,23.293974,4.068191,-7.7584534
127,-0.05058976262807846,-1.605751395225525,76.94005584716797,1.6885771266937633,-7.690944210116103,85.36246467110612,13.40183,7.296432,19.732319,6.945012,-11.088865,-8.637989,12.406656,-17.852621,-19.873278,9.184144,-9.59971,15.000033,-0.08905383,-0.5878838,4.8751254,-12.728558,19.29987,-15.288174,59.69727,-19.168127,1.3595228,14.861598,-19.033386,-18.699146,25.43912,57.441135,23.36656,4.050078,-7.732393
128,-0.05966510996222496,-1.598918080329895,76.93746948242188,1.7006489114878336,-7.699918728487639,85.39453568700456,13.40669,7.268193,19.702833,6.9457965,-11.096711,-8.6331215,12.458497,-17.8719,-19.911594,9.138448,-9.58903,15.000033,-0.086856805,-0.57834285,4.850307,-12.746256,19.276829,-15.277952,59.720097,-19.1284,1.3711311,14.866962,-18.996197,-18.713612,25.44813,57.42782,23.42595,4.039294,-7.7281775
129,-0.07115334272384644,-1.5897926092147827,76.93482971191406,1.7140044037754314,-7.714694288225748,85.4347963207004,13.416901,7.236771,19.662966,6.9465737,-11.103623,-8.620896,12.526969,-17.894793,-19.961966,9.083838,-9.575625,15.000033,-0.09160913,-0.57583964,4.832319,-12.752634,19.266937,-15.265685,59.7272,-19.100405,1.3779397,14.845851,-18.966398,-18.719238,25.453768,57.41479,23.46278,4.0398793,-7.752013
130,-0.08046882599592209,-1.5787707567214966,76.9333267211914,1.727994350548334,-7.73551550571522,85.48065883643726,13.433191,7.203012,19.61604,6.947414,-11.110057,-8.603768,12.605096,-17.919716,-20.019962,9.032226,-9.563946,15.000033,-0.106719896,-0.5694352,4.8186016,-12.756064,19.251125,-15.236644,59.735424,-19.068998,1.3827208,14.80582,-18.935198,-18.727282,25.468803,57.392063,23.49038,4.0468163,-7.7972674
131,-0.09360410273075104,-1.5726914405822754,76.92868041992188,1.7415773387099027,-7.758730141654709,85.52765913695782,13.451528,7.168971,19.568617,6.948255,-11.117272,-8.588223,12.684687,-17.946629,-20.079147,8.9848175,-9.553867,15.000033,-0.12245296,-0.56528944,4.8067336,-12.7565565,19.242176,-15.214983,59.742493,-19.049551,1.384149,14.763754,-18.90867,-18.73096,25.47784,57.371655,23.503975,4.0539274,-7.843112
132,-0.10696618258953094,-1.563711404800415,76.92487335205078,1.7533630800872784,-7.781943400015549,85.57232209808427,13.470173,7.1379046,19.526516,6.949198,-11.127325,-8.580764,12.761582,-17.97005,-20.13566,8.9377,-9.5415535,15.000033,-0.1480143,-0.55261904,4.795474,-12.750858,19.22631,-15.183912,59.755295,-19.029898,1.3785841,14.736416,-18.887968,-18.736609,25.488094,57.350403,23.499508,4.056524,-7.873789
133,-0.11623377352952957,-1.5542552471160889,76.92166900634766,1.7642637964876557,-7.801385746455769,85.61109680684014,13.486334,7.1089187,19.49523,6.9482784,-11.140736,-8.586251,12.820681,-17.995102,-20.18297,8.909804,-9.535098,15.000033,-0.16933462,-0.5375361,4.7816133,-12.744227,19.220512,-15.1732235,59.772984,-19.028498,1.3637552,14.72811,-18.87849,-18.737907,25.484516,57.342186,23.47274,4.0460176,-7.8797174
134,-0.12980768084526062,-1.5485509634017944,76.9166030883789,1.7714256367482588,-7.824993130190428,85.65141198384477,13.505596,7.084841,19.465609,6.948914,-11.157935,-8.600699,12.892737,-18.01115,-20.235415,8.86271,-9.517184,15.000033,-0.19787024,-0.5170426,4.7736278,-12.734332,19.212648,-15.161363,59.79646,-19.029766,1.3390901,14.729655,-18.862669,-18.738604,25.466871,57.323433,23.415035,4.028769,-7.872935
135,-0.14348803460597992,-1.5409276485443115,76.91362762451172,1.7791849306726544,-7.84737338030049,85.68937076643174,13.524539,7.0597835,19.438383,6.94887,-11.175169,-8.615405,12.953421,-18.031094,-20.281927,8.834754,-9.508215,15.000033,-0.22191387,-0.49784797,4.7629147,-12.727178,19.205404,-15.1578455,59.82587,-19.039627,1.3144788,14.739922,-18.85093,-18.738142,25.441803,57.30585,23.350506,4.01711,-7.85912
136,-0.15466250479221344,-1.5336854457855225,76.91079711914062,1.7876700110564998,-7.870837236374036,85.72749875068227,13.545214,7.033708,19.407778,6.948003,-11.189549,-8.622454,13.013509,-18.052732,-20.326302,8.813115,-9.503886,15.000033,-0.23262613,-0.48436898,4.7482347,-12.737266,19.193798,-15.172012,59.87494,-19.055784,1.2945452,14.759273,-18.830715,-18.735607,25.398994,57.279617,23.284473,4.0248265,-7.844592
137,-0.16501878201961517,-1.524463176727295,76.90736389160156,1.7987474284319847,-7.894721596556816,85.76756752334387,13.565964,7.005887,19.369957,6.9491916,-11.202701,-8.620074,13.069852,-18.07949,-20.36796,8.807659,-9.510576,15.000033,-0.25281683,-0.4768182,4.726056,-12.739781,19.188597,-15.188217,59.926483,-19.092163,1.2819337,14.791216,-18.814562,-18.733015,25.378887,57.243183,23.240875,4.0611153,-7.8309865
138,-0.17436130344867706,-1.5117459297180176,76.90475463867188,1.80982672282357,-7.9193993694750695,85.80879985525956,13.588143,6.9769554,19.327839,6.9492183,-11.213881,-8.612609,13.124132,-18.109428,-20.40742,8.811715,-9.523255,15.000033,-0.27796993,-0.4720493,4.700773,-12.735783,19.185455,-15.204772,59.977535,-19.139645,1.273619,14.835213,-18.801718,-18.72975,25.365404,57.19874,23.20314,4.1175165,-7.814033
139,-0.18420419096946716,-1.502993106842041,76.9004898071289,1.8221465582471865,-7.945161968283286,85.8473144410573,13.612006,6.9482255,19.288034,6.949292,-11.223056,-8.600595,13.17526,-18.139797,-20.44345,8.823077,-9.539439,15.000033,-0.29475024,-0.4702642,4.6731477,-12.740534,19.18281,-15.232285,60.039547,-19.188757,1.2678179,14.876846,-18.787582,-18.724466,25.346037,57.157074,23.166746,4.177117,-7.8002157
140,-0.19581308960914612,-1.4981495141983032,76.89701080322266,1.833841893247718,-7.972806000109171,85.8796509575158,13.639477,6.9204,19.256796,6.9492564,-11.230088,-8.5845175,13.222148,-18.171354,-20.47421,8.838873,-9.555131,15.000033,-0.30082712,-0.46870926,4.6501913,-12.7522135,19.180147,-15.262671,60.102917,-19.223711,1.2649459,14.898605,-18.778717,-18.716042,25.319397,57.12925,23.131538,4.224311,-7.7951393
141,-0.20768770575523376,-1.492316722869873,76.8940200805664,1.8476839300703867,-8.00248656079813,85.90360053105735,13.670651,6.8935437,19.23758,6.950504,-11.234182,-8.561036,13.2627325,-18.20347,-20.498589,8.861671,-9.5710535,15.000033,-0.3101027,-0.46082377,4.6378474,-12.75379,19.17963,-15.268264,60.15085,-19.228113,1.267482,14.889889,-18.786356,-18.71377,25.310492,57.115284,23.115063,4.2590747,-7.807622
142,-0.21820129454135895,-1.4892048835754395,76.89205932617188,1.8605402996011995,-8.034738824888233,85.92224489358463,13.706047,6.8672223,19.225939,6.9507937,-11.234542,-8.531236,13.298772,-18.238094,-20.518003,8.892797,-9.588906,15.000033,-0.31156445,-0.45275223,4.631026,-12.760107,19.178982,-15.273953,60.20008,-19.216545,1.273686,14.863922,-18.798231,-18.710896,25.29795,57.108627,23.105532,4.289388,-7.832019
143,-0.2287944257259369,-1.4838554859161377,76.8893814086914,1.8756962175196124,-8.067395765916713,85.9365684255378,13.742948,6.8407516,19.218357,6.951669,-11.235254,-8.501591,13.331295,-18.272207,-20.532993,8.926798,-9.606918,15.000033,-0.30457768,-0.44665062,4.62472,-12.77625,19.177155,-15.283309,60.256596,-19.204323,1.2804252,14.8273115,-18.811102,-18.703945,25.274122,57.1093,23.085278,4.3100495,-7.852124
144,-0.23922394216060638,-1.4802160263061523,76.88621520996094,1.8875785438552586,-8.099022486969046,85.94888393946509,13.7791605,6.815374,19.210896,6.95221,-11.238432,-8.478849,13.3636875,-18.30492,-20.54486,8.956799,-9.622971,15.000033,-0.28812093,-0.44343317,4.6110168,-12.803867,19.17318,-15.303612,60.325012,-19.208494,1.2850331,14.790309,-18.815948,-18.689653,25.23318,57.116337,23.033335,4.3146343,-7.853414
145,-0.24913731217384338,-1.4733625650405884,76.88291931152344,1.8982005493378067,-8.129733194501558,85.95854865428942,13.815426,6.790671,19.203419,6.952442,-11.24445,-8.463456,13.39753,-18.333214,-20.553041,8.977539,-9.633758,15.000033,-0.2855446,-0.43362182,4.5904393,-12.810033,19.171003,-15.309066,60.37566,-19.2401,1.2891906,14.743977,-18.818132,-18.681261,25.210594,57.119137,22.955809,4.3001657,-7.8155904
146,-0.2636784315109253,-1.470890998840332,76.88072204589844,1.9083189249847758,-8.160300685657125,85.964636627917,13.852367,6.7666106,19.197674,6.952059,-11.251346,-8.452266,13.430431,-18.359589,-20.55679,8.994845,-9.64172,15.000033,-0.2764311,-0.42589518,4.566151,-12.821477,19.167252,-15.315864,60.430172,-19.283506,1.2934493,14.688773,-18.815397,-18.665525,25.169868,57.126762,22.842142,4.269764,-7.7498107
147,-0.274678498506546,-1.4657723903656006,76.87928771972656,1.9175219576098974,-8.189917260756888,85.96958266215171,13.888556,6.743961,19.192308,6.9524198,-11.261484,-8.446664,13.463708,-18.38341,-20.560183,9.008797,-9.648399,15.000033,-0.26456675,-0.41904408,4.5364766,-12.83679,19.162945,-15.328805,60.49172,-19.330368,1.2946433,14.638082,-18.812078,-18.64481,25.131144,57.14343,22.72886,4.2299085,-7.699133
148,-0.2857516407966614,-1.4609065055847168,76.87712097167969,1.9243169921353702,-8.21813349737146,85.9755829448658,13.923656,6.723425,19.186115,6.951817,-11.274411,-8.448197,13.498899,-18.405325,-20.566671,9.019275,-9.654418,15.000033,-0.24908684,-0.41252726,4.5015635,-12.861047,19.158031,-15.35483,60.56827,-19.371264,1.2892672,14.603632,-18.806932,-18.617754,25.105564,57.16764,22.648804,4.1873946,-7.7044334
149,-0.2958194315433502,-1.4516968727111816,76.87602996826172,1.927521148275654,-8.245163439618143,85.98298790114613,13.956505,6.7076073,19.178701,6.951313,-11.292468,-8.462565,13.5380745,-18.421537,-20.578854,9.0232935,-9.65888,15.000033,-0.23349284,-0.4012974,4.468193,-12.881575,19.155083,-15.383125,60.63968,-19.391552,1.2799128,14.58893,-18.794119,-18.60102,25.095665,57.184265,22.615377,4.1444607,-7.7792726
150,-0.30888035893440247,-1.4456595182418823,76.8710708618164,1.9289699231621555,-8.271065516718277,85.99049286131266,13.988398,6.694729,19.17091,6.9509864,-11.315346,-8.487239,13.578073,-18.434498,-20.593136,9.026221,-9.664085,15.000033,-0.21465628,-0.3867949,4.434358,-12.902918,19.152885,-15.416,60.709656,-19.400686,1.2684628,14.587202,-18.775568,-18.589024,25.09042,57.20018,22.606543,4.097065,-7.898963
151,-0.3198009431362152,-1.4375354051589966,76.86727905273438,1.929650893018177,-8.29518413729094,85.99829117429783,14.018159,6.6818085,19.162836,6.950514,-11.338178,-8.511159,13.618105,-18.446121,-20.608288,9.024864,-9.667037,15.000033,-0.1811664,-0.37951344,4.389392,-12.95527,19.148256,-15.482179,60.82213,-19.426008,1.2458588,14.594556,-18.743568,-18.569775,25.088915,57.216324,22.613073,4.0464644,-8.050987
152,-0.32677069306373596,-1.4306787252426147,76.86400604248047,1.9339586939907873,-8.316829903360972,86.00630274390885,14.046103,6.66523,19.154179,6.9499955,-11.357801,-8.523093,13.655231,-18.461546,-20.621489,9.023468,-9.669282,15.000033,-0.14902893,-0.3762614,4.34336,-13.014756,19.143835,-15.550349,60.9501,-19.472221,1.2105577,14.59974,-18.701958,-18.556381,25.113302,57.207123,22.63019,4.0007215,-8.217659
153,-0.3364658057689667,-1.4215997457504272,76.86125946044922,1.9416414017075807,-8.333996872080476,86.01379338374764,14.070293,6.643707,19.145712,6.9503164,-11.374193,-8.5192995,13.68692,-18.481915,-20.630993,9.020999,-9.669582,15.000033,-0.11911772,-0.3758046,4.293318,-13.076355,19.14038,-15.628889,61.0908,-19.563334,1.151627,14.602544,-18.647202,-18.547573,25.17067,57.16258,22.657516,3.9659123,-8.407066
154,-0.34811386466026306,-1.4146170616149902,76.85789489746094,1.952180321580954,-8.347332918681694,86.02080288001768,14.091034,6.619039,19.137499,6.951142,-11.388614,-8.505914,13.714017,-18.503603,-20.63839,9.018196,-9.669143,15.000033,-0.086131416,-0.3788625,4.230783,-13.154645,19.137196,-15.73414,61.26514,-19.699062,1.072337,14.60906,-18.580486,-18.54175,25.262714,57.102287,22.709253,3.9346383,-8.627623
155,-0.36049678921699524,-1.4055495262145996,76.8551025390625,1.963138676284843,-8.361116904291109,86.0294124698961,14.112028,6.5932865,19.12758,6.951385,-11.400875,-8.487069,13.744406,-18.52642,-20.64744,9.010463,-9.666253,15.000033,-0.047487915,-0.38627917,4.160964,-13.251566,19.128935,-15.855011,61.469986,-19.833986,0.9933043,14.620058,-18.50454,-18.538208,25.377018,57.0391,22.779781,3.8969498,-8.857666
156,-0.3716624677181244,-1.3958543539047241,76.8532485961914,1.9731409841789105,-8.379723165106842,86.04133407683152,14.1365,6.568741,19.114372,6.952334,-11.411899,-8.4666395,13.783411,-18.548967,-20.661572,8.999846,-9.663859,15.000033,-0.010016815,-0.39968172,4.1159797,-13.345665,19.121897,-15.918742,61.654243,-19.884296,0.9418151,14.623987,-18.426392,-18.540154,25.46134,56.962006,22.826202,3.849917,-9.061558
157,-0.38070690631866455,-1.3868744373321533,76.85124206542969,1.9822350976118523,-8.402517288950545,86.05865438620933,14.1636715,6.544984,19.095758,6.9534454,-11.420255,-8.440727,13.834719,-18.570282,-20.684673,8.978839,-9.658884,15.000033,0.03562135,-0.41717812,4.0608554,-13.488929,19.09531,-15.97921,61.91558,-19.87558,0.9169623,14.629607,-18.333738,-18.552713,25.57403,56.892857,22.898678,3.7759619,-9.259769
158,-0.39154839515686035,-1.3812553882598877,76.84784698486328,1.991389112924525,-8.4286347512438,86.07986982107779,14.192475,6.5212026,19.073124,6.955307,-11.426408,-8.408913,13.894834,-18.591505,-20.71389,8.951146,-9.652418,15.000033,0.08623219,-0.43992448,4.020091,-13.64911,19.060537,-16.00423,62.191723,-19.797913,0.91402996,14.631005,-18.231657,-18.573177,25.67397,56.808746,22.955667,3.6896636,-9.446476
159,-0.4018145203590393,-1.3754487037658691,76.84469604492188,1.9991487975512028,-8.458523704195755,86.10149782062209,14.225342,6.498726,19.050003,6.9557414,-11.431866,-8.380311,13.961053,-18.610065,-20.744387,8.919009,-9.643627,15.000033,0.13731942,-0.46243104,3.986519,-13.80597,19.022419,-16.014088,62.4533,-19.690365,0.9191969,14.637014,-18.131035,-18.597187,25.760908,56.73001,23.01618,3.6019516,-9.6152725
160,-0.41582658886909485,-1.3691272735595703,76.8415298461914,2.0052210029916155,-8.492890450054425,86.11958249941449,14.262742,6.480004,19.030106,6.9571443,-11.440821,-8.364085,14.0305,-18.624483,-20.77057,8.88464,-9.631879,15.000033,0.18520007,-0.46714762,3.955999,-13.954759,18.961784,-16.0177,62.690964,-19.57687,0.91376114,14.657278,-18.038933,-18.635172,25.830719,56.668953,23.093925,3.5274105,-9.757453
161,-0.4270615875720978,-1.3636025190353394,76.8396224975586,2.006814215455538,-8.53398787703535,86.13498654884205,14.307981,6.466254,19.012762,6.956553,-11.454192,-8.3689,14.107951,-18.629042,-20.793898,8.841559,-9.61321,15.000033,0.24182609,-0.45197514,3.9320915,-14.100481,18.869047,-16.019962,62.901093,-19.443424,0.8959705,14.689986,-17.943974,-18.694937,25.860012,56.613907,23.195938,3.4708357,-9.861627
162,-0.4385581314563751,-1.3610132932662964,76.83696746826172,2.00692465853584,-8.580491986947079,86.14901752072834,14.358005,6.4566193,18.996393,6.957206,-11.471618,-8.388011,14.191278,-18.627726,-20.815863,8.795224,-9.591669,15.000033,0.2980257,-0.4382176,3.9170754,-14.228655,18.78345,-16.01401,63.070087,-19.291462,0.8780421,14.726196,-17.854797,-18.751396,25.859734,56.57074,23.311977,3.4226038,-9.935519
163,-0.44360092282295227,-1.3578987121582031,76.83547973632812,2.0068038467289666,-8.62873839233266,86.15931828765004,14.410773,6.446752,18.983444,6.9568686,-11.487871,-8.40641,14.2710085,-18.627403,-20.832815,8.75474,-9.57172,15.000033,0.3471293,-0.42719734,3.9087253,-14.330299,18.713236,-16.007046,63.188206,-19.15426,0.8619181,14.77748,-17.784021,-18.795279,25.84046,56.555695,23.414473,3.3789332,-9.994045
164,-0.45184484124183655,-1.3596340417861938,76.83137512207031,2.0101929464224133,-8.67489337363083,86.16303387550785,14.461443,6.433573,18.975899,6.957152,-11.498934,-8.409595,14.336011,-18.635017,-20.841219,8.733202,-9.560168,15.000033,0.39470813,-0.4121392,3.9020424,-14.419647,18.645454,-16.019262,63.27192,-19.063847,0.8459061,14.859341,-17.729662,-18.833231,25.800362,56.574604,23.472658,3.337729,-10.051425
165,-0.4592282176017761,-1.3611952066421509,76.82855224609375,2.020676455235886,-8.718984435039177,86.15807115350187,14.511435,6.4146476,18.975962,6.957374,-11.502568,-8.390885,14.383285,-18.65425,-20.839266,8.735335,-9.558973,15.000033,0.44206807,-0.39566472,3.8986666,-14.491801,18.584093,-16.054688,63.305775,-19.0402,0.83246243,14.995427,-17.695913,-18.85947,25.732311,56.638973,23.4724,3.2968097,-10.109384
166,-0.4680188000202179,-1.3665745258331299,76.82703399658203,2.0341944090680526,-8.762584740198255,86.14663685073357,14.561689,6.3925223,18.981886,6.9576297,-11.50105,-8.359194,14.41747,-18.68006,-20.828934,8.756486,-9.566235,15.000033,0.47967994,-0.38190818,3.9005945,-14.533093,18.54098,-16.09713,63.278816,-19.063456,0.82235396,15.169233,-17.6907,-18.86886,25.647503,56.74906,23.433699,3.2572408,-10.161454
167,-0.4744439721107483,-1.3693664073944092,76.82572174072266,2.0490152506100547,-8.804603619072381,86.13123931712667,14.610165,6.369724,18.990314,6.957483,-11.497812,-8.322471,14.442739,-18.709644,-20.812613,8.786507,-9.576504,15.000033,0.5245722,-0.36651307,3.8998718,-14.578694,18.493088,-16.164133,63.248642,-19.102432,0.8084805,15.342952,-17.691658,-18.867638,25.534431,56.882607,23.366209,3.2224443,-10.208474
168,-0.48233741521835327,-1.3764989376068115,76.8243179321289,2.06135453406678,-8.843654008325133,86.1148820714567,14.652971,6.348963,18.997923,6.9590726,-11.496777,-8.288954,14.4612875,-18.735458,-20.792957,8.8195505,-9.587711,15.000033,0.55071205,-0.3497691,3.9005706,-14.59262,18.463701,-16.218315,63.192574,-19.12387,0.7925863,15.465339,-17.705011,-18.857677,25.432955,57.01512,23.297598,3.195946,-10.251911
169,-0.4910087287425995,-1.3845001459121704,76.8230972290039,2.072289934925598,-8.881119542441327,86.0971597874432,14.692989,6.3303604,19.003838,6.959687,-11.49684,-8.25677,14.474354,-18.75764,-20.768372,8.853905,-9.597887,15.000033,0.56543314,-0.32839283,3.9033172,-14.587291,18.444448,-16.275175,63.12377,-19.116339,0.76826286,15.515978,-17.728249,-18.842775,25.337645,57.15251,23.234108,3.1799204,-10.29241
170,-0.49811625480651855,-1.392533302307129,76.82183074951172,2.0808041735129117,-8.917314940387321,86.07675660974142,14.730547,6.312776,19.010157,6.960718,-11.497291,-8.223148,14.480798,-18.779009,-20.737873,8.893062,-9.609109,15.000033,0.595089,-0.30926776,3.9018252,-14.598206,18.42358,-16.369642,63.072464,-19.10261,0.73520255,15.527843,-17.751911,-18.812382,25.20849,57.310852,23.149458,3.1702013,-10.327601
171,-0.5069844126701355,-1.4028868675231934,76.82087707519531,2.089640664933993,-8.94889423936597,86.05538941830702,14.761918,6.29602,19.017155,6.9617567,-11.499107,-8.193788,14.479117,-18.799063,-20.70588,8.9346485,-9.621092,15.000033,0.60281324,-0.2847653,3.900516,-14.5743265,18.41249,-16.43545,62.9916,-19.085478,0.7065609,15.523675,-17.781343,-18.78413,25.095179,57.45043,23.05898,3.1679556,-10.358969
172,-0.514145016670227,-1.410895586013794,76.82088470458984,2.097497734800658,-8.973137315622523,86.03459235565401,14.785258,6.280002,19.026012,6.9611874,-11.502905,-8.174742,14.469032,-18.81856,-20.67614,8.975442,-9.632749,15.000033,0.6243989,-0.27264512,3.8854668,-14.572254,18.400255,-16.507145,62.946903,-19.083143,0.68719864,15.538862,-17.791273,-18.738245,24.94175,57.562145,22.93009,3.1678314,-10.382331
173,-0.5239534378051758,-1.4203184843063354,76.81757354736328,2.1050857623276373,-8.986591208257016,86.0154796871521,14.795613,6.264787,19.0364,6.9618893,-11.512414,-8.172972,14.444519,-18.840563,-20.650105,9.021939,-9.648376,15.000033,0.6289209,-0.2592327,3.8585687,-14.548522,18.390678,-16.540442,62.89949,-19.09513,0.68196,15.578853,-17.784275,-18.694878,24.78854,57.620266,22.776884,3.1722343,-10.396695
174,-0.5268360376358032,-1.4321274757385254,76.81783294677734,2.1112700954151316,-8.991705338478573,85.99696794463654,14.796834,6.2499204,19.048347,6.960913,-11.524552,-8.183555,14.40916,-18.862679,-20.625969,9.070402,-9.665378,15.000033,0.6283485,-0.24687111,3.8211646,-14.520795,18.381954,-16.558144,62.862743,-19.117235,0.6848292,15.627591,-17.763205,-18.651016,24.62184,57.643883,22.598206,3.1810205,-10.401466
175,-0.5367401838302612,-1.4462655782699585,76.8171157836914,2.1177598782326417,-8.994260448915409,85.97728795037881,14.794556,6.236089,19.061892,6.959845,-11.537071,-8.194392,14.371576,-18.883049,-20.600605,9.113957,-9.678642,15.000033,0.6407875,-0.24520311,3.7781923,-14.5112505,18.369968,-16.580889,62.851505,-19.140358,0.69322497,15.681518,-17.738558,-18.58395,24.423395,57.66115,22.38839,3.1929426,-10.40489
176,-0.5453879237174988,-1.460871696472168,76.81613159179688,2.122845760629071,-8.999806900134603,85.95464401082766,14.794417,6.223983,19.077494,6.959717,-11.54729,-8.193257,14.33932,-18.89951,-20.570402,9.145313,-9.6824045,15.000033,0.6395108,-0.23651727,3.7482634,-14.47861,18.36062,-16.56198,62.81278,-19.148075,0.7082369,15.724281,-17.717777,-18.53276,24.25591,57.64639,22.188448,3.213373,-10.414163
177,-0.5537263751029968,-1.477607011795044,76.81639862060547,2.127314207580896,-9.009570703475687,85.92815272424745,14.797696,6.2132945,19.09546,6.9597363,-11.553713,-8.176056,14.315487,-18.90929,-20.533419,9.159229,-9.673423,15.000033,0.64524305,-0.23165767,3.7302525,-14.451513,18.350016,-16.524153,62.7736,-19.14254,0.7279208,15.757396,-17.696383,-18.477503,24.081392,57.60597,21.974737,3.2373233,-10.428725
178,-0.5627226829528809,-1.4960929155349731,76.81916809082031,2.1299055782265275,-9.020775548302154,85.89913570254282,14.801394,6.204127,19.115608,6.960665,-11.558877,-8.149578,14.296396,-18.915173,-20.491978,9.158995,-9.654277,15.000033,0.6524748,-0.23034456,3.7157145,-14.429088,18.336918,-16.468918,62.742462,-19.130007,0.75235236,15.786676,-17.680141,-18.410873,23.901688,57.552605,21.743376,3.263947,-10.446699
179,-0.5721348524093628,-1.5157809257507324,76.82119750976562,2.133122560270246,-9.032731138991673,85.86818025387275,14.805652,6.1953545,19.137218,6.9616876,-11.56303,-8.1181135,14.277692,-18.919027,-20.448944,9.155021,-9.63128,15.000033,0.6547649,-0.22604908,3.7093723,-14.393112,18.325186,-16.389566,62.693783,-19.104061,0.78405136,15.809612,-17.66173,-18.357517,23.739616,57.476013,21.520596,3.3028398,-10.46747
180,-0.5833823680877686,-1.536520004272461,76.82344055175781,2.1364959031605513,-9.045045427482309,85.83641260880523,14.810735,6.185808,19.15965,6.96218,-11.566143,-8.085931,14.255617,-18.925692,-20.406925,9.158517,-9.611569,15.000033,0.65749484,-0.22160718,3.7080886,-14.348804,18.314198,-16.301086,62.631477,-19.06191,0.8235186,15.828411,-17.643044,-18.313663,23.593935,57.396385,21.315758,3.3599262,-10.491781
181,-0.5920010209083557,-1.555606484413147,76.82815551757812,2.141892245956022,-9.05886750476705,85.80564689546213,14.816638,6.1744056,19.180265,6.962964,-11.568227,-8.052757,14.230375,-18.937483,-20.369064,9.172819,-9.596628,15.000033,0.6605646,-0.2244092,3.7105424,-14.308443,18.298685,-16.195759,62.575832,-18.988716,0.8686677,15.845457,-17.647047,-18.255182,23.456354,57.349876,21.12031,3.4406543,-10.517728
182,-0.6018342971801758,-1.5788238048553467,76.82964324951172,2.148468141777873,-9.073824404974152,85.77483256508768,14.824192,6.1617894,19.200348,6.9615555,-11.567634,-8.016877,14.20507,-18.951775,-20.33339,9.188717,-9.58122,15.000033,0.6596461,-0.22857024,3.7189596,-14.25749,18.283537,-16.07231,62.508385,-18.896978,0.92076284,15.859361,-17.6553,-18.203823,23.34039,57.299217,20.94276,3.5423484,-10.547575
183,-0.613246738910675,-1.5984115600585938,76.8314208984375,2.153816312082704,-9.088090147425973,85.74060865290328,14.830193,6.150552,19.22433,6.964586,-11.570061,-7.9801817,14.1754675,-18.965128,-20.294317,9.207842,-9.566407,15.000033,0.65951586,-0.23031645,3.7267473,-14.200324,18.267609,-15.945294,62.431717,-18.79763,0.98049027,15.867438,-17.668737,-18.15159,23.235147,57.25584,20.770004,3.6474805,-10.582278
184,-0.6244505047798157,-1.622692346572876,76.83281707763672,2.1570150364940814,-9.09943209329166,85.69953929127847,14.837723,6.141765,19.256802,6.964603,-11.572529,-7.944648,14.143557,-18.973728,-20.247828,9.220104,-9.546933,15.000033,0.66316664,-0.22514525,3.726817,-14.136342,18.25227,-15.832485,62.342964,-18.706928,1.0488071,15.867852,-17.686382,-18.099035,23.138376,57.226772,20.59558,3.7390528,-10.624082
185,-0.6372388601303101,-1.6462723016738892,76.83499145507812,2.1568459151587063,-9.107501192662427,85.6485833254978,14.844804,6.1387553,19.301275,6.9660053,-11.577579,-7.910974,14.105529,-18.976252,-20.189785,9.229612,-9.523588,15.000033,0.67407805,-0.21227938,3.714056,-14.065089,18.235739,-15.734605,62.241074,-18.617014,1.1373583,15.8597,-17.712635,-18.034737,23.04595,57.221786,20.403713,3.8185775,-10.680653
186,-0.6502068638801575,-1.666532278060913,76.83704376220703,2.1533172604205975,-9.113294635787451,85.59046412326525,14.852978,6.1391463,19.354792,6.9664154,-11.583586,-7.8779755,14.0632105,-18.973017,-20.124023,9.235749,-9.496281,15.000033,0.69564736,-0.19256338,3.6986074,-13.984409,18.223604,-15.650723,62.11496,-18.528625,1.2433285,15.8418665,-17.724455,-17.98626,22.95654,57.201275,20.209023,3.8966107,-10.745552
187,-0.6616683006286621,-1.6835745573043823,76.84120178222656,2.1503214455820188,-9.11708089413468,85.52963858011633,14.860336,6.1390066,19.411398,6.9668927,-11.590692,-7.8452377,14.021758,-18.97025,-20.05601,9.234962,-9.466314,15.000033,0.720945,-0.16945064,3.6821022,-13.903454,18.21462,-15.585801,61.984238,-18.459806,1.3421397,15.818724,-17.728012,-17.94747,22.874083,57.17801,20.03228,3.96101,-10.808161
188,-0.674491822719574,-1.69949471950531,76.84415435791016,2.1501392378208264,-9.118927369311734,85.47108161497735,14.865856,6.1343136,19.465084,6.967661,-11.598757,-7.8121815,13.985856,-18.969952,-19.992205,9.221831,-9.433553,15.000033,0.7431518,-0.14842887,3.6638703,-13.832779,18.20867,-15.544245,61.87155,-18.426289,1.4090691,15.794504,-17.736914,-17.908922,22.800821,57.176453,19.891207,3.998389,-10.857019
189,-0.6867266893386841,-1.7122725248336792,76.8466567993164,2.1541312973106423,-9.118736923429939,85.41475860004061,14.86963,6.124267,19.51526,6.967925,-11.607445,-7.7798805,13.9586735,-18.973051,-19.933523,9.189887,-9.39691,15.000033,0.76189023,-0.12982446,3.6435654,-13.768846,18.207853,-15.5298195,61.77608,-18.439785,1.4330214,15.768662,-17.748117,-17.868841,22.737823,57.19697,19.797491,3.9944105,-10.89225
190,-0.7025675177574158,-1.726624608039856,76.84825897216797,2.1610512412768412,-9.116253832662572,85.35825934863279,14.8720255,6.110717,19.564907,6.968249,-11.617596,-7.748056,13.937206,-18.97714,-19.876905,9.142934,-9.356515,15.000033,0.7741941,-0.1027909,3.6242237,-13.706405,18.20922,-15.532112,61.68553,-18.492134,1.4285309,15.73705,-17.751774,-17.85496,22.704754,57.211815,19.756449,3.9616513,-10.918908
191,-0.717764139175415,-1.7396645545959473,76.8507080078125,2.1681993070961183,-9.112620588289767,85.30407476001065,14.872915,6.0949273,19.612535,6.9688725,-11.628337,-7.714785,13.918544,-18.982948,-19.82314,9.090614,-9.313748,15.000033,0.80172527,-0.099544495,3.5982575,-13.661099,18.228283,-15.581148,61.61277,-18.56838,1.4113876,15.708949,-17.768482,-17.795708,22.632328,57.27582,19.700788,3.9174504,-10.933109
192,-0.7334029674530029,-1.7524417638778687,76.85218048095703,2.1757850310737057,-9.108128809301116,85.25296806922353,14.87217,6.077088,19.658129,6.96967,-11.639783,-7.6777,13.899433,-18.990559,-19.772089,9.0393505,-9.267647,15.000033,0.81451505,-0.089300126,3.5734072,-13.624923,18.248028,-15.636324,61.551735,-18.65524,1.3946652,15.679166,-17.786612,-17.761127,22.598026,57.335304,19.669123,3.891898,-10.934875
193,-0.750259518623352,-1.7664058208465576,76.85357666015625,2.184857362718202,-9.101908542181505,85.20524769386853,14.86864,6.0563817,19.701588,6.971092,-11.652575,-7.632271,13.880696,-18.998466,-19.724606,8.985596,-9.215145,15.000033,0.8293613,-0.093687296,3.5434785,-13.613648,18.289242,-15.748755,61.515022,-18.778807,1.3766154,15.654095,-17.810394,-17.714445,22.556293,57.418358,19.631718,3.8942847,-10.907791
194,-0.7671201229095459,-1.7752912044525146,76.85775756835938,2.1960869304607797,-9.093881256092166,85.15998518543398,14.862452,6.032842,19.74342,6.9730387,-11.66653,-7.5809493,13.863152,-19.006681,-19.680286,8.92673,-9.156756,15.000033,0.83842885,-0.09928257,3.511814,-13.615205,18.338015,-15.89172,61.492744,-18.929045,1.3509392,15.63061,-17.83717,-17.677055,22.525383,57.5117,19.605303,3.912318,-10.857661
195,-0.7877896428108215,-1.7882293462753296,76.8569564819336,2.2056632341838696,-9.086159499828275,85.11774979946779,14.85585,6.0084367,19.782673,6.975165,-11.68032,-7.532158,13.8443165,-19.017008,-19.638092,8.874789,-9.101039,15.000033,0.84631807,-0.10053575,3.4838998,-13.628865,18.377071,-16.022842,61.48172,-19.063187,1.32786,15.602371,-17.860933,-17.654318,22.511343,57.600143,19.59544,3.9285219,-10.812223
196,-0.8093339204788208,-1.7987523078918457,76.85768127441406,2.2142275378177185,-9.080386862318964,85.07854436798625,14.8505,5.9848385,19.818344,6.9763665,-11.691384,-7.4944296,13.819208,-19.03173,-19.596552,8.845595,-9.0579815,15.000033,0.86775684,-0.11125724,3.4636042,-13.655586,18.416094,-16.12638,61.472206,-19.154818,1.3208302,15.562085,-17.870821,-17.63445,22.500141,57.671227,19.599844,3.9235396,-10.799033
197,-0.8305585980415344,-1.809256911277771,76.85862731933594,2.217737606230882,-9.078244804599038,85.04483242359802,14.846889,5.964048,19.848053,6.976118,-11.698475,-7.4735174,13.787605,-19.051443,-19.55772,8.84517,-9.030645,15.000033,0.89514565,-0.119252466,3.4559228,-13.698216,18.436863,-16.165092,61.468494,-19.174154,1.3359221,15.496797,-17.876125,-17.62512,22.511957,57.73066,19.625013,3.8870394,-10.836367
198,-0.8534754514694214,-1.8207659721374512,76.85897064208984,2.219760345985179,-9.077860400910438,85.01554956471381,14.843328,5.9437838,19.873024,6.974872,-11.702914,-7.4636016,13.746904,-19.076458,-19.520248,8.873574,-9.018208,15.000033,0.9330358,-0.13396986,3.4525707,-13.759368,18.453133,-16.18536,61.47488,-19.164375,1.367154,15.415982,-17.87476,-17.618998,22.5389,57.787872,19.671535,3.8281543,-10.907484
199,-0.8759459257125854,-1.8349988460540771,76.85981750488281,2.222065869106718,-9.077615446092517,84.98635691401373,14.840533,5.921978,19.897957,6.973689,-11.706635,-7.456167,13.704182,-19.103409,-19.481682,8.907936,-9.009324,15.000033,0.96633875,-0.15214397,3.451125,-13.813992,18.46958,-16.177156,61.476933,-19.124706,1.4007905,15.340163,-17.874407,-17.613836,22.580154,57.837494,19.729752,3.7651937,-10.985451
200,-0.9010798335075378,-1.8446136713027954,76.86088562011719,2.22854847943391,-9.075740250578342,84.95269046012422,14.838647,5.8954854,19.927782,6.9726176,-11.710449,-7.4425383,13.661311,-19.134283,-19.437263,8.9368725,-8.998249,15.000033,1.004285,-0.17118625,3.4461398,-13.858712,18.473589,-16.163198,61.477272,-19.066902,1.4228061,15.2972975,-17.866276,-17.613483,22.60276,57.86989,19.780666,3.715808,-11.040789
201,-0.9256495237350464,-1.8532603979110718,76.86148834228516,2.2414039678911353,-9.069688278839124,84.91281332664752,14.835256,5.862341,19.964306,6.971808,-11.713067,-7.4196877,13.615558,-19.16728,-19.385218,8.956688,-8.983472,15.000033,1.0201011,-0.19206345,3.4355166,-13.874477,18.474869,-16.107845,61.469536,-18.981703,1.4269382,15.291215,-17.864222,-17.61676,22.650461,57.883957,19.845852,3.6792746,-11.069516
202,-0.9534536004066467,-1.8602715730667114,76.85993194580078,2.256721998911209,-9.061484478349495,84.8698938530514,14.831142,5.8249645,20.004324,6.971972,-11.714875,-7.3925915,13.567094,-19.204498,-19.327852,8.975854,-8.969035,15.000033,1.0543901,-0.22278441,3.4201257,-13.89301,18.47006,-16.063467,61.468296,-18.879307,1.4209691,15.316577,-17.843369,-17.620787,22.6701,57.87708,19.907408,3.6480324,-11.081049
203,-0.9805096387863159,-1.864778995513916,76.85777282714844,2.2744519066553646,-9.054181975918844,84.82465663122119,14.830104,5.7849507,20.046818,6.971599,-11.718098,-7.3640294,13.518844,-19.243244,-19.267578,8.996418,-8.955581,15.000033,1.0769969,-0.2482518,3.4059165,-13.899232,18.456343,-15.994388,61.460075,-18.762085,1.4149903,15.352873,-17.828558,-17.62995,22.697985,57.863686,19.969683,3.6283166,-11.087443
204,-1.0109326839447021,-1.8680646419525146,76.85499572753906,2.2904589082910016,-9.051150709618799,84.77895391285044,14.834876,5.744703,20.089928,6.9709473,-11.724873,-7.336904,13.472908,-19.283808,-19.2063,9.023743,-8.945086,15.000033,1.0796053,-0.25270382,3.3949785,-13.88627,18.423153,-15.9009,61.435192,-18.642294,1.4172788,15.3880415,-17.831987,-17.65207,22.744589,57.856323,20.031721,3.62698,-11.099049
205,-1.040346622467041,-1.8714336156845093,76.8517074584961,2.306576318129563,-9.05408178201667,84.73400731614595,14.846305,5.703958,20.131617,6.9709597,-11.736894,-7.3108597,13.431173,-19.32584,-19.145384,9.059978,-8.938636,15.000033,1.1004859,-0.2713609,3.3825393,-13.88708,18.410688,-15.873689,61.410713,-18.572878,1.4355552,15.420398,-17.826403,-17.660217,22.752289,57.850307,20.0791,3.6486766,-11.112
206,-1.0682508945465088,-1.873011827468872,76.84912109375,2.323114443122753,-9.060600898457286,84.6879059793719,14.863264,5.6612387,20.174292,6.970777,-11.752723,-7.284465,13.389271,-19.371267,-19.081867,9.106556,-8.937182,15.000033,1.1027635,-0.26074418,3.3736258,-13.877681,18.358917,-15.809994,61.385025,-18.485594,1.45824,15.4568405,-17.828693,-17.695797,22.779095,57.832767,20.128298,3.6945243,-11.124335
207,-1.0988051891326904,-1.8734130859375,76.84628295898438,2.3393024161601876,-9.06870344075915,84.64002518204462,14.883552,5.619294,20.219326,6.970466,-11.770033,-7.260124,13.350057,-19.414837,-19.017511,9.150524,-8.934071,15.000033,1.1201773,-0.2532545,3.364149,-13.876492,18.30906,-15.77318,61.357456,-18.411085,1.4845041,15.499676,-17.8206,-17.731686,22.781807,57.811413,20.169395,3.743717,-11.14007
208,-1.1301449537277222,-1.8747048377990723,76.8450927734375,2.3529269124926766,-9.075837412751914,84.58886251051679,14.904686,5.580291,20.269026,6.970317,-11.7874365,-7.240135,13.311859,-19.454872,-18.951765,9.188357,-8.928212,15.000033,1.1423914,-0.24990386,3.3588626,-13.861711,18.271677,-15.730596,61.300766,-18.330446,1.5119429,15.546252,-17.811993,-17.757286,22.770409,57.79376,20.200537,3.7797587,-11.165192
209,-1.161912202835083,-1.877303957939148,76.84436798095703,2.3638401315555457,-9.08316240945244,84.53321915112468,14.92989,5.5453377,20.325172,6.967928,-11.803557,-7.2271886,13.2764845,-19.489841,-18.884367,9.217036,-8.917448,15.000033,1.1697555,-0.23873818,3.3587973,-13.836245,18.227064,-15.668373,61.216675,-18.233109,1.5377872,15.606082,-17.800827,-17.784952,22.748583,57.776867,20.223364,3.7965546,-11.207684
210,-1.1936990022659302,-1.8756425380706787,76.84337615966797,2.3721344350446616,-9.091293256156344,84.4742795862232,14.957116,5.5136223,20.385952,6.9676805,-11.821066,-7.219448,13.243307,-19.521664,-18.815405,9.241278,-8.904412,15.000033,1.2000779,-0.22289017,3.362276,-13.800085,18.178915,-15.594844,61.109406,-18.126987,1.5647831,15.676165,-17.790808,-17.811924,22.717936,57.76369,20.239437,3.8031938,-11.262713
211,-1.224507451057434,-1.873648762702942,76.84024810791016,2.3800508313485653,-9.097382092486965,84.41322511277134,14.983795,5.4827576,20.4494,6.9672837,-11.8396015,-7.211881,13.209133,-19.552454,-18.744888,9.2623415,-8.890055,15.000033,1.229966,-0.20536573,3.3657486,-13.760222,18.131664,-15.517,60.99711,-18.013876,1.5913728,15.740974,-17.783978,-17.835875,22.6856,57.755066,20.25026,3.8091156,-11.317119
212,-1.2576243877410889,-1.8683338165283203,76.83665466308594,2.388262731362546,-9.098713102366439,84.35143635735703,15.006164,5.4507403,20.513512,6.965083,-11.858218,-7.1996627,13.172299,-19.583614,-18.673195,9.278139,-8.873608,15.000033,1.2562363,-0.177315,3.3645823,-13.732524,18.066889,-15.433307,60.913433,-17.8852,1.613084,15.787406,-17.781952,-17.86777,22.663454,57.75154,20.259329,3.8250577,-11.358148
213,-1.2898391485214233,-1.8640915155410767,76.8338623046875,2.395304718605171,-9.092090015669488,84.28638687408983,15.019999,5.4189663,20.581215,6.964884,-11.879744,-7.1817327,13.124434,-19.615068,-18.595423,9.295311,-8.8573675,15.000033,1.2802168,-0.14858401,3.3581288,-13.705226,18.007437,-15.349674,60.837467,-17.739916,1.6365201,15.806218,-17.788319,-17.896435,22.647724,57.753235,20.25767,3.8629,-11.38303
214,-1.321195363998413,-1.8576724529266357,76.83112335205078,2.402328196677509,-9.079748239070977,84.2181476463926,15.028613,5.3880467,20.652409,6.9642687,-11.901995,-7.160674,13.070638,-19.64479,-18.513786,9.309442,-8.839429,15.000033,1.2998836,-0.116842136,3.3489864,-13.673535,17.950142,-15.257392,60.76093,-17.577868,1.6611174,15.806061,-17.803854,-17.923136,22.638199,57.760784,20.24709,3.9143155,-11.398447
215,-1.3576562404632568,-1.8538782596588135,76.82582092285156,2.411990224158137,-9.066949184578917,84.15261914339128,15.036657,5.354201,20.720215,6.9636827,-11.925193,-7.1366544,13.021871,-19.676006,-18.436628,9.316635,-8.820143,15.000033,1.3139329,-0.09576675,3.3401175,-13.64252,17.910494,-15.175518,60.695354,-17.431108,1.6802465,15.793819,-17.820312,-17.940315,22.630201,57.774696,20.241486,3.955542,-11.404668
216,-1.3892141580581665,-1.847356915473938,76.82186889648438,2.424007988670716,-9.059476031724225,84.09606496290654,15.049132,5.314331,20.777874,6.962787,-11.948593,-7.1098285,12.992145,-19.710512,-18.373169,9.307282,-8.796349,15.000033,1.3164428,-0.07930399,3.3319736,-13.62568,17.869034,-15.102506,60.671078,-17.313486,1.6830163,15.780122,-17.833601,-17.957191,22.63272,57.798225,20.259157,3.9643748,-11.403293
217,-1.4255485534667969,-1.8402268886566162,76.81879425048828,2.441162798295272,-9.057597076862237,84.0484231813599,15.06648,5.266517,20.824377,6.962037,-11.97223,-7.0786343,12.985393,-19.748915,-18.32582,9.275091,-8.767182,15.000033,1.3129462,-0.07207066,3.323651,-13.62962,17.829416,-15.053856,60.701275,-17.242308,1.6565869,15.762081,-17.833998,-17.973059,22.641247,57.832016,20.313944,3.9161968,-11.391937
218,-1.4574761390686035,-1.8295643329620361,76.81595611572266,2.462187020684091,-9.058846164437185,84.0071195184002,15.085595,5.213155,20.862816,6.963582,-11.99755,-7.043474,12.9930935,-19.790022,-18.289526,9.228172,-8.734796,15.000033,1.305174,-0.07663923,3.3158772,-13.645429,17.801449,-15.027099,60.76593,-17.207083,1.6107434,15.736149,-17.82592,-17.984642,22.651514,57.873714,20.392408,3.828948,-11.370367
219,-1.492079257965088,-1.8183168172836304,76.81161499023438,2.484219854049586,-9.06397008385093,83.97391552932643,15.107971,5.1568546,20.893005,6.9642153,-12.023403,-7.0076246,13.017215,-19.832409,-18.264389,9.166321,-8.696264,15.000033,1.2895409,-0.08504025,3.3091555,-13.674416,17.77334,-15.007716,60.856915,-17.184921,1.5667238,15.712192,-17.816463,-17.9957,22.66418,57.91531,20.472116,3.7449617,-11.343073
220,-1.5283901691436768,-1.808176040649414,76.80690002441406,2.505724692432692,-9.073401625266946,83.95055636521182,15.132642,5.10132,20.914461,6.9651794,-12.050158,-6.9744773,13.054618,-19.873125,-18.249744,9.09871,-8.653152,15.000033,1.2657708,-0.10293803,3.3047574,-13.713696,17.756975,-14.996639,60.955444,-17.166565,1.5484577,15.697707,-17.812483,-18.00121,22.67227,57.95032,20.5287,3.7052302,-11.31411
221,-1.561941146850586,-1.7979475259780884,76.8006591796875,2.527811774876976,-9.090334687093756,83.93993900573227,15.16387,5.044884,20.924505,6.964877,-12.079397,-6.944717,13.112907,-19.911879,-18.249346,9.019945,-8.6011715,15.000033,1.2282528,-0.118282445,3.301354,-13.776611,17.72616,-14.980814,61.081997,-17.138296,1.5662193,15.707339,-17.821554,-18.008282,22.686163,57.984634,20.561768,3.7292416,-11.283651
222,-1.5938397645950317,-1.7847113609313965,76.79545593261719,2.550015036357171,-9.113549509211188,83.94050826187264,15.198326,4.987755,20.924032,6.9671206,-12.111524,-6.916659,13.191282,-19.951456,-18.262377,8.927767,-8.541271,15.000033,1.1808642,-0.1430923,3.3003967,-13.857497,17.702602,-14.9727335,61.231155,-17.117605,1.606785,15.72735,-17.836622,-18.010077,22.697552,58.017605,20.580257,3.791601,-11.247011
223,-1.622249960899353,-1.7707983255386353,76.79114532470703,2.5701537864776762,-9.138144072253544,83.94759946074574,15.233851,4.932766,20.917814,6.9686337,-12.142767,-6.889902,13.295216,-19.981441,-18.289034,8.792882,-8.459571,15.000033,1.1279271,-0.17159459,3.3021252,-13.934152,17.688717,-14.971393,61.374165,-17.101936,1.655013,15.745668,-17.850657,-18.008665,22.705584,58.041477,20.581865,3.8682659,-11.212387
224,-1.6544911861419678,-1.7539162635803223,76.78655242919922,2.590685008917935,-9.149752663900017,83.94903881072794,15.25661,4.87897,20.918274,6.9692044,-12.169003,-6.862625,13.324856,-20.030075,-18.288755,8.778934,-8.441717,15.000033,1.0841398,-0.19690697,3.2995663,-13.958104,17.686562,-14.972982,61.45105,-17.084625,1.6939362,15.753315,-17.857214,-18.00815,22.708431,58.053715,20.56439,3.9259887,-11.192087
225,-1.686123251914978,-1.7390151023864746,76.7813949584961,2.6095229712622507,-9.161791800570331,83.95673408781987,15.278332,4.826495,20.912718,6.969935,-12.18851,-6.835679,13.34577,-20.08204,-18.290571,8.791419,-8.441761,15.000033,1.0384465,-0.2272226,3.2838166,-14.089456,17.663284,-15.002284,61.670452,-17.070656,1.7093908,15.732412,-17.867886,-17.996902,22.72081,58.07084,20.526552,3.983232,-11.18371
226,-1.7182412147521973,-1.7233550548553467,76.77828979492188,2.6223828585260756,-9.167385767113702,83.96555764609059,15.293291,4.7813377,20.907719,6.96985,-12.202447,-6.810475,13.367754,-20.12716,-18.294426,8.788798,-8.43512,15.000033,0.9963126,-0.24861293,3.270379,-14.171745,17.64897,-15.036182,61.829266,-17.053165,1.7188478,15.70095,-17.86976,-17.98586,22.724573,58.071426,20.458591,4.029337,-11.188102
227,-1.7479041814804077,-1.7087326049804688,76.77445220947266,2.6352995853113974,-9.168077151071964,83.97306742594117,15.303849,4.736385,20.903858,6.96971,-12.216834,-6.7850623,13.373078,-20.17394,-18.29339,8.80816,-8.439904,15.000033,0.9561861,-0.2723262,3.2537358,-14.242793,17.641869,-15.070098,61.972443,-17.039886,1.7269884,15.665253,-17.870026,-17.976868,22.725485,58.070107,20.392668,4.073914,-11.192558
228,-1.7736974954605103,-1.6904536485671997,76.77082824707031,2.6493874745770656,-9.165161345413534,83.97722206892142,15.311319,4.6912327,20.901981,6.9709487,-12.237126,-6.7587166,13.387684,-20.216284,-18.29469,8.797603,-8.427896,15.000033,0.9317663,-0.30439678,3.2277668,-14.320386,17.634623,-15.123462,62.117233,-17.044313,1.7368529,15.640817,-17.863752,-17.96283,22.710667,58.08322,20.352762,4.117322,-11.190834
229,-1.8027052879333496,-1.675078272819519,76.76760864257812,2.66499757163325,-9.156461126743963,83.97590936924244,15.315121,4.6433167,20.903454,6.9719105,-12.265087,-6.7315645,13.395679,-20.259195,-18.292162,8.783464,-8.413284,15.000033,0.89634776,-0.334458,3.200503,-14.348749,17.633472,-15.1408,62.203316,-17.054203,1.7525407,15.623521,-17.862608,-17.958773,22.700346,58.09987,20.353727,4.1667347,-11.175391
230,-1.8333371877670288,-1.6543480157852173,76.76432037353516,2.6826002236124715,-9.142851871832802,83.97185045914716,15.315556,4.5938964,20.905947,6.972422,-12.297485,-6.7042336,13.394853,-20.30439,-18.286568,8.775689,-8.401833,15.000033,0.9160946,-0.39248243,3.1541693,-14.455214,17.627424,-15.244334,62.367176,-17.102533,1.7630486,15.618868,-17.828733,-17.930134,22.615442,58.129696,20.35903,4.2150016,-11.153915
231,-1.8641306161880493,-1.6341356039047241,76.75898742675781,2.699987997463324,-9.126564974602555,83.96543226077797,15.313406,4.544876,20.911215,6.9739504,-12.332501,-6.6752367,13.397958,-20.345438,-18.281622,8.75005,-8.379181,15.000033,0.921881,-0.44390863,3.1108487,-14.515338,17.625532,-15.31419,62.47308,-17.138515,1.7787267,15.614515,-17.810522,-17.90805,22.556488,58.168926,20.379547,4.25822,-11.129483
232,-1.8938825130462646,-1.6159878969192505,76.75386810302734,2.715108461531623,-9.109926639156795,83.95764414409344,15.310323,4.496771,20.919888,6.975786,-12.3668785,-6.6439056,13.402447,-20.384289,-18.275959,8.716551,-8.349585,15.000033,0.918802,-0.4899127,3.0739315,-14.548636,17.62645,-15.357126,62.5363,-17.149828,1.7991802,15.604901,-17.80526,-17.894676,22.53319,58.212566,20.405432,4.2892594,-11.104986
233,-1.924401879310608,-1.5984477996826172,76.74714660644531,2.7309201078391374,-9.091914629189215,83.9468102967023,15.305873,4.448716,20.933882,6.9773016,-12.401105,-6.6082935,13.400778,-20.42286,-18.266714,8.686739,-8.317511,15.000033,0.94851696,-0.5488466,3.0295923,-14.612608,17.629768,-15.446859,62.613617,-17.156878,1.8254416,15.596157,-17.791922,-17.874815,22.504824,58.27535,20.421436,4.2986045,-11.077446
234,-1.9567023515701294,-1.5819851160049438,76.74288177490234,2.74692559746918,-9.072098268534088,83.93338652281398,15.299956,4.4004908,20.95214,6.979575,-12.43708,-6.569375,13.394643,-20.4611,-18.254822,8.657467,-8.282567,15.000033,0.9638915,-0.5984851,2.9947314,-14.639211,17.632685,-15.493742,62.63437,-17.128077,1.8597921,15.581141,-17.793137,-17.867039,22.5093,58.338512,20.440174,4.298521,-11.044845
235,-1.9871838092803955,-1.565148115158081,76.73881530761719,2.760864283994228,-9.05140384733549,83.91893180649096,15.2933035,4.3527412,20.972584,6.9800982,-12.470722,-6.530822,13.387115,-20.498152,-18.240808,8.625448,-8.244435,15.000033,0.9971424,-0.65685135,2.9518688,-14.682288,17.638388,-15.569045,62.668907,-17.116264,1.8895727,15.570395,-17.793762,-17.855484,22.520388,58.41857,20.472141,4.287088,-11.018073
236,-2.0223119258880615,-1.5473287105560303,76.7353515625,2.774216948530166,-9.03068776617344,83.90441313483781,15.284817,4.30645,20.993185,6.9825506,-12.501391,-6.496107,13.376541,-20.536634,-18.22332,8.598902,-8.209166,15.000033,1.0351145,-0.7178126,2.9153998,-14.721056,17.643005,-15.622495,62.693443,-17.104353,1.9099805,15.562418,-17.79509,-17.847017,22.531961,58.493294,20.50893,4.273388,-11.0006
237,-2.0649945735931396,-1.5355746746063232,76.7335433959961,2.7832633569844782,-9.012443936895233,83.89211913702756,15.277794,4.2644043,21.01249,6.9831357,-12.523876,-6.4688115,13.368387,-20.572853,-18.205933,8.573315,-8.176063,15.000033,1.0782077,-0.7823188,2.8855553,-14.764298,17.647444,-15.657096,62.718365,-17.098125,1.9163201,15.566924,-17.80344,-17.838118,22.550367,58.576267,20.555656,4.256497,-11.002897
238,-2.104552745819092,-1.52333402633667,76.73224639892578,2.790491465870684,-8.994616569581883,83.87999120450569,15.270446,4.2239156,21.03276,6.9832993,-12.541607,-6.4458957,13.345371,-20.612411,-18.181906,8.577766,-8.158846,15.000033,1.1239498,-0.8476129,2.8644276,-14.800577,17.649431,-15.661204,62.72667,-17.081213,1.9145138,15.578226,-17.817274,-17.833136,22.575523,58.65958,20.606783,4.2360454,-11.01715
239,-2.1391727924346924,-1.5075434446334839,76.72930145263672,2.7982591384213875,-8.974411217861267,83.86515794663484,15.260445,4.1811233,21.055279,6.983358,-12.55954,-6.422118,13.327279,-20.652401,-18.155142,8.562446,-8.128881,15.000033,1.16759,-0.9128543,2.8417194,-14.8310585,17.650307,-15.652389,62.731884,-17.069824,1.907339,15.579211,-17.836927,-17.828514,22.612959,58.74144,20.666817,4.2108536,-11.029166
