unveil-humanoid-operators/unveil-humanoid-operators.github.io/feature-analysis-animation/data/feature_matrix_instances/height_root_translate_rom_turning_A197.csv
Frame,root_translateX,root_translateY,root_translateZ,root_rotateX,root_rotateY,root_rotateZ,left_hip_pitch_joint_dof,left_hip_roll_joint_dof,left_hip_yaw_joint_dof,left_knee_joint_dof,left_ankle_pitch_joint_dof,left_ankle_roll_joint_dof,right_hip_pitch_joint_dof,right_hip_roll_joint_dof,right_hip_yaw_joint_dof,right_knee_joint_dof,right_ankle_pitch_joint_dof,right_ankle_roll_joint_dof,waist_yaw_joint_dof,waist_roll_joint_dof,waist_pitch_joint_dof,left_shoulder_pitch_joint_dof,left_shoulder_roll_joint_dof,left_shoulder_yaw_joint_dof,left_elbow_joint_dof,left_wrist_roll_joint_dof,left_wrist_pitch_joint_dof,left_wrist_yaw_joint_dof,right_shoulder_pitch_joint_dof,right_shoulder_roll_joint_dof,right_shoulder_yaw_joint_dof,right_elbow_joint_dof,right_wrist_roll_joint_dof,right_wrist_pitch_joint_dof,right_wrist_yaw_joint_dof
0,-1.5208553075790405,0.6468371748924255,59.3985481262207,-4.756553452699288,19.35410849803109,71.61456020126906,-78.29962,25.048935,-5.4145927,83.44396,-26.471277,-11.487954,-75.53303,-2.517664,3.892822,77.64994,-22.82873,13.137885,-6.2656965,-11.560724,29.793802,-66.06841,55.083008,-28.496822,-1.7262717,32.81039,-21.49764,42.493404,-53.47499,0.024801156,48.48452,-8.25927,-17.1036,-14.659182,-22.770832
1,-1.6025676727294922,0.6947305202484131,59.42866897583008,-4.748207401141359,19.345079074882637,71.5279204265428,-78.22526,25.161015,-5.224392,83.529884,-26.751589,-11.305158,-75.49187,-2.4871337,4.0311065,77.55553,-22.793234,13.250284,-6.478186,-11.735104,29.793802,-65.7397,55.45207,-28.264748,-1.9143188,32.728054,-21.50354,42.43564,-53.68901,0.3601163,48.690956,-8.031369,-17.185858,-14.694445,-22.718176
2,-1.685931921005249,0.7231189012527466,59.43986129760742,-4.748253999970422,19.33902011745292,71.44035095373167,-78.15814,25.274857,-5.0446672,83.613884,-27.029308,-11.129695,-75.45094,-2.4553971,4.1584735,77.45659,-22.756475,13.360807,-6.6630282,-11.882178,29.793802,-65.4293,55.776264,-28.04434,-2.0874312,32.65336,-21.512907,42.37926,-53.878365,0.6363439,48.894115,-7.841019,-17.258188,-14.73081,-22.671576
3,-1.7766369581222534,0.7522116899490356,59.44670486450195,-4.745970564454652,19.334222608168016,71.35302711621594,-78.091576,25.384418,-4.8610797,83.70355,-27.312077,-10.942979,-75.41263,-2.4239373,4.2942386,77.35971,-22.718836,13.473626,-6.8211627,-12.0092945,29.793802,-65.13706,56.05559,-27.842756,-2.2520604,32.589985,-21.519672,42.326485,-54.073082,0.8685542,49.067085,-7.6498876,-17.315557,-14.758494,-22.625893
4,-1.8778905868530273,0.7863999605178833,59.456626892089844,-4.726077920491202,19.32121081436447,71.2680728358063,-78.00624,25.48396,-4.6543016,83.80563,-27.608957,-10.726457,-75.37277,-2.3957074,4.461335,77.274956,-22.681902,13.592344,-6.9793425,-12.125047,29.793802,-64.84447,56.296432,-27.641273,-2.406097,32.5429,-21.519075,42.279404,-54.149647,1.0499042,49.263912,-7.5448017,-17.441072,-14.764139,-22.57041
5,-1.9824098348617554,0.8229784965515137,59.465049743652344,-4.684687393481219,19.307159100765475,71.18775419560271,-77.90984,25.577526,-4.416134,83.92665,-27.949017,-10.464974,-75.34229,-2.3719182,4.667017,77.20587,-22.643078,13.71895,-7.1186604,-12.230459,29.793802,-64.56289,56.498226,-27.454561,-2.5654383,32.50299,-21.505709,42.234417,-54.23477,1.1953822,49.41356,-7.4196305,-17.583181,-14.741311,-22.500986
6,-2.089299201965332,0.8684964179992676,59.47920608520508,-4.628890449921448,19.294269121720927,71.11046384081786,-77.8075,25.665836,-4.157463,84.06067,-28.318758,-10.172007,-75.32018,-2.350837,4.898937,77.14723,-22.602371,13.851003,-7.235152,-12.32764,29.793802,-64.2927,56.657234,-27.28722,-2.7271261,32.47997,-21.482304,42.19212,-54.370457,1.3222282,49.504387,-7.2434673,-17.71153,-14.699664,-22.42281
7,-2.2123823165893555,0.9207051396369934,59.490447998046875,-4.565689077312578,19.268652764099137,71.03163054531176,-77.68374,25.738153,-3.8912985,84.19851,-28.663605,-9.872007,-75.28636,-2.3304467,5.149289,77.09237,-22.563826,13.986549,-7.366455,-12.413125,29.793802,-64.01305,56.78563,-27.109547,-2.8698032,32.479294,-21.459873,42.157894,-54.321815,1.4064091,49.667107,-7.202569,-17.923977,-14.648933,-22.343128
8,-2.3301892280578613,0.9731436967849731,59.50202941894531,-4.515466695294135,19.247946140465615,70.94332767652642,-77.5682,25.78506,-3.647518,84.328445,-28.919958,-9.587724,-75.24742,-2.30627,5.3937163,77.02073,-22.521456,14.121546,-7.4491873,-12.465245,29.793802,-63.779797,56.882572,-26.980259,-3.008707,32.479687,-21.447422,42.133568,-54.43255,1.4783845,49.734814,-7.0318694,-17.976498,-14.610905,-22.293306
9,-2.458517074584961,1.0257755517959595,59.51597595214844,-4.476134487527343,19.211146389702073,70.84090933618124,-77.4377,25.797028,-3.434605,84.45317,-29.05909,-9.309818,-75.18205,-2.2732272,5.634747,76.93325,-22.479637,14.253011,-7.542353,-12.496343,29.793802,-63.54012,56.958557,-26.847689,-3.1201758,32.509117,-21.448082,42.128635,-54.340603,1.5107453,49.892765,-7.0129733,-18.069431,-14.57805,-22.265295
10,-2.593958616256714,1.0880987644195557,59.5316047668457,-4.447043808735786,19.173696582964453,70.72751979809064,-77.31028,25.782541,-3.2450147,84.575005,-29.113762,-9.029979,-75.10813,-2.2339504,5.874149,76.83145,-22.434671,14.383083,-7.6010685,-12.500477,29.793802,-63.332993,57.004333,-26.752762,-3.2233596,32.54955,-21.456373,42.13722,-54.301716,1.518104,50.0036,-6.950352,-18.070498,-14.548675,-22.260448
11,-2.7438976764678955,1.1534521579742432,59.55067443847656,-4.417264312085962,19.135006437180373,70.61540161014061,-77.17677,25.75797,-3.046407,84.69042,-29.132904,-8.774844,-75.030205,-2.2000754,6.1218815,76.72852,-22.390793,14.518787,-7.633483,-12.486901,29.793802,-63.202408,57.01462,-26.728857,-3.2875028,32.584145,-21.465614,42.15379,-54.302773,1.5155396,50.061592,-6.841353,-18.009562,-14.531235,-22.2604
12,-2.892890214920044,1.222880482673645,59.569847106933594,-4.367271976062182,19.091531659122598,70.51751536561429,-77.0168,25.738152,-2.7944841,84.79375,-29.166784,-8.570293,-74.95186,-2.1851485,6.3985233,76.64132,-22.354155,14.669244,-7.708147,-12.474735,29.793802,-63.00749,57.03407,-26.636106,-3.3876557,32.62039,-21.478348,42.154736,-54.25575,1.4911584,50.16843,-6.7761393,-17.956953,-14.52222,-22.273146
13,-3.057634115219116,1.2976644039154053,59.578834533691406,-4.294785504409061,19.047511521488953,70.43930754552096,-76.831276,25.72506,-2.4776266,84.87737,-29.212397,-8.439497,-74.879166,-2.1942832,6.707659,76.57424,-22.324446,14.838068,-7.8096423,-12.473323,29.793802,-62.83406,57.04476,-26.558498,-3.4782841,32.64969,-21.487232,42.144657,-54.148468,1.4519976,50.284683,-6.761655,-17.907333,-14.539293,-22.282434
14,-3.2302186489105225,1.3736566305160522,59.595794677734375,-4.210445721845793,19.008990161728907,70.37258880894743,-76.63513,25.711206,-2.1198297,84.94553,-29.24683,-8.362875,-74.814766,-2.2210262,7.0342765,76.51601,-22.296816,15.000033,-7.9125767,-12.451236,29.793802,-62.667694,57.062824,-26.46841,-3.5925593,32.64252,-21.502874,42.11953,-54.08985,1.3688691,50.37778,-6.72396,-17.782457,-14.5732765,-22.309572
15,-3.3968520164489746,1.4542244672775269,59.60482406616211,-4.120164542321135,18.962007469726007,70.30998615693825,-76.42009,25.698645,-1.7414438,85.01117,-29.290981,-8.306637,-74.74358,-2.2664537,7.3366866,76.4639,-22.274157,15.000033,-8.023715,-12.439649,29.793802,-62.48692,57.070877,-26.385174,-3.7107306,32.65673,-21.512968,42.10145,-54.01017,1.2656387,50.462536,-6.710256,-17.648039,-14.607598,-22.330734
16,-3.568460702896118,1.5367348194122314,59.61424255371094,-4.028343058845176,18.895881169125964,70.2452930170342,-76.18256,25.686813,-1.3602636,85.09053,-29.368254,-8.232698,-74.65027,-2.3142521,7.642445,76.41245,-22.264046,15.000033,-8.127498,-12.418821,29.793802,-62.339966,57.071537,-26.334852,-3.789105,32.658424,-21.52094,42.098133,-53.90527,1.152771,50.53783,-6.6895103,-17.540096,-14.622272,-22.331917
17,-3.7468109130859375,1.6339398622512817,59.633689880371094,-3.938246906359081,18.801068134352622,70.17693908806542,-75.913216,25.676529,-0.97968876,85.18697,-29.486591,-8.1423235,-74.52317,-2.3639603,7.9489183,76.360855,-22.262781,15.000033,-8.231806,-12.402626,29.793802,-62.18018,57.060177,-26.297174,-3.842113,32.688007,-21.522345,42.11953,-53.765827,1.0356227,50.610466,-6.6733418,-17.466879,-14.60954,-22.301142
18,-3.9334871768951416,1.7414722442626953,59.662967681884766,-3.861404848861082,18.686138675599256,70.1016353672992,-75.62964,25.676907,-0.61106884,85.296364,-29.632463,-8.054823,-74.369316,-2.4126866,8.241135,76.30387,-22.271326,15.000033,-8.331233,-12.376333,29.793802,-61.99369,57.031017,-26.260786,-3.8877888,32.750107,-21.518642,42.157425,-53.601013,0.9165486,50.676476,-6.657266,-17.412601,-14.580512,-22.248648
19,-4.117549419403076,1.8199113607406616,59.66215896606445,-3.801874377302616,18.566707531545223,70.01774834912274,-75.34987,25.684896,-0.25786248,85.417015,-29.798563,-7.958974,-74.205826,-2.4572263,8.520057,76.23907,-22.27851,15.000033,-8.414835,-12.322577,29.793802,-61.824574,56.985798,-26.241737,-3.9187005,32.801575,-21.515713,42.19603,-53.426914,0.7924931,50.725456,-6.6272116,-17.369816,-14.54521,-22.193968
20,-4.325952529907227,1.9018617868423462,59.65732955932617,-3.737215155952744,18.45733645108089,69.93414349389536,-75.07289,25.684368,0.10942752,85.54147,-29.97775,-7.836563,-74.05556,-2.5051506,8.815624,76.177536,-22.282362,15.000033,-8.490066,-12.251492,29.793802,-61.710606,56.932095,-26.249737,-3.929846,32.803394,-21.518282,42.22042,-53.258614,0.6586818,50.75284,-6.576821,-17.32888,-14.5133915,-22.157084
21,-4.525981903076172,1.9914964437484741,59.658180236816406,-3.6671887544033805,18.369360483287082,69.84513543285892,-74.81266,25.678493,0.49067506,85.67581,-30.173397,-7.682072,-73.93586,-2.5501113,9.132509,76.12419,-22.282063,15.000033,-8.56338,-12.178001,29.793802,-61.584854,56.862,-26.240458,-3.9638364,32.79854,-21.5229,42.22747,-53.10644,0.5138343,50.761036,-6.5220695,-17.293877,-14.487559,-22.147343
22,-4.738846778869629,2.107656717300415,59.67599105834961,-3.592686848046558,18.292217033223626,69.75259869270724,-74.559074,25.668648,0.8834253,85.81929,-30.387165,-7.502964,-73.833015,-2.5952492,9.4645405,76.07646,-22.279436,15.000033,-8.629399,-12.090238,29.793802,-61.482346,56.77991,-26.23653,-3.9937754,32.765858,-21.531235,42.222755,-52.959972,0.35565907,50.75165,-6.4550285,-17.268707,-14.462143,-22.152945
23,-4.9470295906066895,2.217219114303589,59.688079833984375,-3.510967452410143,18.208809447136904,69.66780110898847,-74.28588,25.644447,1.2937033,85.95773,-30.611454,-7.306243,-73.719025,-2.6503603,9.811398,76.02638,-22.27883,15.000033,-8.699684,-11.996521,29.793802,-61.401745,56.687878,-26.250698,-4.006771,32.710625,-21.542645,42.21213,-52.798523,0.18594551,50.731888,-6.386995,-17.233824,-14.436162,-22.163706
24,-5.170926094055176,2.3217291831970215,59.691436767578125,-3.414845414508742,18.102497734163894,69.60246941310764,-73.96734,25.59655,1.72883,86.07564,-30.835732,-7.0970006,-73.56976,-2.731778,10.167821,75.96451,-22.273079,15.000033,-8.786579,-11.905254,29.793802,-61.337574,56.587074,-26.292599,-3.991232,32.64032,-21.556677,42.200653,-52.602192,0.009655953,50.7099,-6.3256598,-17.169985,-14.408789,-22.169388
25,-5.397975921630859,2.429718494415283,59.70479965209961,-3.2955965953218382,17.958115544423805,69.57054853906972,-73.58333,25.509895,2.1946945,86.17115,-31.063583,-6.874408,-73.36876,-2.8487675,10.543926,75.90239,-22.27987,15.000033,-8.9191265,-11.84629,29.793802,-61.195324,56.462147,-26.316011,-3.9801543,32.613903,-21.57015,42.180702,-52.359543,-0.16227493,50.69857,-6.286674,-17.06192,-14.381791,-22.169294
26,-5.6331658363342285,2.5359723567962646,59.724891662597656,-3.159761118909372,17.7878366104794,69.56194850288587,-73.15351,25.393126,2.6843536,86.25207,-31.297472,-6.6357555,-73.13406,-2.995027,10.935018,75.83978,-22.290472,15.000033,-9.076328,-11.794155,29.793802,-61.042496,56.317303,-26.347015,-3.9482431,32.58457,-21.587933,42.14998,-52.089508,-0.32822663,50.686413,-6.239198,-16.926815,-14.354873,-22.167128
27,-5.871944904327393,2.656144142150879,59.76494598388672,-3.0222882286718735,17.6149626388312,69.55252476245104,-72.706566,25.268785,3.1883743,86.3158,-31.530603,-6.386727,-72.885056,-3.1482384,11.329565,75.75219,-22.285826,15.000033,-9.218048,-11.714059,29.793802,-60.99737,56.173485,-26.445017,-3.8565388,32.490715,-21.610962,42.12796,-51.813457,-0.4957581,50.655514,-6.164635,-16.78645,-14.325015,-22.160936
28,-6.112871170043945,2.7875616550445557,59.8212776184082,-2.892159147090265,17.463960694462784,69.51851863258346,-72.26691,25.158743,3.7059896,86.35825,-31.755457,-6.132097,-72.64528,-3.2913973,11.722316,75.61925,-22.246,15.000033,-9.341924,-11.627986,29.793802,-60.95182,56.020832,-26.546314,-3.7809684,32.429535,-21.628323,42.13938,-51.545483,-0.66601026,50.60825,-6.1009297,-16.651733,-14.290652,-22.151136
29,-6.363563060760498,2.9150524139404297,59.87784957885742,-2.770584934855819,17.333038573317886,69.46257587364659,-71.83355,25.062307,4.234524,86.38434,-31.975601,-5.872803,-72.41476,-3.4244776,12.1113205,75.44863,-22.17637,15.000033,-9.437034,-11.515072,29.793802,-60.96892,55.867855,-26.682642,-3.6908193,32.366634,-21.642752,42.19636,-51.285248,-0.8444028,50.539967,-6.0263324,-16.526901,-14.252186,-22.137926
30,-6.623230934143066,3.039682626724243,59.933876037597656,-2.642391308820495,17.21270997987938,69.39499718275665,-71.3889,24.967255,4.788294,86.391304,-32.19273,-5.605263,-72.18741,-3.5574775,12.510525,75.2502,-22.084204,15.000033,-9.571029,-11.466042,29.793802,-60.68168,55.652958,-26.657162,-3.7599664,32.55246,-21.637606,42.29198,-51.017212,-1.0134772,50.483887,-6.016346,-16.388397,-14.212885,-22.12436
31,-6.893265247344971,3.1616249084472656,59.99518585205078,-2.530046529211748,17.113162554411623,69.30206595316993,-70.95408,24.886581,5.348623,86.37324,-32.398827,-5.3315187,-71.96431,-3.6777732,12.898951,74.99449,-21.94599,15.000033,-9.6439085,-11.331865,29.793802,-60.627995,55.439045,-26.74457,-3.7185478,32.58095,-21.650059,42.385693,-50.76897,-1.1937644,50.391884,-5.9461193,-16.267336,-14.165317,-22.105255
32,-7.167473316192627,3.285341262817383,60.06951904296875,-2.4328318631952186,17.04691544982675,69.17112228059439,-70.53704,24.828007,5.9232116,86.31894,-32.58588,-5.0520697,-71.750725,-3.7718432,13.28339,74.656815,-21.7538,15.000033,-9.6846695,-11.181784,29.793802,-60.607536,55.21583,-26.850111,-3.679563,32.580242,-21.664042,42.467052,-50.535908,-1.3861668,50.278862,-5.897698,-16.153307,-14.109249,-22.08119
33,-7.4500017166137695,3.405738353729248,60.15641784667969,-2.3464608330133108,17.01249587979144,69.0080971825292,-70.13543,24.786081,6.515186,86.231964,-32.75455,-4.7667294,-71.55085,-3.8461847,13.66451,74.24858,-21.50255,15.000033,-9.698951,-11.013528,29.793802,-60.59867,54.979847,-26.952845,-3.6606286,32.5321,-21.678793,42.513096,-50.317276,-1.5919696,50.141876,-5.87177,-16.053272,-14.035846,-22.041471
34,-7.746764183044434,3.5314879417419434,60.254878997802734,-2.2703116223793502,17.005389354058035,68.81703541911958,-69.7442,24.758068,7.124217,86.1162,-32.909138,-4.475517,-71.360916,-3.9002953,14.043035,73.77791,-21.201138,15.000033,-9.689305,-10.826633,29.793802,-60.601513,54.729874,-27.05512,-3.6557024,32.454365,-21.694536,42.54045,-50.10866,-1.8119458,49.98456,-5.864247,-15.963383,-13.949156,-21.990425
35,-8.053853988647461,3.6628942489624023,60.3719596862793,-2.2173531438811183,17.036636499216545,68.58226099038602,-69.37281,24.758886,7.7472696,85.958916,-33.04381,-4.17768,-71.18262,-3.9295588,14.408499,73.21119,-20.831663,15.000033,-9.633817,-10.610035,29.793802,-60.63687,54.46295,-27.170383,-3.6535184,32.378613,-21.718456,42.580276,-49.98757,-2.0365577,49.784863,-5.81216,-15.82988,-13.866432,-21.953245
36,-8.371638298034668,3.787663459777832,60.50611114501953,-2.1945404126337626,17.106476383318785,68.28921409743693,-69.01576,24.80231,8.386573,85.74677,-33.15434,-3.8728437,-71.006615,-3.9255636,14.753857,72.51842,-20.379253,15.000033,-9.542084,-10.3635235,29.793802,-60.70443,54.183197,-27.288553,-3.630946,32.343224,-21.758488,42.664333,-49.847713,-2.273471,49.604557,-5.797337,-15.711318,-13.800323,-21.947893
37,-8.698997497558594,3.911487102508545,60.65866470336914,-2.205533545767419,17.208510517650907,67.94408319218438,-68.669914,24.88529,9.036519,85.48579,-33.241974,-3.562227,-70.8273,-3.894727,15.077941,71.710655,-19.85373,15.000033,-9.38721,-10.042257,29.793802,-61.019985,53.93382,-27.52844,-3.4747741,32.191326,-21.832224,42.806133,-49.6639,-2.542262,49.434135,-5.8041883,-15.615356,-13.754557,-21.978151
38,-9.048110008239746,4.032641410827637,60.83354949951172,-2.2298221155979885,17.347676861691014,67.55248314169798,-68.32911,24.997177,9.719538,85.17448,-33.307034,-3.2437606,-70.65638,-3.8413916,15.400971,70.79938,-19.259193,15.000033,-9.266941,-9.803275,29.793802,-60.893913,53.613533,-27.53475,-3.5628178,32.394905,-21.897068,43.000896,-49.508892,-2.8072584,49.29035,-5.9011164,-15.464915,-13.728178,-22.040342
39,-9.40817928314209,4.1529011726379395,61.031944274902344,-2.297151363584018,17.529843440279077,67.09532188513347,-68.0088,25.15733,10.414728,84.80647,-33.348663,-2.919219,-70.47985,-3.750373,15.694816,69.740944,-18.570688,15.000033,-9.060101,-9.452213,29.793802,-61.082714,53.307083,-27.664984,-3.4806778,32.42265,-21.988668,43.200348,-49.35631,-3.0973015,49.139774,-5.9658,-15.359889,-13.70544,-22.123835
40,-9.788095474243164,4.27296781539917,61.25571060180664,-2.4113890548840002,17.777062818483838,66.55414124376928,-67.72346,25.376534,11.134691,84.365,-33.360783,-2.5857928,-70.308495,-3.6119764,15.959346,68.4941,-17.761683,15.000033,-8.792327,-9.079849,29.793802,-61.268543,52.9895,-27.769165,-3.4223022,32.51418,-22.06721,43.398735,-49.349857,-3.3930945,48.94941,-5.9779105,-15.206411,-13.687243,-22.233377
41,-10.186905860900879,4.394526958465576,61.50737380981445,-2.583458801621355,18.085614946955392,65.91232645622533,-67.465454,25.672201,11.883522,83.84927,-33.346886,-2.2421048,-70.13773,-3.425415,16.20063,67.04221,-16.824478,15.000033,-8.467775,-8.668512,29.793802,-61.498363,52.671055,-27.83991,-3.342207,32.65802,-22.143108,43.58529,-49.35299,-3.705835,48.77984,-6.0352182,-15.112635,-13.667579,-22.37259
42,-10.609803199768066,4.510237693786621,61.78520202636719,-2.8063745179213693,18.449774441394318,65.1832368566002,-67.230125,26.032345,12.661887,83.26554,-33.307426,-1.8891653,-69.96614,-3.2031167,16.425869,65.40345,-15.771978,15.000033,-8.090477,-8.224663,29.793802,-61.74719,52.352074,-27.875845,-3.264668,32.854485,-22.219078,43.77285,-49.413174,-4.0343237,48.60953,-6.1003685,-15.028756,-13.651469,-22.542408
43,-11.0469970703125,4.63301944732666,62.091793060302734,-3.0626570081701874,18.858318819641624,64.39225001713899,-67.00557,26.424074,13.472688,82.61293,-33.23943,-1.5310233,-69.779816,-2.961132,16.637875,63.59705,-14.616377,15.000033,-7.6975427,-7.7725997,29.793802,-61.93225,52.02155,-27.84606,-3.2278292,33.095196,-22.282473,43.961697,-49.498196,-4.3713717,48.45985,-6.197559,-14.953552,-13.638427,-22.7218
44,-11.504927635192871,4.756443023681641,62.42054748535156,-3.3404890624738184,19.302174353150768,63.56480005355233,-66.786476,26.81661,14.31104,81.8898,-33.138626,-1.1721343,-69.56606,-2.7191546,16.827467,61.634888,-13.360501,15.000033,-7.284521,-7.2858377,29.793802,-62.2026,51.699646,-27.839739,-3.150731,33.210045,-22.332207,44.148323,-49.632442,-4.712933,48.31066,-6.2683115,-14.864404,-13.627788,-22.890293
45,-11.978652000427246,4.884224891662598,62.77022933959961,-3.649847965281624,19.78110420919584,62.6893816258976,-66.565956,27.219122,15.17822,81.0824,-33.001637,-0.8129683,-69.30248,-2.4456115,17.05629,59.47393,-11.998265,15.000033,-6.862252,-6.7761736,29.793802,-62.498432,51.388718,-27.826418,-3.0644164,33.217575,-22.36112,44.338825,-49.779827,-5.05669,48.191883,-6.3543477,-14.75444,-13.624204,-23.049757
46,-12.461601257324219,5.013005256652832,63.1387939453125,-3.9977264817287863,20.29726486215463,61.7572115691331,-66.347305,27.642105,16.076836,80.19649,-32.831356,-0.4514576,-69.00483,-2.1740034,17.30584,57.108574,-10.507716,15.000033,-6.418214,-6.236543,29.793802,-62.85827,51.099,-27.817657,-2.9517534,33.122864,-22.376595,44.53069,-49.96989,-5.4024706,48.089527,-6.4294415,-14.626821,-13.626801,-23.20871
47,-12.955975532531738,5.150112628936768,63.520263671875,-4.346697468309692,20.84091383278973,60.79994917899006,-66.12414,28.049662,17.01788,79.25643,-32.63664,-0.0898043,-68.70298,-1.9655956,17.511034,54.64262,-8.948267,15.000033,-6.0050335,-5.7304845,29.793802,-63.092552,50.80801,-27.727661,-2.9132001,33.076443,-22.372723,44.72033,-50.171257,-5.736367,48.005764,-6.547074,-14.535535,-13.625914,-23.35399
48,-13.457610130310059,5.2990241050720215,63.91099548339844,-4.670382734103879,21.402221333627523,59.84845372171106,-65.89763,28.412148,17.997835,78.28941,-32.42618,0.26845008,-68.42319,-1.8742533,17.5823,52.17477,-7.372985,15.000033,-5.6137047,-5.2358356,29.793802,-63.40938,50.54251,-27.664993,-2.8274581,32.952965,-22.363432,44.89723,-50.366375,-6.057396,47.913536,-6.6807137,-14.552238,-13.608535,-23.46971
49,-13.953299522399902,5.455720901489258,64.30763244628906,-4.979940611942652,22.00858971219274,58.89583440835399,-65.696175,28.731554,19.011164,77.27766,-32.1859,0.6171961,-68.14732,-1.8196887,17.632626,49.56985,-5.6320734,15.000033,-5.2654095,-4.7769113,29.793802,-63.678944,50.294827,-27.56131,-2.7789001,32.83914,-22.333435,45.071785,-50.574368,-6.3581204,47.815975,-6.8558073,-14.712253,-13.563666,-23.550184
50,-14.449043273925781,5.601067543029785,64.6763687133789,-5.286746478858242,22.652609223965083,57.931132104716184,-65.50798,29.022142,20.056496,76.21389,-31.918537,0.95861286,-67.86657,-1.8212829,17.659521,46.820835,-3.7421947,15.000033,-4.938763,-4.326102,29.793802,-64.00195,50.08048,-27.462074,-2.708296,32.653137,-22.290205,45.241528,-50.810886,-6.6384387,47.714134,-7.035602,-14.9756365,-13.49955,-23.602537
51,-14.945159912109375,5.774816989898682,65.04096221923828,-5.555796311840741,23.27923848210651,56.97688690996789,-65.2761,29.263582,21.149946,75.14059,-31.650503,1.3037869,-67.636055,-2.0372064,17.386124,44.24672,-2.01438,15.000033,-4.6593814,-3.9320116,29.793802,-64.29811,49.89701,-27.355713,-2.6367736,32.459774,-22.243155,45.394806,-51.00345,-6.887033,47.626694,-7.256648,-15.282017,-13.438233,-23.633701
52,-15.439465522766113,5.943173408508301,65.39464569091797,-5.751734756033516,23.836360200427464,56.05459922248941,-64.94705,29.443394,22.301676,74.09936,-31.40991,1.6628933,-67.50722,-2.5893588,16.512083,42.183716,-0.77581954,15.000033,-4.438869,-3.6238177,29.793802,-64.532974,49.739174,-27.250689,-2.5578144,32.295364,-22.20501,45.517063,-51.10296,-7.0875115,47.56302,-7.523394,-15.565416,-13.401707,-23.651054
53,-15.93337345123291,6.121443271636963,65.73749542236328,-5.863031367792288,24.312358491182078,55.17299014274961,-64.49616,29.541454,23.520477,73.07785,-31.1991,2.0448265,-67.4447,-3.537218,14.846553,40.614204,-0.13398929,15.000033,-4.288737,-3.4101179,29.793802,-64.69043,49.60298,-27.145971,-2.4581316,32.16839,-22.182823,45.604767,-51.095028,-7.2234764,47.52679,-7.836425,-15.839186,-13.399486,-23.65074
54,-16.413726806640625,6.307086944580078,66.06121826171875,-5.9169766963187085,24.733950398052688,54.32389797011683,-63.96508,29.568573,24.778223,72.06184,-31.001175,2.4402022,-67.40086,-4.7704077,12.541622,39.434483,0.044222437,15.000033,-4.2039084,-3.2662463,29.793802,-64.79779,49.50209,-27.04618,-2.34033,32.05126,-22.16788,45.666096,-51.023163,-7.280673,47.51075,-8.164842,-16.129482,-13.420537,-23.629698
55,-16.881994247436523,6.485928535461426,66.3589859008789,-5.9395271410561685,25.10915073906291,53.50148698998433,-63.401787,29.554647,26.030287,71.08021,-30.824297,2.8328993,-67.4035,-6.1456223,9.823004,38.840878,-0.21465924,15.000033,-4.1493535,-3.1447628,29.793802,-64.96192,49.453663,-27.001081,-2.1804981,31.875893,-22.154371,45.703213,-50.88649,-7.280863,47.499447,-8.498292,-16.402853,-13.453112,-23.598333
56,-17.340261459350586,6.663384914398193,66.6382827758789,-6.0413506409535955,25.453428116717387,52.65623472566666,-62.919487,29.607758,27.156311,70.19875,-30.678745,3.192854,-67.47228,-7.4916744,6.857055,38.950027,-0.8255991,15.000033,-4.0832214,-3.00835,29.793802,-64.895134,49.379715,-26.89528,-2.186919,31.881174,-22.113731,45.729546,-50.67261,-7.2363725,47.485054,-8.891246,-16.611017,-13.488253,-23.568508
57,-17.761831283569336,6.81540060043335,66.88958740234375,-6.223822956289755,25.77001558778654,51.78765538387835,-62.531654,29.743967,28.144945,69.41826,-30.555994,3.509588,-67.62924,-8.972078,3.1963859,39.888878,-1.9286811,14.042421,-3.9208882,-2.750839,29.793802,-65.061806,49.274647,-26.926313,-2.078775,31.78439,-22.072115,45.72258,-50.44075,-7.1258698,47.409595,-9.187584,-16.764414,-13.525893,-23.53287
58,-18.18086814880371,6.972221374511719,67.11609649658203,-6.363501648730153,26.05323515415342,50.94758371820476,-62.13002,29.84653,29.138023,68.683945,-30.455618,3.8162322,-67.810844,-10.697648,-0.8643296,41.58663,-3.5550854,12.839893,-3.7829812,-2.5517776,29.793802,-65.21439,49.16917,-27.000732,-1.9804946,31.735239,-22.010902,45.701347,-50.139427,-6.9738092,47.32477,-9.524053,-16.856909,-13.57258,-23.49302
59,-18.590351104736328,7.126087188720703,67.31893157958984,-6.463928267477718,26.294463956858866,50.12529982344573,-61.70709,29.928843,30.137047,68.01454,-30.390594,4.1173706,-67.94866,-12.411087,-4.6579633,43.80953,-5.375612,11.672316,-3.6692717,-2.3901207,29.793802,-65.33872,49.060562,-27.088434,-1.8945522,31.71649,-21.946375,45.664608,-49.77445,-6.782213,47.257675,-9.872681,-16.9088,-13.615772,-23.45368
60,-18.993953704833984,7.278229236602783,67.4843521118164,-6.534562998392757,26.487274576747783,49.30374036192859,-61.254757,30.013464,31.145145,67.428154,-30.371332,4.415117,-68.0616,-13.818671,-7.601605,46.31426,-7.033633,10.526116,-3.5794525,-2.262081,29.793802,-65.4097,48.948463,-27.167248,-1.833576,31.729837,-21.88801,45.617805,-49.34335,-6.559451,47.234592,-10.22672,-16.937685,-13.643287,-23.419035
61,-19.38313865661621,7.4265570640563965,67.62088012695312,-6.559064296891533,26.628980505015964,48.49382250792402,-60.768326,30.087969,32.168213,66.932304,-30.401535,4.71101,-68.2802,-14.841616,-9.505057,49.20098,-8.422682,9.2946,-3.4898074,-2.1524413,29.793802,-65.54286,48.847984,-27.303232,-1.7462168,31.687393,-21.836191,45.553177,-48.925064,-6.3060493,47.213524,-10.506641,-16.864895,-13.645905,-23.388578
62,-19.76265525817871,7.574310302734375,67.73481750488281,-6.52591010936667,26.719754372321773,47.707904763975385,-60.242046,30.133966,33.210514,66.51453,-30.476295,5.0041704,-68.607,-15.630269,-10.691305,52.49502,-9.684763,7.9988785,-3.4349449,-2.0884628,29.793802,-65.671005,48.76118,-27.464529,-1.6551838,31.63784,-21.784622,45.472626,-48.412144,-6.02668,47.23294,-10.8167515,-16.74861,-13.631212,-23.359056
63,-20.13507080078125,7.722567558288574,67.8277816772461,-6.469753191130219,26.77590852266853,46.91982403357846,-59.69801,30.184145,34.256134,66.16798,-30.592306,5.293155,-68.93972,-16.181057,-11.384753,55.858864,-10.822459,6.8236537,-3.3968716,-2.0590239,29.793802,-65.71785,48.67398,-27.601332,-1.6157314,31.643322,-21.741983,45.39017,-47.91245,-5.715738,47.268772,-11.07747,-16.600105,-13.616318,-23.341017
64,-20.501306533813477,7.877991199493408,67.90377807617188,-6.436043532827206,26.807877117584486,46.09702502124446,-59.155598,30.279877,35.28582,65.89065,-30.747873,5.574666,-69.17177,-16.48977,-11.813051,58.99508,-11.864022,5.957424,-3.3427174,-2.0205588,29.793802,-65.79266,48.60112,-27.74593,-1.558169,31.639412,-21.725796,45.31798,-47.410645,-5.3883476,47.32661,-11.2899685,-16.5141,-13.614482,-23.337093
65,-20.856876373291016,8.04036808013916,67.96451568603516,-6.4356522604053055,26.81512035464999,45.224205391787045,-58.620914,30.440266,36.29614,65.69361,-30.950556,5.8477902,-69.32884,-16.424353,-11.871728,61.882603,-12.780194,5.5572696,-3.2614357,-1.9757849,29.793802,-65.84167,48.537827,-27.871748,-1.52238,31.66524,-21.746305,45.259514,-46.924404,-5.048855,47.40378,-11.44709,-16.486582,-13.633998,-23.364468
66,-21.209712982177734,8.200998306274414,68.00848388671875,-6.450075931128706,26.794219018645357,44.31514359379207,-58.082436,30.649885,37.29709,65.575485,-31.198536,6.1134243,-69.476585,-15.9863405,-11.528498,64.67987,-13.569444,5.5099506,-3.1708906,-1.9406416,29.793802,-65.81263,48.47309,-27.958035,-1.537886,31.752295,-21.792358,45.20729,-46.427742,-4.697989,47.509113,-11.576691,-16.49037,-13.665009,-23.415771
67,-21.553876876831055,8.364522933959961,68.03814697265625,-6.480142837175905,26.757671055838294,43.37924237480606,-57.54947,30.895727,38.285625,65.517136,-31.476583,6.372138,-69.56873,-15.396661,-11.102154,67.37523,-14.316074,5.588134,-3.057082,-1.8886725,29.793802,-65.84438,48.424667,-28.072548,-1.5268395,31.803947,-21.846222,45.160576,-45.949516,-4.3460426,47.62066,-11.658204,-16.518702,-13.696907,-23.461056
68,-21.885976791381836,8.532861709594727,68.06061553955078,-6.51887122681369,26.718805732251294,42.427711631695196,-57.02592,31.16098,39.266953,65.4972,-31.76936,6.6249437,-69.56429,-14.905373,-10.881688,69.95581,-15.096602,5.544123,-2.9447384,-1.8391917,29.793802,-65.87315,48.39303,-28.187803,-1.5285648,31.86004,-21.880083,45.122772,-45.49923,-3.9992588,47.74307,-11.716339,-16.559248,-13.720287,-23.472622
69,-22.208032608032227,8.706006050109863,68.07610321044922,-6.57963963505335,26.6726489434669,41.4453984647004,-56.507694,31.464579,40.241325,65.52571,-32.0856,6.872308,-69.459206,-14.501544,-10.853448,72.43506,-15.932597,5.3477807,-2.8317075,-1.7939044,29.793802,-65.832054,48.369225,-28.271568,-1.5798192,31.966192,-21.881924,45.095387,-45.07626,-3.6597316,47.883232,-11.75519,-16.618818,-13.733629,-23.438198
70,-22.53087615966797,8.885375022888184,68.08113861083984,-6.661382119769206,26.614335317806663,40.431770578805796,-55.993366,31.810898,41.206314,65.60958,-32.42916,7.1136804,-69.27507,-14.085592,-10.887984,74.82073,-16.78743,5.11149,-2.6980984,-1.7327697,29.793802,-65.824165,48.364334,-28.371487,-1.6261595,32.051285,-21.870308,45.07587,-44.67232,-3.3343906,48.032635,-11.763824,-16.70312,-13.740867,-23.373713
71,-22.848186492919922,9.072220802307129,68.07632446289062,-6.734806310390481,26.560419601456687,39.419596365250634,-55.489025,32.155094,42.170773,65.718994,-32.777622,7.3495016,-69.01725,-13.796966,-11.069317,77.09757,-17.63985,4.788595,-2.5748525,-1.6809758,29.793802,-65.82111,48.377563,-28.471157,-1.684071,32.13169,-21.854946,45.06188,-44.293003,-3.0235994,48.18936,-11.763569,-16.782606,-13.743276,-23.298119
72,-23.16435432434082,9.246028900146484,68.05795288085938,-6.769706809006939,26.527545819692033,38.441933925828685,-55.00308,32.449944,43.139694,65.8219,-33.106895,7.5804176,-68.684296,-13.781301,-11.479188,79.244965,-18.469341,4.3263206,-2.489869,-1.6562129,29.793802,-65.821686,48.40873,-28.563475,-1.7562274,32.20361,-21.847967,45.048824,-43.9431,-2.726076,48.351433,-11.7671175,-16.832512,-13.741104,-23.229412
73,-23.473159790039062,9.43188190460205,68.03543853759766,-6.762238917575904,26.523820374398785,37.509697313995346,-54.54572,32.685913,44.10722,65.915215,-33.410828,7.8081746,-68.25081,-14.132376,-12.180285,81.28772,-19.293816,3.6805916,-2.4506633,-1.6560843,29.793802,-65.84038,48.461246,-28.654442,-1.8420951,32.254665,-21.853409,45.038254,-43.6249,-2.4408648,48.51362,-11.771398,-16.846422,-13.733649,-23.163946
74,-23.763347625732422,9.600608825683594,68.00813293457031,-6.7286492352890575,26.54002938133575,36.60412192831532,-54.11117,32.88672,45.071434,66.013565,-33.70196,8.032539,-67.71039,-14.76756,-13.101121,83.23204,-20.12777,2.8784444,-2.4410233,-1.6717242,29.793802,-65.888145,48.539387,-28.752415,-1.9324154,32.277348,-21.865072,45.031353,-43.33614,-2.16813,48.675602,-11.76724,-16.838064,-13.720838,-23.095036
75,-24.04871368408203,9.771060943603516,67.9773178100586,-6.667580309151849,26.56711740619477,35.714079267161544,-53.682568,33.057343,46.043858,66.11425,-33.986332,8.250302,-67.09221,-15.564572,-14.12333,85.03238,-20.948135,1.9778502,-2.4514058,-1.7089491,29.793802,-65.975555,48.646774,-28.862179,-2.0101287,32.266045,-21.880493,45.02362,-43.07625,-1.9097875,48.845093,-11.763526,-16.813892,-13.704206,-23.034979
76,-24.33613395690918,9.94374942779541,67.93765258789062,-6.576299945507582,26.596972110239918,34.828002658308066,-53.240818,33.203373,47.038548,66.21407,-34.269646,8.458197,-66.43819,-16.396984,-15.131493,86.64131,-21.724497,1.0413567,-2.482774,-1.7853993,29.793802,-66.0368,48.773567,-28.950558,-2.1001835,32.268986,-21.894623,45.010857,-42.845463,-1.664371,49.03446,-11.774878,-16.77631,-13.6860485,-22.997267
77,-24.616060256958008,10.117476463317871,67.8932876586914,-6.446407713869257,26.630377128681463,33.9533310669677,-52.78492,33.31197,48.056396,66.30913,-34.552124,8.658757,-65.74447,-17.305197,-16.139435,88.07855,-22.476778,0.028553525,-2.5336885,-1.8956401,29.793802,-66.12201,48.922474,-29.037779,-2.173165,32.261765,-21.90954,44.987976,-42.6438,-1.4344739,49.23946,-11.793941,-16.733923,-13.663599,-22.988007
78,-24.890159606933594,10.28486442565918,67.84465789794922,-6.280891100856859,26.671805158907897,33.09276786521672,-52.324127,33.38395,49.089947,66.400795,-34.830544,8.852638,-64.98996,-18.327341,-17.200754,89.363785,-23.220388,-1.073584,-2.607834,-2.0380387,29.793802,-66.2166,49.092182,-29.119417,-2.2415833,32.251026,-21.925392,44.959152,-42.46955,-1.2209579,49.458412,-11.820559,-16.68127,-13.636769,-22.9994
79,-25.164520263671875,10.456360816955566,67.78746032714844,-6.100732098507933,26.717149037643154,32.22644235411275,-51.858177,33.448753,50.137085,66.5002,-35.107044,9.033972,-64.20264,-19.331453,-18.260624,90.44705,-23.906406,-2.15368,-2.6898901,-2.2062893,29.793802,-66.29225,49.276886,-29.186155,-2.3208628,32.23955,-21.942007,44.930397,-42.32601,-1.0224781,49.689835,-11.861,-16.607227,-13.610913,-23.022867
80,-25.430065155029297,10.626072883605957,67.72655487060547,-5.926254678138788,26.761695196113127,31.33458260930344,-51.384922,33.53809,51.19584,66.617065,-35.38259,9.196848,-63.417736,-20.185053,-19.26707,91.27701,-24.476984,-3.1023088,-2.7502923,-2.379455,29.793802,-66.39988,49.481014,-29.26798,-2.3824863,32.174973,-21.962677,44.906925,-42.216637,-0.83985174,49.92041,-11.908152,-16.504269,-13.5906,-23.049416
81,-25.686614990234375,10.790124893188477,67.66368103027344,-5.760590753221174,26.803432939705562,30.40018930139554,-50.892986,33.666386,52.288486,66.75855,-35.666157,9.344054,-62.66574,-20.85467,-20.190582,91.85199,-24.921883,-3.9025607,-2.7860415,-2.5712166,29.793802,-66.49106,49.698723,-29.346134,-2.4440796,32.102226,-21.9817,44.89452,-42.146076,-0.6716986,50.163967,-11.974055,-16.347122,-13.578776,-23.080992
82,-25.93535804748535,10.947181701660156,67.59600830078125,-5.5949719824796516,26.845443991456328,29.43700212193006,-50.385742,33.815594,53.4081,66.918335,-35.953423,9.477929,-61.93281,-21.40794,-21.068993,92.19657,-25.26111,-4.606432,-2.806205,-2.7806883,29.793802,-66.58265,49.929607,-29.424389,-2.4976585,32.01506,-22.000973,44.888203,-42.111275,-0.5184896,50.417088,-12.053334,-16.149187,-13.572401,-23.12079
83,-26.176973342895508,11.100907325744629,67.53260803222656,-5.426180564291673,26.89110886765678,28.47126159037112,-49.884026,33.96641,54.518227,67.087715,-36.228397,9.591153,-61.198204,-21.867086,-21.943962,92.304825,-25.47989,-5.2088366,-2.8234057,-2.9957168,29.793802,-66.68428,50.17184,-29.50293,-2.55545,31.883663,-22.026693,44.881325,-42.104694,-0.37924004,50.663734,-12.137624,-15.9523325,-13.568001,-23.161732
84,-26.41863250732422,11.24920654296875,67.46635437011719,-5.252053145774129,26.9443048319541,27.529236065977567,-49.417877,34.09806,55.570415,67.258934,-36.47377,9.678643,-60.437546,-22.253387,-22.859097,92.16862,-25.562792,-5.704635,-2.854758,-3.208661,29.793802,-66.77942,50.41819,-29.568813,-2.640054,31.697916,-22.064137,44.867188,-42.11866,-0.25068244,50.889374,-12.219244,-15.798193,-13.562205,-23.19711
85,-26.653385162353516,11.394372940063477,67.39781188964844,-5.078650115595077,27.003098156369184,26.60699385853031,-48.98869,34.21922,56.557568,67.43741,-36.685352,9.730349,-59.676426,-22.522364,-23.78685,91.787346,-25.242573,-6.0839634,-2.894894,-3.41148,29.793802,-66.8771,50.663414,-29.624813,-2.7348897,31.444817,-22.126259,44.850094,-42.15447,-0.13071658,51.08995,-12.295806,-15.696684,-13.55376,-23.222374
86,-26.88431739807129,11.532733917236328,67.32787322998047,-4.90403807221706,27.06620267951059,25.694202385841134,-48.58481,34.33815,57.500942,67.6259,-36.871708,9.753208,-58.922714,-22.679316,-24.718178,91.16537,-24.61069,-6.3545246,-2.935741,-3.6085954,29.793802,-66.98578,50.905617,-29.678682,-2.8319094,31.135658,-22.206568,44.831078,-42.217552,-0.018942071,51.270397,-12.365305,-15.626601,-13.54447,-23.241594
87,-27.107011795043945,11.664752960205078,67.26416015625,-4.720212521163353,27.137754684344674,24.806016238356523,-48.210487,34.437183,58.402084,67.81136,-37.035713,9.765501,-58.121964,-22.810968,-25.723583,90.30207,-24.192476,-6.5304337,-2.988698,-3.8072417,29.793802,-67.1043,51.14441,-29.730843,-2.9517524,30.78535,-22.282166,44.79882,-42.30457,0.08446346,51.429787,-12.42744,-15.584264,-13.535977,-23.260395
88,-27.319393157958984,11.784797668457031,67.19635772705078,-4.51477085190446,27.222425564964635,23.9580330782354,-47.8694,34.50092,59.26311,67.98138,-37.180534,9.785262,-57.216816,-22.993612,-26.876453,89.194084,-24.51203,-6.6164355,-3.067027,-4.017076,29.793802,-67.210236,51.376938,-29.770351,-3.1295311,30.4225,-22.329428,44.742058,-42.412952,0.18067001,51.568863,-12.484223,-15.564793,-13.529948,-23.284952
89,-27.522125244140625,11.896403312683105,67.12892150878906,-4.289689362888745,27.325099448390848,23.151479865612764,-47.56548,34.530254,60.08536,68.13435,-37.30444,9.812511,-56.129177,-23.269043,-28.31363,87.74778,-25.877031,-6.591993,-3.1703815,-4.2385926,29.793802,-67.32059,51.60574,-29.80868,-3.3697283,30.018854,-22.34249,44.646492,-42.552357,0.26879,51.685562,-12.531368,-15.577351,-13.53075,-23.31841
90,-27.721405029296875,12.002851486206055,67.05899047851562,-4.052994804405397,27.442570549362358,22.376297791512442,-47.29888,34.5376,60.866135,68.279144,-37.407562,9.838952,-54.90516,-23.554111,-29.97123,85.976524,-27.934362,-6.423567,-3.2894046,-4.4647107,29.793802,-67.442604,51.831753,-29.848738,-3.6536388,29.569677,-22.333323,44.52235,-42.721684,0.34862256,51.77811,-12.5697565,-15.620849,-13.536044,-23.35707
91,-27.912708282470703,12.099466323852539,66.98612976074219,-3.8052910466971404,27.566588445896652,21.631797849776234,-47.0646,34.524174,61.597298,68.41463,-37.493813,9.870772,-53.67549,-23.754665,-31.618256,84.03723,-30.216473,-6.1067142,-3.4236941,-4.690509,29.793802,-67.55474,52.05017,-29.873177,-3.9783344,29.126972,-22.305712,44.394543,-42.901657,0.42143494,51.848637,-12.603418,-15.677919,-13.537472,-23.396326
92,-28.100881576538086,12.195545196533203,66.91329956054688,-3.542429428108708,27.688497702951306,20.920066075186533,-46.859188,34.48444,62.272243,68.538605,-37.56768,9.913743,-52.57692,-23.810492,-33.011116,82.102875,-32.273678,-5.671049,-3.5698607,-4.906797,29.793802,-67.665436,52.257988,-29.878613,-4.3217487,28.722225,-22.265991,44.287086,-43.074173,0.48854002,51.89471,-12.630036,-15.731952,-13.526526,-23.431257
93,-28.282379150390625,12.282381057739258,66.84136199951172,-3.2363514565604734,27.811830088491362,20.266755199132717,-46.65759,34.382137,62.943825,68.6256,-37.641155,9.989002,-51.581104,-23.758558,-34.177902,80.14152,-34.118572,-5.119885,-3.7523282,-5.128439,29.793802,-67.74903,52.449047,-29.847895,-4.704419,28.374846,-22.202805,44.20332,-43.236824,0.5522704,51.9175,-12.649601,-15.784412,-13.503528,-23.457918
94,-28.457021713256836,12.359561920166016,66.76505279541016,-2.895393558379285,27.938786352202438,19.664545650936162,-46.471622,34.227806,63.595245,68.681915,-37.707222,10.086564,-50.63704,-23.638695,-35.22051,78.08524,-35.94498,-4.452218,-3.9611385,-5.3494062,29.793802,-67.8328,52.624557,-29.798498,-5.1153035,28.050083,-22.118975,44.13075,-43.400555,0.61270285,51.913696,-12.65547,-15.843407,-13.47194,-23.479507
95,-28.628957748413086,12.425277709960938,66.69415283203125,-2.5740188813035156,28.058124999508212,19.064275967147946,-46.341393,34.096794,64.12296,68.75778,-37.745335,10.16616,-49.85242,-23.417109,-35.988045,76.06776,-37.599247,-3.7211812,-4.1578608,-5.548566,29.793802,-67.91358,52.7826,-29.737232,-5.5332212,27.76461,-22.037333,44.07203,-43.56237,0.66941774,51.886604,-12.651806,-15.898873,-13.429163,-23.502089
96,-28.79973030090332,12.4783935546875,66.63066101074219,-2.326296088035666,28.158638187383307,18.417227649057594,-46.31204,34.062016,64.42227,68.90194,-37.73277,10.18907,-49.33763,-23.062998,-36.320312,74.23169,-38.928333,-2.9864583,-4.30142,-5.7020717,29.793802,-67.998146,52.920822,-29.6757,-5.931047,27.527391,-21.981318,44.02862,-43.72029,0.72189826,51.83697,-12.639766,-15.940452,-13.372338,-23.531862
97,-28.964221954345703,12.526299476623535,66.57127380371094,-2.1749916143891306,28.234187801890876,17.711013256736063,-46.415306,34.16904,64.43644,69.151886,-37.65289,10.141496,-49.112553,-22.485794,-36.06538,72.487366,-39.94688,-2.1989632,-4.3753667,-5.799581,29.793802,-68.07031,53.03123,-29.605816,-6.318564,27.376444,-21.958174,44.00946,-43.862278,0.77081335,51.760426,-12.629414,-15.945208,-13.303151,-23.571325
98,-29.125139236450195,12.57357406616211,66.5180892944336,-2.0865280517471407,28.28982136337051,16.97292169019703,-46.62354,34.369194,64.22974,69.472404,-37.52031,10.046181,-49.10704,-21.742933,-35.340977,70.81277,-40.731434,-1.3692878,-4.400034,-5.852883,29.793802,-68.13789,53.103424,-29.530441,-6.696817,27.301134,-21.95557,44.0103,-43.991447,0.8120725,51.65654,-12.617261,-15.925314,-13.222124,-23.61693
99,-29.288497924804688,12.614429473876953,66.4708023071289,-2.032847236037022,28.33122638071599,16.212197769574715,-46.88862,34.604515,63.880352,69.80927,-37.360523,9.918811,-49.30183,-21.010405,-34.386467,69.44647,-41.237522,-0.6444019,-4.3802443,-5.854982,29.793802,-68.31163,53.1414,-29.504335,-6.98858,27.186522,-21.972445,44.01134,-44.121197,0.83065116,51.52563,-12.577691,-15.929221,-13.123222,-23.669312
100,-29.44268226623535,12.649721145629883,66.42819213867188,-1.9784659752707787,28.366831344497562,15.437698914447298,-47.158783,34.8085,63.475983,70.10279,-37.19769,9.77499,-49.70435,-20.463726,-33.42581,68.632034,-41.416157,-0.16258334,-4.371208,-5.8715234,29.793802,-68.45935,53.17877,-29.480854,-7.261958,27.062849,-21.990143,44.0062,-44.272663,0.84803736,51.385056,-12.519808,-15.987322,-13.006892,-23.717333
101,-29.585111618041992,12.702472686767578,66.38265228271484,-1.911792353113201,28.395579896656493,14.641742980948612,-47.45253,34.960434,62.97475,70.34378,-37.01903,9.606655,-50.434116,-20.197912,-32.467384,68.640076,-41.134563,-0.045214187,-4.3992004,-5.943336,29.793802,-68.40477,53.1846,-29.373035,-7.6011004,27.050137,-22.015587,43.996742,-44.445328,0.86176074,51.27705,-12.469098,-16.111773,-12.843762,-23.771875
102,-29.742568969726562,12.767945289611816,66.35533142089844,-1.856915279439439,28.41360531904782,13.821837907845781,-47.789757,35.10198,62.346798,70.565704,-36.81943,9.408133,-51.45793,-20.083687,-31.4074,69.27474,-40.459644,-0.18610364,-4.4043174,-5.9782267,29.793802,-68.447655,53.185326,-29.288038,-7.8555374,26.944363,-22.070667,43.96807,-44.64667,0.8666332,51.158123,-12.3595915,-16.294464,-12.641875,-23.83121
103,-29.91143226623535,12.844707489013672,66.34642028808594,-1.8172904448704654,28.428389004028443,12.995399238587986,-48.113873,35.240475,61.714375,70.75947,-36.629745,9.199158,-52.571884,-19.976454,-30.283186,70.08408,-39.634098,-0.37817177,-4.4163485,-6.002849,29.793802,-68.474144,53.1814,-29.210566,-8.088341,26.838903,-22.10934,43.937126,-44.852695,0.8661395,51.027557,-12.243756,-16.512875,-12.457134,-23.891277
104,-30.082012176513672,12.93021297454834,66.34474182128906,-1.800987495676209,28.446898967682856,12.179322568613104,-48.368504,35.394276,61.196632,70.92156,-36.48243,8.999896,-53.564156,-19.73302,-29.135584,70.61903,-38.906254,-0.41371992,-4.4397373,-5.9922156,29.793802,-68.45109,53.16992,-29.12359,-8.324109,26.742226,-22.102652,43.89933,-45.059116,0.8622526,50.856983,-12.119171,-16.747747,-12.346431,-23.938848
105,-30.237680435180664,13.023738861083984,66.34952545166016,-1.8156273144280526,28.480583314828273,11.358112682501444,-48.537426,35.576828,60.84157,71.04496,-36.377956,8.813848,-54.430504,-19.30009,-27.906021,70.79781,-38.27603,-0.21866977,-4.464085,-5.940029,29.793802,-68.40557,53.14523,-29.04136,-8.545421,26.661617,-22.02531,43.87366,-45.27981,0.8503981,50.653893,-11.98345,-16.997686,-12.336354,-23.975655
106,-30.365833282470703,13.111528396606445,66.35357666015625,-1.8550962792831065,28.521283512973515,10.528841872608217,-48.649605,35.776676,60.581425,71.13352,-36.301716,8.630691,-55.257053,-18.756754,-26.59769,70.8487,-37.638203,0.094535716,-4.495793,-5.8692675,29.793802,-68.35579,53.120617,-28.981068,-8.738274,26.588606,-21.895662,43.860462,-45.508415,0.83380836,50.436817,-11.846889,-17.274485,-12.390966,-24.01363
107,-30.473554611206055,13.18497371673584,66.3602523803711,-1.9085663549704541,28.54654614185354,9.727495901891894,-48.71633,35.977238,60.361317,71.201385,-36.2646,8.450296,-55.9654,-18.167652,-25.343157,70.788475,-37.084274,0.44636288,-4.555104,-5.7841287,29.793802,-68.197174,53.061485,-28.899986,-8.953729,26.567446,-21.751865,43.824234,-45.70357,0.8097092,50.191135,-11.727577,-17.578627,-12.474481,-24.052763
108,-30.56621551513672,13.24590015411377,66.36661529541016,-1.9666183873233092,28.531082641186604,8.990936015625078,-48.7517,36.160934,60.121048,71.26453,-36.277477,8.272538,-56.48148,-17.604023,-24.273413,70.63626,-36.704586,0.75362104,-4.6434526,-5.660707,29.793802,-68.147766,52.99001,-28.908176,-9.053387,26.43562,-21.640766,43.726906,-45.825848,0.7842941,49.91282,-11.610546,-17.934576,-12.542687,-24.11271
109,-30.651247024536133,13.310443878173828,66.36779022216797,-2.041119421733488,28.464380783152993,8.337120668877525,-48.761005,36.332882,59.82683,71.315346,-36.36008,8.089132,-56.73361,-17.05993,-23.443895,70.30952,-36.57851,1.000501,-4.7937894,-5.529546,29.793802,-67.96669,52.862976,-28.931324,-9.159686,26.351143,-21.552677,43.554493,-45.85523,0.7708468,49.60627,-11.5340395,-18.36344,-12.601425,-24.211
110,-30.73127555847168,13.369904518127441,66.36109161376953,-2.1312918010078175,28.35945154325002,7.745008780658602,-48.735268,36.499,59.515957,71.35062,-36.50197,7.9034524,-56.782845,-16.518103,-22.773417,69.82939,-36.639202,1.2204072,-4.985979,-5.3741326,29.793802,-67.72464,52.68644,-28.9785,-9.2371855,26.27759,-21.476078,43.322327,-45.82592,0.7752859,49.269634,-11.458826,-18.855831,-12.666582,-24.334808
111,-30.800819396972656,13.42176342010498,66.34791564941406,-2.198978488752414,28.229981607074482,7.193182299195212,-48.658592,36.636547,59.249123,71.385605,-36.666588,7.7319036,-56.76924,-16.036535,-22.178211,69.37075,-36.756397,1.4058119,-5.2093916,-5.221224,29.793802,-67.481705,52.46555,-29.051067,-9.260169,26.217693,-21.416231,43.072105,-45.75231,0.7963092,48.908268,-11.3792515,-19.351488,-12.718385,-24.447462
112,-30.85394287109375,13.473127365112305,66.32392120361328,-2.2049940990272967,28.091020762301984,6.659625958624467,-48.514435,36.72483,59.088387,71.436455,-36.81729,7.590341,-56.832478,-15.668341,-21.575697,69.107376,-36.799866,1.5551989,-5.464351,-5.108562,29.793802,-67.22592,52.205185,-29.11566,-9.244913,26.215113,-21.375336,42.84721,-45.64854,0.83303124,48.538963,-11.302592,-19.786299,-12.738265,-24.513063
113,-30.908340454101562,13.540040016174316,66.29564666748047,-2.117450422262626,27.94357574300053,6.1720755782523895,-48.219307,36.739227,59.19334,71.47948,-36.97837,7.5086246,-57.008316,-15.474891,-20.981415,69.12461,-36.743183,1.6562955,-5.7741675,-5.0509467,29.793802,-66.99525,51.917225,-29.189228,-9.169553,26.271158,-21.364273,42.667767,-45.495136,0.888035,48.15484,-11.238324,-20.170185,-12.708436,-24.509228
114,-30.961898803710938,13.614871978759766,66.26956176757812,-1.9628835777131877,27.78222090870549,5.730625943665167,-47.807102,36.695847,59.48403,71.513794,-37.15711,7.4688344,-57.22865,-15.410487,-20.424313,69.31579,-36.652344,1.717344,-6.143119,-5.0408773,29.793802,-66.711266,51.598434,-29.250345,-9.073911,26.406155,-21.375204,42.50981,-45.29303,0.96672785,47.759903,-11.189619,-20.524996,-12.644416,-24.45929
115,-31.014867782592773,13.701948165893555,66.2508316040039,-1.7958171214661007,27.611222985144863,5.271380045352158,-47.442955,36.642498,59.657158,71.595146,-37.292286,7.416146,-57.4708,-15.362164,-19.849583,69.566246,-36.530083,1.7690215,-6.5131373,-5.037563,29.793802,-66.42586,51.25739,-29.30085,-8.944236,26.528294,-21.395744,42.340443,-45.092033,1.0613607,47.364388,-11.121238,-20.815273,-12.575929,-24.394981
116,-31.063533782958984,13.801990509033203,66.2424545288086,-1.6697498384625762,27.435320442025848,4.73061775796173,-47.2905,36.628445,59.412792,71.7762,-37.321293,7.297086,-57.710854,-15.216887,-19.203094,69.762054,-36.381783,1.8415898,-6.829564,-5.0062532,29.793802,-66.16391,50.90532,-29.331945,-8.781658,26.56128,-21.411686,42.12921,-44.932415,1.1553674,46.982506,-11.017862,-21.00327,-12.532428,-24.349455
117,-31.10993194580078,13.915647506713867,66.23645782470703,-1.5933816613083036,27.271842546461116,4.099853863519828,-47.412724,36.6625,58.680687,72.065605,-37.217712,7.102076,-57.9698,-14.951517,-18.46139,69.88608,-36.18929,1.9433787,-7.0990567,-4.948448,29.793802,-65.84426,50.53776,-29.29552,-8.63988,26.56419,-21.416187,41.871822,-44.819263,1.2370521,46.625465,-10.903871,-21.045856,-12.524755,-24.327879
118,-31.153779983520508,14.045384407043457,66.22444152832031,-1.5406974767651682,27.113712732810093,3.410332289371945,-47.719894,36.712456,57.615826,72.43469,-37.017868,6.857365,-58.24985,-14.621822,-17.658323,69.994514,-35.95517,2.0580275,-7.3399854,-4.8717494,29.793802,-65.503746,50.15801,-29.21594,-8.492145,26.530731,-21.419462,41.581707,-44.725876,1.3002775,46.285343,-10.790434,-20.97304,-12.535289,-24.315538
119,-31.17818260192871,14.17427921295166,66.21070861816406,-1.5068671970634253,26.928216598303578,2.658979295765049,-48.13953,36.766846,56.263626,72.884415,-36.756123,6.5619597,-58.4993,-14.239269,-16.82223,70.08722,-35.720833,2.1793623,-7.545856,-4.7908564,29.793802,-65.10661,49.763214,-29.095968,-8.361255,26.44656,-21.419422,41.26477,-44.633183,1.3439856,45.967434,-10.675755,-20.847725,-12.550713,-24.317513
120,-31.19002914428711,14.314606666564941,66.19841766357422,-1.4859207849499987,26.682233701235738,1.8432818696434063,-48.599564,36.812454,54.66959,73.41451,-36.466347,6.214419,-58.666805,-13.817327,-15.980212,70.164665,-35.52503,2.3013911,-7.710192,-4.7185254,29.793802,-64.62696,49.349945,-28.940754,-8.259214,26.291555,-21.415146,40.92535,-44.521362,1.3688126,45.678143,-10.553398,-20.735378,-12.55783,-24.338362
121,-31.190494537353516,14.460748672485352,66.18389129638672,-1.4885126146493806,26.35470498934315,0.9540250794529521,-49.16843,36.839268,52.653214,74.046295,-36.13846,5.7723017,-58.718533,-13.344795,-15.15421,70.221985,-35.391716,2.4138055,-7.820836,-4.6533637,29.793802,-64.0249,48.909153,-28.74709,-8.2043705,26.020252,-21.401655,40.54589,-44.37196,1.3782502,45.42007,-10.430683,-20.638487,-12.554697,-24.394981
122,-31.17833709716797,14.621838569641113,66.16645812988281,-1.5094176967666026,25.966685426516463,-0.0018845246868147909,-49.849903,36.828564,50.259174,74.76755,-35.76315,5.2411594,-58.68725,-12.8234415,-14.323829,70.26231,-35.29434,2.5231903,-7.882804,-4.5868716,29.793802,-63.339222,48.438515,-28.52007,-8.174544,25.653805,-21.380426,40.129738,-44.200005,1.3714598,45.187023,-10.303823,-20.528852,-12.547779,-24.47906
123,-31.158355712890625,14.795494079589844,66.14908599853516,-1.518800551299967,25.548940306351938,-1.0039118140959564,-50.480762,36.77608,47.866085,75.53506,-35.37443,4.696339,-58.62298,-12.285246,-13.452027,70.29595,-35.20403,2.6488895,-7.919639,-4.5296793,29.793802,-62.603966,47.940506,-28.254616,-8.162893,25.30798,-21.357372,39.71497,-44.04015,1.3447636,44.977894,-10.154259,-20.421059,-12.537073,-24.558842
124,-31.125825881958008,14.986249923706055,66.13815307617188,-1.4896104455889094,25.13331069365063,-2.033502203352805,-50.901993,36.71014,45.847538,76.30495,-35.004826,4.2220435,-58.574306,-11.758693,-12.503419,70.33148,-35.088886,2.810096,-7.9547606,-4.4906607,29.793802,-61.86945,47.42481,-27.95039,-8.149404,25.083233,-21.341457,39.33878,-43.924854,1.2918862,44.792812,-9.970109,-20.329784,-12.522186,-24.60275
125,-31.07966423034668,15.193687438964844,66.13557434082031,-1.4018916392081608,24.720617221171686,-3.0793592665159,-51.049206,36.639603,44.303284,77.04005,-34.669155,3.7933352,-58.546364,-11.261283,-11.459557,70.38169,-34.94945,3.0131655,-8.006033,-4.4819646,29.793802,-61.122505,46.896416,-27.591671,-8.14491,25.017612,-21.33622,39.017025,-43.856728,1.2090011,44.63736,-9.742691,-20.258749,-12.50044,-24.604437
126,-31.018375396728516,15.410360336303711,66.14266967773438,-1.2740338195125591,24.297956230452762,-4.154751655437219,-51.01885,36.57497,43.027557,77.77582,-34.346928,3.3880234,-58.513027,-10.772645,-10.342639,70.43835,-34.80067,3.2479954,-8.061957,-4.49903,29.793802,-60.321953,46.35355,-27.172747,-8.174846,25.06233,-21.33716,38.728695,-43.81508,1.0958357,44.516136,-9.49266,-20.198652,-12.47248,-24.581142
127,-30.950992584228516,15.64532470703125,66.15544891357422,-1.138262764990102,23.877154914484606,-5.279658310865741,-50.90362,36.56316,41.927406,78.5818,-34.00765,3.0990362,-58.474728,-10.26051,-9.180391,70.477005,-34.63258,3.5086937,-8.092882,-4.5188704,29.793802,-59.52138,45.80268,-26.728283,-8.2114105,25.157827,-21.342838,38.45467,-43.8083,0.95181763,44.420853,-9.229425,-20.14421,-12.443427,-24.536263
128,-30.868804931640625,15.917386054992676,66.1777114868164,-1.0261229426549563,23.468195838327055,-6.473683057402103,-50.796257,36.64487,40.91209,79.52744,-33.622253,3.0179179,-58.4325,-9.693901,-7.9992714,70.47467,-34.434563,3.7893405,-8.07383,-4.525291,29.793802,-58.744297,45.25066,-26.282585,-8.244191,25.263405,-21.349176,38.178032,-43.838684,0.7768572,44.346382,-8.974891,-20.08968,-12.418152,-24.473076
129,-30.76833724975586,16.17798614501953,66.20852661132812,-0.9325899848800793,23.072590791725506,-7.766719045982086,-50.601437,36.887394,40.153076,80.62014,-33.18973,3.1678715,-58.393517,-9.053506,-6.7734475,70.42111,-34.191193,4.0931005,-7.9852495,-4.533999,29.793802,-57.959785,44.697033,-25.811466,-8.291394,25.415176,-21.353767,37.901047,-43.908882,0.5732596,44.299763,-8.722289,-20.029984,-12.399277,-24.38411
130,-30.662134170532227,16.449960708618164,66.24267578125,-0.845162967002349,22.68504645534764,-9.141380159053357,-50.310223,37.263763,39.631058,81.82815,-32.723927,3.509631,-58.349606,-8.357547,-5.49993,70.33084,-33.9167,4.4216876,-7.843828,-4.545867,29.793802,-57.181343,44.144592,-25.31662,-8.343799,25.606966,-21.360035,37.6303,-44.01892,0.3421372,44.28064,-8.4628525,-19.969324,-12.383543,-24.270245
131,-30.542560577392578,16.745018005371094,66.27193450927734,-0.783796520623607,22.303959322459665,-10.545451620058694,-50.13744,37.662132,38.978046,83.145325,-32.22218,4.035669,-58.279892,-7.6334624,-4.2382174,70.21465,-33.632816,4.7670517,-7.6878104,-4.5349474,29.793802,-56.41824,43.596962,-24.833515,-8.4046755,25.785646,-21.368488,37.35849,-44.1625,0.082991876,44.28028,-8.221918,-19.912962,-12.368435,-24.148138
132,-30.41330909729004,17.039512634277344,66.29808807373047,-0.7689788476637678,21.928087538019057,-11.92562567350563,-50.307587,37.9624,37.82307,84.566246,-31.67422,4.7287903,-58.169003,-6.9105015,-3.0478063,70.08517,-33.3676,5.1203814,-7.550066,-4.471531,29.793802,-55.69998,43.05886,-24.408789,-8.464418,25.888494,-21.37878,37.0786,-44.343437,-0.20432569,44.282063,-8.017074,-19.863327,-12.3516035,-24.03487
133,-30.266206741333008,17.34081268310547,66.31878662109375,-0.815849355607204,21.550517929613125,-13.26299327154709,-50.870384,38.180817,36.118717,86.14936,-31.048796,5.708867,-57.999916,-6.1960974,-1.9584587,69.93252,-33.123848,5.480123,-7.4442835,-4.336966,29.793802,-55.024204,42.53098,-24.054876,-8.521545,25.86706,-21.394646,36.7764,-44.56032,-0.52258986,44.28599,-7.849655,-19.824507,-12.332672,-23.930721
134,-30.10015106201172,17.651744842529297,66.33822631835938,-0.9104844547831061,21.171685702485856,-14.586985075976022,-51.713886,38.34551,34.05378,87.87186,-30.350266,6.9398828,-57.78766,-5.4769626,-0.9324039,69.754524,-32.889725,5.8496084,-7.348046,-4.149448,29.793802,-54.388565,42.013435,-23.75299,-8.574961,25.759834,-21.413603,36.460495,-44.815544,-0.8730519,44.297096,-7.7091656,-19.792048,-12.312861,-23.828125
135,-29.92740821838379,17.96674919128418,66.34939575195312,-1.0267543486028226,20.799314555791042,-15.914482956494892,-52.806587,38.32568,31.622917,89.60493,-29.609524,8.153763,-57.565834,-4.7532573,0.07270544,69.573586,-32.666943,6.228092,-7.248871,-3.9391778,29.793802,-53.821117,41.515423,-23.496143,-8.606136,25.633488,-21.426907,36.15712,-45.09589,-1.2557467,44.31275,-7.6128182,-19.764986,-12.2915,-23.730783
136,-29.747146606445312,18.28832244873047,66.3427505493164,-1.1376552002634297,20.444300496371582,-17.261575043885976,-54.099545,37.971928,28.83356,91.224556,-28.856918,9.06995,-57.367924,-4.02624,1.0992587,69.41206,-32.456253,6.6159816,-7.1373754,-3.7429545,29.793802,-53.31356,41.045155,-23.267534,-8.627799,25.576344,-21.42395,35.895046,-45.406624,-1.6644574,44.328564,-7.5658026,-19.733816,-12.268635,-23.643358
137,-29.54918670654297,18.614370346069336,66.3314437866211,-1.2282054604780779,20.10818520818362,-18.623917103075893,-55.5627,37.23894,25.703474,92.780014,-28.069761,9.758456,-57.204273,-3.3088598,2.1597054,69.28696,-32.26591,7.012991,-7.0320206,-3.5816536,29.793802,-52.832832,40.61051,-23.046156,-8.66727,25.631718,-21.395084,35.671417,-45.743313,-2.0969422,44.363964,-7.5901275,-19.705605,-12.243991,-23.55821
138,-29.339527130126953,18.949134826660156,66.30860900878906,-1.3132888604200623,19.787313216264298,-19.99264837168703,-57.15509,36.139477,22.294315,94.31901,-27.233295,10.28898,-57.05787,-2.600303,3.231814,69.18372,-32.093678,7.42027,-6.929054,-3.4275594,29.793802,-52.457832,40.231285,-22.861235,-8.666469,25.6934,-21.351976,35.471973,-46.124252,-2.5526333,44.40779,-7.654292,-19.67879,-12.217448,-23.476278
139,-29.11216926574707,19.295734405517578,66.28179931640625,-1.4005783696763292,19.4830009730903,-21.374582145098596,-58.76474,34.596394,18.707571,95.72323,-26.412048,10.371147,-56.921616,-1.8886244,4.3147845,69.083565,-31.929981,7.8425493,-6.8425775,-3.302846,29.793802,-52.0195,39.885265,-22.664703,-8.73551,25.842367,-21.299421,35.317814,-46.53178,-3.017757,44.460052,-7.767324,-19.639763,-12.191069,-23.412567
140,-28.869056701660156,19.646066665649414,66.24596405029297,-1.503841763582995,19.19238710948197,-22.777593424442422,-60.26949,32.545826,15.033628,96.88346,-25.702414,9.716365,-56.783222,-1.158876,5.4025383,68.965416,-31.763632,8.283453,-6.743842,-3.1725113,29.793802,-51.682583,39.58661,-22.504944,-8.744872,25.944942,-21.261805,35.216145,-46.936924,-3.490413,44.4989,-7.9053655,-19.603268,-12.164095,-23.378174
141,-28.613239288330078,19.995302200317383,66.20474243164062,-1.6246077949612547,18.910674346136737,-24.21325376823739,-61.60522,29.767912,11.166847,97.76313,-25.217587,8.023224,-56.640472,-0.4041229,6.5028315,68.83088,-31.596672,8.747141,-6.641787,-3.0591702,29.793802,-51.34606,39.325134,-22.349552,-8.764197,26.054548,-21.227192,35.162563,-47.337112,-3.963656,44.538494,-8.088367,-19.559935,-12.132668,-23.389612
142,-28.330564498901367,20.361637115478516,66.16416931152344,-1.7530963955571721,18.633934309218112,-25.67837866487551,-62.6599,26.35911,7.221143,98.45779,-25.028658,5.5149536,-56.49373,0.3672098,7.6229677,68.689224,-31.435087,9.231384,-6.5352855,-2.9657118,29.793802,-51.033108,39.10186,-22.205078,-8.777149,26.172953,-21.193096,35.151905,-47.756477,-4.4328537,44.57752,-8.29754,-19.508036,-12.098856,-23.435751
143,-28.036762237548828,20.727405548095703,66.12155151367188,-1.8838492249240857,18.36343023816131,-27.160478856318942,-63.346264,22.780424,3.5272698,99.040085,-25.130754,2.7185044,-56.340466,1.1475631,8.760359,68.53666,-31.274578,9.729963,-6.4256835,-2.8897192,29.793802,-50.749493,38.91523,-22.083149,-8.772163,26.311615,-21.176098,35.207527,-48.18332,-4.8932033,44.601738,-8.513507,-19.458927,-12.073064,-23.488157
144,-27.725400924682617,21.08956527709961,66.07823944091797,-2.015499024589383,18.107140975737405,-28.643280576279405,-63.726078,19.492723,0.3105571,99.5577,-25.393885,0.157054,-56.18362,1.9285364,9.90568,68.36629,-31.108316,10.235977,-6.3076406,-2.8205016,29.793802,-50.512978,38.75964,-22.00546,-8.734516,26.481129,-21.192154,35.35305,-48.659943,-5.336475,44.57583,-8.675065,-19.396822,-12.066337,-23.51975
145,-27.401933670043945,21.44561195373535,66.037841796875,-2.155787790404336,17.86241036273424,-30.13632273195584,-63.901203,16.50333,-2.5253048,100.00717,-25.740898,-2.1159205,-56.023197,2.7217078,11.059848,68.1803,-30.932573,10.747418,-6.189205,-2.7576904,29.793802,-50.32202,38.637745,-21.965677,-8.662242,26.656723,-21.253645,35.57736,-49.072285,-5.768051,44.538403,-8.877788,-19.385933,-12.080438,-23.50387
146,-27.065961837768555,21.805742263793945,65.99658966064453,-2.3114567722372037,17.629010230035323,-31.64735413991737,-63.90917,13.662281,-5.143728,100.35697,-26.221565,-4.3189673,-55.859314,3.5321083,12.220996,67.975555,-30.747574,11.266098,-6.0537353,-2.6965113,29.793802,-50.17992,38.547943,-21.969362,-8.561423,26.839565,-21.348564,35.875008,-49.510784,-6.1844196,44.460323,-9.055906,-19.37112,-12.111477,-23.464233
147,-26.72241973876953,22.164833068847656,65.95587158203125,-2.47318804821871,17.407347978259608,-33.14835905450732,-63.798794,11.15309,-7.475856,100.595566,-26.79082,-6.368799,-55.68592,4.3342233,13.378692,67.74894,-30.56182,11.791384,-5.9219165,-2.6337788,29.793802,-50.08026,38.482033,-22.009407,-8.418576,27.094288,-21.45656,36.27512,-49.95558,-6.584759,44.352367,-9.209512,-19.374994,-12.153639,-23.433147
148,-26.365747451782227,22.528608322143555,65.91238403320312,-2.631507375706301,17.201362835436097,-34.60956162566971,-63.643,9.150955,-9.448467,100.707756,-27.375307,-8.181714,-55.502464,5.0974903,14.518654,67.49704,-30.381838,12.323239,-5.811923,-2.5634065,29.793802,-50.02107,38.427284,-22.080832,-8.221248,27.48532,-21.556734,36.806267,-50.4106,-6.9693,44.214306,-9.321019,-19.40621,-12.201587,-23.444174
149,-26.012710571289062,22.871274948120117,65.87258911132812,-2.7862879359108206,17.011579382750924,-36.03342839033466,-63.50642,7.8195715,-10.952907,100.679886,-27.910046,-9.76974,-55.31013,5.82393,15.644785,67.21624,-30.206715,12.863382,-5.7227244,-2.4863102,29.793802,-50.012478,38.378784,-22.192884,-7.952512,28.093203,-21.651972,37.5249,-50.854614,-7.3393784,44.04276,-9.397841,-19.514593,-12.258854,-23.50743
150,-25.606122970581055,23.257299423217773,65.83950805664062,-2.9427579161130555,16.840267554210364,-37.428844187716,-63.432587,7.012828,-12.092246,100.50734,-28.373224,-11.168155,-55.11485,6.520036,16.758724,66.90887,-30.032377,13.411351,-5.6459146,-2.3993,29.793802,-50.061024,38.334114,-22.349033,-7.618981,28.865723,-21.74367,38.399967,-51.305237,-7.696751,43.832863,-9.433832,-19.674828,-12.326374,-23.604824
151,-25.22941017150879,23.602481842041016,65.8070297241211,-3.097921954381171,16.690879664181463,-38.77585472539254,-63.43563,6.427865,-13.106045,100.19121,-28.776552,-12.346043,-54.918976,7.168098,17.851717,66.58176,-29.865133,13.962393,-5.593775,-2.2916331,29.793802,-50.154114,38.281624,-22.52948,-7.2402906,29.669636,-21.811003,39.327778,-51.764557,-8.045789,43.600174,-9.439442,-19.817131,-12.393228,-23.726309
152,-24.84821319580078,23.942005157470703,65.76568603515625,-3.251516314741432,16.565967223909873,-40.05607621544657,-63.503727,5.770229,-14.232286,99.738785,-29.151793,-13.265585,-54.726917,7.752738,18.91272,66.2447,-29.712034,14.512193,-5.5749006,-2.1480029,29.793802,-50.2819,38.203705,-22.715927,-6.8340383,30.372091,-21.83977,40.202263,-52.234776,-8.393717,43.36003,-9.42342,-19.871931,-12.448932,-23.86187
153,-24.44455337524414,24.29418182373047,65.72411346435547,-3.421432388554722,16.467005782299506,-41.26559066355712,-63.662804,5.0370946,-15.514818,99.17115,-29.54294,-13.786663,-54.541832,8.285252,19.9161,65.89559,-29.567928,15.000033,-5.5892396,-1.9484344,29.793802,-50.447514,38.086327,-22.918179,-6.382996,30.963203,-21.824097,41.017548,-52.718952,-8.748604,43.10025,-9.38314,-19.827732,-12.488148,-24.001547
154,-24.02289581298828,24.645320892333984,65.68891143798828,-3.697682660417724,16.380248229507377,-42.42120004376583,-63.908916,4.387715,-16.960785,98.49537,-29.931124,-14.015339,-54.329063,8.85081,20.734884,65.48607,-29.401846,15.000033,-5.5888157,-1.6089551,29.793802,-50.67463,37.9121,-23.184046,-5.8680935,31.500595,-21.775692,41.824127,-53.18698,-9.121161,42.79179,-9.312205,-19.72235,-12.518382,-24.152357
155,-23.609838485717773,24.97690200805664,65.65101623535156,-3.9672131405787217,16.312971829300356,-43.51680121814479,-64.15497,3.6902652,-18.462114,97.64777,-30.228657,-14.184957,-54.11642,9.353679,21.530092,65.05777,-29.245035,15.000033,-5.5925355,-1.2235892,29.793802,-50.96973,37.67241,-23.474976,-5.308758,31.97123,-21.712076,42.591133,-53.642532,-9.518679,42.4737,-9.225718,-19.553375,-12.545305,-24.33069
156,-23.176950454711914,25.311050415039062,65.6190414428711,-4.189472193441917,16.26612527513027,-44.55442201298685,-64.31239,2.8574557,-20.010506,96.57761,-30.363407,-14.558631,-53.902477,9.772072,22.341446,64.617516,-29.105398,15.000033,-5.5977464,-0.8236348,29.793802,-51.33087,37.363926,-23.764845,-4.7332373,32.35458,-21.653204,43.289265,-54.07819,-9.944283,42.175713,-9.133219,-19.319824,-12.575285,-24.55331
157,-22.72691535949707,25.64704704284668,65.59716796875,-4.355800458376873,16.251127595537884,-45.510496625938465,-64.389145,1.8728068,-21.570124,95.262024,-30.273232,-15.000033,-53.69253,10.083275,23.164452,64.16289,-28.987793,15.000033,-5.623234,-0.40458214,29.793802,-51.758198,36.98035,-24.055689,-4.14749,32.565014,-21.590086,43.892868,-54.504204,-10.402279,41.89622,-9.030111,-18.988724,-12.612764,-24.841
158,-22.25701904296875,25.99553108215332,65.57305145263672,-4.431389400270176,16.264976063973055,-46.37977774924095,-64.41812,0.7947214,-22.987114,93.711075,-29.996809,-15.000033,-53.487026,10.264171,24.033598,63.71319,-28.904615,15.000033,-5.6897244,-0.0009825233,29.793802,-52.24106,36.522354,-24.339481,-3.537228,32.644993,-21.522583,44.421543,-54.92129,-10.892786,41.635963,-8.922132,-18.569286,-12.654619,-25.18086
159,-21.773784637451172,26.340675354003906,65.5648193359375,-4.34843890020582,16.28406914660805,-47.197269988614174,-64.31668,-0.38393748,-24.287905,91.92751,-29.635906,-15.000033,-53.277096,10.304361,25.033758,63.313263,-28.873135,15.000033,-5.797005,0.29335046,29.793802,-52.7553,36.00688,-24.57245,-2.9026296,32.76622,-21.480555,44.916676,-55.319004,-11.402952,41.42934,-8.814648,-18.116917,-12.69726,-25.539602
160,-21.267107009887695,26.687374114990234,65.56382751464844,-4.254095660107524,16.291919338663373,-48.04991587721945,-64.06296,-1.5429207,-25.638617,89.986664,-29.327137,-15.000033,-53.045067,10.343189,26.068893,62.89212,-28.832628,15.000033,-5.827939,0.6005982,29.793802,-53.3113,35.44195,-24.775589,-2.2492833,33.080257,-21.489038,45.42317,-55.669983,-11.925444,41.25292,-8.702647,-17.701828,-12.734775,-25.878822
161,-20.759735107421875,27.02415657043457,65.56006622314453,-4.130147745531358,16.291131563976272,-48.92636883156004,-63.638412,-2.7427979,-27.088463,87.85265,-29.109308,-15.000033,-52.792168,10.363411,27.150715,62.461067,-28.790714,15.000033,-5.7882204,0.90912825,29.793802,-53.920906,34.831944,-24.936163,-1.5633401,33.694992,-21.563492,45.98068,-55.982517,-12.456463,41.11375,-8.570516,-17.304256,-12.764324,-26.219362
162,-20.242443084716797,27.354331970214844,65.55926513671875,-3.975291860409683,16.290232775404174,-49.80822864527745,-63.060738,-3.976269,-28.637196,85.5212,-28.924084,-15.000033,-52.526825,10.35241,28.268452,62.01869,-28.749443,15.000033,-5.6999497,1.2212625,29.793802,-54.57313,34.177567,-25.056732,-0.85664386,34.50333,-21.682295,46.55976,-56.267628,-12.993728,41.00691,-8.418198,-16.902483,-12.789891,-26.570026
163,-19.694528579711914,27.690147399902344,65.56012725830078,-3.836924196156966,16.282988540604173,-50.73227221853975,-62.35793,-5.0833097,-30.216642,83.069534,-28.727264,-15.000033,-52.24599,10.357923,29.396679,61.537575,-28.686943,15.000033,-5.5395427,1.5637372,29.793802,-55.252464,33.482212,-25.154198,-0.1550964,35.340412,-21.816448,47.10043,-56.51374,-13.532414,40.92149,-8.264948,-16.559593,-12.812896,-26.876114
164,-19.143484115600586,28.01578140258789,65.5596694946289,-3.758656926808121,16.26387060752321,-51.73243469016123,-61.573647,-5.9164968,-31.732382,80.5732,-28.466934,-15.000033,-51.94751,10.419087,30.513367,60.994522,-28.585035,15.000033,-5.2889047,1.9576551,29.793802,-55.938026,32.750782,-25.24374,0.51319677,36.04485,-21.940918,47.54101,-56.715557,-14.066048,40.846027,-8.128872,-16.335716,-12.833383,-27.082184
165,-18.582075119018555,28.339757919311523,65.55877685546875,-3.7665570803185187,16.239553252989726,-52.81073001307996,-60.71148,-6.4593134,-33.262783,77.91192,-27.997452,-15.000033,-51.62819,10.548596,31.595367,60.369995,-28.435356,15.000033,-4.93059,2.4354208,29.793802,-56.60842,31.984074,-25.312513,1.1030189,36.615437,-22.068033,47.846466,-56.877636,-14.5954,40.765575,-8.002303,-16.264141,-12.841845,-27.145628
166,-18.004545211791992,28.670480728149414,65.55369567871094,-3.828113845744143,16.212455185249826,-53.94490015466713,-59.77433,-6.781015,-34.791172,75.08546,-27.380062,-15.000033,-51.291866,10.715708,32.662426,59.684834,-28.251337,15.000033,-4.4831843,2.9759505,29.793802,-57.277153,31.184702,-25.353361,1.6339536,37.12299,-22.208147,48.055534,-57.007515,-15.122245,40.687298,-7.8759913,-16.307405,-12.839594,-27.104788
167,-17.4249267578125,28.986295700073242,65.54662322998047,-3.893633174138678,16.167949651974226,-55.13398282410197,-58.80464,-6.8908124,-36.069393,72.346245,-26.873034,-15.000033,-50.939438,10.892624,33.76452,58.972233,-28.049519,15.000033,-3.9878886,3.5104334,29.793802,-57.959187,30.361809,-25.383837,2.1603525,37.52233,-22.333694,48.21473,-57.101257,-15.63549,40.639755,-7.7744966,-16.421114,-12.84372,-27.026123
168,-16.81736946105957,29.303348541259766,65.53468322753906,-3.9151768078462656,16.0849893125225,-56.38013314501339,-57.830395,-6.820778,-36.867073,69.955574,-26.737522,-15.000033,-50.565136,11.057733,34.950066,58.26917,-27.847466,15.000033,-3.471317,3.9766388,29.793802,-58.586853,29.537066,-25.410862,2.6535325,37.777184,-22.414267,48.36762,-57.151554,-16.11826,40.641167,-7.705142,-16.565159,-12.872065,-26.974804
169,-16.19132423400879,29.620542526245117,65.51976013183594,-3.8323258262736752,15.949293356144205,-57.71152432057615,-56.710674,-6.559573,-37.09064,67.78972,-27.154907,-15.000033,-50.14805,11.187265,36.305122,57.60003,-27.675085,15.000033,-2.9501233,4.2936087,29.793802,-59.141273,28.732655,-25.4251,3.1203165,37.8163,-22.436317,48.51869,-57.15851,-16.54229,40.727417,-7.667487,-16.743841,-12.940771,-26.964954
170,-15.543375968933105,29.945144653320312,65.49885559082031,-3.680091639564434,15.77175104326926,-59.11901439828475,-55.46039,-6.156947,-36.888958,65.77715,-27.937548,-15.000033,-49.69094,11.289629,37.785164,56.942513,-27.51669,15.000033,-2.42157,4.4970303,29.793802,-59.615868,27.965141,-25.41664,3.5349607,37.676975,-22.417606,48.644184,-57.13499,-16.890432,40.88579,-7.6390395,-16.976786,-13.038743,-26.962618
171,-14.89211654663086,30.281496047973633,65.46900177001953,-3.548624165197956,15.577620922963014,-60.545623246768486,-54.36095,-5.720167,-36.379852,64.264084,-28.806522,-15.000033,-49.227825,11.390396,39.252937,56.263237,-27.338175,15.000033,-1.9093007,4.680241,29.793802,-60.05811,27.240292,-25.40403,3.9267294,37.477417,-22.375475,48.750027,-57.09642,-17.16299,41.071777,-7.618685,-17.236502,-13.142623,-26.962416
172,-14.243525505065918,30.6131534576416,65.4043960571289,-3.529134440461979,15.393118723968184,-61.9324985754504,-53.721066,-5.303828,-35.64324,63.596695,-29.496078,-15.000033,-48.799137,11.515596,40.567932,55.52843,-27.100422,15.000033,-1.423959,4.948366,29.793802,-60.50774,26.555418,-25.407057,4.301979,37.336487,-22.326025,48.841606,-57.055786,-17.378696,41.2348,-7.609212,-17.4964,-13.228138,-26.958477
173,-13.601279258728027,30.92145347595215,65.3251953125,-3.675014230229004,15.202274294988769,-63.30148368895669,-53.75987,-4.8468637,-34.517834,64.19252,-29.961699,-15.000033,-48.39801,11.724858,41.710537,54.72139,-26.790115,15.000033,-0.93608814,5.35509,29.793802,-60.970375,25.893938,-25.427887,4.677434,37.276974,-22.257961,48.91943,-56.995525,-17.553888,41.3742,-7.6213007,-17.787462,-13.27972,-26.958023
174,-12.98682975769043,31.244792938232422,65.25423431396484,-3.9314056893164504,14.994461788704779,-64.67852397310601,-54.26444,-4.3026576,-33.0282,65.76085,-30.349545,-15.000033,-48.00663,11.994125,42.751217,53.859604,-26.424667,15.000033,-0.42867392,5.8500195,29.793802,-61.428246,25.248283,-25.464859,5.040758,37.239384,-22.167984,48.981586,-56.90324,-17.696608,41.504314,-7.660405,-18.110516,-13.312219,-26.961176
175,-12.395628929138184,31.604957580566406,65.19322967529297,-4.225864774042476,14.808454881687238,-66.00864096584215,-54.91639,-3.7419398,-31.507217,67.58396,-30.680382,-15.000033,-47.656353,12.235967,43.682358,52.961082,-26.008034,15.000033,0.05597465,6.37115,29.793802,-61.913017,24.629148,-25.530172,5.384974,37.2195,-22.084051,49.03167,-56.80581,-17.817717,41.607533,-7.734031,-18.388208,-13.347184,-26.95219
176,-11.82463264465332,31.979963302612305,65.14859008789062,-4.4797835808542965,14.69302946544565,-67.22383668730443,-55.428055,-3.2578068,-30.241344,68.947975,-30.965334,-15.000033,-47.392826,12.34363,44.49187,52.046673,-25.546783,15.000033,0.45219645,6.842608,29.793802,-62.459835,24.059114,-25.630949,5.707123,37.21177,-22.033054,49.073017,-56.733116,-17.92658,41.66908,-7.862011,-18.541706,-13.40597,-26.91606
177,-11.248998641967773,32.3404655456543,65.11859893798828,-4.666471906957398,14.687074499065336,-68.2590958297601,-55.774704,-2.919143,-29.29716,69.670395,-31.18735,-15.000033,-47.237133,12.267071,45.226,51.102104,-25.074062,15.000033,0.70093185,7.2459264,29.793802,-63.08264,23.567482,-25.767439,5.9639106,37.21535,-22.02365,49.09595,-56.715,-18.032753,41.68008,-8.072414,-18.499079,-13.498323,-26.841011
178,-10.676641464233398,32.678897857666016,65.11432647705078,-4.830448062474759,14.759830365683957,-69.16399869718161,-56.107525,-2.6717384,-28.51024,70.13007,-31.342207,-15.000033,-47.171528,12.069445,45.87069,50.121326,-24.572872,15.000033,0.8361591,7.606407,29.793802,-63.750973,23.161509,-25.933678,6.156548,37.224674,-22.03922,49.102314,-56.72374,-18.13572,41.655857,-8.370007,-18.313011,-13.61118,-26.739027
179,-10.123124122619629,32.99532699584961,65.12728881835938,-4.998917669125182,14.85744766920612,-70.0337395371599,-56.414776,-2.4295266,-27.793653,70.458755,-31.458239,-15.000033,-47.183685,11.806972,46.31625,49.13812,-23.977343,15.000033,0.93822336,7.9249997,29.793802,-64.40767,22.832355,-26.127111,6.309408,37.225075,-22.06863,49.110832,-56.7106,-18.228046,41.607998,-8.71361,-18.095957,-13.732023,-26.628956
180,-9.574625015258789,33.282928466796875,65.14801025390625,-5.198634187941909,14.923456144466343,-70.96394919091772,-56.67813,-2.1045136,-27.065798,70.79172,-31.567709,-15.000033,-47.254116,11.540229,46.456272,48.187782,-23.225237,15.000033,1.0967729,8.210686,29.793802,-64.990295,22.562834,-26.347166,6.4387507,37.20403,-22.101265,49.140133,-56.628056,-18.300577,41.54343,-9.052642,-17.963856,-13.848418,-26.529469
181,-9.032127380371094,33.54075241088867,65.19251251220703,-5.44603913675528,14.919190405420474,-71.95522362261522,-56.856575,-1.6807615,-26.331234,71.16547,-31.692482,-15.000033,-47.259453,11.309397,46.426144,47.182396,-22.310505,15.000033,1.3239839,8.486829,29.793802,-65.47631,22.335398,-26.617403,6.549099,37.153263,-22.145557,49.206738,-56.44583,-18.348583,41.45738,-9.3759,-17.922894,-13.971068,-26.443974
182,-8.526497840881348,33.794830322265625,65.25013732910156,-5.723292685868592,14.880601133458493,-72.96511304693117,-56.968464,-1.2011005,-25.626286,71.50998,-31.815357,-15.000033,-47.244404,11.075828,46.22738,46.13439,-21.263891,15.000033,1.5822294,8.748597,29.793802,-65.91147,22.144945,-26.933233,6.6445518,37.087166,-22.204361,49.297077,-56.197613,-18.372936,41.344276,-9.698765,-17.92427,-14.102277,-26.362041
183,-8.016268730163574,34.058799743652344,65.32624816894531,-6.005236075328028,14.863146388846195,-74.02628298866631,-57.081314,-0.6623573,-24.918715,71.800156,-31.910791,-15.000033,-47.435852,10.791508,45.54657,45.23354,-20.073961,15.000033,1.8860687,8.960714,29.793802,-66.33798,21.996159,-27.251253,6.7405,37.0262,-22.258102,49.38445,-55.937405,-18.372658,41.210224,-10.004307,-17.996344,-14.217186,-26.28227
184,-7.513268947601318,34.326358795166016,65.41800689697266,-6.266586277116148,14.924228698639523,-75.1727277918524,-57.26527,-0.06285508,-24.172531,72.00696,-31.948402,-15.000033,-48.05646,10.397202,44.07415,44.67585,-18.735174,15.000033,2.2366443,9.081253,29.793802,-66.77964,21.918728,-27.517124,6.837896,36.98323,-22.288826,49.43857,-55.715897,-18.346079,41.076153,-10.2865305,-18.166994,-14.290265,-26.207531
185,-7.0239176750183105,34.6049690246582,65.51858520507812,-6.5104341264878105,15.082326853044181,-76.41194352467878,-57.54385,0.59410447,-23.3902,72.11656,-31.907923,-15.000033,-49.2245,9.810155,41.57331,44.583553,-17.209574,15.000033,2.6498222,9.09751,29.793802,-67.28573,21.887054,-27.74929,6.985298,36.975986,-22.282974,49.45364,-55.550343,-18.28158,40.91564,-10.525196,-18.512592,-14.307574,-26.147675
186,-6.5571794509887695,34.89717102050781,65.6339340209961,-6.733974622051507,15.301923841764392,-77.71679986645142,-57.870667,1.2907032,-22.573286,72.14013,-31.804293,-15.000033,-50.75413,9.019577,38.309948,44.86482,-15.563345,15.000033,3.088066,9.010958,29.793802,-67.80714,21.92114,-27.954424,7.1561384,36.98802,-22.254684,49.4419,-55.41748,-18.162615,40.748444,-10.72109,-18.995811,-14.286106,-26.100689
187,-6.109886646270752,35.200401306152344,65.75055694580078,-6.911806428719777,15.553882033371684,-79.06881565209781,-58.20482,2.0083237,-21.691143,72.09362,-31.663717,-15.000033,-52.410465,8.088201,34.71775,45.39439,-13.941531,15.000033,3.5244117,8.810047,29.793802,-68.30351,22.032043,-28.124449,7.321178,37.006523,-22.217566,49.41855,-55.29225,-17.992922,40.59808,-10.892975,-19.472887,-14.251723,-26.033646
188,-5.635117530822754,35.514225006103516,65.8659896850586,-6.947993006454296,15.815047089792227,-80.43951830880185,-58.486908,2.681831,-20.61579,71.967155,-31.497473,-14.820731,-54.002563,7.066238,31.26024,46.065266,-12.480625,15.000033,3.8998864,8.408692,29.793802,-68.741844,22.231798,-28.24474,7.479679,37.025105,-22.18416,49.40108,-55.149258,-17.760323,40.500366,-11.057271,-19.798372,-14.2331295,-25.91345
189,-5.153998851776123,35.811729431152344,65.99556732177734,-6.861110788325496,16.112078840795128,-81.86929193763308,-58.735306,3.3380208,-19.31072,71.75726,-31.302895,-14.223993,-55.603546,5.9552226,27.834583,46.845966,-11.067466,15.000033,4.2489176,7.807839,29.793802,-69.133896,22.535938,-28.310457,7.6226,37.0383,-22.154232,49.38776,-55.001022,-17.454075,40.43968,-11.2128725,-19.95612,-14.237187,-25.694658
190,-4.688014030456543,36.08451843261719,66.13749694824219,-6.703834123216416,16.445536301385204,-83.34781893270745,-58.962,4.0089674,-17.890787,71.47023,-31.08256,-13.600288,-57.260193,4.720136,24.271505,47.804672,-9.682952,15.000033,4.574518,7.05192,29.793802,-69.481064,22.947622,-28.337376,7.747421,37.044647,-22.121675,49.372147,-54.85334,-17.069687,40.40584,-11.344235,-20.019163,-14.250447,-25.406109
191,-4.223767280578613,36.344085693359375,66.28520202636719,-6.538048835052995,16.761611091227618,-84.81019605077266,-59.1299,4.67945,-16.468954,71.15835,-30.87511,-12.984604,-58.77501,3.466473,20.801039,48.865498,-8.504063,15.000033,4.8494406,6.239518,29.793802,-69.75345,23.452007,-28.354939,7.838294,37.03782,-22.08987,49.360863,-54.690155,-16.61403,40.41143,-11.430301,-19.984991,-14.26592,-25.12383
192,-3.7822089195251465,36.580467224121094,66.43177795410156,-6.4257763382543915,17.01086010886227,-86.20726242168054,-59.218468,5.3463445,-15.154994,70.87884,-30.717566,-12.413972,-59.98099,2.3313773,17.618565,49.929058,-7.677478,15.000033,5.0663614,5.4729753,29.793802,-69.93497,24.022686,-28.389805,7.882988,37.015976,-22.062126,49.35981,-54.500954,-16.10559,40.46749,-11.459082,-19.85118,-14.275485,-24.922884
193,-3.348249912261963,36.792415618896484,66.57152557373047,-6.3933317538095,17.189213782182037,-87.56685834958411,-59.23205,6.047632,-13.9673395,70.64028,-30.623264,-11.900167,-60.848267,1.3940977,14.649794,50.92781,-7.2252736,15.000033,5.272597,4.7840304,29.793802,-70.04578,24.637579,-28.45662,7.884968,36.97742,-22.037956,49.381477,-54.27234,-15.564887,40.569595,-11.438203,-19.566639,-14.277561,-24.84135
194,-2.947927951812744,36.980430603027344,66.70904541015625,-6.4073178755380455,17.327934251653147,-88.92194058517983,-59.194847,6.787838,-12.846419,70.41959,-30.570341,-11.426836,-61.49775,0.605469,11.7869425,51.89332,-7.037589,15.000033,5.490343,4.128962,29.793802,-70.11445,25.287182,-28.539358,7.8636265,36.92891,-22.01683,49.418743,-54.011158,-15.006164,40.70658,-11.383438,-19.150387,-14.273682,-24.832638
195,-2.557717800140381,37.15237808227539,66.8342056274414,-6.437636353038151,17.432855997384202,-90.2338948841574,-59.122334,7.5162563,-11.782577,70.22394,-30.539738,-10.987438,-62.006668,-0.07390488,9.169136,52.874084,-7.0620213,15.000033,5.67845,3.496569,29.793802,-70.13066,25.963623,-28.61417,7.821885,36.885273,-22.001461,49.447784,-53.738163,-14.440166,40.871536,-11.297458,-18.700468,-14.259596,-24.84571
196,-2.186717987060547,37.31344223022461,66.94065856933594,-6.455031899526702,17.50528659698405,-91.4564212691514,-59.02526,8.177626,-10.772049,70.05836,-30.512611,-10.57464,-62.443012,-0.6931614,6.945774,53.92266,-7.2504597,15.000033,5.7886686,2.8797574,29.793802,-70.088295,26.65956,-28.65941,7.7698436,36.857204,-21.994974,49.44495,-53.46944,-13.874575,41.060368,-11.182528,-18.318277,-14.230799,-24.829676
197,-1.8207027912139893,37.46099853515625,67.03816986083984,-6.443988453600613,17.533738619827172,-92.56930375755343,-58.894703,8.750655,-9.815067,69.922874,-30.483688,-10.191862,-62.815968,-1.2286407,5.194595,55.08463,-7.661521,15.000033,5.8103185,2.2774873,29.793802,-69.97951,27.36736,-28.673262,7.7162204,36.864502,-22.006725,49.403778,-53.193695,-13.314374,41.281918,-11.030266,-17.991217,-14.173911,-24.787834
198,-1.4742615222930908,37.59748077392578,67.1285171508789,-6.42119567644897,17.52168136323672,-93.60018769856487,-58.734173,9.267316,-8.914267,69.81575,-30.461407,-9.840592,-63.110596,-1.6515764,3.8119693,56.314972,-8.293289,15.000033,5.775613,1.7001983,29.793802,-69.8183,28.082193,-28.665735,7.6594405,36.89584,-22.032804,49.336792,-52.90529,-12.76538,41.53052,-10.848364,-17.677877,-14.094613,-24.742353
199,-1.144242525100708,37.726600646972656,67.20789337158203,-6.408519743788575,17.4889326275574,-94.56973981404886,-58.571007,9.750817,-8.07582,69.74216,-30.449842,-9.511287,-63.350323,-2.013172,2.684324,57.542324,-9.010358,15.000033,5.6987305,1.1622204,29.793802,-69.613205,28.80177,-28.630291,7.5791855,36.920357,-22.056067,49.24974,-52.625633,-12.236039,41.78232,-10.658037,-17.436724,-14.016635,-24.66991
200,-0.8158270120620728,37.84977340698242,67.27645874023438,-6.429498681789663,17.454983214939194,-95.49766350722578,-58.429306,10.223929,-7.305634,69.699745,-30.449163,-9.19309,-63.548023,-2.3695114,1.7036418,58.6868,-9.6716,15.000033,5.592662,0.67828536,29.793802,-69.37469,29.524921,-28.56132,7.456616,36.90455,-22.059315,49.147804,-52.38151,-11.736054,42.01201,-10.477254,-17.321274,-13.963577,-24.547173
201,-0.5000094771385193,37.96665954589844,67.33633422851562,-6.493446473188623,17.41400977896163,-96.38192475430216,-58.31156,10.68992,-6.615272,69.69619,-30.463913,-8.884007,-63.69914,-2.7217915,0.8789595,59.753094,-10.273746,15.000033,5.458454,0.264709,29.793802,-69.08768,30.247484,-28.445599,7.283248,36.85417,-22.04208,49.016346,-52.165264,-11.273177,42.218754,-10.313265,-17.384958,-13.939668,-24.350096
202,-0.19736526906490326,38.07383346557617,67.39042663574219,-6.587691254943946,17.357655233498747,-97.21356972586311,-58.20792,11.138271,-6.000618,69.7273,-30.490372,-8.588926,-63.800205,-3.043962,0.2551889,60.773415,-10.877916,15.000033,5.2940493,-0.084935084,29.793802,-68.75365,30.965023,-28.288666,7.0710287,36.78156,-22.012342,48.858364,-51.96235,-10.852066,42.41277,-10.165156,-17.583582,-13.933485,-24.09759
203,0.10359496623277664,38.17131423950195,67.43519592285156,-6.703944106345968,17.301639646735257,-98.00285777991634,-58.12689,11.573706,-5.445861,69.78097,-30.522081,-8.308615,-63.86684,-3.3518717,-0.21701749,61.720695,-11.445639,15.000033,5.107875,-0.3899472,29.793802,-68.402534,31.677443,-28.1131,6.8285418,36.66589,-21.964966,48.70667,-51.781944,-10.476553,42.584286,-10.041994,-17.828293,-13.945365,-23.83184
204,0.39717337489128113,38.26464080810547,67.47639465332031,-6.833783026290297,17.261715423137403,-98.76018305899694,-58.0756,11.999766,-4.9343395,69.84394,-30.551483,-8.044055,-63.91451,-3.6620908,-0.58582234,62.567986,-11.938227,15.000033,4.9069905,-0.67151713,29.793802,-68.06207,32.38762,-27.941898,6.5601864,36.487125,-21.894888,48.59415,-51.63095,-10.1501665,42.727867,-9.955978,-18.033384,-13.974648,-23.594864
205,0.6759973168373108,38.34877395629883,67.5147705078125,-6.983395479416757,17.244828062544364,-99.48173683196977,-58.063934,12.415309,-4.4756107,69.91318,-30.573065,-7.7972426,-63.945007,-3.9840734,-0.8521012,63.311043,-12.337816,15.000033,4.6872125,-0.92304206,29.793802,-67.73238,33.098106,-27.781229,6.2514052,36.216885,-21.790264,48.538036,-51.520527,-9.878498,42.835518,-9.912542,-18.209103,-14.034222,-23.378992
206,0.945621907711029,38.43048095703125,67.54857635498047,-7.155529917547183,17.241429429825896,-100.16446507811922,-58.087315,12.819832,-4.075011,69.99522,-30.59132,-7.5670285,-63.953682,-4.3068867,-0.992297,63.96496,-12.668615,15.000033,4.4470835,-1.1369078,29.793802,-67.400345,33.80779,-27.619066,5.9043136,35.872272,-21.657244,48.51903,-51.439255,-9.664043,42.91394,-9.913143,-18.389374,-14.119775,-23.168451
207,1.204323410987854,38.507904052734375,67.5730209350586,-7.336100765207736,17.24277066175708,-100.81963679859459,-58.131634,13.217898,-3.7090845,70.09214,-30.614822,-7.348992,-63.945545,-4.616459,-1.019961,64.53168,-12.955199,15.000033,4.1988463,-1.33222,29.793802,-67.075294,34.514565,-27.452412,5.5457735,35.502316,-21.51761,48.515194,-51.368355,-9.501325,42.97195,-9.954152,-18.519344,-14.203927,-22.993706
208,1.4447002410888672,38.582698822021484,67.59551239013672,-7.5111469932221455,17.24034353965594,-101.45873800313376,-58.180313,13.614631,-3.353783,70.20445,-30.651178,-7.1389694,-63.9244,-4.8980794,-0.9494851,65.01131,-13.220897,15.000033,3.9541144,-1.5292943,29.793802,-66.771545,35.216507,-27.280237,5.2056155,35.15431,-21.393024,48.503693,-51.292927,-9.378731,43.01502,-10.026105,-18.543962,-14.258901,-22.88463
209,1.669159173965454,38.65666580200195,67.61032104492188,-7.68204411443977,17.235318789151933,-102.08731742953528,-58.235134,14.015455,-3.0069993,70.33303,-30.702293,-6.935703,-63.898064,-5.1384826,-0.7529396,65.408745,-13.465395,15.000033,3.7168705,-1.732848,29.793802,-66.49612,35.917206,-27.106228,4.8871593,34.8288,-21.286005,48.484673,-51.225567,-9.288081,43.04677,-10.117181,-18.425026,-14.283368,-22.860868
210,1.889241099357605,38.7199821472168,67.60804748535156,-7.853363272406275,17.23111548670021,-102.69892647887882,-58.301617,14.416502,-2.6790104,70.47603,-30.763378,-6.7413898,-63.86374,-5.347368,-0.43342766,65.72202,-13.678529,15.000033,3.4771388,-1.9359491,29.793802,-66.24406,36.620075,-26.931229,4.580819,34.50283,-21.18617,48.46791,-51.17007,-9.225824,43.06447,-10.228887,-18.203827,-14.290311,-22.901995
211,2.095125436782837,38.781280517578125,67.60272979736328,-8.017218901792562,17.222265319803522,-103.28641137137856,-58.373123,14.808153,-2.365457,70.634674,-30.83473,-6.5570607,-63.811974,-5.5454197,-0.05281606,65.94789,-13.871046,15.000033,3.22732,-2.1422162,29.793802,-66.001175,37.32003,-26.7475,4.288863,34.19824,-21.095009,48.444164,-51.11953,-9.185858,43.065643,-10.3576565,-17.936695,-14.274512,-22.976582
212,2.286673069000244,38.84293746948242,67.58967590332031,-8.165730208669812,17.203599014612045,-103.84267176411,-58.441235,15.180976,-2.062289,70.80738,-30.915644,-6.3838186,-63.73211,-5.753189,0.3264298,66.08159,-14.052673,15.000033,2.9611642,-2.3529575,29.793802,-65.76128,38.00659,-26.550102,4.023161,33.936317,-21.014364,48.40439,-51.060722,-9.1610155,43.047626,-10.497455,-17.684978,-14.230294,-23.053131
213,2.4708621501922607,38.903926849365234,67.56573486328125,-8.294040538981257,17.16861009677802,-104.3575984366958,-58.498608,15.526774,-1.7691303,70.99432,-31.007442,-6.2211556,-63.611584,-5.9885287,0.69925267,66.11912,-14.223037,15.000033,2.673593,-2.5680866,29.793802,-65.52818,38.674145,-26.346355,3.7938206,33.73852,-20.94061,48.340405,-50.996624,-9.146701,43.004715,-10.638467,-17.451065,-14.144046,-23.128605
214,2.643002510070801,38.96331787109375,67.53309631347656,-8.407514836953604,17.121862152173307,-104.83796062055426,-58.55178,15.853099,-1.4889147,71.19772,-31.110985,-6.0692873,-63.46093,-6.235796,1.0938205,66.0675,-14.379329,15.000033,2.370729,-2.7862818,29.793802,-65.31137,39.321857,-26.140316,3.602078,33.590954,-20.874088,48.25864,-50.932095,-9.141306,42.937977,-10.780392,-17.211033,-14.023198,-23.217476
215,2.7980093955993652,39.02824020385742,67.4905014038086,-8.51328223402688,17.074855594377013,-105.30116989475306,-58.614414,16.173956,-1.2225442,71.41839,-31.223108,-5.9293375,-63.299534,-6.467763,1.4966004,65.93086,-14.523369,15.000033,2.0647032,-3.006293,29.793802,-65.11331,39.943832,-25.922426,3.4433608,33.46368,-20.823118,48.173084,-50.87185,-9.1431875,42.855667,-10.925283,-16.978611,-13.893347,-23.314398
216,2.940962553024292,39.09187316894531,67.44475555419922,-8.619353286991675,17.038794766246536,-105.76485403321672,-58.7014,16.503069,-0.97172165,71.659615,-31.341526,-5.8027554,-63.14723,-6.656326,1.8945473,65.71695,-14.658706,15.000033,1.7683338,-3.226301,29.793802,-64.92176,40.528603,-25.676281,3.303852,33.33721,-20.795595,48.097237,-50.824318,-9.150333,42.76188,-11.067926,-16.764399,-13.780126,-23.414072
217,3.072493553161621,39.15485763549805,67.3857192993164,-8.727176792467922,17.01687183568226,-106.23130352056963,-58.818676,16.841225,-0.73994124,71.92496,-31.464815,-5.6894655,-63.00647,-6.7914844,2.3005333,65.414085,-14.786027,15.000033,1.4833053,-3.4444895,29.793802,-64.754715,41.06964,-25.408955,3.2048166,33.209316,-20.802675,48.043247,-50.7975,-9.163951,42.654186,-11.206549,-16.578127,-13.688202,-23.520273
218,3.193877935409546,39.21357345581055,67.31950378417969,-8.833852330553166,17.002643278925923,-106.69198990932443,-58.957382,17.18189,-0.52673423,72.21153,-31.594223,-5.5890813,-62.86411,-6.8865075,2.718449,65.02267,-14.907435,15.000033,1.2062545,-3.659334,29.793802,-64.61281,41.563766,-25.127283,3.150788,33.096222,-20.837421,48.001198,-50.780773,-9.185664,42.529903,-11.343005,-16.414907,-13.604446,-23.633804
219,3.3077709674835205,39.270896911621094,67.24620056152344,-8.940546908247331,16.993751697680707,-107.14778142143703,-59.11221,17.529688,-0.32784998,72.513794,-31.731256,-5.5022407,-62.721165,-6.954346,3.1143866,64.56915,-15.015052,15.000033,0.9468202,-3.864895,29.793802,-64.49794,42.006317,-24.830843,3.120581,32.98273,-20.88213,47.95097,-50.767746,-9.214122,42.389416,-11.473786,-16.258053,-13.527919,-23.743969
220,3.409485101699829,39.32626724243164,67.16957092285156,-9.047692845704985,16.986750120068088,-107.59926502972685,-59.275124,17.888624,-0.13824825,72.825195,-31.87733,-5.4298697,-62.576626,-7.005137,3.458174,64.080605,-15.107488,15.000033,0.71155703,-4.0567904,29.793802,-64.400024,42.391224,-24.513266,3.0871825,32.860844,-20.91909,47.872913,-50.73318,-9.245995,42.237812,-11.609541,-16.1026,-13.457122,-23.839897
221,3.496262550354004,39.38679885864258,67.08677673339844,-9.159788997952697,16.98010983510309,-108.05185674789605,-59.443855,18.26811,0.04360778,73.14276,-32.035446,-5.3710756,-62.422886,-7.0289564,3.7437665,63.533257,-15.170301,15.000033,0.5080905,-4.23176,29.793802,-64.31904,42.710518,-24.16736,3.0605195,32.739525,-20.942858,47.758965,-50.678555,-9.277904,42.06572,-11.744633,-15.93043,-13.397127,-23.900738
222,3.5677547454833984,39.446781158447266,66.99642944335938,-9.274884576734395,16.975418791843666,-108.50302584514333,-59.622383,18.66275,0.21460271,73.47059,-32.20376,-5.325818,-62.260757,-7.0243773,3.9893785,62.922768,-15.210477,15.000033,0.33228242,-4.390634,29.793802,-64.27204,42.961945,-23.805532,3.0602114,32.61949,-20.96381,47.621025,-50.610416,-9.310162,41.87448,-11.876067,-15.7552185,-13.346343,-23.937458
223,3.6358561515808105,39.50506591796875,66.8979263305664,-9.384167972807091,16.97508264828196,-108.94222017444835,-59.812477,19.05417,0.37317902,73.810776,-32.376167,-5.2960296,-62.103928,-7.0140305,4.1988516,62.30485,-15.256763,15.000033,0.17428531,-4.537387,29.793802,-64.25961,43.14917,-23.443823,3.0638568,32.48491,-20.98642,47.46729,-50.537834,-9.343929,41.675938,-11.99738,-15.601663,-13.295274,-23.988707
224,3.699751138687134,39.56110382080078,66.7962646484375,-9.47855378111507,16.981291166185855,-109.35899629059293,-60.01622,19.423927,0.5185236,74.166855,-32.54748,-5.2834864,-61.967873,-7.0218143,4.375373,61.737133,-15.337768,15.000033,0.021822684,-4.676757,29.793802,-64.28751,43.282642,-23.099274,3.0549679,32.313297,-21.01535,47.30621,-50.45202,-9.381785,41.48976,-12.115628,-15.504921,-13.234057,-24.092531
225,3.75435733795166,39.614356994628906,66.68318176269531,-9.558486415428828,16.9993959524881,-109.75478564633197,-60.239246,19.771605,0.64918184,74.53974,-32.715717,-5.294816,-61.859577,-7.0395417,4.527721,61.215923,-15.460626,15.000033,-0.12781002,-4.810844,29.793802,-64.34726,43.3678,-22.762266,3.0133615,32.078747,-21.04621,47.14155,-50.35664,-9.425301,41.319683,-12.234999,-15.47965,-13.155742,-24.285336
226,3.791550874710083,39.66709899902344,66.55877685546875,-9.627563068557702,17.027464063586432,-110.13396968742069,-60.47996,20.105066,0.76645136,74.92862,-32.882732,-5.3269553,-61.771236,-7.05979,4.6521854,60.717625,-15.610774,15.000033,-0.26969308,-4.9389596,29.793802,-64.44347,43.40533,-22.432055,2.9539697,31.794529,-21.077642,46.968636,-50.257225,-9.472353,41.156696,-12.349274,-15.502532,-13.066959,-24.538063
227,3.826667070388794,39.71846389770508,66.42877197265625,-9.681256624658758,17.055752480398084,-110.49091025726133,-60.72563,20.419792,0.8747309,75.329056,-33.05316,-5.3678393,-61.693497,-7.1066008,4.73031,60.266506,-15.780914,15.000033,-0.40846738,-5.070094,29.793802,-64.58624,43.40499,-22.135223,2.8986652,31.50496,-21.115753,46.785637,-50.136623,-9.51172,40.999443,-12.464195,-15.557869,-12.978595,-24.789587
228,3.8526036739349365,39.76628875732422,66.29174041748047,-9.714325510108196,17.077520196277344,-110.82068635021864,-60.9688,20.710798,0.9780819,75.74147,-33.227,-5.404815,-61.62115,-7.202786,4.7429657,59.88898,-15.9644,15.000033,-0.5537644,-5.202842,29.793802,-64.75508,43.386803,-21.863382,2.8445005,31.246792,-21.172855,46.581345,-49.99667,-9.549302,40.85443,-12.579365,-15.61477,-12.900806,-24.982815
229,3.872096538543701,39.822078704833984,66.14910888671875,-9.726923908516921,17.087260840967613,-111.11755944648306,-61.204155,20.97317,1.0733914,76.16529,-33.40319,-5.4363704,-61.546783,-7.36931,4.6552825,59.587345,-16.166277,15.000033,-0.7115542,-5.3257775,29.793802,-64.92444,43.343227,-21.59138,2.767078,31.018818,-21.253136,46.33993,-49.820488,-9.600946,40.733337,-12.706257,-15.674448,-12.840847,-25.124403
230,3.882319450378418,39.876678466796875,65.9999771118164,-9.721049126131842,17.0905560893964,-111.3863200596294,-61.437645,21.21103,1.1605133,76.60189,-33.58191,-5.4686956,-61.476425,-7.587685,4.486086,59.35038,-16.387758,15.000033,-0.8766499,-5.4578447,29.793802,-65.133484,43.283314,-21.357845,2.692181,30.798527,-21.343851,46.0793,-49.61996,-9.647606,40.624508,-12.83897,-15.7457285,-12.792543,-25.237684
231,3.880547285079956,39.93634796142578,65.84089660644531,-9.695264011637295,17.095701262633987,-111.6363978662759,-61.675575,21.433273,1.2473003,77.04896,-33.763794,-5.5008183,-61.420597,-7.821945,4.294327,59.17656,-16.611576,15.000033,-1.0376503,-5.5948887,29.793802,-65.37356,43.20836,-21.152609,2.619702,30.6117,-21.450558,45.81238,-49.396317,-9.691091,40.51986,-12.979353,-15.830262,-12.742556,-25.290472
232,3.8726470470428467,39.98563003540039,65.67732238769531,-9.648722721590769,17.111307725952848,-111.8773777349405,-61.923824,21.648506,1.3417416,77.50351,-33.94939,-5.531764,-61.389935,-8.036857,4.13997,59.063313,-16.821619,15.000033,-1.1848366,-5.745666,29.793802,-65.65428,43.135117,-20.988882,2.560339,30.476273,-21.574314,45.55892,-49.15978,-9.724512,40.405674,-13.126861,-15.923037,-12.678869,-25.249872
233,3.8461122512817383,40.03360366821289,65.51520538330078,-9.58191042054557,17.143685892626852,-112.12255096912774,-62.187687,21.86996,1.4504666,77.967094,-34.140594,-5.559535,-61.409973,-8.231019,4.019532,59.04164,-17.021282,15.000033,-1.310056,-5.9213533,29.793802,-65.97563,43.082436,-20.860893,2.5016322,30.400084,-21.727608,45.305004,-48.909313,-9.740998,40.274574,-13.291709,-16.01468,-12.588461,-25.06794
234,3.8155503273010254,40.0931282043457,65.33788299560547,-9.494809334604895,17.18726316347549,-112.36314755694359,-62.46241,22.088879,1.5683705,78.44013,-34.336575,-5.585279,-61.46787,-8.421893,3.9075208,59.10208,-17.216303,15.000033,-1.428694,-6.120099,29.793802,-66.32179,43.05502,-20.758541,2.4301317,30.366865,-21.905142,45.04721,-48.64391,-9.741992,40.143208,-13.47461,-16.109856,-12.480841,-24.77846
235,3.7203452587127686,40.17935562133789,65.14512634277344,-9.38425590827352,17.23285492421092,-112.57519495027037,-62.73727,22.281433,1.6876874,78.91563,-34.53566,-5.6125607,-61.51872,-8.603155,3.831899,59.183243,-17.394554,15.000033,-1.5612254,-6.328461,29.793802,-66.67224,43.03422,-20.678963,2.3581808,30.365927,-22.08452,44.814716,-48.3737,-9.731899,40.01983,-13.648918,-16.222618,-12.3809395,-24.461746
236,3.704521894454956,40.235321044921875,64.93502807617188,-9.245276954060461,17.270447471343743,-112.73402134122078,-63.00233,22.422413,1.8010074,79.39124,-34.730816,-5.644599,-61.518402,-8.769935,3.8202984,59.226227,-17.542414,15.000033,-1.7397403,-6.546687,29.793802,-67.00716,43.0221,-20.628971,2.2959769,30.383682,-22.238497,44.6435,-48.08578,-9.711855,39.932907,-13.817081,-16.378683,-12.309351,-24.20768
237,3.6408939361572266,40.30327224731445,64.73259735107422,-9.059922012798845,17.30152016672246,-112.81439220682137,-63.251045,22.480764,1.9220307,79.85881,-34.92212,-5.6739535,-61.427166,-8.934624,3.903645,59.192303,-17.63761,15.000033,-1.9885561,-6.779956,29.793802,-67.32683,43.01712,-20.615122,2.2492018,30.441793,-22.355898,44.571625,-47.824615,-9.675921,39.874603,-13.932134,-16.58089,-12.283623,-24.02756
238,3.576265335083008,40.37009811401367,64.5267105102539,-8.83351319503222,17.326008408262048,-112.83445055708933,-63.48501,22.477276,2.052753,80.32265,-35.112057,-5.7016077,-61.275303,-9.097702,4.060187,59.122974,-17.693432,15.000033,-2.2988386,-7.046994,29.793802,-67.65711,43.03016,-20.649897,2.2337756,30.543037,-22.448818,44.576214,-47.57233,-9.580476,39.845024,-14.00209,-16.841269,-12.288487,-23.875687
239,3.5238184928894043,40.434326171875,64.31153106689453,-8.602451869647473,17.343070925546517,-112.83882881293893,-63.7187,22.466364,2.1646128,80.79474,-35.30267,-5.743073,-61.133175,-9.230272,4.2367682,59.074356,-17.7498,15.000033,-2.6218276,-7.3189325,29.793802,-67.96419,43.067585,-20.69398,2.207309,30.630579,-22.53574,44.585773,-47.318687,-9.465985,39.8484,-14.059957,-17.106604,-12.302122,-23.758038
