unveil-humanoid-operators/unveil-humanoid-operators.github.io/feature-analysis-animation/data/feature_matrix_instances/height_root_translate_rom_walking_A040_walk_sideway_135_start_003__A040.csv
Frame,root_translateX,root_translateY,root_translateZ,root_rotateX,root_rotateY,root_rotateZ,left_hip_pitch_joint_dof,left_hip_roll_joint_dof,left_hip_yaw_joint_dof,left_knee_joint_dof,left_ankle_pitch_joint_dof,left_ankle_roll_joint_dof,right_hip_pitch_joint_dof,right_hip_roll_joint_dof,right_hip_yaw_joint_dof,right_knee_joint_dof,right_ankle_pitch_joint_dof,right_ankle_roll_joint_dof,waist_yaw_joint_dof,waist_roll_joint_dof,waist_pitch_joint_dof,left_shoulder_pitch_joint_dof,left_shoulder_roll_joint_dof,left_shoulder_yaw_joint_dof,left_elbow_joint_dof,left_wrist_roll_joint_dof,left_wrist_pitch_joint_dof,left_wrist_yaw_joint_dof,right_shoulder_pitch_joint_dof,right_shoulder_roll_joint_dof,right_shoulder_yaw_joint_dof,right_elbow_joint_dof,right_wrist_roll_joint_dof,right_wrist_pitch_joint_dof,right_wrist_yaw_joint_dof
0,1.5192347764968872,0.6596797108650208,77.7077865600586,-3.203263283741984,-0.48378073925952375,174.59055805150243,1.2231153,10.451133,13.444687,19.327553,-19.375044,-4.445907,2.9435134,2.7660294,-14.241117,13.673244,-14.310721,-0.89040637,-3.4769206,5.3562584,8.696663,-9.699371,14.744248,-48.65819,61.97929,1.2177936,1.2844489,1.3780304,-8.837479,-14.952144,47.456387,61.22854,0.6633366,1.896377,-5.530359
1,1.5160880088806152,0.6535281538963318,77.68948364257812,-3.2436573095502164,-0.4172411557280926,174.58653844551802,0.98987395,10.535651,13.400983,19.687727,-19.545942,-4.4606676,2.8605082,2.8083925,-14.231266,13.710067,-14.364304,-0.8799627,-3.5027373,5.4248195,8.666298,-9.707596,14.755265,-48.6359,62.004944,1.1391728,1.2416074,1.3396716,-8.827752,-14.957969,47.421654,61.19134,0.70108455,1.8713193,-5.4908247
2,1.513593316078186,0.6535107493400574,77.67106628417969,-3.2750450950845265,-0.3542046365816822,174.57788418506803,0.7798142,10.606888,13.366555,20.012234,-19.705626,-4.4741154,2.774758,2.8394558,-14.215563,13.761912,-14.426208,-0.868205,-3.5178764,5.4802556,8.648209,-9.713277,14.786628,-48.612,62.005985,1.0596918,1.1963135,1.2920308,-8.816579,-14.9695215,47.36128,61.14096,0.73074687,1.8419969,-5.442669
3,1.4911773204803467,0.657045304775238,77.6506118774414,-3.3227548022732103,-0.2850947042929809,174.57795343212686,0.52509904,10.702709,13.313165,20.406963,-19.8868,-4.489065,2.6936045,2.8904662,-14.211122,13.788151,-14.473663,-0.85872614,-3.5446413,5.556314,8.613361,-9.722257,14.795022,-48.59304,62.037342,0.98671263,1.1569155,1.2599561,-8.806521,-14.971187,47.331818,61.10983,0.7673443,1.8204175,-5.408726
4,1.4835774898529053,0.6506290435791016,77.62307739257812,-3.4136818620025857,-0.20022779944151015,174.60102485176813,0.15882681,10.862556,13.21029,20.975044,-20.12259,-4.508617,2.6246328,2.9946756,-14.236442,13.747876,-14.483021,-0.85554594,-3.573119,5.6758204,8.593731,-9.741873,14.82673,-48.54104,62.045094,0.9825483,1.137136,1.240301,-8.791971,-14.9771385,47.25088,61.059696,0.7362612,1.8188819,-5.383736
5,1.4748567342758179,0.6437204480171204,77.59286499023438,-3.5511486701574313,-0.0882612648201465,174.65161384104624,-0.34495193,11.089845,13.05175,21.734089,-20.429806,-4.529967,2.5502002,3.1534123,-14.300128,13.647432,-14.453248,-0.8581562,-3.614357,5.8475637,8.554643,-9.7798395,14.844521,-48.49522,62.07919,1.0396734,1.1491711,1.2560785,-8.794553,-14.980711,47.21133,61.027267,0.695687,1.8512591,-5.393567
6,1.4695322513580322,0.6395480036735535,77.56228637695312,-3.7216273345706314,0.04208136724844037,174.7217212462044,-0.9458093,11.364071,12.851484,22.62834,-20.787052,-4.552326,2.473741,3.3508713,-14.391042,13.502047,-14.394579,-0.86483455,-3.675759,6.0559483,8.522433,-9.819027,14.877043,-48.41119,62.094196,1.1677585,1.18589,1.2875215,-8.795818,-14.9890375,47.153713,60.977932,0.590385,1.9097677,-5.4197407
7,1.4847482442855835,0.6250342130661011,77.52681732177734,-3.9211172527708302,0.17139673875981506,174.8044310569066,-1.6141787,11.681027,12.612741,23.654528,-21.16728,-4.580463,2.4280453,3.587531,-14.494523,13.295246,-14.307214,-0.8766263,-3.73845,6.296606,8.493965,-9.856265,14.91146,-48.316547,62.109715,1.300941,1.2196295,1.32974,-8.79932,-15.000351,47.110313,60.935665,0.50979805,1.966478,-5.4488344
8,1.5022470951080322,0.6129890084266663,77.48696899414062,-4.14560167578863,0.27948492770924355,174.8931379140782,-2.3160706,12.036342,12.339327,24.80248,-21.539587,-4.6195583,2.4521792,3.8657246,-14.595525,12.999572,-14.185068,-0.89476454,-3.8060992,6.5652246,8.488104,-9.862616,14.972356,-48.184486,62.08858,1.4025414,1.2261785,1.3673753,-8.783953,-15.025727,47.06141,60.88123,0.46528313,1.9971086,-5.4594326
9,1.4654896259307861,0.6211737990379333,77.44599914550781,-4.404656498142908,0.3654727373972002,174.9804109083636,-3.0462227,12.447251,12.043996,26.082125,-21.926014,-4.67161,2.5638156,4.2050424,-14.683033,12.583905,-14.015138,-0.9240902,-3.8518124,6.8732834,8.481826,-9.864497,15.007589,-48.04767,62.104385,1.4643625,1.187078,1.39793,-8.730332,-15.042217,46.976627,60.833828,0.47233054,1.9867657,-5.4471602
10,1.4424002170562744,0.6226105093955994,77.400146484375,-4.694471907582507,0.4390193664702272,175.07130752169496,-3.8193588,12.904754,11.720456,27.487858,-22.329557,-4.733803,2.7423363,4.5964713,-14.7652645,12.06742,-13.802719,-0.96174884,-3.8908422,7.2158666,8.482086,-9.854313,15.040907,-47.88954,62.124653,1.5135388,1.1203316,1.4259,-8.658094,-15.060475,46.87768,60.787266,0.51737636,1.9519837,-5.4211197
11,1.4442120790481567,0.6073407530784607,77.34745788574219,-4.992352634248513,0.49604436945852487,175.17777487907676,-4.6333356,13.365458,11.345491,28.990498,-22.695871,-4.804942,2.9638944,4.9994836,-14.856354,11.507596,-13.57396,-0.997386,-3.938313,7.569615,8.513251,-9.836976,15.091066,-47.702023,62.1164,1.5322431,1.0492258,1.4625142,-8.589586,-15.095041,46.788864,60.738224,0.57474595,1.9114215,-5.387387
12,1.4494692087173462,0.5801486968994141,77.29368591308594,-5.277610813051407,0.5330448423186936,175.31246766573747,-5.4923205,13.788662,10.894376,30.574247,-22.972145,-4.8848395,3.2039597,5.3755236,-14.972146,10.96198,-13.356103,-1.0212255,-3.9996989,7.913778,8.58424,-9.83439,15.1422825,-47.49834,62.09152,1.4962159,0.99536854,1.5241934,-8.530051,-15.141666,46.71196,60.696526,0.59842736,1.8831023,-5.3552914
13,1.4489349126815796,0.5552312135696411,77.24174499511719,-5.556291281606592,0.5472701589426459,175.49040792073473,-6.417781,14.17433,10.348296,32.273724,-23.14809,-4.9894915,3.4634914,5.7278104,-15.127406,10.430194,-13.149284,-1.0329486,-4.077814,8.253447,8.702014,-9.874671,15.17204,-47.288937,62.077347,1.3692597,0.9641802,1.6202638,-8.507138,-15.182821,46.647152,60.69604,0.58608866,1.8670614,-5.3203616
14,1.4460413455963135,0.5233858823776245,77.1907958984375,-5.835710006564717,0.5422204185813813,175.70114640483507,-7.4010997,14.535192,9.725673,34.084297,-23.250214,-5.116918,3.7526197,6.073269,-15.310083,9.886617,-12.941585,-1.0368067,-4.186759,8.601441,8.869501,-9.920684,15.207805,-47.035347,62.032055,1.185553,0.94439805,1.7375995,-8.488469,-15.258454,46.594975,60.67627,0.5444156,1.8587343,-5.277667
15,1.4372730255126953,0.48432493209838867,77.1401596069336,-6.097593120250641,0.5218037176653432,175.91937198310873,-8.398286,14.849951,9.059301,35.92828,-23.282711,-5.2409315,4.0658355,6.394682,-15.495593,9.337821,-12.735045,-1.0306159,-4.2872934,8.934583,9.054412,-9.977687,15.233613,-46.7805,61.99524,0.98933876,0.92907107,1.8696238,-8.470056,-15.344567,46.563606,60.670525,0.50628996,1.856805,-5.2430606
16,1.4298254251480103,0.4302937388420105,77.09333038330078,-6.326228389332828,0.4896727948724791,176.11982973953823,-9.363203,15.101969,8.382053,37.725143,-23.247969,-5.335629,4.3841577,6.673004,-15.662163,8.820442,-12.542429,-1.0126343,-4.363658,9.23501,9.234331,-10.028693,15.249566,-46.526688,61.97731,0.84134513,0.91215163,2.0060906,-8.4574585,-15.429647,46.58652,60.702908,0.5085684,1.8614247,-5.23127
17,1.4071704149246216,0.3936154246330261,77.05110931396484,-6.5204262538930005,0.4385317341727714,176.31061478776272,-10.294281,15.287931,7.6937475,39.505035,-23.115183,-5.392898,4.729908,6.9085803,-15.817802,8.305913,-12.353224,-0.980437,-4.4337163,9.507267,9.422302,-10.06467,15.262849,-46.260715,61.962673,0.7845401,0.89631546,2.1393495,-8.446927,-15.536975,46.695942,60.751045,0.5764237,1.8776692,-5.2539897
18,1.3800239562988281,0.3453715145587921,77.01519012451172,-6.6889606835482995,0.36913170707782733,176.50051893601716,-11.2085285,15.415051,6.9834385,41.289307,-22.890383,-5.4316106,5.0986185,7.109425,-15.971932,7.7989254,-12.170542,-0.9352411,-4.4952545,9.756901,9.621472,-10.097687,15.271757,-45.99107,61.954212,0.77583617,0.8837907,2.2767136,-8.440787,-15.652684,46.86167,60.823147,0.68213403,1.9028009,-5.301304
19,1.348278522491455,0.2849954068660736,76.98651885986328,-6.831181659997419,0.29618875612408824,176.66595168781765,-12.094907,15.48662,6.2653766,42.998547,-22.63756,-5.465393,5.4284635,7.2663364,-16.10369,7.391239,-12.0346575,-0.8824957,-4.5316014,9.980642,9.810993,-10.118066,15.277599,-45.708725,61.951637,0.75954384,0.86758864,2.4273298,-8.431907,-15.77415,47.05086,60.917656,0.7886202,1.9309448,-5.3522925
20,1.3009132146835327,0.2355293184518814,76.96613311767578,-6.945711837367239,0.2343385740368407,176.78308385718424,-12.939932,15.506478,5.5540214,44.54992,-22.419405,-5.5064583,5.5706053,7.342576,-16.20365,7.3677607,-12.088407,-0.8257525,-4.523255,10.174925,9.969147,-10.119423,15.282197,-45.4125,61.95663,0.6744456,0.8402508,2.6006477,-8.408474,-15.895999,47.222694,61.03023,0.85314715,1.9565753,-5.385907
21,1.2408199310302734,0.1810145527124405,76.95063018798828,-7.0293063320583045,0.18619735257726103,176.833025731258,-13.746376,15.462222,4.8355045,45.963264,-22.238852,-5.534329,5.694214,7.3915415,-16.229641,7.3467746,-12.126814,-0.7753746,-4.44737,10.335561,10.083247,-10.098898,15.286843,-45.10978,61.976013,0.48356164,0.7942333,2.8102055,-8.366324,-16.013332,47.37681,61.172066,0.8572643,1.9791787,-5.3962545
22,1.1644859313964844,0.1283223032951355,76.93965148925781,-7.084475787628531,0.14384100572055938,176.83290552511153,-14.517587,15.357325,4.1093707,47.270657,-22.067266,-5.553616,5.8092184,7.4124103,-16.200842,7.3288345,-12.154552,-0.7267818,-4.3202577,10.466037,10.166519,-10.058858,15.292103,-44.79916,62.005505,0.2261018,0.7348724,3.0471728,-8.312786,-16.124346,47.528076,61.345383,0.8220409,2.001304,-5.394799
23,1.0888984203338623,0.07562441378831863,76.93161010742188,-7.119034643408464,0.10537568473147821,176.81310820179579,-15.244893,15.223441,3.406992,48.411114,-21.923195,-5.608045,5.919408,7.40613,-16.151747,7.314275,-12.178172,-0.66802555,-4.179375,10.572849,10.236572,-10.001951,15.298547,-44.46626,62.03045,-0.043547582,0.6739166,3.287103,-8.266311,-16.22976,47.67608,61.54356,0.78510344,2.0206487,-5.387142
24,1.0164040327072144,0.01165161281824112,76.9236831665039,-7.14081649844865,0.06920664462379122,176.8036774331656,-15.921846,15.096008,2.756821,49.32627,-21.827318,-5.7360964,6.0296497,7.3737993,-16.11634,7.301992,-12.20388,-0.5872304,-4.0629454,10.66326,10.311033,-9.92853,15.30655,-44.09273,62.03392,-0.267112,0.6241357,3.5056593,-8.233188,-16.331299,47.805847,61.749123,0.7673175,2.0356674,-5.3783746
25,0.9336840510368347,-0.06072041392326355,76.91946411132812,-7.1482993411858535,0.035162874939870976,176.82634265938964,-16.549587,14.969068,2.1545813,49.990223,-21.821749,-5.9776545,6.141146,7.3090954,-16.11631,7.2934933,-12.235452,-0.476692,-3.9896967,10.736159,10.397338,-9.840464,15.315177,-43.66521,62.004993,-0.43772185,0.5920865,3.6903932,-8.225657,-16.427738,47.92641,61.97608,0.79155797,2.0394158,-5.366143
26,0.8488413691520691,-0.13217045366764069,76.92229461669922,-7.138930812064088,0.0038511404970702594,176.86042536350257,-17.132936,14.83649,1.5861754,50.441433,-21.886045,-6.2946224,6.2521796,7.2144127,-16.129278,7.2884355,-12.269455,-0.34443736,-3.9430044,10.790775,10.488077,-9.732584,15.3259325,-43.187748,61.949512,-0.581952,0.57013553,3.8556893,-8.234381,-16.52759,48.04686,62.218204,0.840554,2.0356452,-5.3485622
27,0.7731215357780457,-0.22019892930984497,76.9256591796875,-7.119226142253866,-0.025138254475210217,176.87214109278176,-17.672707,14.734781,1.063629,50.719425,-21.94759,-6.60688,6.359918,7.1032677,-16.123472,7.284761,-12.299492,-0.2023325,-3.876935,10.827799,10.567246,-9.615124,15.3364,-42.70935,61.89755,-0.7029193,0.55102974,4.0204635,-8.24153,-16.611723,48.126762,62.465046,0.87605745,2.035651,-5.3331137
28,0.6937714219093323,-0.3202087879180908,76.93221282958984,-7.09602178429576,-0.05201137500982322,176.82793385741658,-18.170065,14.699432,0.59738517,50.86129,-21.931658,-6.8360662,6.4612064,6.988872,-16.06734,7.282546,-12.320839,-0.0621357,-3.79148,10.859398,10.637358,-9.469252,15.354997,-42.21879,61.84506,-0.7892056,0.5262493,4.1993046,-8.237657,-16.711048,48.188915,62.66425,0.88690144,2.055135,-5.3252273
29,0.5971261858940125,-0.4313301742076874,76.94091796875,-7.0647541179471425,-0.08117862864176907,176.70431198451024,-18.607275,14.744125,0.21876901,50.846874,-21.803316,-6.9684367,6.560027,6.868673,-15.9383545,7.279946,-12.328703,0.07388509,-3.633821,10.87525,10.684916,-9.303252,15.378624,-41.74909,61.808422,-0.8340155,0.49143746,4.410836,-8.199523,-16.806166,48.17539,62.821564,0.8222917,2.107996,-5.328185
30,0.4907921850681305,-0.5285011529922485,76.95183563232422,-7.02367596409673,-0.11093828654916049,176.52407730766652,-18.989809,14.850362,-0.08875659,50.66226,-21.603823,-7.0417843,6.6567154,6.737641,-15.758065,7.2770276,-12.326554,0.21164893,-3.4079118,10.869886,10.702574,-9.137767,15.39418,-41.320045,61.80775,-0.85533816,0.45164335,4.6455245,-8.143669,-16.86291,48.083885,62.98942,0.7016032,2.1800907,-5.3408957
31,0.3481738567352295,-0.6117542386054993,76.96089172363281,-6.984810729351248,-0.13242645740954223,176.32315009157875,-19.358673,15.004202,-0.38861057,50.364235,-21.378254,-7.0564528,6.7429643,6.6063895,-15.561035,7.2775946,-12.324065,0.35172117,-3.2240627,10.86909,10.733015,-8.93048,15.431004,-40.83558,61.769024,-0.84558684,0.4148563,4.865567,-8.098814,-16.961548,48.022804,63.094852,0.6078602,2.2518017,-5.353431
32,0.2201143205165863,-0.701622724533081,76.9649429321289,-6.959023562165754,-0.1370287793886225,176.13731629576574,-19.75333,15.189172,-0.74265957,50.00596,-21.169828,-7.013106,6.8129697,6.4853306,-15.381402,7.2782235,-12.325971,0.49450818,-3.0464005,10.872184,10.750978,-8.750522,15.475671,-40.431454,61.7494,-0.88229215,0.38954967,5.0531197,-8.058264,-17.057137,47.94407,63.17715,0.5848543,2.2901387,-5.366341
33,0.12871971726417542,-0.8210684061050415,76.95850372314453,-6.950165826795562,-0.11755725596352372,175.977030641728,-20.195509,15.40596,-1.1593324,49.591324,-20.997509,-6.8885636,6.85681,6.3777065,-15.231765,7.282799,-12.335909,0.64150906,-2.9037137,10.885342,10.759433,-8.591305,15.5301285,-40.083355,61.738136,-0.9815405,0.37803176,5.1975517,-8.030954,-17.152569,47.855743,63.237144,0.6608275,2.2811818,-5.3822975
34,0.01752389781177044,-0.9403002262115479,76.95027923583984,-6.9518647429140685,-0.08030504948079756,175.82292918131444,-20.66193,15.657267,-1.606825,49.093094,-20.835438,-6.6908507,6.880662,6.2776732,-15.092868,7.289888,-12.34947,0.79222935,-2.7773726,10.902721,10.758754,-8.440589,15.595022,-39.775738,61.73048,-1.1158309,0.376039,5.313336,-8.018109,-17.24892,47.763725,63.276127,0.81681377,2.2418284,-5.401742
35,-0.13154025375843048,-1.0524752140045166,76.94624328613281,-6.961066774626106,-0.03705413237688936,175.6660442078784,-21.125021,15.931666,-2.0884283,48.52144,-20.661783,-6.4677486,6.8995314,6.1818624,-14.951271,7.297697,-12.364663,0.94381094,-2.6671169,10.919172,10.755777,-8.290507,15.670531,-39.499046,61.73243,-1.2415943,0.38008568,5.4085884,-8.008838,-17.345922,47.66941,63.28754,0.97787213,2.1933742,-5.4172926
36,-0.2737291753292084,-1.1563469171524048,76.93367004394531,-6.973883571450498,0.0004905225605705723,175.49738608425062,-21.556763,16.218792,-2.60773,47.88618,-20.453436,-6.2662706,6.928684,6.0868874,-14.793397,7.3031154,-12.37867,1.093387,-2.5696328,10.929709,10.758043,-8.131732,15.755572,-39.241207,61.748444,-1.3098441,0.38696954,5.4913235,-8.006135,-17.442287,47.594643,63.272766,1.0955181,2.156725,-5.4218645
37,-0.4219916760921478,-1.2734684944152832,76.92158508300781,-6.992135263435057,0.029820834937013565,175.3190342996372,-21.955204,16.527418,-3.1682336,47.175785,-20.218616,-6.10549,6.9699774,5.994857,-14.618506,7.307099,-12.38944,1.2367481,-2.4952984,10.936341,10.768903,-7.963256,15.85142,-38.99652,61.781796,-1.3064277,0.3934493,5.563374,-8.006676,-17.535961,47.532433,63.224796,1.1443623,2.1347082,-5.4083776
38,-0.5668768882751465,-1.3991968631744385,76.90471649169922,-7.016526748137184,0.05706576127775399,175.13426448385118,-22.335539,16.856922,-3.767081,46.38996,-19.965137,-5.9590473,7.015912,5.9063168,-14.432839,7.310843,-12.399145,1.3765424,-2.441231,10.939916,10.784464,-7.7875686,15.958637,-38.76932,61.82732,-1.2539179,0.40243825,5.6204357,-8.022111,-17.626354,47.49208,63.153683,1.1741322,2.1164885,-5.3825603
39,-0.7212616801261902,-1.5362346172332764,76.89425659179688,-7.04310234333137,0.08302369198319513,174.9360721132392,-22.69263,17.188889,-4.398866,45.554024,-19.668074,-5.803644,7.067112,5.816009,-14.233464,7.313118,-12.411644,1.5200891,-2.3925576,10.934925,10.798871,-7.604856,16.07487,-38.5701,61.884148,-1.1737626,0.4191771,5.6615243,-8.039985,-17.713594,47.463295,63.065243,1.1759238,2.1043792,-5.356736
40,-0.8781348466873169,-1.6762802600860596,76.88217163085938,-7.068114437461318,0.10847249592682548,174.71745526155385,-23.020868,17.50534,-5.059214,44.693832,-19.302801,-5.616438,7.1215525,5.7176642,-14.017863,7.316357,-12.432177,1.6747192,-2.330015,10.915937,10.806773,-7.418893,16.195036,-38.41017,61.954273,-1.0840838,0.4488821,5.68581,-8.067922,-17.799717,47.46482,62.97767,1.1782581,2.0995781,-5.343228
41,-1.0565805435180664,-1.8151494264602661,76.86654663085938,-7.091486101803095,0.13230525118658004,174.4705103350854,-23.319054,17.815987,-5.7472377,43.815212,-18.866135,-5.3717484,7.183911,5.613403,-13.779006,7.3141966,-12.460587,1.8416767,-2.2389185,10.88075,10.803847,-7.234882,16.315502,-38.30405,62.0488,-0.9746079,0.49660292,5.6937037,-8.09959,-17.88607,47.50572,62.88674,1.1666557,2.11049,-5.350808
42,-1.2383182048797607,-1.970412015914917,76.84815216064453,-7.114877554385655,0.15465563124490414,174.20110006512238,-23.590784,18.127785,-6.4654884,42.907063,-18.37121,-5.0871053,7.2504034,5.504281,-13.520791,7.3126197,-12.496889,2.0172677,-2.131624,10.833162,10.792726,-7.0524626,16.43472,-38.24123,62.168938,-0.8381769,0.55787086,5.6858497,-8.130666,-17.972973,47.57153,62.784016,1.1309733,2.1338534,-5.3711286
43,-1.4284218549728394,-2.1312477588653564,76.82947540283203,-7.137105493297114,0.1784063696300161,173.92284363120118,-23.84111,18.421955,-7.216307,41.97939,-17.822092,-4.8031993,7.318652,5.386215,-13.255719,7.3099837,-12.535623,2.2011557,-2.0304916,10.779009,10.778586,-6.869719,16.550774,-38.201153,62.30326,-0.70495033,0.62357354,5.6618686,-8.16905,-18.060602,47.643185,62.678135,1.1022085,2.154051,-5.3904314
44,-1.6302870512008667,-2.295175075531006,76.81035614013672,-7.156960838943943,0.20654640721115472,173.64924882733595,-24.073515,18.67997,-8.002233,41.041023,-17.221954,-4.560801,7.3838353,5.25441,-12.996473,7.310489,-12.57429,2.3932033,-1.9587618,10.724215,10.766795,-6.6836224,16.661366,-38.161522,62.43952,-0.6041735,0.6846131,5.621459,-8.216282,-18.148155,47.693905,62.57312,1.102465,2.1557512,-5.3949986
45,-1.816175937652588,-2.4683644771575928,76.7861328125,-7.173904034614667,0.24418592555803395,173.3870295702829,-24.29447,18.887905,-8.849327,40.08262,-16.528667,-4.3721633,7.443012,5.10736,-12.750158,7.3105407,-12.610266,2.5948832,-1.9306238,10.671333,10.755591,-6.49238,16.765041,-38.123325,62.579597,-0.54831505,0.74104935,5.5569053,-8.277476,-18.235512,47.724445,62.472775,1.155845,2.1272106,-5.3766117
46,-2.023141860961914,-2.647461175918579,76.7666015625,-7.18852117490761,0.28856678810276054,173.12812784319,-24.499506,19.061785,-9.749372,39.106186,-15.7556095,-4.2142606,7.4968553,4.946739,-12.509168,7.314339,-12.648068,2.8059657,-1.9307623,10.617168,10.74263,-6.29937,16.86118,-38.09618,62.73078,-0.51949996,0.7968134,5.4711533,-8.351251,-18.323162,47.747807,62.375786,1.2463418,2.0791125,-5.3440394
47,-2.254243850708008,-2.8373146057128906,76.75587463378906,-7.201317778494638,0.3300631558015189,172.86351530746052,-24.673513,19.227121,-10.652435,38.133007,-14.987521,-4.0752177,7.556902,4.77583,-12.262994,7.3143945,-12.68362,3.0232651,-1.9387426,10.558707,10.731899,-6.1072464,16.948835,-38.07069,62.887264,-0.50201553,0.849681,5.380149,-8.421684,-18.41021,47.745007,62.273045,1.3226134,2.030157,-5.3092103
48,-2.458287000656128,-3.0401759147644043,76.73259735107422,-7.212755320449764,0.3590937639128668,172.58417976641573,-24.8017,19.408222,-11.507873,37.183365,-14.308836,-3.9431858,7.626253,4.595489,-12.001866,7.3194275,-12.720643,3.243717,-1.9321281,10.492395,10.728135,-5.9212093,17.026457,-38.037716,63.0479,-0.47899634,0.89385426,5.2995872,-8.482481,-18.495531,47.710224,62.161816,1.3498961,1.998464,-5.2844434
49,-2.678285837173462,-3.242778778076172,76.71147918701172,-7.222333384311076,0.36958189961438254,172.28531169764392,-24.86964,19.60686,-12.322526,36.24472,-13.73729,-3.8131578,7.7151575,4.4075837,-11.721175,7.3199987,-12.754842,3.4650252,-1.9027638,10.41468,10.733948,-5.742182,17.093077,-37.99239,63.22178,-0.43978453,0.92567253,5.231842,-8.533136,-18.577978,47.637154,62.043037,1.3064762,1.9944047,-5.2755313
50,-2.913972854614258,-3.4569296836853027,76.687744140625,-7.2295675291779915,0.36783349445000657,171.97238725640355,-24.889053,19.81239,-13.116314,35.31339,-13.2303,-3.6915185,7.813316,4.2095294,-11.427239,7.3262644,-12.791557,3.689441,-1.8624591,10.32841,10.746083,-5.5705523,17.14859,-37.943405,63.40976,-0.3978783,0.9482525,5.1693196,-8.579617,-18.657095,47.5344,61.920708,1.2200288,2.0061967,-5.2752247
51,-3.1536777019500732,-3.67431902885437,76.66221618652344,-7.236188175244579,0.3629964279246811,171.65256145348602,-24.886282,20.029306,-13.859068,34.420506,-12.780199,-3.584459,7.9164143,4.001767,-11.1253395,7.3282614,-12.824136,3.9204755,-1.8212472,10.239866,10.759624,-5.4016194,17.192389,-37.89144,63.58901,-0.36216566,0.97086096,5.112918,-8.621816,-18.734013,47.411015,61.797253,1.1187052,2.0189064,-5.275995
52,-3.3831567764282227,-3.904712200164795,76.63130187988281,-7.244993275433369,0.3637447205409594,171.3329075264966,-24.885878,20.26196,-14.520348,33.593178,-12.377567,-3.4991727,8.01205,3.7839522,-10.821266,7.3347015,-12.85637,4.161563,-1.7888492,10.156262,10.768337,-5.23771,17.220865,-37.844246,63.745388,-0.34802067,1.0026425,5.0643997,-8.681565,-18.803905,47.302074,61.698086,1.0578492,2.0162067,-5.271163
53,-3.6330950260162354,-4.145698547363281,76.60051727294922,-7.256493018754288,0.3704709309325958,171.00778953648825,-24.881668,20.510561,-15.101875,32.824413,-12.009154,-3.4492054,8.10037,3.5574906,-10.508133,7.342655,-12.882758,4.410564,-1.7642018,10.0811405,10.7776375,-5.067434,17.240883,-37.802315,63.85989,-0.34779796,1.0513192,5.023311,-8.7347975,-18.88855,47.181896,61.586338,1.0267823,1.9940315,-5.2514772
54,-3.8934574127197266,-4.402182102203369,76.5725326538086,-7.269572101528247,0.37900102925945756,170.67586494887468,-24.864891,20.771803,-15.616486,32.103767,-11.681983,-3.4280913,8.185482,3.322091,-10.185825,7.3530235,-12.90583,4.6667595,-1.7426869,10.01081,10.787837,-4.9001384,17.246996,-37.766666,63.95588,-0.36086816,1.1080031,4.989925,-8.797265,-18.977812,47.065475,61.479294,1.0287234,1.9600627,-5.223679
55,-4.1389899253845215,-4.65830135345459,76.53702545166016,-7.28326841176433,0.3913962447515446,170.35012311025065,-24.84998,21.044878,-16.046736,31.441807,-11.4162035,-3.4131095,8.2523775,3.07234,-9.870248,7.398944,-12.951451,4.935926,-1.7277077,9.942153,10.794656,-4.7423525,17.240625,-37.727993,64.03031,-0.39841098,1.1642898,4.962477,-8.861271,-19.072802,46.95466,61.37541,1.044035,1.921792,-5.1997705
56,-4.3965606689453125,-4.919207572937012,76.49771881103516,-7.297256329481884,0.40967262216316147,170.04358060897624,-24.85484,21.328842,-16.37717,30.85771,-11.231181,-3.381212,8.259717,2.7995224,-9.578404,7.5699477,-13.074968,5.2238116,-1.7240639,9.872641,10.794917,-4.6022096,17.224642,-37.6793,64.08363,-0.47537735,1.208519,4.9391885,-8.917729,-19.173733,46.85055,61.269615,1.0523187,1.8867189,-5.1919703
57,-4.661788463592529,-5.192546844482422,76.44902038574219,-7.30877806300626,0.43534915420617015,169.75770708610307,-24.87586,21.632317,-16.579548,30.346457,-11.15271,-3.3390348,8.265798,2.5102053,-9.307961,7.7392826,-13.216012,5.534635,-1.7340707,9.7972765,10.784046,-4.4711537,17.202446,-37.606026,64.103645,-0.6102276,1.2424569,4.920583,-8.981111,-19.269835,46.77302,61.1787,1.0602323,1.8547354,-5.209132
58,-4.9246344566345215,-5.481033802032471,76.39067077636719,-7.319212528134505,0.4666978593537914,169.4859708670559,-24.903458,21.953558,-16.669333,29.897957,-11.160986,-3.295458,8.2702875,2.2068827,-9.051949,7.909419,-13.370578,5.864382,-1.7548064,9.723273,10.76853,-4.3504505,17.168982,-37.515343,64.09325,-0.79002815,1.2699986,4.907106,-9.037183,-19.38853,46.710583,61.07207,1.0725136,1.8243372,-5.241114
59,-5.207451343536377,-5.781853199005127,76.3321304321289,-7.334174672397381,0.5013171485620537,169.22988680541016,-24.949318,22.274794,-16.697664,29.527155,-11.210534,-3.2305791,8.281393,1.8986046,-8.813901,8.0678835,-13.5227,6.205424,-1.7837167,9.651397,10.753877,-4.250906,17.130457,-37.431377,64.067665,-0.9819293,1.2852845,4.8965645,-9.091363,-19.512812,46.6531,60.965942,1.0966339,1.7947775,-5.2771316
60,-5.490347862243652,-6.0820746421813965,76.2718276977539,-7.359217357941108,0.5366161064059228,168.99106298191995,-25.023615,22.578657,-16.71554,29.24596,-11.254813,-3.1238503,8.309248,1.5948356,-8.5973625,8.197295,-13.65321,6.550065,-1.8175343,9.584126,10.747441,-4.183916,17.091349,-37.376266,64.040825,-1.1502544,1.2823706,4.886317,-9.1454315,-19.640718,46.59153,60.86521,1.142881,1.7659239,-5.305431
61,-5.774643421173096,-6.392205715179443,76.2098388671875,-7.398103353987966,0.5733202720059606,168.76983635101737,-25.143572,22.866434,-16.734568,29.078836,-11.285878,-2.9551833,8.34622,1.2988555,-8.4064665,8.307454,-13.76401,6.8979535,-1.8603197,9.524278,10.752214,-4.149801,17.055017,-37.35605,64.00914,-1.292847,1.2542516,4.877608,-9.191961,-19.769712,46.5088,60.757946,1.2022489,1.7374855,-5.32548
62,-6.038378715515137,-6.704448223114014,76.13955688476562,-7.447447272859953,0.612195507406028,168.56526949764998,-25.297411,23.146702,-16.728693,29.009956,-11.326312,-2.7403018,8.389773,1.0050988,-8.238318,8.403034,-13.862088,7.2526717,-1.9101582,9.468518,10.764513,-4.1412697,17.02235,-37.359276,63.962997,-1.4253255,1.2063024,4.8707204,-9.240589,-19.899626,46.42285,60.65278,1.2841,1.709001,-5.3427815
63,-6.336058616638184,-7.029728412628174,76.07183074951172,-7.501718185023085,0.6506302486684061,168.37732519978348,-25.457516,23.410854,-16.69365,29.000282,-11.379547,-2.5111856,8.45653,0.70970696,-8.085851,8.462681,-13.938954,7.6122456,-1.9616569,9.412052,10.780282,-4.1577015,16.994692,-37.382607,63.9098,-1.5462427,1.1507989,4.861482,-9.279186,-20.029673,46.32691,60.555943,1.3652867,1.6823158,-5.3542814
64,-6.634469509124756,-7.360383033752441,76.002685546875,-7.555054056935019,0.6861960993811937,168.20591514472792,-25.594584,23.651215,-16.624578,29.00788,-11.448019,-2.3009255,8.561872,0.408664,-7.941748,8.46641,-13.986094,7.9746647,-2.0080016,9.349874,10.795267,-4.198688,16.973534,-37.423737,63.855682,-1.6535057,1.1012441,4.845876,-9.297174,-20.159441,46.216488,60.47544,1.4265084,1.6591793,-5.35693
65,-6.9471940994262695,-7.69023323059082,75.9256362915039,-7.6077488646194125,0.7158946779953473,168.05482714870513,-25.719109,23.861141,-16.541737,29.059164,-11.568856,-2.0224357,8.721838,0.102544524,-7.807448,8.3950405,-13.9995365,8.33674,-2.0505905,9.281619,10.807115,-4.262488,16.960121,-37.485813,63.80035,-1.7577441,1.0512674,4.813468,-9.283813,-20.283562,46.076687,60.412617,1.4635444,1.6364801,-5.3446584
66,-7.248021602630615,-8.05052661895752,75.84666442871094,-7.662190478360503,0.7415529786637584,167.92277949407952,-25.839645,24.04697,-16.440601,29.16294,-11.728844,-1.6902022,8.924124,-0.20717248,-7.685891,8.263405,-13.983568,8.700324,-2.0873635,9.210638,10.819448,-4.353081,16.953787,-37.574497,63.73947,-1.8579139,0.99833447,4.769618,-9.2465925,-20.41316,45.917156,60.357082,1.4954724,1.6147883,-5.3202467
67,-7.568068027496338,-8.416756629943848,75.76457977294922,-7.716230619738161,0.7690471365402081,167.80216708130553,-25.92609,24.21942,-16.278673,29.255423,-11.855141,-1.4894197,9.142139,-0.5239303,-7.5720487,8.103636,-13.943883,9.071206,-2.1197345,9.133202,10.83549,-4.467917,16.955639,-37.674934,63.67787,-1.9309748,0.95431674,4.7332344,-9.211822,-20.542118,45.76948,60.323414,1.5198251,1.6001495,-5.2958493
68,-7.9017133712768555,-8.767843246459961,75.68844604492188,-7.767434608858869,0.8038347292656767,167.6854348652919,-25.949203,24.38954,-16.013441,29.274729,-11.873455,-1.6049452,9.347905,-0.8512545,-7.4606314,7.948938,-13.886156,9.455182,-2.1500833,9.046592,10.858021,-4.605906,16.966639,-37.77528,63.62191,-1.9575434,0.9307324,4.7232623,-9.179202,-20.668198,45.63462,60.303818,1.5000112,1.5998952,-5.2831297
69,-8.223511695861816,-9.13929557800293,75.60977172851562,-7.819720437661356,0.8484653710011921,167.5700800651656,-25.895191,24.588766,-15.586088,29.173351,-11.696287,-2.138806,9.54983,-1.1811033,-7.3478293,7.7702303,-13.798308,9.856775,-2.1823022,8.953306,10.887145,-4.7655144,16.988752,-37.87107,63.565308,-1.9381267,0.9354316,4.7569456,-9.156682,-20.789217,45.52465,60.304367,1.3977267,1.6244837,-5.2843795
70,-8.553901672363281,-9.50942325592041,75.5291976928711,-7.872794850143347,0.8999153965078719,167.46032024374148,-25.78227,24.79832,-15.0353565,29.00027,-11.38362,-2.9721532,9.756512,-1.5147204,-7.237053,7.56253,-13.68111,10.271905,-2.2140765,8.852863,10.922236,-4.947367,17.022984,-37.96899,63.505386,-1.8814728,0.96072614,4.820093,-9.159183,-20.90487,45.4559,60.339916,1.2642676,1.6663805,-5.293976
71,-8.878969192504883,-9.89477825164795,75.44898223876953,-7.918060263201222,0.9555757731356953,167.35919921211035,-25.634398,24.952972,-14.465747,28.844389,-11.087076,-3.9600077,9.943799,-1.8687558,-7.13379,7.3887744,-13.556728,10.693514,-2.242535,8.737904,10.96248,-5.148869,17.067812,-38.06774,63.453716,-1.7775192,0.99491274,4.884076,-9.155271,-21.014172,45.38245,60.387688,1.1351699,1.7076966,-5.3114295
72,-9.201593399047852,-10.291987419128418,75.37220764160156,-7.947758432314889,1.0127753418032643,167.26989883971908,-25.478512,24.991373,-13.979932,28.79456,-10.963163,-4.9590497,10.0578,-2.2628582,-7.042311,7.3761225,-13.481742,11.1142845,-2.2612422,8.601867,11.007304,-5.3721538,17.11992,-38.172005,63.42542,-1.6189367,1.0260465,4.920822,-9.123809,-21.11736,45.271362,60.43174,1.0645351,1.7300805,-5.336366
73,-9.544220924377441,-10.708749771118164,75.2903060913086,-7.965480027093927,1.0697202149982925,167.1851246107426,-25.27584,24.902868,-13.599604,28.825886,-11.0803,-6.06459,10.172214,-2.6858597,-6.9616165,7.368995,-13.390279,11.531597,-2.2578285,8.446675,11.054312,-5.621924,17.176693,-38.291813,63.429142,-1.3413272,1.0589356,4.9213233,-9.090283,-21.216646,45.154984,60.494926,1.133034,1.7251531,-5.3716483
74,-9.88715934753418,-11.140643119812012,75.21119689941406,-7.973150570239003,1.1292348292875405,167.1066250778819,-25.040878,24.716627,-13.268636,28.924143,-11.3606,-7.3083506,10.283855,-3.133182,-6.8907685,7.364704,-13.279233,11.949497,-2.243269,8.275307,11.101895,-5.8951225,17.23707,-38.419647,63.458702,-0.9697087,1.0969843,4.90094,-9.023736,-21.310839,44.9984,60.554173,1.2447306,1.7051369,-5.416152
75,-10.227213859558105,-11.571414947509766,75.14740753173828,-7.959286369734777,1.1951742479145588,167.05103797011242,-24.876043,24.433456,-12.973644,29.184034,-11.737627,-8.454286,10.332174,-3.6216218,-6.834285,7.4863486,-13.176056,12.369479,-2.2230704,8.081018,11.157175,-6.2007957,17.3,-38.552937,63.51157,-0.63056695,1.1255983,4.8701315,-8.962973,-21.402824,44.846573,60.62731,1.4044702,1.6765366,-5.46491
76,-10.564319610595703,-12.019203186035156,75.0951919555664,-7.911871225711267,1.2706772766206165,167.03441643586768,-24.872873,24.054508,-12.705417,29.684534,-12.134535,-9.267897,10.276211,-4.1666775,-6.7977285,7.820604,-13.089664,12.79518,-2.213119,7.8574023,11.225563,-6.5391865,17.364388,-38.679222,63.582485,-0.44992775,1.1303679,4.838706,-8.888477,-21.49368,44.67334,60.689552,1.5299561,1.6485647,-5.5124354
77,-10.903386116027832,-12.473787307739258,75.05467224121094,-7.81801379467005,1.3575908851971237,167.06067986676263,-25.10157,23.5538,-12.477546,30.540325,-12.557229,-9.617743,10.134273,-4.780133,-6.7913527,8.330532,-12.997511,13.23311,-2.2117205,7.588712,11.313682,-6.926692,17.431896,-38.813923,63.68241,-0.49775773,1.098799,4.804891,-8.799994,-21.584341,44.47534,60.734203,1.611129,1.6170571,-5.560208
78,-11.240337371826172,-12.939018249511719,75.02213287353516,-7.68384351427237,1.4534520938886863,167.12017875828883,-25.48942,22.93538,-12.286662,31.663267,-13.029589,-9.655482,9.923017,-5.4547157,-6.8047643,8.98302,-12.900241,13.6803255,-2.2128925,7.2799106,11.416121,-7.3545046,17.502575,-38.95406,63.8074,-0.6930518,1.041809,4.764426,-8.687534,-21.675035,44.242348,60.759995,1.6614984,1.5801893,-5.6097727
79,-11.577482223510742,-13.428403854370117,74.99695587158203,-7.525795808975677,1.5545438174627084,167.20847004268145,-25.912172,22.248146,-12.103097,32.830734,-13.494295,-9.571616,9.641113,-6.172322,-6.8122134,9.782067,-12.795074,14.124982,-2.2136421,6.955573,11.52386,-7.80078,17.572058,-39.07836,63.93801,-0.94437116,0.9796873,4.7249727,-8.585911,-21.768042,44.02478,60.79753,1.7407495,1.5478525,-5.6565747
80,-11.910588264465332,-13.908531188964844,74.97920227050781,-7.35939630279545,1.6576311273116195,167.3206386265967,-26.24857,21.543367,-11.897945,33.825592,-13.898861,-9.553905,9.288559,-6.9150724,-6.7884026,10.72877,-12.6783495,14.556665,-2.2270648,6.640393,11.621046,-8.22836,17.633286,-39.145374,64.05363,-1.1530306,0.93265516,4.6935463,-8.431157,-21.861319,43.74978,60.80903,1.7580435,1.533747,-5.6952963
81,-12.257381439208984,-14.400282859802246,74.9731674194336,-7.177705874751028,1.760791246336393,167.47152881666105,-26.475918,20.814264,-11.670654,34.60418,-14.218719,-9.637123,8.871206,-7.692097,-6.7425957,11.828053,-12.552525,15.000033,-2.2535806,6.3300123,11.715733,-8.652799,17.680382,-39.14509,64.17389,-1.3234034,0.89510363,4.684398,-8.236986,-21.954544,43.425858,60.809193,1.7445084,1.54738,-5.7375593
82,-12.600069046020508,-14.895476341247559,74.97074890136719,-7.042388161504225,1.876407090106019,167.63023792348224,-26.68715,20.131807,-11.471772,35.292526,-14.493124,-9.750008,8.431839,-8.353998,-6.6289887,12.918777,-12.334661,15.000033,-2.2635686,6.076629,11.797219,-9.084882,17.71206,-39.094856,64.30787,-1.4942049,0.86065763,4.689932,-8.006717,-22.047262,43.056736,60.796883,1.6987056,1.5806658,-5.7815046
83,-12.941961288452148,-15.41929817199707,74.96894836425781,-6.894311438111473,1.9982328060070804,167.79020850422398,-26.850359,19.434427,-11.249074,35.890102,-14.74578,-9.85213,7.9134355,-9.0437,-6.4814973,14.155343,-12.106167,15.000033,-2.2659485,5.8269157,11.855129,-9.506315,17.72863,-39.025166,64.433334,-1.6318526,0.84247214,4.686305,-7.77387,-22.141203,42.70331,60.788223,1.6585413,1.6160417,-5.802947
84,-13.305737495422363,-15.962019920349121,74.96807098388672,-6.724537940327127,2.129233950431787,167.92282460887023,-26.960817,18.72907,-10.977879,36.40781,-15.007589,-9.923743,7.279742,-9.777191,-6.266661,15.580449,-11.885413,15.000033,-2.2546153,5.5717278,11.868497,-9.888153,17.731525,-38.95228,64.5209,-1.6929876,0.854817,4.648997,-7.544387,-22.237585,42.39389,60.780033,1.6202655,1.6370469,-5.777352
85,-13.68303108215332,-16.499774932861328,74.97753143310547,-6.523833384555986,2.2705230256161166,168.01459963757492,-26.998375,18.014582,-10.640227,36.823486,-15.279539,-9.982155,6.5465646,-10.560945,-5.9416933,17.1395,-11.652268,15.000033,-2.2223945,5.3019385,11.828347,-10.217722,17.721312,-38.85909,64.55734,-1.6504261,0.9213782,4.56,-7.3273163,-22.335,42.133453,60.785088,1.6047935,1.6411849,-5.6746674
86,-14.069190979003906,-17.036556243896484,74.99694061279297,-6.290485754424428,2.421487993576878,168.08232605324835,-26.967422,17.281593,-10.247269,37.135735,-15.545591,-10.027992,5.723003,-11.391279,-5.524101,18.820183,-11.398157,15.000033,-2.1735759,5.0169096,11.746978,-10.510637,17.697447,-38.741627,64.557655,-1.5300485,1.0277247,4.4355893,-7.0986032,-22.441732,41.890533,60.780743,1.5908033,1.6377563,-5.5148425
87,-14.449128150939941,-17.575393676757812,75.02639770507812,-6.027757637092105,2.583405071479158,168.13959985449503,-26.89492,16.526567,-9.813399,37.372272,-15.802711,-10.018178,4.795065,-12.265717,-5.065968,20.653044,-11.114779,15.000033,-2.129995,4.7056766,11.626888,-10.7709255,17.677309,-38.637245,64.53363,-1.3810595,1.1315429,4.3034706,-6.917634,-22.508831,41.73574,60.831787,1.5860826,1.6208884,-5.35624
88,-14.843949317932129,-18.121471405029297,75.06551361083984,-5.73979342134946,2.757140238009426,168.20021149518013,-26.810513,15.745805,-9.353191,37.560303,-16.0483,-9.909536,3.755954,-13.181049,-4.616687,22.655401,-10.786945,15.000033,-2.0733955,4.3888526,11.490593,-11.04708,17.639051,-38.61017,64.513626,-1.2472541,1.1886451,4.1913395,-6.708156,-22.628578,41.633495,60.808285,1.5570072,1.5959728,-5.241791
89,-15.234346389770508,-18.669635772705078,75.1092529296875,-5.412270514288555,2.9561507980291326,168.26204013972335,-26.727898,14.922381,-8.851189,37.696297,-16.282644,-9.674776,2.5660782,-14.156391,-4.1446805,24.876566,-10.438635,15.000033,-2.0196562,4.040136,11.311739,-11.315424,17.601358,-38.665356,64.49036,-1.1364383,1.1846998,4.1120014,-6.526311,-22.743952,41.66378,60.7993,1.5248361,1.5465438,-5.19597
90,-15.627440452575684,-19.214492797851562,75.1591567993164,-5.043852018275805,3.1751960600193745,168.3205529811211,-26.627596,14.057506,-8.304425,37.758453,-16.501642,-9.341852,1.2608887,-15.182063,-3.6132493,27.239758,-10.03889,15.000033,-1.9638106,3.6574104,11.094078,-11.568486,17.566631,-38.77837,64.45168,-1.0262948,1.1444296,4.0480943,-6.376961,-22.850449,41.809494,60.81238,1.5037761,1.4768234,-5.189425
91,-16.02254295349121,-19.755409240722656,75.2200698852539,-4.710640203626946,3.3918630312408893,168.3739615272268,-26.516468,13.235328,-7.7816257,37.777008,-16.712383,-8.96749,-0.08635583,-16.128891,-3.0914218,29.622074,-9.515748,14.74878,-1.911754,3.3125408,10.870685,-11.806983,17.53509,-38.92327,64.39282,-0.92262,1.0846575,3.9844987,-6.2375493,-22.953115,41.988617,60.808666,1.4458559,1.4109783,-5.2036676
92,-16.4093074798584,-20.28118324279785,75.28567504882812,-4.483257084180547,3.582818866029167,168.42168706190748,-26.399452,12.532784,-7.346444,37.78959,-16.925629,-8.605517,-1.4127635,-16.899815,-2.6859586,31.939823,-8.821596,14.039555,-1.8696039,3.065209,10.673427,-12.027753,17.51766,-39.07578,64.30371,-0.8323108,1.0236915,3.905377,-6.117448,-23.026627,42.140484,60.791527,1.3219844,1.3704323,-5.22301
93,-16.782310485839844,-20.805206298828125,75.35502624511719,-4.2732084205801035,3.7403163669836066,168.49035572446513,-26.235239,11.841926,-6.9465246,37.748844,-17.113882,-8.227662,-2.7370834,-17.656652,-2.365977,34.28071,-7.957669,13.361604,-1.8635834,2.8333385,10.51152,-12.228944,17.512623,-39.227627,64.180275,-0.7447747,0.954681,3.8048344,-6.009171,-23.075035,42.26071,60.739605,1.0622438,1.3785207,-5.2549953
94,-17.155988693237305,-21.320180892944336,75.43383026123047,-4.07892198154398,3.8765979369305765,168.57260331629033,-26.03533,11.162578,-6.5723205,37.655735,-17.281635,-7.8183975,-4.0903153,-18.408121,-2.1111124,36.677406,-6.9615808,12.644861,-1.8777728,2.6194866,10.36895,-12.416376,17.516611,-39.404438,64.02777,-0.66808826,0.8720564,3.6924367,-5.9083896,-23.116564,42.381264,60.651306,0.71403563,1.4185106,-5.3034463
95,-17.538578033447266,-21.818330764770508,75.52033233642578,-3.8982843383992325,3.9809499077752344,168.66693032732462,-25.786308,10.494345,-6.2232847,37.517967,-17.43432,-7.385338,-5.458404,-19.157986,-1.9292212,39.122784,-5.9288454,11.803547,-1.9211693,2.4222827,10.253586,-12.587298,17.529242,-39.587708,63.852806,-0.60621226,0.79467744,3.572212,-5.8192697,-23.14226,42.475254,60.552307,0.38249353,1.4524148,-5.3459873
96,-17.90981674194336,-22.31447410583496,75.60710906982422,-3.728303414017273,4.04330896300274,168.771101343183,-25.474216,9.836689,-5.8980203,37.341644,-17.57604,-6.9362717,-6.8265915,-19.913359,-1.8292031,41.60853,-4.9562263,10.75051,-1.9694563,2.2348742,10.169692,-12.751226,17.565655,-39.82397,63.65742,-0.6014522,0.74055934,3.4520204,-5.707225,-23.168884,42.495426,60.42621,0.18787012,1.4440737,-5.362189
97,-18.282798767089844,-22.80290412902832,75.69309997558594,-3.5669900633689013,4.054949787370857,168.8884732030156,-25.085434,9.183527,-5.5977826,37.12246,-17.708546,-6.4599934,-8.206256,-20.740528,-1.8812319,44.197433,-4.022715,9.3890295,-2.060506,2.061959,10.129256,-12.896318,17.609903,-40.052402,63.433678,-0.63477504,0.7301158,3.3241208,-5.615857,-23.175993,42.45743,60.312336,0.17160676,1.3699535,-5.3344774
98,-18.66177749633789,-23.286252975463867,75.7855224609375,-3.413087322304546,4.022860017066923,169.01959868674132,-24.627699,8.532298,-5.3222127,36.85568,-17.8274,-5.955767,-9.600985,-21.649338,-2.0668364,46.87781,-3.1123886,7.7552423,-2.1587644,1.89178,10.126247,-13.028967,17.686974,-40.329773,63.16457,-0.7205837,0.7513136,3.1883774,-5.5098476,-23.166986,42.331192,60.177017,0.25553727,1.2539008,-5.277903
99,-19.03571128845215,-23.74736976623535,75.88259887695312,-3.2680626522755034,3.959821718771441,169.15902494512974,-24.11998,7.8908496,-5.0705013,36.55117,-17.93067,-5.447381,-10.979354,-22.546839,-2.2600133,49.527054,-2.3214111,5.984526,-2.2691019,1.7221491,10.150531,-13.140391,17.80956,-40.637177,62.86601,-0.8313638,0.76879275,3.052831,-5.416253,-23.133644,42.17176,60.049297,0.40766752,1.1259153,-5.2187195
100,-19.41219139099121,-24.2059326171875,75.98539733886719,-3.138016656444401,3.879314466073748,169.3003929361111,-23.585093,7.2721133,-4.843629,36.223324,-18.018557,-4.9596024,-12.31302,-23.306522,-2.3290706,52.028183,-1.7316992,4.245448,-2.4019668,1.5657408,10.182286,-13.236096,17.949932,-40.948425,62.592594,-0.9330689,0.74754417,2.9297166,-5.343175,-23.079538,42.027637,59.946407,0.5814518,1.0178276,-5.183923
101,-19.78721809387207,-24.655336380004883,76.08641052246094,-3.0275102741506243,3.7773496924519385,169.43478241537872,-23.02061,6.684388,-4.6391954,35.87867,-18.091867,-4.497112,-13.618697,-23.95296,-2.3371143,54.44336,-1.3475938,2.416926,-2.5401225,1.4252368,10.224041,-13.323537,18.110298,-41.29148,62.349346,-1.0421877,0.669456,2.826121,-5.2864113,-23.00465,41.88734,59.86543,0.79780585,0.9352601,-5.17949
102,-20.163705825805664,-25.097593307495117,76.18793487548828,-2.935114559837814,3.64959029469195,169.56768822923542,-22.418528,6.1218443,-4.4591475,35.511093,-18.150763,-4.04741,-14.903522,-24.51708,-2.3187952,56.813454,-1.1319083,0.48368227,-2.6879954,1.2994602,10.281958,-13.400987,18.291368,-41.662643,62.11978,-1.1638064,0.55583906,2.7349868,-5.246995,-22.908901,41.740925,59.802483,1.0751147,0.86241966,-5.1915503
103,-20.538013458251953,-25.519311904907227,76.28733825683594,-2.861344467624407,3.510324879631512,169.71078447467252,-21.799335,5.582577,-4.3104076,35.12424,-18.198397,-3.6107674,-16.129078,-24.826714,-2.0960932,58.994328,-1.0720015,-1.1823112,-2.84917,1.1878766,10.345586,-13.473926,18.489902,-42.043396,61.912815,-1.2736571,0.43046796,2.646422,-5.2146335,-22.794147,41.588867,59.75592,1.3464472,0.7969451,-5.216142
104,-20.915203094482422,-25.935039520263672,76.38723754882812,-2.808784293044392,3.374334548507106,169.8752492516532,-21.18418,5.0676494,-4.2001166,34.723103,-18.23812,-3.1880581,-17.25817,-24.68831,-1.4933277,60.850166,-1.1423863,-2.1857128,-3.0268133,1.0927291,10.403619,-13.548755,18.69984,-42.41328,61.740253,-1.3447576,0.316848,2.5509887,-5.1820407,-22.663944,41.436478,59.726334,1.5505894,0.7363442,-5.2494297
105,-21.293176651000977,-26.340946197509766,76.48887634277344,-2.788047251742778,3.2434064209867888,170.05826322282329,-20.582361,4.592071,-4.1292567,34.3222,-18.278244,-2.7826598,-18.252653,-23.887632,-0.3299651,62.327236,-1.4124242,-2.22005,-3.220184,1.0261954,10.453707,-13.633245,18.918335,-42.783768,61.612553,-1.3815211,0.20913921,2.445893,-5.1454997,-22.51971,41.27946,59.710308,1.6656499,0.67847824,-5.291913
106,-21.66025161743164,-26.733461380004883,76.5806884765625,-2.7964047291378566,3.1096058766970494,170.2556429113933,-19.981691,4.153905,-4.0932183,33.918686,-18.316444,-2.3927839,-19.112183,-22.543242,1.2257482,63.52581,-1.8872254,-1.5233113,-3.4263906,0.9861577,10.502527,-13.725709,19.144112,-43.161114,61.526436,-1.3933574,0.098400764,2.3369713,-5.1115336,-22.362564,41.121662,59.709297,1.7332215,0.6251507,-5.345209
107,-22.023273468017578,-27.10610008239746,76.6733627319336,-2.8162563174546436,2.973555459997712,170.47684862511525,-19.376316,3.7264972,-4.0927243,33.501972,-18.346008,-2.0116084,-19.867413,-20.972813,2.8272064,64.54454,-2.4435408,-0.53456277,-3.6481707,0.95388603,10.551513,-13.817292,19.372402,-43.51595,61.47411,-1.362908,0.0028345408,2.2279494,-5.069256,-22.194975,40.95711,59.716347,1.7594202,0.5811331,-5.406673
108,-22.38675880432129,-27.472745895385742,76.76492309570312,-2.831341688319448,2.8376073826272212,170.72898505634484,-18.7634,3.2861686,-4.128517,33.06291,-18.361122,-1.6330268,-20.580313,-19.496077,4.1617265,65.46096,-2.9136844,0.30804935,-3.8856077,0.9132117,10.60005,-13.904084,19.596895,-43.82554,61.452354,-1.2794671,-0.05978056,2.1228454,-5.014566,-22.020748,40.79086,59.727623,1.7628711,0.55124557,-5.473518
109,-22.75004005432129,-27.839418411254883,76.8520278930664,-2.8439207870769874,2.7015836654975542,171.01575311739808,-18.139488,2.8344278,-4.205097,32.59553,-18.360043,-1.2557801,-21.265423,-18.104408,5.24898,66.26032,-3.2312074,1.0101153,-4.1439066,0.8683156,10.647775,-13.983404,19.813028,-44.08397,61.468086,-1.1026522,-0.08451008,2.0132298,-4.9413424,-21.841667,40.610607,59.73615,1.7197216,0.54421204,-5.5485916
110,-23.11469078063965,-28.193674087524414,76.93932342529297,-2.8593958984017007,2.564616408384902,171.33309388126153,-17.506355,2.3807352,-4.3200703,32.106277,-18.345957,-0.8821457,-21.899351,-16.674376,6.2334986,66.906006,-3.4912066,1.7571083,-4.4201317,0.8250407,10.694419,-14.062468,20.019001,-44.30573,61.527912,-0.8511632,-0.08179796,1.900655,-4.854449,-21.659328,40.422077,59.745724,1.635151,0.555202,-5.6319804
111,-23.483081817626953,-28.542665481567383,77.02336120605469,-2.868197642383443,2.4299747544737653,171.67364885248335,-16.871038,1.9171627,-4.4643645,31.603403,-18.319536,-0.51301277,-22.515879,-15.343528,7.017184,67.431335,-3.722299,2.386796,-4.7012997,0.7727088,10.737454,-14.143855,20.211786,-44.485245,61.622696,-0.5905935,-0.056307495,1.8032908,-4.749892,-21.47606,40.237583,59.755096,1.5496331,0.56967705,-5.716479
112,-23.853628158569336,-28.88617515563965,77.09929656982422,-2.8618227529973423,2.3018818994974577,172.02925519212147,-16.23866,1.4368633,-4.6285577,31.090115,-18.278917,-0.15016878,-23.154243,-14.248521,7.503642,67.869385,-3.9421506,2.7346785,-4.9736247,0.70178694,10.773676,-14.233966,20.388338,-44.622902,61.745937,-0.39320537,-0.012759726,1.7396004,-4.6307535,-21.295324,40.079807,59.767887,1.5144184,0.57250375,-5.7950945
113,-24.217016220092773,-29.222396850585938,77.17365264892578,-2.8376288245879464,2.1803768658412075,172.39733746168062,-15.607719,0.9364671,-4.812259,30.562372,-18.220358,0.2062558,-23.841585,-13.466851,7.6205797,68.23555,-4.1243453,2.6869156,-5.2343187,0.6095225,10.802237,-14.335142,20.545073,-44.713734,61.910095,-0.2792377,0.05836742,1.7223747,-4.4869175,-21.117725,39.943874,59.776207,1.5459404,0.5563003,-5.8757987
114,-24.583120346069336,-29.559267044067383,77.24446105957031,-2.801191006197215,2.064556057078017,172.7815332764295,-14.97698,0.4220175,-5.0206304,30.02132,-18.147194,0.5562559,-24.560408,-12.916373,7.4437704,68.50456,-4.2576323,2.3491344,-5.4884276,0.5025897,10.823329,-14.446053,20.679913,-44.759735,62.118927,-0.20853622,0.15600811,1.7392832,-4.325721,-20.944706,39.829865,59.785255,1.6260114,0.52987677,-5.959013
115,-24.94626808166504,-29.8787841796875,77.30884552001953,-2.755329022937458,1.9563155963043624,173.18334936897557,-14.350003,-0.10055717,-5.251642,29.471903,-18.063597,0.8990621,-25.28026,-12.49978,7.095843,68.64906,-4.3802004,1.8845613,-5.737846,0.38774624,10.835915,-14.562443,20.793282,-44.76436,62.34815,-0.1591262,0.26012948,1.7711983,-4.147685,-20.778091,39.733295,59.7924,1.7150991,0.50424427,-6.0255675
116,-25.312788009643555,-30.201879501342773,77.36711120605469,-2.7027651730830904,1.8574782955807412,173.6043778877351,-13.73355,-0.62572736,-5.503165,28.925703,-17.97747,1.234089,-25.973576,-12.117796,6.701356,68.64641,-4.53202,1.4606413,-5.9841914,0.27066326,10.839792,-14.67735,20.887203,-44.72843,62.56998,-0.1059612,0.35106498,1.7988694,-3.9579697,-20.620928,39.6553,59.797997,1.7802252,0.49052432,-6.0563035
117,-25.683910369873047,-30.515867233276367,77.41790008544922,-2.6423172921538987,1.766517087006145,174.04577669208305,-13.123288,-1.1542078,-5.774105,28.378235,-17.885439,1.5586548,-26.629599,-11.803435,6.2187033,68.48254,-4.723888,1.1044757,-6.230771,0.15166755,10.836169,-14.785539,20.962643,-44.64023,62.78281,-0.04387772,0.424802,1.8177295,-3.759017,-20.476784,39.598656,59.801003,1.8278531,0.49346694,-6.034139
118,-26.03946304321289,-30.838281631469727,77.46051788330078,-2.574165490709753,1.6829790888690825,174.50653202493746,-12.518868,-1.6866934,-6.0665827,27.82992,-17.785692,1.873762,-27.25814,-11.586984,5.604907,68.16999,-4.9374456,0.7368984,-6.476427,0.029878257,10.825679,-14.890146,21.020042,-44.501892,62.995842,0.014426204,0.49237615,1.8376704,-3.5437045,-20.347042,39.558758,59.795708,1.8674848,0.50705224,-5.9728518
119,-26.405838012695312,-31.144380569458008,77.50008392333984,-2.502545210431601,1.6104513151213593,174.98458737682412,-11.9234705,-2.2179508,-6.3823695,27.2789,-17.683765,2.1852846,-27.864008,-11.35906,4.982216,67.72075,-5.1603656,0.3648083,-6.714106,-0.09215644,10.807765,-14.999091,21.061167,-44.33605,63.201206,0.067384996,0.55311185,1.8611678,-3.3118083,-20.231161,39.537987,59.78271,1.884807,0.5255763,-5.8998632
120,-26.773183822631836,-31.44318389892578,77.53500366210938,-2.4313000232577062,1.5528232310145234,175.4779168857844,-11.346058,-2.7433972,-6.7224817,26.735346,-17.58678,2.499228,-28.457737,-11.013996,4.475241,67.146645,-5.37765,-0.007361891,-6.9260135,-0.2040598,10.785879,-15.133861,21.079163,-44.184002,63.39318,0.10316087,0.60909814,1.8916844,-3.0341086,-20.16096,39.524025,59.718773,1.8678344,0.5459148,-5.839071
121,-27.129051208496094,-31.745655059814453,77.56251525878906,-2.3626640436022806,1.5135720967324713,175.9887213986738,-10.793044,-3.2621918,-7.0913844,26.200817,-17.495052,2.8171215,-29.051262,-10.532638,4.096333,66.44973,-5.6022773,-0.42350215,-7.1388,-0.3204612,10.747305,-15.272688,21.098806,-44.019817,63.563774,0.13083158,0.6674533,1.9246163,-2.7796633,-20.056683,39.55904,59.708813,1.7903183,0.56280637,-5.80691
122,-27.502241134643555,-32.03085708618164,77.5858383178711,-2.2936123743095367,1.4899547378845568,176.51729489718696,-10.259625,-3.77682,-7.4865007,25.674461,-17.406593,3.1359918,-29.637821,-9.970016,3.7882109,65.6223,-5.8350277,-0.87110984,-7.333648,-0.43531552,10.699673,-15.425129,21.108017,-43.851364,63.718147,0.15054268,0.7260139,1.9611231,-2.5022523,-19.966764,39.61226,59.686493,1.6682621,0.58191943,-5.783418
123,-27.871994018554688,-32.31131362915039,77.60347747802734,-2.217253423717138,1.4753736952120506,177.05838953911186,-9.730599,-4.2899294,-7.897088,25.147106,-17.318527,3.4554336,-30.201124,-9.331482,3.571869,64.66172,-6.0397177,-1.2663797,-7.5126076,-0.55418104,10.648273,-15.582522,21.108925,-43.68139,63.846214,0.14894873,0.7712576,2.0063431,-2.2029572,-19.890413,39.671505,59.64963,1.5347697,0.6000816,-5.7608504
124,-28.231382369995117,-32.59068298339844,77.61229705810547,-2.1263617096180534,1.4628140864381947,177.60696205418535,-9.192537,-4.80486,-8.312842,24.613811,-17.229774,3.7748888,-30.723286,-8.625935,3.4683886,63.563103,-6.179671,-1.5260495,-7.679679,-0.68796426,10.5940075,-15.728161,21.103628,-43.501244,63.935356,0.12587608,0.79356396,2.0657954,-1.8995867,-19.809683,39.734856,59.624336,1.4286896,0.61228794,-5.7338414
125,-28.583824157714844,-32.87423324584961,77.61385345458984,-2.0172060680532824,1.448739365825262,178.15954397708626,-8.637637,-5.321565,-8.725476,24.070274,-17.141134,4.0974193,-31.195648,-7.8290954,3.5142279,62.30852,-6.265026,-1.6136633,-7.822319,-0.8392149,10.538209,-15.864956,21.093634,-43.317543,63.982758,0.059969645,0.78217787,2.1502488,-1.5691307,-19.734348,39.78206,59.589027,1.3495497,0.61182475,-5.695017
126,-28.93570327758789,-33.161808013916016,77.60636901855469,-1.8931488825616118,1.4365731723559358,178.7199731797176,-8.07379,-5.839956,-9.14263,23.520601,-17.052994,4.422457,-31.62485,-6.951632,3.690544,60.90151,-6.3062572,-1.5837312,-7.9446793,-1.0046241,10.479729,-15.996188,21.080101,-43.12821,63.991894,-0.038947206,0.74560523,2.2534206,-1.2166674,-19.66615,39.824677,59.54547,1.2827882,0.6028119,-5.6495614
127,-29.314300537109375,-33.42087936401367,77.59751892089844,-1.757985449522222,1.4304642393429128,179.2940798211367,-7.5097313,-6.3619356,-9.578057,22.966558,-16.960838,4.7446837,-32.018555,-6.052342,3.93414,59.373158,-6.2695265,-1.4874916,-8.056189,-1.1787564,10.424156,-16.121943,21.065222,-42.943615,63.956112,-0.1423334,0.70068806,2.355265,-0.8513512,-19.610653,39.866367,59.487972,1.2285957,0.5995831,-5.6058846
128,-29.72050666809082,-33.653656005859375,77.59722900390625,-1.6157675899808135,1.434362732775419,179.887645609498,-6.9554744,-6.8892426,-10.045332,22.41217,-16.861168,5.059127,-32.385273,-5.1869783,4.1807165,57.75404,-6.1204786,-1.3736819,-8.178259,-1.358147,10.37107,-16.2389,21.045006,-42.75918,63.880524,-0.21568961,0.66380054,2.436239,-0.5060704,-19.54726,39.929344,59.44572,1.1894734,0.6150333,-5.5756373
129,-30.09231948852539,-33.910518646240234,77.58184051513672,-1.4659931141613216,1.452585532477057,-179.49121211044744,-6.420641,-7.4260807,-10.557906,21.860022,-16.752275,5.366576,-32.726807,-4.3507004,4.443686,56.025753,-5.8513594,-1.2494361,-8.292243,-1.5407351,10.330032,-16.362173,21.030804,-42.608368,63.739395,-0.2481425,0.64164436,2.488249,-0.14423904,-19.509512,39.97396,59.364197,1.1681595,0.6628722,-5.5615926
130,-30.46465301513672,-34.167415618896484,77.56302642822266,-1.3064248665032336,1.4811712673935284,-178.84723514625085,-5.89884,-7.9705367,-11.105571,21.310764,-16.63541,5.6700745,-33.03638,-3.522447,4.749157,54.179108,-5.478109,-1.0915604,-8.441737,-1.7328029,10.282989,-16.46862,21.001595,-42.419052,63.570705,-0.23255596,0.61919385,2.5234218,0.16373374,-19.434303,40.067497,59.34836,1.1701624,0.72908413,-5.566512
131,-30.82921600341797,-34.4305534362793,77.53186798095703,-1.1389139605858272,1.5128529666254642,-178.1946965405281,-5.3693132,-8.512013,-11.667079,20.750376,-16.51109,5.9676905,-33.308506,-2.7298043,5.0506377,52.250526,-5.0053725,-0.89975697,-8.570643,-1.9330945,10.240107,-16.57074,20.971062,-42.259064,63.36821,-0.23342645,0.5994575,2.5502012,0.47693783,-19.36226,40.16307,59.326706,1.176089,0.7971796,-5.5716076
132,-31.19875144958496,-34.68474197387695,77.49823760986328,-0.9665767676681827,1.5400615426313482,-177.54779158847072,-4.8222094,-9.042079,-12.219906,20.187841,-16.383644,6.2563562,-33.540493,-1.9969722,5.300127,50.27885,-4.4371443,-0.67204297,-8.675227,-2.1359706,10.205992,-16.64942,20.94415,-42.117943,63.131653,-0.28460613,0.5801043,2.5759795,0.8030005,-19.311659,40.272945,59.27968,1.1715192,0.84991413,-5.562677
133,-31.572729110717773,-34.939579010009766,77.46346282958984,-0.7880498324418158,1.5622574186377471,-176.90741201443444,-4.25184,-9.559008,-12.761584,19.614319,-16.249374,6.5361166,-33.73492,-1.3039638,5.542715,48.247807,-3.7037716,-0.38667706,-8.776582,-2.345723,10.169802,-16.699867,20.900318,-41.962917,62.885773,-0.40940937,0.5635016,2.6110964,1.0975325,-19.244383,40.454258,59.273457,1.1760854,0.8760255,-5.5479856
134,-31.96761703491211,-35.19907760620117,77.42740631103516,-0.602233199437929,1.5821458301528488,-176.26650835239,-3.6658523,-10.067962,-13.30357,19.032894,-16.108976,6.8072667,-33.889664,-0.64364403,5.78606,46.140476,-2.8243628,-0.04904505,-8.856134,-2.5622942,10.140495,-16.733332,20.851492,-41.81909,62.607483,-0.58447415,0.55090815,2.647791,1.3976971,-19.185429,40.656097,59.258984,1.1804163,0.88812804,-5.527646
135,-32.35717010498047,-35.45731735229492,77.38722229003906,-0.41252221663318756,1.5984965193840546,-175.6276340193925,-3.0627046,-10.567217,-13.844738,18.446655,-15.966526,7.0694194,-33.995293,-0.057850584,5.9237676,43.9908,-1.9328722,0.30304977,-8.930003,-2.7792935,10.112639,-16.749695,20.796211,-41.695114,62.323097,-0.76346475,0.528524,2.6720734,1.6867003,-19.131897,40.87553,59.25044,1.1740912,0.8977914,-5.495079
136,-32.75165939331055,-35.715492248535156,77.33708953857422,-0.220432093776329,1.609840864535707,-174.9933326194309,-2.4414752,-11.056873,-14.383591,17.859232,-15.826674,7.32242,-34.046513,0.41178563,5.8484945,41.835907,-1.1645129,0.631862,-9.002983,-2.9937162,10.082666,-16.744032,20.737543,-41.600445,62.042347,-0.8895027,0.4892157,2.669333,1.9612141,-19.086754,41.089966,59.24951,1.1383059,0.91653377,-5.442059
137,-33.14591979980469,-35.9793815612793,77.27916717529297,-0.02415070336198013,1.6113455314977747,-174.35668374271842,-1.7834201,-11.536152,-14.92894,17.243093,-15.678137,7.560335,-34.039604,0.768837,5.5824704,39.675102,-0.5622302,0.9315172,-9.084081,-3.2066348,10.051887,-16.717299,20.669304,-41.53744,61.7695,-0.9456118,0.42384964,2.6300986,2.21654,-19.044348,41.305084,59.26567,1.0588887,0.9497373,-5.3602476
138,-33.56468963623047,-36.23866271972656,77.22201538085938,0.17668857454665385,1.6044037470140742,-173.7181420014829,-1.0960737,-12.005915,-15.479587,16.608456,-15.521838,7.7857704,-33.976547,1.0362113,5.163524,37.485626,-0.047117326,1.2238696,-9.154434,-3.4224257,10.03231,-16.664902,20.62031,-41.517365,61.462193,-0.971047,0.34223646,2.561408,2.4739733,-19.021881,41.504772,59.26434,0.94239944,0.9908615,-5.2523437
139,-33.98680114746094,-36.502235412597656,77.15258026123047,0.3763377490021892,1.5975405536478124,-173.09115226471548,-0.4073795,-12.463632,-16.02173,15.994413,-15.377753,8.0105295,-33.8579,1.2064599,4.5038214,35.267662,0.43217346,1.5149789,-9.236711,-3.6293886,9.997811,-16.597775,20.539864,-41.50095,61.200745,-0.9659594,0.25077727,2.483305,2.695371,-18.99374,41.73564,59.29897,0.8313602,1.0317087,-5.141264
140,-34.416603088378906,-36.77997589111328,77.07984924316406,0.5704650097845151,1.5994146545311703,-172.4890423366962,0.25256315,-12.909311,-16.540203,15.444319,-15.266532,8.246135,-33.684467,1.2767417,3.5153546,33.02651,0.92466533,1.8131442,-9.290981,-3.8252754,9.95517,-16.53007,20.45211,-41.525013,60.97534,-0.9650173,0.16313767,2.408639,2.906183,-18.974705,41.947388,59.328796,0.742311,1.0653186,-5.037537
141,-34.86240768432617,-37.06200408935547,77.00233459472656,0.763135346842651,1.616313705519929,-171.91758916513444,0.8909321,-13.342918,-17.028507,14.927909,-15.173329,8.488113,-33.4545,1.2301157,2.121405,30.747612,1.455322,2.1436145,-9.318761,-4.011207,9.89762,-16.448751,20.357218,-41.568935,60.77446,-0.98633873,0.07832344,2.3440754,3.1054113,-18.96774,42.148926,59.351856,0.687218,1.0869315,-4.939714
142,-35.305423736572266,-37.340797424316406,76.91527557373047,0.9573000654860835,1.6404351926718472,-171.3662514458898,1.5239011,-13.767054,-17.498367,14.430202,-15.091157,8.732084,-33.153282,1.0942562,0.38254803,28.424515,2.0012143,2.5048704,-9.330236,-4.1904716,9.831243,-16.356058,20.254253,-41.639313,60.596226,-1.0183097,-0.0087227635,2.2807064,3.290592,-18.973747,42.347805,59.37277,0.6543223,1.1015401,-4.8415556
143,-35.74956512451172,-37.62337112426758,76.8167724609375,1.1471577556342702,1.659551012468911,-170.8239718818235,2.1351187,-14.188544,-17.960394,14.018152,-15.052774,8.989487,-32.764225,0.9335074,-1.582753,26.07334,2.5400672,2.8633895,-9.339901,-4.361897,9.768552,-16.261463,20.144888,-41.746727,60.459267,-1.015457,-0.09201189,2.2097673,3.4634929,-18.990845,42.536404,59.38736,0.6252735,1.1178161,-4.7524524
144,-36.195533752441406,-37.90679168701172,76.70616912841797,1.3271279675698417,1.6614989697674507,-170.2800352186981,2.7104135,-14.615001,-18.425278,13.753325,-15.087651,9.271818,-32.276863,0.8055052,-3.653962,23.712872,3.046424,3.1832714,-9.3613,-4.525548,9.721378,-16.178268,20.033234,-41.909912,60.38363,-0.94079566,-0.16582395,2.122772,3.6193137,-19.016157,42.71325,59.398636,0.5887611,1.1436849,-4.681984
145,-36.65274429321289,-38.18856430053711,76.59259796142578,1.4928422183838053,1.6438206946795941,-169.73723840870719,3.2387118,-15.050247,-18.899113,13.666901,-15.216726,9.584494,-31.672138,0.71881753,-5.878455,21.30891,3.5335612,3.475302,-9.3946,-4.6800737,9.69315,-16.101244,19.922195,-42.138504,60.36964,-0.79244536,-0.23321088,2.0308774,3.7535336,-19.04766,42.887547,59.4077,0.53990996,1.1817375,-4.634791
146,-37.12003707885742,-38.485984802246094,76.47079467773438,1.656466820621103,1.6098885521904147,-169.19518483613967,3.7408743,-15.500533,-19.37955,13.707054,-15.411248,9.921119,-30.960283,0.65743655,-8.29218,18.86484,4.0093455,3.7593927,-9.438673,-4.8365436,9.679553,-16.022026,19.81684,-42.42049,60.4008,-0.5890092,-0.29539135,1.9333656,3.8665047,-19.08243,43.059944,59.415607,0.48721275,1.2273353,-4.60537
147,-37.6032829284668,-38.78099822998047,76.3425064086914,1.8348703922754626,1.5588173139111634,-168.6409773398539,4.2442913,-15.975586,-19.861029,13.81761,-15.628357,10.276246,-30.181559,0.6298492,-10.756231,16.454357,4.4349546,4.0079803,-9.500194,-5.0097947,9.676636,-15.957039,19.70992,-42.74566,60.48841,-0.3217814,-0.3451767,1.805668,3.9699883,-19.121584,43.204,59.42263,0.42868814,1.2780161,-4.587698
148,-38.077239990234375,-39.07875061035156,76.2020492553711,2.0398598663451475,1.4922580424655,-168.06476528901533,4.769573,-16.4783,-20.335312,13.950491,-15.830917,10.643014,-29.38886,0.6345549,-13.133234,14.168212,4.764726,4.1883764,-9.587067,-5.210938,9.681513,-15.90651,19.611858,-43.09089,60.618835,0.024149245,-0.37418863,1.6213766,4.0650563,-19.160278,43.30388,59.43362,0.36932313,1.3309141,-4.5760574
149,-38.568870544433594,-39.3780632019043,76.05801391601562,2.262483453255373,1.4132472714861715,-167.46353155866433,5.3007603,-17.003466,-20.79371,14.133689,-16.0371,11.0219755,-28.572731,0.66810644,-15.488491,11.987546,4.968199,4.2616735,-9.696806,-5.4321756,9.689339,-15.88155,19.516033,-43.46731,60.809204,0.4757152,-0.37902832,1.3532467,4.164724,-19.198898,43.33996,59.446815,0.2914905,1.3852555,-4.5657377
150,-39.06663513183594,-39.68525695800781,75.89976501464844,2.494708578154386,1.324889391909831,-166.84820938470088,5.8226967,-17.54768,-21.23597,14.39151,-16.264112,11.414365,-27.715525,0.7422323,-17.861467,9.856027,5.0853944,4.2542014,-9.826011,-5.6669216,9.699967,-15.8668995,19.431181,-43.871605,61.04458,1.0215646,-0.36569002,1.0207796,4.2554817,-19.233734,43.332848,59.46816,0.20108172,1.4420685,-4.5613256
151,-39.568077087402344,-39.995887756347656,75.74148559570312,2.7394260525653604,1.2324745535617245,-166.23547347629258,6.346004,-18.106316,-21.661505,14.6826515,-16.481226,11.810767,-26.837141,0.87529516,-20.078007,7.759611,5.19965,4.220946,-9.964693,-5.912832,9.712263,-15.856975,19.358553,-44.2913,61.307964,1.6014985,-0.34214348,0.6714714,4.325302,-19.265526,43.298775,59.495964,0.12145216,1.5021507,-4.569963
152,-40.07713317871094,-40.31008529663086,75.57373046875,2.997392462151602,1.1412656589504178,-165.64258692719338,6.8791337,-18.672977,-22.067698,14.968833,-16.658863,12.204168,-26.418947,0.8846113,-21.967285,6.7400775,4.842065,4.2176595,-10.098723,-6.164426,9.725704,-15.846709,19.294392,-44.709713,61.58507,2.1630085,-0.31481728,0.35324222,4.363976,-19.29788,43.2516,59.526413,0.07678867,1.5665996,-4.598478
153,-40.58033752441406,-40.64057922363281,75.41020202636719,3.261319911058057,1.0501639262168798,-165.08401440487813,7.4154406,-19.240818,-22.431747,15.2554865,-16.801178,12.598158,-26.422173,0.749612,-23.506561,6.7328835,4.0446057,4.187325,-10.202674,-6.412814,9.750822,-15.86131,19.224054,-45.15617,61.9016,2.7071712,-0.28505278,0.07017973,4.3820424,-19.33857,43.174747,59.53483,0.07583307,1.6445894,-4.655178
154,-41.101131439208984,-40.97331619262695,75.24555969238281,3.521815463593794,0.9614902742115905,-164.5539305850411,7.939607,-19.807253,-22.752207,15.571058,-16.927536,12.992609,-26.39561,0.64364636,-24.778486,6.732447,3.299981,4.1072645,-10.2974825,-6.6512,9.781576,-15.884323,19.15877,-45.608345,62.24771,3.2644107,-0.24926798,-0.20127028,4.3670473,-19.383362,43.086018,59.539753,0.11171538,1.7326691,-4.735153
155,-41.635467529296875,-41.31594467163086,75.08977508544922,3.778523600331369,0.8850103011312632,-164.03782287278813,8.447693,-20.373178,-23.05913,15.915215,-17.03303,13.372709,-26.342205,0.55318666,-25.773012,6.737484,2.639084,4.0853767,-10.38694,-6.872184,9.796882,-15.900934,19.092028,-46.048504,62.60527,3.8029685,-0.2065297,-0.44913903,4.3378754,-19.435911,42.974033,59.55039,0.16049935,1.81346,-4.8208485
156,-42.16340255737305,-41.67284393310547,74.92644500732422,4.033174126189763,0.8293809577664011,-163.51994985605913,8.943979,-20.938068,-23.386904,16.273079,-17.108456,13.724235,-26.261705,0.4623245,-26.480644,6.7422757,2.0963168,4.2304482,-10.483934,-7.0695863,9.7751875,-15.897137,19.016504,-46.4546,62.95931,4.288397,-0.15618654,-0.6613211,4.302152,-19.501608,42.845963,59.581657,0.21117866,1.870146,-4.8951116
157,-42.7252197265625,-42.043540954589844,74.75739288330078,4.317484441472668,0.7890516039430122,-162.99125846715003,9.461011,-21.529686,-23.759096,16.598013,-17.13066,14.047706,-26.155209,0.3451453,-26.84189,6.7459354,1.6852088,4.6904464,-10.611025,-7.2779255,9.706394,-15.860407,18.937637,-46.818836,63.30896,4.7167974,-0.0959015,-0.8407959,4.2530375,-19.577917,42.71521,59.6497,0.27010652,1.8911077,-4.9497237
158,-43.28514862060547,-42.4283332824707,74.5804214477539,4.618466508073645,0.7621854999494486,-162.4627516722517,9.984738,-22.137907,-24.150444,16.912086,-17.112484,14.3477745,-26.023867,0.22131349,-26.883718,6.7513885,1.3849659,5.36134,-10.751825,-7.485887,9.603729,-15.805735,18.854805,-47.158733,63.664635,5.10189,-0.025463909,-0.99187875,4.189454,-19.665691,42.57747,59.739613,0.34659007,1.887846,-4.994943
159,-43.84368896484375,-42.82763671875,74.40459442138672,4.869882067268548,0.7635005037528665,-161.9487644824438,10.444091,-22.705132,-24.518047,17.318949,-17.104105,14.616064,-25.86833,0.142739,-26.725368,6.7588882,1.1797626,5.9758167,-10.8854,-7.6194444,9.476174,-15.729353,18.766079,-47.447407,64.00697,5.4551077,0.05157287,-1.1057351,4.1146092,-19.764072,42.420887,59.84153,0.41248316,1.8775103,-5.0429516
160,-44.41838836669922,-43.24703598022461,74.23661804199219,5.005841237462336,0.8077493027517005,-161.4622018683815,10.766649,-23.175737,-24.816788,17.926954,-17.159147,14.844655,-25.693937,0.1570516,-26.483637,6.783093,1.0467796,6.2686534,-10.973453,-7.5965405,9.337422,-15.656328,18.638323,-47.683838,64.347275,5.778939,0.13281676,-1.1711638,4.06224,-19.90405,42.21341,59.905285,0.44224337,1.879449,-5.102737
161,-44.99654769897461,-43.67314147949219,74.08113861083984,5.037388648699592,0.8901816880938571,-160.9974866445076,10.970952,-23.5597,-25.048975,18.723139,-17.278315,15.000033,-25.46724,0.26889512,-26.024994,6.826821,0.94197553,6.260845,-11.052446,-7.4325433,9.179505,-15.546457,18.49069,-47.818905,64.66768,6.107644,0.22305119,-1.1859412,4.0032606,-20.06244,41.997677,59.972713,0.41493374,1.8952378,-5.1826057
162,-45.58694839477539,-44.101280212402344,73.93829345703125,4.986387109878466,1.0047621818703776,-160.547003463756,11.085374,-23.860184,-25.227308,19.652298,-17.436058,15.000033,-25.193167,0.45679432,-25.343924,6.8788323,0.8939322,6.064996,-11.125299,-7.155109,9.002752,-15.408554,18.328249,-47.880047,64.97373,6.422291,0.32317162,-1.15551,3.9312155,-20.234343,41.775284,60.053677,0.35509577,1.915694,-5.275631
163,-46.170989990234375,-44.53645324707031,73.81266021728516,4.806611219827475,1.1640967003145208,-160.11861097567353,11.070201,-24.049477,-25.347822,20.759653,-17.639635,15.000033,-24.93702,0.7250005,-24.7454,6.9412313,0.98526734,5.5551033,-11.168946,-6.7174125,8.822479,-15.266957,18.151743,-47.881783,65.25237,6.6875157,0.42400524,-1.0854828,3.8469293,-20.418507,41.51452,60.131424,0.29685113,1.9406316,-5.375813
164,-46.77462387084961,-44.992942810058594,73.70463562011719,4.451193545165456,1.3825940278286124,-159.72025382948732,10.891021,-24.072414,-25.397251,22.058706,-17.88947,15.000033,-24.763311,1.0833338,-24.53732,7.005168,1.3042511,4.5990415,-11.160444,-6.0734267,8.65304,-15.147924,17.963863,-47.84381,65.49038,6.8619423,0.51640403,-0.98139644,3.7421093,-20.612654,41.194336,60.197857,0.28547013,1.9694093,-5.4777813
165,-47.37071228027344,-45.4767951965332,73.60112762451172,3.8381782440131853,1.6912630518734764,-159.33192921120013,10.469251,-23.844893,-25.36738,23.67372,-18.2747,15.000033,-25.329422,1.2733053,-24.973475,8.504302,1.1995368,2.908245,-11.096861,-5.144217,8.486085,-15.074027,17.768534,-47.78533,65.683846,6.945758,0.60463583,-0.8408701,3.6392338,-20.811249,40.772724,60.219925,0.3220574,2.01478,-5.5941353
166,-47.961029052734375,-45.94065856933594,73.54755401611328,3.0166016050173736,2.071928285936027,-158.95246109344717,9.887961,-23.409237,-25.294815,25.501375,-18.740965,15.000033,-26.178585,1.441181,-25.868713,10.507447,1.0721788,0.6211381,-10.992348,-3.9786007,8.321267,-15.0270195,17.56597,-47.6977,65.838356,6.9532647,0.6914788,-0.66268426,3.536146,-21.013327,40.27305,60.215694,0.38880876,2.0722034,-5.723663
167,-48.545433044433594,-46.380943298339844,73.52225494384766,2.146303813932638,2.464687802651442,-158.6212515842065,9.319804,-22.923822,-25.210865,27.271688,-19.086348,15.000033,-27.024647,1.5934813,-26.855515,12.514391,0.98485017,-1.7286327,-10.850719,-2.73405,8.179781,-14.967761,17.352858,-47.548176,65.95339,6.873705,0.76500785,-0.45351338,3.3876374,-21.225859,39.771908,60.251377,0.4979501,2.115055,-5.839795
168,-49.13155746459961,-46.837867736816406,73.50694274902344,1.3970145468647135,2.80766741174138,-158.3765692298902,8.900846,-22.551418,-25.121912,28.753527,-19.126726,14.922433,-27.847454,1.6317476,-27.518991,14.619736,0.71060646,-3.588492,-10.678253,-1.5786301,8.077958,-14.8532715,17.123951,-47.294216,66.02783,6.7039104,0.8126456,-0.22002882,3.1541874,-21.460548,39.33882,60.383316,0.65062594,2.117275,-5.915672
169,-49.698177337646484,-47.309505462646484,73.5016098022461,0.8108778598738179,3.11004231033598,-158.23078133404735,8.608187,-22.330778,-25.026014,29.930523,-18.848953,14.684518,-28.757076,1.5084021,-27.690111,17.016806,0.13573419,-4.761877,-10.474171,-0.52893776,8.00324,-14.680067,16.869343,-46.88837,66.05503,6.4188323,0.813478,0.038055964,2.8262615,-21.733944,38.958076,60.61978,0.8762227,2.047731,-5.9343266
170,-50.24287033081055,-47.831581115722656,73.49860382080078,0.312792799555166,3.393344126989749,-158.1617949371816,8.3720255,-22.199793,-24.92041,30.941378,-18.34666,14.436639,-29.759317,1.261358,-27.574005,19.669928,-0.6323203,-5.5605435,-10.237753,0.48361692,7.948442,-14.471925,16.585093,-46.35772,66.04044,6.0366087,0.77788633,0.32372844,2.4105203,-22.05281,38.627495,60.929203,1.1893225,1.9291072,-5.911456
171,-50.795955657958984,-48.384117126464844,73.50736999511719,-0.11328528660137802,3.617584087590751,-158.15501737501702,8.216079,-22.1161,-24.7787,31.810293,-17.612352,14.022284,-30.673374,0.96543044,-27.306923,22.282036,-1.4446741,-6.1808414,-9.979172,1.4258507,7.934526,-14.230236,16.28151,-45.786568,66.00147,5.5965967,0.7408218,0.6346267,1.9304777,-22.404205,38.385586,61.28065,1.5076776,1.8178084,-5.869306
172,-51.3634147644043,-48.95048904418945,73.53762817382812,-0.4884433820072462,3.7439022257580414,-158.19688419741115,8.167777,-22.036713,-24.577631,32.55995,-16.640812,13.277498,-31.314714,0.7104455,-27.03631,24.54814,-2.1404085,-6.8069777,-9.715213,2.266102,7.9799247,-13.943163,15.980487,-45.249454,65.94694,5.140299,0.73873895,0.96823686,1.4563226,-22.757095,38.210884,61.618153,1.6772206,1.7708169,-5.8316145
173,-51.940757751464844,-49.49715805053711,73.59312438964844,-0.8085936797756234,3.7281843908542345,-158.3483906019686,8.281942,-21.984886,-24.248058,33.162212,-15.376169,12.219646,-31.622978,0.5391633,-26.739357,26.428247,-2.6560178,-7.4222646,-9.405335,2.9870937,8.130484,-13.558626,15.692888,-44.694736,65.84783,4.6520486,0.78313977,1.3900576,0.88296896,-23.092884,38.239857,62.077477,1.7509786,1.7839077,-5.7997866
174,-52.53032302856445,-50.023109436035156,73.67181396484375,-1.0734849325148748,3.6053516724184114,-158.59726648817085,8.517984,-21.977003,-23.833605,33.642685,-13.850775,10.920749,-31.7077,0.43157712,-26.368631,28.06977,-3.0686414,-7.933161,-9.067591,3.612376,8.359572,-13.085245,15.423311,-44.084576,65.69082,4.125077,0.8544346,1.8788378,0.20933293,-23.40173,38.430088,62.655247,1.7514052,1.8320764,-5.764941
175,-53.11132049560547,-50.53273010253906,73.76348876953125,-1.3123817914651754,3.4554214714185063,-158.82254625773373,8.760097,-21.971037,-23.482468,34.110363,-12.1973,9.278025,-31.63406,0.375596,-26.036922,29.445934,-3.4330325,-8.413145,-8.767828,4.1693535,8.590163,-12.629014,15.189718,-43.56907,65.51421,3.5878358,0.94428396,2.3045602,-0.49545112,-23.669746,38.661564,63.21696,1.6989439,1.9336836,-5.738363
176,-53.6781005859375,-51.02249526977539,73.85558319091797,-1.5536823306325362,3.358236212974526,-158.90567641226878,8.8981,-21.93062,-23.340595,34.666225,-10.560118,7.1687794,-31.47276,0.33784485,-25.847889,30.547258,-3.8179479,-8.946829,-8.55612,4.6790814,8.746573,-12.284566,15.017002,-43.30068,65.34957,3.0806615,1.047351,2.5360076,-1.1589384,-23.881779,38.802834,63.628284,1.6179305,2.106557,-5.731783
177,-54.249088287353516,-51.489173889160156,73.96086883544922,-1.7965590952483859,3.3470759708769946,-158.81325444254307,8.893899,-21.905567,-23.500492,35.36773,-9.018393,4.492336,-31.248058,0.2944968,-25.83101,31.360142,-4.2504315,-9.648896,-8.454105,5.1243505,8.793448,-12.045847,14.930417,-43.305523,65.17854,2.6126776,1.2038306,2.5253692,-1.7205467,-24.019672,38.763382,63.83086,1.366926,2.4100616,-5.739386
178,-54.85551834106445,-51.92049789428711,74.08747863769531,-2.0267954863064035,3.3763690648895364,-158.61455664644924,8.823319,-21.935074,-23.878834,36.163437,-7.5678124,1.2872725,-30.930326,0.25465405,-25.921158,31.922321,-4.710619,-10.450667,-8.416653,5.488195,8.780959,-11.860853,14.937006,-43.512695,64.97498,2.162384,1.408031,2.3458123,-2.312081,-24.066433,38.709476,63.98415,1.0690736,2.8114061,-5.7610683
179,-55.41194152832031,-52.29070281982422,74.21707153320312,-2.2539232902885926,3.4075394885684838,-158.34422318805554,8.7448435,-21.963856,-24.353868,36.99467,-6.220101,-2.3567617,-30.507374,0.22503637,-26.075764,32.297684,-5.197029,-11.164024,-8.402168,5.798846,8.751466,-11.736741,15.041174,-43.945286,64.74748,1.7056947,1.5862594,2.0450222,-2.8202488,-24.061123,38.486862,63.99389,0.73677766,3.204477,-5.8087926
180,-55.99696731567383,-52.6498908996582,74.36373901367188,-2.4879334363679475,3.4025537926508003,-158.03511172928705,8.704072,-21.925747,-24.805742,37.81163,-4.937986,-6.3296456,-29.96494,0.21465057,-26.255676,32.5446,-5.7052617,-11.599515,-8.391621,6.0831275,8.744086,-11.684538,15.227419,-44.600346,64.529594,1.2296426,1.6630137,1.6702164,-3.2686427,-24.001917,38.110573,63.89556,0.5225295,3.4776423,-5.9026775
181,-56.607025146484375,-53.005653381347656,74.52096557617188,-2.745147329996075,3.3506993985301916,-157.65158007366736,8.833498,-21.838652,-25.47656,38.458027,-3.4407334,-11.237906,-29.262688,0.22553705,-26.497248,32.636013,-6.2585807,-11.658307,-8.39909,6.354971,8.768436,-11.756106,15.492431,-45.60568,64.35341,0.650558,1.6017785,1.1811135,-3.606364,-23.89942,37.49411,63.626575,0.44866765,3.6205068,-6.055198
182,-57.202266693115234,-53.378021240234375,74.66714477539062,-2.9657857207843814,3.2497765070972378,-157.21195422659858,9.069818,-21.780157,-25.880531,39.03991,-1.8788002,-15.000033,-28.453468,0.17441265,-26.744612,32.69512,-6.918025,-11.431069,-8.4059515,6.556504,8.816153,-11.942495,15.831351,-46.93258,64.1988,-0.0004520752,1.4546996,0.5665519,-3.8490586,-23.760347,36.681355,63.197353,0.4725473,3.6853223,-6.2538385
183,-57.76984786987305,-53.82620620727539,74.7606430053711,-2.7343141877626134,2.9329275727789983,-156.9371234699752,9.392973,-21.846102,-24.707565,39.31083,-0.2850982,-15.000033,-27.779497,-0.4187666,-26.506016,33.569164,-7.992576,-10.959105,-8.237241,6.273604,8.986179,-12.162996,16.218288,-48.349358,64.03655,-0.57229894,1.2632828,-0.081844546,-4.00033,-23.602556,35.739178,62.648453,0.5019071,3.6593215,-6.474152
184,-58.30466079711914,-54.246681213378906,74.86832427978516,-2.593776250994069,2.723381999281116,-156.64825941344301,9.03962,-21.62156,-23.0714,40.413437,0.4045112,-15.000033,-27.081776,-0.8605505,-26.371883,34.07604,-8.845034,-10.532769,-8.059063,6.0834846,9.086657,-12.366466,16.626287,-49.646107,63.856827,-0.9087207,1.0624722,-0.66108125,-4.2468033,-23.445053,34.96872,62.152,0.7144072,3.5256205,-6.703771
185,-58.83957290649414,-54.62710952758789,75.0125732421875,-2.6272481722420715,2.6308313049334715,-156.3531721897537,7.959638,-21.01374,-21.138727,42.505985,-0.094033085,-15.000033,-26.314415,-1.027985,-26.40041,34.08549,-9.403016,-10.1809845,-7.9101276,6.082128,9.099506,-12.534842,17.04156,-50.79558,63.67416,-0.92787296,0.8096662,-1.1788127,-4.350647,-23.283215,34.099556,61.517395,0.83183014,3.237432,-6.9607673
186,-59.37104034423828,-54.97474670410156,75.17958068847656,-2.8137630165991467,2.6016695526999483,-156.058915932198,6.4351807,-20.01593,-19.057512,45.2322,-1.4151044,-15.000033,-25.443377,-0.9466442,-26.561804,33.678516,-9.749761,-9.83411,-7.715453,6.2323904,9.08631,-12.760001,17.4555,-51.949787,63.520584,-0.7308606,0.4970089,-1.6703651,-4.6372623,-23.136791,33.468018,60.984898,1.3134483,2.8076332,-7.2477603
187,-59.8979606628418,-55.3075065612793,75.34732818603516,-3.0965259782684296,2.5960167966377687,-155.80772134786974,4.702974,-18.608881,-16.810575,48.17741,-3.058541,-15.000033,-24.494808,-0.6722203,-26.77064,32.991627,-9.954412,-9.51456,-7.5147924,6.472779,9.054227,-12.93765,17.857992,-52.920338,63.379738,-0.39497334,0.20578097,-2.0866632,-4.8228946,-22.99485,32.795696,60.3326,1.6533157,2.3524308,-7.5047255
188,-60.43400573730469,-55.63361740112305,75.5142593383789,-3.3943786848504063,2.5804525772502918,-155.6307178249796,2.9689858,-16.81798,-14.339548,50.96877,-4.5161,-15.000033,-23.513958,-0.30589914,-26.933052,32.191742,-10.097281,-9.235496,-7.263808,6.708821,9.03678,-13.040246,18.236986,-53.60819,63.251026,-0.007934066,0.020052122,-2.3753004,-5.157465,-22.870043,32.3784,59.770504,2.0360994,1.9723158,-7.68369
189,-60.95542907714844,-55.95475387573242,75.67951965332031,-3.7037107694843283,2.546791695319127,-155.54768816914117,1.2659202,-14.516284,-11.482164,53.59265,-5.751256,-15.000033,-22.490482,0.16036668,-27.024979,31.264626,-10.169298,-9.001244,-6.9831157,6.9398813,9.025705,-13.016094,18.585701,-53.93069,63.13321,0.50856304,-0.038517702,-2.518463,-5.508471,-22.755198,32.103825,59.187904,2.2842872,1.6898177,-7.754844
190,-61.484527587890625,-56.27180862426758,75.84419250488281,-4.084575355183355,2.4902509462763964,-155.56255978400424,-0.40505502,-11.665638,-8.386433,56.240314,-7.075269,-15.000033,-21.369768,0.81572187,-27.076317,30.094799,-10.113966,-8.806891,-6.644553,7.22452,9.033346,-12.909799,18.901642,-53.975704,63.041733,1.1684374,-0.014037969,-2.545092,-5.941913,-22.652822,32.018696,58.63835,2.5405161,1.4502159,-7.752472
191,-62.001609802246094,-56.576263427734375,76.00211334228516,-4.521227054698063,2.396294183136255,-155.66112579483703,-1.9399555,-8.502624,-5.3952875,58.837322,-8.445997,-15.000033,-20.15211,1.6231145,-27.075302,28.733866,-9.956934,-8.641185,-6.26435,7.547743,9.074554,-12.739223,19.184753,-53.7856,62.97969,1.8031229,0.0783923,-2.4796731,-6.412777,-22.56082,32.06702,58.09359,2.7385535,1.2570964,-7.717731
192,-62.51048278808594,-56.900108337402344,76.15191650390625,-4.720424580697273,2.275426925608831,-155.77571389197968,-3.2910082,-5.4867225,-2.4438658,61.132095,-9.642616,-14.10938,-19.099718,2.0842056,-26.903368,27.809904,-9.994367,-8.425128,-5.8891935,7.629893,9.12329,-12.536073,19.436234,-53.41783,62.949657,2.242135,0.22360596,-2.3446915,-6.972724,-22.482725,32.28292,57.60302,2.923776,1.1107796,-7.6933503
193,-63.00516891479492,-57.2321662902832,76.29591369628906,-4.819719038493084,2.148525664542157,-155.90431158512683,-4.544028,-2.4286509,0.6287824,63.277958,-10.774552,-11.479703,-18.120958,2.3966916,-26.648544,27.054611,-10.093974,-8.184497,-5.521858,7.6166024,9.175542,-12.280064,19.65453,-52.822765,62.947086,2.451366,0.4538854,-2.129987,-7.5950513,-22.417017,32.672157,57.13743,3.0793672,1.0329349,-7.690901
194,-63.48826217651367,-57.55434036254883,76.43028259277344,-4.893438967485977,2.015604225695899,-156.06613989819851,-5.703147,0.7087317,3.5668454,65.34708,-11.963813,-8.600858,-17.145086,2.6980226,-26.344734,26.289001,-10.173601,-7.9472647,-5.145627,7.567587,9.2384205,-11.964441,19.837744,-51.99542,62.96936,2.5168498,0.7654529,-1.8287501,-8.305954,-22.36254,33.25793,56.714638,3.2407155,1.0150911,-7.6888
195,-63.96896743774414,-57.879859924316406,76.55894470214844,-4.959753330090776,1.8850644640975405,-156.24287822031943,-6.7694254,3.7730432,6.2114697,67.26518,-13.17492,-5.7399397,-16.172316,2.9926398,-26.026455,25.501202,-10.231855,-7.7106967,-4.7870507,7.5085907,9.312175,-11.61888,19.988838,-51.036015,63.01845,2.4523354,1.0865878,-1.4677488,-9.041817,-22.313543,33.917847,56.297676,3.3084326,1.017481,-7.677454
196,-64.47653198242188,-58.23772048950195,76.68818664550781,-5.0355663286866665,1.766821427283735,-156.41514364529567,-7.780128,6.604225,8.411096,68.95785,-14.328076,-3.1666355,-15.205993,3.2846663,-25.729254,24.68283,-10.26998,-7.474764,-4.449868,7.460388,9.400584,-11.290386,20.112444,-50.06357,63.10007,2.2747986,1.3460398,-1.0723585,-9.843319,-22.271639,34.619587,55.93385,3.3060608,0.99714226,-7.648232
197,-64.94276428222656,-58.57312774658203,76.80328369140625,-5.115049205859026,1.6691889159008517,-156.57393945654695,-8.813615,9.153049,10.152089,70.41684,-15.33193,-0.8840342,-14.256418,3.5637856,-25.46666,23.83857,-10.2923155,-7.241073,-4.142825,7.417026,9.496868,-10.977169,20.209276,-49.059032,63.222298,1.9316758,1.5317698,-0.6125399,-10.669057,-22.236591,35.323765,55.589527,3.1347077,0.94339216,-7.592052
198,-65.38796997070312,-58.88917922973633,76.90831756591797,-5.189470114076343,1.587299557697004,-156.72940378485748,-9.899139,11.480769,11.546868,71.67175,-16.200382,1.2321832,-13.320556,3.8297691,-25.21983,22.970037,-10.300301,-7.0122867,-3.851152,7.366519,9.602128,-10.66659,20.278109,-47.989548,63.378265,1.4306053,1.677237,-0.08548867,-11.549004,-22.209778,36.08552,55.27945,2.8614695,0.8775903,-7.5159507
199,-65.83851623535156,-59.2175178527832,77.01056671142578,-5.27257657143508,1.510282628642908,-156.8898352712077,-11.015688,13.592694,12.628605,72.699875,-16.973137,3.0963473,-12.38955,4.1004663,-24.975168,22.08243,-10.293174,-6.791359,-3.568015,7.3262277,9.721813,-10.369284,20.322746,-46.92993,63.553417,0.8809929,1.7764071,0.43994203,-12.466637,-22.188025,36.86522,54.995316,2.5678232,0.8095007,-7.4332604
200,-66.28337860107422,-59.54571533203125,77.10263061523438,-5.37647892656517,1.4275315386464977,-157.06374556980214,-12.134884,15.489597,13.42369,73.47555,-17.683578,4.6137357,-11.452769,4.39211,-24.718264,21.178385,-10.269929,-6.580477,-3.2822678,7.312564,9.858376,-10.097331,20.349834,-45.96218,63.72799,0.39012873,1.8313776,0.8940565,-13.369614,-22.165735,37.585094,54.704742,2.2975848,0.7499386,-7.3560305
201,-66.71410369873047,-59.87503433227539,77.1827621459961,-5.507599385778075,1.3401160556484668,-157.2477496717176,-13.2892685,17.147627,13.904134,73.98504,-18.28913,5.7112646,-10.508096,4.7129707,-24.452051,20.250317,-10.229666,-6.3889656,-2.9830325,7.329918,10.009857,-9.866803,20.364027,-45.10146,63.90915,-0.06487355,1.8221941,1.2634687,-14.242234,-22.143833,38.215096,54.392628,2.0279105,0.70226645,-7.283263
202,-67.142578125,-60.201393127441406,77.25483703613281,-5.656458359215529,1.2529252282234105,-157.43883609386782,-14.514025,18.562584,14.07831,74.239815,-18.743685,6.4539766,-9.561924,5.051213,-24.181004,19.301695,-10.174887,-6.21522,-2.6924853,7.3693347,10.175802,-9.651851,20.369629,-44.284397,64.08953,-0.5144094,1.7562289,1.5816498,-15.113574,-22.11987,38.80502,54.07787,1.7371589,0.6609091,-7.210853
203,-67.55901336669922,-60.528076171875,77.31249237060547,-5.8129190911013,1.1603373769571916,-157.64653984728912,-15.775967,19.766218,14.020401,74.259895,-19.083817,6.947599,-8.619525,5.3909726,-23.892473,18.359676,-10.114561,-6.04352,-2.3661697,7.416447,10.352609,-9.47995,20.365507,-43.603218,64.275955,-0.9125967,1.6798993,1.8533742,-15.960133,-22.100603,39.31693,53.762573,1.4767009,0.6211361,-7.1398377
204,-67.97508239746094,-60.860069274902344,77.3572769165039,-5.967398610460731,1.0566799661679434,-157.8797650919174,-17.034147,20.791212,13.803523,74.06415,-19.353268,7.296525,-7.684117,5.7176228,-23.574865,17.4469,-10.0543585,-5.8566155,-2.0811386,7.4752617,10.547477,-9.281919,20.353756,-42.9829,64.42485,-1.1612551,1.6372206,2.0799587,-16.806282,-22.06581,39.8207,53.472897,1.2774663,0.58144933,-7.081036
205,-68.39535522460938,-61.198909759521484,77.3940658569336,-6.119480035398638,0.9349729040219158,-158.13936282730182,-18.289045,21.60739,13.400449,73.6366,-19.553034,7.477098,-6.7501493,6.030253,-23.226112,16.568344,-9.994885,-5.650842,-1.7645684,7.533859,10.75861,-9.118517,20.333883,-42.52759,64.56601,-1.2496958,1.6491265,2.2590635,-17.639809,-22.021635,40.25857,53.217567,1.1727728,0.540071,-7.033595
206,-68.7862548828125,-61.53097915649414,77.42045593261719,-6.273638439530915,0.7994953994670085,-158.42116740890597,-19.55539,22.209322,12.7910385,72.974014,-19.654924,7.453366,-5.817685,6.335178,-22.852247,15.712986,-9.933824,-5.434695,-1.4346377,7.6002407,10.985304,-8.979617,20.306267,-42.19678,64.6984,-1.2131255,1.6900865,2.3900278,-18.450926,-21.970152,40.6311,52.9767,1.1185572,0.49961156,-6.9948654
207,-69.19624328613281,-61.878021240234375,77.44520568847656,-6.426307242932011,0.6622287641040547,-158.72769959438094,-20.811478,22.669638,12.057942,72.118286,-19.66768,7.308939,-4.900899,6.6255097,-22.453697,14.885822,-9.875922,-5.207032,-1.108068,7.671776,11.214372,-8.846907,20.268747,-41.96891,64.822784,-1.1054692,1.7383081,2.4846153,-19.220417,-21.902908,40.935314,52.740616,1.0730121,0.45747665,-6.959463
208,-69.61618041992188,-62.23888397216797,77.46553039550781,-6.574331895872714,0.5352449286092,-159.0612277100023,-22.037453,23.06007,11.283882,71.10973,-19.59956,7.1254244,-4.0164824,6.8939104,-22.031473,14.095493,-9.826948,-4.966492,-0.7746237,7.7408624,11.434648,-8.719844,20.221464,-41.848507,64.943146,-0.9814533,1.7725292,2.5554302,-19.981897,-21.822485,41.208126,52.535328,1.0742524,0.40895373,-6.9209204
209,-70.0179214477539,-62.59346008300781,77.47367858886719,-6.714603420731734,0.4187532799483696,-159.43296315128296,-23.230036,23.367685,10.468576,69.93441,-19.444693,6.8901424,-3.1738613,7.1355653,-21.576233,13.356316,-9.79208,-4.7033286,-0.43323544,7.8069563,11.645075,-8.5970125,20.164284,-41.854282,65.06362,-0.8420779,1.7860057,2.6012611,-20.737555,-21.72859,41.44653,52.36405,1.1282603,0.34532282,-6.8741918
210,-70.4063949584961,-62.95138168334961,77.46842193603516,-6.850163898501789,0.30682087116787277,-159.83862720570028,-24.389523,23.568539,9.577903,68.57866,-19.204327,6.5726967,-2.3599167,7.3557777,-21.091856,12.655209,-9.763396,-4.4195995,-0.08123105,7.872684,11.85195,-8.485538,20.09727,-41.98305,65.18396,-0.66098577,1.7907512,2.6174574,-21.512041,-21.623013,41.67054,52.24411,1.265674,0.27035385,-6.8240356
211,-70.82319641113281,-63.31894302368164,77.47288513183594,-6.986475831324684,0.20307709814131145,-160.25654594953292,-25.510786,23.712273,8.640433,67.08623,-18.89582,6.227818,-1.5630846,7.5609226,-20.59803,11.969549,-9.736491,-4.132661,0.262725,7.9405537,12.051849,-8.379209,20.019524,-42.18673,65.29844,-0.45972374,1.7919813,2.6102154,-22.25484,-21.501411,41.8504,52.13829,1.409466,0.20182307,-6.778927
212,-71.22282409667969,-63.686527252197266,77.46194458007812,-7.128637851387461,0.11089418001986967,-160.66536819816162,-26.591198,23.84653,7.6870914,65.4993,-18.535896,5.907486,-0.7658466,7.759446,-20.1144,11.263815,-9.700185,-3.8600018,0.5802403,8.011798,12.241269,-8.271451,19.930174,-42.41663,65.400894,-0.2590611,1.7950381,2.5855675,-22.917074,-21.35564,41.954155,52.01417,1.4780544,0.1573067,-6.7476654
213,-71.62030792236328,-64.05270385742188,77.44502258300781,-7.279974104722858,0.0323546818696333,-161.06570388158806,-27.639118,23.996216,6.7418857,63.82323,-18.097685,5.6173925,0.026939245,7.955682,-19.64235,10.539167,-9.652141,-3.6119096,0.87688357,8.084621,12.424974,-8.174329,19.830927,-42.67971,65.49943,-0.053569194,1.8005413,2.5359552,-23.616625,-21.186562,42.082966,51.956882,1.6075944,0.1431758,-6.7386165
214,-72.0252914428711,-64.4239273071289,77.42527770996094,-7.43781053869234,-0.034784459926205026,-161.46664332219672,-28.652758,24.128504,5.7843456,62.03758,-17.58329,5.330412,0.8090953,8.145077,-19.173166,9.810609,-9.597927,-3.377062,1.1473795,8.161723,12.601379,-8.0749655,19.722082,-42.982124,65.588135,0.16732912,1.8055149,2.459999,-24.25219,-20.985577,42.133785,51.89771,1.6772753,0.15213424,-6.744809
215,-72.42252349853516,-64.80146026611328,77.399169921875,-7.596164800417992,-0.0927355843185623,-161.86040347529178,-29.612806,24.205145,4.780453,60.142673,-17.050932,5.0502677,1.6004909,8.323535,-18.709856,9.053397,-9.533302,-3.1408417,1.3953307,8.232231,12.763839,-7.9705963,19.603325,-43.317524,65.66417,0.38089848,1.8108214,2.378454,-24.878647,-20.75728,42.18517,51.880955,1.7525511,0.16618039,-6.7574053
216,-72.82664489746094,-65.18726348876953,77.37031555175781,-7.748626328632772,-0.14401550483407816,-162.23898523681953,-30.496687,24.192606,3.6966007,58.13873,-16.561806,4.784253,2.424011,8.486583,-18.2548,8.235389,-9.452757,-2.8881316,1.6131433,8.289666,12.906201,-7.8478513,19.473091,-43.666817,65.71768,0.56622076,1.81687,2.3109643,-25.457718,-20.503616,42.229633,51.88101,1.7845392,0.17121673,-6.7664156
217,-73.2486801147461,-65.57675170898438,77.33282470703125,-7.8939389055706375,-0.18530964558523785,-162.5968951505505,-31.304022,24.090149,2.516901,56.024265,-16.146976,4.570083,3.2892,8.635572,-17.813559,7.330582,-9.340641,-2.6134603,1.7952833,8.330264,13.026821,-7.708999,19.331545,-44.057602,65.74451,0.7356288,1.8267024,2.264252,-26.01998,-20.227966,42.30046,51.92393,1.796158,0.15925188,-6.7659
218,-73.67147064208984,-65.97216033935547,77.29316711425781,-8.034852995703275,-0.21616599198384875,-162.9402289572019,-32.037838,23.922361,1.2628382,53.801403,-15.772748,4.3980412,3.7878916,8.640647,-17.44122,7.2292476,-9.662099,-2.316558,1.9447708,8.360135,13.129806,-7.556161,19.17818,-44.486423,65.747734,0.8942941,1.8390418,2.2268357,-26.521688,-19.926228,42.33741,51.97542,1.7368085,0.14160086,-6.7614045
219,-74.09420013427734,-66.37356567382812,77.24628448486328,-8.175555321508922,-0.24361470462089888,-163.27814084562425,-32.686367,23.704872,-0.053655043,51.484432,-15.402352,4.2051425,4.2687235,8.62628,-17.077183,7.1761317,-10.018925,-2.0104237,2.076303,8.384196,13.216065,-7.3866577,19.011477,-44.89728,65.739975,1.0104293,1.8481295,2.1930733,-26.99038,-19.605215,42.37808,52.04365,1.6780308,0.12495686,-6.7631364
220,-74.53459930419922,-66.78351593017578,77.19673156738281,-8.31968447714861,-0.2750153357171814,-163.62002477574302,-33.235588,23.454933,-1.420762,49.081955,-14.997167,3.9291153,4.7589526,8.603992,-16.706482,7.128126,-10.387731,-1.7014369,2.199881,8.411314,13.288566,-7.193593,18.82907,-45.227703,65.72749,1.0543641,1.8483584,2.1565835,-27.403568,-19.271189,42.41237,52.09732,1.628606,0.11883225,-6.780485
221,-74.98385620117188,-67.20580291748047,77.13691711425781,-8.468389774367038,-0.3110228360506302,-163.96220442844535,-33.674656,23.184587,-2.848519,46.56009,-14.538721,3.559386,5.261217,8.57481,-16.331678,7.082268,-10.769892,-1.3919375,2.311572,8.443831,13.350485,-6.9793434,18.627987,-45.49605,65.69784,1.0566752,1.8463185,2.1038485,-27.746447,-18.92554,42.422573,52.121517,1.5760528,0.13432573,-6.8251786
222,-75.43283081054688,-67.6322250366211,77.06423950195312,-8.62080044079944,-0.34823525789639254,-164.30227989955142,-34.00994,22.899836,-4.344783,43.92475,-14.053713,3.1360977,5.771752,8.537681,-15.957417,7.038236,-11.164374,-1.0782769,2.4102662,8.481294,13.400999,-6.7478456,18.406853,-45.723637,65.652275,1.0224566,1.8423098,2.0421772,-28.007755,-18.565664,42.389973,52.11427,1.4870563,0.1654071,-6.8882813
223,-75.89974975585938,-68.07848358154297,76.98322296142578,-8.778453497219349,-0.38884046821887636,-164.6499876465641,-34.257286,22.612484,-5.898092,41.247215,-13.5740185,2.6729207,6.288531,8.494039,-15.575379,7.001199,-11.568044,-0.75881183,2.5038419,8.524104,13.434236,-6.4951596,18.168207,-45.85613,65.623024,0.8751149,1.8207518,1.997487,-28.24943,-18.205704,42.402794,52.118683,1.4502581,0.19072318,-6.9504
224,-76.37401580810547,-68.53459167480469,76.88709259033203,-8.94229510304414,-0.4352373377132748,-165.0150019294438,-34.43288,22.333473,-7.4954543,38.59687,-13.130403,2.183956,6.808888,8.443911,-15.177361,6.9792213,-11.980322,-0.4323098,2.603243,8.581112,13.453681,-6.215083,17.916552,-45.83071,65.62488,0.54795384,1.766311,1.993428,-28.40153,-17.844982,42.391888,52.079308,1.3725727,0.19786233,-6.9888673
225,-76.86500549316406,-69.00682067871094,76.78131103515625,-9.110027084555592,-0.4865347569232803,-165.39508261709645,-34.54684,22.051006,-9.171004,35.97365,-12.736974,1.7162086,7.333952,8.386625,-14.766582,6.973061,-12.413541,-0.104944244,2.704582,8.648483,13.457758,-5.8976355,17.653242,-45.62961,65.64942,-0.039514203,1.6658381,2.060797,-28.477865,-17.48779,42.371536,52.003468,1.2822176,0.1802511,-7.000739
226,-77.35774230957031,-69.47100830078125,76.65739440917969,-9.281414414157151,-0.5422558795585964,-165.78663946404663,-34.58941,21.783655,-10.923809,33.3471,-12.379724,1.2613982,7.865574,8.32143,-14.346089,6.9773417,-12.865896,0.22391395,2.8028789,8.724183,13.448868,-5.547465,17.378885,-45.283,65.683815,-0.82840174,1.5297067,2.1768498,-28.49191,-17.137365,42.357822,51.89702,1.1997513,0.14666492,-6.9968386
227,-77.85428619384766,-69.94271850585938,76.52825927734375,-9.461726524316758,-0.6074653998791959,-166.1964811837122,-34.550297,21.58176,-12.686771,30.7382,-12.043948,0.7434668,8.403619,8.250263,-13.907533,6.9896507,-13.308191,0.56426567,2.9060984,8.813894,13.4321,-5.1819882,17.100155,-44.80568,65.743645,-1.6837407,1.3788179,2.2860084,-28.457705,-16.798073,42.37892,51.7713,1.1275475,0.10195472,-6.976644
228,-78.35922241210938,-70.42941284179688,76.38948822021484,-9.650361671747067,-0.6878048534991278,-166.63335849784272,-34.40708,21.487213,-14.379489,28.144321,-11.70911,0.07814419,8.950145,8.1698885,-13.440037,7.004574,-13.715271,0.92661285,3.022776,8.917,13.41399,-4.815877,16.828754,-44.21347,65.839455,-2.47394,1.2359209,2.3335109,-28.391428,-16.474977,42.467533,51.638184,1.0714868,0.050766475,-6.9393573
229,-78.880615234375,-70.92512512207031,76.24840545654297,-9.86614374940905,-0.7915487998074988,-167.1143755500448,-34.10512,21.51596,-16.05902,25.418095,-11.320742,-0.88643026,9.508743,8.102223,-12.925354,7.023808,-14.075404,1.3106054,3.1666121,9.055293,13.40061,-4.428471,16.572609,-43.44099,65.95679,-3.19959,1.0897803,2.283778,-28.28949,-16.17386,42.625904,51.482742,1.0457139,-0.008457669,-6.8828754
230,-79.41277313232422,-71.4301528930664,76.09747314453125,-10.105204129026719,-0.920645247215215,-167.6336784291589,-33.64593,21.671516,-17.728687,22.552269,-10.891858,-2.0602858,10.084733,8.045299,-12.369753,7.0486765,-14.404311,1.7111079,3.3303258,9.224064,13.395726,-4.0124736,16.33486,-42.4994,66.07688,-3.9202304,0.9369985,2.1714334,-28.14742,-15.897642,42.84697,51.298664,1.0515398,-0.07710761,-6.8076053
231,-79.94738006591797,-71.9419937133789,75.93367004394531,-10.332071625979255,-1.069619829761468,-168.16494118579624,-33.107494,21.941046,-19.222624,19.778713,-10.491783,-3.1869152,10.682015,7.958467,-11.800438,7.073202,-14.722434,2.1318486,3.4946675,9.381811,13.400988,-3.6019013,16.120613,-41.518147,66.20448,-4.587135,0.8128788,2.048937,-27.966137,-15.643634,43.129513,51.10271,1.0563289,-0.1495465,-6.716056
232,-80.48889923095703,-72.46333312988281,75.77118682861328,-10.51030008831301,-1.2255172572580546,-168.6768741667364,-32.600185,22.265783,-20.382837,17.385954,-10.197125,-4.026091,11.295783,7.7984867,-11.251411,7.092695,-15.044561,2.5764236,3.6343503,9.482493,13.409389,-3.2286327,15.936333,-40.627205,66.34998,-5.1513615,0.7507959,1.9703827,-27.77862,-15.414112,43.512146,50.935467,1.0757074,-0.22309421,-6.6116447
233,-81.04655456542969,-72.9842529296875,75.61942291259766,-10.621293072084153,-1.3789711897552694,-169.16616299488493,-32.14739,22.59616,-21.206802,15.393531,-10.030454,-4.550805,11.918019,7.5431557,-10.730073,7.1056376,-15.375928,3.0542595,3.753635,9.502791,13.420144,-2.8979766,15.788086,-39.832706,66.51654,-5.584036,0.77247536,1.9478614,-27.550095,-15.203944,43.960884,50.765377,1.0643885,-0.2993636,-6.4981103
234,-81.592529296875,-73.51426696777344,75.47270965576172,-10.684454657820144,-1.5322744745709618,-169.6436550164285,-31.713963,22.921629,-21.762661,13.703642,-9.951138,-4.9055357,12.5471945,7.2153955,-10.225749,7.115175,-15.707959,3.5606356,3.8562114,9.463285,13.429696,-2.5853994,15.678886,-39.07512,66.69494,-5.9184494,0.85542184,1.9547964,-27.320227,-15.021277,44.522514,50.613194,1.0961474,-0.3826975,-6.373333
235,-82.15532684326172,-74.05055236816406,75.32682800292969,-10.714685019100385,-1.6789080479318292,-170.09338445198404,-31.354183,23.206724,-22.013508,12.481401,-9.965392,-5.1132865,13.179286,6.832659,-9.752848,7.121573,-16.035664,4.079828,3.9293923,9.388353,13.432352,-2.2955863,15.608103,-38.398678,66.873535,-6.195359,0.9653089,1.985832,-27.04874,-14.86006,45.12221,50.47263,1.0883837,-0.45987362,-6.227802
236,-82.7309341430664,-74.60314178466797,75.1863021850586,-10.72660398663456,-1.811016543657096,-170.49822575237314,-31.134674,23.419693,-21.932165,11.913435,-10.091853,-5.186364,13.807465,6.411306,-9.327176,7.126553,-16.353188,4.5964966,3.956736,9.296789,13.413507,-2.0348897,15.572407,-37.85004,67.05223,-6.459634,1.0675563,2.0364966,-26.764225,-14.722866,45.766953,50.388783,1.0611482,-0.52373946,-6.053605
237,-83.29986572265625,-75.1594467163086,75.03652954101562,-10.723780022560506,-1.9271024432052426,-170.84002276382176,-31.12011,23.5832,-21.329567,12.201655,-10.409836,-5.073926,14.438661,5.9539514,-8.956654,7.127565,-16.672758,5.1108503,3.9244387,9.195551,13.363765,-1.8068712,15.570408,-37.439358,67.25095,-6.792454,1.1548856,2.107115,-26.431665,-14.607021,46.434544,50.3463,0.98123145,-0.5716312,-5.8385863
238,-83.8775863647461,-75.72920989990234,74.88651275634766,-10.697574341923072,-2.0292257673343657,-171.13086296090282,-31.271568,23.711494,-20.29539,13.219084,-10.901836,-4.77769,15.07072,5.4504404,-8.634327,7.123705,-16.989813,5.6311574,3.8470812,9.071493,13.287631,-1.6147721,15.600959,-37.15133,67.47685,-7.151204,1.2426378,2.2002482,-26.068016,-14.519547,47.14827,50.344727,0.88034856,-0.6097765,-5.590036
239,-84.45780181884766,-76.3191909790039,74.73112487792969,-10.64444016052875,-2.1152863809960696,-171.40088739465395,-31.499838,23.762142,-19.217989,14.656699,-11.438175,-4.3835735,15.684268,4.8989525,-8.351403,7.1217613,-17.27787,6.154113,3.7482612,8.92021,13.2013855,-1.4568439,15.660219,-36.9755,67.689026,-7.380122,1.3361171,2.313706,-25.690107,-14.454271,47.881668,50.387257,0.74143153,-0.6365945,-5.329565
