unveil-humanoid-operators/unveil-humanoid-operators.github.io/feature-analysis-animation/data/feature_matrix_instances/height_root_translate_peak_vel_walking_A064_walk_arc_cw_loop_003__A064.csv
Frame,root_translateX,root_translateY,root_translateZ,root_rotateX,root_rotateY,root_rotateZ,left_hip_pitch_joint_dof,left_hip_roll_joint_dof,left_hip_yaw_joint_dof,left_knee_joint_dof,left_ankle_pitch_joint_dof,left_ankle_roll_joint_dof,right_hip_pitch_joint_dof,right_hip_roll_joint_dof,right_hip_yaw_joint_dof,right_knee_joint_dof,right_ankle_pitch_joint_dof,right_ankle_roll_joint_dof,waist_yaw_joint_dof,waist_roll_joint_dof,waist_pitch_joint_dof,left_shoulder_pitch_joint_dof,left_shoulder_roll_joint_dof,left_shoulder_yaw_joint_dof,left_elbow_joint_dof,left_wrist_roll_joint_dof,left_wrist_pitch_joint_dof,left_wrist_yaw_joint_dof,right_shoulder_pitch_joint_dof,right_shoulder_roll_joint_dof,right_shoulder_yaw_joint_dof,right_elbow_joint_dof,right_wrist_roll_joint_dof,right_wrist_pitch_joint_dof,right_wrist_yaw_joint_dof
0,-2.4363059997558594,0.9267224073410034,75.13680267333984,-3.618227335182983,-7.1022902159449055,-13.478970443028091,3.725167,12.917345,0.07616389,73.19292,4.9741797,-9.515856,1.5363691,11.12315,-29.901642,7.520936,-6.7542415,-13.415536,-5.724982,3.3375256,13.940313,5.0496354,13.116574,-8.031904,56.755424,12.485303,5.4197903,14.4947,7.0970407,-6.5285077,10.118834,69.20729,-3.6411984,6.3643684,-17.10018
1,-1.6779568195343018,0.6092144250869751,75.25642395019531,-3.250490680302584,-7.138721776522013,-14.122000248146533,2.03008,13.317508,0.70413554,74.78514,3.516021,-8.847174,2.497873,11.138037,-29.05477,6.9958625,-7.023431,-13.148094,-5.131879,2.9092507,13.977912,5.4977355,12.949761,-8.280568,57.324947,12.845456,5.8009276,14.168856,6.863384,-6.407035,10.370403,68.73122,-3.9809554,6.260144,-17.20657
2,-0.9294936656951904,0.3143477141857147,75.371826171875,-2.8830349770275294,-7.173462818940414,-14.755525287945488,0.36025077,13.733018,1.3183969,76.42565,2.0025089,-8.227897,3.2949188,11.050211,-28.24138,6.879704,-7.513008,-12.884056,-4.541989,2.5030532,14.008321,5.8908644,12.704835,-8.541642,57.98612,13.279227,6.205324,13.866557,6.6216526,-6.2652583,10.617675,68.293434,-4.327104,6.154073,-17.352694
3,-0.19666017591953278,0.03109525702893734,75.48526763916016,-2.507037803590409,-7.200916266571442,-15.418037372332169,-1.3026221,14.129479,1.9291185,77.97031,0.53625387,-7.5135612,4.082781,10.94263,-27.412874,6.764177,-7.991991,-12.6179085,-3.9486623,2.109635,14.037717,6.2999167,12.423831,-8.76935,58.62144,13.649201,6.570543,13.592265,6.34195,-6.1291986,10.851493,67.88766,-4.6840715,6.056099,-17.48924
4,0.5309171080589294,-0.2536109387874603,75.5943603515625,-2.114059926001964,-7.215110959227188,-16.147177798187563,-2.9751754,14.462202,2.5490801,79.269325,-0.77898115,-6.565718,4.846986,10.795866,-26.553528,6.653193,-8.448788,-12.338553,-3.348732,1.7243899,14.0675745,6.7813096,12.121515,-8.914497,59.13787,13.829575,6.8371434,13.365648,5.9833937,-6.0116043,11.063146,67.526764,-5.0591774,5.977226,-17.57965
5,1.2637526988983154,-0.5367607474327087,75.69429016113281,-1.6828548502505083,-7.2126254320531835,-16.96111516162616,-4.6905594,14.676702,3.1834943,80.32523,-1.9010925,-5.236435,5.5722356,10.581303,-25.667448,6.5806556,-8.891024,-12.04031,-2.7346148,1.329435,14.09773,7.3582077,11.801058,-8.957234,59.50373,13.739822,6.9808264,13.187685,5.530074,-5.9181333,11.24624,67.229416,-5.4871707,5.9189124,-17.607592
6,1.9876049757003784,-0.8185718059539795,75.78426361083984,-1.2326173751645613,-7.195720659890501,-17.833063284822646,-6.431547,14.804615,3.8270743,81.19384,-2.887729,-3.6452892,6.2737765,10.327598,-24.765398,6.5282755,-9.322365,-11.731138,-2.1163042,0.93775547,14.130371,8.005357,11.464192,-8.926467,59.761154,13.457216,7.0365286,13.045438,5.0112433,-5.847115,11.414328,66.97413,-5.949716,5.8766556,-17.58874
7,2.6986184120178223,-1.086508870124817,75.8650894165039,-0.7991133901783642,-7.169028562817622,-18.740290861489843,-8.136381,14.915449,4.487822,81.83327,-3.8074713,-2.0595803,6.9187164,10.05705,-23.844103,6.577027,-9.796417,-11.423189,-1.5089226,0.57682073,14.169803,8.699901,11.114054,-8.846587,59.93591,13.097184,7.0344462,12.942837,4.442353,-5.798328,11.583353,66.7357,-6.377109,5.8430343,-17.540352
8,3.4150280952453613,-1.3475877046585083,75.93280792236328,-0.3942783322551331,-7.1374843932868215,-19.661313418356364,-9.740756,15.057466,5.187595,82.19647,-4.718397,-0.7394233,7.5529485,9.8004875,-22.882225,6.626134,-10.269745,-11.124269,-0.9268102,0.2504863,14.217704,9.419878,10.755261,-8.741052,60.052685,12.775352,7.004011,12.883089,3.840448,-5.770486,11.768322,66.4859,-6.700306,5.811427,-17.478806
9,4.120223045349121,-1.6084144115447998,75.99130249023438,-0.01639938377943738,-7.10190182138966,-20.602753186163607,-11.228988,15.261881,5.9664907,82.26935,-5.644768,0.24832071,8.172764,9.557186,-21.849005,6.6767087,-10.742857,-10.820058,-0.3668484,-0.04433201,14.2724085,10.178447,10.388648,-8.593603,60.094543,12.49708,6.933183,12.870676,3.2013533,-5.763581,11.970611,66.21988,-6.8732777,5.7855377,-17.387259
10,4.837506294250488,-1.8756574392318726,76.03902435302734,0.3441786002953409,-7.05969471177696,-21.571464720097083,-12.632716,15.488361,6.8122034,82.07348,-6.541952,1.0385584,8.779588,9.316963,-20.759588,6.726895,-11.210943,-10.510802,0.17601278,-0.31473663,14.331446,10.982133,10.01312,-8.401295,60.055725,12.208961,6.812105,12.900933,2.5195491,-5.776772,12.18423,65.95151,-6.942517,5.7671533,-17.26316
11,5.551661968231201,-2.1451292037963867,76.07855987548828,0.6772737215645704,-7.012258214646635,-22.54717436498469,-13.957215,15.690516,7.659348,81.61261,-7.3668847,1.6708603,9.379281,9.087712,-19.671959,6.7748504,-11.675027,-10.228396,0.6921033,-0.55155003,14.396463,11.797521,9.631475,-8.208241,59.97814,11.938041,6.673416,12.963786,1.8085393,-5.8065963,12.413089,65.68197,-6.9744864,5.746985,-17.145302
12,6.252501010894775,-2.4036343097686768,76.10619354248047,0.9727997874301626,-6.961853125033379,-23.509571918161996,-15.213819,15.823963,8.439446,80.896454,-8.076452,2.1881065,9.980125,8.877641,-18.64355,6.819252,-12.136816,-10.00421,1.1737839,-0.7468571,14.46911,12.591062,9.250014,-8.05841,59.90259,11.711283,6.5500565,13.0497265,1.0813041,-5.8492765,12.65773,65.4119,-7.0372357,5.7154956,-17.073046
13,6.9465556144714355,-2.6627814769744873,76.1220932006836,1.2238679428959898,-6.907237819360064,-24.468148681417176,-16.413269,15.902985,9.157474,79.92308,-8.665565,2.6174133,10.579329,8.692953,-17.684406,6.8609586,-12.590522,-9.865971,1.6291926,-0.894569,14.549455,13.363075,8.872827,-7.9560685,59.820255,11.530185,6.4442244,13.1770525,0.32537064,-5.905685,12.926565,65.14763,-7.134749,5.6680093,-17.060604
14,7.639455795288086,-2.9393770694732666,76.12793731689453,1.4384724394728912,-6.849275572206305,-25.42923484162758,-17.550438,15.943824,9.8441515,78.68873,-9.15093,2.934802,11.1761465,8.528109,-16.765144,6.90109,-13.036485,-9.79017,2.061319,-1.002656,14.635565,14.12787,8.500528,-7.881914,59.715748,11.381408,6.340199,13.343116,-0.4608316,-5.97561,13.214361,64.885345,-7.2356567,5.6103106,-17.085663
15,8.354708671569824,-3.200925588607788,76.12603759765625,1.6280179668203236,-6.793091721136418,-26.366872773267037,-18.613043,15.908834,10.468121,77.19528,-9.522282,3.1110811,11.778231,8.373104,-15.885332,6.941158,-13.485485,-9.730873,2.455126,-1.0853051,14.726773,14.872984,8.135859,-7.8447623,59.618137,11.267888,6.245161,13.508073,-1.2478681,-6.052538,13.499003,64.6108,-7.3566837,5.5480614,-17.133186
16,9.055520057678223,-3.4659557342529297,76.10965728759766,1.8036723592474242,-6.744010918197809,-27.25616589703029,-19.588114,15.761688,10.997418,75.44238,-9.768731,3.1181827,12.392311,8.217108,-15.044782,6.97975,-13.94768,-9.641455,2.7981675,-1.1584436,14.822457,15.585422,7.7843337,-7.853351,59.55681,11.192002,6.1664624,13.632173,-2.0080848,-6.128201,13.756582,64.31268,-7.5152917,5.4869423,-17.189482
17,9.759203910827637,-3.7503340244293213,76.08434295654297,1.966572111968035,-6.711352889158315,-28.09854307031982,-20.475012,15.493675,11.407691,73.42547,-9.882374,2.9225235,13.024663,8.054956,-14.241953,7.016307,-14.427476,-9.499403,3.088195,-1.2280959,14.931112,16.273159,7.4505434,-7.8969398,59.522556,11.156786,6.1037827,13.708059,-2.7484262,-6.1966715,13.987624,63.993557,-7.732899,5.4270854,-17.257553
18,10.46754264831543,-4.028816223144531,76.04742431640625,2.111662304454263,-6.6909851198797545,-28.906436446436924,-21.2777,15.133091,11.717319,71.14106,-9.869788,2.5572383,13.668844,7.8919373,-13.477509,7.0513473,-14.919165,-9.330839,3.334532,-1.2895697,15.049638,16.940228,7.136606,-7.9732413,59.503628,11.159063,6.0543337,13.755908,-3.4826043,-6.2581453,14.200489,63.66136,-7.9953156,5.3663545,-17.344505
19,11.181990623474121,-4.3150434494018555,76.00028228759766,2.2406364746816383,-6.667688686384906,-29.670985726035365,-21.991259,14.699195,11.95857,68.59226,-9.743542,2.094189,14.291779,7.7255983,-12.756464,7.131488,-15.442872,-9.160373,3.5429225,-1.3402385,15.160997,17.566309,6.84444,-8.104602,59.524277,11.191241,6.0220375,13.776792,-4.1899433,-6.3120923,14.378962,63.309834,-8.268761,5.304884,-17.441023
20,11.898171424865723,-4.605060577392578,75.93876647949219,2.3524234400164543,-6.625836687745008,-30.38151448565574,-22.611582,14.209413,12.161405,65.78033,-9.517169,1.6014776,14.872561,7.5594606,-12.082871,7.2780476,-16.00597,-9.012133,3.7189822,-1.3756266,15.247242,18.130678,6.5769243,-8.315335,59.60937,11.244684,6.0109754,13.772244,-4.84772,-6.3589506,14.507171,62.92834,-8.518279,5.246074,-17.536966
21,12.613648414611816,-4.8900370597839355,75.87097930908203,2.4484697415208374,-6.559806830071474,-31.032446065720563,-23.150684,13.662984,12.3093405,62.689304,-9.187654,1.1046642,15.433512,7.3955507,-11.451918,7.422321,-16.573877,-8.895547,3.859742,-1.397788,15.30448,18.625153,6.336433,-8.620215,59.76843,11.320632,6.026949,13.7344475,-5.4554844,-6.398908,14.566805,62.507362,-8.7373085,5.189256,-17.633226
22,13.342446327209473,-5.183152198791504,75.7909927368164,2.5280870738132806,-6.479085544261542,-31.631243955287445,-23.598568,13.056405,12.389005,59.3153,-8.75079,0.5699137,15.983045,7.2308545,-10.86168,7.560793,-17.145323,-8.793391,3.9674768,-1.4087358,15.341789,19.061089,6.1248097,-9.004405,59.986687,11.421043,6.0663924,13.665004,-6.021872,-6.432933,14.568219,62.052376,-8.943086,5.133637,-17.733473
23,14.081738471984863,-5.488056182861328,75.70055389404297,2.5925505748766597,-6.391521331033092,-32.18819903355588,-23.915928,12.399475,12.440061,55.664295,-8.214143,-0.023714848,16.538742,7.069944,-10.31083,7.683137,-17.70675,-8.691809,4.056995,-1.4119742,15.3623085,19.449759,5.9478035,-9.446109,60.24939,11.53824,6.1182127,13.576972,-6.5380635,-6.4620776,14.536892,61.578094,-9.139975,5.0792866,-17.832071
24,14.830432891845703,-5.800429344177246,75.60110473632812,2.642626808352024,-6.30518916107372,-32.71422222996594,-24.068819,11.707078,12.499099,51.741673,-7.5838823,-0.6950356,17.119297,6.9194593,-9.799342,7.776443,-18.242847,-8.577337,4.140075,-1.4006584,15.368145,19.7947,5.7924395,-9.925083,60.553474,11.66757,6.1724224,13.490067,-6.9979644,-6.4928293,14.499347,61.102966,-9.333474,5.026467,-17.923971
25,15.582855224609375,-6.1076202392578125,75.4935302734375,2.6864578103921235,-6.2170662749640755,-33.2071120784785,-24.04286,10.991326,12.552645,47.44953,-6.81655,-1.4045732,17.714962,6.7678366,-9.325246,7.847168,-18.762371,-8.445824,4.2124224,-1.3926339,15.36225,20.094944,5.677315,-10.465457,60.90111,11.819902,6.224341,13.401636,-7.400829,-6.51933,14.45697,60.614403,-9.524692,4.981509,-18.009161
26,16.350187301635742,-6.428255081176758,75.37053680419922,2.7187154133668683,-6.125499887770521,-33.665154514468306,-23.845848,10.25508,12.577861,42.787907,-5.9151697,-2.1469662,18.325127,6.6177654,-8.887025,7.8917265,-19.265305,-8.30385,4.275877,-1.3692988,15.341287,20.33741,5.5815573,-11.078972,61.30824,11.99402,6.2819457,13.312451,-7.749801,-6.550509,14.388583,60.111336,-9.715152,4.942375,-18.08987
27,17.13166046142578,-6.7619853019714355,75.23246002197266,2.719561325098527,-6.041070001101363,-34.10035892835894,-23.47507,9.511056,12.596594,37.885967,-4.950283,-2.9840713,18.976088,6.4970894,-8.483333,7.895596,-19.728653,-8.156647,4.340338,-1.3178909,15.305823,20.55511,5.509701,-11.683971,61.729443,12.16539,6.3460054,13.212608,-8.040523,-6.58565,14.32183,59.611557,-9.891196,4.896129,-18.162163
28,17.918668746948242,-7.11080265045166,75.07067108154297,2.6664244745423433,-5.974918445360595,-34.527717344750265,-22.926138,8.785029,12.631406,32.859146,-3.9887795,-3.9704783,19.69833,6.4375954,-8.108102,7.8389378,-20.127026,-8.010626,4.4166713,-1.2194625,15.25524,20.78386,5.4587836,-12.199602,62.1163,12.311728,6.421279,13.095176,-8.275247,-6.6215577,14.28454,59.1427,-10.0414505,4.8298907,-18.225006
29,18.72816276550293,-7.466042995452881,74.89102172851562,2.5341082966394115,-5.935580509005631,-34.953863339341254,-22.140812,8.111305,12.691925,27.543095,-3.044072,-5.0927377,20.52661,6.4752045,-7.7640967,7.684193,-20.459341,-7.8815136,4.505213,-1.0529113,15.186863,21.036781,5.4280767,-12.599391,62.462418,12.4442425,6.512604,12.937281,-8.450254,-6.648662,14.288038,58.703,-10.15583,4.7332935,-18.274544
30,19.561721801757812,-7.837838649749756,74.68566131591797,2.3128187852150157,-5.922710027952118,-35.39445437504889,-21.080055,7.54085,12.765098,21.813084,-2.0342565,-6.2988896,21.466288,6.6168284,-7.4174757,7.4078727,-20.71036,-7.7684927,4.6381016,-0.78576833,15.101635,21.28745,5.4041414,-12.95962,62.801968,12.56051,6.6200743,12.760451,-8.560495,-6.682971,14.297745,58.283707,-10.248664,4.6155615,-18.312754
31,20.393535614013672,-8.233333587646484,74.4591293334961,1.9836417284219232,-5.938187641731084,-35.88969976890689,-19.767319,7.1399655,12.84664,15.849269,-0.88603693,-7.6031775,22.370644,6.8520975,-7.0066657,7.301706,-20.986103,-7.656535,4.8432055,-0.38739854,15.013182,21.541746,5.379018,-13.277334,63.115513,12.643305,6.7307906,12.604026,-8.617659,-6.7466435,14.323738,57.894184,-10.330557,4.4941654,-18.343147
32,21.246675491333008,-8.65605640411377,74.20346069335938,1.5232904064195953,-5.982222977166285,-36.478715494132274,-18.241043,6.9578204,12.940632,9.859459,0.4714605,-9.047722,23.272276,7.201682,-6.448577,7.2695527,-21.18607,-7.5353794,5.1189094,0.14957695,14.929354,21.825481,5.351813,-13.500365,63.36908,12.689761,6.8304396,12.502895,-8.669525,-6.8170066,14.405883,57.58386,-10.413201,4.3862467,-18.379293
33,22.114797592163086,-9.0818452835083,73.93197631835938,0.9024752266081131,-6.0557206817315175,-37.176055709018456,-17.82497,7.2719917,12.8828125,6.6084347,0.5970941,-10.853775,24.211893,7.6995335,-5.7156224,7.2298136,-21.268232,-7.3999715,5.488723,0.87732834,14.84059,22.134666,5.3045225,-13.6489105,63.574272,12.693921,6.9234347,12.4800205,-8.704034,-6.9263563,14.555554,57.34466,-10.493101,4.2929926,-18.430227
34,22.998842239379883,-9.505570411682129,73.6578140258789,0.19888334635349436,-6.151288571969952,-37.922460634612925,-18.683668,8.02195,12.649228,6.3691783,-0.7632331,-12.908924,25.181034,8.256419,-4.8930106,7.1919956,-21.261694,-7.242104,5.8988595,1.6992447,14.740475,22.453365,5.2452307,-13.713226,63.74735,12.667073,7.0134983,12.511051,-8.720902,-7.049604,14.762305,57.172707,-10.567447,4.2058296,-18.492878
35,23.909711837768555,-9.918119430541992,73.41673278808594,-0.4148380661551891,-6.245318044740866,-38.603901886153466,-19.37626,8.68525,12.452817,6.168783,-2.0164714,-14.804485,26.150204,8.673598,-4.1226444,7.164157,-21.172035,-7.0336204,6.256844,2.4068441,14.639378,22.732775,5.2010865,-13.707224,63.90992,12.595932,7.091203,12.577312,-8.737393,-7.1392303,14.957113,57.084595,-10.65868,4.1260824,-18.55328
36,24.840740203857422,-10.307058334350586,73.19944763183594,-0.829681378310845,-6.313406636007107,-39.06348874113501,-19.974817,8.951842,12.259814,6.2057548,-3.1759517,-15.000033,27.085348,8.823515,-3.5801642,7.1637607,-21.017435,-6.7390175,6.388789,2.9047222,14.551107,22.956854,5.1420245,-13.633503,64.06138,12.476061,7.14548,12.658579,-8.726114,-7.2483015,15.144907,57.028088,-10.746935,4.060735,-18.580036
37,25.768146514892578,-10.698601722717285,73.0286636352539,-1.1286221773470986,-6.365829744176013,-39.451407441922115,-20.240557,9.090045,12.205046,6.197525,-4.186316,-15.000033,27.956984,8.829963,-3.0934613,7.2041817,-20.763432,-6.4331865,6.4554696,3.2692845,14.477482,23.136662,5.086246,-13.491058,64.18553,12.282113,7.17051,12.762148,-8.715882,-7.341712,15.28685,57.043385,-10.875783,4.0069914,-18.562088
38,26.687223434448242,-11.103962898254395,72.8777847290039,-1.3751719890920617,-6.39924596020591,-39.79321030790756,-20.25637,9.151225,12.264174,6.186669,-5.031757,-15.000033,28.776842,8.769858,-2.633226,7.2785916,-20.41687,-6.114681,6.457924,3.575016,14.403993,23.289255,5.013926,-13.258803,64.279106,12.032594,7.171232,12.890805,-8.69758,-7.448915,15.439203,57.11577,-11.01568,3.963755,-18.510635
39,27.58767318725586,-11.528177261352539,72.75164794921875,-1.5050506521857958,-6.3966685651490485,-40.06971240042277,-20.095419,9.08728,12.41587,6.189754,-5.440618,-15.000033,29.54419,8.5802145,-2.2544472,7.3582683,-19.942846,-5.761281,6.3908935,3.7513006,14.314337,23.380886,4.9280906,-12.982742,64.385376,11.767056,7.1598444,13.034227,-8.639692,-7.5645385,15.574161,57.218742,-11.134656,3.9375734,-18.44778
40,28.494962692260742,-11.974029541015625,72.65599822998047,-1.4383516885417817,-6.351420898885187,-40.25972059964051,-19.799406,8.832134,12.637709,6.188596,-5.1440434,-15.000033,30.25292,8.180167,-2.021721,7.445499,-19.325346,-5.352036,6.2463937,3.722723,14.20317,23.371737,4.8262606,-12.7123785,64.55295,11.521381,7.1494737,13.181219,-8.51672,-7.6956506,15.663262,57.33787,-11.198111,3.926921,-18.391853
41,29.39472770690918,-12.41706371307373,72.63473510742188,-1.084840503587572,-6.23971333675693,-40.347768123302046,-19.310055,8.309325,13.003529,6.165497,-3.8403723,-15.000033,30.604477,7.460833,-2.00325,8.126426,-18.927214,-4.8535066,6.048565,3.3782885,14.056191,23.246967,4.753186,-12.4911175,64.78845,11.26514,7.141275,13.342126,-8.323421,-7.800775,15.644119,57.482235,-11.240609,3.936535,-18.33714
42,30.296112060546875,-12.888484954833984,72.66571807861328,-0.4734759527997292,-6.073987642148754,-40.366316827269145,-18.655386,7.5416126,13.463263,6.1899223,-1.7897676,-15.000033,30.350624,6.438362,-2.1765661,9.9475975,-19.02307,-4.2816873,5.813951,2.7501042,13.8819065,23.038795,4.708546,-12.284824,65.05631,10.989688,7.128895,13.514976,-8.071747,-7.884915,15.546751,57.657078,-11.266062,3.9644287,-18.277208
43,31.23423194885254,-13.357691764831543,72.71277618408203,0.4220818390861432,-5.9143039621369695,-40.287853822449705,-17.950253,6.302684,13.88879,6.2325196,0.49623546,-13.927756,29.864588,5.06996,-2.5498703,12.311621,-19.216343,-3.6337562,5.5150394,1.8540913,13.736351,22.753984,4.665888,-12.093267,65.34696,10.743292,7.1172996,13.673093,-7.731584,-8.008642,15.3961935,57.817062,-11.221349,4.000593,-18.225159
44,32.21417999267578,-13.797119140625,72.78515625,1.387681619329579,-5.781006597341761,-40.21745655687294,-17.32552,4.9076347,14.214175,6.300714,2.5061445,-12.266459,29.25852,3.5896719,-2.9585645,15.003094,-19.254402,-2.9984345,5.2464123,0.8729862,13.5737915,22.483082,4.6661606,-11.929358,65.59394,10.537165,7.119537,13.8026085,-7.3698564,-8.070615,15.223989,58.076836,-11.078027,4.0379972,-18.246778
45,33.21059036254883,-14.245467185974121,72.87079620361328,2.4206136507963008,-5.682145680492751,-40.240836518253374,-16.762337,3.467503,14.382371,6.3354144,4.3575892,-10.780874,28.644728,2.0019987,-3.3123047,17.808994,-19.01844,-2.3512886,5.086009,-0.17131482,13.405021,22.209543,4.690737,-11.787553,65.81595,10.398728,7.1362967,13.893776,-6.9419575,-8.125941,15.035899,58.362885,-10.792897,4.0774503,-18.3459
46,34.213584899902344,-14.742608070373535,72.9580078125,3.555230358223617,-5.59867560245391,-40.313481319082406,-16.21959,1.9246571,14.464388,6.3549776,6.259106,-9.307874,28.024654,0.27367052,-3.6306462,20.684404,-18.533255,-1.6864487,5.0110664,-1.3155811,13.23414,21.918234,4.7603226,-11.685566,66.01143,10.301345,7.1627216,13.948898,-6.4220247,-8.190773,14.802978,58.644474,-10.39408,4.12079,-18.491802
47,35.20326614379883,-15.262903213500977,73.04873657226562,4.661182000753866,-5.538751106240929,-40.385904578596715,-15.658355,0.4111981,14.524261,6.3842177,7.8683453,-7.9188037,27.378317,-1.4232887,-3.9101043,23.587957,-17.708313,-1.1406171,4.9627185,-2.4357142,13.069813,21.604881,4.8648944,-11.60318,66.1728,10.232083,7.1955576,13.97413,-5.8623857,-8.232592,14.535373,58.999924,-9.939017,4.1610546,-18.65944
48,36.18612289428711,-15.777751922607422,73.16487884521484,5.618742736028692,-5.508066022480351,-40.40692528331064,-15.909972,-0.7128685,14.617251,8.371777,7.812319,-6.6733193,26.656836,-2.9311428,-4.1647477,26.527527,-16.4742,-0.8441951,4.900783,-3.412883,12.925405,21.249773,5.0078006,-11.528181,66.29377,10.182761,7.2295194,13.965604,-5.288142,-8.241124,14.214946,59.46546,-9.489168,4.190134,-18.809862
49,37.15351104736328,-16.301103591918945,73.28878784179688,6.401282116687432,-5.504666552560567,-40.32063371513429,-16.07338,-1.6685168,14.729603,10.413416,6.841628,-5.5455475,25.831226,-4.2086825,-4.4760194,29.553852,-14.758922,-0.9288569,4.788897,-4.2248197,12.779076,20.82958,5.188331,-11.472171,66.413956,10.152212,7.2635217,13.909866,-4.686665,-8.204607,13.8148365,60.08765,-9.038805,4.172771,-18.961504
50,38.10954666137695,-16.832338333129883,73.4194107055664,7.071097036807005,-5.526750564345649,-40.15564406264956,-16.133615,-2.5181494,14.791585,12.431476,5.2174315,-4.512762,24.915874,-5.3460402,-4.847456,32.665676,-12.620601,-1.2892618,4.6494746,-4.936527,12.627937,20.353504,5.411324,-11.43896,66.52826,10.144811,7.300007,13.811365,-4.0539846,-8.123319,13.344409,60.83518,-8.566222,4.123411,-19.12535
51,39.05178451538086,-17.353195190429688,73.55268096923828,7.639336278170072,-5.58175868216453,-39.991484242603356,-16.025675,-3.2566457,14.815372,14.245904,3.387581,-3.6156745,23.917397,-6.37402,-5.173836,35.81372,-10.198948,-1.7046124,4.5169487,-5.5523343,12.512153,19.850765,5.6643133,-11.394064,66.57031,10.163502,7.339903,13.701481,-3.43908,-8.01022,12.858258,61.638676,-8.10519,4.1112413,-19.257336
52,39.983768463134766,-17.857685089111328,73.69532775878906,8.112705579364228,-5.67844600075195,-39.90750859167961,-15.669872,-3.8935223,14.838341,15.630565,1.8374525,-2.8880067,22.832796,-7.3086963,-5.329515,38.97826,-7.6434507,-1.9594169,4.4191875,-6.0682817,12.476705,19.350868,5.923976,-11.296244,66.476326,10.213697,7.384047,13.614096,-2.891136,-7.888079,12.419205,62.430344,-7.6870575,4.206708,-19.314665
53,40.89491271972656,-18.364459991455078,73.8509292602539,8.463962385001164,-5.839585033161271,-39.88737518468389,-15.014065,-4.4380126,14.8485985,16.496672,0.6749378,-2.3656626,21.665602,-8.100631,-5.2570233,42.232258,-4.9600744,-2.0341291,4.335906,-6.443418,12.54827,18.849363,6.1704106,-11.129307,66.23816,10.321083,7.448543,13.545292,-2.393517,-7.773198,11.983916,63.18376,-7.361771,4.477481,-19.272697
54,41.793785095214844,-18.856365203857422,74.020751953125,8.697972498818327,-6.05515457919742,-39.89546171776185,-14.119252,-4.8955917,14.83899,16.985403,-0.3497739,-2.0199432,20.391432,-8.747555,-5.036334,45.60966,-2.1033626,-2.0362258,4.249461,-6.680486,12.70233,18.327736,6.4004526,-10.913072,65.89682,10.478578,7.5275903,13.485131,-1.9266087,-7.667522,11.544129,63.92942,-7.0961185,4.8719854,-19.158081
55,42.667606353759766,-19.339496612548828,74.17940521240234,8.868187289115587,-6.285026125977233,-39.983131186693875,-13.065729,-5.284187,14.868128,17.186182,-1.2709559,-1.7813202,18.968033,-9.335084,-4.726009,49.03871,0.8462079,-1.9492147,4.189818,-6.843073,12.908016,17.798552,6.618446,-10.655738,65.45972,10.641389,7.589518,13.460674,-1.5405537,-7.5812926,11.221935,64.69782,-6.7945466,5.279585,-19.008076
56,43.51211929321289,-19.81795883178711,74.33769989013672,9.031633032920135,-6.489041904958698,-40.19878434064404,-11.94306,-5.619744,14.990369,17.20013,-2.1254826,-1.5826576,17.343039,-9.956914,-4.381542,52.466667,3.802004,-1.7689692,4.1808867,-6.997419,13.134235,17.277933,6.8285465,-10.361409,64.930435,10.766653,7.6025286,13.4969845,-1.2801075,-7.527126,11.145988,65.51347,-6.357416,5.5921245,-18.858404
57,44.34636688232422,-20.277633666992188,74.49555206298828,9.199711610878214,-6.663344402842882,-40.60126601451043,-10.71759,-5.88836,15.256686,16.984617,-2.9193182,-1.4312484,15.394612,-10.664364,-3.9466734,56.02937,7.2065372,-1.4430884,4.26739,-7.150242,13.394972,16.773659,7.0274525,-10.00987,64.274,10.850324,7.564393,13.595861,-1.1819276,-7.523107,11.402618,66.42038,-5.6577373,5.7683725,-18.713823
58,45.14088821411133,-20.731834411621094,74.65470123291016,9.345480213533419,-6.826511801707372,-41.14677723787412,-9.3546,-6.0927734,15.627984,16.49572,-3.627095,-1.3592138,13.169945,-11.40469,-3.4045262,59.730316,10.951724,-1.028038,4.4143558,-7.264336,13.699645,16.281883,7.2085814,-9.599337,63.496754,10.915065,7.4896035,13.744327,-1.2111388,-7.5709815,11.91557,67.38736,-4.77556,5.8721833,-18.553383
59,45.9047966003418,-21.166149139404297,74.81039428710938,9.468039646470368,-6.9699190146494026,-41.73911344991456,-7.921816,-6.2750483,16.025797,15.80419,-4.2323995,-1.3398203,10.887295,-12.130648,-2.8779268,63.29758,14.119513,-0.6786943,4.5410805,-7.345571,14.008327,15.79966,7.3766065,-9.167685,62.663982,10.955344,7.3728294,13.946091,-1.3085055,-7.657189,12.562858,68.3331,-3.9275758,5.9527,-18.377438
60,46.65094757080078,-21.589311599731445,74.9554214477539,9.566976242690993,-7.085112745104464,-42.28420867059737,-6.4957123,-6.469892,16.372631,14.99872,-4.7290163,-1.3428488,8.773178,-12.80491,-2.5048518,66.464386,15.774467,-0.52439994,4.5746155,-7.405814,14.281799,15.318071,7.543993,-8.758023,61.846176,10.963535,7.2050567,14.203399,-1.4117346,-7.7575884,13.215616,69.17923,-3.3335779,6.054364,-18.187405
61,47.389915466308594,-22.016834259033203,75.10147094726562,9.660133306921514,-7.161738961685174,-42.78670201264598,-5.0716505,-6.704792,16.676973,14.036956,-5.0830026,-1.3610187,6.9136944,-13.456674,-2.32448,69.189445,15.276662,-0.5278251,4.5193987,-7.4755588,14.50818,14.845306,7.722573,-8.3774185,61.03299,10.913701,6.95967,14.55098,-1.5376155,-7.8618975,13.920628,69.957664,-3.0593936,6.1792874,-17.96598
62,48.1130485534668,-22.46224594116211,75.25016021728516,9.733742930371045,-7.204506773368959,-43.2872377700361,-3.6271055,-6.947678,16.971893,12.907228,-5.314062,-1.4126067,5.182278,-14.085189,-2.2720153,71.621315,13.239943,-0.6087798,4.41362,-7.5407395,14.705274,14.381881,7.915305,-8.010102,60.194862,10.816209,6.6484995,14.973291,-1.7106848,-7.968883,14.712044,70.699486,-2.988097,6.303788,-17.719332
63,48.810760498046875,-22.90501594543457,75.39572143554688,9.744630109612434,-7.227677761582911,-43.74744477400044,-2.2135987,-7.1340103,17.220125,11.751095,-5.500046,-1.4998893,3.4895248,-14.616047,-2.3253717,73.779755,10.612895,-0.8108469,4.2398105,-7.556604,14.878285,13.908585,8.125262,-7.6672215,59.3649,10.718324,6.327851,15.397889,-1.8735636,-8.069457,15.438076,71.31278,-3.0711432,6.442027,-17.485329
64,49.484283447265625,-23.35897445678711,75.54541015625,9.657188868604129,-7.247199156678398,-44.129577564346555,-0.8744643,-7.214397,17.389648,10.694174,-5.711517,-1.6189518,1.7484242,-14.987172,-2.4641073,75.68166,8.346082,-1.1939628,3.9884925,-7.4852986,15.036442,13.403052,8.359974,-7.36948,58.578247,10.662431,6.0550556,15.753374,-1.9648377,-8.1511755,15.937343,71.70492,-3.2628672,6.608181,-17.302198
65,50.15464401245117,-23.824853897094727,75.69725799560547,9.455652879935533,-7.2752097376969544,-44.42057202068582,0.38161844,-7.163555,17.472054,9.77875,-5.9742374,-1.7717389,-0.058696076,-15.166039,-2.7153332,77.31929,6.553787,-1.8488764,3.6521204,-7.315222,15.189064,12.861766,8.626822,-7.127568,57.836365,10.648951,5.8369045,16.025127,-1.969587,-8.202452,16.15091,71.84216,-3.6556566,6.849461,-17.17869
66,50.80080032348633,-24.28008270263672,75.84056854248047,9.16486095749702,-7.301273957611415,-44.643863825523084,1.575363,-7.0146575,17.495089,8.94355,-6.254922,-1.9507673,-1.8768653,-15.172392,-3.0778742,78.676094,4.781687,-2.6900234,3.2493465,-7.07613,15.332549,12.291711,8.930341,-6.9402995,57.12575,10.653762,5.6464033,16.249086,-1.9186245,-8.220768,16.159552,71.78091,-4.2425528,7.142223,-17.094296
67,51.44175338745117,-24.738780975341797,75.98162841796875,8.822112769194021,-7.3126007459166775,-44.81735153769645,2.7082312,-6.806884,17.480642,8.160628,-6.536802,-2.1377952,-3.6868138,-15.052178,-3.5061517,79.75923,3.1251915,-3.5509186,2.807902,-6.801792,15.457958,11.690485,9.273526,-6.8059907,56.456768,10.684248,5.4906034,16.42945,-1.8223275,-8.214295,16.014685,71.5663,-4.8278046,7.3951316,-17.045408
68,52.06618881225586,-25.190919876098633,76.11442565917969,8.462171086623076,-7.29482294898364,-44.957836630428105,3.7800505,-6.578322,17.447815,7.3996882,-6.8000007,-2.3187258,-5.4719357,-14.862841,-3.9615414,80.57748,1.6806023,-4.277786,2.3563128,-6.5206637,15.556875,11.054116,9.657577,-6.725044,55.839443,10.747691,5.376345,16.57009,-1.6849663,-8.195589,15.767501,71.23425,-5.213129,7.5178494,-17.029861
69,52.68680953979492,-25.655752182006836,76.24021911621094,8.077939215203745,-7.234714226814409,-45.06342231720778,4.5457077,-6.2485614,17.41302,7.159635,-7.299409,-2.5017955,-7.255461,-14.603188,-4.460301,81.1268,0.5248002,-4.8526254,1.8891352,-6.223024,15.619652,10.376816,10.081638,-6.7032866,55.276775,10.849305,5.3183885,16.665518,-1.4923983,-8.171618,15.387307,70.74617,-5.2966075,7.470812,-17.066536
70,53.29067611694336,-26.115676879882812,76.36588287353516,7.659367979378818,-7.14310146397387,-45.12848288642747,5.1554976,-5.8506746,17.35339,7.138762,-7.8779593,-2.6903849,-9.03383,-14.259907,-5.028136,81.399185,-0.40534157,-5.3538594,1.39794,-5.898485,15.656838,9.660649,10.54353,-6.743317,54.764153,10.983043,5.3083687,16.714523,-1.2394242,-8.141278,14.861437,70.088005,-5.198994,7.3081126,-17.14827
71,53.88926696777344,-26.571931838989258,76.48192596435547,7.230957675085454,-7.0415052806393,-45.1634599694439,5.7418613,-5.443706,17.277838,7.116577,-8.439364,-2.8734534,-10.752135,-13.863749,-5.643939,81.3956,-1.2202446,-5.779397,0.90238297,-5.569981,15.68679,8.915197,11.040903,-6.8374467,54.29996,11.139689,5.3182406,16.728424,-0.94719094,-8.107134,14.271174,69.337395,-5.056029,7.0801005,-17.236097
72,54.481773376464844,-27.02719497680664,76.58690643310547,6.819825836323848,-6.953220339229448,-45.17807359758245,6.3394213,-5.0551553,17.206375,7.090644,-9.00135,-3.0405393,-12.358848,-13.443612,-6.2792115,81.12011,-2.031801,-6.1248536,0.41792375,-5.262088,15.726714,8.151998,11.570061,-6.972904,53.88068,11.311856,5.319895,16.718367,-0.6399294,-8.074454,13.704781,68.57432,-4.9993916,6.8378215,-17.292223
73,55.08464431762695,-27.496381759643555,76.67987823486328,6.425433695498539,-6.882629563822888,-45.16978708111052,6.9550776,-4.6892524,17.139103,7.065903,-9.568689,-3.1746783,-13.849644,-12.993741,-6.92722,80.55978,-2.8792562,-6.4269743,-0.062026817,-4.977817,15.782423,7.367705,12.129954,-7.1508365,53.510906,11.512687,5.30807,16.670883,-0.31103867,-8.046309,13.16676,67.78717,-5.0580435,6.5639195,-17.288979
74,55.67747497558594,-27.96442222595215,76.76014709472656,6.039851826107793,-6.8198358421625525,-45.135494331200434,7.5733852,-4.3345037,17.06672,7.037734,-10.129664,-3.2860277,-15.251348,-12.5061035,-7.5981865,79.7147,-3.6989698,-6.6746655,-0.5448887,-4.7061048,15.844592,6.5588675,12.718549,-7.375802,53.190033,11.742255,5.296279,16.5854,0.047521457,-8.022088,12.62151,66.94831,-5.1613207,6.238059,-17.252104
75,56.2760124206543,-28.437549591064453,76.82557678222656,5.6660838698822795,-6.755649248673279,-45.082881505968594,8.18725,-3.9914393,16.995836,7.008307,-10.688949,-3.4029841,-16.55991,-12.005941,-8.287568,78.60534,-4.4452734,-6.794813,-1.0195497,-4.448072,15.905655,5.7363477,13.328237,-7.6372347,52.906883,11.973643,5.284678,16.491762,0.4202462,-8.000057,12.09517,66.09447,-5.296727,5.918606,-17.224705
76,56.85545349121094,-28.90546989440918,76.87100982666016,5.309927260451168,-6.683469281198507,-45.019729560428175,8.791116,-3.660742,16.932684,6.9788346,-11.25111,-3.551497,-17.770144,-11.520327,-8.993144,77.252075,-5.072222,-6.716826,-1.4788605,-4.204738,15.957421,4.9129577,13.948785,-7.918803,52.64977,12.181883,5.27399,16.42135,0.7841761,-7.9798393,11.618313,65.27245,-5.4503894,5.661108,-17.250807
77,57.4515266418457,-29.37855339050293,76.90757751464844,4.966556720898377,-6.602480477484429,-44.943784000070835,9.385314,-3.336111,16.879889,6.9470844,-11.819882,-3.7453392,-18.873585,-11.065251,-9.732741,75.63143,-5.587051,-6.358572,-1.9315448,-3.9684234,15.996507,4.089539,14.577163,-8.221546,52.41959,12.368275,5.262258,16.385893,1.127846,-7.964751,11.21165,64.48558,-5.6342673,5.490663,-17.361021
78,58.049476623535156,-29.869539260864258,76.93376159667969,4.632932549923405,-6.514583279640711,-44.85094681233454,9.975988,-3.0200381,16.83246,6.912278,-12.396241,-3.9624891,-19.874216,-10.628548,-10.503015,73.73621,-6.005318,-5.785969,-2.3824136,-3.7384918,16.027132,3.2605414,15.212996,-8.548817,52.220894,12.545582,5.249959,16.368923,1.4622318,-7.956633,10.858639,63.714714,-5.8495193,5.3746147,-17.526058
79,58.64572525024414,-30.352460861206055,76.93354034423828,4.312262660627392,-6.423346909494859,-44.746279758904834,10.561668,-2.716279,16.785122,6.8868456,-12.976357,-4.176031,-20.789272,-10.190159,-11.270809,71.62733,-6.3035316,-5.149919,-2.820396,-3.5179281,16.0546,2.4278567,15.849638,-8.885028,52.048035,12.70784,5.2418094,16.359411,1.7958012,-7.952861,10.531864,62.97432,-6.0691404,5.2819324,-17.701246
80,59.24155044555664,-30.835905075073242,76.91604614257812,4.0241227384080664,-6.3266070841981055,-44.63731966483715,11.146972,-2.448691,16.734602,6.856439,-13.545276,-4.362751,-21.633299,-9.743328,-11.991305,69.34214,-6.4473863,-4.604576,-3.2328362,-3.3257506,16.076744,1.594769,16.477776,-9.213002,51.89689,12.851009,5.242639,16.347887,2.1351728,-7.950749,10.203674,62.281254,-6.267559,5.181808,-17.84325
81,59.84295654296875,-31.326358795166016,76.88178253173828,3.778498416048952,-6.223537235562654,-44.53024249420103,11.71633,-2.2244265,16.685385,6.8460436,-14.114688,-4.5194945,-22.430716,-9.291193,-12.613333,66.90448,-6.4271894,-4.1987867,-3.611776,-3.168744,16.093079,0.7515653,17.095505,-9.535478,51.77536,12.970895,5.2520533,16.333918,2.480318,-7.950945,9.867918,61.636257,-6.4497275,5.0624537,-17.942078
82,60.446834564208984,-31.82012176513672,76.84281158447266,3.5701544577140045,-6.114382649748761,-44.42162510897917,12.269815,-2.03878,16.639187,6.8599772,-14.691255,-4.6575027,-23.166376,-8.849989,-13.157651,64.288376,-6.2655773,-3.8559835,-3.9633288,-3.0423098,16.102571,-0.10221729,17.703737,-9.8593025,51.685856,13.072243,5.2682047,16.3234,2.8286383,-7.9548697,9.537906,61.02887,-6.6259937,4.944052,-18.020739
83,61.044166564941406,-32.324005126953125,76.782958984375,3.3947480462180533,-6.00293298705685,-44.304284622422635,12.822987,-1.8891504,16.588892,6.874986,-15.260472,-4.7798038,-23.798153,-8.42894,-13.685049,61.466213,-5.9847007,-3.5375965,-4.297996,-2.9433856,16.104319,-0.9513229,18.297245,-10.172294,51.617233,13.164169,5.293869,16.31621,3.1726022,-7.960837,9.21636,60.480747,-6.776855,4.8317313,-18.087465
84,61.652652740478516,-32.832725524902344,76.70726013183594,3.255517862451707,-5.894351857978307,-44.173764953205406,13.383846,-1.7786682,16.531326,6.8907633,-15.821298,-4.891001,-24.28548,-8.041703,-14.248012,58.411446,-5.6070886,-3.2016325,-4.623802,-2.8775191,16.099487,-1.7809572,18.868544,-10.459822,51.559933,13.257331,5.332074,16.313475,3.5041652,-7.9659305,8.906425,60.01362,-6.8835635,4.73189,-18.150787
85,62.25737380981445,-33.343143463134766,76.6207275390625,3.152478907395117,-5.786439806030301,-44.02556523752346,13.946037,-1.7033323,16.466824,6.904718,-16.36985,-4.9961495,-24.63376,-7.6977015,-14.819537,55.108208,-5.1079493,-2.890753,-4.9473104,-2.8437831,16.087454,-2.5994859,19.416822,-10.717698,51.520947,13.370318,5.3942437,16.322344,3.8147795,-7.9700875,8.606113,59.631283,-6.9319935,4.6408124,-18.219364
86,62.86138916015625,-33.86589813232422,76.52335357666016,3.0827443795107374,-5.676629392466638,-43.8622957197835,14.50395,-1.6584554,16.396378,6.9198813,-16.90728,-5.097887,-24.85989,-7.394166,-15.379792,51.577602,-4.4893584,-2.616804,-5.264133,-2.837791,16.066229,-3.411385,19.943348,-10.950545,51.50405,13.493985,5.4753337,16.340923,4.1094775,-7.974438,8.314708,59.324528,-6.9353886,4.5566936,-18.286873
87,63.47351837158203,-34.4017448425293,76.41082763671875,3.046965390022955,-5.5719238784201774,-43.690356019344506,15.074021,-1.648135,16.316936,6.932521,-17.435009,-5.1976323,-24.935806,-7.122657,-15.9941435,47.824936,-3.80885,-2.2903762,-5.567088,-2.8598368,16.034367,-4.198545,20.443615,-11.158341,51.497826,13.597089,5.5539174,16.357403,4.3982015,-7.978906,8.037378,59.096718,-6.9158263,4.489304,-18.34106
88,64.09175109863281,-34.96007537841797,76.28229522705078,3.0466388030048206,-5.479780487607668,-43.51495851803221,15.670983,-1.6769313,16.223894,6.9453754,-17.958258,-5.2953734,-24.832369,-6.8728814,-16.728806,43.84219,-3.1183012,-1.8218267,-5.850352,-2.9105773,15.9903755,-4.9440103,20.91057,-11.34066,51.493404,13.649317,5.6084433,16.360954,4.6905036,-7.9837823,7.7799306,58.952465,-6.8950853,4.448373,-18.370428
89,64.71142578125,-35.52613830566406,76.14048767089844,3.0847795858605513,-5.4043185438690315,-43.32588943120628,16.298283,-1.7490416,16.103428,6.957337,-18.489462,-5.3792224,-24.497696,-6.6743326,-17.627525,39.511326,-2.3781986,-1.1942993,-6.1170144,-2.9905548,15.93724,-5.660291,21.341005,-11.504057,51.50569,13.626276,5.6286354,16.355194,4.993836,-7.9899726,7.526859,58.88788,-6.888006,4.4457436,-18.366161
90,65.34076690673828,-36.0946044921875,75.97309875488281,3.162989962936393,-5.3427239777482605,-43.12016820972833,16.949133,-1.861254,15.956798,6.970316,-19.023283,-5.4551697,-23.945065,-6.5177727,-18.64637,34.829807,-1.5588443,-0.45909065,-6.3716326,-3.101202,15.874253,-6.354521,21.735035,-11.646621,51.538555,13.551447,5.627647,16.344992,5.302428,-7.997808,7.279175,58.90137,-6.879644,4.4732127,-18.3363
91,65.97533416748047,-36.685340881347656,75.79009246826172,3.2844198667664872,-5.293438154377046,-42.91085449936615,17.626787,-2.0129561,15.798138,6.9812117,-19.530792,-5.546733,-23.235275,-6.345479,-19.720224,29.941338,-0.7182637,0.36477166,-6.614551,-3.2494054,15.795085,-7.0005,22.09183,-11.754912,51.567387,13.464223,5.6192636,16.321762,5.60629,-8.0087805,7.0670357,59.00135,-6.8492193,4.5107923,-18.295975
92,66.6191177368164,-37.28678512573242,75.58916473388672,3.457681387278493,-5.257049472126373,-42.70653821885682,18.338444,-2.212172,15.635887,6.9842353,-19.9824,-5.674055,-22.4235,-6.1209626,-20.784582,24.983006,0.08471163,1.2502743,-6.8527007,-3.4482,15.693975,-7.569269,22.410908,-11.810713,51.56526,13.40596,5.617126,16.276203,5.8956966,-8.024988,6.9232306,59.195633,-6.774642,4.5386443,-18.260384
93,67.27456665039062,-37.91022491455078,75.35851287841797,3.7253844813045474,-5.250994612571578,-42.47899032784811,19.101877,-2.5069304,15.445787,6.983973,-20.397104,-5.8217406,-21.439837,-5.864877,-21.842945,19.765003,0.84350646,2.2691567,-7.1161876,-3.7461712,15.565157,-8.051998,22.693718,-11.804057,51.536293,13.390285,5.629275,16.192625,6.1787944,-8.050449,6.8654656,59.497944,-6.632979,4.5466833,-18.231962
94,67.9417724609375,-38.553104400634766,75.10606384277344,4.125311349181547,-5.288941978799406,-42.185826131385895,19.925543,-2.9391448,15.168849,6.975469,-20.775553,-5.9703097,-20.219805,-5.684078,-22.93848,14.195136,1.6191574,3.3815925,-7.4416103,-4.184866,15.41506,-8.460105,22.944786,-11.741915,51.49012,13.395595,5.6471615,16.077473,6.465885,-8.085748,6.8772354,59.894424,-6.4398518,4.547975,-18.20301
95,68.61072540283203,-39.21569061279297,74.82856750488281,4.644676797582937,-5.359861411164611,-41.82864085896995,20.78137,-3.4854014,14.779184,6.963378,-21.069094,-6.1361413,-18.83339,-5.6247625,-24.073835,8.543873,2.4788988,4.415478,-7.830248,-4.7495675,15.253808,-8.795328,23.168724,-11.631885,51.408054,13.408765,5.6593666,15.955685,6.7486835,-8.123797,6.9394107,60.354244,-6.2315416,4.5563545,-18.172585
96,69.2748031616211,-39.882389068603516,74.5618896484375,5.186327941119687,-5.425764515875701,-41.47681269182585,21.62906,-4.0296674,14.338676,6.9496713,-21.236454,-6.3567367,-18.933815,-6.3103437,-25.067839,6.6738834,1.6175411,5.245261,-8.203552,-5.3197756,15.084527,-9.1019,23.32883,-11.500282,51.317593,13.426262,5.655489,15.8693,7.0107145,-8.153355,7.0125504,60.85989,-6.05212,4.5856547,-18.148283
97,69.92808532714844,-40.56855392456055,74.30335998535156,5.695092233033278,-5.455554125866069,-41.191698059827864,22.440418,-4.509897,13.930413,6.9333262,-21.280233,-6.6497912,-19.682926,-7.199588,-25.978233,6.4667654,0.1677969,5.8713865,-8.51078,-5.849795,14.919236,-9.336336,23.480124,-11.317214,51.13851,13.4234085,5.628297,15.810973,7.2253118,-8.1774645,7.123154,61.421318,-5.909613,4.633312,-18.121634
98,70.58171081542969,-41.253292083740234,74.06753540039062,6.172692378658498,-5.455897790881296,-40.973747485674465,23.23102,-4.931083,13.5657425,6.916091,-21.22534,-7.0072823,-20.31396,-7.932952,-26.896135,6.1221013,-1.0250552,6.3564167,-8.753932,-6.3440533,14.752068,-9.493959,23.62015,-11.075146,50.884727,13.410339,5.584779,15.768297,7.391318,-8.194351,7.2794113,62.058823,-5.7843637,4.690843,-18.0957
99,71.23262023925781,-41.968360900878906,73.8652572631836,6.476413448127538,-5.40606951706491,-40.90586906797825,24.003134,-5.1327186,13.343762,6.895724,-21.065666,-7.4690785,-20.920198,-8.431851,-27.817072,6.089185,-2.1532893,6.6548758,-8.842922,-6.631344,14.589445,-9.6001625,23.708998,-10.810565,50.610535,13.398346,5.532352,15.751916,7.516146,-8.20502,7.4313307,62.73708,-5.6659794,4.7681413,-18.066856
100,71.87272644042969,-42.69267272949219,73.69157409667969,6.688840141730457,-5.337839237150723,-40.90091485553133,24.769508,-5.2202706,13.136777,6.866767,-20.76819,-7.998584,-21.27081,-8.802264,-28.787153,6.129333,-3.0156894,6.7917247,-8.888683,-6.810709,14.415699,-9.608748,23.766758,-10.517653,50.31191,13.393436,5.476811,15.741176,7.634521,-8.21467,7.577735,63.402,-5.530494,4.874445,-18.024958
101,72.52808380126953,-43.42848205566406,73.54031372070312,6.85494521123669,-5.284301188927313,-40.97144697874055,25.52859,-5.2430387,12.939228,6.9297194,-20.422628,-8.607919,-21.221243,-9.009245,-29.835419,6.1045947,-3.5774171,6.8745103,-8.895174,-6.9320946,14.259629,-9.479385,23.801083,-10.16662,49.942184,13.401403,5.4202647,15.72445,7.730056,-8.224621,7.7358966,64.066,-5.367102,5.0236015,-17.968138
102,73.17903900146484,-44.1750373840332,73.39933776855469,6.9721772027118165,-5.227839894464833,-41.09885154951278,26.298399,-5.2129946,12.748478,6.9897537,-19.973846,-9.29181,-20.897295,-9.048078,-30.955645,6.0863,-3.8884006,6.889942,-8.891219,-6.995423,14.107948,-9.2053385,23.81094,-9.729088,49.489456,13.426247,5.357687,15.703965,7.788129,-8.237923,7.93218,64.750565,-5.183815,5.2081532,-17.902472
103,73.84583282470703,-44.93732452392578,73.27828216552734,6.9945072352078945,-5.140172169201226,-41.31088940863159,27.05637,-5.083205,12.620259,7.0313044,-19.362494,-10.030304,-20.443815,-8.896353,-32.047085,6.1400075,-3.8962343,6.6413164,-8.778043,-6.94409,13.940434,-8.889306,23.78829,-9.336781,49.060596,13.43347,5.291905,15.706875,7.8747067,-8.244942,8.081233,65.39897,-5.001996,5.401159,-17.820517
104,74.53974914550781,-45.7122917175293,73.17105865478516,6.848817121841129,-5.016677419756347,-41.64072689934667,27.791319,-4.772586,12.621643,7.0765343,-18.544722,-10.808044,-19.882,-8.434612,-33.038296,6.084433,-3.4363089,5.922573,-8.63927,-6.712938,13.76356,-8.374582,23.717125,-8.822499,48.559776,13.480116,5.222852,15.7354145,7.909916,-8.257405,8.291831,66.05048,-4.8111553,5.579782,-17.74617
105,75.2158203125,-46.50729751586914,73.117431640625,6.497032754516547,-4.835317436538838,-42.10058188270256,28.488365,-4.2422466,12.799748,7.139716,-17.566383,-11.675688,-19.24922,-7.673705,-34.006603,6.1103106,-2.384164,4.650237,-8.353785,-6.2520394,13.55777,-7.780168,23.61365,-8.360589,48.057228,13.50969,5.1589155,15.803138,7.983537,-8.264643,8.448013,66.65037,-4.6268115,5.734545,-17.657928
106,75.8689193725586,-47.33445358276367,73.11783599853516,5.947309733784645,-4.628739774707619,-42.67016260028677,29.176897,-3.5067194,13.120075,7.2266507,-16.444994,-12.633261,-18.444271,-6.6161194,-34.991844,6.1235733,-0.8340086,2.8969493,-8.01981,-5.5620503,13.339639,-7.035657,23.4158,-7.8213663,47.51449,13.586011,5.096584,15.905287,8.030136,-8.282809,8.635131,67.25397,-4.431954,5.8841763,-17.578106
107,76.58779907226562,-48.18274688720703,73.1313247680664,5.196945390992242,-4.433050215719585,-43.35798127594796,29.865267,-2.5656266,13.554839,7.3680363,-15.108171,-13.597807,-17.716791,-5.350237,-35.800022,6.4502535,0.57800233,0.7281216,-7.553597,-4.661245,13.156487,-6.2634406,23.176353,-7.341061,47.045536,13.636637,5.0232377,16.040207,8.088395,-8.30027,8.774733,67.811516,-4.2503877,6.0253644,-17.480837
108,77.25125885009766,-49.05508041381836,73.19132995605469,4.3968100143412805,-4.286747930711315,-44.05641460905892,30.532135,-1.5781437,13.914886,7.5734754,-13.447471,-14.441093,-17.035717,-3.9753525,-36.27569,6.658364,1.6545476,-1.7253206,-7.086517,-3.7246811,13.005571,-5.471974,22.899193,-6.895812,46.70212,13.665278,4.927452,16.199675,8.141972,-8.309711,8.898424,68.324196,-4.0854387,6.160846,-17.371517
109,77.88240051269531,-49.95552444458008,73.31018829345703,3.4606939552831286,-4.144544783993243,-44.73439991602002,29.51088,-0.049446575,14.194805,11.378038,-13.304858,-15.000033,-16.544664,-2.4198503,-36.342407,6.8188434,2.2799635,-4.7305703,-6.6442976,-2.657408,12.844987,-4.6649847,22.591078,-6.5050163,46.492294,13.657319,4.792806,16.410513,8.195248,-8.308299,9.006798,68.79163,-3.9392037,6.299611,-17.245329
110,78.54402923583984,-50.844486236572266,73.4231185913086,2.3943325281703616,-3.9412743220307376,-45.33632571229596,28.355654,1.5691873,14.2679615,15.2044,-12.82838,-15.000033,-17.01389,-1.318077,-36.153103,8.978009,1.6665568,-8.195052,-6.284824,-1.4556863,12.600215,-3.8240263,22.248968,-6.1597314,46.382137,13.621762,4.6307673,16.662846,8.249749,-8.297263,9.099848,69.2203,-3.8078012,6.438242,-17.104574
111,79.22845458984375,-51.72315216064453,73.51770782470703,1.3236757790572735,-3.757308871778931,-45.84543635373568,27.125761,3.2091193,14.127221,19.08005,-12.033965,-15.000033,-17.501152,-0.20643714,-35.9284,11.078515,0.93502307,-11.523905,-6.0341616,-0.27123666,12.343467,-2.9526865,21.869482,-5.825475,46.37545,13.582951,4.471171,16.898224,8.295227,-8.278741,9.180776,69.60958,-3.6903381,6.559151,-16.96055
112,79.88227844238281,-52.6069450378418,73.61355590820312,0.45564483930221056,-3.6471001448370512,-46.26440520078959,25.916822,4.596097,13.698777,22.814985,-10.813674,-15.000033,-17.770472,0.7401947,-35.72573,12.913684,0.19847795,-14.089454,-5.8995953,0.6748844,12.126867,-2.0514696,21.447927,-5.4605246,46.469784,13.565583,4.343259,17.059832,8.313923,-8.254596,9.25148,69.9608,-3.5866158,6.644207,-16.823914
113,80.53877258300781,-53.49637222290039,73.72254943847656,-0.10300746279532456,-3.650766647999051,-46.57786838605901,24.804232,5.5800657,12.940347,26.296213,-9.027786,-15.000033,-17.839819,1.2645695,-35.37538,14.830484,-0.7605292,-15.000033,-5.919736,1.2717628,11.983355,-1.0787606,20.968452,-5.0108833,46.670265,13.604485,4.2454042,17.142612,8.282826,-8.226375,9.336313,70.30955,-3.488815,6.6688566,-16.686161
114,81.19837951660156,-54.373287200927734,73.83304595947266,-0.4733787341856912,-3.725944914803302,-46.84547414228475,23.683325,6.3023586,11.974026,29.704996,-6.796733,-15.000033,-17.734234,1.5686767,-34.825497,16.689573,-1.8862083,-15.000033,-6.028723,1.6560113,11.888102,-0.04694634,20.42803,-4.501721,46.970974,13.6819,4.16478,17.176384,8.209815,-8.197964,9.428918,70.64724,-3.3982394,6.6489573,-16.546541
115,81.83304595947266,-55.243621826171875,73.95826721191406,-0.779222998862932,-3.8417330483556245,-47.12892870240775,22.441969,6.9118786,10.916795,33.228916,-4.3738008,-15.000033,-17.364927,1.9091791,-34.24779,18.11437,-2.9532545,-15.000033,-6.1240134,1.9645969,11.843225,0.9643991,19.848509,-4.013081,47.34905,13.738147,4.113878,17.157583,8.123289,-8.170204,9.4828825,70.90631,-3.3281233,6.626978,-16.42557
116,82.45823669433594,-56.09629821777344,74.09903717041016,-1.078610929679975,-4.027408168120669,-47.373725310961916,21.060457,7.47246,9.746486,36.937916,-1.9397595,-15.000033,-16.705645,2.2969303,-33.793854,19.097801,-3.9213326,-15.000033,-6.2109566,2.2568583,11.902836,1.8765802,19.264278,-3.6329694,47.78256,13.70682,4.10537,17.08139,8.050647,-8.140098,9.447472,71.019005,-3.2935047,6.644875,-16.34187
117,83.05551147460938,-56.94264602661133,74.23542022705078,-1.3789081753089791,-4.3152258852985765,-47.572619755631756,19.498405,7.9788866,8.363327,40.99579,0.64053655,-15.000033,-15.6927395,2.809127,-33.530937,19.51062,-4.742985,-15.000033,-6.287098,2.5255625,12.1136875,2.6915183,18.694416,-3.350586,48.247345,13.545123,4.1637287,16.91884,8.000464,-8.096491,9.283444,70.951454,-3.3101256,6.7384906,-16.30011
118,83.62016296386719,-57.78606033325195,74.3727035522461,-1.6518634637735534,-4.680915538066731,-47.75451655817101,17.784065,8.359999,6.7626624,45.294186,3.4298708,-15.000033,-14.388814,3.4535804,-33.375385,19.400993,-5.427415,-15.000033,-6.342705,2.7366595,12.437517,3.4471452,18.141075,-3.1367218,48.757893,13.288899,4.275973,16.67931,7.9585156,-8.033634,9.02037,70.74549,-3.3694348,6.8765,-16.289907
119,84.16219329833984,-58.63878631591797,74.50926971435547,-1.8905949339299488,-5.073725260448307,-47.91507530027492,16.000847,8.583157,5.0686364,49.522762,6.116631,-15.000033,-12.942164,4.160892,-33.2562,18.981087,-6.0139527,-15.000033,-6.378008,2.8954954,12.805179,4.121924,17.616703,-3.0506442,49.35028,12.988431,4.3985467,16.41375,7.919287,-7.9566355,8.717711,70.443436,-3.4445276,7.0005455,-16.306313
120,84.68468475341797,-59.469974517822266,74.63603973388672,-2.099642120414957,-5.4464616373464345,-48.046784968595695,14.213491,8.670809,3.4339123,53.43897,8.344207,-15.000033,-11.4968195,4.84451,-33.11157,18.480053,-6.548129,-15.000033,-6.393843,3.0188577,13.151814,4.6922193,17.137894,-3.1553,50.062084,12.690293,4.486808,16.171207,7.881482,-7.875298,8.430891,70.08356,-3.509755,7.0523033,-16.341728
121,85.19639587402344,-60.28071212768555,74.75858306884766,-2.2972940040009373,-5.814349297019193,-48.11895146781577,12.373618,8.609773,1.7818005,57.134037,10.186988,-15.000033,-10.011168,5.509657,-32.958412,17.861195,-7.014521,-15.000033,-6.403631,3.1198077,13.494565,5.1304927,16.723082,-3.5044322,50.934658,12.336147,4.5031714,15.973237,7.8648515,-7.792002,8.145459,69.63359,-3.5475307,7.014249,-16.388636
122,85.6987533569336,-61.08595657348633,74.88434600830078,-2.470973969528774,-6.195963543607557,-48.14647576236922,10.471994,8.390261,0.08712081,60.729374,11.755508,-15.000033,-8.42521,6.1917434,-32.811157,17.02306,-7.3934917,-15.000033,-6.3948903,3.1775255,13.857685,5.4542356,16.373735,-4.056734,51.941624,11.916741,4.479639,15.786877,7.8702164,-7.7005982,7.8381233,69.082825,-3.5749393,6.9178324,-16.449146
123,86.17496490478516,-61.88169860839844,75.00083923339844,-2.5969616601561847,-6.554307620945232,-48.196074355537455,8.618301,8.12687,-1.4067124,64.05232,12.730848,-15.000033,-6.823759,6.8654375,-32.610123,16.047354,-7.695925,-15.000033,-6.3295307,3.1798098,14.192791,5.710257,16.073994,-4.7261114,53.015915,11.55585,4.4755254,15.581464,7.8640704,-7.601224,7.556407,68.50219,-3.617137,6.7789464,-16.531607
124,86.63867950439453,-62.66868591308594,75.11795806884766,-2.660470565521808,-6.850062242042028,-48.336755773678455,6.8992796,7.981633,-2.4743028,66.94704,12.778265,-15.000033,-5.297458,7.507023,-32.300735,15.028941,-7.93322,-15.000033,-6.1741724,3.1268196,14.453844,5.9524026,15.798382,-5.4187694,54.08414,11.382883,4.549591,15.327276,7.8081875,-7.501035,7.3539104,67.96348,-3.6974587,6.6138825,-16.645487
125,87.08931732177734,-63.43609619140625,75.23697662353516,-2.666024382936118,-7.065944312910639,-48.56786112743616,5.3649607,8.0890875,-3.0194552,69.34323,11.38592,-15.000033,-3.8488882,8.126652,-31.883423,13.932358,-8.084099,-15.000033,-5.933187,3.0308585,14.626357,6.163502,15.536229,-6.155012,55.181637,11.480474,4.7145987,15.007621,7.698737,-7.406846,7.2637963,67.47292,-3.8139753,6.3963256,-16.815971
126,87.54471588134766,-64.19445037841797,75.3662109375,-2.6216861252806773,-7.22548349261839,-48.85906279480144,3.9365444,8.395827,-3.1925662,71.36338,8.853818,-15.000033,-2.427776,8.727675,-31.38305,12.719445,-8.145871,-15.000033,-5.6274676,2.8978646,14.73736,6.328467,15.288223,-6.9606347,56.32848,11.770603,4.938492,14.642542,7.549224,-7.3228817,7.2564807,67.00218,-3.9558263,6.1258545,-17.03188
127,87.98777770996094,-64.93582153320312,75.48949432373047,-2.522135430403931,-7.347190238744161,-49.23591012033793,2.5086176,8.784046,-3.1440346,73.122284,6.074795,-15.000033,-1.0426471,9.279111,-30.784027,11.47299,-8.157917,-15.000033,-5.2525973,2.7238746,14.803913,6.5082436,15.041599,-7.7477145,57.42497,12.143687,5.212251,14.258053,7.3530903,-7.2491097,7.2969937,66.55471,-4.1307516,5.8668027,-17.244808
128,88.43623352050781,-65.67290496826172,75.60943603515625,-2.3625008702810106,-7.449813858868799,-49.72555221466336,0.98468196,9.129187,-3.021491,74.728584,3.9387257,-15.000033,0.30146044,9.7602625,-30.07163,10.264781,-8.154985,-15.000033,-4.8082323,2.509639,14.843967,6.7660804,14.777808,-8.422502,58.37018,12.494187,5.5280843,13.882375,7.097768,-7.187038,7.356135,66.14118,-4.3439555,5.681393,-17.408792
129,88.8724136352539,-66.40296173095703,75.7315444946289,-2.0969271014567097,-7.5254496712132015,-50.34746432916237,-0.68246466,9.445706,-2.726048,76.19206,2.736517,-14.964251,1.5165393,10.072526,-29.244696,9.293405,-8.238595,-15.000033,-4.283882,2.212297,14.847346,7.1045656,14.483142,-8.978975,59.15768,12.857043,5.936852,13.499965,6.770923,-7.1415424,7.4402494,65.77997,-4.618401,5.594771,-17.521996
130,89.30789947509766,-67.11946868896484,75.8508529663086,-1.7299863021847317,-7.568464504146156,-51.073928386738324,-2.4298651,10.0571575,-1.8638566,77.44756,1.9764613,-13.984825,2.6150749,10.192183,-28.33593,8.542194,-8.397896,-14.782478,-3.695715,1.8486679,14.816051,7.49224,14.155852,-9.457272,59.84011,13.273824,6.4239645,13.1049795,6.3794823,-7.1157293,7.565148,65.463036,-4.942344,5.5711026,-17.605501
131,89.74867248535156,-67.82250213623047,75.97195434570312,-1.3223384780287453,-7.60850319767704,-51.84334089548675,-4.15826,10.6639595,-0.91936404,78.48163,1.372619,-12.841635,3.6439395,10.189121,-27.397923,7.9676604,-8.624162,-14.4662285,-3.1070356,1.4621174,14.790222,7.938402,13.797069,-9.834456,60.406155,13.646926,6.8858743,12.742975,5.937479,-7.1107697,7.7126713,65.16329,-5.271084,5.580353,-17.648445
132,90.19738006591797,-68.51327514648438,76.08477783203125,-0.9320687388898188,-7.645381774792408,-52.63752926530007,-5.823678,11.187973,-0.07109731,79.28583,0.65242517,-11.633165,4.6421533,10.162753,-26.426908,7.4529996,-8.855368,-14.159796,-2.5369215,1.1109581,14.775646,8.45482,13.410507,-10.085408,60.841793,13.877691,7.2207236,12.461525,5.458774,-7.1265106,7.86692,64.85353,-5.559468,5.5924077,-17.640917
133,90.64319610595703,-69.1991958618164,76.19464874267578,-0.569770394413665,-7.684526551733952,-53.457345570457896,-7.430833,11.568385,0.63302594,79.8541,-0.24623823,-10.357388,5.6100492,10.119999,-25.399652,7.0075583,-9.079112,-13.869358,-1.9901571,0.803791,14.778523,9.060255,12.993312,-10.182254,61.11904,13.909277,7.398982,12.269278,4.935826,-7.1627727,8.030904,64.53055,-5.7836013,5.610956,-17.551792
134,91.09142303466797,-69.87921905517578,76.29149627685547,-0.21372654095592505,-7.716342905588843,-54.31952518081463,-9.006033,11.849464,1.2935821,80.19295,-1.1820253,-8.995768,6.468087,10.01164,-24.324953,6.7988367,-9.387082,-13.582967,-1.4492656,0.5207522,14.786679,9.74308,12.542727,-10.146961,61.2563,13.803675,7.4757977,12.144133,4.365817,-7.2194824,8.215652,64.20693,-5.9705067,5.648878,-17.395546
135,91.53825378417969,-70.5621109008789,76.37556457519531,0.15096821700185897,-7.737341108871108,-55.205815485221954,-10.538902,12.062335,1.9444971,80.31433,-2.112331,-7.6192336,7.254001,9.8475685,-23.254812,6.730411,-9.772881,-13.299467,-0.92130977,0.2453339,14.79141,10.46831,12.065805,-10.033338,61.30258,13.63534,7.4805894,12.086764,3.7666101,-7.2947893,8.410407,63.88671,-6.154612,5.6843996,-17.230448
136,91.98135375976562,-71.2373046875,76.44535827636719,0.5123954430556641,-7.7384108410738826,-56.097897929448905,-12.0156,12.265142,2.6109304,80.21364,-2.9834895,-6.299046,7.9814596,9.649124,-22.246122,6.752719,-10.251823,-13.018529,-0.41047102,-0.017870018,14.782528,11.201665,11.575043,-9.895676,61.305447,13.478305,7.4414897,12.096673,3.1617234,-7.3844123,8.601982,63.559525,-6.3703794,5.7035613,-17.113804
137,92.43968963623047,-71.90777587890625,76.49101257324219,0.8833147377561736,-7.717712928408252,-56.995922062526326,-13.448151,12.449352,3.3022532,79.90379,-3.7871587,-4.9428406,8.67865,9.414,-21.323711,6.794998,-10.813951,-12.725498,0.08832305,-0.28501195,14.75426,11.950981,11.077716,-9.728744,61.25288,13.33402,7.3424053,12.188846,2.5530226,-7.486574,8.780005,63.227345,-6.655337,5.7041755,-17.05691
138,92.86878967285156,-72.5767822265625,76.51766204833984,1.2582026385260876,-7.6790117759754475,-57.90578776645347,-14.836965,12.589978,4.0058837,79.37625,-4.5470176,-3.5554378,9.3588085,9.153749,-20.451672,6.8368273,-11.422073,-12.4274235,0.57744265,-0.5505047,14.713603,12.730845,10.573267,-9.515469,61.123272,13.167476,7.1755605,12.355327,1.9304743,-7.599336,8.950081,62.893524,-6.9824376,5.6921124,-17.030085
139,93.29431915283203,-73.24956512451172,76.53919219970703,1.609369025452354,-7.629716129530321,-58.81213155891807,-16.146132,12.715036,4.7187448,78.59199,-5.250595,-2.3449526,10.014478,8.894196,-19.599646,6.9120464,-12.052515,-12.1508465,1.0437742,-0.78989625,14.672611,13.516269,10.064799,-9.291474,60.951675,12.995869,6.9814,12.562965,1.2978187,-7.718806,9.122024,62.550316,-7.29002,5.66704,-17.030582
140,93.72228240966797,-73.93305206298828,76.55281066894531,1.914796869896975,-7.580519906765609,-59.70068814354365,-17.340004,12.85571,5.4389453,77.5102,-5.8783197,-1.5170674,10.634954,8.660763,-18.736683,7.059243,-12.68308,-11.92122,1.476925,-0.9798356,14.643307,14.281513,9.558802,-9.092919,60.77183,12.835563,6.800837,12.778604,0.6565017,-7.841879,9.301409,62.19574,-7.5183578,5.624391,-17.056198
141,94.14131927490234,-74.60371398925781,76.56503295898438,2.1633381494249444,-7.532400610559048,-60.57654145179775,-18.410475,13.055614,6.1962647,76.09889,-6.4429293,-1.2105652,11.237325,8.473074,-17.837177,7.233327,-13.269189,-11.758896,1.8790232,-1.1128479,14.627199,15.0297165,9.059191,-8.916957,60.572742,12.669153,6.6331134,13.018824,-0.002509384,-7.9650693,9.49171,61.822716,-7.6156836,5.55869,-17.115103
142,94.56310272216797,-75.28338623046875,76.55449676513672,2.3717312258160415,-7.482671701996299,-61.44476136079545,-19.373371,13.284338,6.991432,74.37855,-6.9308114,-1.2878432,11.824483,8.315363,-16.921486,7.4259257,-13.831109,-11.645074,2.2564516,-1.205565,14.617269,15.773529,8.567185,-8.748897,60.337852,12.495004,6.4620695,13.291612,-0.6781549,-8.088578,9.6867,61.43567,-7.626822,5.4734783,-17.206455
143,94.9843978881836,-75.96289825439453,76.53265380859375,2.5507453498167107,-7.4328326728097895,-62.291748352400276,-20.23236,13.465056,7.776946,72.38889,-7.2837124,-1.5351436,12.414645,8.17634,-16.02029,7.6155715,-14.383107,-11.545284,2.605511,-1.269817,14.613691,16.495264,8.084753,-8.6077585,60.104977,12.349421,6.298683,13.552035,-1.3486453,-8.210849,9.877437,61.042202,-7.6350303,5.3779387,-17.311514
144,95.4015884399414,-76.64973449707031,76.49607849121094,2.7145459697355037,-7.384417839411352,-63.10359380904034,-20.992464,13.526042,8.498525,70.171135,-7.4543076,-1.7346741,13.023448,8.042176,-15.164851,7.7821918,-14.940697,-11.4232235,2.9241734,-1.3171824,14.616446,17.177435,7.6149178,-8.512156,59.910187,12.269015,6.1553063,13.755223,-1.9921104,-8.330275,10.053207,60.650757,-7.7246594,5.281648,-17.412226
145,95.81410217285156,-77.34185791015625,76.4488525390625,2.8610677058239005,-7.343045297751564,-63.88518932340626,-21.667,13.482111,9.138599,67.75579,-7.43822,-1.770792,13.659653,7.9109135,-14.356177,7.914912,-15.504586,-11.265707,3.21556,-1.3480009,14.633502,17.824368,7.1585264,-8.460149,59.743546,12.274171,6.032509,13.893928,-2.6123552,-8.447296,10.206135,60.26352,-7.9538546,5.184224,-17.50372
146,96.23624420166016,-78.03133392333984,76.39250946044922,2.9870472327229938,-7.307317109831542,-64.64169226975442,-22.251642,13.36693,9.720864,65.11575,-7.2639785,-1.7714573,14.312311,7.7857594,-13.58082,8.022984,-16.065113,-11.088829,3.4812918,-1.3569291,14.661478,18.441877,6.7162046,-8.442984,59.59137,12.340722,5.9252257,13.990812,-3.217258,-8.561511,10.341755,59.874718,-8.266035,5.081688,-17.595764
147,96.65121459960938,-78.73265075683594,76.32445526123047,3.0933880740715862,-7.265938392535637,-65.35982748810315,-22.730068,13.146636,10.244254,62.209583,-6.941053,-1.8795285,14.968888,7.663046,-12.848909,8.114454,-16.62295,-10.900676,3.716889,-1.3485688,14.6830015,19.015263,6.2927523,-8.467697,59.48265,12.437361,5.837826,14.046634,-3.7941968,-8.672292,10.470302,59.4843,-8.573969,4.978424,-17.692722
148,97.06854248046875,-79.43647766113281,76.24508666992188,3.183977005877315,-7.208493771677276,-66.0265166291456,-23.083038,12.791948,10.703814,58.982582,-6.4724755,-2.2351058,15.624212,7.5446744,-12.169461,8.185229,-17.172453,-10.711197,3.9195328,-1.3255287,14.681076,19.529846,5.8949223,-8.5435,59.445847,12.531672,5.7747655,14.06116,-4.327878,-8.776968,10.600691,59.08918,-8.789954,4.878533,-17.797796
149,97.4830551147461,-80.1551742553711,76.15347290039062,3.261650208312132,-7.132850345114125,-66.63578266560098,-23.296074,12.32685,11.096759,55.365826,-5.8139954,-2.8855934,16.27478,7.427179,-11.543202,8.233183,-17.716982,-10.516919,4.0831428,-1.2958323,14.652703,19.986912,5.5283246,-8.676079,59.480057,12.625221,5.7364206,14.021969,-4.821115,-8.874252,10.739007,58.684464,-8.872934,4.778595,-17.92168
150,97.89815521240234,-80.87309265136719,76.04840850830078,3.3242248635448517,-7.0450970913747115,-67.19753794362111,-23.374643,11.770627,11.410987,51.38371,-4.9714503,-3.7395232,16.926619,7.311718,-10.964153,8.256073,-18.254423,-10.314012,4.215947,-1.2564127,14.606996,20.393345,5.1931977,-8.859674,59.57047,12.730123,5.7206244,13.932138,-5.277373,-8.96262,10.876385,58.27008,-8.875242,4.677548,-18.05834
151,98.31988525390625,-81.60311126708984,75.93092346191406,3.360977243804792,-6.948947829269225,-67.7230483686543,-23.326765,11.103939,11.621909,47.108162,-4.0281405,-4.7184677,17.588848,7.211396,-10.43062,8.252287,-18.77463,-10.113658,4.3357315,-1.1941054,14.544722,20.743412,4.8883605,-9.083645,59.725014,12.830933,5.727349,13.814978,-5.685849,-9.04205,10.999835,57.856228,-8.85201,4.5827184,-18.18786
152,98.76116180419922,-82.35114288330078,75.80107116699219,3.3642413511585114,-6.849068436576101,-68.22472688309244,-23.159084,10.326197,11.704267,42.604794,-3.070626,-5.7337785,18.2703,7.140124,-9.938798,8.221774,-19.267586,-9.9274435,4.4611826,-1.0945618,14.466811,21.031559,4.611433,-9.33772,59.951347,12.911922,5.756883,13.69419,-6.037016,-9.114163,11.09702,57.45374,-8.856956,4.501453,-18.290112
153,99.19902801513672,-83.1029052734375,75.65562438964844,3.3257051752397255,-6.738885152869703,-68.71116889546501,-22.87358,9.46131,11.579497,37.77997,-2.0965261,-6.634279,18.965237,7.1063704,-9.482817,8.157844,-19.744135,-9.763165,4.599822,-0.9463871,14.3693,21.240128,4.361991,-9.653083,60.275837,12.956627,5.813083,13.573877,-6.332834,-9.178762,11.157641,57.056572,-8.9020195,4.4439263,-18.35261
154,99.6191177368164,-83.84882354736328,75.4936752319336,3.2430037731953747,-6.6217390195848775,-69.18274559100612,-22.432539,8.581285,11.266726,32.580692,-1.0635751,-7.459279,19.680727,7.1118455,-9.055121,8.050265,-20.197308,-9.614934,4.7502823,-0.74984026,14.254337,21.378096,4.140483,-10.024701,60.68543,12.976748,5.894692,13.442606,-6.575698,-9.236603,11.187671,56.6609,-8.9601755,4.4034986,-18.3881
155,100.06717681884766,-84.62297058105469,75.30484771728516,3.11113540169337,-6.517488400625637,-69.64390261918732,-21.776964,7.7571177,10.895607,27.105509,0.013572266,-8.41186,20.456104,7.168639,-8.64148,7.8729596,-20.578974,-9.475255,4.92028,-0.5000663,14.132953,21.483023,3.943721,-10.385659,61.12424,13.001153,5.995683,13.300375,-6.7588415,-9.291938,11.204582,56.281918,-9.023866,4.3629303,-18.414322
156,100.51280212402344,-85.42723083496094,75.09969329833984,2.9051384117272585,-6.449320537776227,-70.11088926841371,-20.830126,7.0455985,10.606453,21.399942,1.1480414,-9.721599,21.339945,7.306036,-8.21143,7.58661,-20.831692,-9.34085,5.125185,-0.17360121,14.01758,21.594362,3.7642083,-10.667003,61.540623,13.059834,6.1057343,13.14884,-6.875123,-9.350368,11.228137,55.93508,-9.087052,4.3052044,-18.449242
157,100.98041534423828,-86.25253295898438,74.86962127685547,2.5273494822050813,-6.437119186396243,-70.63787888915444,-19.406622,6.507384,10.451153,15.048404,2.4588945,-11.703893,22.324802,7.629396,-7.699138,7.272872,-20.997852,-9.240286,5.418887,0.3421808,13.904378,21.743269,3.593965,-10.845468,61.915356,13.19132,6.229627,12.963748,-6.9039297,-9.419622,11.2548275,55.606556,-9.160784,4.2234263,-18.496517
158,101.44153594970703,-87.10684204101562,74.59329986572266,1.8840300914627441,-6.487916282011687,-71.30717542126638,-17.35149,6.302136,10.40889,7.6771092,4.1143084,-14.1508465,23.281012,8.21596,-7.0115075,7.2197657,-21.230843,-9.196907,5.8721843,1.1603653,13.787642,21.933681,3.425262,-10.963571,62.25782,13.37204,6.370253,12.755784,-6.8514757,-9.508171,11.28483,55.294914,-9.24388,4.1292176,-18.542477
159,101.93748474121094,-87.96337890625,74.2869644165039,1.1678312952645822,-6.603384844992268,-71.94828450642126,-17.938148,6.6390896,10.210211,6.322387,2.5915174,-15.000033,24.31085,8.827126,-6.3196497,7.1994963,-21.41724,-9.11416,6.3121777,2.0868266,13.698265,22.145372,3.255434,-11.051829,62.564972,13.536657,6.5211325,12.576379,-6.7546387,-9.620788,11.340369,55.035267,-9.311731,4.0314307,-18.58228
160,102.44810485839844,-88.82379913330078,74.00843811035156,0.5805500179403971,-6.725279471159888,-72.51095934953669,-18.865105,6.9213834,9.953105,6.1157556,0.7064747,-15.000033,25.338392,9.253588,-5.7052073,7.195351,-21.526276,-8.958032,6.693742,2.850204,13.636853,22.321373,3.1398551,-11.12098,62.844494,13.617014,6.6734157,12.46281,-6.6599803,-9.7034645,11.426378,54.865173,-9.343938,3.9363804,-18.622345
161,102.95133972167969,-89.68013763427734,73.77499389648438,0.1774179229145583,-6.8329391082276985,-72.99639892544381,-19.661905,7.004431,9.639165,6.003622,-0.97160685,-15.000033,26.344898,9.4475355,-5.1943016,7.1927576,-21.562122,-8.72571,7.0024486,3.40904,13.613208,22.403267,3.0304391,-11.1620455,63.148537,13.609595,6.844782,12.444979,-6.591813,-9.786811,11.574465,54.789997,-9.313224,3.8358107,-18.673513
162,103.45994567871094,-90.56904602050781,73.5650634765625,-0.07555584346144353,-6.9174064005996785,-73.37850969953163,-20.367868,6.8394985,9.329737,5.9937153,-2.5268056,-15.000033,27.337685,9.445575,-4.819621,7.192222,-21.547264,-8.41741,7.203234,3.807773,13.60928,22.38914,2.8993435,-11.151651,63.498142,13.54947,7.030704,12.49885,-6.530326,-9.891349,11.792932,54.78834,-9.224713,3.7298744,-18.73587
163,103.95781707763672,-91.46212768554688,73.38792419433594,-0.23014363876686253,-6.978279869698645,-73.69864998488858,-20.882198,6.567533,9.191657,6.015139,-3.7864048,-15.000033,28.294647,9.335982,-4.5150394,7.186812,-21.419939,-8.071185,7.332132,4.1026616,13.5971365,22.335983,2.754166,-11.102397,63.846336,13.437453,7.199363,12.603815,-6.4564743,-10.0061655,12.04522,54.866932,-9.119821,3.6377115,-18.781467
164,104.44221496582031,-92.35858917236328,73.24609375,-0.32693689720614466,-6.993502830351205,-73.94459099582896,-21.136005,6.2867246,9.346377,6.0306416,-4.6112537,-15.000033,29.18832,9.173659,-4.2683554,7.1773176,-21.147444,-7.701995,7.4042416,4.313449,13.532664,22.269136,2.6290402,-11.051067,64.1688,13.261604,7.31744,12.740404,-6.341033,-10.100677,12.26334,55.02692,-9.047241,3.5778668,-18.788736
165,104.91926574707031,-93.26005554199219,73.12384796142578,-0.4140218981226099,-6.951797728971308,-74.08906800432709,-21.045383,6.0702553,9.974013,6.022963,-4.9529953,-15.000033,30.012993,9.019256,-4.0725913,7.1631937,-20.74492,-7.328515,7.3958735,4.48769,13.395309,22.192654,2.5208158,-11.004508,64.47022,12.968167,7.3626328,12.93633,-6.1800675,-10.177643,12.443029,55.279125,-9.030465,3.5536985,-18.74669
166,105.39317321777344,-94.17450714111328,73.01814270019531,-0.47291449358431886,-6.861238068699997,-74.14059057440217,-20.66796,5.8631306,10.954106,6.0095186,-4.8873267,-15.000033,30.777954,8.848269,-3.9373567,7.14331,-20.220547,-6.9420705,7.365818,4.5850954,13.208183,22.111017,2.4913473,-10.987462,64.71689,12.571004,7.358321,13.178099,-5.990952,-10.197851,12.518567,55.636406,-9.083762,3.5479882,-18.658886
167,105.85608673095703,-95.09768676757812,72.94466400146484,-0.4286153636479809,-6.751893338316738,-74.1388462363715,-20.1076,5.555171,11.949959,5.9765887,-4.457607,-15.000033,31.49996,8.56456,-3.8831706,7.1379914,-19.54928,-6.510062,7.2432003,4.5749187,12.996566,21.999117,2.4370782,-10.938176,64.9704,12.174309,7.3343897,13.428079,-5.7449226,-10.230592,12.666134,56.036667,-9.087316,3.576495,-18.56937
168,106.29855346679688,-96.05625915527344,72.89068603515625,-0.20551301722972545,-6.647951323075919,-74.11961764218962,-19.519417,5.0479693,12.608506,5.9793143,-3.7367113,-15.000033,32.178905,8.081389,-3.9372811,7.199317,-18.728489,-5.9994855,7.0708547,4.3710427,12.810932,21.868696,2.3770392,-10.837255,65.18457,11.904415,7.319758,13.615258,-5.4810815,-10.256092,12.830479,56.48841,-9.036181,3.63561,-18.473186
169,106.74337005615234,-97.0330810546875,72.8904037475586,0.3043624089878919,-6.514446661599125,-74.09850186265403,-18.948801,4.2444267,12.80102,6.10245,-2.6500072,-15.000033,32.82991,7.2744,-4.1328535,7.277684,-17.809256,-5.337228,6.9184284,3.8583202,12.625519,21.713303,2.3436837,-10.734793,65.339615,11.805438,7.34672,13.721542,-5.1755705,-10.257195,12.938893,56.983677,-8.963244,3.735055,-18.34719
170,107.1839828491211,-98.03266143798828,72.93768310546875,1.0478557776872621,-6.352418590671502,-74.07742097365623,-18.304644,3.208756,12.68382,6.2712455,-1.1843227,-15.000033,33.249294,6.18964,-4.4582396,7.8036323,-17.008772,-4.5577173,6.750073,3.0851479,12.431226,21.538118,2.3199697,-10.587769,65.45724,11.821953,7.3859897,13.778086,-4.8392205,-10.234192,13.055003,57.5346,-8.859711,3.8763247,-18.199903
171,107.6532211303711,-99.05094909667969,73.00938415527344,1.9916363607803838,-6.212276761193437,-73.99997158783458,-17.616766,1.7876357,12.444594,6.368044,0.45929584,-13.68053,32.748028,4.783663,-4.995693,10.33121,-17.024803,-3.7099934,6.4980173,2.0976007,12.262284,21.378395,2.3074088,-10.405662,65.52681,11.866026,7.413282,13.810544,-4.5195584,-10.16756,13.185093,58.19685,-8.718066,4.0201526,-18.0759
172,108.17697143554688,-100.03843688964844,73.12223052978516,2.9382028744140887,-6.0989158430358135,-73.97169336404413,-16.965225,0.3461285,12.354631,6.44642,1.974354,-11.792731,32.063057,3.3223453,-5.447725,13.241288,-16.83397,-2.9382172,6.3073883,1.1263365,12.104263,21.21574,2.3176153,-10.26456,65.57283,11.831946,7.400882,13.841431,-4.1729846,-10.101304,13.27676,58.91697,-8.525068,4.130189,-18.00066
173,108.68748474121094,-101.0403060913086,73.23682403564453,3.861000569132531,-6.002345416590127,-74.10119537151618,-16.336016,-0.90786356,12.480918,6.482276,3.4395142,-10.558288,31.245552,1.8427057,-5.685284,16.394564,-16.30142,-2.2846901,6.226884,0.1595082,11.937734,21.07918,2.356731,-10.083393,65.58637,11.693971,7.3153996,13.877075,-3.8716328,-9.978284,13.420061,59.78958,-8.2536335,4.1742697,-18.01816
174,109.17142486572266,-102.06600189208984,73.34679412841797,4.809913046913289,-5.901553444312393,-74.33920265330522,-15.713107,-2.0735483,12.70581,6.5014324,4.9400363,-9.663158,30.35186,0.3083054,-5.762953,19.646307,-15.4366045,-1.6883472,6.2425885,-0.8391647,11.760113,20.948101,2.4198027,-9.902162,65.57098,11.495543,7.1807165,13.9059105,-3.5667632,-9.835005,13.569683,60.75664,-7.9192395,4.1794286,-18.089916
175,109.63601684570312,-103.10478210449219,73.46251678466797,5.73468818320806,-5.815958074968019,-74.59077177526986,-15.060307,-3.1733525,12.943569,6.527441,6.2072144,-8.803035,29.429094,-1.1879396,-5.746372,22.873837,-14.216751,-1.1502695,6.2722516,-1.8127275,11.60332,20.789188,2.5051227,-9.735005,65.536575,11.29698,7.0488534,13.911077,-3.2395563,-9.674749,13.667399,61.752556,-7.554824,4.1972976,-18.178257
176,110.09261322021484,-104.12239837646484,73.60078430175781,6.578409779139887,-5.768195541081036,-74.76963393389424,-15.088206,-4.049808,13.157571,8.191801,6.126549,-7.702292,28.495771,-2.5632,-5.700487,26.023855,-12.652351,-0.6723833,6.2482057,-2.7069664,11.495171,20.571537,2.6206577,-9.600011,65.48969,11.156225,6.9723897,13.876585,-2.8760989,-9.486747,13.648064,62.72429,-7.19927,4.279222,-18.250025
177,110.54457092285156,-105.12358093261719,73.75028991699219,7.3216986833347235,-5.774379785117363,-74.80993345630135,-15.222133,-4.8854733,13.24296,10.253399,5.219967,-6.175143,27.57067,-3.7894046,-5.7014647,29.0968,-10.693665,-0.28014126,6.1319785,-3.5052536,11.435267,20.2772,2.7787461,-9.520491,65.45038,11.081504,6.968832,13.769783,-2.4405296,-9.251714,13.443202,63.675686,-6.877019,4.449192,-18.31716
178,110.97620391845703,-106.13546752929688,73.90696716308594,7.970251295114414,-5.830367611486249,-74.76481880071582,-15.3073225,-5.69145,13.206638,12.335041,3.8496182,-4.4325247,26.6307,-4.875629,-5.7049756,32.140377,-8.360741,0.04518958,5.9656754,-4.217594,11.412549,19.92605,2.9838402,-9.486953,65.40738,11.041352,7.0091925,13.607121,-1.9540327,-8.964548,13.097356,64.63527,-6.567334,4.6752796,-18.39344
179,111.40501403808594,-107.15119934082031,74.06652069091797,8.510623837150522,-5.929143536287379,-74.73156060881541,-15.224982,-6.4100246,13.127274,14.192945,2.3313181,-2.7865813,25.613846,-5.8018413,-5.596293,35.211002,-5.78688,0.35449904,5.8045173,-4.8304834,11.441356,19.542294,3.2260458,-9.467662,65.32182,11.035761,7.076156,13.44659,-1.4814552,-8.645796,12.71536,65.57938,-6.239216,4.9246917,-18.446983
180,111.82443237304688,-108.15206909179688,74.23882293701172,8.944885020826348,-6.061896400353639,-74.80201053104904,-14.84295,-6.988025,13.106555,15.56058,0.9900034,-1.5411196,24.445068,-6.56796,-5.264445,38.395912,-3.11451,0.6842448,5.694486,-5.3378053,11.540095,19.146599,3.4848976,-9.426717,65.15719,11.066555,7.1521025,13.347328,-1.0790496,-8.33094,12.407181,66.47336,-5.858039,5.166633,-18.44304
181,112.22695922851562,-109.11736297607422,74.40725708007812,9.258489436740094,-6.249179953097181,-74.97909538098637,-14.071052,-7.4068575,13.167198,16.329618,-0.13254844,-0.83166075,23.09614,-7.138647,-4.630941,41.83882,-0.38918,1.0045216,5.6290064,-5.7085505,11.734697,18.731657,3.739839,-9.359805,64.90921,11.157365,7.2603335,13.32064,-0.7318667,-8.043779,12.143255,67.28694,-5.3958383,5.421501,-18.354204
182,112.62592315673828,-110.06443786621094,74.5709228515625,9.464555034643944,-6.489119339583746,-75.21194469397616,-13.009024,-7.711809,13.262084,16.679832,-1.2022107,-0.4756872,21.58226,-7.5370474,-3.7938898,45.517254,2.4398942,1.2833654,5.5737114,-5.9481096,12.0128975,18.283524,3.9848099,-9.281417,64.60377,11.3028345,7.400665,13.338806,-0.41235393,-7.7862844,11.891344,68.03276,-4.8728247,5.698393,-18.201626
183,113.00714111328125,-110.97853088378906,74.73004150390625,9.61058931878197,-6.73641618461699,-75.50786961567165,-11.800301,-7.9479713,13.402694,16.751661,-2.1943023,-0.2963113,19.884834,-7.867551,-2.9058769,49.28423,5.3688145,1.538126,5.5270553,-6.1184096,12.334987,17.815346,4.2238083,-9.178741,64.24765,11.461824,7.520545,13.402878,-0.1609001,-7.566121,11.76405,68.74877,-4.322572,5.949345,-18.024046
184,113.38204193115234,-111.85921478271484,74.88127136230469,9.74866847063091,-6.944398807965134,-75.88143326734483,-10.581413,-8.155762,13.5984745,16.678501,-3.0856874,-0.12113029,17.993614,-8.240979,-2.1064756,52.96551,8.411039,1.7826985,5.490514,-6.281199,12.6601095,17.343153,4.46156,-9.034939,63.844444,11.59425,7.566859,13.512373,-0.017122459,-7.390093,11.878912,69.47468,-3.7763312,6.123095,-17.857985
185,113.7340087890625,-112.70072174072266,75.03012084960938,9.897646470369548,-7.099695016141652,-76.38148151883827,-9.349605,-8.336905,13.896497,16.428726,-3.8575392,0.07038031,15.776052,-8.721753,-1.3801172,56.656616,12.097041,2.024231,5.498657,-6.4549932,12.996377,16.870745,4.6950927,-8.82655,63.37246,11.709812,7.517662,13.673975,-0.028216958,-7.272093,12.360335,70.2709,-3.1524029,6.171973,-17.709364
186,114.08171844482422,-113.53225708007812,75.18026733398438,10.033861014732558,-7.2246652875046955,-76.98531152422296,-8.032511,-8.481907,14.282205,15.924974,-4.512433,0.18895091,13.265372,-9.27985,-0.6926935,60.406933,16.266178,2.17419,5.5305204,-6.607906,13.356666,16.394396,4.917623,-8.559053,62.834972,11.826257,7.40348,13.885193,-0.1661193,-7.2143826,13.125462,71.10347,-2.458066,6.1342974,-17.556425
187,114.41632843017578,-114.3448486328125,75.32815551757812,10.144650341608093,-7.326264596733125,-77.60395400716563,-6.664707,-8.609667,14.671421,15.238242,-5.0653887,0.24403739,10.709868,-9.896774,-0.14345138,63.969124,19.871021,2.1339376,5.5161366,-6.7307343,13.707106,15.915699,5.1333146,-8.269602,62.274117,11.911899,7.250382,14.132079,-0.34649923,-7.196553,13.968737,71.85319,-1.8654802,6.0952573,-17.394924
188,114.73835754394531,-115.13129425048828,75.47028350830078,10.215189272405741,-7.411648835245261,-78.14890744157988,-5.284748,-8.734655,14.979775,14.446463,-5.535007,0.25153068,8.359171,-10.519038,0.20116687,67.12849,21.82899,1.8900648,5.394566,-6.82,14.013789,15.434367,5.357512,-8.002573,61.73105,11.932491,7.08457,14.399414,-0.48235834,-7.189303,14.67692,72.40407,-1.5505784,6.138228,-17.22466
189,115.04591369628906,-115.93354797363281,75.60836029052734,10.250997205769245,-7.483295058712588,-78.61097551915417,-3.8837333,-8.870239,15.197969,13.531849,-5.911507,0.21321109,6.3207855,-11.125093,0.33816433,69.85899,21.46598,1.5831068,5.1597357,-6.894476,14.269552,14.957472,5.6062293,-7.772653,61.20033,11.832163,6.8870144,14.710314,-0.5744825,-7.1742525,15.242628,72.749565,-1.6235696,6.3137307,-17.029055
190,115.33025360107422,-116.73910522460938,75.74852752685547,10.246447375369238,-7.535352882284426,-79.03195747937636,-2.4611106,-8.996091,15.369641,12.48741,-6.199662,0.12646769,4.451377,-11.713233,0.32267678,72.293076,19.459963,1.2542398,4.852292,-6.9532456,14.48773,14.4825535,5.885949,-7.566754,60.662663,11.640607,6.6523805,15.060546,-0.66271704,-7.1496515,15.74936,72.95203,-1.9756347,6.5642633,-16.816141
191,115.60419464111328,-117.53595733642578,75.8912582397461,10.177164117306463,-7.565343218271387,-79.40234268487058,-1.0789088,-9.060393,15.492245,11.433764,-6.454464,-0.000747689,2.6347167,-12.219508,0.20415436,74.44369,16.761515,0.8077747,4.484136,-6.96572,14.668012,13.990938,6.1990023,-7.3877664,60.144203,11.451322,6.425336,15.395331,-0.71595776,-7.114376,16.118967,72.99596,-2.4562716,6.811433,-16.623772
192,115.86294555664062,-118.33843231201172,76.03752136230469,10.025103808740166,-7.5715745609564795,-79.7131926571682,0.21316148,-9.029003,15.566397,10.46845,-6.721211,-0.15812497,0.7528197,-12.585467,0.030777302,76.322464,14.32262,0.13120638,4.073002,-6.9061365,14.814075,13.4621105,6.548449,-7.2461047,59.67222,11.354711,6.2518497,15.661532,-0.7005,-7.069367,16.267426,72.86374,-2.914072,6.9782376,-16.492043
193,116.11207580566406,-119.11782836914062,76.18207550048828,9.773916369245761,-7.5524800751847865,-79.96002285737194,1.3930565,-8.8725815,15.594605,9.634827,-7.017592,-0.3601505,-1.229101,-12.72258,-0.16866414,77.91834,12.20522,-0.8882158,3.6149764,-6.7564526,14.925168,12.882371,6.939383,-7.161542,59.268963,11.38179,6.1523976,15.844455,-0.59275794,-7.0113482,16.121666,72.50841,-3.3713362,7.056372,-16.44018
194,116.34684753417969,-119.90916442871094,76.32612609863281,9.43898345458113,-7.51040235384194,-80.15193826706485,2.4892242,-8.615827,15.58522,8.886185,-7.3272343,-0.60120153,-3.2366774,-12.642065,-0.41798615,79.216995,9.973514,-2.115172,3.1143386,-6.536824,15.004576,12.262775,7.3750157,-7.133581,58.917564,11.477884,6.1003127,15.971831,-0.41183317,-6.9397364,15.736229,71.95101,-3.8884726,7.0833764,-16.444298
195,116.57026672363281,-120.6817855834961,76.46512603759766,9.061535351037831,-7.450815498061096,-80.29897892414985,3.522744,-8.310958,15.546894,8.194834,-7.639761,-0.84336996,-5.227663,-12.480333,-0.76015633,80.23063,7.827935,-3.3290377,2.595245,-6.284596,15.064272,11.62121,7.851268,-7.1363893,58.583977,11.606941,6.071986,16.055372,-0.18493652,-6.8589373,15.220897,71.270386,-4.3732786,7.052501,-16.480125
196,116.77509307861328,-121.4480972290039,76.59492492675781,8.678673222014385,-7.378706029540964,-80.40983987485477,4.517296,-8.008348,15.484846,7.5215883,-7.9362497,-1.0512216,-7.158849,-12.405968,-1.248345,80.97157,5.9656353,-4.333757,2.075791,-6.0362997,15.114153,10.976204,8.3593,-7.1386666,58.234135,11.735014,6.0436068,16.107563,0.057724975,-6.7781568,14.692011,70.5475,-4.7309856,6.9570427,-16.523478
197,116.99430847167969,-122.22108459472656,76.7188491821289,8.287213626795808,-7.285731070149342,-80.47509738673973,5.2978735,-7.6611643,15.402528,7.212957,-8.388098,-1.2189331,-9.040639,-12.492105,-1.9476055,81.431656,4.5066338,-5.0911717,1.5395278,-5.7872477,15.1450815,10.32828,8.894505,-7.133251,57.862865,11.869166,6.0129724,16.115032,0.31777948,-6.7049117,14.150106,69.77288,-4.901949,6.7653537,-16.56692
198,117.19638061523438,-122.98634338378906,76.8377685546875,7.8745460869397865,-7.173251812067062,-80.49468224263362,5.9036217,-7.2598095,15.293973,7.190413,-8.95286,-1.3677114,-10.876997,-12.661901,-2.8327491,81.60391,3.3229842,-5.7135987,0.9784313,-5.52062,15.15799,9.669798,9.454666,-7.1323133,57.487095,12.024598,5.99092,16.077063,0.61150753,-6.6387343,13.550967,68.90872,-4.9457946,6.4915075,-16.621784
199,117.40843200683594,-123.75112915039062,76.94332885742188,7.457031721229994,-7.059624868636488,-80.48796339751104,6.4936895,-6.8556128,15.172314,7.1723943,-9.508433,-1.5118756,-12.615346,-12.8571205,-3.8292024,81.49949,2.2427816,-6.241554,0.41891325,-5.2505293,15.174234,9.006718,10.03283,-7.1304836,57.106953,12.180073,5.973599,16.026312,0.9267912,-6.5790963,12.943925,67.99651,-4.94845,6.198424,-16.694128
200,117.608642578125,-124.50343322753906,77.03596496582031,7.05447574089518,-6.962625212434359,-80.47479689559907,7.1017804,-6.4641156,15.069115,7.1536126,-10.077379,-1.6653498,-14.210491,-13.011626,-4.8521013,81.12795,1.0980115,-6.7078094,-0.11689712,-4.992467,15.213132,8.346804,10.618913,-7.115507,56.72171,12.317102,5.95722,15.996249,1.2435852,-6.5260873,12.382703,67.09046,-4.9942718,5.94361,-16.792063
201,117.81514739990234,-125.26705169677734,77.11746215820312,6.6645422722613405,-6.889329356235225,-80.45849346795944,7.7418756,-6.0868645,14.995256,7.1302786,-10.668483,-1.8338717,-15.656164,-13.136329,-5.911965,80.48887,-0.2052314,-7.1604967,-0.63168293,-4.7463303,15.283203,7.6919794,11.206819,-7.073323,56.330082,12.432594,5.9452734,15.999014,1.5584053,-6.48213,11.887683,66.18085,-5.0850663,5.744192,-16.92785
202,118.02342224121094,-126.02490234375,77.18841552734375,6.281574406498831,-6.828343685287002,-80.4297486255699,8.39405,-5.71653,14.934061,7.1059523,-11.269075,-2.0092666,-16.975397,-13.248135,-7.040543,79.5737,-1.5569987,-7.5576253,-1.1389441,-4.5039296,15.370923,7.038185,11.796511,-7.0084176,55.934605,12.539195,5.93861,16.017475,1.877873,-6.4496536,11.433252,65.251564,-5.1817255,5.568199,-17.094854
203,118.2226791381836,-126.80026245117188,77.237548828125,5.910606095164441,-6.769327703630864,-80.38851128462292,9.045399,-5.35725,14.8754635,7.082191,-11.868143,-2.1812432,-18.178661,-13.297331,-8.179068,78.383446,-2.816275,-7.804581,-1.6320575,-4.2705164,15.461326,6.383822,12.387103,-6.9394097,55.540966,12.639455,5.929135,16.041048,2.203319,-6.426437,11.003193,64.33214,-5.3084216,5.4084926,-17.272514
204,118.41199493408203,-127.56006622314453,77.27233123779297,5.560004467326883,-6.702533526726031,-80.33494697110582,9.684752,-5.0144963,14.808778,7.0604587,-12.455228,-2.337516,-19.27857,-13.246526,-9.27201,76.91898,-3.8404436,-7.8203526,-2.1044369,-4.051423,15.539614,5.7276077,12.976991,-6.883901,55.153942,12.737276,5.909091,16.05961,2.5344636,-6.4067545,10.581387,63.453983,-5.4889607,5.2580695,-17.44142
205,118.6146011352539,-128.3328399658203,77.3013687133789,5.230166091173221,-6.630427910106833,-80.26677178043823,10.3146105,-4.690073,14.729352,7.0442924,-13.031904,-2.4626942,-20.268955,-13.124314,-10.338064,75.159966,-4.6082907,-7.5612206,-2.5590916,-3.84801,15.605132,5.0743003,13.568005,-6.8397713,54.765926,12.8390465,5.8740444,16.069973,2.8729713,-6.3881307,10.164093,62.60921,-5.7743077,5.120493,-17.59707
206,118.79711151123047,-129.1044464111328,77.31005859375,4.917699448121323,-6.556729337184015,-80.18433604273625,10.944486,-4.385185,14.642132,7.0280437,-13.601556,-2.5619302,-21.151846,-12.9531,-11.396229,73.10968,-5.1862745,-7.0938754,-2.996757,-3.659791,15.664055,4.4219947,14.161376,-6.8011026,54.377865,12.941076,5.828994,16.07819,3.217095,-6.3716917,9.757541,61.78892,-6.138389,4.9981565,-17.751205
207,118.98568725585938,-129.87750244140625,77.30196380615234,4.627214000723442,-6.473850496195549,-80.09100011172852,11.565235,-4.1025453,14.550517,7.0128603,-14.16467,-2.6539304,-21.955832,-12.695699,-12.389821,70.806786,-5.5669107,-6.5152335,-3.4096687,-3.4867458,15.711195,3.7583652,14.753299,-6.781284,54.008217,13.029921,5.780311,16.08809,3.559938,-6.3554816,9.363341,61.02428,-6.4866834,4.881195,-17.907572
208,119.16986846923828,-130.66619873046875,77.2800064086914,4.356098994093529,-6.375958301591881,-79.9893799508197,12.168167,-3.8393507,14.457696,7.001224,-14.718595,-2.7602477,-22.712725,-12.31642,-13.257124,68.30004,-5.7526345,-5.92175,-3.7904627,-3.3241904,15.743158,3.0695767,15.338295,-6.7932715,53.677284,13.093539,5.7344494,16.104427,3.8929622,-6.337152,8.981008,60.348366,-6.726234,4.759332,-18.070814
209,119.3595199584961,-131.43878173828125,77.23690032958984,4.108424319203573,-6.25480161426136,-79.88033578236413,12.73849,-3.596418,14.364904,6.992481,-15.258263,-2.8936,-23.45969,-11.807293,-13.928909,65.598175,-5.7249494,-5.3464265,-4.133365,-3.1717653,15.754645,2.3417013,15.914152,-6.839731,53.397682,13.123199,5.6901174,16.130356,4.211895,-6.3171606,8.605151,59.764248,-6.8220754,4.6244545,-18.251068
210,119.53892517089844,-132.22030639648438,77.18682861328125,3.8841559030102344,-6.114607932905159,-79.76049743311471,13.287109,-3.3769336,14.2680025,6.9751067,-15.779219,-3.043403,-24.170279,-11.213696,-14.439504,62.67233,-5.4991984,-4.7568655,-4.445083,-3.0319645,15.74687,1.5835375,16.481218,-6.9147897,53.157974,13.127859,5.644944,16.163744,4.520372,-6.2972994,8.236114,59.257435,-6.82797,4.483128,-18.443047
211,119.71484375,-133.01553344726562,77.12103271484375,3.700153949479507,-5.971760642182256,-79.63295460853719,13.822575,-3.1951096,14.170744,6.987444,-16.314358,-3.1907465,-24.785505,-10.594527,-14.863469,59.52002,-5.1298866,-4.1489205,-4.731342,-2.9230347,15.728564,0.8183134,17.037693,-7.016487,52.939762,13.123187,5.6040306,16.20139,4.8211017,-6.275525,7.8828735,58.83524,-6.7834167,4.3471785,-18.627367
212,119.89494323730469,-133.82347106933594,77.03899383544922,3.549734699390953,-5.8342055035384375,-79.49197805742907,14.370669,-3.0462377,14.067575,7.0070443,-16.860552,-3.3227372,-25.2441,-9.985529,-15.303347,56.116238,-4.661272,-3.5186543,-5.006938,-2.8417866,15.700721,0.06981853,17.580404,-7.142931,52.724495,13.124222,5.5727515,16.240337,5.11619,-6.2496357,7.554124,58.506134,-6.7288065,4.228701,-18.78573
213,120.06869506835938,-134.64422607421875,76.94461059570312,3.424453877997148,-5.698687353334665,-79.3356746528902,14.928546,-2.922866,13.961638,7.02835,-17.424,-3.4353473,-25.541792,-9.3853245,-15.735792,52.416527,-4.0535917,-2.8987763,-5.2740164,-2.7784898,15.663539,-0.66411245,18.111597,-7.302759,52.50205,13.126822,5.554896,16.287346,5.4019246,-6.2205853,7.242623,58.27451,-6.6693006,4.1253943,-18.920012
214,120.24500274658203,-135.47215270996094,76.83407592773438,3.3263423794381994,-5.560940213366632,-79.1639313319127,15.488604,-2.824245,13.851226,7.048167,-17.993757,-3.5397608,-25.701038,-8.792621,-16.11663,48.43629,-3.3039775,-2.296754,-5.5282235,-2.7334566,15.614568,-1.392148,18.631536,-7.4924917,52.281796,13.125722,5.5468473,16.3411,5.677835,-6.1882815,6.94677,58.13495,-6.58481,4.0325646,-19.03793
215,120.4100341796875,-136.2986602783203,76.70558166503906,3.2650023541466617,-5.429201452472873,-78.97585356156416,16.063776,-2.7612567,13.725625,7.0678315,-18.554642,-3.644194,-25.706966,-8.238365,-16.516874,44.23711,-2.5024605,-1.6643509,-5.773636,-2.7248816,15.551886,-2.1017811,19.132954,-7.690611,52.07636,13.135423,5.5431466,16.389132,5.94857,-6.151474,6.683307,58.083817,-6.4797487,3.9589946,-19.130247
216,120.57899475097656,-137.13072204589844,76.5654296875,3.2540058649808694,-5.312904161986802,-78.76949924548398,16.669044,-2.7459555,13.572819,7.0850115,-19.088938,-3.7561958,-25.542532,-7.7466073,-17.013035,39.86277,-1.7301623,-0.9501879,-6.017108,-2.7710721,15.473547,-2.7806191,19.605408,-7.8732977,51.900314,13.172788,5.5384226,16.41922,6.2175336,-6.1089344,6.4713697,58.11865,-6.357411,3.913764,-19.188677
217,120.73686218261719,-137.99087524414062,76.4031982421875,3.300802091702899,-5.210034782138803,-78.52830701588157,17.300259,-2.7878416,13.378125,7.100614,-19.61076,-3.8652935,-25.161493,-7.348001,-17.649843,35.185276,-0.9624772,-0.1446846,-6.274413,-2.8810573,15.369733,-3.4306762,20.043276,-8.034209,51.763454,13.275522,5.538556,16.425167,6.488403,-6.0623374,6.310528,58.24057,-6.2047734,3.9042397,-19.205908
218,120.8934555053711,-138.8745574951172,76.21891021728516,3.4037956115448833,-5.120893751032055,-78.25089739976748,17.955317,-2.8835316,13.1422205,7.115732,-20.122816,-3.9717069,-24.559467,-7.026512,-18.38306,30.166588,-0.14399555,0.7160835,-6.5465655,-3.0492086,15.244785,-4.057723,20.447412,-8.183406,51.65893,13.426905,5.5441084,16.415474,6.7586265,-6.0139413,6.1937733,58.450302,-6.024182,3.9243422,-19.189188
219,121.042724609375,-139.77642822265625,76.01071166992188,3.564066340993486,-5.061072921900192,-77.95235086374518,18.652332,-3.0318842,12.86959,7.126567,-20.586782,-4.096471,-23.77286,-6.7398963,-19.162243,24.963373,0.7020299,1.6166416,-6.8233285,-3.278032,15.118964,-4.6553745,20.818886,-8.322829,51.577637,13.559957,5.541662,16.400522,7.0236635,-5.9637923,6.1297097,58.743675,-5.842573,3.9633553,-19.152327
220,121.2026138305664,-140.69300842285156,75.78085327148438,3.792477486387289,-5.048565267286746,-77.64038167429656,19.40983,-3.2408886,12.555215,7.132601,-20.965498,-4.257595,-22.83751,-6.465405,-19.938686,19.73672,1.543659,2.5400515,-7.1018443,-3.5811298,15.012982,-5.2144284,21.159359,-8.451471,51.50839,13.609957,5.518085,16.390202,7.2792473,-5.911161,6.1282907,59.116993,-5.686711,4.0103545,-19.109358
221,121.3504638671875,-141.63232421875,75.52808380126953,4.14428849372207,-5.11414964366817,-77.2818828694015,20.261948,-3.5776591,12.149497,7.1306953,-21.259377,-4.4456224,-21.696306,-6.228587,-20.699303,14.332254,2.388007,3.519972,-7.410043,-4.0259175,14.938232,-5.732533,21.472221,-8.560855,51.45111,13.531876,5.4575615,16.38017,7.53509,-5.856134,6.200056,59.587074,-5.5663624,4.0560737,-19.064114
222,121.49520874023438,-142.58811950683594,75.25072479248047,4.656840305562702,-5.260839302225034,-76.83495811588584,21.202951,-4.0744405,11.601733,7.123416,-21.479187,-4.640044,-20.279612,-6.129464,-21.496872,8.617489,3.294084,4.5298786,-7.7899523,-4.6528726,14.881909,-6.2101746,21.761324,-8.652772,51.409447,13.369579,5.37163,16.364122,7.800213,-5.796746,6.3403115,60.144047,-5.4658294,4.1089444,-19.009087
223,121.62945556640625,-143.55361938476562,74.9677963256836,5.2410452643029,-5.441159456393155,-76.34633068334902,22.178846,-4.619626,10.9725895,7.11662,-21.608389,-4.857704,-20.305645,-6.80961,-22.184422,6.5735188,2.3383727,5.512341,-8.207612,-5.36664,14.824939,-6.646555,22.027191,-8.741946,51.378735,13.1896105,5.2880034,16.351635,8.059119,-5.730136,6.5337467,60.750397,-5.3738337,4.184506,-18.942348
224,121.74307250976562,-144.52430725097656,74.70430755615234,5.759282887313927,-5.5903568023746395,-75.90476695743688,23.124672,-5.053525,10.383591,7.1070385,-21.629316,-5.1278763,-20.960543,-7.763092,-22.874298,6.3876176,0.6609622,6.420193,-8.586009,-6.0117497,14.750694,-7.043873,22.265846,-8.842954,51.35491,13.057661,5.2338066,16.356102,8.287685,-5.6534677,6.762197,61.371727,-5.280302,4.2990093,-18.861671
225,121.84861755371094,-145.505859375,74.45984649658203,6.207957696492389,-5.693698679515832,-75.52039477608061,24.02692,-5.378978,9.8668785,7.093048,-21.552519,-5.439672,-21.492783,-8.574604,-23.710052,6.2113543,-0.80197746,7.4189434,-8.902236,-6.5845733,14.658179,-7.426121,22.476608,-8.973227,51.350517,12.992405,5.2226367,16.39953,8.4747,-5.5619454,7.0354238,62.020805,-5.1781354,4.465216,-18.761715
226,121.93031311035156,-146.50462341308594,74.25039672851562,6.529819044122134,-5.76780142399391,-75.22884664344353,24.9175,-5.5329785,9.469817,7.078039,-21.39713,-5.8168874,-21.949947,-9.142918,-24.67695,6.127927,-2.166914,8.499437,-9.114437,-6.9844236,14.577904,-7.819843,22.584946,-9.11844,51.39787,12.981135,5.237335,16.488762,8.62526,-5.5015182,7.3287687,62.706,-5.080062,4.6736345,-18.639526
227,122.01311492919922,-147.51629638671875,74.06037139892578,6.793517802409716,-5.800117399746692,-75.00564429047428,25.772564,-5.6017113,9.125118,7.0562305,-21.130163,-6.256633,-22.289707,-9.571954,-25.671663,6.147411,-3.266411,9.440902,-9.278353,-7.3388586,14.466475,-8.131798,22.709425,-9.255717,51.422726,12.965797,5.2605486,16.56211,8.751665,-5.412372,7.6615596,63.407852,-4.9834776,4.8974347,-18.515919
228,122.09744262695312,-148.5357208251953,73.89473724365234,6.9376256798131495,-5.776217469794503,-74.89397732993028,26.585598,-5.525548,8.866173,7.0277147,-20.73864,-6.795907,-22.381348,-9.746975,-26.615377,6.130527,-3.8792317,9.982402,-9.374574,-7.554917,14.323932,-8.322926,22.814768,-9.342034,51.401287,12.9506235,5.2738943,16.586422,8.848417,-5.3109884,7.9808664,64.110085,-4.91174,5.108178,-18.398088
229,122.17769622802734,-149.5455322265625,73.7533187866211,7.00577558170484,-5.703854131888747,-74.92573506749002,27.36059,-5.3723736,8.712327,7.030468,-20.285343,-7.4430003,-22.145267,-9.66616,-27.450144,6.1103315,-3.959554,10.148469,-9.361141,-7.642429,14.16267,-8.421144,22.864092,-9.39194,51.350876,12.936526,5.278551,16.542507,8.930874,-5.2349343,8.264552,64.800255,-4.8815866,5.3009133,-18.277836
230,122.25926208496094,-150.58184814453125,73.62380981445312,6.991952330783621,-5.585635350209859,-75.06572871955963,28.102215,-5.1393957,8.648654,7.044632,-19.752796,-8.183863,-21.644773,-9.346379,-28.239029,6.098696,-3.60505,10.031283,-9.269655,-7.6193123,13.980038,-8.428094,22.88234,-9.413951,51.271427,12.922683,5.282859,16.452295,8.993258,-5.164599,8.547948,65.49315,-4.8765235,5.4897723,-18.154942
231,122.33995056152344,-151.62942504882812,73.51217651367188,6.833436327283637,-5.417576742312203,-75.31276521316173,28.803455,-4.750577,8.692767,7.0605764,-19.068985,-9.015409,-21.024797,-8.778299,-28.984169,6.07983,-2.8961759,9.473361,-9.144283,-7.4613333,13.749791,-8.296735,22.877445,-9.35371,51.173283,12.930731,5.2780933,16.362686,9.009092,-5.0536933,8.885794,66.21575,-4.8498974,5.677703,-18.062733
232,122.40526580810547,-152.69561767578125,73.443359375,6.475581837908396,-5.205821517885224,-75.66837732685744,29.464834,-4.141566,8.859917,7.084702,-18.165298,-9.933243,-20.460615,-7.9581304,-29.68777,6.092191,-1.9392799,8.339887,-8.916518,-7.0740633,13.518768,-8.0508585,22.843092,-9.2706585,51.02995,12.93792,5.2509937,16.289831,9.055603,-4.97341,9.131417,66.83809,-4.8218646,5.8592033,-17.928673
233,122.43934631347656,-153.7977752685547,73.4323501586914,5.802736191387289,-4.9319650716036065,-76.1558205844944,30.090475,-3.1833048,9.244984,7.129801,-17.093712,-11.039257,-19.97417,-6.7710695,-30.477379,6.1539927,-0.55263346,6.415731,-8.641247,-6.3714957,13.238932,-7.611628,22.758232,-9.070045,50.8205,13.013899,5.1985493,16.251858,9.057487,-4.8636384,9.405196,67.464226,-4.7523456,6.048124,-17.817919
234,122.52610778808594,-154.92713928222656,73.42340850830078,4.821334385284112,-4.6193440090540285,-76.77644135962521,30.714079,-1.8993803,9.83847,7.2119946,-15.895702,-12.329397,-19.50999,-5.2140093,-31.363373,6.3225613,1.2021878,3.825039,-8.281785,-5.341439,12.941693,-7.045118,22.590347,-8.795828,50.588245,13.151277,5.127332,16.237673,9.027964,-4.731037,9.660456,68.08506,-4.673488,6.240732,-17.722761
235,122.5591812133789,-156.05995178222656,73.47343444824219,3.741382772491769,-4.3340302959272465,-77.43804480233226,31.34076,-0.53243846,10.410603,7.3430376,-14.465462,-13.612698,-19.040722,-3.504798,-32.183796,6.464568,2.9808376,0.9668164,-7.894165,-4.2039,12.658246,-6.410568,22.385313,-8.525617,50.395298,13.252378,5.044408,16.246681,9.024723,-4.626121,9.851226,68.62924,-4.585864,6.4198074,-17.599688
236,122.54930877685547,-157.19677734375,73.56427001953125,2.729715332065463,-4.115344129010318,-78.07256440849733,31.52138,0.8112438,10.761335,8.452002,-13.183304,-14.717848,-18.584455,-1.8413829,-32.72662,6.5956707,4.3297157,-1.7835464,-7.5612984,-3.1469724,12.400738,-5.741418,22.135647,-8.241953,50.315506,13.289985,4.9606504,16.300161,9.023072,-4.5279336,9.986419,69.123116,-4.4922605,6.571002,-17.464903
237,122.56781768798828,-158.3560333251953,73.65751647949219,1.8216417262030116,-3.882133983159246,-78.6457446433344,30.645733,2.1193764,10.7226,11.580469,-12.529821,-15.000033,-18.478758,-0.45338735,-32.84285,7.354024,4.7816014,-4.50114,-7.3206563,-2.1886063,12.078694,-5.04217,21.839083,-7.9573774,50.381092,13.229251,4.8648653,16.444555,9.0181465,-4.426885,10.067979,69.59343,-4.3803196,6.6803355,-17.318604
238,122.5868911743164,-159.5068359375,73.7636947631836,0.9121616734948539,-3.6227676789105825,-79.15897918570192,29.643375,3.3996015,10.459191,14.771466,-11.541345,-15.000033,-19.192581,0.40109763,-32.70032,10.063941,3.8378665,-7.316687,-7.169715,-1.2295035,11.692253,-4.2943964,21.495077,-7.6669145,50.551987,13.103104,4.7570395,16.65608,9.014349,-4.321229,10.10008,70.03553,-4.2537723,6.759515,-17.164587
239,122.5936050415039,-160.6270294189453,73.88040161132812,0.07295848951421559,-3.403311483036977,-79.59493933292892,28.569326,4.5882535,9.976593,18.029646,-10.283334,-15.000033,-19.704983,1.2477167,-32.461227,12.422889,2.7874424,-9.947273,-7.108303,-0.35387316,11.322061,-3.518054,21.103928,-7.3535852,50.797142,12.970772,4.6637173,16.85179,9.010809,-4.2111387,10.066738,70.41162,-4.142215,6.8304377,-17.01007
240,122.5988540649414,-161.7484588623047,73.99517059326172,-0.5947283818617658,-3.2812882762286075,-79.9558238385727,27.500463,5.5430393,9.264289,21.265793,-8.770037,-15.000033,-19.957914,1.9528302,-32.22159,14.4816,1.7418194,-12.076953,-7.1176624,0.33096313,11.043422,-2.7317388,20.66523,-6.9983106,51.083015,12.891379,4.6118507,16.950603,9.003042,-4.0974593,9.949877,70.683586,-4.0764837,6.914968,-16.861568
241,122.60807800292969,-162.84088134765625,74.1030044555664,-1.0394523102423159,-3.271706560720954,-80.29022387095365,26.479418,6.1880016,8.319162,24.42693,-6.9374046,-15.000033,-19.985764,2.4890125,-31.900963,16.29886,0.7360535,-13.590456,-7.175308,0.7697008,10.873279,-1.8946829,20.163803,-6.529284,51.402756,12.91376,4.612076,16.929337,8.97093,-3.9778013,9.726879,70.86339,-4.0790663,7.034165,-16.704323
242,122.6252212524414,-163.930419921875,74.22709655761719,-1.3272339795752455,-3.3481944632047798,-80.61781339729139,25.445717,6.614914,7.2016306,27.60307,-4.8132434,-15.000033,-19.827646,2.9311206,-31.430773,17.894423,-0.29629782,-14.656818,-7.2632184,1.0386884,10.784688,-1.0146736,19.5955,-5.9728637,51.771996,12.998953,4.648686,16.83518,8.915856,-3.85365,9.412553,70.967384,-4.129333,7.1710486,-16.54184
