unveil-humanoid-operators/unveil-humanoid-operators.github.io/feature-analysis-animation/data/feature_matrix_instances/height_root_translate_rom_walking_A065_walk_ff_stop_360_007__A065.csv
Frame,root_translateX,root_translateY,root_translateZ,root_rotateX,root_rotateY,root_rotateZ,left_hip_pitch_joint_dof,left_hip_roll_joint_dof,left_hip_yaw_joint_dof,left_knee_joint_dof,left_ankle_pitch_joint_dof,left_ankle_roll_joint_dof,right_hip_pitch_joint_dof,right_hip_roll_joint_dof,right_hip_yaw_joint_dof,right_knee_joint_dof,right_ankle_pitch_joint_dof,right_ankle_roll_joint_dof,waist_yaw_joint_dof,waist_roll_joint_dof,waist_pitch_joint_dof,left_shoulder_pitch_joint_dof,left_shoulder_roll_joint_dof,left_shoulder_yaw_joint_dof,left_elbow_joint_dof,left_wrist_roll_joint_dof,left_wrist_pitch_joint_dof,left_wrist_yaw_joint_dof,right_shoulder_pitch_joint_dof,right_shoulder_roll_joint_dof,right_shoulder_yaw_joint_dof,right_elbow_joint_dof,right_wrist_roll_joint_dof,right_wrist_pitch_joint_dof,right_wrist_yaw_joint_dof
0,-0.1442115604877472,-1.618687629699707,77.56185150146484,-2.0238724793597416,4.0594852903494285,88.07335469626611,-24.875618,2.2147436,8.128207,22.718285,-2.2149246,0.83707327,9.609434,1.0706794,0.4782166,36.306465,-6.036146,6.757682,3.9239888,-1.8775809,8.239757,17.728174,28.307589,12.371655,76.24282,-6.697931,3.0402403,27.221022,-1.1121956,-18.153387,-5.057335,69.31718,-4.809013,-1.587541,-7.110784
1,-0.06093333289027214,-2.275729179382324,77.46846771240234,-2.0450094320811627,3.9882997071917767,87.78334811162651,-25.37474,2.4890084,8.284892,22.73563,-1.6345279,0.77421147,10.044082,1.1923646,0.93930423,34.842136,-6.7958045,6.429875,4.4511156,-1.907787,8.301071,18.089066,28.115461,12.237789,76.623,-6.8392134,3.0848398,27.348652,-1.4176399,-18.115623,-4.852285,69.1077,-4.865917,-1.5892894,-7.2351413
2,0.02479437366127968,-2.957732677459717,77.36093139648438,-2.0656737206817906,3.921413167214711,87.49280160963983,-25.887463,2.7603276,8.442531,22.772558,-1.0626838,0.72190386,10.482123,1.3198754,1.4227858,33.365406,-7.545287,6.107349,4.916533,-1.9056206,8.376837,18.573051,27.801521,12.189416,76.870705,-6.968443,3.132952,27.524542,-1.7741534,-18.100979,-4.607192,68.91289,-4.917407,-1.5840125,-7.3810616
3,0.1249161884188652,-3.6405465602874756,77.25259399414062,-2.0952953163492336,3.845605070231383,87.20412922780638,-26.381023,3.0393584,8.589146,22.780577,-0.47782037,0.6612337,10.919172,1.4537718,1.8795489,31.899857,-8.310436,5.7791557,5.3429255,-1.8687663,8.471633,19.107756,27.411755,12.176361,77.06077,-7.071379,3.1723516,27.70593,-2.1576982,-18.110996,-4.3020883,68.71487,-4.983587,-1.5885826,-7.513476
4,0.21325354278087616,-4.321941375732422,77.14447021484375,-2.142673876354494,3.74750422421184,86.91991866588793,-26.825817,3.3368568,8.711914,22.716995,0.13880098,0.5726157,11.34994,1.5955044,2.2605262,30.472437,-9.11904,5.4334135,5.740261,-1.7919759,8.595668,19.660118,26.965734,12.170607,77.22485,-7.1302114,3.1913362,27.860634,-2.5512824,-18.141336,-3.908544,68.49234,-5.088993,-1.618965,-7.604314
5,0.30979377031326294,-5.036109447479248,77.03446960449219,-2.2085356219881778,3.624584507749716,86.6351503028533,-27.225605,3.656601,8.810004,22.583973,0.7927476,0.46405315,11.787976,1.7415366,2.5677307,29.05807,-9.989841,5.0756674,6.1192894,-1.675971,8.7524605,20.217146,26.47146,12.166472,77.38119,-7.1091104,3.1781924,27.983973,-2.9466238,-18.187893,-3.411447,68.23572,-5.2501187,-1.6879396,-7.648056
6,0.39122098684310913,-5.744204521179199,76.92552947998047,-2.287091654643484,3.483391205913638,86.35063253462529,-27.591763,3.9911363,8.889051,22.398302,1.4747943,0.34040782,12.230481,1.8903435,2.8238318,27.654737,-10.903443,4.7047043,6.4809737,-1.5282501,8.931867,20.782269,25.937271,12.165285,77.528015,-7.030419,3.1423802,28.085415,-3.3453922,-18.246418,-2.8354843,67.95674,-5.4503684,-1.7845182,-7.657409
7,0.49112239480018616,-6.454957485198975,76.82157135009766,-2.3808431710170432,3.3240667693450137,86.07749526324339,-27.9073,4.333714,8.945578,22.138218,2.1829464,0.17694637,12.6507,2.0492823,3.011252,26.317038,-11.831596,4.303607,6.814657,-1.3535655,9.127333,21.354315,25.374323,12.15892,77.6569,-6.9629025,3.1045625,28.157852,-3.750239,-18.314926,-2.2059677,67.66562,-5.665052,-1.8884281,-7.6349463
8,0.5932008624076843,-7.185214042663574,76.7112045288086,-2.488893068361548,3.1469562916667564,85.82671136361387,-28.153818,4.677239,8.976161,21.779558,2.9171007,-0.0513969,13.021907,2.2296636,3.1113722,25.10072,-12.744867,3.8625998,7.1111383,-1.1560862,9.331768,21.928757,24.794804,12.136869,77.76311,-6.9754486,3.0850377,28.193052,-4.162396,-18.39002,-1.5510203,67.36982,-5.870436,-1.9783505,-7.58165
9,0.6917635202407837,-7.925396919250488,76.60775756835938,-2.610136890674499,2.9465674493063063,85.60448289169756,-28.34284,5.010505,8.958883,21.346241,3.7041779,-0.28656927,13.340511,2.4303613,3.0875072,24.03495,-13.668345,3.3783917,7.3702126,-0.94268376,9.545388,22.501463,24.205173,12.09972,77.85732,-7.109592,3.090539,28.188284,-4.58205,-18.469576,-0.86367995,67.07709,-6.062538,-2.0514057,-7.46426
10,0.7935587167739868,-8.644011497497559,76.52117919921875,-2.7444684692262364,2.7247323186453007,85.40369088564982,-28.479626,5.339055,8.902734,20.84105,4.5354433,-0.5378969,13.624267,2.651834,2.960483,23.07705,-14.606188,2.8671706,7.6007066,-0.712745,9.770034,23.067144,23.60721,12.045798,77.94754,-7.323293,3.1100457,28.145552,-5.0036,-18.550205,-0.13882582,66.777016,-6.2542953,-2.116955,-7.292707
11,0.9030941724777222,-9.367733001708984,76.4259262084961,-2.893398344727841,2.4923579432944334,85.21472017529916,-28.533592,5.6790924,8.849888,20.202627,5.3625536,-0.9324927,13.879449,2.9071896,2.7971485,22.174212,-15.499235,2.3485968,7.8101764,-0.46176445,10.001773,23.626406,23.006779,11.965137,78.01703,-7.5547795,3.1367724,28.063816,-5.4265656,-18.629974,0.5938589,66.46549,-6.444497,-2.180838,-7.1352973
12,1.0158158540725708,-10.104192733764648,76.34691619873047,-3.0621331094383826,2.259023096913693,85.02754113387911,-28.470823,6.0467553,8.842139,19.365211,6.141412,-1.598642,14.110565,3.208107,2.664994,21.277946,-16.288307,1.8367136,8.009737,-0.18376599,10.236897,24.17718,22.412775,11.843484,78.05225,-7.744441,3.1636097,27.941751,-5.8480706,-18.707426,1.3018903,66.137634,-6.631764,-2.2485285,-7.059729
13,1.1302345991134644,-10.84568977355957,76.26765441894531,-3.266174544185876,2.0184693924360126,84.83055788990869,-28.250532,6.471235,8.912032,18.26572,6.926159,-2.6502407,14.320261,3.5776026,2.5777307,20.387411,-16.958132,1.2842029,8.212427,0.13606985,10.479769,24.717031,21.82817,11.665837,78.06034,-7.896546,3.193607,27.747578,-6.2689047,-18.782433,1.97978,65.79073,-6.8218813,-2.323422,-7.0833483
14,1.2365334033966064,-11.591717720031738,76.19953918457031,-3.5032736488087997,1.764820707282799,84.62839690879895,-27.891384,6.9359446,9.031226,16.937073,7.736512,-3.9964929,14.513532,4.0070825,2.5047302,19.516737,-17.536953,0.6979046,8.417036,0.49443048,10.731679,25.243797,21.254255,11.438875,78.05035,-8.037553,3.229105,27.491081,-6.686057,-18.854816,2.6389494,65.4258,-7.0141315,-2.401355,-7.1696553
15,1.3490828275680542,-12.333168029785156,76.1468276977539,-3.750689292449768,1.508026047414324,84.4334986295862,-27.441471,7.3926897,9.155047,15.445334,8.479036,-5.458321,14.698394,4.4590507,2.4474964,18.639309,-18.025734,0.16712123,8.614598,0.8688972,10.985512,25.752794,20.699697,11.182238,78.01464,-8.139739,3.2613318,27.231426,-7.0915327,-18.924068,3.2726147,65.04398,-7.197308,-2.4766948,-7.3055186
16,1.4703730344772339,-13.084980964660645,76.0947265625,-3.9870457960874757,1.25921397172153,84.25853135878532,-26.946682,7.7991834,9.243154,13.857582,9.0494,-6.8546143,14.876387,4.8917136,2.4053922,17.736637,-18.426453,-0.22064476,8.798453,1.2337852,11.233403,26.236267,20.177088,10.915723,77.948395,-8.1741905,3.281152,27.02625,-7.473823,-18.98816,3.8699431,64.64469,-7.361621,-2.5439925,-7.47764
17,1.5907535552978516,-13.82879638671875,76.04725646972656,-4.208047215700975,1.023661847028502,84.09928383529741,-26.393383,8.151585,9.279471,12.134714,9.405876,-8.197421,15.0450325,5.291136,2.3723283,16.786602,-18.716072,-0.42181644,8.975289,1.5825169,11.476489,26.689915,19.692774,10.613262,77.85586,-8.110819,3.2821789,26.866995,-7.833247,-19.043852,4.4244456,64.2164,-7.4945116,-2.6051397,-7.7200933
18,1.7177568674087524,-14.58774471282959,75.99700927734375,-4.432941609539271,0.7901659965021243,83.94474272433695,-25.739588,8.490501,9.305693,10.223529,9.617154,-9.558739,15.209643,5.682425,2.3556027,15.799108,-18.894857,-0.4967935,9.157666,1.9321324,11.719547,27.115007,19.248247,10.271694,77.74309,-7.9746475,3.2703032,26.72847,-8.170259,-19.091864,4.937863,63.76135,-7.605473,-2.661693,-8.027421
19,1.831438422203064,-15.325082778930664,75.968505859375,-4.662073090780619,0.5485147815616772,83.7995430504901,-24.973711,8.828328,9.371526,8.130136,9.766786,-10.847709,15.375779,6.0750813,2.3729908,14.809926,-19.002102,-0.5138689,9.345394,2.28522,11.958545,27.513046,18.847147,9.949046,77.606606,-7.815172,3.2539608,26.642845,-8.472239,-19.136118,5.41212,63.298626,-7.7164707,-2.7075074,-8.326927
20,1.943638563156128,-16.047399520874023,75.93008422851562,-4.89211939557915,0.29131917012787656,83.67306517275223,-24.282787,9.194085,9.488824,6.271727,9.725506,-11.979823,15.544926,6.475956,2.437707,13.8596735,-19.07971,-0.5385072,9.53258,2.6386771,12.188889,27.885324,18.493048,9.703885,77.44139,-7.683146,3.242377,26.6422,-8.730895,-19.1818,5.8518853,62.85153,-7.8488183,-2.7383833,-8.546712
21,2.046849489212036,-16.790075302124023,75.88960266113281,-5.129596987127139,0.013557568555566186,83.56042767513617,-24.40776,9.707267,9.513961,6.215731,8.599805,-13.013108,15.714236,6.895582,2.5778816,12.964764,-19.125067,-0.5653134,9.729696,3.0017655,12.406599,28.237268,18.185326,9.561365,77.245255,-7.579869,3.2348015,26.765642,-8.935217,-19.231684,6.2589803,62.412434,-8.015843,-2.7382102,-8.667513
22,2.1646933555603027,-17.499120712280273,75.84471893310547,-5.369958502986412,-0.27759976571502076,83.46238441213094,-24.510607,10.2257595,9.567669,6.168948,7.320039,-13.968839,15.877843,7.3224783,2.7737904,12.111464,-19.126038,-0.5666843,9.931638,3.3677063,12.614656,28.566969,17.921183,9.489387,77.01839,-7.4821515,3.2281213,26.98554,-9.093069,-19.28414,6.6310263,61.973125,-8.203261,-2.7152076,-8.727577
23,2.286000967025757,-18.169376373291016,75.79475402832031,-5.584188099255332,-0.5653835071710495,83.4044208948365,-24.59988,10.717022,9.6904545,6.134412,6.063157,-14.71292,16.02191,7.7205877,2.9571364,11.306108,-19.116337,-0.5701975,10.1087885,3.6993723,12.816009,28.85677,17.70867,9.458481,76.76682,-7.403583,3.2275608,27.231739,-9.216661,-19.334911,6.9606524,61.548054,-8.389832,-2.697976,-8.740705
24,2.395613193511963,-18.842689514160156,75.7534408569336,-5.73235092068415,-0.8326870518620108,83.4259339544069,-24.686228,11.1163025,9.925651,6.1189995,5.002221,-15.000033,16.117027,8.041706,3.041493,10.591701,-19.1528,-0.5974266,10.202083,3.956038,13.020227,29.103243,17.53273,9.447828,76.48292,-7.3557463,3.2379465,27.440737,-9.332871,-19.386515,7.25845,61.159172,-8.550577,-2.7146266,-8.721473
25,2.5137863159179688,-19.491662979125977,75.71381378173828,-5.845439475335403,-1.0808960793785942,83.50635403811374,-24.797836,11.506064,10.281948,6.1259456,4.1138186,-15.000033,16.218193,8.327297,3.0537453,9.852611,-19.196938,-0.664513,10.253815,4.1540728,13.210904,29.29581,17.427546,9.457332,76.16278,-7.364657,3.2770977,27.600382,-9.420885,-19.428282,7.50603,60.79855,-8.682279,-2.7949324,-8.653572
26,2.644805669784546,-20.139205932617188,75.67176818847656,-5.919499168128482,-1.3150820867352535,83.6449496444154,-24.91031,11.852856,10.74424,6.1275244,3.3287106,-14.68275,16.301315,8.5718,3.0085213,9.145018,-19.25512,-0.75152403,10.2627735,4.2952013,13.394059,29.444056,17.378983,9.500553,75.803635,-7.41535,3.3367324,27.747217,-9.481488,-19.461931,7.7073073,60.462246,-8.798124,-2.916754,-8.53812
27,2.7370505332946777,-20.834579467773438,75.64986419677734,-5.942735102426023,-1.5218184946982538,83.84962914842586,-24.987846,12.097513,11.224974,6.153843,2.7205415,-14.126654,16.318478,8.759772,2.8815367,8.530416,-19.316372,-0.8564712,10.20362,4.373763,13.582722,29.531488,17.366154,9.549939,75.444954,-7.4669466,3.3831477,27.87178,-9.537919,-19.488947,7.8599625,60.160366,-8.908774,-3.0308437,-8.4139595
28,2.8339219093322754,-21.514774322509766,75.6524658203125,-5.905941577279435,-1.6892882194757337,84.10301616226499,-24.963427,12.214103,11.646138,6.1892543,2.394737,-13.562493,16.232353,8.878865,2.674057,8.038982,-19.34518,-0.98301965,10.076891,4.377518,13.789579,29.537579,17.376102,9.58164,75.12934,-7.477941,3.383431,27.96116,-9.615132,-19.511024,7.965286,59.902824,-9.020806,-3.088663,-8.319408
29,2.934987783432007,-22.18099594116211,75.68777465820312,-5.791906106715174,-1.8087550020685972,84.41874845020101,-24.825947,12.185176,12.037179,6.238052,2.462717,-12.960694,16.021313,8.915097,2.362283,7.6969814,-19.354843,-1.1498365,9.8624935,4.289302,14.014624,29.449448,17.418888,9.599069,74.881714,-7.4251313,3.3032405,27.96583,-9.727001,-19.536581,8.031632,59.695473,-9.140628,-3.0619512,-8.243672
30,3.040001630783081,-22.866811752319336,75.7488784790039,-5.610468349020731,-1.8881610522041132,84.79763383028,-24.607569,12.044434,12.423042,6.3046484,2.8356366,-12.236447,15.6294985,8.881724,1.9417273,7.64845,-19.445314,-1.3478932,9.587897,4.1212544,14.253464,29.26284,17.503109,9.592464,74.6829,-7.340052,3.1665428,27.916098,-9.838251,-19.55818,8.022741,59.51556,-9.2818575,-2.9817169,-8.174272
31,3.132296085357666,-23.535663604736328,75.84431457519531,-5.3948036497440075,-1.9374310442464147,85.21286973174628,-24.321571,11.834035,12.714789,6.390845,3.326887,-11.474264,15.188077,8.801741,1.4686217,7.63609,-19.466763,-1.5399306,9.333542,3.8995302,14.480178,28.93112,17.705711,9.513791,74.58307,-7.260612,3.036689,27.853624,-9.879746,-19.57706,7.905402,59.33449,-9.390435,-2.890293,-8.129631
32,3.2378528118133545,-24.152019500732422,75.9489974975586,-5.179154058722782,-1.968244724304901,85.63426942414108,-23.977858,11.591818,12.821578,6.496477,3.762033,-10.77651,14.722928,8.70712,0.98707443,7.627172,-19.3862,-1.6907212,9.072702,3.664722,14.695458,28.53319,17.939705,9.399993,74.506714,-7.2037163,2.9715965,27.876688,-9.902151,-19.57409,7.7485247,59.19747,-9.43,-2.8264048,-8.150001
33,3.347764253616333,-24.777725219726562,76.06134033203125,-4.98431195447675,-1.9939546099004324,86.06199422071585,-23.566149,11.313436,12.669467,6.6276803,4.1248393,-10.187755,14.249759,8.620663,0.50367117,7.6167083,-19.175337,-1.7976937,8.8037615,3.437951,14.914227,28.05498,18.21037,9.237755,74.48034,-7.1590242,3.007343,28.015715,-9.910655,-19.551537,7.553334,59.10712,-9.358377,-2.8069904,-8.262554
34,3.437838077545166,-25.405941009521484,76.19266510009766,-4.803744605005661,-2.015357724042117,86.49652819276095,-24.344023,11.258343,12.075299,9.483529,3.0855062,-9.674547,13.72084,8.538419,0.0065140477,7.707325,-18.90178,-1.8834367,8.528587,3.215542,15.14115,27.49516,18.520075,9.031899,74.50076,-7.1189895,3.1053734,28.227062,-9.904829,-19.512062,7.3118443,59.058525,-9.208282,-2.8086758,-8.444207
35,3.5143003463745117,-26.04556655883789,76.33834838867188,-4.628958889662586,-2.0235284954974895,86.9080555726747,-25.034761,11.155604,11.419414,12.314562,2.0935793,-9.222578,13.106994,8.446647,-0.48107255,7.938251,-18.62793,-1.951653,8.273954,2.989159,15.348443,26.88883,18.856955,8.813079,74.51575,-7.1090226,3.2133853,28.465706,-9.873556,-19.462233,7.043432,59.04951,-9.037494,-2.8113182,-8.647195
36,3.612501621246338,-26.670339584350586,76.49060821533203,-4.445854384611872,-2.0050816578220942,87.27323999838602,-25.608675,11.027437,10.82682,15.021364,1.1875377,-8.803721,12.404322,8.321847,-0.9381561,8.2856655,-18.382984,-2.0018122,8.053533,2.745651,15.507148,26.277,19.200146,8.61757,74.4679,-7.15155,3.2787285,28.689821,-9.811193,-19.408403,6.772154,59.079433,-8.905508,-2.793993,-8.824125
37,3.688610315322876,-27.276546478271484,76.64505767822266,-4.241223241293606,-1.9448243651471906,87.5861698215374,-26.090937,10.872919,10.288103,17.63553,0.34691855,-8.407219,11.571892,8.140454,-1.369644,8.793452,-18.17749,-2.0188963,7.863898,2.4754176,15.603946,25.667446,19.532095,8.460852,74.334,-7.2898893,3.2956674,28.91753,-9.730256,-19.354324,6.5178742,59.169373,-8.82621,-2.7393198,-8.989564
38,3.74231219291687,-27.8841495513916,76.79875183105469,-4.019194843330051,-1.8519706826411946,87.86016353139735,-26.500736,10.677436,9.751555,20.21846,-0.4553656,-8.05017,10.635305,7.910124,-1.7800955,9.433472,-17.98213,-2.0044384,7.685798,2.186081,15.657245,25.051851,19.84935,8.33013,74.13566,-7.4961166,3.2887664,29.166887,-9.641111,-19.300816,6.2765894,59.317936,-8.767715,-2.6619048,-9.1603365
39,3.792590379714966,-28.50142478942871,76.95844268798828,-3.783261880698899,-1.7444234397021576,88.107027430953,-26.840961,10.463838,9.2652,22.796598,-1.236925,-7.730369,9.656467,7.6460814,-2.1591098,10.130211,-17.794214,-1.980897,7.5059342,1.8826617,15.683029,24.443153,20.155664,8.216797,73.88572,-7.686774,3.2511919,29.394663,-9.535175,-19.246822,6.036571,59.490574,-8.716406,-2.5879853,-9.292421
40,3.8444325923919678,-29.08424186706543,77.113037109375,-3.5404062812234347,-1.6413857198035997,88.33823238800672,-27.113993,10.263466,8.873648,25.398973,-2.0198298,-7.4427834,8.691407,7.3688216,-2.4983954,10.820481,-17.617773,-1.973843,7.3139653,1.5719765,15.697235,23.851444,20.458708,8.110658,73.59998,-7.7788806,3.177019,29.556509,-9.400505,-19.189095,5.782711,59.65142,-8.659496,-2.544052,-9.3415985
41,3.884786367416382,-29.677162170410156,77.25862884521484,-3.2753745779020305,-1.5410439387658104,88.55249150925539,-27.329458,10.08396,8.603465,28.06319,-2.8292701,-7.1975694,7.723043,7.06721,-2.7912505,11.532056,-17.467813,-1.9879999,7.1144457,1.237221,15.696721,23.279917,20.760342,8.029755,73.25483,-7.7702036,3.037905,29.613558,-9.230419,-19.123934,5.512135,59.790707,-8.597046,-2.5402186,-9.280816
42,3.937321901321411,-30.26592445373535,77.40227508544922,-2.985539285197901,-1.432232401067649,88.74867216518426,-27.489525,9.914301,8.42292,30.775225,-3.6578662,-6.984775,6.721763,6.7297435,-3.0465095,12.297763,-17.343672,-2.0099916,6.9092793,0.87304956,15.671609,22.720686,21.0606,7.9724064,72.85328,-7.6981983,2.8470936,29.597881,-9.031363,-19.049076,5.229646,59.927837,-8.535999,-2.561182,-9.139312
43,3.9800195693969727,-30.838130950927734,77.53899383544922,-2.6920693836098666,-1.320632036886915,88.93851269251071,-27.589558,9.762666,8.284851,33.500076,-4.4768353,-6.7685137,5.737637,6.3828254,-3.2805328,13.036977,-17.21864,-2.0412345,6.6860824,0.50432163,15.629217,22.16462,21.369343,7.895087,72.45109,-7.5418577,2.662528,29.571507,-8.812698,-18.96761,4.9326363,60.07069,-8.471709,-2.5953758,-8.957615
44,4.026766300201416,-31.40007209777832,77.66163635253906,-2.419233240956511,-1.212677938713617,89.13375745645071,-27.62272,9.634709,8.14145,36.1984,-5.2539005,-6.516451,4.810611,6.055639,-3.5128596,13.691915,-17.072027,-2.0832489,6.4381356,0.16051233,15.577371,21.590597,21.701675,7.7475786,72.12251,-7.280984,2.5345137,29.592537,-8.575131,-18.88485,4.6108594,60.221146,-8.400263,-2.6316323,-8.773903
45,4.0664777755737305,-31.958507537841797,77.77095794677734,-2.17010974213043,-1.1081861471719339,89.34208941388347,-27.600733,9.528474,7.9797726,38.909996,-5.9816685,-6.2027144,3.9453301,5.7501564,-3.7526937,14.255047,-16.9019,-2.1443868,6.1618247,-0.15649629,15.5154915,20.9872,22.073496,7.486434,71.89294,-6.8430367,2.4901793,29.673937,-8.308567,-18.802156,4.2484903,60.37234,-8.313996,-2.6765683,-8.566588
46,4.109726428985596,-32.5014762878418,77.87120056152344,-1.93109680527449,-1.003886378054404,89.55705532184467,-27.523335,9.445018,7.8217,41.6429,-6.679183,-5.847964,3.118126,5.4534354,-3.991646,14.762147,-16.721369,-2.2214527,5.8728533,-0.45963585,15.438177,20.347069,22.487497,7.132925,71.73982,-6.265847,2.4975984,29.779463,-8.002124,-18.717703,3.841885,60.51753,-8.216293,-2.7334557,-8.322577
47,4.145783424377441,-33.03342056274414,77.96087646484375,-1.7105280615937473,-0.90189781376867,89.7696707426398,-27.36589,9.390922,7.6727676,44.31174,-7.353042,-5.492483,2.3323526,5.1732054,-4.2239714,15.2085,-16.529148,-2.2988794,5.588831,-0.74149776,15.3476925,19.668812,22.932283,6.740302,71.641624,-5.6918416,2.5283132,29.896235,-7.6599817,-18.633009,3.4045575,60.661366,-8.119679,-2.7854187,-8.0939045
48,4.190297603607178,-33.56021499633789,78.03443908691406,-1.5164239285413605,-0.8038010306057197,89.97110725301567,-27.1057,9.371772,7.539112,46.833027,-8.010962,-5.177037,1.5924208,4.917091,-4.444026,15.587058,-16.322779,-2.3609424,5.320154,-0.9938346,15.248097,18.960327,23.38808,6.369485,71.568405,-5.261827,2.5529673,30.014677,-7.2922196,-18.552197,2.9572523,60.81171,-8.036389,-2.8158267,-7.933207
49,4.223840713500977,-34.06858825683594,78.1023178100586,-1.3509360138853959,-0.7198928023747238,90.16042804695975,-26.728529,9.398269,7.4252133,49.222477,-8.672219,-4.9073715,0.9244253,4.689172,-4.654187,15.872473,-16.096796,-2.401083,5.0546737,-1.2103958,15.1514845,18.229385,23.845417,6.0239677,71.520195,-4.9850883,2.5761497,30.146828,-6.908075,-18.478523,2.5102015,60.97005,-7.9569798,-2.82766,-7.863632
50,4.241807460784912,-34.583396911621094,78.16242218017578,-1.211060144864489,-0.6455873545523113,90.34270323142347,-26.25118,9.4667225,7.325147,51.51985,-9.331723,-4.6620235,0.31664738,4.48645,-4.858923,16.077774,-15.855445,-2.428528,4.781561,-1.3942559,15.054631,17.480953,24.302265,5.687216,71.49828,-4.7922444,2.6087177,30.296583,-6.507272,-18.4127,2.0611117,61.136345,-7.878267,-2.827212,-7.8548307
51,4.259551048278809,-35.09615707397461,78.20883178710938,-1.0936252044020336,-0.5600769727190745,90.51820091646009,-25.702374,9.559911,7.2303686,53.686474,-9.965091,-4.441673,-0.2858225,4.304637,-5.055457,16.258396,-15.61171,-2.4507697,4.5088243,-1.5511392,14.939183,16.723354,24.74754,5.390198,71.472404,-4.708458,2.6296246,30.44525,-6.088175,-18.354696,1.6152947,61.31727,-7.8227243,-2.8031042,-7.879793
52,4.268553733825684,-35.57671356201172,78.25117492675781,-0.9961555640667686,-0.4428682847857493,90.68740927162878,-25.112251,9.65947,7.133232,55.683792,-10.546667,-4.247437,-0.9357502,4.13901,-5.240516,16.465635,-15.377256,-2.475446,4.2397766,-1.6871408,14.78712,15.974521,25.164747,5.173049,71.405174,-4.7531447,2.617466,30.575613,-5.6557465,-18.305035,1.1841681,61.52311,-7.8114734,-2.7437294,-7.9131145
53,4.270471096038818,-36.0652961730957,78.27981567382812,-0.9210403910702817,-0.28549036071576334,90.8515581102643,-24.485956,9.777581,7.0466847,57.518303,-11.084673,-4.0646133,-1.6458224,3.9915364,-5.4096255,16.709328,-15.158945,-2.5083616,3.9725788,-1.799003,14.590108,15.247215,25.542044,5.091024,71.264725,-5.0011797,2.5568311,30.689674,-5.213884,-18.265707,0.77079874,61.761257,-7.8748245,-2.6195402,-7.962378
54,4.261554718017578,-36.55976104736328,78.29839324951172,-0.870103790165234,-0.09975208450091869,91.01053001897829,-23.812658,9.9197645,6.970067,59.214138,-11.590372,-3.8965373,-2.3889194,3.8637738,-5.5669456,16.96452,-14.950023,-2.5439365,3.695506,-1.8812511,14.360478,14.545813,25.878414,5.122783,71.06639,-5.4134936,2.4615095,30.798471,-4.7702503,-18.23732,0.38042244,62.03424,-7.9915404,-2.4475338,-8.038314
55,4.25574254989624,-37.04458236694336,78.31961822509766,-0.8355174102757796,0.10492900943879753,91.16265314079172,-23.09213,10.054018,6.8777575,60.74533,-12.0435,-3.7747571,-3.1568518,3.7491171,-5.719643,17.22762,-14.739315,-2.5726197,3.3991883,-1.9385401,14.1101265,13.869283,26.1773,5.185157,70.85018,-5.844134,2.3541195,30.899357,-4.326883,-18.22063,0.02110933,62.328724,-8.110191,-2.2776592,-8.118513
56,4.240232467651367,-37.5272216796875,78.32888793945312,-0.8131946531473958,0.31914602801913483,91.30633391696847,-22.32656,10.148574,6.7449713,62.089245,-12.425485,-3.7280638,-3.9415205,3.640782,-5.8748946,17.494278,-14.516622,-2.584736,3.0788298,-1.9743952,13.851022,13.208175,26.444475,5.1875577,70.660416,-6.148995,2.2579012,30.988379,-3.8838818,-18.215239,-0.30249333,62.63304,-8.17743,-2.162786,-8.180084
57,4.2201433181762695,-38.02302169799805,78.33250427246094,-0.8063421907899636,0.5506058601200913,91.43673811422438,-21.524126,10.1975155,6.556087,63.247925,-12.717248,-3.774453,-4.7561936,3.540693,-6.034975,17.7703,-14.277718,-2.5722096,2.7425337,-1.9837465,13.574733,12.555297,26.681406,5.1193824,70.50616,-6.2895484,2.1632426,31.075594,-3.4309115,-18.222734,-0.5953519,62.944378,-8.187925,-2.134151,-8.223783
58,4.195986270904541,-38.506961822509766,78.33039855957031,-0.8172565369287376,0.8008966163488977,91.55652354191447,-20.683344,10.216718,6.3289847,64.23533,-12.935621,-3.895178,-5.5978966,3.4509552,-6.196027,18.050514,-14.02803,-2.5417368,2.3956964,-1.9655378,13.278404,11.911267,26.888748,5.018727,70.36891,-6.3431406,2.0633497,31.158274,-2.966151,-18.245474,-0.8647008,63.266228,-8.167847,-2.1582694,-8.258498
59,4.166880130767822,-38.99348831176758,78.32182312011719,-0.8354019592813413,1.0516178341297826,91.67491601290212,-19.7925,10.207572,6.0880303,65.04503,-13.11484,-4.0657525,-6.44604,3.3637938,-6.356592,18.341387,-13.776533,-2.5055783,2.029312,-1.9294177,12.983053,11.269765,27.07246,4.8605213,70.258705,-6.3457375,1.9863931,31.213612,-2.5031912,-18.279984,-1.1082765,63.596558,-8.109255,-2.1918297,-8.2731085
60,4.133113384246826,-39.463321685791016,78.3070297241211,-0.8536071764612243,1.2844458743312153,91.80115081549489,-18.840015,10.1724205,5.8569527,65.67078,-13.288756,-4.26049,-7.276869,3.271326,-6.5147276,18.641644,-13.530954,-2.475877,1.6392165,-1.8882945,12.70793,10.62368,27.242672,4.6180873,70.1858,-6.3313656,1.9603873,31.217463,-2.050917,-18.322712,-1.3296734,63.9311,-8.007093,-2.1913757,-8.256988
61,4.101795196533203,-39.94985580444336,78.28853607177734,-0.8748589179652176,1.4961850502152714,91.93667598192228,-17.818428,10.111374,5.6257586,66.10748,-13.459349,-4.494752,-8.086433,3.1787798,-6.6690145,18.950068,-13.292532,-2.4554574,1.222461,-1.8414164,12.458248,9.960302,27.404087,4.255631,70.1731,-6.3075123,2.019437,31.150515,-1.617706,-18.371641,-1.5194157,64.27411,-7.819686,-2.1428392,-8.198457
62,4.059711933135986,-40.4456672668457,78.26354217529297,-0.9030341601805141,1.6962152892143552,92.07663334686943,-16.737537,10.026695,5.3865876,66.36348,-13.613267,-4.771803,-8.89129,3.0866303,-6.8205414,19.27659,-13.062858,-2.437173,0.78728724,-1.7863435,12.222754,9.279342,27.556767,3.788421,70.21506,-6.2599545,2.1398065,31.027853,-1.1924413,-18.426607,-1.6845461,64.62395,-7.5643487,-2.0702093,-8.106226
63,4.018370151519775,-40.94282913208008,78.24061584472656,-0.9259479190909268,1.884893111580633,92.22131729232183,-15.610718,9.9243,5.163911,66.44611,-13.755447,-5.048428,-9.684042,2.9829445,-6.9712195,19.606413,-12.831396,-2.4187758,0.34626383,-1.7330637,11.995435,8.596648,27.702456,3.2715483,70.27591,-6.184951,2.262874,30.874977,-0.7550283,-18.483404,-1.8516272,64.96865,-7.322319,-1.9867357,-7.99967
64,3.9768497943878174,-41.4348258972168,78.21708679199219,-0.9343715797921859,2.062691439339665,92.37085448280385,-14.452756,9.809727,4.9821296,66.36495,-13.89169,-5.280777,-10.461857,2.8553884,-7.122493,19.934092,-12.593381,-2.3990114,-0.09137058,-1.6918615,11.771224,7.9224267,27.845156,2.754866,70.32574,-6.0868077,2.3301942,30.71819,-0.28824538,-18.532425,-2.043308,65.29795,-7.173784,-1.9063364,-7.8982286
65,3.9346065521240234,-41.91315460205078,78.19220733642578,-0.9220092761181549,2.2256617613181855,92.52494387190856,-13.255067,9.680618,4.8441405,66.11633,-14.034359,-5.4498687,-11.223997,2.6987743,-7.2753615,20.26921,-12.354854,-2.3794048,-0.5240056,-1.6727287,11.551785,7.266935,27.990149,2.2352262,70.34889,-5.9547014,2.3134716,30.532993,0.21636403,-18.569645,-2.2565777,65.60513,-7.164146,-1.8332372,-7.7895894
66,3.8919854164123535,-42.398075103759766,78.16963958740234,-0.8955543879980895,2.3749723700293406,92.68367706064643,-12.0160055,9.536508,4.7356534,65.698494,-14.176249,-5.5795665,-11.97263,2.5207748,-7.428367,20.61165,-12.116182,-2.3613265,-0.95645344,-1.6718842,11.337866,6.623195,28.137753,1.6917901,70.36422,-5.791146,2.2477758,30.31482,0.7479151,-18.593456,-2.480925,65.89776,-7.243097,-1.7600747,-7.6701117
67,3.8394148349761963,-42.8944091796875,78.14836120605469,-0.8620195908695661,2.5186636051720925,92.8475814848017,-10.760332,9.386109,4.654811,65.124016,-14.29291,-5.6913915,-12.709676,2.3287368,-7.5794663,20.94354,-11.864914,-2.3432791,-1.389268,-1.6809971,11.123255,5.9793797,28.285368,1.152303,70.388405,-5.618447,2.1705024,30.121914,1.293246,-18.60017,-2.7286642,66.1892,-7.350032,-1.6847638,-7.574444
68,3.7891976833343506,-43.3828010559082,78.12654113769531,-0.8271914946009458,2.6648435817875353,93.01749854727439,-9.51291,9.237429,4.6000175,64.405594,-14.360668,-5.8074684,-13.437383,2.1293967,-7.7267203,21.248173,-11.589407,-2.3228908,-1.8241236,-1.6927315,10.901247,5.332041,28.428225,0.65597147,70.43079,-5.449346,2.1193805,30.012945,1.8429906,-18.585985,-3.0122852,66.4832,-7.4263334,-1.5989667,-7.5376153
69,3.732353925704956,-43.884681701660156,78.10722351074219,-0.7918166800415787,2.8151422691655767,93.19674929993629,-8.267924,9.100992,4.5805254,63.53359,-14.376152,-5.9389467,-14.15347,1.9236932,-7.8720326,21.519238,-11.283507,-2.301584,-2.2679336,-1.7070735,10.6704645,4.6777997,28.564426,0.21932814,70.49886,-5.2805324,2.106739,30.020803,2.3886974,-18.546215,-3.3384418,66.78678,-7.4677672,-1.4882194,-7.5868526
70,3.6808087825775146,-44.39249801635742,78.08748626708984,-0.7517145433256328,2.965448097458617,93.38390971600988,-7.0170474,8.968673,4.5926538,62.507156,-14.35161,-6.07315,-14.85869,1.7075148,-8.015322,21.767996,-10.955552,-2.2794209,-2.7197807,-1.7283698,10.4342375,4.022897,28.69554,-0.17524041,70.58297,-5.104124,2.1122203,30.10964,2.9372878,-18.480654,-3.6980295,67.093735,-7.5036507,-1.3594756,-7.699055
71,3.621335983276367,-44.87041091918945,78.0650634765625,-0.7081576424923215,3.1154522733633603,93.57279587460388,-5.7803893,8.821176,4.6155896,61.349323,-14.286076,-6.196194,-15.557895,1.4809548,-8.151768,21.999838,-10.612312,-2.251814,-3.1703737,-1.7539951,10.195204,3.3719034,28.823,-0.5479534,70.67158,-4.935001,2.1243818,30.235271,3.4938877,-18.395123,-4.0736527,67.40011,-7.5186973,-1.2428192,-7.834273
72,3.5533785820007324,-45.35298156738281,78.04235076904297,-0.6593035241487087,3.2647854111415917,93.75720169761321,-4.5786085,8.640298,4.627882,60.084393,-14.179284,-6.2934203,-16.255772,1.2443198,-8.276501,22.219507,-10.260375,-2.2143192,-3.6119955,-1.7798184,9.956305,2.727144,28.947876,-0.92250067,70.75564,-4.7925067,2.1313784,30.353281,4.0639653,-18.298258,-4.4493365,67.701256,-7.4999228,-1.1685737,-7.9515676
73,3.4749884605407715,-45.83177947998047,78.02375793457031,-0.5982686031181363,3.415717023150814,93.93814006872753,-3.4124658,8.419809,4.631001,58.71049,-14.0415745,-6.3349752,-16.956161,0.9905943,-8.387677,22.429916,-9.903391,-2.1604033,-4.051,-1.8079026,9.713862,2.085352,29.07002,-1.3218583,70.846954,-4.681044,2.1348732,30.467905,4.64675,-18.194048,-4.8326254,67.99997,-7.409902,-1.1708008,-8.056246
74,3.4021944999694824,-46.37644577026367,77.99384307861328,-0.5291150460903193,3.567639019605394,94.11815913966927,-2.2730181,8.170082,4.632204,57.22006,-13.871852,-6.337124,-17.655245,0.7223213,-8.487458,22.626211,-9.536308,-2.0941782,-4.488191,-1.8375312,9.467566,1.4417219,29.189028,-1.7336584,70.9498,-4.5951133,2.1395047,30.597286,5.2407875,-18.08205,-5.2294297,68.29736,-7.266869,-1.2251146,-8.162793
75,3.3276357650756836,-46.89312744140625,77.96192169189453,-0.46368185800995154,3.7158493605357035,94.29368591168002,-1.1644125,7.8998375,4.6181517,55.62508,-13.652381,-6.3532915,-18.35025,0.45552614,-8.578819,22.810637,-9.157093,-2.027804,-4.90813,-1.8593221,9.225123,0.8072444,29.302486,-2.1130273,71.03419,-4.5252323,2.1378472,30.716845,5.8475013,-17.96173,-5.6173964,68.58925,-7.137579,-1.274175,-8.243826
76,3.2407143115997314,-47.407386779785156,77.92991638183594,-0.41162557406958045,3.855790738254713,94.46009961875899,-0.09041945,7.6161423,4.577095,53.935665,-13.360746,-6.435805,-19.03918,0.20392399,-8.663385,22.986784,-8.764604,-1.9733086,-5.2974963,-1.8674477,8.995335,0.1936422,29.408665,-2.4160933,71.070206,-4.465959,2.1225479,30.802902,6.4651074,-17.83619,-5.969876,68.872406,-7.086971,-1.2599914,-8.273336
77,3.1558756828308105,-47.924072265625,77.8877182006836,-0.37968697115551603,3.980209040280726,94.61287000609765,0.9691669,7.3208284,4.5030584,52.131035,-13.0115795,-6.5894156,-19.714333,-0.024807503,-8.740251,23.158411,-8.362225,-1.9411204,-5.6473155,-1.8589543,8.782811,-0.39464867,29.502342,-2.59501,71.0388,-4.4202995,2.1039348,30.8327,7.099895,-17.707897,-6.283147,69.143326,-7.1574445,-1.1491622,-8.225678
78,3.0738136768341064,-48.46001434326172,77.83771514892578,-0.3611466830470358,4.093566122141509,94.7545608737488,2.0115387,7.012044,4.402283,50.212116,-12.610191,-6.787204,-20.379005,-0.23877801,-8.809012,23.322748,-7.9493546,-1.9226531,-5.9709225,-1.8376815,8.583206,-0.9572403,29.583918,-2.6763833,70.954735,-4.3871136,2.0817158,30.825592,7.7448773,-17.580084,-6.563469,69.40763,-7.303702,-0.9785061,-8.121374
79,2.9795777797698975,-48.995269775390625,77.7845230102539,-0.3474145162366837,4.209184771865659,94.89300642195246,2.9981701,6.6911917,4.2799373,48.217808,-12.122012,-7.0339947,-21.0476,-0.44905093,-8.872989,23.471556,-7.5188603,-1.9015048,-6.2884827,-1.8057728,8.390449,-1.4919629,29.66169,-2.7333786,70.843124,-4.3568044,2.0325806,30.81954,8.381187,-17.452011,-6.8056555,69.67577,-7.4632645,-0.7959087,-8.001137
80,2.8857431411743164,-49.55426025390625,77.7213134765625,-0.3332840048749066,4.340257594188282,95.03578393921717,3.8909776,6.359164,4.141289,46.18556,-11.512621,-7.3356996,-21.73236,-0.6653788,-8.9348955,23.59335,-7.062316,-1.8615447,-6.6154666,-1.7683911,8.197662,-1.9934899,29.746315,-2.8341234,70.72444,-4.31209,1.9333934,30.850044,8.992676,-17.319885,-7.0075836,69.95697,-7.5731254,-0.64880323,-7.906032
81,2.8044660091400146,-50.155574798583984,77.65225982666016,-0.3167312611096778,4.4997914813554765,95.1844539947336,4.674371,5.991285,3.9499912,44.071163,-10.62101,-7.765877,-22.458824,-0.8902804,-8.990104,23.703413,-6.5740123,-1.7977189,-6.9516063,-1.73015,7.99423,-2.4609084,29.84472,-3.0050874,70.59894,-4.2663937,1.7424651,30.941328,9.575344,-17.181831,-7.1563625,70.25871,-7.6231675,-0.5506218,-7.8386006
82,2.7084083557128906,-50.73020935058594,77.58495330810547,-0.2993966187162132,4.677592803985532,95.33547886980989,5.3734345,5.5964274,3.7089608,41.867973,-9.516701,-8.297715,-23.212475,-1.1180457,-9.0386,23.800259,-6.0588784,-1.7193478,-7.2860827,-1.6913527,7.7868686,-2.90264,29.95708,-3.2148411,70.46059,-4.22658,1.4844419,31.067429,10.141416,-17.036417,-7.2623186,70.57155,-7.646141,-0.47573006,-7.779537
83,2.6031293869018555,-51.31618881225586,77.51097869873047,-0.28493904422838817,4.851744994141235,95.48799314077668,6.008069,5.2244077,3.4904099,39.672245,-8.509137,-8.786754,-23.9496,-1.3463458,-9.089827,23.856762,-5.528772,-1.6318139,-7.6187744,-1.6507937,7.5955925,-3.3276496,30.083109,-3.4441545,70.32127,-4.1652875,1.235078,31.188835,10.697402,-16.879564,-7.3556046,70.88026,-7.641259,-0.41259676,-7.7390203
84,2.497544050216675,-51.90484619140625,77.42573547363281,-0.27264972366632667,5.000560064847714,95.64152592567632,6.596051,4.923253,3.3770576,37.580784,-7.904176,-9.087946,-24.6281,-1.5738071,-9.154178,23.848003,-4.996721,-1.5402466,-7.948236,-1.6076634,7.4403653,-3.7488713,30.222492,-3.6781092,70.195435,-4.0580835,1.0701716,31.266617,11.252223,-16.705652,-7.4690814,71.167786,-7.609731,-0.3497005,-7.727614
85,2.393954277038574,-52.518699645996094,77.3300552368164,-0.26858090137589946,5.1215275415273025,95.78882686361129,7.149324,4.7181783,3.4368973,35.56347,-7.81258,-9.164234,-25.233875,-1.7936959,-9.24292,23.754696,-4.4712105,-1.4515123,-8.270523,-1.5598277,7.323266,-4.1700735,30.373129,-3.89942,70.0913,-3.8744195,1.0247803,31.289825,11.811191,-16.509953,-7.6211863,71.422806,-7.5273085,-0.29785526,-7.773186
86,2.2888896465301514,-53.126705169677734,77.23847961425781,-0.2683546296696211,5.225041446636429,95.932682911129,7.656841,4.570929,3.6187553,33.58126,-8.056073,-9.098612,-25.790842,-2.0086913,-9.348956,23.594727,-3.9437044,-1.3609694,-8.58578,-1.5106009,7.235433,-4.586332,30.535496,-4.1214566,69.99973,-3.633917,1.0534778,31.280277,12.372516,-16.29363,-7.7945065,71.652176,-7.4037957,-0.25831607,-7.863804
87,2.1828699111938477,-53.74923324584961,77.15411376953125,-0.26759017162339427,5.30939075580987,96.08754534785218,8.102007,4.4368734,3.8291767,31.715897,-8.505635,-8.924098,-26.311655,-2.229824,-9.4543085,23.395966,-3.4000847,-1.2565299,-8.900593,-1.4650495,7.180565,-5.0036507,30.715557,-4.3861523,69.91592,-3.399851,1.1108801,31.247677,12.928926,-16.058601,-7.961554,71.871506,-7.2871547,-0.20528471,-7.94885
88,2.07407808303833,-54.38786315917969,77.05908966064453,-0.26077737998420375,5.372621400272785,96.26762523175925,8.463518,4.2790866,3.9721284,30.060453,-9.037447,-8.666694,-26.809809,-2.468372,-9.540816,23.187798,-2.8269782,-1.1261572,-9.220015,-1.4295762,7.161961,-5.4287667,30.921148,-4.7362137,69.83455,-3.2346125,1.1520834,31.200884,13.474368,-15.807142,-8.095876,72.095474,-7.2254124,-0.11241054,-7.977445
89,1.9637426137924194,-55.048763275146484,76.97112274169922,-0.25210366753400715,5.419846839147263,96.48152555386602,8.697151,4.1062074,4.018953,28.701721,-9.679853,-8.271208,-27.301008,-2.72172,-9.604691,22.98483,-2.2040377,-0.98428303,-9.5547,-1.3969232,7.179213,-5.863833,31.161842,-5.215953,69.75313,-3.1660862,1.1810439,31.141573,14.005652,-15.540007,-8.201825,72.328415,-7.2323494,0.03715708,-7.940483
90,1.853689193725586,-55.715049743652344,76.88131713867188,-0.24322679775711864,5.4502234418444075,96.7198802411333,8.820127,3.9323292,4.0171065,27.583242,-10.484091,-7.7417955,-27.775068,-2.9860578,-9.6543455,22.770515,-1.5444577,-0.8312221,-9.8968315,-1.371476,7.229852,-6.308744,31.435158,-5.7949204,69.67526,-3.1580193,1.2167416,31.062021,14.526731,-15.253866,-8.2894335,72.563835,-7.281673,0.22604589,-7.8620553
91,1.7346227169036865,-56.391639709472656,76.78752899169922,-0.2213601450991832,5.453046831507245,96.97059085695815,8.907951,3.7354918,3.9859462,26.57225,-11.357273,-7.186849,-28.205355,-3.2690182,-9.688953,22.523401,-0.8823341,-0.63389474,-10.228201,-1.3742793,7.316101,-6.7704277,31.729294,-6.408969,69.60923,-3.1856363,1.2367964,30.959883,15.042049,-14.948171,-8.342534,72.79798,-7.3644896,0.42910102,-7.742484
92,1.6184782981872559,-57.057804107666016,76.69602966308594,-0.1743691273469672,5.417239793244693,97.22153444332454,9.03433,3.4976645,3.9468424,25.540567,-12.204313,-6.7126117,-28.563644,-3.5768049,-9.708515,22.219713,-0.25056773,-0.35905766,-10.533899,-1.4222423,7.440393,-7.252222,32.02935,-6.992443,69.56243,-3.2258961,1.2187116,30.833939,15.553665,-14.625693,-8.341449,73.028015,-7.4703817,0.6214025,-7.582091
93,1.5002604722976685,-57.75080490112305,76.60057830810547,-0.09961021659965155,5.333096467583129,97.47716730142606,9.223366,3.2162538,3.9082077,24.454758,-13.020064,-6.3355894,-28.833838,-3.9182441,-9.710869,21.844515,0.3852331,0.038949672,-10.816266,-1.518774,7.615233,-7.760865,32.327137,-7.518221,69.52869,-3.2993557,1.1364577,30.663502,16.05922,-14.291506,-8.273315,73.26194,-7.611927,0.8039085,-7.37559
94,1.3817501068115234,-58.45945358276367,76.51068115234375,-0.00511365018763361,5.208250456034694,97.74148336928015,9.431743,2.906121,3.8557525,23.385519,-13.847159,-5.995661,-29.032705,-4.2853403,-9.697071,21.40982,1.0313897,0.5306726,-11.085464,-1.6498439,7.834277,-8.279726,32.622265,-8.008182,69.49782,-3.3981931,1.0087681,30.457458,16.5561,-13.949376,-8.147722,73.500984,-7.78843,0.9870199,-7.123868
95,1.256136417388916,-59.1628303527832,76.42262268066406,0.10196830284302975,5.058395027427175,98.00263492591878,9.636562,2.5764334,3.7799037,22.35097,-14.660751,-5.6856165,-29.182669,-4.660032,-9.673727,20.934309,1.6110508,1.037103,-11.338065,-1.804042,8.075161,-8.804296,32.918087,-8.506487,69.49504,-3.487682,0.87953186,30.26175,17.046392,-13.605151,-7.982166,73.72886,-7.970402,1.1594455,-6.838043
96,1.1129504442214966,-59.86332321166992,76.33600616455078,0.2135959618183773,4.899198384574935,98.24872516518549,9.81547,2.23532,3.6720078,21.368908,-15.436013,-5.401648,-29.305307,-5.026044,-9.649344,20.436361,2.046754,1.479352,-11.567227,-1.971621,8.313745,-9.315791,33.21579,-9.037124,69.53208,-3.5119863,0.7925549,30.121244,17.533583,-13.263668,-7.7959704,73.93086,-8.127367,1.3100383,-6.5289016
97,0.9856727123260498,-60.5614013671875,76.2527084350586,0.3286216733682948,4.7303018724538,98.48587211002065,9.960726,1.880902,3.520469,20.450346,-16.184002,-5.152137,-29.403444,-5.389013,-9.638311,19.925768,2.2992363,1.8327155,-11.776379,-2.1458216,8.553461,-9.845729,33.519623,-9.655056,69.64543,-3.463992,0.7628939,30.065184,18.02309,-12.926397,-7.571189,74.10423,-8.244998,1.427317,-6.183195
98,0.8534325361251831,-61.28293991088867,76.16326141357422,0.4487601041398194,4.544636715420697,98.71762666496294,10.084277,1.5117977,3.333478,19.583885,-16.912663,-4.93556,-29.464806,-5.7561765,-9.635985,19.389673,2.4155374,2.1411204,-11.963489,-2.333873,8.801525,-10.383606,33.82564,-10.319912,69.81007,-3.355991,0.7661629,30.062532,18.51674,-12.589184,-7.307358,74.25113,-8.341121,1.5245504,-5.798959
99,0.740910530090332,-61.999755859375,76.08393096923828,0.5753111187835885,4.34822740595251,98.92815031394666,10.195006,1.134275,3.1334202,18.75264,-17.592148,-4.737893,-29.486738,-6.113992,-9.622311,18.809607,2.4495919,2.4289026,-12.125948,-2.5392082,9.049276,-10.904369,34.131535,-10.989437,69.9941,-3.2403169,0.78590214,30.072308,18.995647,-12.256118,-7.046568,74.3831,-8.435974,1.6119394,-5.408164
100,0.6167402267456055,-62.70454406738281,76.00486755371094,0.7063948635598543,4.1469543544536345,99.10186844010192,10.305232,0.753232,2.9428284,17.933058,-18.188925,-4.547479,-29.46634,-6.449398,-9.576698,18.167364,2.4543254,2.720144,-12.258488,-2.7657797,9.284912,-11.358143,34.431072,-11.587571,70.145905,-3.1375225,0.8055597,30.052254,19.443321,-11.9330225,-6.831399,74.51034,-8.547404,1.7023418,-5.040682
101,0.4942702651023865,-63.39684295654297,75.93482208251953,0.8392091983714888,3.9434188140013067,99.23412525808786,10.410668,0.3729039,2.7564023,17.128786,-18.697222,-4.386053,-29.404913,-6.752945,-9.4861555,17.461273,2.4073975,3.0068245,-12.367488,-3.0016673,9.509868,-11.74751,34.72498,-12.125027,70.26417,-3.0713804,0.82587135,29.9961,19.852238,-11.623731,-6.664089,74.63996,-8.670635,1.7898576,-4.6919594
102,0.3846767246723175,-64.09568786621094,75.86695098876953,0.9733716950491711,3.7339361304783636,99.33402789252179,10.510911,-0.011656209,2.5671873,16.342985,-19.13265,-4.256036,-29.300919,-7.0365286,-9.366084,16.698086,2.2925959,3.2795873,-12.45196,-3.2480922,9.726792,-12.066785,35.011387,-12.59397,70.35116,-2.9908986,0.85374755,29.923962,20.23281,-11.327617,-6.5265594,74.76773,-8.798025,1.8703281,-4.3488255
103,0.26715001463890076,-64.7901382446289,75.81388092041016,1.1209619072853871,3.5151903623728575,99.40772254259085,10.622663,-0.41039726,2.3941982,15.554343,-19.493029,-4.1188784,-29.1479,-7.31787,-9.238795,15.872184,2.1734638,3.560953,-12.519974,-3.516108,9.937292,-12.351833,35.295864,-13.034185,70.44907,-2.952143,0.8814215,29.84023,20.580847,-11.051294,-6.418031,74.88395,-8.944948,1.9590033,-4.028836
104,0.1445424109697342,-65.44092559814453,75.75746154785156,1.2917022889965615,3.2835843990567386,99.46095578616963,10.765484,-0.83404976,2.2558396,14.737246,-19.776201,-3.9367461,-28.939213,-7.6136875,-9.126282,14.97654,2.1145935,3.8751183,-12.562794,-3.8251636,10.130927,-12.53381,35.56778,-13.334572,70.510666,-2.8662474,0.90124404,29.743933,20.900724,-10.792027,-6.3456917,74.98631,-9.126973,2.0707312,-3.746781
105,0.03291960060596466,-66.09190368652344,75.70679473876953,1.5032213750566725,3.025907310448766,99.49589268008927,10.957586,-1.3070291,2.1526394,13.886739,-19.979536,-3.697887,-28.628624,-7.93032,-8.998442,13.916378,2.1422954,4.264692,-12.598294,-4.1929283,10.315842,-12.657913,35.834778,-13.555859,70.581276,-2.814204,0.9065966,29.638983,21.188759,-10.557314,-6.316152,75.070724,-9.383346,2.226929,-3.507571
106,-0.06282765418291092,-66.73334503173828,75.65644836425781,1.7467182621545405,2.747010788348037,99.51107836119112,11.1922035,-1.8203721,2.0737112,13.004769,-20.100452,-3.4276624,-28.227957,-8.260243,-8.85918,12.714878,2.2243037,4.705882,-12.622398,-4.607064,10.490627,-12.703111,36.095295,-13.6759,70.63774,-2.7623236,0.90302503,29.522316,21.445923,-10.343314,-6.326192,75.14318,-9.694018,2.4132478,-3.3000126
107,-0.16803941130638123,-67.35525512695312,75.61965942382812,1.9900712797663394,2.472633824504455,99.50625617839275,11.444299,-2.3320065,2.0223968,12.08607,-20.140997,-3.144465,-27.820702,-8.591716,-8.781194,11.542726,2.3417559,5.1246505,-12.629223,-5.0211983,10.657734,-12.71192,36.354057,-13.761029,70.70762,-2.7432399,0.9010387,29.39461,21.664436,-10.159896,-6.3520846,75.19736,-9.984058,2.5921288,-3.1232064
108,-0.27844205498695374,-67.97479248046875,75.58099365234375,2.197609116884871,2.230288720132993,99.47791975750648,11.684528,-2.7968998,2.0069244,11.129883,-20.105194,-2.8668635,-27.504847,-8.907719,-8.832267,10.596566,2.4610097,5.4469953,-12.598624,-5.390024,10.807038,-12.640681,36.60262,-13.7584305,70.74761,-2.6782837,0.9108928,29.253073,21.841173,-10.009465,-6.3739214,75.2371,-10.177675,2.7260432,-2.9734397
109,-0.3836161196231842,-68.54965209960938,75.54352569580078,2.3697858314658284,2.0280488217716988,99.42507359293795,11.92446,-3.2184913,2.0362356,10.095325,-19.985556,-2.5997884,-27.300209,-9.215742,-9.066826,9.854445,2.6146533,5.6602926,-12.545902,-5.7041054,10.941074,-12.570264,36.853703,-13.792631,70.823235,-2.6889536,0.93274796,29.072128,21.970396,-9.907407,-6.383889,75.25465,-10.237536,2.7993884,-2.8667545
110,-0.4871223568916321,-69.14388275146484,75.5191879272461,2.519430296913075,1.8529820469894354,99.34791994162536,12.171503,-3.615093,2.1088352,8.998338,-19.782179,-2.3364434,-27.164415,-9.513145,-9.4346075,9.249256,2.8002326,5.8019648,-12.466902,-5.984894,11.054899,-12.441866,37.100433,-13.776469,70.89154,-2.7061734,0.96190923,28.858727,22.056938,-9.845611,-6.3956246,75.25982,-10.20823,2.8338654,-2.7958617
111,-0.5708725452423096,-69.74481964111328,75.51405334472656,2.6290042820529327,1.7033623799391335,99.24384764179855,12.408299,-3.9639137,2.2193112,7.8803253,-19.5004,-2.0787702,-27.107012,-9.768224,-9.843299,8.91704,2.9274096,5.871029,-12.355651,-6.214307,11.160419,-12.253827,37.335735,-13.689898,70.95599,-2.7028103,1.0021566,28.672129,22.090921,-9.825204,-6.40577,75.256935,-10.139315,2.8494925,-2.7329545
112,-0.6492666006088257,-70.35087585449219,75.535888671875,2.6840098011357063,1.5770654436030436,99.10920804401017,12.237738,-4.228182,2.3921475,7.587224,-19.569174,-1.8281255,-27.139833,-9.955586,-10.197057,8.999206,2.9023867,5.865583,-12.191979,-6.378139,11.257193,-11.920841,37.541,-13.415874,70.95211,-2.5620518,1.0555975,28.570023,22.070517,-9.840052,-6.416701,75.258766,-10.079616,2.865473,-2.6475055
113,-0.7413484454154968,-70.92733764648438,75.57427978515625,2.672941576034393,1.470994785556661,98.93531090699383,11.95191,-4.408786,2.6229568,7.512233,-19.673008,-1.5735703,-27.289827,-10.070286,-10.505676,9.5908165,2.683804,5.742281,-12.022664,-6.447803,11.394493,-11.788081,37.740673,-13.353898,71.18076,-2.6217437,1.1416799,28.609753,21.957577,-9.928401,-6.3931594,75.246605,-10.037824,2.8822997,-2.5230017
114,-0.824544370174408,-71.50032806396484,75.63101959228516,2.6124978122850955,1.3846650007200028,98.72690803114273,11.654314,-4.53402,2.9054325,7.4363203,-19.704866,-1.3192862,-27.53411,-10.135226,-10.80437,10.585107,2.332629,5.5155244,-11.784481,-6.453231,11.514968,-11.500875,37.899742,-13.097206,71.34075,-2.507887,1.2482903,28.739965,21.801075,-10.057935,-6.3792024,75.24373,-9.989727,2.8900645,-2.3696766
115,-0.9219992160797119,-72.043212890625,75.70559692382812,2.5311874205456246,1.3211467937847683,98.50143747156035,11.330444,-4.6296215,3.212682,7.3697515,-19.654093,-1.083003,-27.812174,-10.166646,-11.035913,11.82015,1.90988,5.2719164,-11.532843,-6.4222846,11.623344,-11.159126,38.029076,-12.763416,71.50533,-2.3985553,1.3492258,28.889175,21.583286,-10.228758,-6.361212,75.23606,-9.930564,2.8957994,-2.227797
116,-0.9966112375259399,-72.57682800292969,75.79679107666016,2.455698532464807,1.2842682395606408,98.27497473908113,10.963989,-4.713683,3.5154378,7.32236,-19.507444,-0.8775419,-28.075138,-10.1761875,-11.1419,13.15424,1.4670081,5.0991106,-11.283302,-6.390583,11.70497,-10.766361,38.134007,-12.358237,71.66308,-2.34433,1.4156395,28.97958,21.30881,-10.424718,-6.3504558,75.21855,-9.857676,2.905793,-2.1314857
117,-1.053066611289978,-73.12018585205078,75.90326690673828,2.3925823414513077,1.277908618442733,98.04424172132379,10.545659,-4.7846856,3.8097637,7.294608,-19.239225,-0.69079876,-28.332657,-10.153851,-11.072121,14.592784,1.0356593,5.031017,-11.009841,-6.3720884,11.744009,-10.202216,38.213116,-11.763644,71.7021,-2.274092,1.4265176,28.989742,20.984158,-10.626918,-6.355888,75.20202,-9.773145,2.9201221,-2.0972326
118,-1.1178559064865112,-73.63961029052734,76.02204895019531,2.333716570400365,1.2964604331714393,97.80666837744366,10.087777,-4.8369145,4.1021514,7.2791038,-18.856813,-0.5137103,-28.597416,-10.094226,-10.87138,16.186619,0.58798116,5.024811,-10.756427,-6.357534,11.788313,-9.758208,38.281002,-11.236968,71.87586,-2.3772333,1.408074,28.960657,20.578707,-10.854756,-6.3428183,75.1652,-9.677234,2.9367664,-2.110461
119,-1.1677138805389404,-74.1784439086914,76.15412139892578,2.27525912869622,1.3313313376511984,97.57757237389609,9.60244,-4.869523,4.3797107,7.2765126,-18.407803,-0.364637,-28.83418,-10.010455,-10.624521,17.879425,0.07734362,5.0502825,-10.500325,-6.3420515,11.812285,-9.283132,38.32949,-10.67823,72.063644,-2.5043445,1.3827902,28.905909,20.139133,-11.093495,-6.345115,75.10503,-9.568969,2.957825,-2.146787
120,-1.205140471458435,-74.69032287597656,76.28038787841797,2.2100564581686357,1.3747069726282508,97.37065654893924,9.102986,-4.8785553,4.631007,7.2849855,-17.93598,-0.26452237,-29.012108,-9.918418,-10.415309,19.62382,-0.5464785,5.0719066,-10.244699,-6.3165107,11.80923,-8.709427,38.359077,-10.073175,72.21282,-2.6001434,1.375591,28.842194,19.695557,-11.336574,-6.378269,75.007385,-9.446538,2.9868782,-2.189125
121,-1.2282418012619019,-75.19407653808594,76.40538787841797,2.138269260403068,1.4298345570434972,97.19237032357421,8.582539,-4.859759,4.845983,7.3077793,-17.433645,-0.23951983,-29.121872,-9.819523,-10.25422,21.409576,-1.3160193,5.084647,-10.017815,-6.284577,11.789164,-8.168913,38.372562,-9.520962,72.44816,-2.7494206,1.3956385,28.771364,19.232727,-11.584352,-6.4334064,74.853714,-9.299366,3.0438626,-2.2442176
122,-1.253899335861206,-75.68599700927734,76.5315933227539,2.0612793459444854,1.4993600194027927,97.0348784901913,8.036151,-4.812963,5.0322227,7.3459764,-16.882416,-0.27817205,-29.180405,-9.703862,-10.102309,23.261936,-2.199143,5.1048183,-9.776457,-6.2476697,11.729385,-7.491079,38.365337,-8.892767,72.61356,-2.861072,1.4239686,28.686779,18.767782,-11.8268795,-6.5289946,74.66264,-9.134591,3.1213808,-2.3180919
123,-1.2650477886199951,-76.18646240234375,76.66397857666016,1.9739150995256198,1.5764929816424913,96.88990499870079,7.4792128,-4.74075,5.205148,7.3917403,-16.318201,-0.344836,-29.192667,-9.575266,-9.96845,25.175972,-3.1446564,5.124924,-9.542054,-6.1977844,11.667168,-6.847113,38.34349,-8.297437,72.82968,-3.0025153,1.4639434,28.589672,18.283272,-12.077884,-6.6312723,74.44135,-8.96855,3.181143,-2.397956
124,-1.2658525705337524,-76.68228149414062,76.79509735107422,1.8708463956484938,1.6538107618887328,96.748702732762,6.92797,-4.6449747,5.379813,7.437121,-15.776437,-0.39909083,-29.169588,-9.439344,-9.859581,27.161867,-4.103499,5.137705,-9.304241,-6.123042,11.615504,-6.2673607,38.309002,-7.761164,73.09872,-3.1658347,1.5140389,28.48132,17.784441,-12.344922,-6.730885,74.20817,-8.820545,3.184409,-2.4651096
125,-1.2595220804214478,-77.17801666259766,76.9197998046875,1.7432508895883978,1.7318110121180201,96.61250681504795,6.069318,-4.481707,5.5809298,8.144524,-15.603112,-0.43462247,-29.123098,-9.288013,-9.769079,29.255638,-5.0967717,5.1364684,-9.026209,-6.011645,11.545722,-5.520616,38.252953,-7.1271477,73.221306,-3.2336972,1.5745366,28.336088,17.301823,-12.62195,-6.8443594,73.96926,-8.697245,3.1074457,-2.5049894
126,-1.2561016082763672,-77.6384048461914,77.0264663696289,1.5943796787363,1.814725985381445,96.48507711054998,5.1200666,-4.2721367,5.7814136,9.043013,-15.533603,-0.47269404,-29.042725,-9.119946,-9.697698,31.43734,-6.136873,5.12583,-8.789553,-5.869936,11.506354,-5.0014424,38.18871,-6.6718636,73.5492,-3.4497182,1.6560174,28.165216,16.774002,-12.928388,-6.9252024,73.69849,-8.585142,2.9751315,-2.5331836
127,-1.2547268867492676,-78.09806823730469,77.13910675048828,1.4385821325012242,1.897554772238963,96.35951226665217,4.214936,-4.051505,5.9751744,9.865219,-15.446257,-0.51205957,-28.901726,-8.954216,-9.660096,33.631462,-7.166041,5.1156707,-8.515778,-5.7148294,11.442435,-4.3595157,38.104767,-6.139171,73.77593,-3.5615249,1.733226,28.011724,16.252012,-13.245996,-7.0358505,73.438705,-8.479875,2.8238804,-2.5585163
128,-1.2605528831481934,-78.57855987548828,77.24613189697266,1.2948247365050172,1.975953070732693,96.22828127544881,3.4041436,-3.8494277,6.165062,10.522586,-15.315432,-0.5487541,-28.674759,-8.81352,-9.667525,35.76606,-8.128717,5.1151166,-8.233596,-5.5688663,11.376339,-3.7028391,38.0099,-5.5850883,73.989525,-3.6055372,1.7959627,27.924957,15.703723,-13.579431,-7.162361,73.212296,-8.374377,2.6834917,-2.6029813
129,-1.2599478960037231,-79.01717376708984,77.33839416503906,1.1637914725643026,2.0451538964624603,96.07848456579143,2.7178345,-3.6715953,6.365988,10.966851,-15.127628,-0.59134626,-28.350002,-8.696021,-9.707865,37.829945,-9.021836,5.1320586,-7.9282894,-5.4372373,11.3099985,-3.0260808,37.906925,-5.023387,74.206474,-3.5326455,1.8153193,27.932236,15.129486,-13.933385,-7.3066244,73.02849,-8.268309,2.5519288,-2.661438
130,-1.246699571609497,-79.46414947509766,77.41583251953125,1.0388741884467003,2.108569176196113,95.91634096328693,2.1167557,-3.5055132,6.5747094,11.2674265,-14.904425,-0.63417786,-27.942705,-8.598543,-9.775092,39.86331,-9.874146,5.1573625,-7.604532,-5.311457,11.241985,-2.3308942,37.79491,-4.457678,74.42403,-3.3755484,1.8073078,28.002113,14.532085,-14.308723,-7.464261,72.873505,-8.164959,2.4151607,-2.7270453
131,-1.2320846319198608,-79.91687774658203,77.48811340332031,0.9234919937813897,2.173746960783531,95.76282175640367,1.548686,-3.3525689,6.7672706,11.505864,-14.674968,-0.6507565,-27.468674,-8.543687,-9.889111,41.87234,-10.676229,5.1738186,-7.284184,-5.1922436,11.16756,-1.6361389,37.673546,-3.869949,74.61483,-3.226504,1.8250871,28.092478,13.911573,-14.69398,-7.6339765,72.732,-8.060101,2.2932856,-2.8122623
132,-1.2247496843338013,-80.34703826904297,77.55095672607422,0.8210640185139984,2.248470379475242,95.63896782587985,0.95396423,-3.2134223,6.9195457,11.779351,-14.471172,-0.61601007,-26.942118,-8.553707,-10.069924,43.859524,-11.417416,5.1642466,-6.987284,-5.0831437,11.083748,-0.96399033,37.544876,-3.242714,74.75547,-3.176687,1.9180002,28.160791,13.27033,-15.072975,-7.816221,72.584755,-7.9503508,2.2070093,-2.9318595
133,-1.2019217014312744,-80.771240234375,77.60470581054688,0.7280729982411663,2.3374300194800552,95.55624546696878,0.31373668,-3.085457,7.016223,12.111267,-14.303621,-0.5106244,-26.36428,-8.654012,-10.360685,45.85001,-12.092413,5.1262856,-6.7210855,-4.9830313,10.993836,-0.32756248,37.414234,-2.552131,74.81353,-3.2908032,2.139813,28.193207,12.599981,-15.437007,-8.024688,72.43399,-7.8510365,2.1842117,-3.09953
134,-1.1782728433609009,-81.19087219238281,77.6461181640625,0.6429301332928102,2.4357625871889916,95.50157621773715,-0.34197873,-2.9704437,7.073669,12.455276,-14.156306,-0.3516941,-25.724869,-8.831601,-10.735326,47.83449,-12.708719,5.0641427,-6.471677,-4.895382,10.901151,0.28601366,37.284607,-1.8139026,74.81068,-3.5065231,2.4484777,28.213402,11.906524,-15.787315,-8.257295,72.28108,-7.7602844,2.207022,-3.307598
135,-1.1428781747817993,-81.62337493896484,77.68242645263672,0.5753552017328576,2.53705636140795,95.46018322082244,-0.9901496,-2.8749263,7.1155047,12.785372,-14.013192,-0.1689827,-25.021294,-9.048724,-11.111609,49.761982,-13.272796,4.9727545,-6.224799,-4.829262,10.801082,0.89787173,37.152775,-1.0733202,74.78404,-3.7259278,2.765875,28.235224,11.215353,-16.122091,-8.492565,72.10644,-7.648189,2.2272346,-3.5383978
136,-1.0966317653656006,-82.07379913330078,77.70780944824219,0.5313115307096933,2.6347510078545797,95.41652304956568,-1.6076051,-2.8048966,7.165499,13.075576,-13.85775,0.0075595225,-24.254591,-9.263633,-11.40869,51.58246,-13.791556,4.8503165,-5.9634023,-4.7927547,10.689079,1.5244352,37.014034,-0.3803623,74.773926,-3.8515794,3.0136037,28.27344,10.55513,-16.440113,-8.712623,71.88739,-7.4859047,2.196758,-3.7751453
137,-1.0736401081085205,-82.43270874023438,77.73149871826172,0.5197060536547563,2.7189337674519174,95.35948965989758,-2.172117,-2.7694194,7.2361174,13.3161745,-13.693095,0.1829092,-23.41684,-9.480763,-11.610578,53.31359,-14.277252,4.674114,-5.675396,-4.7940607,10.566489,2.1797266,36.865604,0.2546454,74.79318,-3.8005114,3.1675293,28.346449,9.939847,-16.740513,-8.925239,71.60388,-7.2558436,2.0985515,-4.021397
138,-1.0298042297363281,-82.83567810058594,77.74347686767578,0.5338334914289248,2.7957410304949373,95.29951758059207,-2.7016227,-2.7627056,7.313581,13.52264,-13.525761,0.36858064,-22.51149,-9.715105,-11.759794,54.972614,-14.7215395,4.454428,-5.369296,-4.825594,10.435404,2.8459013,36.7088,0.85068655,74.82414,-3.6440291,3.2704973,28.44283,9.356795,-17.023743,-9.140903,71.2688,-6.9775486,1.9593886,-4.283629
139,-0.9680582880973816,-83.25115203857422,77.75132751464844,0.5610421820058309,2.8826656393523185,95.253471658318,-3.2374547,-2.767999,7.38286,13.71596,-13.349678,0.5444044,-21.558279,-9.938348,-11.8652,56.50767,-15.103586,4.2415094,-5.0609093,-4.870969,10.2913065,3.4934416,36.54496,1.4026214,74.8609,-3.5170977,3.3444738,28.53073,8.79073,-17.287144,-9.343437,70.91233,-6.6785455,1.7966137,-4.548078
140,-0.9100693464279175,-83.6723403930664,77.76553344726562,0.5874201356350822,2.997383390731295,95.23797076623138,-3.823845,-2.7681863,7.4285817,13.922972,-13.162012,0.69007516,-20.581596,-10.121797,-11.935038,57.874294,-15.401043,4.0858645,-4.7597256,-4.913796,10.1244,4.1287837,36.37545,1.9158914,74.86591,-3.5493119,3.4097757,28.578102,8.23127,-17.52665,-9.521314,70.56617,-6.3874154,1.6282647,-4.8014297
141,-0.8436068892478943,-84.07559204101562,77.76679229736328,0.6141197909850973,3.1515137745769928,95.26647634097624,-4.4769316,-2.7648306,7.4392896,14.14222,-12.957503,0.79864675,-19.592518,-10.262142,-11.965871,59.07595,-15.580701,4.0119114,-4.4936438,-4.955933,9.942985,4.6124916,36.21006,2.3368824,74.940575,-3.854682,3.4739623,28.572966,7.656849,-17.740261,-9.667945,70.23766,-6.0800614,1.4511917,-5.0471325
142,-0.7812952399253845,-84.48709106445312,77.77359771728516,0.6468829816919712,3.3328166478162924,95.32677551769568,-5.1715994,-2.7660294,7.425976,14.363199,-12.740096,0.88161415,-18.580015,-10.370922,-11.956428,60.135845,-15.663623,3.9910374,-4.2114434,-5.0039806,9.714631,5.2464647,36.045773,2.742905,74.84373,-4.314497,3.5183299,28.528378,7.1097493,-17.923872,-9.816293,69.92586,-5.753371,1.258751,-5.288262
143,-0.6981542110443115,-84.89449310302734,77.7666244506836,0.6798382038204122,3.525281637905852,95.39636267794512,-5.887271,-2.7637267,7.4056835,14.588881,-12.514082,0.94685477,-17.538307,-10.440811,-11.918646,61.04221,-15.712761,3.9929464,-3.9535835,-5.0573654,9.513419,5.605572,35.883667,3.071403,74.96912,-4.809428,3.5541425,28.46918,6.5508924,-18.083094,-9.913525,69.57783,-5.4618673,1.0628552,-5.518918
144,-0.6150065064430237,-85.31353759765625,77.76304626464844,0.7047775141278254,3.7114832134976052,95.45286714011567,-6.604364,-2.7492294,7.395774,14.826918,-12.286827,1.0020574,-16.45943,-10.46629,-11.863603,61.7819,-15.790134,3.9867475,-3.6541817,-5.1050067,9.306967,6.0599356,35.707817,3.4264474,75.02374,-5.1732883,3.570161,28.407274,6.0285716,-18.219883,-9.975564,69.19675,-5.2609916,0.8768547,-5.7278495
145,-0.538354754447937,-85.74263763427734,77.75753021240234,0.7225347034102206,3.892424549975184,95.49560633611198,-7.3219404,-2.7234638,7.398064,15.071083,-12.059462,1.0464098,-15.342585,-10.43955,-11.781002,62.35549,-15.913153,3.9620862,-3.3474467,-5.1474338,9.129973,6.3933115,35.511353,3.7833283,75.2038,-5.362797,3.5655541,28.33545,5.5159626,-18.338057,-9.9741,68.74546,-5.1886206,0.70265853,-5.9151874
146,-0.45110023021698,-86.16645050048828,77.75289916992188,0.7362144564224489,4.0750958950835505,95.53460138116229,-8.051369,-2.6893227,7.4035406,15.325868,-11.831636,1.0750358,-14.193547,-10.3661585,-11.668153,62.771206,-16.048618,3.9357388,-3.017216,-5.1822224,8.946445,6.817105,35.29078,4.1598253,75.31151,-5.4611387,3.537493,28.248577,5.0282893,-18.438911,-9.931932,68.25703,-5.206409,0.53516847,-6.0851307
147,-0.3647071123123169,-86.60184478759766,77.75178527832031,0.742140121889421,4.253443816147446,95.56359201430055,-8.781967,-2.641564,7.413677,15.588612,-11.592865,1.0945644,-13.0168085,-10.261671,-11.547519,63.029377,-16.184326,3.9165964,-2.6811452,-5.2069116,8.770274,7.2017355,35.047356,4.5457025,75.45143,-5.504793,3.5019412,28.180525,4.5460215,-18.525993,-9.838432,67.761665,-5.255296,0.3752671,-6.2399464
148,-0.2772168517112732,-87.03230285644531,77.75035858154297,0.7388814367491329,4.421759173412328,95.5768708774886,-9.5070505,-2.5740325,7.429747,15.865685,-11.339123,1.1106602,-11.816511,-10.140989,-11.44169,63.12804,-16.306284,3.913526,-2.3510134,-5.218776,8.611858,7.4319735,34.78561,4.935927,75.71555,-5.524986,3.4745257,28.16397,4.052839,-18.603535,-9.687001,67.292786,-5.275574,0.2234075,-6.379984
149,-0.1903010457754135,-87.47251892089844,77.75096130371094,0.7281876990517657,4.58175645851121,95.57341758653831,-10.226686,-2.4904647,7.4536767,16.152819,-11.0570135,1.124973,-10.589677,-9.99426,-11.332708,63.05571,-16.42008,3.9441912,-1.9927652,-5.2186494,8.432133,7.7545056,34.500534,5.370048,75.89003,-5.5157804,3.4558284,28.21004,3.5750747,-18.671001,-9.48566,66.87244,-5.2447915,0.08345632,-6.5025373
150,-0.09454447031021118,-87.90367889404297,77.75357055664062,0.7115423209637963,4.7358709988077825,95.55614106655928,-10.9428835,-2.3916936,7.483724,16.445572,-10.753438,1.1341965,-9.337471,-9.819173,-11.215226,62.819386,-16.530813,3.997385,-1.624568,-5.207637,8.24859,8.067719,34.19073,5.835058,76.06659,-5.4596105,3.4404552,28.301943,3.1006727,-18.728405,-9.2252655,66.47553,-5.1959233,-0.046335753,-6.6082664
151,0.0009511525859124959,-88.337646484375,77.74944305419922,0.6806268967292475,4.877751380402866,95.52482685732001,-11.655292,-2.2694137,7.5155997,16.758713,-10.449978,1.1370922,-8.068288,-9.642726,-11.130263,62.446045,-16.624931,4.039467,-1.2562793,-5.1778197,8.071078,8.387371,33.85658,6.307538,76.23014,-5.407379,3.419511,28.418358,2.6232908,-18.77738,-8.922924,66.110664,-5.15284,-0.17320387,-6.69984
152,0.0996747612953186,-88.76758575439453,77.757080078125,0.6285894942621972,5.000543324778058,95.47951128879605,-12.362372,-2.1148603,7.5439377,17.10559,-10.170725,1.1325395,-6.790034,-9.489326,-11.119892,61.961254,-16.68772,4.0375423,-0.8689104,-5.1188326,7.8771305,8.985537,33.490433,6.771133,76.14324,-5.438333,3.3778632,28.532974,2.1623538,-18.821259,-8.613671,65.80139,-5.1403713,-0.30256745,-6.780049
153,0.2024960070848465,-89.20635223388672,77.76001739501953,0.5483326035487724,5.104545364154003,95.4204979921957,-13.069112,-1.9195473,7.5629,17.497318,-9.925148,1.1196587,-5.489904,-9.36011,-11.207419,61.35239,-16.741676,3.9789038,-0.5480378,-5.0246515,7.7698016,9.066774,33.11545,7.2097106,76.49149,-5.4913883,3.3217847,28.674198,1.6345322,-18.866682,-8.231817,65.518364,-5.1571474,-0.46336317,-6.8463664
154,0.31474819779396057,-89.64765930175781,77.7606201171875,0.4437869950437904,5.191458092350214,95.34757203861109,-13.773158,-1.6902163,7.576047,17.923746,-9.699384,1.1005971,-4.1682673,-9.24137,-11.365594,60.612938,-16.786112,3.883837,-0.19063164,-4.8984227,7.6326575,9.461424,32.713154,7.6443634,76.55803,-5.6320977,3.239887,28.826218,1.1284966,-18.910702,-7.8315988,65.311295,-5.1909018,-0.6414661,-6.895234
155,0.4219145178794861,-90.08704376220703,77.76122283935547,0.3251054364841411,5.262203800192915,95.25935468400219,-14.465364,-1.4372417,7.5901875,18.362068,-9.480336,1.0745479,-2.854961,-9.129629,-11.562796,59.772957,-16.76993,3.7688115,0.15143071,-4.749321,7.5110965,9.826932,32.28747,8.047995,76.64622,-5.7810273,3.1605668,28.967848,0.6158673,-18.948172,-7.4225388,65.11594,-5.2526007,-0.7907378,-6.9341736
156,0.5319817066192627,-90.55355834960938,77.75894165039062,0.2022188950910536,5.316793089211318,95.1542251290205,-15.13224,-1.1725502,7.6133056,18.78225,-9.250428,1.0418425,-1.578645,-9.024059,-11.767609,58.8614,-16.641684,3.6490822,0.48620138,-4.588021,7.3936334,10.236197,31.841616,8.383727,76.6989,-5.9134264,3.1027477,29.065178,0.1159684,-18.969482,-7.0497775,64.898384,-5.350164,-0.8645802,-6.9685345
157,0.6461403965950012,-91.01358032226562,77.75364685058594,0.07310293832513334,5.350754531537048,95.03315007596785,-15.772262,-0.893796,7.644805,19.191668,-9.01339,0.9990522,-0.33043468,-8.948259,-12.017775,57.89214,-16.38936,3.495543,0.8117591,-4.4118104,7.2855687,10.658425,31.382593,8.626397,76.74642,-6.0270033,3.0767188,29.103117,-0.370605,-18.966503,-6.7372465,64.63426,-5.538399,-0.8110917,-6.9896007
158,0.7641533613204956,-91.46624755859375,77.74871826171875,-0.0675493962178844,5.365233675528215,94.89666247899261,-16.390398,-0.59682745,7.6808724,19.597734,-8.773768,0.9480445,0.90034014,-8.89246,-12.316807,56.84821,-16.040571,3.3112419,1.1366501,-4.219933,7.1857452,11.096657,30.91474,8.790631,76.78113,-6.1399446,3.0698981,29.100258,-0.84165275,-18.939034,-6.468012,64.34332,-5.7976737,-0.66797364,-6.9987216
159,0.8881645202636719,-91.93756866455078,77.73445129394531,-0.20991305536386998,5.369300860682182,94.74262938805248,-16.993603,-0.28935975,7.7252917,19.991037,-8.526737,0.8975839,2.0838718,-8.811151,-12.580423,55.719677,-15.608926,3.157627,1.4616772,-4.0254693,7.093517,11.527002,30.438911,8.907339,76.81788,-6.2390246,3.0711565,29.077497,-1.2924898,-18.88874,-6.2133565,64.04684,-6.026562,-0.5229241,-7.016902
160,1.004401445388794,-92.40631103515625,77.71739959716797,-0.344805950398493,5.37203851639,94.56865741824971,-17.589195,0.021334602,7.782891,20.363188,-8.268509,0.85601544,3.1889367,-8.662615,-12.721137,54.49824,-15.103012,3.0945563,1.7893465,-3.84088,7.004659,11.956081,29.95136,9.010997,76.84432,-6.3113394,3.068639,29.055237,-1.7166132,-18.817886,-5.946306,63.768105,-6.124499,-0.46354598,-7.0656877
161,1.1294039487838745,-92.87651824951172,77.69984436035156,-0.4724114478620091,5.372305832163407,94.3728791481876,-18.175909,0.33237538,7.856814,20.717129,-8.002322,0.83324,4.222552,-8.457653,-12.741535,53.18201,-14.493413,3.138425,2.1161084,-3.66722,6.9197793,12.393121,29.44616,9.098987,76.848015,-6.339233,3.0620215,29.039787,-2.1144872,-18.726595,-5.6607122,63.510735,-6.0211406,-0.5302469,-7.16481
162,1.2631525993347168,-93.3786392211914,77.68302917480469,-0.5954574517470451,5.366399073129928,94.15695714167347,-18.751957,0.6486756,7.9440455,21.056993,-7.7293816,0.82258445,5.1961923,-8.216387,-12.675937,51.77906,-13.788301,3.2537422,2.4376543,-3.496938,6.8421154,12.832895,28.923111,9.160919,76.83778,-6.334023,3.0566108,29.021393,-2.492757,-18.616623,-5.3671274,63.264023,-5.784372,-0.67096245,-7.298464
163,1.3950666189193726,-93.88103485107422,77.65947723388672,-0.7155590113284582,5.359857320762277,93.92395809676404,-19.320879,0.97314674,8.040066,21.372047,-7.4414396,0.8074649,6.090036,-7.915353,-12.482074,50.287712,-13.055271,3.4201982,2.7581728,-3.3278992,6.7684774,13.276103,28.384754,9.222251,76.81977,-6.3228264,3.0490763,28.994528,-2.851477,-18.489557,-5.064986,63.03215,-5.520139,-0.83461976,-7.4343777
164,1.5286264419555664,-94.37753295898438,77.63093566894531,-0.8355607776123442,5.35828554713998,93.67666218347033,-19.886328,1.3084017,8.140067,21.649778,-7.129318,0.77137226,6.8856444,-7.5331264,-12.117856,48.704975,-12.360611,3.6158216,3.0775905,-3.1606076,6.699057,13.70704,27.836147,9.310381,76.81526,-6.3334475,3.0359125,28.954039,-3.1969843,-18.34916,-4.7483406,62.821995,-5.332566,-0.97121614,-7.5424194
165,1.6690784692764282,-94.89019775390625,77.6020736694336,-0.9579494567372113,5.37120789803063,93.41568796632487,-20.454567,1.6549449,8.242213,21.879879,-6.7874537,0.7076006,7.5648074,-7.0464144,-11.541786,47.01658,-11.733361,3.8158178,3.3957489,-2.9909005,6.6209826,14.125384,27.277336,9.44356,76.82953,-6.3789034,3.0119734,28.893461,-3.5258925,-18.195578,-4.4241047,62.640617,-5.2365284,-1.0852592,-7.611414
166,1.8169978857040405,-95.42886352539062,77.56985473632812,-1.079908673788673,5.39276491271483,93.13972243729994,-21.022478,2.0104117,8.349139,22.072235,-6.4222918,0.62625176,8.147999,-6.4874535,-10.780879,45.23432,-11.140958,4.0274687,3.7118623,-2.8211274,6.538588,14.540419,26.706533,9.606303,76.850075,-6.4409566,2.980396,28.816385,-3.837648,-18.028,-4.091668,62.48409,-5.18059,-1.1979685,-7.65901
167,1.966248631477356,-95.96444702148438,77.52885437011719,-1.195439996818948,5.4053484039553,92.84870192498435,-21.576405,2.3716357,8.463414,22.239296,-6.038587,0.5365359,8.67602,-5.9135623,-9.897677,43.38794,-10.552788,4.280264,4.0247064,-2.6592495,6.4774423,14.945346,26.127392,9.769424,76.8768,-6.505925,2.951426,28.732819,-4.140444,-17.846344,-3.7330573,62.3375,-5.167799,-1.2792968,-7.6964974
168,2.1253862380981445,-96.53136444091797,77.48416900634766,-1.2989384945144558,5.391485553620556,92.54231339144238,-22.104305,2.7364392,8.5878105,22.395784,-5.642757,0.44741085,9.185644,-5.3737206,-8.956732,41.50443,-9.937052,4.611463,4.3341503,-2.5147145,6.4624906,15.332177,25.5468,9.903928,76.91166,-6.559522,2.9349434,28.651188,-4.4414024,-17.651995,-3.330925,62.186287,-5.2008705,-1.29945,-7.734941
169,2.291602849960327,-97.11035919189453,77.43559265136719,-1.3933459180788046,5.337810359471178,92.21979187529705,-22.592638,3.1085167,8.719852,22.550032,-5.2425976,0.35899225,9.705025,-4.8498836,-7.935875,39.475502,-9.165108,5.115878,4.645585,-2.3818898,6.5068674,15.694266,24.967102,10.0087,76.96777,-6.594777,2.9372418,28.571472,-4.744979,-17.43911,-2.8891618,62.05034,-5.283669,-1.2280191,-7.7826576
170,2.4648241996765137,-97.6893081665039,77.3809585571289,-1.4793681021846998,5.256682664445558,91.8815953095617,-23.051796,3.4877238,8.859344,22.69289,-4.8327856,0.26759386,10.212756,-4.3251853,-6.809345,37.318535,-8.294057,5.748715,4.9587393,-2.259766,6.5949373,16.034336,24.388905,10.09561,77.04336,-6.621339,2.9520626,28.488949,-5.042276,-17.205656,-2.416226,61.92489,-5.4142838,-1.0860568,-7.8318377
171,2.6432275772094727,-98.28170776367188,77.31815338134766,-1.5493011378808517,5.169596089343004,91.52885324002969,-23.504644,3.8658147,9.014099,22.814432,-4.400689,0.17675701,10.666968,-3.8408456,-5.6451464,35.243526,-7.5623536,6.3432536,5.267362,-2.1615615,6.7069626,16.362255,23.816572,10.154679,77.115585,-6.6487317,2.9699368,28.404446,-5.3242292,-16.959505,-1.9023924,61.772713,-5.584673,-0.9292687,-7.8677664
172,2.829801559448242,-98.90414428710938,77.24466705322266,-1.593781389902568,5.098254244373574,91.1624095609247,-23.975082,4.2342834,9.192485,22.906052,-3.933981,0.09025078,11.01768,-3.435739,-4.520049,33.46989,-7.208103,6.732785,5.5668116,-2.1001399,6.8222466,16.685799,23.255077,10.172695,77.164406,-6.687654,2.9818752,28.317446,-5.5802555,-16.713623,-1.3395497,61.555923,-5.787116,-0.8122904,-7.873868
173,3.023892641067505,-99.54646301269531,77.15960693359375,-1.6012828635829681,5.061586511501602,90.76688093667211,-24.488338,4.588811,9.415553,22.974585,-3.4317336,0.01819471,11.195182,-3.118556,-3.4015496,32.122066,-7.3551364,6.836622,5.8689656,-2.0906405,6.930218,16.994772,22.704697,10.140767,77.19726,-6.7431192,2.986537,28.219852,-5.810644,-16.473104,-0.7163698,61.261494,-6.0164886,-0.7431246,-7.8295403
174,3.2202959060668945,-100.21533966064453,77.0662612915039,-1.5779665037954038,5.044448479209006,90.34616088321152,-25.026316,4.934048,9.674605,23.022825,-2.90031,-0.04321772,11.238296,-2.8554437,-2.273948,31.059587,-7.8495345,6.762438,6.1745796,-2.1205945,7.0426106,17.288467,22.16376,10.06635,77.22324,-6.808689,2.9885774,28.113642,-6.0173526,-16.236582,-0.04166346,60.911564,-6.277093,-0.6953909,-7.7464337
175,3.4182066917419434,-100.89361572265625,76.9636001586914,-1.54619941575057,5.01752943860272,89.92998289658293,-25.544182,5.274216,9.932995,23.031965,-2.3368747,-0.112067364,11.255558,-2.623991,-1.2411742,30.110245,-8.514281,6.623898,6.4622226,-2.1601117,7.173316,17.579758,21.634417,9.954219,77.23339,-6.881825,2.9873207,28.012495,-6.19605,-16.00486,0.666126,60.522152,-6.569741,-0.6726303,-7.6559653
176,3.6222939491271973,-101.5796890258789,76.85444641113281,-1.5255530582708139,4.951138371511451,89.54845070830544,-25.998522,5.6131997,10.153344,22.985186,-1.7390153,-0.20760737,11.358324,-2.4113693,-0.40758947,29.09897,-9.170803,6.5297494,6.7113,-2.1803293,7.3352017,17.880945,21.121342,9.808496,77.219284,-6.9597826,2.98249,27.929855,-6.3426356,-15.781673,1.3865511,60.1099,-6.8968196,-0.678235,-7.5892506
177,3.827045440673828,-102.26648712158203,76.74630737304688,-1.512389118910534,4.837172041508406,89.20373911915449,-26.37661,5.948376,10.337238,22.875048,-1.1051978,-0.3449035,11.579487,-2.237847,0.20102488,27.97186,-9.79585,6.532475,6.921908,-2.1822596,7.537326,18.18945,20.6251,9.621723,77.177315,-7.0564556,2.9728148,27.882175,-6.4567013,-15.566617,2.1123421,59.67272,-7.2715,-0.72234756,-7.54208
178,4.045830249786377,-102.95420837402344,76.64376831054688,-1.4986044339807616,4.6914754249969945,88.88158026798233,-26.702145,6.2778482,10.500729,22.710638,-0.43595442,-0.5117106,11.856455,-2.1056626,0.63946664,26.822666,-10.474315,6.5641003,7.105357,-2.1790216,7.7703705,18.500004,20.14566,9.392954,77.11405,-7.168542,2.9588802,27.857489,-6.5394,-15.358868,2.8531604,59.203495,-7.688696,-0.8001841,-7.5022435
179,4.2710723876953125,-103.64674377441406,76.53678894042969,-1.4965054199207268,4.519841421962707,88.5885240720847,-26.987766,6.6072927,10.62661,22.502556,0.26640788,-0.68748784,12.1634865,-1.9778556,0.9231748,25.688105,-11.1941805,6.552487,7.256432,-2.1592133,8.020018,18.813505,19.688242,9.133735,77.0442,-7.2700744,2.9424264,27.8257,-6.5905843,-15.162082,3.6154203,58.71195,-8.121413,-0.8921247,-7.488068
180,4.48935604095459,-104.35763549804688,76.43310546875,-1.520125109440971,4.327710405480165,88.33107550202477,-27.247087,6.9428854,10.697437,22.261843,0.99901277,-0.8514406,12.474579,-1.8130437,1.0695306,24.605656,-11.943249,6.4291744,7.371767,-2.109997,8.271264,19.129,19.259266,8.855055,76.98367,-7.3328376,2.9256186,27.755424,-6.607949,-14.979265,4.4033136,58.20658,-8.542072,-0.9784409,-7.516201
181,4.728002548217773,-105.0674057006836,76.33216094970703,-1.5703991981567222,4.108727809168877,88.11292305237431,-27.480629,7.28757,10.705149,22.001017,1.7504702,-0.99067587,12.79158,-1.6017815,1.0259722,23.597115,-12.74889,6.155783,7.444798,-2.0307457,8.527952,19.445286,18.86251,8.533389,76.94733,-7.351291,2.8956008,27.6309,-6.586147,-14.8118515,5.2445235,57.666485,-8.934644,-1.0625213,-7.6226034
182,4.972471237182617,-105.78162384033203,76.22789001464844,-1.6432152370343323,3.8625358022650085,87.93035211833464,-27.684074,7.6373787,10.6595335,21.712202,2.5252905,-1.1197594,13.125869,-1.3581115,0.8058593,22.635347,-13.606625,5.781435,7.4810357,-1.9280179,8.794703,19.759684,18.497292,8.170235,76.927284,-7.339308,2.8558226,27.469624,-6.527143,-14.658741,6.1264157,57.09425,-9.3157425,-1.1511991,-7.78672
183,5.206949710845947,-106.47921752929688,76.12987518310547,-1.7350945349928555,3.603836549483703,87.77922066311392,-27.862238,7.9883533,10.569626,21.374784,3.344262,-1.2593046,13.467827,-1.077612,0.52564085,21.68163,-14.455832,5.370453,7.4931865,-1.8019319,9.05781,20.069656,18.163572,7.8123446,76.90422,-7.302286,2.832814,27.290955,-6.4403872,-14.520112,6.99368,56.534515,-9.708875,-1.2305053,-7.941335
184,5.452810764312744,-107.16845703125,76.03679656982422,-1.8430804141528332,3.3475969890132418,87.6549151278767,-28.019915,8.335161,10.444767,20.96735,4.2289305,-1.4296985,13.8082075,-0.75927216,0.2997729,20.697975,-15.235716,4.985876,7.494656,-1.6530379,9.304033,20.373077,17.861124,7.5081706,76.85781,-7.243542,2.8526528,27.113777,-6.333631,-14.395342,7.7901216,56.03067,-10.13723,-1.2874877,-8.018965
185,5.70505428314209,-107.87501525878906,75.93611907958984,-1.976199603161649,3.0950868127966213,87.55736712001128,-28.156204,8.680821,10.270911,20.480892,5.1685147,-1.6389273,14.154816,-0.39324972,0.139666,19.663025,-15.941573,4.6318007,7.484917,-1.477214,9.530593,20.670815,17.589432,7.2637863,76.795135,-7.1556625,2.9314866,26.92431,-6.2051907,-14.283974,8.509137,55.576324,-10.652063,-1.3057435,-7.992734
186,5.951340675354004,-108.57403564453125,75.84551239013672,-2.1292305576497728,2.8399221107718735,87.48833030843471,-28.268991,9.023937,10.049038,19.926083,6.157851,-1.8758749,14.512266,0.015280773,-0.008622553,18.59451,-16.60004,4.28226,7.458445,-1.2792041,9.744885,20.963346,17.348793,7.056369,76.72141,-7.0394573,3.0519845,26.718723,-6.0521717,-14.186265,9.177628,55.153908,-11.226626,-1.2978765,-7.9015174
187,6.194651126861572,-109.27095031738281,75.7587890625,-2.2873802188882095,2.5857187229205825,87.44552152026867,-28.365698,9.353647,9.81024,19.318039,7.225408,-2.1319983,14.86448,0.44026205,-0.1310894,17.516418,-17.196972,3.952721,7.4219937,-1.0731328,9.949156,21.248636,17.140095,6.8922224,76.61172,-6.909907,3.190596,26.53059,-5.8795176,-14.102374,9.788844,54.787365,-11.766492,-1.2944425,-7.7768135
188,6.441064357757568,-109.96324157714844,75.67756652832031,-2.4336199077399927,2.336089399168735,87.42675077781674,-28.44747,9.658388,9.585806,18.661013,8.401859,-2.398699,15.194693,0.85518867,-0.21526957,16.455048,-17.718737,3.6566415,7.3816004,-0.8733609,10.145456,21.524517,16.965006,6.7768865,76.44156,-6.7833986,3.324019,26.393276,-5.6937366,-14.03343,10.335646,54.502678,-12.178648,-1.3249583,-7.651041
189,6.679069995880127,-110.64514923095703,75.60254669189453,-2.5655595708534693,2.0959079293810245,87.43825485191024,-28.533396,9.931872,9.375449,17.97257,9.711267,-2.6434028,15.499051,1.2542101,-0.24794522,15.402037,-18.158257,3.4094985,7.3389664,-0.68390095,10.328801,21.794891,16.824406,6.7308545,76.19459,-6.675912,3.4561715,26.320665,-5.489369,-13.980723,10.808036,54.29933,-12.434662,-1.4063796,-7.5188093
190,6.914104461669922,-111.3211669921875,75.54048156738281,-2.6892574917532936,1.863144864652187,87.47880095487612,-28.61801,10.17898,9.165158,17.246828,11.131753,-2.8808384,15.78587,1.6466721,-0.24126033,14.346789,-18.523962,3.1990962,7.2910285,-0.4996644,10.499882,22.059006,16.717876,6.744705,75.886444,-6.575263,3.5965772,26.29292,-5.2653565,-13.943745,11.21142,54.164642,-12.585682,-1.5197401,-7.367439
191,7.149623870849609,-112.00239562988281,75.48041534423828,-2.804011703685458,1.630166398509464,87.53548585919029,-28.67145,10.406602,8.962252,16.466711,12.619899,-3.1740863,16.044174,2.029696,-0.2216115,13.342768,-18.836798,2.9966311,7.2458253,-0.3200581,10.668984,22.299372,16.65318,6.77268,75.547325,-6.454868,3.730664,26.29066,-5.028765,-13.92354,11.55422,54.101704,-12.655865,-1.6405338,-7.2169714
192,7.384451389312744,-112.66056060791016,75.43956756591797,-2.9141545156816036,1.3884109872902153,87.59509235687473,-28.657938,10.621183,8.77192,15.603153,14.137737,-3.5873935,16.2694,2.4036684,-0.2149532,12.430289,-19.11445,2.7739732,7.1973267,-0.14059539,10.8479805,22.513401,16.621367,6.7843904,75.194695,-6.282727,3.8434317,26.299648,-4.799544,-13.914052,11.860028,54.122967,-12.668267,-1.7436749,-7.0903816
193,7.608482360839844,-113.31636047363281,75.39688110351562,-3.0254509066373094,1.1258007962259255,87.66291268121662,-28.5687,10.821607,8.559649,14.579396,15.894567,-4.169555,16.479136,2.7825503,-0.22689551,11.607862,-19.357277,2.5228095,7.129769,0.04791671,11.040882,22.729658,16.614592,6.807102,74.7967,-6.0285244,3.935248,26.328289,-4.5838375,-13.914181,12.150487,54.24236,-12.590438,-1.8286229,-7.003624
194,7.82325553894043,-113.95055389404297,75.35810089111328,-3.13713020535464,0.8498497055948849,87.74401745548491,-28.419456,11.000811,8.321508,13.426169,17.842985,-4.8808613,16.67147,3.163539,-0.24606769,10.857032,-19.558197,2.2594357,7.0574727,0.24393213,11.2427435,22.934668,16.639212,6.8364997,74.35734,-5.7180614,4.0132303,26.382591,-4.365794,-13.92522,12.395468,54.445423,-12.427616,-1.9067703,-6.9398108
195,8.033570289611816,-114.57540130615234,75.32759094238281,-3.239166626802661,0.5787679190211347,87.8224148829285,-28.216242,11.166783,8.116047,12.29282,19.55583,-5.6497865,16.811062,3.527386,-0.27088642,10.199906,-19.725414,1.9910117,6.9791017,0.43098602,11.450885,23.09957,16.688147,6.84196,73.92678,-5.394901,4.0709157,26.444536,-4.17133,-13.945209,12.598973,54.734802,-12.248481,-1.9688237,-6.8823295
196,8.232894897460938,-115.18817901611328,75.31169891357422,-3.323919472608871,0.32862451748395294,87.88025401901372,-27.959408,11.33734,8.0199375,11.323156,20.608498,-6.3992434,16.867096,3.8574986,-0.29753435,9.651694,-19.862532,1.7226368,6.9104476,0.5917707,11.659141,23.17423,16.789898,6.781364,73.58039,-5.107245,4.1030726,26.476389,-3.9960575,-13.985997,12.761775,55.085255,-12.105837,-2.0061738,-6.8071322
197,8.428110122680664,-115.82095336914062,75.3161392211914,-3.4072902813331853,0.09343677771717512,87.90476158235073,-27.593235,11.541789,8.094715,10.44866,20.885345,-7.254994,16.846941,4.1664,-0.3153432,9.198516,-19.961344,1.4412484,6.8716326,0.7513852,11.87753,23.154308,16.923895,6.618034,73.3188,-4.8559494,4.0951896,26.486591,-3.857166,-14.039307,12.851334,55.52625,-12.046114,-2.0164227,-6.707802
198,8.612777709960938,-116.46356201171875,75.34123992919922,-3.4924025932852443,-0.13577546592038664,87.90554811042092,-27.132221,11.777358,8.307097,9.628397,20.618294,-8.206646,16.769852,4.4649057,-0.32730925,8.828871,-20.017685,1.1455315,6.849494,0.9154535,12.106155,23.060709,17.089672,6.3856583,73.11836,-4.6192703,4.0503097,26.484087,-3.7474344,-14.107338,12.885436,56.05484,-12.024548,-2.0039282,-6.5962367
199,8.781088829040527,-117.05293273925781,75.3731460571289,-3.5578387601189907,-0.3453226569524164,87.9013841429773,-26.69418,12.012984,8.592026,9.070077,19.88853,-8.969989,16.613218,4.729525,-0.35593587,8.571261,-20.04487,0.85935193,6.82376,1.0575231,12.332948,22.889668,17.286655,6.107971,72.971115,-4.417442,3.9994645,26.481272,-3.649807,-14.189684,12.877023,56.62833,-12.010973,-1.9712427,-6.4836354
200,8.937997817993164,-117.63290405273438,75.427978515625,-3.5778133867302246,-0.5190079391228367,87.91368424403296,-26.400326,12.211668,8.868325,8.987374,18.764082,-9.260833,16.337683,4.9318304,-0.42703825,8.487468,-20.075691,0.6064778,6.770233,1.1454926,12.544911,22.63762,17.512312,5.810711,72.87186,-4.2699604,3.9705555,26.491467,-3.5507488,-14.284254,12.838843,57.20702,-11.978093,-1.9207355,-6.3822103
201,9.086883544921875,-118.23480987548828,75.49537658691406,-3.5367423187545937,-0.6537994300640386,87.9507366389717,-26.313978,12.342354,9.0304985,9.524027,16.98208,-8.843236,15.930379,5.0525613,-0.55926675,8.601839,-20.117195,0.39317548,6.6764526,1.1622498,12.744428,22.2977,17.766224,5.479985,72.83951,-4.1809626,3.969174,26.519835,-3.4591944,-14.389069,12.77848,57.79935,-11.923498,-1.8432556,-6.291151
202,9.23372745513916,-118.81641387939453,75.58993530273438,-3.451094962734407,-0.7569354439210432,88.00093005136075,-26.36299,12.422801,9.110965,10.538862,14.591855,-7.9322295,15.404608,5.107839,-0.73662037,8.89299,-20.159624,0.20657061,6.555701,1.1261741,12.935429,21.874332,18.048075,5.1100836,72.869225,-4.1393976,3.9808235,26.558825,-3.380251,-14.504184,12.689128,58.42217,-11.860177,-1.740602,-6.2061505
203,9.375127792358398,-119.41419982910156,75.69896697998047,-3.3408566811653597,-0.8288538797183527,88.05424963851308,-26.462809,12.494129,9.24038,11.821824,12.1277485,-6.919876,14.790732,5.12161,-0.93103915,9.291016,-20.175615,0.044963665,6.422361,1.0598851,13.108649,21.381784,18.3535,4.7374983,72.91903,-4.144895,4.004185,26.603725,-3.2955163,-14.629798,12.562355,59.04896,-11.784479,-1.631316,-6.134069
204,9.498394012451172,-119.99346160888672,75.8304672241211,-3.2245799565488737,-0.8692195365328456,88.10253862280939,-26.523504,12.612202,9.592002,13.157289,10.125192,-6.1879005,14.116317,5.1180773,-1.1169482,9.731865,-20.141558,-0.09301595,6.2862754,0.98462313,13.25466,20.838907,18.675644,4.404644,72.943275,-4.1932445,4.0377574,26.650318,-3.1906812,-14.76728,12.393385,59.65663,-11.692714,-1.533879,-6.082715
205,9.623950958251953,-120.57333374023438,75.96737670898438,-3.10366732099259,-0.8727188912871372,88.1441113570708,-26.501476,12.816745,10.340973,14.472883,8.814675,-5.8651824,13.367323,5.0991983,-1.2924402,10.227843,-20.045227,-0.20613192,6.1477785,0.90438944,13.370323,20.237528,19.009577,4.1219416,72.94846,-4.3184934,4.0938225,26.703419,-3.0673149,-14.915834,12.180438,60.255127,-11.56305,-1.45484,-6.066256
206,9.742738723754883,-121.1482162475586,76.11434173583984,-2.971473874082853,-0.8428499293781199,88.18057798485012,-26.43174,13.084754,11.375627,15.8693695,7.8861036,-5.729211,12.539535,5.0542316,-1.4656463,10.799816,-19.899027,-0.2941228,6.0008016,0.8107199,13.461926,19.577513,19.354738,3.8706965,72.94809,-4.5094595,4.168905,26.765287,-2.935837,-15.076393,11.930514,60.855404,-11.404482,-1.3837355,-6.0774775
207,9.853859901428223,-121.70821380615234,76.27484130859375,-2.830908489204021,-0.7907231777480698,88.2113396334757,-26.362034,13.383664,12.4551325,17.428331,7.052728,-5.6306934,11.674392,4.987509,-1.6291829,11.397484,-19.718548,-0.35918844,5.8430333,0.7072812,13.534372,18.885714,19.710363,3.6467638,72.91116,-4.6961102,4.237017,26.826832,-2.7903345,-15.249274,11.650907,61.430103,-11.25815,-1.3134578,-6.0902367
208,9.949962615966797,-122.27732849121094,76.43067932128906,-2.684972361754148,-0.7281201949538694,88.23546728914287,-26.333717,13.6715145,13.333458,19.205542,6.038432,-5.4284325,10.812494,4.9050555,-1.7757919,11.971619,-19.519403,-0.40355885,5.6710196,0.59746385,13.592619,18.189592,20.076216,3.4447126,72.80665,-4.81116,4.272818,26.879972,-2.6291792,-15.437014,11.352008,61.955387,-11.164185,-1.2366467,-6.0791955
209,10.044769287109375,-122.83609008789062,76.5857925415039,-2.5368748759730853,-0.656127865278324,88.25017177473869,-26.370127,13.945944,13.990959,21.26547,4.7470837,-5.033575,9.952493,4.805927,-1.9024148,12.526078,-19.29633,-0.4209996,5.4854956,0.48223284,13.635654,17.4944,20.449347,3.2734563,72.62023,-4.832,4.263248,26.921217,-2.4493234,-15.641761,11.036514,62.423145,-11.151879,-1.1425127,-6.036629
210,10.124787330627441,-123.39830017089844,76.73754119873047,-2.384479827356384,-0.5708335906037394,88.25453327238884,-26.436115,14.215999,14.541501,23.542236,3.3480916,-4.542653,9.079456,4.689848,-2.0098298,13.079022,-19.042824,-0.41179743,5.28858,0.36352593,13.662554,16.7882,20.828825,3.132504,72.369514,-4.795267,4.2242193,26.955873,-2.2547753,-15.8635,10.699374,62.85163,-11.193643,-1.0406315,-5.9764414
211,10.201433181762695,-123.92556762695312,76.88594818115234,-2.231658870960879,-0.47473804364206057,88.25531159577648,-26.487352,14.443396,14.938043,25.87707,1.9649713,-4.0979276,8.2129755,4.565792,-2.1014955,13.604039,-18.772657,-0.388387,5.0762424,0.24643531,13.67628,16.070742,21.220255,3.0025377,72.07263,-4.7214785,4.1742516,26.987942,-2.0470705,-16.102108,10.338947,63.240547,-11.242803,-0.9454357,-5.9036384
212,10.282407760620117,-124.45806121826172,77.02084350585938,-2.0788854966408437,-0.36871689762735216,88.26101758317654,-26.491577,14.5908375,15.139029,28.131634,0.7093863,-3.8399475,7.3706737,4.439466,-2.1831775,14.073865,-18.502996,-0.36372912,4.8453455,0.13324426,13.6786995,15.338589,21.632006,2.8613532,71.749664,-4.632254,4.131747,27.019922,-1.8248694,-16.355476,9.949232,63.59183,-11.254536,-0.87508476,-5.8234224
213,10.355291366577148,-124.97359466552734,77.15275573730469,-1.9229191954176983,-0.24661923685468554,88.27949362225218,-26.462132,14.631606,15.114101,30.314318,-0.40118027,-3.8558085,6.5492296,4.306469,-2.2592719,14.48369,-18.232725,-0.3338772,4.5898867,0.016805284,13.664184,14.588706,22.071028,2.7056973,71.39324,-4.522103,4.104063,27.0447,-1.5815002,-16.623116,9.527203,63.899662,-11.223164,-0.8431571,-5.716878
214,10.418296813964844,-125.50816345214844,77.27180480957031,-1.7608900418147906,-0.10811902089365982,88.30727533703664,-26.424034,14.573779,14.902779,32.502502,-1.4348419,-4.0600915,5.7370133,4.1626406,-2.3285801,14.8533745,-17.958925,-0.29459748,4.3151474,-0.10529197,13.631042,13.818474,22.537287,2.5419037,71.00029,-4.383857,4.081082,27.061064,-1.3139648,-16.90263,9.070857,64.16283,-11.171005,-0.837763,-5.5871544
215,10.484525680541992,-126.02886199951172,77.3826675415039,-1.5979911465322099,0.037091903195963595,88.33599077943819,-26.365385,14.439968,14.567511,34.674225,-2.410929,-4.3325486,4.937953,4.014545,-2.3889294,15.194773,-17.690145,-0.25880855,4.0338793,-0.22608486,13.587546,13.026669,23.02863,2.3629022,70.596214,-4.238497,4.0544734,27.081316,-1.0327568,-17.191334,8.580457,64.39489,-11.093491,-0.83717024,-5.4743214
216,10.535957336425781,-126.54493713378906,77.48432922363281,-1.4412280749959987,0.17856699545628185,88.35604720479371,-26.27074,14.260122,14.1657915,36.803074,-3.3436134,-4.5500846,4.145511,3.8697524,-2.4381468,15.543986,-17.448154,-0.23915057,3.7590601,-0.3371054,13.543565,12.209304,23.542587,2.1579175,70.20872,-4.111225,4.015945,27.118505,-0.74919623,-17.487051,8.058033,64.609505,-10.985204,-0.81961006,-5.4187074
217,10.589834213256836,-127.04781341552734,77.57341003417969,-1.2867517041769936,0.3121291102469966,88.36636967247516,-26.144156,14.0172,13.651088,38.900375,-4.244855,-4.6718364,3.374545,3.7269778,-2.4725103,15.881697,-17.229567,-0.23815566,3.4905035,-0.43858474,13.502313,11.364901,24.081932,1.9146979,69.84232,-4.0047464,3.9517505,27.176897,-0.46584454,-17.789328,7.5016885,64.80804,-10.838765,-0.77880174,-5.44048
218,10.63528823852539,-127.56000518798828,77.65349578857422,-1.134473237902846,0.44350543781818835,88.37119076446729,-25.987255,13.696531,13.017575,40.97089,-5.1021547,-4.770806,2.620341,3.5832767,-2.4943726,16.204212,-17.028528,-0.2488631,3.2238896,-0.5350778,13.458444,10.493585,24.647299,1.640114,69.483604,-3.9073951,3.8702223,27.249111,-0.17537045,-18.099257,6.9104304,64.98485,-10.659538,-0.7266492,-5.5154305
219,10.674107551574707,-128.0513916015625,77.7261962890625,-0.9904041382934274,0.5766011076829174,88.3681161706119,-25.776266,13.342823,12.376902,42.969795,-5.8842306,-4.8885355,1.8676257,3.4460313,-2.5079782,16.529812,-16.841917,-0.27116773,2.9638128,-0.6209435,13.410418,9.595726,25.22873,1.354816,69.132774,-3.821789,3.7952764,27.331253,0.12557448,-18.412888,6.288656,65.14235,-10.461739,-0.6692564,-5.616783
220,10.709968566894531,-128.53054809570312,77.78981018066406,-0.860011221301897,0.7155595291875609,88.35481186892511,-25.489555,13.012175,11.836387,44.85567,-6.5633464,-5.0615816,1.0995089,3.3229065,-2.518161,16.879025,-16.66748,-0.30524254,2.7114282,-0.6907272,13.356323,8.679466,25.812126,1.087051,68.78433,-3.7464738,3.7507124,27.421722,0.4348324,-18.726717,5.643695,65.287315,-10.260753,-0.61212736,-5.7194686
221,10.745793342590332,-129.00413513183594,77.84043884277344,-0.742610068593516,0.8633783894421359,88.32479495108196,-25.120861,12.726887,11.404759,46.618816,-7.0985627,-5.323455,0.30556497,3.2157059,-2.5223534,17.265245,-16.510315,-0.35751456,2.4659448,-0.74236655,13.296467,7.747736,26.394043,0.8450968,68.437546,-3.675383,3.7478714,27.535591,0.7464167,-19.043312,4.9720592,65.4188,-10.058175,-0.5488448,-5.82113
222,10.767571449279785,-129.49342346191406,77.88506317138672,-0.6365815336276792,1.0172142172962737,88.2812415176833,-24.681984,12.469324,11.025577,48.28676,-7.519846,-5.6411467,-0.5016635,3.1212,-2.5197225,17.670961,-16.369194,-0.426197,2.223504,-0.77681106,13.231829,6.803981,26.975212,0.6218875,68.088715,-3.6059341,3.7721007,27.670853,1.0606292,-19.36459,4.275582,65.53691,-9.846053,-0.4789364,-5.93483
223,10.788044929504395,-129.9786376953125,77.92180633544922,-0.5458914214927328,1.1723788598306608,88.23660485656181,-24.178902,12.241604,10.704497,49.868694,-7.9032774,-5.9473495,-1.3089536,3.0413246,-2.5183413,18.080584,-16.231592,-0.49926993,1.9751908,-0.7918797,13.163355,5.849655,27.549313,0.41422722,67.73689,-3.5542748,3.8083336,27.802546,1.3786745,-19.686628,3.5735798,65.65215,-9.627157,-0.41656044,-6.0600758
224,10.806072235107422,-130.46795654296875,77.95022583007812,-0.47440569116810943,1.323995644247548,88.20293647375837,-23.618462,12.044897,10.447484,51.374134,-8.323525,-6.174478,-2.0947726,2.977452,-2.525873,18.461748,-16.081745,-0.56418294,1.7123253,-0.7868668,13.090885,4.89857,28.105412,0.2326993,67.37038,-3.5234177,3.8412445,27.907028,1.6999415,-20.004313,2.886123,65.77787,-9.405007,-0.3757472,-6.197721
225,10.808987617492676,-130.93421936035156,77.96836853027344,-0.4271361111233235,1.4650175429072,88.184513684949,-22.996927,11.895733,10.255673,52.820393,-8.799218,-6.2862544,-2.852565,2.9344084,-2.547555,18.819853,-15.927729,-0.6208847,1.4285297,-0.75577456,13.023397,3.952848,28.639479,0.097765826,66.97433,-3.5223415,3.87991,27.978315,2.0213883,-20.317,2.2098384,65.91502,-9.16984,-0.37413454,-6.364544
226,10.812663078308105,-131.42266845703125,77.9776611328125,-0.4008509094306398,1.599525951742129,88.17427996865018,-22.312319,11.7982,10.119663,54.197918,-9.28833,-6.319821,-3.587461,2.9108245,-2.5790782,19.153875,-15.767596,-0.6746298,1.127022,-0.69940925,12.958683,3.0099413,29.154518,0.0027982614,66.55685,-3.5449102,3.9279873,28.031507,2.3410559,-20.628252,1.5396066,66.05901,-8.9244175,-0.39959118,-6.5560794
227,10.814765930175781,-131.89405822753906,77.98506927490234,-0.3886106883957514,1.739574476865539,88.16724845065077,-21.575474,11.730593,10.032241,55.477703,-9.77649,-6.317977,-4.327825,2.8981662,-2.6131654,19.48986,-15.600233,-0.7230902,0.81370306,-0.6260177,12.879733,2.0801725,29.647745,-0.08052307,66.137215,-3.5694473,3.961725,28.073301,2.6587498,-20.936064,0.89514846,66.2166,-8.687856,-0.4211302,-6.7409577
228,10.814200401306152,-132.35415649414062,77.9876480102539,-0.3853184242615481,1.8972189475113748,88.15867520877028,-20.796831,11.668001,9.9877615,56.62813,-10.251144,-6.3250656,-5.0948157,2.887897,-2.6424546,19.837837,-15.414568,-0.7631874,0.4921121,-0.5434668,12.7710285,1.1651396,30.116016,-0.18699715,65.741806,-3.5816126,3.957417,28.112394,2.970333,-21.237532,0.297243,66.397385,-8.480797,-0.40876824,-6.8896313
229,10.80063247680664,-132.81466674804688,77.98592376708984,-0.39243097606490923,2.079263013891108,88.14459260766789,-19.976507,11.624908,9.999353,57.65648,-10.724242,-6.3532953,-5.9070115,2.8866043,-2.6615305,20.220247,-15.216389,-0.7998741,0.16398546,-0.44535765,12.62288,0.26597017,30.557623,-0.3184909,65.36901,-3.5827503,3.8968601,28.14856,3.2751534,-21.534027,-0.2507311,66.599625,-8.307299,-0.3430211,-6.992333
230,10.780041694641113,-133.2679901123047,77.98171997070312,-0.4143094289118341,2.277790100833138,88.12866530036735,-19.110445,11.60869,10.062957,58.574593,-11.1967,-6.3780227,-6.7427874,2.8958414,-2.676954,20.61285,-15.001921,-0.83182687,-0.16745068,-0.33012107,12.442851,-0.5923231,30.969551,-0.44130978,64.98324,-3.5614939,3.79625,28.177483,3.5783281,-21.82695,-0.76277804,66.821785,-8.157007,-0.24459942,-7.0656605
231,10.75900936126709,-133.72023010253906,77.97598266601562,-0.4393423916807016,2.4833724020070727,88.11673202629298,-18.206448,11.5838785,10.149741,59.366806,-11.642577,-6.388501,-7.58974,2.9013526,-2.6937237,21.010279,-14.776176,-0.8504307,-0.50846606,-0.20943475,12.248467,-1.4336985,31.353725,-0.5785796,64.61662,-3.5265503,3.683949,28.205193,3.881092,-22.112387,-1.2364115,67.05656,-8.029538,-0.13447264,-7.120153
232,10.723444938659668,-134.18930053710938,77.9666748046875,-0.4550136377888483,2.6864301360660416,88.11541320393457,-17.2735,11.513394,10.230007,60.017216,-12.033918,-6.374456,-8.427816,2.8873549,-2.7189245,21.391893,-14.53609,-0.8451955,-0.86029315,-0.09846946,12.055784,-2.2845712,31.715097,-0.755408,64.300545,-3.4824097,3.5899072,28.237143,4.187994,-22.385277,-1.674121,67.29569,-7.9257092,-0.033630356,-7.16707
233,10.685311317443848,-134.6556854248047,77.9592514038086,-0.45678203752382296,2.8884279005693125,88.12578242163103,-16.308537,11.39467,10.309004,60.52426,-12.3748455,-6.3254313,-9.263331,2.846844,-2.7540836,21.766853,-14.285388,-0.80367845,-1.2357736,-0.0005496349,11.875226,-3.2690418,32.067608,-1.0378962,64.15246,-3.4759157,3.5176787,28.280622,4.489298,-22.649218,-2.0663822,67.533295,-7.862722,0.058484305,-7.1991925
234,10.64293098449707,-135.12318420410156,77.95401000976562,-0.45211174618051797,3.092770771011985,88.14468824972481,-15.309891,11.243993,10.396126,60.89654,-12.675796,-6.24972,-10.102435,2.788355,-2.7944555,22.140549,-14.023887,-0.7338168,-1.6029009,0.083534,11.675324,-4.1843743,32.3938,-1.3157433,63.981956,-3.4161532,3.4523773,28.322266,4.808406,-22.893969,-2.4336488,67.78075,-7.835146,0.15060356,-7.2094274
235,10.606431007385254,-135.57496643066406,77.9517593383789,-0.44349543181851586,3.2942687068614513,88.17202967893313,-14.290687,11.054027,10.4692745,61.133286,-12.919453,-6.1645265,-10.928551,2.7202735,-2.837552,22.491495,-13.745769,-0.6574792,-1.9786365,0.16156556,11.479178,-5.0993404,32.697945,-1.625472,63.846363,-3.3505783,3.393667,28.361177,5.128335,-23.1185,-2.7687569,68.03131,-7.8104334,0.23592201,-7.2254944
236,10.55521297454834,-136.03562927246094,77.94734191894531,-0.4349683412033788,3.487467723673689,88.20769971145026,-13.263023,10.816836,10.506676,61.232048,-13.087462,-6.0870547,-11.723648,2.6509056,-2.8808076,22.79529,-13.442992,-0.5966895,-2.360309,0.23722227,11.296764,-6.010252,32.982243,-1.9716493,63.737328,-3.2906759,3.3403316,28.389841,5.451375,-23.31393,-3.0810094,68.27854,-7.7572365,0.306727,-7.269338
237,10.504063606262207,-136.5170135498047,77.94092559814453,-0.42896841944395825,3.6691693871438558,88.25131406943825,-12.217518,10.538791,10.5178995,61.190697,-13.168407,-6.0056295,-12.477524,2.5845506,-2.9223633,23.041176,-13.109834,-0.56227297,-2.7460067,0.30767408,11.1320715,-6.925246,33.248005,-2.3589594,63.661873,-3.2434273,3.3113894,28.400583,5.778108,-23.477419,-3.3614695,68.51924,-7.662362,0.3600407,-7.359317
238,10.457043647766113,-136.9833221435547,77.93965148925781,-0.42082823400210717,3.843091394621163,88.30300198903758,-11.153075,10.221138,10.508436,61.0124,-13.17426,-5.916264,-13.202146,2.5156486,-2.9642754,23.244041,-12.751674,-0.5409947,-3.1357315,0.36946458,10.978839,-7.8455844,33.495846,-2.7871525,63.62291,-3.202293,3.3012292,28.398586,6.109303,-23.609684,-3.6107388,68.755196,-7.545558,0.40021786,-7.480326
239,10.403030395507812,-137.45559692382812,77.93475341796875,-0.40976232938544394,4.013730712458901,88.36347333066955,-10.093445,9.849833,10.451085,60.70144,-13.121865,-5.8469386,-13.910854,2.438075,-3.0098784,23.415577,-12.376436,-0.52039856,-3.5289261,0.42283064,10.832656,-8.75703,33.727604,-3.2532985,63.604843,-3.1582327,3.2711904,28.396778,6.44373,-23.707468,-3.8499153,68.99018,-7.42263,0.43097305,-7.6059403
240,10.35133171081543,-137.9301300048828,77.93209838867188,-0.39283230198719477,4.185881602963938,88.43371027328614,-9.063136,9.410918,10.317856,60.26378,-13.027796,-5.8259425,-14.618839,2.3445675,-3.0645,23.57191,-11.994822,-0.48749527,-3.9239986,0.46687564,10.688945,-9.647015,33.94653,-3.7554262,63.59298,-3.102681,3.1828132,28.408102,6.783489,-23.765701,-4.103209,69.225105,-7.3116965,0.4565788,-7.710335
241,10.290157318115234,-138.4255828857422,77.92536163330078,-0.36803783837327453,4.365460845722118,88.51687481151815,-8.068017,8.898409,10.096218,59.69593,-12.892564,-5.86963,-15.326554,2.2354062,-3.136186,23.697739,-11.601158,-0.43878928,-4.3237824,0.49981466,10.542402,-10.507118,34.15612,-4.315785,63.588615,-3.0345616,2.9923737,28.446901,7.124453,-23.778858,-4.3779426,69.46533,-7.2160015,0.47807506,-7.7936554
