unveil-humanoid-operators/unveil-humanoid-operators.github.io/feature-analysis-animation/data/feature_matrix_instances/height_root_translate_rom_jogging_A035_arc_jog_left_start_004__A035.csv
Frame,root_translateX,root_translateY,root_translateZ,root_rotateX,root_rotateY,root_rotateZ,left_hip_pitch_joint_dof,left_hip_roll_joint_dof,left_hip_yaw_joint_dof,left_knee_joint_dof,left_ankle_pitch_joint_dof,left_ankle_roll_joint_dof,right_hip_pitch_joint_dof,right_hip_roll_joint_dof,right_hip_yaw_joint_dof,right_knee_joint_dof,right_ankle_pitch_joint_dof,right_ankle_roll_joint_dof,waist_yaw_joint_dof,waist_roll_joint_dof,waist_pitch_joint_dof,left_shoulder_pitch_joint_dof,left_shoulder_roll_joint_dof,left_shoulder_yaw_joint_dof,left_elbow_joint_dof,left_wrist_roll_joint_dof,left_wrist_pitch_joint_dof,left_wrist_yaw_joint_dof,right_shoulder_pitch_joint_dof,right_shoulder_roll_joint_dof,right_shoulder_yaw_joint_dof,right_elbow_joint_dof,right_wrist_roll_joint_dof,right_wrist_pitch_joint_dof,right_wrist_yaw_joint_dof
0,1.3680336475372314,-1.5428613424301147,77.63166046142578,2.0623521865209185,0.11467268118891867,95.43567418355568,0.07622365,5.46425,8.447825,13.203198,-14.212454,-7.958978,-1.3469698,-9.34883,-13.651985,19.671825,-18.19158,7.8905516,-1.5982128,-0.59219664,2.7624993,7.576901,22.763111,-29.779732,46.95179,0.900237,2.4387922,-2.8784506,4.1883736,-24.719692,39.052353,43.38344,10.575332,23.193876,-3.0260527
1,1.3889362812042236,-1.5293774604797363,77.60871124267578,2.1299355472670696,0.11853671550621202,95.47409626768925,0.14090325,5.3883286,8.398566,13.067854,-14.2263365,-8.000184,-1.4398817,-9.44816,-13.658228,19.9599,-18.52507,7.8524213,-1.6505231,-0.63613766,2.8095727,7.3138328,22.816849,-30.080486,46.82144,0.74543375,2.4369934,-3.0043993,4.1102734,-24.757399,39.120583,43.148148,10.560407,23.089153,-3.1188757
2,1.4073231220245361,-1.5147453546524048,77.58161163330078,2.1993084132444087,0.120129162864838,95.51300319715551,0.21065721,5.3099694,8.34929,12.926638,-14.235697,-8.041422,-1.5292253,-9.549134,-13.663559,20.24639,-18.860529,7.81464,-1.6889465,-0.6924609,2.8599222,7.062268,22.89723,-30.390911,46.662556,0.55891204,2.4418669,-3.1388214,4.0446277,-24.785118,39.166996,42.904964,10.532446,22.98293,-3.2133896
3,1.4320766925811768,-1.4964678287506104,77.55259704589844,2.265427838308029,0.12628561767458088,95.55116795761317,0.271113,5.236633,8.299774,12.795773,-14.253044,-8.083072,-1.625573,-9.646088,-13.670131,20.536072,-19.192066,7.7757535,-1.726703,-0.74927634,2.9096787,6.8062496,22.994154,-30.715069,46.500885,0.41128033,2.440159,-3.261792,3.9686198,-24.80307,39.219723,42.676952,10.516817,22.877024,-3.301924
4,1.4581992626190186,-1.4753029346466064,77.52393341064453,2.323828180708613,0.14379086362581167,95.58775352339411,0.30774418,5.1757126,8.249922,12.691788,-14.291659,-8.125561,-1.7397556,-9.733789,-13.680236,20.834547,-19.514296,7.7343583,-1.7593057,-0.7979874,2.9559255,6.5195956,23.106756,-31.079948,46.361034,0.36541003,2.4189234,-3.3524153,3.8799212,-24.815363,39.282375,42.47285,10.532937,22.77344,-3.375196
5,1.4803860187530518,-1.4600361585617065,77.49405670166016,2.3796748842748228,0.1706642068267451,95.61664122630667,0.3360393,5.1193547,8.208338,12.591139,-14.347397,-8.169473,-1.8818594,-9.820884,-13.687103,21.164032,-19.83238,7.6912503,-1.7805971,-0.8399306,3.0002449,6.1851788,23.236568,-31.521008,46.259724,0.44781765,2.3588786,-3.4011467,3.7803879,-24.825329,39.352547,42.290985,10.585982,22.677027,-3.4190845
6,1.504043459892273,-1.4463998079299927,77.46571350097656,2.43334402397224,0.20454293604605484,95.64039015016913,0.35712162,5.066965,8.172301,12.495656,-14.416675,-8.214743,-2.0436285,-9.906988,-13.692174,21.514692,-20.146751,7.646907,-1.791548,-0.87769216,3.0441036,5.8157983,23.38149,-32.0191,46.18231,0.62081945,2.2718585,-3.419876,3.6724358,-24.835245,39.426685,42.1248,10.667221,22.58543,-3.441776
7,1.5359545946121216,-1.4250868558883667,77.43599700927734,2.472871560142856,0.2516568252256293,95.67041328069314,0.3348162,5.0361567,8.124838,12.4569235,-14.510279,-8.260438,-2.208877,-9.972978,-13.708913,21.84402,-20.446041,7.599296,-1.8022546,-0.9040985,3.0845103,5.434046,23.535336,-32.51422,46.105274,0.8510535,2.1917233,-3.4204195,3.5633273,-24.844975,39.50566,41.96549,10.769713,22.490576,-3.4678302
8,1.5675956010818481,-1.4053819179534912,77.41011047363281,2.4868377142859526,0.3180827951803144,95.71827454014164,0.22991246,5.0446653,8.048721,12.533398,-14.643399,-8.305106,-2.3610811,-10.000333,-13.750926,22.108953,-20.717997,7.5464034,-1.8245451,-0.9117949,3.1175733,5.0638123,23.690136,-32.942738,46.00677,1.1078874,2.1522753,-3.4146588,3.453836,-24.8536,39.594997,41.812,10.888941,22.38342,-3.522138
9,1.6025354862213135,-1.3862192630767822,77.38286590576172,2.4717021473800456,0.40853943574993395,95.79140548534652,0.027830666,5.0958166,7.932628,12.736945,-14.819077,-8.350611,-2.5000734,-9.985893,-13.826232,22.300701,-20.959412,7.48859,-1.8687589,-0.8962961,3.140079,4.6953955,23.8422,-33.302948,45.887783,1.4060779,2.1752057,-3.4080873,3.3394587,-24.860376,39.704865,41.6707,11.020728,22.251802,-3.6172028
10,1.642819881439209,-1.3700101375579834,77.35620880126953,2.4338468091947303,0.5188297299294818,95.88205994475712,-0.2510003,5.1804786,7.787523,13.040664,-15.031231,-8.39668,-2.6328108,-9.939146,-13.926197,22.440489,-21.176182,7.4266896,-1.928681,-0.86100113,3.153408,4.323078,23.990774,-33.61822,45.761585,1.7593932,2.237972,-3.3936343,3.2176802,-24.865591,39.83326,41.544743,11.169252,22.103294,-3.7381475
11,1.6902910470962524,-1.3466382026672363,77.3317642211914,2.3761705069349475,0.6416501838856223,95.97921263720116,-0.5862909,5.2965584,7.6300945,13.431119,-15.274585,-8.438442,-2.7550957,-9.860406,-14.039575,22.53407,-21.372908,7.359192,-1.9923693,-0.80886257,3.1609573,3.965996,24.133581,-33.873043,45.634205,2.1238332,2.3075633,-3.363879,3.0920584,-24.869267,39.969307,41.427822,11.342645,21.959723,-3.868469
12,1.7431503534317017,-1.315229892730713,77.31338500976562,2.301306492271911,0.7697737906476977,96.07167645715124,-0.96118057,5.4431996,7.4764066,13.901225,-15.546161,-8.471153,-2.8634026,-9.749797,-14.155065,22.588125,-21.554247,7.2846766,-2.0495706,-0.7426923,3.1657572,3.6437218,24.268215,-34.05031,45.512535,2.455033,2.3507018,-3.3111346,2.9666855,-24.871565,40.10274,41.31287,11.548335,21.842493,-3.9918723
13,1.7977300882339478,-1.2822221517562866,77.29280090332031,2.207675801574976,0.9068417371944568,96.15857714458157,-1.3800125,5.622869,7.329976,14.454609,-15.849544,-8.490477,-2.9593356,-9.603681,-14.27273,22.59878,-21.721176,7.19982,-2.0991805,-0.6606202,3.1630764,3.3605113,24.392944,-34.143078,45.396786,2.7949033,2.3635907,-3.2344654,2.8426828,-24.872818,40.23439,41.202797,11.809751,21.75561,-4.1128235
14,1.8561488389968872,-1.2409617900848389,77.2745361328125,2.093575322294904,1.0550845557336497,96.24503005511785,-1.8479887,5.8355107,7.1812897,15.090971,-16.183577,-8.500492,-3.043897,-9.421709,-14.397903,22.564194,-21.871294,7.106354,-2.1466024,-0.56033784,3.1526515,3.1049454,24.50741,-34.161243,45.287395,3.1491861,2.362375,-3.1371741,2.7166853,-24.873508,40.369846,41.10101,12.117278,21.688034,-4.2371383
15,1.914725422859192,-1.2045514583587646,77.2557144165039,1.9617947118763541,1.2051616351604613,96.32952211755367,-2.3500273,6.0762224,7.027061,15.799453,-16.539154,-8.509044,-3.1086128,-9.20859,-14.528156,22.486364,-22.000652,7.010409,-2.190992,-0.44450116,3.1439643,2.8761184,24.611378,-34.110573,45.18716,3.4239235,2.343874,-3.01795,2.5903676,-24.873995,40.503227,40.998253,12.425011,21.639204,-4.351199
16,1.9854469299316406,-1.168494701385498,77.22990417480469,1.8143894774700497,1.3476593701699995,96.41027065561548,-2.864477,6.339518,6.8650327,16.555489,-16.904455,-8.524162,-3.1469738,-8.96933,-14.660413,22.371586,-22.107376,6.918035,-2.2303288,-0.3158109,3.1467776,2.6759608,24.704378,-33.99527,45.096115,3.5278888,2.3045754,-2.8754613,2.4606485,-24.875153,40.630913,40.889385,12.691821,21.609026,-4.441415
17,2.0496985912323,-1.1346272230148315,77.20523071289062,1.6512605487454697,1.4842742619545815,96.48823488755332,-3.3991334,6.62603,6.6941423,17.37078,-17.279366,-8.549968,-3.1603715,-8.702598,-14.795711,22.217415,-22.186724,6.8264027,-2.2648342,-0.17611717,3.1608407,2.503397,24.78485,-33.8036,45.018234,3.3997908,2.2404797,-2.7017436,2.3280427,-24.876951,40.753075,40.771748,12.921369,21.606903,-4.5050178
18,2.119300603866577,-1.087153434753418,77.18329620361328,1.4705809067341191,1.6187323558221376,96.56381716002826,-3.957148,6.937445,6.515373,18.244465,-17.666773,-8.582525,-3.1513114,-8.405485,-14.935197,22.02241,-22.241478,6.733838,-2.2953472,-0.022804363,3.1815014,2.356792,24.852266,-33.53769,44.953743,3.1012375,2.1532967,-2.500267,2.1921825,-24.88006,40.872005,40.650738,13.131977,21.630112,-4.549285
19,2.1958584785461426,-1.027661681175232,77.16412353515625,1.27331391716128,1.7445685893320912,96.63476356892518,-4.525498,7.270928,6.3280077,19.16632,-18.066212,-8.616923,-3.110253,-8.08013,-15.075587,21.783234,-22.275217,6.6480455,-2.3184676,0.14780149,3.2122974,2.232684,24.906174,-33.22676,44.900833,2.7236426,2.048215,-2.286637,2.0587676,-24.885063,40.98133,40.52224,13.300183,21.660667,-4.5753965
20,2.265437364578247,-0.967668354511261,77.13970947265625,1.0607967269862308,1.855215759052272,96.69888986358487,-5.088943,7.623217,6.1318603,20.121513,-18.474821,-8.647768,-3.0271773,-7.7288265,-15.213743,21.494768,-22.290443,6.576736,-2.33732,0.3374534,3.2581646,2.1385634,24.954552,-32.89129,44.84535,2.3574636,1.9314327,-2.0775592,1.9250332,-24.894718,41.083138,40.386864,13.404861,21.680416,-4.5847073
21,2.3386054039001465,-0.9003729820251465,77.11371612548828,0.8320030281154477,1.9457195137961154,96.75783350250661,-5.6337256,7.993026,5.924162,21.094213,-18.893097,-8.671559,-2.8863635,-7.348588,-15.352525,21.137287,-22.279617,6.5310397,-2.3452628,0.5475011,3.321753,2.069783,24.993904,-32.533447,44.79026,1.9962567,1.7990931,-1.870323,1.8055196,-24.908373,41.159863,40.236847,13.426157,21.681755,-4.578233
22,2.4049265384674072,-0.8348819613456726,77.08273315429688,0.5873819763479381,2.020704589914676,96.81189108411647,-6.170539,8.380845,5.7058516,22.094118,-19.320913,-8.691749,-2.6964343,-6.9395056,-15.491431,20.716166,-22.242222,6.5039434,-2.3493538,0.7751614,3.4015615,2.0338824,25.027964,-32.134216,44.72989,1.602116,1.6497072,-1.6601752,1.6904378,-24.928013,41.224327,40.075207,13.38298,21.675425,-4.5554276
23,2.4746975898742676,-0.7635895013809204,77.04676055908203,0.3295282803435256,2.087834716535429,96.85713750291524,-6.7189217,8.7875805,5.4822807,23.141272,-19.752888,-8.713224,-2.4867444,-6.5082054,-15.621176,20.270187,-22.19407,6.475455,-2.3335025,1.0186484,3.490183,2.0051243,25.053295,-31.738121,44.684937,1.2124807,1.4930431,-1.4533781,1.5798694,-24.951963,41.274014,39.903427,13.298141,21.671232,-4.51161
24,2.541616439819336,-0.6970959901809692,77.00845336914062,0.06062411626473928,2.154848922330276,96.8896980453198,-7.3031034,9.214299,5.258048,24.265604,-20.188658,-8.7417555,-2.2887714,-6.062486,-15.733194,19.843828,-22.154764,6.4258666,-2.3138578,1.2774161,3.587443,2.0009239,25.082218,-31.341196,44.634525,0.8726632,1.3398341,-1.2616755,1.4423964,-24.991693,41.349064,39.727448,13.211247,21.678808,-4.4448338
25,2.6086337566375732,-0.6239376068115234,76.96348571777344,-0.2252099949825626,2.22416729499103,96.90375694757921,-7.9123654,9.667594,5.039869,25.445581,-20.64026,-8.786111,-2.1047916,-5.593548,-15.824212,19.434023,-22.125309,6.3535895,-2.2678783,1.557471,3.6865525,2.003983,25.111599,-30.966383,44.59,0.6012402,1.1901169,-1.0888488,1.3019698,-25.0458,41.425045,39.5341,13.1034565,21.703417,-4.346164
26,2.6711273193359375,-0.5477123260498047,76.91484069824219,-0.5270478471393607,2.2914094292496916,96.90288671091976,-8.541026,10.14374,4.8229427,26.67945,-21.103926,-8.841796,-1.9211236,-5.101836,-15.898347,19.024029,-22.097662,6.2678785,-2.2035408,1.8573879,3.7920465,2.022939,25.141682,-30.59607,44.544907,0.3732734,1.0397456,-0.9297062,1.1574745,-25.115637,41.50274,39.32316,12.968967,21.739143,-4.219895
27,2.736293315887451,-0.46640193462371826,76.85942077636719,-0.8324499037945743,2.3538427719508186,96.89725635682426,-9.205199,10.626843,4.5966516,27.99522,-21.547853,-8.896185,-1.7401972,-4.605524,-15.959348,18.628551,-22.07293,6.164134,-2.128174,2.1636744,3.911285,2.0514927,25.174294,-30.244642,44.50662,0.15383048,0.8928944,-0.77350503,1.0020396,-25.20145,41.58434,39.098858,12.835808,21.779367,-4.07863
28,2.8007047176361084,-0.38754042983055115,76.79560852050781,-1.129820765568195,2.408836858271529,96.89707014531557,-9.922291,11.1013365,4.349845,29.423227,-21.940187,-8.937532,-1.5653359,-4.1221747,-16.011425,18.263853,-22.052778,6.037586,-2.047894,2.4627714,4.051479,2.081628,25.21189,-29.928835,44.483704,-0.092707425,0.7535969,-0.60953623,0.826523,-25.303284,41.67153,38.86922,12.732395,21.817816,-3.9348202
29,2.8632712364196777,-0.30888301134109497,76.7253646850586,-1.4280362903055943,2.4524728262228206,96.89769536534314,-10.675591,11.573865,4.075408,30.945158,-22.30608,-8.977977,-1.3902825,-3.6378393,-16.047014,17.923862,-22.02978,5.8736024,-1.9603976,2.7635572,4.2137547,2.114676,25.257233,-29.657085,44.478252,-0.37564194,0.6214082,-0.42088756,0.633843,-25.420496,41.76234,38.63104,12.666505,21.853914,-3.7768762
30,2.9258172512054443,-0.2372812181711197,76.65533447265625,-1.7299213191910405,2.487117155008541,96.89608790138416,-11.459507,12.046342,3.781535,32.547688,-22.648504,-9.022474,-1.219138,-3.1498623,-16.066559,17.611496,-22.010206,5.678666,-1.8627919,3.0691981,4.395081,2.1550186,25.311152,-29.419905,44.482876,-0.67673635,0.49453923,-0.21805215,0.42259505,-25.55299,41.85867,38.38479,12.626591,21.890934,-3.6028566
31,2.9839894771575928,-0.15900805592536926,76.58882141113281,-2.015253018333974,2.5199929311598517,96.90540517650628,-12.311045,12.496208,3.4781864,34.27208,-22.903273,-9.049386,-1.0554404,-2.6879282,-16.08871,17.324131,-21.998466,5.4809737,-1.7606015,3.3593366,4.597053,2.1987517,25.372307,-29.207058,44.492245,-0.99004716,0.37486047,-0.03169387,0.17607336,-25.701044,41.971043,38.142315,12.615038,21.9276,-3.440131
32,3.0501420497894287,-0.061368901282548904,76.53324890136719,-2.2644448539567716,2.5583751804553274,96.93864023539106,-13.267498,12.9016695,3.17485,36.158848,-23.004856,-9.037171,-0.90679026,-2.2819562,-16.132256,17.067902,-22.003868,5.3086405,-1.661467,3.6143959,4.820209,2.241123,25.438208,-29.007977,44.50424,-1.3109853,0.26437655,0.10763604,-0.103430085,-25.864206,42.099144,37.902122,12.617444,21.963291,-3.316284
33,3.1165387630462646,0.03708096221089363,76.48246765136719,-2.473344218749305,2.603352482975524,97.00121978628313,-14.350963,13.2576065,2.8530655,38.25059,-22.92426,-9.021791,-0.78099763,-1.9389867,-16.203333,16.857061,-22.035103,5.162283,-1.5693449,3.8299937,5.0663047,2.281832,25.507446,-28.812418,44.514954,-1.6620184,0.1602653,0.17252521,-0.40388268,-26.041294,42.23417,37.654026,12.626552,21.99308,-3.2390416
34,3.169365882873535,0.09841370582580566,76.42695617675781,-2.6525152396802487,2.6514494986654333,97.08580463837653,-15.536266,13.571622,2.5154214,40.5107,-22.69748,-9.006505,-0.6728655,-1.6430163,-16.292498,16.685488,-22.086025,5.0291843,-1.4823263,4.017226,5.333337,2.3237963,25.580069,-28.627161,44.529495,-2.03862,0.0629168,0.18568024,-0.7083654,-26.23092,42.366783,37.38664,12.631657,22.01925,-3.1938045
35,3.2170639038085938,0.1654781699180603,76.3738021850586,-2.803566484305639,2.703389768041796,97.18594245290717,-16.79008,13.846424,2.2027273,42.861782,-22.355299,-8.916883,-0.5703488,-1.389462,-16.395708,16.52786,-22.142748,4.917218,-1.3883091,4.1796923,5.621459,2.360907,25.654915,-28.472464,44.555454,-2.3907368,-0.020220123,0.19278969,-1.1119761,-26.436993,42.556705,37.17166,12.702441,22.050201,-3.1738994
36,3.2685317993164062,0.24297307431697845,76.32725524902344,-2.9282896437200687,2.759667952556268,97.2955523906527,-18.0806,14.090411,1.9556696,45.228497,-21.927494,-8.67313,-0.4602045,-1.1730124,-16.508654,16.355572,-22.189583,4.834203,-1.295863,4.3207016,5.9200993,2.4082828,25.728025,-28.349043,44.600445,-2.6659403,-0.08227356,0.23839034,-1.4991243,-26.656096,42.741608,36.929646,12.72963,22.098557,-3.1743202
37,3.311655282974243,0.3171730041503906,76.28826141357422,-3.025304670058519,2.8303570826923115,97.41531931735095,-19.459164,14.321397,1.779917,47.71618,-21.334938,-8.197043,-0.3653396,-0.99883026,-16.633425,16.18809,-22.234426,4.7794266,-1.1998777,4.441097,6.2259574,2.449611,25.797625,-28.275595,44.679764,-2.8599188,-0.12771659,0.35067695,-1.9076846,-26.88932,42.942368,36.68591,12.73652,22.17332,-3.1966474
38,3.350247383117676,0.4012031853199005,76.25739288330078,-3.0947201480942064,2.91180138639931,97.54777917512325,-20.923904,14.541045,1.6590604,50.32157,-20.586092,-7.541359,-0.28356484,-0.8664274,-16.771803,16.030106,-22.280725,4.749328,-1.0936728,4.541799,6.547189,2.4770658,25.86322,-28.249872,44.788033,-2.9971015,-0.15849866,0.5015591,-2.4223213,-27.139528,43.208164,36.49822,12.803624,22.265368,-3.2423172
39,3.385161876678467,0.4878684878349304,76.23043823242188,-3.1410227158800907,2.983998974730217,97.68924894707332,-22.36308,14.734541,1.6003562,52.810326,-19.845917,-6.820242,-0.16492945,-0.7629085,-16.919138,15.832306,-22.306505,4.747378,-0.9830206,4.6230583,6.886234,2.5164137,25.922604,-28.244694,44.908165,-3.0693126,-0.16416916,0.6510658,-2.949933,-27.404099,43.48591,36.307915,12.866958,22.359898,-3.305778
40,3.4101128578186035,0.5822798013687134,76.2135238647461,-3.1680705134365943,3.02711779436123,97.83584773954838,-23.668976,14.881504,1.606615,54.959103,-19.284336,-6.1534276,0.039117426,-0.67635435,-17.07061,15.548524,-22.291817,4.777376,-0.8660763,4.6847277,7.2469983,2.5851617,25.973694,-28.24113,45.025974,-3.0697353,-0.13415585,0.75984216,-3.4333866,-27.680601,43.74101,36.08316,12.895042,22.441452,-3.380657
41,3.427483081817627,0.6911987662315369,76.200439453125,-3.180479506594848,3.027958874202623,97.98857553629684,-24.820343,15.007004,1.6974913,56.776546,-19.000694,-5.495475,0.34705713,-0.6008806,-17.225428,15.173388,-22.234203,4.842423,-0.73142356,4.732309,7.6477795,2.677988,26.01618,-28.239485,45.132153,-2.9687967,-0.05109813,0.81460655,-3.9885983,-27.97278,44.04427,35.909004,12.978391,22.505465,-3.4567974
42,3.4389729499816895,0.8180055022239685,76.19340515136719,-3.1753378761535713,2.9998355663462335,98.14862130550156,-25.876572,15.114903,1.862823,58.372158,-18.892485,-4.80545,0.73088616,-0.5435052,-17.385971,14.72964,-22.143705,4.9395227,-0.5899164,4.764288,8.07813,2.7952116,26.04973,-28.240925,45.23601,-2.778252,0.07461912,0.83652127,-4.553369,-28.278519,44.361446,35.73547,13.058916,22.561104,-3.5412278
43,3.4437201023101807,0.9589023590087891,76.19499206542969,-3.1417918125159905,2.962627179728374,98.31299775156651,-26.84686,15.14365,2.0628288,59.66784,-18.83299,-4.2183547,1.1688263,-0.5144711,-17.551476,14.213925,-22.019007,5.0634828,-0.4387698,4.7704124,8.514855,2.9275055,26.074564,-28.261168,45.35433,-2.5570226,0.21172798,0.84055,-5.1183434,-28.595762,44.68074,35.55233,13.149351,22.608358,-3.650096
44,3.445120096206665,1.1040152311325073,76.20360565185547,-3.069384478338752,2.93620597133873,98.47883966732688,-27.740501,15.030385,2.2603095,60.5826,-18.693197,-3.872491,1.639311,-0.52432185,-17.721153,13.623428,-21.859062,5.2092056,-0.27580193,4.7405105,8.934589,3.0673223,26.09064,-28.314533,45.5029,-2.363013,0.32896292,0.8420738,-5.672004,-28.921703,44.98927,35.34876,13.260832,22.64708,-3.7999606
45,3.436415195465088,1.275687336921692,76.22623443603516,-2.948269886120213,2.9251493871112517,98.64959200556926,-28.552206,14.724736,2.4282782,61.06208,-18.469105,-3.856158,2.1360738,-0.58856916,-17.901552,12.961257,-21.664618,5.383973,-0.10157763,4.6667466,9.333728,3.2077065,26.098207,-28.419579,45.691162,-2.2259345,0.41880286,0.8510644,-6.2289453,-29.25582,45.300533,35.138844,13.400082,22.679792,-4.001111
46,3.4262328147888184,1.4634987115859985,76.25810241699219,-2.7860637448949235,2.9186782536290563,98.82484385359004,-29.282726,14.27274,2.5917556,61.16173,-18.223288,-4.0812907,2.6749115,-0.6967844,-18.090868,12.221522,-21.433119,5.5869393,0.08822902,4.5562897,9.725344,3.3502822,26.09705,-28.567768,45.910267,-2.1101716,0.49759975,0.8579683,-6.8194823,-29.59863,45.632492,34.945103,13.584367,22.704914,-4.242621
47,3.3921289443969727,1.63560152053833,76.29293823242188,-2.599269273221938,2.913636348411354,98.99619520338227,-29.950064,13.757654,2.7910624,60.96281,-17.923828,-4.421497,3.25717,-0.823818,-18.276482,11.40756,-21.16801,5.8016863,0.29465806,4.421216,10.106837,3.5050004,26.086859,-28.728188,46.1524,-1.978075,0.569985,0.84871596,-7.3809743,-29.946539,45.933685,34.719498,13.776628,22.716454,-4.509579
48,3.354685068130493,1.8445448875427246,76.33562469482422,-2.4030451636668992,2.9072661255615313,99.15526225825104,-30.571566,13.261017,3.0672405,60.548477,-17.536833,-4.750225,3.8896666,-0.94309986,-18.445826,10.50834,-20.86464,6.0126495,0.5275985,4.27357,10.479759,3.6728022,26.068613,-28.878738,46.409027,-1.7936773,0.64064187,0.8095369,-7.927595,-30.296638,46.1971,34.467323,14.004644,22.70763,-4.7860117
49,3.3239822387695312,2.061176061630249,76.37540435791016,-2.1926492821597354,2.8951765872214668,99.29677685534104,-31.14051,12.780051,3.4276223,59.89878,-17.043016,-5.048384,4.584009,-1.0554585,-18.59204,9.506916,-20.515495,6.2198915,0.7911843,4.106643,10.846506,3.8565247,26.043688,-29.02147,46.68422,-1.5356407,0.7131727,0.7286106,-8.442686,-30.645739,46.410355,34.186047,14.281712,22.671612,-5.0850716
50,3.2935872077941895,2.3067708015441895,76.41426086425781,-1.9627240285157468,2.8802549786064975,99.42531367191624,-31.649244,12.283376,3.8483038,58.977444,-16.462427,-5.375961,5.3423233,-1.1687498,-18.723528,8.391852,-20.112646,6.4314938,1.0819652,3.9167717,11.206128,4.0549383,26.012945,-29.166426,46.978775,-1.2269449,0.7841231,0.61572134,-8.93507,-30.992935,46.585236,33.883724,14.597128,22.612597,-5.4087853
51,3.2560932636260986,2.5713703632354736,76.44969177246094,-1.7283316270651186,2.871057642960305,99.54760668896903,-32.113846,11.807089,4.3259945,57.846066,-15.817736,-5.7268686,5.838038,-1.3785983,-18.841496,7.871036,-20.02447,6.6480017,1.3895249,3.7197328,11.5515375,4.270871,25.976154,-29.296564,47.280514,-0.89898837,0.8471828,0.48931313,-9.414732,-31.339016,46.72796,33.554623,14.9048195,22.541779,-5.72588
52,3.2058591842651367,2.830220937728882,76.4791259765625,-1.5032658346683268,2.8761396977841174,99.66990250780383,-32.5479,11.383373,4.861028,56.565002,-15.1307,-6.0954566,6.1385217,-1.6447955,-18.955019,7.7714896,-20.1583,6.8659954,1.7023593,3.5298157,11.875492,4.5080442,25.932812,-29.39284,47.576187,-0.582132,0.8962589,0.3676575,-9.891139,-31.686295,46.845497,33.19127,15.157628,22.47115,-6.0051804
53,3.1541905403137207,3.1077895164489746,76.504638671875,-1.2858743097459682,2.8995320265814395,99.79635595483718,-32.949036,11.001257,5.4616346,55.105476,-14.35403,-6.5106654,6.430797,-1.9024761,-19.074368,7.665692,-20.285645,7.090236,2.0196102,3.346641,12.174287,4.767981,25.881657,-29.45419,47.86753,-0.259995,0.92398816,0.25249895,-10.369601,-32.036392,46.938053,32.795,15.352666,22.404968,-6.2397103
54,3.104631185531616,3.390439987182617,76.51959228515625,-1.0710350222955158,2.9361295465239285,99.92164813502482,-33.305317,10.645769,6.1266212,53.4426,-13.4901085,-6.966367,6.71924,-2.1564794,-19.192749,7.554438,-20.409098,7.3211946,2.3450294,3.1644344,12.451545,5.050886,25.822056,-29.486786,48.15928,0.07601971,0.9353853,0.13499805,-10.826186,-32.389404,46.992867,32.35547,15.498369,22.337648,-6.4459763
55,3.0461843013763428,3.688356637954712,76.52487182617188,-0.8725867749872288,2.9799543338392014,100.04071377437971,-33.616455,10.34348,6.8398933,51.64398,-12.633582,-7.406036,7.0089674,-2.3897324,-19.30303,7.4374866,-20.527525,7.544855,2.6781588,2.9960153,12.715398,5.3544507,25.755579,-29.487461,48.44117,0.3834978,0.94344074,0.018436108,-11.285023,-32.746925,47.031807,31.885231,15.61229,22.266043,-6.6278424
56,2.987234115600586,3.9907913208007812,76.52021789550781,-0.7036937185037441,3.024874598495191,100.14831924640335,-33.8825,10.119993,7.588614,49.77976,-11.881673,-7.77333,7.3051176,-2.5864182,-19.398014,7.3170795,-20.641884,7.746548,3.0141492,2.8527246,12.9731655,5.680965,25.68491,-29.448093,48.699802,0.6204836,0.96124053,-0.09477722,-11.752831,-33.110256,47.06789,31.386705,15.696199,22.185795,-6.7890563
57,2.9212379455566406,4.311527729034424,76.50320434570312,-0.5655073692957665,3.067964960882263,100.24082371359692,-34.08094,9.982131,8.403414,47.814083,-11.281975,-8.075774,7.614707,-2.7432516,-19.473116,7.1835885,-20.75043,7.9281807,3.3562436,2.7351484,13.228827,6.0331097,25.612274,-29.361609,48.928516,0.77627045,0.99970484,-0.21692893,-12.23561,-33.480446,47.10371,30.85672,15.748583,22.092833,-6.92201
58,2.8507864475250244,4.636846542358398,76.47162628173828,-0.45101093025814565,3.1109879562856277,100.32198863613053,-34.21425,9.903656,9.286679,45.724907,-10.773134,-8.342501,7.9431577,-2.8651614,-19.534098,7.022942,-20.8446,8.095181,3.7036254,2.6374397,13.480664,6.4122066,25.53793,-29.2319,49.130207,0.8727132,1.0496689,-0.34552786,-12.729939,-33.857525,47.1348,30.293736,15.770371,21.990294,-7.027654
59,2.7847959995269775,4.962944984436035,76.41602325439453,-0.3719869159623631,3.1457334136171475,100.4073211313057,-34.341225,9.8707485,10.161959,43.655624,-10.303198,-8.551824,8.235357,-2.9612956,-19.595867,6.9837837,-21.003096,8.236486,4.0368757,2.5728672,13.736434,6.818088,25.459957,-29.06815,49.305893,0.9171817,1.0951233,-0.4550355,-13.240425,-34.242397,47.16996,29.710552,15.775707,21.886435,-7.12312
60,2.709956169128418,5.294281005859375,76.352783203125,-0.33432225028214346,3.1861456837793507,100.49571905759822,-34.47943,9.865578,10.986264,41.643993,-9.7785635,-8.668769,8.513471,-3.0174751,-19.661705,6.9801583,-21.17375,8.346359,4.354259,2.5442555,13.979884,7.2501283,25.378223,-28.87936,49.459522,0.91683185,1.1195655,-0.52100927,-13.762772,-34.6343,47.21425,29.110657,15.7761345,21.790718,-7.225987
61,2.636044979095459,5.637671947479248,76.27731323242188,-0.33155636926847953,3.2355031216763495,100.59044042003552,-34.632793,9.890081,11.789815,39.679733,-9.19636,-8.65431,8.790078,-3.0350435,-19.733803,6.9762406,-21.328,8.4054165,4.6548157,2.543805,14.207978,7.7091856,25.293156,-28.667109,49.59604,0.86754847,1.1100652,-0.52628076,-14.312914,-35.03373,47.278454,28.50452,15.798986,21.710066,-7.330355
62,2.5420405864715576,5.998264312744141,76.19599914550781,-0.36055484620319356,3.2916649891280167,100.68677061163562,-34.77934,9.9428,12.596306,37.720623,-8.590394,-8.536816,9.066053,-3.0171058,-19.807352,6.974476,-21.472061,8.424569,4.943484,2.5686278,14.422606,8.195708,25.204716,-28.426283,49.712276,0.7676513,1.078197,-0.4878067,-14.883208,-35.440216,47.35548,27.882887,15.827943,21.638502,-7.430759
63,2.4412286281585693,6.363894939422607,76.11133575439453,-0.4119165107322428,3.355313101708514,100.77207666485903,-34.92978,9.998817,13.354045,35.8229,-7.9499454,-8.378881,9.340049,-2.9769578,-19.874031,6.971251,-21.6183,8.441974,5.2285676,2.6088102,14.623803,8.707007,25.112667,-28.15772,49.798763,0.62845755,1.0442071,-0.43181297,-15.461323,-35.85144,47.43716,27.242157,15.825389,21.563982,-7.544174
64,2.3324646949768066,6.734560489654541,76.01576232910156,-0.47508916143591445,3.4275279424726324,100.83447960565685,-35.095963,10.037379,14.009643,34.043736,-7.262543,-8.239924,9.608591,-2.929459,-19.925627,6.9667945,-21.780949,8.495049,5.5189676,2.6532433,14.811337,9.239851,25.016779,-27.862272,49.846634,0.46196377,1.0285248,-0.38421834,-16.044838,-36.26439,47.520775,26.585451,15.760154,21.476673,-7.6881227
65,2.2316548824310303,7.104742527008057,75.9122314453125,-0.5473715206300876,3.5079916573244403,100.87742195527363,-35.284782,10.054586,14.547191,32.374924,-6.518098,-8.121627,9.872631,-2.8771362,-19.965343,6.9607744,-21.967896,8.586878,5.813786,2.69971,14.986137,9.796503,24.916931,-27.528221,49.845894,0.29628426,1.0371246,-0.351346,-16.64063,-36.677555,47.612473,25.919268,15.626132,21.365467,-7.8779764
66,2.114497661590576,7.488198757171631,75.79932403564453,-0.6314256323855374,3.596548511358431,100.9049658924008,-35.495884,10.062687,14.996728,30.805202,-5.7308245,-7.993273,10.132569,-2.8170924,-19.995325,6.954824,-22.170517,8.698758,6.1087694,2.7500625,15.147855,10.378704,24.813091,-27.158447,49.80344,0.116760194,1.0589586,-0.3197467,-17.251102,-37.08971,47.71382,25.243773,15.439644,21.23902,-8.101187
67,1.9868487119674683,7.874566078186035,75.67990112304688,-0.7236892668642751,3.6945286822001537,100.90529054330376,-35.732025,10.069656,15.369748,29.388004,-4.9222693,-7.8620715,10.386848,-2.7558432,-20.005878,6.946659,-22.375944,8.834969,6.4081197,2.7984645,15.294133,10.980539,24.704855,-26.77723,49.737244,-0.12892087,1.0887032,-0.28503042,-17.86265,-37.49751,47.81174,24.551727,15.199422,21.11569,-8.332851
68,1.8454804420471191,8.275508880615234,75.55211639404297,-0.8203999520040852,3.8038375324847236,100.86779176008034,-36.000046,10.087173,15.674977,28.185472,-4.1175942,-7.733907,10.630258,-2.7005084,-19.988605,6.939703,-22.574242,9.000124,6.7167206,2.8388636,15.421738,11.592914,24.591719,-26.411655,49.667744,-0.49423635,1.1211133,-0.24265964,-18.462671,-37.896584,47.89173,23.839294,14.904872,21.01354,-8.547692
69,1.7080256938934326,8.677547454833984,75.42346954345703,-0.926124569804142,3.9357934424886554,100.78762604994313,-36.333206,10.1415205,15.911722,27.237713,-3.2511835,-7.601254,10.846349,-2.6455412,-19.942434,6.931596,-22.756031,9.199222,7.0369816,2.8732429,15.525972,12.211196,24.471775,-26.057938,49.597527,-1.0055622,1.1632514,-0.19300255,-19.069054,-38.28458,47.95029,23.112528,14.504985,20.938,-8.702976
70,1.5473390817642212,9.099161148071289,75.2892074584961,-1.0397472812255646,4.087463031139736,100.67345868203344,-36.72857,10.224689,16.072683,26.521307,-2.3411999,-7.456918,11.0408945,-2.5914981,-19.874718,6.92149,-22.928785,9.428478,7.363961,2.9014418,15.607549,12.837943,24.344387,-25.707342,49.520264,-1.6308161,1.2146511,-0.13728951,-19.684153,-38.660477,47.995327,22.37721,14.017138,20.878775,-8.824017
71,1.4009413719177246,9.51885986328125,75.1556167602539,-1.147492430902094,4.2398380477001005,100.53616293379262,-37.133614,10.302049,16.152306,25.997467,-1.534944,-7.3138022,11.242147,-2.5536168,-19.789778,6.9146247,-23.107763,9.679102,7.6913033,2.9138293,15.671112,13.4758835,24.211855,-25.377731,49.441784,-2.3354084,1.2584872,-0.072265126,-20.269035,-39.0218,48.02641,21.626682,13.541091,20.831705,-8.987749
72,1.2466261386871338,9.951703071594238,75.01866912841797,-1.2399727891140795,4.3734679391659945,100.38563810511394,-37.49391,10.337199,16.1444,25.62406,-0.9775187,-7.1866784,11.481622,-2.5461202,-19.691433,6.9062963,-23.301428,9.942504,8.0146885,2.9005291,15.722029,14.1284275,24.078465,-25.087336,49.36645,-3.0851572,1.2779951,0.005115088,-20.785894,-39.366333,48.042477,20.856934,13.1770315,20.792841,-9.270717
73,1.0727908611297607,10.411848068237305,74.87696075439453,-1.3165051775905112,4.4839067855386885,100.22340211276969,-37.807076,10.327558,16.025042,25.410316,-0.74575955,-7.072272,11.7666235,-2.568556,-19.580963,6.898124,-23.523434,10.21929,8.336037,2.8620303,15.7615,14.80714,23.946321,-24.827066,49.297455,-3.903756,1.2615618,0.09419879,-21.230614,-39.69165,48.028885,20.065857,12.942369,20.770836,-9.695107
74,0.8897081017494202,10.893815994262695,74.73403930664062,-1.3815275694690774,4.582100156405535,100.04570377802298,-38.09968,10.291072,15.801505,25.37421,-0.7496119,-6.966176,12.081341,-2.6141987,-19.458067,6.8890944,-23.765337,10.512636,8.65536,2.8001878,15.786511,15.509837,23.816196,-24.589464,49.227665,-4.799224,1.2201594,0.19292939,-21.617823,-39.99741,47.987682,19.255877,12.783319,20.76457,-10.219191
75,0.7109164595603943,11.389595985412598,74.588134765625,-1.4296580866310924,4.671468702145236,99.85430609722201,-38.360786,10.223363,15.5162115,25.487473,-0.8843819,-6.882227,12.417472,-2.6902223,-19.323162,6.8804502,-24.005564,10.818442,8.96938,2.708712,15.799751,16.216043,23.691713,-24.397976,49.14646,-5.7140956,1.1707393,0.30256099,-21.951675,-40.283607,47.94825,18.436602,12.704508,20.755651,-10.82431
76,0.517253041267395,11.90369987487793,74.43875885009766,-1.458138527592041,4.755316083640242,99.6515235419766,-38.57906,10.119684,15.21137,25.721205,-1.0452241,-6.8348355,12.769831,-2.8010569,-19.17664,6.872354,-24.224691,11.131798,9.27403,2.5817869,15.803795,16.907345,23.577656,-24.275028,49.042236,-6.5914836,1.1307601,0.4247207,-22.235098,-40.55077,47.939762,17.61742,12.708457,20.725134,-11.491519
77,0.3249700367450714,12.422704696655273,74.29299926757812,-1.4636225760136248,4.832295852639736,99.43056947710902,-38.767754,9.974639,14.857524,26.103912,-1.2328228,-6.8132925,13.139318,-2.9497178,-19.020264,6.8639956,-24.430063,11.452974,9.575821,2.4145632,15.802053,17.578665,23.479725,-24.239422,48.922054,-7.4691477,1.111515,0.5662925,-22.468746,-40.79849,47.962624,16.793076,12.86274,20.67267,-12.281027
78,0.12142430990934372,12.961355209350586,74.1540298461914,-1.449424993142116,4.901184906793646,99.19280570792823,-38.92514,9.787886,14.447533,26.635078,-1.4920104,-6.816497,13.530259,-3.1310544,-18.853224,6.8549147,-24.629757,11.782682,9.875402,2.210315,15.794687,18.245453,23.399273,-24.272215,48.782543,-8.360482,1.10124,0.72448856,-22.653225,-41.026386,48.002926,15.963181,13.144601,20.603054,-13.181134
79,-0.0962589830160141,13.517695426940918,74.01577758789062,-1.4172688307327153,4.965480720753752,98.95183024405863,-39.02255,9.563928,14.058717,27.249134,-1.7885834,-6.87272,13.9391985,-3.3427482,-18.672468,6.8457537,-24.800924,12.119902,10.155114,1.9686613,15.773843,18.925684,23.339386,-24.337278,48.596905,-9.175055,1.0835794,0.88658166,-22.7841,-41.21254,48.067017,15.1537075,13.404517,20.506392,-14.063645
80,-0.3235061466693878,14.086487770080566,73.8828125,-1.370435966433174,5.0291206031234434,98.72171891315597,-39.032738,9.310564,13.767115,27.883167,-2.0902717,-7.008906,14.363426,-3.5817735,-18.477468,6.8375225,-24.922598,12.464977,10.398748,1.699454,15.737879,19.622051,23.28625,-24.401855,48.348454,-9.816297,1.0417254,1.0401444,-22.85389,-41.380222,48.1631,14.357583,13.514218,20.37908,-14.803997
81,-0.5612221360206604,14.673707962036133,73.74761962890625,-1.3130284982689875,5.073339684177641,98.49082789296294,-38.846733,9.037819,13.651371,28.444584,-2.3522851,-7.5150537,14.8217945,-3.8501728,-18.257269,6.8307815,-25.015013,12.82002,10.611337,1.4084715,15.696494,20.348629,23.236528,-24.469212,48.029198,-10.223003,0.9695057,1.1732205,-22.852982,-41.539513,48.30499,13.553961,13.486692,20.221436,-15.419228
82,-0.8062883019447327,15.269195556640625,73.61933898925781,-1.242893717972957,5.10366591734875,98.25841439906534,-38.514145,8.741759,13.650918,28.99496,-2.607593,-8.279917,15.30897,-4.1487384,-18.021687,6.823576,-25.079515,13.186943,10.799683,1.0884031,15.645572,21.097214,23.198984,-24.55293,47.652603,-10.457366,0.8778105,1.2961527,-22.80442,-41.662663,48.486904,12.776496,13.375818,20.037878,-15.955924
83,-1.0649274587631226,15.881560325622559,73.49575805664062,-1.1584130311631142,5.158761918500869,98.05337754170571,-38.239407,8.410395,13.628072,29.690056,-2.9329998,-8.731761,15.787389,-4.469367,-17.802515,6.814336,-25.067583,13.566092,10.94085,0.73840505,15.562438,21.837002,23.16708,-24.633284,47.23608,-10.608425,0.7745821,1.4285486,-22.682463,-41.75293,48.666855,12.025103,13.094945,19.834473,-16.34154
84,-1.337711215019226,16.513151168823242,73.38072204589844,-1.0654783832284604,5.274771218529208,97.90225606389997,-38.218143,8.0276985,13.442501,30.667728,-3.3940167,-8.30385,16.2169,-4.8022184,-17.627768,6.8064156,-24.929642,13.958692,10.992908,0.38545668,15.43349,22.529354,23.093496,-24.685246,46.80925,-10.757455,0.6638556,1.5900488,-22.46351,-41.91503,48.845585,11.225282,12.605589,19.616486,-16.526005
85,-1.625959038734436,17.159730911254883,73.28780364990234,-0.9645187983609728,5.481123267800621,97.81581937156686,-38.583504,7.526775,12.936046,32.0524,-3.9970388,-6.4834647,16.572426,-5.1429415,-17.526321,6.794481,-24.672823,14.385216,10.990799,-0.011645979,15.214481,23.169992,23.039051,-24.73924,46.36277,-10.89345,0.5438319,1.7915388,-22.162464,-41.992393,48.945965,10.508482,11.762774,19.374168,-16.40223
86,-1.9277536869049072,17.822481155395508,73.20491790771484,-0.8904764814738128,5.723289017687093,97.80027277078466,-39.218826,6.9321613,12.177728,33.788902,-4.6802597,-3.698201,16.829325,-5.4756346,-17.48715,6.976146,-24.430227,14.832856,10.884694,-0.3786727,14.9488535,23.771038,22.947113,-24.782686,45.908875,-10.972288,0.4092678,2.0214517,-21.765066,-42.083748,49.0366,9.780031,10.660104,19.100334,-16.054941
87,-2.2292447090148926,18.46367645263672,73.1173095703125,-0.8363336283346354,5.949863586020385,97.83061915623612,-39.926186,6.35162,11.450297,35.659206,-5.397323,-0.79217273,17.078007,-5.748009,-17.384943,7.2223773,-24.095392,15.000033,10.7211485,-0.70912707,14.695054,24.281878,22.81553,-24.832851,45.499294,-11.07301,0.273941,2.2716956,-21.276648,-42.17802,49.102226,9.083405,9.439781,18.811354,-15.592705
88,-2.539205551147461,19.099754333496094,73.04096984863281,-0.844517496982225,6.145130470920857,97.8606287916561,-40.489143,5.959339,10.999179,37.383675,-6.159066,1.38779,17.355003,-5.9308596,-17.170227,7.4625125,-23.586906,15.000033,10.55612,-0.954068,14.469179,24.665941,22.637781,-24.894817,45.173573,-11.273661,0.15069105,2.5322163,-20.740784,-42.276146,49.164913,8.466318,8.274888,18.528414,-15.130494
89,-2.859804391860962,19.75197410583496,72.9648208618164,-0.8482109340495936,6.278850420988114,97.91511958226224,-40.776306,5.7915354,11.005648,38.850582,-7.020291,2.5990598,17.702728,-6.1355433,-16.93912,7.730842,-22.962646,15.000033,10.355917,-1.1815134,14.309575,24.958235,22.436398,-24.957554,44.889645,-11.637356,0.051041838,2.805724,-20.091228,-42.361496,49.199295,7.8846545,7.0641913,18.241041,-14.639609
90,-3.19301700592041,20.412372589111328,72.8946304321289,-0.832216885018457,6.386218849015413,97.99241511773052,-40.9149,5.7740006,11.315401,40.195034,-7.987876,3.3071864,18.072166,-6.375956,-16.704504,8.050657,-22.23682,15.000033,10.120521,-1.4155561,14.181336,25.16587,22.20858,-25.020674,44.64207,-12.108412,-0.036012236,3.0946288,-19.328945,-42.43689,49.20417,7.330149,5.763226,17.939333,-14.080156
91,-3.543015241622925,21.08228302001953,72.82849884033203,-0.7936337888199929,6.4913555086184065,98.08052747126546,-40.984467,5.7784266,11.71189,41.456444,-9.008652,3.756591,17.110186,-7.032097,-16.287777,11.311937,-22.846905,15.000033,9.881727,-1.6552687,14.066278,25.261475,21.960157,-25.089005,44.462585,-12.59867,-0.12448298,3.3808513,-18.532045,-42.500736,49.200928,6.8749723,4.577954,17.652126,-13.54751
92,-3.9077508449554443,21.76931381225586,72.75386810302734,-0.726296228059552,6.6160439744278206,98.17033244214477,-41.05596,5.6610055,11.981787,42.658943,-10.020684,4.192429,16.021837,-7.7295294,-15.805253,14.787075,-23.268415,15.000033,9.663294,-1.902374,13.940439,25.23139,21.699306,-25.158495,44.376385,-13.020281,-0.22635788,3.6452606,-17.706072,-42.54838,49.18079,6.548598,3.6620283,17.414093,-13.13444
93,-4.272826194763184,22.465898513793945,72.67304992675781,-0.6247216849601371,6.771325365152571,98.24017281356926,-41.16295,5.38795,12.072247,43.83701,-11.030052,4.6194825,14.8415,-8.469388,-15.238677,18.397095,-23.521868,15.000033,9.479988,-2.1690054,13.782955,25.096573,21.425907,-25.214415,44.38117,-13.365206,-0.3470862,3.8646438,-16.678074,-42.574104,49.05947,6.245822,2.9142377,17.250893,-12.847214
94,-4.637445449829102,23.16671371459961,72.59071350097656,-0.4793674434826384,6.948594108951771,98.29880681436099,-41.258957,5.033624,12.108129,44.969173,-12.063293,4.9290066,13.576911,-9.259977,-14.598065,22.13878,-23.624619,15.000033,9.324491,-2.4651415,13.608834,24.856953,21.1435,-25.263845,44.461273,-13.676537,-0.47822148,4.055241,-15.529462,-42.578346,48.876446,6.004277,2.3163064,17.144234,-12.6369
95,-5.011048793792725,23.84965705871582,72.50161743164062,-0.29299559022679666,7.139069093319137,98.38191600455082,-41.305542,4.608645,12.138653,45.999535,-13.089632,5.1916695,12.170135,-10.105502,-13.8954935,26.094603,-23.453068,15.000033,9.151995,-2.7900364,13.425842,24.506205,20.856312,-25.308876,44.612377,-13.943819,-0.6090956,4.2533584,-14.211467,-42.55817,48.62615,5.8035645,1.8511541,17.067204,-12.519473
96,-5.388383388519287,24.530517578125,72.41228485107422,-0.05533820120154285,7.336383404266387,98.52129227411821,-41.26674,4.111185,12.22573,46.85743,-14.070854,5.4794316,10.564576,-11.011858,-13.120785,30.332548,-22.873533,15.000033,8.950063,-3.1487622,13.258601,24.0114,20.58061,-25.372946,44.832375,-14.157712,-0.7298693,4.4982677,-13.080743,-42.517273,48.475983,5.8663764,1.7800306,16.991568,-12.505993
97,-5.768492698669434,25.219640731811523,72.32994079589844,0.23354265432360297,7.565426331149092,98.74066496772122,-41.165936,3.516141,12.378291,47.497356,-14.983609,5.8036537,8.718196,-11.977397,-12.264533,34.925144,-21.76109,15.000033,8.675013,-3.5469623,13.069884,23.381405,20.313162,-25.44505,45.138367,-14.311241,-0.8383051,4.797976,-11.824879,-42.445454,48.300472,6.012771,1.9748822,16.896996,-12.661233
98,-6.1498541831970215,25.9130859375,72.25544738769531,0.5707138405353738,7.8180023951287145,99.0228408491436,-41.015717,2.8226466,12.56363,47.9606,-15.847135,6.1285963,6.6818123,-12.969181,-11.27723,39.77436,-20.192257,15.000033,8.356562,-3.9763575,12.866837,22.618225,20.056442,-25.528406,45.525036,-14.413066,-0.9389896,5.133716,-10.547424,-42.343376,48.133774,6.302112,2.468611,16.801003,-12.954129
99,-6.531943321228027,26.6147403717041,72.19404602050781,0.9464498123760519,8.038951324265103,99.3353029044198,-40.76708,2.0663493,12.779111,48.300995,-16.683695,6.4552174,4.53659,-13.920039,-10.07923,44.68615,-18.323233,15.000033,8.011571,-4.428508,12.695284,21.767126,19.813755,-25.6001,45.926723,-14.473496,-1.028869,5.4941864,-9.264821,-42.208424,47.98984,6.7339807,3.0949712,16.734535,-13.2721815
100,-6.919210433959961,27.326759338378906,72.14103698730469,1.3470160405569829,8.175112404788365,99.64294754717463,-40.373123,1.2933627,13.015535,48.57753,-17.518164,6.78281,2.3579972,-14.746951,-8.6097145,49.48612,-16.310427,15.000033,7.661199,-4.891544,12.600477,20.872526,19.590578,-25.638657,46.277424,-14.503165,-1.1047871,5.8680825,-8.024761,-42.037773,47.89507,7.3296924,3.7083366,16.731592,-13.503478
101,-7.303842067718506,28.048423767089844,72.10047149658203,1.5738986583396268,8.24007077552861,99.88346729811069,-39.91978,0.72509503,13.137881,48.946674,-18.430408,7.0719705,0.10846735,-15.216204,-7.0668426,54.15823,-13.901149,14.199846,7.359631,-5.1865835,12.550305,19.932775,19.382998,-25.641478,46.584682,-14.442948,-1.1479963,6.2628274,-6.843681,-41.82816,47.867264,8.130535,4.2966533,16.79648,-13.6574745
102,-7.683639049530029,28.781482696533203,72.06685638427734,1.7370383511063792,8.242420651271976,100.10673574859028,-39.3695,0.21557222,13.226497,49.29258,-19.366892,7.351263,-2.2278385,-15.521785,-5.4706593,58.839264,-11.119534,13.092221,7.0611787,-5.413958,12.548857,18.933344,19.188639,-25.613691,46.87547,-14.307208,-1.1648753,6.6805925,-5.6771636,-41.575645,47.88686,9.107069,4.9105,16.913265,-13.782876
103,-8.057866096496582,29.511594772338867,72.02226257324219,1.8794824722281978,8.193581108744054,100.32978286934973,-38.75496,-0.27950358,13.292029,49.627266,-20.30105,7.616084,-4.599217,-15.628085,-3.7578127,63.41129,-8.402467,11.856683,6.7485,-5.6186666,12.583596,17.890978,19.018677,-25.561876,47.111565,-14.220505,-1.1908208,7.1035852,-4.5815015,-41.28146,47.965275,10.239348,5.5735292,17.086859,-13.826098
104,-8.43397045135498,30.231216430664062,71.97420501708984,1.995892553249694,8.110666640498923,100.56450229407876,-38.12527,-0.7563806,13.305561,49.9918,-21.221222,7.8489866,-6.9389997,-15.412561,-1.9003052,67.73138,-6.1666727,10.52048,6.4068437,-5.80365,12.630438,16.831514,18.890669,-25.490171,47.242775,-14.308476,-1.2619144,7.512707,-3.5621305,-40.947395,48.08822,11.475668,6.275955,17.323658,-13.73518
105,-8.799299240112305,30.960813522338867,71.92987060546875,2.0719341777841134,7.9821829705441,100.78852196301081,-37.476547,-1.1802484,13.265966,50.422543,-22.142752,8.038636,-9.285037,-14.775993,0.17945446,71.90611,-4.407766,8.8517475,6.0624504,-5.9644537,12.699634,15.773236,18.815128,-25.38947,47.23361,-14.611622,-1.3943632,7.9198465,-2.6326709,-40.57506,48.256516,12.825037,7.1010284,17.663462,-13.482558
106,-9.149749755859375,31.679227828979492,71.88025665283203,2.104476468133565,7.802037165745892,101.00775941085244,-36.79088,-1.5538136,13.177061,50.901024,-23.069515,8.193154,-11.620123,-13.737336,2.389156,75.98752,-2.9141107,6.955266,5.712673,-6.09598,12.802098,14.708285,18.79449,-25.26373,47.10184,-15.063044,-1.5677515,8.326634,-1.769402,-40.16446,48.46529,14.295662,8.017335,18.094954,-13.104314
107,-9.48131275177002,32.398406982421875,71.81932067871094,2.1104613751846797,7.594625345007048,101.27218802965403,-36.09034,-1.9212203,13.017333,51.390354,-23.978983,8.322291,-13.789715,-12.356134,4.549788,79.77297,-1.8448069,5.382415,5.31203,-6.2020984,12.9168625,13.616751,18.836817,-25.144978,46.87913,-15.628906,-1.7637938,8.698252,-0.95922977,-39.718517,48.704006,15.858744,8.873933,18.546186,-12.640443
108,-9.797574043273926,33.11480712890625,71.751708984375,2.1060672969853536,7.385215648782771,101.62919910706363,-35.388935,-2.3319008,12.769583,51.841072,-24.850529,8.437662,-15.649694,-10.725821,6.5288997,83.071915,-1.4162234,4.673458,4.820633,-6.2906237,13.023233,12.478805,18.953562,-25.06929,46.594685,-16.277382,-1.9626749,8.999781,-0.18615124,-39.242615,48.957928,17.481739,9.521817,18.941668,-12.126536
109,-10.104181289672852,33.84206771850586,71.68257904052734,2.109346035374389,7.168053764921236,102.11084133614276,-34.690815,-2.819955,12.426188,52.253048,-25.675804,8.536236,-17.094248,-8.737328,8.437794,85.83802,-2.063721,5.152679,4.2066417,-6.3777986,13.133564,11.276884,19.15741,-25.06559,46.23995,-17.105381,-2.1661208,9.226295,0.54820853,-38.740116,49.234016,19.163376,9.916806,19.292122,-11.535915
110,-10.410330772399902,34.53679275512695,71.62101745605469,2.123063702770599,6.930705215695858,102.68992787728351,-33.974167,-3.3666303,12.005182,52.634415,-26.462597,8.61694,-18.20893,-6.464582,10.302783,88.23096,-3.6582563,6.4208617,3.5013885,-6.4745827,13.2591095,10.030602,19.450188,-25.119606,45.79026,-18.099516,-2.3802953,9.391172,1.2485194,-38.212524,49.525414,20.906809,10.139536,19.625313,-10.857722
111,-10.704087257385254,35.233909606933594,71.56694793701172,2.140589646555071,6.693066858076405,103.32343924578784,-33.225594,-3.943862,11.530703,52.950203,-27.205894,8.695632,-19.197746,-4.2992024,11.908396,90.364685,-5.552493,7.917299,2.7581234,-6.5789104,13.372139,8.774906,19.822512,-25.199127,45.25376,-19.061668,-2.590215,9.489571,1.9535851,-37.664097,49.791073,22.678886,10.219501,19.88908,-10.150043
112,-11.01453685760498,35.96238327026367,71.52528381347656,2.14120409262612,6.4779220325106435,103.96311296128742,-32.443146,-4.5054283,11.0196085,53.180878,-27.906935,8.785414,-20.285685,-2.5442228,13.08521,92.32381,-7.023654,9.155561,2.034115,-6.668781,13.4423485,7.5386167,20.2591,-25.271275,44.647476,-19.792023,-2.7807562,9.520034,2.7041938,-37.102367,49.98863,24.442358,10.18707,20.032518,-9.472019
113,-11.325891494750977,36.700748443603516,71.49808502197266,2.113223672912999,6.2980545807640995,104.60070298346047,-31.64334,-5.0367956,10.467089,53.343178,-28.572603,8.893324,-21.557297,-1.2261593,13.8284,94.12594,-7.8070526,10.155275,1.3375043,-6.7247076,13.452547,6.2882247,20.760569,-25.3717,44.00734,-20.262619,-2.954947,9.468993,3.5194073,-36.533077,50.11763,26.208027,9.992516,20.000088,-8.826009
114,-11.639434814453125,37.459598541259766,71.4931640625,2.0683524073508344,6.143751088539846,105.25659709464885,-30.826897,-5.561776,9.8706665,53.44101,-29.198732,9.013887,-22.937046,-0.21626242,14.260757,95.71846,-8.270239,11.1137295,0.6457073,-6.7572184,13.41913,5.015141,21.3273,-25.510849,43.31941,-20.57135,-3.117064,9.34422,4.383737,-35.960846,50.191284,27.97822,9.641662,19.829432,-8.18617
115,-11.95103931427002,38.21501922607422,71.5050277709961,2.012176768371739,6.0036220046884345,105.92557464255492,-29.971436,-6.0798364,9.244384,53.448692,-29.777899,9.139137,-24.400679,0.4753251,14.428431,97.06356,-8.599965,11.863519,-0.033972092,-6.7784767,13.3637295,3.7816472,21.937653,-25.610222,42.537727,-20.70392,-3.256994,9.179259,5.2755976,-35.393547,50.19909,29.703894,9.255771,19.612566,-7.570454
116,-12.289140701293945,38.97411346435547,71.53362274169922,1.94955459783217,5.865676475177,106.60337250213074,-29.053612,-6.590415,8.600441,53.339863,-30.303137,9.25995,-25.91751,0.833423,14.376584,98.12153,-8.98871,12.240452,-0.6989821,-6.797895,13.30639,2.6438925,22.558582,-25.583643,41.6326,-20.640482,-3.3673532,9.008658,6.1701365,-34.84234,50.1352,31.338436,8.955677,19.444191,-6.9947586
117,-12.63415813446045,39.74760055541992,71.58573913574219,1.882826807850293,5.719274352240813,107.2966266660405,-28.055683,-7.0958023,7.9327,53.10647,-30.781925,9.372523,-27.50473,0.76001835,14.054665,98.889,-9.49377,12.132379,-1.3527378,-6.8074846,13.257238,1.5853852,23.169418,-25.402514,40.62724,-20.251757,-3.4426718,8.831786,7.0709567,-34.31719,50.00596,32.90179,8.758343,19.315754,-6.4365306
118,-12.987274169921875,40.509300231933594,71.65318298339844,1.8087610528582498,5.573610271355253,108.0069376440765,-26.994055,-7.593991,7.233088,52.76569,-31.216131,9.482913,-29.165562,0.28546408,13.478702,99.37983,-10.008739,11.650809,-2.000167,-6.796757,13.202119,0.5686694,23.767813,-25.111197,39.561348,-19.581333,-3.494574,8.636181,7.9933586,-33.823418,49.813816,34.397976,8.60664,19.19069,-5.8966684
119,-13.340520858764648,41.26592254638672,71.73890686035156,1.7266958324578787,5.445737770987707,108.72226380838828,-25.893911,-8.073504,6.508221,52.32515,-31.587833,9.593508,-30.841215,-0.4036801,12.786172,99.57643,-10.48514,10.9741,-2.6392412,-6.7717714,13.125353,-0.3878504,24.349318,-24.736465,38.43653,-18.87236,-3.540584,8.438565,8.926222,-33.366253,49.54664,35.761906,8.507638,19.12248,-5.4227996
120,-13.711094856262207,42.03151321411133,71.84736633300781,1.6389167494050811,5.353038134557832,109.42968628540007,-24.782164,-8.526208,5.766825,51.789566,-31.879759,9.706198,-32.481647,-1.1164607,12.104649,99.46142,-10.866603,10.277417,-3.267677,-6.736889,13.010976,-1.2647898,24.908354,-24.30289,37.251854,-18.367294,-3.59572,8.255787,9.8608055,-32.950348,49.190456,36.92529,8.465175,19.165092,-5.0624824
121,-14.074972152709961,42.80037307739258,71.96810913085938,1.5395076401517578,5.301012129041485,110.13439292618646,-23.66528,-8.947503,4.9974008,51.159477,-32.096638,9.81964,-34.105648,-1.8478062,11.41877,99.03114,-11.151603,9.556712,-3.8869793,-6.6852636,12.856893,-2.068422,25.439701,-23.795591,36.00001,-18.10672,-3.6566346,8.100777,10.800677,-32.579327,48.72564,37.86797,8.495795,19.385057,-4.796223
122,-14.459096908569336,43.57268524169922,72.10662078857422,1.4295047389342599,5.279599974043199,110.84170036907322,-22.529545,-9.336811,4.1954927,50.434566,-32.24775,9.930462,-35.71402,-2.6758204,10.66482,98.29164,-11.3769,8.745697,-4.495072,-6.610274,12.673556,-2.8172204,25.941706,-23.21266,34.695595,-17.969238,-3.7171402,7.9625616,11.757024,-32.25546,48.159103,38.616684,8.591867,19.737701,-4.608808
123,-14.843158721923828,44.34524154663086,72.25944519042969,1.3147249751858734,5.283801567869636,111.53609510895826,-21.376297,-9.69147,3.3847597,49.62831,-32.318645,10.036336,-37.242912,-3.5351527,9.892848,97.23872,-11.531927,7.9205594,-5.083758,-6.5179863,12.462972,-3.5057206,26.414206,-22.595938,33.36517,-17.954203,-3.7857163,7.8227243,12.733258,-31.979876,47.514717,39.175007,8.716377,20.108673,-4.554685
124,-15.238167762756348,45.12685012817383,72.43143463134766,1.2019625730186028,5.308978077244814,112.20151428777051,-20.208149,-10.007856,2.5898683,48.755203,-32.29819,10.136383,-38.63509,-4.363088,9.153166,95.86813,-11.601323,7.1551943,-5.6434617,-6.414984,12.225862,-4.128232,26.858076,-21.988415,32.034782,-18.061937,-3.8711004,7.662828,13.733211,-31.752602,46.81559,39.54798,8.832489,20.383661,-4.687657
125,-15.645994186401367,45.90583801269531,72.61544799804688,1.0889750910762024,5.360582945565659,112.83993905120758,-19.026316,-10.282089,1.8028296,47.802654,-32.199802,10.229223,-39.90305,-5.147654,8.434134,94.1792,-11.5807705,6.452968,-6.1754317,-6.295341,11.956869,-4.6845074,27.27118,-21.38348,30.699076,-18.350822,-3.9797833,7.471628,14.773459,-31.574717,46.04041,39.710835,8.882322,20.5406,-5.0669465
126,-16.06365203857422,46.70390319824219,72.81898498535156,0.9700458453830535,5.439413293106612,113.45649497160083,-17.832224,-10.513849,1.0166682,46.77091,-32.02933,10.314377,-41.06073,-5.9099946,7.701918,92.170586,-11.481935,5.7867217,-6.6800056,-6.1542544,11.65863,-5.182059,27.652065,-20.765123,29.350428,-18.801714,-4.104212,7.261488,15.853413,-31.446291,45.18254,39.663864,8.901959,20.637903,-5.6485996
127,-16.48843002319336,47.50510787963867,73.03781127929688,0.8557834127388657,5.533987690521437,114.04006450363649,-16.628056,-10.707249,0.25934204,45.690777,-31.748709,10.391501,-42.061287,-6.6348205,6.9764047,89.83583,-11.310045,5.183579,-7.1476207,-6.003599,11.342095,-5.6179028,28.004333,-20.157635,28.003618,-19.296867,-4.2325697,7.048883,16.946768,-31.364634,44.287434,39.458233,8.993333,20.679564,-6.3310747
128,-16.932174682617188,48.30782699584961,73.26824951171875,0.7547285541700487,5.632433212082346,114.57924367106914,-15.414891,-10.867993,-0.44052064,44.59188,-31.322775,10.460861,-42.859604,-7.3012652,6.2780113,87.16396,-11.066593,4.6701007,-7.570209,-5.8564463,11.017711,-5.9846087,28.334618,-19.583197,26.66838,-19.720102,-4.3537393,6.849967,18.018345,-31.322966,43.40755,39.15193,9.262254,20.667313,-7.0128536
129,-17.38222312927246,49.121498107910156,73.51342010498047,0.6729910745347762,5.739843633404235,115.06304823054565,-14.1821785,-10.998834,-1.0717311,43.440228,-30.735659,10.522924,-43.46832,-7.941004,5.578713,84.1498,-10.747932,4.202865,-7.9422436,-5.721884,10.678477,-6.2728505,28.646559,-19.037909,25.332481,-20.078999,-4.46231,6.669599,19.058321,-31.316732,42.552532,38.748734,9.791679,20.578064,-7.725185
130,-17.84758949279785,49.94818115234375,73.77188873291016,0.6032042583673578,5.859805656451127,115.49901345199935,-12.935491,-11.097364,-1.6471808,42.235973,-30.009605,10.576941,-43.89857,-8.534865,4.86768,80.79435,-10.354677,3.7944438,-8.270768,-5.593626,10.321124,-6.478829,28.94065,-18.505453,23.984848,-20.423532,-4.56485,6.498347,20.081366,-31.343287,41.6983,38.230553,10.501334,20.41182,-8.500238
131,-18.325031280517578,50.78019332885742,74.04069519042969,0.5388977659222802,5.978508536985757,115.9025134928695,-11.699453,-11.163835,-2.1734793,41.05713,-29.167198,10.62224,-44.110462,-9.001061,4.2024736,77.08463,-9.884897,3.5503616,-8.567273,-5.4632373,9.9616165,-6.5980387,29.219326,-17.98675,22.631704,-20.699423,-4.6685786,6.3313546,21.081787,-31.395773,40.850494,37.628826,11.258138,20.206657,-9.238871
132,-18.81372833251953,51.6230583190918,74.31649780273438,0.4725215493978865,6.082161163845574,116.28948045721692,-10.499327,-11.200255,-2.6564367,39.982307,-28.23097,10.658726,-44.07064,-9.269432,3.6525152,72.99934,-9.3303175,3.5665078,-8.843435,-5.325118,9.615875,-6.6253843,29.486229,-17.482872,21.279436,-20.85156,-4.7813177,6.163561,22.045485,-31.464409,40.016785,36.984596,11.932442,20.00575,-9.844724
133,-19.30927848815918,52.474491119384766,74.59351348876953,0.40309384926157565,6.173459227528141,116.65603393106666,-9.336158,-11.206681,-3.098275,39.005657,-27.187162,10.6862,-43.77127,-9.34935,3.2331529,68.444496,-8.685467,3.798131,-9.099473,-5.179416,9.284398,-6.5529113,29.742395,-16.98667,19.919355,-20.845772,-4.9047847,5.9986715,22.964464,-31.541101,39.194885,36.302128,12.539976,19.826036,-10.297169
134,-19.812480926513672,53.34846878051758,74.87020874023438,0.3368500667209806,6.256705132814192,116.99714480951484,-8.198274,-11.188474,-3.4925542,38.092052,-26.029076,10.706316,-43.225956,-9.282716,2.9244459,63.432156,-7.9384356,4.2066293,-9.331867,-5.034944,8.959756,-6.3795805,29.987839,-16.495783,18.545858,-20.718002,-5.035446,5.8376613,23.843246,-31.621634,38.38038,35.572388,13.127839,19.645432,-10.647105
135,-20.330493927001953,54.22998046875,75.14080810546875,0.28363729395646886,6.3193497428545085,117.32689873202362,-7.08785,-11.15906,-3.8325057,37.2756,-24.789906,10.723252,-42.437176,-9.063167,2.7625015,58.081623,-7.0624366,4.8825946,-9.544966,-4.902261,8.64767,-6.117344,30.226112,-16.022854,17.173986,-20.521,-5.1732388,5.671292,24.66627,-31.703205,37.590736,34.83107,13.631013,19.451778,-10.907859
136,-20.849632263183594,55.12199401855469,75.39910888671875,0.2531476170859631,6.348024440903538,117.6613916868306,-6.002494,-11.132689,-4.113313,36.582623,-23.49663,10.739931,-41.406143,-8.705983,2.7927852,52.49274,-6.025365,5.902188,-9.7702465,-4.7942395,8.347887,-5.7465663,30.465015,-15.551875,15.804292,-20.307589,-5.317029,5.488394,25.619741,-31.766348,36.70513,33.96386,13.80527,19.239468,-11.093145
137,-21.376243591308594,56.022117614746094,75.64707946777344,0.25501435004710415,6.327966885168633,118.00532716010343,-4.900837,-11.121113,-4.328546,35.974403,-22.135687,10.756333,-40.04096,-8.209927,3.0919166,46.41446,-4.774556,7.283775,-9.95928,-4.7235813,8.085323,-5.321506,30.704905,-15.142727,14.448446,-20.066875,-5.455098,5.2857003,26.297014,-31.834332,35.985317,33.28013,13.931991,18.994308,-11.16895
138,-21.915008544921875,56.93877410888672,75.8727798461914,0.29798196031079127,6.25941980400538,118.36216805220337,-3.7756715,-11.136813,-4.4909744,35.430588,-20.686235,10.774366,-38.31984,-7.668523,3.662044,39.76695,-3.3039563,8.933497,-10.177567,-4.701465,7.848101,-4.7629495,30.950256,-14.717131,13.064764,-19.77696,-5.590195,5.06452,27.083164,-31.885405,35.179302,32.47403,13.732515,18.734636,-11.144218
139,-22.46341323852539,57.874542236328125,76.07514953613281,0.40252776435206417,6.14584278999562,118.75027309180712,-2.666432,-11.20748,-4.6271663,34.994724,-19.154928,10.798951,-36.349003,-7.23456,4.4296975,32.904755,-1.6398681,10.779943,-10.406684,-4.747241,7.636531,-4.1301384,31.20342,-14.320594,11.701384,-19.491116,-5.7480226,4.8382883,27.832388,-31.92116,34.386948,31.662828,13.443127,18.459093,-11.093705
140,-23.01885414123535,58.83223342895508,76.25336456298828,0.5957836933666512,5.987651626408942,119.19161891586998,-1.6071177,-11.367987,-4.766151,34.705532,-17.545753,10.834432,-34.248005,-7.0236793,5.299239,26.220901,0.18577497,12.794169,-10.698011,-4.8884425,7.4364877,-3.398752,31.470642,-13.918899,10.368385,-19.257906,-5.951904,4.615212,28.82771,-31.912312,33.450188,30.631893,12.940812,18.178118,-11.092192
141,-23.570173263549805,59.8038330078125,76.39459991455078,0.920831017985245,5.736560008583335,119.7106088821104,-0.50511223,-11.663275,-4.933223,34.493732,-15.832403,10.878129,-31.851162,-7.058345,6.2707586,19.449205,2.39668,15.000033,-10.986489,-5.1825485,7.297378,-2.6722558,31.76226,-13.632126,9.105937,-19.055405,-6.2021136,4.4155574,29.419508,-31.900867,32.751232,29.894053,12.747804,17.859476,-11.141848
142,-24.07792091369629,60.823463439941406,76.49616241455078,1.1395714029358608,5.281522572818855,120.28248827162163,0.66122746,-11.794178,-5.1649623,34.680298,-14.247868,10.837671,-28.616621,-7.0187397,6.7910814,11.716405,5.323682,15.000033,-11.3147745,-5.456288,7.35172,-1.832777,32.095688,-13.353209,7.838923,-18.86939,-6.482238,4.2184234,30.052652,-31.868233,32.044823,29.082151,12.472053,17.520823,-11.215147
143,-24.59028434753418,61.8326530456543,76.5582275390625,1.6197452674985264,4.716691899730849,120.98859479892643,1.901786,-12.226111,-5.4550586,34.883686,-12.4925785,10.829918,-26.385744,-7.233725,7.6160474,6.695195,6.921456,15.000033,-11.747284,-6.021004,7.455951,-0.9167402,32.463413,-13.073572,6.5983477,-18.778868,-6.800616,3.9996438,30.706144,-31.811386,31.355907,28.209188,12.172346,17.192177,-11.333941
144,-25.10883140563965,62.82793426513672,76.61087036132812,2.124436594912045,4.250218079281673,121.68712437234691,2.8476634,-12.699754,-5.691209,35.347176,-10.664684,10.825403,-26.38918,-7.3008194,8.663227,6.5969424,5.9587584,15.000033,-12.156415,-6.543691,7.423997,-0.118548654,32.66417,-12.842246,5.6560917,-18.781229,-7.184825,3.7392564,31.218584,-31.762201,30.809534,27.459446,11.995571,16.896095,-11.54728
145,-25.654014587402344,63.78675079345703,76.66133117675781,2.4830433860035868,4.055684476688403,122.26644633147804,3.2183661,-13.031326,-5.7663007,36.225636,-8.805865,10.8422985,-26.518072,-7.362053,9.640275,6.4948893,4.9905195,15.000033,-12.409296,-6.850751,7.210503,0.69784063,32.862514,-12.609897,4.7621646,-18.979328,-7.645045,3.4074957,31.655634,-31.702362,30.279589,26.706083,11.898048,16.645895,-11.835526
146,-26.22673797607422,64.72927856445312,76.69669342041016,2.7747168109214497,4.03674146541566,122.77695299604704,3.171739,-13.3045225,-5.7157817,37.43483,-6.898982,10.868894,-26.726583,-7.4655046,10.5317955,6.474196,4.038812,15.000033,-12.556974,-7.0486116,6.8800797,1.5379072,33.09107,-12.380783,3.9208882,-19.350578,-8.171392,3.0143552,31.98286,-31.619802,29.784254,25.991877,11.868374,16.422447,-12.177351
147,-26.803272247314453,65.64567565917969,76.71357727050781,2.9559808018753158,4.111351918350201,123.23527559634641,2.833266,-13.459197,-5.5751853,38.946606,-5.0107884,10.807034,-26.82972,-7.5332713,11.082028,6.43115,3.2968118,15.000033,-12.616481,-7.115362,6.5032926,2.3782697,33.29603,-12.173719,3.186724,-19.84224,-8.713234,2.6305435,32.193832,-31.524235,29.372305,25.346823,11.864634,16.221603,-12.535966
148,-27.370019912719727,66.54743957519531,76.69894409179688,3.0424263925272035,4.168571194278298,123.6843940102271,2.3769033,-13.504491,-5.409213,40.701336,-3.1888938,10.572594,-26.677511,-7.55135,11.096527,6.4114733,2.87772,15.000033,-12.598227,-7.106882,6.2095704,3.2445776,33.503323,-11.972196,2.5052152,-20.438137,-9.214323,2.3038855,32.279163,-31.40213,29.023901,24.780716,11.822935,16.04089,-12.839508
149,-27.91944122314453,67.4467544555664,76.65422058105469,3.047801507177886,4.168138758014713,124.14633940730617,1.850337,-13.459056,-5.260018,42.734596,-1.451141,10.148917,-26.151926,-7.5303864,10.255553,6.456489,2.8703566,15.000033,-12.525269,-7.041517,5.997533,4.061442,33.650074,-11.7977,2.0109136,-21.216585,-9.704191,1.9947851,32.272358,-31.276934,28.763739,24.290545,11.768899,15.879565,-13.098109
150,-28.46640396118164,68.34769439697266,76.5789566040039,2.949459578240991,4.178140324757004,124.59057134864496,1.1558539,-13.303333,-5.103221,45.06894,0.22487316,9.58569,-25.344355,-7.4657116,8.746772,6.489277,3.232863,15.000033,-12.373359,-6.86185,5.801149,4.784479,33.71027,-11.681975,1.7464591,-22.148378,-10.202005,1.6899235,32.197918,-31.179167,28.576622,23.844822,11.734146,15.741709,-13.342057
151,-29.0185546875,69.22643280029297,76.48393249511719,2.749847962725239,4.234283096696845,124.99425725501334,0.2790834,-13.03741,-4.913254,47.60419,1.8642668,8.901715,-24.468582,-7.3463955,7.179103,6.516593,3.7925875,15.000033,-12.125095,-6.5552487,5.64312,5.5360017,33.73507,-11.581426,1.4967308,-23.022778,-10.630262,1.4798077,31.969675,-31.05484,28.429268,23.493954,11.639001,15.626465,-13.53934
152,-29.568090438842773,70.06053161621094,76.39625549316406,2.430570525217453,4.3534695692131065,125.34980718943716,-0.780227,-12.644806,-4.681847,50.267323,3.4740407,8.103854,-23.708534,-7.141308,6.1677485,6.541064,4.342676,15.000033,-11.778576,-6.08206,5.4934664,6.1513934,33.71391,-11.615327,1.412339,-23.638678,-10.955392,1.4830576,31.588978,-30.973106,28.367254,23.208971,11.522328,15.53885,-13.702184
153,-30.156400680541992,70.85907745361328,76.29576873779297,1.9948905097817478,4.554851120939503,125.67065256489124,-2.0409617,-12.169477,-4.451024,53.065872,5.187425,7.1320763,-23.12763,-6.8404403,6.0783753,6.5989156,4.965571,15.000033,-11.3292,-5.4234858,5.337247,6.6386943,33.626686,-11.79492,1.4617695,-23.984833,-11.141542,1.7648981,31.00791,-30.865788,28.367935,23.078648,11.302825,15.47514,-13.810799
154,-30.76952362060547,71.62913513183594,76.17585754394531,1.491859707489612,4.806727674296488,125.96936466093756,-3.4670637,-11.666198,-4.2302,56.023335,6.958072,5.9948554,-22.644447,-6.4391575,6.586611,6.7312975,5.7800727,15.000033,-10.782552,-4.647406,5.174726,6.978885,33.468517,-12.127526,1.6917154,-24.153294,-11.229615,2.2656865,30.312235,-30.772682,28.417915,23.019224,11.021172,15.439326,-13.876849
155,-31.354793548583984,72.36666107177734,76.04255676269531,1.0535767795077997,4.961300493456008,126.30563850358291,-4.863182,-11.21657,-3.9824176,59.055267,8.545027,4.827616,-24.40538,-5.738448,7.4771075,11.841735,3.9558115,15.000033,-10.215291,-3.9358485,5.1289907,7.225327,33.280605,-12.559178,2.053629,-24.070972,-11.255657,2.874131,29.536884,-30.72768,28.521965,22.947966,10.755694,15.430855,-13.921449
156,-31.90406036376953,73.12825012207031,75.85420227050781,0.5878097513064051,4.87575816337948,126.69687083397487,-6.0617294,-10.642708,-3.7283235,62.206825,9.602681,3.7174037,-25.56007,-4.9984293,7.69973,16.291704,2.0848758,14.132765,-9.654892,-3.2539682,5.3575277,7.4049954,33.103355,-13.054842,2.5264814,-23.664501,-11.256371,3.4855852,28.692745,-30.750046,28.695576,22.811314,10.591825,15.448306,-13.9670515
157,-32.4048957824707,73.886474609375,75.61393737792969,0.17968991621165542,4.558218882129918,127.15958119406567,-7.066433,-9.94678,-3.3161469,65.4606,10.250539,2.7002814,-26.17775,-4.5232935,7.2195163,20.224005,-0.19979401,12.979081,-9.116915,-2.670159,5.845131,7.506398,32.958344,-13.615673,3.0870001,-22.848904,-11.219751,4.122899,27.777163,-30.844313,28.9344,22.578625,10.493933,15.500666,-13.962045
158,-32.88642883300781,74.60517120361328,75.32440948486328,-0.13337316557524526,4.09616427837788,127.68140299220919,-7.9808426,-9.205005,-2.7374694,68.79163,10.6273155,1.7773772,-26.610628,-4.34731,6.5164104,24.151798,-2.9673738,12.333439,-8.5920725,-2.1909864,6.506828,7.5443125,32.845325,-14.241708,3.7237988,-21.700668,-11.123179,4.828529,26.776777,-31.005875,29.24289,22.275175,10.443162,15.584628,-13.910411
159,-33.378658294677734,75.3263931274414,74.98210906982422,-0.43941244286095676,3.5633515857864455,128.22388203447477,-8.872261,-8.435258,-2.1653354,72.1087,10.52462,1.014779,-26.876978,-4.268205,5.7109394,27.902819,-5.8298554,11.946158,-8.065659,-1.7275445,7.2828817,7.5617933,32.748165,-14.91333,4.4618497,-20.381325,-10.994603,5.531828,25.654707,-31.238535,29.645964,21.968065,10.549844,15.67934,-13.914964
160,-33.892948150634766,76.06150817871094,74.58699798583984,-0.8200447685989474,3.0313300051635355,128.7513099718139,-9.802984,-7.6812773,-1.7739712,75.3076,9.7351885,0.45619643,-26.984526,-4.0720377,4.9284177,31.285328,-8.384329,11.57497,-7.5338416,-1.1918632,8.113225,7.609487,32.640717,-15.603573,5.322943,-19.046038,-10.867915,6.1618004,24.373419,-31.551037,30.17212,21.718502,10.924808,15.76286,-14.079432
161,-34.404727935791016,76.7998046875,74.18474578857422,-1.3576415903172614,2.428995999938578,129.2665099795872,-10.680026,-6.8743324,-1.6409763,78.449326,7.894105,0.14992765,-26.89153,-3.6367998,4.154421,34.38146,-10.597593,11.174192,-7.006988,-0.48632744,9.097998,7.7011957,32.49925,-16.266064,6.285732,-17.593954,-10.794289,6.678235,22.950323,-31.94734,30.781933,21.427359,11.598034,15.807657,-14.423545
162,-34.87957000732422,77.50595092773438,73.79778289794922,-2.0153164266238215,1.7608443104559106,129.77787394947464,-11.514008,-5.9972477,-1.6558394,81.56424,5.2051044,0.043894358,-26.631413,-3.1276014,3.358457,37.319347,-12.696157,10.846101,-6.4969783,0.36256358,10.219161,7.806048,32.318607,-16.921085,7.3568945,-15.976488,-10.7422905,7.1251035,21.38933,-32.42546,31.47858,21.083181,12.50611,15.828031,-14.895851
163,-35.33164596557617,78.18753814697266,73.43177032470703,-2.6809813965258815,1.2067802580240803,130.25748371479597,-12.528133,-5.196562,-1.7168491,84.50177,2.3174307,0.022733836,-26.32541,-2.697051,2.6262598,39.94489,-14.645821,10.589139,-5.9920616,1.2381561,11.243445,7.9115067,32.10402,-17.644697,8.5951395,-14.431524,-10.628589,7.556027,19.582304,-32.985638,32.3835,20.91569,13.660162,15.86034,-15.494049
164,-35.767330169677734,78.82598876953125,73.09783935546875,-3.2343053706818314,0.9432425178354077,130.67269644111204,-13.9535,-4.6194186,-1.7299378,87.113815,-0.115557455,-0.025089495,-26.10852,-2.4315488,2.0061755,42.080017,-16.39589,10.420283,-5.4706044,2.0084918,11.944041,8.024943,31.863985,-18.499296,10.045382,-13.203272,-10.370297,8.019852,17.478403,-33.619823,33.602383,21.108711,15.041135,15.940283,-16.21807
165,-36.232547760009766,79.4390869140625,72.81144714355469,-3.6343616183255243,1.134737144133002,130.9952078209116,-16.051737,-4.376061,-1.7181833,89.412994,-1.9343281,-0.08300363,-26.144371,-2.3032053,1.4741535,43.605927,-17.885462,10.385311,-4.8884478,2.63144,12.157467,8.127449,31.597027,-19.527376,11.784946,-12.369314,-9.98648,8.508797,14.978761,-34.327106,35.295563,21.775076,16.99747,16.030725,-17.265045
166,-36.769081115722656,80.06205749511719,72.57713317871094,-3.9451855632298263,1.645617129598338,131.2402355262516,-18.645868,-4.3634353,-1.7221379,91.46477,-3.475199,-0.11081886,-26.341692,-2.2257884,0.9820924,44.651196,-19.157694,10.468665,-4.2575216,3.1705172,12.051491,8.247722,31.293053,-20.663763,13.7387495,-11.800742,-9.511903,9.000777,12.141635,-35.081566,37.38361,22.740763,19.43246,16.093693,-18.573936
167,-37.35126495361328,80.69951629638672,72.37274932861328,-4.20251909748856,2.2002426337329304,131.44157897913053,-21.311525,-4.3977413,-1.6753564,93.19762,-4.826551,-0.17713103,-26.447401,-2.175585,0.5287176,45.385532,-20.307432,10.59991,-3.617003,3.6454096,11.894178,8.43195,30.955488,-21.842865,15.754401,-11.433953,-8.888246,9.524067,9.173355,-35.8294,39.586178,23.786337,21.644243,16.20349,-19.75911
168,-37.96152877807617,81.37189483642578,72.21844482421875,-4.442344583669337,2.5242213749153835,131.6369215351515,-23.6246,-4.28681,-1.5127981,94.54222,-6.0783734,-0.34158605,-26.200268,-2.1305583,0.115940146,45.971687,-21.42318,10.70963,-2.9983702,4.077684,11.941008,8.692148,30.605946,-23.03606,17.71758,-11.208842,-8.05724,10.110685,6.2718573,-36.51805,41.60865,24.760954,22.92163,16.48816,-20.436165
169,-38.56926345825195,82.04444885253906,72.09297943115234,-4.666636219945377,2.5088510445969443,131.84094680114953,-25.437716,-4.0060983,-1.2248507,95.467415,-7.2260118,-0.7082809,-25.457794,-2.0938675,-0.255323,46.41555,-22.536695,10.790728,-2.3930864,4.454446,12.286323,8.974654,30.269918,-24.32579,19.763266,-11.24088,-6.8828096,10.807808,3.4077175,-37.123703,43.514954,25.831335,23.032545,17.074484,-20.463188
170,-39.16212463378906,82.71172332763672,71.99829864501953,-4.8596989267808155,2.3107516887418913,132.0342291380429,-26.989866,-3.634596,-0.8389502,96.01396,-8.22476,-1.2067531,-24.37808,-2.063806,-0.58944935,46.638817,-23.596632,10.868172,-1.7710743,4.7596498,12.776993,9.265597,29.961494,-25.733501,21.93198,-11.534725,-5.444378,11.60055,0.50718623,-37.638775,45.408855,27.064661,22.343884,17.885138,-20.040125
171,-39.75757598876953,83.3816146850586,71.94718933105469,-5.0310614869825026,2.05508072913796,132.20410930785698,-28.43402,-3.140425,-0.3532287,96.22119,-9.107333,-1.638766,-23.146408,-2.018002,-0.8854356,46.675358,-24.561052,10.930388,-1.1388515,5.011606,13.286919,9.635034,29.690916,-27.143435,23.973024,-11.861969,-4.000067,12.421502,-2.3086524,-38.056232,47.05727,28.211542,21.034632,18.75187,-19.290369
172,-40.35578155517578,84.0302734375,71.93711853027344,-5.189626673099202,1.8670883210021099,132.3368285061312,-29.918966,-2.4983275,0.2289899,96.126526,-9.908035,-1.8134087,-21.94912,-1.9475739,-1.1336857,46.561134,-25.388573,10.974872,-0.4955235,5.2277546,13.690292,10.146179,29.467688,-28.44772,25.628027,-11.991676,-2.8005545,13.190512,-4.9162374,-38.38467,48.205166,29.025112,19.286057,19.50498,-18.345879
173,-40.961177825927734,84.65953826904297,71.95182800292969,-5.331546064859619,1.7516391021756732,132.41896781531594,-31.469952,-1.6808058,0.9402785,95.734116,-10.664649,-1.6659253,-20.809046,-1.8587669,-1.3056823,46.31214,-26.076874,11.0069,0.15953323,5.4043226,13.980179,10.8228655,29.300789,-29.658876,26.829693,-11.814165,-1.8264161,13.9582615,-7.3287625,-38.644005,48.76744,29.503738,16.661242,20.12312,-16.915743
174,-41.5832633972168,85.29027557373047,71.99285888671875,-5.4518216406316915,1.6502197739925744,132.459611828401,-32.995277,-0.7219825,1.7756046,95.02158,-11.356139,-1.3189925,-19.63489,-1.7707099,-1.4012156,45.911503,-26.646935,11.038691,0.82659596,5.533023,14.213076,11.635994,29.196093,-30.822443,27.70477,-11.47509,-0.96548104,14.734295,-9.598276,-38.85749,48.886,29.781204,13.202942,20.605722,-15.013853
175,-42.223106384277344,85.90281677246094,72.04670715332031,-5.556574435246822,1.5931107715325783,132.47720343351645,-34.467804,0.30836263,2.6743367,93.98599,-11.932775,-0.8653802,-18.445509,-1.6961856,-1.4529902,45.346752,-27.090996,11.081113,1.4974644,5.6240273,14.3642435,12.581204,29.152342,-31.867588,28.266304,-11.108604,-0.32641268,15.370551,-11.672936,-39.043175,48.644573,29.80564,9.852257,20.900995,-13.276639
176,-42.8811149597168,86.51521301269531,72.13032531738281,-5.652530014816674,1.611682210099184,132.4909814327858,-35.86617,1.3424611,3.579389,92.6246,-12.341964,-0.39251313,-17.259954,-1.6412644,-1.4985714,44.606567,-27.402452,11.138862,2.1652355,5.6832213,14.412074,13.654463,29.16744,-32.72172,28.52375,-10.84084,-0.023015851,15.723672,-13.509892,-39.213627,48.124763,29.521887,7.5680575,21.079414,-12.355606
177,-43.56383514404297,87.13443756103516,72.24610900878906,-5.729920972373593,1.7333072551702704,132.48126706359082,-37.219955,2.373136,4.5224943,90.92366,-12.573132,0.065808564,-16.112345,-1.6117316,-1.5276357,43.684383,-27.594528,11.210869,2.8276796,5.6968946,14.338114,14.926331,29.238703,-33.2942,28.371641,-10.670417,-0.20891842,15.686401,-15.087418,-39.368046,47.21037,28.856722,6.6002645,21.261562,-12.472839
178,-44.258056640625,87.74455261230469,72.390869140625,-5.786480962637045,1.935165815749375,132.4460793866979,-38.516026,3.4162407,5.5419464,88.88525,-12.663712,0.5489099,-14.9851,-1.6047214,-1.527699,42.591156,-27.668306,11.297706,3.479361,5.661534,14.162735,16.391169,29.367472,-33.638306,27.82135,-10.534865,-0.7831763,15.356445,-16.459358,-39.50889,45.914257,27.867891,6.4594097,21.439817,-13.285629
179,-44.95993423461914,88.35216522216797,72.55866241455078,-5.839951497539973,2.173640082342483,132.4326933221817,-39.67395,4.4353223,6.5895634,86.521736,-12.626675,1.0815227,-13.811188,-1.6081104,-1.5352857,41.324463,-27.588558,11.399618,4.1068816,5.59667,13.921419,17.932312,29.555336,-33.89184,27.059113,-10.464515,-1.4797636,14.900067,-17.686728,-39.65008,44.50895,26.687365,6.98924,21.53138,-14.592892
180,-45.69136428833008,88.97160339355469,72.7540283203125,-5.908793041445528,2.4055928590084985,132.48862471695298,-40.620903,5.3912535,7.6162925,83.84569,-12.476645,1.6884252,-12.524483,-1.608201,-1.5858204,39.884766,-27.322256,11.51443,4.6905146,5.5241485,13.650277,19.435532,29.799082,-34.180775,26.273205,-10.481986,-2.032443,14.483861,-18.824797,-39.811176,43.274715,25.438274,8.031275,21.44202,-16.18801
181,-46.432273864746094,89.59191131591797,72.9732666015625,-5.997686546305322,2.653894975682275,132.62496664247573,-41.389412,6.2919407,8.646059,80.83487,-12.178218,2.4094265,-11.115211,-1.6038468,-1.691885,38.20541,-26.855856,11.647771,5.2231803,5.4472947,13.326627,20.882061,30.095066,-34.519264,25.46601,-10.585625,-2.421724,14.090281,-19.869795,-40.007908,42.247734,24.093542,10.012096,21.096804,-18.32569
182,-47.197261810302734,90.2267837524414,73.21990966796875,-6.093816662586385,2.9313980533109714,132.8179699014829,-41.996746,7.118651,9.720829,77.48293,-11.750581,3.2029307,-9.614492,-1.6015102,-1.8324717,36.30663,-26.208418,11.794532,5.7043753,5.3564386,12.942124,22.33954,30.434519,-34.834023,24.548365,-10.76443,-2.770727,13.648976,-20.768917,-40.24728,41.286366,22.577578,12.830772,20.465824,-20.989868
183,-47.989952087402344,90.87566375732422,73.48796844482422,-6.190761770887911,3.180616747860207,133.06344665934418,-42.361393,7.799828,10.804161,73.825905,-11.277542,3.9763665,-8.01707,-1.5978283,-1.9943368,34.31771,-25.395311,11.9378395,6.1332417,5.2568746,12.557159,23.80658,30.804575,-35.12277,23.585722,-11.018234,-3.0311916,13.250585,-21.533123,-40.536312,40.414543,20.961256,15.55255,19.604986,-23.563326
184,-48.80128860473633,91.53260040283203,73.76512145996094,-6.285041320626565,3.3440440693012397,133.35746143750606,-42.409527,8.275541,11.8392,69.89235,-10.835092,4.6428075,-6.320384,-1.585695,-2.1653807,32.3717,-24.432955,12.063469,6.505838,5.155852,12.22864,25.283888,31.185518,-35.378307,22.649107,-11.34122,-3.154045,12.9880495,-22.145803,-40.872646,39.639202,19.292034,17.258976,18.694296,-25.470425
185,-49.63264846801758,92.20045471191406,74.04407501220703,-6.372286188381192,3.409162441734694,133.70965794141455,-42.11837,8.515376,12.7894535,65.58379,-10.419058,5.255661,-4.497673,-1.5692643,-2.3456132,30.453585,-23.311209,12.171601,6.8187447,5.051216,11.97384,26.739117,31.567778,-35.65213,21.774014,-11.727039,-3.0843742,12.943791,-22.652384,-41.253143,38.98817,17.598112,17.818584,17.775913,-26.620392
186,-50.490211486816406,92.87669372558594,74.31903839111328,-6.458051701856661,3.406540049358086,134.11978206278502,-41.537373,8.547194,13.677378,60.904343,-9.988102,5.8317456,-2.5601711,-1.546515,-2.542232,28.509043,-22.02647,12.270597,7.072407,4.9442596,11.758664,28.177895,31.946207,-35.92634,20.935802,-12.174032,-2.8662548,13.054249,-23.011597,-41.67794,38.427277,15.8229265,17.686129,16.8231,-27.325605
187,-51.379249572753906,93.55958557128906,74.58789825439453,-6.557015639341594,3.3420134640331356,134.5685054294687,-40.70634,8.423895,14.517768,56.02935,-9.54522,6.2455745,-0.5608786,-1.4989878,-2.754787,26.611282,-20.604248,12.358371,7.2893677,4.8563423,11.575628,29.627737,32.31085,-36.108147,20.121912,-12.686059,-2.5997376,13.1939535,-23.234476,-42.143837,37.93753,14.007065,16.945272,15.967084,-27.655401
188,-52.292789459228516,94.25508117675781,74.84375,-6.685507132314878,3.22026121673454,135.03595467520358,-39.662952,8.2083,15.322474,51.120483,-9.082383,6.3798847,1.4476709,-1.4086674,-2.9823854,24.83775,-19.071692,12.431009,7.483756,4.8072486,11.413567,31.125458,32.64661,-36.09766,19.319382,-13.26471,-2.3833437,13.235147,-23.300083,-42.644207,37.49092,12.167682,15.654242,15.326766,-27.671803
189,-53.236263275146484,94.94715118408203,75.08059692382812,-6.855805307249249,2.9995344518386244,135.5337424840968,-38.30594,7.8761973,16.062593,45.987144,-8.543422,6.118732,3.5904117,-1.254504,-3.2352471,23.05281,-17.374601,12.503057,7.647814,4.81204,11.302908,32.716248,32.941494,-35.844994,18.526735,-13.901188,-2.217219,13.122023,-23.224527,-43.175705,37.100365,10.301705,13.463406,15.031058,-27.229738
190,-54.195701599121094,95.64672088623047,75.29876708984375,-7.067193116010579,2.6871812798590384,136.06459841609956,-36.63978,7.434022,16.714243,40.562897,-7.9118056,5.5753813,5.855834,-1.0404205,-3.5029671,21.264269,-15.516181,12.566118,7.7729683,4.8665195,11.241289,34.36533,33.19048,-35.406788,17.758501,-14.600489,-2.0560853,12.930631,-23.009018,-43.737206,36.776085,8.401402,10.460207,14.943708,-26.346987
191,-55.17143630981445,96.34983825683594,75.49148559570312,-7.31941122534094,2.361484720844802,136.59750881462548,-34.87147,6.9897714,17.305014,35.22994,-7.24774,4.964298,7.995123,-0.78373855,-3.7583084,19.755526,-13.609616,12.577703,7.8838153,4.967502,11.170805,36.001514,33.386364,-34.84576,17.010996,-15.3619175,-1.9289746,12.73014,-22.65242,-44.323956,36.49623,6.515559,7.3857446,14.805061,-25.331598
192,-56.169647216796875,97.05254364013672,75.66111755371094,-7.606896691165843,2.1017081713526835,137.1010013848392,-33.21944,6.636707,17.881609,30.398083,-6.622883,4.479742,9.746956,-0.508922,-3.9826179,18.824883,-11.7673,12.497531,8.00742,5.108882,11.033219,37.532383,33.5237,-34.23825,16.297169,-16.193428,-1.86686,12.588684,-22.181376,-44.926888,36.247856,4.7162843,5.0040493,14.408155,-24.51325
193,-57.1807975769043,97.74813842773438,75.80921936035156,-7.936065029981921,1.9217268821296785,137.5763305560597,-31.701311,6.385404,18.472736,26.065628,-6.0247436,4.0669703,11.1181965,-0.20262383,-4.222252,18.441233,-9.97243,12.344647,8.14329,5.2948318,10.8047085,38.97134,33.598587,-33.582775,15.617337,-17.14986,-1.8966527,12.529629,-21.597826,-45.546597,36.062233,3.0084138,3.4724495,13.696451,-23.947357
194,-58.18722152709961,98.42725372314453,75.93360900878906,-8.311814462410096,1.778977723950075,138.03341689552943,-30.220768,6.1968555,19.058619,22.052244,-5.4248233,3.645275,12.230093,0.15153828,-4.476571,18.464767,-8.166484,12.141631,8.283874,5.5333257,10.5201435,40.335136,33.606728,-32.85974,14.98065,-18.214813,-1.9972563,12.512992,-20.908167,-46.182377,35.93934,1.3771921,2.4090226,12.800573,-23.474733
195,-59.185028076171875,99.0799331665039,76.0372314453125,-8.707390947974389,1.6766806251769137,138.46110078295737,-28.858658,6.0725355,19.626612,18.571148,-4.91452,3.3609977,12.97918,0.5091033,-4.674259,19.043028,-6.4046965,11.861263,8.435176,5.7994537,10.196117,41.56489,33.53999,-32.10773,14.403112,-19.268412,-2.1281579,12.512627,-20.098711,-46.817513,35.800686,-0.1639035,1.7408792,11.830908,-23.102762
196,-60.18482971191406,99.70982360839844,76.117919921875,-9.074644279582156,1.6280105016942523,138.85485762390067,-27.7169,6.0009947,20.170069,15.880884,-4.609101,3.367934,13.244724,0.79648983,-4.754332,20.346485,-4.7536592,11.478291,8.595491,6.0442047,9.841865,42.590736,33.389896,-31.371714,13.914477,-20.194117,-2.248906,12.50417,-19.147247,-47.42653,35.56465,-1.6028501,1.3843963,10.895642,-22.835192
197,-61.18449020385742,100.32352447509766,76.17913818359375,-9.377156160325569,1.6793591912698511,139.2150016458141,-26.868551,6.0209317,20.785124,14.153832,-4.682905,3.840295,12.890777,0.9618907,-4.720591,22.543211,-3.2122498,10.931111,8.759061,6.2272525,9.40918,43.40121,33.147343,-30.653313,13.530278,-20.9631,-2.348118,12.486135,-18.063114,-47.990955,35.23398,-2.912164,1.4597721,9.952414,-22.68896
198,-62.19162368774414,100.91802215576172,76.21974182128906,-9.595229858529024,1.8297031958742533,139.54295684956938,-26.269407,6.0931315,21.470287,13.251061,-5.080539,4.6587954,12.020069,1.0095795,-4.6122446,25.442455,-1.7100333,10.290024,8.919655,6.3237267,8.894528,44.021767,32.80898,-29.936754,13.250612,-21.63409,-2.4484634,12.469307,-16.857706,-48.500916,34.85505,-4.0945554,1.9435563,8.971966,-22.638643
199,-63.19772720336914,101.51134490966797,76.23501586914062,-9.710669987969574,2.020452443672259,139.84317322286097,-25.85353,6.118221,22.054638,13.002489,-5.5764914,5.571408,10.866659,0.95030135,-4.418494,28.698807,-0.23161672,9.709593,9.068868,6.3144937,8.378679,44.42511,32.382755,-29.24536,13.088467,-22.229471,-2.5597425,12.448741,-15.5902405,-48.94055,34.447124,-5.125582,2.5698595,8.078683,-22.630571
200,-64.20307922363281,102.10556030273438,76.22327423095703,-9.723643602565291,2.187500359312724,140.12541445167278,-25.564913,6.0244913,22.35549,13.270547,-5.9238873,6.34889,9.644024,0.80684936,-4.1244016,32.03808,1.1983777,9.320451,9.191339,6.1980824,7.942326,44.59832,31.883461,-28.595613,13.048303,-22.77085,-2.6913366,12.420304,-14.260911,-49.29203,34.00334,-6.022111,3.0483785,7.397271,-22.62199
201,-65.18619537353516,102.66939544677734,76.20539093017578,-9.646134238060094,2.3204083389262866,140.3638857192745,-25.385633,5.789699,22.242226,14.0696745,-5.832108,6.7742653,8.343568,0.6005527,-3.6653693,35.498756,2.597297,9.199821,9.313316,5.9850154,7.5913544,44.54511,31.31549,-27.982374,13.128267,-23.235373,-2.8412879,12.379165,-12.844369,-49.531677,33.491867,-6.7848306,3.3308654,6.9625564,-22.62982
202,-66.15229034423828,103.22337341308594,76.16356658935547,-9.49841924859451,2.4406997463960507,140.56267284426795,-25.343363,5.487063,21.83031,15.464159,-5.490397,7.034628,6.885296,0.35908592,-3.043529,39.199852,3.955939,9.253063,9.427225,5.6944165,7.28971,44.290558,30.681608,-27.388403,13.316457,-23.622046,-3.0053403,12.329315,-11.363413,-49.647606,32.949623,-7.392485,3.5495086,6.7065597,-22.667446
203,-67.11626434326172,103.80888366699219,76.06420135498047,-9.301017018732571,2.5298849626635564,140.77726330816333,-25.442616,5.1723027,21.30814,17.360117,-5.330398,7.502813,5.3717895,0.10393993,-2.360399,43.005787,5.203534,9.327054,9.473972,5.3485465,7.058138,43.852634,30.003653,-26.812273,13.59637,-23.987812,-3.1890848,12.279568,-9.950413,-49.648373,32.494034,-7.787306,3.7185934,6.600467,-22.693085
204,-68.0787124633789,104.39868927001953,75.9158706665039,-9.071323822250799,2.56964847586561,141.06016786464585,-25.690866,4.906029,20.865213,19.67034,-5.778357,8.567163,3.899218,-0.15765224,-1.7231263,46.7922,6.26503,9.269377,9.398941,4.9672294,6.9144993,43.257446,29.31389,-26.25047,13.938417,-24.39213,-3.397519,12.2375,-8.702353,-49.55519,32.222374,-7.9372196,3.8453856,6.61571,-22.667845
205,-69.0265121459961,104.98582458496094,75.7369613647461,-8.826032177669672,2.5679149508332992,141.40939517527713,-26.21783,4.7035375,20.498816,22.581228,-7.0037365,10.661315,2.4482477,-0.37124223,-1.0758808,50.570587,7.2775536,9.028841,9.198132,4.5642133,6.8311214,42.54085,28.628815,-25.680923,14.314244,-24.844719,-3.63253,12.167624,-7.5664644,-49.380634,32.119995,-7.8722672,3.8638928,6.767784,-22.571829
206,-69.96205139160156,105.56208038330078,75.52871704101562,-8.585139433380578,2.5155213285906948,141.79061713118207,-26.9427,4.4801083,20.10774,25.950367,-8.609618,13.450384,0.99810594,-0.52000695,-0.39700904,54.391384,8.232603,8.676641,8.920333,4.1604114,6.814125,41.69907,27.955835,-25.105804,14.7173395,-25.32016,-3.8896,12.078097,-6.549812,-49.128693,32.15869,-7.576662,3.8178923,7.064069,-22.430063
207,-70.86666107177734,106.14630889892578,75.2865219116211,-8.483892470371917,2.3238129059972654,142.12112704588546,-27.645123,4.504298,19.607885,29.599754,-10.434317,15.000033,-0.32401943,-0.5478969,0.15810598,58.136456,8.889574,8.153586,8.66585,3.8843625,6.9378023,40.706203,27.313007,-24.551163,15.152514,-25.829636,-4.1651497,12.040433,-5.6278815,-48.80719,32.324646,-7.0995126,3.784979,7.464516,-22.278605
208,-71.72877502441406,106.74366760253906,75.0005111694336,-8.447312899437268,1.9889929199788383,142.44889821835065,-28.04677,4.6391687,19.081762,33.008564,-12.249486,15.000033,-1.5066984,-0.6885148,0.41816452,61.849102,8.891279,7.4675145,8.41548,3.6651595,7.2507834,39.533314,26.727211,-24.050917,15.616199,-26.385582,-4.4567065,12.12642,-4.851041,-48.428333,32.626926,-6.433913,3.8848717,7.929371,-22.15384
209,-72.56394958496094,107.3279037475586,74.65821075439453,-8.211171700703687,1.5345782466269953,142.92611454892483,-28.028252,4.458475,18.794323,35.901527,-14.068021,15.000033,-2.57681,-1.410846,0.27349114,65.7888,7.7817674,6.695151,8.027865,3.2392044,7.7897644,38.217606,26.21304,-23.570705,16.024836,-27.039865,-4.7789927,12.360626,-4.190084,-48.00754,33.033947,-5.632867,4.107631,8.471605,-22.054338
210,-73.37549591064453,107.88725280761719,74.27400970458984,-7.824482004289687,0.9827396298619794,143.51538678966608,-27.783052,4.087873,18.675287,38.638023,-16.076363,15.000033,-3.5660567,-2.6047206,-0.10939353,69.921425,5.8067427,5.8108954,7.545744,2.643407,8.506841,36.75883,25.776794,-23.11509,16.390413,-27.77551,-5.131167,12.701008,-3.6284559,-47.551605,33.53139,-4.685063,4.423578,9.104566,-21.969059
211,-74.17446899414062,108.42431640625,73.88317108154297,-7.325470010748777,0.4733180873036678,144.22041616645706,-27.459728,3.5059803,18.598827,41.12403,-18.062077,15.000033,-4.6297255,-4.048936,-0.49309188,74.06409,3.4945095,4.8526487,6.9706326,1.9185183,9.257817,35.09738,25.430231,-22.767252,16.84041,-28.502169,-5.4869432,13.122532,-3.1006527,-47.05588,34.106,-3.5777824,4.851791,9.7898245,-21.92203
212,-74.97628784179688,108.9787826538086,73.50755310058594,-6.751997761357384,0.14173540191910686,145.04143175658186,-27.186317,2.676335,18.439276,43.20652,-19.76468,15.000033,-5.9409814,-5.483353,-0.67346334,78.03843,1.3870847,3.854748,6.307727,1.111427,9.899218,33.17586,25.18809,-22.611624,17.49932,-29.133198,-5.8189964,13.60285,-2.5396852,-46.508465,34.74051,-2.2932236,5.4102273,10.488373,-21.935375
213,-75.78543090820312,109.54716491699219,73.15138244628906,-6.033939338372339,0.03509340480964824,146.0344515928997,-26.976883,1.4792225,18.180996,44.754223,-21.062777,15.000033,-7.5744205,-6.9468675,-0.6415847,81.888054,-0.45775092,2.802193,5.517156,0.14717722,10.413713,30.91515,25.06278,-22.693,18.432089,-29.737406,-6.1706843,14.169987,-1.9084877,-45.898724,35.3996,-0.86142707,6.092498,11.227627,-22.045397
214,-76.57382202148438,110.0881576538086,72.81150817871094,-5.176349349902731,0.06784675337921134,147.18285702837582,-26.763618,0.0066886772,17.870268,45.90171,-22.123833,15.000033,-9.436364,-8.506914,-0.47252798,85.674034,-2.2953072,1.6977234,4.6244807,-0.9743339,10.853992,28.372475,25.051056,-22.967497,19.54037,-30.340715,-6.5423326,14.827646,-1.2040194,-45.22431,36.06207,0.7005492,6.8799815,12.012661,-22.233196
215,-77.35227966308594,110.60966491699219,72.49776458740234,-4.329598372904692,0.18036411677422096,148.3770592504621,-26.54333,-1.4872215,17.487082,46.844723,-23.087166,15.000033,-11.463638,-9.923855,-0.14081618,89.24926,-4.0356903,0.58741343,3.7241938,-2.0820837,11.195618,25.69124,25.138083,-23.388033,20.707066,-30.791134,-6.835966,15.519201,-0.4816837,-44.48704,36.769917,2.4805443,7.805978,12.772341,-22.437614
216,-78.12332916259766,111.11280059814453,72.20056915283203,-3.645189491677736,0.32182100409737363,149.5060945015987,-26.324032,-2.7678142,17.0275,47.770023,-24.08941,15.000033,-13.592906,-10.960075,0.35339677,92.46874,-5.58445,-0.48324338,2.9022079,-3.001053,11.429492,23.0059,25.305023,-23.91037,21.831854,-30.933014,-6.9475236,16.189766,0.14131913,-43.694225,37.60827,4.6127563,8.93384,13.43781,-22.595497
217,-78.90300750732422,111.61823272705078,71.92292022705078,-3.1756390239844876,0.5527958038720407,150.5434459415876,-26.189137,-3.7720985,16.49592,48.726498,-25.16771,15.000033,-15.923864,-11.504701,1.0080898,95.35906,-6.8871,-1.5693125,2.140248,-3.659872,11.497754,20.24812,25.544926,-24.615849,23.063255,-30.59358,-6.7467136,16.87157,0.7422243,-42.841057,38.611134,7.1478753,10.268339,13.966439,-22.753546
218,-79.70863342285156,112.14094543457031,71.67942810058594,-2.8337238613555447,0.8803833119697277,151.54720560211265,-26.1068,-4.6422014,15.9104395,49.6022,-26.246569,15.000033,-18.449997,-11.672109,1.7816815,97.9805,-7.984288,-2.6669052,1.3887366,-4.151694,11.433037,17.376326,25.842772,-25.508923,24.39997,-29.90818,-6.3088465,17.574585,1.385784,-41.923,39.725857,10.000109,11.75641,14.4032135,-22.925932
219,-80.55791473388672,112.67155456542969,71.47199249267578,-2.5663247255235033,1.1786839466402441,152.53123019392876,-25.910582,-5.4524827,15.286859,50.338,-27.291784,15.000033,-20.942835,-11.58193,2.6000066,100.238625,-8.92323,-3.6446006,0.67320687,-4.5487986,11.362549,14.567958,26.16444,-26.41567,25.544909,-29.170046,-5.8444715,18.209002,1.985735,-40.95745,40.915134,13.05425,13.35151,14.816124,-23.00291
220,-81.44861602783203,113.1875,71.31344604492188,-2.3246827545347526,1.3199154691242474,153.50843499853096,-25.430506,-6.264914,14.628106,50.87808,-28.26821,15.000033,-23.17577,-11.366485,3.4121451,102.03613,-9.757142,-4.361076,-0.009351524,-4.9195323,11.402746,12.0234165,26.471014,-27.124142,26.210073,-28.653263,-5.575998,18.688902,2.622442,-39.963913,42.077785,16.066273,14.888401,15.278786,-22.883326
221,-82.34766387939453,113.675537109375,71.18560028076172,-2.1168902183824323,1.2303882549437288,154.47818504358713,-24.557674,-7.064755,13.909738,51.215897,-29.19153,15.000033,-25.062977,-10.986358,4.244312,103.34105,-10.484548,-4.782774,-0.64219046,-5.251202,11.62973,9.762645,26.746151,-27.605236,26.352076,-28.384693,-5.57691,19.04466,3.2588708,-38.959457,43.272953,19.152939,16.586637,15.82894,-22.576542
222,-83.24142456054688,114.13790893554688,71.10111999511719,-1.9676944338292701,0.9923282638011426,155.43375026903908,-23.390505,-7.8121743,13.120274,51.378593,-30.071724,15.000033,-26.726753,-10.412214,5.089647,104.210495,-11.0774145,-4.9909654,-1.2441291,-5.512619,11.964279,7.6804457,26.992014,-27.953386,26.151037,-28.215797,-5.7316217,19.304752,3.8954022,-37.955162,44.536156,22.36794,18.437723,16.433083,-22.134666
223,-84.1501693725586,114.5919189453125,71.06114196777344,-1.853156602631474,0.7114258134567623,156.37986205026152,-22.067589,-8.519619,12.274828,51.361286,-30.862898,15.000033,-28.261126,-9.811987,5.864296,104.674995,-11.552891,-5.0245466,-1.8452991,-5.7394915,12.295645,5.7599573,27.212563,-28.160929,25.664461,-28.154701,-5.9826407,19.391367,4.5819435,-36.966583,45.74329,25.417212,19.993671,17.060705,-21.508938
224,-85.08336639404297,115.04398345947266,71.06346893310547,-1.7468202459250695,0.49384293827883,157.3209945593419,-20.73231,-9.208738,11.393854,51.15949,-31.518877,15.000033,-29.767246,-9.352736,6.488669,104.76375,-11.928964,-4.924208,-2.4675913,-5.962383,12.51811,3.9804277,27.41691,-28.224863,24.945242,-28.211723,-6.273159,19.22455,5.3682127,-36.016277,46.75517,27.991976,20.804276,17.673653,-20.635473
225,-86.02449035644531,115.49091339111328,71.10234832763672,-1.6359898085051725,0.33922768981624446,158.26525867168206,-19.373627,-9.893531,10.466702,50.750065,-32.04109,15.000033,-31.245214,-9.0634365,6.9524713,104.45941,-12.208604,-4.5793724,-3.1041496,-6.1869426,12.643778,2.3227246,27.61799,-28.122515,23.93654,-28.520351,-6.621831,18.706625,6.2971992,-35.119804,47.491096,29.992617,20.581825,18.342257,-19.217794
226,-86.9646224975586,115.92639923095703,71.17398834228516,-1.53587762423584,0.20190781717157755,159.20839194912284,-17.930656,-10.553282,9.478311,50.14286,-32.447285,15.000033,-32.6516,-8.873349,7.298737,103.75101,-12.387683,-4.01021,-3.7297368,-6.3920603,12.72506,0.78901464,27.825804,-27.879932,22.631233,-29.04079,-7.0426097,17.90417,7.354567,-34.288113,48.013435,31.548717,19.604218,19.03067,-17.353888
227,-87.91297912597656,116.35384368896484,71.27706909179688,-1.4602176020576445,0.12015504856637772,160.13750291597654,-16.476864,-11.153275,8.451779,49.396255,-32.728695,15.000033,-34.024357,-8.793113,7.5187736,102.67267,-12.463116,-3.4632342,-4.34118,-6.5626173,12.719911,-0.6066573,28.04305,-27.563324,21.149523,-29.520622,-7.474298,16.985199,8.503587,-33.535477,48.395218,32.6825,18.28704,19.548025,-15.580704
228,-88.85562133789062,116.75940704345703,71.40646362304688,-1.4227782990203375,0.1330279677711271,161.03909407559303,-15.087614,-11.663809,7.413929,48.56912,-32.87746,15.000033,-35.39667,-8.826476,7.6044087,101.25996,-12.438276,-3.1718771,-4.934119,-6.678434,12.588854,-1.854512,28.265465,-27.241552,19.611067,-29.702831,-7.8640046,16.123985,9.704916,-32.878147,48.708485,33.416553,17.076,19.74699,-14.458625
229,-89.81475067138672,117.16001892089844,71.56717681884766,-1.4331118567182406,0.2786317703928628,161.92027184358048,-13.800251,-12.071776,6.3533125,47.64393,-32.910114,15.000033,-36.82392,-8.957743,7.537032,99.51966,-12.303939,-3.2093623,-5.5071316,-6.7187924,12.299851,-2.9781382,28.487541,-26.933674,18.02506,-29.478077,-8.210902,15.333056,10.976599,-32.33489,48.993332,33.62941,15.895329,19.541567,-14.251848
230,-90.8107681274414,117.55074310302734,71.75865173339844,-1.4819940132065725,0.5292185993702292,162.78381826314782,-12.5742655,-12.390615,5.2635345,46.6096,-32.830215,15.000033,-38.254093,-9.179588,7.308455,97.4294,-12.075637,-3.4321036,-6.0580344,-6.687804,11.890391,-3.983718,28.70842,-26.606909,16.338469,-28.994106,-8.5490265,14.5346985,12.338352,-31.912626,49.20694,33.320663,14.587624,19.053888,-14.639864
231,-91.81837463378906,117.92462921142578,71.98115539550781,-1.5553777732500367,0.8243470062799291,163.6104469689323,-11.368773,-12.633081,4.182091,45.529594,-32.60664,15.000033,-39.556656,-9.4937315,6.9306955,94.976135,-11.792485,-3.7353952,-6.5859227,-6.6033897,11.424677,-4.8336987,28.92887,-26.247343,14.579798,-28.376793,-8.884853,13.76887,13.754885,-31.600763,49.29031,32.699276,13.473656,18.470415,-15.306316
232,-92.84846496582031,118.28994750976562,72.22893524169922,-1.6402189424064528,1.102360415789233,164.38022381862072,-10.143001,-12.814142,3.1475394,44.461246,-32.201958,15.000033,-40.604313,-9.8978815,6.425596,92.14318,-11.489441,-4.0057445,-7.092175,-6.4868183,10.962808,-5.4813747,29.149675,-25.834929,12.772439,-27.749592,-9.219614,13.074552,15.181274,-31.374817,49.184532,31.991985,12.880176,17.955923,-15.923743
233,-93.9034194946289,118.6436996459961,72.49674224853516,-1.747918890329636,1.3647583334251947,165.0749131541625,-8.887838,-12.9236355,2.1608264,43.378647,-31.613106,15.000033,-41.391735,-10.410837,5.748126,88.91457,-11.1744795,-4.2536616,-7.57431,-6.328583,10.499407,-5.8974676,29.36915,-25.344374,10.892088,-27.058136,-9.556733,12.483981,16.592958,-31.218338,48.892853,31.21045,13.036362,17.490755,-16.494318
234,-94.97246551513672,118.98271942138672,72.78800964355469,-1.883726141645848,1.6390991472929626,165.70690725204958,-7.632784,-12.954876,1.20964,42.266838,-30.857752,15.000033,-41.955578,-10.990597,4.875424,85.297844,-10.836891,-4.494598,-8.033434,-6.1217985,10.009237,-6.1051517,29.58765,-24.783081,8.932017,-26.262482,-9.894367,11.970761,18.012613,-31.123955,48.444725,30.266531,13.7113905,16.994457,-17.15004
235,-96.06681060791016,119.31663513183594,73.09441375732422,-2.0257837061945407,1.9028231416258263,166.30280879644712,-6.3950224,-12.932084,0.31316277,41.198036,-29.934877,15.000033,-42.246246,-11.55138,3.8779042,81.30647,-10.473795,-4.628614,-8.478908,-5.8942337,9.5192585,-6.138143,29.811008,-24.18109,6.9443974,-25.513367,-10.221517,11.483926,19.464155,-31.073408,47.813652,29.244833,14.546986,16.533115,-17.759928
236,-97.1868667602539,119.64745330810547,73.41486358642578,-2.149627244871739,2.133260626121867,166.89049835426445,-5.188059,-12.879115,-0.5086383,40.244938,-28.844898,15.000033,-42.22566,-12.022144,2.8416743,76.939545,-10.072901,-4.572027,-8.916518,-5.6776476,9.055843,-6.0328307,30.047647,-23.574968,4.9817386,-24.96352,-10.525797,10.971701,20.945913,-31.041431,46.982075,28.25127,15.208679,16.183071,-18.202528
237,-98.32632446289062,119.96856689453125,73.74555206298828,-2.2637774155957247,2.3183509154290656,167.47637751254126,-3.984643,-12.787356,-1.2586943,39.394157,-27.571428,15.000033,-41.86276,-12.462049,1.7123392,72.115875,-9.661417,-4.3961687,-9.372431,-5.4665976,8.627243,-5.758441,30.306723,-22.94347,3.0129688,-24.697098,-10.78743,10.396462,22.589273,-30.992579,45.821747,27.243742,15.524571,15.999157,-18.439007
238,-99.49186706542969,120.29063415527344,74.07958221435547,-2.3764243065063773,2.4718868847615245,168.04458826414785,-2.7915177,-12.649767,-1.9370501,38.621937,-26.122568,15.000033,-41.184193,-12.857307,0.46809834,66.84893,-9.22434,-4.0994153,-9.798769,-5.2536974,8.229595,-5.33839,30.58617,-22.312588,1.0275782,-24.623663,-11.014719,9.796028,24.031622,-30.929045,44.55805,26.411892,15.973782,15.92445,-18.538654
239,-100.67298126220703,120.6093521118164,74.40593719482422,-2.4611326838984753,2.609865620542125,168.5911428314615,-1.6649277,-12.499635,-2.5214233,37.977036,-24.528492,15.000033,-40.261734,-13.072162,-0.72040504,61.25874,-8.667949,-3.5245948,-10.219118,-5.0692253,7.832626,-4.745693,30.882378,-21.645834,-0.9462799,-24.62554,-11.233726,9.218885,25.573345,-30.828773,43.10437,25.538342,16.260958,15.895863,-18.557291
240,-101.86734008789062,120.92579650878906,74.724365234375,-2.4854111977309445,2.746546542794608,169.11695809545296,-0.6462135,-12.378455,-2.9948092,37.481754,-22.80249,15.000033,-39.172596,-13.019033,-1.6572136,55.434574,-7.889601,-2.5540001,-10.600191,-4.949034,7.4182253,-4.0351787,31.18543,-20.983095,-2.837464,-24.58891,-11.475952,8.72048,27.095833,-30.690323,41.605568,24.685545,16.464418,15.839361,-18.543972
241,-103.078857421875,121.23921966552734,75.03194427490234,-2.4394105406279456,2.88354470382607,169.62343951589216,0.27750525,-12.294516,-3.3312213,37.11688,-20.91883,15.000033,-37.885265,-12.712384,-2.2607312,49.15348,-6.774528,-1.2644539,-10.955139,-4.900337,6.9783115,-3.192798,31.489147,-20.302332,-4.6554885,-24.505428,-11.760809,8.301073,28.62212,-30.503185,39.993725,23.857668,16.549662,15.751915,-18.454779
