unveil-humanoid-operators/unveil-humanoid-operators.github.io/feature-analysis-animation/data/feature_matrix_instances/height_root_translate_rom_walking_A051_walk_ff_start_360_003__A051.csv
Frame,root_translateX,root_translateY,root_translateZ,root_rotateX,root_rotateY,root_rotateZ,left_hip_pitch_joint_dof,left_hip_roll_joint_dof,left_hip_yaw_joint_dof,left_knee_joint_dof,left_ankle_pitch_joint_dof,left_ankle_roll_joint_dof,right_hip_pitch_joint_dof,right_hip_roll_joint_dof,right_hip_yaw_joint_dof,right_knee_joint_dof,right_ankle_pitch_joint_dof,right_ankle_roll_joint_dof,waist_yaw_joint_dof,waist_roll_joint_dof,waist_pitch_joint_dof,left_shoulder_pitch_joint_dof,left_shoulder_roll_joint_dof,left_shoulder_yaw_joint_dof,left_elbow_joint_dof,left_wrist_roll_joint_dof,left_wrist_pitch_joint_dof,left_wrist_yaw_joint_dof,right_shoulder_pitch_joint_dof,right_shoulder_roll_joint_dof,right_shoulder_yaw_joint_dof,right_elbow_joint_dof,right_wrist_roll_joint_dof,right_wrist_pitch_joint_dof,right_wrist_yaw_joint_dof
0,0.2814769148826599,-2.9722115993499756,78.15699768066406,1.5010235019516107,-3.9836911691773507,91.2817775514691,5.948647,1.1728799,9.383003,7.403047,-10.174977,-2.8398201,4.681623,-6.566141,-5.2314405,11.772307,-15.602948,5.112782,0.46831498,-1.2618941,14.681202,-5.0953116,10.696405,-33.244648,60.367874,8.488337,-2.9940927,2.4452388,-4.801758,-11.847647,38.037857,58.962193,10.550833,-7.5070624,-1.2560972
1,0.2819477915763855,-2.994370460510254,78.15983581542969,1.5434839752815595,-3.8596282170194556,91.28785629999516,5.806751,1.1145475,9.391674,7.354759,-10.1043825,-2.7998695,4.4018755,-6.6323075,-5.219772,12.020036,-15.674959,5.120157,0.47511414,-1.3099577,14.58526,-5.1390924,10.692151,-33.22649,60.38057,8.482493,-2.9937165,2.4319332,-4.817362,-11.85823,38.01203,58.93417,10.528911,-7.5087414,-1.2694945
2,0.280489981174469,-3.0154151916503906,78.16325378417969,1.581349113124589,-3.7394936123559606,91.29458383721705,5.669522,1.0605972,9.40029,7.308737,-10.036401,-2.762736,4.1357474,-6.693167,-5.2096634,12.251565,-15.740186,5.1258945,0.48291093,-1.3539842,14.4967785,-5.182988,10.688788,-33.203003,60.390884,8.482112,-2.9931703,2.417948,-4.8264337,-11.872281,37.972008,58.89801,10.487905,-7.509779,-1.2777799
3,0.2779696583747864,-3.039391279220581,78.16680908203125,1.6260045754132828,-3.6126083736283574,91.30069691363944,5.524508,0.99775076,9.408695,7.2582436,-9.963478,-2.7194104,3.8473554,-6.7637243,-5.19638,12.50785,-15.814829,5.1357784,0.4908688,-1.4047037,14.402066,-5.227616,10.687906,-33.1836,60.39703,8.478876,-2.9930768,2.4007633,-4.8433146,-11.882197,37.939,58.86789,10.466241,-7.511789,-1.2906157
4,0.27140748500823975,-3.0640509128570557,78.16741180419922,1.6853117241463798,-3.4686210482858257,91.30507429177918,5.360572,0.9116075,9.416959,7.1921964,-9.874922,-2.660565,3.4989579,-6.8599453,-5.1743193,12.83406,-15.917023,5.1560173,0.50485224,-1.4671435,14.3075695,-5.293604,10.687783,-33.156883,60.398376,8.485864,-2.9979484,2.3653145,-4.85318,-11.89999,37.86996,58.810017,10.446859,-7.5134287,-1.3014978
5,0.26058080792427063,-3.0914454460144043,78.16830444335938,1.764995095736144,-3.3013580935866758,91.3056980148395,5.168992,0.7974495,9.424331,7.1115866,-9.770508,-2.5805154,3.0744827,-6.987605,-5.1419716,13.244775,-16.053492,5.1913133,0.5276214,-1.543792,14.204787,-5.378833,10.688556,-33.135628,60.393238,8.494055,-3.0087543,2.3071501,-4.8680296,-11.922983,37.77673,58.736965,10.455815,-7.5148077,-1.3187133
6,0.24845954775810242,-3.137159824371338,78.1654052734375,1.8573785880654519,-3.118199469276149,91.30385117865599,4.9585657,0.6635178,9.431012,7.021428,-9.655574,-2.485046,2.598493,-7.136602,-5.1020374,13.711175,-16.21207,5.238032,0.5752593,-1.6259266,14.105405,-5.49207,10.690011,-33.136185,60.384396,8.500307,-3.0236592,2.2313213,-4.8556433,-11.973383,37.633987,58.608326,10.471137,-7.512152,-1.3351177
7,0.23389498889446259,-3.188737392425537,78.16134643554688,1.9587948114230542,-2.9276832891506452,91.30430019655134,4.735676,0.5163684,9.436861,6.931877,-9.535526,-2.3822875,2.09424,-7.299456,-5.056595,14.212957,-16.382795,5.289562,0.61132556,-1.7162818,13.9998455,-5.604834,10.690373,-33.123207,60.36919,8.512666,-3.039151,2.1555977,-4.8545356,-12.019099,37.50617,58.48895,10.507666,-7.513978,-1.3513694
8,0.2163027673959732,-3.2404944896698,78.15847778320312,2.062798749363536,-2.738805344063477,91.3113019476849,4.4737525,0.36880422,9.441831,6.9245353,-9.453485,-2.280749,1.5843191,-7.468673,-5.007126,14.730895,-16.556316,5.338494,0.6441416,-1.8090618,13.8959255,-5.717043,10.689161,-33.10306,60.345844,8.533902,-3.0511472,2.0952132,-4.853341,-12.067341,37.39104,58.36953,10.559123,-7.5224986,-1.3572729
9,0.19674848020076752,-3.2946877479553223,78.15389251708984,2.1686522161666844,-2.5449320527658528,91.3281793233575,4.1995263,0.2163493,9.446703,6.9268913,-9.367874,-2.1826131,1.0584402,-7.6435585,-4.9538846,15.273009,-16.73379,5.381134,0.677686,-1.896267,13.791844,-5.830199,10.682972,-33.076275,60.30914,8.565572,-3.060339,2.0516582,-4.826642,-12.145061,37.278217,58.210976,10.633504,-7.538396,-1.3405128
10,0.17226481437683105,-3.352526903152466,78.14564514160156,2.2711733953552553,-2.3441170916084744,91.35355690866507,3.8717608,0.070860766,9.448475,7.021407,-9.323521,-2.0839558,0.5004029,-7.82059,-4.8972096,15.865181,-16.929768,5.4209857,0.6968757,-1.9831365,13.677691,-5.93997,10.675479,-33.03079,60.267284,8.6075735,-3.068141,2.0180316,-4.8159356,-12.205286,37.18386,58.07592,10.730366,-7.563746,-1.3132854
11,0.14588108658790588,-3.403599262237549,78.1333236694336,2.3688277947317866,-2.152322567888269,91.38191451119519,3.4712756,-0.059889216,9.447071,7.288048,-9.368583,-1.9824988,-0.062000465,-7.996212,-4.836925,16.484856,-17.136553,5.461043,0.7149311,-2.0635033,13.574696,-6.054502,10.664803,-32.98429,60.220905,8.656952,-3.072323,1.9954666,-4.803572,-12.273457,37.099968,57.93477,10.829435,-7.5899115,-1.2885003
12,0.11085590720176697,-3.4570343494415283,78.11653137207031,2.4690181132994327,-1.9847562435172668,91.40748750275316,3.0905294,-0.1957626,9.443462,7.5645733,-9.424194,-1.8753929,-0.59076196,-8.17427,-4.7729654,17.08427,-17.338308,5.50423,0.7311071,-2.1467443,13.495586,-6.1748075,10.65229,-32.94404,60.173656,8.708221,-3.0705411,1.9857107,-4.790702,-12.3445835,37.032196,57.793457,10.904782,-7.611117,-1.2834532
13,0.06445904821157455,-3.5044543743133545,78.09651947021484,2.5772587303250623,-1.8463796580904974,91.42281124668983,2.7452023,-0.34360224,9.440461,7.829647,-9.481347,-1.7594298,-1.0868481,-8.36028,-4.6982822,17.672081,-17.539053,5.5525293,0.7580693,-2.225367,13.453835,-6.310277,10.6302395,-32.921062,60.123623,8.768457,-3.0585015,1.9985577,-4.765469,-12.456994,36.986614,57.6165,10.964757,-7.621248,-1.3034112
14,0.020228968933224678,-3.5659172534942627,78.07727813720703,2.690728174454787,-1.7285419707422733,91.4324669415485,2.4280207,-0.50274765,9.437681,8.078195,-9.536394,-1.6365737,-1.5648042,-8.5544405,-4.614149,18.259495,-17.741356,5.6027093,0.7862963,-2.3086867,13.4328,-6.4522395,10.605716,-32.90468,60.071953,8.8360615,-3.0382686,2.0303998,-4.741652,-12.570616,36.95877,57.440754,11.006789,-7.627479,-1.341991
15,-0.012155874632298946,-3.6486659049987793,78.05803680419922,2.8016383258421707,-1.6252899306336823,91.44912881738146,2.1227226,-0.66135645,9.429746,8.33087,-9.5927105,-1.5122001,-2.0187802,-8.746935,-4.533752,18.830397,-17.93388,5.649937,0.8050965,-2.3930871,13.424361,-6.5952106,10.579802,-32.884308,60.01945,8.899645,-3.0186257,2.0613627,-4.7170215,-12.68496,36.941334,57.267464,11.03643,-7.633527,-1.387057
16,-0.05038214847445488,-3.7241616249084473,78.04027557373047,2.900787512122055,-1.5306979388721493,91.48559484746393,1.8157004,-0.80845565,9.411412,8.601062,-9.650989,-1.391848,-2.4421492,-8.927929,-4.470549,19.367102,-18.104069,5.689521,0.80216366,-2.475597,13.419744,-6.7299056,10.553802,-32.844856,59.964317,8.950909,-3.0083477,2.0714557,-4.6865063,-12.796922,36.92601,57.09706,11.056281,-7.643266,-1.426619
17,-0.09282365441322327,-3.792588472366333,78.02621459960938,2.9910576194880583,-1.4480374106456364,91.54647692969513,1.5169507,-0.9495603,9.381533,8.874749,-9.700522,-1.2749752,-2.8298895,-9.101797,-4.4269013,19.872051,-18.25272,5.718656,0.7761792,-2.5690677,13.412439,-6.8486795,10.53621,-32.779713,59.905373,8.993711,-3.010208,2.045461,-4.659759,-12.872101,36.91102,56.96362,11.0492525,-7.6614056,-1.4604144
18,-0.13914984464645386,-3.863384962081909,78.01136016845703,3.0765324348767975,-1.3787735245715287,91.62447580721624,1.2273326,-1.0870126,9.343045,9.153586,-9.74608,-1.1594242,-3.1882212,-9.2718115,-4.3959265,20.35515,-18.385466,5.739696,0.73133147,-2.6545784,13.417748,-6.9619617,10.509936,-32.68918,59.83908,9.03692,-3.0208411,1.9960963,-4.605526,-12.982773,36.905495,56.79284,11.030781,-7.678869,-1.489416
19,-0.18368414044380188,-3.935868740081787,77.99534606933594,3.1470203959162664,-1.3139353868388761,91.71455295687606,0.9313482,-1.2093962,9.295911,9.447909,-9.796633,-1.048961,-3.5209496,-9.427206,-4.378517,20.7959,-18.495342,5.7562423,0.6664399,-2.7366955,13.426131,-7.073014,10.487573,-32.597054,59.77402,9.055218,-3.0349665,1.9490249,-4.553051,-13.080629,36.895027,56.6316,11.003671,-7.6983085,-1.5188732
20,-0.22773027420043945,-4.015022277832031,77.98002624511719,3.1948509976880684,-1.2442554844268405,91.81131898542583,0.61123335,-1.3042186,9.241408,9.773612,-9.864695,-0.9458383,-3.841393,-9.557376,-4.37416,21.195143,-18.57803,5.771934,0.5745899,-2.8061082,13.437064,-7.185823,10.470081,-32.513554,59.71132,9.031319,-3.0486126,1.9279772,-4.508074,-13.173557,36.875114,56.471466,10.982455,-7.7170606,-1.5501164
21,-0.27654922008514404,-4.1039323806762695,77.9634017944336,3.21960941859818,-1.1775583604601914,91.92320218753626,0.27447623,-1.3725002,9.170322,10.130079,-9.953052,-0.8498248,-4.1316314,-9.662891,-4.3947597,21.543385,-18.63644,5.789476,0.44595078,-2.8617046,13.453972,-7.301436,10.461729,-32.460285,59.64952,8.944711,-3.0589228,1.9470875,-4.4758677,-13.256753,36.856934,56.3227,10.972188,-7.7368364,-1.583449
22,-0.3198120594024658,-4.180469512939453,77.951904296875,3.222854196795183,-1.1150905221421015,92.04980990233686,-0.073815584,-1.4195354,9.085136,10.510103,-10.054769,-0.76080173,-4.393688,-9.748244,-4.4368634,21.848938,-18.672827,5.8062773,0.2857251,-2.9098904,13.47493,-7.417026,10.463628,-32.42644,59.58782,8.80759,-3.0686717,1.9908637,-4.4578795,-13.322581,36.841427,56.193935,10.965885,-7.7588954,-1.6186314
23,-0.3667230010032654,-4.2602434158325195,77.94354248046875,3.206894054361977,-1.0382055547933262,92.17264104258295,-0.45347047,-1.439508,9.002974,10.914168,-10.164142,-0.6834647,-4.6611934,-9.806594,-4.4790626,22.11815,-18.677986,5.8181186,0.11272166,-2.9528522,13.490008,-7.527926,10.471108,-32.372414,59.529022,8.657795,-3.0815492,2.0391355,-4.448235,-13.365684,36.799442,56.074375,10.951204,-7.7804728,-1.6567389
24,-0.42188704013824463,-4.35346794128418,77.93405151367188,3.1682743759343635,-0.9283471140778925,92.2733389512164,-0.87946504,-1.4268764,8.9407015,11.333126,-10.270394,-0.6222623,-4.965836,-9.830232,-4.500477,22.354586,-18.641516,5.8208613,-0.052463066,-2.9885492,13.49463,-7.631685,10.482358,-32.263573,59.469887,8.527585,-3.1014388,2.0707874,-4.438995,-13.401762,36.707714,55.937164,10.928382,-7.7972016,-1.6968699
25,-0.48039960861206055,-4.467685222625732,77.92405700683594,3.113595097785748,-0.7840020728118656,92.35199807086268,-1.35066,-1.3869268,8.900446,11.759885,-10.367894,-0.5815397,-5.31743,-9.823346,-4.4968476,22.573303,-18.568722,5.813827,-0.20974196,-3.0224462,13.4915,-7.7234974,10.500996,-32.08644,59.397884,8.435154,-3.1325479,2.0737593,-4.415631,-13.440297,36.5476,55.76008,10.878556,-7.7985296,-1.7298819
26,-0.5262953042984009,-4.575324535369873,77.91907501220703,3.041997522406104,-0.6139375226339819,92.41666781712763,-1.858549,-1.320631,8.873386,12.196271,-10.460972,-0.55800235,-5.6973605,-9.786773,-4.479868,22.766857,-18.461996,5.799047,-0.3653954,-3.0537612,13.475296,-7.815073,10.517334,-31.872107,59.33691,8.353443,-3.171595,2.065639,-4.400126,-13.459211,36.346424,55.58687,10.820682,-7.7916617,-1.7624632
27,-0.5666801929473877,-4.690080165863037,77.91738891601562,2.9414329745110983,-0.4153048208313368,92.46066910767935,-2.4156406,-1.2137969,8.859725,12.666158,-10.564318,-0.54438347,-6.0970783,-9.707938,-4.452568,22.908865,-18.309227,5.776796,-0.5174922,-3.0687523,13.452791,-7.9032774,10.535618,-31.612968,59.28194,8.272048,-3.2118232,2.055537,-4.3926735,-13.469495,36.111294,55.40585,10.768171,-7.792651,-1.8055819
28,-0.6022831201553345,-4.796839714050293,77.92312622070312,2.8047918998952173,-0.1850292945032204,92.47699827736022,-3.033925,-1.0521891,8.858886,13.190827,-10.690916,-0.533356,-6.5074024,-9.574252,-4.418339,22.971828,-18.097246,5.7478614,-0.6633802,-3.0540326,13.419494,-7.986906,10.551329,-31.315678,59.24298,8.17127,-3.245615,2.0588102,-4.3909,-13.47114,35.856304,55.219425,10.736075,-7.8190336,-1.8758823
29,-0.6637161374092102,-4.925822734832764,77.92648315429688,2.631225709039603,0.07846076355873918,92.4699015464062,-3.7207522,-0.8391425,8.866014,13.779926,-10.844644,-0.5222992,-6.936459,-9.391061,-4.380375,22.971203,-17.834597,5.7127047,-0.8077709,-3.0128567,13.382671,-8.064308,10.566593,-30.956837,59.211514,8.049939,-3.2761898,2.0535722,-4.3950896,-13.465738,35.56654,55.01242,10.724963,-7.8644357,-1.9749942
30,-0.7111461758613586,-5.059723377227783,77.93343353271484,2.4263246888695402,0.3730530272562856,92.44059872904819,-4.4632044,-0.5800048,8.8806095,14.410173,-11.014904,-0.5154293,-7.3839865,-9.160946,-4.3377485,22.912258,-17.523361,5.6715727,-0.9494785,-2.948713,13.336989,-8.137159,10.578875,-30.549925,59.191467,7.91146,-3.3055298,2.0431032,-4.408232,-13.453069,35.25091,54.795517,10.737881,-7.9239,-2.097443
31,-0.7474002242088318,-5.194828987121582,77.94535827636719,2.18076122274956,0.6959791913043957,92.37782285129795,-5.2554464,-0.26132518,8.908763,15.08297,-11.202037,-0.5155931,-7.8264914,-8.868945,-4.287802,22.749136,-17.138985,5.6259856,-1.0847346,-2.8506837,13.282916,-8.212484,10.587349,-30.114176,59.192703,7.768778,-3.3266501,2.0667455,-4.435175,-13.433188,34.92848,54.587723,10.76382,-8.014221,-2.2375033
32,-0.7859170436859131,-5.331667900085449,77.962646484375,1.8854058088085754,1.0441641872761749,92.27012550696308,-6.086841,0.12931633,8.956084,15.789447,-11.402375,-0.5252867,-8.240324,-8.499973,-4.227683,22.43565,-16.65686,5.577774,-1.2150818,-2.7094681,13.220865,-8.290877,10.592036,-29.654379,59.221104,7.644613,-3.3331056,2.1618223,-4.4957066,-13.398967,34.62749,54.42321,10.797659,-8.153042,-2.389188
33,-0.8296701312065125,-5.481710433959961,77.98177337646484,1.5227073944782927,1.4324403239746502,92.11555151047263,-6.991783,0.6154219,9.017595,16.562796,-11.62639,-0.55056626,-8.643126,-8.036553,-4.163749,21.962278,-16.055405,5.5220838,-1.3376678,-2.5091746,13.133493,-8.375863,10.588113,-29.181839,59.289665,7.5325885,-3.32083,2.361817,-4.587947,-13.3477,34.352917,54.30757,10.8614025,-8.36603,-2.554246
34,-0.8752456903457642,-5.630988597869873,78.00834655761719,1.1016522869900245,1.8558445663696064,91.91881676256398,-7.959722,1.183084,9.087878,17.388939,-11.868537,-0.58756614,-9.034971,-7.4935265,-4.0958843,21.34356,-15.347855,5.461199,-1.4487642,-2.2582784,13.028144,-8.470461,10.573307,-28.693151,59.39558,7.4261665,-3.2944303,2.6391194,-4.7055306,-13.285818,34.0883,54.224144,10.953191,-8.636778,-2.7334983
35,-0.9318376183509827,-5.7791571617126465,78.03971862792969,0.6553867915053416,2.2820047194925954,91.67833971040118,-8.914655,1.7888039,9.174353,18.191843,-12.103705,-0.62382865,-9.368842,-6.9069223,-4.009151,20.572033,-14.563617,5.4077277,-1.547765,-1.9858445,12.9253845,-8.572845,10.548241,-28.202175,59.534386,7.322672,-3.2594678,2.9492369,-4.8450933,-13.210968,33.840668,54.17779,11.031528,-8.921784,-2.9296489
36,-0.9790581464767456,-5.932130336761475,78.07389831542969,0.21765843284887518,2.679120045766889,91.39344254259295,-9.783326,2.3890526,9.28736,18.900831,-12.309575,-0.6469323,-9.600117,-6.3139906,-3.8863783,19.643658,-13.733588,5.3740206,-1.6268128,-1.7213418,12.847398,-8.680029,10.51883,-27.732813,59.694954,7.215859,-3.220724,3.2480283,-4.996737,-13.130379,33.61203,54.161854,11.059814,-9.176566,-3.14468
37,-1.0352733135223389,-6.094604015350342,78.11046600341797,-0.22742064276008972,3.047331146964381,91.06133150814296,-10.568194,3.0028691,9.421548,19.518486,-12.489256,-0.65194726,-9.715208,-5.7001143,-3.7379396,18.524704,-12.8326645,5.3117876,-1.6880574,-1.4495356,12.798089,-8.7883625,10.487163,-27.271517,59.87748,7.1040583,-3.181585,3.5402694,-5.169274,-13.043472,33.40981,54.187935,11.039432,-9.406485,-3.397432
38,-1.0884803533554077,-6.236745357513428,78.1511459350586,-0.6892728819813543,3.3993769251695727,90.68340197880033,-11.303234,3.642111,9.575253,20.081835,-12.655142,-0.64540863,-9.740117,-5.062778,-3.562979,17.227371,-11.854785,5.2309036,-1.7351635,-1.1650053,12.767092,-8.895884,10.453708,-26.810919,60.080494,6.9909334,-3.1387293,3.8430889,-5.356603,-12.948799,33.225792,54.24595,10.980085,-9.628656,-3.6806715
39,-1.143519639968872,-6.373405456542969,78.18934631347656,-1.1172093213990337,3.7226667306039105,90.2663681192527,-11.9549055,4.2493763,9.770345,20.55529,-12.789482,-0.632233,-9.685148,-4.4587464,-3.3245902,15.810234,-10.857673,5.2302556,-1.7648487,-0.9163393,12.754251,-9.006645,10.422109,-26.384535,60.295376,6.8758683,-3.0868654,4.1315722,-5.556187,-12.848343,33.06081,54.324482,10.882108,-9.817059,-3.9587193
40,-1.1978756189346313,-6.514660358428955,78.22331237792969,-1.4598831391264755,4.0053675903042,89.81781426675376,-12.490813,4.764625,10.031538,20.907774,-12.877492,-0.6166681,-9.56056,-3.9446151,-2.9842498,14.335861,-9.902578,5.409087,-1.7723798,-0.7536962,12.761046,-9.122871,10.397393,-26.0253,60.509933,6.76018,-3.0203476,4.38051,-5.7658753,-12.745869,32.916397,54.40974,10.749886,-9.945736,-4.195399
41,-1.2653511762619019,-6.651968002319336,78.25067138671875,-1.6912183796751565,4.2422759942977954,89.34059899186026,-12.880314,5.152135,10.377815,21.099255,-12.90698,-0.5951976,-9.337638,-3.5392826,-2.4923263,12.735739,-8.954337,5.8023357,-1.7584547,-0.7012617,12.790652,-9.231288,10.379822,-25.726038,60.71312,6.640415,-2.9324217,4.5828447,-5.969253,-12.645083,32.779877,54.486767,10.545449,-9.988268,-4.384992
42,-1.3132940530776978,-6.788313388824463,78.2726058959961,-1.8342646201516544,4.440217472762059,88.83207990920326,-13.143669,5.438551,10.801163,21.152382,-12.887053,-0.5653525,-9.00959,-3.22937,-1.8743855,10.9866495,-7.9966965,6.351857,-1.7231146,-0.73801756,12.843252,-9.334962,10.369546,-25.476313,60.91115,6.5165725,-2.8275967,4.751837,-6.1748867,-12.54677,32.657917,54.56458,10.28806,-9.964291,-4.5444937
43,-1.3658876419067383,-6.925629138946533,78.2831039428711,-1.9130620974726822,4.605871219661106,88.29151161706801,-13.329404,5.664501,11.283178,21.135803,-12.837304,-0.53388107,-8.630362,-3.0099661,-1.2099754,9.24256,-7.1233745,7.018402,-1.6647171,-0.84191364,12.91335,-9.456215,10.374284,-25.301928,61.11593,6.3944173,-2.7171586,4.8919315,-6.392324,-12.449058,32.56102,54.647606,10.035463,-9.91681,-4.671106
44,-1.41100013256073,-7.066906929016113,78.29144287109375,-1.9604158378489829,4.745858303592983,87.71776461702349,-13.489828,5.8777547,11.801543,21.125599,-12.7806835,-0.5082996,-8.234224,-2.8610837,-0.5864931,7.611303,-6.4040604,7.765444,-1.5805521,-0.986799,12.996997,-9.613693,10.405739,-25.228228,61.33257,6.280571,-2.6121366,5.0067844,-6.634378,-12.3475485,32.501587,54.741062,9.850132,-9.889411,-4.7620935
45,-1.4514652490615845,-7.213205337524414,78.29657745361328,-1.9595301235577092,4.858001874656557,87.09245353909448,-13.624147,6.071692,12.375881,21.125648,-12.714151,-0.49150178,-8.24227,-2.7666264,0.08615843,6.9494915,-6.3375783,8.7185,-1.455006,-1.1984546,13.102815,-9.820022,10.477621,-25.270561,61.564186,6.160392,-2.5104437,5.0860324,-6.9080806,-12.235699,32.480774,54.846504,9.764997,-9.8950205,-4.799798
46,-1.4455291032791138,-7.4202070236206055,78.29142761230469,-1.9085961315608748,4.9407226170486025,86.4221804121442,-13.712024,6.232411,13.008012,21.106592,-12.631413,-0.48017567,-8.4837475,-2.7187703,0.80349684,6.890932,-6.7131176,9.85049,-1.2952399,-1.4797885,13.233075,-10.055247,10.592861,-25.412874,61.796734,6.0330234,-2.4092717,5.1294127,-7.210224,-12.110082,32.494545,54.964027,9.7432,-9.9109335,-4.791061
47,-1.469330906867981,-7.606890678405762,78.2827377319336,-1.863601445423453,5.002795052328638,85.74245849200454,-13.7838335,6.4117665,13.643599,21.10519,-12.555135,-0.4745194,-8.651872,-2.7068267,1.3613648,6.85925,-7.130686,10.898751,-1.1346576,-1.758772,13.368928,-10.286952,10.743103,-25.631153,62.00584,5.9279995,-2.3119917,5.1560884,-7.5299964,-11.974915,32.540276,55.09494,9.726792,-9.92737,-4.7708077
48,-1.4909093379974365,-7.768144607543945,78.287841796875,-1.8873730515483986,5.054232084603347,85.08816462161668,-13.872111,6.664722,14.226871,21.157349,-12.506618,-0.47510627,-8.715952,-2.7193928,1.5745798,6.8565183,-7.486662,11.602793,-1.0055751,-1.9576638,13.489775,-10.489142,10.912747,-25.902058,62.175476,5.8747954,-2.2239087,5.186554,-7.8537564,-11.83967,32.61577,55.23615,9.660133,-9.933939,-4.7739086
49,-1.505263090133667,-7.932224273681641,78.30693054199219,-2.012201130827947,5.089448882757514,84.46285529568335,-13.98296,7.0296135,14.739708,21.288925,-12.500904,-0.48261005,-8.655273,-2.741678,1.3488475,6.891263,-7.7719045,11.855946,-0.9159707,-2.0347352,13.6002655,-10.667058,11.091579,-26.24132,62.314312,5.865072,-2.154966,5.2153807,-8.182643,-11.713004,32.733982,55.39223,9.526001,-9.931208,-4.811356
50,-1.5228508710861206,-8.106289863586426,78.33048248291016,-2.204679652759886,5.1073087962847055,83.84942140545115,-14.104289,7.4773545,15.208882,21.478498,-12.523905,-0.4975832,-8.490886,-2.7776022,0.8005551,6.9577813,-8.028102,11.811232,-0.84642696,-2.0263748,13.706011,-10.840571,11.277039,-26.655699,62.438313,5.8891664,-2.100147,5.237245,-8.517348,-11.598159,32.89153,55.556656,9.357927,-9.922789,-4.863584
51,-1.5425500869750977,-8.28640365600586,78.35575103759766,-2.424529181642976,5.124600634340559,83.25133321334262,-14.240276,7.956493,15.64804,21.68974,-12.552657,-0.51923764,-8.258397,-2.8478296,0.065946266,7.047763,-8.23459,11.5972395,-0.78924197,-1.976809,13.787032,-11.001742,11.463207,-27.102081,62.540493,5.9808345,-2.0417397,5.2726784,-8.833019,-11.495774,33.053555,55.69933,9.163285,-9.902005,-4.9196444
52,-1.5590765476226807,-8.463174819946289,78.38316345214844,-2.626834139468203,5.158750894896059,82.67209665345442,-14.394994,8.413797,16.071798,21.886992,-12.564851,-0.54648423,-7.994374,-2.9749954,-0.7217368,7.1532717,-8.368733,11.342905,-0.736905,-1.9317492,13.822364,-11.1447,11.643108,-27.53898,62.617912,6.17181,-1.9623079,5.3425927,-9.113413,-11.406165,33.191395,55.800343,8.957165,-9.862885,-4.9691553
53,-1.5658495426177979,-8.640954971313477,78.4050064086914,-2.805318820966493,5.226956559161874,82.11000909732431,-14.584171,8.839016,16.484932,22.061916,-12.550782,-0.5792204,-7.993526,-3.1901548,-1.589569,7.8772616,-8.730036,11.03445,-0.68918246,-1.8975778,13.7925005,-11.276785,11.812838,-27.985601,62.685074,6.543764,-1.8465275,5.474617,-9.354165,-11.329346,33.29769,55.856716,8.715338,-9.790745,-5.0083733
54,-1.5796420574188232,-8.819742202758789,78.42315673828125,-2.967996926277579,5.315640013363481,81.56464342111886,-14.7927475,9.242638,16.885368,22.21911,-12.516858,-0.6154527,-8.559861,-3.5165997,-2.5537767,9.920286,-9.711638,10.612723,-0.6480413,-1.8642185,13.712989,-11.401817,11.970979,-28.454453,62.745598,7.0574536,-1.7062106,5.650058,-9.563759,-11.265875,33.387375,55.880005,8.44095,-9.69303,-5.0430675
55,-1.5838686227798462,-8.995928764343262,78.43376159667969,-3.1011776008953595,5.396021384342909,81.04222062550811,-14.982893,9.606943,17.276588,22.352327,-12.470616,-0.6518318,-9.082613,-3.9298294,-3.5101492,12.0107155,-10.67132,10.14449,-0.61179435,-1.848482,13.614553,-11.5091,12.115977,-28.8963,62.781635,7.5586805,-1.5659238,5.8209686,-9.7383795,-11.2158575,33.460743,55.86591,8.180969,-9.596611,-5.077551
56,-1.5874143838882446,-9.166239738464355,78.44158935546875,-3.195868492125243,5.439197066566056,80.54901113482194,-15.1199875,9.9215975,17.65939,22.460648,-12.421774,-0.6866824,-9.510931,-4.3935113,-4.3302293,14.054579,-11.587944,9.694519,-0.5813348,-1.8614877,13.52838,-11.585101,12.246249,-29.25559,62.774086,7.8976636,-1.4530449,5.9406605,-9.872166,-11.179063,33.51671,55.80843,7.97761,-9.528487,-5.1163306
57,-1.5830833911895752,-9.333990097045898,78.44454193115234,-3.2455046600523043,5.428171358176448,80.08265104876486,-15.179451,10.179438,18.040575,22.537092,-12.373381,-0.7196321,-9.836731,-4.92195,-5.0211287,16.077713,-12.481919,9.256863,-0.5539612,-1.9111133,13.468755,-11.622619,12.361667,-29.51457,62.70804,8.020474,-1.3687679,5.9837356,-9.964127,-11.154812,33.557312,55.701538,7.847747,-9.4921,-5.1730046
58,-1.5816129446029663,-9.509501457214355,78.43861389160156,-3.2477798657165,5.380362106628696,79.64278956089066,-15.180296,10.377549,18.421247,22.578896,-12.318086,-0.7504503,-10.105239,-5.5366673,-5.6311846,18.153996,-13.375283,8.803228,-0.53363746,-1.9973476,13.418575,-11.630191,12.463027,-29.700485,62.60164,8.013246,-1.3045686,5.980361,-10.018734,-11.142796,33.58452,55.551407,7.767124,-9.474357,-5.241614
59,-1.572562575340271,-9.685054779052734,78.42887115478516,-3.21452313876755,5.319139928034858,79.23788413144656,-15.1592655,10.526914,18.787363,22.600098,-12.253633,-0.7801303,-10.320917,-6.186031,-6.1049294,20.201572,-14.231693,8.368321,-0.5277773,-2.1044147,13.35883,-11.617686,12.544955,-29.82946,62.473373,7.9355164,-1.2603809,5.9678125,-10.04316,-11.143651,33.60122,55.375854,7.7247734,-9.477544,-5.2982607
60,-1.5597221851348877,-9.861504554748535,78.41291809082031,-3.16400801762081,5.2686660058082735,78.87526719749333,-15.157222,10.646011,19.121914,22.620789,-12.180358,-0.81067497,-10.491737,-6.805142,-6.3925085,22.141455,-15.010995,7.988442,-0.542938,-2.2140186,13.272402,-11.588015,12.613744,-29.91818,62.329388,7.8454494,-1.2366848,5.981375,-10.043486,-11.1571455,33.608387,55.188107,7.7087507,-9.503992,-5.3182263
61,-1.5343068838119507,-10.023982048034668,78.39723205566406,-3.0996869728052086,5.243858757442513,78.55537485521998,-15.191453,10.739258,19.42224,22.642136,-12.099004,-0.8416986,-10.647182,-7.3716254,-6.4638553,23.999935,-15.711074,7.6670218,-0.5846057,-2.3168578,13.133688,-11.544958,12.651746,-29.957586,62.186485,7.740167,-1.2388703,6.03851,-10.02836,-11.176069,33.612846,55.00125,7.710694,-9.545316,-5.31042
62,-1.5063586235046387,-10.19852066040039,78.37771606445312,-3.0205927929051986,5.229995890958591,78.27378976357267,-15.243589,10.806588,19.692799,22.661816,-12.012252,-0.8740659,-10.77843,-7.902566,-6.358089,25.800997,-16.347086,7.3886986,-0.6437686,-2.4218085,12.97359,-11.456279,12.706926,-29.951143,61.97417,7.5844173,-1.2634538,6.110372,-9.969608,-11.2285,33.605236,54.754406,7.740897,-9.600538,-5.27794
63,-1.4868748188018799,-10.36401653289795,78.35871887207031,-2.9387810286019236,5.206204675914671,78.03157859252987,-15.302165,10.866087,19.925383,22.697763,-11.924835,-0.9121273,-10.845298,-8.385199,-6.133345,27.486698,-16.911495,7.1639023,-0.71842474,-2.5166688,12.803482,-11.373206,12.730352,-29.910818,61.78371,7.4202213,-1.3033996,6.1892295,-9.904565,-11.2685795,33.584652,54.537838,7.8064356,-9.694015,-5.204815
64,-1.458410620689392,-10.534466743469238,78.33721923828125,-2.866830128862167,5.151971939631007,77.82943164351497,-15.356064,10.935915,20.111607,22.768293,-11.8412895,-0.9602697,-10.801978,-8.807182,-5.8493147,28.99239,-17.39672,7.00362,-0.8020147,-2.5872543,12.679291,-11.2821865,12.761688,-29.848827,61.561905,7.2768407,-1.349765,6.2483897,-9.79647,-11.356406,33.54457,54.277798,7.9303403,-9.839126,-5.0594597
65,-1.4083834886550903,-10.710564613342285,78.3088150024414,-2.812215775189731,5.054406330042326,77.6701312330981,-15.397481,11.026384,20.244452,22.884928,-11.765093,-1.0275182,-10.629067,-9.145638,-5.4924335,30.30919,-17.796852,6.93088,-0.89115787,-2.6359835,12.5943365,-11.209815,12.774701,-29.76945,61.36912,7.1590896,-1.4045324,6.303973,-9.682531,-11.428283,33.474865,54.057472,8.106499,-10.038017,-4.8450055
66,-1.3552093505859375,-10.891836166381836,78.28369140625,-2.7699868261727176,4.927261961300384,77.55206311980004,-15.437975,11.132064,20.327696,23.042156,-11.69603,-1.1098548,-10.355827,-9.403157,-5.048207,31.477915,-18.120434,6.9368167,-0.98851436,-2.6586728,12.540221,-11.138614,12.7792845,-29.663107,61.170563,7.0506883,-1.4708084,6.3570046,-9.539496,-11.519966,33.380768,53.823147,8.33417,-10.279023,-4.5681357
67,-1.301015853881836,-11.075737953186035,78.25818634033203,-2.7351961819213355,4.78914501101735,77.4688841224632,-15.489318,11.242059,20.370766,23.221357,-11.628057,-1.1918646,-10.013453,-9.61187,-4.5720124,32.516872,-18.385088,6.983697,-1.0932356,-2.6689653,12.489459,-11.071747,12.774098,-29.55091,60.980778,6.9498286,-1.5419868,6.389583,-9.395789,-11.597147,33.274925,53.632206,8.606759,-10.579379,-4.2329307
68,-1.2477432489395142,-11.264442443847656,78.23191833496094,-2.7007356110915386,4.658648322484187,77.41464814465557,-15.564181,11.345777,20.38335,23.406296,-11.55628,-1.2577996,-9.634677,-9.8059025,-4.1173787,33.44521,-18.609467,7.0324693,-1.2005336,-2.6681814,12.429669,-11.009184,12.761181,-29.451252,60.79032,6.856559,-1.6120144,6.3796945,-9.247711,-11.680478,33.16876,53.474113,8.93018,-10.950676,-3.8364313
69,-1.1755796670913696,-11.461856842041016,78.20381164550781,-2.6695787267152675,4.537297847723821,77.4004742447127,-15.671747,11.443405,20.353544,23.606998,-11.485579,-1.2965094,-9.208631,-9.98741,-3.7026398,34.25152,-18.78247,7.0842237,-1.3080881,-2.636645,12.367277,-10.958378,12.726307,-29.366182,60.599545,6.774689,-1.6790105,6.3162117,-9.046774,-11.824499,33.038673,53.28673,9.334591,-11.426373,-3.333609
70,-1.106388807296753,-11.663825988769531,78.17764282226562,-2.6449122761429544,4.41635008750655,77.42495345950968,-15.803491,11.539972,20.281122,23.82731,-11.4164095,-1.3187042,-8.726673,-10.140043,-3.2986016,34.938114,-18.902885,7.156201,-1.4212924,-2.5874653,12.298708,-10.915492,12.676289,-29.287539,60.419735,6.701351,-1.7456607,6.2141595,-8.831725,-11.972383,32.89201,53.132652,9.810191,-11.990614,-2.7408369
71,-1.0432403087615967,-11.860899925231934,78.14810180664062,-2.6196386793057527,4.2992658761209555,77.46431373429307,-15.94922,11.635623,20.190332,24.047518,-11.340243,-1.3411508,-8.2202215,-10.268356,-2.8883247,35.531677,-18.997456,7.2324023,-1.5244857,-2.5273697,12.226969,-10.886737,12.615061,-29.230698,60.24404,6.628463,-1.8154714,6.0873513,-8.617153,-12.125244,32.754932,53.002666,10.306275,-12.567085,-2.131654
72,-0.9614711403846741,-12.061400413513184,78.11747741699219,-2.5891845082995544,4.189636531800693,77.49406836128487,-16.098724,11.729965,20.105719,24.248125,-11.248816,-1.3807172,-7.7217436,-10.378113,-2.453936,36.06006,-19.09283,7.296714,-1.6014928,-2.46466,12.154446,-10.8772135,12.549187,-29.214155,60.06399,6.545323,-1.8916615,5.949585,-8.421816,-12.282093,32.656673,52.8922,10.772443,-13.082277,-1.5830866
73,-0.8752627968788147,-12.280845642089844,78.08133697509766,-2.552649214240927,4.095186862134533,77.50860606598664,-16.25503,11.823112,20.031796,24.418308,-11.134446,-1.4462001,-7.2427826,-10.472694,-1.9971884,36.524914,-19.199583,7.3370614,-1.6484399,-2.4015749,12.0765915,-10.888949,12.484423,-29.246578,59.874836,6.442582,-1.975799,5.798942,-8.249427,-12.442092,32.605145,52.800972,11.229568,-13.536287,-1.0971309
74,-0.78822922706604,-12.500880241394043,78.04558563232422,-2.5135979925510386,4.01192042118063,77.52036567812291,-16.422998,11.915781,19.955845,24.572618,-11.004742,-1.5271559,-6.76662,-10.548932,-1.5249797,36.91637,-19.303236,7.364313,-1.6750492,-2.3356717,11.994838,-10.913708,12.422414,-29.315313,59.67392,6.327702,-2.0655174,5.628753,-8.095331,-12.605683,32.58858,52.73361,11.694927,-13.962729,-0.63965994
75,-0.696233868598938,-12.723840713500977,78.00953674316406,-2.4696694508609163,3.925702833941806,77.5327511043411,-16.591509,12.00717,19.877249,24.723124,-10.870116,-1.6116774,-6.2824173,-10.602801,-1.0270612,37.243477,-19.394117,7.3968554,-1.6864599,-2.2671854,11.920047,-10.942511,12.363268,-29.4084,59.45729,6.212281,-2.157987,5.4458027,-7.9540296,-12.771346,32.59857,52.68381,12.098319,-14.340533,-0.23694196
76,-0.588638424873352,-12.962311744689941,77.96918487548828,-2.41996804984189,3.822377527949738,77.54917071270565,-16.751022,12.097341,19.794897,24.88455,-10.742716,-1.6880311,-5.7786417,-10.630184,-0.49344528,37.513805,-19.4617,7.4531627,-1.6880178,-2.196785,11.862256,-10.96837,12.306508,-29.516165,59.224335,6.1060877,-2.250752,5.257258,-7.82909,-12.938054,32.63226,52.654877,12.375159,-14.650273,0.083167605
77,-0.4886133074760437,-13.189509391784668,77.92401885986328,-2.3638722974959028,3.69707707093238,77.57106821804622,-16.896225,12.186193,19.707933,25.058414,-10.627006,-1.7516552,-5.2440963,-10.6336775,0.07141978,37.72131,-19.510368,7.5382223,-1.6788353,-2.12397,11.823693,-10.996076,12.253216,-29.654846,58.978436,5.995784,-2.3469918,5.0525756,-7.7241316,-13.105664,32.701366,52.65212,12.469791,-14.876833,0.2832032
78,-0.3812675476074219,-13.437427520751953,77.87841033935547,-2.3031946544399315,3.5577254835229164,77.596334455828,-17.032307,12.273543,19.617273,25.235603,-10.5152645,-1.8096015,-4.68822,-10.615433,0.66500175,37.866707,-19.544338,7.6419783,-1.6572032,-2.0488455,11.799025,-11.025213,12.203562,-29.821844,58.717056,5.8829865,-2.4466324,4.831817,-7.6349115,-13.273664,32.80178,52.671436,12.424436,-15.036122,0.38528165
79,-0.27308356761932373,-13.694588661193848,77.82830047607422,-2.2380206271503935,3.409400530157956,77.62295638018237,-17.168581,12.360664,19.52414,25.422369,-10.404455,-1.8676511,-4.128159,-10.570002,1.299842,37.965782,-19.552443,7.7603383,-1.6268536,-1.9724734,11.786814,-11.048318,12.155761,-29.985779,58.436977,5.7916427,-2.5425935,4.6190643,-7.562601,-13.441147,32.914608,52.70938,12.331997,-15.15534,0.45064867
80,-0.1444820910692215,-13.96912956237793,77.77520751953125,-2.1669005125058023,3.2571412307544647,77.64882562002366,-17.314316,12.448714,19.429575,25.624819,-10.291788,-1.9313831,-3.5821233,-10.491292,1.9885006,38.03755,-19.525175,7.8893547,-1.5921909,-1.8954095,11.785208,-11.054679,12.106283,-30.110144,58.133354,5.751452,-2.6281588,4.4384947,-7.500835,-13.60606,33.015446,52.757217,12.278395,-15.261161,0.54125524
81,-0.023197440430521965,-14.23464298248291,77.71895599365234,-2.089478897936711,3.097123513930891,77.67402996245063,-17.464117,12.53719,19.333721,25.840185,-10.175252,-2.0005789,-3.0460644,-10.372571,2.749321,38.08598,-19.49216,8.020473,-1.5527965,-1.8173707,11.798317,-11.0411625,12.051269,-30.177328,57.803116,5.7903314,-2.7072778,4.2845297,-7.451062,-13.767597,33.100483,52.82355,12.284467,-15.356435,0.6738432
82,0.10073281824588776,-14.51450252532959,77.6572494506836,-2.0076795574927746,2.9284612263350946,77.69918429763639,-17.616766,12.625825,19.235691,26.068401,-10.057685,-2.0727406,-2.5119882,-10.219053,3.5707436,38.102562,-19.448824,8.158192,-1.5070593,-1.7369858,11.824562,-11.01629,11.990101,-30.209368,57.4543,5.8861113,-2.7824266,4.1490836,-7.4156914,-13.925324,33.182346,52.910892,12.305109,-15.428522,0.8150047
83,0.22515347599983215,-14.797869682312012,77.58817291259766,-1.9212649741054983,2.760455123780737,77.72372689020212,-17.780235,12.715046,19.137001,26.30477,-9.935103,-2.1499023,-1.9907876,-10.04121,4.420482,38.08586,-19.333174,8.318635,-1.4579875,-1.6548461,11.852729,-10.985545,11.92522,-30.228865,57.0979,5.993864,-2.8438003,4.052554,-7.3904886,-14.078828,33.25972,53.004353,12.324053,-15.480386,0.9517743
84,0.3661298155784607,-15.097368240356445,77.51512145996094,-1.8307454956064548,2.6025004111884864,77.7470311816381,-17.961838,12.804405,19.039175,26.542814,-9.802662,-2.2337472,-1.4935813,-9.848255,5.2665267,38.033844,-19.083313,8.518543,-1.4083095,-1.5723666,11.871624,-10.955548,11.861577,-30.261456,56.744797,6.064938,-2.8813035,4.014951,-7.3756137,-14.229022,33.333557,53.09267,12.327964,-15.515302,1.0713345
85,0.5248011350631714,-15.396224975585938,77.43744659423828,-1.7377920037769883,2.4590521432051786,77.76055883314906,-18.16372,12.89912,18.949541,26.785364,-9.661959,-2.329195,-1.0365983,-9.618723,6.150671,37.963913,-18.617138,8.748769,-1.3531168,-1.4881451,11.874806,-10.919721,11.802778,-30.308365,56.38246,6.0662503,-2.886395,4.0230236,-7.3688755,-14.375709,33.40784,53.17287,12.308119,-15.525336,1.175381
86,0.6661203503608704,-15.697981834411621,77.35730743408203,-1.6418453574253842,2.324561729906832,77.76727646074926,-18.382229,12.998194,18.864569,27.034712,-9.514602,-2.4332798,-0.60761,-9.353148,7.0748134,37.8722,-17.991348,9.007975,-1.2927873,-1.4029992,11.870025,-10.876066,11.750039,-30.359869,56.006676,6.027572,-2.866196,4.0716295,-7.3744917,-14.519311,33.482796,53.253277,12.275467,-15.511857,1.2693074
87,0.8084391355514526,-16.01782989501953,77.27092742919922,-1.5406833265293658,2.1931650395042444,77.784049263609,-18.61748,13.092074,18.769743,27.28664,-9.357166,-2.5358691,-0.17606369,-9.095026,7.9472857,37.721287,-17.35137,9.322927,-1.2375072,-1.3203275,11.86939,-10.831917,11.703004,-30.4184,55.63347,6.003379,-2.8336947,4.192632,-7.3850775,-14.658538,33.54417,53.321045,12.237078,-15.4911,1.3458034
88,0.9461451172828674,-16.34243392944336,77.18604278564453,-1.431739388247708,2.059052428948564,77.82719951542225,-18.86633,13.169885,18.651876,27.530182,-9.182724,-2.627021,0.28627983,-8.889623,8.67643,37.47255,-16.8419,9.716446,-1.1972483,-1.2462738,11.883436,-10.794717,11.66163,-30.485939,55.281124,6.0492244,-2.8016238,4.4181814,-7.4004807,-14.788146,33.579132,53.374393,12.200384,-15.479939,1.3969784
89,1.1059445142745972,-16.68268394470215,77.09613800048828,-1.3091296321840822,1.9223625405985703,77.90610619639718,-19.134611,13.222126,18.504759,27.76888,-8.992575,-2.69885,0.8028812,-8.7557125,9.236087,37.102814,-16.462492,10.271695,-1.178296,-1.1870487,11.9129505,-10.768806,11.623448,-30.56578,54.95409,6.1926684,-2.751727,4.768386,-7.4162188,-14.908569,33.578518,53.405792,12.160447,-15.482682,1.4170414
90,1.274901032447815,-17.032346725463867,76.99728393554688,-1.1755169504388276,1.7855257429401885,78.00999896896879,-19.4195,13.255211,18.33765,28.00212,-8.788791,-2.758058,1.3503464,-8.667781,9.676355,36.63674,-16.151203,10.94737,-1.1801432,-1.1456922,11.948617,-10.742949,11.595322,-30.649376,54.641987,6.401183,-2.6828558,5.221754,-7.449754,-14.996711,33.555676,53.446365,12.109825,-15.492817,1.4089955
91,1.4379088878631592,-17.395286560058594,76.8935775756836,-1.0417225830528736,1.646475966881809,78.12576334351368,-19.712938,13.284951,18.158138,28.227365,-8.567485,-2.8172195,1.885931,-8.604823,10.016214,36.10456,-15.95652,11.576518,-1.1721897,-1.090777,12.002131,-10.737826,11.55769,-30.755247,54.35663,6.6311026,-2.6349344,5.751366,-7.4633045,-15.117294,33.506336,53.43607,12.074632,-15.500598,1.3884677
92,1.6130460500717163,-17.769489288330078,76.79029846191406,-0.9177036694168602,1.502802789101666,78.24050968330361,-20.00204,13.324788,17.975069,28.43253,-8.32412,-2.889184,2.3645258,-8.5476055,10.274578,35.54224,-15.926622,11.992164,-1.1610837,-1.022057,12.069321,-10.737126,11.525811,-30.863598,54.09251,6.8460574,-2.647474,6.326662,-7.489746,-15.228712,33.457375,53.428455,12.058051,-15.506407,1.360545
93,1.785684585571289,-18.151226043701172,76.68644714355469,-0.8062043320398107,1.3504681546622428,78.35145401599463,-20.283997,13.378586,17.789595,28.626038,-8.065031,-2.9791663,2.7747042,-8.496811,10.451747,34.93173,-16.101057,12.094028,-1.1423174,-0.93005455,12.156777,-10.745305,11.496924,-30.983631,53.853943,7.0690722,-2.7374196,6.969704,-7.517323,-15.351581,33.404305,53.398476,12.054604,-15.49615,1.3179598
94,1.957123875617981,-18.5342960357666,76.58084106445312,-0.7015524583565661,1.1917414815593275,78.46549235605637,-20.565432,13.438529,17.597258,28.810232,-7.7904005,-3.0801117,3.1362472,-8.460904,10.539899,34.26849,-16.443363,11.98607,-1.127146,-0.8279787,12.259885,-10.755422,11.477481,-31.107975,53.634445,7.312523,-2.8801491,7.6857615,-7.5651383,-15.464717,33.353836,53.371414,12.065636,-15.477715,1.2572829
95,2.1431994438171387,-18.930864334106445,76.47599029541016,-0.6023228221570591,1.03410873852833,78.58374060959797,-20.846996,13.501058,17.397667,28.961548,-7.485181,-3.1869075,3.4541993,-8.430483,10.545381,33.602272,-16.88408,11.809562,-1.1031684,-0.71737,12.375265,-10.77279,11.465044,-31.239037,53.426167,7.5127234,-3.0555623,8.423469,-7.6116433,-15.577451,33.29249,53.333282,12.10483,-15.472637,1.202215
96,2.3373351097106934,-19.34484100341797,76.37014770507812,-0.5060908779595038,0.8848480366585063,78.70711204138021,-21.12973,13.562192,17.19084,29.057146,-7.1345434,-3.2944267,3.7349448,-8.397717,10.472867,32.98015,-17.354479,11.708398,-1.0811843,-0.61537725,12.487724,-10.786451,11.462453,-31.348948,53.22585,7.617894,-3.245476,9.129902,-7.702348,-15.639791,33.247967,53.361145,12.19553,-15.509167,1.1686742
97,2.5358612537384033,-19.770570755004883,76.26970672607422,-0.41272947348950817,0.7499705294486434,78.83597012534406,-21.425833,13.6232605,16.972527,29.1077,-6.745636,-3.4016848,3.9923005,-8.365298,10.30678,32.366207,-17.841724,11.747048,-1.0122784,-0.49754968,12.610424,-10.828219,11.462018,-31.504,53.03381,7.5705633,-3.462095,9.813065,-7.7321324,-15.75216,33.146484,53.308,12.344155,-15.592286,1.1690954
98,2.7443056106567383,-20.209789276123047,76.1670150756836,-0.32259634242036506,0.6241315212283198,78.96965863587619,-21.729736,13.684418,16.744375,29.117926,-6.3219995,-3.5117056,4.2193236,-8.335614,10.049417,31.748917,-18.379982,11.841517,-0.9403267,-0.37539068,12.734698,-10.874907,11.465663,-31.652296,52.85599,7.428786,-3.7134464,10.490829,-7.773423,-15.854425,33.044037,53.265324,12.54114,-15.713102,1.1847277
99,2.959573984146118,-20.668498992919922,76.06486511230469,-0.2365239782771487,0.4987217695158426,79.1078514845633,-22.019646,13.7440815,16.513716,29.062508,-5.846291,-3.6259773,4.3932343,-8.297819,9.730107,31.205763,-18.967764,11.915227,-0.85211575,-0.25136507,12.873983,-10.924641,11.473353,-31.79316,52.672737,7.243974,-3.972452,11.134916,-7.823597,-15.947418,32.94452,53.23482,12.780801,-15.846926,1.2275454
100,3.17946720123291,-21.14173126220703,75.9679183959961,-0.15567675683368984,0.3648946179856456,79.25069725763403,-22.272205,13.801033,16.28746,28.913305,-5.3001804,-3.7462215,4.4912896,-8.240175,9.379315,30.815514,-19.604483,11.892249,-0.7606305,-0.13468714,13.032686,-10.962972,11.480744,-31.890694,52.471584,7.0807896,-4.211312,11.716199,-7.925102,-15.99715,32.887573,53.277924,13.059798,-15.973322,1.3030254
101,3.4145638942718506,-21.630634307861328,75.8780288696289,-0.07870017201909865,0.22115368262684457,79.3895674838158,-22.486454,13.863365,16.072222,28.679327,-4.690315,-3.8682826,4.4975967,-8.162794,9.001654,30.613773,-20.323719,11.754365,-0.61423284,-0.0122722825,13.232446,-11.016288,11.495995,-32.012913,52.239204,6.9070044,-4.4238486,12.23961,-8.005721,-16.073729,32.81591,53.286465,13.419476,-16.08226,1.4446279
102,3.6432671546936035,-22.128746032714844,75.7968978881836,-0.005391245204017094,0.0718486165176636,79.52772306230088,-22.672838,13.930222,15.861348,28.37038,-4.0230756,-3.9934645,4.427673,-8.069524,8.583543,30.55488,-21.115362,11.54338,-0.45202664,0.11233485,13.45628,-11.0710335,11.512829,-32.11799,51.992416,6.7156014,-4.6258483,12.714475,-8.106645,-16.139606,32.765526,53.315994,13.849566,-16.188435,1.6333145
103,3.8877322673797607,-22.64325714111328,75.72154998779297,0.058338863229984474,-0.08256012503867596,79.68233738686952,-22.828014,13.98961,15.639611,27.96586,-3.2816432,-4.132206,4.305245,-7.952179,8.128834,30.596851,-21.912695,11.274657,-0.27875862,0.24280153,13.706105,-11.103136,11.535416,-32.183563,51.699135,6.550527,-4.8145676,13.124525,-8.2075815,-16.216105,32.728764,53.34625,14.268875,-16.284946,1.8320558
104,4.153131484985352,-23.17301368713379,75.656005859375,0.1079989872832208,-0.24161302147697714,79.87031609582309,-22.944002,14.028464,15.392502,27.43659,-2.449361,-4.295285,4.1551285,-7.803809,7.6406946,30.696194,-22.649189,10.964353,-0.12392753,0.37021583,13.959361,-11.097669,11.544784,-32.16216,51.38138,6.463458,-4.9892507,13.456915,-8.341039,-16.245611,32.722725,53.459698,14.575812,-16.375954,1.9934689
105,4.420100688934326,-23.710561752319336,75.5947036743164,0.13930735410250009,-0.4398270082449657,80.09066964782701,-22.989979,14.063186,15.1112585,26.801231,-1.5438592,-4.452953,4.016314,-7.6160517,7.1075935,30.854832,-23.316792,10.594645,0.012879085,0.5063528,14.276431,-11.024443,11.560517,-32.025135,50.968113,6.481596,-5.1378527,13.677924,-8.473766,-16.284239,32.75201,53.576687,14.762918,-16.454235,2.1084192
106,4.695375442504883,-24.260589599609375,75.53990936279297,0.15656846150782963,-0.6651204917076858,80.33634260071734,-22.981144,14.098182,14.802722,26.072456,-0.571481,-4.6107287,3.8650532,-7.3966746,6.5327835,31.09303,-23.951721,10.166162,0.128627,0.647412,14.637907,-10.901816,11.580927,-31.78861,50.49231,6.5709424,-5.2675276,13.803738,-8.627042,-16.316887,32.827454,53.72716,14.877285,-16.526731,2.1984696
107,4.979061126708984,-24.818918228149414,75.49559783935547,0.16478837052028633,-0.8486050160721479,80.61705528543474,-22.974888,14.104967,14.471592,25.209066,0.50683016,-4.8333397,3.6398387,-7.1626396,5.9373136,31.382662,-24.546999,9.72204,0.22889379,0.7850496,14.962273,-10.742022,11.597976,-31.497261,49.98259,6.70257,-5.38912,13.89147,-8.790197,-16.33314,32.92001,53.913315,14.921472,-16.587097,2.274543
108,5.263232707977295,-25.366920471191406,75.45879364013672,0.16860904210442273,-0.9219377453421699,80.94191868233041,-23.02614,14.055338,14.119542,24.161655,1.7323203,-5.1867547,3.278523,-6.9294133,5.3408837,31.69644,-25.094501,9.304589,0.30288872,0.91585416,15.171883,-10.547498,11.608085,-31.175222,49.456062,6.8479214,-5.5160046,13.993912,-8.9479,-16.338516,33.016075,54.12016,14.899106,-16.627884,2.348306
109,5.554680824279785,-25.91337013244629,75.42774200439453,0.16545485801421994,-0.834716148128643,81.31534365329597,-23.199064,13.952947,13.730021,22.925528,3.1359682,-5.606439,2.7116926,-6.6899815,4.7408075,32.055283,-25.580652,8.922016,0.35139123,1.043621,15.223489,-10.311228,11.608746,-30.809223,48.896595,7.0041714,-5.654366,14.12524,-9.103202,-16.338114,33.117146,54.347176,14.792946,-16.649885,2.4223258
110,5.8545145988464355,-26.473108291625977,75.39786529541016,0.15499274050397677,-0.635223525342448,81.73132197330843,-23.438677,13.821082,13.298963,21.513397,4.6890965,-6.0880394,1.9934591,-6.4402924,4.1256638,32.464035,-26.014793,8.550496,0.36772925,1.1710523,15.168664,-10.028219,11.599576,-30.375643,48.298088,7.189331,-5.7970233,14.254997,-9.269505,-16.333744,33.24464,54.602337,14.611454,-16.655918,2.4898186
111,6.125863552093506,-27.021554946899414,75.37201690673828,0.14195919675242244,-0.40490893505333725,82.18078378604812,-23.613705,13.658776,12.842925,19.888117,6.3463416,-6.7893705,1.247352,-6.1959,3.503894,32.869583,-26.420506,8.184767,0.3122192,1.2979792,15.071828,-9.692444,11.573772,-29.857586,47.689198,7.4157705,-5.9378443,14.366558,-9.461604,-16.318903,33.443394,54.89637,14.406427,-16.64171,2.5455565
112,6.3855462074279785,-27.56684112548828,75.34424591064453,0.12492627539031673,-0.22734962187607066,82.65266606110538,-23.582956,13.458884,12.376812,17.990273,8.066927,-7.8684697,0.5964461,-5.9663606,2.8878284,33.21903,-26.819754,7.8202906,0.2833396,1.4236953,14.998879,-9.373921,11.53432,-29.41693,47.138336,7.648465,-6.063347,14.466099,-9.593885,-16.301115,33.586494,55.171906,14.192918,-16.602005,2.5992744
113,6.659849166870117,-28.093538284301758,75.30947875976562,0.0881529254111013,-0.11944084902917936,83.15654059080526,-23.271944,13.202964,11.868487,15.639806,10.028906,-9.496181,0.0667431,-5.7332797,2.2760146,33.499332,-27.215618,7.450289,0.25684842,1.5623591,14.963601,-9.051719,11.483912,-29.024784,46.623226,7.8974442,-6.166893,14.544927,-9.671424,-16.286156,33.710846,55.43097,14.003095,-16.533764,2.6619906
114,6.92301082611084,-28.61874771118164,75.26791381835938,0.005256914077287927,-0.052952098106336595,83.67921313728078,-22.7206,12.937373,11.292072,12.855315,12.20025,-11.558781,-0.38547674,-5.457533,1.6699368,33.721226,-27.586191,7.0722504,0.22826219,1.7437909,14.944192,-8.7113,11.417149,-28.64187,46.127388,8.169433,-6.2554107,14.606641,-9.71873,-16.275219,33.841957,55.69191,13.818382,-16.440321,2.7288516
115,7.171140670776367,-29.129255294799805,75.21778106689453,-0.13583692895665586,-0.04036035064557753,84.17769085880221,-21.99182,12.745061,10.691472,9.928181,14.219857,-13.775148,-0.7451766,-5.119969,1.0857391,33.86681,-27.915264,6.6899405,0.21952982,1.992631,14.9559555,-8.372001,11.32892,-28.277176,45.68416,8.457387,-6.3411136,14.656399,-9.734204,-16.271343,33.950985,55.942135,13.592866,-16.323195,2.777041
116,7.399304389953613,-29.614561080932617,75.15998840332031,-0.2820393228409351,-0.07449335788787063,84.64421948265675,-21.101913,12.579161,10.390429,6.98887,15.844137,-15.000033,-1.0360937,-4.797298,0.527051,33.969353,-28.21637,6.3334746,0.2393364,2.269211,15.002273,-8.052966,11.234979,-27.962791,45.31136,8.744826,-6.4349747,14.699495,-9.720807,-16.281178,34.00271,56.166527,13.296496,-16.184336,2.78598
117,7.581080436706543,-30.097562789916992,75.09817504882812,-0.3131855232193662,-0.14899782742984385,85.16009164156986,-20.863922,12.351849,10.400751,5.6875234,16.198982,-15.000033,-1.3011229,-4.67567,-0.046318594,34.15592,-28.584356,6.0583878,0.19312309,2.4704363,15.074331,-7.7488537,11.116646,-27.686947,45.00914,9.0751095,-6.529103,14.745203,-9.679114,-16.316154,34.00406,56.35756,12.866812,-16.011515,2.7496123
118,7.7453532218933105,-30.585224151611328,75.04724884033203,-0.38789647327519,-0.27954214182537696,85.64520421139939,-21.047167,12.237544,10.364363,5.5326357,15.650032,-15.000033,-1.4725152,-4.5159307,-0.59963244,34.269085,-28.91625,5.7918687,0.17794001,2.723096,15.190321,-7.444237,11.012109,-27.463484,44.738754,9.426257,-6.6196213,14.787016,-9.598363,-16.36348,33.94637,56.508595,12.334064,-15.807512,2.6816347
119,7.913451671600342,-31.07735252380371,74.99739074707031,-0.4673022402275136,-0.4186450388547732,86.0917478380038,-21.161364,12.162056,10.304823,5.45367,14.786468,-15.000033,-1.6185055,-4.3471622,-1.1210147,34.32809,-29.19087,5.5250864,0.190298,2.9868598,15.302799,-7.164668,10.889202,-27.264559,44.555798,9.742952,-6.7313604,14.807349,-9.482506,-16.43053,33.848717,56.63179,11.817848,-15.594006,2.5855305
120,8.102540969848633,-31.540771484375,74.96505737304688,-0.5086175544717167,-0.5231253332247,86.48787613106074,-21.208344,12.151173,10.161724,5.4388986,13.624474,-15.000033,-1.8053707,-4.20209,-1.5935398,34.35668,-29.390203,5.2502103,0.2485435,3.1916928,15.374107,-6.90873,10.787095,-27.096786,44.459763,9.940762,-6.8845334,14.787284,-9.330407,-16.488224,33.69634,56.741135,11.4160185,-15.395756,2.4648845
121,8.317863464355469,-31.999469757080078,74.95624542236328,-0.5367480304786277,-0.5793721660923946,86.81215433220783,-21.218878,12.290458,9.804992,5.5542693,11.887217,-15.000033,-2.0393689,-4.0364885,-2.0135765,34.325897,-29.497133,4.9483438,0.36972928,3.3627179,15.382976,-6.6846685,10.6923485,-26.958809,44.475487,9.952968,-7.0954022,14.680985,-9.135252,-16.538456,33.487244,56.83152,11.141799,-15.2132845,2.3048055
122,8.549383163452148,-32.46752166748047,74.97943878173828,-0.521447780467092,-0.6033307858180551,87.08587017971827,-21.144299,12.503747,9.38815,5.7008414,9.698666,-15.000033,-2.3032825,-3.8997266,-2.387452,34.249798,-29.534372,4.6376433,0.55486935,3.4899642,15.343085,-6.525367,10.565554,-26.869322,44.636402,9.842093,-7.3507833,14.516742,-8.880013,-16.60071,33.19764,56.88664,10.938213,-15.03394,2.1088033
123,8.758699417114258,-32.921607971191406,75.03460693359375,-0.4643559496764951,-0.601699849565532,87.35180262318666,-20.996624,12.734729,9.170799,5.8693457,7.541103,-15.000033,-2.5962973,-3.8124228,-2.7396688,34.15829,-29.510042,4.338842,0.74157006,3.56423,15.2765,-6.3875737,10.450192,-26.79818,44.871063,9.71705,-7.6241155,14.373331,-8.613435,-16.649725,32.87011,56.955276,10.822248,-14.868193,1.904098
124,8.954326629638672,-33.376644134521484,75.1077880859375,-0.35501509005858806,-0.5901189824588605,87.64467627277486,-20.753586,12.898861,9.369828,6.015573,5.8987465,-15.000033,-2.9112852,-3.8097768,-3.0832417,34.087337,-29.436703,4.0760236,0.8750142,3.575643,15.216474,-6.240296,10.370406,-26.708487,45.123028,9.695158,-7.89192,14.328865,-8.373541,-16.674433,32.538525,57.070908,10.8057785,-14.724096,1.719571
125,9.150979995727539,-33.83436584472656,75.19200134277344,-0.1693510995813028,-0.5770779201435621,87.96524236558837,-20.382622,12.974492,10.074532,6.1297393,4.9670134,-15.000033,-3.2557712,-3.9230845,-3.4044106,34.065926,-29.310461,3.8556416,0.9564974,3.509926,15.178652,-6.103607,10.313709,-26.608929,45.423855,9.844816,-8.170769,14.42734,-8.159317,-16.68336,32.19775,57.23794,10.9334545,-14.611206,1.5553259
126,9.329605102539062,-34.290401458740234,75.28900146484375,0.10706110017396192,-0.5566949791310205,88.30937468317254,-19.900108,12.950343,11.161803,6.24676,4.4383206,-14.762548,-3.6413238,-4.170607,-3.7007358,34.10654,-29.149504,3.6776538,1.0358328,3.3650534,15.141427,-6.034195,10.233335,-26.547413,45.8458,10.09789,-8.465363,14.627108,-7.9277205,-16.686777,31.777494,57.43098,11.164164,-14.522624,1.4036337
127,9.477569580078125,-34.74872589111328,75.39374542236328,0.4577801429460581,-0.5226092913033561,88.69449084600508,-19.345608,12.762071,12.49842,6.350031,4.0741887,-13.842404,-4.0615745,-4.5451136,-3.9967558,34.20084,-28.985163,3.5506852,1.0465657,3.146735,15.088493,-5.9476247,10.163697,-26.456732,46.281887,10.362266,-8.735044,14.866469,-7.7079287,-16.681097,31.37426,57.649254,11.447916,-14.44175,1.2666456
128,9.60373306274414,-35.20297622680664,75.5030746459961,0.7777423259717468,-0.482463519626507,89.0814103179665,-18.746649,12.571322,13.826681,6.473068,3.618898,-13.059677,-4.450177,-4.890765,-4.3014674,34.224968,-28.783434,3.4389505,1.0485965,2.9531772,15.008468,-5.853853,10.084749,-26.341654,46.725662,10.551052,-8.941287,15.094299,-7.480357,-16.666147,30.968359,57.873188,11.692967,-14.351121,1.155342
129,9.744659423828125,-35.6430549621582,75.61842346191406,1.0518826662756449,-0.42503262473267833,89.47488168284883,-18.111656,12.389743,15.2132225,6.6228113,3.0173278,-12.462343,-4.81381,-5.195898,-4.6253324,34.172157,-28.53811,3.3434427,1.0210428,2.7967877,14.885912,-5.7329936,9.999657,-26.182705,47.16411,10.660041,-9.067942,15.303236,-7.2586646,-16.641459,30.5844,58.119717,11.908247,-14.247425,1.0746185
130,9.874427795410156,-36.076908111572266,75.73774719238281,1.3050621445010326,-0.35394809378131764,89.87362943315514,-17.861855,12.335571,16.61593,7.746807,1.9029655,-12.019343,-5.1632276,-5.4884014,-4.9556346,34.06522,-28.245815,3.2665434,0.96304286,2.6546154,14.735003,-5.5899844,9.917117,-25.98591,47.60475,10.729305,-9.138157,15.5168295,-7.038994,-16.6071,30.211142,58.38343,12.122855,-14.138916,1.0187572
131,9.99482250213623,-36.505985260009766,75.85701751708984,1.5457360576386123,-0.289609380507314,90.26853681015344,-17.842041,12.371544,17.877146,9.511892,0.50165147,-11.642775,-5.476297,-5.7715416,-5.2819695,33.90106,-27.921246,3.204883,0.8905858,2.5142224,14.5817995,-5.432543,9.841043,-25.757063,48.035656,10.73815,-9.173307,15.725912,-6.828512,-16.56533,29.862865,58.648026,12.328015,-14.026504,0.97757375
132,10.112852096557617,-36.92966842651367,75.97148895263672,1.7769556266506807,-0.25409313636239994,90.64820196441038,-17.76878,12.400263,18.864304,11.2881365,-0.81073886,-11.245246,-5.7281966,-6.0418897,-5.593818,33.674984,-27.577965,3.1539502,0.81660575,2.3682885,14.455058,-5.2609243,9.777056,-25.495178,48.437294,10.667632,-9.194817,15.919946,-6.6226125,-16.52015,29.547653,58.884163,12.503597,-13.910507,0.9416084
133,10.212514877319336,-37.3535270690918,76.09406280517578,2.003759918063604,-0.26007444617375414,91.02004671279673,-17.659134,12.409843,19.519909,13.116958,-2.0221894,-10.7954035,-5.8975887,-6.306409,-5.8991566,33.37346,-27.20979,3.1246755,0.7353991,2.2096305,14.368286,-5.084126,9.7177725,-25.192476,48.819744,10.497583,-9.203722,16.104706,-6.436079,-16.467655,29.270971,59.10946,12.661014,-13.789148,0.91535544
134,10.331019401550293,-37.78019714355469,76.21437072753906,2.213608601478672,-0.2960134249051263,91.38302278234532,-17.519098,12.417377,19.948032,15.009185,-3.1655405,-10.341059,-5.997864,-6.552545,-6.2004733,32.998363,-26.810062,3.1132162,0.64364845,2.0531018,14.307144,-4.895481,9.664913,-24.849636,49.18418,10.242119,-9.190938,16.282213,-6.2610884,-16.40806,29.025953,59.3251,12.801538,-13.66225,0.90195334
135,10.436784744262695,-38.19291687011719,76.32937622070312,2.386941857740836,-0.3469382490609503,91.71377945240367,-17.354479,12.446442,20.191122,16.939528,-4.2708225,-9.914953,-6.0578823,-6.7499413,-6.479383,32.56972,-26.394466,3.093517,0.56767404,1.9229741,14.252819,-4.6903424,9.621199,-24.487799,49.525265,9.938787,-9.16204,16.440844,-6.086298,-16.348972,28.81219,59.514473,12.907676,-13.535502,0.88804525
136,10.531167984008789,-38.59446716308594,76.43815612792969,2.509104423639976,-0.39639099684221024,91.99075883576135,-17.171703,12.520109,20.291555,18.884111,-5.3696294,-9.549332,-6.108996,-6.8727336,-6.7179985,32.108425,-25.978563,3.0404437,0.53088856,1.8408529,14.182581,-4.471655,9.582496,-24.1276,49.850418,9.625376,-9.122815,16.570673,-5.9052,-16.29254,28.631266,59.670334,12.960949,-13.415003,0.85903287
137,10.617624282836914,-38.98683547973633,76.53959655761719,2.5757074016501287,-0.43703262608177473,92.20372314171804,-16.987846,12.650268,20.231304,20.87318,-6.4887276,-9.244053,-6.1527495,-6.909318,-6.9051404,31.59952,-25.56631,2.9384453,0.558808,1.8152267,14.090565,-4.2324967,9.556671,-23.785604,50.14669,9.292322,-9.07113,16.675827,-5.684244,-16.25646,28.464138,59.75256,12.937853,-13.296928,0.8121933
138,10.720438003540039,-39.371490478515625,76.62995147705078,2.5972207447295665,-0.47701515984868526,92.36721625852138,-16.798857,12.817146,19.998646,22.90554,-7.6021633,-8.984365,-6.177733,-6.878018,-7.0537796,31.041794,-25.150871,2.804269,0.61133003,1.8303446,13.981842,-3.9822724,9.522402,-23.415245,50.441444,8.941153,-9.007051,16.75887,-5.4687386,-16.213243,28.335718,59.81934,12.848688,-13.182081,0.7509364
139,10.799270629882812,-39.756290435791016,76.71515655517578,2.5833707622450017,-0.5212802973098203,92.49792732949872,-16.584482,12.995242,19.64468,24.920563,-8.66802,-8.779948,-6.194594,-6.801411,-7.182357,30.470545,-24.729307,2.6620994,0.686177,1.8777286,13.8702,-3.7295747,9.491946,-23.055647,50.721687,8.57632,-8.932691,16.811182,-5.2492914,-16.179056,28.236792,59.851723,12.742994,-13.0742035,0.6858407
140,10.856398582458496,-40.154518127441406,76.79264831542969,2.545787019581456,-0.5748750207203893,92.61237802265845,-16.321196,13.155972,19.223314,26.854332,-9.645154,-8.6411915,-6.2148294,-6.703262,-7.308586,29.923037,-24.299025,2.536271,0.76294255,1.9453217,13.769036,-3.4834683,9.469598,-22.715643,50.98366,8.214401,-8.851858,16.82025,-5.040192,-16.157675,28.171404,59.856686,12.66295,-12.978127,0.6257342
141,10.914441108703613,-40.55253982543945,76.86104583740234,2.483210210990282,-0.646778238633194,92.7149888122523,-16.012941,13.282624,18.705675,28.722406,-10.51486,-8.600482,-6.2259045,-6.584904,-7.4422693,29.393557,-23.85342,2.4349637,0.82072437,2.0349646,13.688113,-3.2385633,9.449301,-22.362762,51.22247,7.8660383,-8.766513,16.775997,-4.8552,-16.142704,28.15672,59.84081,12.611586,-12.89698,0.5702739
142,10.972102165222168,-40.94072723388672,76.91964721679688,2.3934504758433275,-0.7304080694228479,92.7984194142841,-15.672022,13.383687,18.08324,30.550844,-11.303434,-8.644211,-6.228361,-6.439929,-7.572048,28.867537,-23.395472,2.345496,0.8667359,2.1468241,13.617145,-2.9893303,9.43028,-21.993702,51.44048,7.5232644,-8.674118,16.686409,-4.69608,-16.135147,28.199884,59.809093,12.576526,-12.827936,0.5144954
143,11.016545295715332,-41.33125686645508,76.9794692993164,2.2912708449748265,-0.8080690758873209,92.86167575064832,-15.29666,13.472855,17.437078,32.31545,-12.037932,-8.712776,-6.25332,-6.2812986,-7.683667,28.368166,-22.937885,2.2611527,0.91451097,2.267874,13.538105,-2.7453182,9.416986,-21.64755,51.649906,7.1818275,-8.572646,16.56485,-4.5433946,-16.135727,28.27248,59.755634,12.548773,-12.766762,0.46022096
144,11.063560485839844,-41.7230339050293,77.02604675292969,2.1888558450602167,-0.8621773462419304,92.90349990774857,-14.887908,13.568588,16.845299,33.997574,-12.749224,-8.745219,-6.333781,-6.121665,-7.7630587,27.923773,-22.496119,2.175414,0.95468396,2.383436,13.434208,-2.5037217,9.410657,-21.32947,51.856937,6.849153,-8.461544,16.42027,-4.4075737,-16.143957,28.382914,59.697857,12.53313,-12.709911,0.4071927
145,11.103049278259277,-42.11814498901367,77.0606689453125,2.091045397222942,-0.8784338785768544,92.92474214030393,-14.4627695,13.659728,16.29073,35.59596,-13.433233,-8.735006,-6.4892373,-5.9657774,-7.8031425,27.539217,-22.069494,2.090244,1.0133299,2.4888155,13.291967,-2.2813885,9.415468,-21.069498,52.064278,6.502454,-8.333004,16.256424,-4.275745,-16.157528,28.509756,59.625854,12.529491,-12.660456,0.35253516
146,11.138347625732422,-42.50215530395508,77.09213256835938,1.9917121712681414,-0.8691548483863567,92.9259030978431,-14.01729,13.740167,15.744751,37.124645,-14.080456,-8.711803,-6.702295,-5.8088226,-7.8123264,27.20773,-21.653488,2.0087106,1.077982,2.589555,13.123187,-2.0683331,9.430058,-20.844055,52.2649,6.1501436,-8.18982,16.066906,-4.1527605,-16.17535,28.662928,59.53915,12.53396,-12.619161,0.29686296
147,11.168532371520996,-42.87983322143555,77.1216812133789,1.8872570401631572,-0.8572914022848237,92.90496861528459,-13.516169,13.838452,15.26573,38.57606,-14.7055025,-8.666772,-6.9349613,-5.6456575,-7.801165,26.907902,-21.24616,1.9249412,1.1313384,2.688801,12.948331,-1.8504034,9.456656,-20.647219,52.46597,5.8231792,-8.044951,15.853024,-4.0435767,-16.19763,28.845028,59.448692,12.542634,-12.578896,0.24802575
148,11.18502426147461,-43.25611114501953,77.14781951904297,1.7747188040093096,-0.8660198709373629,92.85994535858967,-12.922493,13.985425,14.91125,39.9399,-15.322612,-8.590654,-7.155042,-5.471047,-7.779731,26.631323,-20.846775,1.8328214,1.1796287,2.790496,12.7844925,-1.6290572,9.49537,-20.50106,52.68951,5.5477633,-7.9108453,15.620341,-3.9368782,-16.220192,29.0248,59.361553,12.538471,-12.533342,0.21487808
149,11.204387664794922,-43.62732696533203,77.16370391845703,1.6524195718805728,-0.9087909263315828,92.78179050839323,-12.206161,14.210065,14.730145,41.220486,-15.939233,-8.472963,-7.344332,-5.277531,-7.7469683,26.375742,-20.458317,1.72648,1.2381045,2.8981407,12.635874,-1.4101925,9.543989,-20.423868,52.95298,5.331937,-7.7995667,15.380566,-3.830073,-16.238182,29.199234,59.285156,12.516808,-12.481883,0.2036391
150,11.208640098571777,-44.01323318481445,77.17513275146484,1.5210718299102934,-0.9711237047563935,92.67434305202093,-11.392093,14.491741,14.679474,42.420822,-16.547411,-8.320392,-7.523744,-5.069125,-7.6990623,26.147343,-20.079918,1.6106228,1.2916749,3.002387,12.497054,-1.1747833,9.620167,-20.391127,53.218636,5.158737,-7.7012258,15.122441,-3.7258313,-16.254211,29.3866,59.204643,12.48254,-12.427219,0.2090218
151,11.235340118408203,-44.37595748901367,77.1869888305664,1.38578551441952,-1.0344010201127944,92.55486171734312,-10.526755,14.786496,14.678976,43.528675,-17.137299,-8.149438,-7.7181425,-4.857324,-7.6422105,25.94769,-19.706474,1.4949211,1.3431072,3.1037107,12.35697,-0.9509695,9.706764,-20.41129,53.50626,5.0185385,-7.5961823,14.834818,-3.630825,-16.262066,29.556446,59.13488,12.441342,-12.370706,0.22003497
152,11.24960994720459,-44.739749908447266,77.19131469726562,1.250116587354381,-1.0796278030404631,92.44074123625339,-9.658671,15.049148,14.648655,44.533443,-17.699657,-7.9772344,-7.9507914,-4.653604,-7.582795,25.774473,-19.330713,1.3892268,1.3748745,3.2039976,12.2060375,-0.75154835,9.784934,-20.46802,53.822483,4.9076614,-7.465216,14.503486,-3.5531423,-16.2619,29.697132,59.08461,12.398228,-12.312639,0.22474669
153,11.24274730682373,-45.127197265625,77.19102478027344,1.109883297225662,-1.0933697260639021,92.33400675556821,-8.801879,15.287424,14.592311,45.43802,-18.244076,-7.798508,-8.242291,-4.45522,-7.521784,25.63396,-18.949001,1.2938972,1.3777342,3.3087916,12.035654,-0.5758185,9.853033,-20.555857,54.165115,4.816979,-7.3017483,14.1198,-3.5016625,-16.257471,29.81473,59.05837,12.353985,-12.252874,0.22763018
154,11.232047080993652,-45.52464294433594,77.18391418457031,0.9652538531934102,-1.0883809642948958,92.22630200004092,-7.932558,15.517038,14.544346,46.2499,-18.773218,-7.608163,-8.576135,-4.2587166,-7.4561644,25.526182,-18.566298,1.2048123,1.3589478,3.406273,11.858044,-0.40185478,9.944422,-20.682432,54.505096,4.743962,-7.1157618,13.688053,-3.4726768,-16.244574,29.920977,59.045082,12.3137865,-12.191257,0.2335296
155,11.224315643310547,-45.90776062011719,77.17286682128906,0.8252773863705265,-1.0850006121668898,92.11972160154565,-7.0415616,15.703657,14.472002,46.962692,-19.263914,-7.4236903,-8.917625,-4.073157,-7.3865614,25.435255,-18.186283,1.1247462,1.325968,3.496835,11.681552,-0.24810429,10.024651,-20.84134,54.87651,4.7219114,-6.916392,13.224746,-3.4449553,-16.224838,29.993633,59.04007,12.263806,-12.127784,0.22818655
156,11.20448112487793,-46.28689956665039,77.16416931152344,0.7016456130185043,-1.1035765420531563,92.0165134476079,-6.1208267,15.812124,14.342891,47.571835,-19.693142,-7.262651,-9.235458,-3.9085221,-7.3128414,25.352016,-17.815767,1.056241,1.2838949,3.5653303,11.523604,-0.104000315,10.103655,-21.029251,55.26506,4.768422,-6.7111154,12.737623,-3.4070385,-16.194227,30.02674,59.033924,12.208831,-12.062639,0.19878526
157,11.168328285217285,-46.657867431640625,77.16387176513672,0.5994776806002364,-1.1539851608680525,91.91155583232312,-5.151999,15.836222,14.172018,48.073368,-20.051292,-7.12092,-9.516752,-3.7683902,-7.229696,25.274124,-17.457857,1.0036658,1.2277713,3.612652,11.390216,0.027706066,10.163995,-21.234583,55.68793,4.9141555,-6.4966154,12.221273,-3.351863,-16.160091,30.018677,59.022373,12.128523,-11.990129,0.1371983
158,11.148646354675293,-47.039005279541016,77.15291595458984,0.5125764271445004,-1.2236948516409332,91.8056425918909,-4.1455016,15.790177,13.970096,48.47214,-20.351091,-6.992152,-9.779929,-3.6474562,-7.138168,25.206856,-17.108704,0.96409917,1.1751041,3.628078,11.273293,0.1533246,10.244734,-21.489038,56.12126,5.125516,-6.2700653,11.670412,-3.2860243,-16.100166,29.953192,59.015972,12.024476,-11.914201,0.052688483
159,11.134868621826172,-47.42564392089844,77.13371276855469,0.43251457123509174,-1.299311770345795,91.70978689641049,-3.1354377,15.671674,13.697898,48.77605,-20.60364,-6.8900647,-10.040718,-3.5403626,-7.048742,25.152561,-16.765102,0.92939657,1.1011325,3.6302803,11.162014,0.26851472,10.3229685,-21.764273,56.56632,5.3749585,-6.047137,11.101835,-3.222307,-16.02874,29.866182,59.015194,11.938725,-11.842756,-0.044574134
160,11.111564636230469,-47.817588806152344,77.11589813232422,0.3501011893758703,-1.367469009753981,91.63517379886248,-2.1562254,15.479125,13.316112,48.99476,-20.82082,-6.8283257,-10.312556,-3.441962,-6.9719477,25.107954,-16.420704,0.89142936,1.0052091,3.6283226,11.045161,0.36731848,10.399559,-22.065231,57.014786,5.619741,-5.840902,10.532744,-3.1530259,-15.947999,29.756636,59.008343,11.897367,-11.784917,-0.14270616
161,11.077540397644043,-48.209102630615234,77.09537506103516,0.2630660055639304,-1.42961796291812,91.58694107834107,-1.2059821,15.206204,12.804406,49.12566,-21.005781,-6.8118057,-10.591637,-3.350559,-6.909213,25.07286,-16.076588,0.8484687,0.8809907,3.6230168,10.923942,0.4486822,10.4757595,-22.39767,57.473354,5.844967,-5.6635566,9.948684,-3.0750442,-15.85851,29.624718,58.99178,11.918013,-11.743463,-0.23864476
162,11.035319328308105,-48.59715270996094,77.07554626464844,0.17658414181548107,-1.4909225238514556,91.55838089965965,-0.26897386,14.856876,12.187265,49.16852,-21.153898,-6.832005,-10.874469,-3.2689226,-6.855282,25.050571,-15.736354,0.80468327,0.732079,3.6115527,10.803582,0.5146132,10.549637,-22.75875,57.943607,6.0740194,-5.505556,9.34701,-2.994869,-15.764109,29.47453,58.97093,11.989371,-11.713377,-0.3383643
163,11.000428199768066,-48.99254608154297,77.05706024169922,0.0914885183207224,-1.5437091422967215,91.54326695977446,0.64294934,14.444817,11.492848,49.133408,-21.263742,-6.8819823,-11.171245,-3.1996224,-6.8111763,25.036694,-15.393424,0.7607452,0.5746767,3.592473,10.677945,0.5671793,10.625444,-23.144583,58.404575,6.319467,-5.3461723,8.761696,-2.9082522,-15.658833,29.29347,58.94448,12.076404,-11.692482,-0.44367808
164,10.945462226867676,-49.394859313964844,77.0368881225586,0.010064017936926949,-1.5802440735472114,91.53498588176527,1.5177824,13.984182,10.748768,49.03033,-21.333565,-6.9552126,-11.491667,-3.144462,-6.777985,25.025902,-15.04088,0.71704435,0.41381624,3.5709422,10.542165,0.6113068,10.695537,-23.534554,58.836525,6.6016874,-5.1655507,8.225959,-2.8089116,-15.548935,29.082497,58.90141,12.148274,-11.676955,-0.5561393
165,10.888504028320312,-49.79745864868164,77.01031494140625,-0.06884994238672315,-1.5980931739596684,91.53456686028085,2.3546865,13.466084,9.941189,48.856117,-21.37009,-7.056608,-11.841424,-3.1024206,-6.761374,25.02606,-14.683214,0.66989446,0.24861991,3.5510726,10.390306,0.64263695,10.757592,-23.946918,59.25162,6.9241667,-4.961077,7.7489014,-2.6955788,-15.435497,28.833298,58.84254,12.195641,-11.666405,-0.6815708
166,10.827616691589355,-50.20186233520508,76.98474884033203,-0.14653035253200417,-1.6013691052507204,91.54478108199842,3.1628785,12.888501,9.061361,48.607693,-21.37247,-7.186029,-12.20968,-3.0717804,-6.759613,25.027084,-14.316632,0.61958945,0.07571686,3.5318105,10.226154,0.6588534,10.811096,-24.38302,59.65766,7.277965,-4.742799,7.312564,-2.5677848,-15.319258,28.547565,58.768196,12.233241,-11.662235,-0.8170603
167,10.773677825927734,-50.613033294677734,76.95616149902344,-0.21687395905694068,-1.5921280844338492,91.56104490581353,3.941626,12.275138,8.14643,48.300762,-21.33247,-7.3301845,-12.601341,-3.056251,-6.7611384,25.038906,-13.945788,0.5725839,-0.09446634,3.5080419,10.060142,0.6618741,10.855582,-24.808647,60.030426,7.6610045,-4.509617,6.910651,-2.4393163,-15.202609,28.250465,58.685413,12.286968,-11.664398,-0.9518216
168,10.707077026367188,-51.02305603027344,76.92652130126953,-0.2773919283501445,-1.5724755707303415,91.57896562844469,4.688647,11.6499405,7.2328916,47.95097,-21.241938,-7.4767966,-13.021842,-3.059636,-6.754104,25.071922,-13.575663,0.5353774,-0.25526848,3.4746222,9.901932,0.6538785,10.890939,-25.188385,60.346767,8.068729,-4.2607203,6.536541,-2.315928,-15.088401,27.961927,58.594345,12.372262,-11.672688,-1.0747808
169,10.63279914855957,-51.44032669067383,76.89311218261719,-0.3250557331177969,-1.5431626836694297,91.59833339688407,5.413482,10.997289,6.3020186,47.53865,-21.10485,-7.662799,-13.468743,-3.0823102,-6.7364874,25.123814,-13.206522,0.50856984,-0.40940812,3.4297292,9.752137,0.63834286,10.916117,-25.511463,60.59885,8.546338,-3.9754887,6.1879387,-2.1954463,-14.978397,27.682634,58.492226,12.500846,-11.689719,-1.1816138
170,10.55810546875,-51.8689079284668,76.85533905029297,-0.3633991783548788,-1.502901603071554,91.6214344994436,6.1151137,10.313416,5.341753,47.06472,-20.925043,-7.8812046,-13.941867,-3.1217992,-6.714188,25.192846,-12.837144,0.4882331,-0.5608329,3.3771513,9.606806,0.61427134,10.930348,-25.794752,60.798653,9.082189,-3.661534,5.8670893,-2.0777395,-14.872749,27.40775,58.37955,12.66552,-11.714634,-1.2784281
171,10.47414779663086,-52.30729675292969,76.8119888305664,-0.39278870044679676,-1.4509492682557914,91.6469749928651,6.774773,9.636645,4.3997355,46.57082,-20.689005,-8.055101,-14.44262,-3.1765685,-6.687153,25.276356,-12.463139,0.4741936,-0.70542127,3.318885,9.468075,0.5774475,10.934723,-26.04376,60.952522,9.585134,-3.3593524,5.575805,-1.9637482,-14.772023,27.140474,58.25551,12.842114,-11.741896,-1.3702519
172,10.390969276428223,-52.756690979003906,76.76579284667969,-0.4143476546741931,-1.3864934291306186,91.67379493494643,7.3719873,9.002982,3.5248792,46.097225,-20.380856,-8.108588,-14.972628,-3.2459226,-6.6550426,25.371264,-12.079605,0.46658027,-0.8394386,3.2555218,9.338478,0.5248899,10.931634,-26.262672,61.065704,9.964811,-3.108542,5.317207,-1.858819,-14.678143,26.887392,58.123123,13.009743,-11.766258,-1.4621935
173,10.300335884094238,-53.21259307861328,76.71398162841797,-0.4267273992081181,-1.3053873910389426,91.7016658052549,7.892904,8.397583,2.7001014,45.657703,-19.985079,-8.058517,-15.537517,-3.3307111,-6.6163106,25.478886,-11.686254,0.46553525,-0.95898443,3.186807,9.212838,0.45859414,10.921094,-26.447498,61.135933,10.184213,-2.9151893,5.084395,-1.7574817,-14.591795,26.644018,57.976254,13.176332,-11.785542,-1.5557523
174,10.207021713256836,-53.68429946899414,76.65800476074219,-0.42845376403728685,-1.2094027575265531,91.73123126577127,8.34916,7.8070707,1.9107846,45.229458,-19.511284,-7.934877,-16.135454,-3.430889,-6.5709686,25.601345,-11.285852,0.4705222,-1.0666195,3.1114047,9.092474,0.37939787,10.9028635,-26.597702,61.160736,10.295726,-2.758039,4.8798375,-1.6629621,-14.514033,26.411171,57.81817,13.351435,-11.802872,-1.64829
175,10.111156463623047,-54.15625762939453,76.59900665283203,-0.42303400821762327,-1.106998610738514,91.76226516346684,8.753475,7.269114,1.2118988,44.802082,-18.982086,-7.6812773,-16.754723,-3.5436192,-6.5207734,25.732214,-10.876073,0.480773,-1.1707499,3.0310345,8.990918,0.2856631,10.880373,-26.720345,61.139282,10.34169,-2.635061,4.7198386,-1.5778117,-14.446201,26.197783,57.648117,13.510785,-11.819758,-1.7371821
176,10.006930351257324,-54.64168930053711,76.53825378417969,-0.4128240580134406,-1.0066877404402466,91.79469073953342,9.115695,6.8220677,0.65941346,44.367218,-18.4212,-7.24047,-17.384102,-3.6662092,-6.467667,25.867313,-10.455922,0.4955831,-1.3011497,2.9501026,8.929127,0.20163636,10.865957,-26.794003,61.03818,10.372258,-2.5451503,4.614961,-1.5143775,-14.40899,26.046345,57.455772,13.64854,-11.835442,-1.8192513
177,9.9052734375,-55.13912582397461,76.46975708007812,-0.397278931694565,-0.912382596007804,91.82764073021187,9.411577,6.4777875,0.2665573,43.99337,-17.727798,-6.5027385,-18.019163,-3.7995253,-6.4098363,26.007238,-10.025948,0.5145713,-1.381737,2.8543622,8.891244,0.056393728,10.840087,-26.901733,60.94113,10.367958,-2.4941878,4.5978904,-1.4705406,-14.341644,25.866657,57.296875,13.7263155,-11.860582,-1.8972656
178,9.801307678222656,-55.64870071411133,76.39774322509766,-0.3738854914889729,-0.8189580700891474,91.86174729808143,9.635161,6.2169876,0.014745592,43.67206,-16.930943,-5.5284038,-18.669785,-3.9446807,-6.346808,26.160744,-9.590769,0.537662,-1.490099,2.7517533,8.887256,-0.07373294,10.82233,-26.948233,60.763428,10.327005,-2.4819276,4.641429,-1.4512354,-14.292697,25.749313,57.12614,13.784809,-11.886729,-1.9721467
179,9.691486358642578,-56.158721923828125,76.31879425048828,-0.3443777836011534,-0.7220349026157405,91.89686229674956,9.834764,6.0247393,-0.09275394,43.261387,-16.241016,-4.5145698,-19.335226,-4.0994186,-6.278823,26.311115,-9.13982,0.5657392,-1.5977725,2.641729,8.909026,-0.22184296,10.809389,-26.984703,60.540253,10.262198,-2.4912891,4.7193046,-1.4523433,-14.252591,25.656546,56.950085,13.815917,-11.910405,-2.0408862
180,9.576905250549316,-56.68867111206055,76.23262023925781,-0.310186793325249,-0.6170944249596588,91.93307200806804,10.060064,5.880067,-0.06565498,42.620148,-15.869915,-3.6612122,-20.019817,-4.2631593,-6.206345,26.453043,-8.669134,0.6002518,-1.6932205,2.521193,8.946903,-0.4109174,10.79796,-27.04425,60.30315,10.189678,-2.505376,4.804931,-1.4816955,-14.204489,25.569468,56.787457,13.8119,-11.928991,-2.103657
181,9.461462020874023,-57.22643280029297,76.13554382324219,-0.2684781441525807,-0.5059261018198518,91.96394972270726,10.334343,5.796664,0.12786457,41.696304,-15.958272,-2.9300528,-20.731798,-4.43595,-6.1186275,26.605293,-8.186826,0.64246225,-1.7945982,2.3948987,9.01046,-0.6070016,10.794373,-27.090405,60.00535,10.110869,-2.5264413,4.8881536,-1.5268972,-14.177649,25.51541,56.603825,13.778831,-11.931897,-2.1513035
182,9.340563774108887,-57.786380767822266,76.03417205810547,-0.2184372032705111,-0.39015483988934135,91.99129759405179,10.632089,5.767533,0.47368774,40.565388,-16.367498,-2.251943,-21.467913,-4.619256,-6.0169916,26.766315,-7.6932454,0.6922164,-1.878696,2.2564616,9.095077,-0.83485824,10.793934,-27.146269,59.676834,10.012246,-2.5621288,4.9869404,-1.5881902,-14.153658,25.46619,56.41867,13.707631,-11.926865,-2.1863554
183,9.211257934570312,-58.35926055908203,75.92888641357422,-0.16484314208370301,-0.2646769873160919,92.02829024423788,10.931802,5.7437296,0.8874061,39.270954,-16.882116,-1.7800953,-22.211252,-4.813042,-5.922452,26.893295,-7.1688056,0.7490565,-1.966575,2.113277,9.198759,-1.1005647,10.798003,-27.223104,59.332592,9.911861,-2.601797,5.1002536,-1.6727693,-14.131767,25.430162,56.23166,13.609206,-11.923381,-2.2238457
184,9.083394050598145,-58.94123458862305,75.82247924804688,-0.11657664773679556,-0.12411428296311099,92.08823237739516,11.21226,5.6854215,1.2885561,37.849785,-17.279238,-1.6608303,-22.944113,-5.016702,-5.8568425,26.941444,-6.593367,0.812341,-2.0644743,1.9692017,9.316871,-1.4215147,10.813087,-27.351084,58.99856,9.820456,-2.6363192,5.226739,-1.7796943,-14.106599,25.396236,56.042606,13.487809,-11.932948,-2.276626
185,8.950531959533691,-59.539794921875,75.71178436279297,-0.07871289220079374,0.034765145685215486,92.1701943779748,11.515328,5.599208,1.6877185,36.16549,-17.445358,-2.0257506,-23.67364,-5.225801,-5.8292246,26.917215,-5.966579,0.8845383,-2.1803863,1.8314294,9.450408,-1.7889959,10.846629,-27.528305,58.651917,9.746838,-2.6573734,5.374208,-1.9156697,-14.084561,25.386942,55.85249,13.3600025,-11.96398,-2.3483396
186,8.816845893859863,-60.152645111083984,75.59891510009766,-0.04821198256839825,0.20880812441904362,92.2694359749631,11.845043,5.505837,2.1204028,34.22157,-17.499914,-2.7635305,-24.402973,-5.4413095,-5.8282666,26.834543,-5.295912,0.96575624,-2.3213284,1.7026294,9.600716,-2.1953537,10.885362,-27.727457,58.290237,9.687557,-2.672982,5.539813,-2.077814,-14.076761,25.412483,55.65528,13.220719,-12.007418,-2.4320254
187,8.67780876159668,-60.78448486328125,75.48545837402344,-0.019773826869351398,0.3943404591552926,92.39291875257129,12.116317,5.395512,2.54279,32.27747,-17.576359,-3.6491108,-25.111292,-5.6704793,-5.846069,26.664083,-4.5745173,1.0516291,-2.4856312,1.5762061,9.769807,-2.6462739,10.92524,-27.946262,57.941326,9.632794,-2.6966786,5.701693,-2.259361,-14.078474,25.441668,55.44205,13.049507,-12.04854,-2.5233753
188,8.531190872192383,-61.44340515136719,75.37049865722656,0.01573616979961977,0.5874395056412521,92.54797663026083,12.236112,5.2622976,2.9104607,30.611233,-17.820457,-4.4562654,-25.777603,-5.921189,-5.8738523,26.37735,-3.7962263,1.1377757,-2.6536732,1.439688,9.9649315,-3.1414168,10.989835,-28.213545,57.60799,9.5541725,-2.740323,5.836379,-2.424676,-14.090398,25.416698,55.171097,12.817822,-12.071301,-2.6137624
189,8.37608528137207,-62.12808609008789,75.26067352294922,0.042626401438466625,0.8017662894943663,92.74220551930857,12.155888,5.1354904,3.2256355,29.306953,-18.3245,-5.198704,-26.423977,-6.1858664,-5.920698,25.98583,-2.9470472,1.1950366,-2.8479831,1.3104647,10.182347,-3.686965,11.068178,-28.499159,57.295845,9.445946,-2.8207784,5.9354644,-2.6131399,-14.119253,25.370197,54.862682,12.52688,-12.068798,-2.692733
190,8.224677085876465,-62.81391906738281,75.15161895751953,0.061179042899297806,1.0342166817660339,92.97009083819795,11.924923,5.0192914,3.5111518,28.227129,-19.001884,-5.9672675,-27.050102,-6.4635396,-5.9884553,25.496042,-2.0333915,1.2352718,-3.0735111,1.1925341,10.41509,-4.2854857,11.140426,-28.796785,57.016167,9.325128,-2.9276578,6.01409,-2.8218012,-14.160003,25.317074,54.52928,12.181405,-12.0504675,-2.769155
191,8.070310592651367,-63.50553512573242,75.05352783203125,0.10365802417532488,1.2549412363910566,93.21810637577302,11.592884,4.86737,3.7487812,27.32927,-19.742662,-6.651881,-27.605707,-6.7724233,-6.0540295,24.87921,-1.0829731,1.3160995,-3.308386,1.0541793,10.679045,-4.921709,11.216227,-29.127234,56.76351,9.215272,-3.0334206,6.078037,-3.0194225,-14.214232,25.232508,54.15853,11.809166,-12.0241995,-2.8628223
192,7.904552459716797,-64.2057876586914,74.96861267089844,0.20304060416541758,1.4338960448995326,93.47303386151272,11.208758,4.6297474,3.913656,26.57208,-20.431242,-7.145543,-28.040766,-7.1312294,-6.0923862,24.10656,-0.12327216,1.4956659,-3.546552,0.8629359,10.985543,-5.576062,11.294196,-29.486567,56.54041,9.152092,-3.1114244,6.133843,-3.1928666,-14.276186,25.112991,53.759235,11.440917,-11.998975,-2.997537
193,7.7409515380859375,-64.91883087158203,74.89795684814453,0.3753335787902885,1.543422117229597,93.74994778541583,10.774667,4.277209,3.9552882,25.985355,-21.075056,-7.4031663,-28.325586,-7.5742235,-6.103879,23.177275,0.9243268,1.7669854,-3.804524,0.5992174,11.366164,-6.2594395,11.371267,-29.874956,56.351337,9.163649,-3.150736,6.189556,-3.3369648,-14.338617,24.939571,53.31825,11.041219,-11.974577,-3.1875715
194,7.569412708282471,-65.64334869384766,74.83491516113281,0.6016489098798172,1.6047140128508184,94.04836925781377,10.263177,3.8384342,3.896285,25.588388,-21.727058,-7.486168,-28.494474,-8.08395,-6.093252,22.1119,2.0413344,2.107568,-4.075655,0.27899268,11.803853,-6.9794636,11.447505,-30.296747,56.196747,9.223288,-3.1665356,6.24013,-3.4687266,-14.40174,24.72302,52.847305,10.612041,-11.947132,-3.4183874
195,7.393967151641846,-66.35557556152344,74.78250885009766,0.8643615758857998,1.6603760522119442,94.3334566027256,9.681264,3.3454444,3.818111,25.320673,-22.33794,-7.446663,-28.585836,-8.604952,-6.041776,20.899073,3.0602207,2.5510864,-4.329925,-0.07585398,12.23358,-7.7055182,11.521838,-30.741858,56.076305,9.29044,-3.1721265,6.2721033,-3.5755801,-14.463854,24.488556,52.367863,10.207309,-11.919679,-3.671313
196,7.204902172088623,-67.08048248291016,74.73249816894531,1.1472377091342791,1.7517796632320395,94.57325387143491,9.041526,2.827705,3.8025975,25.11435,-22.85534,-7.3390737,-28.6299,-9.088336,-5.935459,19.516153,3.817027,3.1285,-4.54126,-0.44516835,12.59263,-8.40887,11.593718,-31.20015,55.99227,9.323637,-3.1811593,6.2725506,-3.655974,-14.5237665,24.26788,51.911617,9.888294,-11.896514,-3.9284997
197,7.01885986328125,-67.78707885742188,74.69237518310547,1.4817305567656698,1.9053851960309858,94.77403821071658,8.3070345,2.2455738,3.8605204,24.977554,-23.256966,-7.1522784,-28.652887,-9.567749,-5.7468886,17.941076,4.2578735,3.8818848,-4.710389,-0.8568618,12.859762,-9.103559,11.664967,-31.680351,55.94895,9.30887,-3.1935112,6.231893,-3.7097347,-14.580525,24.05871,51.4744,9.675346,-11.878479,-4.2040772
198,6.84116792678833,-68.48286437988281,74.66297912597656,1.8743582391813418,2.0866728042834324,94.9552187506353,7.4972258,1.5848602,3.949832,24.92675,-23.566902,-6.8684936,-28.607594,-10.080634,-5.501489,16.16129,4.479032,4.7726417,-4.8576083,-1.3200767,13.075965,-9.796458,11.736493,-32.182793,55.94279,9.268833,-3.203293,6.158501,-3.7299123,-14.631834,23.84425,51.03702,9.528045,-11.863762,-4.501455
199,6.67270040512085,-69.1711654663086,74.63829040527344,2.2766532797177317,2.2451778479058158,95.10524647829926,6.715144,0.91070825,4.0711823,24.896023,-23.800531,-6.5318274,-28.418594,-10.588524,-5.267308,14.178588,4.5434823,5.709308,-4.990164,-1.7900698,13.272633,-10.450379,11.804941,-32.679947,55.971104,9.221021,-3.215261,6.06759,-3.7338033,-14.676272,23.6528,50.636703,9.435707,-11.854208,-4.7888327
200,6.497833251953125,-69.84384155273438,74.62548828125,2.64214231802352,2.332651743403571,95.21130358784622,6.0564723,0.28852174,4.222786,24.830957,-23.97296,-6.1846757,-28.009611,-11.045828,-5.1106997,11.9842615,4.5215235,6.6045933,-5.10651,-2.2208889,13.482756,-11.027278,11.873222,-33.154854,56.02211,9.178636,-3.2335827,5.974093,-3.7134101,-14.716733,23.493994,50.284073,9.37632,-11.850557,-5.0317326
201,6.321065902709961,-70.498291015625,74.61786651611328,2.9609068531982343,2.327403511001941,95.26826639200335,5.5547256,-0.2714928,4.4078107,24.727552,-24.086031,-5.817007,-27.294796,-11.425567,-4.9751472,9.419743,4.362114,7.412822,-5.220185,-2.6043727,13.720386,-11.521927,11.939318,-33.60026,56.104996,9.14538,-3.265802,5.8765078,-3.6802077,-14.751638,23.386786,49.99562,9.371425,-11.855664,-5.2248244
202,6.158790111541748,-71.12928771972656,74.61534881591797,3.27203847237147,2.252619381485359,95.28982858442689,5.1679506,-0.82129073,4.6199775,24.600067,-24.12546,-5.4106135,-26.31296,-11.785167,-4.865363,6.5005155,4.074365,8.173446,-5.3421307,-2.9778948,13.966202,-11.955044,11.997746,-34.017517,56.232452,9.115781,-3.3082745,5.768984,-3.6299465,-14.776318,23.32591,49.761482,9.417545,-11.868819,-5.387492
203,5.987568378448486,-71.73075866699219,74.62269592285156,3.5827422820656687,2.1367941975208824,95.28196443228431,4.868265,-1.3696916,4.8486524,24.4241,-24.0897,-4.9988813,-26.60535,-12.270228,-4.634575,6.427507,2.2600217,8.935962,-5.4625826,-3.3512697,14.198672,-12.319283,12.045965,-34.38567,56.39191,9.103004,-3.3489218,5.659118,-3.5694046,-14.79173,23.305885,49.58471,9.478586,-11.885734,-5.5227675
204,5.825939178466797,-72.29630279541016,74.635009765625,3.8927409016331644,2.012389307800885,95.24692174879192,4.621379,-1.9159038,5.086325,24.18332,-23.983622,-4.616061,-26.822535,-12.784045,-4.720377,6.3695483,0.7131461,9.786979,-5.538308,-3.7247345,14.400734,-12.609437,12.102712,-34.729973,56.54954,9.09883,-3.3728974,5.5564775,-3.466946,-14.802807,23.280638,49.4302,9.507216,-11.901437,-5.6283484
205,5.670159339904785,-72.83670043945312,74.648193359375,4.231070184417108,1.8630665155067685,95.20696967021527,4.4646683,-2.5006318,5.314916,23.837254,-23.795166,-4.262901,-26.962225,-13.346246,-5.1267843,6.307405,-0.5507823,10.920883,-5.6283116,-4.1259646,14.557615,-12.809544,12.151425,-35.013046,56.735386,9.123767,-3.3842483,5.4563904,-3.3344114,-14.802383,23.297352,49.329174,9.500854,-11.91747,-5.704719
206,5.520363807678223,-73.3685073852539,74.66690826416016,4.572494716430486,1.6957306979347566,95.14316734366632,4.3761935,-3.0895498,5.5525756,23.43297,-23.54284,-3.9292073,-27.05493,-13.919611,-5.7753115,6.2758865,-1.6779021,12.250589,-5.7030153,-4.5292797,14.673544,-12.932532,12.200597,-35.264866,56.94753,9.162562,-3.3869433,5.3589406,-3.1676188,-14.79025,23.336567,49.2739,9.476103,-11.936003,-5.749749
207,5.385326862335205,-73.90648651123047,74.7150650024414,4.809822344343556,1.5689714039956015,94.9964206935528,4.2385774,-3.5425062,5.844137,23.084578,-23.27311,-3.6336396,-27.094448,-14.393545,-6.7337713,6.2743998,-2.5716586,13.453576,-5.721965,-4.81757,14.747035,-12.991241,12.229943,-35.412853,57.162594,9.232097,-3.376585,5.2708507,-3.025214,-14.777203,23.409706,49.277203,9.432632,-11.954353,-5.7782364
208,5.243922710418701,-74.45411682128906,74.79310607910156,4.93520067289026,1.5124248763594519,94.73441031317425,4.0099096,-3.8442223,6.2179065,22.793074,-22.969885,-3.3723319,-27.041334,-14.762063,-8.030532,6.270664,-3.1071413,14.235219,-5.633004,-4.989236,14.787869,-12.999456,12.25476,-35.454052,57.345,9.314783,-3.3450801,5.2007403,-2.9202058,-14.761739,23.493418,49.321342,9.363546,-11.968738,-5.8044815
209,5.0987372398376465,-75.0172348022461,74.9072494506836,4.928823692652167,1.5622440965338904,94.32074939428946,3.640932,-3.9657066,6.7034407,22.579584,-22.634075,-3.1481366,-26.89538,-14.999979,-9.850283,6.266835,-3.142073,14.484204,-5.380298,-5.013314,14.787226,-12.978378,12.265146,-35.381012,57.494473,9.439168,-3.2808971,5.1439795,-2.8540328,-14.752923,23.564528,49.397346,9.263819,-11.979655,-5.828496
210,4.951033115386963,-75.5649185180664,75.0442123413086,4.8204308222403816,1.6872397702302662,93.78915707957083,3.1836486,-3.950312,7.2726936,22.408377,-22.255808,-2.955263,-26.65292,-15.12274,-12.110002,6.2647862,-2.7774434,14.359119,-5.1145167,-4.932603,14.72575,-12.841129,12.275033,-35.073418,57.586395,9.64123,-3.1951113,5.08749,-2.9039404,-14.738028,23.763948,49.58785,9.157742,-11.990495,-5.8607445
211,4.809420108795166,-76.09717559814453,75.19715881347656,4.626188875405624,1.8376508736216133,93.18759224728207,2.6875353,-3.8109696,7.8858075,22.290058,-21.856873,-2.7930334,-26.315985,-15.11516,-14.447142,6.280699,-2.2840714,13.95835,-4.768791,-4.7624254,14.650729,-12.665365,12.273969,-34.714622,57.66945,9.808471,-3.1041083,5.0552106,-2.9424992,-14.728162,23.945705,49.78122,9.026107,-11.994295,-5.8755245
212,4.685050010681152,-76.61663055419922,75.360107421875,4.384533514078898,1.9596073363794613,92.57366430562732,2.2075317,-3.59068,8.49758,22.23537,-21.46013,-2.6581454,-25.930414,-15.013491,-16.478765,6.4103107,-1.9659132,13.412437,-4.4546056,-4.548854,14.579248,-12.410836,12.264689,-34.273212,57.73314,9.90146,-3.0301373,5.0547695,-3.0044823,-14.719115,24.164034,50.01272,8.882926,-11.989235,-5.8721733
213,4.5654144287109375,-77.13542175292969,75.53436279296875,4.09403432558081,2.0263767310619785,91.94127439085453,1.7848065,-3.2862165,9.109638,22.219734,-21.041862,-2.5465474,-25.40514,-14.801865,-18.146023,6.5055313,-1.8164574,12.645107,-4.1911516,-4.298626,14.530245,-12.050267,12.245757,-33.693295,57.768314,9.912977,-2.9697468,5.103198,-3.0921118,-14.703973,24.453716,50.291145,8.727355,-11.973439,-5.846256
214,4.452951431274414,-77.6425552368164,75.72029113769531,3.7602036267552803,2.065213723485342,91.27230681395552,1.3917227,-2.9026253,9.735895,22.23533,-20.593082,-2.4575624,-24.79319,-14.513128,-19.608698,6.658574,-1.7610203,11.626859,-3.881415,-4.00881,14.496642,-11.631128,12.220473,-33.071533,57.785267,9.843181,-2.9116476,5.1947865,-3.1629117,-14.685963,24.72131,50.58149,8.545246,-11.948439,-5.7910056
215,4.343605995178223,-78.14379119873047,75.9094009399414,3.407221481080188,2.0768408404256307,90.62169404809609,1.0191934,-2.4823818,10.329801,22.281197,-20.134043,-2.3901956,-24.096903,-14.183251,-20.899775,6.836687,-1.7341956,10.578954,-3.584514,-3.7021766,14.467998,-11.180091,12.193411,-32.45799,57.804203,9.7066,-2.8715348,5.2940373,-3.20388,-14.664878,24.963776,50.85447,8.340558,-11.914966,-5.7265925
216,4.239430904388428,-78.63438415527344,76.09395599365234,3.074573715228026,2.0624667048138607,90.04501098987849,0.6718815,-2.0865824,10.846791,22.321852,-19.672028,-2.3428485,-23.330612,-13.863325,-22.050377,7.0283647,-1.6654532,9.726423,-3.3927383,-3.417817,14.426474,-10.710784,12.164587,-31.860273,57.85064,9.531288,-2.866925,5.3644123,-3.251845,-14.630975,25.230324,51.12926,8.136517,-11.875068,-5.680389
217,4.146207332611084,-79.11377716064453,76.27178192138672,2.7806174664202294,2.0166354017026604,89.56208645467366,0.36037818,-1.7422904,11.269842,22.33946,-19.186337,-2.32208,-23.282927,-13.932974,-22.923557,9.0430355,-2.4768994,9.168211,-3.2602968,-3.1732311,14.384963,-10.245297,12.145362,-31.35682,57.927082,9.262453,-2.9112942,5.4146204,-3.2385144,-14.584323,25.422867,51.34969,7.8840303,-11.817265,-5.643203
218,4.059223651885986,-79.59078216552734,76.43987274169922,2.5171504318852036,1.9323901280700642,89.15088796714777,0.097560674,-1.4387325,11.6186075,22.331259,-18.669182,-2.3243043,-23.485052,-14.22405,-23.59788,11.880837,-3.6651762,8.776286,-3.183718,-2.9649272,14.353075,-9.759843,12.137595,-30.898087,58.01496,8.912708,-2.992859,5.4554653,-3.1877027,-14.526942,25.572023,51.541206,7.5956745,-11.744766,-5.6079206
219,3.981013298034668,-80.0477294921875,76.60108184814453,2.2910745080198036,1.8136880480746356,88.8018727295715,-0.11760914,-1.1788404,11.90884,22.293055,-18.144733,-2.3262398,-23.564913,-14.534418,-24.068052,14.614765,-4.766287,8.44704,-3.1643448,-2.7982266,14.327332,-9.275178,12.145768,-30.508987,58.12397,8.540526,-3.08277,5.465765,-3.12154,-14.45357,25.71058,51.716984,7.329391,-11.67887,-5.5799527
220,3.909423589706421,-80.50325775146484,76.75011444091797,2.098229364962967,1.6677341117916953,88.50207225650368,-0.2917809,-0.957248,12.158661,22.226454,-17.639559,-2.3062556,-23.595896,-14.828402,-24.220219,17.292618,-5.832133,8.080665,-3.1685202,-2.6679873,14.308109,-8.829041,12.174719,-30.25497,58.266293,8.192774,-3.1510324,5.4265857,-3.0269675,-14.376084,25.827625,51.854458,7.135302,-11.639031,-5.5576487
221,3.856818437576294,-80.95330810546875,76.89280700683594,1.9322682847284387,1.4953858630301844,88.24969024608863,-0.43102953,-0.760432,12.369031,22.143486,-17.16044,-2.255751,-23.613571,-15.07261,-23.95751,19.942696,-6.8733554,7.6434216,-3.1978168,-2.564364,14.295889,-8.425001,12.229289,-30.154465,58.44452,7.8433647,-3.1933112,5.320187,-2.8997948,-14.297209,25.919172,51.943333,7.0291934,-11.634185,-5.542391
222,3.79587459564209,-81.39836883544922,77.02015686035156,1.7902628306953974,1.297495527594025,88.04732195882787,-0.5367162,-0.5885017,12.535632,22.044569,-16.69548,-2.1887844,-23.606653,-15.276978,-23.357105,22.568253,-7.8774514,7.195435,-3.2577157,-2.4868045,14.290312,-8.045758,12.311118,-30.179855,58.647545,7.4763355,-3.2234368,5.1608486,-2.7415407,-14.217281,25.984581,51.987877,6.984437,-11.652003,-5.5327473
223,3.7459685802459717,-81.82865142822266,77.13744354248047,1.6753547107497742,1.0831460030275253,87.88692656744361,-0.6130097,-0.44949302,12.669627,21.919237,-16.246696,-2.118323,-23.549913,-15.453316,-22.57501,25.115568,-8.831819,6.777722,-3.3373587,-2.4393945,14.285891,-7.684133,12.416724,-30.29912,58.86187,7.165604,-3.239619,4.976713,-2.5613873,-14.138261,26.041264,51.998238,6.9904957,-11.680891,-5.526325
224,3.703298330307007,-82.25755310058594,77.24217224121094,1.5897277158010998,0.8615510432360131,87.75989580655488,-0.66543096,-0.35107827,12.782452,21.759346,-15.817537,-2.0570378,-23.422003,-15.6193,-21.767193,27.54936,-9.72897,6.4302235,-3.4256923,-2.4244957,14.27626,-7.3345,12.53925,-30.479223,59.07762,6.9866424,-3.2412546,4.7964277,-2.3687017,-14.063622,26.107069,51.985054,7.036802,-11.709333,-5.52069
225,3.6716725826263428,-82.69025421142578,77.3313217163086,1.5320119206641403,0.6319825340442765,87.66186257190884,-0.68717855,-0.29298335,12.879992,21.554085,-15.406083,-2.0122418,-23.234222,-15.751092,-20.900341,29.882164,-10.570842,6.1733923,-3.5220196,-2.4396434,14.260202,-7.0015526,12.674655,-30.735888,59.304016,6.9871926,-3.225681,4.6275,-2.167084,-13.997207,26.190277,51.944103,7.1530232,-11.734696,-5.5189896
226,3.6330432891845703,-83.11542510986328,77.41047668457031,1.4938124788721174,0.395045403152507,87.59356758498612,-0.68895626,-0.260868,12.957835,21.324896,-15.019197,-1.9771063,-23.003645,-15.830317,-19.921993,32.142128,-11.365072,5.987248,-3.6276042,-2.4737933,14.237284,-6.6884184,12.821749,-31.076721,59.54632,7.119967,-3.1954663,4.455209,-1.9468527,-13.939672,26.279055,51.867123,7.332777,-11.762671,-5.5208235
227,3.5941455364227295,-83.53700256347656,77.47559356689453,1.4670244011345828,0.16111800854888172,87.55455571344739,-0.691324,-0.24564599,13.011789,21.088963,-14.659862,-1.9426773,-22.713022,-15.892534,-18.957169,34.314606,-12.116428,5.848633,-3.7345436,-2.5186794,14.203201,-6.391447,12.977341,-31.46047,59.792038,7.3142138,-3.157793,4.275822,-1.7142415,-13.8915615,26.371393,51.7744,7.5242677,-11.794623,-5.519553
228,3.571183204650879,-83.95248413085938,77.53068542480469,1.4460823130695444,-0.0597925010013177,87.54511776216003,-0.71565616,-0.23895423,13.037279,20.865406,-14.332213,-1.8998682,-22.343853,-15.982258,-18.12749,36.384094,-12.830762,5.730344,-3.83786,-2.56664,14.153405,-6.1064024,13.137587,-31.842747,60.0295,7.5000296,-3.119864,4.085439,-1.474264,-13.85295,26.46594,51.68549,7.673433,-11.83173,-5.508957
229,3.5501890182495117,-84.36280822753906,77.57452392578125,1.4296516333740377,-0.2681459240869848,87.57485968076094,-0.76527834,-0.24151035,13.026432,20.660864,-14.040822,-1.8430119,-21.885921,-16.108408,-17.44733,38.349026,-13.498678,5.6563854,-3.9439921,-2.6162512,14.085615,-5.8336353,13.299975,-32.22747,60.263027,7.689412,-3.0823836,3.877555,-1.2244982,-13.824593,26.564808,51.60062,7.7654543,-11.87921,-5.485116
230,3.5387613773345947,-84.7737808227539,77.60777282714844,1.4196992399960497,-0.46711581027924365,87.63956442567236,-0.83069783,-0.25461835,12.98459,20.46497,-13.782397,-1.7781454,-21.354172,-16.252365,-16.857334,40.227703,-14.126886,5.6286125,-4.0527606,-2.6686559,14.001098,-5.5768766,13.463764,-32.632587,60.500126,7.9101315,-3.0425563,3.656353,-0.9650186,-13.807763,26.669214,51.513115,7.8296394,-11.934894,-5.452446
231,3.5297253131866455,-85.1787109375,77.62686920166016,1.4125227038836068,-0.65178075975285,87.7188400203165,-0.9168713,-0.27119717,12.926482,20.27904,-13.553648,-1.7138108,-20.768305,-16.425476,-16.365171,42.031734,-14.745621,5.583062,-4.150105,-2.7199984,13.901943,-5.333609,13.627408,-33.03098,60.729866,8.119075,-3.0011654,3.4342768,-0.702655,-13.800231,26.777431,51.428493,7.8802586,-11.98833,-5.416779
232,3.5288925170898438,-85.59029388427734,77.63986206054688,1.4074494612000243,-0.8174368600350784,87.7922997574438,-1.0244884,-0.28557292,12.866381,20.096449,-13.347208,-1.6583105,-20.14863,-16.640099,-15.976128,43.772854,-15.385292,5.4553,-4.223689,-2.768032,13.789506,-5.099699,13.789143,-33.39182,60.941395,8.276029,-2.958313,3.2239332,-0.4485978,-13.798615,26.890179,51.357647,7.931738,-12.029527,-5.3847346
233,3.5353381633758545,-85.98902893066406,77.64492797851562,1.3986200134310531,-0.9616169733681198,87.85755158269195,-1.1570052,-0.29226762,12.804512,19.920889,-13.1694145,-1.6165729,-19.49724,-16.901693,-15.696699,45.463116,-16.05777,5.220226,-4.2746816,-2.810612,13.658368,-4.874153,13.94875,-33.717262,61.139294,8.367029,-2.9134834,3.0173395,-0.20292626,-13.800313,27.011757,51.3013,7.9790964,-12.05192,-5.35994
234,3.5429205894470215,-86.39299011230469,77.63825225830078,1.3900233359206482,-1.087145384271873,87.92423848997976,-1.3101676,-0.29613873,12.734507,19.748291,-13.01857,-1.5831445,-18.805002,-17.207287,-15.51787,47.096233,-16.748596,4.912355,-4.3090997,-2.8500652,13.508809,-4.659842,14.106276,-34.019657,61.328716,8.414684,-2.8662455,2.8119748,0.036052223,-13.804931,27.142057,51.258976,8.017294,-12.062403,-5.3389864
235,3.546919584274292,-86.80693817138672,77.6260757446289,1.388568772240027,-1.19754017757166,87.99066973425364,-1.4878287,-0.30381122,12.660334,19.591106,-12.890968,-1.5510919,-18.074425,-17.55725,-15.423584,48.653946,-17.44915,4.5567665,-4.322275,-2.8910363,13.350459,-4.4565067,14.260092,-34.28242,61.500694,8.434382,-2.8171878,2.6282482,0.26521704,-13.812023,27.272152,51.23645,8.05631,-12.071283,-5.3174686
236,3.555154800415039,-87.22645568847656,77.60273742675781,1.4009602388084563,-1.2963278614078055,88.0546267555548,-1.6798787,-0.32580835,12.587642,19.431746,-12.766175,-1.5135187,-17.310242,-17.950163,-15.39509,50.119896,-18.149654,4.179627,-4.310191,-2.9379914,13.192857,-4.2635727,14.407387,-34.487633,61.64607,8.442231,-2.766873,2.486649,0.4811915,-13.820894,27.39454,51.239075,8.1067,-12.088435,-5.291038
237,3.573265314102173,-87.65130615234375,77.57710266113281,1.4315415126022113,-1.380790177732815,88.11707377450284,-1.8911887,-0.3662024,12.516411,19.272646,-12.64463,-1.4695154,-16.509888,-18.414791,-15.469792,51.507973,-18.859112,3.7720752,-4.2709126,-2.9941509,13.035014,-4.085742,14.545876,-34.631237,61.769672,8.432585,-2.7148538,2.392018,0.68533224,-13.831384,27.505358,51.267025,8.177563,-12.120604,-5.257927
238,3.5967235565185547,-88.06450653076172,77.54328918457031,1.474956652448773,-1.4503979356274257,88.17837748640842,-2.1223621,-0.41983885,12.444635,19.116322,-12.533066,-1.4225826,-15.671747,-18.943695,-15.641614,52.823936,-19.582895,3.3252673,-4.2064304,-3.0556917,12.872955,-3.9237309,14.674804,-34.723366,61.87728,8.399886,-2.6610165,2.3341138,0.8749012,-13.843536,27.612148,51.321297,8.265634,-12.161226,-5.2208014
239,3.6218860149383545,-88.48435974121094,77.49891662597656,1.5272238386917032,-1.5113960013740186,88.23604599110314,-2.3673234,-0.48002797,12.374338,18.966518,-12.431449,-1.3726212,-14.800854,-19.477764,-15.832854,54.034344,-20.30205,2.8668242,-4.1206656,-3.1171248,12.709773,-3.7680943,14.793709,-34.76463,61.961178,8.362191,-2.6066546,2.3106902,1.0552464,-13.857305,27.712507,51.39899,8.343449,-12.200031,-5.182201
