unveil-humanoid-operators/unveil-humanoid-operators.github.io/feature-analysis-animation/data/feature_matrix_instances/height_root_translate_rom_jogging_A072_jog_ff_start_315_003__A072.csv
Frame,root_translateX,root_translateY,root_translateZ,root_rotateX,root_rotateY,root_rotateZ,left_hip_pitch_joint_dof,left_hip_roll_joint_dof,left_hip_yaw_joint_dof,left_knee_joint_dof,left_ankle_pitch_joint_dof,left_ankle_roll_joint_dof,right_hip_pitch_joint_dof,right_hip_roll_joint_dof,right_hip_yaw_joint_dof,right_knee_joint_dof,right_ankle_pitch_joint_dof,right_ankle_roll_joint_dof,waist_yaw_joint_dof,waist_roll_joint_dof,waist_pitch_joint_dof,left_shoulder_pitch_joint_dof,left_shoulder_roll_joint_dof,left_shoulder_yaw_joint_dof,left_elbow_joint_dof,left_wrist_roll_joint_dof,left_wrist_pitch_joint_dof,left_wrist_yaw_joint_dof,right_shoulder_pitch_joint_dof,right_shoulder_roll_joint_dof,right_shoulder_yaw_joint_dof,right_elbow_joint_dof,right_wrist_roll_joint_dof,right_wrist_pitch_joint_dof,right_wrist_yaw_joint_dof
0,-2.0945048332214355,0.09666911512613297,78.63204193115234,-0.07838832392874012,-4.714795794105222,-1.227961289643348,4.4728165,5.9950986,14.473775,10.055267,-9.351199,-5.171483,5.551035,-7.715605,-17.127626,8.871794,-8.106845,7.0751696,-1.8026922,-1.0524776,12.980722,-7.8932548,17.323055,-38.029022,63.14997,4.6336946,5.8333125,-3.3183298,-6.149227,-14.295156,29.194248,65.78988,17.766285,7.770925,3.0313766
1,-2.092242479324341,0.09774675965309143,78.62364196777344,-0.09315908672157737,-4.724220201627835,-1.2347459161870815,4.379327,6.037336,14.474745,10.287088,-9.475736,-5.1616726,5.4532104,-7.729317,-17.090214,9.096728,-8.20726,7.0376873,-1.7972882,-1.0375648,13.011057,-7.886312,17.339012,-38.018696,63.11197,4.621439,5.8337812,-3.3340456,-6.180252,-14.302075,29.192719,65.781555,17.767666,7.80668,3.0303886
2,-2.093719959259033,0.10061309486627579,78.61528778076172,-0.10733256140789331,-4.733779709013414,-1.2406419403994553,4.2904572,6.0776505,14.476221,10.508712,-9.596347,-5.154266,5.3578415,-7.74358,-17.054012,9.317525,-8.306594,6.999226,-1.7911241,-1.022819,13.040082,-7.8829923,17.35095,-38.006317,63.082005,4.6112776,5.834016,-3.348621,-6.211968,-14.308013,29.191444,65.77742,17.7704,7.844594,3.0289257
3,-2.093474864959717,0.1056838408112526,78.60437774658203,-0.1227472992331556,-4.743469736757273,-1.2484167081127637,4.189995,6.1230264,14.476018,10.7564335,-9.727485,-5.1416736,5.2578187,-7.7570205,-17.01511,9.545892,-8.407423,6.9624753,-1.788183,-1.006874,13.069347,-7.881032,17.364605,-37.994225,63.05406,4.6001673,5.8329463,-3.3648255,-6.2468324,-14.315762,29.191158,65.77345,17.769611,7.8777213,3.028506
4,-2.097825527191162,0.11586758494377136,78.59544372558594,-0.1412884557173988,-4.75357440650221,-1.2606324349148768,4.061926,6.1797595,14.472089,11.065231,-9.882674,-5.116221,5.141622,-7.7696915,-16.969444,9.803376,-8.515807,6.930187,-1.7896729,-0.98603606,13.100504,-7.875562,17.378672,-37.985924,63.01841,4.5889506,5.8314047,-3.384159,-6.2827754,-14.324612,29.191025,65.760056,17.761644,7.9000244,3.0303123
5,-2.1007068157196045,0.12144295126199722,78.58341979980469,-0.16222833118613914,-4.765177422410914,-1.2711022480635652,3.8995101,6.248697,14.453503,11.450593,-10.0651455,-5.065768,5.024612,-7.7789516,-16.924152,10.064115,-8.622539,6.904896,-1.7996184,-0.963419,13.13039,-7.8657684,17.39927,-37.988964,62.975647,4.574612,5.8288193,-3.4069803,-6.3112855,-14.33812,29.190165,65.72802,17.738308,7.9075937,3.0364847
6,-2.102113723754883,0.1256406456232071,78.57122802734375,-0.18526900238063906,-4.777671174529984,-1.2808764867195435,3.7121372,6.3267374,14.424719,11.891294,-10.267697,-4.997664,4.9019856,-7.786891,-16.878143,10.337852,-8.732034,6.8844275,-1.8146834,-0.9390144,13.153419,-7.86243,17.408718,-38.001118,62.950317,4.560978,5.82626,-3.428921,-6.339673,-14.344612,29.188095,65.69814,17.701502,7.9037323,3.0419674
7,-2.1040544509887695,0.13422399759292603,78.55912780761719,-0.21433560658077536,-4.790247828093979,-1.3025087574872345,3.5069172,6.418133,14.404894,12.372633,-10.490394,-4.933788,4.763549,-7.7892737,-16.81938,10.631534,-8.84501,6.864212,-1.8169459,-0.90641266,13.187638,-7.859394,17.434134,-38.0283,62.903828,4.536039,5.8220997,-3.4562972,-6.364135,-14.363467,29.17402,65.650444,17.669027,7.895375,3.050795
8,-2.112475872039795,0.14450779557228088,78.54364013671875,-0.2526532018034789,-4.802349537622791,-1.34875989186311,3.2916749,6.526445,14.413698,12.88039,-10.734193,-4.895796,4.599217,-7.782626,-16.735937,10.9542885,-8.963628,6.839819,-1.8107351,-0.85886645,13.236478,-7.865004,17.453485,-38.04541,62.856056,4.506983,5.814433,-3.4886882,-6.4164786,-14.380649,29.161812,65.622505,17.656683,7.8864765,3.057241
9,-2.1330296993255615,0.1588807851076126,78.52535247802734,-0.3032628051314794,-4.817249328549269,-1.422664420756703,3.075748,6.654878,14.45834,13.40589,-11.001623,-4.897944,4.415197,-7.763085,-16.62821,11.299839,-9.084527,6.8093214,-1.7928672,-0.79307795,13.300485,-7.8829675,17.462704,-38.055283,62.81685,4.4666195,5.801839,-3.5287046,-6.496216,-14.391365,29.15089,65.622116,17.675375,7.876648,3.060031
10,-2.1511924266815186,0.1750396192073822,78.50511169433594,-0.3632490976734011,-4.833303235295526,-1.5178154483730055,2.848547,6.8021274,14.527501,13.965892,-11.295187,-4.925499,4.211057,-7.7341113,-16.501137,11.670985,-9.210568,6.7754874,-1.762084,-0.71111417,13.380552,-7.905686,17.471975,-38.064617,62.76581,4.417126,5.7876773,-3.5752435,-6.591202,-14.405184,29.133034,65.62771,17.713228,7.8650784,3.0628297
11,-2.174565553665161,0.19593532383441925,78.48075103759766,-0.42687825789710665,-4.846689031829773,-1.632129140026624,2.6028636,6.961109,14.613653,14.560439,-11.603583,-4.9562755,3.9757597,-7.7027597,-16.349794,12.07758,-9.345206,6.740999,-1.7202663,-0.6203729,13.476682,-7.9361773,17.487675,-38.075985,62.698215,4.364865,5.7714686,-3.623778,-6.696396,-14.434133,29.108707,65.62099,17.753653,7.854711,3.0665553
12,-2.2102348804473877,0.22328752279281616,78.45252990722656,-0.4889329201194823,-4.851621489198751,-1.7638800417127245,2.3242617,7.1268625,14.708781,15.20029,-11.920781,-4.968508,3.6921268,-7.6763945,-16.168365,12.538568,-9.497236,6.7079935,-1.6795377,-0.5279222,13.581548,-7.9703584,17.506378,-38.07847,62.613373,4.3221455,5.7541814,-3.667091,-6.824539,-14.474451,29.09588,65.608696,17.78517,7.84635,3.0683975
13,-2.2399086952209473,0.2528599500656128,78.42176818847656,-0.5529662169100751,-4.853085886337846,-1.9027251915230208,2.0045772,7.301098,14.796128,15.907447,-12.252074,-4.9537597,3.3708136,-7.6546764,-15.961294,13.048791,-9.668075,6.676788,-1.6496961,-0.4309361,13.697395,-8.013462,17.523361,-38.07568,62.51917,4.2895174,5.733478,-3.704452,-6.989832,-14.5156765,29.100124,65.613205,17.802467,7.836453,3.0635734
14,-2.2809016704559326,0.27577710151672363,78.38558959960938,-0.6203465075778946,-4.852210525654625,-2.052925432269175,1.6594548,7.484106,14.885269,16.656195,-12.595047,-4.924575,3.0163133,-7.6338563,-15.72939,13.601756,-9.853868,6.6455956,-1.6258869,-0.3258391,13.828206,-8.061363,17.543633,-38.066727,62.407204,4.2619424,5.7102213,-3.739184,-7.179318,-14.5679035,29.117353,65.61678,17.814922,7.8268704,3.0545492
15,-2.3356876373291016,0.31277304887771606,78.34915161132812,-0.6843610037783445,-4.837573122048596,-2.233756963750014,1.2903835,7.675729,15.003744,17.429237,-12.943177,-4.890818,2.6027582,-7.615285,-15.463047,14.213767,-10.054153,6.612665,-1.5941973,-0.22259964,13.962074,-8.107934,17.567709,-38.040462,62.27842,4.244195,5.6884446,-3.7699153,-7.389664,-14.628974,29.142302,65.61253,17.826283,7.821453,3.0492315
16,-2.4206488132476807,0.364054799079895,78.3090591430664,-0.7377220284188184,-4.798072322324795,-2.4644396568357707,0.90645474,7.873361,15.18024,18.194277,-13.2858,-4.8623085,2.1053908,-7.6002064,-15.152224,14.89951,-10.2676,6.575965,-1.5441502,-0.1313363,14.089835,-8.146088,17.60207,-37.98683,62.128128,4.234419,5.67277,-3.795451,-7.614474,-14.704003,29.1739,65.58443,17.841208,7.8254952,3.0550025
17,-2.4833548069000244,0.39005008339881897,78.26798248291016,-0.7843770779702739,-4.726925044805138,-2.7478032218679647,0.4953689,8.085333,15.423908,18.964624,-13.6269245,-4.8405085,1.5146668,-7.5834785,-14.7989645,15.664548,-10.499805,6.531013,-1.4683824,-0.05175365,14.196219,-8.17827,17.639217,-37.899696,61.969463,4.235542,5.6670527,-3.8160107,-7.8644576,-14.770375,29.21048,65.55713,17.855106,7.8418603,3.0735004
18,-2.5585474967956543,0.4206899106502533,78.22306823730469,-0.8273570943590662,-4.631868696045397,-3.0738379330950223,0.057163063,8.312129,15.717634,19.752314,-13.971025,-4.8208246,0.84979796,-7.563409,-14.407865,16.491861,-10.748651,6.4776473,-1.3806792,0.021632574,14.294297,-8.198964,17.688108,-37.779064,61.78582,4.245866,5.668434,-3.833569,-8.139099,-14.839792,29.260057,65.52195,17.869286,7.8682213,3.1015131
19,-2.637637138366699,0.4703057110309601,78.1680679321289,-0.8578360662557905,-4.5234569856198,-3.4431884358741085,-0.3802008,8.538129,16.053368,20.523241,-14.309252,-4.8038945,0.113527395,-7.5499654,-13.970201,17.394943,-11.008345,6.4205484,-1.2787793,0.074330926,14.394571,-8.220229,17.743353,-37.648827,61.59739,4.2641797,5.670178,-3.8419902,-8.445487,-14.899244,29.312483,65.496,17.886454,7.892381,3.131349
20,-2.7208094596862793,0.5167509317398071,78.1113052368164,-0.8668147767035242,-4.411749518057131,-3.856417254918929,-0.792449,8.748209,16.422405,21.249146,-14.632617,-4.7906914,-0.6849177,-7.55038,-13.478,18.3702,-11.266406,6.3658767,-1.1691179,0.09358583,14.513439,-8.241681,17.813572,-37.522667,61.400803,4.288179,5.665841,-3.8377542,-8.785847,-14.952284,29.367048,65.4772,17.91228,7.9045134,3.157062
21,-2.8084640502929688,0.568912148475647,78.05125427246094,-0.8414639986698599,-4.2982775854383455,-4.314605153169546,-1.1620663,8.919141,16.822048,21.898748,-14.933083,-4.7819114,-1.5630075,-7.5839353,-12.926993,19.457678,-11.534952,6.322248,-1.0439371,0.06738122,14.644778,-8.273372,17.885592,-37.41387,61.218086,4.3299446,5.651811,-3.8098032,-9.162157,-14.990032,29.427261,65.48522,17.948128,7.900172,3.1793816
22,-2.9109363555908203,0.61142498254776,77.98759460449219,-0.790905579684208,-4.177606990337549,-4.816837423505805,-1.5077431,9.066147,17.257133,22.498793,-15.218513,-4.7774453,-2.5156374,-7.6357055,-12.322314,20.634777,-11.812621,6.2838354,-0.9030816,0.0069303415,14.783411,-8.312703,17.957365,-37.310497,61.044937,4.388036,5.632169,-3.7632015,-9.571583,-15.016899,29.492304,65.51299,17.990618,7.885524,3.2010098
23,-3.0230307579040527,0.6555898785591125,77.92002868652344,-0.7374143062766004,-4.049059168209572,-5.360735534213721,-1.8542911,9.229225,17.731659,23.098627,-15.502104,-4.7768445,-3.5100577,-7.6642923,-11.6698675,21.827553,-12.0695,6.2375674,-0.7724176,-0.073712826,14.952133,-8.318844,18.085354,-37.18085,60.803265,4.4349885,5.6133194,-3.7223833,-10.018799,-15.044252,29.565336,65.52151,18.043184,7.8657904,3.2184591
24,-3.137479305267334,0.7111673355102539,77.85062408447266,-0.703663069576768,-3.9125973175965396,-5.9441035713561075,-2.2255495,9.448957,18.24923,23.74581,-15.795727,-4.779789,-4.5066643,-7.627266,-10.977855,22.95011,-12.273492,6.1721,-0.6273685,-0.15134977,15.147238,-8.346588,18.23183,-37.068027,60.560257,4.4325237,5.5976677,-3.6968324,-10.496959,-15.055925,29.590185,65.51548,18.088514,7.8405623,3.224094
25,-3.265568971633911,0.7593101263046265,77.77637481689453,-0.6804438393731357,-3.776957556880886,-6.573622167068998,-2.6101418,9.719347,18.830156,24.444033,-16.101297,-4.7821198,-5.5172267,-7.528709,-10.218434,24.037786,-12.435491,6.085782,-0.46939006,-0.23672102,15.38049,-8.389132,18.399958,-36.95529,60.302536,4.3748784,5.5893326,-3.6940448,-11.013547,-15.051167,29.563707,65.49605,18.12742,7.8083,3.2119577
26,-3.417297840118408,0.8010778427124023,77.69918823242188,-0.6610437338598396,-3.639186116397045,-7.248201732533358,-2.9989994,10.024185,19.466291,25.16791,-16.41105,-4.786126,-6.5525727,-7.381852,-9.399818,25.113838,-12.564137,5.987257,-0.2998319,-0.33603916,15.6444845,-8.439133,18.591536,-36.841427,60.027996,4.2794604,5.585427,-3.7049673,-11.570119,-15.031005,29.501774,65.472984,18.163612,7.768134,3.1865811
27,-3.5679004192352295,0.8484600782394409,77.62554931640625,-0.6713960312167327,-3.482712613553461,-7.954023027518286,-3.4211354,10.3901,20.116869,25.926947,-16.725527,-4.8009815,-7.574326,-7.161266,-8.586091,26.083315,-12.62664,5.8820825,-0.12988557,-0.4213568,15.920241,-8.500098,18.808182,-36.74501,59.750267,4.150352,5.5788155,-3.7218502,-12.159111,-14.994833,29.417046,65.44001,18.198116,7.724945,3.1571105
28,-3.723141670227051,0.8954962491989136,77.55267333984375,-0.7381237910922919,-3.291353653310758,-8.677443769508017,-3.904648,10.844043,20.740889,26.730188,-17.04489,-4.835306,-8.542133,-6.8451676,-7.8417306,26.848806,-12.589195,5.7766075,0.029356925,-0.4658192,16.1881,-8.574391,19.050749,-36.683037,59.482994,3.9947622,5.562467,-3.7367203,-12.773243,-14.941665,29.32071,65.39206,18.231407,7.6833177,3.133053
29,-3.8914568424224854,0.9322853684425354,77.4813232421875,-0.8647486774427066,-3.055950749881175,-9.410271475577424,-4.475247,11.391337,21.31823,27.596617,-17.371723,-4.894281,-9.469848,-6.4433775,-7.200245,27.413576,-12.4519415,5.6659846,0.17056201,-0.47246903,16.4419,-8.681884,19.323856,-36.67945,59.233788,3.799421,5.533656,-3.7551384,-13.415397,-14.870282,29.204784,65.320076,18.258139,7.648518,3.1186845
30,-4.075491428375244,0.9707778692245483,77.42033386230469,-1.0390717174287487,-2.7884101941348773,-10.161649348817374,-5.111176,12.019812,21.871006,28.51799,-17.703655,-4.972462,-10.37116,-5.968348,-6.6232963,27.822102,-12.227679,5.5526953,0.30149254,-0.4543232,16.692661,-8.811761,19.62861,-36.71733,58.989136,3.5683713,5.496851,-3.7792237,-14.086974,-14.78058,29.063526,65.22858,18.279572,7.6164026,3.1085029
31,-4.260822296142578,1.0204652547836304,77.35911560058594,-1.2636760550804644,-2.5056135340475505,-10.944948852949807,-5.7597294,12.725709,22.423191,29.441511,-18.03088,-5.0616364,-11.201639,-5.4053535,-6.0664,28.029625,-11.904721,5.4544115,0.43210346,-0.3991766,16.945272,-8.931634,19.958908,-36.76343,58.742958,3.3200965,5.454682,-3.7954066,-14.780789,-14.674121,28.915058,65.13349,18.306461,7.5790167,3.0955818
32,-4.4485297203063965,1.0636475086212158,77.30577850341797,-1.5408737774923404,-2.2248401890825815,-11.77328870748478,-6.3687544,13.505949,23.000114,30.31719,-18.34366,-5.152794,-11.914554,-4.7399406,-5.483845,27.986998,-11.468405,5.388558,0.5722616,-0.29250896,17.204744,-9.009797,20.30354,-36.780888,58.49246,3.0764735,5.4093027,-3.7895188,-15.489221,-14.551781,28.776047,65.05402,18.348267,7.524538,3.0748987
33,-4.65494966506958,1.1124157905578613,77.25871276855469,-1.898191512405027,-1.9468141553235618,-12.653818961125324,-6.9438825,14.398243,23.60417,31.15939,-18.65779,-5.24474,-12.502483,-3.9538293,-4.890324,27.670982,-10.908662,5.32488,0.7165848,-0.10313236,17.472467,-9.044587,20.654934,-36.76494,58.2413,2.8335853,5.3531175,-3.7489634,-16.219845,-14.4149065,28.65324,64.988266,18.411716,7.443937,3.0371141
34,-4.823429107666016,1.1688839197158813,77.22972869873047,-2.3249065743194928,-1.6672322967380238,-13.579064691546597,-7.502779,15.390511,24.2225,31.98393,-18.971006,-5.3406363,-12.988112,-3.0733027,-4.295634,27.103365,-10.232061,5.2657065,0.86103034,0.15288085,17.743954,-9.056399,21.011215,-36.732685,58.00074,2.584479,5.2866416,-3.683289,-16.97297,-14.263697,28.53624,64.92933,18.490067,7.3448834,2.9877834
35,-5.00253438949585,1.2253073453903198,77.21554565429688,-2.7636223766457926,-1.3949126956063265,-14.539310305186193,-8.0104885,16.401194,24.861248,32.74014,-19.244518,-5.4372745,-13.372048,-2.1520333,-3.6419156,26.311878,-9.455178,5.275844,1.0174108,0.4172945,18.014658,-9.044971,21.368454,-36.679134,57.77915,2.3484547,5.2246766,-3.611193,-17.729925,-14.096544,28.420425,64.88399,18.576937,7.2456036,2.9417703
36,-5.195732593536377,1.2758173942565918,77.20902252197266,-3.1578544179793946,-1.1367148811849788,-15.524394078783574,-8.433819,17.348988,25.528433,33.38004,-19.441507,-5.5312285,-13.64764,-1.2412637,-2.869996,25.316881,-8.594289,5.4194736,1.1967871,0.63325036,18.280293,-9.007195,21.721375,-36.59493,57.583675,2.148255,5.182233,-3.5515008,-18.471687,-13.909794,28.300074,64.85997,18.663387,7.164295,2.9137936
37,-5.3830671310424805,1.326246976852417,77.2173080444336,-3.5033383876421076,-0.8893739557437914,-16.555392263938685,-8.767084,18.230906,26.240366,33.90012,-19.553877,-5.6218143,-13.825165,-0.3357221,-1.9493576,24.124653,-7.638317,5.6206365,1.4121276,0.7963315,18.544382,-8.945917,22.063652,-36.468937,57.43607,1.9915323,5.1554885,-3.5061297,-19.211346,-13.700872,28.177204,64.86456,18.747284,7.1057463,2.9156866
38,-5.559264659881592,1.3673712015151978,77.23837280273438,-3.822850514618502,-0.6516924255056696,-17.629083883040423,-9.025046,19.077154,26.993675,34.322914,-19.600973,-5.709238,-13.895347,0.56238985,-0.90277016,22.713081,-6.5872025,5.870407,1.6535958,0.9297793,18.806843,-8.865715,22.393028,-36.309452,57.33514,1.8661045,5.1387153,-3.4652011,-19.955442,-13.469122,28.053093,64.89721,18.832706,7.0600543,2.9362032
39,-5.7442522048950195,1.4150350093841553,77.26482391357422,-4.096230620370188,-0.4316688717801823,-18.69697044351766,-9.205759,19.850767,27.76903,34.637318,-19.58677,-5.7909856,-13.823647,1.3935012,0.2528556,21.07378,-5.4840674,6.3327737,1.8981351,1.0143594,19.06004,-8.765576,22.712511,-36.13744,57.251453,1.7644831,5.144316,-3.430295,-20.674944,-13.213429,27.920824,64.95408,18.920412,7.0232306,2.9558134
40,-5.918550491333008,1.458357334136963,77.2966537475586,-4.297420949957295,-0.23716863403600164,-19.71008487255178,-9.305452,20.50689,28.5496,34.828556,-19.514015,-5.863693,-13.568218,2.100086,1.5033947,19.189434,-4.378303,7.172476,2.1232927,1.0253539,19.2982,-8.645476,23.029613,-35.976902,57.152725,1.6753774,5.184728,-3.4032848,-21.339602,-12.931599,27.77172,65.03065,19.009687,6.990179,2.9558194
41,-6.096494197845459,1.4904195070266724,77.33373260498047,-4.36689024180072,-0.07411662553326241,-20.6632787952238,-9.279967,20.961666,29.380798,34.83384,-19.371048,-5.9174743,-13.028151,2.6907198,3.128826,16.851662,-3.176149,8.729295,2.3275661,0.8997448,19.529577,-8.490944,23.348953,-35.811527,57.030064,1.6131228,5.2780538,-3.3835745,-21.943935,-12.619718,27.602259,65.130325,19.109146,6.965126,2.9253445
42,-6.264176845550537,1.5049618482589722,77.37633514404297,-4.295504806607181,0.060538402742188226,-21.57623472499766,-9.127842,21.205074,30.275297,34.656197,-19.153706,-5.95065,-12.224919,3.110793,5.0715246,14.110238,-1.9220638,10.810184,2.5195408,0.62805897,19.761438,-8.303305,23.673664,-35.635902,56.894917,1.5761803,5.4131136,-3.372115,-22.503708,-12.274219,27.4147,65.25619,19.21349,6.9484677,2.8762627
43,-6.422494888305664,1.503143548965454,77.42163848876953,-4.157363117449484,0.17658875520128092,-22.440324130715982,-8.920276,21.33587,31.156883,34.3876,-18.877821,-5.976503,-11.320624,3.2768867,6.7756276,11.32649,-0.81763715,12.782979,2.693474,0.28744403,19.980518,-8.096876,24.010153,-35.483322,56.73836,1.5363061,5.5588026,-3.372295,-23.024132,-11.898268,27.220266,65.400024,19.309437,6.9341283,2.8216875
44,-6.610254287719727,1.4741593599319458,77.47570037841797,-4.072370571977467,0.2884691351241069,-23.250651413214285,-8.756275,21.521112,31.927195,34.15932,-18.57222,-6.0143766,-10.495156,3.218015,7.6519375,8.848753,0.013300375,14.025332,2.846351,0.0020136363,20.167543,-7.885173,24.364565,-35.38602,56.54748,1.4659445,5.6843514,-3.386514,-23.507421,-11.502318,27.027884,65.54734,19.381289,6.9161034,2.7757175
45,-6.78228235244751,1.4457287788391113,77.54107666015625,-4.110945146313607,0.403994047888993,-24.012675656985223,-8.677881,21.85904,32.540245,34.021935,-18.246056,-6.072942,-9.8531475,3.0577264,7.454236,6.835784,0.50116,14.292105,2.979887,-0.15801308,20.314617,-7.669982,24.742777,-35.361176,56.31338,1.354839,5.790265,-3.4220521,-23.946615,-11.091828,26.82798,65.68478,19.427752,6.893478,2.757134
46,-6.961334705352783,1.4060149192810059,77.62450408935547,-4.231387276045951,0.5192835808369621,-24.73129710614356,-8.650329,22.294422,33.037785,33.924946,-17.890114,-6.1463614,-10.067484,2.9501314,6.4560447,6.744118,-0.117501125,13.95504,3.1003723,-0.23560555,20.429768,-7.439941,25.145233,-35.385353,56.03229,1.220884,5.890989,-3.4753652,-24.335989,-10.668787,26.61638,65.80956,19.454407,6.8698745,2.7551363
47,-7.149506568908691,1.3602656126022339,77.71869659423828,-4.4023841396147025,0.6333240549882028,-25.40070468655523,-8.666773,22.7874,33.443813,33.86198,-17.51166,-6.2360005,-10.209924,2.7323637,4.9533105,6.677968,-0.7779307,13.34827,3.2097647,-0.25577772,20.514599,-7.2002945,25.56721,-35.442898,55.70914,1.0652115,5.975541,-3.5312212,-24.678848,-10.242985,26.417116,65.92053,19.462303,6.846353,2.7382467
48,-7.334270477294922,1.2923930883407593,77.8121566772461,-4.587356332893356,0.7447044959160726,-26.014836261451002,-8.716719,23.291906,33.784107,33.822956,-17.11622,-6.3431897,-10.238198,2.3663177,3.1930838,6.635511,-1.4050809,12.784692,3.3120809,-0.24682534,20.572786,-6.958627,25.999615,-35.518616,55.35061,0.8916478,6.032911,-3.5746257,-24.972158,-9.827943,26.252905,66.00859,19.454195,6.8250318,2.6759138
49,-7.5350470542907715,1.220762014389038,77.90520477294922,-4.786230295204693,0.8560644159914451,-26.559231032870667,-8.800655,23.80143,34.0497,33.79012,-16.690569,-6.4700537,-10.118014,1.7850034,0.93270934,6.614449,-2.0160027,12.2836895,3.402725,-0.20508716,20.604849,-6.7347145,26.438232,-35.64417,54.966457,0.671236,6.054843,-3.6023026,-25.19879,-9.430241,26.123152,66.05622,19.435516,6.813683,2.5407405
50,-7.727602958679199,1.1391905546188354,78.00467681884766,-5.015812897625844,0.9678318995940801,-27.041091064867867,-8.924612,24.340212,34.22864,33.77333,-16.235846,-6.615586,-9.851998,1.0376537,-1.8573271,6.6131783,-2.6543543,11.715946,3.4854736,-0.11417169,20.609545,-6.5269723,26.880661,-35.822166,54.55794,0.41261932,6.0485187,-3.6216342,-25.357391,-9.052518,26.0196,66.06287,19.407276,6.810256,2.356922
51,-7.904843807220459,1.0522452592849731,78.1063232421875,-5.26167773971942,1.075937285610871,-27.48643702046009,-9.0808735,24.902477,34.345512,33.796467,-15.776627,-6.7759223,-9.475662,0.25206393,-4.6096587,6.6301384,-3.260221,11.145951,3.5749803,0.015810119,20.588661,-6.3107204,27.317846,-35.99203,54.120518,0.17581177,6.0257335,-3.6340532,-25.463657,-8.702201,25.943851,66.04071,19.35341,6.802917,2.1708715
52,-8.084308624267578,0.965644121170044,78.19612884521484,-5.51114332585402,1.1764046884100388,-27.920983035951306,-9.263535,25.485155,34.42466,33.887318,-15.339025,-6.9472117,-9.050207,-0.4508883,-6.757261,6.660956,-3.757175,10.617398,3.6836207,0.17720868,20.543053,-6.0607376,27.737213,-36.09095,53.652092,0.021496968,5.997954,-3.6403766,-25.533663,-8.389471,25.901686,66.00183,19.258886,6.780075,2.028998
53,-8.274740219116211,0.8792212009429932,78.2800521850586,-5.762766665426384,1.2733401830249154,-28.350979670806648,-9.463832,26.080946,34.473976,34.027527,-14.915882,-7.1304913,-8.599125,-1.061303,-8.183311,6.698314,-4.106195,10.091865,3.8186078,0.37584147,20.463459,-5.778499,28.129171,-36.127254,53.157482,-0.022868397,5.9587145,-3.6438785,-25.557846,-8.123207,25.90066,65.94288,19.094465,6.734402,1.9358915
54,-8.462198257446289,0.7788195013999939,78.3564682006836,-6.021726383424657,1.3664691190992655,-28.7608372498115,-9.686771,26.691648,34.477047,34.209595,-14.497687,-7.3269973,-8.105282,-1.6427691,-9.18214,6.75225,-4.3487573,9.541043,3.972675,0.61766195,20.352724,-5.482717,28.48945,-36.1297,52.6478,0.009529342,5.9041014,-3.6423018,-25.524197,-7.905778,25.93606,65.84991,18.877726,6.675713,1.8699187
55,-8.646745681762695,0.6716212630271912,78.42325592041016,-6.284021555752557,1.4465369112228772,-29.144161007505165,-9.943807,27.324106,34.42321,34.46818,-14.102565,-7.532655,-7.570629,-2.1911588,-9.803427,6.8175907,-4.5056305,9.016547,4.135933,0.89300656,20.229729,-5.1749806,28.814217,-36.068035,52.131557,0.083630845,5.8497524,-3.6280327,-25.451338,-7.7358165,25.999952,65.73044,18.669254,6.613954,1.8388
56,-8.829891204833984,0.5613514184951782,78.46928405761719,-6.544175746843714,1.503947825911305,-29.495024216789677,-10.245755,27.98347,34.30292,34.83725,-13.748574,-7.7435064,-6.997746,-2.7042816,-10.095546,6.8926096,-4.5993056,8.574435,4.29558,1.1896738,20.113314,-4.848121,29.10104,-35.902058,51.61137,0.16999255,5.811391,-3.5939493,-25.358822,-7.6083384,26.087908,65.58761,18.531322,6.5635653,1.8482693
57,-9.030487060546875,0.4427362084388733,78.49808502197266,-6.802513690524932,1.5374286355486282,-29.808308570964105,-10.594133,28.670776,34.122032,35.317173,-13.441045,-7.9531374,-6.413894,-3.170891,-9.943391,7.0114737,-4.6405997,8.229795,4.443978,1.5076176,20.004976,-4.4925785,29.345821,-35.59993,51.086205,0.2843297,5.7955866,-3.5343869,-25.253521,-7.520212,26.211973,65.42745,18.504868,6.526267,1.9195682
58,-9.247029304504395,0.3241984248161316,78.50005340576172,-7.046922680953984,1.5510524018930623,-30.08689134592135,-10.976084,29.362322,33.88871,35.879143,-13.165741,-8.164163,-6.5799727,-3.7451124,-9.311873,8.806511,-5.476974,7.9579988,4.5847154,1.836607,19.896404,-4.113776,29.54748,-35.187458,50.559265,0.4345495,5.7928724,-3.4545262,-25.129452,-7.4699326,26.372498,65.25459,18.54888,6.4942336,2.0423338
59,-9.452810287475586,0.19450978934764862,78.49125671386719,-7.2549347887576205,1.542751090049931,-30.33722431679268,-11.384638,30.029978,33.594955,36.522068,-12.91577,-8.386808,-6.709713,-4.336323,-8.482284,10.615004,-6.245248,7.7524505,4.7243433,2.1512764,19.792244,-3.7244887,29.710854,-34.709515,50.0346,0.5826317,5.79555,-3.364181,-24.986376,-7.453103,26.546194,65.067726,18.603727,6.46721,2.174962
60,-9.653152465820312,0.058282602578401566,78.45889282226562,-7.408068153755654,1.510995550695281,-30.56552295615084,-11.813969,30.650526,33.23174,37.245007,-12.684035,-8.632881,-6.78675,-5.0014853,-7.6965275,12.43494,-6.961106,7.60542,4.8691015,2.4284544,19.696634,-3.3375292,29.845554,-34.213844,49.514748,0.6862518,5.7961082,-3.2728899,-24.828756,-7.4653206,26.710747,64.87343,18.60916,6.442416,2.2764497
61,-9.83004093170166,-0.08936768025159836,78.4045639038086,-7.49066122425116,1.4508026302027273,-30.77263831735697,-12.257143,31.214476,32.822197,38.068066,-12.469021,-8.901293,-6.806424,-5.7513547,-6.930526,14.282241,-7.6152945,7.548759,5.026301,2.6492298,19.615654,-2.9483776,29.958889,-33.69585,48.98804,0.7311138,5.7989817,-3.1756043,-24.656586,-7.504479,26.872269,64.6729,18.560991,6.411263,2.342794
62,-10.03799057006836,-0.24177150428295135,78.32772064208984,-7.508813684827298,1.3648275731070303,-30.954892490983372,-12.7172985,31.724249,32.367233,38.98398,-12.275943,-9.189305,-6.7949343,-6.5688815,-6.0814414,16.184044,-8.221225,7.5779443,5.190487,2.8200698,19.54766,-2.5494769,30.053373,-33.136356,48.448933,0.7376948,5.806532,-3.0706742,-24.470427,-7.569585,27.03757,64.46484,18.486944,6.377153,2.3935146
63,-10.290796279907227,-0.4084100127220154,78.20819091796875,-7.483116594531593,1.2627493663163298,-31.112787563803273,-13.208187,32.181625,31.819574,39.959064,-12.11204,-9.507722,-6.7496223,-7.471433,-5.274621,18.089458,-8.800631,7.6257386,5.3500357,2.9629543,19.484049,-2.1479604,30.132048,-32.561783,47.909393,0.71746063,5.8079762,-2.9722424,-24.271269,-7.6570687,27.18068,64.246185,18.37107,6.3559017,2.4226847
64,-10.514209747314453,-0.5805187821388245,78.07152557373047,-7.4360841216432965,1.154230853955002,-31.24711422826737,-13.744092,32.589462,31.13076,40.95821,-11.983622,-9.867085,-6.668561,-8.477541,-4.6350975,19.954119,-9.377625,7.623249,5.5033545,3.101142,19.408934,-1.768959,30.188372,-32.017242,47.403934,0.68019515,5.792225,-2.8913608,-24.06508,-7.7533817,27.263382,64.03162,18.193176,6.3611465,2.4232373
65,-10.72679328918457,-0.7468746304512024,77.91349792480469,-7.372720976853057,1.0420502262043954,-31.34691751808889,-14.341033,32.954475,30.297081,41.99936,-11.894696,-10.268459,-6.541744,-9.592564,-4.183905,21.78753,-9.96808,7.543228,5.625236,3.2403026,19.334751,-1.370941,30.241709,-31.455366,46.879566,0.63153374,5.751393,-2.8371584,-23.843435,-7.880729,27.30599,63.784737,17.906395,6.4283547,2.3768783
66,-10.93874740600586,-0.9222427606582642,77.72642517089844,-7.2858243362676465,0.9212153909009857,-31.4161281081633,-14.991738,33.273785,29.33906,43.097908,-11.845682,-10.710772,-6.365851,-10.808467,-3.859945,23.595144,-10.550166,7.422944,5.744427,3.370824,19.254301,-0.98690474,30.280617,-30.90753,46.370163,0.5578662,5.692821,-2.7972858,-23.607632,-8.023343,27.291979,63.53006,17.52539,6.5372934,2.292378
67,-11.15671443939209,-1.1096028089523315,77.50364685058594,-7.181824941857727,0.7905090458918206,-31.477502853110256,-15.675653,33.53844,28.24511,44.216976,-11.837961,-11.201262,-6.14978,-12.123535,-3.6656303,25.333986,-11.094661,7.288837,5.859831,3.4994981,19.169212,-0.61183196,30.307972,-30.381865,45.877655,0.4678079,5.6304574,-2.7718616,-23.365017,-8.181209,27.24019,63.27193,17.165903,6.630925,2.2092602
68,-11.384734153747559,-1.2952797412872314,77.25627136230469,-7.067708115872079,0.6491168160040006,-31.55405298852293,-16.37203,33.740437,27.00424,45.32156,-11.874943,-11.747553,-5.9075494,-13.535129,-3.602919,26.971313,-11.577475,7.167231,5.9782977,3.6330283,19.07956,-0.24541968,30.327871,-29.89506,45.405838,0.36977226,5.578664,-2.7603471,-23.11753,-8.353333,27.157656,63.01293,16.937323,6.6509914,2.1666572
69,-11.596612930297852,-1.4893311262130737,76.98011779785156,-6.946349919889882,0.49402460477616555,-31.64208364772764,-17.081774,33.850048,25.548536,46.39303,-11.974822,-12.362938,-5.622021,-15.072647,-3.7306824,28.515871,-12.003062,7.0590997,6.0989895,3.7781672,18.980463,0.1165789,30.34278,-29.455965,44.94683,0.24417864,5.5403223,-2.7711008,-22.857756,-8.54087,27.043327,62.76647,16.915651,6.552605,2.187476
70,-11.818944931030273,-1.684805154800415,76.67581176757812,-6.8166050834907805,0.32704935850263583,-31.733291707381355,-17.809645,33.877384,23.912172,47.459564,-12.137869,-13.042991,-5.2897677,-16.729765,-4.031908,29.98915,-12.384297,6.950104,6.220956,3.9325132,18.873917,0.4756813,30.352888,-29.053003,44.496475,0.0952222,5.508431,-2.8018785,-22.583788,-8.743722,26.891838,62.52214,17.025259,6.376783,2.2471495
71,-12.044212341308594,-1.8770018815994263,76.35137176513672,-6.679959300709025,0.15448522525112138,-31.843523153668574,-18.539085,33.87587,22.236057,48.54876,-12.335569,-13.767807,-4.9487042,-18.44639,-4.393889,31.376333,-12.709808,6.8434033,6.3473673,4.087652,18.768242,0.8228586,30.36048,-28.676159,44.0706,-0.041115448,5.4822464,-2.8359468,-22.317114,-8.960398,26.712692,62.260593,17.154888,6.192518,2.3120122
72,-12.256440162658691,-2.0746612548828125,76.00186920166016,-6.538735877136018,-0.016823652578824372,-31.988923713862114,-19.260986,33.904003,20.654104,49.688023,-12.536409,-14.5169325,-4.643149,-20.159603,-4.7017465,32.661247,-12.96927,6.742218,6.480867,4.2359896,18.671778,1.1499152,30.369263,-28.31532,43.68431,-0.1298479,5.4608874,-2.8565915,-22.078598,-9.1876,26.515285,61.96201,17.191889,6.06868,2.3473783
73,-12.493548393249512,-2.2830748558044434,75.63091278076172,-6.339938293878289,-0.15421099439848374,-32.146299307131684,-20.012682,33.8901,19.228024,50.875664,-12.724223,-15.000033,-4.4218636,-21.96144,-4.966097,33.882343,-13.174009,6.6722054,6.597523,4.3211465,18.562172,1.4570369,30.384504,-27.97381,43.33556,-0.1469466,5.4422164,-2.862641,-21.870138,-9.420147,26.297373,61.622025,17.09933,6.029347,2.3260722
74,-12.72829818725586,-2.4789538383483887,75.2470703125,-6.037933383862193,-0.2400539431106475,-32.276124184358736,-20.810986,33.74879,17.964273,52.081505,-12.904799,-15.000033,-4.2806435,-23.93881,-5.2447233,35.056927,-13.332502,6.64393,6.664488,4.3000693,18.425898,1.7493548,30.409012,-27.653486,43.015347,-0.11775176,5.4272294,-2.862257,-21.684723,-9.655383,26.057453,61.25413,16.941286,6.0351877,2.2715437
75,-12.988935470581055,-2.6855430603027344,74.84635925292969,-5.73203892023824,-0.3312919876183415,-32.424428961233914,-21.588146,33.63923,16.80199,53.30984,-13.093502,-15.000033,-4.1628923,-25.903078,-5.471439,36.126835,-13.42353,6.6099005,6.721807,4.2722197,18.306503,2.0367658,30.439987,-27.333895,42.72121,-0.07486656,5.4205914,-2.8531506,-21.52816,-9.896242,25.802898,60.865788,16.747124,6.060393,2.225434
76,-13.246040344238281,-2.9077839851379395,74.43812561035156,-5.434870163939364,-0.4362797709083954,-32.57996105148576,-22.31989,33.590446,15.780271,54.524433,-13.278933,-15.000033,-4.0660734,-27.789766,-5.598843,37.079327,-13.445536,6.55411,6.754148,4.251985,18.219034,2.3196495,30.47192,-26.99877,42.45862,-0.052428972,5.4261894,-2.83287,-21.401495,-10.147607,25.540125,60.457096,16.547699,6.0791974,2.229154
77,-13.510208129882812,-3.1186141967773438,74.0166015625,-5.154849953650992,-0.559630840400575,-32.735132623163125,-23.029408,33.62378,14.894772,55.75416,-13.442083,-15.000033,-3.9877164,-29.590998,-5.620157,37.9088,-13.39373,6.4682693,6.7587557,4.2544837,18.172626,2.577263,30.502329,-26.66175,42.237812,-0.06732475,5.4444833,-2.805697,-21.307245,-10.41355,25.26242,60.03465,16.36096,6.090544,2.2789876
78,-13.784944534301758,-3.348797082901001,73.59246063232422,-4.886620177184124,-0.6948916114915185,-32.89740106162364,-23.72877,33.726475,14.119946,57.00533,-13.590172,-15.000033,-3.9386878,-31.331347,-5.558624,38.630882,-13.27503,6.362999,6.7442484,4.274126,18.155855,2.811179,30.530298,-26.328878,42.057873,-0.09859392,5.473213,-2.7709825,-21.236616,-10.694804,24.967428,59.589184,16.165943,6.1066346,2.3584135
79,-14.086146354675293,-3.5919764041900635,73.16781616210938,-4.62298824801781,-0.8330010154000249,-33.07727230791917,-24.366703,33.87783,13.463742,58.1903,-13.750525,-15.000033,-3.939059,-32.993614,-5.4106965,39.26597,-13.107204,6.25056,6.7102633,4.2935205,18.150606,3.0595524,30.55125,-25.967861,41.90685,-0.120876476,5.5124288,-2.718468,-21.185514,-10.994086,24.679396,59.109856,15.942798,6.120642,2.4885163
80,-14.416167259216309,-3.8394086360931396,72.74291229248047,-4.357003911279786,-0.9657586484830378,-33.286613319822706,-24.891863,34.05889,12.931465,59.22392,-13.950469,-15.000033,-4.013148,-34.561966,-5.1682673,39.836544,-12.909561,6.1422224,6.6541877,4.2970076,18.140219,3.358169,30.559078,-25.546547,41.775074,-0.11162295,5.56211,-2.6383996,-21.148403,-11.313112,24.422218,58.582726,15.669553,6.125841,2.6901193
81,-14.735634803771973,-4.1024909019470215,72.32073974609375,-4.085680423806286,-1.0964733810701752,-33.554283991104576,-25.273987,34.282364,12.536427,60.101482,-14.212513,-15.000033,-4.188727,-36.048775,-4.799541,40.330418,-12.665687,6.0625353,6.5932765,4.282094,18.122,3.7235394,30.54767,-25.048016,41.657066,-0.041981243,5.6249356,-2.5382984,-21.140434,-11.653882,24.209547,58.03427,15.350045,6.1131477,3.0144773
82,-15.060474395751953,-4.377690315246582,71.90714263916016,-3.8152273201980664,-1.2271814621690833,-33.86613907564993,-25.547838,34.55864,12.262385,60.861523,-14.513461,-15.000033,-4.4616923,-37.45139,-4.308424,40.749767,-12.378216,5.99676,6.5204716,4.2614794,18.103716,4.129681,30.515306,-24.492836,41.56509,0.06774864,5.6998286,-2.4201295,-21.157549,-12.015291,24.029331,57.46033,14.993619,6.08753,3.434688
83,-15.386687278747559,-4.667938709259033,71.51116943359375,-3.5529353316531926,-1.34830873726678,-34.16964947707539,-25.756998,34.86446,12.0698805,61.478687,-14.811063,-15.000033,-4.8054338,-38.737022,-3.7407813,41.13568,-12.093845,5.8971,6.3995533,4.2380843,18.081764,4.565763,30.461433,-23.89268,41.50489,0.1792025,5.7812176,-2.2659159,-21.172476,-12.3967705,23.867653,56.810852,14.586133,6.0622826,3.8542461
84,-15.725605010986328,-4.982523441314697,71.13623046875,-3.306549479782399,-1.4503316891067988,-34.41259159979143,-25.945522,35.176853,11.918388,61.928917,-15.062711,-15.000033,-5.19257,-39.875507,-3.1436903,41.536316,-11.863926,5.7159986,6.193998,4.2159705,18.053946,5.0154905,30.387558,-23.263731,41.4851,0.24913317,5.8634214,-2.0573885,-21.153933,-12.796453,23.708418,56.03076,14.110122,6.052138,4.1771145
85,-16.099885940551758,-5.3146562576293945,70.78587341308594,-3.0925815313194303,-1.521406824252559,-34.57350282531776,-26.147259,35.50911,11.792995,62.212124,-15.291887,-15.000033,-5.634411,-40.875614,-2.5525203,41.989075,-11.674045,5.403226,5.876221,4.202823,18.012545,5.4883037,30.28967,-22.575745,41.50514,0.29225302,5.9432564,-1.7799911,-21.11548,-13.215822,23.560453,55.097984,13.535545,6.0706058,4.390318
86,-16.506061553955078,-5.658816337585449,70.4687271118164,-2.9033933175749764,-1.570135603329497,-34.6834916820538,-26.331446,35.86901,11.711749,62.33746,-15.506104,-15.000033,-6.1463146,-41.74584,-1.9308511,42.4712,-11.514793,4.9951057,5.4708753,4.1956487,17.96074,5.9824796,30.166225,-21.834986,41.566986,0.31966466,6.0243597,-1.4466537,-21.064857,-13.655174,23.428617,54.0437,12.878541,6.1074014,4.541048
87,-16.922447204589844,-6.037396430969238,70.18111419677734,-2.7096924565377734,-1.6183650391851707,-34.769356408673985,-26.444904,36.22457,11.685358,62.29265,-15.638033,-15.000033,-6.698846,-42.456547,-1.2236795,42.93859,-11.4422455,4.576715,5.026337,4.179775,17.912325,6.4822392,30.023994,-21.102446,41.664276,0.29757598,6.1112175,-1.0793077,-20.96306,-14.110043,23.288837,52.8923,12.196635,6.1433973,4.6248703
88,-17.3712158203125,-6.43324613571167,69.93452453613281,-2.4822932330811236,-1.6876824061663913,-34.85816145097063,-26.434143,36.543896,11.725469,62.06754,-15.622826,-15.000033,-7.2575936,-42.97707,-0.3790806,43.34732,-11.509969,4.2362676,4.5935464,4.1392717,17.88107,6.9678497,29.876762,-20.444462,41.791363,0.1862411,6.2080855,-0.6994301,-20.773733,-14.575162,23.114658,51.669315,11.548752,6.1595707,4.6371446
89,-17.82900047302246,-6.864420413970947,69.73240661621094,-2.220254991561176,-1.789614633296696,-34.9370724418674,-26.291529,36.820683,11.830466,61.662235,-15.472383,-15.000033,-7.811227,-43.28998,0.6483009,43.739304,-11.710071,3.9635377,4.16264,4.065528,17.884586,7.4487324,29.731007,-19.829693,41.94855,-0.021815265,6.31296,-0.30131465,-20.477028,-15.047314,22.86101,50.317463,10.878112,6.160497,4.5687284
90,-18.30928611755371,-7.321048736572266,69.56340789794922,-1.9363814206961152,-1.9109654870544648,-34.99903460897209,-26.04214,37.06887,11.997905,61.08136,-15.211604,-15.000033,-8.370279,-43.411743,1.8132081,44.129585,-12.024041,3.7258568,3.7173755,3.963127,17.91182,7.933506,29.589542,-19.238718,42.130386,-0.30964604,6.423842,0.12299763,-20.097485,-15.528107,22.550018,48.843163,10.178243,6.1551743,4.4248905
91,-18.8343563079834,-7.799287796020508,69.43445587158203,-1.6223229923355542,-2.035693494348391,-35.07927605944765,-25.678614,37.287495,12.240284,60.31752,-14.790516,-15.000033,-8.923771,-43.365685,3.0257707,44.427982,-12.485508,3.5792084,3.3012562,3.8386335,17.935575,8.4023905,29.464066,-18.75672,42.320522,-0.68206865,6.5443864,0.55554134,-19.656122,-16.01755,22.245201,47.354874,9.576828,6.1313806,4.222711
92,-19.388315200805664,-8.302437782287598,69.3450698852539,-1.268824831349779,-2.147906792081148,-35.21282453758028,-25.192188,37.47687,12.571142,59.363663,-14.158182,-15.000033,-9.461918,-43.172924,4.195462,44.54674,-13.129605,3.5767262,2.9604914,3.6977181,17.928415,8.83243,29.371527,-18.475965,42.50599,-1.1486342,6.678084,0.9787648,-19.176537,-16.516924,22.0073,45.963707,9.20103,6.07474,3.9791348
93,-19.962034225463867,-8.833269119262695,69.29928588867188,-0.8739042173448083,-2.249425405231588,-35.412732022323176,-24.593943,37.638187,12.976566,58.250378,-13.317949,-15.000033,-9.990902,-42.79457,5.403611,44.47915,-14.013641,3.7577317,2.7022443,3.5448356,17.89326,9.217251,29.328575,-18.458654,42.68395,-1.7973616,6.851872,1.4416802,-18.632212,-17.02946,21.822077,44.63412,9.074858,5.9531918,3.6593087
94,-20.54549789428711,-9.397409439086914,69.29683685302734,-0.4396581582806225,-2.3467307018366563,-35.65909342802149,-23.879734,37.766785,13.459506,56.969707,-12.288789,-15.000033,-10.504856,-42.246357,6.654624,44.27528,-15.110639,4.0735416,2.5125222,3.3695252,17.845177,9.569406,29.339048,-18.650068,42.853714,-2.601935,7.0518937,1.9364281,-18.015144,-17.557932,21.64913,43.314697,9.13238,5.782642,3.2685835
95,-21.15870475769043,-9.989030838012695,69.33137512207031,0.03562846183477397,-2.4305206909168517,-35.936539510946865,-23.025633,37.84568,14.0438595,55.46579,-11.059633,-15.000033,-10.9723835,-41.63373,7.7396164,43.909622,-16.318214,4.4447036,2.4004667,3.1567433,17.77495,9.902484,29.395927,-18.957096,43.00141,-3.3929343,7.224802,2.3574667,-17.385183,-18.100754,21.520847,42.103073,9.369594,5.6190243,2.8838603
96,-21.777816772460938,-10.617738723754883,69.4091567993164,0.5527423490860857,-2.491085655390136,-36.23036934974709,-22.008148,37.85866,14.753835,53.67962,-9.614829,-15.000033,-11.375555,-41.061146,8.463876,43.353455,-17.529007,4.7991743,2.3680816,2.8946934,17.671526,10.235856,29.483463,-19.279413,43.113194,-3.9957206,7.322823,2.5973325,-16.806097,-18.650126,21.481133,41.105675,9.781115,5.517947,2.5802157
97,-22.42898178100586,-11.273688316345215,69.52099609375,1.148383697233689,-2.5313274655797855,-36.55238609899505,-20.796833,37.767067,15.628544,51.6092,-7.9829793,-15.000033,-11.698928,-40.61221,8.703151,42.481598,-18.822672,5.1467314,2.4162555,2.550343,17.523264,10.567616,29.60122,-19.642767,43.20073,-4.373589,7.33757,2.5922627,-16.280128,-19.1945,21.567377,40.358723,10.464486,5.49602,2.3252172
98,-23.098556518554688,-11.963961601257324,69.66336059570312,1.8109078093327518,-2.5534632864243534,-36.90561062319539,-19.418743,37.580086,16.633604,49.286476,-6.163373,-15.000033,-11.972435,-40.22223,8.598544,41.338604,-20.215296,5.5091047,2.5340862,2.1364539,17.338223,10.894533,29.750275,-20.074429,43.26958,-4.612529,7.297552,2.4099655,-15.790458,-19.730448,21.758516,39.82071,11.386417,5.519502,2.0925698
99,-23.77889060974121,-12.691118240356445,69.83499145507812,2.4664333863116323,-2.5467959084699943,-37.26139186612991,-17.934025,37.350845,17.684668,46.69257,-4.098419,-15.000033,-12.2442665,-39.76032,8.354896,40.14764,-21.500872,5.842862,2.7039475,1.7163309,17.134352,11.235263,29.908646,-20.473248,43.29713,-4.7163677,7.210906,2.1402543,-15.3766575,-20.2624,22.021986,39.487755,12.354522,5.57213,1.9665037
100,-24.491527557373047,-13.445409774780273,70.03406524658203,3.04149609000169,-2.501558745708741,-37.590353591659934,-16.406921,37.136395,18.701742,43.81636,-1.7328969,-15.000033,-12.560375,-39.095127,8.178359,39.137634,-22.477633,6.109096,2.8994772,1.3578029,16.927229,11.611439,30.041124,-20.730825,43.26541,-4.6831865,7.082973,1.8739609,-15.0833845,-20.797373,22.337448,39.35904,13.176151,5.641382,2.0317733
101,-25.221437454223633,-14.222307205200195,70.24894714355469,3.5439623781590344,-2.39269256980291,-37.87612646497149,-14.7781925,36.931107,19.897882,40.51359,1.1310788,-15.000033,-12.909385,-38.092876,8.12771,38.21091,-22.974241,6.260849,3.1094613,1.0620718,16.694597,12.016751,30.11784,-20.824322,43.2018,-4.4358907,6.8753486,1.6196022,-14.923418,-21.337505,22.722904,39.477154,13.825811,5.7390127,2.3637238
102,-25.96270751953125,-15.023395538330078,70.47444915771484,4.005392910844136,-2.2335713025059394,-38.136630020872694,-13.058078,36.69046,21.227854,36.85282,4.400396,-15.000033,-13.296194,-36.868027,8.113553,37.294975,-23.136028,6.330473,3.3392425,0.8059369,16.431276,12.431574,30.132563,-20.80953,43.132942,-3.9921603,6.5934386,1.3393016,-14.880225,-21.88142,23.202005,39.83924,14.397857,5.871796,2.8982244
103,-26.71452522277832,-15.807218551635742,70.7746353149414,4.387235460948458,-2.0718279939180673,-38.3915204273916,-11.434604,36.451622,22.222376,33.189552,7.6549907,-15.000033,-13.742775,-35.62705,8.070662,36.652637,-23.234434,6.4217925,3.5866952,0.62090796,16.178185,12.858315,30.091137,-20.697397,43.037327,-3.4950664,6.30972,1.053414,-14.959862,-22.434053,23.764559,40.379677,14.881411,6.0187297,3.512556
104,-27.485584259033203,-16.61929702758789,71.06159210205078,4.647849427855658,-1.9532046901000792,-38.657214727797246,-10.092272,36.296597,22.432285,29.895187,10.457401,-15.000033,-14.221132,-34.550797,7.886194,36.54115,-23.539444,6.6507597,3.8469322,0.54077846,15.9784565,13.302552,30.008118,-20.497503,42.8831,-3.0901566,6.099096,0.77816236,-15.161516,-23.00279,24.396626,41.02197,15.267497,6.1563754,4.0851665
105,-28.277624130249023,-17.49230194091797,71.27933502197266,4.714260073137172,-1.8863573960921016,-38.97074325704821,-9.168322,36.380676,21.46993,27.074442,12.89202,-15.000033,-14.701537,-33.68808,7.427716,37.18854,-24.184587,7.060541,4.164876,0.63248867,15.836266,13.795291,29.891174,-20.1829,42.627815,-2.830756,5.990775,0.52905697,-15.495149,-23.59238,25.123072,41.78444,15.524187,6.289334,4.632494
106,-29.105541229248047,-18.392986297607422,71.42231750488281,4.604946502658834,-1.827675909792876,-39.29290132992434,-8.757246,36.73497,19.59748,24.877937,14.952839,-15.000033,-15.189389,-32.93934,6.7390876,38.44073,-25.000883,7.5613556,4.512612,0.87744236,15.712254,14.3231,29.740309,-19.75729,42.289642,-2.636369,5.9430594,0.29057655,-15.944113,-24.20014,25.943039,42.675873,15.667485,6.4243517,5.205136
107,-29.9397029876709,-19.28451156616211,71.50963592529297,4.424987807377401,-1.752923120654315,-39.5342002298078,-8.836548,37.19328,17.410234,23.505005,16.176203,-15.000033,-15.713073,-32.257538,5.986501,39.985672,-25.820644,8.083106,4.7882247,1.1756353,15.592977,14.829192,29.561497,-19.277914,41.923073,-2.4518218,5.9255476,0.03175069,-16.475704,-24.824085,26.80131,43.613407,15.763435,6.54012,5.733384
108,-30.76137351989746,-20.111095428466797,71.58285522460938,4.312521433230378,-1.6641395175954827,-39.62765392744725,-9.050574,37.48575,15.655916,22.675816,16.320253,-15.000033,-16.27268,-31.569519,5.3429737,41.467808,-26.482239,8.616035,4.9152036,1.4011506,15.494932,15.26587,29.363804,-18.804754,41.575047,-2.2195568,5.908013,-0.27862784,-17.056417,-25.46663,27.63208,44.513985,15.878256,6.6174316,6.1485977
109,-31.57577896118164,-20.892637252807617,71.65991973876953,4.335588944424786,-1.565055644677168,-39.55578468383168,-8.994188,37.44944,14.712353,21.75888,15.241068,-15.000033,-16.939274,-30.839993,4.911791,42.84947,-26.935038,9.24678,4.8617687,1.4969699,15.429911,15.67154,29.145016,-18.30906,41.19773,-1.9469041,5.902298,-0.6718783,-17.73353,-26.141457,28.477509,45.376163,15.990302,6.6676903,6.4498057
110,-32.38498306274414,-21.666215896606445,71.71681213378906,4.437374672447576,-1.4693379728907594,-39.365730703949474,-8.6700115,37.16478,14.265268,20.621046,13.326905,-15.000033,-17.706745,-30.105488,4.598045,44.29075,-27.289219,9.998391,4.6863966,1.518515,15.406196,16.061274,28.902483,-17.776148,40.778427,-1.6552467,5.917279,-1.1247534,-18.504969,-26.852913,29.350773,46.228146,16.081236,6.6962724,6.6693273
111,-33.239501953125,-22.468521118164062,71.76435089111328,4.568057513685001,-1.4126707517024957,-39.10521351888593,-8.217746,36.764584,14.045589,19.635002,11.181665,-15.000033,-18.426498,-29.368288,4.2738867,45.70588,-27.616768,10.795528,4.465496,1.5101693,15.452335,16.339777,28.654152,-17.301529,40.428734,-1.3247702,5.9186826,-1.5853473,-19.265886,-27.588345,30.130848,47.03647,16.21532,6.6768055,6.78979
112,-34.11026382446289,-23.28713607788086,71.79095458984375,4.65337855033459,-1.4267387466869934,-38.82281885483859,-7.9242682,36.4578,13.717514,19.438074,9.2617655,-15.000033,-18.931545,-28.620798,3.8012528,47.011707,-27.972927,11.52424,4.2875385,1.5349779,15.588514,16.41168,28.433512,-16.987692,40.253635,-0.9398675,5.8738866,-2.0010722,-19.899092,-28.329939,30.675419,47.767822,16.449848,6.5823402,6.7938876
113,-35.00545120239258,-24.113014221191406,71.80609893798828,4.708538019066278,-1.5364646585493615,-38.50801878505762,-7.8222866,36.209373,13.11779,20.145638,7.7477283,-15.000033,-19.140879,-27.909197,3.1625416,48.182346,-28.356413,12.181208,4.172844,1.5560774,15.849833,16.215588,28.287834,-16.887474,40.28353,-0.49722418,5.764567,-2.3735733,-20.38455,-29.075321,30.96425,48.379906,16.77543,6.390315,6.630166
114,-35.92124557495117,-24.94957160949707,71.81317901611328,4.760741641316913,-1.7195858614710926,-38.14456846376587,-7.805638,35.921803,12.416304,21.473206,6.371623,-15.000033,-19.152906,-27.217731,2.4319026,49.25388,-28.73421,12.807522,4.098811,1.5415382,16.214493,15.822414,28.22889,-16.946,40.435726,-0.019207915,5.6140957,-2.7290585,-20.75258,-29.82973,31.027662,48.89031,17.162424,6.1172543,6.324386
115,-36.842227935791016,-25.791961669921875,71.83092498779297,4.7720737392272286,-1.9348208570851202,-37.76879380417133,-7.8467717,35.677517,11.870634,23.288284,4.9973288,-15.000033,-19.06031,-26.489756,1.6215235,50.231125,-29.094559,13.336489,4.0788174,1.5445251,16.621109,15.3098955,28.225307,-17.10596,40.673763,0.46681988,5.450978,-3.050446,-20.968016,-30.579527,30.806688,49.363472,17.642878,5.793981,5.973783
116,-37.7581787109375,-26.638830184936523,71.86235809326172,4.698298323102109,-2.142904848640932,-37.42001253938257,-7.892152,35.615036,11.741691,25.45651,3.4724486,-15.000033,-18.954563,-25.661283,0.7423489,51.11803,-29.4249,13.701665,4.1187134,1.633056,17.007273,14.746443,28.223751,-17.310259,40.983353,0.9401818,5.3024397,-3.3166509,-21.021128,-31.302362,30.262402,49.892826,18.251043,5.452075,5.67553
117,-38.66188049316406,-27.46752166748047,71.9067611694336,4.634421733651514,-2.3048873914728176,-37.05671645446405,-7.981252,35.69747,12.248818,28.045483,1.6967028,-14.439683,-18.905748,-24.864548,-0.17197125,51.90972,-29.708477,13.946328,4.1890044,1.7332866,17.337141,14.080027,28.18733,-17.590712,41.444912,1.4079459,5.1485405,-3.512082,-20.904297,-31.972033,29.327143,50.549942,19.071692,5.053789,5.457762
118,-39.55340576171875,-28.274831771850586,71.95793151855469,4.608279622959293,-2.442164136954082,-36.65676425575207,-8.140968,35.85985,13.235484,31.133139,-0.27700448,-13.146701,-18.869154,-24.142694,-1.1146098,52.60929,-29.950542,14.096906,4.263319,1.8106903,17.63565,13.282601,28.114214,-17.958633,42.075573,1.8852276,4.982454,-3.64445,-20.643671,-32.58062,28.061926,51.314762,20.055218,4.5954137,5.2705755
119,-40.41346740722656,-29.08087921142578,72.01091766357422,4.541305372996715,-2.591660953553515,-36.25720282426791,-8.267468,36.145115,14.417098,34.53986,-2.337325,-11.873977,-18.789948,-23.385027,-2.0961568,53.2395,-30.17491,14.084407,4.3183775,1.9234668,17.923622,12.481738,28.001474,-18.307604,42.74487,2.380031,4.850902,-3.7320411,-20.29067,-33.130966,26.628752,52.137085,21.046925,4.161925,5.0906596
120,-41.253875732421875,-29.88080406188965,72.06848907470703,4.455212521579799,-2.7662076880548727,-35.84613449231927,-8.294986,36.436863,15.667136,38.05478,-4.336842,-10.797212,-18.657734,-22.620575,-3.0954187,53.83252,-30.4095,13.876033,4.2820444,2.0306206,18.205027,11.799426,27.847397,-18.527868,43.329605,2.89918,4.7992,-3.795053,-19.915758,-33.62743,25.203299,52.96938,21.896591,3.8384461,4.8874745
121,-42.07622146606445,-30.67474937438965,72.12923431396484,4.33947916863095,-2.9901951209708706,-35.41684249029187,-8.182526,36.79451,17.09843,41.74258,-6.2763596,-9.975999,-18.429361,-21.847172,-4.1288633,54.39172,-30.675608,13.411646,4.1243296,2.1398606,18.499453,11.285572,27.63048,-18.541862,43.80488,3.5129838,4.849367,-3.821743,-19.540482,-34.0529,23.768131,53.851524,22.578802,3.6404374,4.6461163
122,-42.89768981933594,-31.4637393951416,72.19108581542969,4.185630054121643,-3.2498432646411097,-34.976954983545895,-7.9410667,37.283833,18.742233,45.695415,-8.237709,-9.28765,-18.121943,-21.046585,-5.197234,54.896206,-30.950865,12.724606,3.8709364,2.2688885,18.795458,10.878056,27.343393,-18.409033,44.23984,4.2058234,4.973603,-3.8089044,-19.184334,-34.392494,22.298666,54.836964,23.18388,3.5241487,4.379502
123,-43.71940612792969,-32.250328063964844,72.25182342529297,4.0161773270845185,-3.500476593391492,-34.53573297282469,-7.608525,37.758694,20.361784,49.73558,-10.156397,-8.654538,-17.81813,-20.22812,-6.2568517,55.353687,-31.198345,11.922999,3.535158,2.388902,19.04901,10.526839,27.018078,-18.230913,44.653416,4.845123,5.142152,-3.790053,-18.849241,-34.663963,20.903246,55.836403,23.689165,3.4849982,4.09504
124,-44.52944564819336,-33.032867431640625,72.31048583984375,3.854754873486819,-3.6973675205901064,-34.10296193121371,-7.248922,38.03759,21.719858,53.660656,-11.946841,-8.020588,-17.599453,-19.402424,-7.2682414,55.772766,-31.381819,11.115127,3.1396246,2.4695876,19.22529,10.193819,26.70755,-18.107368,45.036007,5.292153,5.3258924,-3.8009171,-18.527214,-34.906197,19.687128,56.74079,24.09316,3.5201793,3.801502
125,-45.33298873901367,-33.81022644042969,72.36161041259766,3.7058849379825323,-3.8267835649589186,-33.68947136682571,-6.904573,38.079033,22.77583,57.484318,-13.580746,-7.3599777,-17.483913,-18.575811,-8.229095,56.159573,-31.505352,10.302325,2.6980007,2.4971867,19.323692,9.902934,26.449099,-18.04333,45.328953,5.484969,5.556519,-3.8601904,-18.21245,-35.150112,18.674398,57.482998,24.404139,3.6956995,3.4569142
126,-46.13055419921875,-34.57990646362305,72.41168975830078,3.5582883136871417,-3.9130015677348573,-33.2880355918184,-6.5457706,37.941566,23.661682,61.273506,-15.083528,-6.7223063,-17.427048,-17.74486,-9.160632,56.510437,-31.585737,9.436252,2.2132947,2.4877477,19.370983,9.676563,26.242672,-17.99818,45.51569,5.494307,5.838028,-3.9528573,-17.856916,-35.397175,17.768837,58.070293,24.622675,3.9954543,3.0747385
127,-46.91981506347656,-35.345096588134766,72.4587173461914,3.412841130719472,-3.9680074086140045,-32.880683426372386,-6.1543145,37.575684,24.398922,64.89032,-16.437197,-6.1802163,-17.416723,-16.913708,-10.060154,56.8232,-31.608414,8.551287,1.7001835,2.4542656,19.375141,9.468549,26.085665,-18.007914,45.652645,5.382626,6.0997186,-4.0598903,-17.431026,-35.651962,16.92929,58.54449,24.766773,4.2930236,2.7475383
128,-47.697689056396484,-36.10104751586914,72.5016098022461,3.269554017190391,-4.003586934642696,-32.449339503444364,-5.717225,36.939453,25.006777,68.19909,-17.62066,-5.8040156,-17.43983,-16.08787,-10.925144,57.094994,-31.558853,7.6820173,1.1720307,2.4121997,19.342731,9.229343,25.971224,-18.111187,45.80306,5.211062,6.2704496,-4.162367,-16.887047,-35.91872,16.101707,58.932747,24.84171,4.462694,2.5690095
129,-48.46616744995117,-36.850399017333984,72.54899597167969,3.126039987724464,-4.007332227916363,-31.991258421906096,-5.267723,36.005688,25.469095,71.20044,-18.618612,-5.597152,-17.51982,-15.264542,-11.748221,57.349598,-31.428802,6.831916,0.6384205,2.3682642,19.26306,8.930174,25.902279,-18.346392,45.99137,4.9344206,6.3132753,-4.271235,-16.202518,-36.209305,15.279751,59.222366,24.820234,4.4608903,2.6113982
130,-49.222930908203125,-37.587364196777344,72.59699249267578,2.9834820963267386,-3.977771891138189,-31.515737365120533,-4.820659,34.791393,25.793146,73.95343,-19.433489,-5.5375443,-17.651901,-14.446137,-12.536976,57.585472,-31.232168,5.983759,0.09757525,2.319429,19.137276,8.59298,25.878551,-18.695393,46.187138,4.536832,6.272481,-4.3917866,-15.359706,-36.52756,14.457788,59.36519,24.69912,4.3610787,2.8124766
131,-49.98277282714844,-38.317867279052734,72.64801025390625,2.846774315512226,-3.9427687524236177,-31.022808896493924,-4.3347936,33.325897,26.03316,76.39995,-20.070324,-5.653853,-17.78081,-13.642084,-13.31027,57.75747,-30.983635,5.141156,-0.4394374,2.2693818,19.00349,8.232225,25.887726,-19.118761,46.365627,4.130298,6.19839,-4.49389,-14.501843,-36.86611,13.693322,59.49972,24.598434,4.2128496,3.0622525
132,-50.731666564941406,-39.04242706298828,72.7049331665039,2.7195877245654043,-3.930928676463247,-30.512513211239362,-3.7721708,31.64034,26.238268,78.479744,-20.536055,-5.974491,-17.854372,-12.859287,-14.084472,57.825493,-30.699902,4.3082247,-1.0138757,2.2134612,18.862623,7.9153914,25.897768,-19.531586,46.50977,3.8355398,6.1402187,-4.5491924,-13.442216,-37.192677,12.846392,59.473015,24.465944,4.061587,3.2506351
133,-51.460391998291016,-39.75989532470703,72.77051544189453,2.5981148432595007,-3.947770159850844,-29.9946259769334,-3.1272345,29.703897,26.41506,80.16754,-20.848864,-6.53344,-17.879515,-12.085084,-14.841237,57.79903,-30.374084,3.488578,-1.6114562,2.161463,18.729464,7.619856,25.898603,-19.947449,46.63441,3.6931646,6.0912704,-4.5385723,-12.291303,-37.49823,11.9754305,59.42468,24.336117,3.8626618,3.4011931
134,-52.183013916015625,-40.46095275878906,72.83836364746094,2.4791845070528646,-3.978435148309432,-29.464892701507193,-2.439451,27.509468,26.537544,81.49423,-20.99886,-7.310801,-17.876339,-11.317806,-15.581965,57.69392,-30.00175,2.6790073,-2.2385254,2.112629,18.587517,7.3328667,25.890383,-20.384325,46.7559,3.642771,6.0307593,-4.4781513,-11.061703,-37.78213,11.104933,59.347393,24.188414,3.6071272,3.5512955
135,-52.89450454711914,-41.1536979675293,72.90869140625,2.3677633812414145,-4.020874799905062,-28.90274490368516,-1.7365737,25.125452,26.601843,82.479256,-20.951216,-8.254922,-17.817078,-10.57765,-16.349934,57.480328,-29.603237,1.8738614,-2.9155893,2.0540552,18.41964,7.0730133,25.868288,-20.813126,46.874393,3.6473634,5.98691,-4.3848815,-9.711319,-38.035362,10.212116,59.130276,24.03274,3.3966503,3.609786
136,-53.590946197509766,-41.8554573059082,72.99138641357422,2.2700699022326534,-4.072858472480894,-28.2883005366281,-1.037474,22.618809,26.60551,83.13521,-20.67112,-9.314246,-17.67382,-9.885328,-17.186666,57.126324,-29.198433,1.0687655,-3.6713734,1.9694704,18.201168,6.8651147,25.825623,-21.19943,46.993935,3.6700397,5.9881525,-4.2757773,-8.138076,-38.242313,9.245235,58.61026,23.856987,3.3326397,3.4862447
137,-54.2741584777832,-42.54755783081055,73.0841064453125,2.185971441671038,-4.131040590150942,-27.617220461277267,-0.35756165,19.952383,26.520771,83.47366,-20.104082,-10.460348,-17.443798,-9.248296,-18.107327,56.635548,-28.811914,0.26184723,-4.5140576,1.8596976,17.924414,6.714195,25.760653,-21.540274,47.11497,3.7348757,6.0498724,-4.1318607,-6.370261,-38.39576,8.232072,57.78834,23.666271,3.4906788,3.1282187
138,-54.94536209106445,-43.23882293701172,73.19048309326172,2.111414964255808,-4.196610194528409,-26.899024639290896,0.31425238,17.106668,26.347488,83.47773,-19.291447,-11.735109,-17.142555,-8.649732,-19.088367,56.021507,-28.42737,-0.5434297,-5.401938,1.7405967,17.625595,6.57304,25.68064,-21.873446,47.236546,3.8497403,6.1545424,-3.9480758,-4.707625,-38.50199,7.311732,56.967915,23.540657,3.803238,2.589575
139,-55.61289978027344,-43.93519592285156,73.3126449584961,2.0454475239962937,-4.275025766096922,-26.133896809057955,1.0033672,14.179948,26.11574,83.1276,-18.337824,-13.189462,-16.770256,-8.07146,-20.1131,55.268948,-28.002995,-1.3440546,-6.3712645,1.5994859,17.279514,6.4838147,25.579088,-22.153555,47.363598,3.9600854,6.2809424,-3.7699702,-2.8190541,-38.539158,6.310932,55.87,23.396517,4.151792,1.9472941
140,-56.27735137939453,-44.63786315917969,73.45272064208984,1.984191377139298,-4.37129722380376,-25.322231080900618,1.7395463,11.278119,25.850367,82.407486,-17.349607,-14.865148,-16.325583,-7.492914,-21.167242,54.360523,-27.496548,-2.1372807,-7.388849,1.438321,16.902786,6.406526,25.459362,-22.400583,47.513363,4.004366,6.4073076,-3.6352727,-0.72362053,-38.489742,5.2025375,54.536064,23.256014,4.4215884,1.2739267
141,-56.939334869384766,-45.29834747314453,73.61448669433594,2.1855967499621007,-4.389091698648682,-24.273966856753056,2.5516994,8.37337,26.09552,81.21186,-16.214058,-15.000033,-16.002104,-7.357889,-22.240936,53.530533,-27.042002,-2.8408492,-8.617333,1.0184498,16.351454,6.3298507,25.324144,-22.611319,47.701073,3.9824197,6.5411716,-3.5727272,1.5890797,-38.33081,3.9788957,52.92703,23.091478,4.592443,0.5304615
142,-57.61168670654297,-45.96234130859375,73.80072784423828,2.487455369325381,-4.383321560288761,-23.087569115736446,3.4185016,5.4207172,26.366621,79.59602,-14.930842,-15.000033,-15.685272,-7.409211,-23.37573,52.668015,-26.599771,-3.510518,-9.981463,0.48785236,15.686939,6.2631435,25.176666,-22.786905,47.918736,3.9198027,6.69031,-3.5531723,4.0807967,-38.051373,2.6794808,51.06976,22.91085,4.7231507,-0.30531603
143,-58.284332275390625,-46.63937759399414,74.0076904296875,2.7699766280734313,-4.384981746213147,-21.89524833921138,4.3283696,2.567636,26.551619,77.655914,-13.61019,-15.000033,-15.341636,-7.420918,-24.522259,51.69866,-26.050808,-4.1740046,-11.358262,-0.039343823,14.985562,6.2116385,25.024694,-22.937386,48.145237,3.800034,6.831538,-3.53004,6.653651,-37.655872,1.3654188,49.10617,22.785711,4.8133216,-1.1380506
144,-58.958106994628906,-47.320648193359375,74.23571014404297,3.003540701136288,-4.391260003215275,-20.77891740325563,5.232862,-0.12126087,26.59827,75.45921,-12.332759,-15.000033,-15.006366,-7.30972,-25.612051,50.62515,-25.30917,-4.832969,-12.683903,-0.53912866,14.272611,6.1945896,24.876049,-23.063465,48.3565,3.6045063,6.941323,-3.4593747,9.310426,-37.148777,0.060245175,47.08604,22.769705,4.861151,-1.8689545
145,-59.63429260253906,-48.01138687133789,74.4843521118164,3.2017054168713472,-4.409506036883683,-19.731479535339815,6.151939,-2.7103138,26.469654,72.94473,-11.0638275,-15.000033,-14.650914,-7.090836,-26.674688,49.41659,-24.386347,-5.50283,-13.918884,-1.0208448,13.577781,6.1752687,24.737621,-23.195244,48.54748,3.2933779,7.0127254,-3.328866,11.781261,-36.55684,-1.1351827,45.268543,22.95369,4.838797,-2.4682195
146,-60.32564163208008,-48.70379638671875,74.74896240234375,3.373787531261213,-4.44119563271223,-18.722861639005824,7.126115,-5.2226543,26.174452,70.08778,-9.783999,-15.000033,-14.265975,-6.7924213,-27.72996,48.080814,-23.319,-6.176682,-15.161682,-1.5016068,12.84913,6.224536,24.60213,-23.270018,48.716003,2.8878295,7.0583,-3.1682267,14.454248,-35.853085,-2.3386023,43.251713,23.22649,4.756908,-2.9790432
147,-61.025821685791016,-49.40599822998047,75.0330810546875,3.5000529619173317,-4.4715124597774745,-17.797621453124524,8.128249,-7.5458927,25.751846,67.00477,-8.586748,-15.000033,-13.921375,-6.373742,-28.6863,46.67925,-22.057068,-6.8225474,-16.31484,-1.954193,12.150057,6.265431,24.482769,-23.351368,48.860214,2.4586658,7.0819297,-2.9770124,16.974611,-35.058884,-3.4482398,41.360725,23.597258,4.6591244,-3.4500923
148,-61.73106002807617,-50.111724853515625,75.33937072753906,3.568177220697605,-4.483043684345802,-16.996861217621177,9.117489,-9.569557,25.265799,63.812828,-7.5512133,-15.000033,-13.689084,-5.8092637,-29.448997,45.271816,-20.545141,-7.409259,-17.37406,-2.3686829,11.487035,6.326771,24.390234,-23.422766,48.952866,2.0773888,7.0885687,-2.764497,19.41314,-34.178226,-4.4743834,39.51536,24.00431,4.59428,-3.9166796
149,-62.45245361328125,-50.826812744140625,75.66262817382812,3.592956571478676,-4.496792117002174,-16.3421940079031,10.144166,-11.322339,24.733587,60.40804,-6.699567,-15.000033,-13.494683,-5.119615,-30.10432,43.806633,-18.764124,-7.9688554,-18.315437,-2.7731578,10.876685,6.414176,24.328873,-23.483479,48.984562,1.7734054,7.0950584,-2.5425487,21.749441,-33.22313,-5.3926105,37.747917,24.500668,4.55982,-4.3698115
150,-63.20484161376953,-51.55630111694336,75.99359893798828,3.5887459175562215,-4.510521937924875,-15.804062424864714,11.217034,-12.846565,24.144697,56.755768,-5.9645796,-15.000033,-13.3319645,-4.3285303,-30.662212,42.268642,-16.738739,-8.504201,-19.16384,-3.1784635,10.302989,6.532879,24.298466,-23.52854,48.95475,1.5043178,7.0938206,-2.3065374,24.000593,-32.19913,-6.212101,36.04092,25.091621,4.534435,-4.7942476
151,-63.98154067993164,-52.28278732299805,76.32813262939453,3.549739842480067,-4.469578748529079,-15.343375147054267,12.213107,-14.059667,23.56022,53.086353,-5.2863464,-15.000033,-13.372587,-3.4323092,-30.911385,40.76805,-14.469096,-8.93926,-19.938393,-3.5504568,9.75089,6.6551247,24.309435,-23.583492,48.860657,1.2306443,7.053743,-2.0371,26.10302,-31.11287,-6.9679666,34.427456,25.673546,4.536712,-5.224184
152,-64.7690200805664,-53.01139831542969,76.66106414794922,3.472309100091579,-4.318634335776251,-14.920694894776062,12.992459,-14.889343,23.061821,49.64239,-4.612118,-15.000033,-13.783932,-2.4329917,-30.6387,39.414158,-11.948833,-9.192725,-20.65822,-3.8563924,9.206007,6.7591166,24.377209,-23.673746,48.692566,0.91140056,6.9432406,-1.7163694,27.995953,-29.96815,-7.700314,32.93854,26.143385,4.5862446,-5.693802
153,-65.5839614868164,-53.73470687866211,76.9939956665039,3.3653814861368336,-3.975401422730184,-14.527941071823554,13.445584,-15.270419,22.821575,46.471268,-3.9447308,-15.000033,-14.6662855,-1.3648254,-29.931211,38.2803,-9.09725,-9.343232,-21.352793,-4.077489,8.586549,6.860297,24.511816,-23.813103,48.414505,0.550525,6.7649293,-1.3212796,29.699013,-28.753569,-8.450795,31.564188,26.449427,4.6947565,-6.191281
154,-66.42817687988281,-54.45718002319336,77.30884552001953,3.238783975174948,-3.4904167692942876,-14.180055392796985,13.6421175,-15.285175,22.822159,43.462368,-3.3182263,-15.000033,-15.892205,-0.21899764,-28.856056,37.271946,-5.9269357,-9.3710165,-22.000372,-4.2444925,7.9291916,6.966217,24.714983,-23.993225,48.030277,0.16253649,6.531465,-0.87080497,31.24085,-27.467243,-9.20725,30.288038,26.652124,4.8506136,-6.7059336
155,-67.3334732055664,-55.16641616821289,77.5831069946289,3.0871767796914282,-3.0079719710471435,-13.874194689978218,13.700881,-15.0772085,22.846004,40.64209,-2.7362268,-15.000033,-17.275597,1.0907396,-27.14351,36.250717,-2.5766373,-9.029527,-22.549067,-4.40145,7.394042,7.0544696,24.987812,-24.197561,47.585545,-0.2761854,6.225864,-0.41320354,32.588757,-26.13544,-9.929624,29.117792,26.81683,5.0389833,-7.2718935
156,-68.26454162597656,-55.8824348449707,77.8372573852539,2.9025392139865827,-2.672626441162426,-13.608266673639685,13.742313,-14.7699795,22.643404,38.048603,-2.20477,-15.000033,-18.607489,2.6742022,-24.49237,35.07687,0.8004755,-8.060823,-22.952312,-4.591884,7.1378565,7.109364,25.328976,-24.403667,47.12213,-0.78983146,5.8313007,0.0018700524,33.694054,-24.804132,-10.568776,28.080084,27.016508,5.245066,-7.92174
157,-69.21212768554688,-56.585060119628906,78.06267547607422,2.6827021892621583,-2.495458123644816,-13.359670327229207,13.780571,-14.34747,22.179005,35.559982,-1.6327989,-15.000033,-19.904049,4.700594,-20.438057,33.700283,4.3419867,-6.2682686,-23.253551,-4.8196974,7.1769257,7.1578407,25.738739,-24.576216,46.608906,-1.4154705,5.2768025,0.37042785,34.51559,-23.494116,-11.132197,27.26785,27.320166,5.480116,-8.704699
158,-70.18502044677734,-57.290191650390625,78.25672912597656,2.4310897221146583,-2.4158873473972156,-13.129480927007867,13.741594,-13.757925,21.57147,33.22631,-1.0675105,-15.000033,-21.071863,7.1489596,-15.157053,32.169655,7.968952,-3.7055051,-23.479752,-5.069795,7.4359727,7.2193727,26.216002,-24.720318,46.025463,-2.1283927,4.5924664,0.70894,35.07457,-22.213928,-11.63615,26.65774,27.684183,5.7462873,-9.588909
159,-71.1635513305664,-58.00204849243164,78.41519927978516,2.1515701164575627,-2.468735920253432,-12.950770452020617,13.606036,-13.039093,20.793554,31.372757,-0.70040786,-15.000033,-21.791815,9.765218,-9.321844,30.550716,11.187633,-0.56948096,-23.565544,-5.3584933,7.925018,7.2691026,26.752226,-24.86858,45.43401,-2.8628638,3.914064,1.0015776,35.421013,-21.000153,-12.03502,26.108818,28.013725,6.0133424,-10.48114
160,-72.16233825683594,-58.71049118041992,78.5218734741211,1.854584495510969,-2.6797337221494812,-12.862565099731277,13.342447,-12.222053,19.82152,30.346668,-0.7257259,-15.000033,-21.905891,12.203843,-3.683964,28.954472,13.580755,2.817122,-23.447264,-5.697797,8.640454,7.286851,27.332125,-25.047024,44.899124,-3.552996,3.3780437,1.2381061,35.595253,-19.908041,-12.273746,25.49412,28.218128,6.256038,-11.28533
161,-73.16743469238281,-59.407466888427734,78.59375762939453,1.553406741635737,-3.1529849529422473,-12.876859783519686,12.93323,-11.316748,18.407192,30.424519,-1.1644266,-15.000033,-21.242125,14.490769,2.0148103,27.152296,15.168007,6.7988544,-23.113111,-6.1347523,9.675633,7.278881,27.94854,-25.241793,44.427467,-4.2247996,3.009565,1.4309661,35.565067,-18.976288,-12.296234,24.84371,28.301483,6.5147934,-12.036735
162,-74.15534210205078,-60.13215637207031,78.6384506225586,1.2456330523512942,-3.8222245740768575,-12.959660931995286,12.355564,-10.33365,16.611206,31.368916,-1.8929716,-15.000033,-19.98424,16.58685,7.9715014,25.257607,16.056059,11.283268,-22.629198,-6.632137,10.97179,7.271347,28.59873,-25.420626,43.991276,-4.898376,2.7397757,1.5851334,35.29226,-18.218187,-12.126505,24.249947,28.317547,6.7926636,-12.763494
163,-75.21095275878906,-60.790306091308594,78.61823272705078,1.2321472864615692,-4.299690301788084,-12.893759789849618,11.562143,-9.721622,15.292252,32.32661,-2.6003935,-12.221385,-19.29595,17.756857,13.031364,24.668747,15.757007,15.000033,-22.25898,-7.2944684,12.037093,7.26208,29.264679,-25.586647,43.612885,-5.5004363,2.56578,1.6843294,34.79722,-17.651438,-11.835641,23.686592,28.245783,7.011935,-13.354952
164,-76.27232360839844,-61.46473693847656,78.5495834350586,0.9595136241860986,-4.6346483669831615,-12.9287919026065,10.61437,-8.727918,14.496143,33.577824,-3.8423328,-9.476237,-19.071383,18.36851,15.488882,24.792135,15.029897,15.000033,-21.75154,-7.6330714,13.084899,7.253302,29.92441,-25.7413,43.32641,-5.953145,2.482934,1.7120037,34.122467,-17.287865,-11.483241,23.107018,28.065815,7.095968,-13.702505
165,-77.3513412475586,-62.09065246582031,78.43093872070312,0.5603254667391807,-4.639319674016897,-13.111979887590525,9.444483,-7.5312233,14.280207,34.84747,-5.5600286,-7.250738,-19.811378,18.550722,16.477993,26.15231,13.720322,15.000033,-21.088205,-7.672815,13.910889,7.2045174,30.56282,-25.92295,43.178207,-6.243946,2.5099566,1.6589934,33.241234,-17.1443,-11.064356,22.487986,27.737303,7.014391,-13.712543
166,-78.40927124023438,-62.66722869873047,78.27936553955078,0.15640505272146482,-4.391107814979894,-13.443425090866592,8.083267,-6.2893066,14.423588,36.165268,-7.6164603,-5.282793,-21.302607,18.317322,16.456617,28.480417,11.8307495,15.000033,-20.28175,-7.5640535,14.535289,7.1209874,31.172674,-26.114323,43.16496,-6.4064617,2.6415336,1.540797,32.12926,-17.224262,-10.547381,21.87225,27.287556,6.812863,-13.464183
167,-79.46342468261719,-63.222633361816406,78.0882339477539,-0.20091823851974935,-4.027994082933559,-13.888928434999933,6.7017317,-5.0797,14.809185,37.38359,-9.826109,-3.5874135,-23.108398,17.73893,15.90883,31.252693,9.580131,15.000033,-19.3807,-7.4142203,15.032959,7.056709,31.74072,-26.241938,43.246197,-6.4346,2.8377233,1.3772652,30.81804,-17.512495,-9.964069,21.318474,26.792261,6.526195,-13.107192
168,-80.5184326171875,-63.77546310424805,77.85684204101562,-0.580006968414897,-3.7295940758273445,-14.39884231890113,5.462329,-3.815387,15.300052,38.506428,-12.085732,-2.2138553,-24.736792,16.943079,14.933745,33.873688,7.2538066,14.187897,-18.42541,-7.230555,15.563341,7.0550356,32.250847,-26.240034,43.38905,-6.322179,3.0578651,1.188281,29.35026,-17.982359,-9.352621,20.87034,26.321758,6.1916747,-12.79278
169,-81.56613159179688,-64.33128356933594,77.58735656738281,-0.8460529656803822,-3.425509096070899,-15.035770619486113,4.413147,-2.657199,16.051586,39.25944,-14.3150835,-1.1703062,-26.316338,15.806547,13.592555,36.510197,4.66865,12.552315,-17.341572,-7.1126804,16.020962,7.080915,32.691963,-26.132593,43.629093,-6.005317,3.3006268,0.93359363,27.730911,-18.631645,-8.702156,20.497229,25.846657,5.7767115,-12.55001
170,-82.58965301513672,-64.86750030517578,77.2935791015625,-1.0415523212693807,-3.0810060741286103,-15.792774231610164,3.4860356,-1.5331291,17.08758,39.786686,-16.606352,-0.44044137,-27.941885,14.298819,11.9164505,39.313072,1.7417178,10.620561,-16.137123,-7.009024,16.397743,7.1181135,33.061153,-25.945652,43.98692,-5.5037045,3.5809577,0.6173965,25.94038,-19.459242,-7.994186,20.17806,25.344568,5.2745223,-12.305718
171,-83.60023498535156,-65.39573669433594,76.97230529785156,-1.1846490030915038,-2.7390347236158243,-16.583775807882777,2.5890794,-0.42926937,18.217201,40.316525,-18.858307,0.06616267,-29.481998,12.637585,10.3832,42.19309,-1.2883668,8.677567,-14.930603,-6.920109,16.733387,7.219343,33.351,-25.629387,44.41187,-4.9383483,3.8848999,0.32647964,23.982885,-20.42946,-7.263148,19.975313,24.888973,4.7587385,-12.055065
172,-84.5986557006836,-65.90960693359375,76.63175201416016,-1.2947148252543872,-2.4410377805113295,-17.3244174653493,1.6222811,0.666438,19.239582,41.072826,-20.972782,0.44182318,-30.845371,11.065189,9.404649,45.060383,-4.147708,6.982232,-13.826716,-6.8398495,17.07273,7.421338,33.554222,-25.145279,44.85911,-4.429551,4.2013264,0.14821576,21.87761,-21.486486,-6.5489697,19.939468,24.545307,4.3024535,-11.792231
173,-85.59425354003906,-66.41207885742188,76.27550506591797,-1.358779552886747,-2.188440484786346,-18.016418290817505,0.57196087,1.7620944,20.228783,42.09248,-22.974928,0.7237054,-32.082058,9.633045,9.02911,47.979565,-6.835879,5.490313,-12.804494,-6.781762,17.43962,7.7043676,33.662624,-24.471481,45.347,-3.9564495,4.536902,0.10448499,19.614124,-22.603167,-5.8719406,20.042542,24.31271,3.9349294,-11.517354
174,-86.57573699951172,-66.9084243774414,75.91121673583984,-1.37192083375719,-1.9600076503749173,-18.696804772892495,-0.5121545,2.859555,21.25894,43.269913,-24.901768,0.8621815,-33.235256,8.241868,9.026853,50.962692,-9.450698,4.0829396,-11.802919,-6.745143,17.813282,8.02969,33.67656,-23.654858,45.909283,-3.471025,4.8960114,0.14914249,17.205791,-23.775087,-5.205533,20.250412,24.147429,3.6127546,-11.232538
175,-87.54641723632812,-67.41159057617188,75.54014587402344,-1.36753039570061,-1.763011223719532,-19.336917251431974,-1.6425701,3.9620068,22.1212,44.602818,-26.66557,0.8285685,-34.23439,6.914687,9.328327,53.86154,-11.849089,2.8858402,-10.854231,-6.693543,18.175165,8.389903,33.606285,-22.77563,46.52579,-3.05884,5.2655706,0.26913166,14.719453,-24.971123,-4.5294113,20.597736,24.046606,3.3003917,-10.933253
176,-88.4968490600586,-67.91404724121094,75.1670913696289,-1.380094034690254,-1.6059805354908796,-19.907730456531382,-2.8418486,5.0698457,22.603298,46.085194,-28.172878,0.5989273,-35.007214,5.66394,9.849968,56.529068,-13.889567,2.0255806,-9.976555,-6.5900774,18.512234,8.764542,33.47155,-21.92738,47.174343,-2.8063009,5.6327324,0.45381376,12.237387,-26.146923,-3.8438609,21.107632,23.999855,2.961636,-10.614387
177,-89.44123840332031,-68.4250259399414,74.79962921142578,-1.42313807564316,-1.4869739644744795,-20.40598308250127,-4.166202,6.171353,22.561668,47.754658,-29.412415,0.09839739,-35.539642,4.5606527,10.644535,58.96234,-15.464842,1.6322961,-9.1602745,-6.425913,18.829409,9.147742,33.28429,-21.122034,47.87465,-2.7573042,5.9804807,0.75735587,9.7535305,-27.2696,-3.1862352,21.794878,24.001955,2.5623572,-10.252055
178,-90.36297607421875,-68.95590209960938,74.44773864746094,-1.4783808374646383,-1.4034467542949434,-20.847101321966775,-5.60651,7.266154,22.135662,49.606003,-30.427374,-0.62452596,-35.87374,3.5762413,11.682041,61.241673,-16.670113,1.6007142,-8.373119,-6.2240987,19.138727,9.526387,33.05132,-20.339724,48.629646,-2.8648,6.3205013,1.1697794,7.2598915,-28.331781,-2.5644705,22.623377,24.040869,2.1282496,-9.852873
179,-91.27020263671875,-69.49056243896484,74.11421203613281,-1.5333539968995196,-1.3631377611224385,-21.230424752907375,-7.0852823,8.364735,21.533195,51.55856,-31.204268,-1.4109386,-36.027023,2.5606582,12.762816,63.35147,-17.667545,1.7053618,-7.5998015,-5.993156,19.439636,9.877044,32.78896,-19.623304,49.38267,-3.0781038,6.6829166,1.584781,4.8314223,-29.329275,-1.9412999,23.54111,24.099745,1.7165693,-9.459796
180,-92.16033935546875,-70.04653930664062,73.80023956298828,-1.5747640559799643,-1.3735443606039588,-21.554456209124105,-8.518906,9.482695,20.960669,53.533825,-31.732521,-2.1050158,-36.024117,1.3573996,13.701973,65.27251,-18.616497,1.7184145,-6.824397,-5.7434754,19.732916,10.178073,32.519108,-19.01523,50.073242,-3.3479476,7.099127,1.8957998,2.5505443,-30.262747,-1.2890502,24.491327,24.159525,1.3834822,-9.11528
181,-93.04725646972656,-70.60585021972656,73.50340270996094,-1.6039728918954792,-1.4500319737539846,-21.830085951550558,-9.914411,10.66021,20.463598,55.626152,-31.94803,-2.6662927,-35.85289,-0.05161715,14.494689,67.01471,-19.514187,1.6250817,-6.0195847,-5.475043,20.035234,10.422116,32.256607,-18.529535,50.681065,-3.7107625,7.633051,2.0985916,0.45048317,-31.135273,-0.62404376,25.459679,24.178135,1.1411595,-8.859023
182,-93.9122543334961,-71.17965698242188,73.2287826538086,-1.627088935680596,-1.5841321769588423,-22.053534745965585,-11.303295,11.866081,19.92518,57.829445,-31.876915,-3.1861286,-35.51282,-1.6026138,15.218869,68.58293,-20.290276,1.5310452,-5.19657,-5.186322,20.344582,10.628352,32.00628,-18.142311,51.223454,-4.181259,8.250215,2.2436454,-1.5266138,-31.950233,0.03747451,26.489481,24.17745,0.9599878,-8.657063
183,-94.76246643066406,-71.77503204345703,72.97151947021484,-1.63773340082609,-1.7477609330397514,-22.200828875312613,-12.634716,13.015689,19.317453,59.91309,-31.650736,-3.7066035,-35.05113,-3.3322558,15.823581,69.94669,-21.00071,1.3874485,-4.409297,-4.8856287,20.629747,10.826389,31.771542,-17.830963,51.694714,-4.6754484,8.836946,2.302203,-3.3578925,-32.70079,0.7039491,27.535336,24.226961,0.83614063,-8.4421425
184,-95.60649871826172,-72.38764190673828,72.73277282714844,-1.6274926587493,-1.9133137618055582,-22.248749887798798,-13.858158,14.028275,18.62136,61.65035,-31.400703,-4.262763,-34.514275,-5.2748537,16.262125,71.07669,-21.702187,1.1470896,-3.708439,-4.5868974,20.862747,11.04218,31.556793,-17.574688,52.09082,-5.1088634,9.280614,2.242629,-5.0396514,-33.378662,1.3857359,28.572006,24.39643,0.7645874,-8.147821
185,-96.42892456054688,-73.01446533203125,72.51476287841797,-1.5897595748634346,-2.0826271975024495,-22.175627863142957,-14.96772,14.878525,17.8209,63.010624,-31.133158,-4.8619514,-33.901524,-7.5187573,16.478695,71.987854,-22.452229,0.74934626,-3.113584,-4.300124,21.041037,11.286674,31.367813,-17.35132,52.396408,-5.4638157,9.558196,1.9755092,-6.575378,-33.98363,2.0800188,29.620955,24.739904,0.74038595,-7.7750645
186,-97.2466812133789,-73.6505126953125,72.31098175048828,-1.5292409288192785,-2.2687377769185115,-21.99827884135997,-15.985621,15.607526,16.940065,64.10787,-30.788967,-5.4892287,-33.18916,-10.025167,16.510332,72.687256,-23.209148,0.24346757,-2.6004906,-4.026335,21.179632,11.554354,31.207958,-17.168667,52.612167,-5.782257,9.730628,1.5411584,-7.951073,-34.52132,2.7721567,30.67713,25.201633,0.76866424,-7.354778
187,-98.05266571044922,-74.30050659179688,72.12855529785156,-1.4539062570989896,-2.460176226118503,-21.751993695627906,-16.908346,16.242458,16.023989,64.94246,-30.406584,-6.137378,-32.384026,-12.627093,16.442835,73.13825,-23.879368,-0.25418836,-2.1458688,-3.764483,21.28222,11.841934,31.076662,-17.054499,52.755905,-6.0657,9.80976,1.101454,-9.188535,-34.99554,3.4639826,31.725203,25.696426,0.85987186,-6.866007
188,-98.85050201416016,-74.96475982666016,71.95848083496094,-1.3723332828397403,-2.645081257779787,-21.473250328477995,-17.73269,16.814493,15.11774,65.51399,-30.022627,-6.7973022,-31.491695,-15.155849,16.3556,73.308754,-24.36455,-0.6325369,-1.7259164,-3.5115361,21.351637,12.1401205,30.971064,-17.039654,52.85096,-6.317903,9.805198,0.81952226,-10.318665,-35.408806,4.16075,32.75743,26.14011,1.0230576,-6.288084
189,-99.62881469726562,-75.64160919189453,71.81452178955078,-1.281678302948371,-2.8175164885295505,-21.140915607822063,-18.451702,17.308115,14.212131,65.791664,-29.680738,-7.4674335,-30.486479,-17.619865,16.24152,73.19035,-24.66932,-0.8710108,-1.3675067,-3.2738287,21.37064,12.454163,30.893774,-17.153778,52.907806,-6.538525,9.672699,0.73864615,-11.299372,-35.766495,4.8570447,33.741848,26.51303,1.2917529,-5.569812
190,-100.41179656982422,-76.34576416015625,71.69935607910156,-1.1800698271683738,-2.9851400685175307,-20.746338845643518,-19.066893,17.722174,13.296437,65.789474,-29.3511,-8.1493,-29.35624,-20.08368,16.040695,72.80768,-24.832096,-1.025855,-1.0694039,-3.049099,21.345358,12.778722,30.845306,-17.378904,52.917595,-6.728587,9.420894,0.77087116,-12.135278,-36.07309,5.5438724,34.700127,26.858578,1.6521175,-4.738621
191,-101.19365692138672,-77.06060791015625,71.60816955566406,-1.077644541072559,-3.155111115273442,-20.345721440318318,-19.590044,18.111267,12.410125,65.57268,-28.958836,-8.8387985,-28.130777,-22.460533,15.754011,72.18559,-24.806656,-1.1090361,-0.77250034,-2.8228855,21.305033,13.103985,30.8136,-17.661247,52.872227,-6.885799,9.138503,0.8839235,-12.859826,-36.325855,6.204041,35.64172,27.173641,2.0397825,-3.8913531
192,-101.97709655761719,-77.79243469238281,71.54896545410156,-0.9849636756346468,-3.334148066306816,-19.995194317190364,-20.03419,18.529367,11.588773,65.20784,-28.430752,-9.532999,-26.846045,-24.662745,15.390456,71.351395,-24.549849,-1.1342101,-0.4255669,-2.5796075,21.272902,13.42207,30.778667,-17.94426,52.769882,-7.007591,8.913741,1.0471606,-13.453494,-36.513493,6.804067,36.527306,27.444054,2.3887818,-3.1249769
193,-102.76075744628906,-78.53582763671875,71.5270767211914,-0.9034547119240923,-3.5209093684705715,-19.69455190646902,-20.408876,18.98791,10.835109,64.7115,-27.765144,-10.233498,-25.48254,-26.66166,14.961192,70.29358,-24.011513,-1.0839218,-0.030794464,-2.3167906,21.244368,13.722599,30.737646,-18.26192,52.600113,-7.0771327,8.77947,1.3072724,-13.94251,-36.632595,7.3503504,37.380516,27.639221,2.6975906,-2.4411309
194,-103.5589599609375,-79.30074310302734,71.53905487060547,-0.8286229201947112,-3.7121289391806642,-19.419640680605013,-20.702908,19.46467,10.129896,64.04966,-26.997643,-10.941239,-24.021013,-28.496826,14.451749,69.01694,-23.234938,-0.96333283,0.38693103,-2.044125,21.207386,14.010226,30.696955,-18.626257,52.373924,-7.0992413,8.6848955,1.664554,-14.302849,-36.68359,7.841233,38.191105,27.764673,2.9930825,-1.7960742
195,-104.37075805664062,-80.08283233642578,71.58647918701172,-0.7618529196981021,-3.910127667355832,-19.19110616154603,-20.901648,19.961958,9.473378,63.21192,-26.109962,-11.6536045,-22.509327,-30.18844,13.846024,67.57418,-22.31866,-0.8189292,0.83937824,-1.7560292,21.170296,14.294903,30.631853,-18.948399,52.132652,-7.100921,8.592272,2.022836,-14.590732,-36.680264,8.317185,39.00786,27.89973,3.2495453,-1.2236121
196,-105.18107604980469,-80.8770751953125,71.66932678222656,-0.7044338078127922,-4.117212263593143,-19.028773050467922,-20.991951,20.48031,8.865953,62.188904,-25.083532,-12.368268,-20.999939,-31.754436,13.130286,66.016304,-21.359997,-0.6954052,1.3480257,-1.4524275,21.154602,14.582783,30.525404,-19.134642,51.907726,-7.1034513,8.463639,2.2864604,-14.851249,-36.623962,8.79019,39.863438,28.115908,3.4455528,-0.75399125
197,-106.00080871582031,-81.6829605102539,71.78178405761719,-0.6607659008478517,-4.345964528005834,-18.925000945020088,-20.981014,21.01817,8.291273,61.002075,-23.924839,-13.093194,-19.472946,-33.233097,12.243222,64.32187,-20.374727,-0.61920375,1.8951328,-1.1213285,21.15984,14.888038,30.357996,-19.154766,51.703705,-7.096055,8.266858,2.4278157,-15.065032,-36.518726,9.278923,40.743004,28.446161,3.5568898,-0.43675596
198,-106.84517669677734,-82.50019836425781,71.92728424072266,-0.6294471197825238,-4.590756121005939,-18.873684531024526,-20.872236,21.578169,7.7520294,59.65142,-22.642103,-13.827139,-17.915054,-34.59561,11.216008,62.487347,-19.322151,-0.55992234,2.4670086,-0.7612709,21.172594,15.201005,30.124073,-19.055746,51.51673,-7.067241,8.028124,2.501306,-15.221696,-36.3645,9.780608,41.638153,28.848307,3.601509,-0.24248184
199,-107.70216369628906,-83.32561492919922,72.10887908935547,-0.601866187539656,-4.82584571357916,-18.89716006484589,-20.64629,22.165888,7.2799006,58.090332,-21.21393,-14.5547085,-16.40326,-35.765312,10.187075,60.586567,-18.213003,-0.4768789,3.0816772,-0.38836896,21.18158,15.50618,29.822828,-18.854763,51.368008,-7.0377893,7.796402,2.5336936,-15.370944,-36.162525,10.292995,42.58906,29.280254,3.6190789,-0.087354735
200,-108.56244659423828,-84.1668472290039,72.3250732421875,-0.5312275031968905,-5.016189828170219,-18.998555425075,-20.290386,22.724834,6.9597793,56.25521,-19.605795,-15.000033,-15.031739,-36.726665,9.3172,58.676014,-17.051039,-0.3149466,3.738722,-0.05799406,21.170769,15.788216,29.457283,-18.567411,51.276936,-7.030395,7.621224,2.5507965,-15.563317,-35.912533,10.8154745,43.635048,29.70054,3.6499286,0.11205257
201,-109.43321990966797,-85.01593017578125,72.57452392578125,-0.35317556797908417,-5.155791685810012,-19.174179494846932,-19.787361,23.167057,6.8651414,54.109413,-17.830444,-15.000033,-13.830261,-37.602867,8.592592,56.704662,-15.810468,-0.04264102,4.4429398,0.17286652,21.140265,16.043274,29.019081,-18.17543,51.260357,-7.035566,7.506778,2.538804,-15.776196,-35.610374,11.337687,44.772614,30.095625,3.693402,0.36010188
202,-110.32884979248047,-85.87458801269531,72.85142517089844,-0.1733956090781339,-5.277354975310933,-19.457113403847046,-19.141193,23.640972,6.876083,51.724014,-15.921518,-15.000033,-12.7527685,-38.27017,7.950042,54.675842,-14.50935,0.2807714,5.2237554,0.41197526,21.107065,16.27687,28.504929,-17.677906,51.307354,-7.045372,7.4290924,2.491733,-16.002949,-35.25738,11.870705,45.996643,30.490957,3.731838,0.6180572
203,-111.2497787475586,-86.75621032714844,73.1599349975586,0.00028203317947511907,-5.355159636426145,-19.803104159285933,-18.398811,24.153364,6.9675016,49.114998,-13.805213,-15.000033,-11.831765,-38.638596,7.5420403,52.692596,-13.186029,0.64762443,6.0223093,0.64321005,21.051064,16.491299,27.933336,-17.114252,51.389606,-7.0855694,7.3962235,2.44461,-16.272663,-34.85538,12.418224,47.30325,30.891497,3.78203,0.9039154
204,-112.18881225585938,-87.65638732910156,73.48876190185547,0.15975075465450486,-5.362740994263217,-20.16777902547636,-17.610764,24.708889,7.1179147,46.29628,-11.410633,-15.000033,-11.100221,-38.628193,7.5258894,50.855087,-11.879409,1.0458362,6.787607,0.84539557,20.957556,16.69589,27.33718,-16.523436,51.46304,-7.1834383,7.4176097,2.430725,-16.63297,-34.409016,12.990046,48.705593,31.314203,3.861207,1.236312
205,-113.14603424072266,-88.58509826660156,73.83667755126953,0.33337824610969763,-5.290156350137439,-20.570944348523437,-16.718298,25.27581,7.430107,43.16667,-8.7022,-15.000033,-10.61116,-38.249138,8.008047,49.16442,-10.58646,1.4455469,7.547987,0.9852702,20.837177,16.902065,26.728006,-15.903714,51.510338,-7.403085,7.5115695,2.5206974,-17.081936,-33.905537,13.567002,50.233093,31.776264,3.9755998,1.6441941
206,-114.11834716796875,-89.53392791748047,74.20500183105469,0.5160115466440602,-5.150647597762326,-21.024835558277502,-15.735095,25.83725,7.88759,39.77293,-5.7311907,-15.000033,-10.327089,-37.548786,8.893837,47.570473,-9.293699,1.8586707,8.323307,1.0713861,20.696917,17.110523,26.10737,-15.237724,51.539997,-7.716611,7.6688933,2.6738558,-17.588606,-33.339092,14.142316,51.865707,32.262234,4.11682,2.109355
207,-115.11614227294922,-90.51079559326172,74.56208038330078,0.6492586975466524,-4.953323774187779,-21.47261572562165,-14.83213,26.43578,8.288116,36.363415,-2.5648692,-15.000033,-10.14351,-36.513115,10.041724,46.097538,-8.025955,2.3342135,9.050484,1.1490054,20.51811,17.321796,25.498875,-14.540015,51.5333,-8.013062,7.85929,2.7535615,-18.139427,-32.729977,14.733496,53.52394,32.74298,4.2808914,2.5817828
208,-116.13790130615234,-91.52134704589844,74.91295623779297,0.6738317838477236,-4.707394328019803,-21.85660899560762,-14.197122,27.137787,8.420225,33.210514,0.71423995,-15.000033,-9.957924,-35.128784,11.314046,44.761395,-6.8036036,2.9214847,9.67131,1.2683074,20.28227,17.540396,24.934984,-13.829412,51.459248,-8.183657,8.055745,2.6185648,-18.698748,-32.11034,15.339111,55.105583,33.18795,4.4652705,3.014976
209,-117.17461395263672,-92.55084991455078,75.24060821533203,0.5386057974795386,-4.400184352502093,-22.162016991549876,-13.963865,28.04276,8.153788,30.387247,4.4998913,-15.000033,-9.771263,-33.16722,12.97997,43.59557,-5.517147,3.5795593,10.187939,1.4831351,19.98077,17.765911,24.42966,-13.13061,51.288475,-8.250246,8.270537,2.232898,-19.251019,-31.488693,15.933405,56.597233,33.66897,4.7040787,3.373114
210,-118.21859741210938,-93.60734558105469,75.5442886352539,0.28480853884171414,-4.025980064296044,-22.412158184796844,-14.154343,29.087172,7.5471454,27.958,8.583124,-15.000033,-9.590487,-30.723282,14.99843,42.5588,-4.189511,4.3104997,10.6322565,1.7527468,19.621986,17.996378,23.982325,-12.43611,51.02925,-8.258231,8.514134,1.665402,-19.790003,-30.862232,16.504438,58.023422,34.179905,4.9899726,3.6912398
211,-119.27561950683594,-94.68032836914062,75.80311584472656,-0.007091128549125462,-3.60497544266583,-22.606767416935032,-14.723915,30.118837,6.696257,26.088873,12.029421,-15.000033,-9.372675,-28.272133,16.791927,41.546585,-3.0406775,5.2171555,10.989313,1.989791,19.215675,18.237543,23.60427,-11.716656,50.700367,-8.134763,8.756216,0.9292983,-20.302011,-30.252708,17.074047,59.341362,34.579853,5.2571945,4.0336213
212,-120.3369369506836,-95.751953125,75.99835968017578,-0.2523031857960827,-3.1631928230000446,-22.752685889767637,-15.446064,31.007889,5.8090153,24.68347,14.039941,-15.000033,-9.126623,-26.27853,17.803734,40.46041,-2.2919095,6.38178,11.253454,2.110634,18.782566,18.499857,23.309832,-10.946447,50.31166,-7.809782,8.964499,0.034697145,-20.764107,-29.694126,17.654547,60.494415,34.730907,5.4424324,4.4694185
213,-121.38602447509766,-96.79933166503906,76.11331176757812,-0.29902707121475036,-2.6352281334052106,-22.80013807413329,-16.143675,31.627535,5.35076,23.297901,14.345791,-14.196161,-8.8717375,-25.04996,17.855633,39.13993,-1.8563482,8.144166,11.38333,1.9545643,18.265068,18.844904,23.101475,-10.07521,49.81499,-7.1880155,9.150123,-1.1305038,-21.143934,-29.212011,18.297417,61.41095,34.49523,5.545101,5.0320106
214,-122.43970489501953,-97.8441390991211,76.18379211425781,-0.24944746667753773,-2.037971037137078,-22.774444210029582,-16.838444,32.104008,5.046142,21.90993,13.508922,-13.091266,-8.624373,-24.233894,17.241966,37.673428,-1.6461955,10.335145,11.408664,1.6368465,17.683483,19.251724,22.972038,-9.13492,49.209927,-6.331264,9.309751,-2.5395637,-21.4459,-28.80606,18.969458,62.115437,33.987057,5.5930104,5.686125
215,-123.5031509399414,-98.90143585205078,76.18309783935547,-0.1997399998397791,-1.4927469173128995,-22.709777769281523,-17.603441,32.541275,4.661848,21.045898,12.00041,-12.017891,-8.412107,-23.58914,16.144564,36.314888,-1.8784878,12.353234,11.358376,1.301108,17.18617,19.606857,22.928429,-8.228562,48.58058,-5.412819,9.396954,-3.9699447,-21.713942,-28.475866,19.556635,62.70092,33.447613,5.566794,6.3980756
216,-124.60203552246094,-99.96426391601562,76.14387512207031,-0.13357865010500017,-1.104411113695397,-22.604287268367578,-18.378927,32.90077,4.214877,20.972992,10.431548,-11.006331,-8.272068,-23.029305,14.769891,35.30046,-2.782953,13.624249,11.240261,0.9758243,16.931263,19.78664,22.992323,-7.466659,48.017506,-4.6104155,9.380077,-5.1979637,-21.983208,-28.222504,19.929792,63.24739,33.116436,5.4531393,7.132955
217,-125.74937438964844,-101.0457534790039,76.0984115600586,0.0361601324067185,-0.8799905936878912,-22.43020577060491,-18.77551,33.041233,3.9181285,21.10613,9.196706,-10.082281,-8.233248,-22.679842,13.040732,34.68285,-4.640247,13.91955,11.030779,0.56380767,16.962814,19.74634,23.202194,-6.8863397,47.534306,-3.9521897,9.232759,-6.2244773,-22.250439,-28.045013,20.00081,63.702732,32.99249,5.2200117,7.9524484
218,-126.92154693603516,-102.12079620361328,76.04254913330078,0.290307070448526,-0.7700828052138117,-22.194833693304616,-18.830423,33.00747,3.7556093,21.317724,7.9972997,-9.227454,-8.263821,-22.535522,10.908707,34.35731,-7.2645435,13.592825,10.76106,0.058420707,17.197643,19.54557,23.571589,-6.4450755,47.086124,-3.365571,8.986685,-7.1503158,-22.47415,-27.951887,19.824911,64.021454,32.970264,4.8875003,8.851619
219,-128.11795043945312,-103.17143249511719,75.95872497558594,0.528241576123884,-0.7683705456978636,-21.921507518886354,-18.972563,32.961407,3.5221407,22.223507,6.5866327,-8.391347,-8.343884,-22.393297,8.634606,34.328228,-10.20561,12.945775,10.493498,-0.42131877,17.594591,19.187529,24.073975,-6.132825,46.699413,-2.8706467,8.705548,-7.90096,-22.627092,-27.952991,19.482843,64.281265,33.131752,4.528577,9.694254
220,-129.3280792236328,-104.20682525634766,75.85052490234375,0.7437977191547591,-0.817586321637838,-21.58044653894012,-19.253048,32.89978,3.267848,23.637434,5.156624,-7.494236,-8.492591,-22.18053,6.4312515,34.555096,-12.98276,12.2681265,10.233236,-0.8606866,18.093155,18.638481,24.668404,-5.933608,46.43277,-2.4763553,8.450191,-8.397975,-22.697819,-28.053493,19.061554,64.56495,33.558052,4.215538,10.338964
221,-130.57608032226562,-105.22738647460938,75.71695709228516,0.9585247761866779,-0.9630570199464213,-21.092644478033613,-19.66026,32.737907,3.0871406,25.82038,3.82612,-6.468288,-8.785163,-21.916744,4.2979074,35.274345,-15.500736,11.45165,9.889884,-1.2622241,18.789312,17.724424,25.354776,-5.901519,46.430412,-2.2386522,8.239016,-8.381971,-22.7452,-28.29056,18.58056,65.01213,34.492466,3.9656973,10.598013
