unveil-humanoid-operators/unveil-humanoid-operators.github.io/feature-analysis-animation/data/feature_matrix_instances/height_root_translate_rom_walking_A067_walk_ff_stop_360_003__A067.csv
Frame,root_translateX,root_translateY,root_translateZ,root_rotateX,root_rotateY,root_rotateZ,left_hip_pitch_joint_dof,left_hip_roll_joint_dof,left_hip_yaw_joint_dof,left_knee_joint_dof,left_ankle_pitch_joint_dof,left_ankle_roll_joint_dof,right_hip_pitch_joint_dof,right_hip_roll_joint_dof,right_hip_yaw_joint_dof,right_knee_joint_dof,right_ankle_pitch_joint_dof,right_ankle_roll_joint_dof,waist_yaw_joint_dof,waist_roll_joint_dof,waist_pitch_joint_dof,left_shoulder_pitch_joint_dof,left_shoulder_roll_joint_dof,left_shoulder_yaw_joint_dof,left_elbow_joint_dof,left_wrist_roll_joint_dof,left_wrist_pitch_joint_dof,left_wrist_yaw_joint_dof,right_shoulder_pitch_joint_dof,right_shoulder_roll_joint_dof,right_shoulder_yaw_joint_dof,right_elbow_joint_dof,right_wrist_roll_joint_dof,right_wrist_pitch_joint_dof,right_wrist_yaw_joint_dof
0,0.42134588956832886,1.2923444509506226,77.96369171142578,-2.9129887326156627,4.4361318046205,-90.18441538192464,-29.041512,12.634846,12.390247,25.235155,-4.699314,-4.7582436,-8.532844,0.3246819,-10.388036,18.336891,-13.827635,3.7192388,1.4648519,7.142509,6.3896,30.056547,13.351926,-13.417345,46.575676,34.416203,4.746214,11.965609,1.7338724,-24.212053,21.65252,47.422947,-35.065502,7.0643454,-22.760792
1,0.393858402967453,1.7266091108322144,77.98287963867188,-3.001226375853085,4.224943282427666,-89.9649319557196,-29.156536,12.402308,11.125858,27.408667,-5.4985538,-4.7921534,-8.411518,0.43133515,-10.593527,17.886772,-13.417285,3.649072,1.2768469,7.309193,6.384076,30.30779,13.417837,-13.534726,46.57733,34.467667,4.7030725,11.851796,2.1106248,-24.241236,21.455479,47.44601,-35.008213,7.081423,-22.801983
2,0.37131285667419434,2.1468098163604736,77.99808502197266,-3.095504022276885,4.0080118222080685,-89.73871194702139,-29.26044,12.1313925,9.845892,29.547022,-6.2716093,-4.8493605,-8.276651,0.5475001,-10.806541,17.42564,-13.0067005,3.576649,1.10569,7.4737034,6.389981,30.570679,13.526015,-13.686917,46.563103,34.511547,4.6579323,11.724406,2.499401,-24.264126,21.231379,47.453575,-34.959633,7.0970473,-22.841066
3,0.3521701693534851,2.563546657562256,78.01323699951172,-3.190063257541694,3.7923036234465046,-89.5356460474042,-29.307545,11.857134,8.641623,31.64949,-7.0456076,-4.906026,-8.147402,0.6676681,-10.999397,16.968744,-12.5896845,3.5072572,0.96983993,7.624853,6.387633,30.828682,13.654455,-13.812444,46.522255,34.535492,4.608626,11.604527,2.9195807,-24.278513,20.989555,47.45324,-34.90067,7.1089644,-22.88214
4,0.34179940819740295,2.9744620323181152,78.0300064086914,-3.279996508059365,3.583794489308054,-89.38646339452734,-29.251188,11.623025,7.600688,33.71,-7.84427,-4.9346433,-8.043261,0.7871054,-11.144037,16.533194,-12.160945,3.4456391,0.8910252,7.7535286,6.3570595,31.062094,13.781315,-13.8527565,46.446705,34.526516,4.55339,11.513623,3.388049,-24.279247,20.736197,47.45779,-34.8136,7.11379,-22.929438
5,0.335612416267395,3.3827264308929443,78.04593658447266,-3.36437890728804,3.386440278420375,-89.29593791052442,-29.089542,11.439204,6.7138877,35.73857,-8.680024,-4.92938,-7.970985,0.9032377,-11.2352705,16.120579,-11.715115,3.3910823,0.8725414,7.8616815,6.28549,31.261372,13.891836,-13.787492,46.341736,34.48868,4.486274,11.462015,3.9065716,-24.263376,20.47674,47.47793,-34.678394,7.1053824,-22.992243
6,0.33682602643966675,3.785473108291626,78.06079864501953,-3.444667636480843,3.196447022211303,-89.24847924376573,-28.846903,11.295795,5.939517,37.73728,-9.539548,-4.898115,-7.920036,1.0173833,-11.287269,15.721683,-11.255265,3.3417006,0.89241284,7.9559984,6.1839695,31.435305,13.981349,-13.641281,46.221336,34.433018,4.411855,11.440686,4.451559,-24.231377,20.220768,47.51946,-34.51,7.088381,-23.066822
7,0.33988937735557556,4.183377742767334,78.07455444335938,-3.5208627966515103,3.00738976881842,-89.24471143440796,-28.519033,11.214056,5.312043,39.69101,-10.40923,-4.8313622,-7.884986,1.1301793,-11.300889,15.34174,-10.79172,3.3004189,0.9368303,8.034387,6.0684023,31.592243,14.047459,-13.425749,46.089466,34.35556,4.3439918,11.441897,5.004162,-24.183456,19.978075,47.58587,-34.343155,7.0754924,-23.138779
8,0.3467932641506195,4.579140663146973,78.08892822265625,-3.592513667465156,2.8128201535150277,-89.28524843428723,-28.099756,11.214222,4.866164,41.579536,-11.273115,-4.719367,-7.8577337,1.2427586,-11.276853,14.979361,-10.330866,3.270277,0.9913633,8.095349,5.9550858,31.740509,14.087272,-13.15211,45.949642,34.251953,4.296296,11.457728,5.5476146,-24.120884,19.758791,47.678883,-34.21188,7.0793886,-23.193071
9,0.3663589060306549,4.967124938964844,78.10057067871094,-3.655303379839203,2.609466857326711,-89.38036715301395,-27.576473,11.343819,4.6792784,43.419678,-12.15196,-4.5403104,-7.836958,1.3508518,-11.206105,14.637252,-9.873762,3.2547889,1.067345,8.132402,5.846,31.88505,14.099783,-12.805032,45.79572,34.124332,4.274167,11.48794,6.080475,-24.041275,19.563185,47.806656,-34.126278,7.103931,-23.22561
10,0.3877998888492584,5.356698513031006,78.1122055053711,-3.710734565090982,2.4009519669089894,-89.52656037228446,-26.956644,11.590713,4.7020035,45.215206,-13.04774,-4.3003397,-7.826364,1.4552829,-11.090993,14.314659,-9.416877,3.2515788,1.1643983,8.148366,5.732788,32.01981,14.082377,-12.381424,45.63094,33.975723,4.2701216,11.536941,6.6053267,-23.941792,19.390564,47.97164,-34.068752,7.14294,-23.24572
11,0.4146692454814911,5.745421409606934,78.1177749633789,-3.7667795361433294,2.191418605687099,-89.70347240962901,-26.264044,11.88026,4.782401,46.927845,-13.917643,-4.03447,-7.8275228,1.5635825,-10.949296,14.010049,-8.961459,3.255168,1.2578796,8.153681,5.617134,32.136818,14.040254,-11.91717,45.46814,33.79953,4.277549,11.602706,7.1195335,-23.826975,19.240864,48.158478,-34.031834,7.192999,-23.25686
12,0.445206880569458,6.124168395996094,78.11865234375,-3.830867488840698,1.985261482270463,-89.8904702508072,-25.527046,12.130722,4.7729506,48.522892,-14.718154,-3.7800379,-7.83678,1.6834971,-10.798753,13.710308,-8.506856,3.2599924,1.325397,8.155789,5.5005827,32.230057,13.984252,-11.448575,45.31546,33.588287,4.289529,11.681634,7.621392,-23.696821,19.111021,48.352234,-34.009144,7.250786,-23.263092
13,0.47967931628227234,6.508037567138672,78.1169662475586,-3.903231816813726,1.782808390244416,-90.09247883858359,-24.747051,12.338898,4.670524,50.007458,-15.437135,-3.5239046,-7.860419,1.8168565,-10.632926,13.425471,-8.055305,3.266891,1.3744946,8.152868,5.382391,32.30455,13.918275,-10.969785,45.1682,33.32302,4.30659,11.784312,8.117352,-23.549301,18.994062,48.549896,-34.00337,7.3165007,-23.261875
14,0.5185952186584473,6.890052795410156,78.10818481445312,-3.979946304876404,1.5821908599412242,-90.31687582520217,-23.912888,12.539318,4.5437884,51.39752,-16.09875,-3.254917,-7.8978558,1.9589304,-10.446056,13.157939,-7.6062603,3.278313,1.4161143,8.13962,5.2621565,32.361443,13.843085,-10.468548,45.020638,33.011387,4.3308406,11.907565,8.60777,-23.384418,18.8898,48.75793,-34.016834,7.3913727,-23.25217
15,0.5597760677337646,7.2701802253723145,78.0953369140625,-4.062651113596374,1.3842258739140554,-90.54618035213387,-23.035896,12.702622,4.3562975,52.67212,-16.71195,-3.0156622,-7.9429946,2.1074698,-10.257672,12.898001,-7.1594105,3.2909565,1.4340075,8.120305,5.1414304,32.392044,13.767052,-9.973709,44.876713,32.68438,4.357303,12.026635,9.093334,-23.20354,18.80299,48.966076,-34.042778,7.473065,-23.23992
16,0.6000964641571045,7.646186828613281,78.07920837402344,-4.153653792661642,1.1903203033899385,-90.76315451905027,-22.128641,12.800187,4.0716176,53.812748,-17.2865,-2.8494015,-7.992033,2.2608073,-10.087669,12.641681,-6.7127113,3.3011029,1.4155018,8.098074,5.02169,32.388847,13.703644,-9.51662,44.737465,32.37149,4.3810544,12.115785,9.574875,-23.011057,18.734165,49.16305,-34.07487,7.558789,-23.230564
17,0.6420804262161255,8.026898384094238,78.05867004394531,-4.253423697832979,0.9993794647330462,-90.96809634689296,-21.184242,12.816549,3.6736178,54.809826,-17.827765,-2.7851882,-8.043731,2.419208,-9.937507,12.388672,-6.266768,3.3087761,1.3646697,8.0726185,4.9031,32.354275,13.661125,-9.098589,44.594845,32.052883,4.402132,12.158669,10.059876,-22.80774,18.683777,49.343548,-34.11284,7.653059,-23.22156
18,0.6917451024055481,8.405824661254883,78.0312271118164,-4.360212877239722,0.8114489298168038,-91.16831876169474,-20.201017,12.768153,3.1870782,55.67991,-18.3297,-2.7951157,-8.100552,2.583162,-9.798047,12.1414,-5.8220572,3.3156593,1.2910953,8.040934,4.7845173,32.29252,13.640281,-8.7097,44.446632,31.718765,4.422072,12.169801,10.551984,-22.59225,18.646215,49.50827,-34.15897,7.7549295,-23.210766
19,0.7417219877243042,8.784964561462402,78.00050354003906,-4.473721390758325,0.6294910336961413,-91.35684186794484,-19.198935,12.671734,2.6374888,56.44301,-18.790178,-2.8366563,-8.168575,2.7492013,-9.673559,11.906251,-5.3821425,3.320483,1.1904076,8.003191,4.665649,32.19842,13.643306,-8.36521,44.30228,31.412834,4.4383945,12.170466,11.052274,-22.365372,18.611015,49.65008,-34.21036,7.853432,-23.202637
20,0.7907824516296387,9.164695739746094,77.96510314941406,-4.595790729235619,0.4564982917711015,-91.52690356552284,-18.198767,12.544648,2.0490668,57.119713,-19.202354,-2.867192,-8.254118,2.91454,-9.568491,11.690207,-4.9509497,3.3218193,1.0596693,7.9609427,4.5463037,32.066925,13.673469,-8.082464,44.17119,31.178438,4.4482083,12.181263,11.564852,-22.128685,18.56645,49.7586,-34.263344,7.9371667,-23.201584
21,0.8414438962936401,9.545660972595215,77.92207336425781,-4.728084208482368,0.29165613313056704,-91.67782773198375,-17.203327,12.3809185,1.4013834,57.725544,-19.600695,-2.8680623,-8.35448,3.0854423,-9.4847975,11.491689,-4.529497,3.3172777,0.89735246,7.917728,4.4251823,31.898159,13.735041,-7.876436,44.0561,31.030561,4.449299,12.208721,12.093255,-21.883026,18.51137,49.827103,-34.325397,8.004306,-23.20744
22,0.9003581404685974,9.929929733276367,77.87493896484375,-4.871818495053218,0.13390939900542256,-91.81297412086214,-16.20108,12.174414,0.69163257,58.248165,-19.976618,-2.8638968,-8.466879,3.261619,-9.420119,11.306836,-4.115338,3.307901,0.70862514,7.871795,4.3025784,31.69337,13.828903,-7.737819,43.951477,30.94308,4.443319,12.240381,12.638747,-21.627855,18.448225,49.85833,-34.39536,8.060074,-23.217737
23,0.9586827754974365,10.32185173034668,77.82381439208984,-5.01539409343539,-0.013702517957076756,-91.9309256579282,-15.194486,11.942074,-0.031577833,58.66906,-20.261305,-2.8772268,-8.600953,3.429206,-9.37239,11.144537,-3.7091904,3.2976482,0.4991184,7.816137,4.1806254,31.448505,13.951584,-7.6467514,43.855743,30.898207,4.432964,12.2692995,13.200552,-21.363214,18.37154,49.857662,-34.45714,8.103973,-23.23341
24,1.0176352262496948,10.715304374694824,77.77278137207031,-5.151273925574089,-0.14799893161759556,-92.03022122941448,-14.186593,11.701319,-0.7209681,58.969017,-20.386301,-2.9312222,-8.765261,3.574611,-9.339626,11.011508,-3.3111696,3.2905884,0.27317566,7.7441707,4.0616884,31.158552,14.097185,-7.5823164,43.76743,30.878822,4.421216,12.28859,13.774989,-21.090338,18.27645,49.831944,-34.494415,8.135614,-23.25554
25,1.0791188478469849,11.113883972167969,77.71537017822266,-5.27530191158004,-0.26672770422975944,-92.10876707917637,-13.191251,11.424011,-1.4102308,59.176586,-20.267916,-3.0083518,-8.968704,3.6917093,-9.322349,10.92315,-2.9289804,3.2856328,0.022266911,7.6540856,3.9443798,30.8252,14.2616,-7.543497,43.684986,30.893438,4.4034142,12.291819,14.361577,-20.809496,18.160995,49.776817,-34.496506,8.15206,-23.287342
26,1.1489934921264648,11.517354965209961,77.65662384033203,-5.3923564923255825,-0.37173700629884737,-92.16782771661,-12.202411,11.112103,-2.111458,59.291515,-19.965105,-3.1056929,-9.204885,3.7884982,-9.321408,10.871745,-2.560434,3.2813282,-0.25510657,7.550964,3.8281791,30.44874,14.44418,-7.539025,43.611027,30.94832,4.379982,12.284691,14.958877,-20.52102,18.030422,49.69253,-34.474003,8.154488,-23.327309
27,1.227828860282898,11.924715995788574,77.59706115722656,-5.507802876974297,-0.4662396936331099,-92.21152011468115,-11.198635,10.829939,-2.7474723,59.254765,-19.624876,-3.2660942,-9.459622,3.8723893,-9.33514,10.82952,-2.190204,3.2812886,-0.5443718,7.4388304,3.7166903,30.025028,14.643583,-7.5617146,43.54984,31.022966,4.3620934,12.27972,15.565648,-20.226439,17.89087,49.58942,-34.4429,8.148985,-23.36927
28,1.3095693588256836,12.336763381958008,77.53570556640625,-5.625037519762709,-0.5531039887586859,-92.24325875750812,-10.16069,10.643045,-3.2415812,59.00588,-19.393976,-3.5294843,-9.718941,3.9505184,-9.361896,10.770208,-1.8039793,3.2889984,-0.8318776,7.3217483,3.6138115,29.549692,14.858125,-7.6041822,43.50595,31.09762,4.3609047,12.289051,16.179213,-19.928286,17.749643,49.478943,-34.418816,8.141626,-23.40703
29,1.3922905921936035,12.757322311401367,77.46894073486328,-5.74672977585796,-0.6313367804979556,-92.26319980509038,-9.069443,10.578982,-3.564476,58.54715,-19.27112,-3.9324334,-9.986161,4.0268083,-9.404707,10.697913,-1.4002274,3.3023098,-1.1173811,7.2039914,3.516877,29.019266,15.088083,-7.679976,43.482403,31.175226,4.3847437,12.321553,16.80362,-19.628614,17.603231,49.356197,-34.40136,8.134011,-23.442684
30,1.480415940284729,13.181644439697266,77.39805603027344,-5.870219255219455,-0.6996406164691116,-92.26938908430847,-7.944004,10.598942,-3.761104,57.904716,-19.189688,-4.4444666,-10.267409,4.0968437,-9.463704,10.624473,-0.98623633,3.320032,-1.407331,7.083667,3.4251084,28.435823,15.332693,-7.7895656,43.47673,31.2631,4.425782,12.368625,17.441101,-19.32707,17.449638,49.214756,-34.38305,8.122636,-23.477606
31,1.570839285850525,13.612343788146973,77.32919311523438,-5.9902096078591525,-0.7608868121076375,-92.26242869482432,-6.823155,10.668981,-3.8642519,57.053093,-19.196959,-5.0040526,-10.549094,4.156445,-9.532814,10.528676,-0.55903333,3.346601,-1.6993381,6.953637,3.3451715,27.803457,15.587372,-7.903298,43.48474,31.349285,4.4710107,12.416636,18.080301,-19.024338,17.299019,49.06822,-34.369926,8.10619,-23.505262
32,1.6657452583312988,14.0568208694458,77.25865936279297,-6.104042395299684,-0.8179797336374534,-92.24289755754631,-5.743407,10.754894,-3.9053612,55.963238,-19.341106,-5.54977,-10.818995,4.20126,-9.605837,10.392226,-0.11707569,3.3863509,-1.9941199,6.8074474,3.2837784,27.128159,15.844934,-7.98923,43.5024,31.422956,4.5075917,12.452623,18.708559,-18.72126,17.164747,48.931465,-34.36758,8.083605,-23.519468
33,1.7666826248168945,14.504205703735352,77.18846893310547,-6.213868011715641,-0.8759181409506576,-92.2123488996499,-4.67142,10.866656,-3.8726552,54.548195,-19.620987,-6.138305,-11.069616,4.239729,-9.6812105,10.209686,0.34276074,3.4386654,-2.2966614,6.650591,3.2452018,26.411327,16.098528,-8.032396,43.535324,31.49548,4.5316935,12.46948,19.32505,-18.419397,17.051249,48.806377,-34.37654,8.051275,-23.519608
34,1.870239019393921,14.958373069763184,77.11461639404297,-6.322118404249796,-0.9316085643729557,-92.16965080929647,-3.5986702,11.010569,-3.7492619,52.84189,-20.009684,-6.7841344,-11.306523,4.2717724,-9.761994,9.986239,0.82164335,3.5012243,-2.61025,6.4850464,3.2251542,25.650791,16.346823,-8.048321,43.5849,31.570953,4.5507402,12.476802,19.931456,-18.120337,16.956024,48.688934,-34.393673,8.011271,-23.509165
35,1.9715510606765747,15.416765213012695,77.04341125488281,-6.41328648429946,-0.9758009333801294,-92.11173331180139,-2.6035862,11.149043,-3.5637155,51.00822,-20.517916,-7.360209,-11.544729,4.2791543,-9.849706,9.735223,1.3090448,3.5761116,-2.9315388,6.298565,3.216779,24.847933,16.592957,-8.050771,43.641003,31.62752,4.5687814,12.485988,20.52023,-17.82522,16.881092,48.584965,-34.419666,7.97128,-23.487448
36,2.0725297927856445,15.891801834106445,76.96912384033203,-6.473517938786736,-0.9992526807151577,-92.03568589965896,-1.7677854,11.247444,-3.3494823,49.21754,-21.163815,-7.7358537,-11.798269,4.2445145,-9.945469,9.466214,1.7973748,3.6655283,-3.256145,6.0787506,3.2128692,24.004725,16.842245,-8.054215,43.69203,31.641806,4.5894747,12.507822,21.08474,-17.534262,16.827993,48.500225,-34.454727,7.938739,-23.453857
37,2.1733148097991943,16.370254516601562,76.89997863769531,-6.5066479382394276,-1.0004864597352632,-91.94320775584085,-1.1037754,11.306918,-3.1143918,47.427044,-22.048855,-7.835189,-12.076998,4.173237,-10.045901,9.190847,2.2956696,3.7545018,-3.5779417,5.8281302,3.2090998,23.115051,17.098042,-8.068226,43.7394,31.594746,4.6142592,12.548528,21.629642,-17.2471,16.802883,48.432224,-34.50616,7.924291,-23.405687
38,2.2776129245758057,16.8620662689209,76.83687591552734,-6.517136793100418,-0.9841024343505047,-91.83502400955,-0.5697172,11.338106,-2.8454041,45.575314,-23.13538,-7.7433023,-12.372674,4.0717382,-10.151279,8.902663,2.8039894,3.8468888,-3.898793,5.5497518,3.2089853,22.179987,17.360594,-8.085667,43.786827,31.501087,4.640622,12.600688,22.157814,-16.963688,16.801336,48.37882,-34.5712,7.920725,-23.343836
39,2.387869358062744,17.360260009765625,76.77894592285156,-6.492997095745863,-0.950668820367275,-91.70710808280236,-0.16542952,11.32502,-2.5482652,43.80663,-24.235243,-7.564323,-12.665727,3.9243546,-10.267182,8.572662,3.3061025,3.9738858,-4.2266097,5.2328377,3.2166116,21.212324,17.629591,-8.095151,43.826527,31.389864,4.6661,12.6542015,22.661594,-16.682453,16.810595,48.34409,-34.63571,7.9090605,-23.27328
40,2.4864397048950195,17.86148452758789,76.72264862060547,-6.4225987193739975,-0.900592679449131,-91.55500813793377,0.10687894,11.256119,-2.2268012,42.267254,-25.159204,-7.399667,-12.935161,3.7161875,-10.399135,8.1682,3.7887244,4.167103,-4.5693903,4.8667655,3.2359588,20.224386,17.90477,-8.085702,43.85053,31.29002,4.688834,12.699374,23.13206,-16.401327,16.817074,48.33277,-34.685818,7.8703136,-23.198647
41,2.5912818908691406,18.374862670898438,76.67230224609375,-6.292954967551996,-0.8269257256287196,-91.3715841385315,0.2277749,11.133196,-1.8491492,40.994324,-25.873419,-7.255,-13.195882,3.4284499,-10.546528,7.701288,4.267093,4.448927,-4.938498,4.436417,3.2636886,19.21501,18.186079,-8.043204,43.853832,31.20146,4.7053857,12.725455,23.563307,-16.118565,16.82362,48.350956,-34.724144,7.8020434,-23.120249
42,2.692481756210327,18.895139694213867,76.63187408447266,-6.1148759461152915,-0.7327334392289253,-91.16088723777533,0.20478246,10.964773,-1.4261329,39.910454,-26.474142,-7.079598,-13.45269,3.0751553,-10.706471,7.183353,4.7452755,4.798408,-5.326902,3.9521,3.2974858,18.178558,18.47395,-7.977266,43.84225,31.111834,4.717829,12.740367,23.958832,-15.834454,16.835642,48.397163,-34.75651,7.713694,-23.036135
43,2.7921221256256104,19.42996597290039,76.5966796875,-5.906847764944382,-0.6340809918773884,-90.93427495126114,0.07390932,10.749482,-1.0239111,38.993824,-26.96799,-6.88649,-13.649699,2.6900837,-10.879983,6.540364,5.2049904,5.184058,-5.7152486,3.4379404,3.343352,17.121897,18.769094,-7.913252,43.823593,31.031498,4.732642,12.762828,24.32956,-15.549062,16.843243,48.461937,-34.772896,7.604546,-22.948792
44,2.8983535766601562,19.96760368347168,76.5733413696289,-5.689864742107723,-0.5467042788813385,-90.70338334220196,-0.12773278,10.487157,-0.70885,38.219055,-27.358414,-6.6874547,-14.082598,2.237289,-11.082714,6.455845,5.229828,5.5776944,-6.0823145,2.917589,3.4086833,16.049316,19.072649,-7.8784895,43.807117,30.969603,4.7562633,12.811537,24.68544,-15.2631855,16.83338,48.53541,-34.764694,7.473743,-22.860178
45,2.99806809425354,20.506275177001953,76.55764770507812,-5.45269293970983,-0.47225735021034376,-90.465943821647,-0.41372672,10.166515,-0.4823245,37.610634,-27.63553,-6.460613,-14.513509,1.7515469,-11.307956,6.416924,5.088065,6.013028,-6.4281254,2.3805637,3.5022428,14.951843,19.386864,-7.879497,43.791897,30.928078,4.790484,12.899422,25.029366,-14.974276,16.793913,48.614902,-34.73185,7.3119793,-22.765188
46,3.0932741165161133,21.04996681213379,76.54776763916016,-5.190572752181328,-0.4044040612846042,-90.2169435265486,-0.7972868,9.794141,-0.314414,37.173542,-27.801102,-6.204451,-14.929858,1.2269857,-11.551538,6.378344,4.8305445,6.4943166,-6.759696,1.8168353,3.6184735,13.828057,19.711807,-7.9057026,43.77505,30.900557,4.831768,13.013672,25.35777,-14.680564,16.731644,48.704773,-34.679005,7.122692,-22.664276
47,3.1860032081604004,21.58893394470215,76.54571533203125,-4.923820810720738,-0.34592816788369257,-89.96397736934286,-1.2427061,9.395946,-0.22467344,36.858276,-27.878054,-5.961722,-15.325386,0.6929845,-11.805367,6.3422503,4.4440737,6.944532,-7.0676374,1.2520342,3.7444956,12.695046,20.043364,-7.9565024,43.760735,30.885107,4.878455,13.133689,25.67117,-14.386207,16.663311,48.804256,-34.603287,6.9240174,-22.56821
48,3.2792952060699463,22.129911422729492,76.54987335205078,-4.6749113132493125,-0.29893480535625605,-89.71537437068721,-1.7147183,8.997201,-0.23262103,36.6168,-27.890802,-5.7758846,-15.68997,0.18105033,-12.062216,6.3042927,3.9163196,7.2867117,-7.344391,0.7154419,3.8681204,11.570629,20.374685,-8.02943,43.753395,30.880459,4.92876,13.239485,25.972372,-14.098367,16.607574,48.90944,-34.50074,6.7337856,-22.486662
49,3.367997646331787,22.666946411132812,76.5565185546875,-4.459436983522351,-0.26368673666259906,-89.46481554932325,-2.2279825,8.600675,-0.38754237,36.47186,-27.83973,-5.6790695,-16.032084,-0.28968203,-12.292022,6.2742915,3.2031703,7.5100036,-7.5947976,0.22153518,3.9948814,10.443997,20.70395,-8.128353,43.76079,30.894258,4.986982,13.329212,26.266024,-13.821787,16.569897,49.01712,-34.3337,6.5485625,-22.417175
50,3.460249423980713,23.192169189453125,76.56918334960938,-4.264734872443038,-0.23766339767506317,-89.21241320563999,-2.7946272,8.197619,-0.66116154,36.441067,-27.716091,-5.645211,-16.350548,-0.73367953,-12.510666,6.2421656,2.3268688,7.6549067,-7.8212857,-0.24101679,4.129772,9.311021,21.030493,-8.250745,43.778225,30.925598,5.052408,13.412684,26.550209,-13.558367,16.540861,49.12676,-34.115135,6.3614135,-22.355112
51,3.5500760078430176,23.71469497680664,76.58224487304688,-4.070272187727891,-0.21774003970266725,-88.9745681463619,-3.3816082,7.7867355,-0.9580407,36.483543,-27.542051,-5.630058,-16.645037,-1.1836061,-12.776972,6.2219443,1.3519477,7.7223487,-8.017023,-0.6884827,4.2574854,8.202045,21.346146,-8.381508,43.791832,30.960686,5.1163673,13.487742,26.81942,-13.310629,16.51959,49.238037,-33.917065,6.1847563,-22.306898
52,3.6298604011535645,24.226621627807617,76.59838104248047,-3.891036384986399,-0.2000308505811498,-88.76650376553398,-3.9692335,7.4109316,-1.19795,36.579174,-27.350582,-5.596097,-16.930302,-1.6387917,-13.167306,6.267588,0.31589395,7.7088933,-8.177326,-1.0980542,4.3674707,7.1454105,21.638031,-8.504693,43.791023,30.98783,5.1705513,13.554515,27.06185,-13.084637,16.50307,49.356537,-33.81125,6.0306916,-22.280077
53,3.709604501724243,24.72774314880371,76.62670135498047,-3.687690568201641,-0.1876146900351483,-88.5772058936184,-4.5364923,7.0157514,-1.3585262,36.674225,-27.080091,-5.515834,-17.198183,-2.1487105,-13.625214,6.321221,-0.8470169,7.544846,-8.313791,-1.5048809,4.4547057,6.1434245,21.902945,-8.621492,43.779343,31.011414,5.2139163,13.609216,27.292212,-12.88392,16.485537,49.475895,-33.823284,5.9073076,-22.28503
54,3.788679361343384,25.22268295288086,76.6651840209961,-3.472164642164277,-0.18133364908810076,-88.40440597851448,-5.0983887,6.606338,-1.483067,36.789577,-26.732159,-5.416352,-17.446634,-2.6914845,-14.134549,6.384326,-2.1385765,7.260758,-8.425814,-1.8980032,4.5274878,5.1826797,22.142017,-8.735596,43.762123,31.037806,5.251004,13.654493,27.511497,-12.710664,16.468487,49.59362,-33.91228,5.8066077,-22.31556
55,3.873056173324585,25.71605682373047,76.7090835571289,-3.268814006124666,-0.18520337985551816,-88.2816354454959,-5.616329,6.2236557,-1.5531609,36.862465,-26.338322,-5.3090973,-17.623259,-3.2232962,-14.794433,6.4409237,-3.3263197,7.0224886,-8.48856,-2.2578602,4.5964046,4.276426,22.353165,-8.826861,43.72436,31.06098,5.2822785,13.697279,27.70214,-12.567181,16.468718,49.704674,-34.049427,5.718124,-22.353682
56,3.971676826477051,26.197734832763672,76.76068878173828,-3.1017787412080713,-0.20265342095772929,-88.24147384406396,-6.0522885,5.9053,-1.5516436,36.833817,-25.933092,-5.204238,-17.677147,-3.7057137,-15.709791,6.478926,-4.175513,6.9930506,-8.48092,-2.564992,4.6718597,3.437738,22.527391,-8.87132,43.65312,31.077698,5.308382,13.745321,27.84605,-12.461681,16.503849,49.80344,-34.205242,5.6316385,-22.381746
57,4.073484897613525,26.682952880859375,76.8283462524414,-2.9496266254258545,-0.23762821025104583,-88.28684421502358,-6.3846707,5.6300783,-1.4687687,36.674603,-25.519499,-5.094956,-17.576464,-4.1883183,-17.117754,6.49257,-4.589636,7.35257,-8.39001,-2.8421655,4.7611017,2.6607804,22.67557,-8.868919,43.545635,31.0919,5.3302326,13.796432,27.944393,-12.389088,16.576492,49.889606,-34.389046,5.543125,-22.39441
58,4.168359756469727,27.169910430908203,76.90190887451172,-2.8100703328822476,-0.2853844628544305,-88.4023493284181,-6.640609,5.386531,-1.3160418,36.42645,-25.085716,-4.977771,-17.346771,-4.667335,-18.897476,6.484745,-4.6872325,7.957288,-8.233514,-3.0794399,4.855711,1.9354506,22.775118,-8.824501,43.420277,31.11296,5.3491225,13.852931,28.008598,-12.362575,16.675018,49.960552,-34.60958,5.4589305,-22.40116
59,4.261788845062256,27.651378631591797,76.98486328125,-2.7220583780702046,-0.3364391977968712,-88.59318766050555,-6.8572817,5.227258,-1.1093032,36.14178,-24.64673,-4.8677177,-17.032644,-5.0294495,-20.616028,6.466524,-4.574701,8.47499,-8.006372,-3.2325792,4.9427724,1.2594726,22.81546,-8.7557335,43.289845,31.12755,5.3643923,13.922418,28.032078,-12.367716,16.775146,50.0268,-34.851242,5.3824306,-22.407858
60,4.356439590454102,28.134292602539062,77.08180236816406,-2.7183070563034706,-0.3820985060935909,-88.86312467912971,-7.0694857,5.1979895,-0.8638434,35.868034,-24.214186,-4.7789187,-16.687788,-5.1769695,-21.837317,6.4550953,-4.3897038,8.582968,-7.7697554,-3.3107607,5.011958,0.73803115,22.879057,-8.604352,43.06805,31.090624,5.3626633,13.986097,27.975414,-12.41031,16.956764,50.09953,-35.05587,5.318936,-22.41841
61,4.4522247314453125,28.619327545166016,77.19505310058594,-2.8517320354669424,-0.4176989542877553,-89.2517913077381,-7.290248,5.370723,-0.5666775,35.630108,-23.801916,-4.721831,-16.325157,-5.0262194,-22.453873,6.455794,-4.123039,8.040861,-7.462252,-3.2335532,5.0674887,0.33285666,22.9156,-8.379837,42.781483,31.017681,5.346999,14.051296,27.837765,-12.492345,17.181295,50.181114,-35.25042,5.2733936,-22.427013
62,4.550261974334717,29.09931182861328,77.32518768310547,-3.098213749313359,-0.4517506341241671,-89.74245975591644,-7.496069,5.708153,-0.22127123,35.394073,-23.396162,-4.6866465,-15.921471,-4.643768,-22.694761,6.4615107,-3.7277882,7.0708075,-7.1071916,-3.0228372,5.1146297,0.04722777,22.921143,-8.069927,42.42938,30.920088,5.318618,14.117663,27.627083,-12.630622,17.464054,50.260815,-35.434673,5.2424803,-22.432364
63,4.651922702789307,29.569852828979492,77.46379089355469,-3.376223516370471,-0.49683160745153876,-90.25401630675235,-7.664139,6.091967,0.13306992,35.11859,-22.967716,-4.6567245,-15.47415,-4.1598763,-22.631344,6.4661827,-3.2846963,6.0588374,-6.770484,-2.7600183,5.1473436,-0.13294719,22.898058,-7.7234445,42.039867,30.796,5.2818484,14.195861,27.38894,-12.816879,17.766289,50.31179,-35.59482,5.2103515,-22.440762
64,4.743791580200195,30.02442741394043,77.5981216430664,-3.597007715953319,-0.5601058373303044,-90.70427661406923,-7.7971034,6.402057,0.45546478,34.815178,-22.52027,-4.6202784,-14.999701,-3.71519,-22.337282,6.5106215,-2.906184,5.3888545,-6.5119658,-2.5425723,5.156745,-0.22778653,22.862568,-7.398672,41.643356,30.639309,5.2405467,14.295494,27.153025,-13.025332,18.044374,50.32749,-35.720272,5.1620593,-22.462534
65,4.829448699951172,30.466115951538086,77.71715545654297,-3.7376802564453273,-0.6485888200742952,-91.08276873718694,-7.8920536,6.6117826,0.7472901,34.500824,-22.062742,-4.570382,-14.505019,-3.319867,-21.745089,6.618226,-2.6267536,5.228003,-6.346198,-2.401329,5.1401224,-0.21833545,22.824581,-7.093858,41.229115,30.432135,5.19085,14.426069,26.9118,-13.249785,18.311264,50.322712,-35.803616,5.0829654,-22.503613
66,4.906274318695068,30.900611877441406,77.83409118652344,-3.8288745963472195,-0.7576650536294136,-91.43098953107732,-7.9345303,6.7607903,1.0378985,34.135998,-21.574179,-4.5089364,-13.95721,-2.9097447,-20.841944,6.715616,-2.359655,5.3696866,-6.2334504,-2.3100383,5.10248,-0.10543732,22.786959,-6.7911563,40.786533,30.178732,5.131569,14.577575,26.651058,-13.487572,18.580257,50.302692,-35.85483,4.98549,-22.559748
67,4.974844455718994,31.328859329223633,77.95236206054688,-3.904206766573061,-0.8672342845656661,-91.7449176368966,-7.964388,6.8889685,1.3029861,33.74563,-21.068985,-4.453845,-13.368694,-2.483428,-19.804712,6.8138895,-2.1031315,5.618578,-6.1663566,-2.228608,5.0458703,0.080031715,22.751211,-6.50821,40.332325,29.9069,5.069402,14.72998,26.384382,-13.730821,18.81841,50.24805,-35.886986,4.893437,-22.622988
68,5.040586471557617,31.74502944946289,78.07213592529297,-3.9989856142128937,-0.9587548538736436,-92.01900437896188,-8.017898,7.0306983,1.518195,33.349297,-20.558212,-4.421915,-12.750572,-2.0508838,-18.804007,6.9196177,-1.8461887,5.772493,-6.134664,-2.1214025,4.972077,0.30064428,22.71816,-6.2687554,39.889317,29.644354,5.011767,14.8647,26.128044,-13.967137,18.988716,50.14042,-35.914463,4.831146,-22.686794
69,5.101837635040283,32.162330627441406,78.19078826904297,-4.116445357387009,-1.0282859205519101,-92.24491989229209,-8.098388,7.185836,1.6716683,32.93854,-20.035461,-4.422644,-12.654997,-1.7938981,-17.786015,8.250595,-2.2221997,5.788928,-6.145141,-1.9882562,4.8750663,0.55790704,22.689177,-6.080735,39.458168,29.37949,4.96122,14.9844675,25.879072,-14.18737,19.077236,49.9816,-35.94624,4.810094,-22.752283
70,5.149586200714111,32.575435638427734,78.31102752685547,-4.226276897162257,-1.0882162476360564,-92.42457928299702,-8.181309,7.3219934,1.7806469,32.497635,-19.492704,-4.4423037,-12.946081,-1.652128,-16.69423,10.507141,-3.0817344,5.7760963,-6.196888,-1.8627636,4.75645,0.86094874,22.666416,-5.938389,39.034576,29.103743,4.914207,15.097261,25.62943,-14.389445,19.100018,49.78656,-35.976543,4.816821,-22.824543
71,5.195545196533203,32.981849670410156,78.42224884033203,-4.315141320873792,-1.1448588638510846,-92.56759382807802,-8.261578,7.425939,1.8635784,32.03742,-18.939451,-4.463157,-13.163834,-1.505992,-15.660308,12.689379,-3.8955095,5.756405,-6.268944,-1.7589682,4.629299,1.1868063,22.651096,-5.844152,38.63089,28.848911,4.869804,15.191595,25.38869,-14.57174,19.065565,49.556915,-35.99671,4.8378925,-22.902405
72,5.236720561981201,33.387908935546875,78.52944946289062,-4.37147468480602,-1.203804439496048,-92.68471104659727,-8.33752,7.489892,1.9382842,31.573256,-18.3876,-4.468595,-13.299536,-1.398506,-14.796629,14.804945,-4.671385,5.752983,-6.3383036,-1.6869801,4.5061793,1.5101132,22.64383,-5.8022714,38.261726,28.646852,4.8273716,15.2565975,25.165789,-14.733564,18.980503,49.294098,-35.99889,4.8601766,-22.9851
73,5.274318218231201,33.78939437866211,78.62651824951172,-4.393622837707325,-1.26777839161151,-92.77499753007548,-8.4028845,7.5114145,2.0070472,31.100422,-17.836662,-4.4510703,-13.354616,-1.3573924,-14.124937,16.884947,-5.418696,5.7706327,-6.4051166,-1.650306,4.388408,1.832136,22.645393,-5.813672,37.928043,28.509014,4.784903,15.287633,24.966646,-14.872999,18.828495,48.98868,-35.98958,4.8847814,-23.074894
74,5.304044723510742,34.188873291015625,78.71781921386719,-4.386726552904115,-1.3332484982515487,-92.83408928678904,-8.459497,7.4951196,2.0617692,30.611418,-17.280527,-4.420525,-13.346769,-1.3756922,-13.582524,18.953918,-6.1538124,5.7909613,-6.478373,-1.643978,4.2694125,2.16241,22.656433,-5.8773513,37.624355,28.417068,4.7438927,15.291602,24.784216,-14.989314,18.610779,48.645443,-35.970554,4.9172688,-23.171837
75,5.325932025909424,34.591087341308594,78.80314636230469,-4.361195724557354,-1.395728066700143,-92.86917382656641,-8.523595,7.4526873,2.1021206,30.127542,-16.727894,-4.388409,-13.277591,-1.4388475,-13.156754,20.975275,-6.870588,5.797849,-6.5482917,-1.6578627,4.149625,2.489994,22.677158,-5.9940434,37.354706,28.359076,4.7082925,15.274225,24.607933,-15.08583,18.360828,48.286797,-35.92683,4.950842,-23.271015
76,5.346194744110107,34.98735427856445,78.88037109375,-4.323420337648936,-1.4500835235855796,-92.88774956157586,-8.604659,7.396459,2.1287427,29.655832,-16.179235,-4.3662415,-13.163775,-1.5333594,-12.834158,22.943342,-7.579707,5.775227,-6.606683,-1.6796337,4.0296283,2.8065357,22.70702,-6.162019,37.12071,28.32296,4.681895,15.240887,24.428818,-15.167873,18.1139,47.932693,-35.842373,4.978286,-23.366688
77,5.363256454467773,35.380741119384766,78.95018768310547,-4.286747115834562,-1.496884823475367,-92.88841025846526,-8.7036495,7.335541,2.1366327,29.199087,-15.637551,-4.3606467,-12.997963,-1.6729306,-12.653355,24.865679,-8.286947,5.7053065,-6.6561956,-1.6982448,3.9110348,3.1123328,22.747204,-6.391196,36.92335,28.311184,4.6689353,15.187679,24.250345,-15.239297,17.863766,47.575012,-35.699154,4.9992185,-23.45878
78,5.377342224121094,35.78199768066406,79.01387023925781,-4.244777430017671,-1.5373763455275085,-92.86940241981901,-8.815991,7.267074,2.1261377,28.7515,-15.100573,-4.36537,-12.77951,-1.868406,-12.603492,26.754162,-8.989636,5.593682,-6.700438,-1.7167711,3.7928832,3.4126847,22.797668,-6.677226,36.7602,28.32784,4.665938,15.113203,24.076796,-15.300224,17.59799,47.204063,-35.50874,5.0162945,-23.548685
79,5.379668712615967,36.183746337890625,79.07026672363281,-4.193073379329682,-1.5676580916088478,-92.83776481434596,-8.952258,7.1865916,2.1044853,28.325008,-14.570805,-4.3730397,-12.522574,-2.0931993,-12.599677,28.578894,-9.677652,5.4615126,-6.732264,-1.7445471,3.6726494,3.706223,22.855282,-6.99672,36.628086,28.364683,4.6654816,15.027619,23.898643,-15.352924,17.342094,46.83834,-35.300724,5.0273666,-23.633772
80,5.384618282318115,36.58387756347656,79.11758422851562,-4.126862846902733,-1.5835410680411204,-92.80076801595118,-9.123509,7.0907145,2.0789788,27.931835,-14.049635,-4.376486,-12.242346,-2.3156695,-12.5592375,30.309027,-10.339055,5.331981,-6.7487354,-1.7893231,3.547658,3.9963982,22.913645,-7.3196974,36.52078,28.416607,4.6599817,14.940976,23.701794,-15.40054,17.125957,46.49957,-35.103985,5.030917,-23.712273
81,5.380491733551025,36.985069274902344,79.15663146972656,-4.042814962416398,-1.5808042801992743,-92.75812133436175,-9.332564,6.976636,2.0497386,27.568285,-13.537582,-4.3725004,-11.946557,-2.5404928,-12.477083,31.956968,-10.98751,5.2030506,-6.750272,-1.8523427,3.4133532,4.282055,22.973274,-7.6520467,36.44155,28.495474,4.645388,14.853601,23.49427,-15.447978,16.953945,46.178776,-34.91636,5.025579,-23.789003
82,5.369998931884766,37.38542175292969,79.18660736083984,-3.9469549485484827,-1.5621139188891942,-92.70747030107627,-9.575712,6.8505926,2.0130196,27.23332,-13.034176,-4.36613,-11.6300745,-2.7811546,-12.391042,33.539803,-11.627785,5.062951,-6.7413464,-1.9250748,3.2724996,4.5658545,23.033772,-7.999706,36.389614,28.60199,4.6261163,14.761255,23.276985,-15.496628,16.814528,45.869602,-34.724533,5.0125813,-23.862963
83,5.354359149932861,37.7928352355957,79.20838928222656,-3.848042783174106,-1.5337656184393504,-92.652982145618,-9.847622,6.722516,1.9712635,26.929764,-12.541119,-4.3625927,-11.290719,-3.013789,-12.285396,35.035706,-12.235339,4.922675,-6.72131,-1.9995207,3.1340048,4.85297,23.086687,-8.338033,36.355465,28.711443,4.6074996,14.665995,23.033909,-15.544377,16.71001,45.589767,-34.540806,4.9942255,-23.922894
84,5.342366695404053,38.20289611816406,79.2223892211914,-3.7535837954984768,-1.501616136185142,-92.59898853250056,-10.142368,6.6022105,1.9268839,26.658394,-12.05888,-4.3670855,-10.927868,-3.2128472,-12.145484,36.42441,-12.78596,4.794155,-6.669496,-2.06663,3.0084796,5.131295,23.141201,-8.675096,36.335247,28.777767,4.5948462,14.570077,22.789282,-15.604422,16.62076,45.315025,-34.37312,4.966507,-23.947056
85,5.322632789611816,38.61819076538086,79.22862243652344,-3.6614976684248233,-1.4672319654554045,-92.5454490638337,-10.455676,6.488797,1.8815857,26.415297,-11.586372,-4.38426,-10.538613,-3.374185,-11.96445,37.70665,-13.280409,4.691641,-6.6037593,-2.126426,2.8958719,5.417585,23.181091,-8.981597,36.320477,28.808445,4.590296,14.466133,22.510618,-15.667726,16.567467,45.077065,-34.223984,4.9341693,-23.931229
86,5.298165798187256,39.036865234375,79.2276382446289,-3.5710913305532492,-1.4269817904693707,-92.49090973818768,-10.792428,6.379658,1.833396,26.202232,-11.123855,-4.410546,-10.128337,-3.5085945,-11.752521,38.89822,-13.732529,4.605448,-6.5187173,-2.1791322,2.791732,5.7017727,23.209604,-9.27759,36.321487,28.815159,4.591321,14.356797,22.2139,-15.739275,16.541712,44.859493,-34.08758,4.8955398,-23.88282
87,5.273499488830566,39.45612716674805,79.22345733642578,-3.488543115127646,-1.379968267022378,-92.43725814850544,-11.161065,6.282803,1.7786415,26.031471,-10.6766,-4.4390006,-9.704832,-3.6113317,-11.521099,39.995483,-14.1336355,4.5122547,-6.4161096,-2.218373,2.6978657,5.9895077,23.225342,-9.5530615,36.3346,28.80904,4.594853,14.256146,21.896656,-15.821881,16.545069,44.66408,-33.965168,4.8509917,-23.820086
88,5.244173526763916,39.88622283935547,79.20719146728516,-3.420775283942768,-1.3255145539261575,-92.38650627558789,-11.569053,6.205518,1.7139368,25.912893,-10.248312,-4.46259,-9.275609,-3.6780083,-11.281054,40.994717,-14.47527,4.3884664,-6.3001966,-2.2418277,2.6146216,6.2881417,23.22594,-9.793109,36.3569,28.80598,4.598269,14.178138,21.542568,-15.904877,16.583275,44.511005,-33.861916,4.8031516,-23.76622
89,5.213597774505615,40.3154296875,79.19098663330078,-3.368968331207129,-1.2638462575977694,-92.33852126046143,-12.019322,6.149803,1.6385229,25.854809,-9.843041,-4.4796085,-8.838797,-3.706597,-11.028163,41.898617,-14.790503,4.2273035,-6.1664925,-2.2425346,2.5424294,6.5925417,23.208946,-10.001097,36.39194,28.80908,4.5993233,14.125512,21.17298,-16.008852,16.660019,44.375755,-33.77787,4.7487564,-23.719316
90,5.17939567565918,40.75025177001953,79.1680908203125,-3.3303296909674827,-1.1952388828601639,-92.29277198751328,-12.507772,6.1118307,1.5539197,25.84929,-9.457251,-4.4940085,-8.393665,-3.6997302,-10.758759,42.71182,-15.073518,4.0412855,-6.01903,-2.22603,2.47994,6.9061766,23.17336,-10.174563,36.438023,28.81607,4.599918,14.090607,20.774162,-16.120802,16.777498,44.273632,-33.71363,4.689564,-23.673561
91,5.145255088806152,41.193016052246094,79.13745880126953,-3.303523023773766,-1.1178903270896396,-92.24990412192548,-13.032879,6.091528,1.4593999,25.887897,-9.0867605,-4.507285,-7.949531,-3.6604464,-10.484619,43.431828,-15.256362,3.835861,-5.859619,-2.1898248,2.4297788,7.2306366,23.120584,-10.320662,36.490337,28.811066,4.6031804,14.074246,20.345032,-16.242311,16.91648,44.199062,-33.65687,4.626343,-23.62619
92,5.102586269378662,41.63994216918945,79.1032943725586,-3.291045703703018,-1.0300902365076101,-92.21052789168526,-13.5943575,6.087945,1.3542644,25.964039,-8.727934,-4.5204377,-7.5161753,-3.5923119,-10.21782,44.056805,-15.271267,3.6163297,-5.6921835,-2.1310997,2.3946095,7.5708246,23.05185,-10.443348,36.541546,28.778864,4.6117415,14.07639,19.884314,-16.372936,17.060953,44.146984,-33.59451,4.5601597,-23.57442
93,5.059789657592773,42.09130859375,79.06349182128906,-3.3014026978923727,-0.9348553291810913,-92.17686557868268,-14.197284,6.112185,1.2323833,26.095268,-8.390049,-4.533059,-7.107194,-3.4815192,-9.950231,44.61919,-15.017253,3.322561,-5.5129514,-2.0390937,2.3783581,7.925904,22.966393,-10.541012,36.59217,28.718,4.6292295,14.104424,19.390364,-16.51156,17.207954,44.122314,-33.515755,4.4813733,-23.513231
94,5.015609264373779,42.55180740356445,79.01986694335938,-3.3327580526241904,-0.8318333218533002,-92.14794025108236,-14.839985,6.1597767,1.0958085,26.277754,-8.070824,-4.5443187,-6.7144,-3.3328607,-9.680983,45.110233,-14.557506,2.9721427,-5.320349,-1.9187691,2.3782318,8.292605,22.864088,-10.614024,36.64603,28.63552,4.6532273,14.155885,18.86402,-16.65844,17.36436,44.12529,-33.430443,4.3928204,-23.445436
95,4.966660976409912,43.022438049316406,78.96517181396484,-3.363130913794337,-0.7144851008310188,-92.12000052274566,-15.512673,6.207842,0.9558913,26.47466,-7.7516694,-4.5545464,-6.3169594,-3.1765435,-9.4311695,45.469585,-14.074173,2.6863987,-5.122368,-1.7898974,2.3869436,8.674474,22.74694,-10.668338,36.699272,28.528395,4.6773934,14.216223,18.309732,-16.813467,17.530832,44.143677,-33.355618,4.313564,-23.380114
96,4.9165263175964355,43.49883270263672,78.90664672851562,-3.3731517427497355,-0.5760919201950178,-92.08940211032453,-16.206362,6.2333174,0.8247879,26.650326,-7.4142776,-4.5639644,-5.8941274,-3.041712,-9.217803,45.637783,-13.751523,2.586463,-4.9257326,-1.6741327,2.397599,9.073316,22.619022,-10.711239,36.748306,28.393105,4.6954403,14.271042,17.729532,-16.978052,17.70556,44.165974,-33.309444,4.2626715,-23.326515
97,4.863061904907227,43.97651672363281,78.83966064453125,-3.3566654997322956,-0.4137108064077706,-92.05029794856868,-16.926577,6.2255588,0.70105565,26.806927,-7.058246,-4.567478,-5.421704,-2.9444067,-9.059464,45.598686,-13.643156,2.7537794,-4.736092,-1.5779196,2.4089856,9.491082,22.482336,-10.740909,36.78975,28.214104,4.705452,14.322348,17.123728,-17.152536,17.894062,44.18744,-33.301636,4.252091,-23.285574
98,4.805904865264893,44.465267181396484,78.76220703125,-3.324890707783496,-0.23118839477258568,-92.00652838062616,-17.675928,6.1978474,0.5810888,26.960382,-6.6920958,-4.566013,-4.918006,-2.8666346,-8.940322,45.385788,-13.650109,3.1071641,-4.548412,-1.4903471,2.4251058,9.927768,22.33644,-10.75484,36.824,27.997225,4.7104588,14.37554,16.491629,-17.335646,18.096199,44.21308,-33.320248,4.269049,-23.25244
99,4.747556686401367,44.960060119628906,78.67953491210938,-3.282564475536827,-0.032264898051744526,-91.96884023150163,-18.439066,6.163717,0.47415683,27.09368,-6.3109303,-4.5688934,-4.425829,-2.7845933,-8.825377,45.014072,-13.728275,3.523808,-4.3525014,-1.4064199,2.4471486,10.382057,22.181755,-10.759246,36.853683,27.769945,4.712104,14.420378,15.835014,-17.526299,18.300865,44.24571,-33.351795,4.295416,-23.22802
100,4.684138774871826,45.45872116088867,78.5952377319336,-3.236499923616204,0.17950264472376826,-91.94772096078995,-19.202547,6.137445,0.388476,27.19341,-5.911244,-4.5858254,-3.9889412,-2.6742563,-8.6792555,44.50156,-13.83644,3.8805816,-4.1378345,-1.3205135,2.4761422,10.852171,22.018839,-10.761926,36.88161,27.559612,4.712005,14.446886,15.158388,-17.722158,18.49724,44.286865,-33.382256,4.3127675,-23.212912
101,4.620076656341553,45.96321487426758,78.509521484375,-3.1878871243093743,0.4058144230214061,-91.94640515618133,-19.971796,6.1208067,0.32664746,27.263706,-5.4907603,-4.616809,-3.614081,-2.519808,-8.47231,43.85676,-13.943626,4.1376705,-3.898065,-1.2329673,2.51242,11.337193,21.847967,-10.759346,36.90599,27.362307,4.707785,14.4495735,14.460517,-17.92188,18.680494,44.33676,-33.419163,4.319853,-23.211622
102,4.551915168762207,46.47559356689453,78.42184448242188,-3.1334632512795126,0.6477298089348862,-91.95894995696135,-20.75392,6.1071205,0.28383976,27.315556,-5.05263,-4.6573,-3.279,-2.3377023,-8.230384,43.06916,-14.078945,4.3624487,-3.6390598,-1.146669,2.5554743,11.836835,21.669304,-10.750731,36.92671,27.16672,4.699837,14.434605,13.739969,-18.124931,18.856627,44.39504,-33.466587,4.3252697,-23.222616
103,4.479398727416992,46.99142837524414,78.33057403564453,-3.0735199626987026,0.9001354295014116,-91.98281394955694,-21.524931,6.0973697,0.25814706,27.318161,-4.595525,-4.7107086,-2.9782302,-2.151076,-7.9997816,42.116207,-14.286094,4.592888,-3.3678732,-1.060614,2.6048322,12.350764,21.484095,-10.747846,36.950745,26.990194,4.693837,14.410257,13.000142,-18.331102,19.0289,44.463448,-33.50676,4.3259583,-23.237844
104,4.40812873840332,47.51143264770508,78.24104309082031,-3.00998425137015,1.1577982339957482,-92.01563926224351,-22.26283,6.0929804,0.24734229,27.244816,-4.119141,-4.7807646,-2.7069466,-1.9828783,-7.827957,40.9752,-14.608019,4.867804,-3.0909605,-0.9740212,2.6600816,12.877084,21.294373,-10.763569,36.985466,26.849548,4.6954904,14.384369,12.2448845,-18.54019,19.19947,44.54267,-33.521935,4.3186564,-23.249336
105,4.328945159912109,48.031707763671875,78.15287017822266,-2.9319190616420006,1.4221044280880673,-92.05872440198024,-22.963991,6.085717,0.25984594,27.088112,-3.6129513,-4.86321,-2.4405224,-1.8409406,-7.7213397,39.526608,-15.08857,5.2607512,-2.8060555,-0.8988822,2.7179728,13.421008,21.103125,-10.802867,37.027924,26.736956,4.705287,14.35822,11.477129,-18.751665,19.369822,44.62901,-33.499317,4.299674,-23.255482
106,4.250179290771484,48.55279541015625,78.06723022460938,-2.8408740632268157,1.6946755091427952,-92.11270317518715,-23.637732,6.076611,0.2950796,26.86042,-3.0797336,-4.95782,-2.1826425,-1.7137872,-7.660417,37.805084,-15.684685,5.7319694,-2.509875,-0.8346457,2.780253,13.981148,20.911451,-10.859706,37.075573,26.646618,4.720461,14.327485,10.694079,-18.965734,19.536722,44.722935,-33.451447,4.2715406,-23.260414
107,4.17376708984375,49.0807991027832,77.98574829101562,-2.7567531100706115,1.9708568672889224,-92.17441409635586,-24.278614,6.080899,0.33654907,26.55695,-2.5351114,-5.074973,-1.9719377,-1.5919619,-7.651951,36.019634,-16.310837,6.1509767,-2.20767,-0.7595171,2.8533964,14.547175,20.71695,-10.930724,37.135513,26.598917,4.7419367,14.29209,9.895441,-19.181793,19.697227,44.82936,-33.397488,4.240804,-23.264416
108,4.09092378616333,49.614097595214844,77.91398620605469,-2.7009490731000527,2.245817655874101,-92.24045589892178,-24.88274,6.114687,0.36611816,26.175426,-1.9954034,-5.225254,-1.8513718,-1.4631801,-7.6980925,34.3907,-16.888754,6.385889,-1.9046977,-0.64904326,2.9430645,15.107869,20.51515,-11.012868,37.216908,26.615267,4.770794,14.252599,9.079042,-19.39955,19.848707,44.955376,-33.356926,4.213907,-23.2682
109,4.00963020324707,50.15642166137695,77.84503173828125,-2.6890355244714623,2.5164492597609267,-92.31247146599567,-25.447496,6.192496,0.37032434,25.710196,-1.434516,-5.434819,-1.841816,-1.3181218,-7.8104277,32.974678,-17.439209,6.362503,-1.6004399,-0.4860929,3.0533264,15.661401,20.303356,-11.110874,37.322647,26.706936,4.81117,14.207122,8.233458,-19.619339,19.994904,45.116756,-33.328144,4.1883574,-23.274565
110,3.937410831451416,50.7005615234375,77.78538513183594,-2.707593101187358,2.785277934650387,-92.39191135714391,-25.972393,6.301903,0.36005834,25.15777,-0.8521988,-5.6909842,-1.9171804,-1.1602542,-7.979824,31.656952,-17.992908,6.1649384,-1.2930664,-0.28444156,3.1794264,16.211784,20.081623,-11.225353,37.45042,26.861948,4.861335,14.156501,7.3614817,-19.842129,20.13634,45.307205,-33.303207,4.162346,-23.282612
111,3.8674123287200928,51.255672454833984,77.7322006225586,-2.736916566209445,3.056147635605108,-92.47485920763407,-26.46569,6.421706,0.35221195,24.537514,-0.30647656,-5.946055,-2.063262,-0.9987372,-8.176389,30.429495,-18.503717,5.894949,-0.9865353,-0.06416644,3.3135488,16.755442,19.849531,-11.346846,37.602673,27.066923,4.913271,14.105414,6.484822,-20.06865,20.265612,45.499836,-33.292118,4.1432023,-23.286966
112,3.797288656234741,51.811492919921875,77.69243621826172,-2.756925227761541,3.332865626780616,-92.55737186067712,-26.93431,6.5315323,0.3650232,23.8679,0.14326008,-6.152497,-2.2666304,-0.8471502,-8.371181,29.284407,-18.923712,5.651991,-0.68481386,0.15336479,3.4483123,17.288841,19.606457,-11.465774,37.78149,27.307985,4.959343,14.058822,5.6228776,-20.300993,20.375486,45.66977,-33.305775,4.1385,-23.28258
113,3.7297520637512207,52.373226165771484,77.65615844726562,-2.766158503727833,3.6237409079546072,-92.64137897724372,-27.39664,6.629836,0.38965297,23.16536,0.46245006,-6.2886653,-2.5510156,-0.71627873,-8.582157,28.250343,-19.242926,5.4351416,-0.3863882,0.36760578,3.5837245,17.808165,19.351435,-11.583886,37.9917,27.582216,4.9948545,14.021612,4.7677855,-20.540842,20.463457,45.821033,-33.365154,4.156136,-23.262741
114,3.6653711795806885,52.942623138427734,77.628662109375,-2.7754678889497613,3.92341696047826,-92.72812931278172,-27.84246,6.729874,0.42044812,22.416393,0.68887097,-6.3837414,-2.9179764,-0.6012583,-8.815017,27.329388,-19.4893,5.196137,-0.08979233,0.59060925,3.723428,18.31611,19.083998,-11.705517,38.231304,27.896559,5.024644,13.990036,3.9134321,-20.788841,20.5347,45.963726,-33.45789,4.1899815,-23.231363
115,3.609029531478882,53.50675582885742,77.60892486572266,-2.783456583557512,4.215916959598691,-92.81289546969539,-28.234426,6.833643,0.4818648,21.590008,0.87203354,-6.466017,-3.3183634,-0.4922695,-9.023663,26.469742,-19.66992,4.9632754,0.2002978,0.81937855,3.865764,18.820396,18.804901,-11.823549,38.49108,28.252827,5.0557747,13.955639,3.082586,-21.045805,20.594336,46.080215,-33.54491,4.226214,-23.199823
116,3.55082106590271,54.074317932128906,77.59300994873047,-2.788189371987911,4.484868443075033,-92.89105268897269,-28.532825,6.943477,0.598706,20.650963,1.0640872,-6.56401,-3.6999078,-0.37677777,-9.162597,25.614275,-19.789242,4.7660184,0.47911823,1.0504942,4.0093164,19.330643,18.515673,-11.929603,38.760696,28.65273,5.094778,13.909865,2.2974513,-21.313099,20.647491,46.15379,-33.586628,4.250937,-23.179419
117,3.495060682296753,54.64249801635742,77.58256530761719,-2.7796723313128466,4.734962911239641,-92.96339488989972,-28.721863,7.046581,0.7730999,19.551798,1.2817521,-6.6931033,-4.0716276,-0.2595016,-9.204832,24.764732,-19.846497,4.6177177,0.7487097,1.2755404,4.1511364,19.847979,18.214495,-12.02186,39.0452,29.115643,5.1458845,13.850981,1.5569028,-21.592367,20.692421,46.181667,-33.557426,4.2555814,-23.175121
118,3.4453585147857666,55.20358657836914,77.57215118408203,-2.7648714691971934,4.969983834174908,-93.03323061601333,-28.8203,7.1509356,0.9929959,18.319023,1.4985595,-6.836057,-4.449451,-0.14084783,-9.179181,23.941635,-19.837822,4.500269,1.0114598,1.5028486,4.2947025,20.369844,17.900173,-12.103735,39.345768,29.63456,5.204329,13.78288,0.8514243,-21.884039,20.72907,46.17199,-33.482464,4.2489476,-23.17966
119,3.3971619606018066,55.763572692871094,77.56002807617188,-2.766148693332299,5.173098982396099,-93.09931518579037,-28.840876,7.286185,1.2632926,17.030096,1.7022982,-6.9724603,-4.7955456,-0.0014997461,-9.124846,23.123543,-19.767506,4.3972616,1.2621337,1.751209,4.4479995,20.900278,17.577322,-12.174892,39.645805,30.170792,5.2634244,13.70582,0.18963063,-22.187414,20.765009,46.12416,-33.40004,4.2435765,-23.186234
120,3.351227283477783,56.318931579589844,77.55378723144531,-2.8026941446275004,5.328965790075027,-93.15920642762269,-28.802525,7.47763,1.5895977,15.771073,1.8765963,-7.0818686,-5.0744987,0.17539153,-9.082196,22.290007,-19.638557,4.2935176,1.4949344,2.035637,4.61807,21.443935,17.253696,-12.235122,39.926147,30.68418,5.316286,13.61973,-0.42036211,-22.49997,20.80725,46.037678,-33.346863,4.251975,-23.188318
121,3.304196834564209,56.86627197265625,77.54712677001953,-2.877805381592165,5.431475562822431,-93.21534427814194,-28.681755,7.7152414,1.9274126,14.486766,2.0355587,-7.1681294,-5.27356,0.39801538,-9.047965,21.425396,-19.454561,4.1943073,1.7152824,2.3592784,4.8112407,22.007067,16.932688,-12.281427,40.178703,31.190512,5.364069,13.517166,-0.97736394,-22.822184,20.854834,45.90236,-33.341602,4.2849684,-23.182396
122,3.2613556385040283,57.40897750854492,77.54544067382812,-2.9803045205311873,5.489668462467192,-93.26802715939728,-28.477642,7.9889045,2.2913225,13.157075,2.1822724,-7.239347,-5.4139767,0.65679544,-9.005996,20.545881,-19.212738,4.106203,1.9241698,2.7117913,5.0225787,22.587885,16.613926,-12.314825,40.41004,31.70072,5.408751,13.399889,-1.4841311,-23.153963,20.903494,45.72025,-33.36153,4.33327,-23.1723
123,3.21917986869812,57.942562103271484,77.54631805419922,-3.1041278475532255,5.513702721003943,-93.30865230040014,-28.24436,8.314314,2.7770069,11.919959,2.2845,-7.282728,-5.5065837,0.9384648,-8.978575,19.661179,-18.906713,4.017612,2.106771,3.0817697,5.2394753,23.178646,16.300964,-12.3410845,40.624794,32.167336,5.4454074,13.281704,-1.9386122,-23.489346,20.954344,45.51066,-33.382664,4.3792944,-23.163496
124,3.1804821491241455,58.46477127075195,77.55101013183594,-3.2404876571733903,5.5153386071416435,-93.32715409234542,-28.040766,8.701369,3.479715,10.922301,2.3055856,-7.286979,-5.565843,1.2267724,-8.989124,18.784906,-18.532467,3.9171696,2.2473292,3.4529624,5.4475803,23.77232,16.00014,-12.365192,40.827522,32.54244,5.469487,13.176245,-2.3412673,-23.819473,21.007832,45.296867,-33.383022,4.40566,-23.162052
125,3.143490791320801,58.983070373535156,77.56491088867188,-3.399929320314372,5.493267870972909,-93.32329256699052,-27.864534,9.172868,4.4370303,10.118597,2.2300153,-7.212016,-5.5854387,1.5365108,-9.050572,17.9095,-18.07315,3.7963777,2.3425484,3.8303657,5.6504855,24.379389,15.715366,-12.376126,41.007286,32.809498,5.4783897,13.089509,-2.6998916,-24.139078,21.06969,45.08289,-33.35756,4.404459,-23.17161
126,3.10876202583313,59.49528121948242,77.58570098876953,-3.5787431251414725,5.4458390354458075,-93.29888536617692,-27.694586,9.706101,5.595047,9.471482,2.0715263,-7.0804043,-5.5675178,1.866317,-9.150338,17.037832,-17.539482,3.6646824,2.3981342,4.2109747,5.8510213,25.001678,15.44733,-12.373405,41.16358,32.994396,5.4753747,13.013021,-3.016569,-24.446825,21.13765,44.86435,-33.31919,4.386427,-23.189857
127,3.074613094329834,59.99525833129883,77.61508178710938,-3.74676820784364,5.385955863143859,-93.24630381774965,-27.56814,10.25028,6.907574,9.151745,1.8323634,-6.9705863,-5.5392227,2.1754243,-9.274833,16.197937,-16.96788,3.5375917,2.4128938,4.567787,6.0334435,25.616196,15.198311,-12.379558,41.317513,33.111538,5.4648404,12.939095,-3.2774131,-24.737448,21.19708,44.64731,-33.272488,4.3620815,-23.21415
128,3.0294761657714844,60.48760223388672,77.64868927001953,-3.876192884240517,5.326510703299776,-93.158272221624,-27.527658,10.764755,8.325052,9.341045,1.511063,-6.954723,-5.5289125,2.4243457,-9.410976,15.419918,-16.3952,3.4300296,2.3874567,4.8745403,6.181539,26.200327,14.972527,-12.418266,41.490314,33.174915,5.4513125,12.8595915,-3.4682388,-25.003841,21.232033,44.43881,-33.223206,4.341881,-23.241947
129,2.98544979095459,60.9720573425293,77.68782043457031,-3.974096367861913,5.263692263674481,-93.02951089343517,-27.564241,11.302032,10.06616,10.116252,1.121456,-7.109558,-5.5298705,2.6215425,-9.560733,14.699164,-15.808071,3.341871,2.3180463,5.1351724,6.2956476,26.756544,14.774115,-12.492012,41.683064,33.14819,5.435017,12.776541,-3.5903788,-25.242338,21.242825,44.24295,-33.168163,4.322409,-23.273767
130,2.9457108974456787,61.45594024658203,77.7384262084961,-4.054889393107795,5.192213185444803,-92.866585359893,-27.641495,11.882344,12.080169,11.361388,0.66647905,-7.3692317,-5.5298862,2.7878604,-9.729389,14.022634,-15.194351,3.2652357,2.2097368,5.361332,6.3837247,27.295591,14.604514,-12.589745,41.88428,33.035576,5.4141235,12.69242,-3.6498718,-25.452085,21.233797,44.05863,-33.107174,4.3001227,-23.311361
131,2.913443088531494,61.92747497558594,77.79705810546875,-4.105410931986245,5.119773885228727,-92.68189800807531,-27.764887,12.4219675,13.909931,12.959457,0.12985523,-7.593766,-5.5471544,2.9077654,-9.908068,13.409813,-14.593309,3.2024753,2.0774105,5.5427175,6.4425206,27.806526,14.464045,-12.714021,42.09703,32.91298,5.390105,12.600078,-3.643258,-25.6322,21.195398,43.887253,-33.05139,4.285517,-23.354055
132,2.8868062496185303,62.397159576416016,77.86217498779297,-4.114374736294863,5.052227942825914,-92.48922441735135,-27.958048,12.829117,15.095093,14.790272,-0.5036953,-7.6509495,-5.597271,2.967957,-10.086854,12.876567,-14.0423155,3.1557026,1.9383769,5.672337,6.4702163,28.277937,14.352587,-12.869296,42.32419,32.856342,5.3643036,12.492726,-3.565065,-25.781488,21.116507,43.728622,-33.01163,4.288916,-23.401203
133,2.8599905967712402,62.86014938354492,77.92172241210938,-4.074290432006955,4.991349979881035,-92.28836408421603,-28.27994,13.066845,15.46576,16.923988,-1.25306,-7.46899,-5.693752,2.956268,-10.264215,12.447452,-13.5545225,3.1234672,1.7936695,5.7422557,6.462456,28.70336,14.271789,-13.067292,42.579853,32.888958,5.3366575,12.372439,-3.4101503,-25.897242,20.986279,43.58417,-33.001,4.3175406,-23.456226
134,2.8345394134521484,63.306968688964844,77.97944641113281,-4.0080798789462975,4.922914099225439,-92.08343685668932,-28.686226,13.1751175,15.286525,19.340473,-2.0746627,-7.149087,-5.807625,2.9031966,-10.438238,12.091081,-13.10084,3.1019585,1.6410683,5.767321,6.429096,29.10226,14.227777,-13.295028,42.84743,32.96837,5.3059764,12.2398815,-3.1949792,-25.967049,20.819887,43.468143,-33.01222,4.365064,-23.520601
135,2.812739372253418,63.745330810546875,78.03126525878906,-3.9423689027245734,4.835105227906259,-91.88901406834233,-29.06341,13.165131,14.748307,21.796274,-2.900221,-6.816359,-5.8989344,2.8467202,-10.601751,11.746028,-12.658177,3.092472,1.4972587,5.7831054,6.387574,29.475605,14.207868,-13.536851,43.107456,33.07488,5.273471,12.091488,-2.9195013,-26.011189,20.628157,43.365612,-33.020393,4.419824,-23.583733
136,2.798429012298584,64.17701721191406,78.08274841308594,-3.893369812301739,4.723107291487335,-91.71331637376451,-29.313711,13.05903,14.037968,24.082775,-3.6877239,-6.5826225,-5.940833,2.8111744,-10.751764,11.364253,-12.211812,3.0982344,1.3674924,5.8089943,6.348719,29.832407,14.205933,-13.768974,43.332825,33.187347,5.23916,11.92132,-2.5929046,-26.03774,20.43003,43.27248,-33.001442,4.470735,-23.637867
137,2.7887048721313477,64.59738159179688,78.12348175048828,-3.856149630630761,4.588026892362846,-91.54772135963641,-29.450228,12.820345,13.054782,26.206888,-4.4513636,-6.4790916,-5.929257,2.7885025,-10.895064,10.940634,-11.759892,3.1218984,1.2710474,5.8497586,6.3111663,30.144802,14.231891,-14.030673,43.53955,33.305332,5.203866,11.721567,-2.163938,-26.064383,20.174221,43.146454,-32.95391,4.514655,-23.677462
138,2.7788584232330322,65.01343536376953,78.16130065917969,-3.8175732992865257,4.436613380441394,-91.38686076169475,-29.5213,12.43747,11.754008,28.27978,-5.2184677,-6.4448595,-5.8875294,2.7599022,-11.033329,10.508954,-11.315086,3.1628335,1.157995,5.8813224,6.2658486,30.450762,14.274061,-14.2782955,43.7145,33.446636,5.1624737,11.491727,-1.6924728,-26.068588,19.925222,43.038048,-32.875896,4.5606003,-23.71372
139,2.7711098194122314,65.42302703857422,78.195556640625,-3.7792328549687695,4.275515824641218,-91.24169821377465,-29.504179,11.998265,10.3954935,30.293007,-5.985866,-6.440378,-5.8332295,2.7301161,-11.157486,10.080549,-10.881629,3.220113,1.0631751,5.903072,6.2139316,30.733927,14.33576,-14.513417,43.859077,33.58678,5.12092,11.255781,-1.1723542,-26.056528,19.668375,42.937073,-32.784378,4.604146,-23.741158
140,2.770186185836792,65.8270034790039,78.22541809082031,-3.7439876320056973,4.110172199469013,-91.12381332765936,-29.378233,11.600868,9.2338295,32.231827,-6.746794,-6.4221735,-5.783047,2.7062588,-11.258269,9.666952,-10.464321,3.292272,0.97360307,5.9166155,6.157242,31.010912,14.389855,-14.689825,43.96201,33.715084,5.081388,11.034609,-0.65138537,-26.035004,19.461353,42.86933,-32.6776,4.644351,-23.758987
141,2.7691004276275635,66.2236099243164,78.24824523925781,-3.7055077144895865,3.943071566406793,-91.03295040569644,-29.143757,11.249591,8.275253,34.093224,-7.4808445,-6.3880887,-5.7309833,2.6840768,-11.333881,9.249225,-10.059387,3.3873498,0.9437666,5.908135,6.0962257,31.255774,14.480722,-14.848853,44.018543,33.82832,5.049183,10.823715,-0.068935595,-25.998476,19.232147,42.791576,-32.55759,4.6768303,-23.759209
142,2.7718911170959473,66.61740112304688,78.27013397216797,-3.663407880238908,3.7716866279964836,-90.96303980897957,-28.814186,10.913597,7.398268,35.891968,-8.202132,-6.3515205,-5.6721783,2.6606634,-11.389541,8.827637,-9.665173,3.50367,0.92112875,5.8844843,6.0290647,31.492111,14.574989,-14.960734,44.029816,33.944626,5.0190983,10.614297,0.5342117,-25.952545,19.037418,42.73258,-32.408035,4.7062817,-23.747814
143,2.775360345840454,67.00784301757812,78.28421783447266,-3.6289346106541385,3.5943849135100607,-90.91801365777664,-28.393532,10.643973,6.6613517,37.636826,-8.953667,-6.289692,-5.6243505,2.645506,-11.425622,8.44293,-9.289386,3.6246753,0.8975828,5.8660855,5.955649,31.713768,14.651701,-15.028216,44.018215,34.03443,4.988062,10.424699,1.1443195,-25.905815,18.88386,42.703323,-32.26518,4.7332673,-23.730543
144,2.783494710922241,67.39456939697266,78.29222106933594,-3.613656861455228,3.4095494182446093,-90.90204395441224,-27.8847,10.49149,6.1227317,39.331985,-9.776784,-6.180001,-5.6083617,2.647513,-11.442376,8.14225,-8.943687,3.7335002,0.8955928,5.8554964,5.8763747,31.925886,14.74535,-15.07207,43.974644,34.05235,4.9509306,10.264775,1.7703825,-25.84103,18.741648,42.706535,-32.174953,4.7564335,-23.714598
145,2.796765089035034,67.77288818359375,78.2919921875,-3.6200744425386038,3.2157685378833087,-90.92416469778313,-27.278236,10.50172,5.846149,40.98917,-10.703542,-6.0137587,-5.625503,2.6705256,-11.434326,7.9305487,-8.633147,3.8335092,0.9029817,5.861356,5.789377,32.138863,14.835117,-15.075289,43.894054,33.9821,4.904024,10.13595,2.3920135,-25.766354,18.64443,42.76027,-32.143227,4.770481,-23.704575
146,2.8126614093780518,68.14610290527344,78.2835464477539,-3.642490041068201,3.0140811234906795,-90.979505977242,-26.576786,10.648505,5.7768507,42.6014,-11.70643,-5.8001356,-5.6682563,2.7083433,-11.403142,7.7904253,-8.353828,3.930898,0.9174412,5.880379,5.6950874,32.342747,14.912937,-15.038375,43.78589,33.848988,4.851692,10.034004,3.0164595,-25.687971,18.588531,42.854397,-32.15008,4.777424,-23.69518
147,2.8387577533721924,68.51554870605469,78.26959228515625,-3.6797675890182644,2.8064922333186595,-91.05117703531947,-25.801905,10.869429,5.797112,44.14587,-12.736798,-5.5448055,-5.740272,2.7563453,-11.360199,7.727768,-8.100479,4.012773,0.9267662,5.908707,5.5959816,32.529545,14.981728,-14.96735,43.669308,33.68632,4.800037,9.963039,3.642966,-25.602112,18.559628,42.981285,-32.181473,4.7905865,-23.681768
148,2.8658902645111084,68.87916564941406,78.25275421142578,-3.7311256025952866,2.5950990461700143,-91.12231166960395,-24.977453,11.098292,5.791718,45.60182,-13.746151,-5.254436,-5.8447185,2.8096564,-11.316824,7.745982,-7.8662825,4.0664053,0.9157657,5.9429646,5.493924,32.69192,15.041349,-14.866014,43.564846,33.528664,4.7548604,9.9277,4.2678294,-25.504406,18.547302,43.135506,-32.223442,4.8235316,-23.65992
149,2.9019930362701416,69.23532104492188,78.23056030273438,-3.797705049680349,2.37778808027155,-91.196450857784,-24.098043,11.344732,5.775295,46.977825,-14.753329,-4.9007983,-5.9915957,2.8671434,-11.268662,7.870524,-7.6582956,4.092168,0.88385886,5.987965,5.389514,32.831917,15.084443,-14.730508,43.474186,33.375923,4.7172947,9.938991,4.8906856,-25.403433,18.56467,43.315254,-32.273666,4.885989,-23.618284
150,2.940079689025879,69.5898208618164,78.20516204833984,-3.8789422807053775,2.1542978141402704,-91.27987983199495,-23.15503,11.634449,5.793068,48.280865,-15.775376,-4.4916706,-6.174254,2.931178,-11.212266,8.0867605,-7.474782,4.0961175,0.8366708,6.040825,5.2807527,32.95391,15.114561,-14.557626,43.3873,33.21362,4.6841583,9.9914665,5.506556,-25.292212,18.615234,43.53223,-32.340954,4.969036,-23.563854
151,2.9805891513824463,69.94591522216797,78.17599487304688,-3.972067421042115,1.9298466266832086,-91.35952774078943,-22.168707,11.921715,5.779625,49.488934,-16.759209,-4.087439,-6.376207,3.0017247,-11.161317,8.348841,-7.301652,4.0742326,0.7674908,6.1002297,5.168533,33.041737,15.131132,-14.360388,43.319237,33.055477,4.655601,10.066688,6.126089,-25.172045,18.66947,43.77135,-32.420715,5.0570226,-23.514269
152,3.0234856605529785,70.29918670654297,78.13926696777344,-4.07413947354876,1.7097113552367098,-91.42206484405709,-21.160955,12.1603155,5.672055,50.582108,-17.650948,-3.7476916,-6.5823154,3.0772872,-11.129385,8.615279,-7.1276565,4.0223193,0.67067426,6.160905,5.0530386,33.08143,15.138794,-14.151121,43.28276,32.914207,4.631767,10.145971,6.7557178,-25.037422,18.697144,44.024002,-32.510765,5.134493,-23.488508
153,3.0667672157287598,70.65372467041016,78.10224151611328,-4.184427930784352,1.4954589269648637,-91.46848590598566,-20.133759,12.343647,5.463383,51.56499,-18.456835,-3.4813216,-6.801236,3.1563358,-11.116192,8.900127,-6.9601126,3.9331224,0.54889333,6.2209635,4.93172,33.07398,15.140667,-13.925389,43.278057,32.782986,4.607103,10.231269,7.3955493,-24.884047,18.694847,44.295288,-32.625458,5.19526,-23.491962
154,3.118427038192749,71.00179290771484,78.05976867675781,-4.304084762921544,1.2844843224000848,-91.5041249435902,-19.078268,12.492828,5.1882715,52.447533,-19.198082,-3.2587383,-7.0371127,3.2391956,-11.116234,9.216758,-6.801114,3.8112273,0.40560278,6.2804465,4.8045616,33.02654,15.1386795,-13.679693,43.297676,32.657516,4.58339,10.329982,8.041011,-24.711502,18.675928,44.590683,-32.762516,5.248338,-23.515
155,3.1644415855407715,71.34806823730469,78.01553344726562,-4.433215072504879,1.076196551925629,-91.52243668987721,-18.003004,12.603617,4.8465886,53.222637,-19.84505,-3.0814693,-7.2682295,3.327619,-11.135574,9.522697,-6.6316495,3.6693769,0.23755962,6.339112,4.676345,32.932262,15.1357975,-13.429629,43.341686,32.553513,4.571706,10.430925,8.697133,-24.518393,18.633299,44.89565,-32.894295,5.3009844,-23.553158
156,3.210512638092041,71.69795989990234,77.97041320800781,-4.572012299559748,0.8699452294404395,-91.51666319259347,-16.91612,12.672146,4.437583,53.881298,-20.36713,-2.951006,-7.4724817,3.423778,-11.180104,9.774567,-6.4323373,3.519862,0.04323103,6.3963537,4.5520535,32.78387,15.136977,-13.192473,43.40994,32.48644,4.583509,10.523318,9.368,-24.304369,18.557768,45.19656,-32.99319,5.360195,-23.601835
157,3.259751319885254,72.04204559326172,77.92367553710938,-4.727059646384145,0.6627685566791155,-91.48275120466508,-15.8159685,12.695542,3.9410765,54.43505,-20.773777,-2.8663027,-7.6439204,3.5350335,-11.255796,9.9707365,-6.201476,3.352272,-0.17943858,6.4582443,4.4321012,32.57977,15.14621,-12.974876,43.50661,32.46608,4.6299334,10.607289,10.061042,-24.067497,18.447086,45.49009,-33.04766,5.4289584,-23.666687
158,3.312814950942993,72.39258575439453,77.87516784667969,-4.896369598381327,0.45614865314777553,-91.42496266988752,-14.699759,12.676852,3.3661418,54.88685,-21.07624,-2.826746,-7.798584,3.656568,-11.358594,10.140085,-5.9533973,3.1642904,-0.42655826,6.521775,4.3141284,32.324726,15.164916,-12.768962,43.62785,32.48062,4.702158,10.687091,10.773417,-23.806421,18.304497,45.782417,-33.073853,5.5028944,-23.747597
159,3.3648602962493896,72.7429428100586,77.82640838623047,-5.068137426833036,0.25642507225408095,-91.34834047547024,-13.57412,12.623677,2.7532728,55.21613,-21.246893,-2.8347793,-7.935128,3.7768147,-11.478953,10.258319,-5.6779246,2.9795635,-0.69047576,6.5754576,4.1987567,32.02031,15.193202,-12.570158,43.76186,32.51328,4.7814474,10.757321,11.497031,-23.52233,18.128359,46.070747,-33.08611,5.5777874,-23.831669
160,3.420912742614746,73.09609985351562,77.77909851074219,-5.230955329442175,0.06996056396761322,-91.25800711278859,-12.446914,12.543016,2.141976,55.403095,-21.25918,-2.8926873,-8.068034,3.8804684,-11.607832,10.335368,-5.3840213,2.8220847,-0.96378094,6.6083736,4.086609,31.667667,15.23041,-12.3742,43.897423,32.547604,4.8489075,10.813087,12.226532,-23.217356,17.916414,46.349007,-33.098587,5.649272,-23.90568
161,3.4753620624542236,73.4557876586914,77.73372650146484,-5.381546494325895,-0.10495322979732603,-91.14960416816751,-11.322006,12.419439,1.5070449,55.480858,-21.016724,-2.9876804,-8.19396,3.9651337,-11.746205,10.370617,-5.069821,2.6942878,-1.2528496,6.6193385,3.9779809,31.265144,15.275766,-12.181386,44.037888,32.58843,4.9012394,10.84646,12.963977,-22.890919,17.658537,46.615673,-33.11514,5.716734,-23.962059
162,3.538731098175049,73.8141098022461,77.6917953491211,-5.52892676795458,-0.2703199389319905,-91.0221970105144,-10.194974,12.254898,0.8367525,55.45043,-20.56528,-3.1238122,-8.304853,4.0395794,-11.897412,10.354465,-4.729229,2.5843844,-1.5589681,6.61459,3.8723726,30.812344,15.329416,-11.993952,44.187386,32.64141,4.9478126,10.862404,13.711309,-22.541655,17.359884,46.872406,-33.127693,5.782168,-24.008945
163,3.6017343997955322,74.17713165283203,77.64828491210938,-5.670211397154748,-0.42022357909153274,-90.88624109463798,-9.063564,12.082536,0.18993469,55.243187,-20.090105,-3.3266973,-8.417062,4.1023483,-12.056356,10.300661,-4.3735275,2.4950752,-1.8673764,6.5934377,3.7690523,30.31275,15.391714,-11.810588,44.33557,32.691776,4.989302,10.875079,14.46261,-22.173174,17.039959,47.11879,-33.132755,5.8451147,-24.056211
164,3.667004108428955,74.55149841308594,77.60202026367188,-5.80365815702805,-0.5487882283310362,-90.75215067620003,-7.9271903,11.93608,-0.37447217,54.791016,-19.777006,-3.620018,-8.540899,4.154214,-12.217839,10.210937,-4.007726,2.428848,-2.1639287,6.5562563,3.6674685,29.769781,15.462263,-11.629878,44.472168,32.724136,5.0259333,10.89887,15.214087,-21.791756,16.718477,47.351665,-33.126076,5.9050765,-24.113083
165,3.737440347671509,74.92532348632812,77.55390167236328,-5.932716406680615,-0.6576896219484418,-90.61949561760085,-6.761319,11.818817,-0.8527235,54.088287,-19.649527,-4.0376477,-8.662224,4.2000923,-12.385945,10.061612,-3.6235356,2.389102,-2.4480193,6.5070853,3.5683737,29.181793,15.540424,-11.455905,44.598248,32.73696,5.056516,10.935173,15.973761,-21.401129,16.386162,47.563488,-33.09582,5.961923,-24.18741
166,3.812868595123291,75.31710052490234,77.50585174560547,-6.058785710477365,-0.7487749097228383,-90.48361007153976,-5.576353,11.714829,-1.2731478,53.167404,-19.616566,-4.555907,-8.785404,4.238007,-12.56196,9.868324,-3.225845,2.3732753,-2.7270613,6.446515,3.4720168,28.547485,15.625245,-11.288768,44.71813,32.737144,5.081015,10.976959,16.744541,-21.000687,16.037548,47.75254,-33.04658,6.0153537,-24.271235
167,3.894106388092041,75.69932556152344,77.4636001586914,-6.1721794209546506,-0.8164315664646099,-90.3481219646958,-4.425065,11.627874,-1.6230155,52.014847,-19.689201,-5.1144404,-8.926073,4.2618923,-12.734993,9.645318,-2.8147223,2.3751636,-2.9994733,6.3667393,3.3771193,27.870619,15.716008,-11.119416,44.825726,32.72381,5.1019,11.025987,17.508738,-20.593288,15.698571,47.929626,-32.997997,6.0654426,-24.351479
168,3.976804494857788,76.0997314453125,77.41728973388672,-6.268485142515432,-0.8549340620114312,-90.21678479109973,-3.3609273,11.56037,-1.8883952,50.618427,-19.879364,-5.650645,-9.104214,4.2649493,-12.894415,9.415107,-2.3940203,2.3883746,-3.2657607,6.261487,3.282294,27.156729,15.810485,-10.937024,44.914417,32.695904,5.1213093,11.083582,18.250256,-20.181936,15.39795,48.104336,-32.968266,6.112251,-24.414701
169,4.062129020690918,76.50225067138672,77.37212371826172,-6.353873519513928,-0.8618695132414866,-90.09156566828887,-2.3598292,11.518354,-2.059549,48.838436,-20.211515,-6.2095823,-9.328074,4.253206,-13.036729,9.1864,-1.9607581,2.4082847,-3.5246093,6.1366606,3.1838639,26.404066,15.904678,-10.73782,44.98469,32.654896,5.1404457,11.155015,18.970655,-19.768284,15.135377,48.280666,-32.969505,6.1645246,-24.462214
170,4.154523849487305,76.91426849365234,77.3248519897461,-6.426691545333092,-0.840458040724932,-89.96993346422798,-1.4016169,11.492927,-2.1395507,46.71611,-20.664389,-6.8100915,-9.584463,4.228949,-13.167818,8.942721,-1.5120145,2.4388096,-3.7796574,5.9946733,3.083426,25.61163,15.9972,-10.525451,45.040386,32.601948,5.1580124,11.2383375,19.676725,-19.352455,14.901288,48.452652,-32.988525,6.2195415,-24.49942
171,4.2421555519104,77.33735656738281,77.27678680419922,-6.475105924696384,-0.7940620730274258,-89.84897628511335,-0.54702556,11.462375,-2.1366625,44.513184,-21.184305,-7.3508787,-9.864385,4.1770997,-13.291059,8.677021,-1.0572981,2.487055,-4.037147,5.8211293,2.987576,24.784328,16.092001,-10.301283,45.079308,32.536453,5.1725087,11.324567,20.35501,-18.938545,14.709108,48.61871,-33.007187,6.2599106,-24.519062
172,4.33068323135376,77.76610565185547,77.23512268066406,-6.486655918235775,-0.7262306643026699,-89.72590476646876,0.14049785,11.407221,-2.0648475,42.49817,-21.72412,-7.7251997,-10.1564665,4.0830255,-13.409206,8.37709,-0.60281664,2.5604618,-4.303692,5.60225,2.9025552,23.93014,16.19492,-10.066573,45.096615,32.456394,5.181856,11.403964,20.995197,-18.531126,14.573649,48.77513,-33.005722,6.2678337,-24.513218
173,4.420083522796631,78.20703887939453,77.20205688476562,-6.456617257578538,-0.6328163820760915,-89.60682960752911,0.641546,11.332493,-1.9169708,40.68308,-22.337574,-7.880752,-10.471804,3.9446785,-13.514323,8.051029,-0.1416189,2.6623502,-4.576063,5.3344674,2.8220966,23.049513,16.307774,-9.818848,45.08863,32.35908,5.1880107,11.469849,21.598396,-18.134481,14.506518,48.92091,-32.958702,6.2319965,-24.482597
174,4.513731002807617,78.65672302246094,77.1719741821289,-6.392256252047279,-0.514326078797339,-89.49058150740665,0.9928877,11.240579,-1.6921957,38.942757,-23.030073,-7.8828645,-10.8071375,3.7693503,-13.606289,7.6911793,0.3305863,2.7888842,-4.853122,5.024553,2.7449772,22.14165,16.429424,-9.558148,45.055508,32.245384,5.190643,11.527913,22.171566,-17.749802,14.49772,49.055622,-32.88193,6.1636286,-24.429256
175,4.600311756134033,79.11451721191406,77.1436767578125,-6.295180906989958,-0.38019487132050483,-89.36397363386442,1.2044574,11.115246,-1.4210529,37.36116,-23.692585,-7.79218,-11.139852,3.5571635,-13.7009735,7.28521,0.7974483,2.936888,-5.1427135,4.6761627,2.6841567,21.211298,16.562061,-9.291198,44.999386,32.11823,5.1843376,11.586328,22.71396,-17.375303,14.527791,49.177002,-32.81808,6.0791707,-24.348694
176,4.683192253112793,79.58274841308594,77.12049865722656,-6.164352720903245,-0.24043401476944906,-89.21352225555641,1.2847749,10.94303,-1.134509,36.023987,-24.216513,-7.664245,-11.436334,3.3089583,-13.813479,6.795765,1.2503663,3.103529,-5.4505877,4.289566,2.6525905,20.2625,16.710335,-9.0267105,44.921772,31.979914,5.163703,11.652684,23.223656,-17.007978,14.574737,49.283115,-32.810642,5.994954,-24.236313
177,4.761504650115967,80.06600189208984,77.10405731201172,-5.991706524293434,-0.09377735757672807,-89.03081755330045,1.2076279,10.727924,-0.80006325,34.986176,-24.577467,-7.469249,-11.912842,2.956772,-13.960179,6.6922035,1.4557376,3.2937355,-5.7833996,3.8521926,2.6551425,19.291386,16.87739,-8.763045,44.81499,31.828482,5.123372,11.729969,23.700623,-16.643946,14.642153,49.36951,-32.85498,5.9130254,-24.082655
178,4.840127944946289,80.55657196044922,77.0985107421875,-5.779891981861534,0.06271615778103076,-88.82422940400946,0.97257394,10.48073,-0.41845757,34.19969,-24.836319,-7.186027,-12.429342,2.542101,-14.121361,6.6551,1.5895381,3.506885,-6.1339064,3.3658123,2.6824164,18.29726,17.063597,-8.499612,44.680283,31.662485,5.067348,11.813033,24.146193,-16.281544,14.7370405,49.44047,-32.933903,5.825232,-23.893385
179,4.919370174407959,81.05233764648438,77.09855651855469,-5.546923218418621,0.22254380581514713,-88.60613098603179,0.6258969,10.201294,-0.06956948,33.594788,-25.009111,-6.8822627,-12.94555,2.0967665,-14.287761,6.617197,1.6515106,3.7378652,-6.4850807,2.8521972,2.7270098,17.285475,17.270176,-8.249492,44.534462,31.484978,5.003997,11.897458,24.559065,-15.923697,14.838708,49.506355,-33.07344,5.7324,-23.687647
180,4.990428924560547,81.5560302734375,77.10294342041016,-5.306981125482376,0.3790090460633901,-88.38852708911408,0.21684119,9.887564,0.16786225,33.098843,-25.110775,-6.6266866,-13.453347,1.6452376,-14.453137,6.5783453,1.6071854,3.9824727,-6.8206306,2.3351998,2.7824416,16.261608,17.497353,-8.026845,44.39486,31.297558,4.9415646,11.978018,24.94446,-15.572407,14.927834,49.57269,-33.29772,5.6344185,-23.483168
181,5.063327789306641,82.06390380859375,77.1124038696289,-5.057768913322924,0.5361094959438159,-88.16257602420703,-0.273616,9.522564,0.26004186,32.7315,-25.125683,-6.436134,-13.95847,1.1775005,-14.626121,6.5392427,1.4623566,4.2656903,-7.1475215,1.8063973,2.8491411,15.213998,17.74693,-7.8347816,44.268044,31.08598,4.8779283,12.056327,25.305616,-15.22642,14.991552,49.63918,-33.631435,5.5174284,-23.277903
182,5.131664752960205,82.57368469238281,77.12327575683594,-4.791287677063359,0.6943288808146554,-87.92530522087362,-0.860544,9.113405,0.25604331,32.51958,-25.052284,-6.2771764,-14.460792,0.68670577,-14.806676,6.495571,1.234405,4.5829463,-7.4693074,1.2572067,2.9301796,14.140976,18.018396,-7.6700816,44.146317,30.85287,4.8099623,12.133411,25.64274,-14.883634,15.041159,49.70128,-34.05526,5.3848124,-23.064814
183,5.194804668426514,83.09437561035156,77.1328125,-4.524234277953264,0.842644788740522,-87.69760676541227,-1.4848907,8.691531,0.20145154,32.395237,-24.924881,-6.1428227,-14.951554,0.20015371,-14.9772005,6.460147,0.8919686,4.8860517,-7.7632585,0.70981216,3.0250375,13.062027,18.307375,-7.5369973,44.025208,30.626307,4.744469,12.204709,25.95162,-14.550209,15.089029,49.759525,-34.529537,5.2633896,-22.854797
184,5.255784511566162,83.60646057128906,77.14740753173828,-4.27434000759309,0.9707327529679345,-87.50111830160894,-2.0894072,8.288996,0.14002018,32.293312,-24.779697,-6.0244303,-15.414322,-0.25263146,-15.121329,6.427692,0.41332623,5.1261077,-8.00881,0.18934332,3.134362,11.997638,18.606525,-7.4373183,43.899952,30.435097,4.688558,12.266186,26.22924,-14.236859,15.149043,49.81179,-35.013622,5.180111,-22.657396
185,5.319970607757568,84.12076568603516,77.15681457519531,-4.053593689765067,1.078767271943373,-87.33047150751477,-2.6814158,7.913857,0.05063475,32.226414,-24.6242,-5.9320335,-15.849386,-0.65655035,-15.226241,6.399112,-0.24505612,5.2857394,-8.2085705,-0.2881277,3.2651837,10.941716,18.911568,-7.3756504,43.77481,30.297775,4.6472054,12.320253,26.484604,-13.949654,15.221398,49.850647,-35.535297,5.1507964,-22.469376
186,5.387650966644287,84.63626861572266,77.16661071777344,-3.851528931436953,1.1726810889280483,-87.17849700347291,-3.2876618,7.549487,-0.07846861,32.228004,-24.445597,-5.869616,-16.264606,-1.0286914,-15.306146,6.3758407,-1.0578022,5.3925743,-8.373839,-0.73440844,3.4160557,9.887292,19.22024,-7.3471274,43.651093,30.196394,4.615767,12.368555,26.718071,-13.68944,15.3011465,49.87517,-36.10181,5.1574373,-22.28564
187,5.4504075050354,85.12767028808594,77.1719970703125,-3.660373661567371,1.2533123921928013,-87.06069674648855,-3.9021125,7.2046556,-0.19978961,32.31033,-24.276861,-5.822145,-16.677155,-1.3836259,-15.392682,6.402429,-1.9808611,5.4614687,-8.501086,-1.1553134,3.5746047,8.854404,19.52602,-7.3384547,43.520893,30.105085,4.586992,12.407027,26.911678,-13.461987,15.393394,49.89571,-36.641823,5.177096,-22.112228
188,5.515145301818848,85.6202392578125,77.18522644042969,-3.464911168276169,1.3144597192849148,-86.99933538699723,-4.4613423,6.8682003,-0.24757938,32.35764,-24.072187,-5.7585516,-17.063549,-1.7388744,-15.504325,6.4402785,-2.9192894,5.5166035,-8.58286,-1.5664068,3.7342594,7.8692746,19.823183,-7.330447,43.37,29.999886,4.5535364,12.430223,27.053875,-13.27499,15.507688,49.91347,-37.082626,5.188048,-21.955366
189,5.582770824432373,86.11624908447266,77.20227813720703,-3.2387839098045803,1.3546833605890494,-86.9947239743682,-4.9560065,6.506685,-0.20545399,32.357624,-23.818733,-5.668397,-17.43631,-2.1208696,-15.586687,6.482152,-3.9286585,5.52993,-8.621068,-1.9907262,3.8929403,6.933309,20.109335,-7.320139,43.1896,29.875666,4.5175843,12.425041,27.14657,-13.136534,15.6483,49.925426,-37.407333,5.1902113,-21.81279
190,5.655307292938232,86.60379028320312,77.22164916992188,-2.9954798247405345,1.3760530338808148,-87.03883317556831,-5.4049845,6.129835,-0.103111275,32.3368,-23.52346,-5.5644684,-17.792957,-2.5142539,-15.645768,6.528279,-5.0215335,5.5023966,-8.62154,-2.4128768,4.0569534,6.0401015,20.383892,-7.3100734,42.985073,29.746397,4.481742,12.398139,27.19808,-13.048472,15.813009,49.925323,-37.651512,5.1936975,-21.681202
191,5.734844207763672,87.08385467529297,77.24541473388672,-2.7626953475322584,1.3812293819720123,-87.13721121436798,-5.8099394,5.7767687,0.05243737,32.29053,-23.203623,-5.452343,-18.098764,-2.8917084,-15.78911,6.570941,-6.048259,5.502195,-8.585183,-2.808363,4.226447,5.20227,20.64544,-7.2908063,42.765526,29.617365,4.4396973,12.374777,27.202875,-13.008929,15.998193,49.914112,-37.822353,5.1925354,-21.565908
192,5.823441028594971,87.56815338134766,77.27120208740234,-2.567289279188109,1.3731096199315636,-87.2954238072988,-6.1740217,5.486157,0.25378105,32.217705,-22.878878,-5.3374224,-18.318428,-3.2277024,-16.12654,6.6022105,-6.858024,5.5993633,-8.511111,-3.1476047,4.39988,4.4229097,20.877882,-7.2550144,42.551983,29.500343,4.3868847,12.384267,27.153692,-13.01558,16.195417,49.897484,-37.929672,5.1819797,-21.474646
193,5.919171333312988,88.04342651367188,77.30240631103516,-2.391747792522286,1.3449930689830027,-87.51692026084567,-6.478763,5.235921,0.5121135,32.103104,-22.54785,-5.209535,-18.45111,-3.5576627,-16.750328,6.619796,-7.441459,5.9024343,-8.397984,-3.4632106,4.58576,3.7181888,21.117205,-7.19999,42.324585,29.378756,4.3086,12.4274025,27.047083,-13.067726,16.423216,49.874046,-37.94433,5.152515,-21.410824
194,6.0057692527771,88.52046203613281,77.3437728881836,-2.2276786048263064,1.2988147358912092,-87.7984035194078,-6.7293634,5.012658,0.8278432,31.954718,-22.204733,-5.0679855,-18.51304,-3.8834054,-17.58314,6.6306605,-7.8634195,6.345434,-8.244211,-3.7508745,4.7799454,3.0688877,21.338703,-7.13176,42.096134,29.262243,4.214335,12.496644,26.885157,-13.164845,16.672718,49.847874,-37.875206,5.1115723,-21.372633
195,6.084996700286865,89.00044250488281,77.39251708984375,-2.114639238787992,1.2507641741163915,-88.13520177146593,-6.966312,4.8672876,1.1766385,31.809555,-21.863466,-4.9332066,-18.492132,-4.128732,-18.478544,6.6329103,-8.086516,6.7297826,-8.061526,-3.9734683,4.9674683,2.4905694,21.54446,-7.0400214,41.85725,29.154196,4.1222386,12.578778,26.67162,-13.302288,16.930538,49.811005,-37.77274,5.0705547,-21.346699
196,6.168996810913086,89.47923278808594,77.4471664428711,-2.0941154526644326,1.2163104543618055,-88.52235079614434,-7.2290993,4.8532543,1.5327275,31.702715,-21.536913,-4.826032,-18.375622,-4.217052,-19.288328,6.624486,-8.084768,6.852844,-7.8574195,-4.091976,5.1323013,1.9900856,21.730972,-6.9199724,41.60694,29.061626,4.0519643,12.663511,26.40788,-13.466469,17.178453,49.763466,-37.690823,5.042446,-21.322407
197,6.2478203773498535,89.95720672607422,77.52142333984375,-2.2142787715583467,1.2051073469774904,-88.98816696257705,-7.542709,5.0356045,1.8985218,31.665436,-21.23948,-4.7555513,-18.153093,-4.0838885,-20.074587,6.6059585,-7.7752614,6.5660696,-7.609216,-4.0638213,5.27425,1.5749719,21.906834,-6.75734,41.332905,28.99634,4.0118923,12.74965,26.078661,-13.660559,17.426924,49.70861,-37.627422,5.025847,-21.292349
198,6.331683158874512,90.43506622314453,77.60753631591797,-2.445960287132753,1.2054995408642035,-89.52645148723937,-7.8764124,5.374666,2.2814677,31.660568,-20.95326,-4.708875,-17.840733,-3.776301,-20.880045,6.589785,-7.2113323,6.0007725,-7.323591,-3.9170172,5.400486,1.2449347,22.07539,-6.554317,41.03394,28.949165,3.9898407,12.840824,25.688623,-13.889863,17.685934,49.64253,-37.557426,5.0148277,-21.262608
199,6.413242816925049,90.90766143798828,77.70460510253906,-2.7180337638683967,1.200199385821091,-90.07908695974336,-8.189266,5.7700233,2.6609292,31.629217,-20.645681,-4.675081,-17.458885,-3.3800957,-21.530481,6.5730896,-6.560101,5.3808694,-7.046766,-3.7197404,5.508294,0.9936499,22.232214,-6.3370667,40.72648,28.893764,3.974213,12.932367,25.266624,-14.139176,17.93006,49.557793,-37.503773,5.015876,-21.244242
200,6.485954761505127,91.3729476928711,77.79281616210938,-2.9607634159646734,1.1810443750307122,-90.58438427906142,-8.487981,6.131961,3.007455,31.60775,-20.340467,-4.652245,-17.063799,-2.9906693,-21.856667,6.62662,-6.0260634,4.932543,-6.8356237,-3.5388575,5.5906453,0.82532734,22.38181,-6.1256833,40.41584,28.796568,3.951364,13.017292,24.840769,-14.398581,18.14223,49.443897,-37.48461,5.0327425,-21.245277
201,6.552795886993408,91.82318878173828,77.87380981445312,-3.1598228663374317,1.1431355446656353,-91.04442351002643,-8.756649,6.4445677,3.3323357,31.575598,-20.023886,-4.6402025,-16.647963,-2.605014,-21.771984,6.73134,-5.617966,4.7527432,-6.694632,-3.3937626,5.644006,0.7531511,22.528906,-5.913571,40.095276,28.64457,3.9217305,13.095794,24.40001,-14.663411,18.32682,49.313423,-37.529865,5.0764465,-21.270414
202,6.612700462341309,92.26386260986328,77.95635986328125,-3.340272381731759,1.0915261802829985,-91.48597722103949,-8.991934,6.7402916,3.6498864,31.513012,-19.684343,-4.637464,-16.17649,-2.1798916,-21.379759,6.8337126,-5.222125,4.7277503,-6.5948195,-3.2626264,5.672685,0.77121687,22.675743,-5.6952705,39.762875,28.45488,3.8908978,13.1697235,23.934433,-14.932157,18.490938,49.169758,-37.622635,5.1418257,-21.315323
203,6.670037746429443,92.69586944580078,78.0391845703125,-3.5159262880016513,1.035522415216467,-91.89112879069985,-9.214096,7.026004,3.9351172,31.429602,-19.328947,-4.640478,-15.660269,-1.7307813,-20.801477,6.938011,-4.8425117,4.7643814,-6.532069,-3.127097,5.6829176,0.8478201,22.8216,-5.498118,39.43891,28.241209,3.8535745,13.235431,23.473835,-15.199132,18.614874,48.991024,-37.713028,5.2099757,-21.375717
204,6.724990367889404,93.12378692626953,78.12449645996094,-3.696886392965,0.9834405506782394,-92.24123328900436,-9.440176,7.304607,4.1634345,31.330595,-18.962208,-4.6450276,-15.10896,-1.2825966,-20.154701,7.049758,-4.484433,4.7617593,-6.4990344,-2.9719307,5.680836,0.9464596,22.964663,-5.3548765,39.147182,28.017538,3.805133,13.2906275,23.04858,-15.456311,18.674105,48.75725,-37.753105,5.2622013,-21.44796
205,6.77025842666626,93.53878784179688,78.20822143554688,-3.8759400916482263,0.932189215854511,-92.52520018417816,-9.662455,7.5624566,4.326932,31.203386,-18.5771,-4.648596,-14.553044,-0.8608897,-19.403324,7.2487173,-4.2051425,4.6845183,-6.5033855,-2.8049817,5.664584,1.0670061,23.1057,-5.27585,38.89598,27.765577,3.736507,13.337223,22.664055,-15.697555,18.65151,48.46642,-37.737637,5.287052,-21.53953
206,6.8121418952941895,93.94878387451172,78.2882308959961,-4.034404716020961,0.875506145408904,-92.75049933839482,-9.866889,7.782528,4.4426956,31.03896,-18.168337,-4.6507707,-15.017027,-0.82727826,-18.486597,9.843479,-5.2079415,4.6089144,-6.5446134,-2.6492486,5.6337066,1.2181839,23.24704,-5.250004,38.677776,27.485212,3.653647,13.376136,22.304735,-15.922043,18.55796,48.13312,-37.692833,5.2975674,-21.651289
207,6.850449562072754,94.36080169677734,78.36790466308594,-4.163115166908821,0.8158142650489799,-92.92525606538062,-10.057517,7.9557953,4.5253577,30.841923,-17.741138,-4.648753,-15.342191,-0.765046,-17.53362,12.217647,-6.093477,4.5583453,-6.60573,-2.5152013,5.5954957,1.3836622,23.388117,-5.2744904,38.4895,27.218464,3.57381,13.403079,21.973948,-16.12845,18.414349,47.759766,-37.615856,5.311034,-21.769623
208,6.884020805358887,94.76595306396484,78.44293975830078,-4.261279452338095,0.7575088985694025,-93.06020261783122,-10.244988,8.085022,4.587317,30.625341,-17.305193,-4.6420093,-15.560498,-0.70920444,-16.644392,14.437194,-6.8719172,4.5673695,-6.6665983,-2.4043412,5.5564337,1.5433058,23.52699,-5.348516,38.331062,27.007858,3.5145593,13.414537,21.672384,-16.317015,18.239046,47.350227,-37.504833,5.344966,-21.881214
209,6.909555435180664,95.16439819335938,78.51602935791016,-4.330066738145571,0.7003285661713851,-93.14929250735598,-10.430835,8.169708,4.624808,30.391394,-16.86044,-4.6288004,-15.681664,-0.6762019,-15.803436,16.535927,-7.5423975,4.6688156,-6.7310753,-2.313047,5.518337,1.6935296,23.663607,-5.4832273,38.2073,26.857239,3.4810195,13.410009,21.404829,-16.487173,18.021603,46.892246,-37.347687,5.41297,-21.983055
210,6.935387134552002,95.56047821044922,78.58212280273438,-4.372974532454349,0.6431422709706561,-93.19078238367712,-10.611508,8.213142,4.633497,30.136028,-16.404436,-4.610897,-15.723482,-0.66622835,-14.968666,18.55883,-8.149253,4.832297,-6.8057017,-2.2380602,5.4769473,1.8436137,23.798615,-5.6760516,38.117725,26.746626,3.4638345,13.39175,21.16939,-16.63808,17.756851,46.38927,-37.14921,5.502626,-22.0824
211,6.953709602355957,95.95992279052734,78.64242553710938,-4.397154479223874,0.5900162301371137,-93.20327623363949,-10.7917,8.228895,4.623777,29.862782,-15.941128,-4.5941296,-15.703551,-0.68273866,-14.199742,20.525951,-8.739827,4.9918694,-6.874312,-2.1766086,5.4292474,1.9950511,23.929893,-5.9027104,38.05178,26.683662,3.459115,13.36076,20.954216,-16.77212,17.471489,45.869026,-36.93285,5.5924864,-22.180977
212,6.967844009399414,96.36133575439453,78.69951629638672,-4.408612541634042,0.5449872181717551,-93.2048281022789,-10.976409,8.22913,4.6061153,29.577597,-15.476318,-4.583957,-15.635216,-0.7310117,-13.554908,22.447332,-9.355644,5.0805073,-6.9240866,-2.1262696,5.37239,2.153136,24.05384,-6.1349463,37.996628,26.677053,3.462482,13.317252,20.747715,-16.89365,17.196148,45.357903,-36.72087,5.661138,-22.280148
213,6.97558069229126,96.75860595703125,78.75360870361328,-4.4149381283969396,0.5097202903931725,-93.19524761396502,-11.165607,8.22143,4.575243,29.27547,-15.010546,-4.586688,-15.523428,-0.8209921,-13.05391,24.345129,-10.015508,5.0598917,-6.9583263,-2.0776224,5.3054523,2.3216712,24.168026,-6.368238,37.952595,26.760067,3.4762664,13.254281,20.554789,-17.004871,16.927305,44.847466,-36.51229,5.706126,-22.387087
214,6.978466987609863,97.154296875,78.7990951538086,-4.414494969525401,0.48267356281475354,-93.16765441895912,-11.359797,8.20262,4.5271635,28.959156,-14.543037,-4.598621,-15.3611,-0.95551527,-12.660049,26.209211,-10.694933,4.965036,-6.9835596,-2.029235,5.229828,2.4999611,24.272072,-6.612819,37.92369,26.919233,3.5012271,13.174174,20.378613,-17.10666,16.65493,44.32724,-36.29648,5.737646,-22.4981
215,6.973417282104492,97.54512786865234,78.84083557128906,-4.400796483547207,0.46305974918912657,-93.13018120468396,-11.561704,8.168897,4.474614,28.639763,-14.073997,-4.6105933,-15.149236,-1.1292936,-12.3476925,28.009575,-11.36672,4.8390083,-6.9922724,-1.9900016,5.146704,2.6887422,24.36524,-6.8615446,37.899616,27.092772,3.530874,13.090613,20.204384,-17.202595,16.399828,43.81982,-36.08071,5.7534494,-22.598557
216,6.969255447387695,97.9441146850586,78.8747787475586,-4.3684887398026895,0.4502350442002172,-93.09140749719079,-11.774302,8.117351,4.4304857,28.327215,-13.603081,-4.613364,-14.892188,-1.335163,-12.092865,29.724285,-12.008279,4.7258596,-6.979132,-1.9683046,5.0574903,2.890988,24.447058,-7.1038938,37.868225,27.21932,3.558832,13.017236,20.015675,-17.298805,16.185076,43.34759,-35.871464,5.751382,-22.67318
217,6.956569671630859,98.34447479248047,78.90323638916016,-4.3140412451610075,0.44418984895063746,-93.05169868714519,-11.994984,8.04486,4.4002824,28.020218,-13.129482,-4.6028285,-14.586331,-1.5924841,-11.918174,31.364695,-12.627464,4.6291814,-6.94356,-1.9659251,4.96152,3.1089096,24.515984,-7.341238,37.82535,27.284061,3.5863743,12.95407,19.816568,-17.398981,16.014418,42.90653,-35.661705,5.723726,-22.714872
218,6.938262462615967,98.74159240722656,78.9275131225586,-4.244578944074753,0.44584146041675476,-93.00794343228941,-12.225504,7.9573874,4.3760743,27.717197,-12.65472,-4.5850782,-14.235028,-1.9037145,-11.824683,32.946068,-13.236876,4.5240865,-6.8894544,-1.974168,4.858567,3.3424976,24.57125,-7.574962,37.77616,27.31955,3.6159134,12.894987,19.61377,-17.503977,15.877772,42.48505,-35.44938,5.6739297,-22.731628
219,6.9185709953308105,99.1451416015625,78.95035552978516,-4.169195911888613,0.4563200169002084,-92.96395583324997,-12.47566,7.8665633,4.35036,27.430403,-12.182145,-4.566358,-13.850287,-2.2298958,-11.758951,34.44364,-13.817336,4.4139357,-6.8195815,-1.9845139,4.7507095,3.5942798,24.612764,-7.7942066,37.72023,27.335175,3.642322,12.843903,19.396915,-17.614162,15.779845,42.092464,-35.247787,5.616308,-22.731531
220,6.896196365356445,99.54793548583984,78.96451568603516,-4.098007471803634,0.4767876953567958,-92.923601084896,-12.752365,7.7841673,4.315806,27.16481,-11.715559,-4.5531554,-13.446909,-2.5288208,-11.668895,35.83709,-14.350865,4.3034887,-6.7377872,-1.9887263,4.6401243,3.86663,24.641167,-7.986182,37.657448,27.33986,3.6604757,12.804417,19.154036,-17.72993,15.72694,41.73972,-35.069633,5.565097,-22.722813
221,6.868346691131592,99.95893096923828,78.97246551513672,-4.034337590043085,0.5092111108400443,-92.8899316335517,-13.058474,7.7136507,4.2707424,26.922619,-11.25547,-4.546056,-13.028503,-2.795462,-11.550617,37.130665,-14.836856,4.1969457,-6.6431456,-1.9835007,4.523211,4.163469,24.65661,-8.148714,37.58402,27.332382,3.6665359,12.776515,18.880598,-17.852024,15.727278,41.43179,-34.9176,5.525314,-22.707191
222,6.835575580596924,100.37150573730469,78.97571563720703,-3.9728104916022233,0.5529135365800659,-92.86080037581914,-13.390794,7.6508336,4.21845,26.701485,-10.801147,-4.542415,-12.590967,-3.0488064,-11.429423,38.338924,-15.286958,4.0904694,-6.5351086,-1.9718878,4.4001546,4.4835663,24.658548,-8.286865,37.500397,27.308962,3.663879,12.758455,18.58257,-17.980316,15.77699,41.162262,-34.7845,5.4889455,-22.6805
223,6.796623706817627,100.78668212890625,78.97588348388672,-3.9143601593938024,0.6049500252497303,-92.83225280360688,-13.750263,7.59538,4.1587157,26.506874,-10.352724,-4.543773,-12.13753,-3.2808192,-11.297576,39.45433,-15.699157,3.9783652,-6.4165506,-1.9560683,4.2785406,4.8227377,24.647036,-8.39961,37.411373,27.275736,3.6584198,12.750731,18.26243,-18.114641,15.862504,40.925278,-34.66857,5.450815,-22.642054
224,6.751851558685303,101.21388244628906,78.96347045898438,-3.859374567613901,0.662338742213228,-92.80035859920385,-14.139215,7.546866,4.0911455,26.34842,-9.912631,-4.551549,-11.67112,-3.4828877,-11.14752,40.46932,-16.071585,3.855025,-6.290668,-1.9380765,4.166162,5.176247,24.62234,-8.486053,37.321934,27.238226,3.6561005,12.754068,17.923079,-18.254353,15.970095,40.71443,-34.568424,5.4057364,-22.591396
225,6.701577663421631,101.64241790771484,78.94861602783203,-3.803339183129229,0.7253334130507735,-92.76427007737995,-14.555315,7.5034995,4.0178437,26.220598,-9.476975,-4.567097,-11.191226,-3.655063,-10.972897,41.386024,-16.425283,3.7228432,-6.1560917,-1.921314,4.0637097,5.544173,24.583433,-8.539274,37.229977,27.204184,3.655792,12.769762,17.563179,-18.399527,16.101742,40.532562,-34.487396,5.3469033,-22.522764
226,6.652457237243652,102.07536315917969,78.92691802978516,-3.7509677784944424,0.7952462125262868,-92.72625134214626,-15.003669,7.467209,3.9368718,26.131735,-9.05204,-4.5895543,-10.699527,-3.799558,-10.780188,42.21259,-16.756588,3.583696,-6.0120068,-1.9021109,3.967555,5.9284587,24.529549,-8.562397,37.134125,27.16827,3.655212,12.797134,17.182213,-18.54948,16.26328,40.380875,-34.424686,5.2788,-22.438025
227,6.593015193939209,102.51493835449219,78.89696502685547,-3.7046244393168766,0.8710279813851834,-92.68696234299759,-15.482533,7.441617,3.844808,26.079718,-8.636724,-4.6167693,-10.200765,-3.912002,-10.579826,42.947075,-17.024206,3.431373,-5.859695,-1.874524,3.8788114,6.326419,24.462694,-8.570118,37.040936,27.117764,3.6586888,12.8339405,16.782549,-18.704126,16.443947,40.252834,-34.374214,5.2134075,-22.349121
228,6.529214859008789,102.96501159667969,78.85943603515625,-3.6688814555249225,0.9516237685964425,-92.64699492370792,-15.99631,7.4304504,3.737046,26.074728,-8.236719,-4.646579,-9.700483,-3.988616,-10.382389,43.589363,-17.188526,3.2594614,-5.6994658,-1.8329504,3.7984128,6.7341857,24.38633,-8.579424,36.958,27.038792,3.6706698,12.878126,16.367996,-18.863333,16.631498,40.140766,-34.330105,5.162511,-22.267582
229,6.459832191467285,103.41353607177734,78.81865692138672,-3.647330854747746,1.0346172705265937,-92.60885233461042,-16.548666,7.438313,3.6103468,26.1304,-7.8576,-4.6794715,-9.195153,-4.0258675,-10.190145,44.14087,-17.25873,3.0541873,-5.524989,-1.7752247,3.7285638,7.1479683,24.30203,-8.591302,36.88721,26.927244,3.6958005,12.930256,15.941423,-19.025642,16.82828,40.04543,-34.29781,5.1345425,-22.192783
230,6.386910438537598,103.87034606933594,78.76699829101562,-3.636894515992548,1.1213776303134146,-92.571574573429,-17.1368,7.4615364,3.4674275,26.23835,-7.495209,-4.7160573,-8.685025,-4.0274143,-9.997404,44.603886,-17.250732,2.822831,-5.3367205,-1.705507,3.667922,7.569772,24.209824,-8.599675,36.824825,26.789486,3.7305045,12.990897,15.500214,-19.190475,17.037653,39.970146,-34.278584,5.121174,-22.119858
231,6.310366153717041,104.33353424072266,78.70821380615234,-3.632250744463078,1.216347616250035,-92.53069456125426,-17.756418,7.490983,3.3126664,26.376835,-7.1417465,-4.7541785,-8.180424,-3.9992733,-9.803557,44.97883,-17.132915,2.5902474,-5.1456766,-1.6260922,3.612395,8.005679,24.110552,-8.610805,36.768475,26.627333,3.766804,13.058172,15.043812,-19.357409,17.25016,39.908096,-34.25962,5.1092076,-22.053316
232,6.231081962585449,104.80569458007812,78.64173126220703,-3.627968044352755,1.3240217617905068,-92.48151295708121,-18.40216,7.5180287,3.150766,26.521868,-6.7881722,-4.7916417,-7.691192,-3.9473236,-9.608222,45.265324,-16.873459,2.3815057,-4.9615464,-1.5396725,3.557909,8.460852,24.005402,-8.632326,36.71633,26.441858,3.7967665,13.129935,14.572392,-19.526436,17.454573,39.852646,-34.228382,5.0851016,-21.997805
233,6.1462531089782715,105.28668212890625,78.56903076171875,-3.635256470155964,1.4468295165291458,-92.42065074407536,-19.086056,7.5523114,2.9730124,26.688986,-6.4430146,-4.826967,-7.234978,-3.8584282,-9.409381,45.50576,-16.344198,2.147994,-4.789733,-1.4340783,3.504318,8.936811,23.89484,-8.66688,36.66818,26.217722,3.8186011,13.216618,14.084379,-19.69721,17.653309,39.803074,-34.17491,5.0406814,-21.955431
234,6.057934761047363,105.76653289794922,78.48990631103516,-3.6530050606699214,1.5819607961696462,-92.35126517454,-19.807425,7.5939183,2.7799587,26.885147,-6.1085477,-4.8611894,-6.802273,-3.734737,-9.209426,45.687614,-15.602161,1.8953539,-4.623069,-1.3126353,3.4534101,9.430185,23.77912,-8.711059,36.62522,25.959118,3.8363185,13.315559,13.5800295,-19.86993,17.849571,39.762833,-34.108406,4.9846387,-21.923248
235,5.96850061416626,106.24868774414062,78.40229797363281,-3.656588361821582,1.7260673620950082,-92.27927427420238,-20.537,7.6193447,2.5916393,27.065193,-5.762609,-4.8959312,-6.362624,-3.6044054,-9.011221,45.7293,-14.893946,1.7296463,-4.4530225,-1.1992923,3.4041195,9.938612,23.658075,-8.764514,36.58729,25.696136,3.850513,13.405511,13.066796,-20.042562,18.034819,39.727406,-34.04379,4.928499,-21.89827
236,5.873986721038818,106.73493194580078,78.30735778808594,-3.621651978323397,1.875798075784194,-92.21057214698243,-21.251472,7.6062083,2.4281576,27.197325,-5.385927,-4.9329004,-5.8858385,-3.4943073,-8.81406,45.54996,-14.468068,1.7559814,-4.2696476,-1.119721,3.3551772,10.45745,23.532555,-8.828178,36.556667,25.459185,3.8624866,13.465435,12.549637,-20.214256,18.198444,39.695007,-33.9976,4.8841968,-21.877863
237,5.777829647064209,107.23792266845703,78.20097351074219,-3.537422027126244,2.028885136766161,-92.14727971540748,-21.944992,7.5445685,2.295377,27.27679,-4.974171,-4.9753246,-5.3467736,-3.4149103,-8.614995,45.137947,-14.41596,2.0353312,-4.069432,-1.0852762,3.307114,10.988398,23.403843,-8.904921,36.530273,25.24163,3.874035,13.488413,12.032671,-20.382822,18.337517,39.661358,-33.982178,4.8580284,-21.859724
238,5.6729888916015625,107.74671936035156,78.08901977539062,-3.4182853471842,2.187552757349552,-92.08626370630712,-22.630104,7.4480705,2.1839898,27.321342,-4.537949,-5.021126,-4.7668047,-3.352083,-8.415211,44.53133,-14.595968,2.499258,-3.8565645,-1.0825591,3.2602172,11.531839,23.273008,-8.995029,36.509445,25.032047,3.8845088,13.486224,11.510445,-20.548851,18.456308,39.631527,-33.987152,4.8428187,-21.846262
239,5.56812858581543,108.24812316894531,77.97502899169922,-3.2764473790653668,2.355139836681647,-92.02499218565032,-23.305988,7.32974,2.0923135,27.32062,-4.078034,-5.0644803,-4.1851907,-3.2966435,-8.219611,43.72608,-14.909414,3.0589445,-3.6339502,-1.0964812,3.2138636,12.082787,23.138134,-9.09419,36.499996,24.852615,3.890852,13.465059,10.98255,-20.711792,18.557882,39.609715,-33.992912,4.829304,-21.840921
240,5.459381103515625,108.75318145751953,77.85842895507812,-3.12437986948884,2.5348299336544406,-91.96077981342057,-23.97021,7.2025237,2.018453,27.26102,-3.593997,-5.0997324,-3.639995,-3.2371726,-8.031426,42.71498,-15.2562,3.6257732,-3.4047108,-1.112044,3.1667244,12.635114,22.996048,-9.198638,36.50971,24.72602,3.8902242,13.431382,10.446821,-20.871994,18.644873,39.601597,-33.979755,4.8086047,-21.847372
241,5.352217674255371,109.26805877685547,77.7378921508789,-2.9472474019421777,2.730645512070654,-91.89272592196903,-24.62564,7.0520744,1.974721,27.141273,-3.081831,-5.113721,-3.1182702,-3.1778932,-7.8340926,41.430733,-15.618507,4.2442493,-3.168704,-1.1427323,3.1120217,13.1886425,22.845423,-9.311084,36.541542,24.661224,3.8707185,13.375515,9.903021,-21.029575,18.715761,39.608025,-33.94131,4.7755604,-21.870874
242,5.242968559265137,109.7809066772461,77.6189193725586,-2.743267771363286,2.939512567282053,-91.82215207447464,-25.26958,6.877138,1.9598559,26.963177,-2.5410192,-5.113167,-2.6023564,-3.1251886,-7.6347876,39.887608,-16.040213,4.9378676,-2.9246414,-1.191519,3.0524695,13.744484,22.686571,-9.433465,36.59343,24.645813,3.8377442,13.298092,9.351823,-21.185411,18.769636,39.627148,-33.888653,4.736091,-21.908285
