unveil-humanoid-operators/unveil-humanoid-operators.github.io/feature-analysis-animation/data/feature_matrix_instances/height_ankle_rom_jogging_A036_jog_forward_loop_002__A036.csv
Frame,root_translateX,root_translateY,root_translateZ,root_rotateX,root_rotateY,root_rotateZ,left_hip_pitch_joint_dof,left_hip_roll_joint_dof,left_hip_yaw_joint_dof,left_knee_joint_dof,left_ankle_pitch_joint_dof,left_ankle_roll_joint_dof,right_hip_pitch_joint_dof,right_hip_roll_joint_dof,right_hip_yaw_joint_dof,right_knee_joint_dof,right_ankle_pitch_joint_dof,right_ankle_roll_joint_dof,waist_yaw_joint_dof,waist_roll_joint_dof,waist_pitch_joint_dof,left_shoulder_pitch_joint_dof,left_shoulder_roll_joint_dof,left_shoulder_yaw_joint_dof,left_elbow_joint_dof,left_wrist_roll_joint_dof,left_wrist_pitch_joint_dof,left_wrist_yaw_joint_dof,right_shoulder_pitch_joint_dof,right_shoulder_roll_joint_dof,right_shoulder_yaw_joint_dof,right_elbow_joint_dof,right_wrist_roll_joint_dof,right_wrist_pitch_joint_dof,right_wrist_yaw_joint_dof
0,0.22020505368709564,-2.0232994556427,76.01171875,0.1991025507005744,2.016439928950374,95.55363286643538,-1.4218076,6.5599265,11.329622,12.883659,-14.184836,-7.6048927,0.9947182,-4.209357,-11.002955,9.672482,-13.496425,5.452648,-3.6068478,0.64817435,4.7504015,-10.172869,17.83517,-37.263805,69.015884,2.0040483,-0.8091587,0.33499154,3.8446374,-14.886805,24.26209,55.36225,-6.243537,-2.3736324,-2.7221808
1,0.22236350178718567,-2.0234084129333496,76.00875854492188,0.1998345716396353,2.024763156048094,95.56418112335359,-1.4191025,6.561312,11.334461,12.86107,-14.204965,-7.6154046,0.9767838,-4.2099366,-11.006102,9.695762,-13.518534,5.453395,-3.6058803,0.65259516,4.7429004,-10.150616,17.83732,-37.244038,68.97201,2.0299182,-0.80958444,0.23420429,3.8667338,-14.889876,24.248827,55.339855,-6.2813535,-2.3559911,-2.688335
2,0.22993862628936768,-2.0272645950317383,76.00755310058594,0.20261834571472537,2.0309524070967115,95.57635665432711,-1.4125868,6.56125,11.340451,12.834963,-14.222609,-7.626416,0.96484345,-4.2116475,-11.010865,9.711981,-13.536335,5.4559712,-3.6082287,0.6578479,4.7418694,-10.129227,17.841646,-37.213867,68.93013,2.0661478,-0.82207805,0.13026272,3.8846626,-14.894183,24.228815,55.318058,-6.3272986,-2.337385,-2.649565
3,0.23207105696201324,-2.0294406414031982,76.00531005859375,0.20204518493966978,2.041295230927016,95.58523324011851,-1.4145448,6.5642533,11.343753,12.817895,-14.246251,-7.6361227,0.9425224,-4.210639,-11.01225,9.739061,-13.560787,5.4547157,-3.6113753,0.6651379,4.7373395,-10.10722,17.846083,-37.185303,68.87899,2.0898974,-0.8130216,0.02836088,3.899649,-14.897605,24.210997,55.29873,-6.3715286,-2.3231976,-2.6148908
4,0.2313423901796341,-2.02248477935791,76.0041732788086,0.1969947030921046,2.0623723879236304,95.58582141987276,-1.4377654,6.575341,11.3417015,12.823206,-14.284619,-7.643389,0.8932262,-4.203166,-11.005423,9.794061,-13.60183,5.4443703,-3.618278,0.6797131,4.724678,-10.094432,17.849382,-37.16856,68.816864,2.0688424,-0.75398505,-0.07049349,3.908501,-14.899564,24.199556,55.282692,-6.4089813,-2.3215234,-2.5880685
5,0.23827818036079407,-2.0076558589935303,76.00273895263672,0.1860370630165257,2.0950706232945033,95.57300559766283,-1.4778193,6.5922675,11.332464,12.84253,-14.331855,-7.6453934,0.82040405,-4.1877713,-10.986615,9.868558,-13.654985,5.4197845,-3.6215792,0.7022338,4.7016473,-10.06429,17.850939,-37.140118,68.72273,1.9844469,-0.61070305,-0.1541064,3.917576,-14.900964,24.184278,55.26455,-6.4471974,-2.3375142,-2.5699005
6,0.24248328804969788,-2.01393985748291,75.99481201171875,0.17134955324421033,2.1360085809688307,95.55081929531427,-1.5311222,6.6141877,11.31802,12.8745165,-14.386604,-7.643888,0.72939736,-4.1668262,-10.9593,9.960187,-13.718875,5.3852134,-3.6318974,0.73333305,4.673986,-10.028231,17.851768,-37.102974,68.612564,1.8452536,-0.41009986,-0.2279858,3.917343,-14.903662,24.171196,55.25049,-6.487591,-2.3666701,-2.556796
7,0.24415743350982666,-2.020101547241211,75.98373413085938,0.15192983077524352,2.1856577510896993,95.52780827023804,-1.6115712,6.64566,11.298979,12.941633,-14.465438,-7.642567,0.615987,-4.14031,-10.92931,10.074343,-13.79631,5.3480496,-3.6456308,0.7693662,4.6444774,-10.014171,17.851288,-37.08169,68.490326,1.7319274,-0.20138909,-0.31365314,3.9133337,-14.905202,24.164015,55.234703,-6.5194483,-2.3986893,-2.5496752
8,0.25692087411880493,-2.0245773792266846,75.96981811523438,0.1281650142511884,2.2442776054729117,95.51271834189744,-1.7379255,6.6928377,11.27531,13.076925,-14.590531,-7.645293,0.47844604,-4.107587,-10.902592,10.212956,-13.888538,5.315645,-3.6692042,0.81059664,4.62402,-10.044009,17.851376,-37.072395,68.35041,1.7403661,-0.0347275,-0.43615896,3.8986542,-14.906665,24.159193,55.215687,-6.5451126,-2.4241595,-2.5452263
9,0.26665881276130676,-2.031816244125366,75.95535278320312,0.09187121602427975,2.3201031114148774,95.51529268631212,-1.9397736,6.7666745,11.239305,13.311432,-14.7783,-7.660021,0.30992615,-4.0613713,-10.888203,10.364416,-13.980888,5.297027,-3.71248,0.8649577,4.6059694,-10.112132,17.852087,-37.077858,68.1896,1.9189836,0.07496144,-0.6239044,3.8741403,-14.906947,24.158579,55.188168,-6.562949,-2.4383988,-2.5489562
10,0.27951645851135254,-2.0374553203582764,75.94276428222656,0.04578569803900448,2.4144407859058146,95.52846182503376,-2.2086625,6.8630075,11.192606,13.63045,-15.018151,-7.68272,0.101154916,-4.004474,-10.88031,10.547672,-14.085014,5.2855654,-3.7538726,0.92902476,4.6045246,-10.240425,17.859846,-37.106445,68.01122,2.2084253,0.15657705,-0.8656537,3.8319988,-14.907131,24.1354,55.150898,-6.577095,-2.450017,-2.5574756
11,0.3072062134742737,-2.0864672660827637,75.91938781738281,0.0037202050892668663,2.5027039386398124,95.5354700779183,-2.4730215,6.95794,11.151356,13.963339,-15.275163,-7.698036,-0.11162847,-3.9510422,-10.863603,10.758384,-14.218435,5.2660313,-3.80077,0.9883914,4.608761,-10.392263,17.868767,-37.14793,67.811966,2.5388536,0.21799965,-1.0985645,3.7906263,-14.906149,24.128862,55.116074,-6.5865936,-2.4602382,-2.5621445
12,0.3275570273399353,-2.0899863243103027,75.90257263183594,-0.02112416025284857,2.566675565384128,95.51948814458397,-2.6712775,7.0297704,11.131898,14.245005,-15.516246,-7.6911716,-0.31103155,-3.9159167,-10.821842,11.014925,-14.408864,5.2231874,-3.8194044,1.0245063,4.6368446,-10.588432,17.891088,-37.237324,67.58372,2.818828,0.27342686,-1.2745299,3.7657695,-14.903563,24.118519,55.076504,-6.5988884,-2.4755704,-2.5470574
13,0.3543640375137329,-2.0800368785858154,75.8875732421875,-0.020549219711299235,2.594735825553716,95.46600149238046,-2.7762258,7.0677366,11.144546,14.458878,-15.732102,-7.652293,-0.48988873,-3.9068117,-10.739132,11.333158,-14.6772785,5.151815,-3.8134468,1.0304933,4.692043,-10.811532,17.931496,-37.371525,67.32643,3.042081,0.31845838,-1.388618,3.7493134,-14.900977,24.119747,55.045105,-6.623008,-2.5015252,-2.495726
14,0.37442511320114136,-2.068905830383301,75.87232971191406,-0.00359064479471256,2.599698443596649,95.38725357529947,-2.8239737,7.084657,11.17907,14.636695,-15.938722,-7.591363,-0.6623628,-3.9152837,-10.627095,11.705907,-15.007383,5.060559,-3.7878318,1.0097284,4.7760324,-11.046105,18.015089,-37.539795,67.00476,3.2502494,0.34982935,-1.4700437,3.7423694,-14.896825,24.123028,55.00486,-6.654761,-2.5344036,-2.4172633
15,0.39470428228378296,-2.0549402236938477,75.8567886352539,0.019936716337680276,2.5984482633253982,95.30697335659173,-2.8509583,7.0945544,11.219691,14.796745,-16.147856,-7.5226173,-0.8299119,-3.9288752,-10.512544,12.09251,-15.358986,4.954891,-3.775649,0.9824475,4.8751354,-11.322074,18.107172,-37.710587,66.64715,3.43513,0.3811665,-1.5062451,3.7250705,-14.893942,24.15062,54.97227,-6.6689577,-2.5635905,-2.346595
16,0.4217718839645386,-2.0401272773742676,75.84053039550781,0.041483529521168995,2.6078927360768396,95.24921586476641,-2.8918831,7.11207,11.250627,14.953651,-16.368849,-7.4605284,-0.99698037,-3.9356995,-10.422326,12.4585905,-15.69434,4.8402314,-3.7825065,0.9577056,4.984355,-11.657108,18.211832,-37.87661,66.23739,3.5860643,0.42856446,-1.4900074,3.7021468,-14.890216,24.18955,54.935333,-6.647692,-2.5797896,-2.3130414
17,0.4542969763278961,-2.031148672103882,75.82597351074219,0.056049542472171913,2.634157822644109,95.22231308915694,-2.968704,7.14308,11.265969,15.131324,-16.61349,-7.4043465,-1.1675454,-3.9332829,-10.367739,12.794277,-16.00145,4.713039,-3.8127267,0.93825245,5.101926,-12.075401,18.32331,-38.0632,65.78955,3.6845796,0.5037754,-1.4070885,3.665115,-14.885078,24.249645,54.902714,-6.563323,-2.5729113,-2.3392658
18,0.4876385033130646,-2.0148367881774902,75.81397247314453,0.07070608570525029,2.667757897799798,95.21306827245542,-3.0533295,7.1785054,11.274867,15.303502,-16.87081,-7.3477445,-1.3399949,-3.9273674,-10.332815,13.121145,-16.301367,4.5717573,-3.856159,0.918678,5.230324,-12.566698,18.441523,-38.27799,65.30856,3.734449,0.59605366,-1.2653733,3.6193657,-14.878404,24.326077,54.874043,-6.434607,-2.5508122,-2.4041016
19,0.5297548770904541,-1.9923876523971558,75.80514526367188,0.08740557442274301,2.7018539142429714,95.21231089482403,-3.1229582,7.211715,11.283617,15.448487,-17.12589,-7.2971296,-1.4993687,-3.9199026,-10.304642,13.431285,-16.602844,4.4258885,-3.9102712,0.8974886,5.366071,-13.093809,18.56308,-38.45961,64.77986,3.7760098,0.6863332,-1.0891593,3.5764382,-14.871044,24.401829,54.84071,-6.3095574,-2.5302584,-2.4743316
20,0.5755444765090942,-1.9638787508010864,75.79267120361328,0.1090259354982588,2.729656038606396,95.21109846470408,-3.151943,7.235925,11.298198,15.536731,-17.362465,-7.25868,-1.629904,-3.9118977,-10.27016,13.714062,-16.912962,4.2844405,-3.975152,0.87554,5.50541,-13.633153,18.686176,-38.57202,64.20023,3.8200486,0.75438774,-0.9017981,3.5471358,-14.864817,24.463026,54.794044,-6.234929,-2.5277343,-2.516646
21,0.6324607133865356,-1.9177477359771729,75.7818603515625,0.13590926692570887,2.739707377481531,95.21316077513431,-3.1187525,7.247632,11.316616,15.5499935,-17.576841,-7.24168,-1.7165508,-3.9036586,-10.229718,13.971481,-17.244799,4.1393223,-4.0570393,0.8539267,5.6575127,-14.183794,18.81012,-38.59953,63.579388,3.8729677,0.78666025,-0.71052945,3.5362535,-14.862925,24.509455,54.728065,-6.2542114,-2.5573888,-2.5111647
22,0.6823055148124695,-1.8747111558914185,75.77200317382812,0.16642853944969402,2.7387273670183006,95.22111971705758,-3.0417473,7.2512913,11.337204,15.506844,-17.777557,-7.240695,-1.7708695,-3.8940136,-10.18913,14.206459,-17.58989,3.98887,-4.1546926,0.833885,5.8207483,-14.759872,18.935905,-38.56866,62.918026,3.9211366,0.7971946,-0.50230074,3.5378997,-14.866767,24.549564,54.646904,-6.3298926,-2.6069133,-2.4788811
23,0.7267842888832092,-1.827771782875061,75.76643371582031,0.20047838152612862,2.7476724448911547,95.22520673777811,-2.9545379,7.2509837,11.364783,15.432611,-17.966633,-7.238307,-1.8169262,-3.881916,-10.142713,14.410042,-17.923656,3.8511837,-4.254949,0.8131504,5.975063,-15.340493,19.061361,-38.467613,62.189915,3.9891953,0.8048525,-0.2711104,3.549564,-14.875268,24.576052,54.557087,-6.3932905,-2.6530352,-2.4482217
24,0.766667902469635,-1.7665883302688599,75.76110076904297,0.24051352277215346,2.7873464113183197,95.21531455380905,-2.8893595,7.25022,11.404312,15.350154,-18.14534,-7.2167363,-1.8770276,-3.8662488,-10.085191,14.570626,-18.220663,3.7447305,-4.345243,0.79213375,6.0982933,-15.928973,19.18819,-38.329063,61.3824,4.0533576,0.8320419,-0.009695232,3.5666153,-14.886407,24.584885,54.46871,-6.3735743,-2.672139,-2.4479196
25,0.8301829099655151,-1.6971399784088135,75.7568130493164,0.2896334650020373,2.8678742456156536,95.18293639338575,-2.8566463,7.246459,11.465276,15.264762,-18.316969,-7.1598873,-1.9637504,-3.8503106,-10.006354,14.686105,-18.473787,3.686322,-4.416603,0.7665018,6.177129,-16.519857,19.31487,-38.120567,60.473015,4.1332426,0.92938423,0.2393104,3.5898387,-14.897994,24.575594,54.384014,-6.2214594,-2.650359,-2.5081904
26,0.9016695618629456,-1.6186316013336182,75.75198364257812,0.3462505028593691,2.9765890503156665,95.13540311955767,-2.8414705,7.2396245,11.541758,15.170886,-18.481066,-7.080786,-2.0631955,-3.83375,-9.912382,14.763063,-18.697384,3.6624312,-4.477581,0.7384312,6.224285,-17.118647,19.442236,-37.84777,59.480038,4.222496,1.0706917,0.4869614,3.6198728,-14.90979,24.550978,54.300953,-5.984565,-2.6031213,-2.6068556
27,0.9656096696853638,-1.5345932245254517,75.74734497070312,0.4020776783432518,3.100235574262708,95.08671540159699,-2.8291934,7.235097,11.616715,15.055732,-18.630196,-7.0056634,-2.1575472,-3.810355,-9.822332,14.80177,-18.897804,3.6463258,-4.5387454,0.7130496,6.2589536,-17.711683,19.571371,-37.544167,58.42782,4.3224583,1.1625276,0.81967986,3.6544604,-14.922777,24.505342,54.219654,-5.7407,-2.5508804,-2.6931627
28,1.0183370113372803,-1.452162265777588,75.74498748779297,0.4472379455381076,3.2256807170290127,95.0510921535189,-2.814349,7.2396226,11.671635,14.925825,-18.763966,-6.960288,-2.2286294,-3.7739768,-9.7549,14.801806,-19.080635,3.610942,-4.60964,0.6951011,6.301967,-18.278696,19.701097,-37.232307,57.33387,4.4479184,1.1124811,1.3237506,3.6923177,-14.937029,24.432735,54.137497,-5.566234,-2.5133471,-2.7156441
29,1.0883991718292236,-1.3838750123977661,75.74251556396484,0.4779557539563659,3.3495218820863175,95.03865877574769,-2.790641,7.2547517,11.696826,14.768157,-18.879314,-6.956424,-2.2644067,-3.7218082,-9.724197,14.74947,-19.242296,3.5521061,-4.6952243,0.68708193,6.355773,-18.837996,19.836628,-36.974857,56.239056,4.579275,0.8229171,2.1231859,3.7386937,-14.951642,24.315693,54.054466,-5.491968,-2.4975114,-2.6373277
30,1.1697192192077637,-1.2956056594848633,75.74049377441406,0.5006447914550245,3.478691408973763,95.03965855211845,-2.7679372,7.27757,11.702337,14.595012,-18.983065,-6.9779377,-2.274874,-3.657006,-9.716945,14.644817,-19.3791,3.483061,-4.786747,0.68359345,6.4121876,-19.377928,19.974937,-36.72076,55.10835,4.747708,0.37032673,3.1384273,3.7939231,-14.964845,24.15904,53.969357,-5.47434,-2.4921951,-2.4926028
31,1.2487947940826416,-1.1739758253097534,75.74363708496094,0.5192705760492472,3.6155901120012954,95.03838896863027,-2.7371814,7.304455,11.707481,14.393571,-19.061052,-7.013008,-2.2822533,-3.584245,-9.7118025,14.524536,-19.505377,3.4048812,-4.8766885,0.6841796,6.469034,-19.906752,20.111088,-36.424667,53.906517,4.9235573,-0.08284107,4.153997,3.8478868,-14.979062,23.994633,53.884075,-5.4792333,-2.4893994,-2.338828
32,1.3170385360717773,-1.0519033670425415,75.7439193725586,0.5386546167727952,3.762632746147717,95.0192554140142,-2.7001717,7.333835,11.729533,14.174144,-19.105299,-7.04915,-2.3071873,-3.5081873,-9.687349,14.421382,-19.633434,3.318111,-4.958097,0.6884455,6.5255194,-20.414436,20.235281,-36.015022,52.585583,5.0977883,-0.37462044,4.9527006,3.8903956,-14.998966,23.855759,53.798496,-5.470729,-2.480864,-2.2330341
33,1.3764668703079224,-0.9324800968170166,75.7417221069336,0.5598210130916672,3.919859181111356,94.97844089793749,-2.6462266,7.3628163,11.772019,13.91726,-19.107582,-7.0889983,-2.3580763,-3.4296458,-9.63787,14.354308,-19.777033,3.2124214,-5.0261316,0.7000099,6.5784035,-20.924835,20.344063,-35.459854,51.130905,5.237556,-0.43942004,5.424536,3.9227097,-15.030579,23.74582,53.713047,-5.4488215,-2.4591835,-2.1936598
34,1.4773063659667969,-0.8148024082183838,75.73649597167969,0.5801717259979192,4.08620345131754,94.92426913347313,-2.5790417,7.393574,11.825857,13.626933,-19.074005,-7.1372337,-2.4224496,-3.3458362,-9.574806,14.3012495,-19.925407,3.090765,-5.0873675,0.7205179,6.629072,-21.422352,20.436226,-34.780865,49.56252,5.373503,-0.37158164,5.7014136,3.9516592,-15.075849,23.651327,53.62272,-5.4277315,-2.4301,-2.1885238
35,1.5501458644866943,-0.6842221617698669,75.73417663574219,0.5981173736321987,4.262464222238256,94.85889330254034,-2.5172262,7.4306774,11.890078,13.337949,-19.01899,-7.1843143,-2.491514,-3.2563353,-9.502701,14.237526,-20.056067,2.9736001,-5.1488094,0.75025904,6.678444,-21.89026,20.512066,-34.056774,47.926754,5.5128684,-0.25329953,5.9314117,3.976492,-15.133892,23.579142,53.52576,-5.391583,-2.4048913,-2.1996906
36,1.6369035243988037,-0.5349147319793701,75.72765350341797,0.6146575042581208,4.449276433990391,94.78442036827157,-2.478952,7.4789877,11.963748,13.084442,-18.95623,-7.2206655,-2.5563474,-3.1606293,-9.425591,14.137909,-20.146143,2.881336,-5.2125583,0.7915723,6.723482,-22.363174,20.583828,-33.42789,46.307854,5.595689,-0.16942392,6.265694,3.9971507,-15.203679,23.532413,53.424942,-5.3249645,-2.394737,-2.2105832
37,1.7247333526611328,-0.39236652851104736,75.7259292602539,0.6316644016103709,4.6471638077405695,94.69862489384738,-2.4558988,7.5364156,12.054845,12.848473,-18.868414,-7.2446218,-2.6154513,-3.0594735,-9.340342,13.995814,-20.191597,2.8085337,-5.285665,0.8394259,6.7657957,-22.795483,20.649166,-32.871628,44.66701,5.6770115,-0.13399655,6.766837,4.007606,-15.281888,23.514826,53.32378,-5.2326875,-2.406691,-2.2229552
38,1.8088635206222534,-0.24364881217479706,75.72000885009766,0.6473848939232865,4.855515761022416,94.601144476633,-2.4425976,7.601079,12.161161,12.62034,-18.755083,-7.260903,-2.6740794,-2.953601,-9.246001,13.826124,-20.2046,2.748076,-5.3629255,0.893255,6.805093,-23.198095,20.70639,-32.349907,42.98661,5.748531,-0.10520341,7.3476806,4.0097704,-15.367194,23.521502,53.222645,-5.1215544,-2.433542,-2.244187
39,1.9007463455200195,-0.09245629608631134,75.71160888671875,0.6593312065040119,5.073641570262956,94.49731642718757,-2.4614372,7.6773105,12.266558,12.448103,-18.655905,-7.2691154,-2.7294502,-2.8417647,-9.151524,13.629921,-20.183847,2.7181582,-5.432761,0.9533588,6.84446,-23.599182,20.758883,-31.87616,41.3052,5.770884,-0.07824651,7.93016,4.012029,-15.45802,23.543406,53.112267,-4.980254,-2.4659407,-2.2633398
40,2.0063092708587646,0.059191759675741196,75.69176483154297,0.6652052543285318,5.300603654865414,94.3922472914277,-2.5341306,7.7690744,12.355049,12.377916,-18.609743,-7.268989,-2.7818289,-2.724577,-9.065457,13.414106,-20.13117,2.7369833,-5.4873643,1.0143393,6.8913455,-23.985468,20.8015,-31.421505,39.62886,5.7559323,-0.045931846,8.434399,4.018234,-15.55171,23.573843,52.983017,-4.7977057,-2.494797,-2.2688985
41,2.085691213607788,0.22807784378528595,75.66883087158203,0.6708056487649247,5.538545778618255,94.28421083605006,-2.6450944,7.8646646,12.431165,12.373385,-18.608452,-7.2711067,-2.829043,-2.612595,-8.991269,13.1658535,-20.023445,2.8422096,-5.517656,1.0687563,6.9433055,-24.389105,20.835062,-30.998436,37.962845,5.6536536,0.01113106,8.822928,4.0305724,-15.648934,23.6117,52.829178,-4.546693,-2.5197296,-2.257346
42,2.1775760650634766,0.38947808742523193,75.6423110961914,0.6763009695060763,5.787042286828863,94.1714497587859,-2.7899117,7.9658623,12.500491,12.426726,-18.638,-7.271898,-2.8725562,-2.5035307,-8.923878,12.888141,-19.869188,3.0134144,-5.5295157,1.120131,6.998136,-24.803497,20.860897,-30.612106,36.29977,5.479291,0.08301396,9.144112,4.04623,-15.749982,23.659826,52.65719,-4.24087,-2.5448751,-2.2348077
43,2.2835936546325684,0.5577275156974792,75.61492156982422,0.6663589536580095,6.041476471977384,94.05890310234986,-3.0065336,8.097077,12.5482235,12.624744,-18.726826,-7.249728,-2.9153028,-2.376588,-8.857856,12.60422,-19.712063,3.1804943,-5.539673,1.1822047,7.0616894,-25.172073,20.87044,-30.236778,34.643436,5.3274307,0.13117899,9.448269,4.0623965,-15.850044,23.718632,52.477222,-3.9327633,-2.5676906,-2.2053616
44,2.3864004611968994,0.7326135635375977,75.58631134033203,0.62825029234833,6.297204478871847,93.95142962750037,-3.330119,8.283103,12.55924,13.048099,-18.900007,-7.182991,-2.9568198,-2.209006,-8.790587,12.331488,-19.592777,3.2743075,-5.5575867,1.2734258,7.133498,-25.489824,20.861433,-29.893322,33.041557,5.240983,0.11454043,9.787591,4.078515,-15.944042,23.783195,52.30578,-3.6747298,-2.5855496,-2.1749985
45,2.4875738620758057,0.9075437784194946,75.55366516113281,0.5561423527517603,6.560222457196007,93.84647867442922,-3.7838345,8.529035,12.518911,13.724652,-19.16113,-7.0481143,-3.0131814,-1.9926223,-8.716184,12.088594,-19.528248,3.2676666,-5.571881,1.4028093,7.20251,-25.823488,20.850468,-29.641298,31.550903,5.164747,0.0057537556,10.178615,4.0994124,-16.029331,23.840534,52.153236,-3.486209,-2.5958939,-2.1432114
46,2.5853004455566406,1.0978249311447144,75.51536560058594,0.456259982538696,6.83072117290089,93.74268227135927,-4.3420167,8.823802,12.436224,14.602394,-19.493675,-6.8632364,-3.0758204,-1.7357488,-8.639462,11.855228,-19.491322,3.2000375,-5.5791535,1.5550551,7.271797,-26.157972,20.840858,-29.46216,30.132135,5.092948,-0.1669243,10.593868,4.117071,-16.09267,23.892899,52.020912,-3.3418767,-2.601811,-2.1091876
47,2.6862080097198486,1.2955533266067505,75.46453094482422,0.3261405816401044,7.095905831203521,93.6467907911729,-4.970938,9.1697235,12.3300905,15.649083,-19.89613,-6.668929,-3.112721,-1.440887,-8.572599,11.60141,-19.461935,3.1017518,-5.6088057,1.733605,7.361664,-26.401522,20.811907,-29.274689,28.717867,5.097802,-0.3658148,11.017018,4.1284437,-16.156971,23.968147,51.88498,-3.2155292,-2.6064048,-2.0757248
48,2.79606294631958,1.4970849752426147,75.4078598022461,0.166673368346846,7.342691856008259,93.56537254433148,-5.6337023,9.568504,12.220396,16.82545,-20.368042,-6.5052323,-3.0926626,-1.1112531,-8.52591,11.297433,-19.419647,3.002738,-5.6318893,1.9412152,7.4610524,-26.649605,20.784943,-29.171722,27.389744,5.07269,-0.56079096,11.443474,4.1508007,-16.207047,24.041471,51.757748,-3.0946593,-2.6151223,-2.0524642
49,2.897122383117676,1.7103893756866455,75.34091186523438,-0.038097962581266166,7.565047101160374,93.50364244505586,-6.3193374,10.040435,12.110242,18.124834,-20.934643,-6.405221,-2.985565,-0.72682005,-8.507682,10.89801,-19.343758,2.9104664,-5.682559,2.1927347,7.5918665,-26.807476,20.733406,-29.065094,26.073404,5.139251,-0.719407,11.893253,4.181461,-16.262552,24.136045,51.615902,-2.979092,-2.6239595,-2.026527
50,2.9944205284118652,1.9286093711853027,75.26569366455078,-0.2822864398224839,7.770921024320204,93.45631465331536,-7.044102,10.577939,11.987643,19.555359,-21.584158,-6.339054,-2.8116646,-0.29147017,-8.508626,10.424137,-19.246351,2.8091516,-5.743858,2.4841473,7.7423005,-26.923557,20.660978,-28.99405,24.807507,5.255033,-0.8675951,12.3660755,4.2219944,-16.315123,24.237812,51.470257,-2.8780289,-2.6323886,-1.9997693
51,3.08137583732605,2.1542584896087646,75.1806640625,-0.5360475048479025,7.968172810680551,93.41435364046863,-7.8261156,11.142466,11.84839,21.135761,-22.266563,-6.251496,-2.6180232,0.15278937,-8.514874,9.951261,-19.159632,2.6949172,-5.8043942,2.78624,7.904563,-26.996904,20.56091,-28.956964,23.596657,5.367145,-1.0500351,12.809109,4.2659516,-16.369162,24.35116,51.31985,-2.7708342,-2.647193,-1.9921768
52,3.173689842224121,2.3994815349578857,75.09624481201172,-0.7710553058223949,8.164210017877803,93.36886962870805,-8.682207,11.696929,11.68789,22.883142,-22.930777,-6.0887246,-2.454327,0.56599534,-8.514193,9.560542,-19.118282,2.5631013,-5.853407,3.0666437,8.072391,-27.01946,20.441769,-28.95578,22.432804,5.418002,-1.3118174,13.170049,4.2970824,-16.420534,24.481077,51.174152,-2.638866,-2.6763072,-2.0241535
53,3.261352777481079,2.648611545562744,75.01091766357422,-0.9974436695185719,8.359781066081839,93.31025936367641,-9.583181,12.254334,11.508882,24.750124,-23.581158,-5.8871565,-2.3074348,0.963539,-8.498889,9.220753,-19.110735,2.3972409,-5.888101,3.3347416,8.243512,-26.979897,20.3044,-28.981478,21.306574,5.349604,-1.7059168,13.425412,4.3143125,-16.469614,24.64998,51.029583,-2.4787486,-2.7151074,-2.1113524
54,3.344505548477173,2.90655255317688,74.91854858398438,-1.2259667967485683,8.551026519583175,93.24548950891186,-10.524128,12.824777,11.312182,26.730701,-24.23332,-5.66076,-2.158616,1.3600961,-8.476898,8.904109,-19.124344,2.2043793,-5.916334,3.6023867,8.422968,-26.882528,20.14954,-29.034664,20.221756,5.2061825,-2.1964922,13.605034,4.32137,-16.517216,24.851013,50.886093,-2.2997231,-2.7621326,-2.2396898
55,3.4260709285736084,3.1697206497192383,74.83283996582031,-1.4339716401231828,8.738664889896912,93.19126616303535,-11.560201,13.37035,11.088088,28.90876,-24.848488,-5.321406,-2.054226,1.7170136,-8.462077,8.706359,-19.197721,2.0144353,-5.9443827,3.84888,8.615607,-26.740961,19.979069,-29.126581,19.186424,5.086432,-2.692723,13.735556,4.317848,-16.563795,25.044662,50.746986,-2.1014013,-2.8291757,-2.3837729
56,3.5040552616119385,3.4318366050720215,74.75393676757812,-1.5979595586147348,8.923828615315873,93.16473095436521,-12.741316,13.854345,10.826932,31.35601,-25.38669,-4.777954,-2.041554,1.9963987,-8.469236,8.72435,-19.370014,1.8567721,-5.997827,4.0462365,8.839766,-26.502817,19.767609,-29.223455,18.164991,5.1639376,-3.1006904,13.846495,4.28936,-16.606985,25.207342,50.61237,-1.8839682,-2.928076,-2.516589
57,3.580439567565918,3.7138397693634033,74.65731048583984,-1.7154041889969962,9.111184185294567,93.18125307192038,-14.116401,14.294625,10.539744,34.170074,-25.838549,-3.9330468,-2.1179657,2.190764,-8.511263,8.938535,-19.63323,1.7461733,-6.0245123,4.22179,9.055568,-26.371513,19.574747,-29.46512,17.291805,5.2947564,-3.3845625,13.961692,4.2794023,-16.653023,25.274698,50.49756,-1.662149,-3.059929,-2.603249
58,3.6164944171905518,3.9808804988861084,74.56609344482422,-1.798746639984158,9.298319801466945,93.2281006223763,-15.636329,14.704339,10.228008,37.262566,-26.21775,-2.8503428,-2.2595,2.3217578,-8.577872,9.304285,-19.968107,1.6636769,-6.0874557,4.3528066,9.31033,-26.103867,19.352312,-29.698484,16.379986,5.6383057,-3.586146,14.063488,4.2377043,-16.697231,25.322794,50.38399,-1.4329437,-3.2195802,-2.661639
59,3.653211832046509,4.24804162979126,74.48075103759766,-1.851270662415137,9.476565429689389,93.28089130134171,-17.218681,15.044278,9.865705,40.455616,-26.529272,-1.6811565,-2.485568,2.3978226,-8.651021,9.884678,-20.398596,1.5897156,-6.1251736,4.455873,9.573917,-25.845776,19.119417,-30.00163,15.58495,5.972266,-3.7783175,14.110568,4.200265,-16.739622,25.334663,50.26843,-1.1643652,-3.4073138,-2.7643816
60,3.697211980819702,4.52511739730835,74.38677978515625,-1.8754440169914497,9.637338007740382,93.31540037148332,-18.786139,15.266763,9.431006,43.58676,-26.780117,-0.5857097,-2.8112974,2.4238236,-8.711466,10.734824,-20.943913,1.5049367,-6.1154475,4.520954,9.847148,-25.600134,18.885958,-30.372528,14.937122,6.195897,-4.0255547,14.064563,4.1742153,-16.77693,25.319792,50.135353,-0.82922477,-3.6246936,-2.9792802
61,3.751962900161743,4.78998327255249,74.2831802368164,-1.8608011957155577,9.782193366480046,93.32668918883014,-20.350323,15.344386,8.911262,46.710884,-26.966927,0.4547391,-3.2570055,2.3877976,-8.756046,11.892737,-21.616098,1.4031506,-6.063165,4.532167,10.135995,-25.324059,18.64459,-30.800596,14.4226675,6.297312,-4.3435974,13.912285,4.1593995,-16.798965,25.287012,49.99423,-0.32725278,-3.8690932,-3.3827143
62,3.8007113933563232,5.097944259643555,74.1703109741211,-1.8033627700045798,9.91514075026285,93.32722810666235,-21.943077,15.294666,8.335105,49.894474,-27.089615,1.5014524,-3.8041852,2.2826364,-8.790987,13.310047,-22.39724,1.2958012,-5.976752,4.487573,10.436057,-25.023104,18.393768,-31.288012,14.030739,6.331354,-4.6982656,13.6747265,4.145901,-16.803354,25.230608,49.857857,0.29204693,-4.1450768,-3.9188874
63,3.849719762802124,5.414937973022461,74.0416259765625,-1.7080795533464228,10.030958520396208,93.31915041748972,-23.522364,15.133327,7.743783,53.006245,-27.162258,2.4501307,-4.4178543,2.1169305,-8.810764,14.928182,-23.268124,1.189823,-5.8638635,4.3923144,10.749654,-24.690329,18.130787,-31.804033,13.732747,6.3725595,-5.075963,13.365364,4.112727,-16.798388,25.16178,49.70383,0.83687097,-4.4619246,-4.4559736
64,3.8677785396575928,5.739042282104492,73.8985824584961,-1.582962683231908,10.124226333954768,93.30473925969889,-25.04896,14.878471,7.1739964,55.920746,-27.20098,3.195076,-5.0605993,1.901557,-8.810642,16.68377,-24.207558,1.0924399,-5.720924,4.261346,11.072056,-24.370424,17.87136,-32.340828,13.532478,6.4407854,-5.4664035,12.996641,4.053881,-16.800283,25.081543,49.50328,1.1181185,-4.822839,-4.8634443
65,3.874582052230835,6.055915832519531,73.74161529541016,-1.4049193075397395,10.190391161041644,93.28862830607095,-26.508308,14.465305,6.601983,58.6184,-27.194696,3.652892,-5.7605534,1.6068245,-8.788616,18.643127,-25.2474,0.9958792,-5.558374,4.070046,11.418413,-24.035011,17.619053,-32.88448,13.405939,6.576261,-5.851233,12.518123,3.978956,-16.818539,25.000338,49.245953,0.96712494,-5.226671,-5.0699625
66,3.887930393218994,6.3827009201049805,73.56385803222656,-1.167094505522464,10.233848605463098,93.26861710768407,-27.924004,13.895018,6.034289,61.179287,-27.144556,3.8902915,-6.523675,1.2265327,-8.740998,20.80908,-26.385033,0.90033287,-5.3767643,3.8134396,11.788929,-23.661814,17.371271,-33.43578,13.34521,6.757705,-6.2420945,11.940683,3.8929958,-16.854893,24.91709,48.93478,0.52807134,-5.6682067,-5.1596794
67,3.901642084121704,6.732766151428223,73.35579681396484,-0.9129548770055071,10.262108423358583,93.2368311882056,-29.313856,13.296664,5.5399156,63.61675,-27.092794,4.030929,-7.278922,0.8179777,-8.666159,23.025967,-27.550848,0.82542825,-5.1693163,3.540043,12.166426,-23.270538,17.135033,-33.991737,13.344185,6.9395924,-6.6714067,11.369238,3.7753966,-16.914444,24.823738,48.55465,0.08298351,-6.142122,-5.233086
68,3.9172067642211914,7.089358329772949,73.13011169433594,-0.69258911362177,10.282519828795664,93.18527762981891,-30.699749,12.811601,5.174015,65.94078,-27.080095,4.204438,-7.9641204,0.44720572,-8.569057,25.159317,-28.68052,0.791179,-4.9329925,3.305095,12.536261,-22.877958,16.923788,-34.547066,13.389548,7.074557,-7.1699567,10.908419,3.6046202,-17.00489,24.715256,48.08876,-0.08625934,-6.642666,-5.3858724
69,3.9296858310699463,7.4478373527526855,72.88355255126953,-0.5225632817703522,10.279622184049403,93.10159876255236,-32.063354,12.499946,4.9638696,68.15949,-27.13846,4.4496655,-8.536839,0.14465879,-8.454272,27.167229,-29.783506,0.8036885,-4.6674438,3.1201985,12.91832,-22.470013,16.747707,-35.11243,13.473838,7.103061,-7.7837286,10.581961,3.3877726,-17.129915,24.604687,47.51903,0.13015643,-7.1942215,-5.6247997
70,3.9317946434020996,7.8239521980285645,72.61521911621094,-0.3827834817565958,10.255209587554702,92.99340195105725,-33.40563,12.292542,4.8618994,70.269714,-27.241985,4.7013183,-9.040717,-0.11833011,-8.324971,29.131124,-30.888319,0.8536578,-4.3778276,2.9643729,13.315393,-22.045593,16.613092,-35.68615,13.596169,7.053887,-8.48237,10.333659,3.1349232,-17.290663,24.492533,46.85208,0.5711881,-7.7929544,-5.898625
71,3.928586483001709,8.217316627502441,72.33654022216797,-0.2612328862252735,10.241632999711848,92.88270751633243,-34.777557,12.140285,4.808606,72.25967,-27.342314,4.9362297,-9.535695,-0.3609393,-8.187745,31.086143,-31.954882,0.9397153,-4.0793424,2.8420305,13.692819,-21.602327,16.519997,-36.227936,13.723425,7.047859,-9.1811495,10.150586,2.8244624,-17.491068,24.362366,46.103786,1.1111987,-8.390821,-6.213581
72,3.9037930965423584,8.618704795837402,72.03767395019531,-0.14897831484310325,10.271097207424768,92.79143638075652,-36.229507,11.991652,4.749778,74.11732,-27.391476,5.129478,-10.080998,-0.6055229,-8.048328,33.067398,-32.944862,1.0621408,-3.7845018,2.7587159,14.013147,-21.154068,16.468422,-36.702457,13.834725,7.193068,-9.79658,10.022151,2.439359,-17.737411,24.195427,45.287712,1.624696,-8.938392,-6.5791645
73,3.8685977458953857,9.022587776184082,71.73257446289062,-0.055724462280757565,10.358594337411603,92.72751281494067,-37.789383,11.868321,4.690293,75.8459,-27.39112,5.2816124,-10.722754,-0.84385496,-7.908901,35.131355,-33.841515,1.2379464,-3.50662,2.7261076,14.2690115,-20.712362,16.453634,-37.113213,13.982603,7.5518966,-10.337519,9.983003,1.9657708,-18.039228,24.008875,44.407055,2.150256,-9.441807,-7.0024233
74,3.858402729034424,9.469033241271973,71.42269134521484,0.014541951273973302,10.484513768142191,92.67824579374981,-39.426666,11.789152,4.650143,77.451294,-27.362753,5.4049196,-11.418712,-1.0653615,-7.7698936,37.245018,-34.670334,1.4645969,-3.237435,2.7413554,14.479152,-20.269537,16.474176,-37.4728,14.15942,8.056922,-10.838179,10.02972,1.4230835,-18.39955,23.80747,43.444897,2.7321022,-9.922433,-7.475108
75,3.802285671234131,9.882984161376953,71.10576629638672,0.08407485310491285,10.629331369141424,92.63508671760906,-41.104176,11.69195,4.6006227,78.921715,-27.28159,5.4865313,-12.096785,-1.2897513,-7.6289153,39.31101,-35.45082,1.7078352,-2.9595318,2.7835872,14.647446,-19.795467,16.535599,-37.755547,14.24143,8.631997,-11.252991,10.09485,0.8369547,-18.812733,23.55764,42.390114,3.2532527,-10.351195,-7.988659
76,3.720895290374756,10.298128128051758,70.7888412475586,0.17390579954761665,10.773504361692975,92.58964418762586,-42.783432,11.511635,4.516256,80.24136,-27.126194,5.510974,-12.685034,-1.5374954,-7.4820695,41.2312,-36.201664,1.932016,-2.6575952,2.829105,14.778413,-19.250757,16.648304,-37.932915,14.096561,9.203221,-11.537334,10.108062,0.22636575,-19.268858,23.228401,41.23895,3.5953577,-10.697005,-8.537323
77,3.6519362926483154,10.7606840133667,70.47781372070312,0.2823891858605615,10.927161714387609,92.53049261066951,-44.492924,11.222119,4.376376,81.41777,-26.870304,5.4626546,-13.254372,-1.8192567,-7.31954,43.120705,-36.903164,2.1208751,-2.3293886,2.8758113,14.869126,-18.60435,16.817394,-37.9755,13.688795,9.773678,-11.68405,10.080378,-0.4391684,-19.764915,22.817587,40.01999,3.6939886,-10.929847,-9.127735
78,3.5670948028564453,11.245362281799316,70.16152954101562,0.40184709248941164,11.095421055286687,92.46523402875846,-46.238796,10.857762,4.2028503,82.45188,-26.533438,5.3485007,-13.811535,-2.1207187,-7.1461368,44.984737,-37.55344,2.297309,-1.987046,2.9308631,14.917599,-17.876923,17.047476,-37.901157,13.079535,10.371189,-11.715363,10.035597,-1.1689644,-20.303411,22.350466,38.73804,3.6232362,-11.069672,-9.76377
79,3.480438470840454,11.772380828857422,69.8604507446289,0.5390338054957373,11.25113503262268,92.41412617688005,-47.954693,10.445245,4.0318522,83.32835,-26.14903,5.184735,-14.192921,-2.428834,-6.979155,46.566143,-38.202175,2.4794016,-1.6388032,2.9860995,14.93275,-17.090431,17.34993,-37.747524,12.265827,10.968182,-11.631492,9.920595,-1.9123547,-20.87822,21.836628,37.350468,3.4721098,-11.159582,-10.436128
80,3.3703203201293945,12.279120445251465,69.56438446044922,0.701159856880931,11.366993348973525,92.39703052369117,-49.57347,10.013577,3.8981116,84.02808,-25.75158,4.989943,-14.238529,-2.7341127,-6.8356276,47.612602,-38.898357,2.6799188,-1.290785,3.0323517,14.922885,-16.274372,17.742842,-37.556747,11.246897,11.527291,-11.433122,9.6824465,-2.6200104,-21.478144,21.282003,35.818317,3.3280902,-11.2447605,-11.136069
81,3.2573328018188477,12.822769165039062,69.28885650634766,0.8969942985999815,11.432886251621316,92.42045129427889,-51.103973,9.554406,3.8000836,84.56212,-25.371992,4.7969236,-13.912951,-3.0495615,-6.7053556,48.078705,-39.71773,2.9084966,-0.9517844,3.0612478,14.895767,-15.394076,18.239334,-37.30461,9.925863,12.124669,-11.041686,9.305492,-3.3026936,-22.099657,20.680517,34.121822,3.2003303,-11.341723,-11.926845
82,3.167442560195923,13.439850807189941,69.0494155883789,1.121395082479748,11.4641274829995,92.4730471048141,-52.57356,9.059865,3.7208912,84.93283,-24.984608,4.58612,-13.302903,-3.3804274,-6.5859942,48.09953,-40.614586,3.1475244,-0.6226761,3.0767524,14.846703,-14.429117,18.847443,-36.9727,8.309524,12.746827,-10.484567,8.812226,-3.9909844,-22.744205,20.041119,32.295,3.0451207,-11.4233055,-12.792442
83,3.060927152633667,14.094616889953613,68.8464584350586,1.3574439036168902,11.47089513287902,92.54767835888883,-53.943935,8.561383,3.6690028,85.111145,-24.539206,4.3002963,-12.435416,-3.7094069,-6.505246,47.696384,-41.46385,3.3695278,-0.2990895,3.0847645,14.767394,-13.406402,19.573933,-36.60441,6.536243,13.243417,-9.919078,8.211946,-4.6679187,-23.405209,19.388735,30.38066,2.8706052,-11.472512,-13.60555
84,2.9555509090423584,14.767549514770508,68.68634796142578,1.5901881807653324,11.464114659874152,92.6373864298893,-55.176395,8.089323,3.6510594,85.06854,-23.986526,3.8828237,-11.335932,-4.0181794,-6.4893126,46.885223,-42.13338,3.5535069,0.027493695,3.0896819,14.647837,-12.3651495,20.423286,-36.246998,4.7561936,13.457876,-9.498768,7.5208445,-5.3124213,-24.0696,18.740206,28.420853,2.68245,-11.473592,-14.239401
85,2.8604602813720703,15.512733459472656,68.57406616210938,1.8128912079631334,11.421211716054184,92.76348567532467,-56.25025,7.654898,3.663496,84.79448,-23.371431,3.2506566,-9.930327,-4.2951508,-6.5828633,45.58442,-42.67297,3.6925516,0.35047537,3.0998204,14.491948,-11.314177,21.402695,-35.90169,2.9794655,13.226395,-9.3359995,6.6857285,-5.914702,-24.73054,18.060087,26.416847,2.4630716,-11.436168,-14.609365
86,2.750751256942749,16.29499626159668,68.51290893554688,2.0351139337226027,11.344818981141884,92.9212923953841,-57.18943,7.239061,3.6989686,84.304016,-22.702492,2.4587696,-8.229403,-4.5491133,-6.763727,43.803864,-43.11712,3.8122358,0.6681989,3.1071794,14.302388,-10.230265,22.515764,-35.537773,1.1311069,12.660794,-9.312402,5.7198462,-6.4869146,-25.387394,17.34785,24.350859,2.2113488,-11.364931,-14.800835
87,2.635685443878174,17.116384506225586,68.50690460205078,2.262914845640594,11.283722473876525,93.06636517999925,-58.02382,6.8235016,3.7551374,83.608955,-21.876755,1.6551428,-6.3887076,-4.7936134,-6.957234,41.705593,-43.32286,3.9419594,0.9942562,3.088808,14.068183,-9.078102,23.75236,-35.14486,-0.78088087,12.045749,-9.2398405,4.743462,-7.056004,-26.033434,16.676945,22.254251,1.9629357,-11.242803,-14.942045
88,2.510418653488159,17.984514236450195,68.55162048339844,2.506923203659916,11.286638491734605,93.15526503622513,-58.782707,6.3907933,3.8277504,82.72105,-20.79169,0.9852289,-4.5659084,-5.04611,-7.085515,39.455357,-43.149246,4.1011534,1.3422519,3.0219007,13.776059,-7.846357,25.094069,-34.71496,-2.720485,11.662096,-8.9436655,3.880979,-7.6539636,-26.655708,16.123678,20.164642,1.7533329,-11.052013,-15.163065
89,2.390601396560669,18.895418167114258,68.64671325683594,2.7621416323873964,11.37262183456653,93.17729689107092,-59.501457,5.9445014,3.8975859,81.63448,-19.33877,0.51095504,-2.7547536,-5.28665,-7.121413,36.975517,-42.58222,4.261374,1.7147708,2.9002037,13.400558,-6.5082917,26.531157,-34.220936,-4.6940923,11.70948,-8.283628,3.1743844,-8.332312,-27.244223,15.733806,18.083616,1.5860246,-10.7315,-15.5306835
90,2.255744218826294,19.845176696777344,68.80074310302734,3.0271735474266213,11.51396303423542,93.15660636159576,-60.154457,5.491641,3.9659853,80.34428,-17.599764,0.14393215,-0.8869155,-5.511602,-7.112184,34.21374,-41.688858,4.4286613,2.096861,2.7319272,12.953997,-5.076502,28.061024,-33.649303,-6.697144,11.997285,-7.3945065,2.550554,-9.076068,-27.794832,15.469785,16.008596,1.4421656,-10.310161,-15.968198
91,2.1088526248931885,20.83319091796875,69.00483703613281,3.313391860414132,11.690028888347223,93.10298736041648,-60.679745,5.021956,4.05883,78.862724,-15.755357,-0.19558981,0.9672348,-5.7660704,-7.0834174,31.38804,-40.45406,4.655299,2.4841392,2.5146737,12.480453,-3.580715,29.667618,-33.02172,-8.685555,12.245379,-6.517546,1.9692941,-9.813357,-28.303635,15.271322,13.969371,1.3227232,-9.905045,-16.38879
92,1.960928201675415,21.845687866210938,69.25115203857422,3.6297517683641867,11.87944629867319,93.02467997218923,-61.01256,4.5261693,4.2036357,77.19721,-13.991598,-0.583325,2.7332325,-6.0976377,-7.0537405,28.727362,-38.870808,4.9847383,2.8820724,2.2504086,12.019298,-1.9688617,31.321945,-32.36134,-10.676041,12.22869,-5.888041,1.3982252,-10.461832,-28.765078,15.067608,11.994677,1.2260691,-9.6334305,-16.706148
93,1.810889720916748,22.897464752197266,69.53605651855469,3.9980330659001404,12.102046008390058,92.92052036522482,-61.16682,3.9739015,4.4044576,75.30453,-12.2664995,-0.9919242,4.4303927,-6.536796,-7.010856,26.156857,-36.868958,5.4738755,3.3169842,1.9274198,11.545348,-0.3548688,33.010635,-31.712484,-12.548409,11.789422,-5.5829077,0.8156983,-10.999141,-29.177238,14.815124,10.10229,1.1351773,-9.545273,-16.849089
94,1.6305426359176636,23.980302810668945,69.84054565429688,4.403405696535327,12.359824321218667,92.78893576502514,-61.162422,3.3820584,4.6401725,73.18697,-10.512663,-1.3933766,6.074932,-7.0468884,-6.931634,23.623497,-34.487026,6.066159,3.7943308,1.5515375,11.047891,1.1963357,34.72579,-31.083841,-14.254842,11.059931,-5.4651484,0.2508206,-11.454675,-29.541294,14.536289,8.268303,1.0521157,-9.572765,-16.879091
95,1.4530715942382812,25.094682693481445,70.16510009765625,4.794873792120566,12.603357587147897,92.63809041413067,-60.959427,2.806818,4.890132,70.94745,-8.869278,-1.8651677,7.5881457,-7.569846,-6.815671,21.394466,-31.891996,6.6273184,4.2863054,1.1639167,10.581338,2.775384,36.444885,-30.448866,-15.890445,10.225759,-5.4461303,-0.25264418,-11.830362,-29.857058,14.264576,6.472636,1.0038055,-9.656599,-16.911015
96,1.2635829448699951,26.234678268432617,70.50254821777344,5.121821628860301,12.781856806645743,92.47600618328796,-60.513977,2.2990968,5.135947,68.68433,-7.4757237,-2.484632,8.88582,-8.052029,-6.672747,19.754381,-29.247183,7.031386,4.761769,0.8086678,10.199543,4.3772745,38.13811,-29.797997,-17.464973,9.429556,-5.44278,-0.6483188,-12.129257,-30.124863,14.037384,4.696915,1.0159366,-9.736874,-17.060944
97,1.0657638311386108,27.39667320251465,70.852783203125,5.390693839623906,12.880500569678391,92.29753720578216,-59.767982,1.8544296,5.408045,66.31218,-6.3944,-3.3916323,9.964869,-8.516664,-6.523524,18.768444,-26.513838,7.307779,5.227457,0.4813646,9.912573,5.9757504,39.79188,-29.158554,-18.944777,8.632825,-5.4751987,-0.9212212,-12.360693,-30.34825,13.858274,2.9427686,1.0585437,-9.784622,-17.3703
98,0.8817936182022095,28.60042381286621,71.21629333496094,5.620159099590189,12.92393178125174,92.10108313931954,-58.755547,1.4439219,5.703816,63.807186,-5.535845,-4.5022926,10.862126,-8.980187,-6.354367,18.300217,-23.635107,7.5076103,5.6974077,0.1734298,9.687972,7.5380335,41.400703,-28.551662,-20.286837,7.785098,-5.5771794,-1.1009268,-12.517694,-30.529438,13.7081785,1.2231315,1.1290559,-9.835947,-17.774712
99,0.6790667176246643,29.823753356933594,71.57847595214844,5.779963487512625,12.92278334428629,91.89812079167302,-57.577904,1.0828738,5.9690385,61.372223,-4.8142133,-5.557664,11.5481205,-9.391469,-6.1419773,18.333044,-20.746843,7.551644,6.158671,-0.08189621,9.508238,9.067926,42.94085,-27.96232,-21.511763,7.029889,-5.690082,-1.2056286,-12.569217,-30.665564,13.585039,-0.46462536,1.2927567,-9.929667,-18.23114
100,0.4547414481639862,31.068510055541992,71.94001770019531,5.843850780671574,12.890716177568937,91.69919144844867,-56.34014,0.7906888,6.155178,59.218925,-4.1493244,-6.3007913,11.993432,-9.706145,-5.8739467,18.842487,-17.97343,7.3653274,6.596657,-0.25602692,9.348298,10.56225,44.37683,-27.376839,-22.623646,6.513788,-5.755856,-1.2530575,-12.4952545,-30.751692,13.495415,-2.1095726,1.6134921,-10.10546,-18.696838
101,0.2280726581811905,32.326385498046875,72.29035186767578,5.800479054947116,12.837202784327209,91.49399333518237,-55.055923,0.55820876,6.2225313,57.370872,-3.5114827,-6.6701465,12.177587,-9.927045,-5.572468,19.812986,-15.187629,6.909593,7.028488,-0.3308064,9.189268,11.982562,45.683163,-26.838999,-23.566572,6.341127,-5.7485347,-1.2325345,-12.302818,-30.789667,13.46229,-3.680387,2.1425934,-10.395961,-19.186054
102,0.0025061427149921656,33.600093841552734,72.6278076171875,5.683980239937193,12.762803929444294,91.27368495967237,-53.68271,0.38524443,6.237732,55.73216,-2.9484777,-6.7977114,12.137007,-10.096079,-5.2648697,21.194485,-12.320599,6.262577,7.4651427,-0.337222,9.029072,13.292289,46.852257,-26.384626,-24.309336,6.4232745,-5.704161,-1.1449362,-12.007301,-30.782646,13.484231,-5.174316,2.8295019,-10.775544,-19.711023
103,-0.2248660922050476,34.88722610473633,72.93659210205078,5.530712178037963,12.66643364496011,91.05297474161283,-52.24373,0.30084834,6.3102055,54.34474,-2.501369,-6.7209687,11.934068,-10.224342,-4.9470863,22.897913,-9.584676,5.5060434,7.8794928,-0.3199979,8.8683605,14.493434,47.876583,-25.987165,-24.895567,6.6160765,-5.6565423,-1.0238042,-11.607235,-30.726547,13.534379,-6.6176076,3.5864353,-11.197081,-20.226543
104,-0.4374402165412903,36.199371337890625,73.21321105957031,5.3744571816478,12.542331654652134,90.8507076915293,-50.760265,0.32728082,6.5392613,53.25363,-2.211923,-6.4817476,11.630317,-10.316206,-4.6042514,24.850616,-7.214875,4.6921096,8.23376,-0.31732786,8.7126045,15.598747,48.750114,-25.607883,-25.375788,6.773204,-5.640352,-0.90239817,-11.10793,-30.613415,13.592477,-8.032408,4.3251624,-11.61115,-20.688398
105,-0.6716569662094116,37.51192092895508,73.4525375366211,5.199295966478274,12.391490722588532,90.67713246034286,-49.25602,0.52667,6.995251,52.56659,-2.003518,-6.0218844,11.218792,-10.351796,-4.2130513,27.064959,-5.24662,3.7368963,8.504973,-0.3144981,8.543555,16.63547,49.466114,-25.242464,-25.743383,6.9209437,-5.6765523,-0.7821213,-10.52187,-30.435656,13.687937,-9.397048,5.01601,-11.996743,-21.126074
106,-0.9039446711540222,38.837337493896484,73.645751953125,4.990400673084476,12.21104259704701,90.52438263423105,-47.708015,0.8649544,7.6057124,52.232704,-1.8924947,-5.3465023,10.690588,-10.342836,-3.7979987,29.54606,-3.5574012,2.6027093,8.702626,-0.29067305,8.365238,17.579222,50.023113,-24.921041,-25.972675,7.116512,-5.7420263,-0.65127164,-9.867728,-30.193495,13.842656,-10.6882,5.704458,-12.382316,-21.547264
107,-1.1203250885009766,40.182552337646484,73.79579162597656,4.7773512161433125,11.987373588225319,90.38718929267554,-46.061928,1.2145956,8.239807,52.05178,-2.0541103,-4.5992446,10.093593,-10.330829,-3.3958008,32.252476,-2.177375,1.4045644,8.839128,-0.2661746,8.221707,18.379332,50.426006,-24.654297,-26.096525,7.264459,-5.807341,-0.52068955,-9.1475725,-29.889528,14.016176,-11.934511,6.418715,-12.792397,-21.875658
108,-1.3462836742401123,41.5275993347168,73.88745880126953,4.588489233199235,11.707882609005264,90.26108484004983,-44.267906,1.44242,8.757792,51.820995,-2.6547987,-3.931369,9.470385,-10.343207,-3.0309653,35.158226,-1.1408111,0.27911794,8.92801,-0.26121235,8.158469,18.985212,50.686497,-24.451061,-26.153519,7.2662983,-5.8435397,-0.40035567,-8.354776,-29.528948,14.162262,-13.175298,7.1890783,-13.247985,-22.033266
109,-1.5797723531723022,42.868568420410156,73.91789245605469,4.404110117633704,11.350489677739747,90.15553218430442,-42.257816,1.5394546,9.10822,51.486904,-3.736391,-3.3555079,8.816519,-10.334567,-2.6953425,38.35531,-0.486608,-0.8063091,8.9747,-0.25226465,8.20689,19.391947,50.80884,-24.320732,-26.158525,6.944202,-5.8591676,-0.2966802,-7.4544005,-29.1057,14.258662,-14.458525,8.109556,-13.779197,-21.968987
110,-1.7852466106414795,44.20800018310547,73.90376281738281,4.209928625583415,10.924966780500167,90.07350431159799,-40.075348,1.568644,9.343453,51.155167,-5.2071958,-2.811895,8.089797,-10.29792,-2.356993,41.8968,-0.22822033,-1.9028195,8.969316,-0.22800273,8.338973,19.622269,50.795113,-24.266394,-26.096888,6.401553,-5.865123,-0.20097311,-6.465377,-28.61753,14.340352,-15.751155,9.141301,-14.360592,-21.726276
111,-2.0117294788360596,45.52265167236328,73.81336975097656,4.040093223615884,10.468464428445541,89.99991949450857,-37.844154,1.5036017,9.4778,50.861057,-7.0272985,-2.342731,7.2826443,-10.297183,-1.9978068,45.691338,-0.35538837,-2.8750815,8.900712,-0.2259556,8.514715,19.653965,50.658188,-24.282541,-25.959007,5.9487624,-5.8360853,-0.10066401,-5.456184,-28.079332,14.443199,-16.983366,10.119639,-14.930436,-21.374754
112,-2.226334571838379,46.84797668457031,73.64149475097656,3.9321277333948657,10.01908169868385,89.91826385610719,-35.690563,1.3201768,9.52937,50.64457,-9.15541,-1.9860983,6.3912807,-10.386227,-1.6032088,49.650894,-0.852342,-3.5789418,8.763805,-0.2849458,8.695938,19.481928,50.416836,-24.35477,-25.755484,5.8992586,-5.7453365,0.018194403,-4.477414,-27.516977,14.588926,-18.103333,10.880279,-15.430898,-20.991152
113,-2.4543228149414062,48.15202331542969,73.39599609375,3.8953171287880566,9.55922421407815,89.80466590934736,-33.585564,0.986242,9.443274,50.51268,-11.775168,-1.7767471,5.479813,-10.576705,-1.1932256,53.843582,-1.8853195,-3.886253,8.575234,-0.417812,8.88652,19.165659,50.078228,-24.458261,-25.505085,6.4017735,-5.6092057,0.17236029,-3.505652,-26.950235,14.779661,-19.158112,11.42423,-15.847435,-20.540339
114,-2.682382345199585,49.4282112121582,73.1052017211914,3.905329373387898,9.078368006960241,89.67446578915072,-31.48652,0.53947914,9.219525,50.449944,-14.840637,-1.6820166,4.5147567,-10.815332,-0.7640667,58.352722,-3.447182,-3.8869457,8.332897,-0.5972712,9.107571,18.71485,49.642616,-24.586489,-25.224262,7.2649174,-5.4316897,0.3494517,-2.5153074,-26.381207,15.002952,-20.175827,11.833686,-16.21083,-20.008532
115,-2.925036668777466,50.69384002685547,72.7574691772461,3.949672157174676,8.625911572544078,89.56724114536838,-29.495737,0.053511336,8.966454,50.458473,-17.97169,-1.6393553,3.3683393,-11.046278,-0.2723549,63.07534,-5.2273993,-3.7505488,8.008712,-0.80489427,9.347446,18.029003,49.121227,-24.756348,-24.904766,8.281052,-5.167861,0.5195313,-1.5405712,-25.80616,15.245806,-21.081345,12.062126,-16.537548,-19.508968
116,-3.156146764755249,51.941444396972656,72.36772155761719,4.019979640919373,8.25105406684109,89.52416600074096,-27.718695,-0.41008383,8.797686,50.542637,-20.791754,-1.587401,1.9197955,-11.205693,0.3232917,67.89474,-6.9023824,-3.6394734,7.57748,-1.0290104,9.594133,17.011192,48.5309,-24.98268,-24.539402,9.242797,-4.774738,0.6549616,-0.6084803,-25.217676,15.485581,-21.79745,12.060317,-16.846003,-19.154451
117,-3.3902804851531982,53.16969680786133,71.96502685546875,4.123686173700593,7.9205955774020085,89.5659546990009,-26.166756,-0.86127293,8.762923,50.769417,-23.267925,-1.5277245,0.21731779,-11.194405,1.0977669,72.88193,-8.423356,-3.5062032,7.029708,-1.2745427,9.876222,15.665008,47.87686,-25.272581,-24.107533,10.118386,-4.1024323,0.7888597,0.2787729,-24.601797,15.711186,-22.279392,11.721717,-17.150438,-18.982468
118,-3.6232357025146484,54.30488586425781,71.53956604003906,4.258096494806568,7.624492191831833,89.66568973362104,-24.788786,-1.3230631,8.7972765,51.11788,-25.586885,-1.4885625,-1.6680659,-11.016038,1.9713428,78.0644,-9.954553,-3.251393,6.388869,-1.5527265,10.184847,14.052389,47.157433,-25.595457,-23.629192,11.006692,-3.2192712,0.9195994,1.1421567,-23.9542,15.9243355,-22.575344,11.097648,-17.440697,-18.932384
119,-3.812701940536499,55.36827850341797,71.1103515625,4.403727134522462,7.447308741886681,89.79336770394873,-23.602451,-1.7661204,8.854283,51.4675,-27.700062,-1.4425415,-3.8354604,-10.790103,2.7789679,83.24246,-11.464607,-2.9800212,5.67817,-1.8604172,10.453692,12.151387,46.383457,-25.90065,-23.150957,11.888436,-2.4136593,0.97542375,2.0007997,-23.286003,16.11805,-22.771008,10.376416,-17.697384,-18.971441
120,-3.983400344848633,56.41258239746094,70.71847534179688,4.544096031934586,7.474499099674968,89.91959745951287,-22.627434,-2.1717718,8.896461,51.692043,-29.555288,-1.3543129,-6.412368,-10.689944,3.3961077,88.2122,-12.907548,-2.839759,4.9222126,-2.1936488,10.6198015,9.928911,45.575996,-26.136059,-22.72187,12.738598,-1.9760865,0.8949967,2.879814,-22.618698,16.279842,-22.960997,9.752005,-17.901592,-19.065199
121,-4.135651111602783,57.42805099487305,70.37095642089844,4.719247694967188,7.814766787730829,90.05494265047508,-22.014479,-2.5819752,8.963112,51.79871,-31.102556,-1.1556464,-9.608715,-10.878535,3.8583643,93.08042,-14.264203,-2.9270496,4.116311,-2.5950308,10.637269,7.3322186,44.7489,-26.229944,-22.376534,13.6188,-2.1058655,0.5434582,3.7954135,-21.948568,16.36399,-23.16367,9.230251,-18.038752,-19.293533
122,-4.265027046203613,58.40254592895508,70.05487060546875,4.930246885984375,8.395960954598316,90.20965036140187,-21.711966,-3.0030258,9.072096,51.841133,-32.38139,-0.8714114,-13.311014,-11.258487,4.2568493,97.90621,-15.549698,-3.1802225,3.252267,-3.0497532,10.546411,4.424429,43.911358,-26.172356,-22.102312,14.509028,-2.6142366,0.008719419,4.7407,-21.273188,16.382406,-23.345163,8.72598,-18.119987,-19.644566
123,-4.437356948852539,59.378028869628906,69.79118347167969,5.10022430422182,9.03232585727244,90.3529261100735,-21.430006,-3.3688014,9.156879,51.75386,-33.466198,-0.6018961,-17.186434,-11.6568165,4.5671706,102.40129,-16.747202,-3.5282505,2.3621323,-3.467658,10.418697,1.3792344,43.079887,-26.020832,-21.918417,15.288949,-3.203646,-0.436856,5.7285986,-20.626877,16.397982,-23.531546,8.304184,-18.170107,-19.94918
124,-4.616240978240967,60.329627990722656,69.58496856689453,5.152089269483615,9.536917071823963,90.45209454861138,-20.871416,-3.6117108,9.150073,51.47029,-34.434017,-0.4518609,-20.910582,-11.904343,4.7436256,106.26644,-17.827984,-3.882717,1.4822834,-3.761123,10.337769,-1.670305,42.268864,-25.870148,-21.83579,15.83282,-3.5681293,-0.5286414,6.788443,-20.06606,16.471266,-23.77745,8.0387745,-18.21743,-20.04443
125,-4.78082275390625,61.30915451049805,69.41717529296875,5.074450017281433,9.88411777747774,90.4818405154025,-20.00018,-3.7118132,9.051834,51.01384,-35.325645,-0.45973906,-24.538513,-12.033868,4.772211,109.5011,-18.760284,-4.3186483,0.63815343,-3.916831,10.346429,-4.7936063,41.481422,-25.77284,-21.923048,16.055048,-3.6159625,-0.16023661,7.9818416,-19.635563,16.596138,-24.184414,8.048815,-18.256668,-19.85489
126,-4.88623571395874,62.3748664855957,69.30390930175781,4.91046493973132,10.162156396499515,90.4663609745775,-18.951212,-3.7103364,8.898073,50.40192,-36.09423,-0.56096935,-28.215769,-12.141589,4.6724944,112.236534,-19.5397,-4.862975,-0.18439381,-3.9758208,10.406818,-8.043424,40.70982,-25.68945,-22.163868,16.031076,-3.5100243,0.51629704,9.318426,-19.343338,16.732077,-24.745201,8.280322,-18.27654,-19.487299
127,-4.947568416595459,63.52271270751953,69.2583236694336,4.6625383703033565,10.353381175438063,90.44641522927577,-17.680422,-3.625471,8.675538,49.563248,-36.687675,-0.70963705,-31.759033,-12.163221,4.3951178,114.363594,-20.174435,-5.3685966,-1.0196509,-3.9379075,10.490046,-11.292167,39.94173,-25.600525,-22.419584,15.874993,-3.3243713,1.3739673,10.736299,-19.180391,16.90302,-25.337263,8.545998,-18.29876,-19.055763
128,-5.011291027069092,64.72457122802734,69.27136993408203,4.333672468560538,10.441239695236202,90.46294032031386,-16.144102,-3.4681818,8.368862,48.425514,-37.05537,-0.86707777,-34.97856,-12.037458,3.883885,115.76521,-20.67639,-5.682921,-1.901956,-3.8019993,10.561982,-14.3846,39.170967,-25.48585,-22.572704,15.708415,-3.1322794,2.2805104,12.162626,-19.128885,17.13294,-25.820541,8.651626,-18.348953,-18.673132
129,-5.088130950927734,65.96760559082031,69.35531616210938,3.8918527511095213,10.366194091733055,90.52191595981286,-14.253356,-3.2055001,7.9538913,46.96147,-37.271324,-1.0453023,-37.8104,-11.73667,3.077365,116.36612,-21.07327,-5.7214074,-2.8569632,-3.5533879,10.660124,-17.34674,38.38688,-25.356735,-22.567144,15.532886,-2.9718275,3.2795112,13.60045,-19.18585,17.44829,-26.177835,8.542503,-18.444082,-18.329615
130,-5.1652350425720215,67.23706817626953,69.50074768066406,3.3498819868240934,10.153526650300055,90.6079478733957,-12.056084,-2.8277168,7.451071,45.211544,-37.33506,-1.2692308,-40.3618,-11.323631,2.010375,116.23579,-21.34608,-5.571878,-3.8883538,-3.217243,10.80241,-20.258806,37.561577,-25.245169,-22.441174,15.3258095,-2.7981858,4.421649,15.048277,-19.35345,17.847532,-26.460594,8.319894,-18.569334,-17.977654
131,-5.2094807624816895,68.53265380859375,69.7122573852539,2.763474859098101,9.915882337423236,90.7275003026343,-9.721821,-2.3795154,6.9076233,43.2156,-37.078087,-1.5235795,-42.69978,-10.861272,0.7798131,115.472336,-21.438305,-5.3332806,-4.9519334,-2.821,10.899138,-23.081055,36.712048,-25.165606,-22.23005,15.073728,-2.5644631,5.5618153,16.46945,-19.613617,18.273935,-26.634296,8.017705,-18.704285,-17.676949
132,-5.223483085632324,69.86124420166016,69.97702026367188,2.1898435486594034,9.766779697395597,90.88366618672958,-7.41803,-1.9151974,6.3650026,41.0104,-36.330715,-1.7899619,-44.885803,-10.407469,-0.51236,114.17393,-21.296228,-5.1049333,-6.0371213,-2.4125502,10.881398,-25.763367,35.85579,-25.122793,-21.957901,14.8096285,-2.216425,6.57319,17.792711,-19.933155,18.704082,-26.66822,7.6689315,-18.829008,-17.48178
133,-5.232040882110596,71.23452758789062,70.3145523071289,1.6317314200983493,9.732817691905638,91.09648893651554,-5.115431,-1.4625363,5.762529,38.464355,-35.062695,-2.0580153,-46.93703,-9.968658,-1.8864329,112.308586,-20.98991,-4.916208,-7.1685367,-1.9991864,10.706813,-28.314775,35.014236,-25.156885,-21.628136,14.471891,-1.6839137,7.4559417,18.974758,-20.293161,19.165958,-26.454065,7.230582,-18.944075,-17.387093
134,-5.266307830810547,72.64309692382812,70.70491790771484,1.0632277469700318,9.758648448526225,91.35414361443573,-2.7619708,-0.988408,5.1043677,35.61287,-33.364162,-2.347266,-48.80601,-9.519529,-3.363853,109.83778,-20.544384,-4.708178,-8.347733,-1.5641768,10.426999,-30.733984,34.192406,-25.2583,-21.253277,14.063065,-1.0138128,8.274652,20.042868,-20.686504,19.670784,-26.02894,6.6941056,-19.05822,-17.365702
135,-5.316690921783447,74.099609375,71.1449966430664,0.49689355111483513,9.83473692217772,91.60924501318475,-0.49062714,-0.4718048,4.5203733,32.75293,-31.24395,-2.6700463,-50.455124,-9.056687,-4.848379,106.85632,-19.834639,-4.4498878,-9.516069,-1.1074075,10.101264,-32.95567,33.38858,-25.356117,-20.889463,13.707522,-0.3253485,8.988001,21.039404,-21.09294,20.164305,-25.568855,6.144174,-19.16174,-17.437746
136,-5.321962356567383,75.58940887451172,71.62580871582031,-0.04931354849317164,9.948973382971635,91.8140693207324,1.5667981,0.09959876,4.1330347,30.188963,-28.712185,-3.0294666,-51.846558,-8.562747,-6.250021,103.45344,-18.731121,-4.108028,-10.612257,-0.63300693,9.785725,-34.930664,32.6,-25.384838,-20.573864,13.535534,0.26571155,9.549434,22.00649,-21.485142,20.592937,-25.24576,5.6637964,-19.244751,-17.620632
137,-5.333643913269043,77.12892150878906,72.14400482177734,-0.5842028916074272,10.114976381651564,91.96185048101351,3.4012218,0.7393607,3.9704063,27.952755,-25.691872,-3.4310024,-52.97501,-8.021247,-7.589558,99.57794,-17.240986,-3.6933904,-11.634417,-0.13135926,9.475254,-36.660477,31.825964,-25.334774,-20.300047,13.662296,0.7574041,9.884908,22.932095,-21.848238,20.983212,-25.093952,5.1969447,-19.312187,-18.06468
138,-5.351316452026367,78.70162963867188,72.68538665771484,-1.107667609539151,10.331650409760762,92.06948695619934,5.055966,1.4072739,3.9507587,25.940649,-22.221191,-3.849756,-53.844692,-7.4162517,-8.882445,95.19899,-15.430018,-3.2042267,-12.605648,0.3868041,9.144289,-38.19648,31.069468,-25.257078,-20.029236,13.996933,1.2060564,10.0346155,23.78723,-22.18013,21.358372,-25.007057,4.719955,-19.363321,-18.707703
139,-5.372027397155762,80.26420593261719,73.24241638183594,-1.5882002290178092,10.562798109689558,92.12617335956082,6.4925985,2.042993,4.031039,24.24162,-18.477728,-4.248134,-54.442383,-6.7239447,-10.046518,90.42523,-13.243388,-2.604279,-13.490372,0.881299,8.811536,-39.533714,30.338684,-25.17857,-19.786264,14.367714,1.5839812,10.1221895,24.603577,-22.472586,21.643534,-24.947287,4.3661118,-19.383192,-19.244974
140,-5.369687080383301,81.8681869506836,73.81111907958984,-1.9988745260081262,10.772628697750227,92.1241230136593,7.680298,2.6010969,4.17238,22.937943,-14.62004,-4.606429,-54.761005,-5.920882,-10.995728,85.35151,-10.617633,-1.8590916,-14.2570915,1.310708,8.495806,-40.689777,29.642982,-25.125956,-19.57386,14.591158,1.8642964,10.275672,25.411808,-22.715776,21.761568,-24.880629,4.2688375,-19.361982,-19.369299
141,-5.362542629241943,83.4908218383789,74.37940979003906,-2.3397003432396257,10.975157989787219,92.05108693566066,8.597088,3.0947661,4.447858,21.99383,-10.40354,-4.9222584,-54.793026,-4.97056,-11.718701,79.809975,-7.161352,-0.8512258,-14.898489,1.6687021,8.179013,-41.65371,28.984419,-25.085524,-19.370296,14.572278,2.0184772,10.48637,26.23969,-22.901237,21.647573,-24.807718,4.559456,-19.288404,-18.841883
142,-5.352768898010254,85.12814331054688,74.9383544921875,-2.619075991839053,11.179795671498177,91.91661603423756,9.276524,3.5450413,4.826839,21.375334,-5.82115,-5.255907,-54.539158,-3.8602858,-12.208661,73.78069,-3.0226743,0.38256115,-15.431743,1.9675773,7.85532,-42.438004,28.360712,-25.057444,-19.170776,14.422371,2.0680246,10.703502,27.061548,-23.027418,21.353605,-24.742762,5.1327753,-19.165049,-17.875555
143,-5.33452033996582,86.77289581298828,75.47633361816406,-2.8322830288464313,11.346182098065048,91.7528879919156,9.798344,3.926378,5.1224036,21.099234,-1.3604318,-5.6795697,-54.008736,-2.6393726,-12.410167,67.57377,1.0588382,1.6280949,-15.875616,2.2043037,7.56442,-43.095886,27.773222,-25.082237,-18.994457,14.26572,2.0623505,10.9938135,27.831245,-23.095524,20.984009,-24.66739,5.7619915,-19.00831,-16.842676
144,-5.319337368011475,88.4150619506836,75.9811782836914,-2.9809406355082286,11.435629288725876,91.59541379946143,10.244177,4.2088265,5.16248,21.17125,2.4961977,-6.224094,-53.208126,-1.4013872,-12.326909,61.49781,4.3532515,2.632891,-16.25228,2.3836226,7.347862,-43.6731,27.2264,-25.197895,-18.872036,14.223919,2.0519376,11.424203,28.50264,-23.106535,20.644276,-24.567265,6.2223024,-18.848204,-16.113607
145,-5.312387466430664,90.06523895263672,76.44105529785156,-3.0709924518294875,11.440939862529712,91.45564877262706,10.691958,4.3982816,4.9051485,21.450066,5.7103653,-7.0201344,-52.066257,-0.044923194,-11.817791,55.33384,6.6571436,3.342036,-16.570257,2.5141244,7.224435,-44.18404,26.73243,-25.430317,-18.805351,14.37133,2.0739443,12.124445,29.08515,-23.05067,20.341202,-24.448578,6.4202256,-18.654419,-15.790379
146,-5.312387466430664,91.70650482177734,76.84561157226562,-3.093460532884587,11.380882963082179,91.32858186556514,11.114723,4.4830637,4.4288244,21.903902,8.554349,-8.012505,-50.56348,1.3464276,-10.944718,48.960957,8.39638,3.8235543,-16.836235,2.5829792,7.171681,-44.6004,26.293783,-25.75447,-18.786478,14.628184,2.0982497,13.023357,29.584204,-22.923489,20.032185,-24.309889,6.48442,-18.428133,-15.671964
147,-5.311614036560059,93.35350036621094,77.17724609375,-3.033847100302517,11.25875389116326,91.22218815623462,11.43295,4.4148607,3.785852,22.70308,11.015709,-8.906552,-48.84517,2.455188,-10.082523,42.901592,9.774272,4.0419784,-17.052765,2.5688922,7.1625175,-44.89421,25.904911,-26.129866,-18.838606,14.874181,2.0703776,13.881452,29.958488,-22.741365,19.733156,-24.12049,6.533631,-18.254913,-15.674047
148,-5.317088603973389,95.01055145263672,77.42140197753906,-2.9019608990632815,11.08112456244349,91.1267422653478,11.55542,4.1894555,3.068085,24.027184,13.084784,-9.393173,-47.098278,3.0915515,-9.646678,37.692387,11.000205,4.0400534,-17.208145,2.482152,7.174882,-45.038063,25.556032,-26.51149,-18.986517,14.994173,1.9299804,14.458819,30.175358,-22.536594,19.458097,-23.862082,6.687636,-18.2198,-15.716241
149,-5.356325626373291,96.67591094970703,77.59085083007812,-2.6858004132841953,10.853553403119571,91.01799014819454,11.37389,3.7705693,2.2659705,26.115631,14.807711,-9.1939335,-45.364086,3.187641,-9.913741,33.41714,12.027484,3.858514,-17.279703,2.3216548,7.198964,-45.02832,25.247108,-26.90699,-19.27303,14.97093,1.6580282,14.679686,30.231974,-22.334873,19.214,-23.529135,7.0183077,-18.426794,-15.868921
150,-5.39237642288208,98.33301544189453,77.69412231445312,-2.393841553114592,10.573409730557747,90.89207533651086,10.968631,3.2112474,1.4112675,28.803095,16.19026,-8.489463,-43.603725,2.9769135,-10.647549,29.84189,12.757839,3.55468,-17.26967,2.10032,7.2492857,-44.872597,24.982996,-27.32365,-19.679235,14.863387,1.2844845,14.67261,30.160433,-22.14305,18.99049,-23.156042,7.4537807,-18.805435,-16.149487
151,-5.430119037628174,99.98658752441406,77.7481460571289,-2.0874211902930733,10.24477130426528,90.75646459536102,10.493425,2.656025,0.6506829,31.731981,17.121244,-7.6691084,-41.93062,2.719422,-11.498289,27.112116,13.279091,3.1721,-17.194208,1.8677564,7.3358355,-44.56149,24.755423,-27.714752,-20.12978,14.6759615,0.8205328,14.505062,29.966654,-21.967514,18.7763,-22.765184,7.9050336,-19.177687,-16.399118
152,-5.465086936950684,101.62783813476562,77.749755859375,-1.8338485656443606,9.87725907395353,90.61758611594372,10.086808,2.230557,0.09554585,34.56771,17.469318,-7.1617794,-40.469894,2.605383,-12.10706,25.414461,13.669568,2.6931086,-17.068047,1.681102,7.4642525,-44.089745,24.546064,-28.03475,-20.544086,14.418416,0.27719066,14.243886,29.65835,-21.815443,18.55916,-22.38712,8.285151,-19.362747,-16.461935
153,-5.499986171722412,103.27544403076172,77.6891860961914,-1.6687749868119333,9.479124163749857,90.47244701004837,9.767802,1.9443836,-0.2616775,37.310165,16.985395,-7.1528935,-39.382935,2.6025107,-12.437126,25.112274,14.155408,2.0247462,-16.882288,1.5819443,7.6421933,-43.46944,24.342348,-28.269945,-20.893057,14.051288,-0.41336527,13.850756,29.241226,-21.689816,18.321218,-22.041195,8.621513,-19.239115,-16.231178
154,-5.532510757446289,104.92511749267578,77.56318664550781,-1.5543411286165116,9.045920629364812,90.31628911280836,9.432257,1.7434616,-0.48115784,40.192547,15.757449,-7.394897,-38.577538,2.5636396,-12.663789,26.048525,14.596534,1.140657,-16.628002,1.5408201,7.86169,-42.71,24.139517,-28.450127,-21.209597,13.58219,-1.2310823,13.302368,28.717665,-21.592335,18.070406,-21.713943,8.943557,-18.925438,-15.816856
155,-5.571487903594971,106.58412170410156,77.3626480102539,-1.4478154743737999,8.568488519686085,90.15554268214228,9.041269,1.6399676,-0.5432299,43.215435,14.17594,-7.6906433,-37.788578,2.5084808,-12.733266,27.61145,14.546208,0.13064183,-16.319895,1.5090925,8.1046,-41.803246,23.926575,-28.59889,-21.503609,13.096311,-2.0349834,12.692561,28.092323,-21.53151,17.828667,-21.382856,9.170592,-18.60162,-15.385999
156,-5.61390495300293,108.26093292236328,77.07899475097656,-1.3183309435675306,8.045728614673552,89.98970459929181,8.562717,1.6541897,-0.4335065,46.34434,12.655328,-7.8540573,-36.764877,2.5121193,-12.577543,29.193384,13.564251,-0.8755194,-15.962411,1.456266,8.347465,-40.743694,23.69233,-28.737251,-21.782387,12.678853,-2.6881385,12.117803,27.377756,-21.518623,17.615406,-21.032824,9.228097,-18.450329,-15.103504
157,-5.65400505065918,109.94480895996094,76.72540283203125,-1.1380364570900576,7.44366870619149,89.8059868402532,8.091972,1.7575773,-0.09946451,49.487568,11.274218,-7.877583,-35.42797,2.645364,-12.056944,30.832357,11.451679,-1.9440119,-15.554026,1.3443006,8.593181,-39.46756,23.417055,-28.855133,-22.079132,12.337338,-3.1355042,11.59804,26.584404,-21.565742,17.442883,-20.635965,9.0063505,-18.58133,-15.000611
158,-5.6920318603515625,111.6446762084961,76.30349731445312,-0.9275465321335246,6.770606278876177,89.61503466776232,7.628766,1.9445714,0.42512766,52.66962,9.83482,-7.846876,-33.896404,2.9080143,-11.230485,32.749954,8.511535,-3.103422,-15.099341,1.2024174,8.854446,-38.005405,23.090101,-28.955763,-22.3674,12.045578,-3.4585855,11.085183,25.713266,-21.675188,17.298634,-20.220781,8.581159,-18.87825,-14.997689
159,-5.726871013641357,113.35678100585938,75.81993103027344,-0.7493261053923466,6.100517927081855,89.437973320505,6.995816,2.2860315,1.0222164,56.02295,8.344418,-7.7310967,-32.247112,3.2868938,-10.327772,34.65467,5.02642,-4.159423,-14.5904,1.1219021,9.1129265,-36.503296,22.728424,-29.075396,-22.561045,11.817271,-3.7283943,10.575812,24.766994,-21.839653,17.157764,-19.848902,8.154749,-19.184177,-15.087795
160,-5.770156383514404,115.06888580322266,75.28499603271484,-0.6740978212606938,5.5111382990543225,89.29140966935856,6.0137215,2.8614972,1.5748403,59.68732,6.8039083,-7.499421,-30.576603,3.721092,-9.577862,36.282757,1.2350538,-4.914277,-14.019505,1.1964896,9.3459215,-35.099262,22.368319,-29.239017,-22.59114,11.654615,-4.015084,10.067892,23.73555,-22.043747,17.001972,-19.570171,7.929096,-19.342953,-15.258304
161,-5.797793865203857,116.75359344482422,74.703857421875,-0.7353420413998897,4.972596594668036,89.18510659020926,4.7243953,3.7664213,2.1001065,63.774387,5.144863,-7.1359916,-28.786407,4.1841803,-8.994019,37.528942,-3.2130697,-5.213155,-13.43068,1.4477354,9.581548,-33.733887,22.011484,-29.454756,-22.486923,11.623018,-4.3245964,9.594319,22.583014,-22.275347,16.896683,-19.361406,8.062372,-19.291641,-15.545656
162,-5.830941677093506,118.39249420166016,74.09041595458984,-0.8960802937652067,4.464578515770019,89.10589448168128,3.2130663,4.9342566,2.6226685,68.176544,3.3904555,-6.667958,-26.883867,4.6845455,-8.490143,38.56523,-8.334317,-5.2166677,-12.769802,1.8393536,9.792076,-32.46855,21.694715,-29.691643,-22.219456,11.56178,-4.628522,9.133241,21.354366,-22.52636,16.800198,-19.204126,8.410415,-19.122799,-15.941773
163,-5.839437961578369,119.99335479736328,73.4583511352539,-1.1215724669822833,4.079465739448694,89.03369460107925,1.3573773,6.20181,3.0341887,72.69695,1.6826105,-6.1331687,-25.128706,5.18814,-8.120237,39.54945,-13.399716,-5.1575785,-12.062565,2.3227067,9.945302,-31.182728,21.409178,-29.95356,-21.892475,11.614678,-4.928746,8.668692,19.96875,-22.80442,16.689941,-19.096907,8.715629,-18.91141,-16.35553
164,-5.827814102172852,121.53973388671875,72.82894134521484,-1.3783364660906976,3.9086216345503946,88.94637506372662,-0.98994046,7.413677,3.229736,77.15636,0.16230778,-5.569152,-23.776884,5.6846437,-7.909858,40.63585,-17.67848,-5.245037,-11.257297,2.873713,9.978691,-29.937237,21.171804,-30.226362,-21.486948,11.738143,-5.233719,8.155948,18.431156,-23.122066,16.47389,-19.068266,8.723493,-18.72845,-16.697975
165,-5.791961669921875,123.06041717529297,72.23625946044922,-1.7198629408842643,4.023849833085609,88.84819225241324,-3.9952784,8.686868,3.1758444,81.69224,-1.1323575,-4.896301,-22.9774,6.217923,-7.9591303,41.910805,-20.992027,-5.5663753,-10.313676,3.5651567,9.826876,-28.805178,21.005053,-30.531239,-20.952827,11.928891,-5.556076,7.571627,16.73299,-23.502846,16.092545,-19.127344,8.310244,-18.589365,-16.894403
166,-5.767998218536377,124.55260467529297,71.6810073852539,-2.1459772668979658,4.362105701908774,88.74545391471382,-7.5513773,10.037064,2.8911002,86.33393,-2.2692854,-4.1245856,-22.562956,6.7708583,-8.208192,43.279366,-23.744335,-5.973574,-9.285629,4.375559,9.538634,-27.669008,20.894865,-30.857576,-20.367725,12.252976,-5.8875227,6.9540877,14.883068,-23.955284,15.615917,-19.285387,7.6329308,-18.456257,-17.00991
167,-5.763744831085205,125.96906280517578,71.17512512207031,-2.5433946048071845,4.811581936517962,88.61971140121847,-11.419224,11.157492,2.3920133,90.753525,-3.2625058,-3.4249432,-22.313486,7.2568536,-8.445202,44.622353,-26.079098,-6.331586,-8.210254,5.154279,9.202481,-26.469961,20.846138,-31.130548,-19.796267,12.599891,-6.2091265,6.3284664,12.954169,-24.462978,15.102058,-19.564701,6.854192,-18.316017,-17.162949
168,-5.803713798522949,127.3116683959961,70.72734069824219,-2.7973115471091003,5.258669093188873,88.45647843742923,-15.361345,11.74546,1.7478075,94.62814,-4.1236143,-2.9747899,-22.01369,7.5951066,-8.471328,45.819523,-28.1239,-6.510104,-7.1429405,5.7477527,8.9238205,-25.105373,20.87216,-31.277206,-19.338568,12.887735,-6.500678,5.7221055,10.968568,-24.994009,14.634062,-19.95477,6.1391873,-18.153181,-17.467598
169,-5.858040809631348,128.63856506347656,70.35693359375,-2.8640181041965334,5.758658741279371,88.23688118432302,-19.533648,11.631928,0.9465063,97.97867,-4.829661,-2.8580606,-21.79849,7.757397,-8.25221,46.982975,-29.872154,-6.4602942,-6.119533,6.093673,8.73541,-23.407047,20.958158,-31.246529,-19.086027,13.338292,-6.7737546,5.064944,8.766563,-25.525839,14.292961,-20.416988,5.4584146,-17.953192,-18.035429
170,-5.881589889526367,129.97756958007812,70.05435180664062,-2.8111997878169177,6.339908580363273,87.97542506445679,-23.986341,10.98567,0.0419894,100.94779,-5.3698883,-2.9789004,-21.714308,7.792997,-7.9121127,48.127148,-31.26952,-6.2633495,-5.0930223,6.282311,8.574059,-21.540678,21.131239,-31.0619,-18.912169,13.838612,-7.039237,4.354966,6.3440514,-26.05511,14.04643,-20.906406,4.746709,-17.72079,-18.774641
171,-5.899410724639893,131.33383178710938,69.82727813720703,-2.6796748347080985,6.848622303565525,87.7087369531878,-28.324299,10.046134,-0.78770804,103.392395,-5.771485,-3.2390878,-21.411701,7.7420225,-7.4882793,48.977184,-32.35906,-5.9851327,-4.119898,6.357536,8.488829,-19.466797,21.389631,-30.78573,-18.899698,14.215712,-7.258114,3.7695565,3.8449411,-26.569338,13.908523,-21.396534,4.117412,-17.475925,-19.492289
172,-5.922926425933838,132.73731994628906,69.70128631591797,-2.5080636224995074,7.132452557617572,87.47264117529288,-32.169254,9.0866165,-1.4112972,105.17041,-6.065989,-3.5276682,-20.54412,7.64054,-7.016741,49.259457,-33.18202,-5.6939383,-3.2130494,6.3793054,8.498019,-17.300093,21.745028,-30.48903,-19.016333,14.164691,-7.388186,3.4703362,1.4643629,-27.055191,13.83628,-21.869892,3.6752627,-17.246342,-19.996979
173,-5.994295120239258,134.184814453125,69.69207763671875,-2.295455634874237,7.0941785536719495,87.25116038579978,-35.42644,8.0722,-1.8566643,106.21725,-6.262318,-3.9061098,-18.936872,7.474498,-6.4637804,48.88798,-33.80639,-5.396334,-2.3785412,6.351075,8.691342,-14.929307,22.191854,-30.137873,-19.344835,13.427307,-7.398632,3.5019672,-0.78472847,-27.5006,13.787087,-22.378155,3.5201206,-17.04224,-20.18042
174,-6.0814666748046875,135.68185424804688,69.79300689697266,-2.0257321632584775,6.832184782348444,87.03034912078918,-38.305035,6.9366755,-2.1823192,106.61705,-6.343506,-4.3906236,-16.794352,7.2318344,-5.8329344,48.01131,-34.195137,-5.0747485,-1.5967463,6.260688,9.034376,-12.365732,22.728024,-29.704733,-19.855227,12.195983,-7.3208604,3.7771811,-2.9885182,-27.898184,13.783248,-22.91147,3.5657806,-16.85469,-20.165556
175,-6.134359359741211,137.22705078125,69.98981475830078,-1.7208264085090224,6.4915213430221606,86.8491497313134,-40.8988,5.917183,-2.3331573,106.45271,-6.2987523,-4.787155,-14.348591,6.9405026,-5.2061133,46.712833,-34.231724,-4.7531457,-0.8643,6.1219707,9.373971,-9.783257,23.351915,-29.290113,-20.439531,10.957396,-7.2031736,4.27288,-5.101234,-28.243492,13.870709,-23.381985,3.6385155,-16.686,-20.104181
176,-6.137615203857422,138.7947540283203,70.28366088867188,-1.4015940056275533,6.217894244672388,86.74846217193806,-43.296185,5.242204,-2.2510715,105.806206,-6.1150804,-4.9032145,-11.83925,6.6230683,-4.6548214,45.077736,-33.795258,-4.4349694,-0.16608249,5.9388137,9.551441,-7.388729,24.06393,-29.006811,-20.958368,10.18969,-7.086909,4.963312,-7.0405974,-28.534504,14.073059,-23.72509,3.5608795,-16.536636,-20.142159
177,-6.126241207122803,140.40603637695312,70.64717102050781,-1.0652537409929002,6.0259026591360385,86.77842428170673,-45.526043,5.025247,-1.8732452,104.67407,-5.83009,-4.664242,-9.223092,6.290352,-4.1620636,42.978226,-32.905365,-4.1001773,0.49187627,5.6902895,9.51603,-5.2946734,24.878433,-28.955305,-21.305132,10.053495,-6.9798813,6.089768,-8.777922,-28.771912,14.369865,-23.918833,3.275658,-16.393698,-20.293684
178,-6.092673301696777,142.06610107421875,71.06295776367188,-0.6994753026576321,5.8462241662092715,86.90544358235036,-47.519016,5.112782,-1.2258997,103.016754,-5.454621,-4.1893034,-6.4242954,5.9129224,-3.6947663,40.430717,-31.610632,-3.7316723,1.1174086,5.3655143,9.355127,-3.3918407,25.797766,-29.055473,-21.559591,10.281167,-6.8517222,7.585103,-10.318559,-28.95759,14.71946,-24.027946,2.877581,-16.259235,-20.481028
179,-6.0631256103515625,143.74229431152344,71.5368881225586,-0.30813656176166876,5.6993025236941826,87.04738645836049,-49.210743,5.3295355,-0.38434225,100.8619,-4.9373155,-3.578493,-3.6346214,5.4640846,-3.2978153,37.7382,-29.833681,-3.3350308,1.7398334,4.9822407,9.11565,-1.5466658,26.796064,-29.151724,-21.866316,10.716039,-6.679003,8.955912,-11.638708,-29.095201,15.117551,-24.118067,2.4209516,-16.154259,-20.714237
180,-6.041372299194336,145.45632934570312,72.07025146484375,0.09788984224318674,5.607320203215786,87.12345403475624,-50.550583,5.5137787,0.5552167,98.23798,-4.219452,-2.9239979,-1.0436553,4.930202,-3.0167382,35.210926,-27.501425,-2.9337497,2.3865385,4.5677757,8.839913,0.36790562,27.826189,-29.094849,-22.357246,11.204092,-6.4511576,9.705529,-12.72859,-29.190105,15.569318,-24.235025,1.9605826,-16.100214,-21.007513
181,-6.0304460525512695,147.2243194580078,72.65516662597656,0.5400588012462181,5.588085867822875,87.12579745999011,-51.519814,5.7030063,1.6745461,95.10447,-3.330914,-2.0861251,1.3636984,4.2934084,-2.8762012,32.832535,-24.508888,-2.5204408,3.0626233,4.111317,8.507238,2.3526726,28.854095,-28.872242,-23.065489,11.853021,-6.1048474,9.599249,-13.5786495,-29.251444,16.110762,-24.34939,1.4133745,-16.119051,-21.436464
182,-6.009120464324951,149.03363037109375,73.27871704101562,1.010669258827853,5.625587527450949,87.10077723029335,-52.12695,5.9334216,2.9978826,91.46911,-2.3142185,-1.086384,3.646415,3.5916142,-2.84532,30.51827,-20.947987,-2.101282,3.7436938,3.6166549,8.100551,4.3313723,29.868225,-28.564943,-23.879349,12.705581,-5.6786485,8.925474,-14.198629,-29.286013,16.731064,-24.438532,0.78069675,-16.189386,-21.975264
183,-5.991937160491943,150.8744659423828,73.93133544921875,1.4505594506856243,5.692290221951255,87.04841640253886,-52.39113,6.0641885,4.3126526,87.42139,-1.1020132,-0.2365669,5.689877,2.8990078,-2.8841398,28.469112,-17.030155,-1.726346,4.425277,3.138523,7.6641216,6.3187385,30.847635,-28.182371,-24.716885,13.524008,-5.3205886,7.9800177,-14.584504,-29.29248,17.351719,-24.581348,0.24088144,-16.27261,-22.484869
184,-5.986093521118164,152.72946166992188,74.60075378417969,1.8025719910848106,5.761237564613508,86.9650009237252,-52.354584,5.9740663,5.3815136,83.03545,0.3988424,0.16698734,7.391575,2.2805624,-2.9535687,26.863308,-12.9405155,-1.4375162,5.1066732,2.731599,7.236439,8.319328,31.769995,-27.730547,-25.48584,14.062853,-5.1638517,7.0632343,-14.739679,-29.265429,17.897158,-24.846548,-0.02723638,-16.335743,-22.824427
185,-5.9878058433532715,154.60610961914062,75.28024291992188,2.0706922781427757,5.856006618774102,86.83688449340315,-52.02486,5.597185,6.104402,78.17917,2.3754325,-0.008364057,8.683363,1.7080575,-3.110368,25.724054,-8.401217,-1.3118029,5.817596,2.3926318,6.781985,10.353048,32.614376,-27.2009,-26.152573,14.230315,-5.3046846,6.1121445,-14.610717,-29.201239,18.34561,-25.266645,0.06694735,-16.352142,-22.931551
186,-5.991115570068359,156.48495483398438,75.95986938476562,2.270476852160047,5.98150881093214,86.669353890457,-51.394333,5.0208063,6.563263,72.842705,4.7434807,-0.57617176,9.627277,1.1604989,-3.349603,24.983025,-3.4075263,-1.2914702,6.555589,2.102714,6.281956,12.389278,33.373074,-26.616968,-26.739939,14.172873,-5.644568,5.01381,-14.217101,-29.105808,18.732063,-25.785097,0.4131086,-16.348587,-22.886625
187,-5.9914984703063965,158.3800048828125,76.62808990478516,2.383206425340727,6.085922059168199,86.47933616340035,-50.494267,4.36797,6.8018727,67.26434,7.2071767,-1.3440111,10.350615,0.70323586,-3.524451,24.597534,1.4802734,-1.2049026,7.279918,1.8848013,5.799841,14.340188,34.052017,-26.025969,-27.236006,13.988832,-6.014924,3.9957454,-13.6609335,-28.985952,19.070139,-26.349205,0.88191694,-16.373327,-22.764463
188,-5.975628852844238,160.28103637695312,77.262939453125,2.393586140112935,6.117318255677737,86.28144193683563,-49.358116,3.7614896,6.898189,61.67429,9.473086,-2.1173072,11.0148735,0.41213232,-3.4717395,24.454952,5.7274704,-0.8780759,7.9548655,1.7579043,5.4032354,16.141928,34.66572,-25.470436,-27.652887,13.792727,-6.251843,3.2896528,-13.045575,-28.8481,19.369162,-26.912827,1.3483485,-16.475163,-22.638151
189,-5.953145980834961,162.1776123046875,77.84978485107422,2.281790953269885,6.061112496684451,86.07183877038834,-47.933952,3.1974423,6.806364,55.900303,11.602478,-2.8705823,11.716489,0.33245167,-3.1138682,24.365236,9.360947,-0.08353655,8.596676,1.7512709,5.112571,17.80812,35.223133,-24.958439,-28.01222,13.619788,-6.3113923,2.9893734,-12.352123,-28.694105,19.617329,-27.507986,1.8369312,-16.684341,-22.525827
190,-5.923882007598877,164.0839080810547,78.38082122802734,2.0605291936907717,5.947432676374313,85.83693376286232,-46.227737,2.6600544,6.4963503,49.87223,13.711604,-3.685102,12.405613,0.44317672,-2.5015554,24.33527,12.659258,1.0717167,9.228502,1.8483517,4.8894677,19.37603,35.72648,-24.467627,-28.321394,13.414003,-6.281233,2.962939,-11.540239,-28.524195,19.813467,-28.153816,2.397677,-16.96785,-22.386667
191,-5.892327308654785,165.98228454589844,78.84741973876953,1.7784478078563681,5.789745968115903,85.57718718055196,-44.358932,2.2271488,6.113334,43.954876,15.615302,-4.5366783,13.014683,0.7067905,-1.7021482,24.558853,15.466964,2.2260761,9.821273,1.9970926,4.7172017,20.848387,36.18269,-23.986816,-28.604464,13.166531,-6.1990337,3.1049654,-10.693368,-28.342634,19.9873,-28.771132,2.9477215,-17.281282,-22.206417
192,-5.851006984710693,167.8726043701172,79.23216247558594,1.4862410775751336,5.600841407415607,85.29839398817607,-42.45313,1.9393777,5.8188806,38.522068,17.1325,-5.4170647,13.460594,1.0578301,-0.8389525,25.263882,17.621672,2.9705422,10.341031,2.1412401,4.5822697,22.26748,36.597263,-23.501135,-28.918497,12.887375,-6.102124,3.3106384,-9.890098,-28.153984,20.165024,-29.28352,3.404118,-17.580212,-21.97309
193,-5.803570747375488,169.75352478027344,79.52642059326172,1.16045742436391,5.369290853122346,84.98456925255674,-40.447906,1.7990156,5.6136456,33.454613,18.175043,-6.527708,13.670733,1.523382,0.08899105,26.686655,19.02725,2.996611,10.779379,2.3008585,4.491098,23.670343,36.97889,-22.986332,-29.28215,12.54952,-5.983695,3.632585,-9.167399,-27.962719,20.367306,-29.66477,3.7663386,-17.876488,-21.628548
194,-5.735262870788574,171.6334228515625,79.74600219726562,0.7670554329401941,5.080886098595599,84.63699983517336,-38.288715,1.7878141,5.4318104,28.560581,18.89635,-7.825016,13.716035,2.1254876,1.0833626,28.658253,19.80326,2.5367303,11.152222,2.5219638,4.457349,25.044538,37.330044,-22.445505,-29.687347,12.152501,-5.8316307,4.101472,-8.481048,-27.768185,20.580576,-29.960032,4.0739384,-18.185503,-21.199074
195,-5.673326015472412,173.49618530273438,79.8892822265625,0.34363533064731056,4.753671999085451,84.2925628504735,-36.15742,1.8792158,5.3476806,24.194809,19.434708,-8.943588,13.69295,2.76565,2.0105584,30.848305,20.08356,1.9776129,11.45877,2.7729883,4.4714613,26.328001,37.642002,-21.920822,-30.11363,11.744386,-5.6735425,4.578829,-7.7824492,-27.564884,20.777338,-30.201002,4.300775,-18.469656,-20.80175
196,-5.610142707824707,175.36074829101562,79.96141052246094,-0.038078688139549684,4.4238035439826,83.99916009861649,-34.29345,2.011036,5.442471,20.824615,19.866924,-9.511421,13.662435,3.315229,2.7410285,32.962738,19.975142,1.7285672,11.685491,2.9879632,4.5119834,27.411747,37.90275,-21.468988,-30.50131,11.361398,-5.5347676,4.9227552,-7.0349693,-27.345224,20.936691,-30.405539,4.4181557,-18.692707,-20.553839
197,-5.53651237487793,177.197509765625,79.98463439941406,-0.31989856542759604,4.127562108484014,83.78977116678922,-32.887703,2.167708,5.7978563,18.812763,20.104084,-9.255673,13.587604,3.7334244,3.2566168,35.004444,19.349825,1.9636772,11.80664,3.1028235,4.569068,28.24633,38.10424,-21.116913,-30.821783,10.965623,-5.4048557,5.0910006,-6.250688,-27.098728,21.063004,-30.566467,4.3357687,-18.831865,-20.543037
198,-5.470284938812256,178.9929656982422,79.9599609375,-0.515209351905761,3.8561805126235713,83.65387267913756,-31.843412,2.3407114,6.3627334,17.949232,20.056408,-8.423361,13.391791,4.0382957,3.5968983,37.198677,18.145002,2.4387136,11.812859,3.1293678,4.6418,28.864042,38.246117,-20.85408,-31.077635,10.558309,-5.2747564,5.158561,-5.461477,-26.821173,21.177769,-30.65345,4.092438,-18.9123,-20.688269
199,-5.415515422821045,180.8039093017578,79.8913345336914,-0.6439156074300635,3.584434954159605,83.57289174727764,-30.966082,2.4755435,7.020414,17.846262,19.798565,-7.4057345,13.084766,4.181972,3.7241225,39.54924,16.582617,2.9477546,11.71519,3.1017797,4.721361,29.270071,38.330883,-20.682407,-31.246546,10.230783,-5.1707644,5.1568933,-4.6515155,-26.514917,21.283384,-30.663486,3.8531358,-18.970684,-20.856386
200,-5.376355171203613,182.61672973632812,79.75707244873047,-0.7331377260573457,3.2837247226815047,83.52397532269065,-30.048985,2.5200741,7.652944,18.095272,19.444035,-6.5959506,12.69904,4.133636,3.6192853,42.018486,14.908516,3.2936413,11.534651,3.0629246,4.8007474,29.475967,38.36201,-20.606901,-31.312641,10.078758,-5.119417,5.118466,-3.78909,-26.18827,21.371351,-30.610067,3.7839186,-19.044775,-20.913994
201,-5.354071617126465,184.4399871826172,79.55538940429688,-0.7979625604551417,2.940207293791207,83.48703075033423,-29.042215,2.468425,8.282296,18.627111,19.402525,-6.2241306,12.288895,3.8935034,3.2616754,44.527905,13.107611,3.4459279,11.284481,3.0393498,4.874717,29.482319,38.34494,-20.656271,-31.2602,10.150733,-5.159654,5.0449185,-2.8394644,-25.841269,21.43154,-30.490059,3.943821,-19.153181,-20.809961
202,-5.340742111206055,186.27471923828125,79.28243255615234,-0.8290741462802763,2.564775327046572,83.46827017006113,-28.027475,2.3608737,8.957906,19.611328,19.511984,-6.0240955,11.846132,3.4762707,2.687746,47.090904,11.091772,3.5011275,10.963639,3.0101154,4.954024,29.287525,38.281925,-20.820944,-31.106876,10.388695,-5.266517,4.9227633,-1.818579,-25.473114,21.46607,-30.307436,4.2421045,-19.27227,-20.619877
203,-5.335078239440918,188.1094512939453,78.92664337158203,-0.815387732093363,2.1688564931007024,83.48790501423039,-26.998497,2.1940236,9.599444,20.987095,19.050203,-5.657754,11.318988,2.8827705,1.9744321,49.790462,9.005279,3.4620352,10.566639,2.9462883,5.0544014,28.89369,38.171093,-21.040209,-30.890976,10.720053,-5.37172,4.759107,-0.76705754,-25.099089,21.48374,-30.095427,4.6182885,-19.37662,-20.401255
204,-5.337195873260498,189.94595336914062,78.48584747314453,-0.7418481126710317,1.766694718695398,83.56902896128399,-25.960896,1.9549268,10.108858,22.708557,17.286983,-4.7916455,10.654262,2.1118147,1.1963097,52.709972,6.9913335,3.3315506,10.0842905,2.8182116,5.192223,28.30642,38.007404,-21.25058,-30.656193,11.073982,-5.4076095,4.5584254,0.2780464,-24.743698,21.491234,-29.89104,5.014544,-19.442636,-20.216335
205,-5.376683712005615,191.7529296875,77.99870300292969,-0.5954283085324563,1.3347766478610865,83.74112818276919,-24.952765,1.5921483,10.375147,25.028376,13.662231,-3.075094,9.917495,1.1171527,0.31008145,55.85014,5.0760913,3.1280365,9.493187,2.6195986,5.384685,27.543621,37.77995,-21.441408,-30.411726,11.494874,-5.3255477,4.29672,1.3443667,-24.427399,21.498362,-29.72717,5.528885,-19.45656,-20.085743
206,-5.430969715118408,193.53817749023438,77.46016693115234,-0.3908278348161297,0.8729336562926157,83.98042079912963,-23.975023,1.026412,10.353696,27.86707,8.724853,-0.8000766,9.131254,-0.08235478,-0.6846717,59.164127,3.192062,2.8453646,8.806802,2.3720822,5.6226497,26.60479,37.483196,-21.634708,-30.142874,12.003115,-5.174977,3.976163,2.4547887,-24.155052,21.494404,-29.599152,6.1593184,-19.433636,-19.983332
207,-5.464237689971924,195.3423614501953,76.82559967041016,-0.14427137059406778,0.437052620642113,84.23779405059986,-22.995052,0.24736817,10.088909,30.724798,3.3648245,1.4225073,8.171263,-1.4030564,-1.6509753,62.657,1.3406851,2.4510634,8.065436,2.0744615,5.876034,25.45346,37.12639,-21.816677,-29.839298,12.483731,-5.0339026,3.6413825,3.563444,-23.927399,21.454962,-29.494684,6.6948714,-19.394844,-19.89838
208,-5.497896671295166,197.11676025390625,76.15040588378906,0.13499338412382225,0.08698554739461153,84.47098043603725,-21.962523,-0.6408489,9.737393,33.111866,-1.5998913,3.0025125,6.896502,-2.7709582,-2.4520543,66.34969,-0.48347875,1.913367,7.3050737,1.7184802,6.1125536,24.061525,36.729073,-21.967041,-29.501919,12.817083,-4.978051,3.3411922,4.626316,-23.740059,21.356066,-29.39937,6.924195,-19.362198,-19.819777
209,-5.541187286376953,198.85507202148438,75.44573974609375,0.4766896452577868,-0.20293446927567704,84.68370995881664,-20.757612,-1.5684333,9.340945,34.881866,-6.2671475,3.676285,5.3140235,-4.2643385,-3.079374,70.36912,-2.3313606,1.1380271,6.5237966,1.2630491,6.3402367,22.476845,36.29719,-22.05501,-29.125158,12.884774,-5.1062126,3.0764823,5.623683,-23.594574,21.188091,-29.28692,6.690325,-19.349964,-19.7334
210,-5.579940319061279,200.55160522460938,74.71988677978516,0.8849958470030101,-0.4453400836698024,84.89971327975219,-19.452524,-2.5188825,8.875129,36.34781,-11.031458,3.802259,3.4828796,-5.899286,-3.5657542,74.66204,-4.1924267,0.1707998,5.704315,0.71168876,6.5632997,20.72138,35.83048,-22.080494,-28.732637,12.778227,-5.34994,2.8294263,6.58481,-23.489828,20.961756,-29.177149,6.1407366,-19.345669,-19.650192
211,-5.615345001220703,202.20420837402344,73.99144744873047,1.3151023085354736,-0.5605208383061238,85.10794632060863,-18.27111,-3.4115942,8.4542,37.70728,-15.56342,3.7196696,1.3155253,-7.5060515,-3.8446493,78.99715,-5.984504,-0.8046768,4.8626494,0.12442203,6.7436466,18.718391,35.346874,-22.067673,-28.363796,12.684928,-5.5327024,2.6243367,7.5405564,-23.41022,20.680552,-29.117304,5.5202146,-19.330118,-19.593527
212,-5.680771350860596,203.82359313964844,73.30750274658203,1.7228642136998877,-0.4697875981867338,85.29591344214136,-17.437887,-4.213931,8.171727,39.14431,-19.51913,3.7789834,-1.2910023,-8.910324,-3.873464,83.1529,-7.61917,-1.6096871,4.021912,-0.43682063,6.8444166,16.381792,34.878014,-22.039465,-28.060673,12.783996,-5.4782057,2.489661,8.527448,-23.331347,20.339933,-29.158611,5.071815,-19.283083,-19.581564
213,-5.7433085441589355,205.40802001953125,72.66027069091797,2.1251905085853324,-0.07050962182823378,85.46164865121209,-17.155678,-4.960036,8.121015,40.772068,-22.78252,4.0962234,-4.542947,-10.114494,-3.6083345,87.24395,-9.081224,-2.2134094,3.198821,-0.99014974,6.798633,13.630753,34.455254,-21.996489,-27.877724,13.164692,-5.033651,2.460381,9.539152,-23.24085,19.898668,-29.31348,4.8388257,-19.186073,-19.633503
214,-5.776729583740234,206.94146728515625,72.04962158203125,2.5373693578613805,0.5684493360331485,85.61453974212353,-17.254038,-5.6532373,8.245491,42.465237,-25.556816,4.474151,-8.348222,-11.1651125,-3.0861187,91.338356,-10.4079895,-2.706214,2.3932343,-1.5576992,6.6423426,10.564047,34.08726,-21.899134,-27.818808,13.708347,-4.3256617,2.5174475,10.579984,-23.134161,19.349974,-29.559786,4.696676,-19.054115,-19.727396
215,-5.760832786560059,208.37490844726562,71.476806640625,2.908466634838549,1.2666663672707175,85.7551066107526,-17.386383,-6.2513103,8.3989105,44.021614,-27.955866,4.8102503,-12.366781,-11.957911,-2.417464,95.14399,-11.575806,-3.0846026,1.5983958,-2.085691,6.494627,7.381769,33.767155,-21.717201,-27.86361,14.298701,-3.5976355,2.605988,11.684432,-22.994875,18.752106,-29.879044,4.636978,-18.91627,-19.819836
216,-5.716634750366211,209.74009704589844,70.95872497558594,3.183626277899456,1.843084470757416,85.8805231866601,-17.205984,-6.7178283,8.437276,45.23792,-30.080868,5.002484,-16.257877,-12.410375,-1.7359527,98.36684,-12.55767,-3.3466432,0.80061924,-2.5264695,6.471465,4.2885356,33.480335,-21.441029,-27.990124,14.836425,-3.0951755,2.671063,12.863312,-22.79806,18.18222,-30.226303,4.648804,-18.802021,-19.867876
217,-5.709550380706787,211.1277313232422,70.5320816040039,3.360885882717618,2.2791205628345104,85.98322275166396,-16.690933,-7.038966,8.355688,46.125504,-31.94778,5.0163856,-20.068052,-12.43368,-1.0121092,101.01486,-13.299472,-3.4233153,-0.028029254,-2.8912036,6.632958,0.91101795,33.223682,-21.066233,-27.915833,15.231097,-2.9235365,2.6384559,14.12324,-22.505081,17.640629,-30.61806,4.7245693,-18.70701,-19.828665
218,-5.662226676940918,212.54421997070312,70.19551086425781,3.463392381878047,2.6584244543647695,86.06544097421354,-15.992993,-7.2420106,8.2379055,46.75964,-33.502068,4.9150434,-23.930386,-12.090014,-0.24280702,103.2161,-13.813621,-3.323931,-0.86351717,-3.2135801,6.8907647,-2.5687275,32.99398,-20.633186,-27.868662,15.6458025,-2.939317,2.5546143,15.435195,-22.10139,17.104454,-31.020304,4.863733,-18.619576,-19.72801
219,-5.503662109375,214.03155517578125,69.9642562866211,3.478616466845542,2.9535736663178986,86.13761790520546,-15.021375,-7.3417726,8.067635,47.02867,-34.732056,4.740963,-27.638298,-11.565273,0.37912318,104.85477,-14.174264,-3.1986706,-1.6999415,-3.4798317,7.1779428,-6.1997185,32.790882,-20.266922,-27.651503,15.906144,-3.0105407,2.554677,16.7068,-21.627478,16.663385,-31.328733,5.0623884,-18.557133,-19.632393
220,-5.315828323364258,215.58460998535156,69.86468505859375,3.392500223431936,3.137962270029045,86.210410234412,-13.687074,-7.34902,7.8229175,46.82291,-35.62397,4.535879,-30.991278,-11.063791,0.69082433,105.81068,-14.456026,-3.1955996,-2.517935,-3.6633136,7.431392,-9.700424,32.605015,-20.055038,-27.369415,15.954464,-3.0075371,2.77095,17.883465,-21.152538,16.38448,-31.475805,5.3270106,-18.537941,-19.616104
221,-5.157402515411377,217.15618896484375,69.86582946777344,3.187378735890248,3.153413802157281,86.28904738165714,-11.85724,-7.236758,7.476119,46.0248,-36.221138,4.2894177,-33.93359,-10.623739,0.6451693,106.02427,-14.70874,-3.336537,-3.3316207,-3.7451556,7.7000713,-13.164097,32.427113,-20.05015,-26.94808,15.652097,-2.901966,3.310372,18.992384,-20.728157,16.30299,-31.483015,5.796031,-18.572319,-19.77313
222,-5.031243801116943,218.7197265625,69.9527359008789,2.8749925944690973,3.0306003517495097,86.36848507257106,-9.612482,-6.9943967,7.0507107,44.726055,-36.521698,3.9916327,-36.56614,-10.166871,0.3209682,105.56162,-14.886893,-3.5456703,-4.1551957,-3.7336185,8.013067,-16.637377,32.23762,-20.19555,-26.421091,15.079848,-2.7686958,4.083804,20.078686,-20.363607,16.372534,-31.42236,6.4347825,-18.652143,-20.053823
223,-4.925204753875732,220.2810821533203,70.11537170410156,2.479527185425993,2.877964143030131,86.44310774159575,-7.1882195,-6.6528215,6.595338,43.128334,-36.438282,3.6724396,-38.920986,-9.727042,-0.23920712,104.49078,-14.928752,-3.8242602,-4.9871902,-3.635453,8.289725,-19.97612,32.011654,-20.403862,-25.860165,14.432353,-2.6303353,4.9249682,21.093828,-20.071926,16.545704,-31.297438,6.9866896,-18.764862,-20.317453
224,-4.831303596496582,221.8952178955078,70.34359741210938,2.025357318395623,2.8040980780334452,86.50592921531064,-4.821851,-6.2433167,6.1533127,41.43237,-35.87954,3.3483343,-41.029068,-9.336093,-0.98765576,102.883286,-14.775965,-4.1743884,-5.824288,-3.4482524,8.447926,-23.03737,31.730011,-20.584421,-25.33368,13.91015,-2.5021884,5.66171,21.992523,-19.869802,16.773113,-31.114632,7.195039,-18.893478,-20.42681
225,-4.748838424682617,223.57411193847656,70.6513442993164,1.4855807185190444,2.8278083674941232,86.5378037548354,-2.482657,-5.7634907,5.6774583,39.55353,-34.844475,3.0205445,-42.87926,-9.025769,-1.9851497,100.71829,-14.562925,-4.6493826,-6.656151,-3.1253378,8.461887,-25.820585,31.382696,-20.736523,-24.828833,13.517451,-2.40608,6.285119,22.749578,-19.793945,17.08264,-30.846123,6.866523,-19.064095,-20.352499
226,-4.687991142272949,225.32154846191406,71.0234375,0.8544507515718253,2.8960450242201734,86.54363833310346,-0.09869093,-5.1881776,5.169037,37.448723,-33.376522,2.666281,-44.437897,-8.753056,-3.235457,97.96833,-14.293256,-5.2041507,-7.4929237,-2.6594667,8.387128,-28.378468,30.96933,-20.885353,-24.32433,13.172339,-2.3280854,6.8665667,23.404871,-19.85922,17.481356,-30.515821,6.183958,-19.276619,-20.179073
227,-4.631830215454102,227.10110473632812,71.45193481445312,0.1971794066161847,3.010007255120846,86.55155897142625,2.1602566,-4.5366597,4.7350383,35.37907,-31.4521,2.2738922,-45.70846,-8.449691,-4.6049066,94.69161,-13.708156,-5.7173247,-8.351865,-2.112034,8.257907,-30.66153,30.497845,-20.992748,-23.867128,12.9465,-2.2207046,7.3543453,24.01216,-20.031466,17.886284,-30.210396,5.453134,-19.472237,-19.933086
228,-4.574655532836914,228.911376953125,71.93489074707031,-0.418869791293309,3.171175077415422,86.59022236233095,4.1333537,-3.8423321,4.472518,33.608772,-29.04695,1.8466854,-46.709652,-8.064207,-5.9532003,90.94329,-12.542058,-6.091227,-9.2422905,-1.5600852,8.100738,-32.633705,29.983795,-21.03567,-23.488358,12.909269,-2.0340815,7.698574,24.616476,-20.247526,18.216255,-29.998732,4.9733176,-19.58824,-19.628448
229,-4.514340877532959,230.7576446533203,72.47460174560547,-0.991977383757377,3.3960635483249524,86.67521399583822,5.806638,-3.0983295,4.42541,32.164482,-26.050848,1.3533682,-47.442917,-7.647951,-7.3398414,86.67145,-10.724876,-6.4723864,-10.184721,-1.018272,7.898962,-34.272015,29.435087,-21.004843,-23.194563,13.160523,-1.7031716,7.808704,25.188595,-20.468529,18.445469,-29.880842,4.819497,-19.578724,-19.152702
230,-4.431299209594727,232.62815856933594,73.04246520996094,-1.5511416270021972,3.6793758284499525,86.78398509175615,7.249549,-2.3203495,4.5107884,30.942783,-22.51965,0.8246446,-47.897636,-7.201735,-8.80086,81.86906,-8.410286,-6.8668346,-11.151803,-0.46322563,7.640634,-35.622726,28.85597,-20.941294,-22.9528,13.6357765,-1.2686477,7.7362714,25.697842,-20.687521,18.620865,-29.791388,4.823482,-19.484352,-18.522896
231,-4.335169315338135,234.50088500976562,73.6285400390625,-2.0632784220895126,3.9892685506456025,86.89216308862792,8.443906,-1.571799,4.63395,29.998627,-18.666855,0.34795535,-48.094643,-6.605882,-10.125543,76.634346,-5.6462255,-6.969942,-12.08131,0.076196514,7.353809,-36.756454,28.260204,-20.9018,-22.739052,14.155098,-0.8375821,7.648393,26.188726,-20.882841,18.770498,-29.703743,4.916478,-19.369787,-17.940601
232,-4.216039180755615,236.37208557128906,74.22037506103516,-2.4985863706640092,4.293231559465105,86.97863077692057,9.382993,-0.90534866,4.712602,29.366909,-14.6863985,-0.00833057,-48.06384,-5.738068,-11.069481,71.03534,-2.4545805,-6.470091,-12.913027,0.5659291,7.064619,-37.734745,27.668112,-20.941874,-22.543068,14.532256,-0.5131945,7.7176137,26.700933,-21.021526,18.92205,-29.58368,5.0306683,-19.30196,-17.604534
233,-4.090259075164795,238.26548767089844,74.80756378173828,-2.85357571014518,4.615671012098143,87.05068875105914,9.989162,-0.29353642,4.8097997,29.072319,-10.298004,-0.18256754,-47.797142,-4.480444,-11.4821005,64.79094,1.6597632,-5.065015,-13.653552,0.99745953,6.74953,-38.537525,27.089458,-21.073986,-22.347206,14.666495,-0.328293,8.040264,27.231234,-21.066576,19.11179,-29.389608,5.1351805,-19.310713,-17.665668
234,-3.952972650527954,240.1759796142578,75.37715148925781,-3.140015286749234,4.960910183296175,87.12310268059532,10.3167,0.28031746,4.9277234,29.047813,-5.4657874,-0.2746842,-47.262005,-2.8992105,-11.364923,57.874336,6.568811,-2.9524393,-14.327236,1.3713698,6.398238,-39.143116,26.53046,-21.28228,-22.167906,14.665599,-0.22366972,8.512279,27.745703,-21.00549,19.318665,-29.121544,5.2611213,-19.356777,-17.974594
235,-3.811288356781006,242.1109619140625,75.92073059082031,-3.342431514066733,5.263970670670311,87.1935457282219,10.547981,0.7432903,4.8979106,29.209257,-0.7648684,-0.45497206,-46.435764,-1.2085377,-10.760754,50.718685,11.320359,-0.6142154,-14.918865,1.6614655,6.063458,-39.617916,26.002827,-21.574968,-22.024385,14.663078,-0.1616579,9.011687,28.227898,-20.854095,19.487383,-28.815617,5.4411097,-19.40497,-18.278913
236,-3.6778907775878906,244.05606079101562,76.42410278320312,-3.4440377872067214,5.458267300315386,87.26082679205427,10.875872,1.0015225,4.5558424,29.457989,3.218028,-0.8594971,-45.3108,0.30846995,-9.870545,43.797016,14.978853,1.3848994,-15.4194145,1.8397923,5.8011975,-40.020382,25.519285,-21.952105,-21.947989,14.793482,-0.10310797,9.416533,28.668293,-20.645437,19.56189,-28.522625,5.711783,-19.41969,-18.331303
237,-3.541137933731079,246.00767517089844,76.85478973388672,-3.3844496440208256,5.510546198590523,87.33377408908304,11.413202,0.9185048,3.7109632,29.637718,6.42932,-1.5960892,-43.76945,1.6614983,-8.540249,36.880672,17.14456,2.9926684,-15.847493,1.8472058,5.6200404,-40.335297,25.094425,-22.43097,-21.983894,15.145903,0.014342427,9.727049,29.118004,-20.39982,19.503078,-28.289732,6.1595674,-19.377132,-18.000525
238,-3.4223008155822754,247.9674072265625,77.19986724853516,-3.145248598948212,5.4400020994292415,87.44147625618314,12.09809,0.51269805,2.4695587,29.781408,9.175736,-2.567573,-41.772087,2.780824,-6.800804,29.74577,18.417723,4.372657,-16.239187,1.6671349,5.502844,-40.526474,24.734425,-22.991291,-22.125938,15.624994,0.15456435,9.996516,29.57656,-20.11979,19.349087,-28.106136,6.7442527,-19.296278,-17.447649
239,-3.316236734390259,249.93984985351562,77.44851684570312,-2.7754720805656783,5.268344000415998,87.59781508118458,12.828518,-0.0573,1.1561357,30.11615,11.3923645,-3.5541182,-39.567204,3.408523,-5.2444067,23.02465,19.352892,5.362751,-16.599064,1.3467209,5.4598565,-40.621387,24.437147,-23.572912,-22.32463,16.089748,0.20734902,10.182806,29.954798,-19.81613,19.161388,-27.92877,7.316349,-19.208353,-16.86607
240,-3.239299774169922,251.89886474609375,77.60389709472656,-2.3770284997193714,5.048336973415836,87.78433287476354,13.42333,-0.56543845,0.14464112,30.934021,12.990938,-4.321528,-37.548687,3.5151007,-4.4737773,17.51829,20.439428,5.9200053,-16.903427,0.9951844,5.485668,-40.644127,24.1944,-24.113176,-22.534573,16.405064,0.0597751,10.246229,30.15956,-19.507322,19.000824,-27.711504,7.7295675,-19.15063,-16.447994
