unveil-humanoid-operators/unveil-humanoid-operators.github.io/feature-analysis-animation/data/feature_matrix_instances/height_root_translate_rom_jogging_A041_jog_forward_start_005__A041.csv
Frame,root_translateX,root_translateY,root_translateZ,root_rotateX,root_rotateY,root_rotateZ,left_hip_pitch_joint_dof,left_hip_roll_joint_dof,left_hip_yaw_joint_dof,left_knee_joint_dof,left_ankle_pitch_joint_dof,left_ankle_roll_joint_dof,right_hip_pitch_joint_dof,right_hip_roll_joint_dof,right_hip_yaw_joint_dof,right_knee_joint_dof,right_ankle_pitch_joint_dof,right_ankle_roll_joint_dof,waist_yaw_joint_dof,waist_roll_joint_dof,waist_pitch_joint_dof,left_shoulder_pitch_joint_dof,left_shoulder_roll_joint_dof,left_shoulder_yaw_joint_dof,left_elbow_joint_dof,left_wrist_roll_joint_dof,left_wrist_pitch_joint_dof,left_wrist_yaw_joint_dof,right_shoulder_pitch_joint_dof,right_shoulder_roll_joint_dof,right_shoulder_yaw_joint_dof,right_elbow_joint_dof,right_wrist_roll_joint_dof,right_wrist_pitch_joint_dof,right_wrist_yaw_joint_dof
0,-0.5011598467826843,-1.7718989849090576,78.24583435058594,-0.35736792135256984,1.5082995184285677,75.49204533953969,3.3706787,6.91709,11.987378,7.966276,-10.50193,-5.7635794,-3.1819682,-6.4663653,-10.047907,10.573299,-9.150929,5.8116255,5.085483,0.5886545,6.5630236,7.033883,17.124641,-21.991749,50.64175,1.1606917,4.9207363,5.157914,-4.907529,-17.638287,31.492079,59.268738,-12.890099,5.1085,-0.056133654
1,-0.49775224924087524,-1.7809977531433105,78.24449157714844,-0.3589513351187842,1.518275819688169,75.49176586774081,3.312422,6.9304852,11.981652,8.064655,-10.541824,-5.7453766,-3.1988125,-6.4628873,-10.046973,10.58096,-9.149617,5.808823,5.0913405,0.58364254,6.558354,7.0429997,17.13143,-21.994589,50.624622,1.1951255,4.9160643,5.131661,-4.8953424,-17.640736,31.493622,59.25514,-12.870805,5.111818,-0.04835844
2,-0.4958686828613281,-1.7782235145568848,78.24322509765625,-0.35975166196269276,1.5278318956410866,75.49085146964873,3.2570643,6.942099,11.976519,8.157845,-10.577882,-5.725751,-3.215523,-6.46038,-10.045082,10.588879,-9.1477995,5.806218,5.09695,0.57875496,6.553325,7.0454574,17.13378,-21.996937,50.617577,1.2320015,4.908949,5.1031256,-4.8889666,-17.641367,31.49583,59.24936,-12.852274,5.114213,-0.039724056
3,-0.48844489455223083,-1.772369623184204,78.24298095703125,-0.36254732003112483,1.5379243963680047,75.49120251524782,3.1969748,6.956935,11.969718,8.259599,-10.620048,-5.71085,-3.231047,-6.455612,-10.045293,10.5942745,-9.146056,5.8031807,5.1008816,0.5761486,6.545204,7.0494504,17.137161,-22.000021,50.61114,1.2636576,4.902867,5.0782504,-4.8800654,-17.642048,31.499186,59.244396,-12.832811,5.1154013,-0.032254707
4,-0.4967305362224579,-1.7764415740966797,78.24348449707031,-0.3651248819670149,1.5440766888102755,75.49169210467716,3.1593404,6.967277,11.966321,8.322857,-10.647397,-5.7066627,-3.2413113,-6.451817,-10.045365,10.5994215,-9.148167,5.800251,5.1037946,0.57535875,6.541474,7.0533175,17.140724,-22.002636,50.603954,1.2826384,4.899659,5.063726,-4.872197,-17.64256,31.502108,59.242798,-12.812395,5.112508,-0.026486762
5,-0.5023643374443054,-1.7765637636184692,78.2446517944336,-0.36895264215631807,1.546437343899346,75.49371713178806,3.1449566,6.974497,11.96558,8.344358,-10.659969,-5.7211776,-3.2462232,-6.4479218,-10.046972,10.604581,-9.156808,5.794613,5.1038136,0.5785559,6.5418634,7.0594544,17.144295,-22.004457,50.592834,1.2823472,4.901857,5.063433,-4.861762,-17.642693,31.50222,59.242237,-12.790564,5.1022754,-0.022573361
6,-0.5041317343711853,-1.7786675691604614,78.24502563476562,-0.373166100562621,1.545186684808247,75.49652808005924,3.150107,6.9783187,11.967571,8.332315,-10.660734,-5.748189,-3.2473214,-6.44458,-10.04904,10.6115465,-9.170964,5.7873063,5.101751,0.58514774,6.546427,7.0630136,17.145294,-22.004078,50.584747,1.2705413,4.907005,5.0732245,-4.8524733,-17.642351,31.499506,59.245823,-12.769152,5.0867634,-0.019549774
7,-0.5032894015312195,-1.779825210571289,78.24610137939453,-0.37720688128908636,1.542723816701416,75.4988931211376,3.1602504,6.9812627,11.97047,8.314146,-10.659961,-5.7753606,-3.2447698,-6.4413457,-10.051178,10.61486,-9.183171,5.7833595,5.1004796,0.59193003,6.551406,7.0660853,17.145433,-22.003868,50.57771,1.255853,4.911591,5.0862865,-4.8434563,-17.641666,31.496412,59.25091,-12.750254,5.072763,-0.017642811
8,-0.50323086977005,-1.7807060480117798,78.24524688720703,-0.3792816072778046,1.5392185806217762,75.49907158360826,3.1708567,6.982345,11.97449,8.302031,-10.661048,-5.789789,-3.2380724,-6.4393682,-10.051296,10.611213,-9.186791,5.788185,5.10076,0.59650475,6.55629,7.071902,17.144882,-22.004578,50.56826,1.2461735,4.9133615,5.097698,-4.8306637,-17.640806,31.494555,59.251526,-12.73877,5.0648713,-0.01741882
9,-0.5027586817741394,-1.7798103094100952,78.24332427978516,-0.3785806931315429,1.5358169954112029,75.49417129530757,3.177787,6.981908,11.98172,8.304358,-10.667704,-5.7859597,-3.2264,-6.438194,-10.047032,10.595103,-9.17495,5.809004,5.104822,0.5982864,6.5568676,7.082536,17.143742,-22.00633,50.559586,1.2422055,4.906254,5.1060653,-4.812469,-17.639566,31.495565,59.245495,-12.738981,5.0707726,-0.018065333
10,-0.5008150339126587,-1.7750788927078247,78.24199676513672,-0.37619687511609534,1.5316465012510299,75.48606027187115,3.1856556,6.979762,11.991639,8.311924,-10.677146,-5.7713556,-3.211059,-6.4380503,-10.039803,10.572039,-9.154226,5.841086,5.1103945,0.5984861,6.557381,7.0944138,17.14215,-22.00847,50.55101,1.2384706,4.8936486,5.1142335,-4.7939873,-17.638006,31.500397,59.23702,-12.744937,5.084453,-0.019698419
11,-0.5001860857009888,-1.771259069442749,78.23944091796875,-0.37332381727597297,1.5277832632137933,75.48067389745772,3.191797,6.977426,11.997807,8.321399,-10.686146,-5.7529235,-3.19571,-6.43877,-10.035576,10.551094,-9.135166,5.871458,5.114406,0.5977926,6.559775,7.1013927,17.141468,-22.009718,50.543705,1.2393254,4.8834305,5.118311,-4.7808275,-17.637318,31.503996,59.233284,-12.750343,5.0958047,-0.021399112
12,-0.4948998689651489,-1.7664071321487427,78.2386245727539,-0.3754948596338335,1.5210227763646473,75.48302538923024,3.1949842,6.9815006,11.994264,8.338623,-10.697696,-5.7385116,-3.1713219,-6.434361,-10.040891,10.523486,-9.120002,5.8864627,5.109675,0.60008055,6.552698,7.1189833,17.136963,-22.013823,50.53658,1.248933,4.881161,5.1230497,-4.7543206,-17.632792,31.522366,59.226875,-12.744226,5.1070867,-0.032123804
13,-0.5008504986763,-1.7750087976455688,78.23743438720703,-0.381024611544108,1.5131985724169261,75.49959134314545,3.1902025,6.990799,11.973578,8.364711,-10.709406,-5.7270684,-3.1463356,-6.4286256,-10.061307,10.508425,-9.123403,5.879152,5.0976706,0.6033497,6.5523877,7.122583,17.133629,-22.015139,50.53366,1.2750577,4.891285,5.116934,-4.7369046,-17.628736,31.533165,59.231533,-12.726963,5.1038656,-0.044425152
14,-0.4954921007156372,-1.7648797035217285,78.23873138427734,-0.3895371018760441,1.5036019063461776,75.52537988215319,3.1816783,7.0042605,11.941356,8.397041,-10.721483,-5.7157865,-3.1169574,-6.4208736,-10.092058,10.495609,-9.135446,5.8577585,5.0823507,0.6071637,6.5556927,7.120004,17.13224,-22.017532,50.531013,1.3130499,4.909513,5.104269,-4.7184863,-17.626345,31.540531,59.236034,-12.70231,5.094443,-0.05920395
15,-0.4948449730873108,-1.7623052597045898,78.23980712890625,-0.398172037747776,1.494663145297177,75.55147258729701,3.1724813,7.0175905,11.909043,8.428089,-10.7335005,-5.7075067,-3.0904336,-6.413457,-10.123039,10.486899,-9.149576,5.832756,5.0659237,0.6110928,6.5577126,7.1178646,17.130747,-22.02024,50.527454,1.3505502,4.9312096,5.0910554,-4.6984324,-17.62286,31.547468,59.240276,-12.67969,5.0827794,-0.07421762
16,-0.48670125007629395,-1.755035638809204,78.24156951904297,-0.4030731405244007,1.4896394335622796,75.5670072637392,3.1702557,7.0241485,11.890689,8.439964,-10.739738,-5.7047353,-3.0779424,-6.4104156,-10.141398,10.488389,-9.160278,5.8148227,5.0539727,0.61455333,6.5604568,7.1171427,17.130379,-22.021341,50.52165,1.3736535,4.9481874,5.0827823,-4.68731,-17.621874,31.549656,59.246628,-12.66981,5.0727673,-0.08229817
17,-0.4931015074253082,-1.755010724067688,78.24067687988281,-0.4057689730377767,1.4871838623861329,75.57252923423418,3.1719284,7.0257263,11.885501,8.441157,-10.746758,-5.7113767,-3.074443,-6.410397,-10.148931,10.4914875,-9.160037,5.8071146,5.0449004,0.6192659,6.5592413,7.1213555,17.12939,-22.021751,50.51199,1.3848206,4.9700017,5.0792274,-4.6723514,-17.61971,31.551336,59.252544,-12.676288,5.0605316,-0.08766878
18,-0.4982011020183563,-1.7562795877456665,78.24115753173828,-0.40553047611179394,1.4890092543940927,75.56982088774114,3.1794546,7.021966,11.8914795,8.423062,-10.747445,-5.7256694,-3.0833793,-6.413934,-10.146755,10.502151,-9.155737,5.803912,5.037336,0.6240528,6.551042,7.1370797,17.12683,-22.019619,50.493015,1.3886254,4.997896,5.080802,-4.6568947,-17.61504,31.549746,59.262604,-12.70105,5.0462937,-0.09017967
19,-0.4980173408985138,-1.753920555114746,78.24187469482422,-0.4050561648726321,1.4908099082549722,75.56462884204419,3.1835923,7.0182157,11.900166,8.412951,-10.753229,-5.740021,-3.0956552,-6.417993,-10.141467,10.517692,-9.152768,5.802046,5.0313983,0.62881243,6.5492387,7.142093,17.125605,-22.01829,50.48305,1.3837665,5.0141096,5.082081,-4.6508265,-17.613123,31.548178,59.270786,-12.71931,5.036283,-0.08992682
20,-0.49424436688423157,-1.7517009973526,78.24150085449219,-0.4033153970266922,1.4917855743672288,75.56088267358473,3.1900303,7.0135326,11.907805,8.40133,-10.755628,-5.7475963,-3.1068215,-6.4230795,-10.136555,10.536299,-9.155804,5.798861,5.0226502,0.63371265,6.54466,7.1578135,17.12091,-22.01196,50.4634,1.3825955,5.0243063,5.082099,-4.6442356,-17.606077,31.540073,59.281277,-12.739832,5.029622,-0.092693835
21,-0.4943806231021881,-1.750752329826355,78.24150848388672,-0.40358075898481793,1.4891872500841017,75.56154625512121,3.1932638,7.0132413,11.91039,8.405691,-10.763156,-5.744961,-3.108066,-6.424849,-10.136341,10.549448,-9.163576,5.7919917,5.0096374,0.6396892,6.5455866,7.163122,17.117558,-22.008213,50.455017,1.3740956,5.009578,5.0770283,-4.6432037,-17.600956,31.535494,59.285084,-12.736448,5.034841,-0.1000701
22,-0.4946814477443695,-1.747254490852356,78.24034881591797,-0.4039713715246598,1.4850248297510211,75.56348861826244,3.195519,7.014314,11.912113,8.417556,-10.773286,-5.7361884,-3.1051822,-6.42582,-10.136951,10.561013,-9.174296,5.7835617,4.9935594,0.64677286,6.5485153,7.1675363,17.115223,-22.004353,50.447773,1.3605638,4.979777,5.069443,-4.644303,-17.597296,31.530802,59.284206,-12.722938,5.0475225,-0.10982716
23,-0.49546152353286743,-1.7436275482177734,78.2383804321289,-0.40458617994319973,1.4812148768609754,75.56561381002177,3.1996791,7.0148315,11.913043,8.423869,-10.778743,-5.727173,-3.1005995,-6.426115,-10.137997,10.568512,-9.184004,5.776301,4.980064,0.65222186,6.5510106,7.1704106,17.112667,-22.000189,50.442417,1.3476357,4.9494586,5.062807,-4.6447563,-17.593279,31.526546,59.2813,-12.705866,5.060789,-0.12049518
24,-0.49576660990715027,-1.7394893169403076,78.23834991455078,-0.405022162815423,1.4799270041140484,75.56745977989367,3.1963346,7.0157447,11.91172,8.437279,-10.786241,-5.7236514,-3.099847,-6.427046,-10.138895,10.575619,-9.191826,5.772917,4.973168,0.65433085,6.549346,7.1705704,17.110495,-21.995636,50.44233,1.3420978,4.932603,5.060686,-4.6417704,-17.589994,31.523142,59.28048,-12.694882,5.0676146,-0.13063063
25,-0.49810847640037537,-1.7386022806167603,78.23789978027344,-0.4055335102514599,1.4825310584839553,75.56952817942883,3.1924784,7.014626,11.907084,8.436769,-10.782527,-5.7300134,-3.0990398,-6.4276595,-10.141067,10.569904,-9.190325,5.774734,4.977911,0.65071195,6.542066,7.1655836,17.108261,-21.991705,50.44883,1.3487685,4.939399,5.0657005,-4.6328144,-17.587004,31.522394,59.28091,-12.687738,5.0655055,-0.14029953
26,-0.4891403913497925,-1.7342997789382935,78.23974609375,-0.4061804784347059,1.4878070559144203,75.57198487343098,3.1855469,7.012905,11.899574,8.432061,-10.773328,-5.742217,-3.0990822,-6.4283047,-10.144248,10.558241,-9.184829,5.7801347,4.9907055,0.6421649,6.529251,7.153294,17.105791,-21.988045,50.466778,1.3644279,4.9593163,5.074735,-4.6188364,-17.584337,31.52421,59.28194,-12.681773,5.058402,-0.15076372
27,-0.49616867303848267,-1.7390128374099731,78.24039459228516,-0.4066023375105829,1.493122695138151,75.57304240675325,3.1797934,7.0109963,11.893699,8.426677,-10.7645855,-5.7534595,-3.098925,-6.428641,-10.146224,10.545186,-9.178587,5.7872295,5.00161,0.63362765,6.5138164,7.1367764,17.097553,-21.982597,50.494587,1.3784559,4.9781637,5.086414,-4.609382,-17.577414,31.531248,59.291187,-12.677934,5.049914,-0.16286713
28,-0.5028387308120728,-1.7383543252944946,78.2376937866211,-0.4068163968423421,1.4958951526504274,75.5708591759845,3.1775794,7.0099244,11.89367,8.425288,-10.761864,-5.757021,-3.09751,-6.4284487,-10.145005,10.535228,-9.174685,5.7941523,5.0083456,0.6297337,6.5051036,7.1335516,17.095919,-21.979727,50.501675,1.3762876,4.982837,5.0961895,-4.6014013,-17.576157,31.53161,59.294113,-12.680185,5.042061,-0.17206721
29,-0.5020427703857422,-1.7351435422897339,78.2357177734375,-0.4065841850896294,1.495020265319046,75.5638654112984,3.1816626,7.009741,11.903256,8.429628,-10.769451,-5.7476106,-3.0935938,-6.4271727,-10.139407,10.528426,-9.173571,5.801327,5.0060806,0.6300646,6.5012946,7.135915,17.095123,-21.97714,50.50069,1.3516483,4.9633355,5.103903,-4.5985627,-17.575531,31.530483,59.296604,-12.691516,5.0361614,-0.18063423
30,-0.49935081601142883,-1.731670618057251,78.23492431640625,-0.4066364885636558,1.49111496833636,75.55216561108233,3.1894658,7.011555,11.920266,8.440327,-10.7849455,-5.730213,-3.0859392,-6.424126,-10.129933,10.52008,-9.17221,5.809324,4.9939137,0.6356484,6.5018096,7.151808,17.091116,-21.965374,50.491127,1.3121191,4.9214296,5.113016,-4.5990844,-17.571619,31.523375,59.30103,-12.722762,5.027988,-0.18950564
31,-0.49839118123054504,-1.72904634475708,78.23616027832031,-0.40611252736987885,1.487345664869048,75.54057527102152,3.1976895,7.0124354,11.936916,8.449724,-10.79974,-5.7124434,-3.080314,-6.42192,-10.119827,10.515795,-9.173478,5.8167872,4.982165,0.64083785,6.5028825,7.1657696,17.088997,-21.956255,50.479885,1.276133,4.885214,5.1194324,-4.605533,-17.568958,31.517475,59.310062,-12.747107,5.0215783,-0.1969314
32,-0.5006261467933655,-1.7292227745056152,78.23593139648438,-0.40566129449042626,1.4859822779229868,75.53160065430653,3.2036746,7.0121956,11.946955,8.452613,-10.8067,-5.7032914,-3.0773711,-6.4206014,-10.111144,10.512533,-9.1758795,5.822031,4.977125,0.64231175,6.50096,7.1720843,17.08743,-21.949327,50.474815,1.2606796,4.871488,5.1226172,-4.6092844,-17.566679,31.513918,59.316387,-12.751148,5.019384,-0.20437643
33,-0.5047914385795593,-1.7234593629837036,78.236328125,-0.40500347090700334,1.48825823857439,75.52670880976864,3.204406,7.00961,11.946455,8.448858,-10.803084,-5.706789,-3.0794127,-6.4210644,-10.104155,10.512512,-9.182245,5.824168,4.978887,0.6398268,6.49501,7.1723576,17.086586,-21.942932,50.474102,1.2815956,4.891843,5.1189356,-4.6123857,-17.565544,31.51193,59.323196,-12.729108,5.022944,-0.21211497
34,-0.5014039278030396,-1.722110390663147,78.23873138427734,-0.4036672731596263,1.4928779353561699,75.52360643277957,3.2068896,7.004245,11.940547,8.430523,-10.787215,-5.718113,-3.0846658,-6.4230394,-10.097209,10.514194,-9.190931,5.824282,4.9866414,0.6338501,6.487009,7.166981,17.085806,-21.935095,50.475056,1.3289098,4.9369063,5.108214,-4.6166887,-17.564737,31.5118,59.33081,-12.68508,5.030834,-0.22060272
35,-0.5055769085884094,-1.7180039882659912,78.23841857910156,-0.4027364471574571,1.4975161468172622,75.52137467859453,3.20355,7.00053,11.933152,8.4237175,-10.77753,-5.730616,-3.0921457,-6.425208,-10.091366,10.521005,-9.200957,5.8235393,4.99197,0.62686956,6.4799705,7.1600842,17.0845,-21.922913,50.47924,1.3774235,4.9835277,5.098745,-4.621541,-17.563816,31.513706,59.336823,-12.642396,5.0389457,-0.22678383
36,-0.5085821747779846,-1.7196499109268188,78.23869323730469,-0.4035700785074452,1.4995896866157774,75.51905048488938,3.2044125,6.999771,11.930301,8.418318,-10.772403,-5.7388077,-3.0938597,-6.4247212,-10.0882015,10.521796,-9.20307,5.823049,4.987849,0.62288713,6.476276,7.1580486,17.081484,-21.904861,50.48417,1.403089,5.011461,5.0983615,-4.6308336,-17.562414,31.52014,59.344566,-12.620186,5.042487,-0.22757082
37,-0.5019124746322632,-1.7073912620544434,78.23670196533203,-0.40680996095451916,1.4975657000758207,75.51746840792165,3.211043,7.0035477,11.932993,8.416551,-10.774384,-5.7402787,-3.0869546,-6.420997,-10.090422,10.515319,-9.1936655,5.822515,4.9808774,0.6239349,6.474183,7.1589727,17.080133,-21.89897,50.492584,1.3857577,5.01415,5.116333,-4.6337566,-17.561903,31.520092,59.348145,-12.6275215,5.0383673,-0.22023247
38,-0.5037332773208618,-1.708454966545105,78.23397827148438,-0.41147718441043113,1.4933963793032718,75.5164147714147,3.2203908,7.009856,11.938888,8.417027,-10.780482,-5.73841,-3.0765133,-6.415612,-10.095963,10.506856,-9.177899,5.8215356,4.9719224,0.62731147,6.4737096,7.1611257,17.079374,-21.895842,50.50297,1.3468459,5.00391,5.144207,-4.6337028,-17.561628,31.51753,59.348793,-12.651186,5.0300183,-0.20791829
39,-0.5010618567466736,-1.7081595659255981,78.23331451416016,-0.416541079161982,1.488807027589021,75.51464313316843,3.2309217,7.017137,11.946802,8.41705,-10.787731,-5.7359715,-3.064318,-6.409057,-10.101181,10.495443,-9.160548,5.8211465,4.961836,0.6310213,6.4748945,7.163577,17.078663,-21.893625,50.51422,1.3013058,4.986485,5.173213,-4.633786,-17.561432,31.5129,59.348316,-12.68702,5.0211387,-0.1925805
40,-0.5002332925796509,-1.707561731338501,78.23479461669922,-0.41970298131938916,1.4875932868925794,75.51068777651636,3.2383316,7.0217857,11.956133,8.415332,-10.794372,-5.735511,-3.059456,-6.404499,-10.101039,10.4900675,-9.151109,5.822623,4.9586945,0.6329689,6.4755344,7.16433,17.07834,-21.89245,50.51981,1.2725952,4.972873,5.1886573,-4.634624,-17.561384,31.510242,59.3468,-12.71605,5.0176086,-0.18150356
41,-0.507369875907898,-1.7072075605392456,78.23418426513672,-0.421906152894312,1.4893245832423776,75.50210832048262,3.2446358,7.0252366,11.96934,8.409594,-10.800541,-5.7401357,-3.0592551,-6.399561,-10.092445,10.485437,-9.149679,5.826393,4.960678,0.63401026,6.4788713,7.1642985,17.077118,-21.888594,50.521267,1.2574921,4.955048,5.1888056,-4.639061,-17.561583,31.504963,59.342934,-12.752625,5.021542,-0.16949868
42,-0.518011748790741,-1.723642110824585,78.23371887207031,-0.4226717233999692,1.4936711858345513,75.49085201918777,3.2511842,7.0266943,11.985776,8.398314,-10.805841,-5.747435,-3.0644457,-6.395393,-10.078504,10.485153,-9.154847,5.831952,4.9671917,0.63390464,6.482275,7.1632032,17.076616,-21.884506,50.51845,1.2538685,4.9354606,5.175617,-4.645984,-17.56195,31.504047,59.33889,-12.788791,5.0314336,-0.15987036
43,-0.5221704840660095,-1.7217298746109009,78.23202514648438,-0.42199069132836076,1.499748923011718,75.47908390932757,3.253111,7.0263834,12.001449,8.3907,-10.81096,-5.752591,-3.0740786,-6.3934975,-10.063326,10.488382,-9.16256,5.838296,4.974081,0.63191146,6.485316,7.162928,17.07604,-21.878836,50.512505,1.2578696,4.9208746,5.160039,-4.6539173,-17.56263,31.50485,59.335262,-12.821096,5.04098,-0.15273802
44,-0.504396915435791,-1.7004417181015015,78.23497772216797,-0.41961005400559886,1.5066075373434935,75.46910747825669,3.2497232,7.0230703,12.012964,8.3876505,-10.812938,-5.750423,-3.0863638,-6.3950844,-10.0507965,10.492347,-9.167668,5.844385,4.9768066,0.6272248,6.486453,7.161078,17.075283,-21.872156,50.508698,1.266954,4.918814,5.151258,-4.661755,-17.563911,31.506557,59.33467,-12.847,5.0448055,-0.14942704
45,-0.5073739886283875,-1.693957805633545,78.2337417602539,-0.41261497221638194,1.5164020717103677,75.46024086704821,3.2362797,7.013187,12.019375,8.390556,-10.80826,-5.7372627,-3.1079178,-6.40447,-10.040068,10.501471,-9.170166,5.8522263,4.978561,0.6163001,6.484523,7.155283,17.074837,-21.869478,50.50659,1.2872151,4.941107,5.1536236,-4.671616,-17.564894,31.506845,59.341267,-12.867296,5.038465,-0.15210533
46,-0.5136590003967285,-1.6967600584030151,78.23245239257812,-0.40281657007682925,1.5285358343784483,75.45183280928943,3.2109354,6.999637,12.021898,8.4070215,-10.804386,-5.715567,-3.1370246,-6.4188995,-10.030079,10.5156555,-9.172739,5.8615055,4.984153,0.60129446,6.479163,7.14145,17.074026,-21.875034,50.510685,1.3150623,4.9802947,5.163276,-4.678197,-17.566847,31.50203,59.35103,-12.884604,5.025416,-0.16055222
47,-0.518021821975708,-1.6959941387176514,78.23397827148438,-0.3947899912603294,1.5370749590467885,75.44556093332345,3.191987,6.9876018,12.022241,8.419275,-10.798501,-5.694231,-3.156758,-6.4311194,-10.02344,10.522,-9.171585,5.868062,4.984746,0.5887757,6.473871,7.135222,17.073967,-21.878222,50.513214,1.3389274,5.0119014,5.172436,-4.68133,-17.567398,31.500172,59.357666,-12.894168,5.01598,-0.16818213
48,-0.5199545621871948,-1.711195945739746,78.23365020751953,-0.3907046964622908,1.5442748643242816,75.4434815014515,3.1784978,6.9810658,12.021094,8.429372,-10.797479,-5.679791,-3.1711092,-6.438637,-10.021456,10.531338,-9.17426,5.867974,4.9892163,0.58059824,6.466618,7.1240087,17.073723,-21.886759,50.51938,1.348486,5.026623,5.177224,-4.6803966,-17.568075,31.490677,59.362667,-12.8927,5.0107327,-0.16850004
49,-0.5203043222427368,-1.6981359720230103,78.23356628417969,-0.39441601690752415,1.5416175784479509,75.44733846979236,3.1849773,6.98455,12.018287,8.431638,-10.802514,-5.674417,-3.1603382,-6.4354105,-10.027117,10.528952,-9.175356,5.8576913,4.9828367,0.5843029,6.4635496,7.1269927,17.07359,-21.886791,50.5207,1.3324256,4.999187,5.1695743,-4.676676,-17.568161,31.486927,59.359806,-12.871693,5.0213404,-0.15642942
50,-0.517175018787384,-1.6859593391418457,78.2343978881836,-0.4033004473906909,1.532724887401716,75.45659593132176,3.2031386,6.994551,12.012687,8.430707,-10.811891,-5.674029,-3.1331766,-6.425385,-10.039434,10.51935,-9.175618,5.840169,4.971484,0.5955676,6.460937,7.137892,17.073175,-21.883142,50.522644,1.2997708,4.942202,5.1533146,-4.668342,-17.568237,31.479483,59.351246,-12.836116,5.0427303,-0.13361664
51,-0.4990791380405426,-1.6782490015029907,78.23616790771484,-0.4144996807416661,1.5210891499873893,75.46651516499337,3.2264192,7.007144,12.006238,8.425971,-10.821011,-5.6784463,-3.0977833,-6.411983,-10.054201,10.500609,-9.171732,5.820762,4.9595113,0.60928375,6.4600897,7.155242,17.072561,-21.874386,50.523197,1.2717131,4.879852,5.138053,-4.6550555,-17.568567,31.470146,59.335804,-12.803239,5.066207,-0.11023419
52,-0.5097714066505432,-1.6776336431503296,78.23523712158203,-0.42259875251735335,1.5156709044164711,75.47217915869388,3.2412963,7.0156612,12.001712,8.419174,-10.825849,-5.6865826,-3.077797,-6.4027977,-10.065032,10.489976,-9.169334,5.8050957,4.953642,0.6172261,6.458636,7.1642604,17.072014,-21.868168,50.52145,1.2599692,4.8523545,5.137256,-4.6459303,-17.5692,31.466276,59.3261,-12.776824,5.074743,-0.10195218
53,-0.5156710147857666,-1.681352972984314,78.2354507446289,-0.4277959033479927,1.5179986950895183,75.47168999375792,3.2449675,7.019975,11.99884,8.41024,-10.825908,-5.703148,-3.0769,-6.397886,-10.07164,10.48724,-9.167373,5.7927227,4.958929,0.6182733,6.4544897,7.1632776,17.071695,-21.868906,50.520374,1.2735778,4.871548,5.159665,-4.641331,-17.569895,31.468824,59.325512,-12.759059,5.0611496,-0.11465076
54,-0.5160512924194336,-1.6769936084747314,78.23665618896484,-0.4315829424663597,1.5248821352638364,75.46757265268721,3.2421973,7.0225544,11.996946,8.400139,-10.823922,-5.7268376,-3.087183,-6.394787,-10.076091,10.489508,-9.165873,5.7813096,4.971405,0.6169334,6.445125,7.1539288,17.070755,-21.88119,50.524876,1.2955489,4.919414,5.1996684,-4.635356,-17.571775,31.480865,59.329437,-12.739671,5.0340943,-0.14290804
55,-0.5124106407165527,-1.6733027696609497,78.23572540283203,-0.43422169631866164,1.5324531334611367,75.46307399550405,3.2376175,7.0236382,11.995423,8.390292,-10.8203,-5.748926,-3.099332,-6.393353,-10.079457,10.491929,-9.16412,5.7736053,4.984831,0.61408687,6.4383254,7.1450214,17.07033,-21.888956,50.52658,1.323189,4.9698696,5.2371364,-4.6326227,-17.572676,31.487906,59.334423,-12.72979,5.007496,-0.1701638
56,-0.512506365776062,-1.6757868528366089,78.23387145996094,-0.43477016963903636,1.5392124788905277,75.4607989195957,3.231416,7.0231147,11.994512,8.386667,-10.817957,-5.759508,-3.1083913,-6.394113,-10.081523,10.4931,-9.162978,5.7723308,4.9975395,0.6113575,6.428551,7.1358256,17.068855,-21.901846,50.528084,1.3378599,5.0089808,5.2624726,-4.6242185,-17.574419,31.498106,59.336956,-12.714128,4.9902177,-0.19279921
57,-0.5099453926086426,-1.6727665662765503,78.23199462890625,-0.432353229476304,1.544203095135527,75.4622999942422,3.2228343,7.020093,11.994363,8.392708,-10.816504,-5.7522173,-3.1118355,-6.39859,-10.082559,10.49073,-9.161518,5.7821755,5.0046167,0.6083449,6.4217925,7.131733,17.067242,-21.903698,50.524193,1.3459561,5.023467,5.2600193,-4.616159,-17.57568,31.500824,59.3337,-12.706649,4.9922724,-0.20056069
58,-0.5025401711463928,-1.6620863676071167,78.23206329345703,-0.42760448435789705,1.5489899283746404,75.46585140131113,3.2115176,7.0147305,11.994892,8.404657,-10.814791,-5.7332883,-3.1134748,-6.4060726,-10.0824995,10.486926,-9.160057,5.800307,5.007363,0.60491127,6.417878,7.1329036,17.064215,-21.894054,50.512276,1.3557756,5.027986,5.2405176,-4.604822,-17.577116,31.497658,59.32219,-12.708459,5.0047903,-0.20093672
59,-0.5099316239356995,-1.666344165802002,78.23160552978516,-0.4228927224496664,1.551437108526938,75.46995478890332,3.2041044,7.009203,11.995519,8.415167,-10.814025,-5.713015,-3.111162,-6.4129186,-10.081677,10.481782,-9.159152,5.818355,5.0081596,0.60203356,6.416788,7.1361866,17.06218,-21.883343,50.498844,1.359417,5.0243278,5.218702,-4.5965495,-17.577686,31.493921,59.31256,-12.7116785,5.019844,-0.19631569
60,-0.5146574378013611,-1.6688796281814575,78.23269653320312,-0.4206866647989117,1.5495780298464177,75.47288886505515,3.2048528,7.0066257,11.994624,8.420535,-10.816404,-5.7027297,-3.1055744,-6.4161825,-10.080517,10.481163,-9.162396,5.8278804,5.0065875,0.6015645,6.4201026,7.1435614,17.059376,-21.869911,50.485992,1.3585535,5.0146008,5.207524,-4.589233,-17.578257,31.49093,59.302658,-12.71409,5.030597,-0.18824261
61,-0.5178742408752441,-1.6654574871063232,78.23411560058594,-0.42294374720132627,1.5418665775454925,75.47403852152944,3.220393,7.0084023,11.992161,8.413945,-10.82373,-5.707817,-3.0940864,-6.4127007,-10.078371,10.484551,-9.171093,5.8232374,5.005283,0.605781,6.4265265,7.1507154,17.058352,-21.866077,50.479355,1.341131,4.9989696,5.214749,-4.58368,-17.578257,31.490278,59.29713,-12.710698,5.034359,-0.17671473
62,-0.5218911170959473,-1.6625372171401978,78.2349853515625,-0.42735044570090186,1.5253364303206514,75.47345303435155,3.2549725,7.01151,11.989868,8.392399,-10.831385,-5.7217755,-3.0733829,-6.405483,-10.074057,10.49159,-9.185054,5.810209,4.99783,0.61301225,6.4393945,7.1721463,17.055891,-21.857449,50.468315,1.3130336,4.972222,5.2356997,-4.574757,-17.578175,31.490206,59.28647,-12.711401,5.0390663,-0.15856168
63,-0.5164499282836914,-1.6549997329711914,78.2368392944336,-0.4317218812302779,1.5105519662595714,75.47399018243357,3.2863512,7.0147386,11.986324,8.3717785,-10.838049,-5.736219,-3.054628,-6.398355,-10.071384,10.498687,-9.198051,5.797035,4.991697,0.6200842,6.4512296,7.189926,17.054123,-21.85284,50.459858,1.2859706,4.9428673,5.2549033,-4.568754,-17.577963,31.49135,59.279694,-12.709702,5.040618,-0.14052048
64,-0.5127063989639282,-1.6519787311553955,78.23678588867188,-0.4338052699045161,1.5024504628924211,75.47725752794959,3.300712,7.0161853,11.981336,8.365713,-10.842973,-5.743126,-3.0438917,-6.395562,-10.072548,10.503805,-9.205235,5.792076,4.9886084,0.62405217,6.458242,7.199142,17.052488,-21.850801,50.455505,1.2703744,4.91514,5.2611656,-4.5629945,-17.577574,31.492191,59.27483,-12.707953,5.0396876,-0.12645453
65,-0.5150639414787292,-1.6500359773635864,78.23490142822266,-0.43178467050049746,1.4989850017957693,75.48443672581632,3.3007932,7.012921,11.974245,8.369559,-10.838525,-5.737899,-3.0385783,-6.399869,-10.079121,10.506357,-9.205051,5.800859,4.9846096,0.6227688,6.4615307,7.2080355,17.050385,-21.8496,50.45532,1.2712773,4.8755093,5.2508473,-4.5556517,-17.577036,31.492628,59.269783,-12.711818,5.037121,-0.11345185
66,-0.5027363896369934,-1.65097975730896,78.23501586914062,-0.42774235720066806,1.501075579066998,75.49430710327859,3.2858586,7.00797,11.965093,8.386575,-10.831776,-5.725683,-3.0394871,-6.4077935,-10.089494,10.506033,-9.198692,5.817703,4.9830766,0.6188617,6.4613476,7.208191,17.04884,-21.8507,50.460297,1.2831552,4.8328357,5.2267265,-4.5480223,-17.576519,31.491264,59.265724,-12.716718,5.031315,-0.1021984
67,-0.5059400200843811,-1.6485790014266968,78.23458862304688,-0.42357646639271357,1.506494490103973,75.50559150088718,3.2656255,7.003081,11.955815,8.405224,-10.824522,-5.7129436,-3.0437028,-6.416477,-10.101852,10.504653,-9.190779,5.8346753,4.986265,0.613162,6.457321,7.1999426,17.045786,-21.856812,50.47357,1.2986579,4.7941213,5.202832,-4.536799,-17.575481,31.48607,59.261135,-12.723993,5.025198,-0.0945583
68,-0.5100799798965454,-1.6522963047027588,78.23258209228516,-0.420614312672809,1.5131725337861497,75.51627821343776,3.2505348,6.9988046,11.949156,8.414026,-10.819748,-5.70605,-3.0496645,-6.423933,-10.113025,10.506147,-9.187196,5.8440065,4.989251,0.60736275,6.45328,7.1948004,17.044228,-21.862053,50.479782,1.3094779,4.7714696,5.191533,-4.525935,-17.574888,31.483707,59.254963,-12.731496,5.0211277,-0.09248526
69,-0.5167959332466125,-1.6531801223754883,78.2289047241211,-0.4193139569166737,1.524382526099576,75.52717217607352,3.2400203,6.996051,11.946853,8.408326,-10.8194,-5.7090845,-3.060074,-6.4294972,-10.123313,10.510136,-9.188471,5.8418393,4.999986,0.6004576,6.440467,7.1833234,17.039978,-21.877586,50.49261,1.313849,4.771069,5.201884,-4.5030484,-17.573336,31.480562,59.24261,-12.7428665,5.0205293,-0.10256355
70,-0.5080995559692383,-1.6457831859588623,78.23027801513672,-0.41903026319271885,1.5392263948086762,75.53822212854718,3.2342832,6.9931183,11.948059,8.387051,-10.817561,-5.7178373,-3.0732508,-6.4343014,-10.13353,10.513253,-9.190836,5.83294,5.0157876,0.593695,6.4210095,7.1664653,17.033321,-21.900953,50.511074,1.3139238,4.7863145,5.22649,-4.4758954,-17.570974,31.479124,59.2311,-12.75591,5.021386,-0.12175569
71,-0.5132703185081482,-1.6464654207229614,78.22967529296875,-0.41920300086305934,1.5527399838392073,75.54904383164767,3.2252426,6.991626,11.947695,8.376336,-10.821883,-5.726283,-3.0867188,-6.438576,-10.143365,10.520478,-9.196674,5.822275,5.0261087,0.58707017,6.4053183,7.1577744,17.028442,-21.915792,50.519447,1.3156872,4.8058553,5.250959,-4.4534297,-17.569252,31.481089,59.21915,-12.76523,5.023588,-0.13909556
72,-0.5149264931678772,-1.6416383981704712,78.23035430908203,-0.4194961093067246,1.5594792314268842,75.55880923687859,3.221048,6.990164,11.9429455,8.369243,-10.822191,-5.728429,-3.091418,-6.441633,-10.152815,10.524416,-9.201893,5.8147726,5.029738,0.5831657,6.3986464,7.157294,17.025892,-21.921152,50.520084,1.3186685,4.817248,5.2642474,-4.441163,-17.568134,31.480831,59.21271,-12.766254,5.0256786,-0.14434795
73,-0.506811797618866,-1.640299916267395,78.2320327758789,-0.4190828089656565,1.5566736886835633,75.56754877342199,3.2184808,6.9882994,11.929596,8.376604,-10.81908,-5.718277,-3.0852106,-6.4441967,-10.162147,10.527647,-9.208968,5.8122396,5.0296183,0.5816695,6.398656,7.159334,17.023088,-21.924637,50.52368,1.3188825,4.817446,5.266204,-4.428663,-17.566484,31.474531,59.20491,-12.758491,5.032477,-0.13227655
74,-0.5033936500549316,-1.6382750272750854,78.23441314697266,-0.4190012645437929,1.547131194469097,75.57527930738021,3.2178528,6.986812,11.910766,8.394158,-10.815491,-5.700589,-3.070643,-6.4454775,-10.171297,10.528053,-9.216042,5.811833,5.025634,0.58241713,6.404581,7.1637793,17.02162,-21.924732,50.52778,1.3166761,4.8119154,5.2605114,-4.421798,-17.565363,31.46514,59.20202,-12.746167,5.041308,-0.10812324
75,-0.5078681111335754,-1.641698956489563,78.23531341552734,-0.4191552245092652,1.5364803849115352,75.5821851605148,3.2196956,6.985757,11.892873,8.409185,-10.811361,-5.685018,-3.0548344,-6.445883,-10.179436,10.527795,-9.222506,5.8116584,5.0221467,0.5846822,6.413391,7.170055,17.020119,-21.923391,50.528267,1.3174307,4.805336,5.2516503,-4.416919,-17.563961,31.452248,59.198353,-12.725126,5.047952,-0.08414587
76,-0.5128644704818726,-1.6388084888458252,78.23555755615234,-0.4198258671566959,1.5302497941263113,75.58775880288042,3.2221289,6.9861465,11.882112,8.414928,-10.810102,-5.681259,-3.0444472,-6.4451995,-10.18589,10.526717,-9.225548,5.8097677,5.0251956,0.5875672,6.421476,7.172383,17.015804,-21.923265,50.528355,1.3272115,4.8020563,5.244185,-4.412566,-17.55927,31.428318,59.19513,-12.699299,5.0475745,-0.07254139
77,-0.5024630427360535,-1.6325109004974365,78.239013671875,-0.42139493932149236,1.5308737175640363,75.59027453545711,3.229093,6.9882603,11.8847475,8.39965,-10.811638,-5.697698,-3.0438042,-6.442779,-10.188117,10.526207,-9.223846,5.804392,5.0246935,0.5912693,6.422594,7.1748915,17.014652,-21.923504,50.52953,1.3377315,4.8011575,5.2370305,-4.411857,-17.557997,31.42328,59.190258,-12.642556,5.0380054,-0.08396838
78,-0.5084255933761597,-1.6300922632217407,78.23695373535156,-0.4232868905465225,1.533971773852219,75.59052412306379,3.243405,6.9909716,11.896183,8.3656025,-10.811944,-5.727194,-3.0460646,-6.4388556,-10.187401,10.523432,-9.217814,5.7970686,5.031705,0.5957996,6.4235234,7.177327,17.0122,-21.924873,50.52744,1.3600786,4.801848,5.2276697,-4.413575,-17.555534,31.417595,59.188503,-12.555946,5.0200357,-0.11401939
79,-0.4994114935398102,-1.632400631904602,78.238037109375,-0.42523413483228323,1.539086215250239,75.59120029931404,3.2530425,6.9940577,11.906742,8.336516,-10.814038,-5.7561917,-3.0502331,-6.4350357,-10.187347,10.519614,-9.211048,5.790512,5.0347223,0.6003975,6.422211,7.1797605,17.0104,-21.926199,50.525818,1.3779715,4.804619,5.221552,-4.4156923,-17.55384,31.416706,59.1853,-12.479551,5.001453,-0.14134276
80,-0.5086950659751892,-1.6340543031692505,78.23727416992188,-0.4262290863934436,1.5435849653263394,75.59390802916214,3.254818,6.9956975,11.908559,8.321407,-10.812647,-5.7714415,-3.0532546,-6.433291,-10.190271,10.516307,-9.207177,5.787612,5.0376244,0.60245675,6.420091,7.1820116,17.008158,-21.927782,50.524406,1.3917848,4.810914,5.221143,-4.416945,-17.55182,31.41824,59.18618,-12.434784,4.984871,-0.15419127
81,-0.5073493123054504,-1.6367342472076416,78.2376480102539,-0.42616316495999496,1.5478939255685051,75.60021039731667,3.2407432,6.9958267,11.896043,8.333982,-10.808906,-5.7651668,-3.0544307,-6.4338865,-10.198085,10.512897,-9.208003,5.791086,5.038979,0.6005282,6.416693,7.182104,17.005943,-21.929989,50.524113,1.3968667,4.8221703,5.2300377,-4.414045,-17.549763,31.420986,59.188175,-12.445579,4.972709,-0.14156328
82,-0.505831778049469,-1.6355210542678833,78.23812103271484,-0.4247628982904319,1.5516292145314756,75.60754128037853,3.2213147,6.9939513,11.876482,8.356094,-10.800008,-5.746767,-3.0542326,-6.436536,-10.207641,10.508535,-9.210899,5.7988925,5.042947,0.5964602,6.416254,7.180981,17.005405,-21.931108,50.52134,1.3984708,4.834829,5.2421203,-4.408694,-17.54921,31.422525,59.188366,-12.488449,4.96257,-0.11557053
83,-0.5109866857528687,-1.6345107555389404,78.23509216308594,-0.4236156965052929,1.5560615350759623,75.616909187019,3.1963556,6.992363,11.853581,8.386016,-10.793288,-5.7247143,-3.055009,-6.4398556,-10.219759,10.505633,-9.214588,5.806244,5.044173,0.59075284,6.4130006,7.1798697,17.00424,-21.933794,50.51964,1.3996075,4.85196,5.258443,-4.401126,-17.547874,31.424244,59.188053,-12.541959,4.951939,-0.084428586
84,-0.5076793432235718,-1.6388111114501953,78.23451232910156,-0.4229608637661463,1.5599209610275797,75.62625464111412,3.1745605,6.991449,11.835282,8.413401,-10.793585,-5.7079463,-3.055997,-6.442803,-10.2317915,10.502933,-9.215377,5.808452,5.043221,0.58685577,6.4090533,7.1785765,17.003412,-21.937239,50.522324,1.4038591,4.867394,5.271958,-4.3972216,-17.546894,31.424694,59.18888,-12.57024,4.943547,-0.06593426
85,-0.5070876479148865,-1.6378132104873657,78.23322296142578,-0.4217664835968931,1.5613498780980912,75.635070704558,3.1636846,6.989091,11.824838,8.426373,-10.798435,-5.6970615,-3.0573256,-6.4472594,-10.243349,10.504709,-9.2143545,5.8037014,5.0397987,0.58617675,6.4096003,7.1781545,17.002829,-21.93988,50.52792,1.4149145,4.8785195,5.279317,-4.398778,-17.546173,31.423954,59.18764,-12.556923,4.93677,-0.06699432
86,-0.5048635601997375,-1.6392143964767456,78.23381042480469,-0.4208046477641302,1.5621743166080873,75.64671004370938,3.1524944,6.9867187,11.81481,8.441812,-10.810734,-5.6878023,-3.058235,-6.452936,-10.258089,10.50727,-9.211408,5.7947125,5.034606,0.5861953,6.411201,7.175238,17.002125,-21.945574,50.537395,1.4316924,4.8909793,5.287012,-4.405272,-17.545366,31.420788,59.190567,-12.51864,4.9289317,-0.07957188
87,-0.5062417387962341,-1.6452046632766724,78.2354507446289,-0.4200162981190888,1.5620246959455593,75.65531433707008,3.14644,6.9849477,11.809292,8.450616,-10.822023,-5.6821284,-3.0598512,-6.457348,-10.269251,10.511879,-9.208682,5.783674,5.0361114,0.588365,6.413217,7.1668344,17.000498,-21.958212,50.552048,1.445435,4.901496,5.2930927,-4.412337,-17.543543,31.41268,59.194717,-12.479187,4.924618,-0.09470544
88,-0.509678840637207,-1.6438319683074951,78.23681640625,-0.42007382714498187,1.56172586078474,75.6587631193692,3.1457539,6.984673,11.808102,8.452183,-10.8283,-5.681693,-3.061921,-6.4585333,-10.273994,10.51624,-9.206902,5.772959,5.038303,0.5898481,6.4137225,7.166117,16.999537,-21.963146,50.5581,1.4577901,4.9114923,5.296294,-4.4165187,-17.542461,31.40816,59.195335,-12.460011,4.926629,-0.10432897
89,-0.5126979947090149,-1.6459441184997559,78.23966979980469,-0.42209471201645454,1.5612083645219448,75.65336108379287,3.1535215,6.9882092,11.814618,8.44259,-10.827458,-5.6900196,-3.0635185,-6.4528747,-10.26837,10.517092,-9.204324,5.761962,5.051014,0.59198385,6.4119706,7.1673183,16.99874,-21.965372,50.55832,1.4698776,4.9248652,5.295433,-4.4194374,-17.541445,31.405733,59.197826,-12.462912,4.937372,-0.10813737
90,-0.5097317695617676,-1.6465436220169067,78.23966979980469,-0.42565396292236807,1.5603427569076738,75.64214007294258,3.1625128,6.9954453,11.826116,8.435549,-10.828538,-5.705112,-3.068367,-6.4434676,-10.255561,10.523352,-9.204823,5.749995,5.067597,0.5949916,6.4086604,7.1719217,16.998201,-21.964212,50.55424,1.4810597,4.9392147,5.2915387,-4.4200706,-17.540571,31.40475,59.198967,-12.480328,4.954698,-0.109529965
91,-0.5085220336914062,-1.6449660062789917,78.23915100097656,-0.42869439013462324,1.5596784660307277,75.62982184509306,3.1761155,7.0012546,11.839046,8.4177685,-10.822545,-5.7208786,-3.0721312,-6.433955,-10.2412195,10.526424,-9.204288,5.738523,5.0837603,0.5981428,6.4049563,7.1806626,16.997772,-21.960535,50.544533,1.4896389,4.951119,5.2869625,-4.421605,-17.539518,31.404942,59.199432,-12.505213,4.973688,-0.10743997
92,-0.506136417388916,-1.6426295042037964,78.24119567871094,-0.4306539005916255,1.5604639857530307,75.62535461218121,3.1813166,7.004274,11.843909,8.40712,-10.816695,-5.7311773,-3.0762246,-6.42901,-10.23475,10.530313,-9.205721,5.7292213,5.0893703,0.6011013,6.4019384,7.1901174,16.997555,-21.9562,50.536686,1.4885912,4.9509125,5.2864017,-4.4260173,-17.538567,31.406107,59.199993,-12.529381,4.984028,-0.100375146
93,-0.5031970143318176,-1.6429712772369385,78.24082946777344,-0.4309194621991416,1.5640542599747018,75.63252793907594,3.1769297,7.0020156,11.836402,8.398692,-10.80525,-5.73303,-3.0805535,-6.4307895,-10.239803,10.533578,-9.209548,5.7215986,5.0796795,0.6042823,6.3990927,7.198737,16.99748,-21.953228,50.532776,1.4707983,4.931351,5.291815,-4.433718,-17.537178,31.408066,59.1987,-12.557094,4.9834394,-0.08174406
94,-0.5131619572639465,-1.646619439125061,78.24032592773438,-0.43022005438216426,1.569289954257627,75.64623192862878,3.162048,6.9979815,11.820881,8.401714,-10.795348,-5.7303596,-3.0857077,-6.436536,-10.251298,10.538316,-9.2163515,5.7150283,5.06419,0.60711133,6.39598,7.2015247,16.997602,-21.95453,50.534912,1.4409337,4.899949,5.3003974,-4.4388566,-17.536282,31.408213,59.193382,-12.589416,4.9770994,-0.05692546
95,-0.5095559358596802,-1.651007890701294,78.24127960205078,-0.42921602614877424,1.574732243675627,75.66182481355273,3.1473715,6.9929347,11.804783,8.40215,-10.784525,-5.726687,-3.0901926,-6.4433722,-10.264877,10.540901,-9.221372,5.7111,5.0457654,0.6110108,6.391984,7.2040434,16.997768,-21.958704,50.54103,1.4040622,4.86421,5.31129,-4.448078,-17.535456,31.40733,59.192806,-12.619062,4.965614,-0.03164907
96,-0.5100493431091309,-1.6465415954589844,78.24060821533203,-0.42878697623102024,1.5765911102966337,75.67118240592775,3.1411474,6.99013,11.7977915,8.4001875,-10.779383,-5.7261343,-3.0918977,-6.4475675,-10.273573,10.542241,-9.223053,5.7111516,5.036313,0.615517,6.3911,7.2059474,16.997835,-21.961084,50.54428,1.3781679,4.8438315,5.3174543,-4.4536147,-17.535097,31.405802,59.19132,-12.631164,4.953561,-0.02385687
97,-0.4994972050189972,-1.6387059688568115,78.2409439086914,-0.4298192074247353,1.5733054554354375,75.67318037181818,3.1498752,6.990579,11.803946,8.387936,-10.78076,-5.7355995,-3.0876405,-6.447467,-10.277345,10.537607,-9.216825,5.716219,5.0366735,0.623898,6.394834,7.2102017,16.997654,-21.96244,50.542854,1.3632054,4.8431787,5.3186812,-4.4595428,-17.53389,31.399307,59.195408,-12.621124,4.9362674,-0.03937896
98,-0.5039103031158447,-1.6413828134536743,78.2398910522461,-0.4313166790489131,1.5668232094351866,75.6710143006336,3.1664987,6.9926186,11.818252,8.372239,-10.788136,-5.7503867,-3.0797827,-6.4455514,-10.278662,10.5294,-9.205487,5.7253375,5.0401883,0.63327795,6.4007897,7.2147207,16.99721,-21.959515,50.541576,1.3546716,4.8542557,5.3163033,-4.4658775,-17.533367,31.395195,59.202293,-12.592843,4.915101,-0.071499854
99,-0.5064345598220825,-1.652828574180603,78.23921203613281,-0.4321763183477826,1.5601711432291114,75.66658411604102,3.1815684,6.994762,11.83367,8.361074,-10.796695,-5.7586584,-3.072436,-6.4433355,-10.277382,10.521591,-9.194497,5.7369347,5.045888,0.6410933,6.4073005,7.2198563,16.9967,-21.954542,50.538765,1.3517313,4.8674016,5.312469,-4.470658,-17.533072,31.391285,59.2059,-12.562828,4.896749,-0.10473109
100,-0.5122334957122803,-1.6570217609405518,78.23854064941406,-0.43127535097027997,1.5560448262986775,75.66121519941134,3.1851907,6.9960938,11.843325,8.366397,-10.8043585,-5.749208,-3.0680907,-6.4421353,-10.272796,10.514198,-9.186546,5.7494545,5.0525975,0.6441226,6.4137487,7.225679,16.996035,-21.946972,50.531284,1.3546928,4.8748093,5.3089976,-4.47881,-17.532679,31.39065,59.207916,-12.541691,4.8867803,-0.12668175
101,-0.5125688910484314,-1.662178874015808,78.23758697509766,-0.42575504967980066,1.5568675280344242,75.65384980390641,3.1679554,6.994001,11.844472,8.400938,-10.810569,-5.7029686,-3.0706265,-6.4450445,-10.262095,10.510007,-9.18472,5.765756,5.0652947,0.6359997,6.413603,7.224954,16.99603,-21.946205,50.529263,1.3617872,4.871439,5.3058047,-4.4814224,-17.532635,31.392672,59.200676,-12.536175,4.892267,-0.13034324
102,-0.5118407011032104,-1.6718347072601318,78.2365951538086,-0.41833097721833856,1.5630542466679507,75.64345026393163,3.1285183,6.992962,11.840866,8.469503,-10.8240385,-5.6318073,-3.0810947,-6.448672,-10.245874,10.508895,-9.186788,5.7852283,5.0811396,0.6198482,6.4087214,7.221956,16.997084,-21.94379,50.528297,1.3774607,4.8621435,5.3011494,-4.485654,-17.532745,31.409094,59.18789,-12.527545,4.911082,-0.12772511
103,-0.5108355283737183,-1.6729732751846313,78.23710632324219,-0.4118579390222524,1.5674013048683995,75.63452071074337,3.096887,6.991317,11.835624,8.523963,-10.830096,-5.5692763,-3.0880125,-6.4510627,-10.231261,10.505417,-9.188234,5.802221,5.096657,0.60536635,6.4055157,7.219069,16.998001,-21.94332,50.52748,1.3892398,4.851953,5.299921,-4.488199,-17.53284,31.418186,59.174427,-12.526009,4.9295783,-0.120080724
104,-0.5100460052490234,-1.667458176612854,78.23945617675781,-0.41142636482516454,1.5681124465167173,75.6313787437843,3.080514,6.994666,11.830403,8.551226,-10.832209,-5.5470967,-3.0882006,-6.447636,-10.224731,10.498524,-9.186071,5.810408,5.102782,0.5994496,6.404147,7.2178473,16.999353,-21.940725,50.532055,1.3877319,4.8434467,5.3056555,-4.489907,-17.532812,31.42825,59.16202,-12.516939,4.941242,-0.116159804
105,-0.5160107016563416,-1.6656385660171509,78.24097442626953,-0.4206469678923327,1.5602874829793598,75.63721430784261,3.0971735,7.004648,11.825265,8.523785,-10.822248,-5.591436,-3.0741577,-6.434166,-10.230783,10.484878,-9.178055,5.803954,5.0965295,0.607152,6.4110885,7.218608,17.001553,-21.933132,50.543297,1.3649882,4.8359313,5.325371,-4.494454,-17.53222,31.432255,59.153805,-12.49866,4.94226,-0.11777731
106,-0.5206864476203918,-1.6705187559127808,78.24166107177734,-0.43618974436238594,1.5470320000818036,75.64940981122177,3.1342962,7.019327,11.819212,8.461491,-10.80382,-5.6781554,-3.0496066,-6.4138956,-10.245451,10.465312,-9.166257,5.787556,5.0848384,0.6243573,6.424614,7.2186995,17.002813,-21.924852,50.558918,1.3291845,4.828539,5.3553004,-4.4991508,-17.530947,31.425238,59.146053,-12.478171,4.937434,-0.12040693
107,-0.5100939273834229,-1.6742424964904785,78.24465942382812,-0.451270854849698,1.535238102197258,75.6612899667543,3.1724854,7.0327935,11.814614,8.3934355,-10.78327,-5.76952,-3.0282092,-6.394968,-10.260045,10.447719,-9.154403,5.771026,5.0745287,0.64173615,6.435423,7.218667,17.003077,-21.918272,50.575726,1.2968438,4.8238454,5.381948,-4.5010686,-17.529951,31.415482,59.13984,-12.463868,4.9297295,-0.12128934
108,-0.5042096972465515,-1.6837824583053589,78.24452209472656,-0.4586650976123852,1.531473913565483,75.66647571157299,3.1912248,7.0386243,11.814267,8.352655,-10.770444,-5.8239946,-3.022516,-6.385938,-10.266419,10.440819,-9.147673,5.764236,5.0711226,0.6504669,6.437864,7.218771,17.003027,-21.913553,50.58677,1.283354,4.8245826,5.3911557,-4.4991665,-17.528996,31.408129,59.134136,-12.463453,4.921891,-0.11666684
109,-0.5178614258766174,-1.6898680925369263,78.24103546142578,-0.4540026864337819,1.5399329944589986,75.66127545349748,3.185479,7.0316873,11.821683,8.341684,-10.763095,-5.825197,-3.037183,-6.3917193,-10.259569,10.44219,-9.144345,5.775366,5.0790644,0.6438777,6.427198,7.2218113,17.002647,-21.907406,50.588398,1.3059696,4.83434,5.3715525,-4.4901676,-17.527864,31.401445,59.129013,-12.492825,4.912513,-0.09921639
110,-0.5058510899543762,-1.6822638511657715,78.23990631103516,-0.44223271470613884,1.5566210803200256,75.6498704173591,3.1619935,7.017614,11.833757,8.353422,-10.762534,-5.7964993,-3.0663583,-6.4067497,-10.245033,10.450954,-9.143773,5.7972484,5.091852,0.6294968,6.406482,7.228784,17.001814,-21.901543,50.583027,1.3483012,4.8509464,5.3342047,-4.4783053,-17.526747,31.399714,59.127266,-12.537971,4.901165,-0.074194334
111,-0.5087597966194153,-1.6887012720108032,78.23738098144531,-0.4287984658145011,1.5751788022200561,75.63743677625745,3.1328464,7.002049,11.846238,8.373094,-10.763966,-5.757905,-3.1013126,-6.424613,-10.229521,10.466916,-9.147061,5.817013,5.1015368,0.61309165,6.383097,7.241945,16.99996,-21.890125,50.572033,1.3958893,4.8680587,5.2937884,-4.463355,-17.525185,31.401373,59.122707,-12.583196,4.8917003,-0.053087365
112,-0.5145478248596191,-1.6900933980941772,78.23580169677734,-0.4195502064803897,1.5860227617255425,75.62886997996763,3.1122472,6.992116,11.854417,8.389564,-10.764869,-5.729617,-3.126319,-6.4370956,-10.219913,10.481655,-9.151059,5.8216186,5.1085477,0.60271174,6.371781,7.246726,16.99878,-21.885191,50.566975,1.4187127,4.877905,5.2696657,-4.4568653,-17.524342,31.403805,59.12102,-12.600696,4.8864236,-0.048705325
113,-0.5151581168174744,-1.701406717300415,78.23626708984375,-0.41569330978913466,1.5888196865784663,75.62671265097924,3.0977235,6.989575,11.855497,8.406283,-10.766511,-5.7154284,-3.144317,-6.4437594,-10.21995,10.503048,-9.160078,5.800163,5.1106334,0.59817463,6.372698,7.246146,16.997988,-21.881947,50.56633,1.4123629,4.879255,5.26811,-4.4559445,-17.5236,31.405178,59.11614,-12.581566,4.888798,-0.06962925
114,-0.5136778354644775,-1.7062253952026367,78.23904418945312,-0.4142505407967081,1.5868997510969884,75.62786476927266,3.0858026,6.9907746,11.852746,8.425342,-10.768793,-5.705155,-3.1604261,-6.448359,-10.225055,10.532072,-9.173845,5.762119,5.1113477,0.59624773,6.3824835,7.241069,16.99756,-21.88079,50.56715,1.388213,4.8752995,5.2795215,-4.457775,-17.522923,31.405218,59.10814,-12.538557,4.8961625,-0.10750634
115,-0.5161678194999695,-1.7118107080459595,78.24160766601562,-0.4142079575689111,1.5825055922074858,75.62913882600212,3.0775118,6.9935694,11.8496065,8.442719,-10.77156,-5.697295,-3.1707861,-6.4504914,-10.2304325,10.555774,-9.18554,5.724855,5.1107445,0.59701407,6.3944945,7.234654,16.997187,-21.88146,50.569374,1.360227,4.869106,5.292777,-4.460843,-17.521706,31.405539,59.10249,-12.491077,4.9039006,-0.14765196
116,-0.5188482403755188,-1.7151674032211304,78.24151611328125,-0.41470384451871767,1.5783054589981926,75.62750927907948,3.0742412,6.996048,11.849579,8.453463,-10.774657,-5.691508,-3.176085,-6.4503617,-10.230912,10.568862,-9.191407,5.705882,5.1089354,0.6008782,6.403063,7.230903,16.996794,-21.883465,50.57113,1.3409128,4.862337,5.2975035,-4.461071,-17.519726,31.406933,59.102028,-12.457482,4.9074974,-0.17879675
117,-0.5179758667945862,-1.7104674577713013,78.23937225341797,-0.4155757175857448,1.5740257268499003,75.62131268207843,3.0822206,6.9968057,11.85497,8.448055,-10.774937,-5.686051,-3.1684968,-6.4460955,-10.2239485,10.55566,-9.183262,5.716063,5.101949,0.6113128,6.4032063,7.2417545,16.99651,-21.884386,50.56322,1.3369877,4.8566494,5.285229,-4.459077,-17.517494,31.41139,59.11374,-12.451569,4.9035444,-0.19269346
118,-0.5186597108840942,-1.7098679542541504,78.23995971679688,-0.4173464245655665,1.5688871873898649,75.61225522872394,3.092136,6.998551,11.862736,8.444792,-10.78031,-5.681894,-3.154471,-6.4389825,-10.2121,10.531443,-9.16949,5.744053,5.087857,0.626834,6.398795,7.2643437,16.996204,-21.881788,50.54823,1.3407367,4.849781,5.263708,-4.4548173,-17.513876,31.420187,59.131996,-12.46122,4.896026,-0.19920352
119,-0.5166129469871521,-1.7145121097564697,78.24061584472656,-0.4197452978212397,1.563656424413314,75.60326219645485,3.1055655,7.0003,11.870839,8.434796,-10.783489,-5.681292,-3.1383207,-6.4308524,-10.200183,10.503767,-9.154211,5.7737856,5.0764623,0.64235127,6.395067,7.2873077,16.996088,-21.878988,50.531567,1.3500963,4.8442464,5.242896,-4.45074,-17.511621,31.42628,59.15071,-12.469706,4.886679,-0.19863956
120,-0.5183378458023071,-1.7196720838546753,78.23912811279297,-0.42237588322581904,1.5594194584718404,75.59635343509129,3.1157765,7.0031085,11.87698,8.425772,-10.785751,-5.6865854,-3.1289575,-6.4240546,-10.191487,10.488149,-9.145411,5.789262,5.0714793,0.64964646,6.390582,7.3019066,16.995928,-21.875696,50.525852,1.3616068,4.840586,5.23345,-4.445082,-17.50854,31.433157,59.16248,-12.460785,4.880838,-0.19325171
121,-0.5179880261421204,-1.7276145219802856,78.23907470703125,-0.4261011826222287,1.5557452875159339,75.59239830097606,3.1232622,7.008859,11.880334,8.417807,-10.7884245,-5.702996,-3.126174,-6.417304,-10.187714,10.485529,-9.144051,5.781359,5.078,0.64925903,6.3827634,7.315378,16.995768,-21.872404,50.526455,1.3825957,4.839657,5.238965,-4.435729,-17.50686,31.438864,59.168415,-12.423934,4.876056,-0.18049167
122,-0.5128793716430664,-1.7241418361663818,78.23904418945312,-0.4305586389288482,1.5531962676985185,75.58964599290988,3.130291,7.0160203,11.882855,8.405919,-10.789323,-5.728133,-3.1294663,-6.4107847,-10.185894,10.493637,-9.148752,5.760253,5.0908375,0.63937896,6.3695774,7.3269567,16.99518,-21.865602,50.536373,1.4144567,4.8406377,5.255252,-4.4212446,-17.50224,31.452374,59.168213,-12.364451,4.8737464,-0.1623233
123,-0.5071254372596741,-1.7225083112716675,78.24119567871094,-0.43436201305879246,1.5508255599117393,75.58835970737681,3.133749,7.0225673,11.883645,8.399152,-10.790866,-5.7515836,-3.1333902,-6.4056997,-10.185827,10.502593,-9.153644,5.738765,5.1070848,0.62994117,6.3626146,7.326936,16.994822,-21.863514,50.551212,1.4382157,4.8426113,5.274109,-4.4077687,-17.50088,31.453924,59.163067,-12.3088455,4.872397,-0.13984048
124,-0.516631007194519,-1.726912498474121,78.23993682861328,-0.4355128230944165,1.5486592228807743,75.58791326362612,3.1331203,7.024917,11.883405,8.398469,-10.790345,-5.7637506,-3.137321,-6.4046636,-10.185783,10.509175,-9.155783,5.7298627,5.114116,0.6227665,6.357237,7.324908,16.994211,-21.861542,50.56606,1.4449197,4.845289,5.2888317,-4.3960495,-17.499382,31.453579,59.159653,-12.268373,4.8737283,-0.12036783
125,-0.5204780697822571,-1.728215217590332,78.23880767822266,-0.4330944206754224,1.546583134265811,75.59066959121266,3.123821,7.021878,11.879264,8.410281,-10.787496,-5.7602816,-3.1394665,-6.409616,-10.188134,10.510123,-9.1534395,5.7413054,5.1036468,0.6214115,6.357425,7.3221545,16.992931,-21.85679,50.577374,1.42319,4.849441,5.2991843,-4.388958,-17.497177,31.447634,59.157555,-12.259412,4.8801312,-0.10144946
126,-0.5216448307037354,-1.7353163957595825,78.23926544189453,-0.4279522748233765,1.5444731514783014,75.59600650153271,3.1091383,7.0148644,11.872359,8.429891,-10.782655,-5.7468834,-3.1399057,-6.4187613,-10.192636,10.506957,-9.148096,5.7647266,5.082674,0.6237578,6.3642793,7.316574,16.990435,-21.84862,50.586063,1.3835734,4.855255,5.307898,-4.389173,-17.493647,31.433588,59.15864,-12.271842,4.8895493,-0.08063095
127,-0.5251702070236206,-1.7459561824798584,78.2383041381836,-0.42226706892022203,1.5427695117011235,75.59938574687729,3.0947354,7.0070405,11.867247,8.449059,-10.7772875,-5.729508,-3.141884,-6.428455,-10.194887,10.504557,-9.142085,5.7888436,5.060778,0.62668514,6.369983,7.312828,16.988174,-21.841515,50.59236,1.3429422,4.8608637,5.3136377,-4.390525,-17.490849,31.419739,59.162384,-12.281782,4.897826,-0.0642171
128,-0.5249850153923035,-1.753121256828308,78.23746490478516,-0.4176727492200472,1.5415349137162528,75.59622835849477,3.0859513,7.002216,11.86865,8.462944,-10.775087,-5.714159,-3.146224,-6.434126,-10.190379,10.505183,-9.137182,5.8021307,5.0483885,0.62825644,6.370367,7.3144536,16.987185,-21.83864,50.594482,1.3194458,4.8641663,5.314692,-4.387778,-17.489723,31.414173,59.165794,-12.2629175,4.9001822,-0.058884867
129,-0.5209593772888184,-1.7541170120239258,78.2354736328125,-0.41467929877519,1.5440977680178618,75.5828339582246,3.07872,7.0018167,11.879099,8.476149,-10.780932,-5.699269,-3.1607785,-6.4350724,-10.175266,10.516061,-9.135003,5.7988796,5.0527306,0.6263682,6.3611097,7.323769,16.983429,-21.832468,50.59066,1.3270386,4.8657174,5.307757,-4.377031,-17.485939,31.397814,59.168438,-12.218582,4.8951745,-0.06503659
130,-0.5197800397872925,-1.755240797996521,78.23442077636719,-0.4121340570925625,1.5474573974996946,75.56159503325672,3.07945,7.00284,11.897418,8.479118,-10.786533,-5.682453,-3.1766481,-6.432521,-10.152182,10.5254,-9.129907,5.7859855,5.065424,0.6231573,6.3462734,7.3366475,16.98155,-21.83162,50.584576,1.3456175,4.8649335,5.2959642,-4.364819,-17.48423,31.39326,59.172905,-12.143968,4.884753,-0.084235884
131,-0.5222418308258057,-1.753494381904602,78.23434448242188,-0.41025591353937607,1.5502239750115145,75.54114315897102,3.0765789,7.005902,11.915044,8.491085,-10.798428,-5.669109,-3.1947641,-6.429554,-10.129463,10.541779,-9.130241,5.7714157,5.0768547,0.6204731,6.330802,7.353571,16.980223,-21.831318,50.574234,1.3707515,4.863657,5.2820687,-4.3505883,-17.48311,31.38998,59.17666,-12.06429,4.8724637,-0.10513401
132,-0.5247281193733215,-1.7557913064956665,78.2357406616211,-0.4091622162299343,1.5490862582450529,75.53053029572685,3.0785792,7.0072865,11.925345,8.492415,-10.801732,-5.663632,-3.2020686,-6.427617,-10.116881,10.549002,-9.130831,5.7632113,5.074951,0.6196733,6.32384,7.3643923,16.979382,-21.831707,50.56657,1.3894534,4.8624334,5.270399,-4.3427367,-17.482397,31.387798,59.181046,-11.999969,4.8622236,-0.115993
133,-0.5278761982917786,-1.7618199586868286,78.239501953125,-0.4080569730986474,1.5431862878557792,75.53190783255307,3.0839357,7.0061502,11.928164,8.484826,-10.796495,-5.6694255,-3.1999784,-6.428728,-10.115678,10.552082,-9.137223,5.763826,5.066453,0.62265074,6.318005,7.3839917,16.976929,-21.837505,50.551167,1.4156617,4.864074,5.259386,-4.3337774,-17.48003,31.381756,59.19504,-11.939087,4.8488955,-0.121645875
134,-0.5235814452171326,-1.7690818309783936,78.2401351928711,-0.4079862276157667,1.5331874336043967,75.54314370080802,3.0908947,7.0049915,11.923724,8.474118,-10.787477,-5.6833706,-3.1871922,-6.43011,-10.124433,10.546874,-9.145338,5.7688236,5.043286,0.62657386,6.3242292,7.390725,16.976192,-21.84206,50.542316,1.4377013,4.86502,5.2479467,-4.3339844,-17.479046,31.377632,59.20883,-11.886762,4.83488,-0.11978353
135,-0.5285481214523315,-1.7769160270690918,78.23849487304688,-0.4086654876546928,1.52268646274547,75.55550788283867,3.1009986,7.0037637,11.917962,8.457547,-10.77501,-5.700395,-3.1722567,-6.4308085,-10.134957,10.5389595,-9.151728,5.7759047,5.0192776,0.6313656,6.3312597,7.397185,16.975637,-21.847836,50.53392,1.4579302,4.8645673,5.2374334,-4.334235,-17.47803,31.372856,59.221596,-11.84367,4.824693,-0.11298474
136,-0.5267471671104431,-1.7777760028839111,78.237548828125,-0.40980682527988,1.5134724037456504,75.56202075382407,3.1083202,7.004057,11.913655,8.450391,-10.769086,-5.7141824,-3.161627,-6.4299,-10.141185,10.534942,-9.154394,5.7829275,5.0075717,0.63811415,6.333936,7.40474,16.974207,-21.862648,50.525993,1.4714867,4.8621716,5.230392,-4.3341603,-17.474384,31.361004,59.24108,-11.814603,4.8198714,-0.101329856
137,-0.5252074003219604,-1.781057357788086,78.23604583740234,-0.41223327257688214,1.5079868599039958,75.55877877402084,3.1169038,7.0064774,11.91231,8.441738,-10.763143,-5.727514,-3.1550095,-6.4248505,-10.140899,10.526879,-9.144953,5.790927,4.9975677,0.6428441,6.332985,7.415081,16.973436,-21.864483,50.52131,1.4819108,4.8520885,5.2217894,-4.3327723,-17.473038,31.360655,59.251682,-11.801069,4.828791,-0.08158988
138,-0.525810956954956,-1.7820475101470947,78.23444366455078,-0.41553304887993636,1.5044820406832211,75.55074349265298,3.1228495,7.0104647,11.911197,8.439162,-10.761166,-5.741079,-3.1536093,-6.4177995,-10.137434,10.523095,-9.131792,5.8005967,4.99136,0.64749056,6.3325753,7.422687,16.9729,-21.864174,50.518364,1.487757,4.839124,5.214368,-4.3311152,-17.47245,31.362547,59.258842,-11.800436,4.8438687,-0.057364173
139,-0.5187979936599731,-1.7826286554336548,78.23526000976562,-0.41904560737524355,1.5008077337757388,75.54137683672326,3.1301897,7.0149775,11.911718,8.436494,-10.760012,-5.751147,-3.1501036,-6.409923,-10.133091,10.515164,-9.116086,5.8086295,4.981539,0.6544075,6.3264136,7.445127,16.971466,-21.858963,50.508858,1.492786,4.824669,5.2072706,-4.331868,-17.47132,31.37072,59.269093,-11.804441,4.865705,-0.027877795
140,-0.5233516693115234,-1.7898902893066406,78.2352066040039,-0.4203297315525275,1.4975131446770042,75.53531044451766,3.1337914,7.0177493,11.91385,8.438253,-10.761473,-5.753012,-3.150288,-6.406071,-10.129063,10.515917,-9.109756,5.8118877,4.9739666,0.6570986,6.324227,7.456325,16.97035,-21.85415,50.502785,1.4957943,4.8199944,5.201799,-4.333491,-17.470627,31.37605,59.279644,-11.800886,4.8802757,-0.00906561
141,-0.5286368131637573,-1.7959681749343872,78.23523712158203,-0.418984580568486,1.4942588400798453,75.53428020630096,3.1335554,7.0183086,11.919053,8.44484,-10.76618,-5.7413645,-3.152754,-6.4069614,-10.125726,10.524252,-9.115336,5.807999,4.9674783,0.6569792,6.325081,7.460101,16.969416,-21.851465,50.49709,1.4960748,4.8257766,5.197889,-4.33444,-17.470087,31.377392,59.288456,-11.787076,4.8890624,-0.00236734
142,-0.52845698595047,-1.8016818761825562,78.23531341552734,-0.4149864854991677,1.491222564309412,75.53529360191975,3.130122,7.016986,11.927186,8.457514,-10.775155,-5.719824,-3.160219,-6.4122477,-10.12113,10.544296,-9.131416,5.7993617,4.9602895,0.6555006,6.3272276,7.4656405,16.966246,-21.843218,50.4851,1.4990171,4.841575,5.193929,-4.343046,-17.46827,31.378075,59.304024,-11.7676,4.897448,-0.00096599344
143,-0.5248503088951111,-1.8020853996276855,78.23423767089844,-0.41123164272923274,1.488058805300939,75.53712367889442,3.126929,7.015627,11.934826,8.468278,-10.782963,-5.697996,-3.1666496,-6.417606,-10.117565,10.562289,-9.146851,5.789233,4.9571147,0.6524496,6.3292227,7.464057,16.965107,-21.840878,50.479656,1.495903,4.858859,5.1924267,-4.3452325,-17.46759,31.374825,59.314774,-11.750031,4.9010124,-0.0014859369
144,-0.5245333909988403,-1.800911545753479,78.23394775390625,-0.40867296707805395,1.4844817253224347,75.53789410597308,3.1249204,7.0148096,11.939062,8.476822,-10.789313,-5.6847854,-3.1722076,-6.421286,-10.115542,10.577279,-9.156623,5.7812085,4.957261,0.6491399,6.330757,7.459133,16.962898,-21.838825,50.479717,1.4914685,4.874653,5.1928062,-4.3460965,-17.466375,31.367693,59.32656,-11.740254,4.898237,0.0036636593
145,-0.5266735553741455,-1.803558111190796,78.23372650146484,-0.4084480429480049,1.4806583344951607,75.53792631124993,3.1237545,7.01535,11.937344,8.481436,-10.792233,-5.684209,-3.1746774,-6.4221683,-10.116846,10.583379,-9.155338,5.7770014,4.9572363,0.6456059,6.3284364,7.456606,16.961946,-21.837517,50.484196,1.4793909,4.887177,5.197073,-4.34178,-17.465929,31.364845,59.335796,-11.737544,4.8891196,0.015320772
146,-0.5280234813690186,-1.8096802234649658,78.23451232910156,-0.40929634900275114,1.4768604243149868,75.53796914426106,3.1228979,7.0161257,11.9316635,8.483714,-10.793581,-5.690928,-3.1769564,-6.4222226,-10.120728,10.5873575,-9.149141,5.7745466,4.9595957,0.6401845,6.32238,7.450835,16.960768,-21.835434,50.49536,1.4633678,4.9029574,5.204009,-4.3335586,-17.465488,31.360003,59.346184,-11.740326,4.870755,0.034417506
147,-0.5197876691818237,-1.8149869441986084,78.2359390258789,-0.41070570698508235,1.4721211492874382,75.53684413511364,3.1247494,7.0174284,11.926408,8.4827795,-10.793192,-5.7010474,-3.1782782,-6.421126,-10.12355,10.590989,-9.14289,5.771344,4.9609904,0.63665366,6.318143,7.4463964,16.959541,-21.833305,50.50606,1.4473834,4.9152546,5.2107854,-4.324616,-17.465096,31.35554,59.354156,-11.746686,4.8517365,0.051579516
148,-0.5243123769760132,-1.8211003541946411,78.23741912841797,-0.41234516991025394,1.4651938304220877,75.53339673161534,3.1307142,7.0201187,11.925308,8.482033,-10.794055,-5.7117524,-3.1765342,-6.418423,-10.122605,10.594651,-9.140623,5.7648187,4.9607716,0.63588333,6.3171415,7.4430633,16.957628,-21.831594,50.515285,1.4362723,4.9242268,5.2153625,-4.3169336,-17.46471,31.350964,59.362133,-11.7544775,4.833082,0.064365655
149,-0.516897439956665,-1.818036437034607,78.23926544189453,-0.4151131894625075,1.4551282753693668,75.52586734895095,3.145163,7.0258484,11.931128,8.475757,-10.793517,-5.7268414,-3.1705308,-6.411715,-10.115957,10.59876,-9.144464,5.750373,4.9559402,0.6424574,6.323423,7.4453626,16.956566,-21.830845,50.51677,1.4288955,4.9251924,5.2173743,-4.313431,-17.464523,31.349495,59.36887,-11.7603655,4.8182745,0.0683556
150,-0.522184431552887,-1.8226275444030762,78.24030303955078,-0.41933464711465623,1.4390277919278438,75.51393775162563,3.1726418,7.033595,11.942972,8.461025,-10.790507,-5.7466593,-3.1566072,-6.4014907,-10.104372,10.601003,-9.151287,5.730656,4.9470167,0.65643376,6.3371425,7.457374,16.955265,-21.829435,50.50885,1.4218185,4.920932,5.218914,-4.3126025,-17.464296,31.348942,59.37843,-11.770232,4.8009257,0.06739766
151,-0.5217844247817993,-1.8216118812561035,78.24070739746094,-0.4218632264961403,1.424520419201558,75.5026409759201,3.1971295,7.0395274,11.954439,8.448812,-10.788417,-5.7622724,-3.1453388,-6.3936524,-10.09193,10.605617,-9.16031,5.714141,4.9376183,0.6694307,6.350773,7.4739094,16.953445,-21.826958,50.494083,1.4209887,4.917585,5.2191935,-4.317487,-17.464098,31.352121,59.390057,-11.778951,4.786622,0.06374054
152,-0.5211848020553589,-1.8272069692611694,78.23896789550781,-0.41999509546553054,1.414998070941044,75.49577679175586,3.2111034,7.0392656,11.96136,8.442144,-10.786893,-5.764936,-3.141646,-6.393483,-10.081245,10.614331,-9.1699295,5.7091894,4.928785,0.6755865,6.35856,7.486709,16.949736,-21.821598,50.481907,1.4279912,4.920349,5.216185,-4.320927,-17.46373,31.359316,59.396355,-11.789122,4.7759676,0.06077804
153,-0.5201334953308105,-1.8320597410202026,78.23760223388672,-0.4121851890720116,1.4137124161895336,75.49636083365964,3.208416,7.03053,11.961712,8.443484,-10.783335,-5.7492213,-3.1459215,-6.403579,-10.075396,10.620228,-9.174394,5.7223024,4.929982,0.6688403,6.3575845,7.483464,16.948065,-21.819704,50.48275,1.4473287,4.9321938,5.2075386,-4.313221,-17.4635,31.36008,59.388786,-11.810759,4.7708683,0.060572077
154,-0.5217057466506958,-1.8391188383102417,78.23486328125,-0.4002163349488275,1.4176536042777519,75.50162120814213,3.187981,7.0176005,11.957395,8.464499,-10.786261,-5.7209496,-3.1579962,-6.421128,-10.071721,10.630049,-9.179313,5.747579,4.9378476,0.65416056,6.3517084,7.4711566,16.946087,-21.819769,50.489796,1.4766209,4.9500604,5.1948895,-4.2998877,-17.46328,31.357437,59.372852,-11.840361,4.7696567,0.061190408
155,-0.5229352712631226,-1.8415862321853638,78.23139953613281,-0.38668704156785777,1.4215031891939744,75.50644436372828,3.1703525,7.0011888,11.952014,8.48112,-10.790346,-5.6876307,-3.1745017,-6.441606,-10.0657835,10.650278,-9.191366,5.774757,4.9500566,0.6373579,6.3455334,7.451019,16.94271,-21.824389,50.502247,1.5058783,4.967922,5.181456,-4.2807407,-17.463228,31.348476,59.349716,-11.866092,4.7694755,0.05998577
156,-0.5231524109840393,-1.8403593301773071,78.22643280029297,-0.3749482795243523,1.4193938267391657,75.50606024523807,3.1644733,6.986314,11.946935,8.495118,-10.804791,-5.65832,-3.1919882,-6.4593477,-10.053857,10.687376,-9.217085,5.793376,4.954817,0.62691057,6.3458395,7.4449854,16.940714,-21.828646,50.496307,1.522413,4.9813313,5.1708694,-4.2712393,-17.463331,31.34388,59.332798,-11.870444,4.7663064,0.054793373
157,-0.520206093788147,-1.8401434421539307,78.22206115722656,-0.36449449321211885,1.4091923821898265,75.49780043497928,3.1827195,6.9702225,11.944507,8.488866,-10.82465,-5.6369157,-3.2110307,-6.474567,-10.032778,10.747974,-9.261506,5.799442,4.9519763,0.6234119,6.3533845,7.4501815,16.93762,-21.833048,50.480442,1.5186613,4.9800158,5.165856,-4.267648,-17.46391,31.339962,59.31931,-11.838552,4.7593036,0.03977334
158,-0.521872341632843,-1.8426189422607422,78.21981048583984,-0.3558227999731992,1.3941357482049723,75.48504439265717,3.2142143,6.9544272,11.942687,8.473867,-10.851451,-5.6172547,-3.2278373,-6.4868064,-10.006598,10.816079,-9.314267,5.7985773,4.9412265,0.6242867,6.3648205,7.461934,16.936024,-21.834639,50.458595,1.5015088,4.969597,5.1629376,-4.2690854,-17.464264,31.338543,59.30761,-11.783878,4.750118,0.01904357
159,-0.5244548320770264,-1.8435779809951782,78.21577453613281,-0.34326596023779815,1.377429866593485,75.46956404119594,3.2457504,6.9345546,11.941172,8.465674,-10.886701,-5.5943933,-3.2626154,-6.5063753,-9.9739065,10.926463,-9.391714,5.7968907,4.929984,0.62466544,6.379781,7.486963,16.932241,-21.838995,50.4134,1.4866922,4.969119,5.1614013,-4.2754245,-17.465757,31.343481,59.297623,-11.726699,4.7410836,-0.0016036949
160,-0.5280771255493164,-1.8473995923995972,78.21250915527344,-0.3359792228370542,1.3634801333761906,75.45808853469364,3.2369964,6.928457,11.929754,8.532378,-10.958335,-5.565642,-3.3012967,-6.5213375,-9.945808,11.041174,-9.472975,5.797434,4.9207826,0.62740344,6.388547,7.4928007,16.926233,-21.853638,50.37775,1.4830412,4.992903,5.1519756,-4.278243,-17.469309,31.357649,59.28461,-11.69503,4.7351646,-0.009179596
161,-0.5314183831214905,-1.8537657260894775,78.20805358886719,-0.3318203512615154,1.3527957884353852,75.4506794696866,3.177482,6.934983,11.905168,8.69009,-11.068315,-5.5260124,-3.35403,-6.535851,-9.919941,11.178596,-9.566347,5.8000255,4.9245405,0.6230866,6.3971252,7.480334,16.924377,-21.871677,50.340946,1.5137322,5.0571475,5.126512,-4.274598,-17.470911,31.368782,59.262535,-11.710754,4.733354,0.0022715593
162,-0.5342327952384949,-1.8544901609420776,78.19847106933594,-0.3316682138540885,1.3480063055695606,75.44675385100382,3.0648482,6.95512,11.867502,8.940704,-11.222122,-5.479237,-3.4252725,-6.5486484,-9.895982,11.342623,-9.67446,5.802503,4.9434476,0.62130564,6.388851,7.447561,16.92081,-21.925587,50.318203,1.546556,5.150294,5.099254,-4.256942,-17.475803,31.388668,59.236935,-11.739444,4.7355967,0.021371696
163,-0.5388974547386169,-1.8519995212554932,78.18611907958984,-0.33252532694351095,1.340535931173306,75.44251091512407,2.9557407,6.977063,11.832395,9.195935,-11.38457,-5.432156,-3.4936612,-6.5610642,-9.872434,11.510657,-9.7883,5.808305,4.9576855,0.6202053,6.389426,7.4081287,16.918854,-21.977013,50.28696,1.576652,5.245345,5.069163,-4.242506,-17.480093,31.405066,59.20652,-11.781149,4.737162,0.046994787
164,-0.5367010831832886,-1.8412530422210693,78.17252349853516,-0.33287959903577224,1.328387124253727,75.43720749855278,2.8930528,6.991843,11.811541,9.378879,-11.53004,-5.39192,-3.5503144,-6.574214,-9.850493,11.671137,-9.9035425,5.820743,4.9663715,0.6291427,6.392063,7.362407,16.915705,-22.059528,50.252247,1.5611202,5.318106,5.0537305,-4.229609,-17.489761,31.422537,59.17946,-11.804077,4.735558,0.06877784
165,-0.5363752245903015,-1.8306410312652588,78.16011047363281,-0.33462421096849476,1.3061675898591105,75.42980494307953,2.8808467,7.003071,11.809742,9.499014,-11.666612,-5.3604693,-3.585331,-6.5853653,-9.830349,11.817056,-10.018758,5.843178,4.95022,0.64718854,6.4113817,7.320612,16.912195,-22.13865,50.205994,1.4976118,5.380321,5.054983,-4.231308,-17.500685,31.448023,59.154987,-11.809307,4.7290015,0.08348972
166,-0.5261306166648865,-1.8198665380477905,78.14878845214844,-0.33777899660267224,1.277188178971514,75.42175860311998,2.8983479,7.013156,11.819393,9.586633,-11.803675,-5.3338203,-3.6072373,-6.5952625,-9.812327,11.957068,-10.136875,5.873081,4.920361,0.6765225,6.4386873,7.2789555,16.905365,-22.231264,50.151768,1.3962036,5.439838,5.0698953,-4.2378373,-17.517338,31.480865,59.129612,-11.803085,4.7196283,0.095289625
167,-0.5281747579574585,-1.8138184547424316,78.13947296142578,-0.3381397038615466,1.2508017407838665,75.41297876963144,2.9418867,7.014812,11.835638,9.619648,-11.922548,-5.310183,-3.630926,-6.6084633,-9.794583,12.099656,-10.25907,5.9046254,4.8683395,0.6996841,6.477657,7.2444825,16.902678,-22.288181,50.068512,1.3112804,5.4612694,5.0696497,-4.264758,-17.525738,31.512272,59.107574,-11.809476,4.7086415,0.11649442
168,-0.5318694114685059,-1.8055286407470703,78.13129425048828,-0.3322393634273689,1.2384609588413404,75.40287214073554,3.005363,7.001394,11.8539295,9.577789,-12.006503,-5.2879405,-3.6726727,-6.6286907,-9.775414,12.250191,-10.384219,5.9319563,4.8390756,0.72416675,6.4820995,7.1699796,16.8974,-22.414116,50.016815,1.2002238,5.408342,5.064922,-4.2632303,-17.550714,31.548916,59.07776,-11.785997,4.702028,0.14361577
169,-0.5349758863449097,-1.7915911674499512,78.12129211425781,-0.31563383117152666,1.2415074406731066,75.38962073007956,3.0971842,6.9656415,11.878532,9.439204,-12.044746,-5.2604012,-3.7408667,-6.6626835,-9.752385,12.423293,-10.518316,5.956751,4.8187485,0.7341194,6.4831166,7.0788345,16.89875,-22.531267,49.948574,1.1245772,5.224711,5.023627,-4.2477098,-17.584059,31.56113,59.022095,-11.783179,4.700653,0.1917989
170,-0.5312284231185913,-1.774717092514038,78.11112213134766,-0.2915468102337492,1.2549477453938842,75.37400554991174,3.2179763,6.912692,11.910341,9.2183485,-12.048034,-5.231038,-3.8253028,-6.7061152,-9.727131,12.609554,-10.658397,5.9810333,4.7840376,0.73163486,6.4770794,6.9884315,16.905252,-22.627516,49.86372,1.0659657,4.9449515,4.958145,-4.2499886,-17.6029,31.583029,58.9821,-11.785761,4.7017975,0.24978131
171,-0.5199655890464783,-1.7557743787765503,78.10086059570312,-0.2674403331668501,1.2770024929780877,75.36066730077,3.350529,6.855705,11.937888,8.952224,-12.030539,-5.213641,-3.9125803,-6.7470746,-9.704779,12.786227,-10.796145,5.999586,4.772985,0.7289707,6.464337,6.865722,16.926575,-22.772602,49.77495,0.9973243,4.6729503,4.8857985,-4.2130456,-17.644371,31.57072,58.896637,-11.780216,4.7011538,0.32126528
172,-0.506298840045929,-1.7335312366485596,78.0936508178711,-0.25074429688418237,1.3048880139289187,75.35463034929296,3.4869034,6.8064218,11.950916,8.660296,-11.999458,-5.221707,-3.9858932,-6.7739773,-9.690812,12.9259405,-10.9204035,6.007056,4.7513494,0.7299913,6.4599004,6.729702,16.95777,-22.90791,49.659344,0.95025235,4.5108814,4.80462,-4.1711273,-17.697548,31.533644,58.780693,-11.769941,4.690749,0.41001272
173,-0.4922676682472229,-1.7189053297042847,78.08602142333984,-0.24244196728411213,1.3385390312442729,75.36001191750324,3.6100125,6.7675967,11.937226,8.37092,-11.963013,-5.2636547,-4.043176,-6.7858152,-9.688408,13.022984,-11.028932,6.0054035,4.702196,0.7370262,6.4568224,6.57644,16.984888,-23.022917,49.530914,0.93782806,4.5046964,4.7082515,-4.1492386,-17.741976,31.482096,58.67053,-11.742087,4.6631947,0.5190387
174,-0.48363780975341797,-1.7003517150878906,78.07832336425781,-0.23968358607204943,1.3791385693581715,75.37319994697773,3.7329795,6.7327175,11.906126,8.05807,-11.912231,-5.3312387,-4.0921307,-6.787528,-9.69438,13.090244,-11.126447,5.9962106,4.659851,0.7482474,6.4589353,6.395573,17.02394,-23.156673,49.383633,0.941131,4.594093,4.596969,-4.101582,-17.808485,31.386503,58.514015,-11.703441,4.6240487,0.6512458
175,-0.45423609018325806,-1.6703559160232544,78.07613372802734,-0.2426218517395024,1.426520209315248,75.38817942630307,3.8587165,6.7061644,11.874682,7.7302284,-11.85536,-5.412487,-4.1339984,-6.7775354,-9.704186,13.134688,-11.21707,5.973546,4.589362,0.7634629,6.4504924,6.206668,17.049833,-23.26579,49.242706,0.9573704,4.718317,4.495965,-4.0895305,-17.85171,31.320408,58.39214,-11.665096,4.58701,0.77875644
176,-0.4317866563796997,-1.6462336778640747,78.07343292236328,-0.2512271279311472,1.48083654570743,75.39902652273518,3.9844816,6.692831,11.859648,7.407808,-11.808018,-5.494981,-4.1720448,-6.754626,-9.712791,13.166954,-11.306911,5.931473,4.550605,0.7829698,6.441807,5.991075,17.093145,-23.4182,49.09858,0.9423604,4.8205276,4.4287252,-4.036192,-17.924713,31.2396,58.210682,-11.644335,4.5653787,0.8960037
177,-0.3960713744163513,-1.6026456356048584,78.07209014892578,-0.2683533921669379,1.536153888036246,75.40272268150943,4.1246266,6.698197,11.871052,7.0888457,-11.78012,-5.5838356,-4.1939898,-6.713574,-9.719462,13.183001,-11.398791,5.8606873,4.502527,0.8094817,6.422124,5.7747188,17.134094,-23.57008,48.963345,0.89507115,4.890476,4.411979,-3.991652,-17.992582,31.207956,58.03778,-11.632398,4.561497,0.985021
178,-0.3614429533481598,-1.5566824674606323,78.06826782226562,-0.29933016738282603,1.595550786454473,75.40508760225396,4.126152,6.7563415,11.878144,7.08372,-11.929789,-5.6845465,-4.205271,-6.651117,-9.730026,13.183787,-11.491381,5.766575,4.443755,0.8472903,6.3893576,5.5482163,17.168907,-23.722168,48.84103,0.83143413,4.957191,4.4309483,-3.9641528,-18.04788,31.210117,57.884827,-11.624573,4.568198,1.055609
179,-0.3267483711242676,-1.5116230249404907,78.06612396240234,-0.330261163687762,1.669475853551983,75.40699379284473,4.1073904,6.818786,11.887143,7.0861936,-12.074388,-5.7806606,-4.230543,-6.58483,-9.7394285,13.180339,-11.581044,5.666705,4.407188,0.88387126,6.362496,5.2991033,17.225485,-23.898918,48.693848,0.76199865,5.0202785,4.4557,-3.89996,-18.139435,31.187605,57.658287,-11.636769,4.586557,1.1312939
180,-0.2809771001338959,-1.4709856510162354,78.06360626220703,-0.3559568503386457,1.76907703950004,75.41197181856063,4.0450983,6.877092,11.8842745,7.094522,-12.192743,-5.857126,-4.298044,-6.52384,-9.747176,13.191053,-11.667574,5.578009,4.35515,0.9129256,6.3307233,5.0273647,17.273232,-24.042585,48.54202,0.7370311,5.075453,4.4616213,-3.882839,-18.215347,31.17912,57.449306,-11.675548,4.616423,1.2132895
181,-0.24486713111400604,-1.4530935287475586,78.0600357055664,-0.37040119297610735,1.9041306823324908,75.41491073963438,3.9356043,6.922389,11.871894,7.0866694,-12.263088,-5.9045243,-4.4219193,-6.4734917,-9.746782,13.211732,-11.743322,5.5053105,4.321621,0.92748487,6.2993665,4.7207603,17.33752,-24.19132,48.35965,0.75885785,5.1293635,4.4429407,-3.8619146,-18.316578,31.143885,57.18489,-11.753429,4.6609936,1.3174204
182,-0.20442411303520203,-1.4428749084472656,78.05440521240234,-0.3774705952078623,2.0662585865181233,75.41594292777434,3.7806675,6.962906,11.853935,7.0924296,-12.314473,-5.931918,-4.5856347,-6.427945,-9.740466,13.237561,-11.812022,5.4393225,4.291232,0.9315202,6.2627783,4.388104,17.404995,-24.332727,48.16364,0.81740516,5.1805105,4.4139743,-3.8581867,-18.421217,31.107971,56.90449,-11.860372,4.718894,1.4310716
183,-0.16220501065254211,-1.4246954917907715,78.04936218261719,-0.38257459527590454,2.239536218639634,75.42531446454643,3.6093438,7.0025992,11.825924,7.0940366,-12.351168,-5.9518743,-4.7586102,-6.383194,-9.740454,13.25813,-11.875957,5.3761287,4.2521043,0.9336201,6.2352643,4.0406847,17.475641,-24.453943,47.954792,0.8835209,5.2183576,4.3722596,-3.8683155,-18.531273,31.070877,56.604824,-11.982082,4.7844043,1.5455945
184,-0.09482792019844055,-1.3748098611831665,78.0452880859375,-0.39173155236677354,2.408055379427829,75.45371671349795,3.4414866,7.0466204,11.78221,7.0936127,-12.388709,-5.97694,-4.912376,-6.335608,-9.758638,13.266128,-11.939239,5.311825,4.1898394,0.94266224,6.231422,3.69342,17.547958,-24.536789,47.73199,0.93161494,5.2322674,4.3150744,-3.898416,-18.649075,31.043064,56.289722,-12.094088,4.8518133,1.6517216
185,-0.04179668799042702,-1.3638862371444702,78.0404281616211,-0.4084389097150808,2.565326715425367,75.52308370374917,3.277873,7.0963926,11.701272,7.0930505,-12.430633,-6.0112543,-5.0229754,-6.2856216,-9.81786,13.242057,-11.996567,5.251083,4.0804744,0.96694183,6.2617803,3.3437514,17.616632,-24.552021,47.48874,0.9533884,5.240261,4.2068343,-3.9522076,-18.771639,31.021479,55.96214,-12.196896,4.92608,1.7449768
186,0.014268857426941395,-1.3404244184494019,78.03950500488281,-0.4288654142046049,2.7205672006432047,75.62141107372295,3.1079302,7.1489253,11.592566,7.093092,-12.469991,-6.0478396,-5.111853,-6.2351665,-9.9050045,13.196596,-12.048226,5.1941967,3.9383557,1.0011954,6.319244,2.9867,17.687037,-24.51742,47.222965,0.96113074,5.2410154,4.059558,-4.021236,-18.910181,31.004597,55.60808,-12.296529,5.008314,1.8327444
187,0.06945597380399704,-1.2952085733413696,78.04177856445312,-0.44776920836707984,2.88170673392447,75.70784240996036,2.9357455,7.204161,11.497226,7.093087,-12.506161,-6.082532,-5.215252,-6.1806817,-9.978716,13.163122,-12.104615,5.130395,3.8022904,1.0334936,6.382464,2.631845,17.75895,-24.47911,46.95777,0.9693071,5.194714,3.9451542,-4.1002173,-19.057299,30.996944,55.231987,-12.397116,5.087266,1.9190534
188,0.1253148317337036,-1.2734910249710083,78.04327392578125,-0.46011631300506284,3.056484572616127,75.74134243090506,2.7652378,7.262486,11.456246,7.091799,-12.537823,-6.111285,-5.3697615,-6.1186495,-9.997844,13.174968,-12.175772,5.0488887,3.7128458,1.051482,6.4320583,2.2889547,17.838074,-24.486273,46.71063,0.98833406,5.0617046,3.934523,-4.1761413,-19.210508,30.9973,54.827324,-12.505923,5.151781,2.0090642
189,0.2017589807510376,-1.2337487936019897,78.04005432128906,-0.4648121238434687,3.2482063994483883,75.6964072069938,2.6051624,7.325759,11.497625,7.0845613,-12.56698,-6.1307673,-5.590887,-6.0441713,-9.936184,13.245751,-12.268532,4.939418,3.6940339,1.0480579,6.4570494,1.9688939,17.928867,-24.570023,46.501217,1.0114253,4.7735143,4.1037865,-4.2405834,-19.367464,31.002811,54.390995,-12.627484,5.1931777,2.1106584
190,0.28513166308403015,-1.2201592922210693,78.03300476074219,-0.46457823151262706,3.452248729140428,75.59953668233058,2.4465141,7.3947015,11.593129,7.0834365,-12.599235,-6.1438255,-5.858356,-5.9606085,-9.820694,13.358859,-12.377888,4.810119,3.72238,1.0282245,6.4698915,1.6647072,18.031836,-24.70093,46.311462,1.0365639,4.371007,4.3957434,-4.3002863,-19.528116,31.010183,53.926178,-12.759934,5.2190094,2.218817
191,0.3570396304130554,-1.1955760717391968,78.0265121459961,-0.4612898660557254,3.6648428362960273,75.48895368434303,2.2762,7.4665174,11.700672,7.0911117,-12.626252,-6.155583,-6.153591,-5.87517,-9.690244,13.499981,-12.492714,4.6777263,3.7659552,1.0004736,6.487993,1.359869,18.14604,-24.837687,46.10256,1.0783895,3.9783928,4.681524,-4.3672915,-19.691685,31.022953,53.43498,-12.894006,5.242487,2.3197544
192,0.4352174699306488,-1.1574617624282837,78.02455139160156,-0.45569390889776246,3.8819515987350983,75.40235639059075,2.0922267,7.5351615,11.779846,7.0873475,-12.6276045,-6.1711817,-6.449998,-5.79462,-9.584302,13.638457,-12.599059,4.5590405,3.7925153,0.97292185,6.5278625,1.0421605,18.269297,-24.934605,45.832333,1.1538887,3.72029,4.832363,-4.4557495,-19.85703,31.046835,52.92233,-13.01832,5.276966,2.3994975
193,0.5402424335479736,-1.1008745431900024,78.02464294433594,-0.4416417071928903,4.120377710926425,75.34749704188282,1.8571813,7.5939336,11.819964,7.0856333,-12.59868,-6.191844,-6.7844033,-5.730089,-9.506716,13.796573,-12.694489,4.461955,3.7944772,0.94164944,6.5916777,0.69008684,18.40144,-24.968534,45.476048,1.2853556,3.6585288,4.786123,-4.5862694,-20.022945,31.083746,52.389717,-13.126785,5.3391023,2.4447281
194,0.6368463039398193,-1.0996453762054443,78.01978302001953,-0.4200161191196977,4.376093763818404,75.30504887902508,1.5898474,7.646452,11.843352,7.0804048,-12.545118,-6.2150497,-7.1539683,-5.674321,-9.438834,13.97635,-12.784832,4.376108,3.7860732,0.90407187,6.6703844,0.3190683,18.543318,-24.963957,45.06004,1.4585938,3.7168508,4.6202545,-4.7509475,-20.18934,31.136133,51.840252,-13.224409,5.4176307,2.4656212
195,0.710773766040802,-1.1391408443450928,78.0096206665039,-0.40424210190337456,4.614326399002836,75.2723860103968,1.3458148,7.7081347,11.85561,7.076642,-12.489978,-6.2401443,-7.4861627,-5.610281,-9.385057,14.142469,-12.874943,4.291211,3.7682707,0.87200063,6.7642283,-0.03102923,18.693283,-24.949362,44.620586,1.6318104,3.8122926,4.4154325,-4.912439,-20.355164,31.203331,51.27267,-13.32236,5.484094,2.4838939
196,0.8168236613273621,-1.106840968132019,77.99945831298828,-0.4091011949288251,4.800595554481128,75.24698232286367,1.1828834,7.7972975,11.8617525,7.074724,-12.454185,-6.266375,-7.712413,-5.518427,-9.35058,14.267668,-12.9737,4.1972957,3.741872,0.8599976,6.872306,-0.3224122,18.848627,-24.953434,44.197285,1.7627784,3.8624313,4.25363,-5.039364,-20.52116,31.28806,50.69196,-13.430216,5.5098643,2.5206916
197,0.9488319754600525,-1.02419114112854,77.98770904541016,-0.44393029021685254,4.899354612825526,75.24050621492458,1.1512113,7.924544,11.8512,7.0756755,-12.455787,-6.3085957,-7.7595186,-5.387708,-9.352124,14.317094,-13.079625,4.087433,3.6969495,0.8801106,7.0058937,-0.5351061,19.007887,-24.99238,43.801155,1.8293506,3.8441703,4.1529984,-5.1055026,-20.690289,31.394857,50.092426,-13.554825,5.4699945,2.5863411
198,1.095155119895935,-0.894343376159668,77.97976684570312,-0.4979116346582663,4.937954517310107,75.24999144033426,1.2079964,8.077649,11.825495,7.0789866,-12.479261,-6.361999,-7.6815605,-5.2310414,-9.3812065,14.311726,-13.187589,3.968572,3.637942,0.9220831,7.1619277,-0.69455326,19.170326,-25.049164,43.412613,1.858568,3.8020198,4.0718074,-5.1293907,-20.863464,31.517258,49.469032,-13.691711,5.3855815,2.6681843
199,1.2098286151885986,-0.8237807154655457,77.9685287475586,-0.5530472968498743,4.9766083003482064,75.25090709270395,1.271486,8.235857,11.809504,7.0842414,-12.497008,-6.396023,-7.600229,-5.0691943,-9.40414,14.306497,-13.300725,3.8516774,3.586881,0.96269673,7.3182564,-0.8341569,19.334352,-25.104507,43.028404,1.8779446,3.7549634,4.0022817,-5.1514463,-21.037188,31.645447,48.83261,-13.828594,5.2965946,2.7525063
200,1.3415333032608032,-0.748268723487854,77.95683288574219,-0.5909832488082615,5.075634232411059,75.21893143710105,1.2514744,8.383375,11.825421,7.109026,-12.491001,-6.3807807,-7.6402364,-4.9206915,-9.389049,14.3627,-13.425248,3.7477481,3.564612,0.9814657,7.450883,-0.986409,19.497797,-25.138084,42.64608,1.9164671,3.7220376,3.9371164,-5.2121453,-21.204933,31.768457,48.19685,-13.956679,5.2430315,2.8251636
201,1.469159722328186,-0.7041473388671875,77.93888092041016,-0.5951595356870469,5.275901711737825,75.13154030757096,1.0936747,8.499328,11.89669,7.160634,-12.448847,-6.275931,-7.8941026,-4.8045993,-9.306299,14.537907,-13.570868,3.6610432,3.5866704,0.9566591,7.5406384,-1.1751442,19.659737,-25.14122,42.25914,1.9863758,3.7346704,3.8653486,-5.3426447,-21.360765,31.886784,47.572975,-14.080527,5.2401896,2.888151
202,1.6059374809265137,-0.6489313840866089,77.91973114013672,-0.5803404716931777,5.537150788648992,75.00736207757232,0.739517,8.62351,11.987081,7.478938,-12.514279,-6.1091814,-8.274365,-4.7044215,-9.18121,14.783426,-13.730446,3.5849206,3.6362717,0.90517175,7.6021442,-1.3775007,19.820232,-25.124035,41.873936,2.071819,3.773897,3.7941904,-5.5158725,-21.502222,32.004692,46.95752,-14.207317,5.265147,2.946231
203,1.7413517236709595,-0.6149183511734009,77.89398956298828,-0.5783570003200914,5.798054432827295,74.88443405901526,0.19628432,8.809682,12.044254,8.207942,-12.784767,-5.952068,-8.636465,-4.5846057,-9.065098,15.003994,-13.8865385,3.5136442,3.6880088,0.86515206,7.6622243,-1.5576103,19.978626,-25.096338,41.507828,2.1587386,3.7830844,3.7434852,-5.69953,-21.629953,32.127583,46.352753,-14.317411,5.300686,2.9892266
204,1.8931763172149658,-0.5429466366767883,77.8682861328125,-0.6224078955695259,5.997224097559735,74.79966867689225,-0.2982602,9.060574,12.051475,8.997915,-13.101054,-5.8756814,-8.834371,-4.4107766,-9.00876,15.101601,-14.0202265,3.441622,3.7165358,0.8751054,7.7484617,-1.679247,20.133303,-25.067251,41.177353,2.2330835,3.7058,3.7333713,-5.8528147,-21.74566,32.255383,45.751953,-14.396429,5.3300624,3.007426
205,2.042877197265625,-0.44127121567726135,77.84611511230469,-0.7262876923545669,6.104920699733051,74.7689307780755,-0.6961437,9.386709,11.992001,9.832613,-13.476186,-5.9043975,-8.788379,-4.166712,-9.033418,15.013149,-14.117256,3.374037,3.7110696,0.951437,7.871451,-1.7240195,20.283958,-25.043186,40.906727,2.2982981,3.4745395,3.772119,-5.9532695,-21.85036,32.39114,45.1467,-14.426767,5.361303,2.9903402
206,2.205610513687134,-0.33819520473480225,77.81425476074219,-0.8707466687777468,6.1583416711839085,74.77014674781833,-1.0499132,9.7670355,11.889934,10.72613,-13.900809,-5.998203,-8.589463,-3.872633,-9.108147,14.801142,-14.189438,3.3117526,3.6868436,1.0723633,8.016092,-1.7172458,20.430899,-25.01923,40.68291,2.3577833,3.1368883,3.8486555,-6.0241737,-21.944408,32.532608,44.53983,-14.421131,5.3994155,2.9459617
207,2.383538007736206,-0.19844980537891388,77.779541015625,-1.0374845963425332,6.1964301598513725,74.78381401034868,-1.4373528,10.190876,11.762623,11.725036,-14.360072,-6.135995,-8.346236,-3.5497115,-9.20528,14.552576,-14.255865,3.2430065,3.6584618,1.2184728,8.171084,-1.68181,20.571754,-24.983192,40.460857,2.4048238,2.8087924,3.9531958,-6.0933247,-22.029097,32.67064,43.94123,-14.411111,5.4227386,2.8924456
208,2.575137138366699,-0.06434018164873123,77.74049377441406,-1.2126569408885752,6.2579655896021045,74.79005113767651,-1.9359703,10.64724,11.627858,12.8778515,-14.841835,-6.2945485,-8.168579,-3.2195792,-9.298309,14.358156,-14.337477,3.1558552,3.640039,1.3720697,8.324591,-1.6443207,20.70305,-24.924734,40.199837,2.4300158,2.6060193,4.0758853,-6.1836543,-22.106062,32.793194,43.35702,-14.432411,5.4097185,2.8480897
209,2.7477033138275146,0.02773522213101387,77.68973541259766,-1.399510471357267,6.3576296665186165,74.77399409043637,-2.542162,11.135368,11.508947,14.152148,-15.36446,-6.494234,-8.099369,-2.8767676,-9.379057,14.251468,-14.440525,3.0403876,3.6408355,1.5373732,8.468794,-1.6142696,20.821657,-24.839468,39.888996,2.4350467,2.5815294,4.2197247,-6.3030276,-22.174622,32.895847,42.79826,-14.5075245,5.3359036,2.8188086
210,2.906850814819336,0.09821580350399017,77.63163757324219,-1.6024254058525664,6.472917110440703,74.74883013152663,-3.2212226,11.656736,11.39094,15.537259,-15.928199,-6.7402153,-8.076711,-2.5152662,-9.461041,14.184685,-14.555451,2.9053855,3.652002,1.7203498,8.610785,-1.5800545,20.927107,-24.734364,39.554924,2.4234087,2.6660361,4.388533,-6.441702,-22.23558,32.98757,42.26299,-14.611314,5.219026,2.7940435
211,3.0838077068328857,0.1844954788684845,77.56246185302734,-1.807525958127969,6.586715239444176,74.73727592453271,-3.9940984,12.201656,11.234417,17.093758,-16.482271,-6.991866,-8.050801,-2.1529558,-9.552617,14.12193,-14.678048,2.7665925,3.6622648,1.9105222,8.760977,-1.5372332,21.016521,-24.617126,39.214607,2.3893456,2.7918265,4.573696,-6.5861707,-22.289701,33.06935,41.727966,-14.711773,5.1010356,2.7684457
212,3.26039719581604,0.33450835943222046,77.50555419921875,-2.0049879616936916,6.682480514005907,74.762044303258,-4.879136,12.75931,10.999381,18.876768,-16.970293,-7.2137747,-7.969309,-1.8038338,-9.663071,14.021519,-14.800936,2.6392508,3.657647,2.0986888,8.932598,-1.4709976,21.095318,-24.490591,38.869934,2.3267775,2.8917074,4.76531,-6.7246504,-22.345036,33.146248,41.164993,-14.772838,5.023863,2.7373223
213,3.436595916748047,0.4727133512496948,77.45187377929688,-2.2058155252896547,6.752738658547955,74.8313477596765,-5.864094,13.328932,10.663737,20.877857,-17.399677,-7.4294114,-7.8087797,-1.4515607,-9.796325,13.862499,-14.920331,2.5234833,3.6338341,2.2985687,9.130306,-1.3764268,21.1652,-24.352625,38.504826,2.2308037,2.986179,4.948102,-6.8421025,-22.408085,33.213203,40.548603,-14.80479,5.0054545,2.7010293
214,3.6123476028442383,0.5749194622039795,77.38511657714844,-2.4126364198079893,6.807539421670355,74.93201633554702,-6.928883,13.898404,10.2589445,23.047426,-17.778152,-7.666027,-7.5989122,-1.0927345,-9.946627,13.666053,-15.038479,2.4119706,3.6003082,2.5122378,9.347402,-1.2640011,21.22182,-24.205397,38.125286,2.1048691,3.0979884,5.132155,-6.9418015,-22.477888,33.265,39.891735,-14.822372,5.021316,2.662425
215,3.786970615386963,0.7043796181678772,77.31964111328125,-2.6031919558224943,6.856505115880332,75.0562691338326,-8.078802,14.442248,9.824691,25.372269,-18.045773,-7.8961678,-7.3670115,-0.7580747,-10.109269,13.453421,-15.156387,2.3085186,3.5618472,2.713358,9.582498,-1.1356183,21.26576,-24.052591,37.755936,1.9574561,3.1634405,5.343304,-7.047331,-22.556746,33.314407,39.224255,-14.78623,5.0497622,2.6218991
216,3.937467575073242,0.8134370446205139,77.26446533203125,-2.7548830823226678,6.909101252181,75.19613406695534,-9.32013,14.94316,9.397951,27.836628,-18.141102,-8.086695,-7.141076,-0.47842214,-10.281944,13.248724,-15.277285,2.217685,3.5247107,2.8755925,9.831407,-0.99830264,21.29593,-23.901932,37.429768,1.7966131,3.118567,5.608095,-7.1835017,-22.640694,33.37173,38.583775,-14.6618185,5.068708,2.5793476
217,4.094420433044434,0.9025046825408936,77.21156311035156,-2.8613901444070042,6.965466346694007,75.3534300062084,-10.686935,15.401681,8.958787,30.497892,-18.01569,-8.2374325,-6.926304,-0.26357698,-10.4686,13.058645,-15.404415,2.1389227,3.4799745,2.9921916,10.105127,-0.83891594,21.321339,-23.750982,37.140945,1.6025597,2.8887465,5.973214,-7.3501506,-22.744986,33.448357,37.95083,-14.426479,5.087905,2.5310616
218,4.248745918273926,1.01325523853302,77.16986846923828,-2.934135646835987,7.021227572491027,75.53129172474011,-12.160252,15.817291,8.500206,33.32748,-17.702734,-8.380076,-6.708719,-0.096270144,-10.6702175,12.872044,-15.536637,2.07077,3.4323719,3.0757897,10.399537,-0.6642437,21.339025,-23.604088,36.883583,1.379681,2.526319,6.411214,-7.5383043,-22.861282,33.53249,37.322746,-14.104621,5.1130724,2.4783635
219,4.401111602783203,1.2199134826660156,77.14601135253906,-2.980154017400392,7.079215402006316,75.72424419872972,-13.687273,16.188402,8.069171,36.221954,-17.27573,-8.511032,-6.4841146,0.032400273,-10.879548,12.677181,-15.664462,2.0159647,3.388967,3.1342611,10.70389,-0.47399732,21.343517,-23.445282,36.63953,1.1726545,2.1587307,6.830371,-7.739411,-22.990374,33.61484,36.7028,-13.721368,5.118865,2.4306357
220,4.504456996917725,1.3483812808990479,77.12376403808594,-3.0082047490116657,7.142351986547171,75.92638124202846,-15.221941,16.525051,7.708586,39.092968,-16.815258,-8.609832,-6.249354,0.13133743,-11.089066,12.464282,-15.779763,1.9772916,3.3584569,3.1762104,11.005962,-0.27236238,21.325602,-23.260712,36.396976,1.0249419,1.9147384,7.1411963,-7.949177,-23.134449,33.687572,36.100315,-13.299819,5.0798874,2.3976731
221,4.6161932945251465,1.4575774669647217,77.09790802001953,-3.0192365850097693,7.223382667520221,76.15520311448853,-16.821274,16.858295,7.4239373,42.02249,-16.265894,-8.632698,-6.018078,0.20125784,-11.315185,12.229005,-15.87621,1.9528848,3.3328214,3.2080615,11.302333,-0.07853531,21.276405,-23.042076,36.146103,0.978218,1.8500501,7.281688,-8.168593,-23.296114,33.739906,35.518974,-12.812412,4.9678817,2.38449
222,4.727257251739502,1.6137219667434692,77.08148193359375,-3.0091025749596922,7.316559813963276,76.40735180121192,-18.4948,17.190857,7.1877484,45.03804,-15.6149645,-8.580727,-5.7866406,0.23864223,-11.556413,11.975834,-15.958801,1.9421983,3.3118947,3.2268212,11.598126,0.10902375,21.193666,-22.800007,35.90551,1.0006604,1.889284,7.313942,-8.399947,-23.477137,33.780235,34.95494,-12.256117,4.803848,2.3864796
223,4.826289653778076,1.806930422782898,77.08187103271484,-2.9768600632836812,7.397271326708036,76.64626074319266,-20.128233,17.49466,6.993544,47.97844,-15.0131035,-8.493792,-5.524601,0.24632756,-11.778506,11.706373,-16.034628,1.9497203,3.3156672,3.2283962,11.893933,0.31646964,21.0796,-22.55021,35.705204,1.021322,1.9649736,7.3353095,-8.635642,-23.6773,33.826584,34.401386,-11.694599,4.6370225,2.3981214
224,4.9253315925598145,2.0254554748535156,77.07212829589844,-2.9223519672509823,7.441179172418951,76.83533031615192,-21.607637,17.73599,6.837132,50.685684,-14.613537,-8.421647,-5.202301,0.22659712,-11.947407,11.4240265,-16.111992,1.9798485,3.363881,3.2077165,12.190585,0.57426715,20.939157,-22.306576,35.57054,0.9706417,2.0097435,7.4428635,-8.871625,-23.894823,33.898888,33.854595,-11.189273,4.51617,2.41256
225,5.010989665985107,2.306206703186035,77.06998443603516,-2.8416675616536833,7.4198780487332066,76.96456962979983,-22.87555,17.91042,6.72976,53.14581,-14.518712,-8.358439,-4.772971,0.17845525,-12.052326,11.110938,-16.189686,2.0392525,3.4626641,3.1596744,12.5020895,0.9009261,20.77445,-22.06802,35.497887,0.7822858,2.0278566,7.6817775,-9.103346,-24.130312,34.017582,33.32178,-10.747375,4.4520025,2.4228466
226,5.0955305099487305,2.5768649578094482,77.06694030761719,-2.737107913397609,7.353700145028166,77.05351970937434,-24.006847,18.040636,6.669679,55.448433,-14.631817,-8.277301,-4.2645664,0.10134084,-12.113189,10.770333,-16.26368,2.1235945,3.6006348,3.089294,12.82377,1.2788985,20.585743,-21.828268,35.473904,0.5084231,2.0468469,7.9933486,-9.339104,-24.383562,34.170948,32.80498,-10.336047,4.419183,2.4333212
227,5.186789512634277,2.855241060256958,77.06455993652344,-2.6160421286809497,7.291545005192479,77.11046363801829,-25.08422,18.127174,6.6357646,57.58283,-14.808635,-8.2047,-3.7653,-0.0033603008,-12.141544,10.446035,-16.342531,2.2209425,3.7711666,3.005362,13.127768,1.6867386,20.37621,-21.593946,35.507717,0.25691417,2.0351427,8.31841,-9.581816,-24.649134,34.321285,32.284626,-9.968312,4.412608,2.4531875
228,5.253622531890869,3.113865613937378,77.0635757446289,-2.4835552568205954,7.28211754529407,77.14388065089729,-26.191408,18.170609,6.606372,59.538597,-14.900815,-8.168144,-3.3622193,-0.13447243,-12.148598,10.180592,-16.434343,2.319177,3.968628,2.9135673,13.385627,2.100856,20.151804,-21.373688,35.610302,0.13415346,1.9630985,8.598243,-9.853511,-24.921326,34.43945,31.759657,-9.646477,4.426927,2.4916377
229,5.294049263000488,3.3682308197021484,77.06377410888672,-2.3357749153648095,7.340050964825024,77.14823146453695,-27.351368,18.164118,6.582809,61.325466,-14.885956,-8.177674,-3.0855052,-0.299384,-12.126771,9.992704,-16.54263,2.4164827,4.2010884,2.8053076,13.586211,2.5282862,19.916187,-21.183174,35.79613,0.20277795,1.7553433,8.849445,-10.146693,-25.193893,34.514538,31.228825,-9.399464,4.4726467,2.5614948
230,5.344672679901123,3.6773178577423096,77.06504821777344,-2.1689863483840828,7.43881437762199,77.12189387204155,-28.52099,18.113537,6.574344,62.948414,-14.837537,-8.215117,-2.8877118,-0.49683493,-12.073419,9.860294,-16.664137,2.5184522,4.4698954,2.678315,13.7453985,2.9782324,19.670319,-21.015984,36.05392,0.39376757,1.4520795,9.093528,-10.461157,-25.465595,34.563896,30.70401,-9.215575,4.548123,2.6539543
231,5.387081623077393,3.9730570316314697,77.06330871582031,-1.9992507172051843,7.565562045201352,77.07889293589136,-29.686272,18.038832,6.5696445,64.39008,-14.754038,-8.266403,-2.7344968,-0.71037,-12.00656,9.755398,-16.792978,2.6237173,4.7562675,2.5487075,13.876735,3.433359,19.41576,-20.84415,36.350277,0.6141568,1.1973679,9.2779665,-10.803645,-25.737175,34.588886,30.178875,-9.052527,4.6306386,2.7460172
232,5.41990327835083,4.281242847442627,77.06599426269531,-1.8367108057854815,7.707339532130287,77.03339918001657,-30.83168,17.960104,6.5572224,65.630264,-14.632266,-8.316335,-2.5945723,-0.9243392,-11.944256,9.656353,-16.926355,2.7310758,5.0408983,2.4323766,13.993978,3.8785825,19.154072,-20.637949,36.649807,0.77031755,1.133933,9.348164,-11.167821,-26.010162,34.584442,29.634983,-8.876968,4.697415,2.815249
233,5.444072723388672,4.608737945556641,77.07023620605469,-1.6784005009429412,7.866509721930743,76.98583671893722,-31.95865,17.874308,6.5429425,66.657585,-14.462971,-8.356672,-2.4723675,-1.1452194,-11.890257,9.565177,-17.063593,2.835099,5.321472,2.3282454,14.102684,4.3022456,18.880312,-20.371836,36.929554,0.8360347,1.3809305,9.241721,-11.555213,-26.28508,34.54249,29.0746,-8.683021,4.7384596,2.8505352
234,5.466643333435059,4.913911819458008,77.0594711303711,-1.5210953024732805,8.047889182762235,76.92975650908755,-33.073498,17.777342,6.5287676,67.48544,-14.25005,-8.393476,-2.3857336,-1.3776054,-11.834857,9.503435,-17.210178,2.937732,5.6051636,2.2305608,14.194997,4.716032,18.592384,-20.064714,37.211895,0.86369383,1.8344973,9.002625,-11.957723,-26.56125,34.464886,28.496044,-8.495322,4.7673078,2.865711
235,5.48418664932251,5.248199939727783,77.04275512695312,-1.3761490287173475,8.242271150077775,76.8681257855796,-34.166122,17.683722,6.4997897,68.12749,-14.008613,-8.432523,-2.301855,-1.6020298,-11.776196,9.433224,-17.357986,3.0492828,5.8899426,2.1445723,14.266435,5.1364017,18.30182,-19.757412,37.52858,0.8725586,2.302602,8.736017,-12.399757,-26.841446,34.38205,27.908579,-8.2919445,4.7960987,2.8752086
236,5.489129066467285,5.5920820236206055,77.02507019042969,-1.2520316407681986,8.440508924053264,76.80362097928115,-35.22716,17.607998,6.4401484,68.59841,-13.755002,-8.480248,-2.1942174,-1.7992188,-11.712914,9.329707,-17.504581,3.1801076,6.172669,2.0741184,14.312882,5.5889454,18.028118,-19.488106,37.90102,0.8773781,2.5941427,8.546038,-12.880527,-27.12921,34.313442,27.298985,-8.068238,4.837616,2.8938572
237,5.504995346069336,5.963658332824707,76.99642181396484,-1.1595551035398601,8.646903626487179,76.73749880927376,-36.27034,17.557915,6.33412,68.896095,-13.484785,-8.546111,-2.0621243,-1.9539162,-11.644691,9.181496,-17.647108,3.3369505,6.457735,2.0224805,14.325897,6.078684,17.788374,-19.276604,38.351463,0.8400834,2.610677,8.470504,-13.391137,-27.425236,34.25175,26.659487,-7.7848673,4.904891,2.9339771
238,5.511953353881836,6.358687400817871,76.97103118896484,-1.090182579899406,8.863987778053911,76.66766006631842,-37.29365,17.523262,6.1946087,69.0126,-13.191179,-8.622812,-1.9186333,-2.0803502,-11.572272,9.00492,-17.788544,3.5131507,6.747856,1.9811441,14.312533,6.6033764,17.585903,-19.099943,38.845478,0.7602493,2.471382,8.448704,-13.926625,-27.729624,34.18509,25.986715,-7.45863,4.9884434,2.985584
239,5.534328460693359,6.683035850524902,76.91374206542969,-1.0291031409102727,9.080104277687676,76.59207219682354,-38.266327,17.491777,6.046891,68.95692,-12.88836,-8.692571,-1.7520361,-2.201663,-11.496688,8.803775,-17.927446,3.6989305,7.03676,1.9389685,14.292511,7.1772323,17.417002,-18.9313,39.321487,0.7079046,2.3107831,8.436899,-14.495202,-28.044977,34.12759,25.27902,-7.1661487,5.063871,3.0294902
240,5.523707866668701,7.097867012023926,76.8682632446289,-0.962303534005304,9.283467408698327,76.50907163664964,-39.15651,17.45188,5.917112,68.736824,-12.589939,-8.737615,-1.5511861,-2.3420172,-11.418663,8.583196,-18.063053,3.8845043,7.3162966,1.8870986,14.285193,7.8116913,17.272915,-18.742748,39.722057,0.75386035,2.2632732,8.391877,-15.090749,-28.373444,34.08816,24.52244,-6.992191,5.1067667,3.0467436
241,5.501145839691162,7.562262535095215,76.83172607421875,-0.8805402497759249,9.467810425508079,76.41460804330214,-39.944958,17.395405,5.8119864,68.336716,-12.309392,-8.752616,-1.3135636,-2.513135,-11.333061,8.351449,-18.198988,4.06771,7.5832324,1.8241445,14.296728,8.51076,17.143831,-18.53006,40.032166,0.93563056,2.4522052,8.284289,-15.721155,-28.7202,34.081684,23.717129,-6.9897175,5.0962043,3.0309694
