unveil-humanoid-operators/unveil-humanoid-operators.github.io/feature-analysis-animation/data/feature_matrix_instances/height_root_translate_peak_vel_walking_A463_painful_stand_on_walk_ff_270_R_001__A463.csv
Frame,root_translateX,root_translateY,root_translateZ,root_rotateX,root_rotateY,root_rotateZ,left_hip_pitch_joint_dof,left_hip_roll_joint_dof,left_hip_yaw_joint_dof,left_knee_joint_dof,left_ankle_pitch_joint_dof,left_ankle_roll_joint_dof,right_hip_pitch_joint_dof,right_hip_roll_joint_dof,right_hip_yaw_joint_dof,right_knee_joint_dof,right_ankle_pitch_joint_dof,right_ankle_roll_joint_dof,waist_yaw_joint_dof,waist_roll_joint_dof,waist_pitch_joint_dof,left_shoulder_pitch_joint_dof,left_shoulder_roll_joint_dof,left_shoulder_yaw_joint_dof,left_elbow_joint_dof,left_wrist_roll_joint_dof,left_wrist_pitch_joint_dof,left_wrist_yaw_joint_dof,right_shoulder_pitch_joint_dof,right_shoulder_roll_joint_dof,right_shoulder_yaw_joint_dof,right_elbow_joint_dof,right_wrist_roll_joint_dof,right_wrist_pitch_joint_dof,right_wrist_yaw_joint_dof
0,-2.157043695449829,-0.36223524808883667,78.07659149169922,0.023879916729869038,-1.9943636910041203,-1.2220140463042768,3.1075406,2.4095366,7.0398016,7.2164445,-10.076318,-3.8303618,1.7325723,-5.6048484,-11.112,9.840365,-9.1295185,5.2854424,-2.3972561,0.36296502,7.935798,-0.77975774,17.574596,-36.22187,56.470524,-6.322687,-1.1148714,-1.3750376,-5.4564342,-12.968922,40.932518,53.83982,-4.8962097,1.8120517,-6.2946796
1,-2.1533243656158447,-0.3731290102005005,78.07210540771484,0.05190868387918416,-1.984833042944414,-1.2508002352121335,3.117003,2.3869557,7.0687156,7.19094,-10.066422,-3.823856,1.5943755,-5.648622,-11.06892,10.10539,-9.270741,5.283095,-2.4124396,0.30416527,7.9516845,-0.72975564,17.64272,-36.20357,56.383633,-6.3268967,-1.0988326,-1.3648802,-5.460833,-12.943515,40.824677,53.798035,-4.8429465,1.819287,-6.3047523
2,-2.149986743927002,-0.3820808231830597,78.06885528564453,0.07940293112383098,-1.9754913522417357,-1.280354344857372,3.126864,2.364824,7.098069,7.1655154,-10.056533,-3.8168306,1.4586644,-5.6909003,-11.02517,10.364772,-9.408351,5.281254,-2.420313,0.25103983,7.9636245,-0.6989563,17.689875,-36.194145,56.326553,-6.3303437,-1.0837302,-1.3511909,-5.4652233,-12.920377,40.716576,53.762203,-4.783016,1.8279297,-6.3110814
3,-2.1517961025238037,-0.388211727142334,78.06365966796875,0.10772715801138774,-1.9659456708323277,-1.308246970021697,3.1374023,2.3416262,7.1264906,7.137753,-10.045599,-3.810693,1.3194958,-5.735101,-10.98285,10.632294,-9.551161,5.2789273,-2.4361799,0.20276228,7.9715543,-0.679347,17.712915,-36.18056,56.29693,-6.3299675,-1.0736269,-1.3372984,-5.464108,-12.905555,40.611763,53.72021,-4.7278767,1.835093,-6.3255825
4,-2.146054983139038,-0.39925792813301086,78.05965423583984,0.1387080199391163,-1.9560778708683537,-1.3323699696452769,3.1477392,2.3159125,7.152822,7.107874,-10.033285,-3.8069484,1.1695223,-5.7851706,-10.9433365,10.925163,-9.709612,5.275065,-2.4544945,0.14950505,7.979254,-0.6629891,17.733368,-36.171787,56.274826,-6.329547,-1.0694053,-1.3274953,-5.4571567,-12.8897295,40.488194,53.671413,-4.6930437,1.8351998,-6.3576365
5,-2.1392931938171387,-0.41366350650787354,78.05545043945312,0.16995278866875443,-1.9469317968768516,-1.3479193854747087,3.1576045,2.2894862,7.1727858,7.0772095,-10.020327,-3.8055503,1.0140052,-5.8389134,-10.912397,11.237733,-9.882588,5.2658176,-2.4924169,0.09481977,7.98484,-0.6434223,17.747042,-36.158413,56.263725,-6.327036,-1.0751933,-1.3191892,-5.4466434,-12.877376,40.3667,53.614082,-4.6747956,1.8264418,-6.4171095
6,-2.134770631790161,-0.4250667989253998,78.04914093017578,0.201856068130812,-1.9386870312879363,-1.3581003442290454,3.1682384,2.262304,7.1888943,7.045028,-10.006451,-3.8058765,0.8536642,-5.8959374,-10.886673,11.566955,-10.067304,5.252949,-2.525699,0.035353735,7.995985,-0.632316,17.761274,-36.153065,56.256935,-6.3209167,-1.0864908,-1.3148272,-5.42676,-12.863355,40.21084,53.546154,-4.691002,1.8094786,-6.4895945
7,-2.135453939437866,-0.4375246465206146,78.042724609375,0.2387354712136585,-1.9286040169053313,-1.3704897734547938,3.1806276,2.2302613,7.2082987,7.0043902,-9.988129,-3.8084786,0.6774765,-5.9603343,-10.856669,11.923708,-10.266088,5.2439423,-2.5587335,-0.031094445,8.0036335,-0.62223274,17.77551,-36.15079,56.255486,-6.3188763,-1.0999668,-1.3157493,-5.405294,-12.849006,40.048565,53.475098,-4.7070026,1.7905054,-6.571712
8,-2.1362826824188232,-0.44987887144088745,78.03423309326172,0.28468143501805787,-1.9147642410579706,-1.3936662390867374,3.1889799,2.1905165,7.238723,6.9656415,-9.970972,-3.814009,0.47374153,-6.036259,-10.811927,12.321973,-10.482926,5.2463346,-2.557071,-0.11487269,8.011369,-0.62671304,17.804693,-36.17585,56.252502,-6.32845,-1.108684,-1.3275337,-5.3767743,-12.82212,39.837852,53.401848,-4.7280774,1.7717305,-6.648859
9,-2.133244514465332,-0.4649646580219269,78.02629852294922,0.3389403810276709,-1.8965337915551799,-1.4286100141783442,3.1771967,2.1450815,7.280288,6.9624047,-9.973368,-3.820887,0.24485643,-6.1218596,-10.750416,12.753232,-10.714582,5.2613387,-2.5891986,-0.1973485,8.007233,-0.6066339,17.817404,-36.15392,56.24863,-6.339928,-1.1163646,-1.3584641,-5.3598323,-12.810466,39.69069,53.32799,-4.7013984,1.7607361,-6.7329626
10,-2.136063814163208,-0.4793039858341217,78.01323699951172,0.4000241244695868,-1.8758037916807382,-1.4719078257620226,3.1635165,2.0936005,7.330567,6.958539,-9.975833,-3.8295002,-0.003365421,-6.215326,-10.676985,13.212978,-10.960078,5.2853703,-2.587564,-0.29145092,8.00784,-0.6067506,17.838161,-36.152824,56.247456,-6.358649,-1.1211761,-1.407172,-5.3314033,-12.794679,39.489346,53.24268,-4.6865344,1.7491498,-6.812172
11,-2.1394095420837402,-0.4971059560775757,78.00079345703125,0.4694315435338758,-1.8516280285946995,-1.522901896236496,3.14664,2.0356867,7.3891783,6.9541245,-9.977622,-3.84301,-0.28087458,-6.3196983,-10.593723,13.7214155,-11.226024,5.319311,-2.5941398,-0.39477536,8.003395,-0.59893394,17.856285,-36.142574,56.246662,-6.3757787,-1.1244341,-1.4507645,-5.3060517,-12.782901,39.30023,53.15264,-4.663881,1.7378242,-6.896248
12,-2.143751621246338,-0.5127184391021729,77.985107421875,0.549358791498148,-1.8238198493438464,-1.5819101954155517,3.1270554,1.9705981,7.456595,6.9488544,-9.978493,-3.864631,-0.59578925,-6.4382043,-10.501924,14.296642,-11.518213,5.3641067,-2.5912642,-0.51639974,8.001031,-0.5944152,17.881151,-36.141056,56.244873,-6.3846536,-1.1238816,-1.4719747,-5.2774467,-12.769598,39.083504,53.051544,-4.6680098,1.7228235,-6.978177
13,-2.1473336219787598,-0.5354326963424683,77.97398376464844,0.6329528435465918,-1.7910713561368232,-1.6478700961786192,3.1030467,1.9065584,7.530771,6.9424925,-9.977079,-3.899386,-0.9497084,-6.561995,-10.408844,14.941726,-11.8346615,5.4040236,-2.5946355,-0.6489231,7.998957,-0.5824541,17.91041,-36.13559,56.23741,-6.3772125,-1.1161281,-1.4576482,-5.2506423,-12.755274,38.855164,52.939823,-4.6890388,1.7034526,-7.0509067
14,-2.152644395828247,-0.5618710517883301,77.95692443847656,0.7214752244493648,-1.7538461270985115,-1.7210103887169326,3.0743759,1.8411914,7.6121054,6.9366293,-9.974792,-3.9441643,-1.3399392,-6.6920085,-10.31137,15.651151,-12.174498,5.444469,-2.6151931,-0.78854406,7.9930806,-0.5598326,17.933323,-36.112164,56.231056,-6.3557677,-1.1039165,-1.4199576,-5.231653,-12.744128,38.63893,52.82467,-4.7126966,1.6821306,-7.120842
15,-2.1620678901672363,-0.5913404226303101,77.93595886230469,0.8270453782363256,-1.7153406079667712,-1.8031242605233433,3.0461211,1.7601279,7.704467,6.928777,-9.972714,-3.9904678,-1.7595549,-6.842217,-10.197127,16.411716,-12.539924,5.518199,-2.595368,-0.9592762,7.995594,-0.5502813,17.985271,-36.12537,56.211823,-6.341719,-1.090482,-1.3803632,-5.197155,-12.721675,38.3572,52.694256,-4.7810855,1.6573557,-7.197023
16,-2.170976161956787,-0.6243048310279846,77.9113540649414,0.9612385078975583,-1.6777661238606014,-1.89620707903913,3.019446,1.6496583,7.811562,6.921385,-9.973461,-4.029639,-2.2078104,-7.027081,-10.053334,17.222593,-12.935949,5.658121,-2.608007,-1.1518328,7.9906893,-0.5244981,18.014446,-36.093315,56.207607,-6.3234925,-1.0886884,-1.3548257,-5.1819134,-12.70957,38.141647,52.57639,-4.8547745,1.636329,-7.3137584
17,-2.18384051322937,-0.6614534854888916,77.8793716430664,1.1288789617643151,-1.635913299557588,-2.0025630926018967,2.9894083,1.5041991,7.9380803,6.912477,-9.975697,-4.058229,-2.7028158,-7.251651,-9.877778,18.107967,-13.381418,5.848052,-2.5728397,-1.3901254,7.9917374,-0.5139538,18.070816,-36.09279,56.19295,-6.3188705,-1.1003822,-1.3510735,-5.153746,-12.689971,37.87736,52.452198,-4.991034,1.6080472,-7.4718637
18,-2.1975886821746826,-0.7027539610862732,77.84479522705078,1.321904885605339,-1.5899650394551414,-2.1203527093549925,2.956359,1.3332518,8.080541,6.902469,-9.979017,-4.081444,-3.239298,-7.5047836,-9.677997,19.061255,-13.868801,6.0797596,-2.5332468,-1.6625031,7.9929123,-0.48771647,18.150867,-36.086765,56.15524,-6.3218875,-1.120891,-1.3582093,-5.1344943,-12.665903,37.62715,52.332966,-5.1520033,1.5760835,-7.6668124
19,-2.212270975112915,-0.7392241358757019,77.80223083496094,1.5326645756515125,-1.5522711278759342,-2.24522029779805,2.9338398,1.1449887,8.230289,6.893225,-9.986273,-4.1038074,-3.781738,-7.777343,-9.457176,20.041117,-14.370296,6.397718,-2.504702,-1.9511932,7.999105,-0.45678994,18.222164,-36.06215,56.12655,-6.322214,-1.1404674,-1.3731704,-5.115951,-12.646057,37.382065,52.205593,-5.328812,1.554824,-7.8721075
20,-2.222642183303833,-0.7843456268310547,77.75973510742188,1.7537359683939227,-1.5347812416211595,-2.3727789340286836,2.9367816,0.9474189,8.378619,6.8835063,-9.998876,-4.1299744,-4.294911,-8.061021,-9.21977,21.006136,-14.858268,6.8461313,-2.4732964,-2.256345,8.023836,-0.41871303,18.313955,-36.045357,56.085148,-6.332013,-1.1434692,-1.39517,-5.0856385,-12.622658,37.098854,52.053257,-5.5167274,1.5556178,-8.058735
21,-2.2328405380249023,-0.8319627642631531,77.70882415771484,1.9916298575362845,-1.5447638083800037,-2.5038177042790193,2.9724767,0.7327189,8.524362,6.8743362,-10.01755,-4.158927,-4.7695923,-8.367409,-8.9813595,21.959953,-15.352985,7.466833,-2.450344,-2.5815113,8.070274,-0.37503254,18.407352,-36.020924,56.044476,-6.347122,-1.1245283,-1.426252,-5.0484924,-12.6000185,36.791317,51.87422,-5.714401,1.5926871,-8.222778
22,-2.2432010173797607,-0.8858726620674133,77.65693664550781,2.2460915571072877,-1.574144264535171,-2.6401506218921647,3.0334158,0.5015602,8.671391,6.863778,-10.04087,-4.1893077,-5.2278414,-8.695184,-8.73971,22.928202,-15.86793,8.226366,-2.425939,-2.9279964,8.13442,-0.32644507,18.511452,-35.99741,55.996895,-6.370488,-1.0907384,-1.4665023,-5.004704,-12.576079,36.457516,51.673546,-5.92873,1.6553372,-8.376719
23,-2.2539496421813965,-0.9415805339813232,77.60191345214844,2.500370651625188,-1.6118226573539551,-2.779506873079277,3.1057975,0.2739988,8.819282,6.8560452,-10.069486,-4.2250533,-5.684671,-9.018043,-8.469637,23.909101,-16.368546,9.056752,-2.4037402,-3.2729468,8.204565,-0.27472997,18.621166,-35.97498,55.953014,-6.3945413,-1.0529574,-1.5092738,-4.948634,-12.551972,36.098476,51.456192,-6.1491985,1.72158,-8.52271
24,-2.2583656311035156,-0.9970681667327881,77.54733276367188,2.7386290995306735,-1.6470859319039843,-2.919261795598544,3.1796362,0.06849213,8.967629,6.848172,-10.1009445,-4.2699046,-6.151362,-9.308756,-8.143852,24.893116,-16.816372,9.89124,-2.3836875,-3.5953605,8.269773,-0.22312427,18.735292,-35.959946,55.920933,-6.414886,-1.0215604,-1.5477965,-4.873301,-12.528495,35.709946,51.226593,-6.366828,1.7690554,-8.662736
25,-2.2555043697357178,-1.0579804182052612,77.49212646484375,2.9649044543478844,-1.6806873630508299,-3.06267397911625,3.2565775,-0.119717374,9.122442,6.842182,-10.138517,-4.3247747,-6.619489,-9.564724,-7.758084,25.864336,-17.187662,10.787574,-2.362931,-3.8990743,8.331531,-0.17200384,18.853569,-35.951782,55.898037,-6.4302335,-0.99703246,-1.5874534,-4.7682023,-12.505285,35.272747,50.973183,-6.6011243,1.7900366,-8.79491
26,-2.2520227432250977,-1.1207003593444824,77.44070434570312,3.1855988071835624,-1.7171405393127992,-3.2099659695487297,3.341475,-0.29810897,9.282171,6.836045,-10.1803055,-4.387782,-7.0885034,-9.79668,-7.3262696,26.837257,-17.512209,11.7587385,-2.3408124,-4.1926317,8.394004,-0.1214667,18.976004,-35.94974,55.882942,-6.4431024,-0.9745851,-1.6293558,-4.639683,-12.482482,34.794018,50.697918,-6.8492713,1.7969507,-8.918967
27,-2.245669364929199,-1.1891793012619019,77.39363098144531,3.389008374893044,-1.7510601574212472,-3.353789580823939,3.4268064,-0.45338905,9.435376,6.8298845,-10.223107,-4.45788,-7.5681205,-9.99645,-6.845969,27.81879,-17.82185,12.671866,-2.32256,-4.4624963,8.450654,-0.073027186,19.100885,-35.95802,55.88534,-6.4546695,-0.95709354,-1.6603203,-4.503267,-12.461158,34.30878,50.421124,-7.070012,1.7980502,-9.039106
28,-2.2367210388183594,-1.2589895725250244,77.35160827636719,3.565093147388384,-1.77753138928946,-3.4868629361012076,3.5033877,-0.574087,9.571005,6.825987,-10.263946,-4.533665,-8.065422,-10.157159,-6.312561,28.808825,-18.138851,13.393353,-2.3143837,-4.696885,8.493809,-0.026952624,19.225096,-35.97805,55.915764,-6.463717,-0.94727826,-1.6671214,-4.3743153,-12.444079,33.85232,50.165142,-7.224247,1.8015587,-9.159668
29,-2.2242932319641113,-1.335381031036377,77.31526184082031,3.71214517757151,-1.795687947940529,-3.610993842306328,3.5718608,-0.6590639,9.687587,6.8228097,-10.302797,-4.6155596,-8.596164,-10.251697,-5.6707044,29.82793,-18.456724,13.857665,-2.3164682,-4.8923526,8.520185,0.013590514,19.346363,-36.023094,55.983963,-6.471783,-0.9504004,-1.6332395,-4.257416,-12.433564,33.442173,49.93558,-7.2890844,1.8077954,-9.288497
30,-2.2094361782073975,-1.414665937423706,77.28069305419922,3.8372869958084896,-1.8083969055670281,-3.728737370091166,3.6359255,-0.716094,9.790856,6.8200183,-10.340795,-4.703658,-9.144808,-10.288984,-4.93859,30.856306,-18.755924,14.149113,-2.326968,-5.056615,8.53329,0.04866964,19.463745,-36.08715,56.085243,-6.4779515,-0.96370804,-1.5699451,-4.143755,-12.430729,33.058132,49.720856,-7.2893023,1.8128858,-9.421073
31,-2.189854145050049,-1.4979811906814575,77.24905395507812,3.9416653770915073,-1.8158982561542054,-3.8339182248035613,3.6935732,-0.7460394,9.88008,6.8181868,-10.376486,-4.796039,-9.67697,-10.320181,-4.219207,31.839632,-19.038872,14.354477,-2.348128,-5.1917067,8.537738,0.08080074,19.576023,-36.144333,56.207584,-6.478716,-0.9781524,-1.5057557,-4.0255413,-12.433733,32.679543,49.509266,-7.25327,1.8187323,-9.542791
32,-2.1650407314300537,-1.5870676040649414,77.22396850585938,4.02629904831186,-1.81873857391501,-3.9202183318678463,3.7433698,-0.74968016,9.954442,6.816633,-10.407479,-4.890608,-10.164009,-10.403736,-3.61338,32.73172,-19.313654,14.556049,-2.3832011,-5.3004346,8.53748,0.113459535,19.682083,-36.16774,56.339386,-6.470314,-0.984674,-1.4691449,-3.902506,-12.439763,32.29085,49.297226,-7.20455,1.8270915,-9.63963
33,-2.139888048171997,-1.6794992685317993,77.20603942871094,4.090077077799939,-1.8145381520178365,-3.986796733363385,3.7822504,-0.72568905,10.015891,6.8157654,-10.43402,-4.9853635,-10.605278,-10.55626,-3.14486,33.525642,-19.592407,14.774967,-2.435481,-5.3822474,8.529871,0.14658785,19.781267,-36.148685,56.486874,-6.4430156,-0.9806956,-1.4742726,-3.7749305,-12.445592,31.89048,49.085926,-7.1468234,1.8412344,-9.7050705
34,-2.1097564697265625,-1.7850401401519775,77.19278717041016,4.126548508214468,-1.8029215374967829,-4.042432039066646,3.8115168,-0.6645923,10.068939,6.815698,-10.457348,-5.084203,-11.016999,-10.743774,-2.7535746,34.24031,-19.860401,14.959249,-2.4974692,-5.430577,8.512362,0.17879133,19.873728,-36.10103,56.655018,-6.4011283,-0.97126734,-1.5036288,-3.6463168,-12.450235,31.487453,48.88219,-7.0684733,1.8590587,-9.748176
35,-2.085707664489746,-1.8991992473602295,77.1832275390625,4.139245618684638,-1.7890561519418,-4.084787687452974,3.8365,-0.57041657,10.107406,6.8176427,-10.477889,-5.190273,-11.400048,-10.954001,-2.4199753,34.88095,-20.094975,15.000033,-2.573377,-5.4469614,8.48834,0.20884828,19.947199,-36.025383,56.841423,-6.3593655,-0.95963085,-1.5375593,-3.5195162,-12.452547,31.087553,48.690094,-6.9700394,1.8750689,-9.779353
36,-2.0577988624572754,-2.0165886878967285,77.1767578125,4.14208462385091,-1.7801914285681109,-4.103815840019205,3.8652842,-0.46404314,10.119324,6.817827,-10.493644,-5.3013277,-11.754694,-11.2189865,-2.126743,35.465126,-20.283566,15.000033,-2.6688254,-5.443267,8.464381,0.24095452,20.001945,-35.92875,57.0292,-6.3362913,-0.9476364,-1.5572325,-3.3911376,-12.453407,30.68898,48.505608,-6.854535,1.883361,-9.807797
37,-2.021388053894043,-2.1389224529266357,77.1770248413086,4.132885158379191,-1.7782896661461804,-4.094993707813943,3.8983405,-0.34375033,10.099932,6.8183975,-10.504843,-5.4185033,-12.078855,-11.545592,-1.8743058,35.99409,-20.421377,15.000033,-2.7559168,-5.423151,8.456887,0.27197385,20.06901,-35.83471,57.191727,-6.3458767,-0.92953885,-1.5584539,-3.2335627,-12.454254,30.234518,48.30092,-6.72905,1.8758751,-9.815631
38,-1.9864827394485474,-2.270263433456421,77.17667388916016,4.110540474147737,-1.7801883146940127,-4.060563777081519,3.933217,-0.20777424,10.053308,6.8172116,-10.510336,-5.540514,-12.375012,-11.930336,-1.669052,36.46347,-20.518692,14.974012,-2.8731163,-5.3804574,8.447719,0.31500694,20.121008,-35.702892,57.354538,-6.367346,-0.90819997,-1.5492971,-3.077565,-12.453839,29.788185,48.108513,-6.574636,1.859558,-9.812222
39,-1.9453412294387817,-2.408557891845703,77.17977905273438,4.072870344656341,-1.7816211002262257,-4.018155064950815,3.9686325,-0.047582746,9.995081,6.8170295,-10.515732,-5.6701593,-12.649519,-12.337636,-1.4976435,36.859833,-20.57011,14.785284,-2.970657,-5.3204923,8.445815,0.35400766,20.187588,-35.585472,57.49035,-6.4098554,-0.88642144,-1.5407685,-2.9054532,-12.453129,29.314907,47.89641,-6.427388,1.8432381,-9.809511
40,-1.90093195438385,-2.551119565963745,77.18253326416016,4.028782700603088,-1.7803308059663707,-3.9766746055760462,4.002933,0.12707987,9.934041,6.8196445,-10.524751,-5.8041406,-12.908704,-12.773535,-1.3495891,37.179665,-20.577932,14.530763,-3.0725358,-5.247472,8.435538,0.39741963,20.250256,-35.46727,57.60652,-6.463926,-0.8721758,-1.5390851,-2.7500467,-12.453263,28.8816,47.689262,-6.28913,1.8391254,-9.837455
41,-1.8526902198791504,-2.701878547668457,77.1856460571289,3.9836330678809353,-1.777837090584526,-3.9307364398555458,4.038991,0.30798426,9.864424,6.821377,-10.536021,-5.9391255,-13.158095,-13.255573,-1.2293518,37.44065,-20.539743,14.181951,-3.1778116,-5.165937,8.418831,0.44123417,20.307947,-35.354084,57.704876,-6.5410414,-0.8684302,-1.5461421,-2.6069121,-12.456115,28.480661,47.47845,-6.160288,1.8488386,-9.899444
42,-1.80340576171875,-2.859327554702759,77.18987274169922,3.9329988816930106,-1.7749994891506085,-3.8768935598275953,4.0760236,0.49971902,9.783307,6.823291,-10.548606,-6.0767455,-13.394492,-13.782201,-1.141454,37.64014,-20.459234,13.745672,-3.2790399,-5.073953,8.402299,0.48691657,20.37369,-35.25023,57.775517,-6.6433434,-0.87027043,-1.5588443,-2.4602695,-12.463424,28.086842,47.252167,-6.039982,1.866415,-9.9812355
43,-1.752753734588623,-3.026400089263916,77.19163513183594,3.882494467253974,-1.7699581969328124,-3.817952239572411,4.11155,0.69656676,9.69616,6.825921,-10.561971,-6.2178984,-13.615094,-14.338979,-1.0787054,37.762314,-20.357796,13.28781,-3.377367,-4.976883,8.384626,0.5340968,20.447268,-35.155655,57.81587,-6.745402,-0.8735539,-1.5762345,-2.3169224,-12.474686,27.708916,47.02075,-5.934903,1.891853,-10.080591
44,-1.6934579610824585,-3.1954333782196045,77.19109344482422,3.837198939531408,-1.7613802196295814,-3.756633241397051,4.1445813,0.8932316,9.608191,6.8280973,-10.575641,-6.3634634,-13.815574,-14.91348,-1.0330884,37.79116,-20.255415,12.875278,-3.4707575,-4.879319,8.363437,0.5772826,20.52325,-35.07368,57.831467,-6.8205633,-0.8744498,-1.5966,-2.1805189,-12.487022,27.348574,46.795357,-5.8575993,1.9252114,-10.194784
45,-1.6336262226104736,-3.3760406970977783,77.18814086914062,3.7987380941896016,-1.748509510636757,-3.6894913227772492,4.172981,1.086484,9.516807,6.8301773,-10.587825,-6.510663,-13.992693,-15.521404,-1.0276563,37.72249,-20.158403,12.518334,-3.5602078,-4.781928,8.337634,0.6115997,20.600517,-35.011467,57.821865,-6.858032,-0.87017596,-1.6246091,-2.047628,-12.49695,26.997591,46.572216,-5.814843,1.975887,-10.33505
46,-1.5725619792938232,-3.561915874481201,77.18470001220703,3.76418809458043,-1.7321266584585095,-3.616447487759225,4.1974807,1.2802621,9.420319,6.8320465,-10.59854,-6.6601806,-14.149397,-16.162842,-1.0594678,37.565147,-20.055796,12.18567,-3.6426787,-4.6838865,8.309344,0.64188564,20.686493,-34.968075,57.7808,-6.873553,-0.8628303,-1.6596626,-1.9172558,-12.505052,26.653551,46.34783,-5.799864,2.0404282,-10.498367
47,-1.5085251331329346,-3.755103826522827,77.17909240722656,3.731678414267708,-1.7132679360468355,-3.5455206420614944,4.2225213,1.4785911,9.3260145,6.8339972,-10.61274,-6.8176894,-14.292138,-16.79968,-1.0807799,37.326458,-19.940622,11.881819,-3.7159762,-4.5846343,8.2787075,0.67015845,20.77738,-34.934086,57.719227,-6.883173,-0.8573875,-1.6912999,-1.7964157,-12.512437,26.331724,46.135727,-5.806253,2.100242,-10.661853
48,-1.436562418937683,-3.956805467605591,77.17218017578125,3.699370191721595,-1.6931951636934517,-3.484600397389499,4.2513337,1.6860515,9.240916,6.835564,-10.633138,-6.989021,-14.426558,-17.39325,-1.0439773,37.011337,-19.804148,11.610653,-3.7736447,-4.483624,8.247333,0.6952582,20.873102,-34.90687,57.64607,-6.906393,-0.858534,-1.7091908,-1.6907066,-12.522489,26.04391,45.945694,-5.8257184,2.1363816,-10.801627
49,-1.3676669597625732,-4.168959140777588,77.16043853759766,3.6650278631165776,-1.6714280752182817,-3.435999997451965,4.2841673,1.9055213,9.167424,6.8376627,-10.664623,-7.1800513,-14.554198,-17.938883,-0.93772066,36.614216,-19.648888,11.367986,-3.8140461,-4.376833,8.214929,0.7176764,20.973738,-34.8907,57.558228,-6.9522943,-0.8678095,-1.7102216,-1.5983591,-12.539137,25.788975,45.77784,-5.8628006,2.1373124,-10.905902
50,-1.2936140298843384,-4.383934497833252,77.14363861083984,3.6302504395208963,-1.6476642081562853,-3.3956128174774225,4.3194795,2.1341417,9.101718,6.83892,-10.702664,-7.386301,-14.671271,-18.455116,-0.786995,36.134945,-19.476608,11.153707,-3.840047,-4.265031,8.181607,0.737532,21.079174,-34.88568,57.45133,-7.009133,-0.88259786,-1.7002544,-1.5142075,-12.563229,25.56132,45.62276,-5.9195213,2.1156611,-10.988645
51,-1.2190040349960327,-4.607469081878662,77.12964630126953,3.59875263430565,-1.6229370581415432,-3.3613568828941633,4.3570523,2.3676975,9.041516,6.8401537,-10.741388,-7.5980635,-14.777341,-18.942741,-0.5977927,35.59089,-19.279057,10.977075,-3.853097,-4.154719,8.1494,0.75583255,21.188662,-34.879406,57.33275,-7.0632386,-0.9013958,-1.6821952,-1.4420892,-12.593037,25.368116,45.480057,-5.9826636,2.088249,-11.065104
52,-1.1446597576141357,-4.838391304016113,77.11443328857422,3.574213196530799,-1.5987048539479838,-3.331269852146887,4.397659,2.6017013,8.984735,6.841675,-10.774673,-7.8055177,-14.871529,-19.402657,-0.3757016,34.997944,-19.04698,10.84736,-3.8564284,-4.0539255,8.119067,0.7745851,21.30127,-34.85732,57.210457,-7.0992002,-0.9227408,-1.658854,-1.3875939,-12.626417,25.217026,45.35373,-6.041204,2.0719314,-11.151052
53,-1.0646497011184692,-5.0797529220581055,77.0947036743164,3.5619460931787086,-1.574073507121419,-3.307703042824964,4.4409184,2.830008,8.9334135,6.842011,-10.79713,-7.9987965,-14.950078,-19.836802,-0.10581507,34.33909,-18.782463,10.790868,-3.8484745,-3.9680994,8.089454,0.79619414,21.416342,-34.81307,57.081177,-7.098271,-0.94820875,-1.6254228,-1.3497052,-12.659875,25.101501,45.2427,-6.100018,2.0741098,-11.246424
54,-0.9828624129295349,-5.330749034881592,77.07496643066406,3.5583270401969176,-1.5488913090441647,-3.290720540957111,4.486231,3.056612,8.887818,6.8438087,-10.814983,-8.185461,-15.013749,-20.24374,0.20956375,33.612232,-18.48787,10.7939205,-3.829405,-3.8929865,8.059673,0.8188943,21.533998,-34.75411,56.94416,-7.072791,-0.9780509,-1.5820423,-1.3302783,-12.692859,25.0217,45.15126,-6.1624827,2.0846484,-11.344936
55,-0.8994010090827942,-5.592453479766846,77.05329132080078,3.554977011322021,-1.52517342800768,-3.2750722415396036,4.5353775,3.2921762,8.843135,6.8451924,-10.833081,-8.382142,-15.068385,-20.62463,0.5400839,32.857487,-18.156036,10.806764,-3.804451,-3.820554,8.031845,0.84066415,21.654276,-34.68589,56.808617,-7.0544896,-1.0083394,-1.5394385,-1.3326572,-12.726896,24.993376,45.082058,-6.2168136,2.0946498,-11.452334
56,-0.8188601732254028,-5.864851474761963,77.02729034423828,3.543486664499639,-1.5050302712031238,-3.2556358630221407,4.589967,3.547283,8.794937,6.845309,-10.857108,-8.6052685,-15.1210165,-20.978897,0.8550005,32.11711,-17.781282,10.779667,-3.7796361,-3.7433643,8.008006,0.86027354,21.77694,-34.611267,56.683018,-7.072704,-1.0351928,-1.5087242,-1.3608239,-12.766276,25.032915,45.038506,-6.2521167,2.0952425,-11.574506
57,-0.7353231906890869,-6.150352478027344,77.00089263916016,3.520457426841644,-1.4902574049791828,-3.23328774669356,4.652312,3.825675,8.744914,6.846325,-10.894497,-8.862634,-15.175552,-21.310442,1.1404833,31.40301,-17.360409,10.680262,-3.753135,-3.655526,7.992319,0.8799175,21.900785,-34.51946,56.563583,-7.133761,-1.0603713,-1.4990588,-1.4188796,-12.812794,25.154814,45.02593,-6.2317185,2.0860343,-11.735023
58,-0.6529996395111084,-6.443831920623779,76.97437286376953,3.490746601477841,-1.4792495713368965,-3.2100625927190567,4.7210736,4.121485,8.694997,6.846593,-10.93932,-9.144358,-15.229725,-21.618717,1.4150487,30.69812,-16.899889,10.541226,-3.724303,-3.5617294,7.9822793,0.90061367,22.025328,-34.409824,56.447376,-7.2209344,-1.0850159,-1.5026592,-1.5030982,-12.867176,25.347778,45.039825,-6.1733465,2.0709937,-11.923301
59,-0.5658718347549438,-6.744869709014893,76.94395446777344,3.4572611744718356,-1.468672158596439,-3.182707579328853,4.7905188,4.4317327,8.640643,6.8459826,-10.9817,-9.440512,-15.278031,-21.8938,1.6945862,29.994036,-16.405396,10.410058,-3.6981788,-3.4669085,7.972306,0.9172061,22.15169,-34.30705,56.34249,-7.3335676,-1.1046115,-1.504933,-1.6025,-12.929425,25.590218,45.060936,-6.1415024,2.0482388,-12.093088
60,-0.47349923849105835,-7.053661346435547,76.91083526611328,3.4230450461243294,-1.4555767414261995,-3.147503895095643,4.85347,4.7532206,8.576846,6.8467355,-11.013322,-9.741131,-15.312738,-22.126009,1.9946802,29.278683,-15.880291,10.334447,-3.6786358,-3.3768904,7.956458,0.9252732,22.281652,-34.23534,56.256584,-7.4691215,-1.1145252,-1.4911664,-1.7047656,-13.000185,25.85728,45.070194,-6.203642,2.0161767,-12.197871
61,-0.3875542879104614,-7.379876136779785,76.87676239013672,3.386024654831622,-1.438113299707554,-3.1018391965735903,4.90861,5.087396,8.499115,6.84611,-11.029004,-10.042848,-15.332544,-22.31703,2.3096964,28.544321,-15.27661,10.326874,-3.663947,-3.2912948,7.934085,0.9148943,22.415888,-34.193256,56.20521,-7.625904,-1.1166728,-1.470253,-1.8086432,-13.079981,26.155533,45.06853,-6.388999,1.9670993,-12.212306
62,-0.2948191165924072,-7.71264123916626,76.84455871582031,3.3454153369609516,-1.4183252631929415,-3.0482349591050157,4.959365,5.435507,8.411288,6.844909,-11.035276,-10.351312,-15.337571,-22.470985,2.6340137,27.792654,-14.607962,10.362093,-3.6515627,-3.2076042,7.90857,0.89148164,22.554201,-34.17113,56.1787,-7.8045588,-1.112399,-1.4456658,-1.920366,-13.169432,26.493015,45.064476,-6.6574187,1.9041702,-12.165469
63,-0.2051534801721573,-8.059493064880371,76.80726623535156,3.3063796094399382,-1.398695271431597,-2.990673211687102,5.0089183,5.792818,8.321041,6.8435864,-11.036194,-10.670082,-15.3299885,-22.579943,2.9863725,27.041956,-13.970592,10.430341,-3.6436791,-3.127986,7.8801084,0.87019145,22.69754,-34.186172,56.14823,-8.013308,-1.0964823,-1.3949794,-2.0308163,-13.266747,26.84389,45.04103,-6.973721,1.8421597,-12.091852
64,-0.11633943021297455,-8.420812606811523,76.76595306396484,3.2741760482195574,-1.382118177099894,-2.9330727776535364,5.0625033,6.154339,8.236147,6.840086,-11.035401,-11.002642,-15.309426,-22.637882,3.3848145,26.305988,-13.460139,10.521792,-3.6397111,-3.0546756,7.8497796,0.8646596,22.847532,-34.25861,56.08522,-8.259987,-1.0639228,-1.2953998,-2.1343675,-13.36866,27.181921,44.9839,-7.298925,1.7958442,-12.025664
65,-0.02364656887948513,-8.792452812194824,76.71908569335938,3.256011536864847,-1.3712915136341308,-2.8770362592760845,5.123205,6.511743,8.161784,6.8379793,-11.038721,-11.347766,-15.265887,-22.644497,3.8743222,25.562428,-13.11032,10.642046,-3.638302,-2.997043,7.8194914,0.87171376,23.004942,-34.399887,55.99776,-8.570458,-1.0043882,-1.1235157,-2.2216022,-13.472202,27.500338,44.877205,-7.647419,1.7698799,-11.97155
66,0.06231134012341499,-9.176726341247559,76.66853332519531,3.247853062271649,-1.3641530207251442,-2.820132790709607,5.1900153,6.8688807,8.0932455,6.8341837,-11.04177,-11.704268,-15.198794,-22.60567,4.431421,24.807884,-12.865661,10.79165,-3.6379933,-2.952535,7.7879863,0.8858262,23.170027,-34.59878,55.896046,-8.932329,-0.92445546,-0.8968273,-2.3009942,-13.577125,27.811968,44.736492,-8.030164,1.7556063,-11.912827
67,0.15623925626277924,-9.564830780029297,76.61067962646484,3.237059829594221,-1.356800604091323,-2.759978235982281,5.2548485,7.2404647,8.022575,6.8298607,-11.039694,-12.076237,-15.122588,-22.529842,4.9718513,24.08589,-12.688702,10.954596,-3.6411924,-2.9056542,7.751474,0.91573507,23.34482,-34.84283,55.756226,-9.301374,-0.84402543,-0.65389204,-2.3828983,-13.684685,28.115387,44.58711,-8.414446,1.7490034,-11.851171
68,0.24715350568294525,-9.972850799560547,76.54745483398438,3.210390438648536,-1.3450997913367522,-2.694338191884435,5.309958,7.6427584,7.9418063,6.8245964,-11.026054,-12.467967,-15.052035,-22.420618,5.4100385,23.438255,-12.54014,11.11676,-3.649752,-2.8404334,7.7066035,0.9710277,23.532396,-35.118862,55.55195,-9.632386,-0.7820578,-0.43387225,-2.4783914,-13.79788,28.409058,44.454723,-8.767225,1.746261,-11.788118
69,0.339121550321579,-10.390666007995605,76.48613739013672,3.160125498875637,-1.328915098179223,-2.6192947754584406,5.3543224,8.083542,7.8463902,6.8190207,-11.002074,-12.885379,-14.990823,-22.267294,5.7472544,22.873629,-12.414894,11.275031,-3.6709793,-2.7455404,7.651372,1.0472567,23.73872,-35.469593,55.26759,-9.94853,-0.7348742,-0.23690449,-2.5945702,-13.919628,28.703205,44.349842,-9.085136,1.7514634,-11.728154
70,0.4319477379322052,-10.814526557922363,76.4189224243164,3.0987762722012935,-1.3111525037011325,-2.5383774167571014,5.383281,8.550211,7.742124,6.8359194,-10.983402,-13.324558,-14.931426,-22.074574,6.0239177,22.369858,-12.331053,11.438783,-3.6997635,-2.6368408,7.5906525,1.1433381,23.965527,-35.886913,54.913757,-10.263026,-0.6946034,-0.04654945,-2.721338,-14.0500965,28.99398,44.25252,-9.383954,1.765031,-11.66835
71,0.5167438387870789,-11.250262260437012,76.35041046142578,3.0290244073179267,-1.2905435640310872,-2.4566310257807347,5.398335,9.040587,7.6336956,6.8681245,-10.962712,-13.776587,-14.877637,-21.852455,6.204844,21.937004,-12.292254,11.612574,-3.724883,-2.5227585,7.5306273,1.2751756,24.206844,-36.278934,54.50216,-10.514142,-0.6729035,0.12283457,-2.8455453,-14.186276,29.262999,44.142063,-9.656629,1.7776705,-11.599355
72,0.5956927537918091,-11.701679229736328,76.27854919433594,2.9546542961879165,-1.2654691770941444,-2.3791267327422125,5.4036503,9.551441,7.526214,6.9034734,-10.929864,-14.232115,-14.832052,-21.608503,6.253827,21.581923,-12.300316,11.800171,-3.7385855,-2.4119017,7.476031,1.4607024,24.45256,-36.547916,54.047295,-10.635841,-0.6811518,0.2569429,-2.954689,-14.322855,29.493383,44.000168,-9.8981495,1.7801365,-11.512645
73,0.6751858592033386,-12.16859245300293,76.20125579833984,2.8818552705508327,-1.2353756800848974,-2.309748124012586,5.398548,10.076662,7.424428,6.9430513,-10.889092,-14.69003,-14.787133,-21.355013,6.150853,21.278326,-12.379592,12.039077,-3.7440004,-2.3105102,7.420783,1.7098075,24.698084,-36.67655,53.541794,-10.5608225,-0.7285958,0.34249666,-3.0489268,-14.455364,29.675781,43.825546,-10.112967,1.7651476,-11.400604
74,0.7519832849502563,-12.644115447998047,76.11919403076172,2.8324301370999616,-1.1944803002313795,-2.2318426881277436,5.3705316,10.564607,7.2960596,6.9838576,-10.835969,-15.000033,-14.763007,-21.117605,5.92392,21.051062,-12.530788,12.325325,-3.7601082,-2.235295,7.3537364,2.0117292,24.943172,-36.711,52.98754,-10.338753,-0.8066712,0.39101446,-3.1376026,-14.583167,29.823507,43.634315,-10.30403,1.7393024,-11.270759
75,0.8250226974487305,-13.130439758300781,76.03327941894531,2.8047325513663006,-1.1416681999705545,-2.135727351128088,5.3138623,10.993498,7.1134434,7.018541,-10.75813,-15.000033,-14.789732,-20.89473,5.608874,20.96937,-12.712928,12.590901,-3.785266,-2.1837173,7.28124,2.3508117,25.182644,-36.650127,52.419155,-10.080185,-0.9010051,0.42598927,-3.2287102,-14.708192,29.957932,43.439976,-10.4577675,1.71414,-11.1376505
76,0.8908118009567261,-13.630477905273438,75.94392395019531,2.752810205290076,-1.0859192889442242,-2.0325801110024595,5.245055,11.461709,6.916232,7.0522966,-10.650049,-15.000033,-14.869038,-20.617405,5.229819,21.07204,-12.869588,12.7484665,-3.8008683,-2.114751,7.223264,2.7113757,25.408575,-36.489708,51.87316,-9.894542,-0.99771804,0.47053695,-3.3275206,-14.832998,30.101103,43.253742,-10.562298,1.7014642,-11.016247
77,0.9610464572906494,-14.140830993652344,75.85781860351562,2.6659671968319367,-1.0264498571148868,-1.9238303093070466,5.161007,11.9844885,6.709029,7.0887322,-10.516321,-15.000033,-15.005563,-20.28292,4.706048,21.395447,-13.041149,12.743246,-3.8058705,-2.0183194,7.1785517,3.1007166,25.613499,-36.22212,51.354443,-9.819912,-1.1045322,0.54498607,-3.431956,-14.959933,30.254011,43.06675,-10.608271,1.712057,-10.904983
78,1.0276069641113281,-14.67125415802002,75.76468658447266,2.5522878000059284,-0.9628206758065964,-1.811327708861799,5.0621033,12.552562,6.493689,7.128081,-10.360474,-15.000033,-15.190669,-19.898678,4.0502563,21.895527,-13.2313,12.626796,-3.8020058,-1.8998537,7.1426444,3.5182316,25.793964,-35.853065,50.855156,-9.794471,-1.2261702,0.63268644,-3.540696,-15.089663,30.408154,42.876945,-10.601511,1.7375956,-10.797839
79,1.0802043676376343,-15.211084365844727,75.69070434570312,2.4285069111382653,-0.8968614923508444,-1.6908251990052632,4.9495625,13.142238,6.256875,7.165026,-10.16829,-15.000033,-15.428241,-19.460402,3.435649,22.516708,-13.341896,12.486326,-3.7894318,-1.7721179,7.118513,3.9379992,25.94778,-35.39717,50.39211,-9.776758,-1.3435289,0.70078874,-3.651395,-15.221159,30.565405,42.699642,-10.562137,1.7614048,-10.702374
80,1.1305854320526123,-15.766376495361328,75.61597442626953,2.3106949816799673,-0.8303579791674712,-1.5581781167782485,4.8066955,13.732185,5.9808903,7.231026,-9.945054,-15.000033,-15.71789,-18.96342,3.032777,23.204678,-13.276643,12.409254,-3.7682395,-1.6479956,7.1088014,4.3326473,26.073925,-34.871605,49.984184,-9.727579,-1.4378753,0.7168333,-3.769874,-15.354041,30.731724,42.558357,-10.505676,1.7665886,-10.626454
81,1.1876872777938843,-16.3350830078125,75.53565216064453,2.1943692537926736,-0.7688002713966073,-1.4195144997073441,4.594004,14.331852,5.635544,7.42161,-9.747536,-15.000033,-16.049635,-18.360392,2.9674678,23.933865,-12.867683,12.468899,-3.72796,-1.5213213,7.12151,4.6989393,26.170864,-34.270466,49.62986,-9.636072,-1.504049,0.65175974,-3.8955889,-15.487298,30.903088,42.451237,-10.432585,1.7422204,-10.580369
82,1.2295912504196167,-16.92275047302246,75.46249389648438,2.072973766929725,-0.709830163492771,-1.274880097166537,4.3920527,14.942334,5.251608,7.559735,-9.483872,-15.000033,-16.419836,-17.66464,3.1174808,24.734943,-12.213727,12.607069,-3.6716256,-1.3879508,7.151884,5.0484977,26.236855,-33.590405,49.32518,-9.523946,-1.5525004,0.52987385,-4.028642,-15.621265,31.078749,42.37233,-10.335392,1.6993568,-10.557265
83,1.2610782384872437,-17.510711669921875,75.39295959472656,1.9613992941737561,-0.643392809246607,-1.1114353245041182,4.1827607,15.544649,4.8589015,7.6481295,-9.1380005,-15.000033,-16.839134,-16.96845,3.2833989,25.642248,-11.6197195,12.71073,-3.6179502,-1.2635432,7.186042,5.3761687,26.270807,-32.85149,49.081863,-9.399864,-1.5879359,0.39834377,-4.166261,-15.754564,31.26619,42.326687,-10.218942,1.6542499,-10.538986
84,1.2850797176361084,-18.12221908569336,75.32579040527344,1.8742128068716701,-0.5592148058224204,-0.9158133471889147,3.9407423,16.12049,4.484143,7.706655,-8.7037115,-15.000033,-17.322077,-16.366304,3.2648182,26.687086,-11.387754,12.660453,-3.5860605,-1.1641488,7.2094555,5.6753206,26.271854,-32.0742,48.912483,-9.27234,-1.614427,0.30448866,-4.305355,-15.884766,31.47169,42.320263,-10.088927,1.6231114,-10.507244
85,1.3020789623260498,-18.745607376098633,75.26274108886719,1.8358243252701394,-0.4426647354842352,-0.7000111219720264,3.6895797,16.642218,4.1589894,7.673208,-8.144492,-15.000033,-17.961643,-15.900381,3.0347393,28.01325,-11.697927,12.352442,-3.5670352,-1.1149068,7.209266,5.94968,26.235792,-31.237616,48.82855,-9.135306,-1.6302396,0.25953788,-4.456738,-16.01081,31.710552,42.361107,-9.934214,1.6103555,-10.453248
86,1.3224507570266724,-19.374252319335938,75.21073913574219,1.832300725569367,-0.3033275432846356,-0.46576320259529674,3.4287176,17.127464,3.8599694,7.570869,-7.481525,-15.000033,-18.722584,-15.518134,2.6955566,29.56316,-12.355379,11.869231,-3.556695,-1.1007278,7.1954904,6.197708,26.160463,-30.338264,48.824802,-8.985124,-1.6342704,0.23851758,-4.619305,-16.131622,31.9764,42.4461,-9.756014,1.6073525,-10.388383
87,1.3429056406021118,-20.013669967651367,75.16671752929688,1.820746822319252,-0.16614360450620247,-0.1835942055597497,3.115792,17.62408,3.5348067,7.5070434,-6.7732005,-15.000033,-19.426064,-15.176498,2.2391999,31.051968,-13.099673,11.369713,-3.579962,-1.077049,7.1872864,6.4004765,26.051695,-29.429396,48.89142,-8.839341,-1.631399,0.234937,-4.775225,-16.245703,32.24209,42.568703,-9.578519,1.6108848,-10.324755
88,1.36091947555542,-20.653392791748047,75.13682556152344,1.7580439937745478,-0.05550380129198851,0.17580887455505728,2.7070868,18.17877,3.1289701,7.587642,-6.077268,-15.000033,-19.895567,-14.828767,1.6515263,32.19634,-13.669311,11.0137615,-3.6581197,-0.9998138,7.2045035,6.5389905,25.920498,-28.567604,49.01455,-8.717586,-1.6262233,0.24254334,-4.903937,-16.351582,32.475662,42.7194,-9.426443,1.6173018,-10.274008
89,1.3682929277420044,-21.29770278930664,75.1235580444336,1.621568996183109,0.01464410422964302,0.6132381414359948,2.246561,18.806515,2.568027,7.743943,-5.36383,-15.000033,-20.05771,-14.461677,0.9085277,32.89351,-13.991179,10.914721,-3.7969527,-0.8455798,7.2661657,6.628169,25.771194,-27.738836,49.18802,-8.617322,-1.6128856,0.27188736,-5.0048676,-16.448631,32.66805,42.906796,-9.332539,1.6270903,-10.235761
90,1.3804519176483154,-21.943607330322266,75.12672424316406,1.436788158633235,0.06166111336380999,1.1158459908986786,1.7387624,19.479584,1.8966717,7.9440584,-4.61336,-15.000033,-20.020504,-14.092762,0.023544068,33.30223,-14.2057495,10.963211,-3.9831185,-0.64254534,7.358376,6.672787,25.60472,-26.924456,49.41278,-8.532193,-1.590416,0.32190272,-5.086902,-16.537123,32.833767,43.13163,-9.274159,1.6412663,-10.204654
91,1.396916389465332,-22.60824966430664,75.14469909667969,1.227589885086584,0.11051856535788745,1.6942127023173894,1.0683184,20.18251,1.2286836,8.364276,-3.9059947,-15.000033,-19.878687,-13.725569,-0.96777296,33.532124,-14.369987,10.984881,-4.2111955,-0.4195381,7.4511333,6.6412873,25.431475,-26.176281,49.68376,-8.478357,-1.5706264,0.3695783,-5.142225,-16.618982,32.973022,43.372166,-9.19828,1.6572129,-10.184529
92,1.4175680875778198,-23.29050636291504,75.18011474609375,1.0138027496084685,0.1874530112508493,2.3605265077552624,0.12612732,20.904118,0.6739179,9.15884,-3.3079312,-15.000033,-19.721207,-13.362121,-2.0348785,33.690514,-14.539365,10.804682,-4.4720635,-0.2003524,7.5142126,6.5041757,25.267986,-25.550089,49.99117,-8.473866,-1.5649967,0.39198977,-5.1551795,-16.696638,33.078064,43.598095,-9.054265,1.6721576,-10.178172
93,1.4350351095199585,-23.990886688232422,75.23475646972656,0.7988273326484445,0.3179298096386637,3.178358896265436,-1.1185544,21.616436,0.12271567,10.203757,-2.6513848,-15.000033,-19.544193,-13.031282,-3.23172,33.77719,-14.741561,10.360532,-4.8027973,0.00868546,7.523893,6.2381454,25.131231,-25.07022,50.346283,-8.540552,-1.5776113,0.3783448,-5.1008005,-16.769217,33.12168,43.781578,-8.832161,1.689095,-10.188851
94,1.4496525526046753,-24.700464248657227,75.30303955078125,0.5621660423591756,0.4862169409426066,4.12363703970847,-2.5923448,22.338839,-0.44972107,11.413228,-1.9307996,-15.000033,-19.299706,-12.708521,-4.5636263,33.73554,-14.94263,9.749991,-5.1919208,0.22971496,7.5033336,5.8743086,25.026012,-24.706585,50.730976,-8.668233,-1.6001743,0.34125838,-4.991353,-16.837526,33.110363,43.938972,-8.556514,1.707726,-10.212795
95,1.4500067234039307,-25.41070556640625,75.3774642944336,0.2727907332486733,0.657441310367946,5.07893763796811,-4.2681394,23.158987,-0.84068185,13.0343485,-1.4799461,-15.000033,-19.00458,-12.3055315,-5.9380484,33.58307,-15.104833,9.035413,-5.5644827,0.49881428,7.4912887,5.465627,24.946028,-24.428629,51.090973,-8.825076,-1.6259885,0.29283786,-4.8638763,-16.908646,33.087067,44.101315,-8.233186,1.720766,-10.241713
96,1.4398128986358643,-26.120128631591797,75.4532699584961,-0.11520721348951478,0.7918034725262116,5.923031246731117,-6.0717964,24.19808,-0.8518651,15.242582,-1.5961626,-15.000033,-18.671818,-11.719663,-7.2644076,33.328686,-15.184729,8.275804,-5.844949,0.8673176,7.529947,5.0622244,24.876554,-24.205715,51.378063,-8.977754,-1.6488179,0.24579838,-4.7586145,-16.996122,33.098763,44.3021,-7.8652935,1.7213389,-10.266823
97,1.42490553855896,-26.845613479614258,75.5179672241211,-0.6832808162836546,0.8771308143301846,6.636007237336075,-8.108464,25.629665,-0.46792683,18.248428,-2.4366086,-15.000033,-18.267548,-10.84105,-8.569742,32.905857,-15.140947,7.435265,-6.0080686,1.410707,7.6443706,4.6412244,24.81181,-24.050257,51.603252,-9.144941,-1.6694038,0.19429576,-4.685735,-17.106606,33.144444,44.54325,-7.420515,1.703441,-10.291871
98,1.4204891920089722,-27.562294006347656,75.5712890625,-1.4119271422305164,0.9017509736814799,7.244901133799893,-10.226301,27.414833,0.19291982,21.712757,-3.73102,-15.000033,-17.751085,-9.69854,-9.862378,32.288586,-14.994414,6.4971604,-6.0699806,2.1195102,7.8412848,4.1814013,24.735497,-23.967327,51.79467,-9.329711,-1.6915476,0.1354445,-4.6098547,-17.26618,33.20848,44.78156,-6.9025407,1.6742476,-10.315493
99,1.3996257781982422,-28.216699600219727,75.63435363769531,-1.5643315118476566,0.9489854025993938,7.919000262430129,-12.036914,28.37285,1.6469189,24.887478,-5.0386305,-12.104588,-17.552837,-9.289529,-10.80202,32.162807,-15.074111,5.732955,-6.204377,2.306455,7.9518614,3.727716,24.654331,-23.931444,51.936256,-9.482414,-1.7138886,0.08619869,-4.526301,-17.456944,33.30583,45.03342,-6.3752804,1.6428101,-10.331217
100,1.3772505521774292,-28.849002838134766,75.68388366699219,-1.6796256761944888,0.920569457529131,8.449232054598768,-13.304668,29.326672,3.4145858,27.729958,-6.3740993,-9.509726,-17.319561,-8.868515,-11.58554,32.039333,-15.152355,5.026008,-6.258375,2.4741085,8.0980215,3.3563986,24.561588,-23.896173,51.983383,-9.5534935,-1.7309356,0.06320664,-4.4472284,-17.674078,33.465065,45.32784,-5.907303,1.6194212,-10.325847
101,1.3681509494781494,-29.46171760559082,75.72814178466797,-1.8238061543869428,0.7717105067707883,8.779384305239113,-13.93876,30.455019,5.680181,30.329958,-7.9301925,-7.5776463,-16.993708,-8.33117,-12.203035,31.86542,-15.200585,4.3530574,-6.1927056,2.6858845,8.323808,3.0888174,24.450994,-23.846653,51.911842,-9.505415,-1.736486,0.07787,-4.3844056,-17.916115,33.704132,45.68838,-5.49956,1.6068296,-10.29432
102,1.349975347518921,-30.049409866333008,75.76602935791016,-1.9763468861641733,0.5302498222528456,8.95359582992443,-14.107407,31.706367,8.411734,32.908268,-9.780838,-5.978642,-16.609148,-7.7185025,-12.676386,31.657463,-15.221977,3.6972067,-6.0331106,2.921081,8.6074505,2.8884523,24.321802,-23.801884,51.75042,-9.370677,-1.735094,0.11976476,-4.338576,-18.183674,34.012093,46.10696,-5.1215606,1.59975,-10.244735
103,1.344395637512207,-30.633180618286133,75.80670166015625,-2.1045692597832963,0.2606924176330985,9.0336715812003,-13.955223,32.831657,11.136426,35.39679,-11.581104,-4.793288,-16.214272,-7.0960903,-13.046827,31.421686,-15.218683,3.087544,-5.8290243,3.1459596,8.882463,2.7345114,24.176798,-23.770922,51.54183,-9.202805,-1.738377,0.17278932,-4.2945123,-18.47099,34.37014,46.551003,-4.790446,1.5965497,-10.185504
104,1.3468754291534424,-31.202823638916016,75.8513412475586,-2.1790746914949746,0.02680404800766833,9.079822482806373,-13.67492,33.589344,13.374319,37.71555,-12.962319,-4.099108,-15.855607,-6.5258408,-13.35814,31.163826,-15.192105,2.5529404,-5.63067,3.32615,9.083505,2.609323,24.021502,-23.761034,51.32709,-9.056247,-1.7579259,0.2204196,-4.2345595,-18.7687,34.755066,46.989872,-4.5332026,1.5954878,-10.12545
105,1.3625173568725586,-31.76109504699707,75.89924621582031,-2.1819671882265457,-0.16143771476372323,9.075236758846632,-13.287214,33.924614,15.075945,39.8232,-13.774206,-4.0443783,-15.549652,-6.023073,-13.592969,30.88872,-15.135515,2.1207488,-5.4233794,3.4390757,9.188303,2.521966,23.86171,-23.778606,51.102093,-8.948064,-1.8018764,0.25713125,-4.1672177,-19.069843,35.195835,47.45358,-4.3627443,1.5898471,-10.070223
106,1.3807226419448853,-32.30582046508789,75.9508056640625,-2.131753096178929,-0.33447222611480837,8.999181485950716,-12.762188,33.945786,16.476698,41.79628,-14.232531,-4.5499215,-15.273135,-5.55728,-13.740187,30.594759,-15.048127,1.7679663,-5.191661,3.5034552,9.231818,2.4827278,23.698933,-23.815813,50.844852,-8.848849,-1.8619379,0.29161152,-4.096804,-19.371346,35.690258,47.950157,-4.270708,1.5820563,-10.014742
107,1.4034429788589478,-32.837154388427734,76.00625610351562,-2.0549295111783064,-0.49044706042443903,8.904427915755829,-12.23376,33.66725,17.51227,43.704796,-14.508495,-5.3567634,-15.011205,-5.1191564,-13.853613,30.276148,-14.940659,1.4484596,-4.9782495,3.5471246,9.236701,2.4715066,23.531769,-23.863852,50.572186,-8.744811,-1.9248385,0.32911992,-4.0231824,-19.671633,36.18412,48.43255,-4.223796,1.5832964,-9.95173
108,1.4249582290649414,-33.35585403442383,76.06153106689453,-1.978931403702707,-0.6283100277970006,8.843353830085208,-11.822202,33.10998,18.121115,45.609325,-14.7679405,-6.2076917,-14.7491455,-4.6984057,-13.9856615,29.929789,-14.82673,1.1168038,-4.8236947,3.6004665,9.226065,2.464654,23.356607,-23.916538,50.303772,-8.6227045,-1.977742,0.37529272,-3.9353333,-19.969007,36.61353,48.843536,-4.196711,1.6052188,-9.873422
109,1.4420698881149292,-33.863182067871094,76.12064361572266,-1.899220677867515,-0.74054253275367,8.81003352109249,-11.560726,32.22713,18.211008,47.542606,-15.037157,-7.0862684,-14.489858,-4.298063,-14.130888,29.544535,-14.702905,0.7725122,-4.7266407,3.662188,9.190711,2.4645715,23.169554,-23.973692,50.03767,-8.471816,-2.019523,0.4403773,-3.843039,-20.264532,36.9879,49.193108,-4.2022433,1.6607316,-9.767825
110,1.4601218700408936,-34.364173889160156,76.18336486816406,-1.8053110102938101,-0.830152882008234,8.783371675479573,-11.389278,31.01474,17.851452,49.467243,-15.247616,-8.13179,-14.237924,-3.9221356,-14.268589,29.124304,-14.563651,0.43643284,-4.668631,3.720586,9.123038,2.4767654,22.969885,-24.040758,49.77064,-8.3014555,-2.0565693,0.5190476,-3.747408,-20.558603,37.3311,49.503395,-4.246735,1.7403164,-9.642349
111,1.476820707321167,-34.860389709472656,76.2461929321289,-1.715047995580055,-0.9121598836902178,8.793363032052445,-11.270654,29.565725,17.228678,51.327072,-15.411617,-9.313454,-13.976319,-3.5598814,-14.42824,28.67955,-14.416332,0.09625188,-4.663108,3.7883005,9.047534,2.4829693,22.75936,-24.120201,49.521408,-8.127782,-2.0871716,0.5935153,-3.6262984,-20.850723,37.597485,49.742382,-4.300352,1.8218756,-9.518116
112,1.4872456789016724,-35.34540557861328,76.3012466430664,-1.647133997729026,-1.0018340001881885,8.869596945542316,-11.166066,27.98,16.521091,53.05805,-15.531991,-10.591773,-13.686624,-3.198562,-14.63939,28.218277,-14.267441,-0.26004857,-4.720472,3.8783574,8.989272,2.46238,22.541824,-24.218086,49.308903,-7.969261,-2.1094224,0.6461329,-3.4525096,-21.140303,37.735542,49.87344,-4.3355527,1.8836178,-9.416045
113,1.4939404726028442,-35.822105407714844,76.35265350341797,-1.6103242495063608,-1.1019579387659912,9.024741969645127,-11.077654,26.251062,15.70745,54.665154,-15.609556,-12.002231,-13.354327,-2.8299797,-14.911199,27.724564,-14.111708,-0.62745965,-4.8497467,3.9973688,8.955167,2.4140303,22.319044,-24.331835,49.130356,-7.828319,-2.1220129,0.66772425,-3.2124784,-21.426813,37.709217,49.87233,-4.3717995,1.9218903,-9.336639
114,1.5059672594070435,-36.293907165527344,76.40287780761719,-1.5942668512358835,-1.2054653614564983,9.241190323893875,-11.001498,24.338354,14.727944,56.17894,-15.653326,-13.5526905,-12.989106,-2.4599454,-15.227133,27.195736,-13.947533,-1.0005553,-5.039731,4.1370234,8.933436,2.3464065,22.091461,-24.463144,48.97689,-7.6980367,-2.1261182,0.6690208,-2.9186733,-21.710686,37.548523,49.75993,-4.415019,1.9477224,-9.2699
115,1.5185184478759766,-36.764610290527344,76.45005798339844,-1.5876109863855894,-1.3122563066658732,9.503842066510032,-10.899062,22.296818,13.716799,57.561962,-15.6672325,-15.000033,-12.614196,-2.1001093,-15.578481,26.668928,-13.790584,-1.3898354,-5.272235,4.288345,8.921339,2.256708,21.861238,-24.62141,48.855137,-7.580206,-2.12345,0.6617519,-2.5801337,-21.9922,37.300274,49.5646,-4.422237,1.9615436,-9.221177
116,1.5136281251907349,-37.20118713378906,76.50008392333984,-1.3215229118233716,-1.3305636540396655,9.928822612703572,-10.82211,19.874506,13.08068,58.66059,-15.545057,-15.000033,-12.529975,-2.183318,-15.944068,26.598072,-13.856324,-1.7288876,-5.646322,4.2006574,8.807112,2.1384554,21.632755,-24.817673,48.775677,-7.477801,-2.11691,0.65784806,-2.2123835,-22.270187,37.01586,49.319645,-4.34355,1.9634588,-9.197431
117,1.5092064142227173,-37.63401794433594,76.54376220703125,-1.0693001425981656,-1.3678719094964251,10.388070227889875,-10.682648,17.40344,12.44897,59.583084,-15.360107,-15.000033,-12.445719,-2.2749963,-16.351938,26.583874,-13.963478,-2.1192482,-6.050818,4.124052,8.711871,1.9998598,21.405867,-25.048021,48.733303,-7.395088,-2.1016946,0.6629612,-1.8109783,-22.546082,36.684555,49.013317,-4.143052,1.94788,-9.208381
118,1.505527377128601,-38.06429672241211,76.57888793945312,-0.838969193339575,-1.424928463226386,10.88098220793787,-10.4828005,14.872396,11.7887745,60.343727,-15.1151905,-15.000033,-12.345044,-2.3622153,-16.80014,26.597591,-14.101037,-2.5488486,-6.486927,4.067212,8.638953,1.8435581,21.179792,-25.307487,48.722855,-7.329785,-2.0779788,0.66953254,-1.369089,-22.819792,36.28796,48.632187,-3.8539574,1.916612,-9.247377
119,1.5076560974121094,-38.48522186279297,76.60316467285156,-0.6178618810888692,-1.4938576194262865,11.372478132510503,-10.196331,12.338782,11.1926365,60.909718,-14.810462,-15.000033,-12.251196,-2.4485493,-17.251131,26.653757,-14.260217,-2.983388,-6.921288,4.019756,8.576143,1.6702119,20.956493,-25.599485,48.73941,-7.2745113,-2.052795,0.66883945,-0.9017452,-23.091242,35.865475,48.215786,-3.539665,1.8806571,-9.293068
120,1.5094711780548096,-38.89968490600586,76.6180191040039,-0.39298340239445223,-1.5660351051064423,11.82893305458524,-9.806003,9.8609,10.745278,61.24687,-14.444244,-15.000033,-12.189115,-2.538008,-17.668398,26.765432,-14.430636,-3.3900037,-7.3230357,3.9711413,8.510544,1.4826967,20.739588,-25.924622,48.775463,-7.221716,-2.0330207,0.651715,-0.43333068,-23.359196,35.464153,47.809006,-3.2561088,1.8513939,-9.324887
121,1.515553593635559,-39.310951232910156,76.62065887451172,-0.1605633634475336,-1.6408021647415527,12.256947924968978,-9.30975,7.4245567,10.439102,61.33519,-13.989899,-15.000033,-12.161912,-2.6394768,-18.056038,26.93608,-14.6124,-3.767944,-7.69919,3.9174805,8.438926,1.2839638,20.532064,-26.286844,48.830242,-7.173847,-2.0208442,0.6046325,0.04231372,-23.621988,35.073677,47.405262,-3.0090182,1.831903,-9.3354
122,1.518850564956665,-39.7162971496582,76.61236572265625,0.06757075616863932,-1.72111768433374,12.66981832263184,-8.724709,5.01429,10.206775,61.187298,-13.448947,-15.000033,-12.152952,-2.741235,-18.431406,27.145338,-14.802315,-4.134827,-8.062398,3.868234,8.368101,1.0753343,20.334269,-26.68328,48.90341,-7.1344814,-2.012205,0.535617,0.53280216,-23.878622,34.676884,46.98781,-2.7724829,1.8162411,-9.336341
123,1.5235025882720947,-40.118377685546875,76.59583282470703,0.2811082836761329,-1.802063790534428,13.044652179758211,-8.074139,2.6811848,10.036525,60.829067,-12.868979,-15.000033,-12.169441,-2.820819,-18.777746,27.387133,-14.990859,-4.48716,-8.39444,3.8321548,8.298628,0.85972697,20.14515,-27.101141,48.98675,-7.0954356,-2.0043092,0.4677817,1.0139377,-24.128782,34.31186,46.58849,-2.5580022,1.801695,-9.336831
124,1.5279593467712402,-40.5258674621582,76.57075500488281,0.4732643897148164,-1.8779747153821542,13.360048226786096,-7.3784165,0.47021294,9.918359,60.280323,-12.291697,-15.000033,-12.215022,-2.8579226,-19.07823,27.64678,-15.164023,-4.821042,-8.681052,3.8158216,8.230274,0.63990575,19.963202,-27.525219,49.07265,-7.048523,-1.9947108,0.42402834,1.4535068,-24.371134,34.02443,46.245224,-2.3713193,1.7856102,-9.34651
125,1.526566982269287,-40.92817306518555,76.5351333618164,0.6531355120360929,-1.949849510297729,13.61277130316946,-6.6217465,-1.6543728,9.834505,59.50501,-11.689834,-15.000033,-12.295031,-2.8649228,-19.323105,27.934607,-15.3219795,-5.1300554,-8.923804,3.8126724,8.161664,0.4146084,19.786972,-27.960772,49.166046,-7.0016727,-1.9834915,0.41732383,1.8523209,-24.60467,33.820034,45.966587,-2.2208927,1.7628525,-9.376991
126,1.5283676385879517,-41.33419418334961,76.49246978759766,0.8214981671709242,-2.0172780973124436,13.816094887066223,-5.801932,-3.7083912,9.771668,58.495083,-11.042792,-15.000033,-12.4080515,-2.8473053,-19.524996,28.247791,-15.465332,-5.419544,-9.133004,3.8218231,8.090638,0.18374246,19.616032,-28.40999,49.269756,-6.954244,-1.9719429,0.43311453,2.218724,-24.828451,33.681362,45.737934,-2.0993955,1.7360581,-9.420908
127,1.5227723121643066,-41.74171447753906,76.4444580078125,0.9634040151442175,-2.0705916268401734,13.975157679486806,-4.95725,-5.6211696,9.737631,57.308678,-10.396026,-15.000033,-12.547894,-2.7797496,-19.70121,28.550907,-15.580122,-5.701711,-9.310976,3.8533044,8.013285,-0.049075466,19.451836,-28.85369,49.37553,-6.888182,-1.9590251,0.45335582,2.5403452,-25.041542,33.611824,45.55872,-2.0033307,1.714648,-9.459524
128,1.5209064483642578,-42.15779495239258,76.387939453125,1.066139158914874,-2.1000077421991126,14.095635394429543,-4.12722,-7.3262568,9.748015,56.00633,-9.796809,-15.000033,-12.710975,-2.6414359,-19.868254,28.814993,-15.656335,-5.9879913,-9.465208,3.9148717,7.9243994,-0.27413285,19.296904,-29.265924,49.471127,-6.7833757,-1.9436506,0.45903206,2.8316796,-25.239979,33.596268,45.406216,-1.9557639,1.7086695,-9.473763
129,1.5122767686843872,-42.57706832885742,76.32717895507812,1.1368038945152596,-2.0945768772294735,14.1681707960734,-3.3150651,-8.833474,9.8267765,54.56705,-9.223951,-15.000033,-12.91702,-2.4393632,-20.017002,29.050179,-15.693397,-6.2691555,-9.58538,4.003741,7.811546,-0.49353126,19.15324,-29.655672,49.55636,-6.6263905,-1.9260765,0.44419378,3.0747428,-25.42417,33.661427,45.301247,-1.96241,1.7269696,-9.45869
130,1.4955360889434814,-43.006072998046875,76.25475311279297,1.1840924047117494,-2.060107906793775,14.195849301158626,-2.4995568,-10.183794,9.959133,52.96116,-8.656246,-15.000033,-13.1662245,-2.1885319,-20.143356,29.270893,-15.697373,-6.5413866,-9.675155,4.112121,7.679032,-0.70814043,19.02175,-30.028631,49.63313,-6.429989,-1.9065956,0.41882914,3.269769,-25.59349,33.80503,45.24552,-2.0142305,1.7621654,-9.424758
131,1.4848365783691406,-43.449764251708984,76.17679595947266,1.1995118580200115,-2.0126805013990783,14.201831739568691,-1.6841145,-11.347812,10.124371,51.2378,-8.127113,-15.000033,-13.425857,-1.8810732,-20.269854,29.455667,-15.668552,-6.824083,-9.7580385,4.236228,7.547316,-0.9141065,18.904997,-30.362593,49.698418,-6.2172174,-1.8844055,0.38856074,3.4238763,-25.743956,33.992977,45.21981,-2.0818708,1.798813,-9.376747
132,1.4678764343261719,-43.90572738647461,76.09239959716797,1.1746062463779312,-1.9691802205236126,14.208911382414962,-0.8722954,-12.296862,10.303138,49.44926,-7.675269,-15.000033,-13.662481,-1.5090976,-20.418146,29.582329,-15.607417,-7.136784,-9.859963,4.372166,7.4362974,-1.103082,18.806639,-30.632057,49.74554,-6.010913,-1.8582939,0.35843465,3.5728188,-25.866749,34.170044,45.1825,-2.1626992,1.8220829,-9.319055
133,1.4395469427108765,-44.36714553833008,76.00601196289062,1.116194093721114,-1.9247971406237405,14.212443531492923,-0.03504196,-13.001505,10.599243,47.53826,-7.2579346,-15.000033,-13.89539,-1.0849068,-20.578903,29.679731,-15.529245,-7.4776564,-9.980905,4.514268,7.342096,-1.2643052,18.731335,-30.820305,49.758087,-5.7992268,-1.8236493,0.32709217,3.700087,-25.954605,34.341152,45.14877,-2.25371,1.8260546,-9.246345
134,1.4075756072998047,-44.83833312988281,75.91564178466797,1.0290443741239357,-1.8738365896048794,14.204344346259964,0.82573426,-13.49421,11.007528,45.492535,-6.864564,-15.000033,-14.134722,-0.61252064,-20.74459,29.747719,-15.427295,-7.836751,-10.10892,4.658869,7.256916,-1.4008445,18.684736,-30.944689,49.73677,-5.576616,-1.7817696,0.29203576,3.7916205,-26.003603,34.5278,45.139187,-2.3607407,1.8184129,-9.158989
135,1.368608832359314,-45.329864501953125,75.82123565673828,0.9022745441134331,-1.8318225369031043,14.200994035769813,1.651758,-13.834628,11.333973,43.453495,-6.6087027,-15.000033,-14.338687,-0.0740607,-20.938337,29.735388,-15.276768,-8.222064,-10.240409,4.8058834,7.199832,-1.5383626,18.670324,-31.040295,49.707176,-5.375432,-1.7403748,0.2558753,3.8660064,-26.017187,34.70411,45.133934,-2.4728146,1.8044621,-9.067051
136,1.3405686616897583,-45.84880828857422,75.72576904296875,0.7267792050308673,-1.813790145918239,14.218689126682234,2.375976,-14.057906,11.397008,41.577785,-6.602571,-15.000033,-14.460115,0.54842067,-21.18142,29.582603,-15.048991,-8.641861,-10.403274,4.9625883,7.17213,-1.6888618,18.668104,-31.130682,49.715824,-5.235811,-1.7102247,0.22959979,3.9443502,-26.012245,34.893295,45.113903,-2.5688584,1.7920138,-8.991441
137,1.3132297992706299,-46.390419006347656,75.62848663330078,0.5089645710087551,-1.824295641483427,14.252113754890752,2.9867587,-14.1481,11.197979,39.80713,-6.8205657,-15.000033,-14.486883,1.251411,-21.476446,29.285513,-14.751746,-9.112384,-10.586509,5.118446,7.180277,-1.8473178,18.688591,-31.210749,49.74626,-5.164114,-1.6901356,0.2089838,4.045307,-25.976387,35.065475,45.066208,-2.6717768,1.7753577,-8.930474
138,1.2786544561386108,-46.958282470703125,75.5283203125,0.25586903375013426,-1.8543707577021313,14.297342809649491,3.5024202,-14.058393,10.861264,38.13099,-7.2194505,-15.000033,-14.440368,2.0243082,-21.809187,28.863472,-14.391806,-9.623918,-10.782572,5.255142,7.216962,-1.9977378,18.760687,-31.276796,49.76731,-5.14744,-1.6738654,0.19127423,4.0767026,-25.872427,35.27405,45.082592,-2.7372277,1.7495388,-8.881847
139,1.2414002418518066,-47.533531188964844,75.45093536376953,-0.03883423373643872,-1.8991540095986823,14.373363315429811,3.879855,-13.768272,10.395881,36.81965,-7.898665,-15.000033,-14.327591,2.8720622,-22.174992,28.296892,-13.942551,-10.145735,-11.001547,5.378153,7.282589,-2.160667,18.878374,-31.344873,49.80348,-5.1728783,-1.6639527,0.17687684,4.1467843,-25.71349,35.42319,45.06778,-2.8545115,1.7293142,-8.838791
140,1.199977993965149,-48.1262092590332,75.38905334472656,-0.38064235446391825,-1.9532177472758552,14.499456789866072,4.0723987,-13.269261,9.808752,36.139954,-8.958189,-15.000033,-14.155303,3.7989855,-22.568985,27.563831,-13.375549,-10.647163,-11.241055,5.484346,7.377292,-2.3651798,19.042786,-31.446592,49.881744,-5.231197,-1.6627567,0.16886868,4.214125,-25.499676,35.525833,45.056923,-2.9878602,1.7250907,-8.801102
141,1.158734917640686,-48.764305114746094,75.32524108886719,-0.8154083173324479,-2.01607270781077,14.69302941885025,3.97831,-12.461865,9.061354,36.40552,-10.608752,-15.000033,-13.864787,4.87865,-23.031105,26.52992,-12.639835,-11.146431,-11.523648,5.607933,7.5043745,-2.6097877,19.259514,-31.585249,50.005993,-5.3442836,-1.6762099,0.17436565,4.3271065,-25.219242,35.53758,45.009808,-3.2120023,1.747698,-8.747704
142,1.101038932800293,-49.43439483642578,75.26130676269531,-1.3297901318031025,-2.083827562567915,14.949780744187626,3.6278377,-11.374916,8.185677,37.423115,-12.734771,-15.000033,-13.455253,6.1011996,-23.550072,25.190958,-11.736301,-11.651092,-11.849766,5.739307,7.654766,-2.8815563,19.530283,-31.750225,50.16178,-5.510772,-1.7009784,0.18975009,4.4910684,-24.866507,35.46334,44.92748,-3.5257604,1.7881023,-8.686011
143,1.0272361040115356,-50.131935119628906,75.18842315673828,-1.8382303648570133,-2.1476986914677147,15.250417364651641,3.1829824,-10.21517,7.266584,38.67494,-14.958163,-15.000033,-13.038038,7.334663,-24.045116,23.761786,-10.733698,-12.115765,-12.186798,5.8076787,7.812201,-3.1856487,19.8517,-31.94275,50.34337,-5.686423,-1.7252132,0.20030859,4.6294017,-24.448051,35.368607,44.881325,-3.809424,1.8280472,-8.657856
144,0.919274628162384,-50.78843688964844,75.1007080078125,-1.879714373383222,-2.105233143632884,15.722351449098278,2.8307295,-9.926513,6.5134554,39.21274,-16.583609,-11.927682,-13.288957,7.69524,-24.45391,23.57471,-10.243856,-12.375738,-12.642813,5.42487,7.7963095,-3.516464,20.212673,-32.14949,50.5407,-5.8247027,-1.7365489,0.19120754,4.7629137,-23.972878,35.248245,44.862103,-4.034935,1.8516877,-8.702094
145,0.8001497983932495,-51.45348358154297,75.01858520507812,-1.8624245524499905,-2.088655418474838,16.214755542507653,2.5752835,-9.822975,5.58879,39.479263,-17.943048,-8.995552,-13.615184,7.9577174,-24.794226,23.553865,-9.767798,-12.592277,-13.077667,4.933545,7.804118,-3.8971136,20.613077,-32.392212,50.784317,-5.904534,-1.734567,0.15389691,4.914808,-23.439713,35.093113,44.852978,-4.1761155,1.8602145,-8.8622
146,0.6617542505264282,-52.11595916748047,74.9494857788086,-1.8251071070518994,-2.093422217951127,16.729357949671588,2.3450623,-9.789551,4.478893,39.700916,-19.19664,-6.330353,-13.96799,8.190024,-25.092588,23.580896,-9.255595,-12.775031,-13.502782,4.3670955,7.8330603,-4.319855,21.053255,-32.665897,51.06998,-5.95277,-1.7250957,0.09744502,5.1203055,-22.843624,34.8713,44.82021,-4.3051147,1.8620327,-9.104814
147,0.5163587927818298,-52.78679656982422,74.89453887939453,-1.7345945423398077,-2.093183274637386,17.180099155917535,2.1582012,-9.80071,3.4144983,39.78036,-20.30604,-4.045809,-14.413664,8.368222,-25.258904,23.726347,-8.68065,-12.845308,-13.849234,3.721921,7.8581204,-4.758352,21.523115,-32.936787,51.359467,-5.9940715,-1.7083266,0.0339795,5.286873,-22.198317,34.64598,44.83038,-4.3984475,1.8508571,-9.359532
148,0.3623015880584717,-53.45694351196289,74.84712219238281,-1.5580798023100446,-2.061872550595512,17.481009661890536,2.0341935,-9.823477,2.6293764,39.60463,-21.249763,-2.2750912,-15.015142,8.473264,-25.20114,24.054737,-8.014774,-12.721475,-14.063923,3.0009315,7.8536515,-5.1739683,22.00627,-33.153114,51.614826,-6.0495353,-1.6849351,-0.024909176,5.404919,-21.523985,34.43011,44.88238,-4.5060916,1.8229802,-9.553841
149,0.1940329372882843,-54.1281623840332,74.80830383300781,-1.2783622994171748,-1.9735075573501397,17.595590698788552,1.9807144,-9.836185,2.2086833,39.078842,-22.040075,-1.2516769,-15.838121,8.490112,-24.93359,24.650833,-7.302825,-12.522711,-14.117582,2.1975312,7.7973957,-5.5768027,22.493488,-33.313435,51.848026,-6.119689,-1.6522238,-0.0796511,5.4840612,-20.83479,34.21938,44.95902,-4.624235,1.7741987,-9.659643
150,0.009945105761289597,-54.79878234863281,74.7853775024414,-0.9184327263077512,-1.8486766693168617,17.57500904556603,2.0013475,-9.842761,2.0383477,38.24567,-22.687428,-0.86294454,-16.8265,8.4467745,-24.48856,25.445286,-6.537976,-12.231041,-14.045072,1.32196,7.7163067,-5.9868746,22.982105,-33.439014,52.082523,-6.192382,-1.6120343,-0.13439289,5.5318956,-20.137236,34.01098,45.05172,-4.723786,1.7085671,-9.717326
151,-0.20080630481243134,-55.457923889160156,74.77841186523438,-0.5070014123329841,-1.731150221909526,17.464917324327406,2.1030254,-9.850434,2.0507865,37.209713,-23.180382,-0.7301174,-17.853971,8.400376,-23.792967,26.25985,-5.628243,-11.554887,-13.891956,0.40580684,7.659266,-6.379519,23.463877,-33.510445,52.299156,-6.268409,-1.5715723,-0.18248452,5.5518074,-19.441673,33.810158,45.16303,-4.829685,1.6354483,-9.75667
152,-0.42392006516456604,-56.10612106323242,74.79421997070312,-0.07419700639407027,-1.6651845535755812,17.309571612789718,2.2875319,-9.868074,2.1701655,36.08929,-23.518698,-0.4669507,-18.798529,8.414386,-22.765244,26.92966,-4.503115,-10.19844,-13.701215,-0.5161446,7.6744027,-6.7316303,23.927513,-33.50641,52.480946,-6.3479066,-1.5386108,-0.21698613,5.5342727,-18.762465,33.633278,45.303715,-4.952567,1.5642025,-9.807699
153,-0.6524050831794739,-56.74225616455078,74.83110046386719,0.39886939497289936,-1.659641236896991,17.084811820122045,2.5593302,-9.913875,2.4404454,34.876392,-23.662745,-0.008101947,-19.70516,8.505211,-21.330563,27.57377,-3.249657,-8.150837,-13.449576,-1.4611458,7.780596,-7.0602694,24.366026,-33.42303,52.64399,-6.4326925,-1.5200033,-0.23394234,5.476785,-18.107258,33.48609,45.475395,-5.094776,1.4974428,-9.877493
154,-0.8809245824813843,-57.368927001953125,74.87893676757812,0.910233116966237,-1.6904546268024048,16.777217759251723,2.9217837,-9.975847,2.8850129,33.518276,-23.631086,0.44473898,-20.601198,8.68647,-19.532728,28.22831,-1.9413781,-5.515768,-13.122159,-2.4232497,7.9567423,-7.3728795,24.776524,-33.268665,52.798973,-6.5206594,-1.5110252,-0.23671505,5.3932776,-17.479225,33.35908,45.662212,-5.2488675,1.4311814,-9.949512
155,-1.1127254962921143,-57.98926544189453,74.93719482421875,1.399718899134221,-1.7537769140604242,16.44630586920516,3.3676376,-10.015172,3.3905008,32.077545,-23.522549,0.88558036,-21.342371,9.007345,-17.448338,28.625137,-0.51313555,-2.169199,-12.774277,-3.333436,8.187012,-7.6330485,25.153204,-33.04042,52.9223,-6.604769,-1.5021294,-0.22970693,5.295518,-16.888704,33.249767,45.85072,-5.4042974,1.3646809,-10.018538
156,-1.334930419921875,-58.59232711791992,74.99388122558594,1.8116675729112537,-1.8480129121756923,16.152677232131406,3.885011,-9.993929,3.8417013,30.6178,-23.434013,1.3080252,-21.78564,9.495105,-15.131529,28.502745,1.1007171,2.013524,-12.463957,-4.1259556,8.452375,-7.805288,25.488447,-32.733803,52.98917,-6.6775413,-1.4838703,-0.21767424,5.199225,-16.349632,33.155807,46.01865,-5.549339,1.2978632,-10.078761
157,-1.5491445064544678,-59.181331634521484,75.05073547363281,2.1577648531561215,-2.0008887065031025,15.89263961399737,4.524816,-9.931305,4.2488074,29.089077,-23.355492,1.7424663,-21.739,10.25756,-12.293255,27.48934,3.2276926,7.941587,-12.197803,-4.8060856,8.773445,-7.8767266,25.773273,-32.321507,52.99195,-6.726242,-1.4489819,-0.20423181,5.1139665,-15.874698,33.06816,46.15623,-5.698962,1.2368952,-10.120755
158,-1.755638837814331,-59.75189971923828,75.10187530517578,2.459563943714393,-2.204659536186257,15.639652293341221,5.276837,-9.839691,4.660855,27.466805,-23.242317,2.1739137,-21.31225,11.235947,-8.977067,25.919367,5.4798646,15.000033,-11.947797,-5.3970037,9.149813,-7.871223,26.003622,-31.81241,52.94997,-6.756424,-1.4048827,-0.18598765,5.0418906,-15.467953,32.989735,46.258514,-5.850748,1.1808829,-10.1488
159,-1.921032428741455,-60.42755126953125,75.1122817993164,2.1708614622883613,-2.4080039410678697,15.112561637297977,5.5966783,-8.872745,5.3086143,26.952784,-23.812803,2.3128312,-20.232098,12.773321,-7.5280547,23.210205,7.973722,15.000033,-11.398506,-5.3895226,9.625816,-7.850423,26.144815,-31.288282,52.93915,-6.7876415,-1.3703196,-0.1583575,5.0626416,-15.1903925,32.925808,46.226685,-5.9546795,1.1266648,-10.174139
160,-2.0733678340911865,-61.058433532714844,75.12781524658203,1.9346474249987244,-2.592689959116048,14.779659955534568,5.9630427,-8.039258,5.744781,26.27243,-24.242376,2.400149,-19.614729,13.726441,-6.26745,21.694288,9.255088,15.000033,-11.023796,-5.4196963,10.043358,-7.734827,26.310585,-30.741095,52.841404,-6.8472657,-1.344082,-0.12023492,5.0065346,-14.887455,32.91264,46.262215,-6.007151,1.0470628,-10.223852
161,-2.2318992614746094,-61.631649017333984,75.17225646972656,1.7614852663404479,-2.719893374101491,14.669598307750322,6.355775,-7.37686,5.9281526,25.346518,-24.481783,2.4466107,-19.692383,14.145821,-4.880801,21.630054,9.125248,15.000033,-10.832086,-5.4543686,10.366254,-7.583083,26.424768,-30.208744,52.721737,-6.9465394,-1.3375294,-0.05223712,4.946853,-14.664206,32.94933,46.253563,-5.9480987,0.93097365,-10.293192
162,-2.391869068145752,-62.1772346496582,75.2351303100586,1.6142603424831585,-2.8031164611912267,14.704060289786915,6.7558956,-6.8126426,5.949321,24.252201,-24.587343,2.4531505,-20.171686,14.251264,-3.3652654,22.3815,8.146327,15.000033,-10.757867,-5.4586277,10.621938,-7.3943267,26.47983,-29.668322,52.58171,-7.069252,-1.344404,0.038482487,4.8957314,-14.528124,33.020115,46.19151,-5.8077397,0.7897673,-10.37169
163,-2.558241844177246,-62.70465850830078,75.29706573486328,1.5060384332798715,-2.8314280170724286,14.815998102678623,7.1217933,-6.330818,5.8917847,23.0545,-24.582617,2.4154918,-20.863605,13.99201,-2.1991491,23.596771,6.6927958,15.000033,-10.715026,-5.4530916,10.807912,-7.2091637,26.482153,-29.17482,52.442635,-7.2194266,-1.3602498,0.13653553,4.8880224,-14.475514,33.066643,46.05416,-5.6587825,0.65167654,-10.452002
164,-2.7110848426818848,-63.23420333862305,75.35193634033203,1.4431603295765434,-2.8105367397029744,14.952365536176234,7.427301,-5.9062634,5.82295,21.841404,-24.500254,2.330199,-21.569223,13.282577,-1.8658512,24.946062,5.0683584,15.000033,-10.672286,-5.4663954,10.930597,-7.0114703,26.45995,-28.71871,52.289932,-7.385056,-1.378649,0.22219726,4.894701,-14.462966,33.08259,45.891556,-5.5699263,0.5441912,-10.536938
165,-2.8610308170318604,-63.761962890625,75.4036636352539,1.4348504122015715,-2.7361693740994744,15.143743329715388,7.6835594,-5.5486584,5.7218313,20.583319,-24.344313,2.2180429,-22.273401,11.940801,-2.6528716,26.450966,3.07551,15.000033,-10.697601,-5.5071692,10.98046,-6.7565722,26.406935,-28.22454,52.093822,-7.5572624,-1.3977336,0.2881015,4.882996,-14.488032,33.105072,45.712048,-5.563136,0.48074263,-10.625116
166,-3.0106661319732666,-64.28567504882812,75.45287322998047,1.488546055709664,-2.6233852795825277,15.421564792314852,7.9316354,-5.2812686,5.5410485,19.226437,-24.084257,2.0852902,-23.014565,9.986983,-4.2355475,28.224943,0.6011413,15.000033,-10.740538,-5.5885797,10.970155,-6.518675,26.335045,-27.815039,51.89084,-7.7798038,-1.4189222,0.34924126,4.9179244,-14.553023,33.06461,45.469456,-5.613432,0.44284832,-10.711707
167,-3.1568284034729004,-64.80490112304688,75.502685546875,1.5920713497074435,-2.513657981006206,15.737781398234207,8.19286,-5.077657,5.3045044,17.841349,-23.713423,1.9049224,-23.669168,7.657243,-6.1738553,30.08221,-1.9490823,15.000033,-10.79859,-5.700046,10.942278,-6.264092,26.240944,-27.446434,51.67944,-7.994513,-1.4458094,0.4035498,4.9632607,-14.659665,33.00809,45.22724,-5.6808996,0.4161314,-10.811431
168,-3.283402442932129,-65.317138671875,75.56671142578125,1.729419895871047,-2.4346535554469075,16.02997547404951,8.459479,-4.905055,5.053019,16.525843,-23.237677,1.6491066,-24.173115,5.2362776,-8.029846,31.86196,-4.1255608,15.000033,-10.825023,-5.832889,10.92863,-5.985759,26.136532,-27.126822,51.467373,-8.164193,-1.4805938,0.45112216,5.000836,-14.791281,32.94668,45.044426,-5.7363276,0.38469929,-10.937296
169,-3.3901891708374023,-65.82921600341797,75.64633178710938,1.9182968727107486,-2.3909062966429295,16.300559637710812,8.741046,-4.780909,4.7627964,15.266384,-22.6032,1.3014542,-24.526344,2.6554315,-9.922551,33.59936,-5.7869406,15.000033,-10.825268,-6.010539,10.933212,-5.6719193,26.025465,-26.844498,51.234524,-8.266674,-1.5280473,0.4947594,5.0082026,-14.94543,32.892384,44.934273,-5.79208,0.34021008,-11.101823
170,-3.4863624572753906,-66.33426666259766,75.7247543334961,2.16027382669418,-2.3776382307321215,16.58660858447502,9.041285,-4.712091,4.4080453,14.040141,-21.829636,0.88848543,-24.716898,-0.19696806,-12.004142,35.36262,-7.193474,15.000033,-10.830452,-6.2351995,10.947156,-5.3213177,25.910027,-26.596317,50.976086,-8.326706,-1.5848309,0.53248477,4.9960055,-15.119454,32.839077,44.87426,-5.858366,0.29228124,-11.296337
171,-3.5732767581939697,-66.85479736328125,75.79606628417969,2.3486310456610533,-2.3657656190204825,16.787205244883275,9.247861,-4.542745,4.1216574,13.057044,-21.115143,0.41327044,-24.746582,-2.9150414,-14.006432,36.94243,-8.371883,14.319176,-10.75287,-6.395629,10.959961,-4.9405565,25.794855,-26.39485,50.72643,-8.372188,-1.641466,0.5574458,4.983744,-15.303009,32.780006,44.882015,-5.8988266,0.2515285,-11.503821
172,-3.639700174331665,-67.39269256591797,75.86605834960938,2.440685532765656,-2.3218820204771564,16.841812651604684,9.300244,-4.216095,3.9959815,12.386369,-20.575102,-0.09403028,-24.72383,-5.1854362,-15.559424,38.247208,-9.409848,12.771577,-10.544884,-6.439708,10.945802,-4.536654,25.684347,-26.253174,50.5185,-8.431781,-1.6882465,0.56322193,4.980406,-15.481268,32.70966,44.984688,-5.872742,0.22735298,-11.706917
173,-3.6975839138031006,-67.93482208251953,75.93357849121094,2.5083191234603324,-2.2408860791793925,16.803409696141244,9.267685,-3.839146,3.9744275,11.851983,-20.105425,-0.596171,-24.769001,-7.1127653,-16.427198,39.41465,-10.383876,11.273783,-10.252721,-6.4322033,10.881126,-4.1121573,25.582247,-26.19271,50.356316,-8.540938,-1.7268919,0.5484436,4.988261,-15.641221,32.61986,45.215687,-5.761212,0.2193004,-11.923873
174,-3.7317605018615723,-68.47480010986328,76.00028228759766,2.567046745863979,-2.1341301568038795,16.690293683202622,9.171429,-3.427859,4.0218573,11.434343,-19.666945,-1.1073979,-24.872318,-8.818849,-16.816437,40.487118,-11.236181,9.804603,-9.890064,-6.397877,10.775086,-3.6630123,25.489763,-26.203669,50.22461,-8.676566,-1.7606966,0.5166979,4.992116,-15.778455,32.513958,45.569225,-5.5914626,0.2217673,-12.157324
175,-3.761458396911621,-69.00045013427734,76.06256866455078,2.6075031695829964,-2.0381893606454637,16.522233796014323,9.06692,-2.9837248,4.1247554,11.107324,-19.27802,-1.6172756,-24.984709,-10.288002,-16.7569,41.43289,-11.956866,8.5138,-9.4860935,-6.3327427,10.668217,-3.186067,25.402718,-26.248924,50.124683,-8.779242,-1.7812569,0.4697401,4.975807,-15.897263,32.402195,46.010426,-5.3961186,0.23624623,-12.365412
176,-3.7849791049957275,-69.53221893310547,76.1201171875,2.6187716169483215,-1.9902359946507984,16.318779333616902,9.015186,-2.5103645,4.2713804,10.827795,-18.948788,-2.1155224,-25.047972,-11.505538,-16.281134,42.222725,-12.532213,7.554748,-9.072134,-6.22689,10.601708,-2.6777387,25.31308,-26.289528,50.05786,-8.788778,-1.7808069,0.40938702,4.933243,-16.006828,32.291553,46.49223,-5.2132564,0.26526657,-12.50559
177,-3.802488327026367,-70.05194854736328,76.1711196899414,2.590713987218068,-2.006450386040484,16.062220446175562,9.042184,-1.9989346,4.48913,10.586241,-18.684544,-2.6014907,-25.057987,-12.386141,-15.261518,42.828224,-12.903324,7.039043,-8.639816,-6.061554,10.5924015,-2.1331108,25.21317,-26.32633,50.029984,-8.677007,-1.7532464,0.33465376,4.8587484,-16.112803,32.181366,47.041103,-5.043765,0.31871185,-12.552909
178,-3.8208835124969482,-70.5632553100586,76.21605682373047,2.529102207226676,-2.0649402092481868,15.74861720439599,9.111042,-1.4480755,4.776888,10.40803,-18.479883,-3.081031,-25.04292,-12.95601,-13.736927,43.28019,-13.080836,6.8592844,-8.178431,-5.8396244,10.613999,-1.5589993,25.100576,-26.375956,50.044266,-8.477288,-1.7052156,0.24567282,4.7603583,-16.216562,32.070248,47.662952,-4.8687677,0.3930026,-12.5339365
179,-3.838174819946289,-71.07151794433594,76.25127410888672,2.4490221129080467,-2.146083900944543,15.41903527181076,9.181471,-0.8735379,5.080515,10.312172,-18.330353,-3.5533085,-24.983564,-13.373921,-11.988231,43.634827,-13.158224,6.8435454,-7.716137,-5.5836573,10.644569,-0.9711805,24.976566,-26.42435,50.098213,-8.225441,-1.6473169,0.14596751,4.653561,-16.323883,31.962893,48.278023,-4.697823,0.47102717,-12.483525
180,-3.8482956886291504,-71.578369140625,76.28168487548828,2.3656236488252076,-2.229856992610028,15.114606309775239,9.215547,-0.29198617,5.344475,10.311756,-18.229233,-4.016852,-24.868736,-13.803997,-10.293115,43.94612,-13.228815,6.8189063,-7.282617,-5.3174834,10.664715,-0.3807833,24.845222,-26.453209,50.18275,-7.957518,-1.5896988,0.03824511,4.5534883,-16.443838,31.865868,48.80325,-4.5387473,0.5356807,-12.436391
181,-3.838801383972168,-72.07664489746094,76.29908752441406,2.2729952048359676,-2.328874101743154,14.828547589415908,9.215491,0.3037552,5.5672936,10.437396,-18.19629,-4.4674487,-24.687204,-14.2196665,-8.608227,44.211224,-13.285827,6.8025193,-6.8747854,-5.031212,10.692888,0.22188428,24.707634,-26.450298,50.280937,-7.6369414,-1.5264776,-0.09196556,4.459555,-16.585396,31.776228,49.224064,-4.396734,0.5889494,-12.383922
182,-3.830296277999878,-72.5758056640625,76.3095703125,2.165127779410286,-2.4481177033785713,14.545016138222795,9.197403,0.9217263,5.7736783,10.671106,-18.226557,-4.9074254,-24.437609,-14.558665,-6.82982,44.41248,-13.294569,6.8654776,-6.4822965,-4.713942,10.733842,0.8427992,24.562935,-26.424553,50.394497,-7.260165,-1.4551905,-0.2422506,4.373543,-16.750813,31.689915,49.567177,-4.267412,0.638487,-12.312156
183,-3.8169422149658203,-73.08125305175781,76.31641387939453,2.0582171846193713,-2.555170033582527,14.290900055000792,9.139514,1.5449809,5.94658,10.963526,-18.283407,-5.344793,-24.140171,-14.935364,-5.1380787,44.57447,-13.300589,6.9136324,-6.121827,-4.3921485,10.749606,1.4643049,24.414392,-26.390789,50.54289,-6.911655,-1.3907601,-0.38417193,4.2997894,-16.939125,31.619648,49.824505,-4.132258,0.6747931,-12.24831
184,-3.7970998287200928,-73.59479522705078,76.31526184082031,1.9699164335109336,-2.617531936851488,14.092446892966443,9.019918,2.1536958,6.069179,11.267848,-18.332958,-5.787465,-23.82942,-15.466328,-3.7075853,44.724686,-13.348219,6.852474,-5.809073,-4.095467,10.702678,2.0728717,24.268133,-26.361593,50.742245,-6.676857,-1.3470114,-0.48921248,4.247447,-17.145687,31.575766,49.984585,-3.9778214,0.6885196,-12.219518
185,-3.755777597427368,-74.11970520019531,76.31372833251953,1.9015557844402529,-2.6222233516281195,13.95655090439693,8.821015,2.7450347,6.135858,11.591646,-18.377607,-6.233814,-23.530123,-16.18606,-2.5718,44.88073,-13.466993,6.6582904,-5.5453825,-3.8283076,10.581232,2.6693892,24.128906,-26.346588,50.993202,-6.58888,-1.3314421,-0.540002,4.210853,-17.36993,31.583069,50.041306,-3.7618678,0.66806495,-12.253326
186,-3.714574098587036,-74.64046478271484,76.3008804321289,1.8449077545212196,-2.5875115530704673,13.869232405555394,8.558462,3.3276772,6.1544595,11.952515,-18.432583,-6.68097,-23.229042,-17.03323,-1.639557,45.022087,-13.625636,6.381064,-5.3230968,-3.5789678,10.407208,3.2643197,23.998066,-26.335384,51.282772,-6.6003237,-1.3342913,-0.5554736,4.188453,-17.611757,31.628487,50.00161,-3.506652,0.6210389,-12.328434
187,-3.660029888153076,-75.17828369140625,76.2791976928711,1.8032203658897967,-2.527820539624384,13.825750881684915,8.262408,3.897588,6.129125,12.314467,-18.481117,-7.1348987,-22.910795,-17.98651,-0.8949997,45.123154,-13.779046,6.0373454,-5.142109,-3.354316,10.194408,3.8593166,23.877047,-26.308838,51.60556,-6.6727023,-1.3435935,-0.5612266,4.1878395,-17.864094,31.67069,49.88195,-3.2870386,0.56666136,-12.399114
188,-3.5979061126708984,-75.7226791381836,76.24755859375,1.7806596362848806,-2.457446446835252,13.821261773073203,7.9613132,4.4497404,6.0644855,12.644424,-18.507877,-7.6014075,-22.556637,-19.023193,-0.32412666,45.158062,-13.881712,5.643595,-5.0024076,-3.1626432,9.956077,4.4549837,23.767569,-26.24926,51.957436,-6.767967,-1.347277,-0.58281213,4.2155914,-18.115303,31.666315,49.703228,-3.1803718,0.5242723,-12.420614
189,-3.511289596557617,-76.26793670654297,76.2102279663086,1.7834398192858,-2.3716076133107977,13.868002179184934,7.656515,4.9746585,5.950209,12.925701,-18.504074,-8.078332,-22.170053,-20.194551,0.008152148,45.15106,-13.97476,5.1386266,-4.9170294,-3.0164225,9.678868,5.061034,23.67219,-26.150167,52.33958,-6.88001,-1.3430882,-0.61749506,4.2718353,-18.356804,31.61108,49.470356,-3.2367308,0.49370995,-12.368776
190,-3.4295384883880615,-76.84058380126953,76.16051483154297,1.8089550024371825,-2.265883122559804,13.964092675570162,7.338815,5.474979,5.7882023,13.169139,-18.477776,-8.564071,-21.757725,-21.494694,0.11553307,45.10939,-14.070917,4.53824,-4.882017,-2.9117832,9.36069,5.676694,23.592678,-26.020733,52.75207,-7.028093,-1.3366162,-0.65483636,4.3495207,-18.586468,31.52436,49.183395,-3.4094708,0.465704,-12.273057
191,-3.3338327407836914,-77.41610717773438,76.10356140136719,1.848221963349227,-2.155027141612185,14.08303126383532,7.015043,5.965297,5.601536,13.401464,-18.441309,-9.06443,-21.304213,-22.815338,0.12748858,44.981377,-14.077775,3.971988,-4.8703804,-2.8314586,9.03192,6.2836337,23.52894,-25.86953,53.19183,-7.2131047,-1.3280634,-0.70819235,4.437272,-18.80182,31.404726,48.859707,-3.6206813,0.44629866,-12.16931
192,-3.2355244159698486,-77.99462890625,76.03763580322266,1.8911846910118955,-2.0536870791054698,14.198348346262986,6.693057,6.461196,5.413275,13.645383,-18.406025,-9.585607,-20.795038,-24.045584,0.17229241,44.717594,-13.898951,3.566714,-4.854886,-2.7582426,8.7219515,6.8625827,23.47945,-25.705345,53.65792,-7.4349585,-1.3175156,-0.79082596,4.5301876,-19.000986,31.24365,48.51295,-3.800997,0.4419978,-12.093165
193,-3.1361751556396484,-78.58490753173828,75.96327209472656,1.9451882743478577,-1.9654287719037187,14.31027674099627,6.3793426,6.952403,5.2266197,13.895639,-18.37242,-10.130325,-20.213541,-25.232626,0.2003984,44.301823,-13.5235,3.34265,-4.835081,-2.6982498,8.434662,7.413852,23.441538,-25.518927,54.15555,-7.7133365,-1.307349,-0.9209689,4.6279583,-19.181488,31.028046,48.137295,-3.9440408,0.46361125,-12.055703
194,-3.0367591381073,-79.17957305908203,75.87826538085938,2.0125811213311895,-1.8828778102596757,14.430347575317283,6.069564,7.4347577,5.0309935,14.143023,-18.335953,-10.695245,-19.5691,-26.405779,0.16742417,43.767044,-12.9963665,3.2359095,-4.823329,-2.6574478,8.154842,7.944942,23.41471,-25.309351,54.686024,-8.04088,-1.2961916,-1.0861043,4.733472,-19.342556,30.763948,47.731358,-4.0859733,0.50460786,-12.037618
195,-2.928016424179077,-79.78208923339844,75.78839111328125,2.0750786799316656,-1.8032405183962052,14.548849815174684,5.752199,7.934528,4.8285336,14.409141,-18.302958,-11.277839,-18.892828,-27.437,0.2177145,43.14356,-12.304431,3.2436616,-4.8093143,-2.6166892,7.8844337,8.443892,23.401522,-25.102352,55.243217,-8.379743,-1.2792281,-1.2532835,4.8364086,-19.485268,30.479769,47.31874,-4.2067447,0.5459075,-12.028808
196,-2.8094875812530518,-80.40266418457031,75.69345092773438,2.114060394536621,-1.7234605839336434,14.656002990289062,5.41706,8.478369,4.620886,14.712828,-18.278532,-11.875484,-18.215763,-28.19895,0.49907768,42.462048,-11.436659,3.361472,-4.786197,-2.5651066,7.6140256,8.897663,23.403727,-24.923468,55.836754,-8.692232,-1.2527362,-1.3863147,4.8969297,-19.568438,30.215014,46.97642,-4.293639,0.56633824,-12.027051
197,-2.6938068866729736,-81.03700256347656,75.58904266357422,2.1276231682793676,-1.6416631758282996,14.748367340581972,5.0593843,9.06955,4.414029,15.064838,-18.271984,-12.488221,-17.605932,-28.671986,1.0927047,41.841595,-10.244956,3.2905054,-4.7403603,-2.4787614,7.370313,9.314669,23.431221,-24.781345,56.423527,-8.982157,-1.2121965,-1.4831663,5.001397,-19.690874,29.918613,46.561634,-4.3168745,0.5580871,-12.011102
198,-2.568171501159668,-81.68402099609375,75.48184967041016,2.122772077229015,-1.5594898632822651,14.831071017439024,4.6862373,9.696747,4.204828,15.45051,-18.277283,-13.118165,-17.024948,-28.922615,1.9095054,41.240486,-8.789957,3.1337588,-4.684341,-2.3787532,7.132562,9.695311,23.477865,-24.665865,57.03634,-9.268066,-1.162002,-1.5555832,5.0990896,-19.791319,29.611494,46.156143,-4.2925467,0.530907,-11.999909
199,-2.440981864929199,-82.3470230102539,75.36844635009766,2.091742648152727,-1.4779272518583098,14.906236360722911,4.2987804,10.368931,3.978826,15.862792,-18.281092,-13.765603,-16.329597,-28.94152,2.852494,40.428093,-7.3722,3.490488,-4.6179833,-2.2610497,6.908858,10.035982,23.544863,-24.55857,57.65839,-9.526825,-1.1064605,-1.6157196,5.1770205,-19.873158,29.32807,45.767757,-4.2589626,0.50405973,-11.990577
200,-2.3223865032196045,-83.0148696899414,75.24705505371094,2.027111696535127,-1.398481120273732,14.976948623441935,3.900426,11.094091,3.7208586,16.28707,-18.267859,-14.430945,-15.364889,-28.723433,3.8382864,39.155125,-6.299831,4.954317,-4.545441,-2.1226985,6.704535,10.336088,23.632704,-24.440098,58.274036,-9.736316,-1.049818,-1.675445,5.2232127,-19.940187,29.108274,45.40501,-4.2549644,0.49701187,-11.981893
201,-2.1935675144195557,-83.69473266601562,75.13325500488281,1.9752158366518844,-1.3227004307183825,15.054832087837864,3.5161357,11.793116,3.4101484,16.660921,-18.211025,-15.000033,-13.948767,-28.270845,5.0072155,37.121403,-5.672715,8.175092,-4.4827204,-2.0099635,6.513939,10.600014,23.743305,-24.310333,58.889572,-9.890339,-0.9927226,-1.7415658,5.2358847,-19.995623,28.96304,45.062874,-4.2934103,0.5228426,-11.971996
202,-2.060228109359741,-84.39398193359375,74.99864196777344,1.9919765038071644,-1.2445498979810377,15.1526227365775,3.1672816,12.322109,3.0007749,16.90837,-18.071198,-15.000033,-12.185882,-27.734137,6.3388867,34.47864,-5.369309,12.654073,-4.441594,-1.9704248,6.3261924,10.827516,23.873528,-24.17462,59.51153,-9.999222,-0.93373024,-1.8065166,5.2231607,-20.037912,28.872581,44.735504,-4.3536525,0.56899947,-11.962179
203,-1.9314302206039429,-85.14007568359375,74.88617706298828,1.5697541207002061,-1.1353617896104675,15.126253695571387,2.610018,13.441751,2.5523283,17.574339,-18.122091,-15.000033,-10.3340845,-26.565712,7.000699,31.58362,-5.2516737,15.000033,-4.2790003,-1.5247945,6.1685286,11.019874,24.0253,-24.02015,60.10362,-10.068503,-0.87103206,-1.8621553,5.1765585,-20.07215,28.8333,44.43672,-4.4165907,0.61407375,-11.954991
204,-1.8016629219055176,-85.93073272705078,74.78866577148438,0.8481715663977429,-1.013193386614696,15.052061991053828,1.9396836,14.952646,2.0219774,18.429253,-18.209934,-15.000033,-8.691429,-25.006626,7.036163,28.923622,-5.2102313,15.000033,-4.0632453,-0.8033207,6.0453186,11.167037,24.185919,-23.836483,60.657467,-10.100087,-0.8062693,-1.8977308,5.085497,-20.09836,28.849686,44.18722,-4.4603233,0.6397759,-11.955044
205,-1.6775946617126465,-86.71753692626953,74.68567657470703,0.283558550465433,-0.8962002880958463,15.042982223757264,1.3394166,16.24883,1.436673,19.067326,-18.115788,-15.000033,-7.359168,-23.676443,6.954841,26.59387,-5.271073,15.000033,-3.9007013,-0.23512541,5.934779,11.272051,24.360075,-23.628407,61.179913,-10.078332,-0.7420143,-1.9073108,4.96214,-20.116959,28.92222,43.96906,-4.483062,0.640755,-11.965133
206,-1.542262315750122,-87.49946594238281,74.58911895751953,-0.20502182398945037,-0.7744710113859506,15.059763573393232,0.75969195,17.444885,0.81543213,19.5952,-17.908794,-15.000033,-6.2022524,-22.408686,6.7682214,24.355213,-5.459923,15.000033,-3.756649,0.25435326,5.834174,11.337539,24.55088,-23.399208,61.676716,-10.008016,-0.6774316,-1.8977394,4.8103414,-20.126781,29.048817,43.7755,-4.49628,0.6278088,-11.98251
207,-1.4268949031829834,-88.28456115722656,74.4979019165039,-0.5895058037517733,-0.6347815018350399,15.101347171912872,0.18828705,18.50838,0.19387011,19.995443,-17.554047,-15.000033,-5.2812686,-21.287113,6.453244,22.422358,-5.855498,15.000033,-3.631087,0.63022614,5.738411,11.367529,24.75741,-23.124142,62.12153,-9.913193,-0.60849094,-1.8813505,4.6157484,-20.126568,29.234098,43.629917,-4.492318,0.6094751,-12.003151
208,-1.3131039142608643,-89.08045196533203,74.40840148925781,-0.853774310534531,-0.4658159516011856,15.16965506344041,-0.38797826,19.421185,-0.4000602,20.257435,-17.019901,-15.000033,-4.666655,-20.374933,5.965785,21.058378,-6.550193,15.000033,-3.5301251,0.87142485,5.644794,11.368008,24.974892,-22.775635,62.489014,-9.817276,-0.531442,-1.8705968,4.3785267,-20.112028,29.475605,43.54315,-4.4761405,0.59452,-12.022639
209,-1.218098759651184,-89.88085174560547,74.32890319824219,-0.9741230541904693,-0.24997551580449634,15.271331527060346,-1.007595,20.151283,-0.9775916,20.41489,-16.297134,-15.000033,-4.45959,-19.729624,5.142678,20.493807,-7.705543,15.000033,-3.4548042,0.9532406,5.536013,11.32647,25.202377,-22.346043,62.79248,-9.704713,-0.43964586,-1.8738546,4.0849876,-20.081463,29.799604,43.536476,-4.4182777,0.579422,-12.049502
210,-1.1369379758834839,-90.68512725830078,74.26448822021484,-0.986125352520987,0.0005969297996563889,15.4013912060736,-1.6643789,20.744196,-1.5476953,20.50003,-15.423711,-15.000033,-4.6336904,-19.28565,3.9959092,20.620234,-9.23938,15.000033,-3.4034395,0.91512746,5.4236674,11.245528,25.438957,-21.847748,63.03984,-9.569629,-0.3363778,-1.8822845,3.7378297,-20.033983,30.198818,43.600418,-4.3287816,0.5610542,-12.083278
211,-1.0730671882629395,-91.50530242919922,74.2218246459961,-0.9654348116755181,0.250881984917643,15.547545792245662,-2.296535,21.299568,-2.0862868,20.481176,-14.4281645,-15.000033,-5.0410438,-18.91443,2.7485812,21.171621,-10.88218,15.000033,-3.3769352,0.8342401,5.348076,11.146342,25.676956,-21.287447,63.206997,-9.447812,-0.23611528,-1.8818351,3.3467834,-19.968117,30.62682,43.71545,-4.2594237,0.54851985,-12.106535
212,-1.028847575187683,-92.33148956298828,74.19933319091797,-0.985160869639257,0.4713625764548243,15.693375718582576,-2.8474019,21.915197,-2.569678,20.321323,-13.333975,-15.000033,-5.5232077,-18.480131,1.6398988,21.850945,-12.356365,15.000033,-3.37141,0.78601855,5.3427024,11.044649,25.905884,-20.676683,63.272743,-9.377791,-0.15057693,-1.856765,2.9179776,-19.884468,31.039377,43.86789,-4.259946,0.5510472,-12.102183
213,-0.9946826100349426,-93.16239929199219,74.197509765625,-1.0477243495369037,0.6590772038026276,15.832184127979849,-3.2709641,22.588358,-3.0281155,19.920076,-12.087508,-15.000033,-6.0965204,-17.98567,0.6871679,22.719702,-13.675418,15.000033,-3.3799741,0.776713,5.4217024,10.929548,26.116804,-19.993713,63.235104,-9.349461,-0.07608528,-1.7885832,2.4478168,-19.779545,31.429026,44.074524,-4.3721957,0.5711104,-12.057738
214,-0.9728752374649048,-93.99000549316406,74.21074676513672,-1.1219864975215628,0.8271468273084026,15.976222182445213,-3.619593,23.279638,-3.473605,19.34805,-10.705246,-15.000033,-6.8020186,-17.495905,-0.2292717,23.878489,-14.967223,15.000033,-3.4097674,0.7745819,5.5638223,10.787107,26.30847,-19.245625,63.118015,-9.349903,-0.009282274,-1.6883044,1.9319177,-19.653435,31.820292,44.343395,-4.5596695,0.60369337,-11.985394
215,-0.9521847367286682,-94.83586120605469,74.24727630615234,-1.2320805120077114,0.9771809940334585,16.129861975040573,-3.9814482,24.03188,-3.8498244,18.800282,-9.300642,-15.000033,-7.52177,-16.952158,-1.0608181,25.073307,-16.117155,15.000033,-3.4693067,0.80194366,5.7431164,10.634246,26.48095,-18.482712,62.933167,-9.4082985,0.036692407,-1.5858171,1.3964748,-19.51376,32.204617,44.62776,-4.7657013,0.6471234,-11.903723
216,-0.9327673316001892,-95.70153045654297,74.30435180664062,-1.404371045085096,1.1138530324713396,16.293962108743074,-4.451288,24.886967,-4.1024985,18.476934,-7.9897738,-15.000033,-8.145972,-16.280659,-1.7570131,26.048811,-17.003695,15.000033,-3.55892,0.88516676,5.933056,10.481944,26.635582,-17.762585,62.694016,-9.557308,0.04849716,-1.510873,0.8670305,-19.373878,32.572216,44.876842,-4.927054,0.7001694,-11.830493
217,-0.9076611399650574,-96.5790023803711,74.37287902832031,-1.6651811640766927,1.2353709033295501,16.443157820132473,-4.985271,25.881126,-4.284159,18.284254,-6.6749544,-15.000033,-8.678794,-15.399758,-2.210263,26.762524,-17.531433,15.000033,-3.6555927,1.0534531,6.1470575,10.338329,26.77,-17.057999,62.374596,-9.83317,0.020383604,-1.479738,0.34945053,-19.241547,32.902393,45.069252,-5.0513473,0.7764787,-11.757378
218,-0.8949448466300964,-97.4462890625,74.44857788085938,-1.997115692021264,1.3444714957606154,16.580877703639494,-5.602561,26.973,-4.439109,18.232058,-5.38526,-15.000033,-9.153396,-14.35603,-2.4753444,27.333626,-17.783792,15.000033,-3.7599237,1.2912707,6.3911557,10.190953,26.882505,-16.356152,61.98007,-10.209921,-0.041181758,-1.4743984,-0.16268174,-19.119024,33.205036,45.22226,-5.1597605,0.87265855,-11.677662
219,-0.8736319541931152,-98.31573486328125,74.52827453613281,-2.3641514886856743,1.4510524532697389,16.749278208286462,-6.3684044,28.122307,-4.4166656,18.454895,-4.2829475,-15.000033,-9.52466,-13.260999,-2.743351,27.75018,-17.884708,15.000033,-3.905648,1.5615691,6.6287594,10.022743,26.977737,-15.738143,61.562958,-10.629766,-0.12664148,-1.4722035,-0.6544962,-19.015411,33.506847,45.33852,-5.2212954,0.9621717,-11.611553
220,-0.8350004553794861,-99.18965911865234,74.61756134033203,-2.7770714026032994,1.56429635853241,16.974923225769302,-7.3733277,29.351961,-4.1074085,19.164272,-3.5886667,-15.000033,-9.747855,-12.139667,-3.202071,27.946388,-17.92728,14.808946,-4.106812,1.8728265,6.8283405,9.811225,27.063425,-15.293713,61.17977,-11.039574,-0.22911347,-1.4509785,-1.1103829,-18.945309,33.832138,45.416393,-5.200484,1.0185112,-11.578326
221,-0.7779717445373535,-100.07322692871094,74.71560668945312,-3.283747478426462,1.6781346572032152,17.27196772437407,-8.753564,30.789196,-3.4851975,20.554882,-3.3111138,-15.000033,-9.768907,-10.909676,-3.9261005,27.803148,-17.868746,14.180813,-4.367799,2.2633128,6.9974623,9.543897,27.142786,-15.0598135,60.837215,-11.488933,-0.3590827,-1.4091337,-1.5242743,-18.926022,34.199806,45.427315,-5.059128,1.0335032,-11.587268
222,-0.7156705260276794,-100.95008850097656,74.81314849853516,-3.822110998408469,1.7580643158265314,17.613508398578016,-10.3392935,32.363632,-2.612495,22.42336,-3.3462973,-15.000033,-9.62496,-9.666507,-4.7760806,27.40178,-17.684286,13.602972,-4.667433,2.6778886,7.1778917,9.237441,27.214619,-14.985957,60.50056,-11.986501,-0.5159688,-1.3591847,-1.9003764,-18.953865,34.58858,45.36951,-4.825784,1.0220245,-11.624439
223,-0.6772163510322571,-101.7563247680664,74.9389877319336,-3.7309676746859237,1.9073568529263583,18.151240839685,-11.851006,33.006298,-0.9995162,24.293854,-3.6519048,-12.156387,-9.762798,-9.29479,-5.5156283,27.452333,-17.730446,13.208001,-5.153368,2.5112698,7.236692,8.910763,27.29154,-15.026006,60.159367,-12.414693,-0.6766854,-1.3018131,-2.2180564,-19.025396,34.964188,45.246696,-4.553785,0.9927418,-11.677607
224,-0.6550974249839783,-102.53632354736328,75.06038665771484,-3.6395553058246755,2.0351990190293465,18.642120304555462,-12.916832,33.616856,0.86511487,25.874134,-4.369932,-9.605576,-9.9157505,-8.922661,-6.187738,27.514076,-17.769423,12.726798,-5.5784316,2.373324,7.280253,8.532153,27.342152,-15.191788,59.859978,-12.660867,-0.81989026,-1.2233422,-2.4671328,-19.119146,35.2488,45.120167,-4.3238645,0.95293415,-11.726141
225,-0.6337630748748779,-103.29598236083984,75.16934204101562,-3.6392213527494097,2.1373194870805037,19.067002221475597,-13.446333,34.330807,3.0229282,27.085352,-5.755495,-7.935907,-10.04633,-8.4314375,-6.820584,27.534927,-17.782635,12.091978,-5.9260087,2.352571,7.323506,8.097558,27.368593,-15.506163,59.609688,-12.700225,-0.9503632,-1.1125863,-2.6519167,-19.248947,35.44622,44.979656,-4.1325936,0.89672023,-11.772598
226,-0.6210522055625916,-104.0217514038086,75.2699966430664,-3.669895177546093,2.2222030865982707,19.46682295303525,-13.617472,35.061398,5.4710503,28.157824,-7.7121115,-6.7789154,-10.148299,-7.9083724,-7.4453907,27.51316,-17.773735,11.365466,-6.2161818,2.3941054,7.359065,7.579625,27.364178,-16.0003,59.417637,-12.597968,-1.0775841,-0.973591,-2.7347236,-19.455025,35.55356,44.762177,-3.9519353,0.82451373,-11.81879
227,-0.6029871702194214,-104.73841094970703,75.3746337890625,-3.722190736744349,2.267099371550506,19.798320489368784,-13.508241,35.69941,7.8912687,29.221678,-9.754886,-6.0501933,-10.202933,-7.342989,-8.005128,27.423676,-17.721724,10.599452,-6.446762,2.4748914,7.4046326,7.043688,27.319582,-16.561398,59.2363,-12.353885,-1.1816683,-0.8274005,-2.7536101,-19.692122,35.605667,44.542202,-3.7932034,0.750979,-11.860247
228,-0.5738493800163269,-105.44246673583984,75.48974609375,-3.791382218822407,2.248016315506729,20.016988715878956,-13.208822,36.155285,9.97147,30.392763,-11.38763,-5.6401033,-10.1879,-6.7184763,-8.443188,27.23591,-17.602037,9.8457575,-6.5965962,2.581208,7.4805636,6.5333943,27.231688,-17.105783,59.027393,-11.979874,-1.2429605,-0.6960229,-2.7244685,-19.945375,35.625565,44.360027,-3.6531193,0.69212216,-11.890017
229,-0.5547702312469482,-106.1299819946289,75.6025390625,-3.8930282088621797,2.141375015942974,20.074445501353694,-12.685189,36.44576,11.719148,31.693972,-12.454966,-5.6088734,-10.078863,-5.991789,-8.7122,26.925467,-17.400816,9.094554,-6.6325054,2.722103,7.5994277,6.0662985,27.097277,-17.626137,58.792755,-11.415127,-1.2481004,-0.5624392,-2.6546981,-20.201487,35.621002,44.24707,-3.5498567,0.64591265,-11.905399
230,-0.5248407125473022,-106.80641174316406,75.71381378173828,-4.02485225902457,1.9667497454757081,20.007922996366766,-11.947532,36.595715,13.278441,33.088337,-13.224869,-5.9716015,-9.883156,-5.1812654,-8.855986,26.509157,-17.139177,8.327319,-6.5818553,2.8996847,7.742211,5.6219335,26.918133,-18.157135,58.552395,-10.673458,-1.2097408,-0.42183122,-2.5558958,-20.457537,35.591038,44.2032,-3.4742541,0.6049988,-11.913377
231,-0.5016018748283386,-107.46014404296875,75.82147979736328,-4.157303928438633,1.7641563710739923,19.899498773861737,-11.154556,36.538082,14.533566,34.57805,-13.83414,-6.5454974,-9.630771,-4.35855,-8.951925,26.023144,-16.842237,7.5814667,-6.514656,3.0919573,7.8850737,5.1961837,26.699656,-18.667189,58.286243,-9.873088,-1.1480819,-0.31603533,-2.4234974,-20.710594,35.52914,44.19627,-3.4052296,0.57821405,-11.920326
232,-0.4704577922821045,-108.1165542602539,75.9246597290039,-4.262249105144307,1.5729611592804684,19.830219035852398,-10.460463,36.213154,15.36381,36.156525,-14.41342,-7.1523185,-9.3580475,-3.5959775,-9.076696,25.502668,-16.528221,6.893013,-6.5010405,3.2743719,8.008243,4.787275,26.45068,-19.120655,57.968468,-9.131369,-1.0844219,-0.28686735,-2.2887762,-20.961449,35.45436,44.221447,-3.2907512,0.57331896,-11.933426
233,-0.4383798837661743,-108.75277709960938,76.02835083007812,-4.340558291219701,1.393421620926376,19.79405575482615,-9.887051,35.571007,15.635221,37.834946,-14.954191,-7.855301,-9.057372,-2.8933382,-9.227713,24.920115,-16.17461,6.28051,-6.5465846,3.446952,8.110178,4.4192624,26.172598,-19.477297,57.57324,-8.444117,-1.0128071,-0.3844601,-2.1315532,-21.206009,35.353268,44.27138,-3.143126,0.6069532,-11.9555645
234,-0.4162179231643677,-109.36795806884766,76.12686920166016,-4.403774546254945,1.2083200098004079,19.757219162696632,-9.374826,34.64033,15.450222,39.616383,-15.416091,-8.731564,-8.717496,-2.2196457,-9.371066,24.26714,-15.775804,5.721835,-6.62042,3.6168385,8.201517,4.0892153,25.866959,-19.761967,57.11415,-7.7604027,-0.9279981,-0.5747059,-1.9653243,-21.442806,35.23612,44.36703,-2.9653108,0.66941977,-11.983547
235,-0.39594346284866333,-109.97433471679688,76.22603607177734,-4.442401228061243,1.0299717602785181,19.758154054784917,-8.944349,33.498604,15.03912,41.478313,-15.873486,-9.61622,-8.376953,-1.5980469,-9.5360775,23.615767,-15.373893,5.1892133,-6.7406287,3.7728183,8.281583,3.762208,25.543139,-20.030302,56.61992,-7.12737,-0.85098994,-0.7740346,-1.7903136,-21.673933,35.104874,44.47834,-2.7611377,0.7311304,-12.013094
236,-0.38093557953834534,-110.56832122802734,76.32325744628906,-4.448056652192074,0.869675939776961,19.834412318038126,-8.608027,32.239517,14.623583,43.389805,-16.381397,-10.329504,-8.068809,-1.0504817,-9.752486,23.02578,-15.01041,4.6548276,-6.9212546,3.9024937,8.351609,3.4034672,25.214304,-20.340324,56.116047,-6.59399,-0.7998543,-0.8994838,-1.6133671,-21.906046,34.96419,44.579254,-2.5259519,0.7621026,-12.039231
237,-0.37594524025917053,-111.15972900390625,76.41574096679688,-4.412904751260495,0.7339743319421456,20.02037136287882,-8.396439,30.868916,14.1810055,45.398792,-16.951847,-10.778186,-7.7957788,-0.60115904,-10.051154,22.502382,-14.688324,4.1174693,-7.1885004,3.9962466,8.41106,3.0097194,24.886497,-20.70262,55.593582,-6.187134,-0.7756341,-0.9325766,-1.433367,-22.144983,34.813644,44.657692,-2.2224789,0.7437655,-12.061167
238,-0.37621062994003296,-111.74439239501953,76.50154876708984,-4.345469511290202,0.6144386292794525,20.287139275201742,-8.271666,29.359467,13.624062,47.499035,-17.54298,-11.067575,-7.5453863,-0.2317284,-10.409207,22.01804,-14.386375,3.5887456,-7.522961,4.0624275,8.4626875,2.6013043,24.558624,-21.08896,55.034702,-5.878209,-0.76752955,-0.9179604,-1.2352084,-22.391619,34.642387,44.714268,-1.8687147,0.6957191,-12.079572
