unveil-humanoid-operators/unveil-humanoid-operators.github.io/feature-analysis-animation/data/feature_matrix_instances/height_ankle_rom_walking_A055_walk_hands_on_back_stop_004__A055.csv
Frame,root_translateX,root_translateY,root_translateZ,root_rotateX,root_rotateY,root_rotateZ,left_hip_pitch_joint_dof,left_hip_roll_joint_dof,left_hip_yaw_joint_dof,left_knee_joint_dof,left_ankle_pitch_joint_dof,left_ankle_roll_joint_dof,right_hip_pitch_joint_dof,right_hip_roll_joint_dof,right_hip_yaw_joint_dof,right_knee_joint_dof,right_ankle_pitch_joint_dof,right_ankle_roll_joint_dof,waist_yaw_joint_dof,waist_roll_joint_dof,waist_pitch_joint_dof,left_shoulder_pitch_joint_dof,left_shoulder_roll_joint_dof,left_shoulder_yaw_joint_dof,left_elbow_joint_dof,left_wrist_roll_joint_dof,left_wrist_pitch_joint_dof,left_wrist_yaw_joint_dof,right_shoulder_pitch_joint_dof,right_shoulder_roll_joint_dof,right_shoulder_yaw_joint_dof,right_elbow_joint_dof,right_wrist_roll_joint_dof,right_wrist_pitch_joint_dof,right_wrist_yaw_joint_dof
0,-0.22533948719501495,1.5099537372589111,73.13969421386719,2.724770954466772,4.905416032637864,-94.70447695197998,16.931839,-2.3218677,20.00689,6.493062,-23.438347,-7.04508,-31.1415,-6.6614594,-16.759064,6.540082,0.87620795,2.5625567,-7.076317,-4.2763157,-3.364817,24.842676,13.981492,-74.534325,22.200655,15.277604,1.9065351,-20.488262,20.884285,-10.7752495,74.57913,25.919172,-37.234024,1.0131105,24.586073
1,-0.3539544641971588,0.8164834976196289,73.15580749511719,2.2711621261566193,5.148274444935064,-94.89971372427831,17.303381,-1.733877,20.180185,6.5033846,-22.968983,-7.3271403,-30.957895,-5.9913764,-16.805199,6.5643654,2.0113134,1.4814795,-6.7975583,-3.7699482,-3.5919561,24.762806,13.999192,-74.59346,22.254013,15.367672,1.8828102,-20.28409,20.936247,-10.758826,74.36653,25.706537,-37.635105,1.1720499,25.309399
2,-0.45942583680152893,0.11899237334728241,73.19361877441406,1.8124545795693359,5.391259601816503,-95.10969760994931,17.643349,-1.1348203,20.383001,6.600679,-22.598696,-7.6067624,-30.770208,-5.342034,-16.869514,6.5969315,3.1339474,0.3427208,-6.45442,-3.258646,-3.8162327,24.650455,14.008254,-74.71439,22.334846,15.448808,1.8655967,-20.059633,21.019596,-10.75042,74.07152,25.451231,-38.062435,1.3240709,26.076542
3,-0.575914740562439,-0.5841107368469238,73.23974609375,1.3879937438559657,5.584865291351248,-95.3263101784145,17.98039,-0.56004417,20.576591,6.825038,-22.203022,-7.897248,-30.538658,-4.7246804,-16.872917,6.643538,4.2106786,-0.7589939,-6.1416645,-2.7895164,-4.0057807,24.562107,14.005045,-74.788795,22.416637,15.528002,1.8384768,-19.860176,21.080303,-10.752077,73.85705,25.233625,-38.468685,1.4611412,26.777842
4,-0.7211875915527344,-1.2898281812667847,73.29203033447266,1.02763479267857,5.686272651777185,-95.52723323793616,18.415571,-0.05984803,20.711235,7.0288405,-21.553732,-8.212837,-30.974316,-4.3842487,-16.68958,8.3685465,4.33085,-1.717343,-5.8141017,-2.3831847,-4.1146593,24.463566,13.991852,-74.881355,22.516582,15.565186,1.7920078,-19.710136,21.12433,-10.759692,73.67417,25.101322,-38.870056,1.538563,27.344131
5,-0.8659465312957764,-2.013998508453369,73.3559341430664,0.7344337530401449,5.6806376460730466,-95.71241929350606,18.977015,0.3719076,20.803617,7.211443,-20.652319,-8.579294,-31.56317,-4.1245184,-16.272835,10.626309,4.1589346,-2.5531726,-5.500309,-2.037117,-4.1398644,24.377638,13.962808,-74.96538,22.626053,15.57213,1.7219845,-19.62046,21.146173,-10.772476,73.562965,25.089338,-39.27555,1.5568092,27.750084
6,-1.022117018699646,-2.7194840908050537,73.42424774169922,0.4977320039047437,5.5901676337386315,-95.87811549891907,19.635061,0.74598706,20.859013,7.382499,-19.56765,-8.981546,-32.046432,-3.8746548,-15.70834,12.816498,4.0081897,-3.3051379,-5.2207026,-1.7443563,-4.0979724,24.303843,13.91351,-75.022575,22.748978,15.559356,1.6335361,-19.577833,21.145388,-10.788136,73.52615,25.166756,-39.67846,1.535872,28.036112
7,-1.1529474258422852,-3.4285175800323486,73.50765228271484,0.3289925810255689,5.4303408427671345,-96.0111707267496,20.33543,1.0443224,20.825212,7.5624876,-18.263514,-9.373454,-32.341137,-3.6866784,-15.157753,14.806874,3.8314176,-3.8992903,-4.9842324,-1.5243562,-3.9881582,24.245386,13.866628,-75.048004,22.866817,15.521071,1.5297844,-19.575674,21.0985,-10.799063,73.570114,25.309418,-40.02609,1.4865186,28.204248
8,-1.3194855451583862,-4.168301582336426,73.59918975830078,0.22224449808035718,5.222928048196771,-96.10305831269996,20.734547,1.3826479,20.647728,8.411961,-17.037127,-9.711162,-32.355667,-3.5908978,-14.790741,16.425634,3.6044269,-4.2581925,-4.804367,-1.3753895,-3.8158648,24.193491,13.7740345,-75.032776,23.031282,15.451486,1.4120042,-19.60361,20.984667,-10.81496,73.711266,25.481455,-40.264973,1.4211438,28.256706
9,-1.4885423183441162,-4.876341819763184,73.72695922851562,0.16548585951373868,4.959989861844664,-96.14426271936901,20.05501,2.0782952,20.240585,11.698287,-16.760695,-9.976517,-32.037487,-3.5923936,-14.70178,17.62257,3.3039246,-4.2759566,-4.686185,-1.2893835,-3.5596266,24.153631,13.675246,-74.96505,23.213932,15.332849,1.2652713,-19.683134,20.777094,-10.826875,73.971016,25.707792,-40.36537,1.3213228,28.161177
10,-1.6736819744110107,-5.57839298248291,73.8742446899414,0.11630924413602846,4.657108354986649,-96.1296000363029,19.261091,2.807276,19.65288,15.215058,-16.306595,-10.188544,-31.45338,-3.635499,-14.824971,18.468681,2.9657633,-4.0177846,-4.632299,-1.2157292,-3.2409995,24.12652,13.575578,-74.85735,23.401659,15.173642,1.0950463,-19.81137,20.494936,-10.83472,74.33144,25.997593,-40.361694,1.1886859,27.927795
11,-1.8440423011779785,-6.262022972106934,74.03489685058594,0.030452241954684017,4.371790169319602,-96.0616646788962,18.307297,3.6044986,18.960953,18.909393,-15.7423525,-10.381818,-30.705101,-3.6583533,-15.082979,18.994177,2.6537943,-3.6578436,-4.6348844,-1.102432,-2.9291718,24.110117,13.475531,-74.74205,23.571262,15.002884,0.9352254,-19.946766,20.18949,-10.841322,74.737175,26.29575,-40.30269,1.0626276,27.622234
12,-1.9413806200027466,-6.927184104919434,74.19539642333984,-0.11301037027324184,4.152634660617344,-95.95212322426225,17.193892,4.4601865,18.24784,22.655642,-15.098088,-10.5953245,-29.899021,-3.611546,-15.3733425,19.249006,2.4186103,-3.3686876,-4.6752586,-0.9232439,-2.6860237,24.098644,13.376254,-74.65371,23.702324,14.845594,0.8189744,-20.047333,19.912296,-10.851408,75.131325,26.547161,-40.237534,0.98252416,27.309904
13,-2.0710983276367188,-7.603207111358643,74.37042999267578,-0.30685383516296655,4.003449107456431,-95.80586165686881,15.905213,5.3450956,17.489388,26.477907,-14.352544,-10.816298,-29.019764,-3.4806163,-15.675232,19.180012,2.2908542,-3.1509166,-4.749376,-0.6797237,-2.5213284,24.109802,13.278736,-74.58896,23.778866,14.735569,0.7507393,-20.097801,19.663673,-10.869954,75.51859,26.75215,-40.162514,0.95703644,26.978119
14,-2.209562301635742,-8.271347045898438,74.557373046875,-0.5220369537607213,3.895995613593426,-95.63050693163805,14.470081,6.2218065,16.662174,30.385406,-13.480782,-11.038334,-28.038155,-3.2900603,-16.017164,18.804527,2.2251537,-2.9272094,-4.851649,-0.40807956,-2.4002497,24.137527,13.184152,-74.535034,23.815992,14.64701,0.7138541,-20.12149,19.42392,-10.899248,75.92239,26.928965,-40.0573,0.9649586,26.602331
15,-2.3557076454162598,-8.942255973815918,74.73703002929688,-0.7380764253728843,3.8268679167240056,-95.44411585758722,12.953888,7.0715547,15.850628,34.25836,-12.529547,-11.30683,-27.038776,-3.0630414,-16.35931,18.283813,2.1554646,-2.7521827,-4.9563694,-0.1420857,-2.3155985,24.160398,13.095181,-74.50626,23.83349,14.536375,0.70976603,-20.133722,19.21029,-10.938586,76.311714,27.05155,-39.94319,1.0010703,26.230787
16,-2.5155715942382812,-9.605213165283203,74.91968536376953,-0.9370881453855128,3.7926663160595435,-95.26374961062034,11.409775,7.8974333,15.136417,38.01252,-11.561094,-11.653656,-26.10311,-2.826397,-16.662386,17.779932,2.0197275,-2.6756158,-5.0370836,0.08759457,-2.260248,24.152576,13.016103,-74.520676,23.851357,14.355633,0.7403429,-20.149748,19.04384,-10.985454,76.651024,27.095713,-39.84726,1.0604659,25.91175
17,-2.682565212249756,-10.231797218322754,75.09611511230469,-1.112927994396557,3.799369221223383,-95.08680646451606,9.8125725,8.74059,14.56097,41.751522,-10.614831,-12.136926,-25.25607,-2.593763,-16.920847,17.334679,1.780958,-2.7443006,-5.0702376,0.26437792,-2.2387764,24.103725,12.978633,-74.61149,23.841145,14.088291,0.8304655,-20.176088,18.932058,-11.016699,76.91099,27.050219,-39.778854,1.1533439,25.637785
18,-2.8367152214050293,-10.879490852355957,75.27745056152344,-1.269849046159999,3.844101008454128,-94.91099379138596,8.132566,9.600886,14.068509,45.532993,-9.675397,-12.70036,-24.453173,-2.3556688,-17.143303,16.868128,1.480844,-2.9188378,-5.1011944,0.40219614,-2.2534719,24.035515,12.9324045,-74.729744,23.833235,13.766793,0.9689961,-20.203873,18.859404,-11.0750475,77.156425,26.901758,-39.713882,1.2861092,25.385296
19,-2.9799656867980957,-11.522409439086914,75.4472885131836,-1.4094137044495958,3.9106636640531134,-94.75129311067435,6.4052906,10.429013,13.597248,49.222694,-8.734292,-13.207429,-23.677774,-2.1111987,-17.32247,16.380196,1.1570635,-3.118818,-5.097504,0.514567,-2.2874599,23.94829,12.916527,-74.87975,23.811195,13.39305,1.1111733,-20.22446,18.81493,-11.110797,77.34708,26.741974,-39.659275,1.4208127,25.1936
20,-3.112630844116211,-12.141874313354492,75.62066650390625,-1.533881047961088,3.9838451583623944,-94.62142183569622,4.670075,11.165549,13.095926,52.665558,-7.772088,-13.5377445,-22.910671,-1.8573791,-17.452118,15.862394,0.8546842,-3.2631717,-5.081339,0.6183508,-2.3307374,23.884983,12.905549,-75.00803,23.798605,13.007557,1.2101413,-20.22677,18.787386,-11.158109,77.519165,26.593414,-39.600998,1.5359298,25.0926
21,-3.2629570960998535,-12.770565032958984,75.78799438476562,-1.6441058713895593,4.07500362689262,-94.52700149752307,2.8915799,11.826875,12.593893,55.894318,-6.639031,-13.649542,-22.160868,-1.585132,-17.516577,15.303787,0.57863075,-3.3376782,-5.0505805,0.7167914,-2.3945816,23.827036,12.898699,-75.12365,23.802572,12.532148,1.2557119,-20.1948,18.774548,-11.217587,77.67088,26.459919,-39.533756,1.6130489,25.133371
22,-3.403229236602783,-13.380143165588379,75.9406967163086,-1.737365920911861,4.187194630409606,-94.45934497811491,1.063229,12.434639,12.116886,58.96869,-5.391908,-13.613971,-21.434658,-1.3038198,-17.523472,14.715374,0.30558893,-3.3818264,-5.0011263,0.79822063,-2.4815862,23.768368,12.897942,-75.23784,23.819052,11.983807,1.2708479,-20.141235,18.777674,-11.245908,77.79198,26.359127,-39.466476,1.6679628,25.283842
23,-3.511773109436035,-13.980039596557617,76.07855987548828,-1.8115226145015249,4.293398457932334,-94.41087838946287,-0.7381923,12.925643,11.614692,61.781242,-4.3212037,-13.50225,-20.710766,-1.0368505,-17.503649,14.120967,0.037933104,-3.3957865,-4.941271,0.8631944,-2.5633535,23.724905,12.899046,-75.33274,23.84456,11.498406,1.2599131,-20.09354,18.801746,-11.297215,77.89043,26.245277,-39.405186,1.7302371,25.455465
24,-3.63930606842041,-14.567099571228027,76.20407104492188,-1.8640977097901297,4.366202585077477,-94.37307014116264,-2.435319,13.226049,11.036183,64.22553,-3.7219949,-13.399792,-19.971205,-0.8080004,-17.488945,13.551608,-0.22558881,-3.3809438,-4.876565,0.9065772,-2.6063116,23.68966,12.901768,-75.37802,23.882345,11.202195,1.2240924,-20.096197,18.833084,-11.335288,77.95431,26.162111,-39.366543,1.8162704,25.565548
25,-3.7403886318206787,-15.160177230834961,76.33397674560547,-1.888498820551887,4.395050130833364,-94.34577533250868,-4.0021048,13.248655,10.322175,66.25874,-3.8096564,-13.344204,-19.213097,-0.6312438,-17.489002,13.020455,-0.48943532,-3.322616,-4.8062544,0.9218448,-2.5977578,23.657625,12.903899,-75.37473,23.94168,11.15107,1.1482075,-20.162888,18.873491,-11.35132,77.97985,26.127167,-39.352974,1.9560653,25.57796
26,-3.853762149810791,-15.724173545837402,76.44395446777344,-1.8864095631487028,4.395300008972328,-94.33368258426282,-5.4781046,13.043366,9.530809,67.95084,-4.3836865,-13.300794,-18.442623,-0.49132073,-17.48666,12.505119,-0.7515779,-3.2262876,-4.7258215,0.911417,-2.557075,23.636707,12.905293,-75.334885,24.01934,11.274159,1.0369314,-20.26923,18.925251,-11.355994,77.97347,26.12279,-39.353832,2.132327,25.54117
27,-3.958251714706421,-16.293569564819336,76.55864715576172,-1.8755295886502,4.378337878511972,-94.33141308112606,-6.8969717,12.753669,8.772964,69.38096,-5.1241345,-13.246073,-17.670223,-0.36714354,-17.480877,12.010176,-1.011286,-3.123713,-4.6452675,0.8931409,-2.4981134,23.633877,12.906683,-75.247696,24.100088,11.497344,0.92169064,-20.400448,18.986298,-11.352312,77.94422,26.133385,-39.37413,2.2920697,25.498117
28,-4.054170608520508,-16.873689651489258,76.672607421875,-1.8736361889769235,4.3565667574415965,-94.33360788823894,-8.294776,12.528469,8.1499,70.61864,-5.706394,-13.15659,-16.90182,-0.2362891,-17.469318,11.528627,-1.263908,-3.0455003,-4.565297,0.88626015,-2.4385598,23.648916,12.90876,-75.12262,24.174404,11.734197,0.8356609,-20.532295,19.053627,-11.336536,77.900246,26.148825,-39.410988,2.3857002,25.485924
29,-4.151845932006836,-17.438081741333008,76.77706146240234,-1.882384537419059,4.331623913394216,-94.3320349365963,-9.696465,12.380952,7.6504827,71.66944,-6.073003,-13.002034,-16.145294,-0.10077152,-17.449429,11.077527,-1.5131217,-3.0035799,-4.4851384,0.89129364,-2.382982,23.688993,12.911923,-74.95657,24.246645,11.992307,0.78670245,-20.66336,19.137838,-11.312202,77.8316,26.159264,-39.470024,2.3961568,25.514977
30,-4.213376522064209,-18.027984619140625,76.88088989257812,-1.8948190643736822,4.297256626720046,-94.33183761005218,-11.080382,12.253412,7.2277265,72.50011,-6.3845344,-12.797509,-15.394066,0.03149063,-17.42311,10.652433,-1.7586105,-2.9795704,-4.4055815,0.900942,-2.3212836,23.751434,12.916749,-74.745285,24.318043,12.306703,0.7568295,-20.805305,19.234413,-11.278132,77.73979,26.17478,-39.548386,2.3510585,25.564781
31,-4.3381171226501465,-18.56311798095703,76.95896911621094,-1.9134524503537256,4.254561882464829,-94.3469489076479,-12.414625,12.188687,6.925252,73.11669,-6.6427,-12.588568,-14.634247,0.17172536,-17.393944,10.21582,-1.9902173,-2.957705,-4.3272133,0.91868,-2.2526145,23.838945,12.928534,-74.49406,24.369076,12.65059,0.74220777,-20.95366,19.324203,-11.203685,77.64611,26.233658,-39.640007,2.2691975,25.625353
32,-4.409834384918213,-19.131942749023438,77.04541015625,-1.9406804064879077,4.204914167835475,-94.39119021113603,-13.668107,12.229819,6.7865543,73.52719,-6.8522687,-12.421084,-13.852357,0.3298922,-17.365562,9.729626,-2.196463,-2.9216118,-4.2291718,0.9567401,-2.1764972,23.93261,12.940465,-74.2509,24.39578,12.976333,0.7413982,-21.090578,19.407433,-11.136291,77.5455,26.290943,-39.739834,2.1686757,25.693373
33,-4.481569290161133,-19.684354782104492,77.11488342285156,-1.980731833704849,4.137341221918233,-94.47527463693054,-14.814454,12.420492,6.859987,73.71751,-6.9665456,-12.344257,-13.031409,0.51322335,-17.348257,9.175749,-2.364363,-2.8772464,-4.111814,1.0239551,-2.0813248,24.04851,12.950649,-73.9959,24.387377,13.310989,0.7565439,-21.226664,19.47967,-11.083021,77.44105,26.346224,-39.86551,2.0322433,25.794329
34,-4.5416765213012695,-20.242624282836914,77.18528747558594,-2.0299766166331445,4.0547668471897635,-94.58971339728284,-15.875174,12.733007,7.1106815,73.68858,-7.000401,-12.318682,-12.181215,0.71361136,-17.33512,8.57325,-2.5006523,-2.8279371,-3.9912314,1.1078947,-1.9708873,24.192297,12.968257,-73.70285,24.342724,13.668251,0.7867041,-21.370487,19.532473,-10.999105,77.34381,26.444117,-40.00924,1.857959,25.918518
35,-4.61526346206665,-20.81004524230957,77.2401123046875,-2.0782519988898156,3.9802508427797565,-94.71885997239133,-16.889597,13.102741,7.4611053,73.468704,-7.048615,-12.255269,-11.335824,0.9160938,-17.303068,7.95436,-2.6325018,-2.7548919,-3.8607082,1.1964847,-1.8701352,24.345493,12.986802,-73.420044,24.2825,13.999647,0.8275888,-21.494864,19.586824,-10.922365,77.24382,26.53174,-40.138626,1.6864656,26.017023
36,-4.692574501037598,-21.373798370361328,77.2933349609375,-2.1155782555280442,3.9366486720598672,-94.84682274568895,-17.897112,13.461918,7.8315663,73.08503,-7.2065945,-12.068809,-10.519981,1.1086093,-17.231707,7.3316374,-2.776732,-2.6409843,-3.7357047,1.2698287,-1.8021035,24.493635,13.0101,-73.16192,24.21545,14.258024,0.8729182,-21.583725,19.64521,-10.845374,77.1591,26.609285,-40.217175,1.5605288,26.036041
37,-4.776793956756592,-21.943130493164062,77.3364028930664,-2.133182195566004,3.9394827037752873,-94.97845446752056,-18.915112,13.8093405,8.23633,72.537605,-7.523553,-11.698189,-9.805008,1.2686555,-17.101864,6.826251,-3.008552,-2.4733763,-3.6097472,1.3166614,-1.7833917,24.63833,13.040628,-72.93188,24.138708,14.42087,0.9327785,-21.631489,19.712343,-10.77006,77.088356,26.667908,-40.226498,1.4835205,25.95069
38,-4.83986234664917,-22.512319564819336,77.36063385009766,-2.1377311652974513,3.973832508423975,-95.11978243370356,-19.91685,14.169822,8.707949,71.81365,-7.9446597,-11.2081175,-9.342251,1.3478429,-16.933931,6.8043165,-3.5131724,-2.2630427,-3.4799871,1.347038,-1.7984581,24.7881,13.080073,-72.717735,24.044136,14.517869,1.0069836,-21.64862,19.78559,-10.696067,77.02673,26.71435,-40.1906,1.4356707,25.793016
39,-4.877656936645508,-23.089397430419922,77.39421844482422,-2.1423184943587534,4.017231471284437,-95.2571974029549,-20.875856,14.517898,9.196948,70.91524,-8.402428,-10.696004,-8.888709,1.4227816,-16.75643,6.7840223,-4.0192704,-2.0359387,-3.3586023,1.3769519,-1.8222244,24.935888,13.127455,-72.52356,23.93884,14.580517,1.0746263,-21.638979,19.854046,-10.624102,76.97887,26.758362,-40.12971,1.4240111,25.596209
40,-4.930845737457275,-23.654306411743164,77.41264343261719,-2.1602157547475693,4.0469378827473195,-95.37658759965719,-21.76771,14.8307495,9.654464,69.846214,-8.828876,-10.256196,-8.4206705,1.4983252,-16.600546,6.77111,-4.5137167,-1.812501,-3.2590535,1.4229451,-1.829236,25.066334,13.179539,-72.35552,23.834421,14.631379,1.11471,-21.606693,19.906681,-10.555004,76.95019,26.806282,-40.064102,1.4556597,25.393639
41,-4.985152721405029,-24.231199264526367,77.42235565185547,-2.1990190393199236,4.0545828244071815,-95.47264100065715,-22.579668,15.112556,10.079378,68.5903,-9.247282,-9.90135,-7.925379,1.5813336,-16.465893,6.759812,-4.978239,-1.5878191,-3.1891568,1.4958618,-1.8117065,25.174013,13.233097,-72.21473,23.73181,14.650962,1.1155777,-21.543104,19.944147,-10.490554,76.938896,26.86135,-39.972507,1.546409,25.176165
42,-5.013672828674316,-24.825559616088867,77.4297103881836,-2.2505078255278472,4.053162367671013,-95.55330952850433,-23.325098,15.369342,10.495959,67.1481,-9.679179,-9.586947,-7.4187813,1.6668563,-16.338816,6.752284,-5.4273195,-1.3528731,-3.1392474,1.5874234,-1.7843364,25.26968,13.271986,-72.099304,23.642555,14.642311,1.0902171,-21.44748,19.975069,-10.447174,76.9402,26.899988,-39.85239,1.686979,24.933897
43,-5.056829929351807,-25.38861846923828,77.44003295898438,-2.304336086255649,4.051954421780118,-95.62417020987773,-24.02205,15.584174,10.892431,65.551285,-10.053788,-9.318404,-6.9120207,1.7448733,-16.230064,6.7483673,-5.8770785,-1.1214426,-3.1053007,1.6779989,-1.7531285,25.353033,13.322595,-72.00264,23.550726,14.640711,1.0545121,-21.341784,19.988228,-10.394801,76.96896,26.95449,-39.753696,1.8498389,24.691906
44,-5.103302955627441,-25.951486587524414,77.42827606201172,-2.3506512920361624,4.060017638239191,-95.69063124176508,-24.688719,15.741834,11.25762,63.831913,-10.3004,-9.099381,-6.416734,1.8054458,-16.150896,6.749039,-6.344245,-0.90753037,-3.0695634,1.7540603,-1.7252518,25.413017,13.375479,-71.938225,23.478382,14.681141,1.0249879,-21.241009,19.986868,-10.342861,77.0196,27.0111,-39.731384,2.005487,24.481842
45,-5.140329837799072,-26.541391372680664,77.4098129272461,-2.3861471467545945,4.0779410046413345,-95.76011485163366,-25.3219,15.84353,11.6036215,61.97789,-10.391154,-8.945161,-5.9353094,1.840619,-16.114365,6.75021,-6.8309565,-0.7074872,-3.0175002,1.8153645,-1.6995687,25.436451,13.398696,-71.917816,23.46269,14.768434,1.0067712,-21.156042,19.973808,-10.3211775,77.085594,27.040852,-39.822956,2.1495218,24.320738
46,-5.183750629425049,-27.123546600341797,77.38259887695312,-2.417180639708261,4.101402897380968,-95.82732534318176,-25.911604,15.895067,11.933563,59.973164,-10.364228,-8.848409,-5.462166,1.8579744,-16.112185,6.754692,-7.330024,-0.5155477,-2.9901044,1.8661,-1.6731721,25.459799,13.445447,-71.89856,23.425674,14.892766,0.9938993,-21.083826,19.929895,-10.27911,77.2106,27.107454,-39.981327,2.30213,24.177177
47,-5.202094078063965,-27.697980880737305,77.34673309326172,-2.4593755316926673,4.131192770495227,-95.8800913924124,-26.467323,15.900753,12.214416,57.84096,-10.245819,-8.776836,-4.9961705,1.8831059,-16.124222,6.7709794,-7.841913,-0.34317666,-2.960286,1.9216529,-1.6485903,25.456465,13.483826,-71.919655,23.422953,15.049742,0.97573155,-20.993149,19.880482,-10.245268,77.33557,27.161697,-40.165726,2.45379,24.05238
48,-5.24075984954834,-28.266868591308594,77.32670593261719,-2.5215821523447635,4.168804290270243,-95.90674335514326,-26.99501,15.860999,12.418047,55.599007,-10.060288,-8.694082,-4.5270977,1.9365933,-16.127686,6.787703,-8.357091,-0.20118792,-2.9445708,1.9891162,-1.6289318,25.42605,13.504859,-71.97193,23.462626,15.241018,0.9444388,-20.862602,19.831861,-10.226692,77.45732,27.195684,-40.32277,2.6014576,23.933718
49,-5.271014213562012,-28.85603904724121,77.28628540039062,-2.6103522580585232,4.220590640158774,-95.8930143804252,-27.518612,15.768862,12.49395,53.25117,-9.804985,-8.570147,-4.0561953,2.030969,-16.112833,6.804917,-8.881742,-0.09920186,-2.9654622,2.0709624,-1.6232665,25.38503,13.532781,-72.04512,23.518925,15.470369,0.90970486,-20.708998,19.77972,-10.200469,77.59938,27.236149,-40.44718,2.7421737,23.84553
50,-5.30518913269043,-29.43991470336914,77.23453521728516,-2.718247743308795,4.28354608182014,-95.849567766781,-28.02372,15.63134,12.470896,50.7851,-9.467533,-8.42465,-3.5842435,2.1526568,-16.091194,6.822216,-9.415476,-0.02911932,-3.0026612,2.162285,-1.6253886,25.31788,13.554306,-72.14983,23.610022,15.732457,0.8707076,-20.538141,19.726305,-10.179167,77.74305,27.267166,-40.57036,2.8744292,23.790098
51,-5.345340251922607,-30.038005828857422,77.18058013916016,-2.8365417241238697,4.345205137736318,-95.8009581556498,-28.46057,15.474895,12.43409,48.19371,-9.064262,-8.296683,-3.1080346,2.2842176,-16.07288,6.8396764,-9.943991,0.024145879,-3.0435197,2.2572045,-1.6215034,25.236597,13.577292,-72.27765,23.71235,16.032997,0.8123052,-20.30797,19.662151,-10.154029,77.894585,27.30052,-40.6652,3.0161424,23.693176
52,-5.365922927856445,-30.639833450317383,77.1282730102539,-2.9560990346406566,4.392853095824709,-95.77208531327466,-28.780014,15.325195,12.469132,45.46602,-8.608812,-8.226766,-2.622446,2.408468,-16.067986,6.856924,-10.453899,0.07642652,-3.0655177,2.3486452,-1.5962205,25.148045,13.604848,-72.42368,23.811985,16.381603,0.71789944,-19.979044,19.584087,-10.118486,78.04034,27.34149,-40.713795,3.1799223,23.487137
53,-5.391455173492432,-31.24567222595215,77.06302642822266,-3.0795217512960225,4.418078120694977,-95.76682278915828,-28.96401,15.201002,12.580509,42.58282,-8.09437,-8.225261,-2.1231146,2.5231402,-16.092236,6.872556,-10.932192,0.122018576,-3.0666022,2.4405258,-1.535155,25.026768,13.62137,-72.58819,23.925344,16.780956,0.5803237,-19.562254,19.487278,-10.091511,78.17398,27.3689,-40.692394,3.377753,23.127893
54,-5.407817840576172,-31.837146759033203,76.99442291259766,-3.210923779598737,4.428290719451505,-95.77369107156012,-29.034845,15.089401,12.727593,39.54339,-7.5114,-8.268118,-1.6128707,2.6372457,-16.134804,6.8882704,-11.389704,0.15658657,-3.0535784,2.535805,-1.4505064,24.892527,13.632296,-72.77386,24.048157,17.240011,0.4125187,-19.068718,19.37576,-10.063291,78.30256,27.39358,-40.61524,3.6004112,22.658474
55,-5.405414581298828,-32.44163513183594,76.92362213134766,-3.344391030466379,4.433440046911966,-95.79444933435057,-29.003393,14.967949,12.927902,36.362595,-6.868935,-8.345097,-1.0951396,2.7511196,-16.166006,6.9023156,-11.845064,0.19819476,-3.0335755,2.6288989,-1.35738,24.752285,13.634879,-72.96932,24.184177,17.726885,0.22244363,-18.470507,19.257673,-10.0437975,78.43267,27.411272,-40.526764,3.8219073,22.153608
56,-5.433379173278809,-33.053348541259766,76.84455871582031,-3.47459406565379,4.443252869199323,-95.83187360787025,-28.878523,14.815601,13.199188,33.049202,-6.1735287,-8.44534,-0.5747895,2.8651192,-16.155804,6.916138,-12.318523,0.26447552,-2.998668,2.7173507,-1.2767285,24.62485,13.63033,-73.19032,24.33355,18.213352,0.023683686,-17.726036,19.141172,-10.022495,78.57085,27.438663,-40.46229,4.0232053,21.680029
57,-5.430918216705322,-33.67860794067383,76.75498962402344,-3.606494983519721,4.458861738058645,-95.89917176855536,-28.624552,14.644497,13.597815,29.513338,-5.3795705,-8.5651865,-0.055002473,2.9867547,-16.08277,6.932133,-12.8157835,0.36541218,-2.9416065,2.8048623,-1.2078145,24.51257,13.61682,-73.43023,24.502182,18.695387,-0.20301545,-16.763985,19.024801,-10.004549,78.72056,27.47737,-40.432858,4.198419,21.237741
58,-5.4245924949646,-34.31278991699219,76.65229034423828,-3.748137926939866,4.469504617376006,-95.99753255602609,-28.22516,14.470841,14.098902,25.739557,-4.4796324,-8.707855,0.47482908,3.1218262,-15.9616785,6.947133,-13.325901,0.488614,-2.8576076,2.8998098,-1.1374624,24.399055,13.589441,-73.69736,24.694527,19.179697,-0.4511568,-15.620492,18.907862,-9.989122,78.87764,27.524652,-40.418728,4.3607717,20.794542
59,-5.423385143280029,-34.94630432128906,76.548583984375,-3.901878928965408,4.464387035691251,-96.11410427861188,-27.719664,14.286221,14.596619,21.855074,-3.5397272,-8.873101,1.0266916,3.2702048,-15.814952,6.9612913,-13.844474,0.6171325,-2.7651365,3.0031223,-1.0542035,24.299807,13.5563135,-73.95875,24.884441,19.69408,-0.6806687,-14.446584,18.789404,-9.981211,79.03821,27.563576,-40.420383,4.5077515,20.385336
60,-5.425557613372803,-35.597740173339844,76.42708587646484,-4.07156291854196,4.431572566720952,-96.2376242977157,-27.14404,14.086914,14.9877,17.984577,-2.629149,-9.061351,1.6135942,3.433717,-15.66271,6.975152,-14.367801,0.7338786,-2.6716359,3.1188922,-0.9483224,24.21846,13.515812,-74.204544,25.061401,20.249798,-0.85046536,-13.384881,18.670732,-9.979102,79.19527,27.586084,-40.43631,4.63975,20.041428
61,-5.406598091125488,-36.25004959106445,76.30474853515625,-4.267575320401795,4.35709995892421,-96.37006464214102,-26.47151,13.857473,15.180151,14.042689,-1.7212968,-9.311254,2.2513032,3.6222088,-15.508824,6.9858537,-14.894504,0.8276892,-2.58133,3.2564132,-0.8033436,24.148054,13.463675,-74.43585,25.231264,20.84659,-0.94581115,-12.442083,18.544441,-9.98467,79.354965,27.583897,-40.468845,4.755025,19.777624
62,-5.413175106048584,-36.92013168334961,76.15682220458984,-4.5052132977016885,4.23426361084432,-96.53512547958948,-25.624916,13.640732,15.26702,9.892748,-0.7396362,-9.606185,2.9446425,3.8556626,-15.322736,6.994739,-15.428278,0.90608716,-2.4709609,3.4300308,-0.61229676,24.09917,13.415063,-74.65052,25.378645,21.484962,-0.98950416,-11.556211,18.40998,-9.998099,79.5187,27.563715,-40.518463,4.8541675,19.575672
63,-5.410284996032715,-37.582191467285156,76.0055923461914,-4.773473546214582,4.079550117314622,-96.73511100965725,-25.185968,13.62871,15.283257,6.8607535,-0.34152293,-9.86992,3.6729186,4.1228924,-15.08945,7.0049624,-15.96736,0.9847018,-2.3267798,3.6324418,-0.3993435,24.055582,13.348635,-74.85699,25.525675,22.135555,-1.0001293,-10.758017,18.288683,-10.026985,79.67515,27.528313,-40.583027,4.943358,19.416101
64,-5.381224155426025,-38.24496078491211,75.84587097167969,-5.039154027863509,3.9268534191772058,-96.95227986659388,-25.9592,14.009561,15.208671,6.6969743,-1.4045117,-10.033944,4.4011297,4.3872066,-14.814806,7.017521,-16.509409,1.0832013,-2.159547,3.830167,-0.20143029,24.029997,13.293444,-75.033806,25.63931,22.794926,-1.0017124,-10.091167,18.191175,-10.058563,79.81095,27.495525,-40.65992,5.0228076,19.2827
65,-5.3603835105896,-38.92204284667969,75.67543029785156,-5.289452422691892,3.7962589096023605,-97.17818698581598,-26.662413,14.398668,15.382142,6.5846286,-2.497529,-10.0824,5.1097407,4.636086,-14.492904,7.0302396,-17.058767,1.2197872,-1.9783074,4.012891,-0.03919393,24.00034,13.222404,-75.19435,25.75587,23.484295,-1.0135751,-9.504765,18.118578,-10.106722,79.932755,27.45773,-40.75053,5.095832,19.173365
66,-5.338525772094727,-39.60665512084961,75.50137329101562,-5.523289630423706,3.6864737272306574,-97.40239924851252,-27.31695,14.773235,15.711789,6.5193424,-3.6171176,-10.062912,5.8011465,4.8646092,-14.144978,7.0457826,-17.616459,1.3832446,-1.7966594,4.1770997,0.090891145,24.001112,13.156793,-75.325066,25.848433,24.229101,-1.0222425,-9.002054,18.065735,-10.157209,80.04171,27.420998,-40.85815,5.1586275,19.096731
67,-5.310005187988281,-40.31004333496094,75.34418487548828,-5.706547985585564,3.6029177296877655,-97.59404689427112,-27.86003,15.081175,16.20678,6.4362416,-4.5902824,-9.9994545,6.4702315,5.0252094,-13.829184,7.0648017,-18.167164,1.55255,-1.641838,4.2852826,0.18494381,23.996181,13.116828,-75.4351,25.902948,24.904474,-1.0038453,-8.687649,18.029621,-10.192233,80.12725,27.401798,-40.970207,5.206653,19.047977
68,-5.305345058441162,-40.979652404785156,75.1800308227539,-5.852023478600398,3.5400260835429527,-97.74188431684533,-28.26802,15.343837,16.850393,6.3678956,-5.2948227,-9.924031,7.1241403,5.128545,-13.586477,7.0830417,-18.694965,1.6974243,-1.518142,4.3519454,0.24498193,23.99689,13.079043,-75.5289,25.93417,25.43819,-0.93428755,-8.656691,18.020283,-10.2310095,80.178474,27.376905,-41.073185,5.241801,19.022816
69,-5.285105228424072,-41.67478942871094,75.02305603027344,-5.973122932032213,3.4828795737646954,-97.84388892308615,-28.518415,15.589964,17.768726,6.357347,-5.7821894,-9.992726,7.7798533,5.18786,-13.431492,7.10024,-19.198872,1.7963544,-1.4370033,4.392133,0.28452718,23.998259,13.059753,-75.59348,25.914112,25.788998,-0.79080784,-9.030433,18.038416,-10.258776,80.190895,27.37341,-41.193256,5.247353,19.023422
70,-5.260321140289307,-42.36107635498047,74.8631362915039,-6.083388944911566,3.419979961118814,-97.9216295191107,-28.590166,15.822894,18.933361,6.3366838,-6.067363,-10.1463375,8.44468,5.2257347,-13.326217,7.1207952,-19.688236,1.8634316,-1.374357,4.418193,0.31471974,24.016394,13.053555,-75.63265,25.851658,26.023489,-0.5942086,-9.720008,18.082685,-10.278721,80.17469,27.383638,-41.324078,5.2338996,19.048046
71,-5.24826717376709,-43.0328369140625,74.71224975585938,-6.11060969907609,3.4206790839624874,-97.93274624932201,-28.63497,15.923547,20.062151,6.394901,-6.0918674,-10.0558,9.050531,5.1617527,-13.302706,7.138868,-20.157576,1.9460484,-1.3607528,4.351395,0.2790923,24.019602,13.055736,-75.66407,25.782568,26.157818,-0.39403898,-10.53255,18.144863,-10.2922535,80.130615,27.38154,-41.42055,5.2230573,19.096756
72,-5.239982604980469,-43.72039031982422,74.57682037353516,-5.941809620247,3.547989690152347,-97.81839548746413,-28.711952,15.697757,20.90892,6.452241,-5.7280045,-9.3783,9.537086,4.8657656,-13.411721,7.159912,-20.611061,2.1028378,-1.4387192,4.0791664,0.12890874,23.96974,13.071616,-75.71203,25.734758,26.199953,-0.24318114,-11.277654,18.21395,-10.309293,80.03906,27.345516,-41.438026,5.225456,19.170944
73,-5.220126152038574,-44.37825393676758,74.50492095947266,-5.518097148396877,3.851978318663386,-97.52547491840093,-28.857876,15.069567,21.404066,6.542347,-4.891705,-7.773356,9.8543625,4.2790947,-13.708583,7.183003,-21.06816,2.3534486,-1.6639651,3.533499,-0.17895976,23.855938,13.111787,-75.78429,25.714874,26.122017,-0.15729655,-11.93308,18.291979,-10.315952,79.90394,27.27026,-41.335197,5.2643304,19.270308
74,-5.214598655700684,-45.0394172668457,74.47156524658203,-4.900895369421193,4.279007526339199,-97.08754638760433,-29.026558,14.151276,21.695763,6.687068,-3.6838076,-5.4867682,10.056763,3.4764023,-14.164598,7.207212,-21.521267,2.667849,-2.0201786,2.7822545,-0.6062417,23.70135,13.173066,-75.85755,25.70452,25.927322,-0.10618331,-12.592577,18.379084,-10.294823,79.74436,27.190678,-41.141674,5.327019,19.390478
75,-5.203806400299072,-45.71839904785156,74.41775512695312,-4.217041956321329,4.736091821133075,-96.61353105349988,-29.176111,13.120246,21.84462,6.8137865,-2.248134,-3.0748668,10.233556,2.600168,-14.666878,7.231912,-21.92658,3.0112605,-2.3930497,1.9658505,-1.077249,23.540596,13.269036,-75.91967,25.658817,25.684639,-0.06265075,-13.231339,18.466532,-10.232353,79.57978,27.140846,-40.91851,5.39083,19.521355
76,-5.166274070739746,-46.416046142578125,74.35775756835938,-3.6393460406510694,5.125635524286569,-96.21976950934916,-29.29871,12.211821,21.857328,6.937269,-0.7651601,-1.1088444,10.462741,1.8393801,-15.096659,7.2897973,-22.263163,3.3390696,-2.6889753,1.2673756,-1.5006658,23.401949,13.36012,-75.932045,25.578016,25.46184,-0.0047336374,-13.825202,18.53734,-10.158227,79.46343,27.119274,-40.716526,5.437803,19.650955
77,-5.133098125457764,-47.1182975769043,74.27864837646484,-3.1671827866862405,5.467230831825801,-95.94704354202302,-30.704355,11.958183,21.428934,9.91527,-0.6365717,0.2664906,10.728923,1.1849115,-15.429984,7.354032,-22.550013,3.6492286,-2.8589878,0.67952955,-1.8969867,23.301601,13.487661,-75.88088,25.405378,25.265896,0.075362906,-14.349909,18.592678,-10.04543,79.38735,27.149765,-40.554173,5.4758515,19.774265
78,-5.091414451599121,-47.81694030761719,74.2035903930664,-2.7472270846255618,5.788293431009829,-95.74507317938473,-32.141296,11.781172,20.837816,12.995525,-0.36270702,1.3684125,11.007224,0.57758254,-15.711526,7.4251084,-22.793509,3.9556394,-2.9592447,0.1454749,-2.2854748,23.218718,13.615403,-75.7755,25.194077,25.066578,0.16337357,-14.823595,18.637033,-9.927572,79.34515,27.192297,-40.397514,5.512829,19.899569
79,-5.036979675292969,-48.52052307128906,74.12550354003906,-2.4026900951025647,6.031303379491679,-95.60379685067258,-33.404037,11.651157,20.205732,15.897444,-0.045530938,2.2776136,11.354805,0.050708804,-15.917915,7.505347,-22.909866,4.244848,-2.9868374,-0.3092607,-2.598483,23.134478,13.740376,-75.66543,24.974846,24.867079,0.25441006,-15.287396,18.668802,-9.810302,79.32595,27.245424,-40.24223,5.520194,20.033314
80,-4.9740166664123535,-49.22267150878906,74.06459045410156,-2.153437272945816,6.141971729701081,-95.50694605118734,-34.413876,11.584938,19.618216,18.614738,0.062499564,3.0636086,11.828374,-0.3661542,-16.032726,7.5953083,-22.8086,4.5028515,-2.9467907,-0.6611226,-2.772525,23.036263,13.859867,-75.59621,24.777245,24.67595,0.34349424,-15.782729,18.687885,-9.697971,79.321075,27.30766,-40.08493,5.469917,20.181602
81,-4.915243148803711,-49.92460250854492,74.0068588256836,-2.0184541719651126,6.088905302138992,-95.44694703577717,-35.180244,11.593292,19.014946,21.227594,-0.14837821,3.6961644,12.460625,-0.6525723,-16.01112,7.7009873,-22.477251,4.712068,-2.833966,-0.89764196,-2.7682076,22.91129,13.972321,-75.577484,24.610182,24.522646,0.44724378,-16.36507,18.691067,-9.593535,79.3295,27.366028,-39.922405,5.3622847,20.359001
82,-4.84805154800415,-50.638450622558594,73.96366882324219,-1.964061800300724,5.91843293293443,-95.42239361200227,-35.765392,11.651534,18.355165,23.753555,-0.5482591,4.150423,13.200609,-0.8617135,-15.885483,7.825606,-21.96233,4.882764,-2.657881,-1.0505804,-2.6385663,22.767565,14.076781,-75.586266,24.462053,24.392998,0.5616646,-16.997383,18.679956,-9.498725,79.35533,27.419613,-39.75645,5.209337,20.558966
83,-4.745797634124756,-51.3651123046875,73.94644927978516,-1.9259308586214239,5.695210599354976,-95.42908421929809,-36.150894,11.716224,17.76864,26.050694,-1.0127221,4.4949174,13.450209,-1.2311665,-15.74269,9.135346,-21.882826,5.048852,-2.4444668,-1.1689874,-2.46283,22.623451,14.171857,-75.618095,24.33175,24.229195,0.65135336,-17.581581,18.662167,-9.414735,79.39812,27.487474,-39.59067,5.0005865,20.755234
84,-4.672869682312012,-52.06682586669922,73.94026184082031,-1.8391534513661436,5.483694773227426,-95.46579526683172,-36.309666,11.740173,17.396763,27.963808,-1.4132524,4.7971606,13.194282,-1.8195952,-15.671253,11.513038,-22.18022,5.239604,-2.2171717,-1.304308,-2.3185854,22.4978,14.255952,-75.668564,24.218115,23.972921,0.68170446,-18.019558,18.640879,-9.342329,79.458374,27.590832,-39.424286,4.725479,20.922245
85,-4.600525856018066,-52.780662536621094,73.94950103759766,-1.66453605557398,5.293462678684927,-95.54821038529565,-36.21333,11.700032,17.328869,29.452837,-1.7045631,5.0587096,12.886259,-2.533916,-15.702061,13.974577,-22.358767,5.5222073,-1.95573,-1.4925042,-2.217005,22.373865,14.324062,-75.7687,24.143045,23.582708,0.6177884,-18.22716,18.626661,-9.285014,79.52799,27.741667,-39.267796,4.328787,21.078377
86,-4.511764049530029,-53.50022888183594,73.9789047241211,-1.4249515162967927,5.1005382560898695,-95.67253177861042,-35.8897,11.608564,17.488554,30.608395,-1.961595,5.2423134,12.526768,-3.3569443,-15.779208,16.571478,-22.435238,5.8588448,-1.6624776,-1.717363,-2.126623,22.249922,14.35627,-75.90168,24.12084,23.102695,0.48423275,-18.277407,18.612091,-9.258848,79.615814,27.91013,-39.11297,3.8338413,21.231596
87,-4.412348747253418,-54.219703674316406,74.0234375,-1.1501452086966366,4.917970499588744,-95.81051347509552,-35.401638,11.468064,17.77126,31.482649,-2.2334383,5.35331,12.077631,-4.2658873,-15.878632,19.306427,-22.368694,6.118888,-1.3736076,-1.9552436,-2.0621212,22.157011,14.385848,-76.021576,24.09071,22.582159,0.34131685,-18.303726,18.590406,-9.235397,79.725395,28.09446,-38.951824,3.3467512,21.334589
88,-4.291837692260742,-54.935699462890625,74.09362030029297,-0.8689310021952699,4.758249986502831,-95.93416372131095,-34.813095,11.278453,18.076715,32.126038,-2.5705848,5.3980975,11.503977,-5.236617,-15.984486,22.17746,-22.110828,6.186455,-1.1408978,-2.1827955,-2.0380569,22.127035,14.410305,-76.05809,24.023746,22.078663,0.24686149,-18.442974,18.554268,-9.217047,79.87324,28.263021,-38.77777,2.9731395,21.343506
89,-4.1802215576171875,-55.66465759277344,74.18890380859375,-0.5923779013391834,4.62918506465499,-96.04530903995091,-34.11512,11.030665,18.402603,32.500202,-2.995449,5.3423405,10.811901,-6.2495794,-16.113253,25.163214,-21.581837,5.9910045,-0.98744583,-2.3900688,-2.0736885,22.190046,14.44211,-75.95526,23.885197,21.59343,0.21357971,-18.782711,18.484703,-9.195412,80.116135,28.431915,-38.564453,2.7688138,21.20292
90,-4.061395168304443,-56.3763313293457,74.29393005371094,-0.30348661540909344,4.523150392233369,-96.15463210756681,-33.28683,10.711356,18.796085,32.590805,-3.4724798,5.1884522,10.046007,-7.3097057,-16.278467,28.217962,-20.798412,5.626089,-0.88198644,-2.59104,-2.156499,22.319923,14.47243,-75.76278,23.705334,21.10112,0.2130512,-19.233345,18.399284,-9.1780405,80.42061,28.600855,-38.33328,2.6653392,20.952785
91,-3.9419424533843994,-57.08278274536133,74.41981506347656,0.0060021118969821275,4.428436332162503,-96.24712844415325,-32.37408,10.318145,19.225208,32.48196,-3.9629707,4.9972925,9.230636,-8.419306,-16.454979,31.29851,-19.854166,5.2125554,-0.8070579,-2.797162,-2.25565,22.479923,14.494279,-75.558174,23.519527,20.624155,0.24302758,-19.664604,18.308857,-9.168235,80.70364,28.751112,-38.11112,2.5897841,20.682364
92,-3.822087049484253,-57.78812789916992,74.55003356933594,0.3416583034444978,4.332642904813877,-96.30705970236198,-31.41813,9.852335,19.650782,32.24976,-4.4215,4.8272133,8.389757,-9.570899,-16.607035,34.358032,-18.850502,4.857763,-0.8103567,-3.0287168,-2.343613,22.664951,14.518193,-75.33565,23.331633,20.201044,0.2930709,-19.961843,18.211794,-9.161037,80.96542,28.8794,-37.913967,2.4815824,20.467787
93,-3.701174736022949,-58.48322677612305,74.68453216552734,0.7120465694315923,4.226748567753139,-96.32392758165132,-30.403233,9.292395,20.072018,31.875484,-4.851813,4.6819096,7.522944,-10.765774,-16.707777,37.424923,-17.774746,4.631592,-0.8759581,-3.2871459,-2.412076,22.875563,14.542953,-75.1351,23.144596,19.824863,0.3726679,-20.060373,18.104628,-9.157986,81.165634,28.97911,-37.77337,2.3094864,20.352201
94,-3.5432827472686768,-59.155799865722656,74.82593536376953,1.1023729068973038,4.116956659662177,-96.30620721285844,-29.320444,8.647191,20.4932,31.33051,-5.2717857,4.5344367,6.6221547,-11.985329,-16.782429,40.515762,-16.58718,4.4766555,-0.9973668,-3.554522,-2.4760666,23.116001,14.569224,-74.93687,22.949785,19.480236,0.48029146,-20.034277,17.990725,-9.159455,81.32606,29.056847,-37.674152,2.1127625,20.285341
95,-3.4126181602478027,-59.83699035644531,74.9697036743164,1.4828714952647484,4.0135081962651675,-96.26652675707908,-28.221378,7.969121,20.884342,30.684855,-5.662296,4.397758,5.685311,-13.205941,-16.872175,43.595226,-15.362999,4.301301,-1.1542486,-3.8075771,-2.5373015,23.355167,14.598368,-74.74794,22.76141,19.181505,0.5951319,-19.958817,17.888756,-9.165093,81.432594,29.10856,-37.571552,1.921171,20.221716
96,-3.2961959838867188,-60.52485275268555,75.11699676513672,1.8266691070404393,3.92699516927067,-96.21716124669399,-27.159273,7.3119373,21.220037,30.016954,-6.0089173,4.284758,4.7041535,-14.421056,-17.018923,46.640404,-14.183067,3.9986005,-1.3098023,-4.0245385,-2.597437,23.552027,14.624944,-74.59663,22.606928,18.936716,0.69899505,-19.905565,17.835136,-9.172797,81.44638,29.130608,-37.43885,1.7615293,20.118444
97,-3.1861350536346436,-61.1867561340332,75.26107788085938,2.1250080116028554,3.8626363761336866,-96.14591773998757,-26.15178,6.682482,21.483028,29.343588,-6.307442,4.2093377,3.6644871,-15.664271,-17.259542,49.71209,-13.057732,3.544604,-1.4749169,-4.1961904,-2.662118,23.701925,14.640788,-74.48733,22.499866,18.730911,0.7902011,-19.84968,17.837975,-9.178251,81.35739,29.11952,-37.23589,1.6481291,19.928421
98,-3.060542106628418,-61.8391227722168,75.40543365478516,2.39170434633993,3.812674554793204,-96.04981693123445,-25.168594,6.0574145,21.689703,28.627634,-6.5675607,4.16235,2.5702972,-16.94448,-17.56354,52.821964,-11.958606,2.9787686,-1.664674,-4.335654,-2.7249675,23.82966,14.660367,-74.39296,22.41374,18.573565,0.8746963,-19.775412,17.878536,-9.185447,81.178635,29.074549,-36.994576,1.5592544,19.691257
99,-2.9202611446380615,-62.48272705078125,75.54985046386719,2.6345828429420473,3.7698021896025975,-95.95602055537472,-24.191051,5.446868,21.868484,27.870525,-6.798193,4.1218038,1.4386683,-18.227108,-17.875116,55.868656,-10.907497,2.2798328,-1.8390934,-4.450125,-2.7768493,23.918238,14.683029,-74.34222,22.348494,18.482462,0.95514566,-19.744122,17.949617,-9.194142,80.92363,29.010946,-36.77329,1.4808468,19.480034
100,-2.7726869583129883,-63.111473083496094,75.68450164794922,2.862593470034723,3.726987487544267,-95.89144241018873,-23.198711,4.856696,22.049229,27.066624,-7.004613,4.066458,0.280584,-19.474901,-18.13895,58.75079,-9.922557,1.4298085,-1.9810282,-4.551727,-2.8093462,23.96931,14.704429,-74.32533,22.301188,18.493132,1.0295888,-19.82611,18.032644,-9.202902,80.63037,28.948198,-36.623554,1.39993,19.366655
101,-2.6497390270233154,-63.7252197265625,75.81503295898438,3.078550370901641,3.6799002627754804,-95.86889563622304,-22.183834,4.288179,22.243315,26.213306,-7.1907973,3.99628,-0.9420866,-20.758432,-18.384626,61.540253,-8.870648,0.2656075,-2.0966012,-4.642506,-2.8123145,23.97584,14.71571,-74.32208,22.276228,18.657095,1.1066654,-20.128906,18.125317,-9.209155,80.30239,28.892603,-36.560318,1.3240222,19.383972
102,-2.500626802444458,-64.32842254638672,75.9433364868164,3.283108764776846,3.6325874330685655,-95.87252946033465,-21.155413,3.731737,22.438826,25.309036,-7.351053,3.924712,-2.2302732,-22.098497,-18.629776,64.27226,-7.794567,-1.1714525,-2.1784432,-4.72102,-2.7898445,23.932615,14.721719,-74.35742,22.277412,18.938757,1.182871,-20.584288,18.237963,-9.21515,79.904205,28.830374,-36.557373,1.2538104,19.492422
103,-2.3830478191375732,-64.9358139038086,76.07158660888672,3.472150550775557,3.5922134951053475,-95.88557100769812,-20.124466,3.1883192,22.62382,24.359266,-7.4792137,3.8487802,-3.5194426,-23.338966,-18.799007,66.774414,-6.9744387,-2.5684555,-2.244009,-4.789253,-2.7629488,23.867836,14.721946,-74.42492,22.302172,19.25858,1.2360905,-21.008707,18.364313,-9.220756,79.485794,28.76793,-36.59795,1.1770563,19.643194
104,-2.276346206665039,-65.54119110107422,76.1954574584961,3.639861086016155,3.5679754275810387,-95.89475385893043,-19.104012,2.6645038,22.788944,23.371254,-7.573665,3.7635522,-4.7630153,-24.289803,-18.798117,68.89093,-6.692675,-3.5817125,-2.320725,-4.8492217,-2.7541611,23.80616,14.716249,-74.50499,22.346924,19.53036,1.2455609,-21.220877,18.485031,-9.22519,79.11689,28.71869,-36.653603,1.0838238,19.78515
105,-2.2134227752685547,-66.13430786132812,76.31468963623047,3.778791770615166,3.574046285702103,-95.89866378811249,-18.118896,2.1778278,22.93684,22.367386,-7.642187,3.6670485,-5.966234,-24.81956,-18.548405,70.56869,-7.222041,-4.042907,-2.4015176,-4.8930755,-2.7807763,23.745975,14.704464,-74.614174,22.420963,19.759834,1.190888,-21.135204,18.611433,-9.2288,78.78616,28.682774,-36.73679,0.96332854,19.920713
106,-2.0987768173217773,-66.72601318359375,76.43190002441406,3.890585767446335,3.6034707960287915,-95.90641848766498,-17.157112,1.7272567,23.073881,21.343027,-7.688103,3.5618358,-7.1660933,-25.025017,-18.114521,71.91503,-8.354133,-4.146604,-2.477144,-4.919544,-2.8282077,23.67236,14.685293,-74.75357,22.52448,19.978752,1.0898867,-20.8607,18.741697,-9.231595,78.47299,28.65616,-36.849464,0.82410717,20.07075
107,-2.00551700592041,-67.30963897705078,76.54454040527344,3.9864079266521104,3.634201578161089,-95.91781601802887,-16.190031,1.2927179,23.193848,20.287804,-7.7053356,3.4490948,-8.369777,-25.058153,-17.614422,73.02286,-9.650696,-4.0841804,-2.5652072,-4.9420595,-2.8731039,23.611572,14.665197,-74.882324,22.627733,20.161001,0.98084897,-20.50847,18.85833,-9.233712,78.21204,28.640013,-36.970287,0.68289685,20.214394
108,-1.9188718795776367,-67.89317321777344,76.65373229980469,4.075054355374804,3.644720144516837,-95.93289211657404,-15.191487,0.8568204,23.287745,19.19413,-7.6882815,3.3289995,-9.583995,-25.070295,-17.158142,73.97669,-10.66615,-4.0389223,-2.6277757,-4.9636316,-2.8867292,23.550741,14.633137,-75.032845,22.735533,20.256899,0.90532863,-20.177586,18.965832,-9.237896,77.96107,28.624132,-37.10106,0.5461386,20.343342
109,-1.834570050239563,-68.47209930419922,76.76011657714844,4.1560968284130775,3.623453576729783,-95.95272868068206,-14.138002,0.4156066,23.352003,18.038395,-7.6232615,3.1908908,-10.816575,-25.082502,-16.751646,74.78691,-11.304234,-4.057712,-2.705702,-4.994563,-2.8613145,23.513954,14.601694,-75.15578,22.827585,20.246613,0.86932623,-19.85104,19.046938,-9.244415,77.78303,28.613585,-37.22461,0.41771105,20.447596
110,-1.7659542560577393,-69.04484558105469,76.85944366455078,4.22446690168853,3.5837528007807276,-95.97685834839771,-13.0472355,-0.019718448,23.390617,16.830656,-7.5166354,3.037151,-12.058801,-25.026194,-16.349426,75.40976,-11.795054,-4.0477924,-2.781058,-5.025392,-2.8097463,23.486588,14.568016,-75.28061,22.917486,20.15154,0.8530008,-19.485937,19.11301,-9.254813,77.64602,28.605846,-37.35425,0.289552,20.538923
111,-1.7132867574691772,-69.62809753417969,76.95863342285156,4.282035511387323,3.5420474983489747,-96.00324449887255,-11.954571,-0.44312721,23.40587,15.614112,-7.393033,2.8857582,-13.2942705,-24.91278,-15.973414,75.84293,-12.176917,-3.9701152,-2.8604653,-5.0510836,-2.7487812,23.47676,14.534594,-75.387215,22.989523,20.026415,0.8481896,-19.172955,19.159428,-9.268928,77.55023,28.602077,-37.48243,0.17537309,20.61248
112,-1.6554937362670898,-70.2064208984375,77.04341125488281,4.330634237668435,3.514742992454286,-96.029807696716,-10.895077,-0.8493608,23.401255,14.430029,-7.275698,2.7541964,-14.506452,-24.756334,-15.646214,76.083984,-12.489708,-3.7885602,-2.944431,-5.0645504,-2.6939538,23.48068,14.495543,-75.46661,23.03819,19.917185,0.8479834,-19.000349,19.18073,-9.290336,77.4872,28.602707,-37.60172,0.08774066,20.665205
113,-1.597089171409607,-70.76812744140625,77.12483978271484,4.376929789535069,3.5042435722687895,-96.05935724793332,-9.870495,-1.2467155,23.37517,13.276776,-7.1557612,2.6587377,-15.685964,-24.586718,-15.397226,76.12498,-12.722131,-3.4710035,-3.0392048,-5.0697646,-2.647223,23.512653,14.455462,-75.49519,23.043497,19.870848,0.85135734,-19.066282,19.1713,-9.318042,77.47558,28.613651,-37.71418,0.041264858,20.677282
114,-1.5513333082199097,-71.3524169921875,77.19522094726562,4.418448134589637,3.5025898800166133,-96.09132712899779,-8.864787,-1.6340694,23.327002,12.139107,-7.026446,2.5838265,-16.84057,-24.391745,-15.209084,75.966484,-12.860502,-3.0461268,-3.1397188,-5.069221,-2.6005616,23.569197,14.423183,-75.48823,23.006899,19.850677,0.8626657,-19.29848,19.133574,-9.345777,77.50963,28.64043,-37.82219,0.025158564,20.656828
115,-1.489253282546997,-71.93048095703125,77.25572967529297,4.44405665290079,3.5103786501233576,-96.11851606511138,-7.8855834,-1.9932933,23.262777,11.033993,-6.912428,2.5001514,-17.981228,-24.123053,-15.033029,75.623116,-12.942792,-2.5684636,-3.2502515,-5.0570107,-2.5575595,23.636646,14.389579,-75.466446,22.960861,19.790133,0.8811388,-19.534412,19.078102,-9.379943,77.56889,28.662256,-37.918034,0.01725606,20.639921
116,-1.439125657081604,-72.49166107177734,77.30272674560547,4.443352936743022,3.5280482815561616,-96.13343014946508,-6.9416924,-2.3070166,23.18951,9.981157,-6.84125,2.3797002,-19.11804,-23.734003,-14.8189945,75.10902,-13.007174,-2.0922663,-3.3797402,-5.0267205,-2.5227723,23.715246,14.332149,-75.44125,22.945158,19.638502,0.90605605,-19.611195,19.01897,-9.445772,77.63774,28.64243,-37.995106,-0.0038753054,20.663084
117,-1.409353494644165,-73.06488037109375,77.33946990966797,4.406136042453611,3.5566482281162495,-96.13425024213014,-6.0344625,-2.5640602,23.105873,8.97994,-6.8243537,2.2121654,-20.256311,-23.192657,-14.550734,74.417915,-13.066271,-1.6422505,-3.514254,-4.9721723,-2.4968042,23.811941,14.283571,-75.437096,22.937168,19.307976,0.9460307,-19.427341,18.950575,-9.507536,77.69942,28.60851,-38.056126,-0.05334619,20.735106
118,-1.3749823570251465,-73.63624572753906,77.36152648925781,4.3434220686910665,3.595331538871435,-96.12434675447894,-5.1601315,-2.7783625,23.012526,8.024397,-6.845572,2.0144124,-21.384714,-22.537436,-14.254442,73.54286,-13.1000185,-1.187141,-3.6606123,-4.900408,-2.477642,23.928335,14.230265,-75.43342,22.936834,18.855408,0.9955966,-19.088812,18.868542,-9.582567,77.77324,28.553875,-38.10092,-0.115664095,20.837166
119,-1.354167103767395,-74.20225524902344,77.37594604492188,4.273893674921515,3.641299686328573,-96.10436908014717,-4.3430667,-2.9580498,22.919569,7.179669,-6.927688,1.7991172,-22.487463,-21.826803,-13.945671,72.49906,-13.101349,-0.7019551,-3.807961,-4.8280044,-2.460366,24.035574,14.181863,-75.433304,22.937183,18.417292,1.0405174,-18.74205,18.791243,-9.656509,77.837395,28.491722,-38.137733,-0.17506535,20.963472
120,-1.3169089555740356,-74.77462005615234,77.38316345214844,4.216150210771266,3.6921177416632784,-96.07500364439335,-3.8790674,-2.991374,22.849436,7.1338506,-7.419583,1.5728797,-23.550083,-21.116304,-13.638545,71.30072,-13.061895,-0.15849099,-3.9472501,-4.770025,-2.4410775,24.116259,14.136185,-75.43394,22.938633,18.143095,1.0697157,-18.533535,18.735146,-9.730637,77.873924,28.42628,-38.170307,-0.21520625,21.10864
121,-1.2987347841262817,-75.33902740478516,77.3765640258789,4.17243017644936,3.7500993091204813,-96.03882498711661,-3.4232535,-3.0348113,22.798876,7.0885787,-7.901439,1.3345062,-24.575281,-20.390379,-13.3129835,69.92322,-12.979507,0.49592623,-4.072968,-4.7285647,-2.422246,24.162048,14.095157,-75.43609,22.937346,18.101269,1.0791695,-18.535366,18.707844,-9.800321,77.87558,28.359196,-38.19459,-0.22860305,21.292538
122,-1.271836519241333,-75.90568542480469,77.36402130126953,4.1342168423692796,3.8152819796126063,-95.99400688006706,-2.9758081,-3.080191,22.76023,7.041796,-8.378138,1.0810843,-25.563469,-19.633936,-12.966609,68.363914,-12.860836,1.2278961,-4.191275,-4.6960692,-2.4049878,24.190985,14.055317,-75.43856,22.935694,18.210798,1.0762542,-18.658222,18.697952,-9.870657,77.85325,28.285238,-38.207436,-0.22504944,21.511164
123,-1.2619969844818115,-76.4753189086914,77.3416519165039,4.105292017359667,3.881961635738347,-95.93488280776833,-2.536362,-3.1308076,22.713633,7.00318,-8.851839,0.8340807,-26.500713,-18.900675,-12.639214,66.671074,-12.707241,1.939116,-4.3101435,-4.6783295,-2.382915,24.194899,14.03083,-75.44567,22.930391,18.362911,1.0692358,-18.80863,18.697897,-9.914911,77.812836,28.23405,-38.227623,-0.21424955,21.720478
124,-1.2577461004257202,-77.04579162597656,77.31526184082031,4.088281572907027,3.944551052703905,-95.8562876356593,-2.0959096,-3.1936748,22.638319,6.961805,-9.313047,0.6156784,-27.376871,-18.23931,-12.370708,64.8949,-12.517481,2.5353644,-4.4369807,-4.6751103,-2.350048,24.177671,14.009077,-75.45912,22.937761,18.466858,1.0666417,-18.890413,18.70315,-9.953927,77.75825,28.188465,-38.268818,-0.20662348,21.881296
125,-1.2389261722564697,-77.61528778076172,77.2755126953125,4.089190527888317,4.006293523563145,-95.74292808766006,-1.6651342,-3.2737072,22.515259,6.9210224,-9.7549,0.4363534,-28.202322,-17.649355,-12.160714,63.036053,-12.283086,3.016254,-4.585819,-4.6977534,-2.3042314,24.125647,13.989547,-75.480385,22.967194,18.490852,1.0741422,-18.87727,18.715534,-9.987444,77.68554,28.144733,-38.33966,-0.21186695,21.988281
126,-1.2303431034088135,-78.18395233154297,77.236083984375,4.105695439555926,4.068335820132495,-95.60274166549164,-1.2429862,-3.3680396,22.360233,6.8817334,-10.1824255,0.28387442,-28.978937,-17.104755,-11.989481,61.06953,-12.003737,3.4279268,-4.749161,-4.7430925,-2.249305,24.04484,13.974228,-75.50613,23.01044,18.489725,1.0861493,-18.820234,18.733925,-10.011126,77.59687,28.107162,-38.42711,-0.22199827,22.060804
127,-1.2669745683670044,-78.72653198242188,77.18395233154297,4.126981319428921,4.1227549173318385,-95.46596451415441,-0.80779237,-3.4676251,22.204657,6.839452,-10.611082,0.14524867,-29.685106,-16.60882,-11.871008,59.006336,-11.686836,3.748966,-4.898671,-4.7895694,-2.187432,23.949127,13.960639,-75.54057,23.058884,18.481567,1.0943905,-18.740427,18.760677,-10.028073,77.49579,28.079351,-38.527336,-0.2215071,22.096487
128,-1.2850027084350586,-79.29253387451172,77.1310043334961,4.141079172692938,4.161688393273262,-95.36288621220227,-0.33949405,-3.5616,22.080318,6.794497,-11.054496,0.006663428,-30.30314,-16.163805,-11.819651,56.86255,-11.342112,3.9593017,-5.007002,-4.8159695,-2.1213202,23.862286,13.946054,-75.58197,23.102526,18.49508,1.0907608,-18.659178,18.799566,-10.041719,77.3888,28.06399,-38.636505,-0.19412456,22.091877
129,-1.2860991954803467,-79.88664245605469,77.06156921386719,4.142564106877892,4.174130640665608,-95.31143371420099,0.17701401,-3.645586,22.003613,6.7488995,-11.519956,-0.12706617,-30.8313,-15.769015,-11.841444,54.654705,-10.966916,4.0180335,-5.05489,-4.810632,-2.0408115,23.779245,13.923871,-75.638176,23.147324,18.534842,1.0675583,-18.568909,18.85388,-10.058213,77.27333,28.06155,-38.76182,-0.13357998,22.025637
130,-1.2718604803085327,-80.47421264648438,76.98554229736328,4.13878341845822,4.168138200170472,-95.29152914622458,0.7362219,-3.7288668,21.953564,6.682568,-11.987587,-0.25410092,-31.277262,-15.4130745,-11.933736,52.3627,-10.554816,3.954144,-5.0709,-4.7882476,-1.9498377,23.69297,13.897669,-75.69661,23.193933,18.58631,1.0304303,-18.464294,18.92094,-10.075594,77.15916,28.070444,-38.902668,-0.04675222,21.904655
131,-1.267117977142334,-81.06489562988281,76.90426635742188,4.155224454673857,4.160662740548513,-95.28293811459572,1.2744174,-3.8200464,21.919584,6.686941,-12.500903,-0.38934582,-31.654234,-15.1007395,-12.070264,49.978615,-10.119784,3.8579066,-5.0790386,-4.783486,-1.8674327,23.620281,13.87449,-75.74309,23.231918,18.649387,0.9918921,-18.366508,18.986465,-10.090073,77.05536,28.08229,-39.032387,0.05878277,21.77159
132,-1.260066032409668,-81.66242980957031,76.81542205810547,4.171239181548099,4.1741197434778465,-95.2553695583304,1.7906181,-3.904487,21.868608,6.6932864,-13.014543,-0.5523914,-31.951859,-14.800063,-12.274822,47.458363,-9.664925,3.8082798,-5.0772495,-4.7730365,-1.8093029,23.540987,13.82532,-75.81336,23.296469,18.703144,0.96611655,-18.288628,19.057943,-10.119996,76.91482,28.06299,-39.145603,0.16670293,21.680593
133,-1.2919923067092896,-82.25975036621094,76.73192596435547,4.183139172442476,4.2132513665121065,-95.20160957456167,2.2785196,-3.9771106,21.79456,6.6986294,-13.525173,-0.7585272,-32.16035,-14.507683,-12.552971,44.764446,-9.190051,3.8169875,-5.1141586,-4.762244,-1.7845364,23.475834,13.762008,-75.85387,23.362514,18.77387,0.95515454,-18.262606,19.11591,-10.157487,76.79201,28.026009,-39.217293,0.28392363,21.597782
134,-1.2933273315429688,-82.87425994873047,76.62971496582031,4.19315099260732,4.266676872556094,-95.13446268930713,2.7534106,-4.0422573,21.709599,6.702751,-14.036496,-0.9944327,-32.276848,-14.222673,-12.905436,41.90633,-8.683407,3.8487256,-5.1766977,-4.7539196,-1.781849,23.42924,13.730363,-75.86571,23.386938,18.857687,0.9526915,-18.274849,19.159115,-10.176045,76.691475,28.004076,-39.257915,0.4157052,21.507896
135,-1.2942222356796265,-83.4938735961914,76.53324890136719,4.2073380807923115,4.329557369476846,-95.0567492868493,3.223109,-4.1098475,21.61628,6.706606,-14.551049,-1.2340338,-32.30847,-13.938814,-13.325013,38.91888,-8.132124,3.9134784,-5.228972,-4.742556,-1.7946178,23.39181,13.676911,-75.89314,23.432186,18.922367,0.95515805,-18.274567,19.209635,-10.207928,76.57178,27.95374,-39.29197,0.55524474,21.483932
136,-1.3033673763275146,-84.11799621582031,76.41757202148438,4.233067436137893,4.396888497037103,-94.97113838466025,3.6967254,-4.1908875,21.51659,6.7097244,-15.070688,-1.452823,-32.264458,-13.654872,-13.802036,35.83961,-7.5249667,4.0179543,-5.298492,-4.7411547,-1.8217981,23.370329,13.641831,-75.91156,23.459076,18.915964,0.9570132,-18.22681,19.255142,-10.230237,76.4878,27.898539,-39.318943,0.71185285,21.576635
137,-1.326982855796814,-84.74850463867188,76.29682922363281,4.273226570898513,4.468533304725461,-94.87203652045604,4.1729755,-4.285929,21.405653,6.715905,-15.597011,-1.646134,-32.123085,-13.392817,-14.387276,32.629337,-6.8358655,4.1497045,-5.374501,-4.7508388,-1.8647989,23.370205,13.613224,-75.939255,23.484266,18.808872,0.954443,-18.093826,19.302425,-10.250716,76.421295,27.822027,-39.34184,0.8830226,21.822819
138,-1.3365416526794434,-85.3887710571289,76.16670227050781,4.327618036979883,4.542378849161624,-94.75482797333581,4.654425,-4.3936768,21.278809,6.72028,-16.125458,-1.8288151,-31.873114,-13.144146,-15.070591,29.254389,-6.0626955,4.3129926,-5.4653845,-4.771098,-1.9208915,23.37821,13.588771,-75.973625,23.507069,18.61954,0.9507407,-17.906178,19.35248,-10.271012,76.36857,27.725405,-39.360004,1.0679069,22.184343
139,-1.361788272857666,-86.04074096679688,76.02818298339844,4.401186525738095,4.608600133829603,-94.62196922329187,5.1500783,-4.520081,21.136415,6.725257,-16.656511,-2.0052533,-31.535313,-12.874207,-15.748105,25.758204,-5.2297764,4.5330915,-5.562603,-4.8042936,-1.9758413,23.3977,13.559563,-76.01137,23.534431,18.42586,0.9524297,-17.716368,19.405336,-10.300186,76.31928,27.60993,-39.379745,1.2645181,22.619623
140,-1.3845584392547607,-86.69788360595703,75.87886810302734,4.501693628972368,4.65554264865901,-94.47271932440901,5.6727486,-4.676298,20.975279,6.725577,-17.18529,-2.177569,-31.130249,-12.565308,-16.313349,22.192198,-4.366729,4.8299847,-5.6894774,-4.8533244,-2.0158625,23.428032,13.541938,-76.02602,23.533361,18.288548,0.9687188,-17.584766,19.442532,-10.321433,76.2963,27.514902,-39.39723,1.4728892,23.077866
141,-1.4039965867996216,-87.35892486572266,75.7144546508789,4.648256210670143,4.677479661367716,-94.2982394832681,6.227963,-4.8872957,20.78625,6.7216053,-17.714584,-2.3389206,-30.637577,-12.241046,-16.765852,18.50918,-3.473709,5.2237687,-5.837712,-4.9382,-2.037261,23.468895,13.530462,-76.02749,23.51522,18.222157,1.0065116,-17.523993,19.474686,-10.338487,76.282074,27.426422,-39.418663,1.6937848,23.588182
142,-1.4297598600387573,-88.03012084960938,75.53395080566406,4.8514254962526175,4.662612978139607,-94.07838839931122,6.8262525,-5.1631217,20.548134,6.714326,-18.244595,-2.4855082,-30.015532,-11.948526,-17.15819,14.661248,-2.5223274,5.692949,-6.0338955,-5.0692286,-2.0338848,23.51864,13.5106125,-76.01334,23.494747,18.193584,1.0597578,-17.507517,19.508799,-10.377474,76.277245,27.310446,-39.447365,1.925395,24.168066
143,-1.4638828039169312,-88.71380615234375,75.33135986328125,5.101661204855816,4.5939002247378875,-93.80284622845326,7.4863787,-5.4868574,20.245872,6.7011924,-18.772392,-2.6241539,-29.235353,-11.694618,-17.467203,10.658434,-1.47262,6.1925635,-6.2927856,-5.2445397,-1.9873992,23.575802,13.496987,-75.99148,23.465076,18.201221,1.1173964,-17.51535,19.535074,-10.415638,76.29265,27.198118,-39.478317,2.1704483,24.744041
144,-1.491873860359192,-89.40013122558594,75.1223373413086,5.371537628092319,4.46979607991109,-93.4788821099167,8.207433,-5.8189054,19.882832,6.6885056,-19.29807,-2.765783,-28.500359,-11.520877,-17.624975,6.982063,-0.5313886,6.678698,-6.601598,-5.446654,-1.8901083,23.608246,13.491255,-75.982124,23.448084,18.220829,1.1641423,-17.531393,19.554138,-10.446593,76.3174,27.089586,-39.516994,2.427325,25.25556
145,-1.548257827758789,-90.0807113647461,74.90898132324219,5.640622925850908,4.297771511725946,-93.12082256252741,8.982452,-6.133058,19.469393,6.6789575,-19.82471,-2.9197998,-29.307981,-11.852305,-17.220709,6.8090734,-1.3974501,7.142117,-6.9528165,-5.662671,-1.7478745,23.627874,13.492967,-75.97079,23.441845,18.28531,1.1991272,-17.566652,19.56749,-10.484873,76.36383,26.964037,-39.56342,2.7163367,25.674097
146,-1.6055617332458496,-90.7732162475586,74.68701171875,5.899725699430337,4.100032755269246,-92.749664331643,9.79324,-6.420248,19.0287,6.662844,-20.34594,-3.084733,-30.089222,-12.155007,-16.622875,6.669923,-2.2536662,7.5880494,-7.3173614,-5.873964,-1.5807364,23.635767,13.50745,-75.96404,23.433968,18.385042,1.2284626,-17.625181,19.576649,-10.528986,76.42055,26.831486,-39.61859,3.0261936,26.03633
147,-1.6581376791000366,-91.47514343261719,74.46356964111328,6.118090517158363,3.907944264545026,-92.39716419469808,10.59648,-6.64,18.603928,6.6672106,-20.87149,-3.2590475,-30.805737,-12.388039,-16.046776,6.5639596,-3.0347657,8.019617,-7.6604366,-6.039429,-1.4142377,23.63114,13.529453,-75.97619,23.431072,18.477184,1.2479746,-17.68144,19.57825,-10.562571,76.477,26.72104,-39.67447,3.3234587,26.379179
148,-1.7108608484268188,-92.17805480957031,74.2440185546875,6.298469082632476,3.755954866250341,-92.07625916745933,11.366911,-6.80238,18.218191,6.659443,-21.376537,-3.4322166,-31.436224,-12.570937,-15.69485,6.5115795,-3.6828253,8.450304,-7.979012,-6.1548767,-1.2806219,23.619364,13.558949,-76.008,23.432005,18.522694,1.2567197,-17.707954,19.570753,-10.593643,76.538956,26.626951,-39.721615,3.5785112,26.739754
149,-1.77836275100708,-92.87142181396484,74.037109375,6.431926121149244,3.6353761912046307,-91.78516663534347,12.109332,-6.8969684,17.876314,6.6544914,-21.884108,-3.6030185,-31.915405,-12.69025,-15.663658,6.417623,-4.153262,8.951852,-8.270501,-6.203881,-1.1691432,23.607933,13.591161,-76.06836,23.443804,18.520384,1.2512305,-17.699757,19.553959,-10.620797,76.60705,26.567856,-39.776268,3.7935586,27.123938
150,-1.8221147060394287,-93.56912231445312,73.82981872558594,6.5579023006663055,3.524244682028818,-91.50163043714979,12.84779,-6.975222,17.549683,6.643359,-22.388252,-3.765836,-32.292843,-12.8054495,-15.814158,6.352817,-4.5124035,9.507763,-8.558424,-6.2328486,-1.0646251,23.583614,13.631297,-76.155975,23.462255,18.47708,1.2357583,-17.66838,19.530323,-10.649492,76.685074,26.525509,-39.836124,3.985002,27.513422
151,-1.8838742971420288,-94.27030944824219,73.62612915039062,6.602696302768999,3.4702391441661384,-91.2884859800098,13.536912,-6.957824,17.306108,6.6321526,-22.868568,-3.9396217,-32.61395,-12.815145,-16.060884,6.3363,-4.7411327,9.962676,-8.781736,-6.171247,-0.99711555,23.554064,13.65829,-76.23638,23.50148,18.420847,1.2028342,-17.630447,19.495077,-10.667768,76.7485,26.501152,-39.872486,4.121483,27.914394
152,-1.9569659233093262,-94.976318359375,73.43131256103516,6.57381171446409,3.458145690437171,-91.1424551825959,14.188488,-6.8553004,17.135357,6.6227536,-23.298166,-4.1245995,-32.836037,-12.734646,-16.323387,6.327163,-4.7909284,10.185072,-8.945028,-6.0335946,-0.96079284,23.52792,13.686616,-76.31828,23.527275,18.343533,1.1669326,-17.569391,19.459259,-10.688205,76.804504,26.451014,-39.835575,4.202981,28.313684
153,-2.012300729751587,-95.65177917480469,73.2601089477539,6.480366692192507,3.4739512010344265,-91.06862165908571,14.819159,-6.6794634,17.038538,6.613833,-23.703278,-4.316134,-32.91773,-12.57513,-16.624557,6.311919,-4.6623325,10.23482,-9.04624,-5.8239555,-0.937267,23.509901,13.7265,-76.402145,23.52691,18.244814,1.1290952,-17.513718,19.424276,-10.72261,76.84628,26.355896,-39.67281,4.1900725,28.699524
154,-2.078573226928711,-96.35816955566406,73.10108947753906,6.300375580597379,3.5411809901983924,-91.08620815345454,15.407733,-6.404725,17.045506,6.604778,-24.086493,-4.523171,-32.931194,-12.292751,-16.983744,6.365107,-4.402655,10.151637,-9.070091,-5.5190153,-0.9416014,23.490593,13.759319,-76.4649,23.53367,18.13483,1.0727173,-17.47468,19.380222,-10.759372,76.86863,26.250092,-39.42821,4.086423,29.087673
155,-2.1699886322021484,-97.06980895996094,72.96915435791016,6.0465566269628725,3.6643117735182513,-91.16145384617371,15.942052,-6.0427365,17.126589,6.599733,-24.386385,-4.7515545,-32.889465,-11.888066,-17.334408,6.408152,-3.936228,9.786585,-9.036743,-5.14401,-0.9926119,23.473255,13.784653,-76.51873,23.544355,18.01956,1.0088944,-17.383585,19.33485,-10.796807,76.87879,26.13396,-39.194077,3.977788,29.500599
156,-2.2366435527801514,-97.78473663330078,72.87474822998047,5.69113983135201,3.873865060813685,-91.2966884638293,16.389019,-5.5620923,17.293274,6.595872,-24.536926,-5.0161967,-32.864468,-11.320066,-17.603191,6.445487,-3.2348354,8.974109,-8.919354,-4.6814523,-1.1204176,23.431353,13.815627,-76.5895,23.55219,17.880718,0.94342315,-17.177067,19.298532,-10.857032,76.86502,25.977633,-39.06671,3.9405003,29.967833
157,-2.3414061069488525,-98.47149658203125,72.86089324951172,5.15807707857563,4.22094787963519,-91.54353595024328,16.698719,-4.8809357,17.617916,6.595943,-24.54051,-5.3361864,-32.859306,-10.509553,-17.832481,6.4649944,-2.2276433,7.410292,-8.676544,-4.0623107,-1.366208,23.387705,13.835765,-76.64229,23.572437,17.717644,0.8514984,-16.791622,19.25763,-10.912728,76.83366,25.812265,-39.06923,3.9937382,30.572311
158,-2.448793411254883,-99.1978759765625,72.86238861083984,4.482525069982926,4.663485830055822,-91.88890080565623,16.915462,-4.0424843,18.071932,6.600915,-24.42504,-5.698461,-32.850784,-9.520852,-18.053316,6.5168405,-0.9867342,5.2556076,-8.324184,-3.3186977,-1.694468,23.31184,13.847637,-76.69845,23.606184,17.502365,0.7398869,-16.273153,19.218557,-10.975897,76.78219,25.621038,-39.154198,4.097741,31.274904
159,-2.5402438640594482,-99.93988800048828,72.87294006347656,3.77678418340771,5.1110339650898045,-92.24968436158566,17.128702,-3.1709194,18.535398,6.608713,-24.165552,-6.0757527,-32.817577,-8.480103,-18.190273,6.569795,0.36525035,3.0260499,-7.9432526,-2.5582607,-2.0419881,23.237606,13.847606,-76.76176,23.651857,17.332123,0.6449129,-15.744753,19.190187,-11.038907,76.71377,25.441128,-39.309956,4.2209992,31.912298
160,-2.678778648376465,-100.69245147705078,72.91500854492188,3.1710361866815435,5.472511608985889,-92.54369673539261,17.398321,-2.39725,18.893944,6.6782,-23.768896,-6.438563,-32.742092,-7.526561,-18.13205,6.613431,1.704406,1.2463572,-7.6119647,-1.9041736,-2.3374286,23.14585,13.835929,-76.85476,23.715996,17.250378,0.6038814,-15.329736,19.182045,-11.099373,76.62941,25.306673,-39.527004,4.3328147,32.32103
161,-2.810779571533203,-101.4522933959961,72.95980072021484,2.7048791983261355,5.739546716941932,-92.75683352249449,17.687565,-1.7411814,19.13391,6.929627,-23.328661,-6.779199,-32.64705,-6.6894736,-17.707388,6.650831,3.117593,0.05586573,-7.3444433,-1.3915989,-2.5853114,23.052237,13.818858,-76.97435,23.780476,17.329428,0.6604068,-15.077175,19.205074,-11.141195,76.51518,25.239681,-39.826504,4.436477,32.42308
162,-2.948820114135742,-102.21392059326172,73.01212310791016,2.301395920831759,5.958822222473983,-92.91708947018563,18.0451,-1.150103,19.298822,7.1403537,-22.72532,-7.110142,-32.751488,-5.992936,-17.003155,7.2005167,4.3539596,-0.84299,-7.087533,-0.9410642,-2.813424,22.931574,13.788342,-77.150276,23.864655,17.502382,0.78623986,-14.909283,19.265305,-11.184455,76.34041,25.198069,-40.214653,4.5413556,32.32366
163,-3.096590518951416,-102.99161529541016,73.06112670898438,1.9686868574263985,6.108347343539005,-93.05448733608756,18.477255,-0.6447301,19.408182,7.3201513,-21.911156,-7.4247975,-33.708992,-5.6724963,-16.16773,9.8293915,4.3957653,-1.5548983,-6.84991,-0.5750997,-2.9810956,22.799591,13.749119,-77.33172,23.974287,17.682436,0.9052298,-14.779692,19.317612,-11.216712,76.18977,25.200268,-40.62631,4.639924,32.11394
164,-3.2461133003234863,-103.75732421875,73.1309585571289,1.716305841619121,6.164429927722107,-93.19181869291378,18.987837,-0.24028334,19.472223,7.489595,-20.83948,-7.7140365,-34.39319,-5.4158688,-15.536331,12.182658,4.2835217,-2.1889985,-6.63395,-0.31505987,-3.0467992,22.67887,13.71785,-77.47956,24.105059,17.789648,0.94245803,-14.63983,19.323599,-11.230852,76.130295,25.254547,-41.00264,4.721984,31.888618
165,-3.4006643295288086,-104.51325988769531,73.21208953857422,1.5415739685829408,6.1100622284486885,-93.33430656243273,19.600246,0.08154677,19.494265,7.6656694,-19.5135,-7.980471,-34.87768,-5.250668,-15.151584,14.486687,3.8192601,-2.7615151,-6.406335,-0.15639949,-2.9861228,22.532043,13.670597,-77.64758,24.310888,17.800343,0.86647624,-14.453481,19.291256,-11.239983,76.13342,25.36172,-41.367958,4.7879567,31.583591
166,-3.560251474380493,-105.26615142822266,73.31246948242188,1.4257682989858829,5.96888439749482,-93.45525507217727,19.817413,0.5323274,19.449589,8.907691,-18.513187,-8.222497,-35.200134,-5.1787996,-14.9003935,16.739868,3.116042,-3.2179685,-6.210312,-0.06986277,-2.83077,22.375776,13.586984,-77.810265,24.586575,17.773735,0.7197038,-14.258112,19.225523,-11.2410755,76.20026,25.52675,-41.73541,4.846915,31.175539
167,-3.7192928791046143,-106.00843811035156,73.42874145507812,1.337277879115939,5.7852535793121245,-93.52505986289268,19.149683,1.2915643,19.289936,12.133113,-18.308882,-8.425853,-35.302956,-5.1862755,-14.772745,18.707882,2.3876572,-3.5276277,-6.0741034,-0.017806549,-2.6257155,22.232817,13.49202,-77.94261,24.874208,17.68669,0.54317147,-14.089715,19.126621,-11.233557,76.32608,25.706207,-42.056534,4.8830857,30.835209
168,-3.8939037322998047,-106.744873046875,73.57357788085938,1.2424027549585828,5.606222410579221,-93.5192568915853,18.311077,2.090555,18.995296,15.54874,-17.941723,-8.572061,-35.12951,-5.226293,-14.771067,20.14327,1.8654052,-3.6530235,-6.010873,0.042747617,-2.419166,22.110323,13.392937,-78.040596,25.135944,17.50308,0.37901878,-13.979682,19.000978,-11.224733,76.492065,25.851173,-42.287956,4.8761663,30.734964
169,-4.058478832244873,-107.46372985839844,73.74005889892578,1.1350199758280093,5.426167385135251,-93.42737732826656,17.24446,2.9313185,18.509104,19.262836,-17.380718,-8.61418,-34.609108,-5.267106,-14.949839,20.917994,1.6390492,-3.4923203,-6.0319557,0.11587946,-2.1981206,22.01664,13.291662,-78.090965,25.37415,17.17892,0.20299745,-13.928528,18.8331,-11.2217045,76.71658,25.938568,-42.40046,4.8101325,30.96787
170,-4.201458930969238,-108.18140411376953,73.92088317871094,1.016293516004361,5.236692106150329,-93.27008163390167,16.019249,3.7951512,17.866093,23.175709,-16.609276,-8.577137,-33.80434,-5.2878613,-15.307485,21.179893,1.5898414,-3.0820992,-6.118818,0.19802223,-1.9538409,21.943201,13.18826,-78.105034,25.600258,16.740995,0.0049391966,-13.922732,18.630547,-11.229121,76.99805,25.987183,-42.425,4.6974807,31.426846
171,-4.342715263366699,-108.88337707519531,74.11334228515625,0.884862030614808,5.073823371622859,-93.07842241779522,14.708342,4.6588793,17.183775,27.076916,-15.692443,-8.561828,-32.865967,-5.2674274,-15.742983,21.119085,1.6251837,-2.5912607,-6.235038,0.29471362,-1.7357507,21.87929,13.0850115,-78.10524,25.792877,16.266958,-0.1523614,-13.972464,18.42541,-11.249597,77.29604,26.01338,-42.398876,4.560737,31.983671
172,-4.4992899894714355,-109.58546447753906,74.31800079345703,0.7456655467379418,4.971340619633999,-92.88404241610866,13.36072,5.5104117,16.575674,30.829723,-14.728326,-8.66782,-31.945538,-5.203435,-16.146727,20.933872,1.6519706,-2.1899474,-6.3391194,0.40621546,-1.5946102,21.86305,12.986145,-78.09953,25.919481,15.885018,-0.2053038,-14.086314,18.255714,-11.2833395,77.56464,26.031826,-42.363277,4.421581,32.510338
173,-4.637423515319824,-110.29724884033203,74.52344512939453,0.6139206133679899,4.937674316448282,-92.69057768499614,11.955534,6.3382854,16.058414,34.507153,-13.766287,-8.927683,-31.049389,-5.108497,-16.493477,20.611235,1.6812865,-1.8772671,-6.422032,0.51896036,-1.549622,21.947617,12.896448,-78.0793,25.947123,15.693617,-0.09586015,-14.313541,18.122507,-11.331615,77.80056,26.049805,-42.307915,4.2650833,33.03375
174,-4.801887512207031,-110.97185516357422,74.73883056640625,0.5022102926404052,4.949918295853623,-92.49293638106562,10.469739,7.1287045,15.580239,38.192326,-12.77182,-9.290176,-30.116707,-4.9898386,-16.818876,20.086065,1.7386922,-1.5815045,-6.4994416,0.6155049,-1.5653554,22.030277,12.820116,-78.06602,25.908148,15.531516,0.12792799,-14.632474,18.004425,-11.395592,78.02861,26.056227,-42.217552,4.0874033,33.601948
175,-4.933788299560547,-111.6721420288086,74.94902801513672,0.406379716209327,4.995854742021817,-92.3070947051668,8.936552,7.883303,15.147689,41.79221,-11.733147,-9.725714,-29.200996,-4.848635,-17.1071,19.488804,1.7558368,-1.3645504,-6.563989,0.6963784,-1.6142191,21.972706,12.760352,-78.094826,25.857334,15.198084,0.37127715,-14.945761,17.907347,-11.472447,78.24014,26.041798,-42.126316,3.9250534,34.11849
176,-5.081748962402344,-112.35003662109375,75.16883850097656,0.3193866586523238,5.063722345491582,-92.1478429479639,7.3879957,8.612569,14.766187,45.213028,-10.636052,-10.199023,-28.35312,-4.6856756,-17.343847,18.946142,1.6720153,-1.28306,-6.5785313,0.76576895,-1.6911148,22.025751,12.714815,-78.07915,25.78318,14.900828,0.5454209,-15.155582,17.863127,-11.554387,78.401306,25.997047,-42.06896,3.8127642,34.48878
177,-5.222059726715088,-113.02812194824219,75.38023376464844,0.2420813228004625,5.168927253607675,-92.0093882218013,5.784802,9.380324,14.508153,48.51315,-9.340204,-10.770823,-27.60363,-4.505745,-17.520765,18.490213,1.4465591,-1.3880428,-6.5491886,0.81504244,-1.80462,22.067316,12.6852045,-78.06422,25.715096,14.451939,0.61931026,-15.184005,17.870974,-11.634196,78.513954,25.915699,-42.057137,3.754627,34.6741
178,-5.366865634918213,-113.69454956054688,75.58897399902344,0.17733909719535412,5.310960190167354,-91.88811228912995,4.1143975,10.172811,14.33927,51.750008,-7.912008,-11.423686,-26.919044,-4.312542,-17.643013,18.057774,1.1218464,-1.6335334,-6.48108,0.8444317,-1.9591724,22.110857,12.673437,-78.04878,25.632427,13.90937,0.6426469,-15.100681,17.92303,-11.705253,78.58489,25.814697,-42.07408,3.7328498,34.72923
179,-5.520366668701172,-114.35778045654297,75.78823852539062,0.11908907736205995,5.454625881138971,-91.80078084186488,2.4538646,10.8775015,14.11939,54.807453,-6.63901,-12.022682,-26.254911,-4.104021,-17.718117,17.631382,0.76490647,-1.92675,-6.366997,0.87155026,-2.1175778,22.13758,12.673898,-78.02932,25.542791,13.355101,0.6413877,-15.030523,17.99874,-11.725948,78.61168,25.762281,-42.1105,3.7479534,34.696102
180,-5.644271373748779,-114.99272918701172,75.9773941040039,0.06258658982383959,5.565330062463071,-91.76284403745217,0.88169634,11.367238,13.72444,57.55852,-5.8071017,-12.457808,-25.568754,-3.8796878,-17.755293,17.19531,0.44202706,-2.1765215,-6.2310476,0.9159155,-2.2505245,22.284353,12.682462,-77.91906,25.409079,13.022294,0.6447602,-15.100111,18.093458,-11.788196,78.63472,25.696514,-42.143345,3.8109922,34.617073
181,-5.764564514160156,-115.63108825683594,76.14959716796875,0.00276223017415862,5.636462374435874,-91.79716558568194,-0.5726856,11.561271,13.10657,59.957924,-5.5851307,-12.711721,-24.856886,-3.6261458,-17.740232,16.745499,0.1713974,-2.3709767,-6.0467515,0.98976725,-2.343828,22.340654,12.690164,-77.801994,25.276083,12.7093,0.65480983,-15.364978,18.199999,-11.843384,78.63332,25.677732,-42.19444,3.9479597,34.473854
182,-5.874557018280029,-116.2594223022461,76.30711364746094,-0.055642770825419595,5.6856082580738345,-91.88837410631876,-1.9543742,11.525443,12.360716,62.08452,-5.7916555,-12.864433,-24.141336,-3.3531036,-17.672623,16.296154,-0.08596615,-2.5516388,-5.8082156,1.0802996,-2.4247787,22.455038,12.691931,-77.64373,25.127129,12.523297,0.66103584,-15.748615,18.332323,-11.878115,78.597084,25.701515,-42.263016,4.1474147,34.253254
183,-5.972090721130371,-116.88561248779297,76.46772003173828,-0.10319055041226373,5.715261077933426,-91.9953832695378,-3.2920973,11.352054,11.580622,63.982292,-6.18625,-12.95501,-23.425055,-3.0942748,-17.583698,15.869138,-0.35214442,-2.7114124,-5.5599766,1.169104,-2.486612,22.585073,12.690349,-77.451,24.984707,12.429955,0.6642744,-16.178947,18.47277,-11.903745,78.53648,25.743055,-42.318855,4.3479342,34.0093
184,-6.04661750793457,-117.54183959960938,76.6079330444336,-0.13049369148848458,5.728269490325073,-92.07599420978812,-4.6174583,11.141408,10.850215,65.691895,-6.5264945,-13.017363,-22.709972,-2.8820395,-17.507483,15.48108,-0.6461691,-2.8453603,-5.357968,1.2365692,-2.5209637,22.729843,12.684926,-77.19498,24.863344,12.442134,0.6633858,-16.592617,18.601807,-11.941611,78.46825,25.768276,-42.33316,4.4852777,33.79894
185,-6.128717422485352,-118.14851379394531,76.74877166748047,-0.12820289038578794,5.719413667618714,-92.1164737293088,-5.9528527,10.86631,10.125097,67.21808,-6.796495,-13.018795,-21.994675,-2.7328491,-17.451723,15.1422,-0.9796607,-2.9560902,-5.183466,1.2736537,-2.5211916,22.849499,12.679848,-76.918686,24.780603,12.546123,0.6565235,-16.982445,18.725634,-11.961889,78.35641,25.802069,-42.289978,4.5361376,33.60383
186,-6.229532241821289,-118.74873352050781,76.88143920898438,-0.10518857024391233,5.688705953928101,-92.13979770907609,-7.2765145,10.4982815,9.38327,68.54392,-7.1058226,-12.950292,-21.276373,-2.6238782,-17.401953,14.837923,-1.3385987,-3.0470924,-5.0281925,1.2928106,-2.4906929,22.963417,12.675252,-76.60416,24.71991,12.746439,0.6418151,-17.383858,18.847021,-11.969299,78.215614,25.846306,-42.205982,4.5365996,33.405373
187,-6.313894748687744,-119.34878540039062,77.00630187988281,-0.07924077927974287,5.64731181738816,-92.15839136759287,-8.557815,10.146895,8.733465,69.67411,-7.401435,-12.877319,-20.560823,-2.5297668,-17.357756,14.555006,-1.7054,-3.1146226,-4.891311,1.313672,-2.4443247,23.098988,12.669386,-76.256004,24.667704,13.017587,0.62671125,-17.764362,18.961626,-11.966797,78.06788,25.899828,-42.11418,4.5099177,33.2546
188,-6.392273902893066,-119.94540405273438,77.12742614746094,-0.06580906771243944,5.607171580498967,-92.18514856130491,-9.768425,9.924626,8.282013,70.60988,-7.6308126,-12.861714,-19.850777,-2.42667,-17.316282,14.273115,-2.0589402,-3.15382,-4.7466,1.3573793,-2.4004216,23.227777,12.664129,-75.94219,24.623762,13.270647,0.62344205,-18.074709,19.07731,-11.958006,77.91326,25.95292,-42.05032,4.482062,33.20035
189,-6.453676700592041,-120.53659057617188,77.2387466430664,-0.06489315913075767,5.5664096102450715,-92.22446311048276,-10.892492,9.879431,8.08005,71.33867,-7.754275,-12.944546,-19.146097,-2.3151503,-17.27668,13.995212,-2.3939285,-3.155602,-4.608075,1.424187,-2.3540316,23.380611,12.655504,-75.619064,24.583601,13.556515,0.6314645,-18.308401,19.184458,-11.941695,77.76488,26.01547,-42.024,4.4486823,33.277294
190,-6.523879528045654,-121.1303482055664,77.3428955078125,-0.06903847860469273,5.520566257486396,-92.269396737127,-11.951083,9.9583645,8.058902,71.864746,-7.8085,-13.075017,-18.443659,-2.2053761,-17.24018,13.724442,-2.7190678,-3.1251564,-4.468228,1.506604,-2.3013084,23.537392,12.64414,-75.30545,24.556242,13.870959,0.64841354,-18.478703,19.289337,-11.92128,77.60809,26.080967,-42.014866,4.4022446,33.450226
191,-6.591452598571777,-121.72398376464844,77.43341064453125,-0.07943728817411405,5.477271889766992,-92.31662166724196,-12.966592,10.120693,8.146665,72.20496,-7.851297,-13.177939,-17.74231,-2.0903053,-17.204699,13.444402,-3.0368662,-3.0782187,-4.328614,1.6005484,-2.2534041,23.696203,12.633996,-75.014336,24.531414,14.16585,0.673899,-18.611065,19.39653,-11.903637,77.44583,26.13012,-42.01527,4.3543563,33.671734
192,-6.6475830078125,-122.30873107910156,77.51933288574219,-0.0970758468620075,5.443410834049287,-92.36259323512076,-13.960345,10.32241,8.27252,72.375984,-7.941277,-13.180306,-17.035492,-1.9618222,-17.16714,13.126365,-3.3452153,-3.0299175,-4.2094584,1.6973758,-2.216141,23.85473,12.621655,-74.72226,24.50383,14.400721,0.7029324,-18.7457,19.494791,-11.880716,77.2931,26.16081,-42.015762,4.3122625,33.897984
193,-6.709727764129639,-122.89950561523438,77.59619140625,-0.12328989946514009,5.4213656293626995,-92.4072519366792,-14.936697,10.56675,8.434249,72.37253,-8.08155,-13.064958,-16.33924,-1.8224396,-17.126375,12.802109,-3.6598115,-2.9828923,-4.102099,1.7996224,-2.1970034,24.005548,12.610045,-74.449455,24.477774,14.538831,0.7396818,-18.87646,19.593725,-11.85476,77.14247,26.161303,-42.021435,4.2789707,34.141285
194,-6.772506237030029,-123.49304962158203,77.66079711914062,-0.15678536633667003,5.407368953582754,-92.45269373075607,-15.88274,10.872075,8.665635,72.18774,-8.24512,-12.870047,-15.645668,-1.6740612,-17.081873,12.460913,-3.9698837,-2.9284253,-4.002669,1.9086034,-2.1897573,24.15974,12.600707,-74.18921,24.450796,14.620709,0.7845433,-18.991177,19.691986,-11.826634,76.98976,26.139484,-42.03487,4.248509,34.41852
195,-6.812356472015381,-124.07044219970703,77.72854614257812,-0.19421999884921332,5.399324376565963,-92.49739575062465,-16.795527,11.2135315,8.9459,71.83518,-8.446653,-12.611839,-14.946603,-1.5206002,-17.03722,12.089663,-4.269323,-2.8638012,-3.9113739,2.0211089,-2.1894124,24.306734,12.595749,-73.956154,24.414282,14.6669445,0.8352122,-19.090876,19.785372,-11.802226,76.84667,26.099669,-42.039845,4.227165,34.681698
196,-6.870762348175049,-124.66703796386719,77.78578186035156,-0.23241088304057472,5.395613606600454,-92.54030901546328,-17.671648,11.565573,9.254803,71.32714,-8.70044,-12.306433,-14.236871,-1.3663107,-16.995562,11.6803465,-4.554608,-2.7871594,-3.8354712,2.13179,-2.1891189,24.440044,12.593821,-73.748146,24.361296,14.705898,0.8873924,-19.182999,19.861925,-11.77515,76.729805,26.062876,-42.01947,4.2192554,34.88332
197,-6.906791687011719,-125.24232482910156,77.83343505859375,-0.27095245618692054,5.3999297556247505,-92.58428463493631,-18.509842,11.933551,9.604637,70.65248,-9.050221,-11.952602,-13.514805,-1.2085745,-16.957329,11.217734,-4.821745,-2.695271,-3.7693655,2.2438238,-2.1934152,24.555746,12.595425,-73.57818,24.281816,14.740039,0.94431883,-19.266357,19.920364,-11.753299,76.6377,26.021368,-41.957134,4.2264996,35.01286
198,-6.946810245513916,-125.83193969726562,77.88384246826172,-0.3102812709036854,5.411957684122488,-92.62904656048771,-19.308887,12.321047,10.002707,69.806274,-9.475834,-11.548373,-12.784112,-1.0477083,-16.920576,10.711798,-5.0742965,-2.5904691,-3.7144735,2.3568845,-2.203746,24.664082,12.599808,-73.43563,24.181314,14.762772,1.0063058,-19.340372,19.967129,-11.736386,76.56474,25.968538,-41.868042,4.24587,35.09551
199,-7.004242897033691,-126.42191314697266,77.91828155517578,-0.3485280667552157,5.424108668320849,-92.66831632459117,-20.0688,12.701844,10.420013,68.817024,-9.899503,-11.10743,-12.048424,-0.89122194,-16.885498,10.194418,-5.322025,-2.4799044,-3.6767354,2.4631371,-2.2100937,24.7547,12.608779,-73.315704,24.080711,14.759256,1.0674715,-19.401573,20.00008,-11.718628,76.517784,25.91644,-41.772438,4.2784534,35.134567
200,-7.042088508605957,-126.99809265136719,77.95121765136719,-0.3844992879051699,5.42886311444945,-92.69559499543209,-20.79096,13.052638,10.827684,67.71338,-10.242439,-10.640562,-11.307933,-0.7443257,-16.852634,9.689207,-5.569835,-2.3706942,-3.6460803,2.560592,-2.2073982,24.8245,12.615375,-73.24291,24.009153,14.717486,1.1258785,-19.432943,20.029812,-11.709276,76.49338,25.857069,-41.689327,4.3288646,35.131115
201,-7.091282367706299,-127.58096313476562,77.98128509521484,-0.4160223773327329,5.422297439767871,-92.70607609581626,-21.47175,13.381139,11.236354,66.4945,-10.49852,-10.101677,-10.560561,-0.61063,-16.82109,9.203369,-5.8202605,-2.2649522,-3.6450212,2.6388907,-2.1880317,24.872473,12.630089,-73.18469,23.960354,14.627358,1.1814535,-19.446575,20.044485,-11.693383,76.51026,25.805592,-41.623226,4.3964324,35.078976
202,-7.121286392211914,-128.15570068359375,78.00601959228516,-0.44450930808081257,5.40951801547421,-92.70404605791391,-22.11129,13.693255,11.657455,65.14819,-10.7076025,-9.502337,-9.804936,-0.48548818,-16.791521,8.719268,-6.0680313,-2.159272,-3.658658,2.7057228,-2.1611009,24.898556,12.650437,-73.16838,23.928137,14.489793,1.2385414,-19.433664,20.049364,-11.674553,76.55966,25.757544,-41.56054,4.483592,34.97552
203,-7.156178951263428,-128.7391357421875,78.02639770507812,-0.47447073026529035,5.395375157914148,-92.6970470702519,-22.715809,13.966388,12.062885,63.687057,-10.858609,-8.937407,-9.053248,-0.36495757,-16.7666,8.248156,-6.319345,-2.0523865,-3.6811075,2.7676249,-2.1265683,24.910702,12.68466,-73.17754,23.897083,14.338404,1.2861571,-19.404106,20.042616,-11.645223,76.627075,25.723232,-41.504482,4.581666,34.841125
204,-7.18976354598999,-129.32415771484375,78.03544616699219,-0.510647168068271,5.384491071009184,-92.69267838257372,-23.292168,14.179726,12.424255,62.122112,-10.937652,-8.500065,-8.31598,-0.24475344,-16.748606,7.797155,-6.577793,-1.9426914,-3.7016532,2.8359582,-2.0847557,24.901585,12.705224,-73.2085,23.88994,14.199742,1.3128928,-19.362152,20.02576,-11.62831,76.69195,25.689068,-41.45697,4.681353,34.699062
205,-7.210560321807861,-129.89938354492188,78.03873443603516,-0.5559504124502797,5.379114729766139,-92.69255186827412,-23.84007,14.336727,12.74279,60.438488,-10.92982,-8.230195,-7.5912085,-0.12103011,-16.74189,7.356942,-6.835143,-1.8304563,-3.7254279,2.913759,-2.0344994,24.86773,12.72053,-73.2565,23.899351,14.070884,1.3102906,-19.313334,19.993845,-11.615856,76.76175,25.665955,-41.419533,4.78587,34.534054
206,-7.217673301696777,-130.46311950683594,78.0380630493164,-0.6075830877421506,5.37664686395631,-92.69311063433588,-24.354498,14.446031,13.032693,58.630505,-10.841899,-8.071477,-6.929396,-0.013380839,-16.742329,7.0470433,-7.1559663,-1.7158133,-3.758067,2.9974186,-1.9773633,24.81543,12.7389,-73.32874,23.914825,13.93764,1.2886577,-19.249317,19.943901,-11.600405,76.8521,25.662523,-41.38306,4.9015083,34.335804
207,-7.23283052444458,-131.0478515625,78.02803802490234,-0.6618340412218369,5.373210250554663,-92.69402120043407,-24.836754,14.498392,13.281161,56.724396,-10.692202,-7.9706845,-6.4031034,0.05106135,-16.745665,7.0374446,-7.6351094,-1.5939753,-3.7908893,3.077011,-1.9109777,24.753105,12.750955,-73.40748,23.947746,13.826465,1.2547106,-19.177107,19.88567,-11.589842,76.9371,25.656109,-41.358097,5.0128813,34.151875
208,-7.271762371063232,-131.62327575683594,78.01014709472656,-0.7148032013773639,5.366545634676722,-92.69525628659561,-25.289925,14.486764,13.474661,54.747402,-10.500191,-7.87322,-5.873681,0.111913085,-16.74748,7.027721,-8.120493,-1.4636086,-3.8265564,3.1484015,-1.842107,24.690786,12.763392,-73.49854,23.98182,13.732575,1.2266046,-19.079628,19.82275,-11.578315,77.03226,25.65553,-41.329346,5.1246347,34.00295
209,-7.281534194946289,-132.19412231445312,77.98542022705078,-0.7637874224467022,5.352990660679234,-92.6936428869643,-25.717348,14.398212,13.583754,52.701073,-10.278354,-7.7669253,-5.3399477,0.16435045,-16.749651,7.021975,-8.619984,-1.3195472,-3.8654156,3.2035794,-1.7621555,24.62088,12.773791,-73.590866,24.028492,13.668817,1.2020317,-18.959425,19.7493,-11.568526,77.12332,25.648726,-41.310005,5.2381396,33.903973
210,-7.291947841644287,-132.77029418945312,77.95662689208984,-0.8116788980058371,5.335094476578183,-92.69093096081852,-26.115484,14.246615,13.621714,50.572197,-10.011707,-7.6749935,-4.7984614,0.21350977,-16.7536,7.0079904,-9.122583,-1.1651508,-3.9079604,3.2489002,-1.6734197,24.545816,12.78236,-73.69011,24.084711,13.629377,1.176525,-18.816893,19.667538,-11.560398,77.21647,25.640762,-41.298515,5.355929,33.834503
211,-7.290605545043945,-133.33970642089844,77.91694641113281,-0.8635261838963468,5.317424087328864,-92.69345926630156,-26.472065,14.065494,13.639045,48.35793,-9.682295,-7.595585,-4.263418,0.2645657,-16.754585,7.0064,-9.631564,-1.0103459,-3.945129,3.2925704,-1.5853044,24.47737,12.793445,-73.799675,24.137869,13.609332,1.1504538,-18.66603,19.583199,-11.5492,77.31453,25.643385,-41.280067,5.4577193,33.795845
212,-7.314764022827148,-133.91748046875,77.87628173828125,-0.9254277854975591,5.304000437380252,-92.70744714332108,-26.775707,13.888549,13.685299,46.056442,-9.272112,-7.528477,-3.7284055,0.32983127,-16.74773,6.998341,-10.124819,-0.8645647,-3.974127,3.3427148,-1.4966714,24.412151,12.798979,-73.890495,24.189093,13.611314,1.1173779,-18.544516,19.504208,-11.543918,77.39496,25.650846,-41.26246,5.506561,33.807213
213,-7.321695804595947,-134.49444580078125,77.82738494873047,-1.0008410628060316,5.296099096174104,-92.73719211711743,-27.028933,13.717713,13.739824,43.65867,-8.752598,-7.4780946,-3.1987717,0.41178283,-16.730867,6.990605,-10.60025,-0.7297934,-3.987205,3.4052062,-1.4153684,24.349306,12.807667,-74.00282,24.230778,13.625589,1.0785978,-18.431524,19.43133,-11.534454,77.481514,25.679688,-41.227024,5.5089264,33.870243
214,-7.315761566162109,-135.08041381835938,77.77864074707031,-1.0866527426588581,5.290367552118062,-92.77893458001952,-27.23266,13.542743,13.7854,41.164673,-8.140052,-7.440144,-2.6704607,0.5055789,-16.706308,6.981846,-11.063792,-0.6007434,-3.9924939,3.4727607,-1.3297026,24.293863,12.812336,-74.09906,24.27048,13.679013,1.0298909,-18.340607,19.358395,-11.52939,77.55321,25.717117,-41.19381,5.4636693,33.992973
215,-7.327666759490967,-135.66526794433594,77.71826934814453,-1.1788610506287913,5.287189592095641,-92.82749215815738,-27.376667,13.376947,13.878872,38.582993,-7.4815283,-7.40362,-2.144334,0.6069525,-16.674675,6.974537,-11.525652,-0.47565386,-3.9884946,3.544481,-1.2511958,24.246967,12.816256,-74.19709,24.304913,13.72844,0.9870753,-18.255371,19.293266,-11.524996,77.624176,25.759249,-41.14984,5.392615,34.12737
216,-7.31659460067749,-136.2524871826172,77.65546417236328,-1.2684584626668107,5.2854778115646885,-92.87736145669285,-27.452246,13.226867,14.080596,35.92649,-6.826298,-7.359186,-1.6179659,0.7064373,-16.636425,6.9681935,-11.994757,-0.3520591,-3.982613,3.6089854,-1.1802604,24.21657,12.819419,-74.26881,24.332167,13.763248,0.9564744,-18.189793,19.236404,-11.522118,77.68833,25.794954,-41.100723,5.2994595,34.24778
217,-7.3103837966918945,-136.8578643798828,77.57878112792969,-1.3613201260591423,5.280622600322031,-92.92712369713638,-27.446703,13.103944,14.401978,33.171333,-6.154506,-7.3081303,-1.093667,0.80857456,-16.593052,6.9804015,-12.484063,-0.23023808,-3.975691,3.6711202,-1.1126382,24.198057,12.821475,-74.31238,24.355494,13.767863,0.9331694,-18.128595,19.188787,-11.521256,77.74165,25.823252,-41.04567,5.1677547,34.35599
218,-7.3102264404296875,-137.44935607910156,77.49736022949219,-1.4617369869429162,5.273514918601154,-92.98216283684486,-27.35847,13.000324,14.815806,30.299309,-5.4410286,-7.2552013,-0.5658592,0.9179892,-16.541538,6.995418,-12.978829,-0.10895667,-3.9696417,3.7350333,-1.0526584,24.203497,12.826981,-74.345955,24.367031,13.754033,0.91835654,-18.060246,19.149544,-11.519965,77.8163,25.851551,-40.971317,5.0122457,34.452427
219,-7.312892913818359,-138.05093383789062,77.39940643310547,-1.5714952777826672,5.268760239101987,-93.04514415994052,-27.204826,12.904278,15.311147,27.345383,-4.7325296,-7.2003646,-0.038017306,1.0351893,-16.480577,7.0098634,-13.47387,0.0133122355,-3.9543486,3.8059993,-0.9965099,24.221554,12.833777,-74.35354,24.365528,13.74216,0.9211121,-18.035995,19.11325,-11.519883,77.8786,25.87946,-40.89358,4.8519297,34.538933
220,-7.303264617919922,-138.65875244140625,77.2980728149414,-1.6949508863889708,5.270648125245518,-93.1202977288169,-26.999987,12.805678,15.877128,24.338428,-4.0725913,-7.1438503,0.4854094,1.1638954,-16.407953,7.022619,-13.965541,0.13594773,-3.9225335,3.8908324,-0.9484857,24.249023,12.8413515,-74.34496,24.348873,13.739377,0.9553267,-18.0835,19.077295,-11.521228,77.93359,25.906702,-40.809093,4.724306,34.59823
221,-7.276870250701904,-139.2673797607422,77.18673706054688,-1.8435889886244274,5.279916995550422,-93.21379300183919,-26.72921,12.71058,16.531612,21.227594,-3.465674,-7.084179,1.0018508,1.3192486,-16.316404,7.033958,-14.4545,0.25293255,-3.8566265,4.008147,-0.90950924,24.280867,12.844238,-74.33553,24.319565,13.7359,1.0476513,-18.246243,19.049057,-11.522603,77.95998,25.933416,-40.725754,4.632018,34.636524
222,-7.2635016441345215,-139.8968963623047,77.07389068603516,-2.02286559584182,5.286091682584098,-93.33163544585653,-26.369307,12.629574,17.278185,17.984745,-2.8772383,-7.02532,1.521478,1.5080484,-16.200026,7.044746,-14.942736,0.36352053,-3.7752929,4.155709,-0.8690558,24.32809,12.849329,-74.300255,24.267752,13.731036,1.183415,-18.495556,19.019852,-11.526494,77.9965,25.96188,-40.63102,4.5658073,34.650875
223,-7.246453285217285,-140.52381896972656,76.93946838378906,-2.2262724835684353,5.276429140617963,-93.47789008038187,-25.931211,12.560101,18.084242,14.691054,-2.2936406,-6.976193,2.0607257,1.721202,-16.058517,7.0537434,-15.429758,0.47410768,-3.6573129,4.321014,-0.8153705,24.379333,12.8531475,-74.25701,24.208422,13.740099,1.3165486,-18.750319,18.991835,-11.530919,78.02386,25.989841,-40.53087,4.5216784,34.635513
224,-7.230512619018555,-141.1456756591797,76.80683135986328,-2.4432229302784982,5.24082833450196,-93.65328698609736,-25.422504,12.4903965,18.919506,11.412407,-1.6943884,-6.9462895,2.6314945,1.944755,-15.894148,7.0607357,-15.914321,0.591502,-3.5179036,4.482335,-0.73610127,24.432384,12.859753,-74.18084,24.144056,13.780494,1.3980896,-18.937275,18.952068,-11.540971,78.07001,26.017141,-40.418213,4.5013685,34.57813
225,-7.196910858154297,-141.78573608398438,76.66478729248047,-2.6714615043457215,5.179957536094925,-93.86147648193034,-24.768625,12.373117,19.796406,7.939225,-0.9858236,-6.9562254,3.2325876,2.1741202,-15.7038765,7.066784,-16.40032,0.7203713,-3.3249362,4.6404886,-0.63443476,24.478407,12.864839,-74.10568,24.08758,13.850777,1.4039619,-19.005867,18.906414,-11.552102,78.10457,26.04334,-40.29198,4.51036,34.473724
226,-7.1580729484558105,-142.40843200683594,76.51403045654297,-2.91358241328459,5.1017191360344905,-94.09570508321902,-25.1658,12.648313,20.465826,6.8825903,-1.5628073,-7.0047426,3.8549953,2.4127254,-15.491189,7.071171,-16.886583,0.8558872,-3.0711954,4.8044467,-0.5282502,24.52087,12.865572,-74.06426,24.04174,13.934527,1.3677907,-18.993942,18.870653,-11.555286,78.112785,26.068804,-40.156845,4.5477276,34.330093
227,-7.1192731857299805,-143.05673217773438,76.36624145507812,-3.1418915454137473,5.011846318152974,-94.34514456758293,-25.897469,13.073379,21.09983,6.7532506,-2.5870218,-7.049171,4.4889717,2.6293182,-15.261321,7.080793,-17.367311,0.9935731,-2.8586442,4.936764,-0.3962826,24.580639,12.8690815,-73.90783,23.970491,14.070246,1.311549,-19.005714,18.79773,-11.571825,78.18126,26.102098,-40.00974,4.5952115,34.15211
228,-7.0991435050964355,-143.7052459716797,76.21408081054688,-3.347257890573187,4.92500163269538,-94.57389358297785,-26.54284,13.4748535,21.78003,6.6516175,-3.5259423,-7.0511503,5.1260676,2.8141148,-15.048655,7.089366,-17.834162,1.1290951,-2.6473203,5.0407095,-0.29058203,24.634438,12.871553,-73.797714,23.907001,14.198966,1.2894355,-19.040388,18.755894,-11.590044,78.24489,26.136553,-39.878586,4.645674,33.94842
229,-7.067111968994141,-144.36228942871094,76.06014251708984,-3.5268605686431638,4.841329066185884,-94.78374211026228,-27.097631,13.838516,22.555922,6.5602927,-4.4106545,-7.0139976,5.7637863,2.9620833,-14.852353,7.1001835,-18.28735,1.2635448,-2.4417067,5.1149144,-0.20446135,24.68328,12.873415,-73.71047,23.844717,14.355802,1.3164235,-19.130262,18.740362,-11.609705,78.303795,26.182667,-39.771057,4.7059407,33.7089
230,-7.030941486358643,-145.0188446044922,75.91429138183594,-3.6831011240586777,4.760660234680533,-94.97909272179425,-27.556194,14.149149,23.414648,6.4327655,-5.2314134,-6.957894,6.4036508,3.0757282,-14.669717,7.1118484,-18.730476,1.4001637,-2.2313628,5.1613607,-0.13477737,24.727488,12.874299,-73.64592,23.78574,14.538675,1.369295,-19.245115,18.744953,-11.6224375,78.34888,26.242617,-39.68031,4.7768545,33.435135
231,-7.000258445739746,-145.67506408691406,75.7657699584961,-3.796503240825075,4.705865638471211,-95.13429215801195,-27.978945,14.391783,24.254496,6.3906245,-5.9544153,-6.866558,7.024552,3.1329942,-14.526497,7.124449,-19.161266,1.5429159,-2.0512853,5.155186,-0.099343054,24.758993,12.8755665,-73.592384,23.73831,14.691937,1.4206114,-19.363676,18.756678,-11.631191,78.3938,26.306288,-39.593624,4.8303146,33.151054
232,-6.965719699859619,-146.33116149902344,75.62152099609375,-3.8588385520311794,4.673605128349765,-95.24449312798428,-28.320156,14.5483265,25.00208,6.3878555,-6.461173,-6.722666,7.627047,3.1304297,-14.42637,7.1395597,-19.577158,1.6875014,-1.8954319,5.086375,-0.09298367,24.776726,12.876954,-73.5643,23.70859,14.769503,1.4465746,-19.45888,18.7701,-11.633647,78.423325,26.3638,-39.50394,4.836657,32.88481
233,-6.914878845214844,-146.97012329101562,75.48616790771484,-3.910476991010609,4.6391542491341,-95.33197334904722,-28.527473,14.66921,25.685568,6.3874173,-6.710151,-6.6123085,8.234337,3.1174524,-14.349796,7.1556087,-19.993536,1.8186281,-1.7559968,4.987348,-0.08687669,24.776768,12.879409,-73.5544,23.696663,14.746591,1.4339465,-19.50871,18.77952,-11.633739,78.45574,26.416435,-39.409306,4.785573,32.625744
234,-6.896039009094238,-147.6154022216797,75.34535217285156,-3.9499762875915647,4.6076022307745745,-95.39709341338806,-28.616898,14.745255,26.330923,6.3812847,-6.746372,-6.507991,8.842122,3.0897481,-14.29687,7.1714764,-20.405172,1.9411187,-1.6318704,4.8612475,-0.088533916,24.769444,12.884703,-73.56338,23.69383,14.656945,1.39957,-19.528105,18.788763,-11.631031,78.495094,26.46971,-39.310825,4.697382,32.362053
235,-6.862996578216553,-148.27932739257812,75.21640014648438,-3.9396685101704176,4.604615143705575,-95.41699922772787,-28.64162,14.715724,26.84827,6.3826537,-6.587267,-6.227521,9.4265585,3.001998,-14.2882805,7.1870475,-20.778954,2.0746894,-1.5415834,4.678256,-0.12653036,24.75138,12.901558,-73.58251,23.687595,14.516772,1.362233,-19.55892,18.798944,-11.617852,78.53733,26.521523,-39.204845,4.5873723,32.118626
236,-6.846921920776367,-148.93899536132812,75.09162139892578,-3.830116380230259,4.664699772163585,-95.35886696702605,-28.679361,14.512037,27.142645,6.442221,-6.273761,-5.587635,9.954332,2.7963576,-14.356395,7.2019176,-21.080276,2.240979,-1.5146391,4.3971486,-0.23393266,24.723179,12.920952,-73.580666,23.682224,14.362379,1.33552,-19.657019,18.81497,-11.599147,78.55976,26.55564,-39.10143,4.4602594,31.932417
237,-6.831440448760986,-149.6120147705078,74.98455810546875,-3.5684858570818583,4.826794567765193,-95.16775007304996,-28.760292,14.066018,27.171497,6.6120214,-5.856117,-4.3628206,10.392731,2.4171152,-14.56396,7.2178326,-21.320917,2.4492407,-1.612574,3.965085,-0.445559,24.67818,12.94203,-73.55562,23.683004,14.152781,1.3343949,-19.834146,18.835901,-11.574753,78.576256,26.568956,-38.99862,4.3120575,31.79696
238,-6.8117475509643555,-150.2657470703125,74.91989135742188,-3.2086372501531537,5.051982206209524,-94.88428734219698,-28.808453,13.447162,26.993738,6.798216,-5.2733097,-2.7089276,10.776159,1.9295179,-14.869454,7.2335105,-21.510864,2.6810741,-1.8029379,3.4286637,-0.7246881,24.634716,12.990825,-73.502556,23.656345,13.89793,1.3485498,-20.069935,18.851566,-11.51099,78.6004,26.60619,-38.89271,4.1415453,31.696007
239,-6.764835834503174,-150.9033660888672,74.90596771240234,-2.8164820621647277,5.288109365588278,-94.56717466948895,-28.823988,12.741768,26.645124,6.954842,-4.4607153,-0.9965316,11.142808,1.3982227,-15.203817,7.274076,-21.63736,2.9350789,-2.0225408,2.8603117,-1.0308616,24.593355,13.053159,-73.42772,23.61837,13.670823,1.3536782,-20.345692,18.864124,-11.422622,78.62423,26.65116,-38.7749,3.9683883,31.64575
240,-6.7215375900268555,-151.57977294921875,74.86361694335938,-2.4573697064146076,5.485898211830925,-94.29822288699478,-28.818308,12.060818,26.18329,7.0786595,-3.3821235,0.40153432,11.539644,0.889329,-15.474854,7.330979,-21.667599,3.207442,-2.2009416,2.324053,-1.3228327,24.572319,13.122669,-73.31149,23.565115,13.558011,1.3245667,-20.649115,18.86217,-11.318802,78.662994,26.70296,-38.626495,3.8153524,31.657986
