unveil-humanoid-operators/unveil-humanoid-operators.github.io/feature-analysis-animation/data/feature_matrix_instances/height_root_translate_peak_vel_walking_A449_walk_arc_cw_loop_R_very_fast_001__A449.csv
Frame,root_translateX,root_translateY,root_translateZ,root_rotateX,root_rotateY,root_rotateZ,left_hip_pitch_joint_dof,left_hip_roll_joint_dof,left_hip_yaw_joint_dof,left_knee_joint_dof,left_ankle_pitch_joint_dof,left_ankle_roll_joint_dof,right_hip_pitch_joint_dof,right_hip_roll_joint_dof,right_hip_yaw_joint_dof,right_knee_joint_dof,right_ankle_pitch_joint_dof,right_ankle_roll_joint_dof,waist_yaw_joint_dof,waist_roll_joint_dof,waist_pitch_joint_dof,left_shoulder_pitch_joint_dof,left_shoulder_roll_joint_dof,left_shoulder_yaw_joint_dof,left_elbow_joint_dof,left_wrist_roll_joint_dof,left_wrist_pitch_joint_dof,left_wrist_yaw_joint_dof,right_shoulder_pitch_joint_dof,right_shoulder_roll_joint_dof,right_shoulder_yaw_joint_dof,right_elbow_joint_dof,right_wrist_roll_joint_dof,right_wrist_pitch_joint_dof,right_wrist_yaw_joint_dof
0,0.37118688225746155,-1.9267168045043945,70.53560638427734,19.425473079713864,2.2462933459874286,69.94734861467111,20.007162,-2.9286306,2.6468527,6.1269217,-5.2560396,-15.000033,-38.2136,-14.19862,-36.757698,6.5303802,-13.695638,-3.8360996,-20.898502,-13.240446,17.083702,-26.120687,41.2896,-27.227772,44.90008,9.715976,4.563865,25.688255,12.751535,-13.883904,6.8009043,31.834646,-3.8343394,5.236299,-18.197332
1,1.0464208126068115,-0.40233707427978516,70.41455841064453,19.57149913470955,1.9836911232933048,70.11678851492772,21.41297,-2.6810353,2.030255,6.070269,-3.5117993,-15.000033,-37.187767,-14.223196,-37.11373,6.5392575,-13.20202,-3.5432427,-21.28982,-13.212825,16.908611,-26.205395,41.345707,-26.480864,43.567936,10.456515,4.3931847,26.280298,13.331793,-13.821235,5.9057565,31.455349,-3.3956354,5.4427123,-18.286346
2,1.8204765319824219,1.128714919090271,70.29029846191406,19.62222489934109,1.762477516645247,70.28141666917082,22.845211,-2.4487123,1.5361139,6.012289,-1.9209087,-15.000033,-36.376606,-14.322227,-37.55861,7.028158,-13.005128,-3.0786602,-21.60963,-13.023714,16.832369,-26.292904,41.3581,-25.617783,42.0922,11.302723,4.26182,26.866056,13.948139,-13.709537,4.8183045,30.989328,-3.045934,5.6504254,-18.34489
3,2.6752262115478516,2.714125156402588,70.14633178710938,19.596831671508063,1.6496201225735119,70.30907006539677,24.21103,-2.2385733,1.0790542,5.9381557,-0.01696157,-15.000033,-35.552868,-14.129316,-37.827286,7.36061,-12.679829,-3.044712,-21.775082,-12.756934,16.687061,-26.315014,41.31626,-24.80685,40.71153,12.114722,4.0967,27.460236,14.517656,-13.559047,3.806716,30.62494,-2.7465785,5.8480177,-18.398483
4,3.6324853897094727,4.3847808837890625,70.013916015625,19.41324007179687,1.7916566083524281,69.97267524747993,25.385479,-1.9577326,0.7048289,5.834085,2.6544044,-15.000033,-34.79875,-13.301073,-37.565086,7.586103,-12.183232,-4.047608,-21.572323,-12.326055,16.367363,-26.084686,41.202114,-24.10158,39.472233,12.800818,3.8515801,28.083761,14.985564,-13.428714,3.0506375,30.457706,-2.4943855,6.0289035,-18.446634
5,4.638644695281982,6.135616779327393,69.92790222167969,19.061250859715045,2.2080358250244787,69.05993491352812,26.389236,-1.5977207,0.51007247,5.8947997,6.0711246,-15.000033,-34.10386,-11.620172,-36.375664,7.7769904,-11.486453,-6.6283603,-20.834686,-11.721365,15.838779,-25.356302,41.0123,-23.40519,38.236755,13.328869,3.4456525,28.799143,15.368422,-13.38419,2.6026766,30.525139,-2.2927828,6.2118697,-18.487106
6,5.626091957092285,7.877387046813965,69.86316680908203,18.491135012050705,2.764504116117539,67.85098582506032,26.282372,-1.064996,0.40386438,8.158808,8.930464,-15.000033,-34.072735,-9.832473,-34.591274,9.620165,-11.427466,-10.305022,-19.854738,-10.883715,15.192826,-24.31117,40.74561,-22.712845,37.046024,13.729675,2.9258993,29.572546,15.683464,-13.455634,2.3867285,30.745443,-2.1132054,6.3977413,-18.5175
7,6.621389865875244,9.540693283081055,69.81301879882812,17.725880297255966,3.3767133431709078,66.75620140966561,23.654177,-0.31718656,0.12584159,15.157958,9.882196,-15.000033,-34.845726,-8.430499,-32.97037,13.349684,-12.178184,-14.147224,-18.984793,-9.829708,14.492016,-23.116167,40.427647,-22.046135,35.94198,14.111345,2.4308255,30.269836,15.901091,-13.6175165,2.3284032,31.024496,-1.9298079,6.5490966,-18.512226
8,7.626006603240967,11.157278060913086,69.78463745117188,17.051414652252138,3.814709706633705,66.13717324808617,20.943825,0.32916507,-0.70701444,21.608232,11.723073,-15.000033,-35.52803,-7.9427786,-32.24238,17.382473,-13.054504,-15.000033,-18.567387,-8.86558,13.905007,-22.03471,40.071682,-21.462719,35.050915,14.556456,2.0984452,30.766947,15.943843,-13.82497,2.357136,31.299257,-1.7335694,6.6242933,-18.454906
9,8.673942565917969,12.706279754638672,69.78129577636719,16.483421399682165,4.355909493606136,65.74359205513638,17.70042,0.79211706,-1.8763602,27.931282,14.976731,-15.000033,-36.292004,-7.8237567,-32.020267,21.095459,-13.647984,-15.000033,-18.27496,-8.006409,13.270917,-21.18534,39.709663,-21.0743,34.45506,15.143874,1.9657426,31.02094,15.81919,-14.015695,2.4582775,31.548641,-1.5198776,6.5962934,-18.299603
10,9.704259872436523,14.166863441467285,69.82826232910156,15.91786934150243,5.05246489178723,65.39009635594721,13.919153,1.1364316,-3.2734656,34.305794,19.346998,-15.000033,-37.108677,-7.7440033,-31.99255,24.500763,-14.015197,-15.000033,-17.940203,-7.1732793,12.563342,-20.441698,39.348534,-20.851524,34.075634,15.802757,1.9577445,31.101921,15.545582,-14.171966,2.6559193,31.821611,-1.3195782,6.4900045,-18.074018
11,10.698847770690918,15.57467269897461,69.90855407714844,15.282428629178913,5.73157890809409,64.86384184925983,10.186966,1.3864093,-4.6308413,40.30187,23.518616,-15.000033,-37.562634,-7.4001255,-31.974525,27.250978,-14.328508,-15.000033,-17.440256,-6.375338,12.02379,-19.70381,38.97275,-20.65619,33.83205,16.385118,2.0378702,31.048689,15.1143,-14.317516,2.9656591,32.133373,-1.1555353,6.3437505,-17.879944
12,11.670975685119629,16.94557762145996,70.00997924804688,14.504672742397245,6.21011421279734,63.96428667801184,7.0426803,1.656047,-5.6664195,45.65411,26.055902,-15.000033,-37.275337,-6.467384,-31.824606,28.982752,-14.691026,-15.000033,-16.678658,-5.6084924,11.882809,-18.8478,38.554485,-20.328524,33.636894,16.747482,2.1690872,30.900303,14.515003,-14.501891,3.4102843,32.50003,-1.0398088,6.195901,-17.817192
13,12.628829956054688,18.2722225189209,70.16085052490234,13.445837956557575,6.386806298850326,62.520296716064955,4.661203,2.0906875,-6.308195,50.62386,26.170547,-15.000033,-36.05943,-4.64788,-31.56844,29.491905,-15.107947,-15.000033,-15.544072,-4.7516828,12.344923,-17.80919,38.055794,-19.722097,33.432247,16.88654,2.3907094,30.608078,13.672674,-14.789314,4.069339,32.975018,-0.9318041,6.027796,-17.975842
14,13.579167366027832,19.549177169799805,70.33905029296875,12.183504922682891,6.356293402438749,60.672082749247764,2.6582963,2.6965222,-6.727926,55.478073,24.628483,-15.000033,-34.202232,-2.1655607,-31.23768,29.056145,-15.526238,-15.000033,-14.154048,-3.7840326,13.206463,-16.607576,37.472145,-18.890995,33.253315,16.888708,2.7013807,30.170637,12.586667,-15.183296,4.953018,33.554867,-0.8075822,5.8289924,-18.277334
15,14.573468208312988,20.798450469970703,70.54122161865234,10.955448709008444,6.235309523152093,58.705483797943515,0.7029676,3.418296,-7.0261,60.02424,22.289627,-15.000033,-32.02507,0.5346521,-30.737284,27.994358,-15.91544,-15.000033,-12.7513895,-2.8583684,14.114342,-15.308074,36.840935,-18.031244,33.193417,16.714472,3.0076,29.700624,11.381678,-15.616254,5.9592557,34.150288,-0.719239,5.6507406,-18.57014
16,15.607182502746582,22.002132415771484,70.75084686279297,9.970683729619546,6.172586321755364,56.89453541381252,-1.5307041,4.1691623,-7.3055863,64.02754,20.032608,-15.000033,-29.83114,2.9926357,-30.026428,26.649382,-16.245419,-15.000033,-11.5295315,-2.165047,14.750187,-13.989637,36.22502,-17.375963,33.339733,16.31491,3.2204654,29.311478,10.217367,-15.990879,6.9361157,34.643986,-0.7457504,5.544919,-18.706152
17,16.664512634277344,23.16048812866211,70.9758071899414,9.291836790202893,6.240194262178145,55.24991184552206,-4.1431146,4.914641,-7.492081,67.45956,17.94309,-15.000033,-27.657131,5.11119,-29.056467,25.041206,-16.530663,-15.000033,-10.469245,-1.8385752,15.050024,-12.662176,35.6806,-17.026253,33.735893,15.593775,3.3466911,29.076916,9.111301,-16.23544,7.8460975,35.02888,-1.0494394,5.5836806,-18.625307
18,17.76117706298828,24.299861907958984,71.23523712158203,8.811394376220344,6.363830829902938,53.64121979649464,-6.9450083,5.6901274,-7.5621057,70.42648,15.594375,-15.000033,-25.31094,7.098589,-27.83435,22.980616,-16.758959,-15.000033,-9.4437685,-1.8164715,15.208426,-11.306903,35.222496,-16.894543,34.32552,14.584246,3.4300065,28.9231,8.010644,-16.336134,8.728621,35.35465,-1.579074,5.715307,-18.417755
19,18.897348403930664,25.41460418701172,71.52360534667969,8.462682895099729,6.495278429153346,52.11774063214692,-9.833816,6.4796424,-7.676187,72.87008,13.111114,-15.000033,-22.759254,8.94925,-26.451328,20.518982,-16.85618,-15.000033,-8.470988,-1.9959494,15.3002615,-9.96192,34.84533,-16.933403,35.053177,13.429367,3.4383698,28.74032,6.975508,-16.306772,9.529882,35.581863,-2.093973,5.8071623,-18.163803
20,20.058273315429688,26.5037899017334,71.81559753417969,8.213819553944882,6.587962805776804,50.733359877595696,-12.722142,7.24824,-7.94677,74.70871,10.63433,-15.000033,-20.01208,10.612337,-24.988415,17.779087,-16.778402,-15.000033,-7.5682964,-2.2911453,15.380848,-8.696132,34.527584,-17.116411,35.890533,12.266707,3.343361,28.418598,6.067395,-16.176952,10.191487,35.66969,-2.347197,5.7311087,-17.9462
21,21.215530395507812,27.58963966369629,72.10932922363281,8.316552359204943,6.632267452955186,49.558343770283805,-15.770261,8.857585,-6.9864736,75.80488,8.147477,-12.269449,-17.275368,11.67358,-23.399649,15.3042145,-16.854748,-15.000033,-6.7752314,-2.9257917,15.411001,-7.5480256,34.263878,-17.494402,36.89966,11.074566,3.100895,27.907133,5.333578,-15.947906,10.67974,35.56662,-2.243624,5.42821,-17.775526
22,22.401281356811523,28.682666778564453,72.38507843017578,8.594918922452587,6.653861818612073,48.52631791116426,-18.846315,10.642751,-5.6892033,76.28645,5.401963,-8.630266,-14.368695,12.446934,-21.71949,12.593256,-16.865582,-15.000033,-6.043941,-3.7611723,15.404575,-6.498484,34.05783,-18.079256,38.102234,9.79631,2.7470715,27.26693,4.7366085,-15.622936,11.018207,35.30994,-1.923735,4.9776216,-17.610495
23,23.57765007019043,29.785686492919922,72.63517761230469,8.95865252756973,6.701232108373268,47.56276914385225,-21.828142,12.21129,-4.4257402,76.17323,2.5998964,-5.1302176,-11.53453,12.953066,-20.02332,9.984928,-16.805082,-15.000033,-5.338776,-4.6679907,15.373792,-5.5037994,33.88077,-18.758219,39.384377,8.53437,2.3698142,26.56327,4.190075,-15.246904,11.246408,35.000122,-1.4826665,4.4572887,-17.454796
24,24.70138168334961,30.896392822265625,72.86624145507812,9.300898291120399,6.817397860838137,46.60203563763314,-24.657791,13.458717,-3.32476,75.48309,0.025947228,-2.1949391,-9.135009,13.197999,-18.430948,8.102686,-16.830822,-15.000033,-4.6458,-5.4830565,15.332287,-4.4986644,33.68091,-19.397472,40.616688,7.4044943,2.0497522,25.865906,3.6130815,-14.889999,11.414181,34.723995,-1.0059348,3.9461598,-17.311049
25,25.7867488861084,32.03400421142578,73.07730102539062,9.609232785119367,7.00300378281981,45.664873717723125,-27.400486,14.458087,-2.3111532,74.2175,-2.2958071,0.30002442,-7.593727,13.08215,-17.097717,7.8208976,-17.32586,-15.000033,-4.000587,-6.15401,15.299255,-3.4855175,33.412712,-19.959393,41.803665,6.436252,1.7805982,25.126196,3.00866,-14.6032715,11.510906,34.441994,-0.42301455,3.4125218,-17.199781
26,26.844358444213867,33.17228698730469,73.2471923828125,9.912362388899323,7.234851605712548,44.78745031369127,-30.058653,15.244816,-1.3088497,72.360214,-4.458667,2.5145252,-6.1459684,12.86663,-15.855175,7.5413694,-17.569569,-15.000033,-3.426131,-6.716745,15.259818,-2.4972727,33.061596,-20.506437,43.01624,5.5833116,1.5243882,24.333591,2.4269664,-14.397572,11.532292,34.10445,0.30123752,2.8349612,-17.104544
27,27.878990173339844,34.34613800048828,73.37677764892578,10.143717628963078,7.511780591446961,43.92945642611616,-32.530033,15.782731,-0.44952774,69.92062,-6.289108,4.1852465,-4.896294,12.616494,-14.689889,7.5336375,-17.831648,-15.000033,-2.8968582,-7.1222415,15.179649,-1.504876,32.62378,-21.051643,44.217133,4.850286,1.3063906,23.617422,1.8528658,-14.280564,11.540385,33.786846,1.0296466,2.3079824,-16.978184
28,28.90780258178711,35.532047271728516,73.47587585449219,10.277411881963523,7.8381412793083465,43.037168060201886,-34.69493,16.055191,0.193881,66.844765,-7.5540977,5.1171064,-3.7112954,12.40753,-13.506132,7.5549664,-18.103989,-15.000033,-2.3807058,-7.3692307,15.016081,-0.46376875,32.10845,-21.59654,45.35813,4.239855,1.1485922,23.104834,1.2683427,-14.256653,11.606895,33.56564,1.6261986,1.9275756,-16.780277
29,29.923871994018555,36.76423263549805,73.53763580322266,10.318893032815051,8.269953683928222,42.123244498622924,-36.64205,16.051334,0.4750827,63.023243,-8.038928,5.295804,-2.67346,12.23359,-12.29261,7.6097646,-18.359798,-15.000033,-1.9074097,-7.4570065,14.709493,0.6553372,31.515062,-22.143717,46.42323,3.7604573,1.0612497,22.864908,0.6365212,-14.332049,11.765916,33.480995,2.1344218,1.7070743,-16.501749
30,30.94071388244629,38.010616302490234,73.5356216430664,10.291751658391378,8.784003082934365,41.198522936885475,-38.38461,15.856795,0.5104993,58.473335,-7.860738,4.918068,-1.8250468,12.058809,-11.091981,7.8634195,-18.631386,-15.000033,-1.478927,-7.4054008,14.2918005,1.8299654,30.841322,-22.690882,47.43814,3.4083185,1.0235497,22.81789,-0.02174832,-14.506702,11.987452,33.48544,2.6042309,1.6011415,-16.168062
31,31.987607955932617,39.2734489440918,73.4816665649414,10.175746286568923,9.261845465703319,40.20729120439697,-39.73196,15.651388,0.5570093,53.360023,-7.3014846,4.099538,-1.2078307,11.891892,-9.952701,8.790827,-19.25625,-15.000033,-1.0217222,-7.2264876,13.864311,3.0490668,30.100035,-23.213058,48.394154,3.1774712,1.0118372,22.866636,-0.64304817,-14.769238,12.245416,33.527184,2.9074316,1.6150522,-15.791441
32,33.05201721191406,40.53577423095703,73.35503387451172,9.943200720163448,9.581230676353025,39.0959372203926,-40.520477,15.625111,0.8568446,47.85256,-6.64262,2.9373784,-0.22473957,11.871363,-8.798198,9.494333,-19.863745,-15.000033,-0.4667409,-6.9258723,13.533007,4.309359,29.313822,-23.678864,49.26925,3.0575495,1.0045693,22.913174,-1.169542,-15.101245,12.51311,33.556095,2.9139163,1.7514715,-15.383514
33,34.13176345825195,41.813987731933594,73.15676879882812,9.565307951906215,9.686943413500257,37.86196032313055,-40.62723,15.919371,1.5097977,41.705875,-5.879386,1.4436846,1.2347493,12.050126,-7.6304555,9.870306,-20.477554,-15.000033,0.18710443,-6.480854,13.327175,5.6364985,28.500393,-24.101826,50.054363,3.0806465,0.9990596,22.974285,-1.6088723,-15.486775,12.792423,33.592155,2.4878206,2.0664215,-14.9017315
34,35.254791259765625,43.10183334350586,72.89070892333984,9.054015792866121,9.635047390955174,36.51647050475257,-40.130695,16.462498,2.3675902,34.80312,-4.829343,-0.39991564,3.0361078,12.366605,-6.432912,10.016296,-21.082407,-15.000033,0.92137307,-5.88995,13.197133,7.043145,27.664156,-24.480114,50.735798,3.2371948,1.0071665,23.087143,-1.9910675,-15.921799,13.095941,33.65642,1.7223748,2.5314305,-14.349183
35,36.43434143066406,44.4074592590332,72.55912780761719,8.432093675269703,9.459293945840807,35.01919563608377,-39.14561,17.1565,3.3133645,27.46633,-3.5044985,-2.5329714,5.0769873,12.713308,-5.1673,10.0665,-21.645689,-15.000033,1.7788625,-5.1770477,13.140698,8.50459,26.80635,-24.758503,51.27936,3.4520526,1.0300984,23.18339,-2.2959406,-16.41167,13.411887,33.698223,0.8341679,3.0247514,-13.80735
36,37.658077239990234,45.727622985839844,72.17100524902344,7.704897763797528,9.17423639021328,33.30619429695357,-37.751377,17.960052,4.2363358,20.016312,-1.9415219,-4.881986,7.30346,13.0251465,-3.7811284,10.107936,-22.111513,-15.000033,2.823099,-4.349027,13.175607,9.9966135,25.924452,-24.885674,51.64589,3.6518254,1.0687779,23.193134,-2.4999943,-16.968048,13.726881,33.659748,0.04610829,3.4323368,-13.363604
37,38.91994857788086,47.07811737060547,71.73003387451172,6.749125476513626,8.662424436363883,31.16869637947197,-35.570698,19.046013,5.1696234,11.923455,0.08398169,-7.7673554,9.969744,13.42671,-2.0587533,10.036334,-22.462952,-15.000033,4.2340503,-3.2833576,13.394238,11.610684,25.004679,-24.803654,51.730427,3.8728216,1.139508,23.067019,-2.6030293,-17.620243,14.067947,33.53185,-0.64894366,3.74353,-13.011337
38,40.20161437988281,48.475181579589844,71.24019622802734,5.510050608546645,7.8173874264111225,28.566079382477316,-34.148247,20.826395,5.696357,6.5429425,0.61790323,-11.034606,13.223789,13.965481,0.07332131,9.791335,-22.702993,-15.000033,6.0444236,-1.8789992,13.844988,13.355419,24.0363,-24.564016,51.55056,4.1388063,1.2370877,22.852566,-2.598373,-18.386269,14.434083,33.316837,-1.3393089,4.0182543,-12.707692
39,41.479244232177734,49.89275360107422,70.7655258178711,4.309685566280893,6.876220520925947,25.950481856464798,-34.967102,23.027374,5.4126096,6.3608932,-1.5690204,-13.928612,16.47257,14.307156,2.1501827,9.712062,-22.91076,-15.000033,7.9177437,-0.50946635,14.310527,15.128228,23.249277,-24.297115,51.140152,4.3061924,1.3402418,22.601053,-2.4990387,-19.056015,14.697817,33.056316,-1.9869345,4.239341,-12.509503
40,42.74678039550781,51.294742584228516,70.36434936523438,3.5481844493966563,6.1547263380617006,23.876117056456437,-35.80459,24.612738,5.2898035,6.3136244,-3.5694952,-15.000033,19.023903,14.105018,3.5235183,10.180206,-23.225456,-15.000033,9.39854,0.37720618,14.5737705,16.732597,22.747238,-24.124079,50.676487,4.2526493,1.4203385,22.380276,-2.3376486,-19.493385,14.774014,32.806034,-2.521486,4.3947797,-12.484713
41,44.0067138671875,52.66780090332031,70.04232025146484,3.106340411005897,5.734669868011705,22.195068844538348,-36.65909,25.775219,5.5432353,6.332943,-5.2717376,-15.000033,20.927284,13.478686,4.312194,10.913082,-23.499655,-15.000033,10.440428,1.0781176,14.655492,17.955057,21.988422,-23.89912,50.48858,4.075709,1.4181217,22.232115,-2.0845368,-20.175013,14.838305,32.37794,-2.780926,4.4987226,-12.66529
42,45.28562545776367,53.987060546875,69.76518249511719,2.752462390623196,5.477740699812241,20.648280499500185,-37.43549,26.866507,6.098391,6.4607844,-6.7409716,-15.000033,22.571068,12.691462,4.8177147,11.604274,-23.57306,-15.000033,11.394308,1.7028631,14.621551,18.919413,21.195213,-23.704086,50.413803,3.7501886,1.3727062,22.116247,-1.71933,-20.891434,14.789101,31.856663,-2.9033234,4.5503087,-13.023311
43,46.5968017578125,55.28297424316406,69.51432037353516,2.5518192936138995,5.296693146600967,19.37845273620918,-37.82828,27.607565,6.81747,6.379188,-7.7481766,-15.000033,24.1177,11.782252,4.9161444,12.167001,-23.317245,-15.000033,12.092346,2.238513,14.529702,19.555904,20.303318,-23.622414,50.61767,3.3629515,1.3201748,22.055391,-1.189564,-21.707544,14.649202,31.194357,-2.8100038,4.5870304,-13.44593
44,47.93547821044922,56.54973220825195,69.26471710205078,2.4324380179350027,5.08915660529384,18.47047440096997,-37.93211,27.969181,7.266657,6.49558,-8.427238,-15.000033,25.786299,10.920096,4.5647173,12.408314,-22.529493,-15.000033,12.490877,2.6270905,14.415213,20.007055,19.618208,-23.713442,50.969685,2.9171798,1.319346,22.032396,-0.54089636,-22.355806,14.404913,30.521597,-2.5178766,4.6278005,-13.8516445
45,49.28321838378906,57.76889419555664,69.03588104248047,2.498134538281697,4.839140224936728,18.083191346959175,-37.369648,27.75105,7.7203555,6.397127,-8.57626,-15.000033,27.552988,10.017431,3.6161256,12.398297,-21.281908,-15.000033,12.452515,2.9094048,14.317093,20.056273,18.917429,-24.062662,51.76231,2.3774054,1.3586842,22.088417,0.44316244,-23.061666,13.984229,29.597832,-1.8431354,4.701458,-14.219303
46,50.66041946411133,58.961273193359375,68.82149505615234,2.735760717049332,4.569112413039371,18.10683209985053,-36.417427,27.065947,8.1439,6.4786763,-8.443646,-14.950076,29.26213,9.013194,2.0898979,12.417474,-19.743187,-14.947469,12.101551,3.0603583,14.241271,19.782244,18.268915,-24.630098,52.84911,1.7083627,1.4231234,22.206923,1.7296784,-23.773897,13.359904,28.46839,-0.8666192,4.7800126,-14.595279
47,52.0800895690918,60.14085388183594,68.6370620727539,3.2350728630651173,4.327595153380473,18.486246534288345,-35.208145,25.6482,8.144872,6.385134,-7.796086,-14.007276,30.811544,7.7357283,-0.18514721,12.508298,-17.813799,-14.026414,11.359625,2.7749336,14.171606,19.538593,17.954702,-25.1523,53.791843,1.0717025,1.5335863,22.319696,2.8557131,-24.150358,12.803978,27.587471,0.122675404,4.8142915,-14.990864
48,53.56837463378906,61.347686767578125,68.46190643310547,3.7124599202845148,4.196313070102651,18.992456940172822,-34.31295,24.04428,7.2130694,6.529113,-6.76973,-13.415392,32.27535,6.563136,-2.871867,12.380267,-15.177146,-12.801764,10.659174,2.6346288,14.0220175,18.744862,17.521393,-26.066124,55.08015,0.6065911,1.6594597,22.491928,4.426165,-24.728186,11.898302,26.345308,0.978764,4.824266,-15.244821
49,55.09726333618164,62.55305480957031,68.27642822265625,4.49375308650775,4.430591950054698,19.428346892539242,-33.597687,22.015667,5.4398513,6.5675564,-5.053976,-13.074711,32.091427,4.8900547,-6.1172814,14.944259,-13.188064,-11.052879,10.038357,2.0780222,13.553815,17.778618,17.144907,-27.064339,56.434303,0.4577268,1.8456446,22.693998,6.048863,-25.263102,10.999025,25.119057,1.7181857,4.781245,-15.396572
50,56.60761642456055,63.69906234741211,68.15485382080078,5.423950020684036,4.775051725594666,20.01503775875157,-32.909016,19.607658,2.8197765,6.6495447,-2.7629497,-12.985461,31.333143,2.8877504,-9.765532,18.559969,-11.040697,-9.126424,9.215139,1.2259103,12.934926,16.766445,16.948378,-28.055069,57.762196,0.5228068,2.0927994,22.917034,7.5383554,-25.552212,10.224674,24.129934,2.3729076,4.6839695,-15.50696
51,58.10948181152344,64.79680633544922,68.08409118652344,6.330082602791996,5.05142645946076,20.635562139488037,-32.103947,17.23126,0.059606023,6.713136,-0.16189341,-13.48037,30.31176,0.7399086,-13.393536,22.779512,-8.66316,-7.607298,8.25825,0.32655597,12.3965025,15.652084,16.900091,-29.05134,58.994648,0.6358613,2.3381236,23.120926,8.833626,-25.63863,9.558576,23.403616,2.8318436,4.5625587,-15.602315
52,59.58070755004883,65.8521499633789,68.03617858886719,7.122961978119402,5.177415233043227,21.04502844364489,-31.195951,15.314456,-2.0252862,6.904535,2.3571463,-14.766402,28.930157,-1.5487665,-16.603489,27.788544,-6.375745,-6.9866896,7.334963,-0.50733185,12.126148,14.416927,16.97158,-30.01522,60.03288,0.6394613,2.5169327,23.258343,9.808635,-25.572138,9.0213175,22.99994,2.9995153,4.446641,-15.721177
53,61.03947067260742,66.92942810058594,67.9918441772461,8.052330806246129,5.108989337967519,21.275520495822704,-30.973127,13.428578,-3.0506742,8.899133,4.2822785,-15.000033,27.132786,-4.6143985,-19.811657,34.115635,-4.029053,-7.4178686,6.3639197,-1.5081933,12.205095,13.110515,17.126907,-30.89629,60.80297,0.47228914,2.607862,23.282389,10.387992,-25.396635,8.660272,22.981897,2.7552638,4.297018,-15.853563
54,62.47975158691406,68.02066802978516,67.9573745727539,9.081893690941767,4.9371400176018385,21.41890156145464,-30.35788,11.71086,-3.1256487,10.310755,6.967617,-15.000033,25.141209,-8.483779,-23.0922,41.338898,-1.5679065,-8.908205,5.3099384,-2.6571624,12.482579,11.681982,17.349703,-31.74651,61.417187,0.23097938,2.6426814,23.232279,10.680856,-25.132196,8.42659,23.251783,2.1978593,4.1190443,-15.986328
55,63.89100646972656,69.02786254882812,67.9437026977539,10.203340572668665,4.722063817719172,21.486619683074114,-29.642166,10.224431,-2.58248,11.726721,9.298969,-15.000033,23.06352,-12.666794,-25.802404,48.67722,0.26604837,-11.15824,4.203595,-3.9438808,12.911919,10.038848,17.667067,-32.607975,61.983624,0.009650777,2.639791,23.182,10.733118,-24.762302,8.269604,23.70983,1.5619022,4.005414,-16.167213
56,65.23123931884766,69.8956527709961,67.9742202758789,11.385920865749304,4.50489102640849,21.453404634590086,-28.826942,8.915067,-1.8325446,13.253874,10.25527,-15.000033,20.752523,-16.334112,-27.163296,55.455635,0.8305944,-13.396658,3.1210294,-5.3381357,13.477026,8.1025095,18.127073,-33.53708,62.575684,-0.10327568,2.6200733,23.20049,10.592676,-24.248396,8.128699,24.261536,1.0735619,4.044684,-16.437746
57,66.50944519042969,70.63671112060547,68.02750396728516,12.676587796825558,4.265814139971989,21.264257249897017,-27.8394,7.6586633,-0.97071624,14.94174,9.157531,-15.000033,17.713062,-18.787668,-26.32527,61.85559,-0.191628,-15.000033,2.1199837,-6.923589,14.276799,5.7740746,18.7782,-34.6266,63.17282,-0.10229828,2.5523388,23.27428,10.210432,-23.52906,7.945644,24.90711,0.7369668,4.3445153,-16.804588
58,67.74758911132812,71.30763244628906,68.13712310791016,14.017011599951534,4.001546838338057,20.9235722922894,-26.688572,6.4210935,0.088425264,16.628096,6.680031,-15.000033,13.795936,-19.870289,-23.437689,68.19052,-2.2549598,-15.000033,1.2233584,-8.653119,15.288897,3.1100152,19.615421,-35.893143,63.692623,-0.042409506,2.444783,23.363089,9.586925,-22.590267,7.724017,25.683903,0.42961586,4.8272696,-17.238731
59,68.98335266113281,71.92975616455078,68.31292724609375,15.218593497249461,3.776736521756371,20.476296139457826,-25.382343,5.2919216,1.1785754,17.921125,3.8676336,-15.000033,9.5313425,-20.080582,-20.304699,74.083626,-4.7236676,-15.000033,0.4408905,-10.317167,16.34547,0.26739818,20.589413,-37.252064,64.12584,0.07992176,2.3756895,23.500355,8.839872,-21.489399,7.517819,26.551823,0.1999718,5.3053737,-17.732248
60,70.20811462402344,72.52589416503906,68.54764556884766,16.134619827639614,3.6563225106590713,19.991830304276665,-23.899221,4.387077,2.142273,18.453985,1.7425559,-15.000033,5.3296,-20.05938,-18.034586,79.091385,-6.970222,-15.000033,-0.26900753,-11.693346,17.265635,-2.5869863,21.635277,-38.569736,64.49427,0.2741562,2.4194827,23.728527,8.100814,-20.330927,7.4031425,27.454544,0.11290039,5.59457,-18.283304
61,71.389404296875,73.09968566894531,68.82606506347656,16.63353047427636,3.739382787984962,19.459278598446147,-22.27091,3.914402,2.9191058,18.11823,0.48521772,-15.000033,1.0870389,-20.058413,-16.861696,83.131744,-8.897325,-15.000033,-0.95014477,-12.590933,17.944626,-5.5277534,22.727219,-39.98386,64.97358,0.53599536,2.6093392,24.118645,7.355823,-19.178652,7.4143057,28.425394,0.25689286,5.648556,-18.967169
62,72.5494613647461,73.61746978759766,69.14511108398438,16.821301271818605,3.978721189759857,18.855745082610998,-20.502663,3.7976758,3.622838,17.156502,-0.43561104,-15.000033,-3.326508,-19.869944,-16.28498,86.43645,-10.818742,-15.000033,-1.6014669,-13.127968,18.500328,-8.618792,23.851942,-41.482887,65.51908,0.86815816,2.8992884,24.632238,6.5709543,-18.038158,7.5252724,29.450562,0.60178757,5.5640483,-19.75946
63,73.72806549072266,74.0909194946289,69.48656463623047,16.79130343490402,4.269747138324645,18.21195799223359,-18.624065,3.9014516,4.2814164,15.867635,-1.1530544,-15.000033,-7.6590734,-19.500902,-16.18248,88.93285,-12.665237,-15.000033,-2.1983387,-13.418677,19.020092,-11.661911,24.972084,-42.670685,65.87385,1.2974681,3.241052,25.155413,5.832135,-16.942749,7.7429934,30.43345,1.0375623,5.370499,-20.515846
64,74.9403076171875,74.57687377929688,69.84725952148438,16.63529625668382,4.508015141087892,17.55862266384809,-16.678331,4.0896196,4.905258,14.563766,-1.807126,-15.000033,-11.674989,-18.933613,-16.417168,90.53379,-14.3625145,-15.000033,-2.7331674,-13.567469,19.571966,-14.437914,26.049185,-43.12312,65.80964,1.8655709,3.5825133,25.577147,5.2123733,-15.94704,8.098352,31.294611,1.470547,5.101828,-21.094742
65,76.14470672607422,75.07582092285156,70.2071533203125,16.327015818244966,4.637966407417442,16.871393019070076,-14.630051,4.3810773,5.4871993,13.323033,-2.4545794,-15.000033,-15.332015,-18.154457,-17.020248,91.159195,-15.996586,-15.000033,-3.201806,-13.522966,20.20053,-16.893433,27.068245,-42.597557,65.30458,2.6813006,3.9968185,25.873821,4.7233434,-15.1093235,8.660327,32.024094,2.0036185,4.7289767,-21.450066
66,77.34817504882812,75.58837890625,70.58586120605469,15.834165269113134,4.71799887298918,16.14682682807057,-12.47289,4.8409863,6.036303,11.986225,-3.0206325,-15.000033,-18.744892,-17.229301,-18.06351,90.839165,-17.554255,-15.000033,-3.646844,-13.2298975,20.845366,-19.11195,28.044806,-41.310307,64.522224,3.708614,4.478086,26.102407,4.3260183,-14.444018,9.426753,32.675102,2.6771326,4.2493253,-21.655663
67,78.61309814453125,76.0797119140625,70.96217346191406,15.241387664170261,4.820218661986481,15.444041529945311,-10.287221,5.393752,6.5771027,10.487947,-3.4369404,-15.000033,-21.927933,-16.233675,-19.445158,89.652145,-18.817093,-15.000033,-4.1035213,-12.795969,21.417921,-21.11124,28.992247,-39.574993,63.530838,4.74042,4.8529477,26.277607,4.022471,-13.9226265,10.300831,33.257526,3.2952697,3.740886,-21.750977
68,79.9378662109375,76.51414489746094,71.31805419921875,14.640549446567361,5.02198498226153,14.819601536736506,-8.135126,5.9444556,7.139618,8.732063,-3.610923,-15.000033,-24.896164,-15.225347,-21.039099,87.68214,-19.570429,-15.000033,-4.587974,-12.344191,21.833078,-22.923525,29.916971,-37.709095,62.392014,5.577602,4.948882,26.422497,3.819993,-13.492798,11.172592,33.772984,3.6463552,3.2817738,-21.782501
69,81.27191925048828,76.91014099121094,71.63813018798828,14.00796722544061,5.4028165605351655,14.263546194639499,-6.235218,6.5439878,7.756839,7.023874,-3.7142277,-15.000033,-27.715782,-14.142933,-22.856714,84.83846,-19.68788,-15.000033,-5.0385346,-11.87417,22.030935,-24.54104,30.811491,-35.616035,61.04226,6.2038236,4.652983,26.539616,3.7451508,-13.106941,12.04662,34.210243,3.632599,2.862832,-21.74247
70,82.58647918701172,77.29741668701172,71.908935546875,13.327139021810867,5.904746138293306,13.75168600835233,-5.239045,7.2972174,8.317706,6.9101605,-4.577301,-15.000033,-30.351143,-12.969509,-24.90927,81.08066,-19.31909,-15.000033,-5.442752,-11.363519,22.065847,-25.991192,31.67085,-33.215454,59.52138,6.7041316,4.0791593,26.627653,3.7806904,-12.756159,12.95142,34.590466,3.36161,2.451394,-21.619436
71,83.92144012451172,77.69095611572266,72.13002014160156,12.70824222759797,6.401614086903114,13.32262010652216,-4.273251,7.9663906,8.828919,6.795707,-5.3212423,-15.000033,-32.672985,-11.815751,-27.034876,76.579544,-18.660536,-15.000033,-5.8855987,-10.904461,22.031897,-27.362633,32.49847,-30.853241,58.027126,7.03115,3.3947353,26.703049,3.8788066,-12.451408,13.804718,34.94402,2.928467,2.0902724,-21.45497
72,85.2889175415039,78.11715698242188,72.30841064453125,12.261663518558246,6.769017376322166,13.020922613701266,-3.223652,8.401603,9.214081,6.683986,-5.913433,-15.000033,-34.561592,-10.793889,-29.06074,71.50852,-17.907843,-15.000033,-6.4402795,-10.582639,22.029795,-28.742596,33.286278,-28.878359,56.745434,7.1495852,2.7662418,26.779175,4.0069036,-12.204937,14.504935,35.28542,2.4240792,1.8225665,-21.285133
73,86.67884826660156,78.56636810302734,72.45143127441406,11.995678337973388,7.025539452120646,12.87285589706684,-2.1197793,8.570733,9.450883,6.5636334,-6.3352838,-15.000033,-35.95163,-9.9249735,-31.049406,65.72096,-17.065296,-15.000033,-7.124831,-10.376549,22.06091,-30.22168,34.011734,-27.4367,55.780155,6.888916,2.1152978,26.891703,4.1616716,-12.025063,15.007569,35.607513,1.7351838,1.6776749,-21.099476
74,88.12612915039062,79.04681396484375,72.55621337890625,11.940014943997742,7.128050410236201,12.966315046870239,-0.94720227,8.4266405,9.475981,6.422835,-6.6035085,-15.000033,-36.87569,-9.251881,-32.836704,59.247726,-16.105984,-14.350306,-7.994729,-10.314343,22.143648,-31.71677,34.639782,-26.28283,54.99679,6.381649,1.3932391,27.023718,4.3717594,-11.904562,15.3444395,35.894325,0.8533614,1.6241959,-20.88022
75,89.59980773925781,79.547607421875,72.61351013183594,12.079256324259754,7.074313841924348,13.187400482197663,0.3244133,8.048949,9.37957,6.3428845,-6.7900796,-15.000033,-37.475224,-8.698484,-34.197895,52.36349,-15.043937,-13.123728,-8.934632,-10.42005,22.259344,-33.25413,35.177956,-25.412416,54.377335,5.8298717,0.8057253,27.112228,4.6540184,-11.836771,15.546935,36.14036,0.02992923,1.6173391,-20.660933
76,91.11360168457031,80.06676483154297,72.59950256347656,12.439575364426634,6.754622872431193,13.463517176043702,1.8789277,7.439189,9.198661,6.280671,-6.9056444,-15.000033,-37.82107,-8.263782,-34.949482,45.42628,-13.957759,-11.835925,-9.878997,-10.780704,22.479073,-34.80867,35.645855,-24.780672,53.849632,5.4716053,0.5621894,27.098255,5.0212665,-11.809397,15.641843,36.3432,-0.48652887,1.6140556,-20.47181
77,92.671630859375,80.55547332763672,72.52389526367188,13.091489822471575,6.027898321731823,13.82839407239862,3.8351665,6.5155444,8.846064,6.2690086,-6.9188704,-15.000033,-37.704384,-7.8059216,-34.85205,37.911278,-12.665598,-10.336053,-10.883863,-11.498012,22.876488,-36.366142,36.05653,-24.417202,53.38999,5.372154,0.81324023,26.966078,5.5105205,-11.824022,15.629764,36.48728,-0.6069343,1.6113495,-20.30983
78,94.26580047607422,81.04029083251953,72.36483764648438,13.969972414235189,4.953341360767406,14.313698660990708,6.126459,5.3505,8.265613,6.265516,-6.8038454,-15.000033,-36.99848,-7.432549,-34.136,29.689016,-11.165568,-8.758266,-11.989359,-12.499044,23.404161,-37.9194,36.408836,-24.317183,52.998093,5.406367,1.4174335,26.743244,6.10281,-11.885699,15.503062,36.574223,-0.47358134,1.6317085,-20.160694
79,95.9102783203125,81.53657531738281,72.1288833618164,14.946573977181695,3.755411363339549,14.935796652443118,8.496787,4.143965,7.4577065,6.256368,-6.6309285,-15.000033,-35.918648,-7.4242086,-33.32704,21.509912,-9.674335,-7.4482656,-13.207076,-13.6275625,23.883045,-39.450714,36.70282,-24.38435,52.641453,5.518761,2.1484396,26.434273,6.7314353,-11.985375,15.282151,36.62631,-0.18688214,1.6726391,-20.03592
80,97.58548736572266,82.04328155517578,71.82351684570312,15.884328881675463,2.6776803119175554,15.716813987813602,10.653937,3.0937257,6.455123,6.250814,-6.484123,-15.000033,-34.85788,-7.925547,-33.014294,14.236082,-8.404663,-6.6036925,-14.550861,-14.701261,24.126522,-40.941975,36.938133,-24.520065,52.29538,5.6556697,2.780517,26.046642,7.3203163,-12.104119,14.991665,36.681538,0.15050392,1.7302471,-19.949959
81,99.2745361328125,82.52635955810547,71.46971130371094,16.732143227764475,1.8171851108606916,16.706511482025324,12.482206,2.2546158,5.2307634,6.2470374,-6.4374313,-15.000033,-33.997814,-8.82392,-33.56183,7.7180014,-7.3300185,-6.2122083,-16.075268,-15.652491,24.019249,-42.38287,37.14507,-24.714964,51.94155,5.8093038,3.3195782,25.513433,7.873091,-12.243045,14.653636,36.759426,0.56303775,1.78988,-19.905212
82,100.95409393310547,82.9524154663086,71.07071685791016,17.51594759911554,1.0658814601102307,17.84762829438121,14.138277,1.5681034,3.8347058,6.2248645,-6.4255266,-15.000033,-35.542633,-11.395701,-34.249695,7.327743,-9.315427,-5.939315,-17.732958,-16.518818,23.66346,-43.77443,37.30651,-24.997755,51.594322,6.021756,3.8619664,24.855114,8.390042,-12.384646,14.259431,36.873573,1.0806742,1.8555356,-19.903963
83,102.60717010498047,83.33049011230469,70.67314910888672,18.180132821858546,0.4439782549090178,18.969411081757563,15.613237,1.0908763,2.49338,6.2769985,-6.3799934,-15.000033,-36.83868,-13.572112,-35.06759,6.722607,-10.800884,-5.715583,-19.344673,-17.220207,23.192863,-45.071815,37.437492,-25.31916,51.192055,6.2627277,4.321694,24.203997,8.818485,-12.536966,13.781625,36.98282,1.6253244,1.9531181,-19.93602
84,104.20882415771484,83.6612777709961,70.33491516113281,18.588250125076026,0.07939958540891034,19.781404961342147,16.966917,0.94808966,1.5868562,6.2573285,-6.116876,-15.000033,-38.077175,-15.126226,-35.535275,6.734058,-11.998234,-5.5644426,-20.590368,-17.5771,22.731934,-46.22526,37.53696,-25.60889,50.681602,6.5138617,4.6126995,23.704292,9.066273,-12.701651,13.194103,37.085762,2.1168113,2.1064532,-19.998716
85,105.79287719726562,83.97681427001953,70.05559539794922,18.875823039240988,-0.1489100347791428,20.462686021539614,18.174791,0.9845235,1.0174611,6.260493,-5.7309256,-15.000033,-38.835823,-16.205221,-35.570244,6.739689,-12.411475,-5.525257,-21.625751,-17.741802,22.348804,-47.296387,37.602936,-25.900051,50.09251,6.761568,4.685524,23.36193,9.141322,-12.866731,12.447665,37.131073,2.5074236,2.3378196,-20.097513
86,107.4019775390625,84.2976303100586,69.82893371582031,19.07113593245152,-0.22012305648636046,21.052825066520455,19.24387,1.1558967,0.70349216,6.245119,-5.2355137,-15.000033,-39.23335,-16.93466,-35.394917,6.7774024,-12.235792,-5.6503596,-22.488173,-17.736465,21.972048,-48.290886,37.638573,-26.218403,49.440018,7.0112576,4.5956936,23.114405,9.097802,-13.036377,11.559155,37.130177,2.8491929,2.6286654,-20.22945
87,109.0531005859375,84.57986450195312,69.64102172851562,19.157045938457518,-0.18386403402347523,21.430874994932125,20.285421,1.4532486,0.55372256,6.2215743,-4.444067,-15.000033,-39.200287,-17.22616,-35.26634,6.8126364,-11.707381,-5.92848,-23.103731,-17.55272,21.613737,-49.08394,37.635178,-26.505701,48.697376,7.2818403,4.4182878,22.977497,9.019211,-13.237247,10.619795,37.118073,3.2114975,2.9499369,-20.383715
88,110.7611083984375,84.83010864257812,69.48330688476562,19.0690530234207,-0.05074984951062848,21.43744330817902,21.405048,1.9023691,0.53361726,6.180416,-3.1674707,-15.000033,-38.799572,-16.983246,-35.396385,7.0562515,-11.199098,-6.375101,-23.388401,-17.159971,21.255459,-49.513096,37.60597,-26.665554,47.834904,7.6169395,4.2299232,22.966574,8.894114,-13.452505,9.779011,37.227665,3.6516507,3.266844,-20.581125
89,112.51070404052734,85.05918884277344,69.33924102783203,18.709564163919016,0.15270536848448532,20.940410941493642,22.756895,2.5955968,0.7277346,6.1259212,-1.5072153,-15.000033,-37.719933,-16.022285,-36.070507,7.5648856,-10.824841,-6.797378,-23.239336,-16.450167,20.970413,-49.488995,37.55275,-26.603918,46.753468,8.066583,4.0975676,23.04621,8.742088,-13.753351,9.038962,37.433453,4.231876,3.5963523,-20.872545
90,114.31251525878906,85.28558349609375,69.20873260498047,18.13151179550589,0.3596236026525833,20.073374278953946,24.3272,3.4594717,1.1073081,6.059179,0.48564628,-15.000033,-36.588036,-15.006341,-36.89232,9.89003,-11.265168,-7.273613,-22.777987,-15.497103,20.783514,-49.073597,37.494385,-26.355234,45.474415,8.60313,3.9684687,23.215488,8.533655,-14.138587,8.36849,37.70148,4.9128404,3.9457521,-21.242521
91,116.23217010498047,85.52730560302734,69.09590911865234,17.547217054480885,0.5555480486851653,19.08653917068909,25.90358,4.2499413,1.4527377,5.966616,3.0639904,-15.000033,-36.662476,-14.948208,-37.143917,15.815585,-13.429736,-8.2130785,-22.21907,-14.517902,20.587067,-48.374065,37.441536,-26.053562,44.12326,9.115933,3.738287,23.545118,8.295912,-14.574506,7.7627454,37.993614,5.618557,4.2769227,-21.552269
92,118.22471618652344,85.73335266113281,69.02268981933594,17.175833150058036,0.8403034688713417,18.161519435529158,27.147243,4.743628,1.6031295,5.892381,6.4574475,-15.000033,-36.760986,-14.653395,-36.79001,20.32716,-14.642449,-10.040492,-21.688986,-13.728757,20.21232,-47.51302,37.40147,-25.853199,42.84267,9.497896,3.3021352,24.112236,8.039019,-14.991443,7.212629,38.30206,6.25934,4.552587,-21.66773
93,120.23270416259766,85.85916137695312,68.98838806152344,16.95503418798885,1.4485252349287772,17.4023185011584,26.189926,5.158775,1.4527559,9.167796,9.147303,-15.000033,-37.397858,-13.890225,-35.667213,23.233208,-14.401931,-13.413333,-21.232887,-13.012726,19.427956,-46.47016,37.37959,-25.862967,41.672695,9.682068,2.4856942,25.123384,7.784688,-15.317383,6.6596465,38.636177,6.75857,4.798243,-21.497934
94,122.2021255493164,85.97860717773438,69.00965881347656,16.705682768263625,2.157229132169352,17.230413432637363,22.805265,5.7797413,0.47671878,16.325405,10.742637,-15.000033,-38.381485,-13.605308,-34.605717,26.02603,-13.481369,-15.000033,-21.299112,-12.180107,18.387299,-45.27498,37.355957,-26.02342,40.591312,9.748879,1.3973694,26.48087,7.4686465,-15.561446,6.1079316,39.04835,7.1468477,5.0225215,-21.131533
95,124.12696838378906,86.0791244506836,69.08970642089844,16.422620634486194,2.8362718757670313,17.20386399157662,19.238674,6.2787204,-0.9725183,23.235455,13.023799,-15.000033,-39.3155,-13.440412,-33.605408,28.618914,-12.4505005,-15.000033,-21.47017,-11.333623,17.412542,-44.074547,37.31128,-26.239397,39.613598,9.814475,0.34815598,27.808138,7.0362616,-15.764403,5.651481,39.553055,7.5182886,5.1628385,-20.714594
96,126.00101470947266,86.1282730102539,69.18344116210938,16.032686075103104,3.387299696977643,16.830061638491884,16.044296,6.485699,-2.5579767,29.38743,15.872985,-15.000033,-39.731457,-12.8373375,-32.87384,30.72259,-11.941392,-15.000033,-21.292555,-10.538487,16.810053,-42.97658,37.23595,-26.392397,38.727398,9.967946,-0.34798655,28.730997,6.4348946,-15.980335,5.387654,40.157402,7.9749565,5.156667,-20.393778
97,127.76310729980469,86.12499237060547,69.27903747558594,15.535019973897926,3.741784598420297,16.008212622188882,13.180248,6.3267813,-4.238893,35.070545,19.83265,-15.000033,-39.47641,-11.893431,-32.586956,32.5899,-12.506351,-15.000033,-20.666214,-9.8253355,16.709007,-42.021828,37.126297,-26.42907,37.900696,10.25386,-0.5847346,29.14025,5.632617,-16.250849,5.3317432,40.860508,8.606101,4.8998594,-20.206923
98,129.47903442382812,86.10343170166016,69.37731170654297,14.97120351547832,4.010391464663517,14.867902437579833,10.349323,5.8306146,-6.0322833,40.61103,24.703228,-15.000033,-38.852184,-10.77313,-32.493828,34.35369,-13.816725,-15.000033,-19.72488,-9.148675,16.894236,-41.105003,36.98602,-26.379627,37.119514,10.609168,-0.5407216,29.237518,4.66093,-16.575174,5.452121,41.648758,9.359638,4.457076,-20.066914
99,131.20265197753906,86.06282043457031,69.48497009277344,14.355724722511901,4.235161943146614,13.488486589417867,7.671492,5.0525684,-7.8631873,45.762825,29.117088,-15.000033,-37.94858,-9.487426,-32.373764,35.862644,-15.42536,-15.000033,-18.606878,-8.491837,17.193966,-40.108192,36.821465,-26.241138,36.392223,10.946419,-0.32748836,29.11568,3.5454729,-16.939316,5.774603,42.52196,10.118513,4.016984,-19.933693
100,132.89878845214844,86.02666473388672,69.57685852050781,13.254410974530273,4.461676025850875,12.024865861005836,4.7758923,4.4750924,-9.898934,51.64499,30.000067,-15.000033,-36.6657,-7.5510435,-32.472324,36.526848,-16.697193,-15.000033,-17.524443,-7.409983,17.549688,-38.91004,36.623035,-25.982748,35.730022,11.186263,-0.04815823,28.860485,2.2969139,-17.35116,6.327302,43.492336,10.758198,3.7735884,-19.7629
101,134.58900451660156,85.96522521972656,69.76197052001953,12.613204370328722,4.623516871259689,10.169458807580842,2.9741793,2.9676566,-11.793967,55.50271,30.000067,-15.000033,-35.223095,-5.5589237,-31.763939,36.66097,-17.665024,-15.000033,-16.238853,-6.8702407,17.783045,-37.43621,36.422325,-25.582378,35.072273,11.323159,0.34761727,28.412695,0.8568113,-17.782177,7.253879,44.667328,11.338514,3.7836528,-19.612185
102,136.28578186035156,85.88005065917969,70.00469207763672,12.266552550590417,4.727344313987671,8.013082206250514,1.6943396,0.78373986,-13.569949,58.38524,29.198036,-15.000033,-33.576336,-3.5315616,-30.565975,36.406628,-18.591566,-15.000033,-14.79986,-6.695627,17.987242,-35.746597,36.242756,-25.042948,34.408325,11.386145,0.8892451,27.748074,-0.78475094,-18.20857,8.525488,46.01946,11.895379,3.9420178,-19.484718
103,137.9758758544922,85.76467895507812,70.21052551269531,11.518595589637684,4.787852723795737,5.889594775544095,0.039603762,-0.8200059,-15.168657,62.046234,26.08743,-15.000033,-31.526707,-1.0139124,-29.63847,35.375164,-19.301903,-15.000033,-13.454853,-6.1643143,18.267698,-33.90247,36.072903,-24.456802,33.800648,11.353868,1.4222206,27.034767,-2.4388309,-18.601744,9.877066,47.28391,12.28851,4.1874704,-19.288795
104,139.65184020996094,85.59220123291016,70.4491958618164,10.86371270812407,4.881012527828719,4.041546646675249,-2.081016,-1.5419885,-16.009916,65.287796,23.302164,-15.000033,-29.33382,1.3340552,-28.724167,33.890728,-19.85269,-15.000033,-12.311147,-5.7256637,18.425816,-32.055458,35.920486,-24.046099,33.364227,11.178989,1.7749459,26.465153,-3.8382237,-18.881653,10.973577,48.12917,12.374562,4.445617,-18.966204
105,141.3273468017578,85.33626556396484,70.72716522216797,10.328568119753697,5.065243018188304,2.5366991959284335,-4.893706,-0.9324393,-15.819503,68.020775,21.13652,-15.000033,-26.995087,3.4802794,-27.820477,31.837212,-20.215519,-15.000033,-11.375413,-5.4545135,18.404829,-30.26057,35.78487,-23.951067,33.19184,10.79289,1.8622209,26.154446,-4.9075236,-18.983929,11.683475,48.47602,11.957527,4.7751594,-18.440866
106,142.99913024902344,85.02017974853516,71.03058624267578,9.847518347068366,5.307263360757804,1.2159556962624507,-8.133606,0.6641294,-14.998521,70.28283,18.932056,-15.000033,-24.413776,5.6031346,-26.842325,29.10767,-20.343328,-15.000033,-10.5178585,-5.3278117,18.285507,-28.529125,35.686417,-24.142557,33.260887,10.2087755,1.7907809,25.98848,-5.7411275,-18.9277,12.110982,48.474457,11.132498,5.1740494,-17.764164
107,144.68276977539062,84.64494323730469,71.34178161621094,9.397091674019553,5.558064511267665,0.027276838468183365,-11.51725,2.6535902,-14.15421,72.05301,16.529753,-15.000033,-21.597486,7.692682,-25.769941,25.83708,-20.198507,-15.000033,-9.75347,-5.2941065,18.092321,-26.878983,35.54929,-24.472107,33.596695,9.614194,1.6799147,25.813917,-6.4821606,-18.719067,12.400354,48.344963,10.198784,5.469833,-17.115301
108,146.3596954345703,84.2601089477539,71.6413345336914,9.169674414699875,5.768296220764186,-1.053136732846324,-14.915102,4.657266,-13.170808,73.21983,13.938286,-14.092072,-18.769611,9.390915,-24.524355,22.6739,-19.987513,-15.000033,-9.044817,-5.4769783,17.896446,-25.279373,35.38606,-24.809036,34.024693,9.147971,1.6555669,25.47286,-7.101364,-18.458021,12.542066,48.058563,9.453118,5.523876,-16.614138
109,148.05319213867188,83.89006805419922,71.9262924194336,9.18437659770344,5.922542497100495,-1.9593570949471677,-18.503628,7.278906,-11.238747,73.80756,10.844612,-10.069775,-15.910903,10.640967,-23.17931,19.611109,-19.72836,-15.000033,-8.452208,-5.8455687,17.706158,-23.712135,35.177063,-25.127033,34.55274,8.846857,1.7376618,24.901604,-7.532,-18.171362,12.509869,47.528435,9.02218,5.2404037,-16.30844
110,149.7382354736328,83.54499053955078,72.1805191040039,9.344257098192749,6.05404063944323,-2.701120261175965,-22.058146,9.653398,-9.424135,73.88332,7.1628666,-5.825668,-12.935358,11.623961,-21.7725,16.359938,-19.327282,-15.000033,-7.9605656,-6.3316298,17.504417,-22.174755,34.917114,-25.478252,35.217266,8.641951,1.8631003,24.189924,-7.761883,-17.861208,12.295749,46.735245,8.745761,4.7257714,-16.116364
111,151.3842315673828,83.24636840820312,72.41390991210938,9.62883201727441,6.203678582518766,-3.3746176998484434,-25.4184,11.47698,-7.7990766,73.37967,3.3864644,-1.9435278,-10.059102,12.299772,-20.299667,13.301033,-18.913958,-15.000033,-7.522258,-6.898915,17.275375,-20.662735,34.60163,-25.808527,35.967556,8.51522,2.0290792,23.412853,-7.9617085,-17.573954,12.0439,45.883034,8.516941,4.1412635,-16.001923
112,153.00987243652344,82.99490356445312,72.61720275878906,9.978947640333057,6.412563202356217,-4.076013463762167,-28.474792,12.655632,-6.370331,72.24303,0.09117655,1.1815064,-7.476295,12.687363,-18.782297,10.755708,-18.596165,-15.000033,-7.103754,-7.466561,17.014618,-19.130589,34.225357,-26.022692,36.71172,8.458714,2.2315392,22.641228,-8.303071,-17.379454,11.909105,45.156326,8.236331,3.6499548,-15.925207
113,154.62425231933594,82.78968048095703,72.78443908691406,10.394100704570448,6.698216381953967,-4.796371447388251,-31.3379,13.281768,-5.0763245,70.48772,-2.5896478,3.8073308,-5.1969995,12.802938,-17.252062,8.6667795,-18.335987,-15.000033,-6.736706,-8.013014,16.73721,-17.545826,33.77628,-26.017199,37.38934,8.5314455,2.5181863,21.79969,-8.82509,-17.32713,11.953889,44.53997,7.9125986,3.2731698,-15.91477
114,156.25514221191406,82.59771728515625,72.90750885009766,10.866092502603031,7.03867094161272,-5.482387060133396,-34.052895,13.473295,-3.8492565,68.136826,-4.8851843,6.13502,-3.5813754,12.555021,-15.842035,7.841866,-18.605947,-15.000033,-6.453712,-8.520846,16.450441,-15.904235,33.24735,-25.832973,38.020493,8.725289,2.8685794,20.875162,-9.432553,-17.420668,12.110617,43.92536,7.607091,2.9369721,-15.969706
115,157.8942413330078,82.43424224853516,72.9820556640625,11.30719610175304,7.416283036540687,-6.1755067767074525,-36.451183,13.347245,-2.6546931,65.148186,-6.6964884,7.828256,-2.3678634,12.164042,-14.509678,7.7818484,-19.160446,-15.000033,-6.2078505,-8.907166,16.138556,-14.2189665,32.643486,-25.60661,38.646664,8.921196,3.18017,20.034859,-10.095229,-17.654724,12.331859,43.360138,7.2969723,2.660069,-16.007822
116,159.54037475585938,82.2800521850586,73.02305603027344,11.611830407743357,7.805788071005206,-6.918951999284302,-38.3702,13.070348,-1.49728,61.44228,-7.874231,8.570483,-1.16806,11.853045,-13.19044,7.763406,-19.635656,-15.000033,-5.9483533,-9.074814,15.79248,-12.50816,31.977554,-25.480772,39.31389,8.990398,3.35609,19.449392,-10.783584,-18.017607,12.568608,42.895893,6.9586577,2.4598415,-15.947221
117,161.20425415039062,82.16287231445312,73.01121520996094,11.78314697422265,8.246712125581578,-7.668801079756565,-39.874733,12.716193,-0.4622352,56.83377,-8.216121,8.375229,-0.18006666,11.598148,-11.92342,8.078244,-20.15455,-15.000033,-5.712343,-9.008584,15.352545,-10.79033,31.254787,-25.526983,40.07448,8.787259,3.332704,19.212976,-11.516978,-18.50767,12.836155,42.56799,6.5523715,2.3408692,-15.750161
118,162.8854217529297,82.06031036376953,72.929443359375,11.860255875732474,8.730580712963246,-8.431686577018557,-41.02995,12.292009,0.47632137,51.36231,-7.7848177,7.489554,0.608658,11.369386,-10.702479,8.73223,-20.719995,-15.000033,-5.4890604,-8.755268,14.843678,-9.062599,30.471552,-25.67922,40.90056,8.410845,3.1765733,19.219383,-12.300525,-19.123117,13.15363,42.34649,6.10132,2.2916675,-15.462863
119,164.62022399902344,81.95764923095703,72.78648376464844,11.813012239658885,9.159902209048646,-9.332229455546123,-41.699154,11.8820505,1.4596524,45.268257,-6.8248787,5.960023,1.5128046,11.230692,-9.474953,9.409563,-21.22371,-15.000033,-5.1572833,-8.336854,14.380699,-7.304343,29.631958,-25.863846,41.71037,8.099762,2.9881465,19.338348,-13.083072,-19.843647,13.476851,42.18079,5.669216,2.3057127,-15.131433
120,166.3939666748047,81.83110809326172,72.57135772705078,11.604069290316657,9.43133406900181,-10.49715015812788,-41.756443,11.597952,2.6203573,38.77451,-5.592344,3.842323,2.7522392,11.217422,-8.206079,9.997636,-21.670588,-15.000033,-4.5962763,-7.7756157,14.080256,-5.492693,28.74517,-26.005,42.416935,8.09051,2.870309,19.442934,-13.822797,-20.64276,13.758664,42.02892,5.317109,2.3770857,-14.803267
121,168.20010375976562,81.68025207519531,72.29740905761719,11.159132640046819,9.463131351827881,-12.036902274527607,-40.936695,11.635637,4.205253,31.47882,-3.9754162,0.9097375,4.5069666,11.425832,-6.8205543,10.391411,-22.043917,-15.000033,-3.7274632,-7.0194483,13.995788,-3.5706513,27.817595,-26.107637,43.010735,8.491552,2.8453217,19.553844,-14.550742,-21.508715,14.020159,41.92619,5.023068,2.5390565,-14.425674
122,170.05096435546875,81.52281188964844,71.95814514160156,10.457143131574625,9.263795470588258,-13.939372097090063,-39.196407,12.023729,6.059769,23.052723,-1.8026552,-2.7020044,6.7644587,11.86067,-5.27186,10.540179,-22.273136,-15.000033,-2.5697677,-6.0208845,14.103457,-1.5469445,26.850243,-26.191994,43.513084,9.159853,2.8638217,19.720331,-15.309053,-22.443548,14.297137,41.90652,4.761582,2.7822874,-13.992814
123,171.9185333251953,81.33883666992188,71.55150604248047,9.483498903492658,8.827533631019875,-16.207332044991006,-36.703133,12.751941,7.7614255,13.915265,0.7020021,-6.415661,9.5305395,12.461798,-3.5035295,10.377272,-22.268574,-15.000033,-1.0991848,-4.75272,14.44426,0.5069891,25.842144,-26.209675,43.874416,9.949724,2.9224722,19.856647,-16.066456,-23.442877,14.556449,41.91865,4.588295,3.0405145,-13.622129
124,173.83551025390625,81.13459777832031,71.08842468261719,8.303370735547725,8.20226696367956,-18.761131336625372,-34.684185,13.906354,8.716383,6.6177235,2.2401648,-9.668928,12.646364,13.075696,-1.5380596,10.013811,-22.03243,-15.000033,0.6320313,-3.2554698,14.990673,2.5137525,24.79597,-26.122122,44.053463,10.716711,3.0134196,19.876822,-16.779478,-24.49787,14.756371,41.9049,4.5602856,3.2477899,-13.436139
125,175.80274963378906,80.92390441894531,70.5985336303711,7.080399883765826,7.519315517428072,-21.468985196895545,-35.953445,15.602035,7.883636,6.4083962,-0.07261387,-12.417103,15.754419,13.490878,0.51611674,9.816709,-21.810234,-15.000033,2.4854774,-1.7918881,15.611982,4.662245,23.942926,-25.816774,43.75521,11.508445,3.1884356,19.695786,-17.581158,-25.375673,14.859911,41.99942,4.571075,3.3609393,-13.5209465
126,177.74664306640625,80.71858978271484,70.15576171875,6.045534534377053,6.862544993094945,-24.10327817693635,-37.216694,17.103601,6.333419,6.2097893,-2.5408728,-14.729417,18.582243,13.538022,2.3704627,10.048026,-21.762917,-15.000033,4.2635655,-0.5195019,16.166649,6.8785553,23.190712,-25.384798,43.134514,12.374305,3.421958,19.381474,-18.424694,-26.160063,14.884476,42.16014,4.642473,3.4204018,-13.810528
127,179.68359375,80.5414047241211,69.77275085449219,5.375825136506966,6.29486421632694,-26.32288775027434,-38.450016,18.027737,4.622224,6.2815533,-4.9719963,-15.000033,20.92951,13.132478,3.5965853,10.844681,-21.902924,-15.000033,5.6570497,0.50455415,16.572966,8.914114,22.362404,-24.950165,42.564625,13.137713,3.60399,19.041822,-19.14036,-27.024876,14.878445,42.208897,4.925275,3.4657395,-14.225049
128,181.57296752929688,80.31643676757812,69.45699310302734,5.082533251403927,5.839576554677944,-28.078161809173658,-39.218906,18.548182,3.5662842,6.2800803,-6.738229,-15.000033,22.953531,12.366593,4.109774,11.687722,-21.779295,-15.000033,6.683899,1.1753967,16.800919,10.642503,21.564291,-24.68843,42.252796,13.527428,3.6583729,18.799648,-19.629791,-27.862253,14.792307,42.139046,5.457521,3.5130599,-14.709955
129,183.45458984375,80.0318603515625,69.17304229736328,4.995425617714097,5.480462640147185,-29.451682732007534,-39.49705,18.852772,3.6130605,6.323232,-7.699421,-15.000033,24.810507,11.387619,3.9700704,12.354866,-21.291182,-15.000033,7.4290223,1.7556688,16.898256,11.915275,20.616251,-24.674944,42.369164,13.418538,3.5299742,18.709742,-19.784344,-28.87873,14.586681,41.8221,6.4727306,3.5797117,-15.296881
130,185.34793090820312,79.69268035888672,68.89799499511719,5.013604512073347,5.20768399572009,-30.568417447694056,-39.427547,18.981726,4.3348536,6.4594193,-8.053414,-15.000033,26.566711,10.288668,3.3353364,12.867192,-20.49306,-15.000033,8.009881,2.1232285,16.877178,13.046219,19.887383,-24.794924,42.518093,12.863917,3.3011453,18.694931,-19.807781,-29.68913,14.227501,41.53222,7.740625,3.6112084,-16.043283
131,187.24412536621094,79.29078674316406,68.62753295898438,5.179716346695514,4.996527253009336,-31.389258116797137,-38.907513,18.804228,5.182489,6.3454027,-7.7618384,-15.000033,28.270084,9.115146,2.2229092,13.179764,-19.25976,-15.000033,8.415168,2.3872771,16.780308,13.838905,19.116772,-25.024727,42.963474,12.2007065,3.0291588,18.719418,-19.479025,-30.604195,13.714128,40.99755,9.01969,3.642897,-16.753168
132,189.1314239501953,78.83495330810547,68.3418960571289,5.377374339686087,4.80800726220512,-31.960571842786283,-38.240963,18.41133,5.381409,6.3941293,-7.1805544,-15.000033,30.002022,8.051975,0.7577538,13.20365,-17.418518,-15.000033,8.616801,2.5024557,16.587503,14.610318,18.56204,-25.185478,43.424786,11.62889,2.8185742,18.728233,-19.072784,-31.306139,13.201862,40.550583,9.888948,3.6509674,-17.305239
133,191.0103759765625,78.30472564697266,68.08036804199219,5.746727996961174,4.618119776927486,-32.130861952237694,-37.13376,17.552666,4.783692,6.314178,-6.3104534,-15.000033,31.814013,6.9881215,-1.2498912,12.915089,-14.968077,-14.962307,8.646638,2.4925861,16.320457,14.875557,17.939236,-25.45411,44.46075,11.257732,2.6132047,18.690893,-17.913548,-32.18333,12.407183,39.522984,10.382042,3.740176,-17.61349
134,192.93161010742188,77.7491226196289,67.84662628173828,6.434385879247902,4.473391089931368,-31.894995286426678,-35.730824,16.088535,3.7499282,6.3751187,-5.180969,-15.000033,33.381416,5.539296,-4.0524974,12.976097,-12.307921,-13.549069,8.308451,2.0311928,15.941043,15.158932,17.570614,-25.637722,45.48598,10.884449,2.4342957,18.62491,-16.731024,-32.778942,11.641414,38.66568,10.572307,3.809701,-17.809921
135,194.85643005371094,77.16654205322266,67.60834503173828,7.407229302104879,4.571693378002243,-31.748404891001552,-34.395504,14.343506,2.779225,6.505043,-3.4903195,-15.000033,33.313835,3.5784013,-7.0720706,15.848208,-10.568028,-12.129745,8.186834,1.2334074,15.424899,15.162835,17.247465,-25.820234,46.687336,10.557088,2.2844534,18.619816,-15.151881,-33.396667,10.660911,37.496765,10.548487,3.8965588,-17.901949
136,196.72195434570312,76.60025024414062,67.45140838623047,8.510138873317759,4.765296983987587,-31.690369278041008,-33.257526,12.466308,1.974954,6.5274944,-0.934639,-15.000033,32.43832,1.2414429,-10.118967,19.985888,-8.84849,-10.905957,8.227918,0.4043556,15.00436,14.825782,16.864105,-26.029854,48.00597,10.26329,2.1867695,18.759336,-13.179394,-34.21134,9.443191,35.92846,10.412823,3.992166,-17.924797
137,198.5840606689453,76.04361724853516,67.32728576660156,9.428389736328715,4.995751429292378,-31.697710870559174,-32.45665,10.765637,1.0555899,6.545032,3.2712204,-15.000033,31.22509,-1.3542074,-13.516558,24.71476,-6.434995,-9.999879,8.036208,-0.3646259,14.554237,14.686129,16.569105,-25.767578,49.10986,10.088862,2.1926086,19.068466,-11.693678,-34.760216,8.769525,34.75487,9.978819,4.016631,-18.019737
138,200.45289611816406,75.4765853881836,67.2230224609375,10.37352015618677,5.276906286691364,-31.58502647523503,-31.773335,9.038488,0.17574778,6.427134,8.885401,-15.000033,29.681126,-4.4620852,-17.301018,30.152863,-3.5464754,-9.571762,7.5626283,-1.2523496,14.045148,14.542525,16.308985,-25.181768,50.20713,10.0286875,2.2731726,19.513325,-10.443277,-35.10125,8.429875,33.7844,9.245917,3.9981842,-18.13587
139,202.32421875,74.86231231689453,67.1387939453125,11.409034668705985,5.4970025143312675,-31.46094830542605,-30.976105,7.432707,-0.23981634,6.31806,14.200241,-15.000033,27.894938,-7.8123274,-20.524096,36.045452,-0.77688926,-9.770925,6.939614,-2.2677906,13.695941,14.197449,16.085627,-24.521177,51.366924,9.911934,2.35713,20.032183,-9.412382,-35.217087,8.191253,33.006214,8.450293,3.9563775,-18.24832
140,204.1044464111328,74.22874450683594,67.13656616210938,12.581566612378145,5.538599057914854,-31.440047907663182,-31.271719,5.9589143,-0.19646141,9.38887,15.802464,-15.000033,25.865316,-10.906677,-22.255194,42.017742,1.3429457,-10.388424,6.293821,-3.4176183,13.743835,13.515659,15.959467,-24.019176,52.57939,9.55457,2.3723102,20.556005,-8.586752,-35.070415,7.8178954,32.416786,7.8324304,3.9046106,-18.330435
141,205.71319580078125,73.58334350585938,67.18610382080078,13.977720121712476,5.281355495222495,-31.584051387235256,-31.23249,4.5351596,0.5482516,13.142868,14.09975,-15.000033,23.39434,-13.418316,-21.888496,48.294537,2.8295493,-11.106751,5.6957726,-4.8223834,14.382902,12.365948,15.937983,-23.737116,53.939365,8.829288,2.265643,21.185865,-7.928323,-34.53274,7.0853825,31.974682,7.272253,3.8971713,-18.341959
142,207.1958770751953,72.92951202392578,67.26354217529297,15.47956395955637,4.801211390978309,-31.880293835392518,-30.869965,3.1617796,1.7523599,17.178127,10.331514,-15.000033,20.39819,-15.313801,-19.973534,54.975723,3.9306908,-11.7403345,5.160691,-6.4047766,15.464788,10.887319,16.069345,-23.59278,55.346714,7.834298,2.0807133,21.907528,-7.4312754,-33.645992,6.124982,31.677418,6.6929398,3.9045513,-18.302067
143,208.58750915527344,72.25629425048828,67.41020965576172,16.82927959415281,4.295120163935283,-32.311779380322484,-30.247536,1.9781159,3.0413313,20.841015,5.990781,-15.000033,16.951563,-16.437246,-17.347921,61.549767,4.494156,-12.1472645,4.727204,-7.8987956,16.699497,9.179847,16.341496,-23.5837,56.741875,6.78681,1.8931365,22.528894,-7.10576,-32.501293,5.160707,31.594265,6.292414,3.81278,-18.277878
144,209.92608642578125,71.58944702148438,67.63790893554688,17.83941467093753,3.9926483716293606,-32.83888840782457,-29.354752,1.115792,4.1121254,23.344797,2.6200175,-15.000033,13.165192,-16.925962,-14.894224,67.49687,4.3486285,-12.381532,4.3979115,-9.076366,17.78252,7.341627,16.721722,-23.695997,58.067856,5.903825,1.7895818,22.85982,-6.915599,-31.241714,4.4216514,31.74474,6.293567,3.5152302,-18.336678
145,211.18922424316406,70.93254852294922,67.89471435546875,18.513767435748495,4.0194424626717895,-33.425792569302146,-28.159273,0.57115275,4.930296,24.279556,0.6138405,-15.000033,8.792659,-16.644623,-12.476953,72.91308,3.2821035,-12.336519,4.1434717,-9.869254,18.622313,5.2756186,17.174435,-24.04002,59.40402,5.2127438,1.7728368,22.791588,-6.8153167,-29.939133,3.8845842,32.08687,6.9023676,2.95005,-18.514826
146,212.3831024169922,70.28799438476562,68.15678405761719,18.963811726100232,4.261558805670446,-34.07755555042606,-26.711061,0.24955797,5.6714168,24.169796,-0.8664131,-15.000033,3.8934863,-15.522867,-9.917519,78.083145,1.4221773,-12.009106,3.9487324,-10.387525,19.375103,2.9452872,17.670982,-24.59835,60.760895,4.606804,1.811553,22.440464,-6.795554,-28.594273,3.4516838,32.577156,7.989067,2.1899648,-18.75211
147,213.52992248535156,69.63953399658203,68.45919799804688,19.198659664821026,4.58396389360983,-34.794957223614034,-25.108662,0.13825841,6.3623023,23.5963,-2.1083367,-15.000033,-1.0215458,-14.165609,-7.9414706,82.73855,-0.8820519,-11.820508,3.7896698,-10.691215,20.101103,0.5487448,18.188993,-25.14264,61.987988,4.109827,1.9434586,21.959555,-6.8645086,-27.248957,3.262701,33.234276,9.284698,1.3325312,-18.973972
148,214.7046356201172,68.95600128173828,68.80122375488281,19.230365398595907,4.850346131885565,-35.586294678349034,-23.450502,0.2330374,7.02488,23.133839,-3.3944995,-15.000033,-5.526986,-13.303075,-7.107406,86.539505,-3.2462308,-12.229611,3.6264682,-10.837261,20.850742,-1.6944005,18.715727,-25.42219,62.933266,3.7553053,2.2005792,21.499949,-7.050798,-25.965466,3.491027,34.100742,10.53994,0.4785064,-19.116179
149,215.90597534179688,68.2427978515625,69.16297149658203,18.993444211364334,5.014688791120326,-36.503294051384174,-21.760372,0.62706995,7.670659,22.98649,-4.8610597,-15.000033,-9.544593,-13.439845,-7.75336,89.39226,-5.812574,-13.680552,3.4404168,-10.75634,21.648823,-3.7244213,19.243187,-25.336365,63.54712,3.6153593,2.6650739,21.045572,-7.418016,-24.793207,4.283232,35.287468,11.879576,-0.41502982,-19.199368
150,217.07530212402344,67.53194427490234,69.52674865722656,18.508551836149852,5.137614662936209,-37.52801374796554,-19.983065,1.2846627,8.310809,22.837797,-6.3448563,-15.000033,-13.284409,-13.922565,-9.135537,91.42036,-8.731046,-15.000033,3.2144682,-10.4238205,22.449736,-5.635703,19.770159,-24.997149,63.91895,3.6657789,3.2904754,20.5301,-7.947725,-23.734331,5.5622196,36.77699,13.40604,-1.3766371,-19.237978
151,218.25022888183594,66.80675506591797,69.88875579833984,18.130110183813574,5.1527698297943685,-38.48699701438796,-17.873203,1.7114527,8.980713,22.137781,-7.504366,-15.000033,-16.7407,-14.218358,-10.316577,92.647835,-11.6327305,-15.000033,2.8460395,-10.179817,23.27627,-7.4555182,20.307938,-24.50111,64.120346,3.7861304,3.9146314,20.033281,-8.535833,-22.775148,7.1409082,38.413692,14.833701,-2.276696,-19.173712
152,219.37405395507812,66.06046295166016,70.23379516601562,17.729932445142694,5.2116923937228155,-39.36558136526645,-15.701021,2.098597,9.603383,21.089779,-8.36066,-15.000033,-20.033716,-14.176729,-11.530771,93.00067,-13.947641,-15.000033,2.4237506,-9.93301,23.998009,-9.216163,20.874325,-23.94983,64.20917,3.851012,4.378447,19.6389,-9.079289,-21.891504,8.816751,40.023212,15.869051,-2.98453,-18.963099
153,220.530517578125,65.28582763671875,70.58836364746094,17.240463425427215,5.37268728524648,-40.21234659197763,-13.546463,2.5480676,10.201218,19.787853,-8.928019,-15.000033,-23.28543,-13.583019,-12.742588,92.36119,-15.497354,-15.000033,2.0282576,-9.643438,24.606588,-10.929487,21.487541,-23.32056,64.16546,3.851484,4.6409135,19.361454,-9.608127,-21.078478,10.627563,41.622143,16.415272,-3.4478753,-18.5504
154,221.70138549804688,64.48403930664062,70.9397201538086,16.654282153704713,5.59674591372317,-41.053223948147526,-11.361321,3.0614223,10.80208,18.24904,-9.258195,-15.000033,-26.435793,-12.702077,-14.130199,90.757065,-16.53945,-15.000033,1.6428896,-9.297266,25.130434,-12.575259,22.15295,-22.587065,63.961056,3.838715,4.788064,19.157213,-10.170857,-20.335745,12.637001,43.289146,16.632257,-3.740502,-17.986843
155,222.86859130859375,63.63753128051758,71.26811218261719,16.046045659927625,5.882186226699641,-41.83078496132078,-9.138781,3.5329711,11.401207,16.410439,-9.357514,-15.000033,-29.416763,-11.729775,-15.645189,88.35775,-17.157679,-15.000033,1.2226356,-8.937129,25.516273,-14.15153,22.866259,-21.859383,63.647648,3.773243,4.8531885,19.025768,-10.675233,-19.642899,14.665623,44.92064,16.600315,-3.923666,-17.39205
156,224.0275421142578,62.75547790527344,71.54820251464844,15.475159686595983,6.229525455143811,-42.48248686476278,-6.8658447,3.8734367,11.976943,14.18598,-9.217567,-15.000033,-32.14586,-10.840985,-17.258263,85.33352,-17.435902,-15.000033,0.73707366,-8.588288,25.71235,-15.685148,23.614065,-21.275679,63.30092,3.6074326,4.869251,18.970827,-11.003257,-18.974438,16.51178,46.397396,16.387762,-4.059332,-16.880959
157,225.19871520996094,61.86383819580078,71.7691421508789,14.926814390012245,6.720742073609597,-43.00659335985964,-4.5533814,4.0776606,12.56833,11.406958,-8.798333,-15.000033,-34.675842,-10.015072,-18.995413,81.625725,-17.291143,-15.000033,0.22075751,-8.229529,25.633371,-17.231993,24.392773,-20.943073,62.99438,3.2306635,4.796844,19.04504,-11.138916,-18.321762,18.186947,47.73177,15.830651,-4.152595,-16.477137
158,226.40945434570312,60.9522590637207,71.9395980834961,14.367782420198449,7.334620738064673,-43.41965046715974,-2.097778,4.17091,13.166013,7.9109654,-7.979014,-15.000033,-37.010624,-9.162307,-20.834518,77.14605,-16.727663,-15.000033,-0.31929138,-7.8372183,25.326815,-18.790976,25.197237,-20.793516,62.693382,2.694335,4.633879,19.232166,-11.139393,-17.68953,19.761036,48.976948,14.940805,-4.1805787,-16.121351
159,227.64752197265625,60.042022705078125,72.0611343383789,13.837443747949717,7.920058357909603,-43.683434276584606,-0.8796552,4.4846716,13.537021,7.017408,-8.43685,-15.000033,-39.00934,-8.336533,-22.677572,72.035095,-15.945772,-15.000033,-0.95596915,-7.436567,24.942564,-20.302608,26.005125,-20.685368,62.31858,2.205807,4.465247,19.434853,-10.986447,-17.075794,21.12232,50.06388,14.046697,-4.1597986,-15.802257
160,228.9234619140625,59.11188888549805,72.14019775390625,13.396397909440884,8.324390676992511,-43.76424317844016,0.14403307,4.7713795,13.646234,6.80746,-9.089851,-15.000033,-40.541798,-7.5862017,-24.40625,66.42682,-15.138863,-15.000033,-1.7499543,-7.0745726,24.632189,-21.720686,26.787636,-20.48739,61.803852,1.9700589,4.3829627,19.56259,-10.654676,-16.477022,22.151657,50.920765,13.478274,-4.1039524,-15.509388
161,230.2257537841797,58.164451599121094,72.17301177978516,13.064707920272484,8.473408488590268,-43.60541671553122,1.3338375,4.901156,13.451326,6.616148,-9.606524,-15.000033,-41.50362,-6.8970323,-26.02128,60.14764,-14.327707,-15.000033,-2.767914,-6.744658,24.46638,-23.065731,27.523401,-20.157587,61.160767,2.0407693,4.41069,19.589622,-10.134984,-15.896257,22.78409,51.5098,13.329608,-4.0072594,-15.235045
162,231.5523681640625,57.20478439331055,72.16651153564453,12.902164614435481,8.416834537785396,-43.19077071380088,2.6462426,4.796386,12.979282,6.41885,-10.012039,-15.000033,-41.99394,-6.3217535,-27.256735,53.22169,-13.436406,-13.983686,-3.916151,-6.3737397,24.387402,-24.60466,27.958063,-19.88749,60.672245,2.3435214,4.484168,19.617928,-9.241355,-15.543724,22.996136,51.66427,13.455353,-3.8423247,-14.972877
163,232.8879852294922,56.22562789916992,72.09656524658203,12.908621151309184,8.238765411914398,-42.620857204576524,3.9887927,4.5394197,12.317488,6.3285275,-10.306189,-15.000033,-42.176125,-5.931493,-28.211477,46.017143,-12.472565,-12.795809,-5.195761,-6.210177,24.315897,-25.971361,28.470238,-19.554863,59.983784,2.806309,4.605061,19.616112,-8.249988,-15.1122055,23.006447,51.70149,13.728171,-3.6504,-14.758158
164,234.25894165039062,55.20186996459961,71.98487854003906,13.208177855083763,7.92317694540108,-42.03215677503494,5.538399,4.0158014,11.592082,6.1626816,-10.362185,-15.000033,-42.130405,-5.789833,-28.687185,38.892986,-11.444648,-11.555281,-6.4297895,-6.3517175,24.254198,-27.271343,28.905851,-19.253555,59.231937,3.4196515,4.743408,19.64348,-7.049908,-14.730069,22.864233,51.541313,14.091857,-3.4303327,-14.598567
165,235.64024353027344,54.123748779296875,71.8218002319336,13.697298852125595,7.457096795140298,-41.22010768476589,7.076288,3.4079463,10.523536,6.2209663,-10.233543,-15.000033,-41.71108,-5.75827,-28.715302,31.206295,-10.08542,-10.13311,-7.8401756,-6.735814,24.123903,-28.379688,29.384825,-18.893408,58.24593,4.256305,4.9867153,19.618305,-5.640431,-14.280825,22.533077,51.20477,14.575613,-3.179028,-14.501572
166,237.0289306640625,52.985225677490234,71.59515380859375,14.39625585480974,6.753803202427471,-40.16665850717292,8.752537,2.6369894,9.094431,6.3479743,-9.894715,-15.000033,-40.74811,-5.88761,-28.405313,22.777828,-8.367999,-8.55196,-9.468594,-7.3099065,23.981573,-29.392216,29.773079,-18.489365,57.15209,5.314931,5.310124,19.568848,-3.96976,-13.88441,22.017048,50.609898,15.246168,-2.8853204,-14.463618
167,238.42098999023438,51.798194885253906,71.29967498779297,15.274635848156251,5.858055012220567,-38.94762505483867,10.6378765,1.7253656,7.4465227,6.3131127,-9.31739,-15.000033,-39.353806,-6.348361,-28.232254,14.387879,-6.5552187,-7.030942,-11.256155,-8.206495,23.841633,-30.22698,30.33902,-18.152143,55.899467,6.370252,5.567132,19.551065,-2.3534503,-13.289803,21.402454,50.11199,15.844463,-2.596407,-14.453589
168,239.81785583496094,50.59981918334961,70.96481323242188,16.203815494607223,4.963552240774855,-37.69453493625242,12.535504,0.8420996,5.8033857,6.169201,-8.612457,-15.000033,-38.102592,-7.24967,-28.68429,7.521794,-5.2483726,-5.7655773,-13.080325,-9.1748085,23.57935,-31.032034,30.866917,-18.017225,54.78714,7.25795,5.5918283,19.740625,-0.802035,-12.737905,20.910023,49.70574,16.331978,-2.3257968,-14.467492
169,241.20721435546875,49.37416458129883,70.62289428710938,17.017070581626495,4.376306350571786,-36.38670626545873,14.004928,0.21670678,4.2979507,6.1553054,-7.9509816,-15.000033,-39.41339,-9.628675,-29.962324,7.2510514,-7.1331453,-4.8116446,-14.888193,-9.999808,22.982594,-31.824749,31.435759,-18.149548,53.752853,7.9018273,5.3271923,20.180618,0.635466,-12.169791,20.484438,49.43773,16.66958,-2.0887039,-14.48363
170,242.55117797851562,48.11476135253906,70.29673767089844,17.720680069956213,4.0433610564368925,-35.073686542783626,15.158491,-0.18154515,2.9332676,6.2186837,-7.255874,-15.000033,-40.589382,-11.879353,-31.995962,6.9782925,-8.787466,-4.042737,-16.637196,-10.649565,22.116367,-32.57483,32.005135,-18.458244,52.736164,8.415195,4.864772,20.810799,2.0468836,-11.621966,20.075308,49.19546,16.939943,-1.8648424,-14.511597
171,243.8597869873047,46.84743881225586,70.01951599121094,18.296816512885243,3.842700952432829,-33.9779015265821,16.276644,-0.3804186,1.7857131,6.2031307,-6.3448153,-15.000033,-41.23368,-13.592535,-34.08172,6.241381,-9.832385,-3.3332338,-18.168324,-11.060877,21.178978,-33.205135,32.40878,-18.781153,51.793354,8.921648,4.276477,21.59447,3.445356,-11.245548,19.756819,48.93046,17.13279,-1.6306112,-14.558786
172,245.1599578857422,45.57072830200195,69.79356384277344,18.70987685785255,3.739563480633298,-33.24339317409187,17.390083,-0.37845674,0.87705266,6.2065525,-5.135557,-15.000033,-41.92415,-14.983416,-35.34,6.734161,-11.033321,-2.6267865,-19.316313,-11.341642,20.291412,-33.660694,32.81329,-19.164297,50.898834,9.379314,3.647863,22.445995,4.6977367,-10.874371,19.517395,48.798088,17.133148,-1.3858438,-14.610667
173,246.4634246826172,44.289058685302734,69.59822845458984,18.992426375805728,3.4738785602229436,-32.83474119435856,18.813223,-0.22846091,0.11758005,6.1360173,-3.6232383,-15.000033,-41.448742,-15.592027,-35.842323,6.519326,-11.383827,-1.4947157,-20.190214,-11.691789,19.658596,-33.870106,33.351475,-19.635563,50.028976,9.738001,2.883851,23.461443,5.6836023,-10.399901,19.446146,48.96284,16.881863,-1.1373317,-14.714552
174,247.77163696289062,42.9527473449707,69.42300415039062,19.207467524658448,3.1614691508856683,-32.63053529068891,20.345905,-0.014328243,-0.5274957,6.0833106,-1.8785373,-15.000033,-40.406693,-15.804444,-35.89501,6.5129576,-11.460661,-0.1254983,-20.91527,-11.934542,19.118107,-33.860134,33.723137,-20.027868,49.243088,10.153791,1.9704453,24.662128,6.5954194,-10.10884,19.525074,49.181576,16.489767,-0.8645557,-14.870141
175,249.08786010742188,41.532196044921875,69.25629425048828,19.246644816769656,3.0362800810436243,-32.7374423595905,21.797373,0.32257617,-0.95174015,6.013457,0.24147831,-15.000033,-39.276596,-15.381321,-35.597427,6.6047096,-11.238984,0.57830673,-21.328812,-12.073202,18.53717,-33.579628,34.215675,-20.404198,48.381283,10.513738,1.1573858,25.780632,7.316037,-9.762331,19.711206,49.599545,15.975257,-0.6069608,-15.004377
176,250.424072265625,40.02788162231445,69.10663604736328,19.055014546862115,3.3156205741875784,-33.22188426919974,22.954367,0.79986197,-1.0968771,5.922161,2.8621528,-15.000033,-38.61141,-14.292389,-34.96046,6.8779783,-10.704715,-0.2855398,-21.324846,-11.809125,17.776522,-33.063828,34.493206,-20.51258,47.515194,11.040842,0.65024704,26.598614,8.043166,-9.579351,19.908167,49.950123,15.420523,-0.34688604,-15.074003
177,251.75653076171875,38.480072021484375,69.01170349121094,18.551026356504476,4.064803333108841,-34.17037525876672,23.817625,1.5189676,-0.87290287,5.812447,5.9650216,-15.000033,-38.378628,-12.330317,-33.868168,7.1163244,-9.495573,-3.547811,-20.910475,-11.230389,16.736738,-31.980217,34.91842,-20.267763,46.31565,11.688939,0.6042699,26.941366,8.588556,-9.32044,20.23792,50.52182,14.705299,-0.105619885,-15.081905
178,253.08900451660156,36.88206481933594,68.98625946044922,17.747966785030485,5.152498606450688,-35.54778231584916,24.488354,2.43574,-0.30572167,5.717216,9.47695,-15.000033,-38.295135,-9.569991,-32.454643,7.269056,-7.5498567,-8.508156,-20.043262,-10.275267,15.523173,-30.589968,35.18414,-19.801682,45.07417,12.487911,0.8507987,26.994387,9.117548,-9.180556,20.608505,51.11792,13.85857,0.14435306,-15.032513
179,254.36578369140625,35.26274108886719,68.997314453125,16.827056262855756,6.2220785461623365,-37.12588995629866,24.541258,3.3354738,0.24260798,6.8455677,12.839562,-15.000033,-38.339138,-6.743617,-31.131252,7.8976526,-5.513614,-13.781436,-18.961048,-9.259882,14.412236,-29.100767,35.318306,-19.2367,43.927753,13.264074,1.188442,26.909689,9.568241,-9.12206,21.013731,51.690975,13.076369,0.36871165,-14.944146
180,255.61373901367188,33.67462921142578,69.03527069091797,16.05064973209522,6.887486796112378,-38.248057864260474,22.485209,4.0640206,-0.07200294,12.220162,14.624045,-15.000033,-39.816578,-6.0609107,-30.26903,13.189388,-6.1181836,-15.000033,-18.326492,-8.43764,13.640805,-27.74086,35.33719,-18.668959,43.0135,13.847302,1.4224068,26.849888,9.832384,-9.118719,21.421062,52.21686,12.541515,0.53293234,-14.829668
181,256.8177490234375,32.116912841796875,69.08583068847656,15.364189567734053,7.315817777567075,-39.127532310593054,19.882494,4.688711,-0.8939605,18.287617,17.319101,-15.000033,-40.671223,-5.5498133,-29.863504,17.388905,-6.3797717,-15.000033,-17.901531,-7.784921,13.178421,-26.517666,35.27176,-18.073093,42.31462,14.22735,1.4964525,26.810848,9.903182,-9.137875,21.848593,52.68547,12.365265,0.59970146,-14.672378
182,257.9143371582031,30.596586227416992,69.19609069824219,14.640578897381825,7.689649875115821,-40.01802622101818,16.933043,5.286756,-1.9779849,24.57016,20.934551,-15.000033,-41.144264,-4.946988,-29.641026,20.941286,-6.4459653,-15.000033,-17.45064,-7.1653605,12.894043,-25.3279,35.122913,-17.408733,41.76517,14.475813,1.5156478,26.719711,9.787627,-9.17249,22.31315,53.14744,12.421389,0.5922569,-14.480448
183,258.9529113769531,29.112455368041992,69.33841705322266,13.883249924991112,8.024998600349596,-41.030546985154494,13.994113,5.7054605,-3.3159218,30.522919,24.516853,-15.000033,-41.12302,-4.1230354,-29.421997,23.670307,-6.5882254,-15.000033,-16.88157,-6.600869,12.757402,-24.163204,34.89953,-16.742321,41.373276,14.5785885,1.5288916,26.626247,9.498417,-9.215765,22.781488,53.599823,12.544783,0.57245916,-14.306258
184,259.92486572265625,27.692398071289062,69.48241424560547,13.107153897768574,8.327385359299432,-42.23205383290213,11.341528,5.790464,-4.869908,35.84065,26.969645,-15.000033,-40.57034,-2.9266632,-29.07569,25.39447,-6.9618726,-15.000033,-16.160822,-6.1141148,12.728668,-23.000532,34.623493,-16.122164,41.145134,14.514938,1.5851527,26.576609,9.045929,-9.264938,23.235163,54.045364,12.571313,0.6008162,-14.20581
185,260.81549072265625,26.30804443359375,69.64741516113281,12.278337634627304,8.60431766656412,-43.740587778713056,8.998407,5.313941,-6.7959156,40.828735,27.741362,-15.000033,-39.500828,-1.1622645,-28.575878,26.023691,-7.6584516,-15.000033,-15.200268,-5.6937113,12.857666,-21.7896,34.29294,-15.443679,41.05518,14.279861,1.680992,26.604403,8.358912,-9.317925,23.728636,54.580326,12.52129,0.69376916,-14.217473
186,261.67938232421875,24.91643714904785,69.8619155883789,11.407852021761881,8.844305749864743,-45.516495398795286,6.745618,4.377543,-8.946682,45.893604,27.291874,-15.000033,-38.041443,1.0481321,-27.967712,25.82129,-8.591959,-15.000033,-14.026268,-5.3395233,13.14127,-20.530708,33.91525,-14.698862,41.086864,13.885894,1.7953073,26.678164,7.453437,-9.367929,24.267763,55.17764,12.462639,0.8187319,-14.303377
187,262.5061950683594,23.507713317871094,70.09537506103516,10.589729139344557,9.025494380960039,-47.360036526423244,4.4989815,3.3756683,-10.859226,50.810284,26.094904,-15.000033,-36.288754,3.4112725,-27.2459,25.021877,-9.561435,-15.000033,-12.805014,-5.0989947,13.462615,-19.2542,33.52678,-14.067874,41.245693,13.347693,1.9507798,26.746021,6.473551,-9.403506,24.761894,55.654953,12.3026495,0.9628418,-14.404639
188,263.3009033203125,22.08151626586914,70.34398651123047,9.89193929642442,9.148887326401095,-49.0581572548243,2.1173317,2.774848,-12.1722555,55.2937,24.669964,-15.000033,-34.296257,5.624831,-26.443384,23.807274,-10.318924,-15.000033,-11.704731,-5.001742,13.706976,-18.004496,33.17501,-13.7540455,41.54757,12.667322,2.1722302,26.757244,5.5572248,-9.414996,25.099482,55.835377,11.943591,1.1112587,-14.46231
189,264.05096435546875,20.657560348510742,70.60905456542969,9.320400008120783,9.21138100783545,-50.600435788402926,-0.4505058,2.7834733,-12.738489,59.30386,23.056265,-15.000033,-31.959167,7.663086,-25.539902,22.05854,-10.779532,-15.000033,-10.742599,-5.083446,13.87944,-16.789951,32.899612,-13.837961,42.031334,11.762104,2.5332406,26.76599,4.702718,-9.389534,25.240978,55.693913,11.252346,1.3097564,-14.438025
190,264.76806640625,19.207645416259766,70.89469146728516,8.851065357755974,9.219840770308197,-52.06688732062471,-3.1638355,3.186862,-12.862974,62.97634,21.019714,-15.000033,-29.213736,9.648407,-24.479555,19.633123,-11.022848,-15.000033,-9.846128,-5.3402615,14.038701,-15.592766,32.707607,-14.222026,42.681976,10.639873,2.999146,26.781576,3.8414438,-9.320257,25.240154,55.333477,10.311861,1.5464334,-14.367079
191,265.45111083984375,17.731008529663086,71.19744110107422,8.49490664406898,9.212593325701125,-53.38578285712562,-6.0368056,3.8040934,-12.899078,66.22457,18.699202,-15.000033,-26.183949,11.498011,-23.287355,16.680681,-11.032171,-15.000033,-9.047035,-5.731978,14.143123,-14.409718,32.586704,-14.832666,43.43133,9.446785,3.4362342,26.68145,3.0154243,-9.215487,25.117315,54.755524,9.347149,1.721319,-14.305211
192,266.10357666015625,16.227624893188477,71.49516296386719,8.272639791188015,9.233347439207899,-54.492380784790434,-9.07436,4.40305,-13.154005,68.9315,16.2346,-15.000033,-23.028173,13.126442,-22.009007,13.392544,-10.8207035,-15.000033,-8.367137,-6.224733,14.144181,-13.245883,32.510544,-15.602697,44.214916,8.334685,3.7166805,26.336395,2.2792087,-9.093887,24.886267,53.946323,8.586109,1.738302,-14.311997
193,266.73797607421875,14.69307804107666,71.7607650756836,8.241598427101527,9.31075042891722,-55.29401028022922,-12.35978,4.890814,-13.7182455,71.068436,13.502185,-15.000033,-19.635477,14.524183,-20.66361,9.465849,-10.3054695,-15.000033,-7.865533,-6.8711567,13.966807,-12.120687,32.48514,-16.622557,45.07491,7.2719755,3.8068924,25.650766,1.7257892,-8.959242,24.515167,52.806667,8.138701,1.5254298,-14.417989
194,267.3843078613281,13.151933670043945,71.9945068359375,8.522442453205796,9.442378744301358,-55.89101185156851,-15.964422,5.7921677,-13.59202,72.56669,10.529786,-13.817198,-17.30115,15.064033,-19.461056,7.8209853,-11.024396,-15.000033,-7.4715853,-7.8067126,13.628372,-11.055519,32.516563,-17.90653,46.051846,6.199013,3.787081,24.711817,1.3118594,-8.81362,23.99805,51.365105,7.867388,1.150739,-14.589147
195,268.0632019042969,11.633930206298828,72.2137680053711,8.993740227306885,9.60627882918688,-56.47869145638751,-19.777704,7.738035,-11.889075,73.38051,7.4655747,-9.728387,-15.585734,15.080994,-18.243912,7.474899,-12.286329,-15.000033,-7.045199,-8.878112,13.26257,-10.019206,32.55971,-19.244719,47.046844,5.2453127,3.6973836,23.658667,0.89323205,-8.690273,23.393696,49.791145,7.628196,0.73070973,-14.789341
196,268.7483825683594,10.163209915161133,72.39575958251953,9.379309389125197,9.768963178501265,-57.20496891473604,-23.309364,9.665907,-10.121185,73.629326,4.4372735,-6.017889,-14.02598,15.07228,-16.960236,7.4123693,-13.408761,-15.000033,-6.499349,-9.802889,13.020272,-8.955679,32.548935,-20.408792,47.950806,4.5517173,3.5671997,22.62924,0.3387623,-8.646673,22.776484,48.232685,7.285208,0.38695815,-14.984551
197,269.47637939453125,8.718560218811035,72.56122589111328,9.743038567036205,9.90961001991688,-58.11337694311956,-26.531944,11.727259,-7.957911,73.27708,1.425383,-2.4619365,-12.479838,15.003782,-15.520627,7.371254,-14.143272,-15.000033,-5.7857695,-10.626812,12.95682,-7.860244,32.438084,-21.32573,48.767868,4.237571,3.3264594,21.546457,-0.3484885,-8.7372675,22.160994,46.613976,6.819901,0.11771442,-15.17537
198,270.2292175292969,7.326207160949707,72.69877624511719,10.130827312210656,10.043448815746915,-59.09726806333287,-29.472237,13.842011,-5.441313,72.3333,-1.7183851,0.99259716,-10.942023,14.834521,-13.995552,7.3473725,-14.605918,-15.000033,-4.989679,-11.378442,13.00045,-6.7533703,32.219368,-22.105703,49.554398,4.2164536,2.9709747,20.37873,-1.0700846,-8.980127,21.527718,44.83713,6.312056,-0.12284552,-15.37242
199,271.0109558105469,5.965301990509033,72.8023681640625,10.48292662247142,10.19529722041064,-60.10158381406506,-32.059242,15.613009,-3.010947,70.76137,-4.670979,3.834952,-9.432232,14.637149,-12.485584,7.3548026,-14.950798,-15.000033,-4.200351,-11.978866,13.070856,-5.6194263,31.892473,-22.809208,50.28328,4.317931,2.6255226,19.33178,-1.8194953,-9.369668,20.896557,43.02072,5.7702336,-0.27859947,-15.558258
200,271.8274230957031,4.608616828918457,72.86991882324219,10.729000388940703,10.386546562834617,-61.07816068836047,-34.31686,16.751503,-1.0833995,68.51393,-7.0044327,5.692306,-7.98256,14.484315,-11.084397,7.408215,-15.325731,-15.000033,-3.5096202,-12.348639,13.082705,-4.4315,31.463934,-23.485378,50.91979,4.381046,2.4226882,18.608784,-2.6120782,-9.8852625,20.293282,41.30836,5.202297,-0.29540512,-15.71797
201,272.6853332519531,3.2572555541992188,72.88530731201172,10.859918721800303,10.671547299389399,-62.008843001776306,-36.41358,17.271235,0.23347694,65.52404,-8.508833,6.6870594,-6.696343,14.363575,-9.77677,7.52131,-15.700721,-15.000033,-2.9654818,-12.46497,12.963602,-3.1692803,30.930206,-24.156311,51.4513,4.355782,2.44079,18.31035,-3.4950585,-10.515147,19.728245,39.745758,4.5304995,-0.112146534,-15.86943
202,273.55450439453125,1.9103281497955322,72.83881378173828,10.91663564880213,11.019163292924443,-62.9265446680117,-38.342464,17.40924,1.2379011,61.808468,-9.341523,7.1076975,-5.5379024,14.22867,-8.523904,7.688166,-16.015217,-15.000033,-2.5072026,-12.387271,12.761955,-1.8550234,30.287758,-24.805513,51.909283,4.332101,2.5943136,18.312761,-4.4639864,-11.255585,19.199093,38.277233,3.777859,0.2263706,-16.010105
203,274.4493103027344,0.5532055497169495,72.72833251953125,10.896633815232597,11.316083537240395,-63.86827896212469,-39.898205,17.287449,2.106598,57.433426,-9.594354,6.9019647,-4.973402,14.008267,-7.5318823,9.235077,-17.079058,-15.000033,-2.0601912,-12.157266,12.5771,-0.5181993,29.551334,-25.413908,52.3168,4.3615823,2.7746046,18.479092,-5.473812,-12.094849,18.714327,36.912567,3.0990355,0.61238587,-16.09704
204,275.3507080078125,-0.8186029195785522,72.55929565429688,10.784299371055692,11.442599578183657,-64.86719662199442,-40.88025,17.035053,2.9790244,52.449867,-9.359067,5.996024,-4.0449,13.881233,-6.6770062,10.549015,-18.151289,-15.000033,-1.5565841,-11.801138,12.518505,0.8173914,28.747185,-25.958458,52.682243,4.4891047,2.8743064,18.670643,-6.4829106,-13.013944,18.281067,35.661312,2.648463,0.93583524,-16.092129
205,276.26611328125,-2.207113027572632,72.33560943603516,10.52616774409822,11.343063077065292,-65.94118262578635,-41.18503,16.74077,3.7722626,46.579056,-8.468803,4.232295,-2.6046717,13.920401,-6.0185857,11.481978,-19.233545,-15.000033,-0.99656874,-11.265401,12.634374,2.181624,27.89139,-26.44062,52.9797,4.750389,2.8581135,18.897844,-7.553335,-14.003027,17.934832,34.579376,2.5278752,1.1555357,-15.96593
206,277.1893005371094,-3.625570297241211,72.0589599609375,10.132881432703403,11.069344929959177,-67.08289938258973,-40.892574,16.405123,4.3902874,39.74979,-6.8958526,1.7671802,-0.79936975,14.0888405,-5.509095,12.168476,-20.325441,-15.000033,-0.40632346,-10.54207,12.870628,3.5977695,26.985758,-26.857841,53.18336,5.1097584,2.788633,19.215572,-8.712912,-15.056272,17.684265,33.668346,2.6344795,1.3322178,-15.747555
207,278.1152648925781,-5.0810651779174805,71.73213195800781,9.662138357875298,10.653540852615238,-68.29224347528977,-40.07166,16.046482,4.943528,32.30397,-4.930976,-1.0193366,1.3030677,14.31058,-5.0150375,12.670668,-21.340508,-15.000033,0.24717802,-9.700121,13.196767,5.029445,26.03628,-27.180172,53.299595,5.5049715,2.7046452,19.551577,-9.869255,-16.159903,17.484394,32.857,2.8130488,1.5079926,-15.489489
208,279.03369140625,-6.586583614349365,71.35913848876953,9.155589939355831,10.118619873617755,-69.5909941490254,-38.775055,15.70864,5.5842247,24.581337,-2.8623421,-3.7607007,3.6483445,14.516459,-4.3863153,13.06374,-22.199226,-15.000033,1.0194955,-8.799198,13.597985,6.441613,25.052483,-27.379084,53.331635,5.8723865,2.6438854,19.83262,-10.925395,-17.299652,17.276344,32.07063,2.9049432,1.7233703,-15.243238
209,279.95947265625,-8.137876510620117,70.9334487915039,8.49156573402298,9.351046433603791,-71.14837801221033,-36.641666,15.533665,6.4531255,16.017145,-0.54278105,-6.651239,6.5129156,14.824516,-3.4552486,13.192349,-22.871109,-15.000033,2.0556674,-7.7338057,14.185991,7.9201317,24.029715,-27.38434,53.180843,6.236237,2.6324627,20.062298,-11.913183,-18.483952,17.070816,31.321323,2.826641,2.007125,-14.987678
210,280.9283142089844,-9.722454071044922,70.46430969238281,7.478676466418534,8.21016124436489,-73.13005861950612,-33.573326,15.892024,7.4582767,6.64894,1.9894257,-9.758283,10.242804,15.40239,-2.0581775,12.743653,-23.22316,-15.000033,3.4840248,-6.277108,15.077703,9.498741,22.957966,-27.231861,52.832222,6.6148024,2.6486273,20.272354,-12.881462,-19.728994,16.905333,30.653217,2.675078,2.332976,-14.696681
211,281.9201965332031,-11.358343124389648,69.97663879394531,6.39826382765727,6.91722759312437,-75.2232537442958,-34.506035,17.106878,7.300277,6.3298135,-0.24747209,-12.498373,14.242802,15.897292,-0.42301887,12.146368,-23.332201,-15.000033,5.035886,-4.8292775,16.0123,11.240616,22.178003,-26.990839,52.1926,6.8777285,2.6705637,20.403406,-13.920105,-20.647318,16.7069,30.274878,2.4317582,2.628884,-14.447965
212,282.8955383300781,-13.000252723693848,69.54817199707031,5.691247982656188,5.843933427008254,-76.90459640003284,-35.442005,17.962654,7.0926495,6.1521792,-2.1888502,-14.398173,17.625122,15.903082,0.8917797,11.95968,-23.364588,-15.000033,6.254196,-3.7177205,16.67415,12.833591,21.531061,-26.81326,51.58834,6.987044,2.6487103,20.437742,-14.869293,-21.419857,16.426678,30.019196,2.2803168,2.8508298,-14.301424
213,283.8580322265625,-14.654252052307129,69.17497253417969,5.361295893575652,5.073663886449694,-78.08303393849742,-36.530247,18.18881,6.867685,6.1923456,-3.8054652,-15.000033,20.322348,15.465388,1.7891105,12.138612,-23.387598,-15.000033,7.1068354,-2.7514625,17.083046,13.812639,20.587532,-26.796324,51.515312,6.972652,2.4971325,20.336834,-15.328204,-22.556599,15.965245,29.348928,2.4086845,3.0702782,-14.236732
214,284.7657775878906,-16.322288513183594,68.86540222167969,5.3192282966520406,4.471077787964941,-78.94550623892586,-37.47406,17.90997,6.7477126,6.157824,-5.051607,-15.000033,22.668127,14.735352,2.3971307,12.437008,-23.292257,-15.000033,7.765987,-2.084219,17.327906,14.6165,19.759111,-26.864456,51.479836,6.7658367,2.3025088,20.126001,-15.68992,-23.561047,15.318467,28.814722,2.5704284,3.2407262,-14.244955
215,285.656005859375,-18.018287658691406,68.5937728881836,5.334390391847878,4.011934117486452,-79.64004461455416,-38.234177,17.491447,6.5457444,6.234407,-5.906267,-15.000033,24.838562,14.014684,2.8140895,12.6018095,-22.760952,-15.000033,8.338874,-1.4480255,17.421604,15.157595,18.907013,-27.004532,51.654697,6.538899,2.0926259,19.903788,-15.802129,-24.622255,14.586228,28.197739,2.8493605,3.359529,-14.339049
216,286.5060729980469,-19.740581512451172,68.3512954711914,5.3809417318329755,3.692581505724633,-80.19380037162207,-38.604748,16.969044,6.166893,6.239886,-6.1781254,-15.000033,26.768871,13.363385,2.9600523,12.736211,-21.687258,-15.000033,8.821704,-0.88949007,17.346212,15.510312,18.110897,-27.18185,52.020912,6.4012647,1.9164498,19.766409,-15.696496,-25.649378,13.878515,27.544611,3.2365987,3.390572,-14.5582695
217,287.2929992675781,-21.479368209838867,68.13990020751953,5.383853220400248,3.5593242186204193,-80.58878453729078,-38.534607,16.419842,5.555681,6.259714,-5.986275,-15.000033,28.358177,12.837108,2.8672764,12.945876,-20.120354,-15.000033,9.197646,-0.36079237,17.017786,15.70467,17.391373,-27.392826,52.606796,6.43684,1.778616,19.742733,-15.374312,-26.632572,13.235683,26.879265,3.8357837,3.3045776,-14.978423
218,288.0063171386719,-23.236228942871094,67.96867370605469,5.4282298101087525,3.591046664900243,-80.77647016411525,-38.04663,15.711634,4.771294,6.201957,-5.3038354,-14.838295,29.563526,12.313545,2.4849298,13.327328,-18.173157,-15.000033,9.40027,0.011511144,16.4795,15.834271,16.828356,-27.578812,53.263382,6.549418,1.664366,19.769196,-14.948505,-27.461246,12.64722,26.323475,4.5757756,3.107755,-15.573286
219,288.6833190917969,-25.042587280273438,67.83596801757812,5.632859447062736,3.7302237457045946,-80.75348844911049,-37.445026,14.714421,3.7372284,6.2579784,-4.0385413,-14.3171425,30.3658,11.662324,1.632386,13.976639,-15.826178,-15.000033,9.434984,0.17710947,15.87745,15.787739,16.326717,-27.73574,53.99517,6.6283836,1.5716668,19.820227,-14.280967,-28.243263,12.022206,25.682472,5.2893834,2.8541813,-16.193514
220,289.33026123046875,-26.85457420349121,67.76219940185547,5.957554742465914,3.9450297627154565,-80.74090012180525,-36.861225,13.68357,2.5369382,6.3350053,-1.9551451,-14.315598,30.608118,10.859461,0.3216505,15.341934,-13.206137,-15.000033,9.4254875,0.09325849,15.28559,15.710165,15.973812,-27.736845,54.574463,6.537865,1.5128136,19.854204,-13.557786,-28.801708,11.436207,25.114794,5.733732,2.5816426,-16.723532
221,289.9404296875,-28.667593002319336,67.6999740600586,6.701343555810259,4.3993965486293956,-80.89169392614913,-36.31682,12.414436,1.2689679,6.2365103,1.7342006,-15.000033,29.242363,9.44931,-1.651522,19.427477,-11.121352,-15.000033,9.671,-0.38483563,14.652723,15.352854,15.500959,-27.634176,55.217934,6.2910604,1.4777116,19.880598,-12.368762,-29.539774,10.683408,24.188007,5.9605484,2.2726429,-17.085564
222,290.53302001953125,-30.518796920776367,67.68993377685547,7.659502051340721,4.83981420153331,-80.87829187072427,-35.647636,10.752836,-0.26318216,6.1606145,6.593585,-15.000033,27.6038,7.6170087,-4.2249837,23.987375,-8.515451,-15.000033,9.65718,-1.1848832,14.06201,15.058582,15.177721,-27.29576,55.68355,5.898466,1.4819115,19.900509,-11.255423,-29.995085,10.105384,23.501383,5.948902,1.8821548,-17.426634
223,291.0989685058594,-32.37174606323242,67.73432159423828,8.700903431994567,5.133332855524675,-80.86036884265863,-34.71806,9.097109,-1.5034885,6.156519,11.272733,-15.000033,25.85224,5.3636518,-7.0617414,28.9071,-5.6857896,-14.737753,9.508432,-2.0394332,13.700897,14.614386,14.845335,-26.929697,56.189274,5.439061,1.5008996,19.935158,-10.1446705,-30.345816,9.58497,22.90483,5.8262234,1.5625846,-17.698599
224,291.6777648925781,-34.222801208496094,67.8031234741211,9.94202750683521,5.14621093075275,-80.90804249453677,-33.359108,7.4555206,-1.8833123,6.190974,14.493374,-15.000033,24.098665,2.5299387,-9.74217,34.204933,-3.040799,-13.447662,9.167359,-3.1261497,13.726304,14.131414,14.673067,-26.62565,56.629684,4.9186344,1.5318214,19.985085,-9.354287,-30.357502,9.234553,22.67608,5.603496,1.4267591,-17.921087
225,292.2305908203125,-36.06637954711914,67.89521026611328,11.244682938838093,4.812839708361305,-81.05000150328335,-32.708557,5.9546657,-1.4967107,8.764648,14.582733,-15.000033,22.478344,-0.844014,-12.545035,39.88373,-0.07257683,-12.138671,8.6779375,-4.2995577,14.20112,13.548656,14.608093,-26.364992,57.04638,4.2833905,1.5732969,20.074846,-8.787476,-30.048258,8.918343,22.70964,5.1974216,1.5894034,-18.006086
226,292.7176513671875,-37.81700897216797,68.02845001220703,12.63687213935631,4.210254367832133,-81.2608136371578,-32.29174,4.541842,-0.53807634,12.710896,12.868254,-15.000033,20.923458,-4.8353167,-15.458349,46.1241,3.1537707,-10.98433,8.066522,-5.6125183,15.025104,12.876712,14.657493,-26.106804,57.422947,3.5364103,1.6296194,20.19466,-8.3822,-29.443632,8.652149,22.96201,4.602256,1.9542956,-17.976507
227,293.12640380859375,-39.471805572509766,68.17909240722656,14.010078693960038,3.562464781191778,-81.56478921778158,-31.48626,3.3080301,0.694215,16.080004,10.758511,-15.000033,19.229513,-8.997064,-17.97048,52.576218,5.6869664,-10.52038,7.409238,-6.9733567,15.9603,12.030447,14.830387,-26.026047,57.867554,2.8225384,1.6895194,20.31633,-8.145914,-28.609175,8.525678,23.436394,4.0115824,2.348208,-17.961433
228,293.4825744628906,-41.0814208984375,68.36138153076172,15.251360473352642,3.127831281837087,-81.95707599412958,-30.388245,2.2535977,1.8212742,18.358969,8.901965,-15.000033,17.075277,-12.732149,-19.61705,58.78975,6.593529,-11.05775,6.760948,-8.274988,16.746836,10.929603,15.142127,-26.30927,58.47019,2.2806263,1.7433114,20.405952,-8.062344,-27.63163,8.614874,24.113707,3.6345215,2.6014633,-18.097218
229,293.7818908691406,-42.65965270996094,68.58563232421875,16.382428751142097,3.053475318800597,-82.41033244980922,-29.060978,1.3042343,2.7771733,19.346169,7.300699,-15.000033,14.067797,-15.801388,-20.180632,64.92201,5.1896815,-12.799167,6.1163754,-9.536464,17.289352,9.4629545,15.600846,-27.130486,59.305492,1.937004,1.7700833,20.466343,-8.112132,-26.54852,8.927649,24.939863,3.5972142,2.6951473,-18.487457
230,294.0235595703125,-44.177799224853516,68.85299682617188,17.42777490444022,3.2185481086753804,-82.91321972421507,-27.54407,0.4418026,3.7033613,19.448256,5.6104994,-15.000033,10.273723,-18.198719,-19.771263,71.07391,2.1275854,-15.000033,5.46089,-10.766636,17.709135,7.6812935,16.181686,-28.397333,60.286034,1.7062743,1.7829787,20.498371,-8.244008,-25.36133,9.3870325,25.873613,3.7912107,2.7122319,-19.034307
231,294.25927734375,-45.649539947509766,69.16119384765625,18.411254837033837,3.4366326106125746,-83.46033642118483,-25.69287,-0.42296895,4.6312256,18.754343,4.0994573,-15.000033,5.9322014,-19.330845,-17.893251,76.69191,-1.4300476,-15.000033,4.7957573,-11.944157,18.115604,5.7584996,16.842026,-29.874088,61.26411,1.5704424,1.8238201,20.467436,-8.406028,-24.109304,9.959461,26.925419,4.076641,2.6424537,-19.577648
232,294.47003173828125,-47.07551193237305,69.53067016601562,19.212275070113783,3.566488529539073,-84.08394069711476,-23.449429,-1.1731364,5.5062246,17.446135,3.0039918,-15.000033,1.7260381,-19.880522,-16.131882,81.25873,-4.412755,-15.000033,4.1335707,-12.94793,18.585073,3.871134,17.538649,-31.305552,62.107105,1.5186359,1.9323616,20.344406,-8.557562,-22.85346,10.629186,28.116922,4.3254986,2.4783733,-19.959473
233,294.6515197753906,-48.508689880371094,69.96138763427734,19.528244723561357,3.715026565870828,-84.89542918044593,-21.057226,-1.3986673,6.2843623,15.911364,2.162513,-15.000033,-2.4671555,-19.625942,-14.697458,84.6144,-6.5759573,-15.000033,3.5480933,-13.457692,19.029636,1.9839236,18.247854,-32.755047,62.86442,1.5865728,2.1291163,20.102118,-8.710886,-21.623854,11.435635,29.482643,4.55184,2.171489,-20.173937
234,294.7735900878906,-49.971435546875,70.42378997802734,19.476776671964437,3.9278467095177736,-85.85693737430375,-18.486464,-1.2265931,7.04365,13.981341,1.5069042,-15.000033,-6.8026977,-18.575048,-13.421838,87.06454,-8.449861,-15.000033,3.0069199,-13.587594,19.441206,0.01178759,18.959007,-34.30272,63.60049,1.7752881,2.3869221,19.766043,-8.871227,-20.424911,12.388737,30.993343,4.825718,1.74481,-20.29274
235,294.8521728515625,-51.427066802978516,70.87042236328125,19.168024112400964,4.176045751979235,-86.86811882126227,-15.826763,-0.8153988,7.780152,11.810482,1.0125201,-15.000033,-11.030991,-17.09017,-12.550847,88.65532,-10.045272,-15.000033,2.4780817,-13.451019,19.807743,-1.9476085,19.661858,-35.713024,64.23074,2.0245924,2.6709871,19.388779,-9.004659,-19.284239,13.434625,32.595787,5.107728,1.2981713,-20.279753
236,294.92596435546875,-52.84048843383789,71.29914855957031,18.712396468741346,4.428364414051121,-87.82406107671466,-13.151444,-0.3272386,8.458192,9.51107,0.6779643,-15.000033,-14.930071,-15.552581,-12.251356,89.42079,-11.3818035,-15.000033,1.9175571,-13.15653,20.11069,-3.778282,20.35238,-36.74536,64.66866,2.2781458,2.9463415,19.021973,-9.086128,-18.242002,14.531018,34.244152,5.3681946,0.93141896,-20.101986
237,295.0080261230469,-54.27090072631836,71.72468566894531,18.064927864771278,4.667461514069491,-88.73933506528377,-10.371889,0.2724329,9.081353,6.9422293,0.5503852,-15.000033,-18.484957,-13.9662895,-12.57083,89.257706,-12.447212,-15.000033,1.3217059,-12.643664,20.368395,-5.440454,21.03436,-37.318077,64.88925,2.558643,3.218398,18.640757,-9.11639,-17.329685,15.695279,35.96263,5.6349783,0.6562333,-19.684216
238,295.111572265625,-55.71914291381836,72.12986755371094,17.223243597894864,4.904728291076317,-89.65426922024082,-8.67412,1.2134956,9.670274,6.6558766,-0.73580885,-15.000033,-21.80961,-12.24889,-13.379587,88.14618,-13.234015,-15.000033,0.70120406,-11.8988495,20.589766,-6.98559,21.717056,-37.562553,64.94365,2.8876245,3.4976985,18.228,-9.098294,-16.550568,16.950975,37.75629,5.934323,0.42939588,-19.06727
239,295.19134521484375,-57.21976089477539,72.52206420898438,16.34191999473685,5.158734848082976,-90.50085128541642,-7.134499,2.1865847,10.205432,6.5549874,-2.0094821,-15.000033,-24.887604,-10.626386,-14.530111,86.25352,-13.782507,-15.000033,0.03997903,-11.083221,20.734634,-8.436788,22.408344,-37.568043,64.86221,3.206172,3.7596645,17.847576,-9.0081835,-15.895955,18.25238,39.550694,6.222852,0.26624024,-18.39191
240,295.2083740234375,-58.738094329833984,72.85388946533203,15.562712221415355,5.455746155170283,-91.20862989144712,-5.731126,3.0239,10.662551,6.4692593,-3.1188397,-15.000033,-27.698027,-9.304695,-15.881867,83.76191,-14.135822,-15.000033,-0.67624635,-10.346115,20.757599,-9.821193,23.114618,-37.425777,64.673325,3.4531043,3.98142,17.564291,-8.828601,-15.349388,19.553675,41.27161,6.454974,0.17868121,-17.79949
241,295.20989990234375,-60.24126434326172,73.11817169189453,14.848147727334785,5.866950910887647,-91.74826533964956,-4.5543747,3.77139,11.013269,6.4006157,-4.0575123,-15.000033,-30.2708,-8.316323,-17.522987,80.63808,-14.293686,-15.000033,-1.449705,-9.650912,20.581095,-11.150107,23.84426,-37.12677,64.39212,3.5826986,4.1616516,17.399685,-8.561928,-14.902645,20.861155,42.939648,6.5719566,0.18761915,-17.307005
242,295.2276916503906,-61.77473068237305,73.33274841308594,14.23307018173811,6.351069236629836,-92.19103363021631,-3.479159,4.378817,11.323233,6.260832,-4.824077,-15.000033,-32.600952,-7.6165085,-19.3716,76.83928,-14.266808,-15.000033,-2.122472,-8.957268,20.267544,-12.6531515,24.374172,-36.8103,64.28826,3.6270266,4.2989774,17.34216,-8.076078,-14.65805,22.059227,44.46738,6.6100974,0.2868914,-16.827305
