unveil-humanoid-operators/unveil-humanoid-operators.github.io/feature-analysis-animation/data/feature_matrix_instances/height_root_translate_rom_walking_A036_walk_sideway_045_loop_001__A036.csv
Frame,root_translateX,root_translateY,root_translateZ,root_rotateX,root_rotateY,root_rotateZ,left_hip_pitch_joint_dof,left_hip_roll_joint_dof,left_hip_yaw_joint_dof,left_knee_joint_dof,left_ankle_pitch_joint_dof,left_ankle_roll_joint_dof,right_hip_pitch_joint_dof,right_hip_roll_joint_dof,right_hip_yaw_joint_dof,right_knee_joint_dof,right_ankle_pitch_joint_dof,right_ankle_roll_joint_dof,waist_yaw_joint_dof,waist_roll_joint_dof,waist_pitch_joint_dof,left_shoulder_pitch_joint_dof,left_shoulder_roll_joint_dof,left_shoulder_yaw_joint_dof,left_elbow_joint_dof,left_wrist_roll_joint_dof,left_wrist_pitch_joint_dof,left_wrist_yaw_joint_dof,right_shoulder_pitch_joint_dof,right_shoulder_roll_joint_dof,right_shoulder_yaw_joint_dof,right_elbow_joint_dof,right_wrist_roll_joint_dof,right_wrist_pitch_joint_dof,right_wrist_yaw_joint_dof
0,-0.13592267036437988,1.980532169342041,77.81477355957031,0.45493265234325514,0.10413638249119003,-87.64195524527747,-4.58376,4.677353,7.9648733,19.046337,-15.32541,-5.7661953,-1.0362836,-4.548059,-9.316702,15.351027,-14.864175,4.7384725,-2.5159287,1.4674355,6.0870166,-10.586362,17.33669,-40.449654,70.560005,4.1284924,-1.9655082,2.2025943,2.2182302,-17.190857,26.31337,56.482475,-12.089779,-2.1011117,-3.5270061
1,-0.13203299045562744,1.9834647178649902,77.81353759765625,0.4646679239047082,0.10359199054989633,-87.64863843103582,-4.5835357,4.6660094,7.974652,19.047544,-15.325748,-5.759999,-1.0417588,-4.5599155,-9.297201,15.35872,-14.875203,4.745177,-2.5112634,1.4621497,6.090694,-10.582039,17.337105,-40.43953,70.564995,4.124743,-1.9880577,2.1733515,2.2333724,-17.192715,26.308683,56.47789,-12.0748205,-2.1058378,-3.5200818
2,-0.1289823353290558,1.986574411392212,77.8086929321289,0.4751528653304324,0.10299808532138527,-87.65596356127776,-4.5815277,4.652768,7.9855466,19.04557,-15.324466,-5.7534246,-1.0486364,-4.573517,-9.27546,15.36953,-14.888934,4.7521744,-2.5061119,1.4539937,6.095592,-10.578448,17.33728,-40.416428,70.57352,4.131205,-2.014684,2.1388628,2.2541368,-17.195745,26.298967,56.465958,-12.06268,-2.1103652,-3.5101123
3,-0.12610045075416565,1.9878759384155273,77.80835723876953,0.4836535733504246,0.10273690804713827,-87.66290760778617,-4.5803204,4.6412277,7.995606,19.044031,-15.323549,-5.747325,-1.0556662,-4.585544,-9.256915,15.379487,-14.899983,4.7588067,-2.5106013,1.4515426,6.1094165,-10.569838,17.337046,-40.367947,70.56884,4.1572466,-2.0365798,2.10859,2.271444,-17.203413,26.286932,56.44553,-12.063668,-2.113654,-3.5015972
4,-0.12192180007696152,1.990370273590088,77.80833435058594,0.4883691969417995,0.10385211486313309,-87.66883518557043,-4.5819807,4.6349983,8.003266,19.044111,-15.323648,-5.742562,-1.0636597,-4.592586,-9.246658,15.387515,-14.904081,4.764297,-2.5115602,1.4519194,6.1137137,-10.566025,17.336933,-40.363422,70.56516,4.1521187,-2.045491,2.0969014,2.2801242,-17.204094,26.285774,56.444935,-12.060021,-2.1159303,-3.5069206
5,-0.12096787989139557,1.9932349920272827,77.80830383300781,0.4887826714738515,0.10907206241772463,-87.67702470905068,-4.5850086,4.6320887,8.012472,19.037336,-15.320947,-5.739109,-1.0824976,-4.597303,-9.244596,15.4055195,-14.90334,4.769485,-2.5112705,1.4585732,6.115742,-10.552852,17.336002,-40.345833,70.53806,4.1668825,-2.036157,2.1031635,2.2991197,-17.20672,26.280533,56.43349,-12.078496,-2.1144352,-3.5347047
6,-0.11763089895248413,1.9954899549484253,77.80855560302734,0.48359925144997395,0.11580647992432733,-87.68511700653035,-4.590333,4.634423,8.020266,19.031128,-15.319028,-5.737034,-1.102257,-4.5969567,-9.251027,15.420119,-14.893761,4.774023,-2.5156922,1.4718769,6.1188865,-10.545221,17.335377,-40.34494,70.504845,4.1664863,-2.0136533,2.1265054,2.3066783,-17.208113,26.280838,56.431995,-12.106351,-2.1117117,-3.5759015
7,-0.11797123402357101,1.9974589347839355,77.80858612060547,0.47950051994680304,0.12247887395745342,-87.69132502524738,-4.596445,4.637804,8.025808,19.025532,-15.31726,-5.7353187,-1.1216182,-4.5956717,-9.259928,15.434996,-14.884042,4.7772803,-2.518298,1.4850085,6.1199956,-10.533257,17.334612,-40.345264,70.46876,4.172849,-1.9893273,2.1527123,2.31753,-17.208988,26.280525,56.428493,-12.129193,-2.1085129,-3.6149333
8,-0.10920117050409317,2.0013082027435303,77.8135757446289,0.47692007012641413,0.12674736113029714,-87.693068651514,-4.602589,4.6393056,8.026974,19.02429,-15.316611,-5.733155,-1.1356914,-4.595752,-9.26675,15.448514,-14.87993,4.7783465,-2.52603,1.4942298,6.1205845,-10.522647,17.333122,-40.3496,70.448456,4.1759157,-1.9775326,2.1683831,2.3277817,-17.210232,26.279932,56.425014,-12.136567,-2.1067655,-3.6330423
9,-0.10578875988721848,2.0035481452941895,77.80838012695312,0.47661379724231456,0.12708320764607173,-87.68763795205123,-4.6090283,4.6391253,8.020856,19.030663,-15.318605,-5.7300587,-1.1401056,-4.59655,-9.271757,15.456429,-14.880774,4.7752523,-2.5392485,1.4956586,6.123538,-10.518509,17.331387,-40.35612,70.45404,4.178333,-1.9854003,2.1677518,2.3345041,-17.211134,26.279276,56.421917,-12.113707,-2.1083379,-3.618929
10,-0.1140817329287529,2.003065347671509,77.81130981445312,0.47688005169357395,0.12503071684757028,-87.67706205611087,-4.616299,4.638666,8.009405,19.042624,-15.322499,-5.726605,-1.1389856,-4.597344,-9.276764,15.462122,-14.884981,4.769052,-2.5565536,1.4923562,6.127826,-10.516843,17.330282,-40.361103,70.47445,4.1840596,-2.005098,2.1578705,2.3396764,-17.211153,26.278627,56.417965,-12.071214,-2.1120615,-3.584122
11,-0.11931870877742767,2.0035953521728516,77.81253814697266,0.47793781713176686,0.12239663201316153,-87.66602891905409,-4.6223526,4.636368,7.9976115,19.053349,-15.325325,-5.723449,-1.1357297,-4.599473,-9.280236,15.465863,-14.891049,4.763464,-2.5766628,1.4874818,6.1322756,-10.517791,17.328678,-40.372272,70.50093,4.1843324,-2.02726,2.1455872,2.3418682,-17.210611,26.278812,56.41639,-12.030283,-2.1147265,-3.545571
12,-0.11455786973237991,2.0090627670288086,77.81034851074219,0.48202819181458945,0.12106487862634913,-87.65927645884133,-4.626653,4.631217,7.9906244,19.0591,-15.325591,-5.7212014,-1.1345259,-4.604205,-9.280248,15.468186,-14.897371,4.762144,-2.5902107,1.4825101,6.134438,-10.518702,17.325983,-40.389763,70.52198,4.1840215,-2.042465,2.1368387,2.3487222,-17.20876,26.275393,56.412746,-12.00935,-2.1133099,-3.520064
13,-0.11414340883493423,2.0121281147003174,77.81354522705078,0.4896659034166023,0.12105969253520461,-87.65922426288581,-4.6265345,4.6214185,7.990967,19.055023,-15.3202095,-5.7201314,-1.1352324,-4.6132336,-9.274232,15.468018,-14.904614,4.768317,-2.60612,1.4791242,6.13934,-10.513459,17.324713,-40.399105,70.52714,4.1892495,-2.047349,2.1320002,2.3505535,-17.207703,26.273449,56.41114,-12.01923,-2.1060197,-3.512275
14,-0.11094169318675995,2.0121591091156006,77.81051635742188,0.500406619325034,0.12191470156497403,-87.66308732999204,-4.622252,4.606047,7.996354,19.041876,-15.309725,-5.7194953,-1.1377556,-4.6272244,-9.263208,15.467712,-14.913782,4.779601,-2.6147923,1.4725139,6.14015,-10.51125,17.32242,-40.42569,70.53463,4.1841516,-2.0487854,2.129429,2.3590581,-17.205593,26.265545,56.406265,-12.04764,-2.0930362,-3.5116704
15,-0.10628478229045868,2.014436721801758,77.80742645263672,0.5096246641677814,0.12353457709051234,-87.66744612296418,-4.618686,4.5918803,8.002055,19.028687,-15.29956,-5.7197795,-1.1408365,-4.640227,-9.252855,15.466454,-14.922856,4.7903123,-2.6138115,1.4664696,6.1402235,-10.512488,17.318642,-40.45751,70.53994,4.1834908,-2.0471275,2.127691,2.375243,-17.202179,26.248281,56.396942,-12.084104,-2.0805776,-3.516083
16,-0.10462936758995056,2.0154573917388916,77.8072280883789,0.5158216532623592,0.12599883703092096,-87.6685677319554,-4.6188607,4.582194,8.004172,19.019997,-15.292632,-5.7207985,-1.1437907,-4.648775,-9.248435,15.463865,-14.929249,4.795249,-2.6177866,1.4649179,6.1399827,-10.511764,17.314518,-40.481857,70.5407,4.185763,-2.045782,2.126683,2.3854964,-17.198204,26.23724,56.392315,-12.115316,-2.0718284,-3.5214992
17,-0.1049177497625351,2.01682710647583,77.80670928955078,0.5170142148691705,0.13047270737709146,-87.66457998479922,-4.623557,4.578248,8.001035,19.014357,-15.289232,-5.723334,-1.1476395,-4.651889,-9.252865,15.460077,-14.933381,4.791188,-2.6217272,1.4654837,6.1364264,-10.510633,17.311531,-40.49735,70.538155,4.200532,-2.0450227,2.1266472,2.4012926,-17.195133,26.22976,56.383236,-12.140805,-2.0679,-3.5297654
18,-0.10577881336212158,2.0172667503356934,77.81073760986328,0.5160635861430846,0.13640446371970347,-87.65749180878491,-4.6316566,4.5780125,7.994618,19.011095,-15.288135,-5.72709,-1.1519492,-4.6514025,-9.263076,15.454863,-14.936525,4.781473,-2.6283882,1.4697552,6.13113,-10.511173,17.308496,-40.51582,70.53324,4.212835,-2.0437136,2.1284926,2.4152186,-17.191406,26.226715,56.376183,-12.166066,-2.0669,-3.541943
19,-0.10949862003326416,2.0183169841766357,77.81498718261719,0.5133519554798525,0.14201928672602251,-87.65092430734714,-4.640682,4.5802774,7.988429,19.01049,-15.288292,-5.7307544,-1.1563613,-4.6487474,-9.273713,15.449756,-14.936805,4.77109,-2.6334386,1.475332,6.12522,-10.51393,17.305729,-40.53644,70.53026,4.2166185,-2.0429633,2.1294003,2.4275928,-17.187178,26.225607,56.37146,-12.186831,-2.0671093,-3.5537207
20,-0.1067948192358017,2.021838426589966,77.80664825439453,0.5093049651299443,0.14546137721226576,-87.64850380535523,-4.6472898,4.583888,7.985889,19.011213,-15.287931,-5.733009,-1.1614841,-4.6454825,-9.279297,15.449684,-14.935173,4.7649164,-2.6374621,1.4814701,6.1251435,-10.512745,17.304867,-40.540787,70.52306,4.219473,-2.0442774,2.1246939,2.4352827,-17.185759,26.22572,56.36505,-12.198462,-2.0671713,-3.5588806
21,-0.10410435497760773,2.02327561378479,77.80622863769531,0.5040451831313988,0.14434038866360607,-87.65390209659004,-4.6498632,4.591096,7.990018,19.01648,-15.288089,-5.7330317,-1.1682081,-4.6399317,-9.275988,15.459072,-14.9290085,4.7647295,-2.6361947,1.4888265,6.1304545,-10.516301,17.303623,-40.546646,70.52368,4.1961417,-2.0488532,2.1120372,2.4379883,-17.183718,26.227827,56.360344,-12.200116,-2.0648458,-3.5584173
22,-0.10833752900362015,2.0267817974090576,77.8133316040039,0.4975905516460211,0.14000628585818106,-87.66433503224088,-4.650087,4.601689,7.99844,19.025526,-15.289021,-5.731707,-1.1755502,-4.6320763,-9.267333,15.474606,-14.919245,4.767777,-2.627916,1.4966948,6.139574,-10.5187235,17.301,-40.543056,70.5248,4.1680727,-2.054835,2.0937576,2.4377642,-17.180202,26.230024,56.35668,-12.192433,-2.0620692,-3.553933
23,-0.10345292836427689,2.0322203636169434,77.81082153320312,0.4910679886847255,0.13730867276852937,-87.67321968792615,-4.6512923,4.6108623,8.005613,19.03256,-15.288526,-5.7301474,-1.1829051,-4.625237,-9.259912,15.487277,-14.90973,4.772018,-2.6211488,1.5037985,6.147219,-10.51973,17.299664,-40.537514,70.52483,4.140186,-2.061265,2.076638,2.4377062,-17.178541,26.231276,56.352837,-12.180316,-2.0610182,-3.5459936
24,-0.10078681260347366,2.034099817276001,77.81012725830078,0.4889508092163177,0.14092362148954704,-87.67478647962973,-4.6576924,4.6141615,8.006605,19.033691,-15.285196,-5.72966,-1.1876955,-4.622368,-9.259737,15.485616,-14.9032755,4.7754426,-2.6233983,1.5069815,6.148019,-10.519449,17.298252,-40.531178,70.5242,4.1239395,-2.0658748,2.066859,2.440355,-17.176397,26.232845,56.34843,-12.1675415,-2.061955,-3.5370374
25,-0.11157051473855972,2.0336813926696777,77.81575012207031,0.49643095451650104,0.15665440018370402,-87.66375208793895,-4.6737876,4.6065755,7.997105,19.023088,-15.275725,-5.7305274,-1.1904931,-4.627109,-9.272059,15.460634,-14.903377,4.778761,-2.6413412,1.5011933,6.131064,-10.519291,17.295837,-40.53445,70.530945,4.1162987,-2.068907,2.068533,2.447401,-17.169256,26.23624,56.347294,-12.150814,-2.0666234,-3.524991
26,-0.11513417959213257,2.030461072921753,77.8172607421875,0.5094447871178929,0.18016530746220333,-87.64496666849949,-4.695826,4.591518,7.9812694,19.004805,-15.262202,-5.7320633,-1.1922005,-4.63727,-9.291928,15.421542,-14.908485,4.782687,-2.657193,1.488042,6.102507,-10.516376,17.295105,-40.54619,70.53464,4.121207,-2.0690255,2.0777807,2.4669793,-17.161154,26.229715,56.341846,-12.128843,-2.0752656,-3.5095155
27,-0.11157567799091339,2.0317020416259766,77.81058502197266,0.5215795612757569,0.2014624811033267,-87.62579629225324,-4.7157207,4.57768,7.9650607,18.98735,-15.249814,-5.734128,-1.1929177,-4.6461973,-9.311813,15.385046,-14.913436,4.7849727,-2.6767855,1.47831,6.0810986,-10.513333,17.29572,-40.554237,70.532974,4.1276135,-2.0692647,2.088998,2.4797003,-17.155245,26.225378,56.33802,-12.110452,-2.083056,-3.4962602
28,-0.12976829707622528,2.028319835662842,77.80812072753906,0.5259783241026236,0.21439137796048627,-87.61134708290592,-4.730422,4.573941,7.951688,18.979557,-15.24341,-5.7365336,-1.192788,-4.646856,-9.327195,15.360765,-14.9102,4.7833185,-2.6792634,1.4687482,6.0612473,-10.51867,17.298294,-40.589718,70.541885,4.114308,-2.0698924,2.099847,2.5026193,-17.141058,26.211706,56.333927,-12.110041,-2.0861535,-3.490688
29,-0.13707764446735382,2.0245201587677,77.80927276611328,0.5164500835055412,0.20991411409246627,-87.60589356919675,-4.7330303,4.586829,7.9445214,18.98982,-15.249663,-5.7397847,-1.1913673,-4.634597,-9.333471,15.365417,-14.898904,4.7748713,-2.679373,1.4726961,6.0665183,-10.5259285,17.301805,-40.616047,70.54576,4.092806,-2.0720959,2.1066368,2.504802,-17.124495,26.206856,56.34288,-12.129371,-2.0828424,-3.5002472
30,-0.13580568134784698,2.0279428958892822,77.80921936035156,0.49904352147697256,0.19488135117813432,-87.60459715224651,-4.7276926,4.610429,7.9398923,19.009548,-15.262781,-5.743722,-1.1877519,-4.613461,-9.335527,15.384389,-14.880579,4.761557,-2.686434,1.4898717,6.0882955,-10.532057,17.303486,-40.630093,70.545616,4.0667744,-2.0758626,2.1128004,2.4988391,-17.118614,26.21285,56.348465,-12.161211,-2.0745466,-3.5173426
31,-0.13840049505233765,2.0343308448791504,77.81277465820312,0.4823107272711179,0.18017310191382524,-87.60534643538838,-4.721648,4.6325235,7.937587,19.027193,-15.274068,-5.747142,-1.1877322,-4.594264,-9.334893,15.408869,-14.863437,4.748791,-2.6905038,1.5061637,6.108842,-10.535141,17.304142,-40.636078,70.54463,4.051246,-2.0796633,2.1183302,2.4957068,-17.11673,26.216724,56.350254,-12.195229,-2.065479,-3.5299172
32,-0.13481391966342926,2.041104793548584,77.81027221679688,0.47041523661537044,0.17131833229978324,-87.60625294881156,-4.7226233,4.6493173,7.935794,19.04679,-15.283486,-5.75032,-1.186205,-4.5791454,-9.334309,15.419194,-14.850625,4.740537,-2.6918082,1.5184014,6.1239424,-10.538856,17.305988,-40.652782,70.54619,4.030225,-2.0854003,2.129208,2.4888775,-17.111097,26.226954,56.35458,-12.220387,-2.054256,-3.539201
33,-0.13584867119789124,2.0424046516418457,77.80839538574219,0.47187684851083656,0.17753123866653034,-87.6074325476284,-4.7335896,4.6492662,7.9368124,19.052183,-15.279615,-5.7508416,-1.1957545,-4.5793085,-9.331859,15.420519,-14.84916,4.7416263,-2.6883152,1.5158707,6.1162,-10.538872,17.309376,-40.67711,70.55476,4.0142217,-2.0931137,2.1432798,2.4853263,-17.09985,26.23639,56.362614,-12.230807,-2.0442665,-3.5296545
34,-0.1401294320821762,2.0451061725616455,77.81029510498047,0.4801050378714662,0.1913797060221319,-87.60983878529005,-4.7508397,4.6408124,7.9400477,19.053167,-15.269523,-5.7499323,-1.2084364,-4.586656,-9.327648,15.412243,-14.85169,4.748182,-2.683698,1.5094926,6.1039863,-10.537528,17.31176,-40.693577,70.563576,4.010204,-2.1030822,2.1594694,2.4844663,-17.09194,26.240345,56.362106,-12.241735,-2.0328789,-3.5070453
35,-0.14378145337104797,2.0447394847869873,77.81166076660156,0.48914084188399903,0.20537020479872745,-87.61167572687485,-4.767163,4.6313424,7.943176,19.05222,-15.259012,-5.7497325,-1.2208971,-4.5950313,-9.323937,15.404264,-14.857777,4.7542863,-2.6779468,1.5036342,6.092875,-10.533972,17.31234,-40.69805,70.56928,4.0197644,-2.1117463,2.1751912,2.4859564,-17.089733,26.24183,56.356194,-12.250011,-2.0234299,-3.482716
36,-0.1438385546207428,2.042102575302124,77.8111572265625,0.493963441390277,0.21256675387506324,-87.61120540373354,-4.7763343,4.627963,7.943863,19.051992,-15.25385,-5.7522993,-1.2274739,-4.597584,-9.323149,15.400957,-14.86385,4.7540135,-2.6734967,1.5008719,6.086297,-10.531345,17.312979,-40.70144,70.57451,4.028864,-2.1165755,2.1888225,2.489319,-17.086643,26.24428,56.34985,-12.25632,-2.0183046,-3.467415
37,-0.14535988867282867,2.0426223278045654,77.80778503417969,0.49049128638152256,0.20913132465843823,-87.60699522003115,-4.773184,4.634438,7.941252,19.05084,-15.256608,-5.760282,-1.2259922,-4.5911946,-9.326839,15.407429,-14.871963,4.7426877,-2.6689117,1.4989667,6.0847816,-10.526376,17.313757,-40.69062,70.57843,4.052469,-2.1150324,2.1995354,2.493074,-17.079472,26.249628,56.349854,-12.262562,-2.0197544,-3.4695015
38,-0.15031862258911133,2.043919324874878,77.8051528930664,0.48353256214077456,0.19922828013073882,-87.60023926514434,-4.7621346,4.6464486,7.936403,19.048344,-15.263831,-5.7719083,-1.217788,-4.579301,-9.3337755,15.416581,-14.881335,4.7245016,-2.6727486,1.5008205,6.089763,-10.519141,17.314339,-40.66272,70.580246,4.084842,-2.110229,2.2081783,2.4864817,-17.070234,26.261028,56.359966,-12.2697115,-2.027222,-3.4801905
39,-0.1571420282125473,2.0435338020324707,77.80960845947266,0.4759706796079368,0.18931965204779785,-87.5932850563348,-4.7517104,4.658545,7.93089,19.047022,-15.271584,-5.7825317,-1.2106448,-4.5678253,-9.340795,15.428128,-14.891049,4.70686,-2.6677961,1.5046301,6.094526,-10.5189295,17.314375,-40.655937,70.58294,4.1025386,-2.104291,2.2151241,2.4886205,-17.068708,26.26322,56.359104,-12.269128,-2.0342436,-3.4881961
40,-0.15978437662124634,2.04836106300354,77.8060531616211,0.47135369869721966,0.18056863872090775,-87.58795286634148,-4.745553,4.666632,7.9252243,19.051514,-15.277459,-5.7880125,-1.2032918,-4.560172,-9.346016,15.43521,-14.898117,4.696854,-2.6869292,1.5044675,6.101376,-10.50273,17.31466,-40.604286,70.57976,4.146666,-2.097629,2.22145,2.469838,-17.054913,26.285727,56.37421,-12.262867,-2.039253,-3.4951398
41,-0.15896093845367432,2.0485424995422363,77.80658721923828,0.4708304916943163,0.17775471045600852,-87.58582524598883,-4.749129,4.6683316,7.9201775,19.061792,-15.277973,-5.7851005,-1.2033645,-4.558017,-9.338842,15.447641,-14.902171,4.6989903,-2.6991384,1.5035176,6.1041226,-10.494678,17.315443,-40.58877,70.579506,4.160184,-2.0918498,2.2263467,2.4553986,-17.043987,26.299938,56.379616,-12.239319,-2.0374272,-3.48873
42,-0.16013827919960022,2.0484418869018555,77.80626678466797,0.47391064191771837,0.17710886829012149,-87.58519973469653,-4.7576365,4.6666713,7.9147735,19.076984,-15.276016,-5.776888,-1.2063072,-4.55879,-9.324154,15.464092,-14.9045515,4.7085876,-2.705822,1.5019361,6.106128,-10.488094,17.31592,-40.584915,70.57743,4.1685705,-2.0851517,2.2294676,2.4457197,-17.036701,26.304502,56.377693,-12.205427,-2.0332673,-3.4749475
43,-0.16606807708740234,2.0487263202667236,77.80885314941406,0.4781444129595154,0.1778293585658927,-87.58494834526141,-4.766526,4.6623225,7.909908,19.089928,-15.272425,-5.76767,-1.2078171,-4.5630836,-9.320424,15.465875,-14.9047165,4.719294,-2.710709,1.5007935,6.1080666,-10.483793,17.31596,-40.58512,70.57514,4.1729994,-2.080067,2.23101,2.4438746,-17.034529,26.304047,56.36688,-12.172685,-2.0299652,-3.4598591
44,-0.17147739231586456,2.0471670627593994,77.8095932006836,0.4850531204590698,0.18060376508078146,-87.58232623468572,-4.7750115,4.656012,7.904709,19.097515,-15.269955,-5.7616057,-1.2054193,-4.5717115,-9.347629,15.434697,-14.902249,4.7248144,-2.713248,1.4950106,6.104977,-10.476966,17.315931,-40.58427,70.57121,4.1824155,-2.0743277,2.2354548,2.4442503,-17.029833,26.300386,56.35629,-12.142494,-2.0259163,-3.4430337
45,-0.1822482794523239,2.0460524559020996,77.81324768066406,0.4975399618293618,0.1869169068637141,-87.57756764375407,-4.781684,4.64307,7.901175,19.093994,-15.267607,-5.759012,-1.1953981,-4.590707,-9.4253845,15.3449135,-14.897772,4.7244844,-2.7130644,1.4823633,6.0951366,-10.470236,17.315628,-40.577026,70.56966,4.199389,-2.072253,2.240532,2.4502625,-17.022356,26.287518,56.349182,-12.132093,-2.0261798,-3.4272454
46,-0.1856575757265091,2.04604172706604,77.80928802490234,0.5138642012832404,0.19642463322448903,-87.5714338311374,-4.7870197,4.6243877,7.8986163,19.080906,-15.263565,-5.757871,-1.1806843,-4.617792,-9.538741,15.212907,-14.890915,4.721504,-2.7136846,1.4651589,6.0808434,-10.464509,17.31523,-40.57002,70.56979,4.2144356,-2.072294,2.2466693,2.459819,-17.013712,26.270634,56.34092,-12.129972,-2.0275457,-3.4094474
47,-0.190679669380188,2.044569969177246,77.80707550048828,0.5272902808733546,0.20385650501631492,-87.56471351412871,-4.7910423,4.610056,7.8951535,19.070107,-15.261721,-5.7591634,-1.1646315,-4.640678,-9.652964,15.084279,-14.881178,4.7149777,-2.7120144,1.449982,6.0672393,-10.454428,17.314636,-40.557888,70.56622,4.237059,-2.071943,2.2518852,2.4716244,-17.008646,26.25578,56.33233,-12.124507,-2.0304124,-3.3974113
48,-0.18685536086559296,2.044088840484619,77.79969024658203,0.5321570210945301,0.20406792368788715,-87.56033138762342,-4.7900314,4.6076007,7.8919144,19.067307,-15.263493,-5.7635956,-1.1579458,-4.650657,-9.729989,15.018094,-14.874548,4.704276,-2.716076,1.4453357,6.0651164,-10.4504385,17.314386,-40.55519,70.56499,4.241087,-2.0716856,2.253747,2.4742932,-17.006227,26.251286,56.326878,-12.113822,-2.0349648,-3.3972437
49,-0.1829034835100174,2.044130802154541,77.79711151123047,0.5091589663424114,0.18962527391587689,-87.55137183592659,-4.7863727,4.637046,7.87656,19.09149,-15.277729,-5.775126,-1.1426731,-4.625347,-9.766539,15.008319,-14.849802,4.6812916,-2.7252462,1.4674637,6.078265,-10.443389,17.313894,-40.555637,70.55727,4.2433333,-2.0688128,2.2474537,2.4731183,-17.00084,26.246267,56.328617,-12.09793,-2.0436134,-3.4216754
50,-0.18493908643722534,2.044163703918457,77.7978744506836,0.47468350155988154,0.1667021051186193,-87.54416565033765,-4.7780294,4.6824036,7.8600726,19.12733,-15.298393,-5.791234,-1.1344411,-4.583995,-9.772648,15.05508,-14.822939,4.649869,-2.7369308,1.5032465,6.099184,-10.440712,17.31355,-40.572655,70.55189,4.2234893,-2.065893,2.234934,2.4607456,-16.993633,26.253153,56.343433,-12.071609,-2.0552208,-3.4651816
51,-0.19349676370620728,2.042335271835327,77.80387115478516,0.4431189566467652,0.14446855158185548,-87.53763427898888,-4.7685456,4.7241426,7.8453403,19.159103,-15.316048,-5.8070316,-1.1295189,-4.5451937,-9.765938,15.115886,-14.802874,4.623025,-2.7484365,1.5285034,6.1188374,-10.439758,17.313427,-40.591133,70.55373,4.203195,-2.062346,2.2293372,2.4473004,-16.985025,26.268057,56.358677,-12.043074,-2.0658388,-3.5052307
52,-0.20132951438426971,2.0417613983154297,77.80574035644531,0.43217460890657794,0.13255130663823358,-87.53283934989393,-4.7611513,4.740764,7.838066,19.171598,-15.321737,-5.817193,-1.1257583,-4.5298085,-9.7611685,15.149581,-14.79867,4.614026,-2.7606983,1.5200962,6.132815,-10.436876,17.313564,-40.58322,70.56307,4.209176,-2.058043,2.2420373,2.4358265,-16.975311,26.287725,56.361996,-12.02465,-2.0717838,-3.5177546
53,-0.20140284299850464,2.0407347679138184,77.79961395263672,0.4536064952825464,0.13703516499776,-87.531582233025,-4.756746,4.716465,7.8433857,19.152348,-15.307657,-5.8185577,-1.1243405,-4.5528812,-9.758437,15.141154,-14.82082,4.636196,-2.780903,1.4574658,6.1410065,-10.432138,17.314808,-40.52974,70.58537,4.2573853,-2.0517278,2.2861726,2.4218135,-16.964516,26.319939,56.346153,-12.025647,-2.070182,-3.482346
54,-0.20690688490867615,2.0429539680480957,77.79722595214844,0.4966517135900206,0.15156489651226518,-87.53261817807937,-4.7540174,4.6660504,7.8569922,19.113472,-15.280992,-5.8144865,-1.1245254,-4.599887,-9.751275,15.111529,-14.86064,4.6791306,-2.8188047,1.3583376,6.146161,-10.416232,17.319452,-40.42693,70.610985,4.3413672,-2.0434551,2.3520467,2.391313,-16.949984,26.376987,56.330345,-12.036815,-2.0637221,-3.4174962
55,-0.20990774035453796,2.041043996810913,77.79608154296875,0.5404170038086692,0.16710007663000548,-87.53297024521719,-4.7514763,4.614235,7.8702636,19.072348,-15.253288,-5.809856,-1.1258413,-4.648175,-9.744416,15.081979,-14.90274,4.720892,-2.8533564,1.258395,6.1509347,-10.4031315,17.326248,-40.332798,70.63572,4.4146285,-2.0376413,2.4167912,2.3661554,-16.937998,26.430283,56.309345,-12.045378,-2.0567923,-3.352925
56,-0.21556246280670166,2.0344176292419434,77.79458618164062,0.5671738223285719,0.17466823216804891,-87.52960080076606,-4.7479024,4.5849414,7.8745213,19.04607,-15.235701,-5.8094087,-1.1273599,-4.675355,-9.742668,15.073023,-14.931556,4.7395725,-2.8852158,1.1946361,6.1570325,-10.387032,17.334322,-40.263855,70.64531,4.453304,-2.0385509,2.4576845,2.3431044,-16.927488,26.47443,56.301815,-12.037152,-2.0543847,-3.3204808
57,-0.2308579385280609,2.027156114578247,77.80081939697266,0.563930887198842,0.16906747791658638,-87.52338751350727,-4.741764,4.590082,7.8682837,19.04464,-15.235462,-5.8142786,-1.1294135,-4.6704993,-9.744789,15.097296,-14.940071,4.723311,-2.907578,1.1845286,6.1671643,-10.377556,17.342045,-40.253105,70.643684,4.418451,-2.052936,2.4626653,2.3260143,-16.920292,26.501862,56.31153,-12.001221,-2.059234,-3.3382437
58,-0.23195888102054596,2.024482011795044,77.79566955566406,0.5455749172297417,0.15597385075196213,-87.51472090146966,-4.7338214,4.6147866,7.8554606,19.056389,-15.244766,-5.8219476,-1.1325135,-4.6476493,-9.749486,15.142088,-14.93792,4.685858,-2.9248428,1.2082272,6.1794987,-10.365967,17.34776,-40.269398,70.62918,4.3463483,-2.0757678,2.4462762,2.307431,-16.916084,26.518724,56.33784,-11.946658,-2.0695882,-3.385592
59,-0.2311277687549591,2.0280508995056152,77.79253387451172,0.5223576966658222,0.14297086359333375,-87.50199334399078,-4.728112,4.6438055,7.836877,19.070772,-15.254974,-5.8317375,-1.1338313,-4.620054,-9.760157,15.185123,-14.932099,4.6434875,-2.9376705,1.2391709,6.1885104,-10.355398,17.35232,-40.289745,70.61281,4.27836,-2.0970333,2.4249098,2.2995634,-16.912916,26.525555,56.36019,-11.894062,-2.0795946,-3.4366276
60,-0.23749549686908722,2.0293664932250977,77.79955291748047,0.5090646074576894,0.13759240212434648,-87.48370211015185,-4.7268147,4.6614785,7.814436,19.073225,-15.255712,-5.842941,-1.1329651,-4.6023474,-9.779016,15.208209,-14.931351,4.612635,-2.9552011,1.2544159,6.193049,-10.354285,17.353258,-40.296448,70.60916,4.2435102,-2.1071808,2.416649,2.299932,-16.912264,26.526674,56.365612,-11.867217,-2.0837185,-3.4606009
61,-0.23807112872600555,2.030571460723877,77.7964859008789,0.5062078605745775,0.14319232653923356,-87.4496231267636,-4.742919,4.667659,7.7765713,19.078413,-15.251236,-5.856001,-1.1206765,-4.5934806,-9.82011,15.190163,-14.933422,4.597842,-2.9701672,1.2490852,6.179577,-10.354676,17.356602,-40.30554,70.61325,4.24964,-2.1011972,2.426088,2.316187,-16.909058,26.525122,56.362404,-11.8554735,-2.0818503,-3.4580998
62,-0.2434416264295578,2.029510259628296,77.79630279541016,0.5095469680509175,0.1562155027786854,-87.40682595128074,-4.766922,4.667033,7.7304897,19.07787,-15.2402,-5.8708057,-1.1038232,-4.589752,-9.873859,15.149518,-14.936045,4.5906453,-2.9829662,1.223814,6.157741,-10.360991,17.37269,-40.317486,70.61915,4.281066,-2.0831614,2.4431388,2.3477023,-16.891006,26.504015,56.346222,-11.875782,-2.074005,-3.4348936
63,-0.25395146012306213,2.0257797241210938,77.79454803466797,0.5175748488175338,0.1698697248794599,-87.36608952201314,-4.7864294,4.6616144,7.687076,19.067453,-15.224235,-5.887162,-1.0890805,-4.590513,-9.924955,15.110777,-14.94336,4.5863514,-3.000327,1.1979356,6.137959,-10.363806,17.384542,-40.307465,70.62433,4.330503,-2.063048,2.4627547,2.3703878,-16.876205,26.490622,56.334583,-11.898385,-2.0661607,-3.4071963
64,-0.29622605443000793,2.0125646591186523,77.79916381835938,0.5275489150119296,0.1782227213478238,-87.33917453543268,-4.7889833,4.6529183,7.6586866,19.04021,-15.203737,-5.9047575,-1.0844228,-4.595881,-9.956642,15.098653,-14.958764,4.5802946,-3.0092452,1.1789565,6.125194,-10.368701,17.387928,-40.30374,70.63213,4.355879,-2.0491004,2.479821,2.3858616,-16.871893,26.488037,56.327667,-11.905713,-2.0623915,-3.390105
65,-0.32910919189453125,2.002749443054199,77.79833984375,0.5424399844352076,0.17964462384164734,-87.33336019078841,-4.764903,4.636957,7.6543636,18.983559,-15.1747875,-5.9233713,-1.0927538,-4.6098976,-9.959086,15.119895,-14.984925,4.575182,-3.004577,1.1574233,6.122312,-10.371169,17.399107,-40.31271,70.630775,4.3422475,-2.042224,2.4890604,2.3818135,-16.8597,26.493933,56.34311,-11.899931,-2.0649343,-3.3893325
66,-0.316602885723114,2.0088303089141846,77.80461883544922,0.5624284404685215,0.1774687122873988,-87.34096081873426,-4.7239285,4.6148243,7.665421,18.90619,-15.139139,-5.943258,-1.1089797,-4.6308165,-9.943144,15.159714,-15.018709,4.5722275,-2.9902542,1.135682,6.12358,-10.372117,17.411955,-40.3332,70.62501,4.303355,-2.0385208,2.4956203,2.3683867,-16.848461,26.509974,56.36876,-11.881269,-2.0710664,-3.3962224
67,-0.31841009855270386,2.009312391281128,77.80022430419922,0.5826736352215058,0.17269047253213646,-87.35158463323044,-4.6781387,4.5937576,7.6784563,18.82563,-15.102657,-5.9647584,-1.1298851,-4.651197,-9.922602,15.213158,-15.0559845,4.564147,-2.974234,1.119804,6.1304984,-10.38022,17.418396,-40.356377,70.626114,4.256674,-2.0380697,2.5038211,2.355431,-16.844736,26.527048,56.389645,-11.863085,-2.078418,-3.4064245
68,-0.3186034560203552,2.014437198638916,77.79803466796875,0.5963215492470383,0.1666932407368628,-87.3550722079353,-4.642119,4.5816507,7.679762,18.763876,-15.073194,-5.988416,-1.1512583,-4.663197,-9.91149,15.272703,-15.0913105,4.5436444,-2.9554384,1.1083074,6.1402283,-10.386507,17.422312,-40.35992,70.62651,4.2448473,-2.0382423,2.5168457,2.3566604,-16.842535,26.534712,56.394844,-11.855536,-2.084869,-3.418545
69,-0.3257802426815033,2.019514799118042,77.79705810546875,0.6035373604993259,0.15727258036262382,-87.35063727879471,-4.610769,4.5782895,7.6680965,18.716425,-15.049889,-6.0146146,-1.1716598,-4.666959,-9.911302,15.34175,-15.12589,4.507035,-2.942265,1.1042047,6.1552925,-10.394459,17.426386,-40.354282,70.62797,4.2511034,-2.039818,2.5354145,2.3698566,-16.839178,26.545214,56.391727,-11.865,-2.09672,-3.484516
70,-0.33337703347206116,2.0203230381011963,77.79674530029297,0.6057706593612472,0.144528563038756,-87.34291409722171,-4.580366,4.581569,7.6492968,18.677177,-15.030686,-6.0432134,-1.1911964,-4.664191,-9.915978,15.417862,-15.159105,4.4584565,-2.9350681,1.1046141,6.176044,-10.394308,17.432331,-40.32021,70.62274,4.2878757,-2.0427346,2.5566695,2.3863292,-16.830826,26.560904,56.38734,-11.888483,-2.112298,-3.5890863
71,-0.3470189869403839,2.018049955368042,77.80319213867188,0.606246653674669,0.13307249197588397,-87.33027845696631,-4.560096,4.5897346,7.62353,18.650726,-15.014126,-6.072846,-1.21665,-4.6573424,-9.925298,15.50333,-15.193509,4.403721,-2.9331453,1.1044382,6.19716,-10.396045,17.437807,-40.27816,70.62244,4.330499,-2.0473392,2.5823386,2.3896987,-16.821518,26.573622,56.384827,-11.907385,-2.119953,-3.628592
72,-0.37385082244873047,2.0169565677642822,77.79499053955078,0.604799405746415,0.1278395240802071,-87.31151996950425,-4.5588903,4.6012974,7.5910106,18.641447,-14.999392,-6.102171,-1.2533708,-4.6479864,-9.9391365,15.596748,-15.229417,4.348445,-2.9286752,1.0941819,6.2111306,-10.411176,17.441395,-40.25026,70.64066,4.360372,-2.0537586,2.613431,2.3812912,-16.817286,26.569529,56.36994,-11.904424,-2.1056201,-3.5011556
73,-0.39882510900497437,2.018796443939209,77.78868865966797,0.6039834307159115,0.1322471929877851,-87.28686385460301,-4.580452,4.6155562,7.5523214,18.647089,-14.982914,-6.129277,-1.3063029,-4.6362195,-9.95598,15.699053,-15.262084,4.2976437,-2.9309444,1.0664474,6.218752,-10.433311,17.449675,-40.210663,70.67365,4.3928013,-2.0636399,2.653149,2.3369384,-16.815796,26.541199,56.345333,-11.873737,-2.0557332,-3.091941
74,-0.429755300283432,2.0253491401672363,77.78904724121094,0.6023120015123171,0.14311393116443988,-87.25676881621098,-4.6214952,4.633724,7.5070076,18.670376,-14.968483,-6.155375,-1.3731736,-4.6215715,-9.9763365,15.813783,-15.294617,4.247073,-2.9312685,1.027856,6.2234883,-10.46325,17.464218,-40.176193,70.71389,4.420899,-2.0757272,2.6999674,2.278172,-16.823954,26.488977,56.30067,-11.82368,-1.9801003,-2.483191
75,-0.45144543051719666,2.034700870513916,77.78538513183594,0.6006171982005438,0.15496075603206882,-87.22033001567347,-4.6740427,4.655941,7.454327,18.709522,-14.958481,-6.1839786,-1.4426689,-4.603517,-10.003265,15.932757,-15.333588,4.1883564,-2.9312308,0.9896351,6.222996,-10.500305,17.474926,-40.155163,70.76508,4.4361987,-2.0879753,2.7460225,2.2230108,-16.833303,26.443169,56.256447,-11.763602,-1.9020168,-1.8725662
76,-0.49112603068351746,2.043278217315674,77.79239654541016,0.5966866415643165,0.16153412655624244,-87.1768545782597,-4.731996,4.682888,7.393464,18.768316,-14.958351,-6.218569,-1.5039904,-4.581531,-10.039605,16.050934,-15.387517,4.1131697,-2.9181178,0.96706563,6.241944,-10.541876,17.496164,-40.15898,70.78147,4.431939,-2.0951505,2.7768989,2.2104287,-16.85082,26.389118,56.185303,-11.725629,-1.8466665,-1.4450144
77,-0.5331140756607056,2.053020715713501,77.78862762451172,0.5947304692860874,0.16142644786581792,-87.12630905445614,-4.792496,4.711481,7.325355,18.84599,-14.969793,-6.260872,-1.5573329,-4.5593166,-10.08462,16.174124,-15.467616,4.0164185,-2.8996563,0.9522557,6.2647705,-10.583691,17.518705,-40.184135,70.78374,4.417806,-2.0954444,2.7960815,2.2374737,-16.86183,26.363237,56.117393,-11.690605,-1.8228849,-1.2872514
78,-0.5747628808021545,2.060683250427246,77.77664947509766,0.5934881842933565,0.15771310594029986,-87.06913248183376,-4.8586903,4.742366,7.2501116,18.940546,-14.989507,-6.308683,-1.6069384,-4.535807,-10.137166,16.302216,-15.566477,3.9034576,-2.8795261,0.940995,6.290846,-10.631203,17.544481,-40.23517,70.78003,4.3827763,-2.091538,2.8079746,2.2842128,-16.862804,26.353447,56.055637,-11.657986,-1.8174406,-1.2867777
79,-0.6261626482009888,2.0710127353668213,77.76871490478516,0.5867298570619327,0.1522703011662619,-87.00481729413113,-4.9362636,4.781241,7.165401,19.056252,-15.016705,-6.359834,-1.6517854,-4.5044007,-10.199611,16.425322,-15.665848,3.7819037,-2.8540123,0.9396157,6.3188143,-10.681126,17.574345,-40.30089,70.76832,4.3256288,-2.0874686,2.808603,2.3346856,-16.85229,26.34409,56.00811,-11.6408205,-1.820266,-1.3522456
80,-0.6733965277671814,2.0802743434906006,77.75858306884766,0.5697636407997234,0.1470429524577206,-86.93287987019205,-5.0307717,4.8343024,7.0686426,19.196663,-15.050124,-6.412174,-1.6907547,-4.458312,-10.274629,16.533113,-15.747336,3.6592834,-2.8277078,0.9616411,6.3478355,-10.728974,17.594746,-40.35185,70.75504,4.2562737,-2.088308,2.7954676,2.3718991,-16.84002,26.329306,55.979626,-11.648464,-1.820383,-1.3917762
81,-0.7283470630645752,2.0920302867889404,77.7573013305664,0.5418790478597063,0.14200869607771718,-86.85389984802045,-5.142546,4.9009676,6.960277,19.362347,-15.089433,-6.465141,-1.7237418,-4.397124,-10.361818,16.624296,-15.807842,3.5345447,-2.7788727,1.0090724,6.377867,-10.77883,17.626717,-40.428555,70.71969,4.131189,-2.0919116,2.7532125,2.4093997,-16.81602,26.2712,55.966717,-11.697231,-1.8174322,-1.389971
82,-0.7840469479560852,2.1074366569519043,77.74201202392578,0.5048384888430765,0.13636216785958283,-86.76786674106307,-5.2686267,4.9791074,6.840855,19.550568,-15.134703,-6.5199533,-1.7519399,-4.323866,-10.460361,16.705212,-15.857342,3.4047213,-2.7253513,1.0831605,6.4095373,-10.831018,17.653574,-40.508972,70.67726,3.9710667,-2.098533,2.6896305,2.443575,-16.79268,26.201221,55.968533,-11.770552,-1.8155575,-1.3922637
83,-0.839823305606842,2.1268045902252197,77.73460388183594,0.4573890794255273,0.13099140177666657,-86.67360216486628,-5.4108944,5.0705333,6.709291,19.76315,-15.187692,-6.5769854,-1.7719687,-4.236211,-10.571821,16.768412,-15.892508,3.2741778,-2.679027,1.171091,6.445598,-10.884264,17.66971,-40.577145,70.64108,3.817727,-2.1094184,2.6306465,2.4719126,-16.776783,26.147951,55.971355,-11.855548,-1.8133966,-1.3969444
84,-0.9093142747879028,2.1476380825042725,77.72891235351562,0.3993719929087035,0.12674495556062496,-86.56981061723826,-5.569779,5.176863,6.5645266,19.999264,-15.248699,-6.636688,-1.7826552,-4.1323557,-10.697553,16.811527,-15.912746,3.1472812,-2.6300974,1.2479819,6.4884853,-10.945486,17.68827,-40.65556,70.6174,3.6941648,-2.1242933,2.599946,2.4939332,-16.757833,26.11272,55.970196,-11.948818,-1.8115742,-1.4029841
85,-1.0118602514266968,2.1592204570770264,77.71900177001953,0.3262852863114814,0.12279383093476326,-86.46022491785143,-5.743102,5.3013206,6.4104495,20.261114,-15.321078,-6.6983795,-1.7820612,-4.009118,-10.834558,16.831976,-15.912933,3.0300379,-2.6069345,1.3195422,6.54294,-11.005486,17.695282,-40.700054,70.61809,3.6252925,-2.1528668,2.6053143,2.4924982,-16.752224,26.13663,55.964264,-12.051532,-1.8078611,-1.4119687
86,-1.0693347454071045,2.1812593936920166,77.71244049072266,0.24192057027388125,0.1192792432191453,-86.34411329300369,-5.9304338,5.441656,6.246276,20.545551,-15.402229,-6.7622504,-1.7724748,-3.8686233,-10.983083,16.833696,-15.896107,2.9184709,-2.5842242,1.3809844,6.5972652,-11.069397,17.712082,-40.775143,70.63182,3.553426,-2.190114,2.633401,2.4816685,-16.74087,26.197489,55.96399,-12.159331,-1.8031145,-1.4283638
87,-1.1323888301849365,2.207735061645508,77.7104721069336,0.14744888453014585,0.11792635274399471,-86.21387414751797,-6.1381245,5.5924497,6.062996,20.853123,-15.4882555,-6.829747,-1.7544366,-3.7151878,-11.149886,16.81413,-15.868434,2.8021452,-2.570904,1.4472207,6.662593,-11.131227,17.725183,-40.81978,70.64071,3.5246913,-2.2225902,2.677047,2.4655702,-16.73427,26.264862,55.955894,-12.270492,-1.7993346,-1.4406024
88,-1.1964727640151978,2.2332446575164795,77.69721221923828,0.0467036977048339,0.12112860654773129,-86.06116828856015,-6.372028,5.7474666,5.8516517,21.181238,-15.573725,-6.902176,-1.7315098,-3.554126,-11.341823,16.775175,-15.838557,2.670717,-2.5693927,1.5220288,6.7271647,-11.180837,17.741016,-40.84992,70.626396,3.5173595,-2.2335722,2.7334347,2.4429286,-16.727331,26.339993,55.95539,-12.351614,-1.7986407,-1.4477742
89,-1.2769842147827148,2.26306414604187,77.67752075195312,-0.06600726098859036,0.12471307441210709,-85.88036369665487,-6.6377788,5.914885,5.6022,21.547558,-15.665972,-6.983478,-1.6942298,-3.376548,-11.566462,16.708302,-15.804193,2.5130782,-2.567022,1.6126174,6.8057117,-11.242978,17.748493,-40.865818,70.602196,3.5561912,-2.215094,2.8069592,2.436689,-16.72416,26.38586,55.932083,-12.419976,-1.8010138,-1.4393497
90,-1.3782354593276978,2.2972147464752197,77.66392517089844,-0.19147932732141928,0.12963050060225106,-85.67673123429547,-6.930456,6.093504,5.3216777,21.944641,-15.763494,-7.071852,-1.6459168,-3.1836607,-11.818168,16.617943,-15.763692,2.3376868,-2.5889156,1.7070283,6.8844824,-11.289913,17.767393,-40.86972,70.55929,3.614762,-2.175594,2.8995686,2.4146593,-16.71478,26.46798,55.922783,-12.45633,-1.8040463,-1.4299214
91,-1.4712308645248413,2.333629846572876,77.65486907958984,-0.3156999852823142,0.14394452224237264,-85.45999070256057,-7.2396545,6.2653956,5.0273023,22.338417,-15.851531,-7.1606345,-1.601399,-2.992321,-12.083771,16.512573,-15.719821,2.1632738,-2.6043453,1.8037131,6.965297,-11.334714,17.78384,-40.857674,70.501015,3.6942356,-2.1307497,2.9949021,2.396718,-16.706455,26.52719,55.907722,-12.487482,-1.8107675,-1.4159468
92,-1.5669002532958984,2.3672773838043213,77.64901733398438,-0.42390418940020297,0.17570906630728161,-85.23962861568452,-7.5554028,6.412965,4.736365,22.694056,-15.914552,-7.242979,-1.5747217,-2.8199549,-12.350439,16.398623,-15.673934,2.0086014,-2.6027346,1.8969611,7.034606,-11.379389,17.79013,-40.848736,70.43627,3.7573266,-2.0962508,3.0804007,2.3842869,-16.704006,26.557304,55.89324,-12.510001,-1.8219628,-1.4038403
93,-1.671772837638855,2.3998165130615234,77.63661193847656,-0.5118542436185071,0.22810850315095016,-85.02001740921426,-7.875148,6.5306687,4.4557576,23.002935,-15.948256,-7.314662,-1.5688238,-2.672202,-12.614094,16.273895,-15.628223,1.8800961,-2.5912664,1.982628,7.0848637,-11.408268,17.793142,-40.829086,70.35371,3.7960773,-2.076593,3.150445,2.3719826,-16.703632,26.56941,55.886345,-12.50797,-1.8405448,-1.3992934
94,-1.7652133703231812,2.4408183097839355,77.62702941894531,-0.5864248309536971,0.29649312236010605,-84.79566372341738,-8.204476,6.6277213,4.176042,23.284086,-15.961012,-7.3800282,-1.5777897,-2.5405645,-12.881559,16.138937,-15.582502,1.7673928,-2.5697443,2.0627348,7.1197605,-11.427983,17.793087,-40.807396,70.25873,3.8207679,-2.0633225,3.2134774,2.3646843,-16.70477,26.565508,55.882236,-12.484544,-1.8646979,-1.399026
95,-1.8398069143295288,2.4888057708740234,77.62035369873047,-0.6547511609272048,0.3767172457666229,-84.56070087151357,-8.544737,6.7102494,3.8888419,23.545418,-15.958236,-7.4455905,-1.5983831,-2.4183314,-13.157699,15.996802,-15.531036,1.6638633,-2.5550072,2.1482494,7.164802,-11.441892,17.787428,-40.746506,70.14436,3.868721,-2.0531354,3.2733014,2.3371534,-16.7141,26.550346,55.88526,-12.469681,-1.8892695,-1.3931869
96,-1.9367750883102417,2.5433707237243652,77.6155014038086,-0.7215029064341447,0.46599477766519476,-84.31026692220092,-8.895425,6.78149,3.5879345,23.788958,-15.94172,-7.517468,-1.6339097,-2.3033469,-13.445357,15.8619795,-15.474243,1.5634162,-2.5425172,2.2348042,7.208708,-11.4614105,17.774893,-40.706112,70.03475,3.9096398,-2.0415835,3.3405862,2.3040397,-16.732533,26.55082,55.8937,-12.465878,-1.9044471,-1.3841915
97,-2.0262491703033447,2.5960471630096436,77.61137390136719,-0.7846185947016148,0.5667247549062191,-84.0430278690169,-9.257826,6.837284,3.2710774,24.007784,-15.898219,-7.5932302,-1.6879425,-2.1986969,-13.745266,15.734367,-15.40909,1.4685113,-2.5398579,2.3339293,7.25941,-11.49516,17.734438,-40.665646,69.941,3.9559472,-2.0335019,3.421464,2.2711446,-16.78951,26.572979,55.883827,-12.474725,-1.9070047,-1.3633376
98,-2.120483636856079,2.655153751373291,77.60684967041016,-0.8415831785814838,0.6794731414853197,-83.76181723978925,-9.631467,6.8769627,2.942341,24.20301,-15.831131,-7.6712284,-1.7574097,-2.105427,-14.056055,15.606793,-15.336166,1.3814689,-2.5336666,2.434713,7.3110733,-11.539014,17.681486,-40.638206,69.8525,3.9984887,-2.0281339,3.5097513,2.2362304,-16.859959,26.5965,55.871796,-12.4944,-1.9022979,-1.3362471
99,-2.2101380825042725,2.721975088119507,77.60256958007812,-0.900579981690849,0.7981399211341011,-83.46721301633238,-10.014542,6.911846,2.602612,24.393429,-15.770682,-7.758879,-1.8373238,-2.0142386,-14.377357,15.486557,-15.2623,1.294032,-2.5281172,2.543405,7.3645563,-11.584766,17.617985,-40.6139,69.76284,4.0487185,-2.018008,3.597122,2.1980317,-16.941734,26.624598,55.862354,-12.518101,-1.8934978,-1.3082535
100,-2.291707992553711,2.786726713180542,77.59847259521484,-0.9693794872922008,0.9167849284593294,-83.1596471627077,-10.405689,6.952551,2.2530396,24.598103,-15.747369,-7.863332,-1.9203603,-1.9160312,-14.708926,15.375436,-15.191692,1.1984508,-2.5221593,2.6660922,7.4198346,-11.628797,17.54457,-40.594772,69.66929,4.11115,-1.9957489,3.6754317,2.1607418,-17.035545,26.654593,55.856174,-12.539768,-1.8836068,-1.284321
101,-2.3815338611602783,2.865494966506958,77.59712982177734,-1.0501036805218722,1.0363255494180452,-82.83468239619798,-10.809672,7.0010695,1.8893045,24.821928,-15.7608385,-7.9843974,-2.005989,-1.807437,-15.053784,15.271193,-15.123085,1.0869813,-2.5152063,2.8051956,7.4803085,-11.672834,17.461235,-40.575287,69.56605,4.1841397,-1.9571404,3.740433,2.1316123,-17.139254,26.676907,55.846462,-12.562367,-1.8709364,-1.264574
102,-2.452620506286621,2.935319662094116,77.5858154296875,-1.1383415676851993,1.1591880509414936,-82.49364398446657,-11.223996,7.051545,1.5126685,25.051918,-15.796574,-8.118879,-2.0972488,-1.6937791,-15.411012,15.173314,-15.054998,0.96575,-2.5083265,2.9564683,7.5441303,-11.721606,17.368862,-40.566395,69.45992,4.2555375,-1.9072877,3.797349,2.1043837,-17.253391,26.697144,55.83817,-12.587065,-1.8546319,-1.2471198
103,-2.5681405067443848,2.9869766235351562,77.57117462158203,-1.2323245611120481,1.2818044911239825,-82.14583018083941,-11.643007,7.1036515,1.1317314,25.293892,-15.870246,-8.269549,-2.1942859,-1.5790387,-15.7744,15.089709,-14.992779,0.84735024,-2.501667,3.1182787,7.6066704,-11.76427,17.267536,-40.565006,69.35382,4.345714,-1.8515071,3.851333,2.0714667,-17.380388,26.730585,55.837578,-12.607451,-1.8395905,-1.2324282
104,-2.6307992935180664,3.065837860107422,77.55419921875,-1.3310329834607155,1.4005432450795736,-81.80035507885819,-12.056673,7.1576533,0.7556562,25.545267,-15.9949665,-8.439208,-2.2973971,-1.4670559,-16.13775,15.02821,-14.941928,0.74444693,-2.4970312,3.2896569,7.6623397,-11.800348,17.15949,-40.59428,69.259514,4.445926,-1.7963445,3.9082208,2.0236752,-17.524954,26.795715,55.852547,-12.615157,-1.8302178,-1.2211202
105,-2.6902575492858887,3.1464154720306396,77.5372543334961,-1.4460696193039844,1.5312980603954884,-81.45332874539433,-12.487961,7.2183175,0.36772954,25.797184,-16.184732,-8.6560755,-2.4158905,-1.343564,-16.508923,14.971557,-14.8908615,0.6614186,-2.4989161,3.4867878,7.6940727,-11.822656,17.044636,-40.657528,69.16738,4.5720305,-1.7320381,3.9774406,1.9630978,-17.692013,26.899426,55.880604,-12.60888,-1.8290315,-1.207189
106,-2.7365517616271973,3.215292453765869,77.51820373535156,-1.5737598808928315,1.670506398406064,-81.10198755820802,-12.9325285,7.2841787,-0.029720167,26.052376,-16.430555,-8.909176,-2.54614,-1.2116491,-16.888073,14.92074,-14.840233,0.591131,-2.5055983,3.7058785,7.7110834,-11.834262,16.922747,-40.7465,69.07426,4.7183003,-1.6590619,4.053069,1.894666,-17.882772,27.032433,55.914795,-12.590716,-1.833126,-1.1915267
107,-2.8117787837982178,3.2909770011901855,77.49286651611328,-1.6906908830546619,1.785266126034033,-80.75748521496106,-13.349238,7.3457193,-0.4001388,26.344528,-16.711294,-9.142256,-2.671987,-1.1025904,-17.256874,14.91905,-14.818113,0.52914244,-2.5090032,3.916091,7.747461,-11.847907,16.79696,-40.86258,68.998,4.84886,-1.5991241,4.1178517,1.8170676,-18.094538,27.185663,55.95391,-12.561802,-1.8391389,-1.1849074
108,-2.895522356033325,3.3581483364105225,77.46885681152344,-1.7741608479109139,1.8425112631541634,-80.43059936187278,-13.700547,7.393612,-0.7080556,26.712214,-17.007278,-9.299631,-2.7792625,-1.0479767,-17.597507,15.013348,-14.854187,0.4706829,-2.5010185,4.0860896,7.836857,-11.875457,16.672884,-41.007793,68.95536,4.927323,-1.5739194,4.1546836,1.7260597,-18.321705,27.351147,56.000347,-12.522145,-1.8439064,-1.1984581
109,-2.9622552394866943,3.430206775665283,77.44049072265625,-1.810330088895431,1.8179580848271295,-80.1333428271842,-13.958946,7.4045377,-0.9436288,27.12947,-17.314854,-9.363987,-2.867941,-1.0727397,-17.893692,15.251543,-14.974116,0.41377097,-2.4714642,4.1974382,8.013748,-11.925324,16.554455,-41.192898,68.94388,4.9224634,-1.6071007,4.1544156,1.600496,-18.564869,27.545021,56.06432,-12.453542,-1.8505043,-1.2342916
110,-3.003452777862549,3.5290870666503906,77.41220092773438,-1.8143601236300333,1.7339620600828396,-79.85692558906064,-14.150749,7.38988,-1.1257982,27.58701,-17.64222,-9.365877,-2.9447777,-1.1547904,-18.158709,15.598628,-15.157081,0.3611154,-2.4278708,4.2690654,8.251819,-11.987034,16.443262,-41.415234,68.95258,4.8577666,-1.6810417,4.1271996,1.4463977,-18.824326,27.76771,56.143673,-12.361091,-1.8595277,-1.2869573
111,-3.0368902683258057,3.6246304512023926,77.38578796386719,-1.8088544401279683,1.6274286096733472,-79.58048111201158,-14.313528,7.3930554,-1.2624828,28.138184,-17.981682,-9.322322,-2.9977129,-1.2525376,-18.418686,15.961125,-15.35424,0.3151268,-2.3884578,4.3238916,8.493348,-12.037001,16.340807,-41.640877,68.980034,4.7962112,-1.7549092,4.0844,1.3029841,-19.090467,27.98285,56.222652,-12.286353,-1.8640727,-1.3569316
112,-3.0777225494384766,3.6751623153686523,77.36261749267578,-1.8165577348089745,1.5354502273390178,-79.28332274766208,-14.483622,7.458836,-1.3622178,28.834314,-18.324686,-9.250591,-3.015384,-1.3234062,-18.699842,16.246622,-15.517205,0.27789328,-2.371146,4.382471,8.679804,-12.049585,16.2484,-41.827854,69.024506,4.811098,-1.7873945,4.0373077,1.2021321,-19.3492,28.155369,56.29498,-12.269397,-1.8574404,-1.4457631
113,-3.1216275691986084,3.7160873413085938,77.34406280517578,-1.8502742710984346,1.471870059404772,-78.94746036883824,-14.683468,7.6138196,-1.4182523,29.704796,-18.67494,-9.139178,-2.9880533,-1.3455107,-19.022346,16.412796,-15.6252985,0.24240644,-2.3905618,4.452552,8.789412,-12.014456,16.168074,-41.975113,69.0883,4.9941707,-1.7533185,4.00911,1.1464777,-19.588438,28.288788,56.377174,-12.349056,-1.8328261,-1.5697728
114,-3.1713221073150635,3.7441532611846924,77.3219223022461,-1.8966292298310354,1.4155041709035654,-78.58828374026545,-14.88653,7.8340616,-1.4317144,30.709959,-19.031963,-8.982765,-2.925639,-1.3440194,-19.36789,16.519218,-15.707398,0.20990379,-2.4350069,4.5193048,8.853514,-11.948028,16.102242,-42.108032,69.17466,5.2753506,-1.6795179,3.9869473,1.1101333,-19.805248,28.400108,56.483276,-12.496238,-1.795492,-1.7250868
115,-3.2541110515594482,3.7777700424194336,77.30205535888672,-1.9399315256400127,1.3510547452363142,-78.23524476054881,-15.056774,8.088507,-1.4227636,31.802141,-19.383526,-8.808013,-2.837686,-1.343364,-19.705357,16.605822,-15.787188,0.19442509,-2.4824388,4.5703015,8.894681,-11.852562,16.050077,-42.194763,69.273346,5.5167575,-1.6016908,3.9278448,1.0881497,-20.00049,28.470192,56.59701,-12.652028,-1.7567391,-1.8827373
116,-3.2775022983551025,3.810389995574951,77.28175354003906,-1.9638843824385592,1.262903005224151,-77.91753467903527,-15.156943,8.343502,-1.4093534,32.932243,-19.716234,-8.643009,-2.7359645,-1.3704097,-20.003826,16.717413,-15.889756,0.2102641,-2.5122073,4.5943103,8.934956,-11.743529,16.011356,-42.23554,69.384544,5.5451493,-1.5571378,3.7904196,1.0771259,-20.178476,28.481602,56.699917,-12.75664,-1.7280971,-2.0135345
117,-3.3039395809173584,3.835054397583008,77.26346588134766,-1.957501101190705,1.133641648017242,-77.64473493200492,-15.160545,8.593957,-1.3707372,34.115414,-20.034327,-8.488496,-2.6052408,-1.4378241,-20.251451,16.860622,-16.029015,0.26813748,-2.5166297,4.579834,8.988922,-11.619662,15.985475,-42.22571,69.5102,5.236884,-1.5658983,3.5260038,1.0779006,-20.34344,28.429167,56.792206,-12.790519,-1.7154921,-2.115849
118,-3.3464648723602295,3.8351633548736572,77.24016571044922,-1.932061726561193,0.9753744144768264,-77.40095919956296,-15.089904,8.858585,-1.3055142,35.364258,-20.34058,-8.331012,-2.4452615,-1.5291703,-20.466219,17.014324,-16.18961,0.3581818,-2.5072002,4.5376267,9.042831,-11.478959,15.972683,-42.177372,69.65207,4.698091,-1.6025983,3.1692939,1.0942736,-20.496544,28.322325,56.877495,-12.785673,-1.711949,-2.2025445
119,-3.3670969009399414,3.8432796001434326,77.21243286132812,-1.9046034178626075,0.8168699665353131,-77.17729954159833,-14.982212,9.136325,-1.2591383,36.628536,-20.6201,-8.17939,-2.2872512,-1.6258292,-20.661823,17.172829,-16.348152,0.4636703,-2.4894612,4.489004,9.077137,-11.319624,15.971017,-42.0709,69.795616,4.1508164,-1.6356227,2.8031213,1.131204,-20.636936,28.159891,56.940186,-12.762342,-1.7100612,-2.2659075
120,-3.378251075744629,3.8565173149108887,77.18571472167969,-1.8916829970962976,0.6872034634543006,-76.96449364654089,-14.874799,9.4240465,-1.2763381,37.85707,-20.857191,-8.043439,-2.162588,-1.7090089,-20.85165,17.330013,-16.481041,0.56789684,-2.4703555,4.4549646,9.070892,-11.149035,15.9792795,-41.910618,69.93578,3.7910821,-1.6385918,2.511852,1.1905338,-20.763514,27.943916,56.968407,-12.739398,-1.7023709,-2.2986362
121,-3.394590377807617,3.861429214477539,77.1763916015625,-1.8961071874015487,0.5922695361842224,-76.76409221295503,-14.779972,9.723442,-1.3626662,39.073215,-21.049438,-7.9119864,-2.0783005,-1.7758064,-21.035566,17.48555,-16.58086,0.67449766,-2.4457824,4.4404645,9.014507,-10.960309,15.995232,-41.678535,70.06887,3.7100787,-1.59683,2.3243394,1.279956,-20.87422,27.654186,56.9547,-12.720995,-1.682553,-2.2959306
122,-3.394608974456787,3.858604907989502,77.14962005615234,-1.9093320811277574,0.5172919013803606,-76.57958684565638,-14.676206,10.03306,-1.4948871,40.29051,-21.203733,-7.786076,-2.0177271,-1.8349494,-21.207504,17.640594,-16.659946,0.7896706,-2.4138324,4.4339356,8.919607,-10.752353,16.017471,-41.377453,70.200676,3.7922297,-1.5290618,2.193451,1.3948679,-20.969023,27.296902,56.909584,-12.697371,-1.6559979,-2.2629595
123,-3.395320177078247,3.858743190765381,77.12620544433594,-1.929605794426249,0.4606864275467622,-76.4047155131246,-14.554808,10.34379,-1.6746376,41.45026,-21.321344,-7.693886,-1.980492,-1.8889483,-21.37208,17.800755,-16.72862,0.9007999,-2.3847077,4.432114,8.797186,-10.541311,16.047075,-41.043995,70.33842,3.9234712,-1.4606022,2.0906873,1.5216445,-21.048916,26.912045,56.84524,-12.667283,-1.6330689,-2.2069368
124,-3.395681142807007,3.859217882156372,77.11175537109375,-1.9545837984688554,0.4209072912645472,-76.23268552253745,-14.407884,10.647056,-1.9039236,42.495968,-21.404684,-7.6632037,-1.9616656,-1.9390855,-21.533653,17.961292,-16.79156,0.99515927,-2.369083,4.4260674,8.650681,-10.341828,16.074747,-40.699844,70.503975,4.007559,-1.4158919,1.9890963,1.6331544,-21.097471,26.544981,56.800064,-12.632481,-1.6241137,-2.1399155
125,-3.391683578491211,3.854532241821289,77.10248565673828,-1.988221441256733,0.4119314457659105,-76.05460781427372,-14.251608,10.941986,-2.2055135,43.426006,-21.444572,-7.71049,-1.970006,-1.9799465,-21.702225,18.116634,-16.842382,1.0663643,-2.3750873,4.4256797,8.473043,-10.14765,16.119007,-40.345284,70.6777,4.0114093,-1.406325,1.8726853,1.7629536,-21.145254,26.175968,56.721867,-12.597679,-1.6333017,-2.0411394
126,-3.388005495071411,3.8462564945220947,77.09309387207031,-2.0294588883024236,0.4300968364352943,-75.87600881025345,-14.086311,11.231528,-2.5706213,44.269855,-21.44493,-7.8185096,-2.004988,-2.013456,-21.872337,18.26995,-16.88058,1.1223903,-2.3980784,4.4294,8.266432,-9.935962,16.189173,-39.949085,70.83408,4.0072002,-1.4154046,1.7569125,1.91156,-21.191324,25.79633,56.607834,-12.557436,-1.6544647,-1.912135
127,-3.3732824325561523,3.844212055206299,77.07913970947266,-2.069313516039111,0.44708802726685415,-75.71319667105818,-13.88123,11.514723,-2.9542074,45.018192,-21.42848,-7.963487,-2.04614,-2.0510898,-22.02528,18.428387,-16.919062,1.171773,-2.4187648,4.4289002,8.054101,-9.753391,16.237293,-39.56813,71.03358,3.9802094,-1.4317902,1.6661531,2.0354888,-21.20935,25.442867,56.52475,-12.50172,-1.6821128,-1.7897652
128,-3.334886312484741,3.8586511611938477,77.06183624267578,-2.0983990614688963,0.4344535300502117,-75.58216324384945,-13.607229,11.790791,-3.3114653,45.66637,-21.420687,-8.121111,-2.0831501,-2.1092606,-22.143482,18.622528,-16.983177,1.2240362,-2.4264367,4.4214478,7.917641,-9.570452,16.329834,-39.190163,71.1512,3.9553187,-1.4373401,1.6032684,2.144492,-21.241722,25.103722,56.407604,-12.438513,-1.712331,-1.6852483
129,-3.2869009971618652,3.8758926391601562,77.03720092773438,-2.1166298864013977,0.37305406012489223,-75.49902169406269,-13.236311,12.064126,-3.6283286,46.214176,-21.42271,-8.306667,-2.096671,-2.1847222,-22.209204,18.842384,-17.071938,1.2777529,-2.3985078,4.408763,7.8493614,-9.432979,16.393148,-38.836124,71.2896,3.92202,-1.432061,1.5939491,2.2111669,-21.264626,24.8032,56.315018,-12.340191,-1.7457172,-1.6174022
130,-3.241976022720337,3.9000585079193115,77.01384735107422,-2.1279162870504655,0.28176697303564935,-75.45113307476015,-12.790991,12.334195,-3.9284859,46.66532,-21.42388,-8.525426,-2.1006758,-2.2736404,-22.236437,19.084616,-17.177977,1.3296692,-2.3557944,4.395282,7.845606,-9.302396,16.478518,-38.47256,71.37981,3.885209,-1.4213259,1.6175596,2.2643082,-21.303822,24.518244,56.19086,-12.220564,-1.7845511,-1.5615344
131,-3.1866323947906494,3.9313037395477295,76.99378204345703,-2.130686381429048,0.18950823736257152,-75.4118156807575,-12.31741,12.594442,-4.2234993,47.018257,-21.428709,-8.738451,-2.111829,-2.3781471,-22.252338,19.336597,-17.288607,1.3827664,-2.3064454,4.375931,7.84219,-9.214988,16.52908,-38.15772,71.51028,3.8442676,-1.4097415,1.6646553,2.303456,-21.329346,24.267307,56.092197,-12.095878,-1.8223592,-1.5261788
132,-3.138185739517212,3.969569444656372,76.98736572265625,-2.123113072975749,0.1250508389056336,-75.35416979704341,-11.86007,12.837257,-4.5248675,47.267628,-21.439974,-8.906834,-2.1475358,-2.5009153,-22.283636,19.587276,-17.39197,1.4404973,-2.2876527,4.3485756,7.8316884,-9.113273,16.611925,-37.870262,71.57412,3.8283849,-1.3954376,1.7032446,2.357323,-21.371239,24.054007,55.96545,-11.989239,-1.8536547,-1.4967878
133,-3.0844295024871826,3.9896528720855713,76.97333526611328,-2.104048110022076,0.10010014807692642,-75.27144341477116,-11.429135,13.056273,-4.852196,47.406395,-21.46289,-9.012444,-2.2122982,-2.6408656,-22.337357,19.826555,-17.481686,1.5036703,-2.289501,4.308827,7.7684407,-9.039782,16.670368,-37.65897,71.66591,3.8332295,-1.3785322,1.7417572,2.4155095,-21.393206,23.886986,55.870205,-11.90293,-1.8757282,-1.4903911
134,-3.0259056091308594,4.007325172424316,76.9674301147461,-2.0743885927913954,0.09788266842760139,-75.17781302649493,-11.001907,13.256775,-5.1939015,47.44042,-21.494825,-9.078158,-2.297425,-2.7976325,-22.399124,20.063808,-17.56558,1.5704771,-2.3068314,4.2597556,7.685992,-8.984366,16.725405,-37.49907,71.75342,3.8519456,-1.3584028,1.7858944,2.4741478,-21.407942,23.757841,55.78376,-11.828473,-1.8923541,-1.5020016
135,-2.9633069038391113,4.03099250793457,76.96189880371094,-2.0355338916870758,0.10495910642663611,-75.07788920833845,-10.575484,13.448773,-5.515315,47.386482,-21.527702,-9.12653,-2.398031,-2.9735525,-22.463507,20.311895,-17.650583,1.6400675,-2.3438282,4.1956077,7.6207147,-8.909248,16.829521,-37.357193,71.76145,3.877585,-1.3376044,1.8257375,2.5314956,-21.42769,23.664103,55.679585,-11.765798,-1.9070085,-1.5164391
136,-2.8906869888305664,4.082737922668457,76.95735931396484,-1.9897824719525925,0.1078146162606119,-74.97615751005983,-10.1456175,13.642753,-5.7818017,47.258595,-21.552294,-9.180187,-2.5104685,-3.1709185,-22.525434,20.586075,-17.744432,1.7116953,-2.3880053,4.1204076,7.5683103,-8.870652,16.920364,-37.274574,71.78968,3.8613048,-1.3264563,1.8719049,2.5679507,-21.438236,23.616402,55.603336,-11.7078085,-1.9218935,-1.5327623
137,-2.800947904586792,4.147997856140137,76.94847106933594,-1.930720352863978,0.09886625791422061,-74.87452472126131,-9.7025175,13.837315,-5.9819517,47.048813,-21.565365,-9.240186,-2.6361473,-3.400478,-22.581844,20.904291,-17.855736,1.7865328,-2.4414911,4.0219193,7.552899,-8.8490715,17.026737,-37.230244,71.79458,3.805257,-1.3229359,1.916879,2.5806854,-21.445976,23.61743,55.53394,-11.654687,-1.9283049,-1.5288087
138,-2.7290258407592773,4.180091857910156,76.93717956542969,-1.8597662840175813,0.08662745397236633,-74.77030943162913,-9.251372,14.02771,-6.135028,46.75333,-21.571918,-9.295882,-2.7758536,-3.6573453,-22.635792,21.252459,-17.977633,1.8646183,-2.5016,3.908972,7.55295,-8.869719,17.114565,-37.245533,71.82305,3.711645,-1.3268956,1.9672457,2.5763652,-21.449814,23.662073,55.481373,-11.608902,-1.9274782,-1.5167961
139,-2.650266408920288,4.2308783531188965,76.92745971679688,-1.789110101294918,0.0817717696359655,-74.661294643503,-8.813495,14.218601,-6.252868,46.39908,-21.577856,-9.352805,-2.92474,-3.9213698,-22.691261,21.5992,-18.094988,1.9433001,-2.5703757,3.799269,7.551078,-8.912145,17.190912,-37.294926,71.85527,3.6190772,-1.3393683,2.0250497,2.5710552,-21.450867,23.734894,55.44385,-11.573941,-1.9389025,-1.5293745
140,-2.552014112472534,4.29789924621582,76.92098999023438,-1.7318975603401066,0.09522948878674917,-74.54521383365956,-8.408996,14.414613,-6.3470893,46.010414,-21.587751,-9.4164095,-3.07835,-4.1724076,-22.75232,21.913399,-18.193361,2.0197928,-2.655583,3.7049246,7.532418,-8.939284,17.28709,-37.35342,71.84496,3.5578976,-1.3599058,2.0894861,2.5750802,-21.446754,23.825087,55.42142,-11.55466,-1.9819968,-1.5998851
141,-2.439824342727661,4.376379013061523,76.91766357421875,-1.6941699251934907,0.1338038120439841,-74.42053669632773,-8.040849,14.636343,-6.3896594,45.585636,-21.615631,-9.486401,-3.2358067,-4.3998966,-22.820137,22.180334,-18.267574,2.0876582,-2.757675,3.6399028,7.4797225,-8.967296,17.377676,-37.43807,71.82475,3.5322587,-1.3932716,2.1603818,2.5955002,-21.436754,23.942608,55.429234,-11.558099,-2.0802631,-1.7724938
142,-2.3244760036468506,4.449235439300537,76.91158294677734,-1.668782692890959,0.19046117988316988,-74.28868711844193,-7.6995463,14.87449,-6.3850336,45.11588,-21.655342,-9.560573,-3.4000497,-4.615992,-22.89276,22.420372,-18.326815,2.1502376,-2.868563,3.6000283,7.4030385,-9.021689,17.435383,-37.55494,71.82779,3.5328736,-1.4392421,2.2407348,2.6315212,-21.42727,24.082487,55.458897,-11.581724,-2.2168632,-2.0168662
143,-2.226430654525757,4.4849982261657715,76.90570068359375,-1.6471423678127357,0.25526954837961463,-74.1518858742431,-7.385374,15.090027,-6.3937306,44.61166,-21.680235,-9.640873,-3.569275,-4.83371,-22.969625,22.647278,-18.372929,2.21944,-2.988955,3.5630229,7.323647,-9.076341,17.501064,-37.67936,71.80814,3.5485942,-1.4896489,2.3348513,2.664718,-21.411058,24.22774,55.49929,-11.610898,-2.3512762,-2.2593775
144,-2.1064293384552,4.559786796569824,76.89563751220703,-1.6215356675915913,0.3179421965258735,-74.01236400275363,-7.099558,15.245171,-6.477354,44.0859,-21.665205,-9.728735,-3.7415147,-5.0650005,-23.04994,22.87533,-18.408222,2.3068767,-3.1106834,3.5208423,7.2608294,-9.155657,17.562654,-37.813095,71.78923,3.5533063,-1.5415032,2.4537156,2.6894026,-21.391771,24.34194,55.531235,-11.639122,-2.4427044,-2.423291
145,-1.984361171722412,4.646613121032715,76.88513946533203,-1.5890196799408416,0.37917581280367124,-73.867040905635,-6.8519297,15.326196,-6.6716943,43.5367,-21.60399,-9.820407,-3.9208794,-5.3153105,-23.139353,23.11146,-18.435062,2.4200292,-3.2319977,3.4678383,7.2192254,-9.2613325,17.620266,-37.951046,71.7702,3.5515206,-1.5980756,2.6091466,2.7046573,-21.369707,24.418446,55.54188,-11.658675,-2.4737968,-2.4727616
146,-1.859786033630371,4.743677139282227,76.87991333007812,-1.5543193475299641,0.4432709367073239,-73.71598327627467,-6.6380734,15.3564415,-6.938839,42.958405,-21.509703,-9.915172,-4.1035414,-5.575539,-23.236095,23.339504,-18.44742,2.5506432,-3.3525171,3.4060512,7.18905,-9.385422,17.688221,-38.112705,71.73804,3.538341,-1.6596218,2.791686,2.7141771,-21.338556,24.469576,55.544674,-11.676909,-2.4688237,-2.453816
147,-1.7239348888397217,4.84276008605957,76.87553405761719,-1.5200811063571538,0.505632937491379,-73.5659361295252,-6.4408555,15.352046,-7.230904,42.3631,-21.390093,-10.018803,-4.2898664,-5.8442736,-23.329004,23.571238,-18.4528,2.6890333,-3.4728901,3.349491,7.1670895,-9.5226,17.745853,-38.266933,71.700386,3.5399218,-1.7173164,2.9814,2.7261498,-21.308365,24.4959,55.549606,-11.704567,-2.4491193,-2.4112544
148,-1.5775561332702637,4.946554183959961,76.873291015625,-1.4888629196061733,0.5618252766404792,-73.42371994942673,-6.244917,15.328159,-7.499953,41.764633,-21.253994,-10.13764,-4.4819713,-6.12059,-23.406553,23.822102,-18.460728,2.8254185,-3.5891454,3.3063931,7.1491475,-9.662721,17.790834,-38.401592,71.6502,3.5665684,-1.7609518,3.1569135,2.7506373,-21.281448,24.49489,55.56737,-11.752155,-2.4361417,-2.3906994
149,-1.4139621257781982,5.069067478179932,76.86902618408203,-1.4607890412235647,0.6076562402923757,-73.29392668341336,-6.039131,15.290385,-7.7255387,41.161438,-21.10699,-10.274346,-4.6766386,-6.4039664,-23.462505,24.093517,-18.472967,2.9551442,-3.6780968,3.264268,7.13797,-9.793021,17.852581,-38.52527,71.55531,3.6338196,-1.7817513,3.3104362,2.7962537,-21.236368,24.437801,55.60591,-11.846057,-2.436318,-2.4081683
150,-1.2360762357711792,5.199986457824707,76.85847473144531,-1.4357977179425585,0.6465338383089407,-73.17185142341161,-5.8359723,15.230782,-7.937054,40.551174,-20.945684,-10.425244,-4.874769,-6.6943865,-23.504093,24.379784,-18.485535,3.0841231,-3.780341,3.2424042,7.1348867,-9.923188,17.886683,-38.601505,71.4553,3.7430813,-1.7905287,3.4588008,2.8413913,-21.206808,24.37381,55.657207,-11.959054,-2.4358666,-2.4367354
151,-1.0665279626846313,5.33040714263916,76.844970703125,-1.4113855002153708,0.6853336882455345,-73.0509783538628,-5.646261,15.140779,-8.157374,39.928703,-20.754118,-10.587329,-5.079484,-6.9932766,-23.539259,24.673037,-18.493246,3.2184958,-3.8552043,3.2107081,7.132904,-10.062539,17.940617,-38.701466,71.329926,3.850542,-1.7902505,3.5961387,2.9049358,-21.151354,24.253946,55.7191,-12.081643,-2.435201,-2.464494
152,-0.9064005613327026,5.429268836975098,76.82865142822266,-1.3880846966427787,0.731160702366368,-72.92488715587797,-5.4841256,15.014091,-8.411051,39.2959,-20.5205,-10.757924,-5.293905,-7.2999682,-23.577034,24.96499,-18.490486,3.364146,-3.95301,3.1898875,7.1246715,-10.205713,17.976643,-38.7796,71.20972,3.946979,-1.7928607,3.7280118,2.964848,-21.111744,24.149708,55.78455,-12.15626,-2.428641,-2.4765615
153,-0.7667439579963684,5.4695281982421875,76.81831359863281,-1.3602959066557434,0.7942619787697434,-72.7941206867485,-5.3670025,14.837023,-8.704583,38.65183,-20.223572,-10.906267,-5.5327625,-7.622125,-23.61486,25.257349,-18.471537,3.5268424,-4.0492573,3.1681097,7.103139,-10.356176,18.010345,-38.852833,71.08049,4.039009,-1.7951583,3.8501961,3.0368195,-21.072779,24.02038,55.8454,-12.179973,-2.415884,-2.463626
154,-0.5633078813552856,5.650547027587891,76.80654907226562,-1.3299689195070166,0.868124492478317,-72.66139281653828,-5.282565,14.617498,-9.025641,37.996273,-19.876,-11.044192,-5.788242,-7.9565015,-23.649817,25.548975,-18.440153,3.7017527,-4.139876,3.144192,7.073978,-10.515043,18.048725,-38.933918,70.937935,4.1207914,-1.7940953,3.9625976,3.11895,-21.027855,23.861374,55.90918,-12.1740055,-2.3990161,-2.4352887
155,-0.3259607255458832,5.863337993621826,76.79722595214844,-1.3071337496235085,0.9344026483468683,-72.52310584881161,-5.1975727,14.380887,-9.369699,37.3256,-19.51344,-11.232828,-6.0357294,-8.289417,-23.688208,25.84168,-18.406013,3.8785026,-4.246947,3.130287,7.0509534,-10.670763,18.079144,-38.99277,70.789276,4.196863,-1.7949661,4.069782,3.202775,-20.993269,23.717903,55.976917,-12.146896,-2.3794487,-2.4044282
156,-0.12482288479804993,6.002010822296143,76.77378845214844,-1.300592460330561,0.9746794533922996,-72.3761240422012,-5.077874,14.150804,-9.731837,36.63492,-19.171383,-11.533125,-6.245799,-8.606916,-23.737267,26.126741,-18.378494,4.0469894,-4.332554,3.1091602,7.051903,-10.8290615,18.135544,-39.07398,70.615326,4.2511077,-1.7984533,4.1692667,3.3115323,-20.932152,23.547962,56.044304,-12.144237,-2.3626554,-2.3836982
157,0.08912184834480286,6.161107063293457,76.74884796142578,-1.319745077546755,0.9779834317370969,-72.20325132392793,-4.9003367,13.931445,-10.147077,35.876587,-18.814476,-12.013468,-6.390999,-8.896038,-23.81666,26.39428,-18.36692,4.199238,-4.4570026,3.1009574,7.078924,-10.967169,18.19322,-39.124855,70.42687,4.287939,-1.8169711,4.273661,3.4266999,-20.87453,23.42556,56.1187,-12.149461,-2.3439777,-2.3793924
158,0.2722490131855011,6.285393238067627,76.7173843383789,-1.3580668345571962,0.9562476351657122,-72.01163592888904,-4.686293,13.711995,-10.607191,35.066784,-18.439915,-12.623699,-6.492246,-9.166641,-23.917704,26.6489,-18.363245,4.342043,-4.601347,3.1047668,7.1248355,-11.098007,18.246181,-39.156487,70.228905,4.3144875,-1.8457055,4.3788466,3.5596218,-20.82468,23.321068,56.18798,-12.155252,-2.3232782,-2.381901
159,0.4821501672267914,6.442537784576416,76.68151092529297,-1.4024837649599309,0.9257848090140837,-71.83443337987057,-4.4693418,13.49364,-11.0407095,34.295975,-18.13025,-13.247379,-6.59702,-9.439302,-24.004622,26.913689,-18.35464,4.488048,-4.733989,3.111811,7.1845775,-11.22933,18.303839,-39.174015,70.01807,4.3393245,-1.8662362,4.4678793,3.6875105,-20.774141,23.21999,56.265137,-12.152763,-2.305591,-2.386462
160,0.7163145542144775,6.626864433288574,76.65081787109375,-1.4401371482078564,0.9026724189472177,-71.7048550991982,-4.2843685,13.276168,-11.373911,33.6557,-17.965837,-13.769057,-6.752049,-9.733227,-24.041557,27.209072,-18.326635,4.6498528,-4.8375897,3.122795,7.252124,-11.375209,18.362665,-39.18593,69.80655,4.353686,-1.8628463,4.5262294,3.7827456,-20.728928,23.128407,56.36082,-12.123494,-2.2948692,-2.3876047
161,0.975253701210022,6.831946849822998,76.6168441772461,-1.4726295366392337,0.8917917574118758,-71.64321560522728,-4.143419,13.061372,-11.5873165,33.184235,-17.977121,-14.194318,-6.979785,-10.048983,-24.010267,27.544853,-18.270468,4.834496,-4.8915915,3.1316648,7.3385477,-11.520641,18.457233,-39.170444,69.54592,4.368802,-1.8208278,4.532666,3.819366,-20.672792,23.040241,56.4896,-12.05654,-2.296405,-2.383957
162,1.2317720651626587,7.012967586517334,76.5750503540039,-1.5059640467755622,0.8843536069196984,-71.62783951065602,-4.0306015,12.847729,-11.718146,32.833702,-18.118118,-14.574592,-7.2516685,-10.375375,-23.932602,27.905943,-18.194159,5.0343647,-4.9242244,3.168229,7.435453,-11.694143,18.508335,-39.12202,69.313774,4.385735,-1.7575989,4.50924,3.830459,-20.653997,22.978285,56.623253,-11.944853,-2.3041813,-2.3746529
163,1.4870165586471558,7.210166931152344,76.53402709960938,-1.5307734347346988,0.8759487157477045,-71.62932548616642,-3.9329243,12.625473,-11.774713,32.554962,-18.348259,-14.862655,-7.5398164,-10.7202015,-23.830477,28.282627,-18.112978,5.2403026,-4.9477096,3.1994305,7.5360255,-11.866062,18.56506,-39.0729,69.079155,4.4057946,-1.686479,4.4774513,3.8475196,-20.644579,22.912748,56.750633,-11.834893,-2.3130229,-2.363984
164,1.779059648513794,7.482453346252441,76.49418640136719,-1.521198126254833,0.8611398784899376,-71.61657618333457,-3.8314376,12.364141,-11.762374,32.288784,-18.621449,-15.000033,-7.8270354,-11.1157675,-23.718807,28.688921,-18.052525,5.4473076,-4.9888763,3.1950486,7.620706,-12.032234,18.615618,-39.05119,68.87648,4.428728,-1.6252761,4.467201,3.9023285,-20.640724,22.841864,56.86268,-11.757045,-2.3156004,-2.3569117
165,2.0642828941345215,7.6805739402771,76.44771575927734,-1.5116752208808868,0.8381691949679744,-71.57735952385545,-3.7410157,12.107349,-11.69417,32.06599,-18.976652,-14.972764,-8.07758,-11.511891,-23.626284,29.075195,-18.00138,5.6431646,-5.0468063,3.1802416,7.688745,-12.1764345,18.682539,-39.07039,68.68108,4.4551315,-1.5741978,4.485179,4.0146437,-20.635292,22.752926,56.950188,-11.739715,-2.3088257,-2.3488762
166,2.3489770889282227,7.901638984680176,76.40982055664062,-1.4925650071124315,0.8093803400652163,-71.52857574158887,-3.6624372,11.839411,-11.562375,31.898706,-19.419024,-14.795337,-8.317191,-11.925623,-23.532475,29.466131,-17.958584,5.836989,-5.117208,3.1531065,7.7409687,-12.319232,18.741045,-39.117695,68.51935,4.478605,-1.5273894,4.5197477,4.1515775,-20.628613,22.66666,57.03945,-11.754864,-2.2964942,-2.342597
167,2.6373291015625,8.139870643615723,76.37590789794922,-1.4482382346585037,0.7802614599888696,-71.49039511233133,-3.5840907,11.542804,-11.364265,31.743166,-19.882587,-14.535649,-8.573616,-12.373161,-23.410675,29.872162,-17.911976,6.0341144,-5.1742806,3.0919213,7.7943664,-12.4530325,18.833286,-39.19255,68.3435,4.498445,-1.4825763,4.5541654,4.310904,-20.612411,22.548752,57.111885,-11.780968,-2.2852192,-2.343305
168,2.936249017715454,8.315007209777832,76.33189392089844,-1.3949084782904146,0.7582252408890746,-71.4850844974575,-3.5151951,11.237587,-11.107681,31.59439,-20.324455,-14.26591,-8.860513,-12.825535,-23.250343,30.268791,-17.833338,6.232384,-5.250368,3.0389276,7.837639,-12.60587,18.86944,-39.22163,68.25335,4.5482984,-1.447902,4.5901933,4.432043,-20.60217,22.466404,57.21629,-11.759852,-2.2769547,-2.3666806
169,3.22910475730896,8.5758056640625,76.3016128540039,-1.3321410341376048,0.746244316006033,-71.5128831216351,-3.4532952,10.9272,-10.782213,31.440144,-20.730976,-13.99717,-9.184139,-13.281811,-23.05023,30.655334,-17.719418,6.4277883,-5.2599998,2.9609332,7.900855,-12.775429,18.965073,-39.301434,68.128815,4.61311,-1.4109062,4.608403,4.5892496,-20.564077,22.277079,57.27664,-11.739506,-2.2794166,-2.4142272
170,3.5560250282287598,8.824913024902344,76.26580810546875,-1.2591263341992156,0.7405325280791438,-71.56409630426553,-3.3996613,10.608058,-10.390898,31.295868,-21.132513,-13.69606,-9.535557,-13.746112,-22.817911,31.036747,-17.580881,6.620903,-5.2854366,2.873186,7.958935,-12.943483,19.058836,-39.354774,68.03833,4.7084,-1.3786995,4.6253805,4.7141953,-20.513882,22.107784,57.366047,-11.692451,-2.285415,-2.4893384
171,3.8803625106811523,9.048066139221191,76.22734832763672,-1.1737937210730316,0.7369346566571603,-71.64599886308231,-3.3439329,10.274083,-9.948942,31.151419,-21.524775,-13.3658,-9.908843,-14.216212,-22.543114,31.404396,-17.412779,6.8176684,-5.301485,2.7767062,8.015559,-13.108108,19.142405,-39.393307,67.970634,4.798873,-1.3544445,4.6402545,4.832344,-20.458834,21.934628,57.461388,-11.624318,-2.293172,-2.5649123
172,4.192653179168701,9.291971206665039,76.1959228515625,-1.074002650468082,0.7312779108541364,-71.76626160401251,-3.274587,9.919609,-9.471165,30.993532,-21.901678,-13.009326,-10.297486,-14.689259,-22.21559,31.748579,-17.209581,7.0246086,-5.2986946,2.6688294,8.072965,-13.257506,19.225908,-39.43317,67.90491,4.829069,-1.34157,4.651894,4.9494004,-20.396715,21.757446,57.55783,-11.534726,-2.3005054,-2.6169152
173,4.502786159515381,9.560652732849121,76.16605377197266,-0.954497805191704,0.718506200803304,-71.93134384645283,-3.1789792,9.538574,-8.948845,30.817825,-22.270098,-12.616929,-10.703327,-15.1757765,-21.837654,32.087452,-16.979551,7.237539,-5.270758,2.5417373,8.132874,-13.383343,19.316605,-39.474773,67.82989,4.770628,-1.3447062,4.6558976,5.064092,-20.327297,21.572968,57.660168,-11.4130125,-2.3076956,-2.6320019
174,4.87198543548584,9.829849243164062,76.14265441894531,-0.8183547074931227,0.7024617787504863,-72.13589570840588,-3.0653281,9.135496,-8.37885,30.630112,-22.631155,-12.191176,-11.129026,-15.671426,-21.41218,32.418167,-16.721832,7.4555216,-5.2292438,2.409068,8.194341,-13.493504,19.389875,-39.49292,67.76643,4.670917,-1.3617034,4.6556034,5.1811337,-20.26862,21.389277,57.756123,-11.255874,-2.314923,-2.6225166
175,5.221462726593018,10.085101127624512,76.1222152709961,-0.6744583343853996,0.6924005095202105,-72.36905887300507,-2.9537728,8.719041,-7.7837644,30.432194,-22.96917,-11.753006,-11.569755,-16.152824,-20.928133,32.70011,-16.418715,7.6907344,-5.171826,2.2655146,8.257698,-13.594426,19.481073,-39.525566,67.69848,4.5430183,-1.3819517,4.6550703,5.2957277,-20.193565,21.194462,57.851097,-11.098712,-2.3221774,-2.6110463
176,5.575159549713135,10.360072135925293,76.09929656982422,-0.5327362074139926,0.6974994722008763,-72.62000021968711,-2.8704002,8.298228,-7.187394,30.237396,-23.274227,-11.3223715,-12.020304,-16.596968,-20.377356,32.897087,-16.055412,7.95658,-5.122688,2.126866,8.319949,-13.676757,19.575565,-39.527145,67.63071,4.46341,-1.3966323,4.662386,5.398062,-20.108582,21.014791,57.94282,-10.956788,-2.3273537,-2.6177928
177,5.902245044708252,10.663064956665039,76.08599090576172,-0.3866126730835183,0.7184818152966237,-72.88455831431882,-2.8173027,7.8649507,-6.584302,30.04194,-23.542713,-10.895941,-12.481959,-17.003801,-19.724869,33.001373,-15.633831,8.269386,-5.085557,1.9901366,8.38152,-13.757185,19.66924,-39.517666,67.57336,4.3988028,-1.4117323,4.672665,5.490997,-20.015076,20.851278,58.0296,-10.829433,-2.3345582,-2.6718035
178,6.259696960449219,10.963342666625977,76.07392120361328,-0.2340897133865098,0.751188227584699,-73.16915589614862,-2.7846408,7.417992,-5.965575,29.846207,-23.782986,-10.465514,-12.955951,-17.382465,-18.985134,33.034008,-15.163161,8.619773,-5.0504866,1.8472065,8.443146,-13.827174,19.771126,-39.49617,67.51668,4.339676,-1.4285964,4.683482,5.5724773,-19.903637,20.695156,58.119465,-10.710961,-2.3435462,-2.7557797
179,6.641131401062012,11.261918067932129,76.06642150878906,-0.09366773459879343,0.7973416417382367,-73.47814608558181,-2.7685375,6.9814043,-5.34553,29.643246,-23.988491,-10.044049,-13.431252,-17.720139,-18.221825,32.989185,-14.630828,8.980562,-5.014392,1.7156156,8.500546,-13.878906,19.875467,-39.457233,67.47041,4.3307843,-1.4350088,4.7103553,5.638955,-19.782648,20.550493,58.211937,-10.605344,-2.345343,-2.8173134
180,7.008584022521973,11.56010913848877,76.06876373291016,0.016869785314519666,0.8584347074155002,-73.81629349318602,-2.7685153,6.578948,-4.738608,29.433104,-24.15516,-9.64436,-13.899373,-18.006197,-17.49845,32.8651,-14.025608,9.32453,-4.9720984,1.6116365,8.549772,-13.907818,19.979866,-39.4061,67.44437,4.407593,-1.4191002,4.7685595,5.6876183,-19.659588,20.418772,58.306282,-10.51742,-2.330851,-2.8041697
181,7.376412391662598,11.875345230102539,76.08499145507812,0.09011882822730044,0.9375310404833601,-74.17629605716859,-2.7919357,6.217557,-4.161227,29.217585,-24.27376,-9.274818,-14.350058,-18.243572,-16.847855,32.6511,-13.337698,9.654611,-4.928061,1.5428296,8.588142,-13.917095,20.081692,-39.345825,67.44792,4.6340947,-1.3695743,4.886914,5.7235484,-19.53981,20.290138,58.390152,-10.445699,-2.2890267,-2.6695912
182,7.748049736022949,12.195241928100586,76.10420989990234,0.1359400210487644,1.0327310048287912,-74.55851640190144,-2.8386261,5.885244,-3.6004295,28.998783,-24.349417,-8.926099,-14.789174,-18.438402,-16.230349,32.35323,-12.576756,9.9826355,-4.8818245,1.5021142,8.619007,-13.90809,20.17914,-39.27045,67.47408,4.976298,-1.2949997,5.048748,5.7503686,-19.424026,20.166029,58.461975,-10.386656,-2.227143,-2.451242
183,8.11806583404541,12.492964744567871,76.12965393066406,0.16258672735868293,1.137930014765052,-74.97955041835351,-2.8945217,5.5776258,-3.0263326,28.772549,-24.39721,-8.584661,-15.231991,-18.585228,-15.601544,31.992533,-11.757904,10.293877,-4.8235765,1.4841768,8.6468525,-13.876788,20.272167,-39.17972,67.510254,5.3125663,-1.2136453,5.201604,5.7666526,-19.312273,20.062668,58.53491,-10.345986,-2.1639967,-2.2227454
184,8.48058795928955,12.801376342773438,76.16351318359375,0.17819047022710416,1.247120663422713,-75.45587803027979,-2.9477148,5.289642,-2.4103916,28.53855,-24.434767,-8.236957,-15.694727,-18.679413,-14.918608,31.593895,-10.898934,10.573587,-4.74358,1.4827877,8.676728,-13.814097,20.361076,-39.063087,67.53942,5.53174,-1.144633,5.293151,5.7671533,-19.204313,19.998526,58.624424,-10.326709,-2.1183937,-2.0581143
185,8.85660457611084,13.124862670898438,76.19664001464844,0.18041952373238937,1.3579935398770915,-76.00883248003767,-2.9881926,5.0245905,-1.7340585,28.281944,-24.454323,-7.885207,-16.18566,-18.708593,-14.144751,31.140234,-9.942018,10.857586,-4.623735,1.5170081,8.722431,-13.734322,20.422096,-38.917416,67.57142,5.5783005,-1.0901203,5.3080187,5.7580657,-19.126282,19.977926,58.716885,-10.348224,-2.0946283,-1.9801604
186,9.240947723388672,13.488158226013184,76.23400115966797,0.16703479170265162,1.4734750573958932,-76.62423608586549,-3.0255787,4.78297,-1.0160228,28.008602,-24.450138,-7.5344367,-16.692797,-18.681458,-13.310489,30.62765,-8.900092,11.142564,-4.491492,1.5588759,8.775964,-13.602275,20.505445,-38.716896,67.57407,5.5357184,-1.0383211,5.270561,5.690271,-19.021324,20.016205,58.865196,-10.408901,-2.0838587,-1.9600414
187,9.614370346069336,13.818643569946289,76.28042602539062,0.14305480328554648,1.5963525208567106,-77.26519238873658,-3.0738704,4.559225,-0.28302115,27.741594,-24.440384,-7.1760406,-17.197638,-18.618235,-12.477025,30.088993,-7.8870616,11.352869,-4.3545103,1.6115655,8.812885,-13.445147,20.58702,-38.521626,67.584305,5.443858,-0.99796146,5.2022195,5.6328053,-18.922739,20.071768,59.007668,-10.458815,-2.0824466,-1.9564128
188,9.984293937683105,14.120328903198242,76.32430267333984,0.11465854516383578,1.7294314673252185,-77.8947362275659,-3.1463597,4.3464837,0.4386946,27.504652,-24.443754,-6.801555,-17.687334,-18.5417,-11.707074,29.56494,-7.018993,11.410809,-4.235062,1.6578313,8.808143,-13.259229,20.67298,-38.351925,67.610115,5.369555,-0.9751235,5.120916,5.6111298,-18.822504,20.124945,59.13096,-10.453095,-2.0874453,-1.9382414
189,10.31673812866211,14.377318382263184,76.37068939208984,0.07476120667166528,1.8883676165155037,-78.5031585200558,-3.2450542,4.1525083,1.1467688,27.27993,-24.461067,-6.403083,-18.148521,-18.435621,-11.006661,28.962465,-6.263155,11.312841,-4.1463513,1.6975254,8.734,-13.025955,20.76809,-38.213284,67.65478,5.331353,-0.97996765,5.024647,5.6340523,-18.712973,20.178265,59.23413,-10.362315,-2.1024294,-1.9071478
190,10.697998046875,14.684359550476074,76.39768981933594,0.02316711330342084,2.066639662552634,-79.11006480373324,-3.365107,3.9774802,1.8542097,27.068956,-24.487906,-5.9873023,-18.597942,-18.302296,-10.348184,28.307734,-5.5819016,11.090143,-4.07383,1.7338933,8.610706,-12.748736,20.873833,-38.088997,67.70819,5.298647,-1.0056517,4.905415,5.6813893,-18.591993,20.240915,59.331028,-10.217475,-2.127582,-1.8780515
191,11.049589157104492,14.990716934204102,76.41769409179688,-0.024245305760731587,2.2341675256582514,-79.72351658168034,-3.4980962,3.8025365,2.5588834,26.901249,-24.523743,-5.5672035,-19.056677,-18.190117,-9.748437,27.794897,-5.0653596,10.716952,-3.9970381,1.7556257,8.484194,-12.463118,20.992535,-37.983883,67.76328,5.247856,-1.0336355,4.7725506,5.7394004,-18.463343,20.299515,59.427654,-10.066578,-2.1552083,-1.839202
192,11.387969017028809,15.303155899047852,76.4291000366211,-0.050586905586388085,2.361323551199587,-80.35105759108951,-3.6398768,3.6084976,3.2579677,26.815434,-24.573086,-5.155116,-19.546024,-18.134438,-9.22735,27.612318,-4.806333,10.168992,-3.894071,1.7525462,8.401679,-12.2015705,21.125137,-37.894608,67.80843,5.165364,-1.0451022,4.6346755,5.7982216,-18.332865,20.339249,59.523865,-9.955847,-2.1774988,-1.7779129
193,11.744953155517578,15.615148544311523,76.42848205566406,-0.04527194461724072,2.4440525323167455,-81.0216548745199,-3.7852073,3.3856726,3.9737206,26.808441,-24.632149,-4.747406,-20.115154,-18.129372,-8.734176,27.772177,-4.8259225,9.344719,-3.7430089,1.7201552,8.378205,-11.96505,21.271994,-37.816936,67.82065,5.036306,-1.0264925,4.4743166,5.847733,-18.208021,20.3534,59.617714,-9.889181,-2.1949372,-1.68286
194,12.0892915725708,15.915555953979492,76.42646789550781,-0.01773104828545996,2.4976596647859677,-81.72207940483362,-3.9363036,3.1452773,4.6997075,26.864265,-24.702093,-4.338467,-20.740517,-18.153395,-8.276103,28.183952,-5.0744805,8.288142,-3.5609086,1.6658874,8.389405,-11.7351,21.432766,-37.747334,67.806885,4.877768,-0.9901222,4.2929716,5.8997555,-18.090614,20.35016,59.702824,-9.842973,-2.210708,-1.561921
195,12.39493179321289,16.218660354614258,76.41424560546875,0.020410401320294716,2.520781881119348,-82.39600006594593,-4.099673,2.8993385,5.389465,27.000898,-24.792555,-3.9369195,-21.332668,-18.216486,-7.9572024,28.878609,-5.5368013,7.1960692,-3.3856752,1.5969807,8.422658,-11.522221,21.608223,-37.699837,67.80931,4.706943,-0.9570802,4.128449,5.977848,-17.975206,20.33507,59.7742,-9.825891,-2.2213368,-1.4314525
196,12.703457832336426,16.504295349121094,76.38703918457031,0.05697676318095134,2.511241051149406,-82.98677377300415,-4.2803054,2.660859,5.996259,27.23129,-24.909512,-3.551757,-21.795557,-18.335949,-7.8820925,29.877708,-6.1967006,6.2662587,-3.2538054,1.5177435,8.464936,-11.333762,21.798405,-37.679024,67.86851,4.5530286,-0.94814193,4.018217,6.102401,-17.852654,20.313038,59.832268,-9.847595,-2.2233856,-1.30891
197,12.989570617675781,16.773529052734375,76.34718322753906,0.09117212783500778,2.4609112858103956,-83.47323259024564,-4.487015,2.436604,6.5012565,27.587683,-25.059,-3.1974533,-22.098133,-18.520184,-8.079774,31.211094,-7.1445723,5.570929,-3.1797583,1.4225672,8.515005,-11.182504,22.007086,-37.716705,68.011185,4.407432,-0.9811849,3.972878,6.282648,-17.713274,20.283493,59.87937,-9.9217825,-2.2148325,-1.198761
198,13.275280952453613,17.04629135131836,76.29864501953125,0.1286279404477261,2.373195988566106,-83.88770215879491,-4.7156944,2.2215211,6.930797,28.054623,-25.235521,-2.8640137,-22.287048,-18.76687,-8.486129,32.853973,-8.363686,4.9969273,-3.1407652,1.3083583,8.577568,-11.065587,22.236212,-37.811127,68.21452,4.2514615,-1.0413171,3.9723456,6.5013475,-17.554459,20.24442,59.92339,-10.041591,-2.198341,-1.093583
199,13.529343605041504,17.305173873901367,76.24823760986328,0.16801660813319405,2.2627959145985055,-84.25375307819529,-4.9556036,2.0090072,7.305942,28.580156,-25.431242,-2.5237267,-22.389858,-19.089384,-9.065088,34.76756,-9.67763,4.4623837,-3.1188154,1.1826854,8.648529,-10.955033,22.4788,-37.890617,68.439285,4.124765,-1.0998583,4.007584,6.7390404,-17.381933,20.197588,59.97282,-10.1866255,-2.1776745,-0.99345
200,13.780818939208984,17.55440330505371,76.19466400146484,0.20872710239794945,2.143767177949901,-84.59399566808725,-5.195109,1.7901794,7.647514,29.112268,-25.639292,-2.1490047,-22.429142,-19.49465,-9.786144,36.905506,-10.904898,3.8834963,-3.0993755,1.0559607,8.72468,-10.827446,22.723759,-37.889927,68.65134,4.057676,-1.1286126,4.070461,6.97881,-17.206446,20.1483,60.03123,-10.333808,-2.1560862,-0.89711285
201,14.031538009643555,17.7956485748291,76.13742065429688,0.25022259238331274,2.0064642755067226,-84.90388756527734,-5.4307785,1.5607594,7.9445333,29.658998,-25.866217,-1.7189317,-22.388771,-20.023848,-10.719604,39.334583,-12.015829,3.2293766,-3.089618,0.93187124,8.818951,-10.694811,22.963974,-37.815285,68.87535,4.072832,-1.1203011,4.163354,7.2234,-17.034664,20.097479,60.09256,-10.488445,-2.131858,-0.8103262
202,14.281675338745117,18.03813362121582,76.07744598388672,0.2937552813178049,1.8470635845832044,-85.17400306395383,-5.666696,1.3247733,8.190504,30.238007,-26.11255,-1.2520229,-22.24237,-20.671078,-11.856553,42.043457,-13.101298,2.5374365,-3.0949907,0.8084523,8.92913,-10.565244,23.196835,-37.687374,69.12362,4.1555862,-1.0901859,4.289723,7.4845557,-16.86772,20.042994,60.150146,-10.656761,-2.1037564,-0.73016846
203,14.530014991760254,18.28053092956543,76.01593017578125,0.34189861105475206,1.6881781798656912,-85.41973311610995,-5.904448,1.0842642,8.41319,30.815165,-26.362898,-0.7801571,-22.000216,-21.360102,-13.052683,44.86441,-14.154682,1.8295058,-3.099257,0.68690044,9.029231,-10.414116,23.418373,-37.473705,69.34879,4.2676816,-1.0443287,4.44397,7.7575073,-16.710526,19.986048,60.206966,-10.817074,-2.0759606,-0.64239573
204,14.781655311584473,18.525896072387695,75.94660186767578,0.39615331483967187,1.5529102912814423,-85.65673322371332,-6.145211,0.8426403,8.641677,31.355152,-26.600967,-0.33656684,-21.684631,-22.012924,-14.164554,47.636124,-15.169226,1.133349,-3.0893419,0.5712941,9.093467,-10.216947,23.62556,-37.14765,69.502914,4.361034,-0.989546,4.620614,8.038962,-16.569738,19.930683,60.262783,-10.947128,-2.0523968,-0.53194517
205,15.02490520477295,18.765911102294922,75.87325286865234,0.4588176567638755,1.4403118291938186,-85.8812644191273,-6.3803253,0.59458107,8.877935,31.844679,-26.822285,0.07258511,-21.289862,-22.654833,-15.222264,50.396866,-16.167248,0.4240607,-3.0640452,0.46254113,9.120829,-9.963365,23.81429,-36.668648,69.56681,4.45194,-0.9200873,4.8399587,8.341211,-16.451878,19.866314,60.30463,-11.038503,-2.033463,-0.38392738
206,15.280882835388184,18.99506187438965,75.7910385131836,0.5280328327122455,1.34039067803035,-86.08753302473887,-6.612572,0.34031975,9.108968,32.305153,-27.036188,0.46342927,-20.803688,-23.30906,-16.281841,53.20813,-17.146671,-0.3038234,-3.031823,0.36154768,9.124099,-9.6636715,23.982233,-36.053303,69.566154,4.562185,-0.83466184,5.09749,8.665556,-16.358889,19.796152,60.32989,-11.101833,-2.0170143,-0.20831968
207,15.518959045410156,19.2232666015625,75.70643615722656,0.5987404403945302,1.2632839651305166,-86.28894483988991,-6.859344,0.090825364,9.340144,32.74909,-27.242893,0.838059,-20.259663,-23.880861,-17.237701,55.947308,-18.05699,-0.9838321,-2.9920435,0.27105483,9.096864,-9.32984,24.131205,-35.37418,69.52545,4.641018,-0.7477076,5.3512154,8.989259,-16.290695,19.743984,60.359695,-11.143817,-2.0032837,-0.028533217
208,15.745555877685547,19.38896942138672,75.62680053710938,0.6659047083726769,1.2195039320804872,-86.49946468991705,-7.1397367,-0.14257102,9.576947,33.190685,-27.44346,1.1986552,-19.703825,-24.273026,-17.985,58.495308,-18.84295,-1.5440018,-2.9422753,0.19281867,9.032444,-8.969322,24.264235,-34.692924,69.46381,4.650227,-0.67312884,5.5587187,9.288889,-16.244522,19.733038,60.41604,-11.170948,-1.9925812,0.13191731
209,15.966665267944336,19.562406539916992,75.54334259033203,0.7274383061852013,1.2154411828104859,-86.71776523446754,-7.4684143,-0.35785937,9.818945,33.645466,-27.64469,1.5422912,-19.155777,-24.471878,-18.512384,60.862713,-19.490627,-1.9847577,-2.881465,0.12484737,8.918548,-8.572704,24.381105,-33.997143,69.36934,4.5615625,-0.61393577,5.7246995,9.563042,-16.219664,19.775923,60.50699,-11.162205,-1.989148,0.28531322
210,16.195016860961914,19.76263427734375,75.45968627929688,0.785849050246295,1.2447909027996276,-86.93863184152764,-7.8327317,-0.56073105,10.0642,34.100506,-27.842005,1.8692048,-18.606794,-24.516226,-18.873095,63.106,-20.022528,-2.3285277,-2.8111346,0.06680749,8.761267,-8.141941,24.481411,-33.27296,69.238976,4.3923044,-0.56351537,5.8667026,9.821335,-16.215794,19.859028,60.62218,-11.121609,-1.9912707,0.4377107
211,16.406896591186523,19.962116241455078,75.38280487060547,0.8412455558919955,1.2988817542694953,-87.1693736882778,-8.213723,-0.74888086,10.319123,34.535778,-28.023973,2.1821647,-18.060902,-24.385654,-19.069977,65.169754,-20.445795,-2.5360816,-2.729028,0.020112552,8.581671,-7.6900873,24.565907,-32.54623,69.095764,4.209519,-0.5203734,5.960433,10.05758,-16.22907,19.961006,60.756496,-11.095778,-1.9906528,0.55568415
212,16.623226165771484,20.15128517150879,75.30797576904297,0.894180247514401,1.3690845459189753,-87.41737549843003,-8.591114,-0.9201093,10.589891,34.928272,-28.177868,2.4843388,-17.522213,-24.059792,-19.105719,66.99794,-20.767523,-2.5676897,-2.6321833,-0.013237342,8.399794,-7.247835,24.639622,-31.884731,68.97746,4.0396104,-0.48392037,5.983324,10.264068,-16.254019,20.060535,60.90829,-11.131722,-1.9791206,0.6047398
213,16.832338333129883,20.3378849029541,75.24523162841797,0.9413832572152004,1.4626030620982546,-87.6896499372273,-8.968188,-1.068629,10.88163,35.26931,-28.298004,2.7815094,-17.002386,-23.50918,-18.967592,68.583115,-20.973661,-2.409014,-2.5112855,-0.029028555,8.210574,-6.8161483,24.70442,-31.290064,68.881,3.8754692,-0.45506212,5.8803616,10.434563,-16.286129,20.162298,61.092274,-11.267439,-1.951836,0.5471429
214,17.034528732299805,20.51093101501465,75.1868667602539,0.9829987019103211,1.5811712619675722,-87.9808409842886,-9.352813,-1.196827,11.190653,35.571358,-28.391584,3.0699646,-16.501692,-22.74816,-18.66437,69.956665,-21.067081,-2.0752864,-2.3682647,-0.03141809,8.005867,-6.3844223,24.760168,-30.739702,68.792984,3.702341,-0.4329597,5.6798725,10.572845,-16.323875,20.272081,61.308186,-11.471282,-1.9137099,0.40985826
215,17.212934494018555,20.696617126464844,75.13671875,1.0239612703046885,1.7080191270512,-88.27990340148769,-9.730775,-1.3149465,11.507822,35.840878,-28.463558,3.3394651,-16.004854,-21.819918,-18.230875,71.11703,-21.081188,-1.5718664,-2.2137227,-0.031555828,7.8019376,-5.9580793,24.807503,-30.238611,68.72697,3.56488,-0.414235,5.483287,10.688614,-16.365759,20.36643,61.530014,-11.685906,-1.8719108,0.2555163
216,17.391239166259766,20.864599227905273,75.08570098876953,1.0688947701055107,1.8262392207245937,-88.57541289242411,-10.08861,-1.4316859,11.825655,36.08736,-28.519506,3.5776317,-15.49461,-20.768356,-17.704327,72.060875,-21.052692,-0.90626156,-2.0496845,-0.04148285,7.613947,-5.5471277,24.84164,-29.78659,68.70054,3.5227509,-0.39569247,5.3919077,10.798238,-16.406033,20.410727,61.729614,-11.858503,-1.8342935,0.14628437
217,17.57339096069336,21.02150535583496,75.03096771240234,1.1260106371819423,1.9313566375153166,-88.86997072980557,-10.417705,-1.5568964,12.147631,36.30371,-28.560259,3.7814636,-14.965528,-19.566137,-17.047853,72.76402,-20.973537,-0.017125512,-1.8788052,-0.07254746,7.4452014,-5.142616,24.863733,-29.373476,68.719795,3.6266668,-0.38974395,5.4564695,10.898712,-16.444517,20.394537,61.909138,-11.985119,-1.8015128,0.09595437
218,17.754310607910156,21.19371795654297,74.9803466796875,1.1905206822879821,2.032233523481504,-89.16771653649145,-10.727532,-1.6828773,12.476579,36.489624,-28.582808,3.9564288,-14.41943,-18.200806,-16.262728,73.23709,-20.846245,1.0803422,-1.7106231,-0.11428472,7.291116,-4.7300777,24.880741,-28.984713,68.76113,3.8372765,-0.39338064,5.6140985,10.97877,-16.491766,20.347082,62.078377,-12.088093,-1.7699716,0.0733022
219,17.921964645385742,21.390092849731445,74.93231201171875,1.2496464924382125,2.132149546444516,-89.4592681744508,-11.029469,-1.7974545,12.799956,36.655045,-28.583698,4.10718,-13.853967,-16.740053,-15.437169,73.52581,-20.714031,2.2586765,-1.5184338,-0.15425798,7.143559,-4.362007,24.884817,-28.681742,68.847565,4.059769,-0.38124242,5.7996516,11.055681,-16.52594,20.259563,62.23508,-12.161675,-1.7420503,0.067025036
220,18.104671478271484,21.57049560546875,74.88720703125,1.2905217434830925,2.233922040924096,-89.73553882087356,-11.335177,-1.8876612,13.105112,36.810497,-28.55944,4.2386994,-13.271648,-15.25265,-14.655157,73.67169,-20.608608,3.3899584,-1.337192,-0.17095411,7.0078044,-4.021846,24.885733,-28.438206,68.94092,4.2144094,-0.3292936,5.9442863,11.111916,-16.5607,20.18465,62.375572,-12.184622,-1.7189536,0.07028132
221,18.263296127319336,21.74298667907715,74.85941314697266,1.3065270311216919,2.335302863752795,-89.99357700303,-11.637767,-1.939419,13.409003,36.956093,-28.504875,4.3376904,-12.681102,-13.671292,-13.853235,73.64947,-20.5073,4.487854,-1.1851765,-0.14715527,6.8943334,-3.6912081,24.890474,-28.249268,69.007744,4.278477,-0.20958179,6.036206,11.15601,-16.62235,20.129436,62.47595,-12.130359,-1.7011529,0.092236586
222,18.434629440307617,21.915897369384766,74.83832550048828,1.3075498771715792,2.4348510610571057,-90.23803714265789,-11.933372,-1.965006,13.711487,37.08508,-28.42193,4.406126,-12.075009,-11.9959135,-13.010106,73.44772,-20.409363,5.596768,-1.0193797,-0.10970048,6.7883167,-3.4112403,24.894405,-28.169094,69.10453,4.2809668,-0.04219284,6.11175,11.193729,-16.667961,20.052658,62.56569,-12.022076,-1.6881381,0.12622148
223,18.604902267456055,22.09893798828125,74.8185043334961,1.3030213368375347,2.5381113713015475,-90.4710014102622,-12.238867,-1.9902492,13.974253,37.20008,-28.318789,4.47238,-11.444386,-10.396874,-12.267649,73.12883,-20.361635,6.6340976,-0.8553334,-0.06679692,6.6916995,-3.1546853,24.898525,-28.128206,69.21606,4.2573857,0.1241939,6.1656146,11.211822,-16.714453,19.98342,62.63555,-11.894683,-1.6791804,0.16857022
224,18.759172439575195,22.281524658203125,74.80066680908203,1.3018903127362709,2.651060186447633,-90.69499103403452,-12.571191,-2.0402713,14.159337,37.30233,-28.203102,4.5642104,-10.789353,-9.043824,-11.765863,72.75493,-20.397804,7.51867,-0.6918716,-0.030783087,6.5994415,-2.9157379,24.901423,-28.08962,69.34875,4.2310743,0.24097474,6.193801,11.204016,-16.76595,19.938913,62.683,-11.784866,-1.6738352,0.21255703
225,18.917808532714844,22.473634719848633,74.7823715209961,1.3029199300769387,2.7788100199782417,-90.9068017281706,-12.953405,-2.1325307,14.191874,37.39694,-28.076511,4.6900864,-10.100628,-8.018224,-11.601614,72.3286,-20.543406,8.210389,-0.53563017,0.0019203766,6.512529,-2.6899319,24.902308,-28.040575,69.499245,4.2025723,0.2874036,6.1886396,11.164989,-16.833633,19.930597,62.698994,-11.692861,-1.6719868,0.27727348
226,19.085119247436523,22.66973304748535,74.77535247802734,1.302089640012057,2.917299515051993,-91.1067785443171,-13.369775,-2.250325,14.1139145,37.47988,-27.933195,4.834146,-9.390947,-7.2189016,-11.672914,71.81895,-20.755053,8.757157,-0.38769063,0.03593471,6.431308,-2.4804194,24.900852,-28.000067,69.66825,4.160682,0.29191384,6.15512,11.094817,-16.910803,19.952494,62.692936,-11.600592,-1.6738081,0.35840523
227,19.229463577270508,22.877166748046875,74.77838897705078,1.3038197738584578,3.0591085547351575,-91.30323457164316,-13.783493,-2.3638659,14.064212,37.547245,-27.775051,4.987231,-8.695568,-6.5394106,-11.822578,71.240585,-20.962124,9.2134905,-0.24295156,0.06500689,6.3547344,-2.283198,24.897224,-27.964678,69.85375,4.118485,0.27951235,6.106734,11.00345,-16.989023,19.996288,62.672146,-11.515816,-1.6788938,0.41817316
228,19.3864688873291,23.08460235595703,74.77606201171875,1.3122436434547633,3.1966801801361786,-91.50425373437494,-14.157756,-2.4429185,14.18114,37.59471,-27.604687,5.141129,-8.046285,-5.875705,-11.894399,70.60687,-21.097734,9.632081,-0.107215896,0.091953084,6.2859807,-2.0793056,24.88907,-27.911222,70.03843,4.094872,0.2747655,6.0549736,10.908519,-17.085888,20.062792,62.623425,-11.439194,-1.6868668,0.42481497
229,19.53586196899414,23.296615600585938,74.77796173095703,1.33454932320493,3.3285117537647677,-91.71594002541975,-14.473605,-2.4720728,14.56012,37.619846,-27.418634,5.296816,-7.442252,-5.2445936,-11.87153,69.92048,-21.13178,10.0015955,0.03171551,0.09983215,6.2227693,-1.8708999,24.875965,-27.834482,70.2299,4.108016,0.2787351,5.998944,10.796168,-17.178745,20.152922,62.5677,-11.374517,-1.7017056,0.37707913
230,19.708589553833008,23.4863338470459,74.77912139892578,1.3663468889938895,3.45842660069383,-91.93255040546066,-14.752465,-2.4693708,15.10729,37.624435,-27.21736,5.4588337,-6.8662047,-4.6870213,-11.829512,69.17432,-21.101637,10.303758,0.17135817,0.092564195,6.164075,-1.6663666,24.860315,-27.749537,70.434814,4.1395392,0.28003553,5.93407,10.660437,-17.264814,20.266695,62.50739,-11.321242,-1.7224668,0.2887002
231,19.866588592529297,23.695276260375977,74.78140258789062,1.3937930665151506,3.5869982011770993,-92.14454362066695,-15.021183,-2.453934,15.678962,37.61757,-27.013395,5.6232643,-6.326001,-4.1388273,-11.749456,68.37167,-21.050179,10.578843,0.29800522,0.092164196,6.109125,-1.4674438,24.84134,-27.664219,70.649765,4.171712,0.28534514,5.8679137,10.518244,-17.354708,20.395739,62.432705,-11.279858,-1.7415448,0.1418968
232,20.009288787841797,23.904796600341797,74.78987884521484,1.4042917733630444,3.714775685118461,-92.34226564887771,-15.302985,-2.4486318,16.129108,37.596634,-26.81202,5.7879357,-5.8286934,-3.5395076,-11.613985,67.514275,-21.018627,10.861762,0.41935074,0.105913356,6.0516148,-1.2921348,24.824558,-27.603777,70.88583,4.192754,0.30249056,5.808245,10.380015,-17.420517,20.509083,62.360218,-11.2640505,-1.7520491,-0.08870543
233,20.15447235107422,24.123661041259766,74.80352020263672,1.3895709375169394,3.8427884203105394,-92.52356833637084,-15.606566,-2.4568865,16.40727,37.560314,-26.619854,5.9578333,-5.3810253,-2.84231,-11.382895,66.582405,-21.03256,11.156614,0.5309252,0.14523587,5.991589,-1.1393673,24.810778,-27.572931,71.14576,4.20302,0.33720908,5.755304,10.248728,-17.460003,20.610516,62.291546,-11.301218,-1.7474154,-0.46824834
234,20.298032760620117,24.341798782348633,74.82249450683594,1.3580536974981954,3.970299151360708,-92.69324051404007,-15.918088,-2.4690053,16.594597,37.508278,-26.431221,6.132573,-4.9747567,-2.0947874,-11.076779,65.58188,-21.066269,11.440941,0.6228375,0.2052328,5.93114,-0.9980568,24.794254,-27.554302,71.42521,4.2051454,0.38357455,5.706626,10.114292,-17.489656,20.723312,62.220657,-11.372007,-1.731907,-0.96383315
235,20.434900283813477,24.55861473083496,74.83857727050781,1.322909706349608,4.0947990977928646,-92.85244670748574,-16.229067,-2.4863052,16.745083,37.44337,-26.234869,6.300231,-4.596301,-1.374741,-10.766247,64.55254,-21.084253,11.716093,0.7126706,0.26245475,5.8698196,-0.8733504,24.779278,-27.538418,71.71415,4.207808,0.43376097,5.6628413,9.978747,-17.504055,20.81863,62.14661,-11.430607,-1.7164125,-1.4532852
236,20.574838638305664,24.774127960205078,74.85039520263672,1.2968567774424204,4.21421824026067,-93.00249165922318,-16.533579,-2.5056436,16.912245,37.373898,-26.022465,6.4484477,-4.234612,-0.75611126,-10.523708,63.53393,-21.050203,11.988468,0.8067247,0.29769984,5.8079147,-0.76227874,24.76996,-27.509428,71.99764,4.2140036,0.4793267,5.6243887,9.84074,-17.509356,20.88139,62.065468,-11.42588,-1.7127154,-1.813217
237,20.703479766845703,25.010108947753906,74.86624145507812,1.2786729267831836,4.330397233494547,-93.13560330518857,-16.833168,-2.5268447,17.098341,37.299538,-25.788788,6.5675683,-3.8815224,-0.2750087,-10.413364,62.52143,-20.94808,12.267711,0.89084,0.3112718,5.742183,-0.66308385,24.765783,-27.461649,72.274414,4.259856,0.5265401,5.5999246,9.696443,-17.511715,20.916306,61.971573,-11.322262,-1.7253646,-1.9941678
238,20.825592041015625,25.22841453552246,74.87369537353516,1.2628493529894314,4.443930663018642,-93.25405268828668,-17.131472,-2.5471697,17.278147,37.220364,-25.541187,6.6656904,-3.545914,0.117725775,-10.383694,61.498615,-20.797836,12.553319,0.9614136,0.312611,5.6753125,-0.5656337,24.765995,-27.382315,72.54015,4.34618,0.5773643,5.5854087,9.545264,-17.512602,20.933495,61.86662,-11.1529875,-1.747971,-2.066421
