unveil-humanoid-operators/unveil-humanoid-operators.github.io/feature-analysis-animation/data/feature_matrix_instances/height_root_translate_rom_jogging_A464_jog_ff_start_180_R_003__A464.csv
Frame,root_translateX,root_translateY,root_translateZ,root_rotateX,root_rotateY,root_rotateZ,left_hip_pitch_joint_dof,left_hip_roll_joint_dof,left_hip_yaw_joint_dof,left_knee_joint_dof,left_ankle_pitch_joint_dof,left_ankle_roll_joint_dof,right_hip_pitch_joint_dof,right_hip_roll_joint_dof,right_hip_yaw_joint_dof,right_knee_joint_dof,right_ankle_pitch_joint_dof,right_ankle_roll_joint_dof,waist_yaw_joint_dof,waist_roll_joint_dof,waist_pitch_joint_dof,left_shoulder_pitch_joint_dof,left_shoulder_roll_joint_dof,left_shoulder_yaw_joint_dof,left_elbow_joint_dof,left_wrist_roll_joint_dof,left_wrist_pitch_joint_dof,left_wrist_yaw_joint_dof,right_shoulder_pitch_joint_dof,right_shoulder_roll_joint_dof,right_shoulder_yaw_joint_dof,right_elbow_joint_dof,right_wrist_roll_joint_dof,right_wrist_pitch_joint_dof,right_wrist_yaw_joint_dof
0,-0.09029656648635864,-2.09983229637146,78.72698211669922,-1.1309803139810828,-0.3526545493270482,88.71817053239404,4.04491,4.4927335,14.602153,6.983006,-12.703332,-5.847877,3.498426,-3.6576815,-12.994115,6.992455,-11.254562,4.262289,-2.0471675,0.40003958,6.5692096,0.54101235,11.584445,-35.89964,69.01237,-2.44359,1.3855605,15.870941,-5.0949945,-12.309029,44.97425,68.444214,7.142188,-1.7496885,-7.1549835
1,-0.09440027177333832,-2.1011364459991455,78.72834014892578,-1.1274469560939249,-0.31860611263753985,88.71972436758291,4.0046763,4.4771576,14.588119,6.9815264,-12.742046,-5.8861794,3.470373,-3.6694553,-12.998666,6.995617,-11.383319,4.2479367,-2.0357542,0.4040335,6.5707006,0.51517963,11.598826,-35.932293,69.000084,-2.4793684,1.383407,15.8656,-5.164486,-12.299158,45.074787,68.50603,7.20624,-1.7699178,-7.075904
2,-0.09846196323633194,-2.1065309047698975,78.7300796508789,-1.122927632376389,-0.28503897098221864,88.71961618680174,3.9653003,4.460842,14.57418,6.9796004,-12.779989,-5.92756,3.4425795,-3.682831,-13.001408,6.999183,-11.513091,4.2337074,-2.0223155,0.40911952,6.57272,0.4849656,11.607467,-35.960316,68.9912,-2.5086296,1.3844796,15.8599205,-5.2290816,-12.295093,45.171696,68.56088,7.264591,-1.7909784,-6.993471
3,-0.1025729700922966,-2.1162326335906982,78.73283386230469,-1.1207013685931513,-0.2506690855739013,88.72296106275802,3.92428,4.4476933,14.559729,6.9785433,-12.819418,-5.962698,3.4140906,-3.6937609,-13.007236,7.003014,-11.640711,4.2161417,-2.016512,0.41779757,6.5739017,0.45783967,11.615534,-35.990734,68.98639,-2.5469596,1.3778737,15.855653,-5.30158,-12.293085,45.286396,68.62122,7.341966,-1.8089368,-6.9167776
4,-0.1120162084698677,-2.12613844871521,78.73741912841797,-1.1227882600253767,-0.214539860167702,88.73388597889361,3.8809495,4.44118,14.545422,6.978209,-12.8621025,-5.982358,3.3838925,-3.6975005,-13.020141,7.0065813,-11.762029,4.1920657,-2.0165792,0.42913458,6.577056,0.422444,11.625013,-36.03167,69.00426,-2.6029897,1.3507258,15.851449,-5.3801465,-12.291492,45.408623,68.68207,7.436076,-1.8189081,-6.8530817
5,-0.1093786209821701,-2.1309099197387695,78.74363708496094,-1.1302082063029406,-0.17547175004571428,88.75169535147647,3.8358572,4.44762,14.53749,6.9786534,-12.910852,-5.9959226,3.3491957,-3.6907656,-13.037578,7.0092406,-11.874747,4.1724067,-2.0226722,0.44457835,6.581221,0.3795889,11.637712,-36.097137,69.047775,-2.688737,1.2952203,15.84963,-5.4746175,-12.289253,45.55517,68.754486,7.5649137,-1.8202028,-6.812539
6,-0.11437557637691498,-2.1338491439819336,78.75242614746094,-1.1419392946514655,-0.13448209104320408,88.7743297228848,3.7887588,4.463198,14.533904,6.981131,-12.964721,-6.004408,3.3105636,-3.6764212,-13.058386,7.013043,-11.98231,4.1556406,-2.030861,0.46158233,6.587217,0.32911786,11.654459,-36.180603,69.11085,-2.7948906,1.2191845,15.848358,-5.5776863,-12.285048,45.71389,68.831245,7.715028,-1.815041,-6.788554
7,-0.11809882521629333,-2.149566888809204,78.7637710571289,-1.1546069787593298,-0.09299645707097026,88.80569865264633,3.7385602,4.475906,14.521231,6.98412,-13.017922,-5.9855294,3.2737086,-3.6601732,-13.090376,7.0162716,-12.086319,4.1204634,-2.0382926,0.4779327,6.5943437,0.27479243,11.674769,-36.268772,69.18186,-2.908627,1.1365087,15.845904,-5.6843023,-12.27896,45.86174,68.911476,7.8707657,-1.8049476,-6.7628474
8,-0.11843787133693695,-2.1622915267944336,78.77188110351562,-1.1625357703834425,-0.05237761064131541,88.84954646376681,3.6834202,4.4722033,14.486282,6.989278,-13.067226,-5.916431,3.2421346,-3.6510227,-13.139964,7.0219355,-12.191128,4.0454783,-2.0454,0.4869877,6.602446,0.22847952,11.706857,-36.346004,69.23785,-3.0182629,1.0618744,15.839358,-5.7905197,-12.268707,45.981,68.99505,8.018219,-1.7914016,-6.7182245
9,-0.12011072039604187,-2.1707403659820557,78.78021240234375,-1.1633816289367198,-0.008821502950023995,88.90625501881924,3.61607,4.447109,14.421812,6.9957714,-13.105475,-5.78828,3.210135,-3.650902,-13.208216,7.030501,-12.289352,3.9108858,-2.0411937,0.486058,6.609306,0.17459013,11.742191,-36.41594,69.291565,-3.1339488,1.0156939,15.821214,-5.894183,-12.25837,46.059658,69.086075,8.17577,-1.77643,-6.6459217
10,-0.11908424645662308,-2.177952766418457,78.79032135009766,-1.1577578763080443,0.037022653530773934,88.9737662591972,3.5397215,4.408549,14.334451,7.004972,-13.138421,-5.6116395,3.1779768,-3.6591089,-13.290149,7.0406113,-12.382175,3.7322872,-2.0306175,0.47679228,6.6148205,0.11483868,11.779079,-36.483368,69.34861,-3.257677,0.9847112,15.795723,-5.996674,-12.248855,46.1121,69.183075,8.343551,-1.7584962,-6.556871
11,-0.123176708817482,-2.177565813064575,78.80375671386719,-1.1465908795367825,0.0767296680978892,89.05219088147574,3.4708476,4.362154,14.23148,7.0152698,-13.178578,-5.393976,3.158586,-3.676767,-13.382321,7.0527234,-12.487473,3.5391479,-2.018874,0.46164772,6.6271763,0.062382594,11.8275,-36.54719,69.39586,-3.3626823,0.931648,15.776565,-6.0976696,-12.238903,46.139866,69.26856,8.481699,-1.7335335,-6.4604573
12,-0.12934403121471405,-2.173002004623413,78.81615447998047,-1.136991494385868,0.10182906856883991,89.14207303705084,3.4230835,4.316804,14.120527,7.028643,-13.238375,-5.145913,3.1669617,-3.69779,-13.485578,7.0653133,-12.622295,3.36373,-2.0121613,0.453945,6.6523857,0.016278347,11.87655,-36.605038,69.44497,-3.4206321,0.81703395,15.779485,-6.198214,-12.233706,46.152016,69.32728,8.557004,-1.697561,-6.365611
13,-0.1372775286436081,-2.16532564163208,78.82179260253906,-1.1343594293734092,0.11084896864313183,89.24925635430337,3.3620615,4.280375,13.998917,7.118537,-13.354232,-4.822807,3.204505,-3.7185664,-13.609114,7.079412,-12.799687,3.2027352,-2.0152555,0.45210204,6.7035437,-0.0073295273,11.954983,-36.648674,69.46,-3.4089108,0.62165207,15.79293,-6.298893,-12.232399,46.130417,69.342094,8.535884,-1.6398385,-6.264393
14,-0.1537511646747589,-2.1486642360687256,78.8244400024414,-1.1382375832594618,0.110305494963546,89.37319076142379,3.3013408,4.2470994,13.862038,7.2326007,-13.489673,-4.4374022,3.262261,-3.7349734,-13.752893,7.095023,-13.007584,3.0425944,-2.0287533,0.46019053,6.7707014,-0.018060585,12.048529,-36.678177,69.45706,-3.3467455,0.36866423,15.8149605,-6.3976007,-12.238004,46.079453,69.322556,8.443217,-1.5653111,-6.154866
15,-0.16735565662384033,-2.1242835521698,78.82010650634766,-1.1490791785364884,0.09855629176437623,89.50283272226977,3.076687,4.262476,13.70202,7.7482643,-13.856566,-4.08815,3.342515,-3.7475505,-13.901259,7.109271,-13.222297,2.9039917,-2.0393162,0.47703522,6.841037,-0.016698673,12.150235,-36.71652,69.44854,-3.2734158,0.08802741,15.867982,-6.4938407,-12.25132,46.034615,69.285614,8.339606,-1.4954183,-6.0556006
16,-0.18459603190422058,-2.0875589847564697,78.81001281738281,-1.162190855871457,0.07213805791750812,89.62645563948868,2.801155,4.30161,13.534123,8.44431,-14.346679,-3.8702722,3.449655,-3.759355,-14.038078,7.1206155,-13.421663,2.8089542,-2.0330288,0.49619192,6.906232,0.0038409168,12.268244,-36.78858,69.4299,-3.2316651,-0.18885118,15.9721775,-6.594012,-12.276484,46.046074,69.24876,8.30239,-1.451901,-5.9854846
17,-0.2001410871744156,-2.0349950790405273,78.79318237304688,-1.1714053983915778,0.01284819637410097,89.73948233799187,2.7436743,4.2948804,13.378133,8.787639,-14.689129,-3.853887,3.6032007,-3.7806606,-14.1544075,7.1277647,-13.581966,2.7753954,-2.0054114,0.51030755,6.977118,0.04076387,12.397273,-36.916817,69.406136,-3.2327077,-0.4630876,16.153925,-6.6890078,-12.315093,46.12162,69.2055,8.341473,-1.444483,-5.9627357
18,-0.22128456830978394,-1.9664205312728882,78.77239990234375,-1.1810178447362567,-0.07271657930767718,89.84806083061733,2.854321,4.2551603,13.230296,8.86213,-14.921268,-3.9721286,3.7944744,-3.806868,-14.260907,7.1349754,-13.722502,2.7883947,-1.9622437,0.5246953,7.0554147,0.09119253,12.537594,-37.08552,69.37599,-3.2551644,-0.74825794,16.395054,-6.7816477,-12.368594,46.244473,69.14935,8.429614,-1.4603472,-5.9728026
19,-0.25446560978889465,-1.8878568410873413,78.75154876708984,-1.1845571030970314,-0.15124147475470495,89.95415282486728,3.0179532,4.1989684,13.094776,8.828138,-15.112874,-4.1119723,3.9818878,-3.842666,-14.365824,7.1542087,-13.886432,2.8219433,-1.9082717,0.535153,7.116776,0.1570561,12.688872,-37.249744,69.34084,-3.2834024,-1.033324,16.650305,-6.874387,-12.434084,46.38905,69.08434,8.540468,-1.4852366,-5.9855866
20,-0.2881942689418793,-1.798857569694519,78.73582458496094,-1.1825635842744444,-0.1900081364225976,90.06041281728771,3.1246512,4.143753,12.973654,8.835671,-15.327844,-4.1608233,4.1383924,-3.8859117,-14.479027,7.1700983,-14.103737,2.8494635,-1.8496478,0.54008317,7.1364527,0.24074025,12.8508215,-37.36435,69.30379,-3.3029082,-1.3071487,16.874836,-6.9789495,-12.506755,46.543556,69.02463,8.661794,-1.5056707,-5.971368
21,-0.30312636494636536,-1.7065237760543823,78.72110748291016,-1.1727143340709576,-0.17898337458211847,90.16392914330169,3.150649,4.0934463,12.875383,8.917376,-15.584886,-4.071408,4.2539372,-3.9405954,-14.604287,7.187751,-14.409808,2.8663723,-1.7854971,0.53479314,7.0988154,0.3471106,13.02432,-37.418163,69.27009,-3.3133528,-1.574346,17.061165,-7.094904,-12.580987,46.722645,68.97873,8.810947,-1.5276796,-5.9201274
22,-0.3318934738636017,-1.6039056777954102,78.70844268798828,-1.155911503092417,-0.135955440072934,90.26472318936656,3.1560948,4.0393586,12.795076,8.988817,-15.845683,-3.9095087,4.3499537,-4.0038033,-14.736757,7.200454,-14.773618,2.8862891,-1.7157882,0.5215358,7.0192723,0.4761085,13.210018,-37.4314,69.23595,-3.3197293,-1.8380139,17.231915,-7.2245727,-12.6544285,46.934074,68.94745,8.993473,-1.5557374,-5.848899
23,-0.3659975826740265,-1.4925122261047363,78.69822692871094,-1.1375640355638408,-0.0705746159132952,90.36890474351338,3.1461577,3.97963,12.716039,9.046336,-16.09926,-3.7322354,4.4273224,-4.071219,-14.871036,7.2110214,-15.142354,2.9108188,-1.6469747,0.5070382,6.919932,0.62076515,13.406682,-37.41003,69.191956,-3.3209398,-2.0854623,17.386929,-7.371449,-12.726367,47.136047,68.92285,9.158246,-1.5734165,-5.768451
24,-0.39873605966567993,-1.3742151260375977,78.68851470947266,-1.1208064347432578,0.007789663045880687,90.482645150954,3.1274436,3.9120264,12.621894,9.084851,-16.334522,-3.5969977,4.489475,-4.1376023,-15.001923,7.217315,-15.460738,2.9410048,-1.5840245,0.49853724,6.8226604,0.77167654,13.611907,-37.362514,69.130775,-3.3168488,-2.3038247,17.526651,-7.537747,-12.797547,47.286854,68.894585,9.255923,-1.564196,-5.689441
25,-0.44750237464904785,-1.2760281562805176,78.67818450927734,-1.1092971387792998,0.09931071503146528,90.60891789960064,3.108225,3.8319356,12.507203,9.081957,-16.53435,-3.5257564,4.5341296,-4.203553,-15.12884,7.2191772,-15.706649,2.9793434,-1.5294038,0.5007755,6.7256875,0.9344602,13.820389,-37.277325,69.04603,-3.312855,-2.4753067,17.651985,-7.723148,-12.870239,47.376125,68.87467,9.261539,-1.517783,-5.599699
26,-0.4909554123878479,-1.1624138355255127,78.66901397705078,-1.0971687659126672,0.20819113957194707,90.74386468242825,3.083526,3.7413337,12.381501,9.045926,-16.708488,-3.4861553,4.5624228,-4.2711754,-15.254388,7.2144,-15.910692,3.024434,-1.478324,0.50965124,6.6191344,1.1081178,14.030145,-37.156494,68.948685,-3.3079436,-2.6119955,17.762966,-7.9230914,-12.945144,47.421917,68.86068,9.202627,-1.4447814,-5.498432
27,-0.5407654047012329,-1.0334770679473877,78.66079711914062,-1.0864813690338564,0.3304845510763364,90.88392692008975,3.0402741,3.6506164,12.250843,9.019582,-16.88818,-3.454157,4.57608,-4.337654,-15.377403,7.2098074,-16.101711,3.0708838,-1.4251115,0.52014935,6.513361,1.2751793,14.245993,-37.026886,68.85476,-3.290102,-2.7452066,17.858395,-8.137426,-13.021892,47.42776,68.82742,9.110483,-1.3608884,-5.4132776
28,-0.5937055349349976,-0.9058869481086731,78.65033721923828,-1.0774617909283934,0.46237260638379235,91.02541119993882,2.9654036,3.5697186,12.1210165,9.044948,-17.104177,-3.405545,4.578138,-4.4003553,-15.496935,7.210848,-16.308681,3.1136396,-1.3635716,0.5257583,6.4189487,1.4208943,14.477391,-36.915997,68.77531,-3.2479212,-2.9061267,17.936678,-8.364891,-13.099985,47.391945,68.749916,9.010607,-1.2817833,-5.3719726
29,-0.62739098072052,-0.7936174869537354,78.63626861572266,-1.067371751315082,0.6077505615847226,91.16783922802021,2.848151,3.5008492,11.993095,9.138968,-17.377796,-3.3273509,4.563669,-4.4590054,-15.611667,7.219134,-16.539705,3.1524785,-1.2907015,0.52160734,6.333266,1.5444365,14.73247,-36.828197,68.716606,-3.1739237,-3.1050937,17.990671,-8.597821,-13.177035,47.2923,68.61768,8.891495,-1.2063895,-5.391349
30,-0.6661765575408936,-0.68027663230896,78.62307739257812,-1.0578183695976502,0.7669808719353467,91.31292622857131,2.6981175,3.4383526,11.863996,9.277169,-17.688278,-3.2344189,4.533297,-4.5150876,-15.722449,7.23179,-16.779709,3.189938,-1.2096901,0.50967824,6.2538543,1.6578834,15.013734,-36.750645,68.66107,-3.0775023,-3.3240428,18.022573,-8.8396845,-13.25246,47.133644,68.44536,8.74321,-1.1281768,-5.45331
31,-0.7168644070625305,-0.5536616444587708,78.60938262939453,-1.0505194449976734,0.9307636386186839,91.4603883620922,2.53016,3.3815153,11.733046,9.44302,-18.004566,-3.1443253,4.497971,-4.568068,-15.831766,7.2452497,-17.019293,3.2249267,-1.1246698,0.49524525,6.1927757,1.7659545,15.322318,-36.681885,68.58314,-2.9694057,-3.5512836,18.045012,-9.098822,-13.32845,46.94823,68.236786,8.586002,-1.0532364,-5.533426
32,-0.7789239287376404,-0.41618937253952026,78.59286499023438,-1.0483180813132735,1.0899073716517809,91.60969504011076,2.3603969,3.3291254,11.600208,9.617386,-18.294191,-3.0744038,4.4683194,-4.617704,-15.9418125,7.257908,-17.250534,3.2560802,-1.039396,0.48400122,6.1618276,1.8719189,15.658275,-36.623287,68.458954,-2.8629854,-3.775094,18.070526,-9.3886795,-13.409609,46.780987,67.99729,8.454852,-0.9883977,-5.607107
33,-0.8278065323829651,-0.2807852029800415,78.57555389404297,-1.0539590550657676,1.2394498601849917,91.76215994795858,2.182909,3.2847579,11.460123,9.816109,-18.545324,-3.0283754,4.4464917,-4.6603584,-16.05016,7.270486,-17.466185,3.271003,-0.9575692,0.47903994,6.1744127,1.9710159,16.0217,-36.567955,68.28165,-2.7489963,-3.9827044,18.105827,-9.710191,-13.498816,46.62175,67.71634,8.350258,-0.9266605,-5.6686816
34,-0.8762917518615723,-0.16546225547790527,78.55661010742188,-1.0657342938744476,1.385196810464493,91.91741763951303,1.9922243,3.2477832,11.314927,10.042765,-18.776253,-2.9971392,4.426709,-4.6972604,-16.156483,7.285504,-17.673975,3.2742019,-0.87655044,0.47753036,6.2210603,2.0642207,16.412941,-36.51644,68.06255,-2.6239302,-4.1835213,18.142813,-10.058523,-13.597247,46.46167,67.392784,8.264453,-0.8674088,-5.730661
35,-0.9426310658454895,-0.05554112792015076,78.53655242919922,-1.0778491583458385,1.5341462529022645,92.07286005392525,1.8043463,3.2107935,11.175401,10.261673,-19.001509,-2.9794674,4.406983,-4.7363434,-16.265694,7.2986794,-17.882767,3.2896507,-0.79338557,0.4767906,6.280251,2.1644146,16.832146,-36.479557,67.80268,-2.5105152,-4.3979053,18.172245,-10.419755,-13.705235,46.310974,67.03199,8.17703,-0.8243673,-5.7960052
36,-1.0228538513183594,0.0703456923365593,78.51403045654297,-1.0869647672089233,1.6933818647567953,92.22555177104387,1.6343758,3.165507,11.052717,10.438212,-19.235445,-2.9738688,4.384686,-4.7866535,-16.384499,7.309143,-18.103836,3.3430176,-0.70497286,0.47271535,6.331113,2.2813287,17.278864,-36.468933,67.51047,-2.4322538,-4.6513457,18.184322,-10.786193,-13.822726,46.19271,66.642914,8.08255,-0.8119336,-5.867719
37,-1.0851432085037231,0.20700353384017944,78.48994445800781,-1.089324390697118,1.8642737068202255,92.37690539269622,1.4853418,3.1103432,10.952238,10.565423,-19.483013,-2.9855785,4.3613987,-4.8526025,-16.517853,7.3155794,-18.345366,3.4580472,-0.60894185,0.4644683,6.36918,2.4171045,17.754204,-36.486702,67.19244,-2.399474,-4.9764495,18.178165,-11.156556,-13.949189,46.11328,66.22906,7.986376,-0.8445298,-5.947992
38,-1.1492544412612915,0.3405698835849762,78.46434020996094,-1.0874400903668806,2.043205329180376,92.52760833801777,1.3484695,3.049591,10.867474,10.663383,-19.737413,-3.013494,4.337179,-4.9290967,-16.66076,7.3190646,-18.599094,3.6149487,-0.50843424,0.45399544,6.405561,2.565394,18.258827,-36.52744,66.84376,-2.4004228,-5.352014,18.157757,-11.532159,-14.084041,46.055603,65.78354,7.8820004,-0.9102948,-6.0348544
39,-1.2353099584579468,0.4890977740287781,78.44054412841797,-1.086126586426991,2.229527715437877,92.67377427043157,1.2246642,2.9843366,10.791617,10.7303095,-19.991474,-3.0464191,4.3089085,-5.010563,-16.80629,7.3224173,-18.85363,3.774897,-0.4069022,0.44225448,6.4412217,2.727899,18.790438,-36.58585,66.44601,-2.417947,-5.716376,18.121468,-11.915201,-14.227313,46.020016,65.30291,7.7630944,-0.98489815,-6.1253443
40,-1.3254027366638184,0.6404958367347717,78.41793823242188,-1.0864264792972675,2.422790596231784,92.81198768914297,1.1138678,2.9155602,10.717579,10.766032,-20.238916,-3.0730917,4.275148,-5.090322,-16.94685,7.3261867,-19.09721,3.8985045,-0.30846536,0.43117493,6.4774504,2.9053884,19.344913,-36.657127,65.98369,-2.4361026,-6.0081463,18.068172,-12.30451,-14.378502,45.998413,64.78502,7.6126184,-1.0466479,-6.215888
41,-1.3884295225143433,0.7727112174034119,78.39115142822266,-1.0933442368137707,2.623353981008928,92.9444885030236,1.0075696,2.8458204,10.637485,10.783526,-20.485428,-3.0861752,4.233987,-5.165661,-17.08579,7.331102,-19.326908,3.9701672,-0.21639253,0.4229599,6.5171824,3.0955572,19.918964,-36.7065,65.4601,-2.4300885,-6.199398,17.983263,-12.705972,-14.537118,45.995068,64.22846,7.436262,-1.0954938,-6.306699
42,-1.4947502613067627,0.9139719605445862,78.3666000366211,-1.1034670063744123,2.8313812881304607,93.07232033367876,0.90880024,2.7740738,10.556945,10.777628,-20.731491,-3.0916712,4.188452,-5.2394543,-17.225267,7.3350677,-19.54928,4.0122347,-0.12948698,0.41743386,6.5580845,3.2996404,20.511887,-36.74472,64.88356,-2.4139595,-6.3269143,17.872395,-13.117715,-14.702451,46.01089,63.637444,7.2353625,-1.1421485,-6.3991656
43,-1.595201015472412,1.1026239395141602,78.34370422363281,-1.113442249477491,3.045610474995775,93.18935883643564,0.8321467,2.6970491,10.488281,10.7283745,-20.964859,-3.1022215,4.136771,-5.3164883,-17.354858,7.3417025,-19.765768,4.0423236,-0.042528484,0.41248724,6.5930414,3.5197253,21.123363,-36.84006,64.24745,-2.4326644,-6.425614,17.765257,-13.522906,-14.8738985,46.032196,63.00215,6.991477,-1.1709001,-6.4930778
44,-1.6981862783432007,1.2938652038574219,78.318115234375,-1.118680677048578,3.2646544249659653,93.28965995168575,0.8007258,2.6111472,10.444341,10.597308,-21.168646,-3.1281278,4.0789113,-5.399651,-17.464828,7.3551083,-19.980055,4.0779705,0.051625237,0.4070851,6.614674,3.75366,21.752441,-37.064,63.548985,-2.5317166,-6.5323515,17.691582,-13.898268,-15.051357,46.032394,62.309048,6.6737003,-1.1655506,-6.5880775
45,-1.805733561515808,1.4883224964141846,78.28911590576172,-1.1206571984588671,3.4905350736775262,93.37191468069756,0.8109813,2.5218093,10.433641,10.390702,-21.34201,-3.1649606,4.0151815,-5.4880714,-17.55763,7.368854,-20.189495,4.1273932,0.16315192,0.40569144,6.6187763,3.9944012,22.39779,-37.44246,62.80247,-2.7508168,-6.641575,17.674917,-14.244829,-15.236389,46.00152,61.575333,6.2838,-1.1297855,-6.6839867
46,-1.9117680788040161,1.685640573501587,78.25934600830078,-1.1225619079751386,3.723266193617855,93.43952262217536,0.8566329,2.428919,10.447371,10.116838,-21.489819,-3.2086272,3.9461694,-5.579494,-17.637083,7.3843765,-20.395298,4.179759,0.28939003,0.4088622,6.60946,4.238752,23.05833,-37.939423,62.00847,-3.0566897,-6.7389565,17.694233,-14.5695715,-15.4306755,45.94843,60.79857,5.832599,-1.0689886,-6.7804766
47,-2.0187628269195557,1.878887414932251,78.22787475585938,-1.1194083576516887,3.9584715169854925,93.49345167656323,0.94840115,2.3232296,10.472113,9.758311,-21.609818,-3.2733128,3.8697708,-5.6757307,-17.69563,7.4124103,-20.599237,4.2247195,0.41660923,0.40921533,6.591898,4.4904275,23.735052,-38.533974,61.142048,-3.387345,-6.8462796,17.712473,-14.863942,-15.63505,45.884922,59.940884,5.31201,-0.9699279,-6.876484
48,-2.1311655044555664,2.0725061893463135,78.19405364990234,-1.109479128939956,4.191728435603446,93.53494260767626,1.0870202,2.1977863,10.493922,9.318946,-21.704985,-3.3728347,3.7855825,-5.7777824,-17.726168,7.4633317,-20.803097,4.2518277,0.53190345,0.3991913,6.5718203,4.7557497,24.430214,-39.20365,60.17523,-3.6788437,-6.984334,17.69223,-15.125105,-15.850744,45.83303,58.966824,4.7279935,-0.81998867,-6.970786
49,-2.2468578815460205,2.285722255706787,78.15705108642578,-1.0952151804062644,4.4246485695344075,93.57771903186429,1.2872185,2.0469782,10.488434,8.760547,-21.769161,-3.530066,3.7010717,-5.8862424,-17.729,7.5294123,-21.04622,4.318931,0.6261219,0.3832897,6.5408587,5.0371757,25.14959,-39.98582,59.0926,-3.9313974,-7.149333,17.631966,-15.345302,-16.077621,45.77834,57.862564,4.058896,-0.59300816,-7.0487633
50,-2.361435651779175,2.5024917125701904,78.11419677734375,-1.078720139389067,4.658703450424011,93.61752245400815,1.5470948,1.8795828,10.468958,8.0868435,-21.79833,-3.7319708,3.613797,-5.997477,-17.70906,7.608052,-21.312828,4.410538,0.7071391,0.36631942,6.500423,5.333714,25.8959,-40.878212,57.904907,-4.1760616,-7.3324313,17.54818,-15.52699,-16.316242,45.71279,56.644466,3.3073466,-0.30279076,-7.113698
51,-2.4759225845336914,2.726250410079956,78.06764221191406,-1.058119067296157,4.890435615634363,93.62753266581522,1.6023554,1.7503897,10.472255,7.8791676,-22.076147,-3.9387624,3.5086615,-6.1108837,-17.662865,7.7120833,-21.529696,4.405172,0.78593004,0.33801773,6.469006,5.656988,26.664118,-41.78299,56.61723,-4.384871,-7.5460777,17.430553,-15.681958,-16.568945,45.66674,55.320156,2.511676,0.0042364136,-7.191715
52,-2.5889923572540283,2.947333335876465,78.01970672607422,-1.0260877385206792,5.118287595346601,93.57931245646597,1.5895424,1.6314896,10.552237,7.8492813,-22.426722,-4.1078362,3.365741,-6.2324533,-17.581856,7.859095,-21.626884,4.1794353,0.87034553,0.284404,6.4630127,6.0177026,27.445692,-42.60175,55.239025,-4.5333705,-7.803552,17.269394,-15.821356,-16.837421,45.673122,53.897076,1.7052739,0.2830669,-7.310515
53,-2.680086612701416,3.153411388397217,77.9677734375,-0.9548776131063609,5.36071927937597,93.4554833899003,1.5754361,1.4785545,10.742809,7.8101892,-22.731081,-4.187747,2.366763,-6.649958,-17.332567,9.7998085,-22.516819,3.6492765,0.97600174,0.1782026,6.4630847,6.4389806,28.242117,-43.29245,53.738552,-4.4882846,-8.107908,17.032133,-15.948077,-17.12301,45.745464,52.361572,0.8742619,0.54386014,-7.463226
54,-2.7932136058807373,3.373915433883667,77.90909576416016,-0.8299620009995736,5.620759656106224,93.2680266765296,1.5531679,1.2703335,11.023743,7.768393,-23.010061,-4.208977,0.925337,-7.2427945,-16.951584,12.610414,-23.753725,2.892858,1.0958086,0.0065777586,6.4613495,6.9187436,29.058355,-43.900593,52.116337,-4.3045487,-8.453212,16.734913,-16.055712,-17.424112,45.869038,50.710026,0.008822663,0.8060185,-7.6396832
55,-2.9126124382019043,3.6015827655792236,77.8358383178711,-0.6670166636793585,5.872296948541732,93.03394150738536,1.5548481,1.017708,11.364275,7.71932,-23.2947,-4.252808,-0.63276446,-7.8941555,-16.531677,15.636564,-24.988966,2.0463426,1.205928,-0.21857765,6.490962,7.427116,29.885563,-44.45799,50.43731,-4.2309666,-8.837507,16.43979,-16.144445,-17.737738,46.03611,48.973015,-0.8444349,1.0381306,-7.8645678
56,-3.0444653034210205,3.82725191116333,77.7451400756836,-0.5011787702473272,6.083099292553837,92.7750794549563,1.614241,0.7599079,11.724251,7.6655602,-23.618465,-4.404781,-2.1638372,-8.529233,-16.16436,18.661232,-26.100971,1.2484542,1.2767974,-0.4585077,6.588402,7.9204917,30.70303,-45.00585,48.782795,-4.518871,-9.257643,16.207571,-16.206558,-18.05867,46.230698,47.180035,-1.6518098,1.2088125,-8.164329
57,-3.161104440689087,4.04395055770874,77.64794158935547,-0.3521548286429927,6.234713913850333,92.48139180722809,1.7529283,0.51710135,12.10576,7.6063128,-24.018984,-4.737136,-3.6523473,-9.13627,-15.871434,21.729128,-27.081242,0.5118856,1.3143563,-0.69117516,6.768646,8.387535,31.49801,-45.59965,47.158134,-5.3322477,-9.742494,16.065886,-16.259422,-18.387012,46.47397,45.319763,-2.4469318,1.3420268,-8.549544
58,-3.2695705890655518,4.275252819061279,77.5504150390625,-0.20641300247540856,6.346628660479239,92.1510848761243,1.9494125,0.27621603,12.520448,7.5389633,-24.467447,-5.188688,-5.1577463,-9.742893,-15.61821,24.920244,-27.984245,-0.228056,1.3299316,-0.92842543,7.007766,8.832952,32.263615,-46.215878,45.553265,-6.504692,-10.283961,15.973225,-16.294678,-18.724121,46.759747,43.385075,-3.2383742,1.4463235,-9.006655
59,-3.3724982738494873,4.521389961242676,77.45838928222656,-0.06443955664432373,6.440863503785838,91.81837647504426,2.1724184,0.039804287,12.939515,7.4693117,-24.900076,-5.646901,-6.655743,-10.333974,-15.419532,28.105362,-28.801826,-0.94707865,1.301894,-1.1718614,7.2850375,9.227728,32.980804,-46.784252,44.037804,-7.791298,-10.823442,15.888734,-16.280802,-19.065218,47.044365,41.42254,-3.9363253,1.4646341,-9.529081
60,-3.483494281768799,4.7862772941589355,77.36869049072266,0.0735839743406658,6.537793173966941,91.51580036615877,2.396867,-0.19154522,13.334122,7.3972354,-25.253044,-5.9997315,-8.134238,-10.899463,-15.284409,31.183214,-29.535372,-1.6226761,1.2087783,-1.4234163,7.5783243,9.543694,33.62092,-47.231953,42.689648,-8.941434,-11.302399,15.778805,-16.18921,-19.40114,47.284447,39.489666,-4.4559727,1.3376144,-10.111959
61,-3.583460569381714,5.049780368804932,77.27881622314453,0.2074258283066291,6.63055240672754,91.23239694306157,2.6346967,-0.41980636,13.712507,7.317818,-25.50427,-6.190362,-9.598538,-11.44186,-15.206893,34.20194,-30.191092,-2.2505872,1.044497,-1.6879328,7.892202,9.80892,34.158092,-47.50337,41.527596,-9.875856,-11.682837,15.625243,-16.054644,-19.728025,47.523254,37.57315,-4.7071385,0.9784918,-10.750036
62,-3.6949639320373535,5.3203206062316895,77.18019104003906,0.3345307452500963,6.706402621996538,90.95347591354401,2.8907595,-0.6402058,14.086155,7.2580667,-25.707058,-6.2864513,-11.070264,-11.974671,-15.179179,37.251686,-30.796116,-2.8395646,0.81836617,-1.9571302,8.235928,10.010748,34.579674,-47.65557,40.548977,-10.729525,-12.006587,15.453912,-15.888795,-20.04247,47.77655,35.671116,-4.7617297,0.4377503,-11.45008
63,-3.808943510055542,5.605715751647949,77.08048248291016,0.4654038174038251,6.7793669030090244,90.7054954665286,3.1325517,-0.85965204,14.433316,7.2426333,-25.885303,-6.3645654,-12.537074,-12.51211,-15.203677,40.22453,-31.351547,-3.3910453,0.53873825,-2.230623,8.590775,10.062253,34.87539,-47.78846,39.796917,-11.567105,-12.334713,15.300456,-15.624113,-20.33178,47.948013,33.859127,-4.780367,-0.13891341,-12.224948
64,-3.917532444000244,5.909030437469482,76.98233795166016,0.5886031852265156,6.872256872917819,90.52506110063536,3.3488328,-1.0653064,14.719379,7.2261953,-26.02343,-6.504982,-13.98166,-13.040576,-15.305939,42.989304,-31.847845,-3.9139829,0.20561694,-2.4810004,8.927101,9.872672,35.03632,-48.010303,39.314476,-12.458122,-12.728877,15.199103,-15.198613,-20.579851,47.940266,32.223396,-4.917409,-0.6026212,-13.088195
65,-4.022185802459717,6.226828098297119,76.88375091552734,0.6894794170841971,6.9942508681718225,90.41928513264334,3.528793,-1.243793,14.934977,7.2075543,-26.149826,-6.7421722,-15.401175,-13.549152,-15.516589,45.5341,-32.290833,-4.3990145,-0.18348502,-2.6949198,9.233584,9.411001,35.047592,-48.36642,39.188725,-13.4554825,-13.208646,15.178017,-14.591725,-20.771584,47.74794,30.738937,-5.264276,-0.86225,-14.087107
66,-4.133299350738525,6.5525970458984375,76.78162384033203,0.773881708313108,7.133966973967492,90.3720541779881,3.6876762,-1.4005909,15.095138,7.187364,-26.24996,-7.030689,-16.803696,-14.04715,-15.8212805,47.925293,-32.68459,-4.8494124,-0.6308165,-2.8783183,9.521359,8.721141,34.895958,-48.80073,39.38933,-14.508957,-13.743145,15.21146,-13.847354,-20.899277,47.41777,29.399794,-5.7229795,-1.0099889,-15.19878
67,-4.238647937774658,6.888712406158447,76.67069244384766,0.8641326511445468,7.277464126131769,90.37932648288405,3.8405528,-1.5598165,15.207718,7.165169,-26.268064,-7.327027,-18.201275,-14.565822,-16.163025,50.18359,-33.035995,-5.2883854,-1.1337883,-3.044792,9.802789,7.8240485,34.582317,-49.264603,39.77786,-15.540428,-14.3173275,15.250977,-13.004859,-20.95878,46.936832,28.319708,-6.1627035,-1.1722056,-16.333586
68,-4.342054843902588,7.234717845916748,76.55381774902344,0.9836475551310903,7.410530233748741,90.43698023281846,4.001058,-1.7455178,15.280068,7.1415796,-26.149265,-7.5872083,-19.605919,-15.133616,-16.482977,52.321045,-33.347324,-5.7386026,-1.6834573,-3.2108505,10.09165,6.745466,34.118454,-49.705288,40.203938,-16.469973,-14.914337,15.249214,-12.091727,-20.948149,46.281166,27.600428,-6.4614277,-1.4815651,-17.40268
69,-4.438997268676758,7.5896220207214355,76.4292984008789,1.1284508793767647,7.531181380052357,90.55901224822539,4.1643224,-1.9427866,15.32324,7.1088443,-25.78515,-7.868334,-21.01028,-15.759107,-16.80786,54.3334,-33.617573,-6.2387867,-2.2919302,-3.369331,10.394796,5.499091,33.508812,-50.0975,40.67654,-17.299871,-15.532356,15.178064,-11.0581045,-20.853107,45.36036,27.21873,-6.658708,-1.9928423,-18.330084
70,-4.550064563751221,7.970874786376953,76.29479217529297,1.2903300367644992,7.6456762465096375,90.7427297819497,4.3257303,-2.146049,15.328383,7.072042,-25.240763,-8.171745,-22.414474,-16.427141,-17.152729,56.222324,-33.84773,-6.767434,-2.9647977,-3.5136778,10.70499,4.0874724,32.755154,-50.44467,41.240597,-18.067648,-16.177986,15.067627,-9.913831,-20.662016,44.22776,27.141031,-6.8006206,-2.6330044,-19.178816
71,-4.652849197387695,8.356406211853027,76.15452575683594,1.4814616133121585,7.752404762949692,90.9588723235015,4.4961348,-2.3900952,15.275867,7.04436,-24.710373,-8.371986,-23.839184,-17.122925,-17.441105,57.994156,-34.039055,-7.255131,-3.6834712,-3.6656356,11.01284,2.5239167,31.873158,-50.73036,41.794964,-18.744791,-16.847553,14.959801,-8.779278,-20.386736,43.07494,27.452106,-6.7718716,-3.3492055,-20.068357
72,-4.761109352111816,8.771748542785645,76.0064926147461,1.7184211210263058,7.849693140152137,91.1782262497294,4.692084,-2.7103982,15.149234,7.0316577,-24.382963,-8.341848,-25.311632,-17.829052,-17.59504,59.66314,-34.19077,-7.630045,-4.42966,-3.8505442,11.308502,0.82153827,30.89031,-50.941093,42.232094,-19.305063,-17.537498,14.896466,-7.7692704,-20.060076,42.087284,28.22423,-6.458051,-4.092453,-21.11686
73,-4.866429805755615,9.182271003723145,75.83993530273438,2.0180422005593357,7.942246358530803,91.38917624302441,4.910119,-3.140473,14.92989,7.0446644,-24.32859,-7.9623437,-26.858143,-18.539013,-17.566904,61.215443,-34.295864,-7.837203,-5.2004905,-4.096356,11.59026,-1.0068859,29.824484,-51.065147,42.576645,-19.77319,-18.293257,14.883253,-6.8840127,-19.701593,41.23891,29.498472,-5.7891464,-4.86027,-22.448711
74,-4.975082874298096,9.613580703735352,75.6688232421875,2.3691992959090875,8.027942161884178,91.60793880110633,5.1485763,-3.6556284,14.631003,7.0702424,-24.430979,-7.3275957,-28.466265,-19.252861,-17.402065,62.650803,-34.353546,-7.923468,-6.006423,-4.3839774,11.861387,-2.955885,28.68654,-51.083954,42.840645,-20.152227,-19.10168,14.901163,-6.0511847,-19.320248,40.45311,31.193909,-4.8455644,-5.6934276,-23.96083
75,-5.07478141784668,10.069246292114258,75.48582458496094,2.7397874743290633,8.095745115626647,91.84708427417226,5.4159617,-4.200079,14.283865,7.099561,-24.610748,-6.629266,-30.105139,-19.963535,-17.162697,63.999184,-34.37086,-7.9693627,-6.8407054,-4.6752896,12.118476,-5.0284777,27.50066,-50.987568,42.89807,-20.376665,-19.870264,14.9565115,-5.267686,-18.951893,39.824238,33.192554,-3.7370238,-6.60631,-25.432648
76,-5.185729026794434,10.512367248535156,75.28961181640625,3.0992256117683126,8.134858771069302,92.1197707362304,5.7239094,-4.7166114,13.921908,7.1261377,-24.799692,-6.060684,-31.740461,-20.668703,-16.914953,65.290375,-34.356014,-8.056666,-7.693983,-4.932786,12.363477,-7.228786,26.300758,-50.774033,42.612217,-20.378366,-20.504887,15.056705,-4.52094,-18.649372,39.442272,35.356766,-2.5608535,-7.601202,-26.647427
77,-5.264364719390869,10.987338066101074,75.09188079833984,3.4563500997376044,8.135414520902543,92.42417292507027,6.084029,-5.21385,13.554268,7.149996,-24.997976,-5.64985,-33.373604,-21.387924,-16.66557,66.53245,-34.29899,-8.218278,-8.55016,-5.1653624,12.6166935,-9.554582,25.108046,-50.42282,41.9051,-20.075476,-20.991625,15.246399,-3.824447,-18.454937,39.336407,37.786446,-1.2184486,-8.741669,-27.605766
78,-5.346052169799805,11.46342945098877,74.88262176513672,3.8207406341290984,8.105209269993054,92.75528833540602,6.4923453,-5.711962,13.16004,7.17314,-25.240467,-5.302012,-35.02181,-22.115314,-16.382835,67.708336,-34.19843,-8.406984,-9.407791,-5.3865666,12.873022,-12.007384,23.937489,-49.949753,40.833225,-19.524427,-21.371506,15.51127,-3.1334913,-18.38822,39.438774,40.442078,0.32095093,-10.004021,-28.39024
79,-5.433718681335449,11.943461418151855,74.66949462890625,4.166493049744329,8.060427701187837,93.12147532705197,6.9286423,-6.1660624,12.732869,7.197293,-25.510666,-5.0294642,-36.6742,-22.81479,-16.077177,68.814606,-34.078773,-8.58354,-10.264584,-5.5695534,13.101823,-14.606494,22.817947,-49.43984,39.452858,-18.872875,-21.630333,15.766425,-2.345942,-18.467966,39.678528,42.97862,1.8678797,-11.242234,-28.9175
80,-5.511754512786865,12.443514823913574,74.45598602294922,4.464710612387453,8.017205523952951,93.53063960714012,7.3730564,-6.535551,12.26792,7.220989,-25.789993,-4.842949,-38.317825,-23.450903,-15.759815,69.84806,-33.964603,-8.707445,-11.109299,-5.6903276,13.280661,-17.369225,21.78536,-48.995617,37.7984,-18.27671,-21.754318,15.923415,-1.3553667,-18.709944,39.971626,45.042156,3.2337961,-12.301959,-29.116295
81,-5.589184761047363,12.957416534423828,74.24625396728516,4.724902824554291,7.96822359750064,94.00125023655268,7.8291492,-6.8349323,11.748948,7.241827,-26.081923,-4.761915,-39.951427,-24.044804,-15.430337,70.80796,-33.883495,-8.752706,-11.932821,-5.764267,13.427749,-20.274836,20.852556,-48.67558,35.690067,-17.83662,-21.741663,15.950057,-0.117332615,-19.130299,40.309235,46.581924,4.762925,-13.14507,-28.803165
82,-5.654171943664551,13.475000381469727,74.04438781738281,4.9585455389484325,7.908910132090097,94.52358992165884,8.30438,-7.0775905,11.185759,7.262031,-26.395117,-4.7750206,-41.581898,-24.605143,-15.0847845,71.69752,-33.815796,-8.744666,-12.7187195,-5.8071623,13.558598,-23.312634,20.018738,-48.46415,33.11867,-17.462538,-21.591574,15.892907,1.3340733,-19.73705,40.68652,47.73262,6.442379,-13.825359,-28.068277
83,-5.688097953796387,14.025772094726562,73.85319519042969,5.135142414493862,7.8606407749305385,95.06300079687324,8.78125,-7.2229185,10.614809,7.2801905,-26.710815,-4.846378,-43.20622,-25.07925,-14.732068,72.52105,-33.714596,-8.7162,-13.440128,-5.7980065,13.654317,-26.513508,19.301128,-48.367714,30.358353,-17.027983,-21.293255,15.779181,2.9854195,-20.527483,41.020775,48.422752,7.5306025,-14.346126,-27.277025
84,-5.709568023681641,14.6100435256958,73.67432403564453,5.222040257021037,7.845810893543345,95.58479203713627,9.240962,-7.2305326,10.073084,7.296104,-27.01103,-4.939844,-44.819183,-25.408892,-14.386779,73.282,-33.533527,-8.703327,-14.085942,-5.718012,13.70959,-29.848976,18.711035,-48.34627,27.636166,-16.333534,-20.832516,15.636884,4.8179054,-21.490309,41.241863,48.571793,7.2689037,-14.7418165,-26.808922
85,-5.713407516479492,15.21756649017334,73.513916015625,5.212484927210536,7.872007127558973,96.08016863986275,9.680084,-7.0910583,9.564342,7.3127646,-27.310635,-5.0453596,-46.424637,-25.582157,-14.060842,73.98911,-33.29666,-8.72598,-14.61467,-5.5599675,13.714126,-33.461376,18.28469,-48.569748,24.901556,-15.3428,-20.16246,15.451415,6.8829827,-22.624685,41.358242,48.120934,4.9707212,-15.016665,-26.919754
86,-5.69862699508667,15.841594696044922,73.37693786621094,5.122418484005787,7.92863776000505,96.5668139355494,10.1081,-6.827664,9.074271,7.32572,-27.610472,-5.1818666,-48.018894,-25.625923,-13.752821,74.638374,-33.01644,-8.760435,-15.04975,-5.3469195,13.702808,-37.240147,18.016447,-49.011738,21.946669,-14.121448,-19.303177,15.204934,9.188666,-23.926764,41.37453,47.089535,1.180781,-15.136195,-27.372936
87,-5.679647922515869,16.491493225097656,73.25597381591797,4.955964666031341,8.011938866984732,97.04925125952816,10.524477,-6.447354,8.612829,7.337499,-27.886019,-5.3559165,-49.5836,-25.55049,-13.457737,75.21474,-32.628353,-8.773964,-15.432834,-5.077531,13.699524,-41.073833,17.892788,-49.559868,18.948406,-12.937371,-18.364866,14.911376,11.6969185,-25.371414,41.194405,45.53473,-3.0016146,-15.108057,-27.803976
88,-5.640995502471924,17.161575317382812,73.15721130371094,4.715689401732167,8.118365054823833,97.53208581974867,10.926067,-5.9548173,8.189704,7.34456,-28.103672,-5.575768,-51.101143,-25.364788,-13.1696415,75.70276,-32.067772,-8.733131,-15.7904215,-4.745938,13.7130575,-44.91834,17.91449,-50.139095,16.133665,-12.112046,-17.458883,14.596281,14.383094,-26.921494,40.713974,43.528343,-6.4798703,-15.0001,-27.846842
89,-5.6030168533325195,17.856618881225586,73.0801010131836,4.385904638932069,8.252064941093792,98.0317604750735,11.309796,-5.327641,7.779802,7.347672,-28.293177,-5.8627095,-52.575024,-25.065655,-12.900276,76.112206,-31.357092,-8.632219,-16.161543,-4.3357286,13.7391815,-48.822063,18.086094,-50.751904,13.5142,-11.7148485,-16.565958,14.27812,17.272259,-28.552965,39.880733,41.004135,-8.997261,-14.85552,-27.343575
90,-5.550393581390381,18.572708129882812,73.01824951171875,3.969781452551527,8.415740202749252,98.53983754623302,11.678254,-4.569156,7.3876967,7.3491745,-28.460287,-6.206657,-54.007885,-24.649225,-12.654695,76.44408,-30.516832,-8.483715,-16.542332,-3.850822,13.777917,-52.801525,18.402065,-51.46013,10.95487,-11.584728,-15.644274,13.954464,20.388973,-30.254389,38.750904,37.96039,-11.134939,-14.664752,-26.496246
91,-5.492692947387695,19.314096450805664,72.97578430175781,3.4977396157672964,8.60193925537505,99.02258586110804,12.044143,-3.7253458,7.067002,7.3460283,-28.53994,-6.5686846,-55.383434,-24.12465,-12.412619,76.673195,-29.48183,-8.28054,-16.902607,-3.3125956,13.836997,-56.766254,18.853416,-52.250217,8.485947,-11.676294,-14.766355,13.627976,23.67506,-32.00009,37.407604,34.598206,-13.046634,-14.441864,-25.49178
92,-5.420154571533203,20.094371795654297,72.9521484375,3.000461214678543,8.801928799151897,99.44659553128703,12.418457,-2.8420703,6.8714814,7.338804,-28.467508,-6.9110403,-56.683266,-23.501265,-12.152137,76.771545,-28.184828,-8.015247,-17.218473,-2.7459488,13.912375,-60.627193,19.4364,-53.09653,6.170395,-11.941714,-14.004205,13.296188,27.171051,-33.747025,35.863384,31.056738,-14.975656,-14.191758,-24.520279
93,-5.353060722351074,20.895862579345703,72.9540023803711,2.4633849941900046,9.00734387913768,99.81208116862787,12.8067255,-1.893331,6.8295546,7.328554,-28.257254,-7.2289743,-57.929146,-22.748228,-11.841209,76.73972,-26.55695,-7.6895366,-17.479187,-2.14153,14.01427,-64.43629,20.15443,-54.03307,4.07978,-12.52297,-13.387189,12.936932,30.511543,-35.482704,34.33334,27.647966,-16.743792,-13.884228,-23.601551
94,-5.2858428955078125,21.715927124023438,72.98412322998047,1.8756412053411846,9.224281889550108,100.13218629170682,13.208138,-0.8664763,6.9077716,7.316496,-27.934105,-7.5426407,-59.116985,-21.864555,-11.499899,76.585686,-24.651054,-7.2971635,-17.738613,-1.4948665,14.119188,-68.22332,21.0193,-55.068443,2.1724184,-13.389132,-12.8695345,12.563663,34.05221,-37.172054,32.58473,24.058207,-18.503342,-13.524725,-22.642756
95,-5.21068811416626,22.56584358215332,73.03863525390625,1.2753765161756367,9.462959335807662,100.39273972950161,13.6174755,0.17243086,7.0671005,7.301788,-27.444666,-7.852312,-60.192184,-20.900131,-11.1792965,76.29297,-22.583445,-6.8211384,-17.984394,-0.8291752,14.207269,-71.9241,22.017658,-56.167786,0.35890993,-14.238168,-12.412754,12.221498,37.623642,-38.79271,30.766657,20.469433,-20.069742,-13.190012,-21.6925
96,-5.126634120941162,23.451719284057617,73.11235809326172,0.700504508914756,9.732805153617461,100.57909254016191,14.024355,1.155982,7.2675233,7.2819667,-26.735615,-8.155736,-61.104794,-19.906967,-10.924811,75.84864,-20.47163,-6.248536,-18.201805,-0.17950493,14.247248,-75.471,23.131435,-57.2869,-1.4020517,-14.763557,-11.980881,11.9475975,41.122826,-40.316936,28.995617,17.013542,-21.329687,-12.946451,-20.80932
97,-5.036555767059326,24.3702335357666,73.20978546142578,0.14487889904301376,10.046028236350738,100.6854352408295,14.406912,2.089442,7.50967,7.2569766,-25.798388,-8.4799385,-61.883354,-18.85692,-10.705537,75.2098,-18.249105,-5.54939,-18.346947,0.44692367,14.219601,-79.0199,24.363129,-58.50771,-2.9654722,-14.806896,-11.571594,11.737338,44.529285,-41.72105,27.296558,13.737755,-22.207325,-12.80877,-20.002058
98,-4.94513463973999,25.32110595703125,73.32911682128906,-0.40507363221454956,10.390438942001804,100.71734255112476,14.76814,2.9993134,7.806831,7.2287097,-24.655802,-8.806673,-62.54274,-17.729229,-10.492759,74.393776,-15.889523,-4.7319636,-18.42152,1.0498884,14.13368,-82.584175,25.713263,-59.873272,-4.3103304,-14.558298,-11.200093,11.56764,47.81442,-42.99671,25.666721,10.644404,-22.784456,-12.727282,-19.257725
99,-4.859750270843506,26.307212829589844,73.46983337402344,-0.9231509233635785,10.73807620470791,100.6802573546072,15.136477,3.8497338,8.13831,7.195048,-23.301931,-9.064324,-63.016796,-16.595783,-10.3393955,73.479195,-13.566102,-3.8518858,-18.467405,1.6102959,14.005096,-85.88205,27.153234,-61.24478,-5.629663,-14.227334,-10.860441,11.443286,50.864483,-44.14986,24.17706,7.783475,-23.186941,-12.669722,-18.60304
100,-4.773510456085205,27.325895309448242,73.6341781616211,-1.3815777826569764,11.061120070102033,100.580810519174,15.543179,4.605546,8.48958,7.157459,-21.734047,-9.188065,-63.242554,-15.534745,-10.305192,72.54841,-11.449028,-2.9746509,-18.523977,2.112623,13.855845,-88.66013,28.636776,-62.44264,-7.0684023,-14.035843,-10.548693,11.366042,53.588985,-45.199703,22.879812,5.18092,-23.541225,-12.607492,-18.06285
101,-4.6848039627075195,28.371807098388672,73.81391906738281,-1.7782940149929132,11.351045470124253,100.40036715287806,16.009014,5.26188,8.887801,7.116994,-19.931711,-9.154367,-63.19815,-14.549521,-10.4107685,71.58948,-9.541635,-2.051742,-18.559345,2.550274,13.698894,-90.981285,30.136368,-63.434216,-8.520078,-13.998927,-10.266925,11.324087,55.998615,-46.16286,21.78638,2.8547902,-23.832705,-12.536739,-17.677189
102,-4.597756862640381,29.463409423828125,74.00226593017578,-2.1260949267702784,11.61920287957591,100.14099644114268,16.51929,5.8330736,9.340772,7.069529,-17.90219,-8.999003,-62.92446,-13.604812,-10.615656,70.573326,-7.765081,-1.0799568,-18.539104,2.931179,13.521329,-92.97996,31.641205,-64.28809,-9.870162,-14.015346,-10.01627,11.312821,58.140835,-47.049145,20.868366,0.7610275,-24.012123,-12.466182,-17.421158
103,-4.516351222991943,30.581954956054688,74.19442749023438,-2.417006543062577,11.869388346924978,99.84175510478094,17.048237,6.3146873,9.807901,7.020831,-15.692716,-8.749258,-62.45522,-12.730714,-10.901996,69.56277,-6.1645813,-0.202156,-18.49229,3.2664645,13.309157,-94.489494,33.12652,-64.93238,-11.254162,-14.118737,-9.794194,11.344539,60.01431,-47.873135,20.093618,-1.19099,-24.153599,-12.390548,-17.219652
104,-4.425581455230713,31.731304168701172,74.3936767578125,-2.6421923371603078,12.10792518566685,99.5424697161265,17.567728,6.7026453,10.245711,6.9714184,-13.344856,-8.427369,-61.82168,-11.964029,-11.257847,68.6196,-4.7842793,0.4360239,-18.450094,3.567704,13.047642,-95.33253,34.560635,-65.27764,-12.799436,-14.341696,-9.599358,11.431286,61.624523,-48.65105,19.427069,-3.1001966,-24.3279,-12.306203,-16.996002
105,-4.33351469039917,32.91520309448242,74.58960723876953,-2.798153013971029,12.351536101279802,99.24150146728282,17.844046,7.0454698,10.629124,7.372906,-11.066989,-8.001572,-61.033524,-11.312889,-11.697691,67.76242,-3.637935,0.7850428,-18.39924,3.8391445,12.704363,-95.469795,35.91649,-65.278984,-14.480567,-14.826885,-9.450363,11.588401,62.991867,-49.402725,18.876812,-5.005752,-24.593782,-12.201853,-16.725943
106,-4.240489959716797,34.116275787353516,74.78416442871094,-2.88996351713438,12.599759746094561,98.92654599869194,17.719355,7.3879156,10.9571295,8.581927,-9.036856,-7.463678,-60.07348,-10.770151,-12.238286,66.956055,-2.6977854,0.9150596,-18.32408,4.0781384,12.289688,-94.98292,37.180565,-64.94762,-16.194904,-15.5120535,-9.345522,11.804513,64.124794,-50.13767,18.454498,-6.879851,-24.89468,-12.0842705,-16.447418
107,-4.138346195220947,35.35535430908203,74.97156524658203,-2.9263454576137193,12.836092237372336,98.62292116374881,17.534288,7.673272,11.251528,9.904061,-6.961397,-6.858609,-58.929695,-10.351449,-12.880515,66.17786,-1.9457214,0.856356,-18.253113,4.2882433,11.854285,-93.86721,38.342552,-64.2719,-17.964348,-16.124502,-9.252325,12.053922,65.00905,-50.85096,18.125845,-8.712496,-25.13052,-11.977847,-16.17707
108,-4.030330657958984,36.59470748901367,75.12493133544922,-3.0764477056524053,13.119912799012363,98.45239353591168,16.471184,8.286766,11.299972,12.915572,-5.7237415,-6.256133,-57.611065,-10.07668,-13.852453,65.37231,-1.3465961,0.62652254,-18.309534,4.6838913,11.445692,-92.11748,39.390553,-63.228,-19.825495,-16.397049,-9.13496,12.30968,65.65758,-51.532722,17.824093,-10.508524,-25.20653,-11.906956,-15.930102
109,-3.930006265640259,37.83949279785156,75.24468231201172,-3.2851085796561734,13.412702685804815,98.36626284233202,15.225903,9.032138,11.205149,16.249002,-4.6185904,-5.604402,-56.10314,-9.961739,-15.133395,64.61254,-0.7477581,0.2173713,-18.445951,5.202061,11.08177,-89.60276,40.302826,-61.7397,-21.870619,-16.237831,-8.969745,12.616498,66.07202,-52.177235,17.558224,-12.285003,-25.10016,-11.877403,-15.709554
110,-3.827894449234009,39.11386489868164,75.3366928100586,-3.4621859480104686,13.683537082376422,98.30826679872081,14.026889,9.764979,11.051167,19.499178,-3.4193573,-4.835655,-54.389145,-9.970099,-16.589191,63.905056,-0.22312954,-0.37172887,-18.601559,5.7259364,10.744133,-86.32964,41.057865,-59.833908,-24.08167,-15.795915,-8.7769,12.978827,66.23098,-52.78494,17.36767,-14.028014,-24.866203,-11.876388,-15.50558
111,-3.729525566101074,40.4027214050293,75.40235900878906,-3.5896166149670043,13.879463802070196,98.25378762325423,12.905703,10.45163,10.890273,22.71645,-2.1878114,-3.9667757,-52.445595,-9.970823,-18.04239,63.150047,-0.08535511,-1.087321,-18.751837,6.1918874,10.485208,-82.49082,41.6479,-57.65697,-26.33783,-15.158769,-8.584856,13.306863,66.08595,-53.34772,17.261808,-15.679989,-24.52398,-11.898586,-15.318443
112,-3.626814126968384,41.71852493286133,75.4381332397461,-3.662752157122339,13.952633694295459,98.18191740831494,11.895862,11.062397,10.769074,25.94584,-0.979488,-3.0429037,-50.2619,-9.830162,-19.31447,62.24219,-0.6411126,-1.8689475,-18.875057,6.5479736,10.356694,-78.2795,42.07624,-55.350258,-28.52507,-14.412925,-8.425655,13.507383,65.58485,-53.85123,17.250406,-17.180061,-24.094238,-11.938766,-15.149823
113,-3.5263848304748535,43.04505157470703,75.44115447998047,-3.630533108546351,13.857116372052024,98.09379733913683,11.04925,11.549751,10.734367,29.250017,0.25432238,-2.0938134,-47.736282,-9.557516,-20.380203,61.13771,-2.0435543,-2.8826144,-18.991545,6.731459,10.3925905,-73.549286,42.329033,-52.88195,-30.771378,-13.543038,-8.30462,13.511543,64.68967,-54.279785,17.352663,-18.501015,-23.533262,-11.987609,-14.996287
114,-3.427320718765259,44.39023971557617,75.41203308105469,-3.503415700932444,13.628250239531727,97.99508764282447,10.302759,11.959217,10.755013,32.68318,1.4706483,-1.0834936,-44.9215,-9.185715,-21.279924,59.899784,-4.104245,-4.0842156,-19.114998,6.7696915,10.573822,-68.27464,42.376263,-50.257107,-33.12988,-12.527245,-8.213558,13.392564,63.386528,-54.62883,17.591532,-19.661549,-22.856014,-12.050658,-14.858421
115,-3.3382322788238525,45.7445068359375,75.34628295898438,-3.3588808718932786,13.342725130923688,97.87605750030478,9.502721,12.379016,10.742316,36.30622,2.4818788,0.007537927,-42.046898,-8.647717,-21.936197,58.583675,-6.6108646,-5.1125946,-19.183338,6.742083,10.842174,-62.731323,42.22532,-47.653164,-35.45479,-11.387292,-8.159372,13.256173,61.70219,-54.889282,17.972122,-20.672583,-22.15883,-12.145859,-14.752297
116,-3.244086265563965,47.103355407714844,75.23844146728516,-3.2853464248890147,13.076003478291073,97.72939042979651,8.491566,12.881917,10.593815,40.181427,3.1064372,1.1799849,-39.327705,-7.907343,-22.305464,57.22912,-9.343559,-5.627868,-19.162304,6.740323,11.162075,-57.278984,41.896423,-45.216366,-37.521034,-10.180834,-8.147861,13.207746,59.634235,-55.05861,18.501041,-21.537771,-21.54758,-12.290552,-14.690121
117,-3.1525511741638184,48.465980529785156,75.08099365234375,-3.2495207485405793,12.82249542965749,97.57540819211809,7.22548,13.405995,10.268032,44.433556,3.4044273,2.5364063,-36.716976,-6.985546,-22.291887,55.72678,-12.515556,-5.4082804,-19.08855,6.735009,11.528854,-51.890152,41.39878,-42.981728,-39.381927,-8.847594,-8.1633215,13.298138,57.175213,-55.121113,19.149334,-22.240671,-21.089552,-12.510587,-14.609152
118,-3.0344436168670654,49.80681610107422,74.86968994140625,-3.2133702190356814,12.548470044914103,97.41318004079861,5.7772794,13.897374,9.8048525,49.01868,3.4313636,4.0100536,-34.111946,-5.972943,-21.984657,54.086147,-16.151247,-4.7362742,-18.977812,6.685105,11.972465,-46.443916,40.72079,-40.927902,-41.15542,-7.386478,-8.210535,13.465108,54.33024,-55.061775,19.91272,-22.791214,-20.718996,-12.790705,-14.525579
119,-2.9143431186676025,51.10103988647461,74.60466003417969,-3.250567229486,12.287509271439296,97.19907822763146,4.1727624,14.399317,9.211969,53.730797,3.0147295,5.320575,-31.646074,-4.9236684,-21.599693,52.517506,-19.742556,-3.989795,-18.74306,6.6605377,12.479174,-41.148933,39.867332,-39.06872,-42.682465,-5.9565268,-8.321087,13.634447,51.144897,-54.879715,20.8227,-23.224358,-20.333515,-13.085278,-14.576082
120,-2.7998199462890625,52.352745056152344,74.2986831665039,-3.433424089885012,12.07516219304653,96.88912671223744,2.4297273,14.948927,8.489243,58.39041,1.9722288,6.1769695,-29.474928,-3.8385725,-21.304478,51.23748,-22.78002,-3.4900389,-18.303314,6.7371955,13.02775,-36.19215,38.855984,-37.380253,-43.789356,-4.7110043,-8.527707,13.734675,47.65959,-54.58341,21.911293,-23.57401,-19.829058,-13.348281,-14.89838
121,-2.682981014251709,53.5710563659668,73.96083068847656,-3.812999615450752,11.951581895276028,96.49314734644123,0.5036641,15.524191,7.5590367,63.10281,0.013242065,6.31346,-27.70566,-2.6756883,-21.143902,50.3377,-25.148378,-3.2737873,-17.669817,6.9807878,13.594806,-31.573336,37.700962,-35.8397,-44.445946,-3.6336195,-8.855669,13.701626,43.906048,-54.16842,23.157322,-23.84883,-19.005247,-13.554876,-15.621154
122,-2.5746028423309326,54.75966262817383,73.5890884399414,-4.336618785462458,11.88676831195994,96.02722711135894,-1.6102428,16.062487,6.458898,67.986046,-2.7241826,5.9110456,-26.237377,-1.4412975,-21.005783,49.70497,-27.125753,-3.1427386,-16.885406,7.3429885,14.180212,-27.207079,36.40548,-34.465195,-44.72049,-2.6710455,-9.28738,13.594568,39.905197,-53.622883,24.49548,-24.048079,-17.972292,-13.7448015,-16.644283
123,-2.470318555831909,55.91681671142578,73.1992416381836,-4.930997237704724,11.810933675662854,95.45888522037919,-3.8267212,16.561018,5.3551645,72.85041,-5.7534795,5.357045,-24.920784,-0.18017536,-20.805046,49.25084,-28.78998,-3.0548723,-15.92025,7.7438946,14.79026,-23.123486,34.982185,-33.231052,-44.580223,-1.9328973,-9.787183,13.521753,35.67537,-52.947514,25.886618,-24.18474,-17.08878,-13.958695,-17.76177
124,-2.3699731826782227,57.04607391357422,72.80558013916016,-5.522986246566395,11.654660194575717,94.75664500553171,-6.057694,17.022852,4.380941,77.461395,-8.552821,5.0298996,-23.608837,1.0646919,-20.462543,48.881897,-30.216509,-2.9811015,-14.754256,8.107998,15.438793,-19.297213,33.45214,-32.08732,-44.02176,-1.498583,-10.315491,13.588958,31.21124,-52.15611,27.300344,-24.264366,-16.712193,-14.217339,-18.768675
125,-2.278140068054199,58.15374755859375,72.43497467041016,-6.192469003745709,11.371647379370115,93.86585557317103,-8.263626,17.488651,3.4708908,81.82295,-11.036365,4.9792285,-22.301867,2.3831923,-19.99233,48.654335,-31.325977,-2.9609687,-13.350296,8.493752,16.196243,-15.7001915,31.823565,-30.945892,-42.902267,-1.476574,-10.944483,13.849063,26.340443,-51.280907,28.826485,-24.173164,-16.94263,-14.566143,-19.733376
126,-2.2112979888916016,59.26149368286133,72.1015625,-6.9420526058406855,11.002139077505092,92.82461203530583,-10.480761,17.934872,2.5875108,86.02034,-13.441159,5.0093737,-21.059153,3.7627373,-19.427307,48.59782,-32.118565,-3.0005748,-11.765361,8.946984,17.01603,-12.240373,30.111069,-29.790882,-41.30619,-1.7821482,-11.670845,14.229627,21.146627,-50.322372,30.383852,-23.967928,-17.57879,-14.9564295,-20.740866
127,-2.168997049331665,60.3748664855957,71.814208984375,-7.592035709618922,10.61420577336785,91.74138975233285,-12.740277,18.283075,1.8750983,89.897705,-15.701267,5.1302195,-19.825848,5.0043387,-18.729372,48.57467,-32.781548,-3.0251236,-10.090298,9.363383,17.753284,-8.819873,28.36596,-28.676804,-39.575863,-2.225674,-12.339487,14.649636,16.004747,-49.250175,31.69392,-23.905998,-18.535715,-15.266756,-21.589645
128,-2.1418635845184326,61.505001068115234,71.56829071044922,-7.963496342697599,10.28464369782279,90.7194930132648,-15.08919,18.478867,1.4719824,93.29889,-17.743502,5.3641677,-18.548178,5.9143806,-17.871403,48.43462,-33.504276,-2.9594903,-8.387804,9.613092,18.285793,-5.361264,26.665365,-27.67288,-38.061382,-2.6161008,-12.78984,15.042111,11.247729,-48.035084,32.53167,-24.205383,-19.733913,-15.394197,-22.051493
129,-2.124763250350952,62.65616989135742,71.36856079101562,-7.984664597647675,10.024701829609624,89.75041322464814,-17.54426,18.531483,1.466431,96.2003,-19.509068,5.7844696,-17.24028,6.4200425,-16.794365,48.211906,-34.358788,-2.7791266,-6.653748,9.599995,18.647285,-1.7037363,25.05947,-26.665064,-36.826797,-2.9222846,-12.923471,15.576348,6.819035,-46.661926,32.919563,-24.920149,-21.484644,-15.269936,-21.889282
130,-2.1052849292755127,63.83683776855469,71.20308685302734,-7.765969051282115,9.806188647813906,88.78689829845474,-20.08464,18.502008,1.7657155,98.67435,-21.032635,6.3710203,-15.924056,6.6356425,-15.554048,47.95863,-35.240974,-2.5337393,-4.8625946,9.382344,18.910086,2.150146,23.583673,-25.594448,-35.769352,-3.247822,-12.844137,16.243715,2.476621,-45.14394,33.067657,-25.862217,-23.722738,-14.995838,-21.252214
131,-2.0747299194335938,65.04617309570312,71.06871032714844,-7.401269549465925,9.649620148668639,87.87148725286036,-22.705252,18.420774,2.2415283,100.693085,-22.379423,7.010413,-14.567186,6.645823,-14.2974825,47.562183,-36.064766,-2.2573597,-3.066066,9.051005,19.026125,6.0387554,22.305954,-24.56245,-34.995663,-3.606297,-12.684673,16.715591,-1.7706971,-43.504818,33.102814,-26.881311,-25.807997,-14.717266,-20.49788
132,-2.0443127155303955,66.2772445678711,70.9658203125,-6.988798037862496,9.57174926709784,87.04755702148843,-25.40605,18.306606,2.7695591,102.223,-23.61119,7.5868936,-13.138932,6.5336175,-13.165111,46.910763,-36.74073,-1.9800062,-1.3085105,8.704724,18.953459,9.804066,21.313034,-23.672764,-34.636574,-4.0106134,-12.570303,16.669016,-5.927102,-41.77165,33.103817,-27.825853,-27.074202,-14.542987,-19.998793
133,-2.009871482849121,67.52435302734375,70.88960266113281,-6.521593210158569,9.595436821476138,86.32695941256607,-28.273909,18.18557,3.3595457,103.26448,-24.771786,8.12319,-11.658808,6.271039,-12.19625,46.00443,-37.351574,-1.6975794,0.3786422,8.339524,18.67899,13.553321,20.686678,-22.837648,-34.974083,-4.527459,-12.518645,15.837577,-9.907187,-39.933533,33.077904,-28.854986,-27.172764,-14.520256,-19.897963
134,-1.963869333267212,68.80538177490234,70.85588073730469,-5.963581487595379,9.704660926858631,85.6850850274462,-31.272795,18.049948,4.0744762,103.81727,-25.809042,8.655463,-10.13723,5.8303003,-11.321269,44.89397,-37.91059,-1.3987664,2.0022678,7.886901,18.280937,17.44707,20.454708,-21.934175,-36.021694,-5.158036,-12.4426565,14.470708,-13.888973,-37.970943,33.042564,-29.917978,-26.455523,-14.573365,-20.006027
135,-1.9148858785629272,70.11981964111328,70.87447357177734,-5.363990526571359,9.854732182733521,85.11092619943422,-34.226612,17.863377,4.864983,103.84758,-26.638824,9.088005,-8.53047,5.2950907,-10.510431,43.542492,-38.220875,-1.097641,3.552474,7.3632092,17.829351,21.399591,20.589687,-21.006914,-37.466125,-5.8119183,-12.319795,13.015588,-17.85216,-35.899696,33.01663,-30.856262,-25.53791,-14.609342,-20.19871
136,-1.8547587394714355,71.45683288574219,70.95549011230469,-4.772522080149965,10.00128916400147,84.59315502514973,-36.966652,17.59195,5.6748657,103.327805,-27.180273,9.328801,-6.795244,4.7488337,-9.730131,41.91393,-38.0855,-0.8064176,5.041179,6.805191,17.375204,25.25111,21.026035,-20.138073,-38.908386,-6.3786087,-12.149467,11.917813,-21.87113,-33.777885,32.978405,-31.441677,-24.938206,-14.533297,-20.337301
137,-1.7947636842727661,72.83094024658203,71.09616088867188,-4.219706901157849,10.139496297076997,84.1065888472205,-39.51054,17.292107,6.486726,102.22698,-27.394192,9.337448,-4.86205,4.239113,-8.931209,39.86005,-37.492474,-0.5172442,6.507382,6.2775903,16.91072,28.882133,21.745098,-19.367975,-40.240555,-6.851366,-11.936134,11.314377,-25.955784,-31.649343,32.88522,-31.71998,-24.865694,-14.2723255,-20.403194
138,-1.7251238822937012,74.26455688476562,71.30304718017578,-3.674208164224587,10.289741387109714,83.66382662377295,-41.922962,16.970778,7.322401,100.563324,-27.340012,9.168645,-2.7777233,3.7104647,-8.144393,37.452103,-36.53939,-0.22413102,7.955346,5.767885,16.428576,32.360767,22.741774,-18.642494,-41.63031,-7.269974,-11.689226,10.954585,-30.024687,-29.529505,32.700523,-31.855587,-25.0133,-13.892485,-20.464785
139,-1.6694353818893433,75.77106475830078,71.56909942626953,-3.103354425966272,10.445399156670815,83.31107227402889,-44.111725,16.517593,8.182322,98.38465,-27.086258,8.880354,-0.6709542,3.102289,-7.454056,34.979874,-35.183884,0.057616565,9.342463,5.2147775,15.961914,35.762276,23.940477,-17.911541,-43.032345,-7.583206,-11.428975,10.697934,-33.96571,-27.461803,32.41457,-31.835762,-25.147972,-13.502623,-20.505348
140,-1.6272906064987183,77.32861328125,71.89224243164062,-2.4739207801885525,10.598404719564545,83.09603678951042,-45.98784,15.822367,9.058334,95.737755,-26.699318,8.524026,1.3276631,2.366676,-6.945453,32.74065,-33.388218,0.31200516,10.626631,4.578355,15.536495,39.11949,25.218018,-17.134935,-44.35463,-7.7263727,-11.173537,10.392788,-37.65589,-25.510305,32.05098,-31.654343,-25.052969,-13.207762,-20.513891
141,-1.5938220024108887,78.91205596923828,72.24830627441406,-1.7477925316431013,10.748028785523683,83.03745351156583,-47.54578,14.806887,9.957215,92.55151,-26.176863,8.126254,3.2433512,1.4531845,-6.631941,30.721338,-31.099697,0.58609384,11.807366,3.8599224,15.150504,42.36511,26.504332,-16.294271,-45.505318,-7.6046877,-10.912095,9.949125,-41.085777,-23.741896,31.66899,-31.303442,-24.627272,-13.018605,-20.503925
142,-1.5643779039382935,80.53377532958984,72.63326263427734,-0.9589832247756099,10.891635381584083,83.1116541994019,-48.82389,13.555152,10.849968,88.81834,-25.50375,7.6621776,5.11968,0.4259129,-6.470078,28.8202,-28.367472,0.8719427,12.89832,3.1204402,14.798061,45.42924,27.786367,-15.417333,-46.46555,-7.2557592,-10.642904,9.431953,-44.308254,-22.192808,31.285233,-30.860575,-23.986828,-12.876489,-20.48801
143,-1.5556809902191162,82.17172241210938,73.03829956054688,-0.1954724786901869,11.016708320675152,83.30510006287837,-49.808544,12.193383,11.671597,84.68045,-24.71669,7.1044936,6.856128,-0.5843351,-6.460173,27.2013,-25.293953,1.0739174,13.890837,2.418551,14.48243,48.355087,29.014177,-14.567973,-47.261585,-6.7759733,-10.39631,8.922626,-47.278957,-20.874077,30.878437,-30.422808,-23.266657,-12.7806,-20.451756
144,-1.5732142925262451,83.85591125488281,73.45156860351562,0.4641385687108456,11.112086854492935,83.59978878580797,-50.477127,10.835766,12.373397,80.27102,-23.845993,6.420965,8.36231,-1.4603097,-6.6011143,26.011276,-21.96026,1.1017792,14.762425,1.8079706,14.19747,51.15379,30.115921,-13.80553,-47.88828,-6.27168,-10.197681,8.497662,-49.969868,-19.784487,30.436352,-30.055317,-22.593443,-12.731362,-20.374199
145,-1.5927436351776123,85.5687026977539,73.86971282958984,1.041322130954629,11.194946284106145,84.03262795214395,-50.804214,9.415531,12.949577,75.43926,-22.80315,5.533037,9.572194,-2.226866,-6.9560714,25.317467,-18.12322,0.84376764,15.458807,1.2655545,13.921115,53.835983,31.035261,-13.137676,-48.28729,-5.6695457,-10.016712,8.15104,-52.43561,-18.938301,30.01937,-29.70126,-21.874056,-12.760181,-20.251379
146,-1.5973130464553833,87.30767822265625,74.29630279541016,1.5605905829979025,11.258484616980889,84.59359413903506,-50.791096,7.8989367,13.4068775,70.144714,-21.593222,4.4919386,10.550172,-2.936886,-7.514701,25.041601,-13.806007,0.39972007,15.987833,0.7918818,13.652418,56.361237,31.760498,-12.552439,-48.44208,-4.927019,-9.849383,7.82446,-54.691525,-18.344519,29.673613,-29.344055,-21.070814,-12.850713,-20.094873
147,-1.5872929096221924,89.06564331054688,74.71916961669922,1.9623330652634619,11.263085856192303,85.19637805516008,-50.46163,6.4335866,13.7431135,64.679535,-20.382845,3.4570036,11.416382,-3.5188763,-8.1583805,25.058126,-9.477632,-0.021065483,16.416693,0.45640886,13.415558,58.64952,32.30248,-12.080175,-48.396103,-4.206102,-9.756193,7.520223,-56.642033,-17.974922,29.36169,-29.101273,-20.413183,-12.934579,-19.904488
148,-1.5795167684555054,90.84005737304688,75.13156127929688,2.194662278041644,11.173970501000976,85.7577819553109,-49.850994,5.1635275,13.973861,59.346485,-19.333786,2.5829837,12.300196,-3.8853014,-8.746996,25.204748,-5.5971794,-0.2389147,16.806036,0.31332958,13.233563,60.642452,32.688725,-11.744061,-48.21422,-3.6680999,-9.797363,7.2496367,-58.20641,-17.778414,29.034681,-29.06097,-20.134888,-12.947857,-19.67511
149,-1.5795257091522217,92.62531280517578,75.51668548583984,2.2180037634025105,10.97837920703628,86.26409115742933,-48.91946,4.0974383,14.068147,54.05816,-18.448906,1.9184165,13.277514,-3.96023,-9.22701,25.338465,-2.0318522,-0.20154297,17.157536,0.38856193,13.102107,62.371407,32.923264,-11.55222,-47.88677,-3.409507,-10.039669,7.035578,-59.46968,-17.727764,28.64387,-29.139795,-20.50178,-12.889032,-19.329056
150,-1.5747811794281006,94.42488861083984,75.8663558959961,2.071434519363678,10.702004864217145,86.75204328844522,-47.658287,3.1698916,14.0414715,48.68219,-17.63342,1.3803229,14.277558,-3.8045297,-9.655156,25.532534,1.4178268,-0.03752312,17.424755,0.6395628,13.00259,63.862312,32.994183,-11.496958,-47.394566,-3.3291657,-10.432063,6.867933,-60.483967,-17.801174,28.24506,-29.261232,-21.329273,-12.795659,-18.885887
151,-1.5582268238067627,96.22750854492188,76.16836547851562,1.8138449560563135,10.370291737946976,87.21632076774503,-46.175446,2.403718,13.992121,43.488865,-16.914064,0.914177,15.225749,-3.5253246,-10.055418,25.917747,4.3866506,0.14424093,17.62859,0.99306476,12.938806,65.11877,32.97337,-11.529809,-46.85554,-3.2991881,-10.858337,6.7177496,-61.059715,-17.985497,27.874908,-29.58194,-22.165983,-12.661912,-18.480253
152,-1.5285028219223022,98.04499053955078,76.43077087402344,1.5025801065715712,10.009095705550877,87.65297441345585,-44.598564,1.8144783,14.023665,38.782166,-16.323763,0.4563654,16.041615,-3.2424212,-10.464603,26.646854,6.483211,0.23525275,17.766499,1.3957249,12.904759,66.078735,32.90505,-11.645289,-46.31791,-3.1921113,-11.203602,6.569333,-61.07126,-18.210798,27.605326,-30.179104,-22.571766,-12.470761,-18.24986
153,-1.498814344406128,99.86810302734375,76.65615844726562,1.0938804713597312,9.61607249483439,88.06247556338695,-42.934765,1.4341508,14.1860695,34.584442,-15.902665,-0.051658157,16.73449,-2.9205794,-10.876277,27.785727,7.4492593,0.23648272,17.841673,1.875722,12.874422,66.81394,32.829666,-11.839383,-45.8356,-2.9869206,-11.43961,6.4750724,-60.501736,-18.435343,27.414316,-31.034021,-22.336136,-12.199983,-18.220028
154,-1.477426290512085,101.69815826416016,76.8241195678711,0.5628677887156713,9.182578707857193,88.45378629231953,-41.15418,1.2375407,14.424179,30.78514,-15.630518,-0.5823548,17.317741,-2.558603,-11.273735,29.329702,7.492897,0.17301776,17.848831,2.4553988,12.845588,67.34406,32.75299,-12.114386,-45.380875,-2.760346,-11.62765,6.445545,-59.44552,-18.645567,27.267824,-32.057682,-21.734005,-11.86667,-18.313507
155,-1.4894288778305054,103.49615478515625,76.91667938232422,0.00801776384524558,8.727223997790336,88.8411474615332,-39.35139,1.1326352,14.685517,27.527588,-15.471838,-1.0706702,17.71995,-2.3155024,-11.693279,31.296417,6.9271045,-0.011911637,17.78066,3.0471642,12.853667,67.58021,32.68549,-12.441454,-44.923294,-2.5260031,-11.787612,6.39796,-57.91049,-18.824633,27.202,-33.269436,-21.063068,-11.510409,-18.511288
156,-1.5105459690093994,105.27689361572266,76.95072937011719,-0.4553318003776374,8.273289387729676,89.24030319320839,-37.629013,1.0250629,14.918712,24.975456,-15.402415,-1.4450048,17.880766,-2.3259213,-12.186888,33.642075,6.098399,-0.36338112,17.632393,3.5457616,12.931953,67.47691,32.63327,-12.802766,-44.472706,-2.2684705,-11.940709,6.253235,-55.90383,-18.956087,27.24988,-34.67917,-20.62324,-11.173276,-18.789724
157,-1.532501220703125,107.05890655517578,76.9440689086914,-0.7989727757155457,7.820268916301075,89.66715337645087,-36.052254,0.9171008,15.156136,23.355618,-15.535099,-1.6812159,17.79082,-2.5787227,-12.787659,36.392616,4.9766107,-0.8970054,17.38977,3.9282584,13.0978565,67.01269,32.60814,-13.185537,-44.053654,-1.9502076,-12.082644,5.9366183,-53.34383,-19.010483,27.42474,-36.367737,-20.516373,-10.846774,-19.169456
158,-1.5487200021743774,108.8401107788086,76.89362335205078,-1.0584625875449327,7.3695473227431885,90.126139708079,-34.593758,0.82609594,15.41525,22.580873,-15.875232,-1.8199606,17.47238,-3.0232732,-13.460296,39.55993,3.4071496,-1.5617447,17.071945,4.210567,13.31972,66.46053,32.59095,-13.634831,-43.870674,-1.447774,-12.209894,5.519589,-50.2445,-18.993477,27.69945,-38.299824,-20.581093,-10.522591,-19.639881
159,-1.5597150325775146,110.61255645751953,76.79949188232422,-1.2109198797408487,6.943788921527468,90.60753100995122,-33.207485,0.68025935,15.620625,22.3309,-16.2313,-1.8772106,16.935139,-3.7060313,-14.165683,43.02619,1.5946233,-2.3016424,16.582584,4.3627133,13.63421,65.03078,32.60981,-13.997283,-43.176212,-1.3576496,-12.333269,5.08496,-46.84493,-18.929655,28.190691,-40.34495,-20.726229,-10.225518,-20.166065
160,-1.5760462284088135,112.38822937011719,76.65230560302734,-1.2341968504766334,6.564965670414364,91.09704600480549,-31.840492,0.4060206,15.699967,22.269903,-16.403975,-1.867073,16.194077,-4.676667,-14.870583,46.668423,-0.24912582,-3.0673177,16.046955,4.3699403,13.93932,63.521492,32.609245,-14.550652,-42.580177,-1.2159736,-12.474626,4.8456016,-43.33351,-18.826975,28.859669,-42.203392,-20.884491,-9.991737,-20.665358
161,-1.5941656827926636,114.17401123046875,76.45044708251953,-1.1448879752099566,6.219990393182771,91.60398344589008,-30.347324,-0.023302991,15.552437,22.187536,-16.236866,-1.9053749,15.30765,-5.915742,-15.626278,50.466404,-2.1024919,-3.8806362,15.410174,4.20922,14.292585,61.59786,32.58167,-15.118633,-41.81682,-1.3475883,-12.625604,4.7403784,-39.63281,-18.703117,29.810226,-44.048256,-21.073195,-9.807075,-21.22838
162,-1.6135808229446411,115.95976257324219,76.19430541992188,-0.9425467862393726,5.89950308976591,92.12578674685788,-28.793238,-0.5684908,15.244533,22.297,-15.869402,-1.944726,14.280504,-7.3881416,-16.412823,54.455376,-4.045824,-4.7392745,14.688365,3.9071212,14.687527,59.338,32.516678,-15.767554,-40.977528,-1.6105374,-12.781298,4.724725,-35.729683,-18.569332,31.039797,-45.881752,-21.317812,-9.66466,-21.857286
163,-1.6714136600494385,117.7221908569336,75.90633392333984,-0.5803383213647298,5.627162470786588,92.62817718601683,-27.43826,-1.2055019,14.960905,22.887705,-15.53683,-1.7567201,13.050408,-9.128131,-17.093122,58.586525,-6.011054,-5.5661917,13.879644,3.4216893,15.106345,56.74127,32.403835,-16.474323,-40.0051,-1.9328212,-12.954172,4.8013434,-31.822231,-18.429314,32.429577,-47.50052,-21.557045,-9.612444,-22.375595
164,-1.7657289505004883,119.44295501708984,75.60047912597656,-0.017341311317558446,5.423182283742708,93.07354087774618,-26.533945,-1.9095479,14.895187,24.22828,-15.459222,-1.114895,11.547929,-11.173637,-17.522837,62.807587,-7.9342666,-6.2920837,12.964061,2.700406,15.510481,53.914703,32.21916,-17.1897,-38.911655,-2.2096982,-13.1572895,4.976594,-28.185907,-18.309774,33.701664,-48.64644,-21.525206,-9.700997,-22.588587
165,-1.8633649349212646,121.15853118896484,75.262939453125,0.8239726975482794,5.320315405229623,93.41531493803429,-26.348465,-2.6939573,15.181669,26.726393,-15.584495,0.30966556,9.69884,-13.691488,-17.659342,67.21895,-9.817527,-6.8629594,12.006213,1.6571419,15.878316,50.82002,31.943344,-17.937405,-37.65209,-2.5009663,-13.425718,5.2468967,-24.71323,-18.204956,34.93803,-49.378094,-21.285704,-10.013318,-22.393148
166,-1.9328376054763794,122.86354064941406,74.87078094482422,1.8669090529595456,5.284323807186036,93.67127599191761,-26.637432,-3.528497,15.713014,30.036524,-15.772326,2.2968872,7.5703106,-16.556952,-17.521801,71.771416,-11.663852,-7.3263745,10.995445,0.3807358,16.205826,47.437824,31.564262,-18.719133,-36.22729,-2.8330033,-13.743873,5.60747,-21.354216,-18.103024,36.21277,-49.756565,-20.875196,-10.492279,-21.913065
167,-1.9814940690994263,124.52828979492188,74.45100402832031,2.9472013014615497,5.245119779099201,93.90824385224826,-26.91884,-4.3652363,16.300257,33.349854,-16.142189,4.256602,5.2557116,-19.403315,-17.077063,76.222664,-13.423346,-7.7667084,9.868243,-0.9327104,16.515535,43.81166,31.102903,-19.476707,-34.705257,-3.0375931,-14.045689,6.0540743,-18.140163,-17.995712,37.41309,-49.773148,-20.350613,-10.966095,-21.332842
168,-2.06001353263855,126.1617431640625,74.03876495361328,3.9315685572805017,5.142612242834697,94.20474674352901,-26.759468,-5.206402,16.723051,35.956226,-16.874243,5.6029115,2.8241854,-21.900034,-16.328419,80.354485,-15.055865,-8.259773,8.574514,-2.1225023,16.836182,39.96296,30.613674,-20.16185,-33.158253,-2.9498136,-14.261652,6.5904946,-15.028004,-17.880552,38.41191,-49.468983,-19.812277,-11.267624,-20.84095
169,-2.121642827987671,127.7616958618164,73.64396667480469,4.869713865227008,4.98106357687794,94.59743694827606,-26.113825,-6.1416383,16.956793,37.782448,-18.199598,6.1267405,0.16993509,-24.037088,-15.182557,84.23252,-16.583084,-8.854421,7.1040444,-3.246387,17.179964,35.78792,30.14687,-20.800653,-31.490688,-2.3914762,-14.365784,7.3154917,-11.896025,-17.757706,39.068718,-48.842125,-19.38415,-11.356501,-20.349731
170,-2.144496440887451,129.33905029296875,73.287353515625,5.820874234082638,4.792832637985094,95.04599918907329,-25.23064,-7.1726546,17.098347,39.230865,-20.003765,6.1696367,-2.7577212,-25.946198,-13.667889,87.94476,-18.00992,-9.491809,5.5219064,-4.3897886,17.512045,31.300587,29.722246,-21.40472,-29.722548,-1.5090985,-14.38649,8.211256,-8.69763,-17.632547,39.426605,-47.948734,-18.992401,-11.319177,-19.806622
171,-2.1743226051330566,130.91957092285156,72.97866821289062,6.668484928056458,4.561993816936387,95.52199704823674,-24.126507,-8.175146,17.094933,40.347042,-21.968119,5.9766273,-5.79891,-27.552433,-12.02517,91.33588,-19.284412,-10.099887,3.8800125,-5.438285,17.805357,26.682474,29.35194,-21.928432,-28.084902,-0.62181425,-14.341482,9.101684,-5.509755,-17.522764,39.60001,-46.904667,-18.419258,-11.183672,-19.45107
172,-2.194272756576538,132.53392028808594,72.7239990234375,7.2940959316885285,4.273234531647364,95.99678965166325,-22.79584,-9.018545,16.88229,41.154213,-23.757013,5.7853746,-8.771371,-28.815723,-10.520691,94.25365,-20.361813,-10.617348,2.2234988,-6.2718153,18.050285,22.098852,29.043451,-22.348434,-26.792612,-0.046197813,-14.261777,9.806442,-2.420014,-17.45388,39.702682,-45.820217,-17.445507,-10.981494,-19.523672
173,-2.2230403423309326,134.14208984375,72.51570892333984,7.6664225871351075,3.865954978563391,96.514531721391,-21.162025,-9.6712265,16.373217,41.67751,-25.368471,5.610827,-11.579327,-29.75247,-9.230391,96.69664,-21.194206,-11.02894,0.5343746,-6.849077,18.328516,17.476374,28.809227,-22.744184,-25.892214,0.0921961,-14.144814,10.262663,0.63728184,-17.448994,39.715286,-44.71542,-15.722289,-10.7332325,-20.234911
174,-2.2502708435058594,135.765380859375,72.36250305175781,7.847915328689527,3.370024022365635,97.0742432304135,-19.23682,-10.17861,15.628284,41.900375,-26.957455,5.3489423,-14.321681,-30.410563,-8.0590925,98.75154,-21.81741,-11.382564,-1.1700653,-7.245704,18.650665,12.71403,28.650108,-23.175718,-25.255587,-0.03206095,-13.986852,10.575055,3.7516527,-17.521568,39.528923,-43.610325,-13.456146,-10.458203,-21.420275
175,-2.2757654190063477,137.39898681640625,72.26678466796875,7.869044564866147,2.907226410121275,97.58153209392906,-17.142159,-10.517852,14.789811,41.783314,-28.418547,5.0443497,-17.092815,-30.818943,-7.0291433,100.386345,-22.318705,-11.718792,-2.8099263,-7.5048723,18.90712,7.928489,28.547462,-23.59177,-24.81814,-0.27559614,-13.823526,10.810593,6.850543,-17.680626,39.139008,-42.600555,-11.2622795,-10.16323,-22.750914
176,-2.3207616806030273,139.01866149902344,72.2276382446289,7.761053378205022,2.59830148683415,97.94270551690126,-15.006539,-10.670698,13.996747,41.285683,-29.642551,4.732084,-19.986753,-30.996117,-6.160934,101.56528,-22.780682,-12.075049,-4.3344173,-7.6571584,18.9784,3.2518332,28.478811,-23.908285,-24.508842,-0.48461524,-13.688619,11.023815,9.830357,-17.929705,38.576004,-41.756935,-9.758567,-9.802787,-23.89325
177,-2.3740763664245605,140.6520233154297,72.24872589111328,7.530868303154931,2.479642342081017,98.14876928984542,-12.883696,-10.626576,13.233168,40.408688,-30.660112,4.3895526,-23.082438,-30.977823,-5.4768505,102.298515,-23.223814,-12.4739685,-5.7613707,-7.6941557,18.824997,-1.393229,28.431664,-24.118202,-24.29672,-0.6430207,-13.622638,11.215716,12.683744,-18.2741,37.82597,-41.096134,-9.16201,-9.239252,-24.872677
178,-2.4214982986450195,142.32147216796875,72.33372497558594,7.164322224879487,2.484204670000045,98.24673115005788,-10.709484,-10.376727,12.452253,39.167877,-31.502869,3.9821455,-26.278357,-30.75189,-5.0044923,102.589096,-23.599598,-12.88951,-7.1142316,-7.5899243,18.533182,-6.081518,28.403305,-24.294186,-24.189531,-0.81704116,-13.598919,11.356419,15.489333,-18.715551,36.863907,-40.618008,-9.117956,-8.510274,-25.824812
179,-2.453118085861206,144.02566528320312,72.49256134033203,6.668069354266894,2.5760720412235965,98.22523654085985,-8.434334,-9.919119,11.746803,37.54163,-32.06344,3.5268204,-29.392433,-30.26664,-4.771101,102.38624,-23.887362,-13.277203,-8.3632965,-7.341203,18.16184,-10.670191,28.394396,-24.45325,-24.171432,-0.9723703,-13.549456,11.448205,18.24864,-19.243803,35.724007,-40.330875,-9.393365,-7.803134,-26.579378
180,-2.4716503620147705,145.76173400878906,72.71893310546875,6.0496312580286595,2.719187497059109,98.0723794888554,-6.0014486,-9.264132,11.20886,35.505894,-32.234283,3.053582,-32.244034,-29.473242,-4.798074,101.64133,-24.068905,-13.588047,-9.488146,-6.9518747,17.761982,-14.996663,28.413006,-24.594273,-24.238089,-1.0764529,-13.404562,11.4901495,20.93489,-19.841354,34.45956,-40.207638,-9.768062,-7.3144474,-26.970968
181,-2.48534893989563,147.53857421875,73.00110626220703,5.277209097642638,2.899276165360343,97.75774844591182,-3.2635806,-8.403628,10.840606,32.80445,-32.04567,2.5660706,-34.77676,-28.340027,-5.1700153,100.3009,-24.175404,-13.781566,-10.477523,-6.4074106,17.338184,-19.059237,28.471954,-24.680716,-24.393202,-0.9774282,-13.103007,11.431607,23.517298,-20.500555,33.04481,-40.215103,-10.32161,-7.1389146,-26.83926
182,-2.489673376083374,149.34718322753906,73.32891082763672,4.356486736870457,3.1316065546939376,97.29471283843519,-0.2993731,-7.354338,10.631984,29.524324,-31.528551,2.0399837,-37.054,-26.903364,-5.876321,98.38492,-24.207506,-13.867922,-11.349786,-5.7151556,16.873281,-22.939785,28.577208,-24.73627,-24.648895,-0.7401978,-12.696351,11.28985,26.01389,-21.219273,31.466349,-40.360004,-11.133811,-7.162447,-26.309298
183,-2.4705381393432617,151.1859588623047,73.68253326416016,3.3532990786103913,3.4247503765585727,96.7351981721433,2.6090138,-6.1782517,10.641463,26.180532,-30.600208,1.4829803,-39.092457,-25.218681,-6.770454,95.96036,-24.103584,-13.877274,-12.133221,-4.915255,16.37788,-26.575508,28.727053,-24.828726,-25.020061,-0.6540648,-12.281341,11.166901,28.4538,-21.984152,29.808754,-40.66126,-11.993595,-7.270046,-25.647295
184,-2.448167562484741,153.03085327148438,74.0695571899414,2.340461063855021,3.7877016237627883,96.12813945072104,5.1775427,-4.950233,10.903999,23.305166,-29.183884,0.91694397,-40.919975,-23.350145,-7.684026,93.09987,-23.805588,-13.847151,-12.856322,-4.0520735,15.858802,-29.883804,28.919207,-25.006668,-25.526327,-1.0095628,-11.952214,11.166617,30.848917,-22.772058,28.162466,-41.11482,-12.693219,-7.335785,-25.115742
185,-2.416818380355835,154.90451049804688,74.47615051269531,1.2847511021016171,4.254493476052672,95.45005549646349,7.3646493,-3.6455479,11.429484,20.955479,-27.216457,0.328318,-42.57846,-21.233732,-8.622897,89.75643,-23.298439,-13.859557,-13.501869,-3.0891163,15.289108,-32.888584,29.17231,-25.290789,-26.18112,-1.9925996,-11.736216,11.370517,33.162716,-23.573822,26.513826,-41.711132,-13.233497,-7.3315487,-24.728449
186,-2.391864061355591,156.7981414794922,74.89197540283203,0.17551975555421764,4.797323387240274,94.67527496880635,9.3049135,-2.283344,12.17264,18.915281,-24.773554,-0.25637,-44.03387,-18.862867,-9.622702,85.89487,-22.6204,-13.861417,-14.053675,-2.035553,14.675224,-35.603413,29.496687,-25.637226,-26.994703,-3.4133084,-11.586118,11.712097,35.387787,-24.386074,24.825714,-42.428764,-13.7111025,-7.3207774,-24.359388
187,-2.368584156036377,158.7140350341797,75.32171630859375,-0.8807952187954299,5.335033215085165,93.85026103731234,10.982589,-0.9916145,13.063943,17.325548,-21.99198,-0.7420048,-45.21198,-16.388535,-10.5429125,81.613144,-21.793726,-13.70934,-14.543668,-1.0037485,14.066289,-37.91413,29.873405,-25.97783,-27.973425,-4.990683,-11.480127,12.066146,37.562977,-25.188864,23.161026,-43.227627,-14.073869,-7.304962,-24.057169
188,-2.334282636642456,160.63963317871094,75.7432632446289,-1.7778158915863858,5.793118415139149,93.02854451785552,12.39236,0.12424372,14.040319,16.315027,-19.001842,-1.0419502,-46.045753,-13.965278,-11.240448,77.01114,-20.838287,-13.273442,-15.000134,-0.09809127,13.50357,-39.72913,30.271145,-26.248034,-29.0901,-6.443137,-11.3873205,12.29911,39.69647,-25.95323,21.578026,-44.03058,-14.262415,-7.283522,-23.868786
189,-2.300898313522339,162.5879669189453,76.16090393066406,-2.539586134782199,6.180167128573079,92.2013100414843,13.474857,1.1304349,15.162354,16.009193,-15.6109495,-1.1023904,-46.51111,-11.548116,-11.667371,71.94576,-19.676825,-12.537894,-15.395693,0.7056598,12.976107,-41.08991,30.683725,-26.460648,-30.276844,-7.862862,-11.314602,12.348842,41.801582,-26.663868,20.065077,-44.818546,-14.246847,-7.271149,-23.813784
190,-2.2705318927764893,164.5653839111328,76.57295227050781,-3.2169637594864575,6.5275550870784755,91.35592090750211,14.257158,2.1000028,16.421934,16.340658,-11.835407,-0.9664348,-46.622044,-9.087275,-11.87833,66.38513,-18.320852,-11.59541,-15.714784,1.4589487,12.457006,-42.055386,31.117548,-26.64135,-31.52491,-9.338796,-11.265036,12.287563,43.930458,-27.317661,18.60515,-45.67004,-14.110491,-7.2628317,-23.856916
191,-2.2418158054351807,166.5712127685547,76.97332000732422,-3.751317878193983,6.809562306871577,90.55009904066243,14.878921,2.9460545,17.66759,17.089867,-8.0899515,-0.709954,-46.392277,-6.742317,-11.896271,60.606533,-16.921913,-10.492981,-16.000637,2.1096542,11.964689,-42.565876,31.553444,-26.745089,-32.878628,-10.578484,-11.197328,12.182363,45.852013,-27.912731,17.190401,-46.399902,-13.80592,-7.225608,-23.963474
192,-2.2139647006988525,168.58560180664062,77.33849334716797,-4.076274528662576,7.003207673290596,89.84042483709536,15.487441,3.5495903,18.753494,17.998276,-4.7684283,-0.41002738,-45.86054,-4.6824546,-11.742979,54.90084,-15.630183,-9.271552,-16.313164,2.5996933,11.502674,-42.549305,31.961943,-26.707853,-34.362267,-11.289872,-11.073602,12.093262,47.80381,-28.424873,15.923267,-47.233368,-13.552386,-7.1311827,-24.102951
193,-2.188190460205078,170.6156005859375,77.67003631591797,-4.131652496648598,7.109883090361682,89.25992585525444,16.172941,3.836832,19.741724,18.878265,-1.7362242,-0.10832288,-44.98056,-2.970655,-11.370716,49.11667,-14.422036,-7.8963523,-16.674007,2.8912542,11.058541,-41.95469,32.317184,-26.519506,-35.96992,-11.360332,-10.868286,12.0416355,49.789608,-28.836668,14.747756,-48.130135,-13.488386,-6.9734716,-24.249771
194,-2.172853946685791,172.65200805664062,77.95711517333984,-3.9581548722476745,7.149363987058493,88.78731667548593,16.869558,3.8762436,20.682495,19.82289,1.1918423,0.2470993,-43.740166,-1.5574899,-10.775041,43.125793,-13.217695,-6.3877797,-17.04251,3.017816,10.627212,-40.871006,32.611057,-26.220264,-37.648457,-10.960591,-10.606934,11.982267,51.699467,-29.147667,13.627932,-48.995956,-13.472808,-6.768386,-24.421862
195,-2.1715359687805176,174.70159912109375,78.19435119628906,-3.6281916777117775,7.121680572297996,88.39239864761011,17.51823,3.7296066,21.418879,20.921366,3.730518,0.71455854,-42.241592,-0.4324199,-10.058656,37.255447,-12.0757065,-4.8553267,-17.389914,3.0090694,10.228898,-39.389282,32.84016,-25.833433,-39.386177,-10.188842,-10.324827,11.878535,53.56681,-29.357967,12.701003,-49.957573,-13.289506,-6.5209274,-24.65409
196,-2.186112642288208,176.77146911621094,78.38935852050781,-3.2164086037900046,7.026452242453568,88.04047499098816,18.054499,3.4621282,21.79606,22.276978,5.5759277,1.3486649,-40.619637,0.43562263,-9.334934,31.891497,-11.071705,-3.3908393,-17.675974,2.891485,9.882859,-37.637383,33.008778,-25.387333,-41.152622,-9.169549,-10.05988,11.695342,55.335537,-29.475554,12.095846,-51.055798,-12.678512,-6.2374268,-24.984203
197,-2.207275390625,178.8482666015625,78.53760528564453,-2.6604039273997437,6.860560957678965,87.71784120607226,18.432512,2.9737246,21.659075,23.986109,6.567125,2.2855325,-38.89597,1.0221611,-8.584794,27.070547,-10.227278,-1.8554351,-17.866562,2.6089792,9.584555,-35.60044,33.114407,-24.92439,-43.010185,-7.8300114,-9.82667,11.405065,56.76382,-29.520882,11.763818,-52.05786,-11.369609,-5.881789,-25.456453
198,-2.2023348808288574,180.91378784179688,78.620849609375,-1.9160647231961687,6.618901802731864,87.4359097947036,18.703508,2.2393131,21.124327,25.98417,6.8834457,3.4545848,-37.049713,1.2943695,-7.773223,22.687536,-9.542132,-0.24284856,-17.997133,2.1177902,9.312885,-33.257774,33.14063,-24.454872,-44.917118,-6.137723,-9.61042,11.032027,58.139572,-29.491283,11.733981,-53.18807,-9.66965,-5.476542,-26.05851
199,-2.1760621070861816,182.956787109375,78.63433837890625,-1.103867053684175,6.312042287977571,87.17819831286765,18.920027,1.4595948,20.45167,28.160051,6.707199,4.5849614,-35.206856,1.3385264,-7.0036645,18.990276,-9.075506,1.1759514,-18.055288,1.508106,9.105441,-30.694841,33.101036,-23.97285,-46.80482,-4.2699947,-9.408025,10.640525,59.29397,-29.425306,12.010713,-54.357224,-7.6852326,-5.120439,-26.71031
200,-2.138136625289917,184.981689453125,78.59078216552734,-0.3865615540189787,5.967570056037081,86.91856663775864,19.10308,0.8715257,19.919653,30.421883,6.2137895,5.3960433,-33.51368,1.3021594,-6.386498,16.235811,-8.874493,2.1352673,-18.04602,0.9366143,9.011758,-27.878387,32.993774,-23.349878,-48.68796,-2.4145267,-9.210365,10.232554,60.03631,-29.333284,12.621728,-55.465775,-5.5801873,-4.900929,-27.299988
201,-2.1083900928497314,186.99240112304688,78.50585174560547,0.14699124844219183,5.60223002326667,86.62987327600476,19.227448,0.5203812,19.521555,32.809967,5.25381,5.740713,-32.098854,1.2865475,-5.98502,14.7184725,-9.007776,2.5057507,-17.936415,0.45872033,9.0250635,-24.869366,32.784637,-22.677942,-50.48362,-0.44095036,-8.989266,9.833575,60.322594,-29.245707,13.728706,-56.53722,-3.0554743,-4.8406377,-27.988152
202,-2.060892105102539,188.99676513671875,78.37999725341797,0.5394619914935703,5.224777556561398,86.30091527311625,19.217419,0.33867463,19.158192,35.461628,3.7428663,5.763302,-30.936152,1.2992322,-5.7455397,14.325154,-9.4685955,2.4645488,-17.719551,0.056236472,9.123127,-21.6406,32.471733,-21.983408,-52.232544,1.688798,-8.763049,9.428591,60.24355,-29.177473,15.266,-57.600956,-0.12702109,-4.909031,-28.768915
203,-2.0113203525543213,190.9890594482422,78.21223449707031,0.8273331676283553,4.849268955786106,85.93891567864422,19.051115,0.39298266,18.97742,38.35921,1.9861331,5.629116,-29.913153,1.3487116,-5.5985203,14.660283,-10.159525,2.2031724,-17.400091,-0.29237416,9.27195,-18.318888,32.059776,-21.300323,-53.840588,3.696389,-8.581084,9.059792,59.81494,-29.127768,17.01124,-58.537834,2.5871391,-5.0660696,-29.351093
204,-1.9653379917144775,192.97450256347656,77.98606872558594,1.0499559843084305,4.487749992345648,85.55540393566393,18.728886,0.7484869,19.116417,41.448627,0.31077504,5.509494,-28.90195,1.4299197,-5.47869,15.301007,-10.972337,1.9093697,-16.976126,-0.6165871,9.435714,-15.057323,31.562737,-20.67247,-55.194252,5.2980304,-8.48573,8.784203,59.06777,-29.088356,18.731453,-59.242523,4.4781623,-5.235614,-29.450743
205,-1.8980886936187744,194.95230102539062,77.70550537109375,1.2862293493023211,4.106875693918951,85.12876799359832,18.371498,1.3598232,19.721714,44.653255,-1.1407387,5.4321914,-27.73282,1.4697267,-5.3576226,16.074324,-12.035966,1.6927933,-16.42585,-1.013155,9.606836,-11.828724,30.97442,-20.126703,-56.28641,6.441903,-8.479548,8.635308,57.98923,-29.050087,20.508905,-59.707264,5.3243604,-5.387009,-28.963604
206,-1.8244740962982178,196.9147186279297,77.3692626953125,1.497906945813522,3.7042346121465357,84.67380144179104,17.982857,2.2157712,20.665102,47.99354,-2.5482357,5.3208423,-26.491514,1.4895229,-5.275683,17.192772,-13.341451,1.4346092,-15.771609,-1.4391146,9.805459,-8.593798,30.281887,-19.657187,-57.151928,7.268207,-8.535352,8.581035,56.573627,-28.997644,22.42303,-59.987343,5.476648,-5.545102,-28.059004
207,-1.7355196475982666,198.86863708496094,76.97824096679688,1.5463150951805689,3.3367896670437736,84.25754381505433,17.402086,3.4305058,21.661064,51.537453,-4.0530252,5.187339,-25.43783,1.6241984,-5.270065,18.812813,-14.573054,0.9789744,-15.077314,-1.7129639,10.023754,-5.4834123,29.496653,-19.252293,-57.734425,7.7811127,-8.64691,8.591635,54.817856,-28.911015,24.236084,-60.000134,5.1909094,-5.733021,-26.865988
208,-1.6243808269500732,200.78282165527344,76.56513977050781,1.3013141887870714,3.057507909285982,83.9490017556722,16.46835,5.1043906,22.416664,55.33703,-5.787228,5.037301,-24.826773,2.0014584,-5.378505,21.080544,-15.402472,0.17224734,-14.341773,-1.6617752,10.293397,-2.6650307,28.648087,-18.930187,-58.01064,7.9796524,-8.810005,8.631427,52.987816,-28.780117,25.613993,-60.000134,4.692381,-5.90486,-25.468643
209,-1.4755240678787231,202.6470184326172,76.16333770751953,0.6640075319962883,2.897157280610674,83.78095842691796,15.153856,7.4497614,22.955942,59.494003,-7.7940865,4.8217864,-24.900745,2.7141588,-5.61258,24.320097,-15.404003,-1.2975885,-13.594279,-1.1732293,10.598733,-0.17122805,27.755434,-18.679745,-57.979275,7.715273,-9.042345,8.680014,51.097656,-28.594511,26.442373,-59.94436,3.759721,-6.088297,-23.617998
210,-1.3519295454025269,204.51199340820312,75.70663452148438,-0.232586146558307,2.805325623193486,83.72942110334262,13.59537,10.294818,23.34628,63.8846,-9.970192,4.5601144,-25.394835,3.6091948,-6.0020986,28.21178,-14.771014,-3.2395597,-12.851635,-0.41006923,10.910502,2.0936892,26.817537,-18.495092,-57.645756,7.035626,-9.337998,8.764848,48.958702,-28.337538,26.92449,-59.644863,2.366189,-6.3504424,-21.365772
211,-1.2581877708435059,206.36720275878906,75.1813735961914,-1.2066003513353278,2.729813538360857,83.7635249103147,11.804213,13.185374,23.365492,68.249725,-12.223283,4.3308187,-25.87269,4.493485,-6.5639877,32.057938,-14.1896715,-5.0766087,-12.081331,0.42513978,11.232217,4.1707277,25.83918,-18.375679,-56.99221,6.2362237,-9.658988,8.915584,46.4945,-28.006187,27.205719,-59.10202,1.0259043,-6.6634073,-19.237988
212,-1.1620694398880005,208.16404724121094,74.6280517578125,-2.1145097363496164,2.63136590823794,83.83901703223118,9.729954,15.702862,22.821064,72.37741,-14.492491,4.205348,-25.953497,5.2447314,-7.2277775,35.29442,-14.436829,-6.2526116,-11.251575,1.175916,11.562346,6.134008,24.830116,-18.301672,-56.023136,5.619223,-9.96807,9.178095,43.60176,-27.631397,27.42322,-58.284325,0.27056792,-6.9586782,-17.767843
213,-1.0471848249435425,209.91456604003906,74.09617614746094,-3.027553752825292,2.5352998374251947,83.96575394284945,7.1766543,17.836554,21.49488,76.37949,-16.87277,4.2007046,-25.659506,5.9110017,-8.057433,37.98984,-15.978622,-6.5003357,-10.364152,1.9023689,11.903869,8.006521,23.799814,-18.224129,-54.63701,5.3600435,-10.268356,9.58713,40.17938,-27.254591,27.583874,-57.116844,0.56200033,-7.2360916,-17.258945
214,-0.9467822313308716,211.649658203125,73.59373474121094,-4.020196186984171,2.4675791964725122,84.14600435697373,4.145601,19.736937,19.518982,80.337425,-19.364618,4.257521,-25.217182,6.5580964,-9.031024,40.505726,-18.389427,-6.1665373,-9.441888,2.691066,12.250591,9.816755,22.758614,-18.106752,-52.920727,5.2702723,-10.578912,10.116311,36.308815,-26.899525,27.606798,-55.6552,1.5071695,-7.499915,-17.371271
215,-0.878775417804718,213.379150390625,73.12885284423828,-4.949141077379242,2.3863250491802956,84.32613004688965,0.8884943,21.256483,17.273867,84.01183,-21.76856,4.341577,-24.557419,7.1276374,-9.920636,42.73854,-21.122257,-5.608944,-8.488453,3.4228535,12.598235,11.663816,21.725899,-17.942013,-51.1658,5.107252,-10.882794,10.721743,32.15859,-26.58764,27.516325,-54.08471,2.3479834,-7.6644597,-17.673594
216,-0.8201586008071899,215.104248046875,72.73091888427734,-5.655542380455232,2.242741564294367,84.45526208551617,-2.3007162,22.287092,15.188426,87.15089,-23.87848,4.4339724,-23.579231,7.5753727,-10.482434,44.512638,-23.60515,-5.1867332,-7.5128193,3.955005,12.952746,13.650739,20.727041,-17.72758,-49.669056,4.6248636,-11.169707,11.3595495,27.876469,-26.333784,27.36243,-52.586628,2.3338645,-7.6298733,-17.743528
217,-0.7892283797264099,216.8358154296875,72.3908920288086,-6.085392212040145,1.9658355699000307,84.52120473896439,-5.3455286,22.769583,13.307906,89.73816,-25.701668,4.649171,-22.164148,7.905853,-10.629781,45.74687,-25.792822,-4.969328,-6.5472326,4.2073107,13.407963,15.886248,19.761248,-17.411367,-48.435917,3.6787362,-11.430851,12.113255,23.322092,-26.146317,27.199293,-51.102314,1.0582931,-7.2531176,-17.520506
218,-0.7635890245437622,218.55587768554688,72.10159301757812,-6.325078408336185,1.5972427394251485,84.55211281202699,-8.372635,22.785196,11.486172,91.90625,-27.315168,4.9679155,-20.384773,8.156239,-10.5195055,46.520042,-27.943027,-4.781663,-5.600033,4.261832,13.945861,18.337278,18.83034,-16.979805,-47.3705,2.422021,-11.686451,12.973133,18.429834,-26.028765,27.044247,-49.553425,-1.0032835,-6.6346965,-17.203392
219,-0.7374036908149719,220.29466247558594,71.86537170410156,-6.423047396193002,1.2538527920510651,84.5578700201839,-11.388494,22.519333,9.879639,93.63929,-28.640913,5.187125,-18.422663,8.334901,-10.259814,46.88574,-29.941013,-4.614156,-4.6441646,4.2200513,14.411934,20.892857,17.970797,-16.498652,-46.61781,1.0492749,-11.960366,13.762646,13.447275,-25.97551,26.914347,-48.08447,-3.274119,-6.0365057,-16.76978
220,-0.7233313918113708,222.04776000976562,71.68102264404297,-6.426597926590676,1.0539078241561957,84.5498141526585,-14.403321,22.170385,8.632154,94.89796,-29.603912,5.1072187,-16.451633,8.42684,-9.944872,46.892315,-31.671053,-4.4373703,-3.6478703,4.171683,14.651411,23.44437,17.238935,-16.042645,-46.3355,-0.25022957,-12.262042,14.3181715,8.634959,-25.975266,26.829561,-46.85409,-5.184976,-5.7140255,-16.223791
221,-0.7103464603424072,223.82090759277344,71.56770324707031,-6.33966353273108,1.023045410841744,84.51314752274094,-17.465034,21.830976,7.800816,95.68186,-30.114477,4.5820127,-14.515915,8.4212885,-9.551733,46.56845,-33.155277,-4.2298784,-2.5918138,4.125233,14.632152,26.023676,16.67893,-15.644878,-46.70289,-1.5667714,-12.625837,14.613286,3.946137,-26.010332,26.839098,-45.898266,-6.672955,-5.7888565,-15.491513
222,-0.7003210783004761,225.60684204101562,71.5147476196289,-6.141271427739282,1.0986346900895303,84.44543493180805,-20.546555,21.431396,7.317062,95.99755,-30.239716,3.756078,-12.523667,8.298177,-9.045594,45.88388,-34.43671,-3.9898245,-1.4767787,4.022899,14.449299,28.68464,16.293745,-15.270617,-47.6256,-2.9777544,-13.023321,14.746497,-0.7308292,-26.058018,26.948433,-45.13732,-8.002171,-6.117467,-14.616645
223,-0.6860249042510986,227.40814208984375,71.51847839355469,-5.8420017085527745,1.2667487742741819,84.37471146440116,-23.55768,20.92982,7.118979,95.81976,-30.13963,2.8592541,-10.452554,8.036521,-8.500402,44.80953,-35.43248,-3.7140813,-0.29912734,3.8523679,14.137722,31.341476,16.071022,-14.888435,-48.850243,-4.268545,-13.360345,14.745439,-5.246567,-26.10462,27.100267,-44.538464,-9.097129,-6.543047,-13.784095
224,-0.6774302124977112,229.2257080078125,71.58029174804688,-5.4524736160255225,1.5138019659930928,84.33036047087758,-26.40612,20.2824,7.1430078,95.12254,-29.973513,2.1195722,-8.277998,7.6292553,-7.994297,43.316704,-36.0627,-3.4144967,0.9381772,3.6021848,13.730743,33.916,15.992346,-14.457078,-50.12453,-5.213601,-13.546354,14.643728,-9.453624,-26.15445,27.226238,-44.06449,-9.882958,-6.8981023,-13.167542
225,-0.6785612106323242,231.0789337158203,71.70217895507812,-4.953552149949162,1.8794906477064028,84.28965273481252,-29.123198,19.494444,7.455836,93.86385,-29.791058,1.5501918,-5.978184,7.06567,-7.500444,41.27687,-36.398186,-3.084137,2.2750912,3.2662685,13.187282,36.405174,16.061827,-13.942432,-51.46388,-5.601855,-13.5046835,14.376584,-13.302965,-26.214441,27.28998,-43.778282,-10.329043,-7.143437,-12.772516
226,-0.6869023442268372,232.97564697265625,71.89250183105469,-4.3477068294568335,2.356228900105742,84.24947963226262,-31.726675,18.612919,8.065211,92.053474,-29.510426,1.0395898,-3.576376,6.354086,-7.0117893,38.749897,-36.453804,-2.7242653,3.6916854,2.8321073,12.525289,38.88309,16.293081,-13.340232,-53.015522,-5.6109715,-13.300896,13.9592495,-16.88862,-26.287214,27.345963,-43.68873,-10.479876,-7.354782,-12.526258
227,-0.7038861513137817,234.9182586669922,72.13943481445312,-3.678236793625754,2.8591829306888066,84.26851451329655,-34.099056,17.638588,8.816984,89.74233,-29.092058,0.6252822,-1.107875,5.532756,-6.627785,35.99266,-36.079334,-2.3748858,5.128867,2.3110201,11.850872,41.296497,16.644157,-12.711308,-54.6292,-5.556636,-13.062384,13.537418,-20.206032,-26.378588,27.399773,-43.69771,-10.396745,-7.5373387,-12.447983
228,-0.7345601916313171,236.89053344726562,72.4411392211914,-2.988250128650835,3.3021756126169146,84.4051012626649,-36.122826,16.551952,9.559731,86.98694,-28.49694,0.34503928,1.3933003,4.6497693,-6.440879,33.266342,-35.1275,-2.0748231,6.496575,1.7257692,11.266126,43.617252,17.054544,-12.083468,-56.17712,-5.76202,-12.908516,13.249741,-23.282074,-26.50579,27.491392,-43.694126,-10.132105,-7.6939054,-12.569214
229,-0.7637304663658142,238.89622497558594,72.78351593017578,-2.2491806592148436,3.665826316023155,84.70382026468353,-37.761257,15.287026,10.320035,83.74082,-27.689283,0.30342165,4.046116,3.6893628,-6.4712253,30.418789,-33.516422,-1.7917699,7.761466,1.0594366,10.794293,45.822296,17.491978,-11.408604,-57.63396,-6.36824,-12.870687,13.116343,-26.108852,-26.691723,27.67675,-43.670364,-9.548402,-7.828917,-13.014038
230,-0.8039984703063965,240.93052673339844,73.14735412597656,-1.459650157326202,3.987441447112634,85.1299357729746,-39.06206,13.853089,11.153111,79.982025,-26.70479,0.4359891,6.8193917,2.6630118,-6.675574,27.42222,-31.364185,-1.527298,8.950784,0.33447114,10.389031,47.932415,17.946869,-10.666404,-59.05724,-7.177631,-12.883689,13.051013,-28.681517,-26.946302,27.931456,-43.694878,-8.667656,-7.944092,-13.731698
231,-0.8533188104629517,242.9788818359375,73.52201080322266,-0.7072602812697255,4.2638885739581465,85.62404998078141,-40.038612,12.332595,11.93793,75.80802,-25.611063,0.5319085,9.460016,1.6693168,-7.0388684,24.727139,-28.81684,-1.3683763,10.058666,-0.3088779,9.973179,49.648354,18.278952,-10.011497,-60.000134,-7.976759,-12.962658,13.0070305,-31.088263,-27.193289,28.24051,-43.606533,-7.813601,-8.039842,-14.465541
232,-0.9206969141960144,245.033447265625,73.8976058959961,-0.07219724572925998,4.4963346780298785,86.12212845440206,-40.706306,10.811939,12.54956,71.29965,-24.459679,0.39042953,11.722145,0.79597354,-7.534171,22.757633,-25.997887,-1.3975843,11.22109,-0.7502161,9.478512,50.583874,18.615065,-9.646193,-60.000134,-8.606172,-13.150121,13.039672,-33.203518,-27.547226,28.470709,-43.45401,-7.3039255,-8.096093,-15.0263195
233,-1.001651406288147,247.09815979003906,74.25731658935547,0.47460811256497437,4.6925687095756325,86.6318118608725,-41.037453,9.228393,12.965072,66.306725,-23.185156,-0.0485909,13.502799,-0.0032864388,-8.202871,21.701815,-22.745764,-1.7109324,12.283893,-1.0725392,9.039381,51.51449,18.88193,-9.359698,-60.000134,-9.040755,-13.330377,13.093512,-35.203213,-28.00037,28.655668,-43.28057,-7.113031,-8.082763,-15.33117
234,-1.0953956842422485,249.18238830566406,74.60355377197266,0.956523975215133,4.844149105623916,87.17379958260062,-41.00253,7.549725,13.229669,60.794205,-21.764694,-0.670859,14.950373,-0.76222503,-9.039352,21.323391,-19.055513,-2.233206,13.232736,-1.3052664,8.663182,52.42267,19.052454,-9.092459,-60.000134,-9.366498,-13.5110445,13.148075,-37.04418,-28.501389,28.894558,-43.117676,-7.1785703,-8.010929,-15.510722
235,-1.1947402954101562,251.28018188476562,74.92842102050781,1.3002578904826037,4.939556123469919,87.70282708918036,-40.644653,5.924586,13.320648,55.026703,-20.308853,-1.3964789,16.18074,-1.3893324,-9.938216,21.401764,-15.265337,-2.7935174,14.079575,-1.3975973,8.323002,53.300518,19.131392,-8.901588,-60.000134,-9.501504,-13.65744,13.160725,-38.703133,-29.026417,29.105476,-42.994503,-7.484957,-7.9242196,-15.606495
236,-1.2904653549194336,253.3839874267578,75.2293472290039,1.4235306978656568,4.973219297163246,88.17269550485003,-40.03493,4.5269995,13.2123,49.296165,-18.94036,-2.138167,17.322744,-1.7691245,-10.776317,21.67197,-11.690623,-3.2288723,14.8463545,-1.2955128,7.994422,54.129887,19.12475,-8.848374,-60.000134,-9.364063,-13.733172,13.083594,-40.076996,-29.543066,29.215696,-42.98736,-8.092907,-7.866366,-15.657277
237,-1.3990380764007568,255.4983367919922,75.49784088134766,1.2544799314451127,4.94994751206296,88.56796522040061,-39.15284,3.4047077,12.780433,43.43824,-17.635857,-2.908674,18.429852,-1.797872,-11.56281,21.974926,-8.0857,-3.4810545,15.542366,-0.94940084,7.6305766,54.95084,19.0164,-8.955433,-60.000134,-8.841046,-13.710571,12.906861,-41.2183,-30.0437,29.178596,-43.05995,-9.174543,-7.830547,-15.610871
238,-1.4901657104492188,257.62518310546875,75.7295913696289,0.8420347042154673,4.876666735567262,88.89412055757636,-37.951347,2.5298011,12.068707,37.322037,-16.32103,-3.7150292,19.460768,-1.5456902,-12.317417,22.380247,-4.3230124,-3.6513531,16.167881,-0.39515427,7.238738,55.770042,18.799908,-9.181741,-60.000134,-8.004603,-13.618663,12.655668,-42.16384,-30.53149,29.03186,-43.16325,-10.656688,-7.8018284,-15.459774
239,-1.5772203207015991,259.7715759277344,75.92914581298828,0.28186036004288917,4.750162623396009,89.141828002582,-36.501766,1.9520317,11.320232,31.339823,-15.069915,-4.47652,20.398615,-1.1438614,-12.932837,22.974855,-0.908917,-3.8218894,16.72416,0.29314718,6.872066,56.52849,18.507433,-9.491526,-60.000134,-7.054456,-13.5085745,12.339555,-42.78801,-30.985699,28.807528,-43.34094,-12.220819,-7.808057,-15.307114
