unveil-humanoid-operators/unveil-humanoid-operators.github.io/feature-analysis-animation/data/feature_matrix_instances/height_ankle_rom_jogging_A055_jog_arc_cw_start_002__A055.csv
Frame,root_translateX,root_translateY,root_translateZ,root_rotateX,root_rotateY,root_rotateZ,left_hip_pitch_joint_dof,left_hip_roll_joint_dof,left_hip_yaw_joint_dof,left_knee_joint_dof,left_ankle_pitch_joint_dof,left_ankle_roll_joint_dof,right_hip_pitch_joint_dof,right_hip_roll_joint_dof,right_hip_yaw_joint_dof,right_knee_joint_dof,right_ankle_pitch_joint_dof,right_ankle_roll_joint_dof,waist_yaw_joint_dof,waist_roll_joint_dof,waist_pitch_joint_dof,left_shoulder_pitch_joint_dof,left_shoulder_roll_joint_dof,left_shoulder_yaw_joint_dof,left_elbow_joint_dof,left_wrist_roll_joint_dof,left_wrist_pitch_joint_dof,left_wrist_yaw_joint_dof,right_shoulder_pitch_joint_dof,right_shoulder_roll_joint_dof,right_shoulder_yaw_joint_dof,right_elbow_joint_dof,right_wrist_roll_joint_dof,right_wrist_pitch_joint_dof,right_wrist_yaw_joint_dof
0,-1.8359445333480835,0.6628834009170532,78.09524536132812,1.9408395561369784,0.9465383052915382,-29.413851478101407,3.406346,2.3406124,34.185875,6.2891726,-10.36724,-1.5625445,-10.114737,-4.6909747,0.1717894,14.564493,-8.69285,5.401316,-4.2944155,-2.2603688,1.3308107,5.3693986,13.140595,-34.210117,56.17384,0.5251326,11.94282,17.12592,2.9397204,-13.282215,35.24623,56.349308,-9.0057125,8.467688,-20.835255
1,-1.8333815336227417,0.6630913615226746,78.09806060791016,1.9367922375162379,0.9610632421909909,-29.389121676572785,3.3828363,2.3404236,34.16413,6.2917166,-10.362696,-1.5652468,-10.124179,-4.7387185,0.03065457,14.590311,-8.729272,5.3675914,-4.3391547,-2.2488654,1.3962456,5.1512804,13.16552,-34.36245,56.232437,0.4312696,11.936087,17.195942,2.8889298,-13.269043,35.340355,56.338425,-8.949492,8.525014,-20.866179
2,-1.8312852382659912,0.6640081405639648,78.1011734008789,1.9323754148867838,0.975138278143745,-29.36744762878041,3.3608737,2.3402495,34.145363,6.29245,-10.35743,-1.5673093,-10.132013,-4.787214,-0.11293181,14.613431,-8.765489,5.335009,-4.3791704,-2.237708,1.4621582,4.9255757,13.187572,-34.522423,56.30077,0.32463676,11.92648,17.270338,2.8380396,-13.256837,35.42955,56.32275,-8.887297,8.5829525,-20.898275
3,-1.8275433778762817,0.660172164440155,78.10062408447266,1.9282954271663928,0.990100570561374,-29.339617808037506,3.3356931,2.3405435,34.12042,6.2970557,-10.353623,-1.5706768,-10.142627,-4.8340154,-0.25161356,14.6421795,-8.802634,5.300247,-4.420462,-2.2243767,1.5276765,4.6994057,13.205291,-34.67655,56.367973,0.24179824,11.920177,17.336365,2.7941992,-13.246446,35.518147,56.31042,-8.839323,8.639775,-20.92663
4,-1.8218460083007812,0.6595579385757446,78.09852600097656,1.9248010536577782,1.0074895234226455,-29.296536113233817,3.30695,2.3383567,34.080105,6.300218,-10.347958,-1.5771825,-10.161814,-4.876628,-0.37768695,14.688432,-8.84418,5.259925,-4.4455085,-2.2171524,1.584265,4.4742594,13.238919,-34.860565,56.424477,0.190086,11.924314,17.387438,2.7738395,-13.219706,35.598465,56.31708,-8.818617,8.693081,-20.950912
5,-1.8174664974212646,0.6608790159225464,78.0969467163086,1.922051777452524,1.0276323057854098,-29.237037271713415,3.272326,2.335026,34.02232,6.305845,-10.341665,-1.5863966,-10.19235,-4.91284,-0.48638397,14.756874,-8.891064,5.211519,-4.4857273,-2.2015936,1.6406522,4.251376,13.258625,-35.013493,56.4796,0.2183593,11.938853,17.416332,2.7660048,-13.199718,35.69514,56.337605,-8.843593,8.746067,-20.964739
6,-1.8125834465026855,0.6598685383796692,78.09459686279297,1.9196631801209516,1.0499006074253328,-29.16540537107071,3.234324,2.330326,33.95199,6.311171,-10.334112,-1.5976397,-10.232297,-4.9442253,-0.5826431,14.843221,-8.942678,5.1572356,-4.5233426,-2.1845465,1.693017,4.024441,13.276928,-35.172176,56.53655,0.28769484,11.961748,17.432394,2.7692678,-13.175003,35.79628,56.37581,-8.897058,8.798152,-20.973577
7,-1.8031136989593506,0.6569135189056396,78.09219360351562,1.9177609910913695,1.0732172585665718,-29.08107205779498,3.1935928,2.3238628,33.8697,6.316908,-10.326493,-1.6123745,-10.272689,-4.9749856,-0.6737742,14.933396,-8.994272,5.1011133,-4.5589595,-2.168379,1.73957,3.7992396,13.295197,-35.33015,56.587322,0.3827861,11.989622,17.43178,2.782619,-13.141558,35.89581,56.42854,-8.955991,8.844639,-20.977118
8,-1.7903685569763184,0.6499088406562805,78.08953094482422,1.9162261245828252,1.096746472356978,-28.9831991599838,3.1498086,2.3160374,33.776245,6.3237553,-10.318951,-1.632086,-10.3074465,-5.00892,-0.76708883,15.0186615,-9.043219,5.047144,-4.595411,-2.152861,1.7789059,3.5757015,13.312364,-35.4823,56.62963,0.4831268,12.018469,17.410755,2.806598,-13.099233,35.98896,56.48831,-8.998184,8.88083,-20.9745
9,-1.7763820886611938,0.6426973938941956,78.08746337890625,1.9149748753340643,1.120761643396379,-28.87099069252242,3.103389,2.3058414,33.671867,6.3307724,-10.313105,-1.663267,-10.3391485,-5.045479,-0.85815394,15.102463,-9.0892725,4.988846,-4.6316967,-2.1402535,1.8082064,3.3546648,13.328956,-35.632915,56.664577,0.6205405,12.055659,17.349897,2.8377905,-13.039769,36.071198,56.567337,-9.019432,8.903,-20.968803
10,-1.7611966133117676,0.6366801857948303,78.08807373046875,1.9139770322352168,1.1455549140557624,-28.7448497102,3.0536566,2.2942424,33.555958,6.3375173,-10.307015,-1.7030988,-10.369391,-5.082903,-0.94536793,15.187182,-9.133519,4.926629,-4.67194,-2.1221468,1.8324649,3.1320865,13.338647,-35.77851,56.694397,0.79206485,12.099245,17.256464,2.886595,-12.986981,36.151115,56.64215,-9.028412,8.9155,-20.95642
11,-1.7455732822418213,0.6254064440727234,78.0892105102539,1.9133920513653937,1.1698645246206505,-28.606728938515072,3.0027244,2.2807837,33.42866,6.345814,-10.301176,-1.739002,-10.390679,-5.1238422,-1.0397266,15.261913,-9.1750765,4.874825,-4.708897,-2.104995,1.851194,2.9102015,13.345241,-35.91622,56.717834,0.9322213,12.134634,17.169588,2.9421306,-12.928173,36.230213,56.72465,-9.025301,8.923005,-20.936068
12,-1.726747989654541,0.614529013633728,78.08879089355469,1.9139863461870734,1.1923436055550214,-28.45843211121169,2.9529738,2.2648356,33.28996,6.354987,-10.293734,-1.7583103,-10.393081,-5.1713033,-1.1521308,15.31101,-9.210899,4.847921,-4.7429676,-2.0903277,1.8668092,2.6960626,13.350138,-36.030174,56.726807,0.9806523,12.14718,17.126705,3.0029414,-12.86503,36.31571,56.80532,-9.010069,8.930917,-20.904251
13,-1.7073007822036743,0.600836992263794,78.08843231201172,1.916612788837152,1.211976239042554,-28.29805926277369,2.9053059,2.2451134,33.137447,6.3638964,-10.2829275,-1.7533829,-10.373965,-5.2267437,-1.2865893,15.331037,-9.241978,4.8522515,-4.7734404,-2.078457,1.881337,2.485876,13.355768,-36.116726,56.718807,0.882575,12.124214,17.143206,3.068881,-12.802061,36.407703,56.879604,-8.964006,8.937434,-20.859684
14,-1.6891754865646362,0.585616409778595,78.08972930908203,1.9206836424915188,1.230036079967162,-28.12544670380022,2.858088,2.22232,32.97194,6.3748655,-10.271523,-1.7323503,-10.337881,-5.288419,-1.4369378,15.329192,-9.268937,4.879371,-4.8007603,-2.066349,1.8957998,2.2823436,13.361813,-36.17977,56.69028,0.68701386,12.07658,17.19649,3.151919,-12.748825,36.500977,56.9334,-8.894912,8.9414215,-20.80229
15,-1.6663657426834106,0.572014331817627,78.09114074707031,1.9242917866330542,1.2473902028328485,-27.94498385916043,2.8109183,2.1992974,32.79818,6.3868885,-10.259933,-1.7064803,-10.28892,-5.3534465,-1.5992357,15.310369,-9.2896595,4.9214168,-4.8301444,-2.057404,1.9038097,2.094004,13.369707,-36.224827,56.646214,0.47636345,12.024945,17.268068,3.227275,-12.680347,36.608986,57.007645,-8.832167,8.947556,-20.73671
16,-1.6458402872085571,0.5637228488922119,78.08899688720703,1.924929499646625,1.2653245487011835,-27.76063670051865,2.763735,2.1786172,32.62097,6.398451,-10.248361,-1.6868836,-10.230808,-5.418486,-1.7696958,15.27857,-9.301653,4.9704814,-4.865031,-2.0443923,1.9068705,1.9265561,13.37585,-36.258057,56.5856,0.33285424,11.98955,17.33834,3.2964046,-12.610968,36.73972,57.0945,-8.80489,8.962184,-20.661285
17,-1.6201319694519043,0.5530235171318054,78.09038543701172,1.9233058151055555,1.28340662438323,-27.566604743815315,2.716535,2.158499,32.43575,6.4092727,-10.238965,-1.6715277,-10.154956,-5.488171,-1.9571661,15.222862,-9.301592,5.042832,-4.911914,-2.0247726,1.9051551,1.77868,13.376834,-36.29156,56.51335,0.2794855,11.976309,17.418396,3.3658774,-12.548195,36.89729,57.188877,-8.8323965,8.995536,-20.570717
18,-1.58880615234375,0.5377163887023926,78.09136199951172,1.9202148645775818,1.3011228632076721,-27.362856408986893,2.6688178,2.1387322,32.24179,6.421589,-10.231728,-1.6561447,-10.063396,-5.561876,-2.1604712,15.146999,-9.292933,5.1364384,-4.967868,-2.0003605,1.8979466,1.6482904,13.3720045,-36.316048,56.42971,0.2743237,11.97423,17.513348,3.4322772,-12.4848795,37.078575,57.295856,-8.893134,9.041348,-20.46715
19,-1.5607985258102417,0.5242676734924316,78.09410858154297,1.9136808028859595,1.3202070133067778,-27.16291961015504,2.6218889,2.122798,32.050224,6.4326353,-10.221549,-1.6485351,-9.972025,-5.630127,-2.3606033,15.069517,-9.279054,5.2163095,-5.0163064,-1.9724386,1.8863688,1.5357997,13.362358,-36.313885,56.327766,0.29844093,11.977961,17.595676,3.4952765,-12.424193,37.271206,57.405468,-8.961818,9.081751,-20.359137
20,-1.531237244606018,0.5100679397583008,78.09528350830078,1.9016726678998677,1.3422965489865495,-26.980353271368735,2.575838,2.1152153,31.872047,6.4427896,-10.205539,-1.6565723,-9.8990135,-5.683467,-2.538226,15.013272,-9.265094,5.2473955,-5.0464954,-1.9424925,1.869406,1.4428471,13.34926,-36.263332,56.20287,0.33164948,11.9819145,17.637804,3.5512385,-12.361728,37.46737,57.516666,-9.014884,9.098605,-20.25663
21,-1.4997247457504272,0.49053114652633667,78.09967041015625,1.882396556060457,1.371050340633725,-26.81505704246094,2.525857,2.118745,31.706556,6.4518895,-10.182448,-1.6889819,-9.853029,-5.7194552,-2.689806,14.985118,-9.24828,5.21539,-5.051901,-1.9120432,1.8430837,1.373963,13.333997,-36.147156,56.048435,0.38867074,11.986779,17.623758,3.6040003,-12.297103,37.666275,57.625107,-9.042002,9.082674,-20.16221
22,-1.4626251459121704,0.474430114030838,78.10256958007812,1.8573837387639676,1.4044489208769326,-26.66118653006836,2.4726589,2.1309476,31.549124,6.461557,-10.154978,-1.7393758,-9.823543,-5.7433696,-2.825032,14.97342,-9.22733,5.1406817,-5.036385,-1.8793025,1.8114179,1.3238912,13.31923,-35.987274,55.866386,0.46838787,11.994891,17.570906,3.6604767,-12.238413,37.867836,57.72185,-9.057504,9.045301,-20.06927
23,-1.427005648612976,0.4543008804321289,78.1063461303711,1.829571350815709,1.4357127767715685,-26.523100331944704,2.4266288,2.1475432,31.40447,6.4699187,-10.12265,-1.7929491,-9.79897,-5.757806,-2.9443493,14.97107,-9.208538,5.0401797,-5.0111556,-1.842426,1.7817066,1.2980273,13.304647,-35.79839,55.655334,0.54820114,12.0037,17.500696,3.7089689,-12.185238,38.070187,57.81696,-9.076123,8.9991865,-19.976439
24,-1.3907251358032227,0.43645763397216797,78.109619140625,1.8017318944664604,1.4579188678590989,-26.40557837830529,2.3967156,2.1649227,31.27693,6.477593,-10.085615,-1.8348732,-9.768835,-5.765558,-3.048033,14.974578,-9.200792,4.9308734,-4.9903164,-1.7998358,1.7602754,1.3003552,13.288796,-35.594353,55.417423,0.6035332,12.010666,17.434511,3.7433426,-12.133942,38.26896,57.917625,-9.119668,8.95713,-19.882238
25,-1.3500335216522217,0.42159202694892883,78.11099243164062,1.776260094003713,1.4666828061817037,-26.314212174647803,2.388206,2.1803846,31.169395,6.4848104,-10.037647,-1.852147,-9.73457,-5.766874,-3.130399,14.994827,-9.210955,4.801106,-4.9685664,-1.7479453,1.7545873,1.3377084,13.270032,-35.370056,55.137775,0.6224792,12.015984,17.374798,3.7581706,-12.087149,38.463097,58.02852,-9.183308,8.915907,-19.789898
26,-1.3105189800262451,0.40878796577453613,78.11337280273438,1.7508368373231593,1.4666027431316109,-26.245072906711464,2.3944259,2.197079,31.078875,6.493414,-9.981825,-1.8556923,-9.701068,-5.760557,-3.1930926,15.031553,-9.23386,4.647211,-4.934498,-1.6882379,1.7605414,1.4018003,13.250242,-35.13072,54.820797,0.61585903,12.02075,17.311481,3.770911,-12.051957,38.642406,58.13072,-9.266001,8.871025,-19.697561
27,-1.2719141244888306,0.39561083912849426,78.1151123046875,1.7224493692289133,1.463956097180479,-26.188383227931514,2.4090579,2.2180376,31.00156,6.499417,-9.9286585,-1.8664852,-9.660101,-5.7468615,-3.2480135,15.056482,-9.2558775,4.497925,-4.9037247,-1.6262324,1.7660446,1.4831884,13.228742,-34.88575,54.496235,0.6058172,12.024003,17.247063,3.7734103,-12.021185,38.82015,58.23093,-9.367918,8.83256,-19.598883
28,-1.2304376363754272,0.3836875855922699,78.11662292480469,1.6881745035033158,1.4651253783937925,-26.13418042021712,2.4238594,2.2474246,30.933382,6.5037327,-9.891486,-1.905542,-9.603057,-5.726224,-3.306562,15.041356,-9.263784,4.3820615,-4.8765144,-1.5691341,1.7604855,1.5706583,13.206896,-34.65807,54.19097,0.6156442,12.024991,17.184898,3.7685263,-11.991352,38.99038,58.326275,-9.495653,8.810173,-19.486012
29,-1.190244197845459,0.36747345328330994,78.11797332763672,1.6441334109339432,1.4693988125581576,-26.080284324023854,2.4403288,2.2908254,30.875223,6.506575,-9.875588,-1.9877346,-9.521664,-5.694543,-3.3729568,14.973447,-9.254409,4.306329,-4.839698,-1.5184152,1.7428722,1.6567725,13.1900625,-34.466934,53.905636,0.65152186,12.02819,17.12138,3.7665534,-11.96519,39.142212,58.40804,-9.680769,8.811275,-19.333553
30,-1.1477645635604858,0.356874942779541,78.11968231201172,1.5929262290072823,1.4741448386443805,-26.03196362004239,2.4622104,2.3442256,30.828627,6.5058823,-9.872254,-2.098702,-9.41902,-5.6529965,-3.4407434,14.862398,-9.23272,4.2558503,-4.782519,-1.4718843,1.7209538,1.7454618,13.180601,-34.31143,53.62443,0.6988568,12.032945,17.056839,3.7702415,-11.94748,39.265827,58.470432,-9.911389,8.828286,-19.151268
31,-1.0981931686401367,0.33729204535484314,78.12187957763672,1.5416240059251278,1.48302720729977,-25.990085763422957,2.4811745,2.3992689,30.789993,6.507201,-9.87835,-2.2155774,-9.316338,-5.6100407,-3.5048132,14.73887,-9.205419,4.2265882,-4.738425,-1.4296426,1.6925793,1.8461565,13.174118,-34.162148,53.35363,0.74286634,12.030302,16.998976,3.7619677,-11.930405,39.383877,58.52835,-10.131123,8.849524,-18.988167
32,-1.0496971607208252,0.31774112582206726,78.1242446899414,1.4971680248849906,1.4997879572485078,-25.95557814651582,2.4924843,2.4457672,30.755896,6.5074005,-9.885664,-2.3154917,-9.226885,-5.5736933,-3.5609019,14.61739,-9.175448,4.214647,-4.7035265,-1.3945128,1.6598572,1.9481237,13.170489,-34.034,53.10601,0.75738734,12.011997,16.958067,3.7444816,-11.914074,39.478775,58.575684,-10.287385,8.863138,-18.889448
33,-1.0043193101882935,0.3034406006336212,78.12684631347656,1.4617630333160088,1.528289383707266,-25.92832193849199,2.4910235,2.4810388,30.724546,6.5079737,-9.894425,-2.3888402,-9.155852,-5.5466127,-3.6077185,14.499351,-9.14262,4.2222314,-4.683953,-1.366399,1.6188496,2.056347,13.169739,-33.92509,52.877415,0.7288005,11.969372,16.944868,3.7077863,-11.895905,39.56004,58.62208,-10.348124,8.8651,-18.878218
34,-0.9628989696502686,0.28601428866386414,78.13031768798828,1.4315007946871312,1.5653811596729892,-25.908183676199776,2.48123,2.51048,30.698042,6.5077324,-9.906342,-2.4490368,-9.092941,-5.524203,-3.6477542,14.372464,-9.103739,4.2503448,-4.669721,-1.346206,1.5703155,2.1687932,13.172825,-33.840164,52.666924,0.6715107,11.90928,16.951862,3.656499,-11.875122,39.62311,58.66689,-10.347375,8.862458,-18.926563
35,-0.9183844327926636,0.27101534605026245,78.12928771972656,1.404429034307626,1.6050158325629447,-25.89537990968489,2.4702592,2.5361688,30.67932,6.506964,-9.921812,-2.5076914,-9.03745,-5.504385,-3.681823,14.249255,-9.064567,4.2931895,-4.6400995,-1.3307314,1.5235276,2.267044,13.175455,-33.798912,52.489246,0.6000791,11.846276,16.963312,3.616042,-11.864826,39.63598,58.681313,-10.331476,8.85901,-19.001879
36,-0.8776782751083374,0.2602598965167999,78.1272964477539,1.3786529807543888,1.6407402020528017,-25.889857317730844,2.464757,2.5612404,30.670683,6.5050254,-9.938944,-2.576563,-8.986293,-5.4854183,-3.7109783,14.138769,-9.029753,4.345004,-4.6324396,-1.3192188,1.4863071,2.3732197,13.181979,-33.747208,52.331352,0.5519732,11.795363,16.954878,3.552689,-11.850393,39.63563,58.697517,-10.328564,8.858626,-19.077686
37,-0.8374472260475159,0.2510323226451874,78.12452697753906,1.353535489399583,1.6681984740848523,-25.893380517376066,2.4716208,2.5855398,30.675625,6.500393,-9.959797,-2.6654034,-8.937063,-5.46705,-3.7364821,14.04643,-9.002594,4.412446,-4.628806,-1.311156,1.4639244,2.4751034,13.191317,-33.70823,52.200966,0.5201831,11.758004,16.92261,3.479217,-11.836081,39.59697,58.705097,-10.361597,8.860427,-19.153666
38,-0.8022407293319702,0.24240538477897644,78.12065887451172,1.3301723404789711,1.6917392432432652,-25.90527648098749,2.4841733,2.6091516,30.691689,6.4954157,-9.984283,-2.7658253,-8.891491,-5.450095,-3.7575665,13.965549,-8.979723,4.495889,-4.6285133,-1.307444,1.4503105,2.575417,13.202347,-33.684387,52.096504,0.49671087,11.727171,16.877548,3.4016366,-11.824028,39.51971,58.698765,-10.412227,8.863345,-19.24266
39,-0.7629666924476624,0.23944881558418274,78.1173324584961,1.308725540929521,1.7178161392712457,-25.922689416833286,2.4946728,2.6300426,30.713604,6.488447,-10.008171,-2.8619692,-8.855549,-5.4338036,-3.7717962,13.892193,-8.957408,4.580159,-4.625904,-1.3082339,1.4397551,2.6651058,13.215249,-33.682327,52.023785,0.48095495,11.704878,16.826994,3.3149064,-11.814282,39.41766,58.679134,-10.442953,8.869321,-19.332375
40,-0.7273566722869873,0.2363094836473465,78.11798095703125,1.2896810195358803,1.7530792906922197,-25.94262191598313,2.4925885,2.647979,30.735723,6.482893,-10.028854,-2.9380763,-8.835288,-5.4176545,-3.7768972,13.823272,-8.932312,4.6500535,-4.613868,-1.3167331,1.4242687,2.7422638,13.23228,-33.706947,51.984627,0.4780915,11.692942,16.779203,3.2299776,-11.80522,39.29196,58.635258,-10.431107,8.8807955,-19.410967
41,-0.6924498677253723,0.22963698208332062,78.11934661865234,1.273782132558019,1.8028605069588657,-25.963233847997977,2.4697387,2.662342,30.754215,6.479968,-10.043851,-2.9887178,-8.836584,-5.402335,-3.7716935,13.757302,-8.901345,4.7040553,-4.602063,-1.3318923,1.3985593,2.8039324,13.250427,-33.754204,51.98438,0.4905337,11.694002,16.730042,3.1392934,-11.797985,39.149784,58.564632,-10.335058,8.903146,-19.472424
42,-0.6602765917778015,0.21659798920154572,78.12022399902344,1.260404758107191,1.8623040789990621,-25.986285638852173,2.4344184,2.6732197,30.77296,6.476473,-10.054925,-3.0227478,-8.854505,-5.387552,-3.7576556,13.696325,-8.867217,4.749418,-4.5804324,-1.3555892,1.3678652,2.8525383,13.274061,-33.831406,52.01713,0.51690406,11.707031,16.677309,3.051499,-11.79097,38.96906,58.46662,-10.191323,8.932907,-19.523027
43,-0.6261371970176697,0.2082134336233139,78.1236572265625,1.248350806212733,1.9232037687265822,-26.01514234533901,2.3973112,2.6827354,30.797464,6.474039,-10.066008,-3.0458782,-8.880277,-5.3725734,-3.7360427,13.642302,-8.8343,4.784195,-4.542105,-1.3865855,1.3413329,2.8891466,13.308005,-33.94275,52.077465,0.5431531,11.726589,16.632574,2.9627337,-11.783665,38.77115,58.355972,-10.047314,8.960407,-19.572992
44,-0.59149169921875,0.20448677241802216,78.12158203125,1.2364033176655926,1.9775085079796932,-26.052849052722593,2.370528,2.691979,30.833467,6.471277,-10.080124,-3.0637157,-8.9049015,-5.35661,-3.708089,13.5976,-8.807421,4.8065176,-4.521359,-1.4142292,1.320139,2.9308016,13.332026,-34.03822,52.169685,0.57535946,11.744969,16.604937,2.8559191,-11.781343,38.62431,58.26074,-9.945587,8.978191,-19.635582
45,-0.5577404499053955,0.19984813034534454,78.12053680419922,1.22445511098304,2.0222741336460026,-26.101398628735915,2.3587296,2.7005177,30.884464,6.468508,-10.09947,-3.0739396,-8.927367,-5.3400493,-3.6736598,13.567169,-8.790142,4.80998,-4.485543,-1.4450982,1.3090492,2.9611578,13.357199,-34.166653,52.30194,0.6041293,11.766578,16.607662,2.755481,-11.782892,38.4866,58.165565,-9.932992,8.9828615,-19.713247
46,-0.5266238451004028,0.1996784508228302,78.11921691894531,1.2130338103201286,2.0622282969863974,-26.158809653223727,2.3543525,2.7083883,30.946806,6.466429,-10.121412,-3.0749328,-8.9529505,-5.3230724,-3.632253,13.550128,-8.779948,4.7974977,-4.4400616,-1.4787022,1.3058238,2.9822907,13.383561,-34.320923,52.469185,0.63490516,11.792745,16.631773,2.6462471,-11.789108,38.363544,58.07215,-9.959076,8.979406,-19.799852
47,-0.4915432929992676,0.1971231997013092,78.12133026123047,1.201435190724579,2.100220432889765,-26.222202167246696,2.3536317,2.7159119,31.015358,6.463315,-10.143765,-3.0732777,-8.978405,-5.3042893,-3.5846474,13.532269,-8.768459,4.781289,-4.4029307,-1.5098236,1.3056567,3.0051904,13.404009,-34.460278,52.66035,0.66516304,11.815161,16.657429,2.5300694,-11.79863,38.26256,57.981186,-9.996754,8.969769,-19.889795
48,-0.4573427736759186,0.20135946571826935,78.1186294555664,1.1890706565870646,2.139160308489371,-26.288801576054357,2.3506699,2.724804,31.085163,6.460933,-10.165225,-3.0755394,-9.003242,-5.2821245,-3.531435,13.505308,-8.750348,4.7734337,-4.3560624,-1.5377524,1.310537,3.022161,13.424415,-34.590538,52.862778,0.6764766,11.8265915,16.667559,2.4092364,-11.813766,38.16321,57.887764,-10.007213,8.954293,-19.973993
49,-0.42293205857276917,0.20533370971679688,78.11908721923828,1.1759509187760164,2.1788271516431323,-26.35973097642148,2.3468103,2.7340882,31.15729,6.4573283,-10.183533,-3.0810096,-9.023222,-5.2560663,-3.4698453,13.459554,-8.721884,4.780092,-4.314089,-1.5600257,1.3207248,3.041022,13.4401655,-34.685745,53.076035,0.6699883,11.818694,16.649391,2.2681432,-11.831577,38.08722,57.802658,-9.970909,8.930076,-20.0537
50,-0.3941090703010559,0.20653171837329865,78.11942291259766,1.1624224551388183,2.217852100858284,-26.435786508113342,2.3437417,2.7435975,31.233706,6.4532948,-10.200682,-3.0870347,-9.041056,-5.226866,-3.4004557,13.40418,-8.687836,4.7937837,-4.252432,-1.5792599,1.3418138,3.0510728,13.463323,-34.788666,53.298138,0.6390323,11.798625,16.615885,2.138504,-11.868781,38.001507,57.688477,-9.919983,8.897724,-20.12782
51,-0.3635566234588623,0.20687808096408844,78.11898040771484,1.1480273686599418,2.2581275576688125,-26.51423328789881,2.3391805,2.7542176,31.310488,6.4482408,-10.217575,-3.097158,-9.061337,-5.195901,-3.3290277,13.347727,-8.649891,4.8064337,-4.205695,-1.5946991,1.3629829,3.0704288,13.481104,-34.858925,53.52757,0.61147624,11.778344,16.582056,1.991723,-11.907446,37.9456,57.589794,-9.855874,8.863938,-20.199726
52,-0.34068721532821655,0.21263828873634338,78.1178970336914,1.1322052943456562,2.301363442036662,-26.592506852865686,2.3296466,2.7676501,31.383505,6.4452167,-10.237651,-3.114798,-9.089882,-5.1644936,-3.261244,13.301729,-8.611565,4.81002,-4.161525,-1.608067,1.3827876,3.0903113,13.498554,-34.921745,53.760075,0.58665365,11.771271,16.565548,1.8397421,-11.951836,37.90088,57.50028,-9.793029,8.834744,-20.266045
53,-0.31146880984306335,0.209396630525589,78.11892700195312,1.1137504627363568,2.349835740942594,-26.671510084568673,2.313858,2.785507,31.451677,6.4413204,-10.26057,-3.147686,-9.131349,-5.131251,-3.19784,13.269866,-8.569195,4.796482,-4.1256857,-1.6189232,1.3958178,3.1181436,13.514425,-34.96794,53.9962,0.5769032,11.785828,16.568935,1.6804197,-11.995039,37.868782,57.428017,-9.736418,8.816164,-20.321764
54,-0.28590166568756104,0.20802642405033112,78.12002563476562,1.0932434527086472,2.40184086075765,-26.752092151111718,2.293425,2.8067636,31.516905,6.4378443,-10.286208,-3.191701,-9.1817665,-5.095891,-3.136015,13.246836,-8.523289,4.7720885,-4.0984454,-1.6293415,1.4020009,3.1459894,13.5237875,-34.997086,54.250393,0.573418,11.812839,16.585022,1.4927412,-12.019687,37.858204,57.398754,-9.673249,8.802549,-20.372253
55,-0.25966548919677734,0.20856989920139313,78.12059020996094,1.073503871005023,2.453692867765994,-26.83125955427079,2.2724302,2.8267856,31.581015,6.4336214,-10.311318,-3.2321372,-9.233768,-5.062119,-3.0763166,13.227374,-8.480212,4.7503886,-4.072483,-1.6434858,1.4063017,3.1700919,13.529718,-35.018154,54.516796,0.565507,11.840761,16.613382,1.2962601,-12.03361,37.85583,57.393795,-9.615851,8.784108,-20.427872
56,-0.23658163845539093,0.21517246961593628,78.11858367919922,1.057509074986578,2.5012836765123967,-26.906260633929826,2.2541661,2.8418837,31.645555,6.429701,-10.333921,-3.2553825,-9.277583,-5.0334716,-3.0190842,13.2012005,-8.444065,4.7448606,-4.0307627,-1.6622798,1.4260384,3.1920414,13.5506935,-35.055458,54.759975,0.5312553,11.858862,16.65393,1.1353117,-12.078914,37.84192,57.343445,-9.570353,8.753014,-20.494831
57,-0.21072472631931305,0.21827362477779388,78.1161880493164,1.0473803272770803,2.541425249024321,-26.97620783815292,2.2430387,2.8487444,31.711779,6.425846,-10.354039,-3.2517416,-9.308353,-5.0122657,-2.965304,13.166931,-8.420088,4.766005,-3.9851193,-1.6939642,1.4519317,3.2060277,13.56834,-35.08869,55.01461,0.46843746,11.8565855,16.711771,0.9653234,-12.112719,37.84326,57.320877,-9.527706,8.695327,-20.593061
58,-0.18876303732395172,0.22463037073612213,78.11400604248047,1.0409201623253805,2.576971420819088,-27.0428064420485,2.23574,2.850613,31.778774,6.422376,-10.37301,-3.2306397,-9.331574,-4.9959946,-2.9142785,13.128213,-8.404084,4.804292,-3.9321022,-1.7333944,1.4867548,3.218976,13.594155,-35.124138,55.262653,0.38078672,11.843124,16.784262,0.81073797,-12.156134,37.846077,57.2865,-9.494768,8.620418,-20.70935
59,-0.1740928590297699,0.23096492886543274,78.1101303100586,1.0356273880690732,2.612954086368437,-27.10600313763956,2.225937,2.851265,31.843828,6.418797,-10.389915,-3.206301,-9.356588,-4.9816613,-2.8646822,13.091581,-8.390809,4.8431144,-3.8816557,-1.7750351,1.5197666,3.2244062,13.61378,-35.154427,55.518852,0.2995302,11.831746,16.8637,0.64818627,-12.184715,37.849274,57.27824,-9.474102,8.547845,-20.823679
60,-0.15690435469150543,0.23294107615947723,78.10804748535156,1.0291427620726274,2.6545682945033815,-27.165794276836788,2.207605,2.853462,31.904806,6.415258,-10.405294,-3.1916642,-9.392263,-4.966241,-2.8150995,13.061676,-8.373919,4.8658667,-3.8357477,-1.8112222,1.5514287,3.2270696,13.635376,-35.181946,55.761875,0.2494334,11.83758,16.939264,0.4844685,-12.2119,37.84084,57.277378,-9.467916,8.498419,-20.910627
61,-0.14190436899662018,0.23716041445732117,78.10916900634766,1.020551683407782,2.7052554302999403,-27.220473838349157,2.175805,2.8588731,31.959837,6.4113116,-10.4175205,-3.1911702,-9.446325,-4.9483967,-2.765019,13.045311,-8.352745,4.862493,-3.7908893,-1.841529,1.5863283,3.2299795,13.67057,-35.216015,55.97843,0.2476108,11.873257,17.017633,0.32533827,-12.250402,37.810402,57.267677,-9.4849,8.483864,-20.952929
62,-0.1299634426832199,0.24663078784942627,78.11041259765625,1.0114215179292525,2.7615815285975254,-27.27079724328493,2.1341507,2.8656893,32.01079,6.408227,-10.427265,-3.197341,-9.511539,-4.930379,-2.714972,13.036067,-8.328927,4.843838,-3.7488132,-1.8698063,1.6220051,3.22744,13.711444,-35.25392,56.18586,0.27356896,11.927868,17.10149,0.16659097,-12.288896,37.766994,57.26315,-9.522538,8.4911375,-20.968122
63,-0.11522860825061798,0.24960434436798096,78.1103515625,1.0019675262967607,2.8183650625231413,-27.319815151183505,2.091816,2.8723671,32.060043,6.4037843,-10.436413,-3.206741,-9.5778885,-4.9124513,-2.666073,13.028114,-8.30529,4.824253,-3.710223,-1.8942801,1.6564046,3.2287698,13.750478,-35.275383,56.377285,0.31086123,11.982334,17.171707,0.00778977,-12.320782,37.720528,57.269173,-9.562525,8.503891,-20.97865
64,-0.09608663618564606,0.2507438063621521,78.11461639404297,0.9928811498119711,2.8705561464917277,-27.370745445853746,2.0551682,2.8786497,32.10963,6.401115,-10.448897,-3.215944,-9.633845,-4.895624,-2.6192877,13.011331,-8.281773,4.818272,-3.6721866,-1.9141634,1.6928881,3.2447333,13.792732,-35.267387,56.532444,0.33627254,12.018306,17.20791,-0.14898838,-12.3512535,37.679802,57.27763,-9.580635,8.505744,-21.004389
65,-0.07692358642816544,0.25200381875038147,78.11437225341797,0.9843035464698404,2.914843186876683,-27.425529244268542,2.0298417,2.883266,32.161552,6.396549,-10.463625,-3.2271497,-9.675729,-4.8801107,-2.574823,12.986142,-8.260472,4.8308396,-3.6406157,-1.9256315,1.735154,3.28261,13.836382,-35.210583,56.64112,0.3524337,12.027728,17.188183,-0.30502108,-12.380169,37.64653,57.28845,-9.579032,8.493899,-21.049004
66,-0.06305989623069763,0.25887224078178406,78.11237335205078,0.9759058687880733,2.9546390548455785,-27.48182947452909,2.0097466,2.8874931,32.213737,6.393693,-10.481432,-3.241136,-9.709521,-4.86578,-2.5323832,12.955899,-8.240186,4.8538747,-3.618491,-1.9313372,1.7870035,3.347992,13.89613,-35.11067,56.69043,0.36973837,12.022312,17.125837,-0.46322462,-12.416383,37.6248,57.293022,-9.558786,8.476792,-21.100338
67,-0.045372046530246735,0.26603835821151733,78.1103515625,0.9677091583524702,2.994641613129492,-27.53743821618824,1.9903928,2.8908324,32.264584,6.3891845,-10.4991865,-3.2523482,-9.740429,-4.8516808,-2.4911215,12.920583,-8.219036,4.882232,-3.5915437,-1.9353771,1.8282919,3.4076142,13.94308,-35.00919,56.743656,0.3735467,12.009731,17.063408,-0.6144532,-12.4428625,37.60338,57.31101,-9.526254,8.454544,-21.162336
68,-0.03237683326005936,0.268635630607605,78.1075210571289,0.9598982593392194,3.039587348858934,-27.589975180209578,1.9646109,2.8942175,32.311886,6.386366,-10.517626,-3.255187,-9.774075,-4.8378415,-2.4502273,12.880854,-8.195602,4.910941,-3.5638986,-1.947771,1.8604666,3.4776354,14.012094,-34.920387,56.770256,0.35030818,12.001124,17.030897,-0.74226755,-12.47681,37.591923,57.30771,-9.475629,8.428276,-21.232424
69,-0.01710393652319908,0.2735155522823334,78.10578155517578,0.9541065295592707,3.0937066926803034,-27.639097792994647,1.9285547,2.8955717,32.35524,6.382164,-10.533804,-3.2403615,-9.816737,-4.825113,-2.4082558,12.839105,-8.170817,4.941263,-3.5163555,-1.9733399,1.8705221,3.5358016,14.086467,-34.87295,56.805893,0.27823764,11.994931,17.052267,-0.8478579,-12.508248,37.58501,57.302025,-9.381265,8.396371,-21.327374
70,-0.002151702530682087,0.27775633335113525,78.10502624511719,0.9494677711548051,3.1534571411462995,-27.68618413754681,1.8842762,2.8967397,32.39541,6.3814826,-10.55106,-3.213459,-9.863501,-4.8131776,-2.3661587,12.793772,-8.144855,4.9750123,-3.4542115,-2.002171,1.8578429,3.5698223,14.13666,-34.850807,56.877163,0.17286855,11.9851675,17.108644,-0.9433052,-12.526781,37.58198,57.31578,-9.253615,8.358723,-21.444082
71,0.018215768039226532,0.2824084758758545,78.10370635986328,0.9432175640210195,3.2118229656307467,-27.73041479622235,1.8418221,2.8995225,32.433235,6.3802266,-10.569228,-3.1912346,-9.904159,-4.7998815,-2.3265061,12.74083,-8.1154375,5.0078754,-3.3940942,-2.0359802,1.8503733,3.6302164,14.223675,-34.825603,56.89068,0.06945488,11.980648,17.163408,-1.0225792,-12.554353,37.578014,57.30682,-9.138703,8.317535,-21.5476
72,0.036791954189538956,0.2825603187084198,78.10185241699219,0.9320756940855126,3.2618787301249617,-27.771662299273668,1.8091526,2.907284,32.46955,6.3779297,-10.589018,-3.1904645,-9.928235,-4.782454,-2.2920473,12.676535,-8.080541,5.0354805,-3.3417857,-2.0599542,1.8486611,3.6919997,14.305548,-34.791927,56.89511,0.0034576645,11.983073,17.19597,-1.0991383,-12.577117,37.5611,57.30454,-9.086576,8.2749195,-21.610874
73,0.056079648435115814,0.2854906916618347,78.10424041748047,0.9129123553946946,3.3009373665246033,-27.809626160232586,1.7898057,2.9235706,32.505394,6.3738747,-10.613224,-3.2270205,-9.929144,-4.7570705,-2.2636542,12.592761,-8.035487,5.0558753,-3.3042514,-2.070141,1.8579425,3.766251,14.391432,-34.74239,56.87333,-0.008290262,11.998242,17.196228,-1.1695986,-12.598044,37.52668,57.30527,-9.136602,8.218879,-21.617998
74,0.07248107343912125,0.28772202134132385,78.10456848144531,0.8880216016819005,3.3330345484963195,-27.844522076858716,1.7779918,2.946269,32.540325,6.3704333,-10.641037,-3.288192,-9.913886,-4.7263637,-2.2398138,12.494429,-7.983082,5.0716915,-3.2737074,-2.0698934,1.8700598,3.841486,14.470211,-34.68621,56.8445,0.014655426,12.021462,17.180523,-1.2395008,-12.61481,37.48444,57.318466,-9.248418,8.152527,-21.588455
75,0.09316854178905487,0.28726208209991455,78.10345458984375,0.8630316661527216,3.3608621907914307,-27.87647282532762,1.7712598,2.968485,32.571888,6.3665824,-10.667828,-3.3476517,-9.890312,-4.6966434,-2.219795,12.39226,-7.9297247,5.0853357,-3.245954,-2.066891,1.88213,3.916939,14.543946,-34.62404,56.810356,0.051453155,12.044805,17.156994,-1.298581,-12.628656,37.434105,57.325768,-9.373295,8.100964,-21.542204
76,0.11398167908191681,0.28820547461509705,78.10462951660156,0.8432253487501024,3.3872447652978397,-27.9057112118665,1.7655349,2.9840808,32.597874,6.364254,-10.689937,-3.3791447,-9.868098,-4.674858,-2.202688,12.301005,-7.8842926,5.0992217,-3.215226,-2.071421,1.8947612,3.9926856,14.623014,-34.558983,56.76459,0.07883843,12.060598,17.132254,-1.3469083,-12.642055,37.382168,57.31278,-9.451151,8.089009,-21.498264
77,0.1334381401538849,0.288552850484848,78.10462951660156,0.832367281054038,3.4123634260708293,-27.93244091338579,1.7603191,2.9888065,32.616177,6.363917,-10.704232,-3.3686938,-9.849864,-4.665462,-2.188583,12.226131,-7.8492317,5.1139884,-3.1787767,-2.0832672,1.9028381,4.0554476,14.687226,-34.491684,56.73181,0.098825425,12.063945,17.106731,-1.3809123,-12.652353,37.319935,57.275864,-9.469692,8.144562,-21.44884
78,0.15989932417869568,0.28871387243270874,78.10762023925781,0.8266227685165254,3.4350155161948885,-27.956660107411178,1.7577199,2.986919,32.62836,6.3639226,-10.712667,-3.3326654,-9.830221,-4.663785,-2.1778703,12.158657,-7.819691,5.1282682,-3.1410964,-2.1039915,1.915402,4.1302633,14.769995,-34.41734,56.666718,0.119461484,12.06194,17.07247,-1.3945198,-12.66457,37.244396,57.203022,-9.461579,8.247296,-21.386024
79,0.18100139498710632,0.2902362644672394,78.10960388183594,0.8205158532153403,3.4555728149762337,-27.97738261515902,1.7575245,2.9845023,32.63784,6.364612,-10.721886,-3.2901409,-9.807478,-4.662941,-2.1702447,12.093517,-7.793309,5.141718,-3.1032012,-2.116266,1.9160904,4.1808515,14.813797,-34.34556,56.64557,0.13524331,12.055118,17.04675,-1.3991,-12.671089,37.17503,57.143234,-9.439351,8.350646,-21.337883
80,0.2123951017856598,0.29458269476890564,78.11326599121094,0.809117295214992,3.474533583655573,-27.993729944042993,1.7595527,2.9875379,32.64815,6.3648343,-10.736901,-3.260273,-9.777673,-4.656562,-2.1653135,12.021294,-7.7657614,5.1540504,-3.0687277,-2.1294913,1.9245601,4.2569375,14.889645,-34.261738,56.575928,0.14542897,12.052688,17.026127,-1.3944489,-12.682659,37.121098,57.07861,-9.415507,8.4067545,-21.322853
81,0.24317775666713715,0.2939758896827698,78.11434173583984,0.7894946887722659,3.492000302566288,-28.003397943974154,1.7638828,2.998808,32.659824,6.366555,-10.762553,-3.2471824,-9.737658,-4.641202,-2.1648564,11.936425,-7.735187,5.1660686,-3.0395074,-2.135593,1.9302442,4.3410544,14.9742,-34.17652,56.49274,0.13508533,12.053264,17.021133,-1.3857894,-12.696066,37.100185,57.033203,-9.383979,8.393392,-21.365751
82,0.2718676030635834,0.29430124163627625,78.1129379272461,0.7642943549274552,3.507697296305437,-28.00771575844509,1.7713665,3.0149293,32.671192,6.365689,-10.791656,-3.2410326,-9.68889,-4.6204934,-2.1686587,11.842841,-7.703348,5.1776705,-3.005191,-2.1286802,1.9250537,4.403705,15.021545,-34.094894,56.450054,0.11915386,12.052009,17.032902,-1.3719729,-12.704182,37.093327,57.014313,-9.342449,8.338953,-21.449982
83,0.3050689697265625,0.29126837849617004,78.11256408691406,0.7383981077656447,3.521714659939607,-28.010617575687164,1.7806064,3.0318217,32.68196,6.367158,-10.82464,-3.2398067,-9.639206,-4.599477,-2.1726832,11.753077,-7.6742225,5.187062,-2.9841104,-2.1218727,1.9204109,4.4809675,15.078654,-33.998257,56.386772,0.10189712,12.052271,17.04434,-1.3467513,-12.714784,37.100307,56.98954,-9.302871,8.273605,-21.538662
84,0.33598271012306213,0.29061567783355713,78.1114730834961,0.7157982369789392,3.534228948559249,-28.016383546260546,1.7921919,3.0451741,32.692055,6.3679137,-10.85548,-3.2415268,-9.595232,-4.582698,-2.1733432,11.677803,-7.6515293,5.192475,-2.96991,-2.1197042,1.9201827,4.571649,15.146127,-33.891758,56.30197,0.09435357,12.054788,17.047623,-1.3234988,-12.726413,37.11611,56.960835,-9.254225,8.2270775,-21.597427
85,0.36813047528266907,0.2913411259651184,78.11231994628906,0.6976336251197875,3.543280492867088,-28.027752940541653,1.8099523,3.053166,32.702637,6.365893,-10.883282,-3.247226,-9.558277,-4.570857,-2.1676767,11.622933,-7.6369834,5.1906567,-2.9564452,-2.117386,1.9170182,4.652823,15.195068,-33.786156,56.237194,0.09799123,12.056814,17.042847,-1.2975049,-12.7340355,37.128407,56.937935,-9.197046,8.20884,-21.614147
86,0.3936266601085663,0.2943410575389862,78.11017608642578,0.6814694177634161,3.5494739622078244,-28.042023745422245,1.8306707,3.059467,32.71336,6.366316,-10.912187,-3.2573988,-9.524904,-4.5618024,-2.1583235,11.581537,-7.6281333,5.1835637,-2.9448369,-2.1137648,1.9111289,4.7281246,15.230021,-33.678936,56.185444,0.108089946,12.058597,17.034615,-1.2701403,-12.739128,37.145214,56.92325,-9.129435,8.202512,-21.6086
87,0.42329198122024536,0.29673996567726135,78.10951232910156,0.6663691048889411,3.5565229040858695,-28.054942352784952,1.8511822,3.06376,32.721733,6.36477,-10.939697,-3.2693193,-9.495088,-4.5547385,-2.1500149,11.547408,-7.6242666,5.1768475,-2.9461405,-2.1122806,1.9058541,4.815318,15.268761,-33.5568,56.118416,0.12447691,12.06329,17.025606,-1.2367787,-12.743516,37.171272,56.904526,-9.07596,8.199124,-21.595018
88,0.4623492658138275,0.29371851682662964,78.11071014404297,0.6516001923870769,3.567919774353132,-28.06253077677152,1.8648748,3.067775,32.725048,6.365942,-10.968283,-3.28016,-9.468632,-4.5495996,-2.147448,11.513657,-7.623783,5.1763906,-2.9442263,-2.114062,1.8990679,4.8885283,15.303543,-33.44961,56.060726,0.1313207,12.071528,17.025927,-1.1991113,-12.745621,37.19401,56.891136,-9.052909,8.188765,-21.588942
89,0.49604806303977966,0.2898236811161041,78.10977935791016,0.6361992030197818,3.58557254472784,-28.063528964153928,1.8712307,3.0709834,32.721138,6.3653545,-10.996073,-3.291056,-9.445946,-4.545758,-2.152713,11.478634,-7.628048,5.1855116,-2.9315934,-2.119724,1.8883287,4.934956,15.328451,-33.367046,56.024837,0.11772405,12.085874,17.044456,-1.1491339,-12.745231,37.206905,56.881264,-9.078689,8.165176,-21.597958
90,0.527565062046051,0.29437369108200073,78.10762786865234,0.6211134645343238,3.6072358028490092,-28.060146227296098,1.8713127,3.073984,32.711987,6.3658953,-11.023547,-3.3028765,-9.4270525,-4.5438695,-2.1629257,11.445773,-7.6369843,5.2006116,-2.9175086,-2.1296582,1.8758239,4.972762,15.350611,-33.290977,55.992584,0.09656651,12.105295,17.073479,-1.0908628,-12.7431135,37.2189,56.873734,-9.138533,8.1347685,-21.612915
91,0.5621119141578674,0.29285430908203125,78.10403442382812,0.6068152249791213,3.6305341165865044,-28.053634515231522,1.8702297,3.0747876,32.701107,6.364748,-11.049743,-3.3123858,-9.410893,-4.543888,-2.1757271,11.416788,-7.64835,5.2167845,-2.9073863,-2.1388059,1.8623711,5.005108,15.368499,-33.22321,55.965652,0.07720162,12.124478,17.101236,-1.0303874,-12.739709,37.228275,56.869167,-9.209383,8.106922,-21.623123
92,0.5991239547729492,0.2930459678173065,78.10210418701172,0.593887615335382,3.6529776186342513,-28.045266087292784,1.8691667,3.0737436,32.691986,6.3646545,-11.074437,-3.31638,-9.397131,-4.5464797,-2.1885939,11.395126,-7.6606374,5.229248,-2.9147542,-2.1445723,1.8513683,5.040354,15.387179,-33.155922,55.93723,0.070230454,12.138085,17.112967,-0.9737825,-12.734075,37.238495,56.864494,-9.270465,8.091364,-21.618004
93,0.6352469325065613,0.29547399282455444,78.1010513305664,0.583686338373494,3.6738914891812606,-28.033723547228853,1.868459,3.0689178,32.685852,6.3657975,-11.096306,-3.3113322,-9.385862,-4.553511,-2.2017226,11.382584,-7.6736217,5.2377696,-2.9290848,-2.1417806,1.8380576,5.0565805,15.393539,-33.12226,55.937378,0.06578052,12.143792,17.10596,-0.91631496,-12.731045,37.23791,56.86019,-9.319338,8.090223,-21.59337
94,0.6701725721359253,0.299757182598114,78.09872436523438,0.5756035158222227,3.694462511867157,-28.019197578935234,1.8674244,3.0610917,32.680855,6.365933,-11.114634,-3.2999518,-9.37753,-4.5640574,-2.2159498,11.377832,-7.6882405,5.244528,-2.9699483,-2.139191,1.8303134,5.0830965,15.405323,-33.06582,55.928154,0.08714302,12.14501,17.078083,-0.8689745,-12.723762,37.240776,56.85712,-9.37357,8.098042,-21.552145
95,0.7058678865432739,0.3017728328704834,78.09728240966797,0.567362017397535,3.715493184817733,-28.004367268172803,1.866482,3.0529323,32.675686,6.3661275,-11.133739,-3.2879045,-9.371324,-4.5747285,-2.2300582,11.376958,-7.704004,5.2484593,-3.0203412,-2.1361887,1.8237522,5.113289,15.422033,-33.0135,55.910187,0.10672022,12.1437,17.047924,-0.8292394,-12.709369,37.25286,56.86366,-9.411483,8.113957,-21.505703
96,0.7401412129402161,0.3011283576488495,78.09696960449219,0.5565317284833421,3.738247436582641,-27.993209244679466,1.865504,3.0480523,32.670147,6.365848,-11.155866,-3.281192,-9.366745,-4.5817223,-2.2420335,11.375632,-7.7195153,5.2484827,-3.0486698,-2.1318252,1.8134652,5.1240993,15.430535,-32.989613,55.906586,0.109686084,12.139254,17.033148,-0.7666745,-12.698272,37.254196,56.859394,-9.427466,8.137874,-21.460613
97,0.7745649218559265,0.29999491572380066,78.09526062011719,0.5415300999170363,3.7631026255626736,-27.984895659128263,1.8636125,3.0490756,32.661747,6.367139,-11.183633,-3.281808,-9.364977,-4.583407,-2.252817,11.375443,-7.734738,5.2410636,-3.062188,-2.125598,1.8035092,5.1254478,15.436001,-32.979664,55.902092,0.09824743,12.130145,17.036734,-0.6939269,-12.687465,37.25242,56.85229,-9.401504,8.176206,-21.413923
98,0.8152521252632141,0.29710856080055237,78.09269714355469,0.5239704589506079,3.789720413251422,-27.978496480841056,1.8612862,3.053083,32.651924,6.3680363,-11.214529,-3.2864597,-9.366186,-4.581806,-2.2628188,11.377545,-7.7497764,5.227764,-3.0667465,-2.1238537,1.7894741,5.1239066,15.446018,-32.981487,55.896122,0.07956006,12.117488,17.049728,-0.616201,-12.659186,37.242275,56.85727,-9.35313,8.225897,-21.364653
99,0.8566919565200806,0.29620373249053955,78.09030151367188,0.5064542173665882,3.8166019329612513,-27.975427695952703,1.8597125,3.057059,32.644283,6.368687,-11.2459955,-3.2930093,-9.3677025,-4.5795565,-2.269846,11.378942,-7.7658,5.215504,-3.064366,-2.122787,1.77607,5.113194,15.45356,-32.996044,55.89308,0.05592149,12.105311,17.066486,-0.5396502,-12.627793,37.23884,56.868927,-9.297849,8.274118,-21.319727
100,0.8925060033798218,0.29895666241645813,78.0882797241211,0.49232195829506764,3.842344761461491,-27.977590655913275,1.8607136,3.0565112,32.643127,6.3690596,-11.276819,-3.299139,-9.368355,-4.5796914,-2.2714174,11.3796835,-7.7849903,5.2111287,-3.0601306,-2.1220162,1.7669723,5.1050344,15.456649,-33.005817,55.87982,0.047238234,12.099697,17.0785,-0.46393088,-12.604114,37.2523,56.87572,-9.26085,8.307813,-21.28509
101,0.9343622922897339,0.3011663556098938,78.0877685546875,0.4837809858193795,3.8658588058572256,-27.987046115224885,1.8652238,3.0493977,32.650425,6.368225,-11.305079,-3.30468,-9.36861,-4.5841975,-2.2648404,11.382581,-7.8112087,5.2178683,-3.0593042,-2.1256535,1.7569824,5.1000566,15.457547,-33.013798,55.863884,0.052082997,12.103359,17.084837,-0.40389645,-12.57151,37.295654,56.91085,-9.253673,8.317787,-21.272188
102,0.9740961790084839,0.3021419644355774,78.08406066894531,0.4785862165275374,3.8879835676611645,-28.002394367692187,1.8733011,3.0375519,32.663654,6.3667274,-11.333638,-3.310674,-9.368732,-4.590899,-2.252203,11.386846,-7.8421984,5.2315416,-3.0668597,-2.133402,1.7454007,5.1034293,15.453381,-33.008335,55.842884,0.07438775,12.113115,17.089249,-0.36724612,-12.520064,37.373817,56.98058,-9.255052,8.313983,-21.27656
103,1.015121340751648,0.3024711608886719,78.0816650390625,0.47349720992485045,3.910923466535004,-28.019877710898324,1.8805445,3.0253823,32.680065,6.3650494,-11.361017,-3.3171818,-9.367451,-4.5973454,-2.2379072,11.384977,-7.8701463,5.248123,-3.0714562,-2.1381538,1.7370759,5.102417,15.446572,-33.004745,55.814766,0.094453596,12.123981,17.090645,-0.31982914,-12.484161,37.45113,57.030064,-9.266362,8.305155,-21.277248
104,1.0523011684417725,0.30740487575531006,78.07666015625,0.46506585656190247,3.936702510565356,-28.03579077210851,1.8842783,3.0162687,32.6965,6.361797,-11.386046,-3.3241339,-9.364744,-4.60093,-2.226604,11.372503,-7.888342,5.263539,-3.0821896,-2.1390831,1.7263566,5.103541,15.435723,-32.990326,55.77797,0.10627788,12.131012,17.08928,-0.2768968,-12.446777,37.526928,57.076458,-9.273446,8.298193,-21.262732
105,1.0881215333938599,0.3121432065963745,78.07380676269531,0.45198023371915885,3.96500846359096,-28.048774150890086,1.8829652,3.0124493,32.71394,6.361685,-11.4115925,-3.3330774,-9.357071,-4.60065,-2.220262,11.343416,-7.8929176,5.2794065,-3.0922155,-2.1354983,1.7142088,5.1036806,15.425191,-32.972935,55.728466,0.100937426,12.133524,17.081142,-0.21910712,-12.418551,37.5844,57.097324,-9.282048,8.291799,-21.22647
106,1.129664421081543,0.3180880546569824,78.07390594482422,0.43630433627753734,3.995139350140874,-28.06084803102664,1.8796216,3.0107653,32.73315,6.360108,-11.434953,-3.3435757,-9.346223,-4.598071,-2.2163079,11.302788,-7.888642,5.297078,-3.108043,-2.128901,1.699461,5.103482,15.411462,-32.948082,55.672417,0.08497089,12.133373,17.067509,-0.17234424,-12.387322,37.648388,57.125263,-9.283078,8.281792,-21.17892
107,1.1662540435791016,0.32053256034851074,78.0714111328125,0.4196350805749002,4.02817993553547,-28.073592792891315,1.8723142,3.0103765,32.75185,6.3591366,-11.457614,-3.3522413,-9.338306,-4.5945373,-2.2117593,11.25952,-7.8805704,5.311742,-3.1347013,-2.1218472,1.6793451,5.1044006,15.387756,-32.909027,55.6198,0.07066712,12.131014,17.057484,-0.13553503,-12.339476,37.71479,57.16758,-9.295021,8.275499,-21.125658
108,1.2038055658340454,0.32534316182136536,78.06885528564453,0.403944668739478,4.0655025840783106,-28.088377941918548,1.8597791,3.0093791,32.7674,6.3576365,-11.478775,-3.3558314,-9.339552,-4.591657,-2.203831,11.22229,-7.874242,5.318758,-3.1433134,-2.1134026,1.6721623,5.0986085,15.376083,-32.890083,55.54676,0.052080464,12.128479,17.055685,-0.079806894,-12.318757,37.75218,57.162727,-9.319672,8.279643,-21.060667
109,1.2415159940719604,0.32636094093322754,78.06712341308594,0.3894127596334463,4.108641491421671,-28.106270241326143,1.8409001,3.007185,32.77797,6.3555555,-11.499165,-3.3510275,-9.354925,-4.5896587,-2.190289,11.196022,-7.8724456,5.313019,-3.164678,-2.103442,1.6660575,5.0896163,15.358068,-32.864265,55.47609,0.025617644,12.123194,17.077019,-0.037851606,-12.29046,37.792072,57.15877,-9.359798,8.300352,-20.982798
110,1.2807080745697021,0.32587456703186035,78.06511688232422,0.3750888428832062,4.156657018193481,-28.126063484208064,1.8144529,3.0060534,32.785313,6.357483,-11.520516,-3.340396,-9.379977,-4.5878716,-2.1732733,11.175207,-7.871862,5.2983036,-3.189963,-2.091366,1.6601144,5.0786953,15.332862,-32.83267,55.405617,-0.0018001883,12.114721,17.113155,-0.010530429,-12.25532,37.82675,57.162983,-9.410997,8.330282,-20.89158
111,1.3183178901672363,0.33447587490081787,78.0649642944336,0.36114918810844365,4.206320620668843,-28.14664078296412,1.7862442,3.0047946,32.79228,6.3568745,-11.538965,-3.329384,-9.407864,-4.585994,-2.1557317,11.15504,-7.8695393,5.283223,-3.2016296,-2.0808632,1.6638678,5.0630856,15.318638,-32.81858,55.3151,-0.028689785,12.108935,17.142157,0.042292524,-12.236757,37.84141,57.12406,-9.472857,8.364981,-20.804487
112,1.3509172201156616,0.34282878041267395,78.064453125,0.34823371432874944,4.254982644948242,-28.16564250551556,1.7589374,3.0029168,32.80087,6.356732,-11.557447,-3.323193,-9.433896,-4.5845575,-2.1415,11.134486,-7.8642955,5.2764525,-3.2192912,-2.0718327,1.662737,5.036097,15.298335,-32.796223,55.2441,-0.025949962,12.102084,17.140762,0.06685687,-12.211069,37.87897,57.130753,-9.517986,8.389021,-20.746172
113,1.3889356851577759,0.34588778018951416,78.06312561035156,0.33664719812758237,4.301996127397465,-28.184617292811534,1.7334322,3.000699,32.813644,6.3554845,-11.573686,-3.325196,-9.457496,-4.583092,-2.1300876,11.11286,-7.8532863,5.2822433,-3.2305522,-2.068311,1.6610733,5.0051823,15.272111,-32.769783,55.173264,0.022926468,12.101501,17.094538,0.091114156,-12.176697,37.932167,57.152683,-9.55537,8.40669,-20.732939
114,1.4237428903579712,0.3517901301383972,78.06218719482422,0.3259368319026344,4.348752607489466,-28.203917774897175,1.7073568,2.9986036,32.82863,6.354918,-11.589103,-3.331933,-9.481531,-4.581656,-2.1202493,11.092307,-7.838855,5.29532,-3.2325754,-2.0687168,1.6632167,4.964174,15.249329,-32.750813,55.099857,0.096439324,12.104852,17.017431,0.11400633,-12.144275,37.990864,57.177105,-9.585756,8.421476,-20.747904
115,1.4519927501678467,0.35285475850105286,78.06028747558594,0.315332180287446,4.395250695475942,-28.22092656820863,1.681233,2.996427,32.842785,6.353806,-11.603981,-3.3388517,-9.503124,-4.580324,-2.1128104,11.068515,-7.823263,5.309982,-3.2405243,-2.0687993,1.6655064,4.9212785,15.227589,-32.73243,55.02615,0.17083253,12.105732,16.936613,0.12799095,-12.1104555,38.052635,57.21229,-9.609747,8.430307,-20.768484
116,1.482620358467102,0.3568982779979706,78.06210327148438,0.3036201960433823,4.440770333069398,-28.233422690081554,1.6548299,2.9951222,32.853466,6.353178,-11.619731,-3.341555,-9.51951,-4.5785527,-2.1082792,11.037994,-7.8092594,5.3203683,-3.2663503,-2.0670016,1.6629004,4.882123,15.197004,-32.706924,54.960083,0.22842547,12.101404,16.88327,0.13169484,-12.058074,38.10921,57.262543,-9.634558,8.4356575,-20.77571
117,1.514082670211792,0.3565817177295685,78.06214141845703,0.2898607782984882,4.4842053479210415,-28.239176936070326,1.6299709,2.9948664,32.859745,6.3529186,-11.637908,-3.337804,-9.52643,-4.575965,-2.108538,10.99636,-7.796749,5.322834,-3.301954,-2.0602636,1.6648924,4.8460765,15.172444,-32.695255,54.885536,0.25281826,12.090201,16.864992,0.13905019,-12.011194,38.14305,57.29775,-9.657819,8.431068,-20.753845
118,1.5456717014312744,0.3594769835472107,78.06002807617188,0.27484583538024543,4.526137616389821,-28.239925207070268,1.6057119,2.9956684,32.863213,6.3534226,-11.657395,-3.3303812,-9.526556,-4.572949,-2.1127431,10.947167,-7.7847786,5.321174,-3.3476155,-2.0503125,1.6693529,4.811573,15.151406,-32.690678,54.806087,0.25841597,12.0743265,16.86563,0.1477098,-11.966096,38.16423,57.32598,-9.680597,8.418567,-20.717413
119,1.5817298889160156,0.3618587851524353,78.05975341796875,0.26041707259255964,4.569174935135173,-28.23939373571616,1.5797304,2.9955747,32.86463,6.3531003,-11.676189,-3.321914,-9.527085,-4.5704217,-2.1171985,10.895324,-7.773032,5.3208876,-3.392556,-2.0416176,1.6759557,4.778024,15.136007,-32.687363,54.717354,0.25212717,12.056741,16.8754,0.16644242,-11.928821,38.172768,57.333744,-9.704794,8.409603,-20.679302
120,1.613417625427246,0.36496198177337646,78.0582275390625,0.2484051962700264,4.615667266989001,-28.24134487096677,1.548007,2.9943457,32.86472,6.3541284,-11.693574,-3.3151731,-9.53487,-4.569461,-2.1185827,10.846537,-7.7618446,5.3273787,-3.4254405,-2.0387836,1.683407,4.734828,15.122619,-32.68384,54.62906,0.23749343,12.040039,16.885458,0.17679003,-11.890631,38.181164,57.338806,-9.7152195,8.414703,-20.654491
121,1.6369905471801758,0.3725050389766693,78.06085968017578,0.23968603262621246,4.667634183981435,-28.24752776803306,1.5097187,2.9899082,32.86279,6.353484,-11.707187,-3.310573,-9.553605,-4.570427,-2.1149733,10.801568,-7.749809,5.343148,-3.4471455,-2.0433495,1.6894635,4.680381,15.113555,-32.6785,54.54195,0.20082973,12.019996,16.8953,0.20147093,-11.856256,38.1773,57.31966,-9.730236,8.442977,-20.647463
122,1.6643577814102173,0.37563174962997437,78.05906677246094,0.23288666973014774,4.723342402446889,-28.25568325473981,1.4650953,2.9844828,32.858803,6.3550196,-11.720037,-3.3068125,-9.578394,-4.572472,-2.1086254,10.756446,-7.736871,5.364975,-3.4610655,-2.0451488,1.6968147,4.6355805,15.112108,-32.674534,54.430614,0.14609882,11.997274,16.909657,0.23640183,-11.849549,38.17552,57.267708,-9.727312,8.485859,-20.647276
123,1.6912626028060913,0.37003928422927856,78.05565643310547,0.227580351138938,4.779470893721666,-28.26332502605628,1.4202043,2.9775138,32.85433,6.3549895,-11.732179,-3.303748,-9.605894,-4.575741,-2.1019356,10.715072,-7.726996,5.389644,-3.4661906,-2.0672007,1.7027134,4.5503173,15.102251,-32.668633,54.3668,0.09949327,11.979353,16.92529,0.23281382,-11.7779255,38.156788,57.27677,-9.734873,8.529689,-20.659657
124,1.7206058502197266,0.3665156960487366,78.05440521240234,0.22318692487962785,4.833813644647869,-28.267733817233623,1.3776731,2.9699543,32.85107,6.354274,-11.746153,-3.3011804,-9.632947,-4.5805507,-2.0972035,10.679805,-7.723165,5.4144135,-3.4765103,-2.086013,1.7054029,4.479729,15.097996,-32.665596,54.28698,0.06985581,11.976779,16.940603,0.24196744,-11.719464,38.144855,57.266674,-9.744354,8.562941,-20.67005
125,1.7465468645095825,0.36813196539878845,78.04993438720703,0.21999153660348553,4.885986448858509,-28.26886498425285,1.3375441,2.9622,32.851006,6.35405,-11.764452,-3.3009586,-9.660541,-4.586598,-2.0947971,10.653861,-7.729252,5.440869,-3.4839528,-2.1020596,1.7180897,4.408147,15.097525,-32.664783,54.190727,0.07250326,12.001898,16.948763,0.26235458,-11.69529,38.14169,57.20692,-9.733554,8.589811,-20.670275
126,1.7744157314300537,0.3706418573856354,78.04915618896484,0.2182353968155723,4.937385529584277,-28.267880750419014,1.2989049,2.9533165,32.852688,6.353007,-11.785102,-3.3025284,-9.690641,-4.5942345,-2.0933921,10.636556,-7.743187,5.4698253,-3.4886844,-2.1227171,1.7299671,4.3309994,15.098423,-32.666153,54.096306,0.09609179,12.047085,16.954386,0.27661258,-11.66821,38.136616,57.147694,-9.719783,8.613004,-20.669924
127,1.7972081899642944,0.3721473217010498,78.04566955566406,0.21694484735552397,4.987247699101109,-28.264202761949775,1.2615843,2.943812,32.852898,6.3524833,-11.805871,-3.3020983,-9.719363,-4.6030126,-2.0933485,10.621198,-7.7583337,5.4968266,-3.4919407,-2.1460872,1.7383602,4.2493014,15.100912,-32.672367,54.01378,0.12152153,12.086925,16.963707,0.27545905,-11.616836,38.128902,57.124428,-9.717371,8.619086,-20.676384
128,1.817961573600769,0.3720124661922455,78.0443344116211,0.2147006872145013,5.035017833932553,-28.25675436870568,1.2257276,2.9339495,32.84782,6.352146,-11.823612,-3.2957811,-9.742261,-4.6126103,-2.0955858,10.60103,-7.7686577,5.517557,-3.4989867,-2.157494,1.7552822,4.1726923,15.102411,-32.679184,53.925358,0.13343792,12.100435,16.98633,0.28259793,-11.596274,38.141518,57.083313,-9.715333,8.610815,-20.694248
129,1.8415980339050293,0.37458252906799316,78.04369354248047,0.21354745128402144,5.079346075758992,-28.242891269530407,1.1923473,2.92022,32.833893,6.352572,-11.8364,-3.2751043,-9.758248,-4.6263037,-2.1002336,10.576833,-7.774448,5.5330253,-3.5125244,-2.1621456,1.7756525,4.1001043,15.103621,-32.692665,53.844955,0.122911505,12.068029,17.033932,0.28026748,-11.575307,38.173256,57.076283,-9.729504,8.572804,-20.743797
130,1.8729649782180786,0.3763740360736847,78.04202270507812,0.21307056832175775,5.1211211951531785,-28.223595470389906,1.1604128,2.9042308,32.813694,6.3534837,-11.845709,-3.244646,-9.769375,-4.6427636,-2.1072125,10.550711,-7.7780714,5.544782,-3.5346298,-2.1609292,1.7971823,4.0324335,15.10399,-32.708504,53.76933,0.099314235,12.005886,17.099174,0.26380375,-11.549762,38.227932,57.10033,-9.74882,8.511188,-20.816416
131,1.9029160737991333,0.37465718388557434,78.04041290283203,0.20986507697088813,5.162565187784108,-28.204719835011858,1.1293695,2.8915927,32.793945,6.354911,-11.856377,-3.2199905,-9.778903,-4.6561894,-2.115333,10.523245,-7.7785997,5.549434,-3.5505664,-2.1542675,1.8204429,3.96271,15.103474,-32.72208,53.69542,0.07755373,11.944179,17.160315,0.24682298,-11.534726,38.28066,57.119534,-9.76946,8.445655,-20.877178
132,1.936988353729248,0.3757573068141937,78.03811645507812,0.20056948332073735,5.206224537041238,-28.191720587451798,1.0986673,2.8874793,32.78121,6.3555946,-11.872569,-3.2166731,-9.790323,-4.6606665,-2.123521,10.495209,-7.7755623,5.5434847,-3.563362,-2.1440427,1.8312966,3.9069262,15.100938,-32.715294,53.61578,0.0742443,11.912961,17.19797,0.23131195,-11.518244,38.327587,57.134483,-9.7876,8.393577,-20.899
133,1.9704182147979736,0.37296387553215027,78.037353515625,0.1807541049872693,5.253887109358238,-28.18729170084871,1.0674679,2.8981683,32.779823,6.3547087,-11.898475,-3.2523174,-9.805884,-4.650244,-2.132333,10.466758,-7.767037,5.5214195,-3.559512,-2.1281862,1.8289946,3.8563805,15.097482,-32.69175,53.53174,0.09733576,11.929341,17.199692,0.23443307,-11.508093,38.34294,57.11899,-9.812718,8.356575,-20.8567
134,2.0033912658691406,0.3714824914932251,78.03620910644531,0.15377569701133564,5.3041177332096145,-28.187572204331293,1.0365785,2.918448,32.785152,6.353241,-11.931505,-3.3140175,-9.822981,-4.630037,-2.142236,10.43684,-7.7536798,5.4867077,-3.545603,-2.1060925,1.8143551,3.8124,15.094548,-32.663017,53.445644,0.13151708,11.974305,17.18006,0.24919127,-11.503689,38.341717,57.090397,-9.842346,8.32542,-20.773119
135,2.035090446472168,0.370353102684021,78.03368377685547,0.12626004359810042,5.35329760430943,-28.189909276347347,1.0072829,2.9394565,32.79136,6.35207,-11.962998,-3.372108,-9.838927,-4.6089096,-2.151585,10.407569,-7.739803,5.449045,-3.5454412,-2.0815325,1.8039286,3.776077,15.081754,-32.589245,53.359848,0.18917425,12.022206,17.147627,0.2415457,-11.493932,38.346485,57.078472,-9.877654,8.302382,-20.678322
136,2.068444013595581,0.36977002024650574,78.03397369384766,0.10581311617295032,5.39922951897,-28.191058795141945,0.97999996,2.9512656,32.792816,6.353048,-11.985812,-3.3966782,-9.853663,-4.5964475,-2.1583405,10.382375,-7.7299323,5.418304,-3.534028,-2.0605924,1.7982634,3.73897,15.072142,-32.54147,53.27532,0.2183577,12.050979,17.131166,0.22627951,-11.490259,38.361366,57.0783,-9.894662,8.29138,-20.609846
137,2.102908134460449,0.3698961138725281,78.0354995727539,0.09560387506563987,5.4401005506163855,-28.19037040015392,0.95681894,2.949009,32.786686,6.354095,-11.993512,-3.3685193,-9.866139,-4.596905,-2.1618488,10.363604,-7.725712,5.395943,-3.5256925,-2.043125,1.8020341,3.708181,15.0641365,-32.494774,53.187244,0.22203599,12.047895,17.128857,0.19538404,-11.488888,38.392147,57.10383,-9.9131775,8.295944,-20.568842
138,2.1366069316864014,0.3699042797088623,78.03540802001953,0.09158069345487721,5.4777858837351685,-28.189798569639105,0.93577373,2.9389849,32.77695,6.358332,-11.993722,-3.307275,-9.877206,-4.6048617,-2.1627202,10.349037,-7.7244587,5.377131,-3.5530205,-2.0213854,1.8099285,3.6988418,15.044444,-32.398766,53.094105,0.2245539,12.026641,17.129158,0.12554826,-11.487028,38.48057,57.166374,-9.915204,8.314976,-20.542921
139,2.170231342315674,0.37127846479415894,78.0378189086914,0.08903264094666703,5.51424572917976,-28.188570466899407,0.9168103,2.9262676,32.76582,6.3599105,-11.99016,-3.2413492,-9.886119,-4.6148577,-2.1632676,10.332885,-7.723767,5.362148,-3.5746634,-2.0022686,1.8183308,3.6857624,15.023897,-32.315178,53.00969,0.22265002,12.003391,17.135813,0.05703704,-11.486305,38.559135,57.22816,-9.91096,8.339117,-20.53313
140,2.20005464553833,0.37323763966560364,78.03939819335938,0.08410485055825478,5.5512560797777795,-28.186054176008675,0.8965041,2.9179065,32.755993,6.3629465,-11.992416,-3.1992095,-9.889921,-4.6216354,-2.1654387,10.304625,-7.7183967,5.351407,-3.57055,-1.9913343,1.826921,3.6569784,15.015484,-32.27558,52.935284,0.22058038,11.994562,17.14803,0.016906954,-11.486408,38.58446,57.254192,-9.90426,8.359501,-20.540838
141,2.22920823097229,0.3714807629585266,78.03840637207031,0.07603595337701374,5.590063175233936,-28.182819148389672,0.874217,2.914278,32.748558,6.3639565,-11.999033,-3.1898925,-9.888296,-4.6243787,-2.1683936,10.259389,-7.705301,5.345926,-3.5892138,-1.9792426,1.8368399,3.631967,14.9966,-32.207016,52.869522,0.2562296,12.006187,17.163641,-0.034904756,-11.487224,38.61505,57.271595,-9.867892,8.370425,-20.58504
142,2.261087417602539,0.3686429560184479,78.04000091552734,0.06670620695715085,5.629718152509771,-28.178906323898765,0.8513418,2.9119818,32.742176,6.363997,-12.008127,-3.1977284,-9.882049,-4.6256394,-2.171539,10.202304,-7.6874247,5.3450885,-3.591309,-1.973341,1.8451518,3.5970967,14.983225,-32.168343,52.813988,0.2950391,12.03081,17.188223,-0.06254997,-11.488396,38.60677,57.26254,-9.827356,8.377155,-20.657759
143,2.2943642139434814,0.3637717068195343,78.03892517089844,0.056266926833705995,5.667783038028508,-28.173171325733733,0.8302349,2.9121883,32.73487,6.3633413,-12.019018,-3.2140503,-9.871745,-4.6253285,-2.1774678,10.141729,-7.6699314,5.3471484,-3.5909333,-1.9715805,1.8481592,3.5640867,14.978207,-32.151146,52.764175,0.3250717,12.055621,17.213453,-0.08720444,-11.489168,38.591904,57.246254,-9.775121,8.391024,-20.729073
144,2.325660467147827,0.3611873388290405,78.04120635986328,0.04472973225928312,5.701341531956408,-28.165039634939287,0.81412786,2.9150462,32.725246,6.3638315,-12.033658,-3.2300973,-9.856143,-4.6236553,-2.1883419,10.084657,-7.6579094,5.3503094,-3.5971122,-1.967556,1.8617513,3.519466,14.966886,-32.12851,52.72738,0.35068718,12.068263,17.226639,-0.12440266,-11.491772,38.557236,57.224224,-9.741897,8.42205,-20.762053
145,2.356016159057617,0.35605213046073914,78.04200744628906,0.031438484691591884,5.728080821339154,-28.152645060810098,0.806029,2.9219909,32.710835,6.3641076,-12.051031,-3.2455406,-9.832416,-4.6192756,-2.2074196,10.032846,-7.653532,5.3535314,-3.6123173,-1.9664203,1.8667485,3.4783,14.958028,-32.119545,52.708946,0.35593617,12.06057,17.228632,-0.14745748,-11.494878,38.507557,57.181263,-9.729732,8.492413,-20.729479
146,2.385014533996582,0.3504655063152313,78.03899383544922,0.01698688577181434,5.750729333787553,-28.13680385061391,0.80233085,2.9321196,32.693176,6.3648763,-12.07133,-3.2642865,-9.801507,-4.6134176,-2.2327967,9.98066,-7.6530824,5.3581233,-3.6479833,-1.9667546,1.8615408,3.4551158,14.955651,-32.118546,52.690254,0.33761245,12.042817,17.228031,-0.17529175,-11.496594,38.47445,57.134613,-9.7058935,8.591146,-20.662264
147,2.4129245281219482,0.3439801037311554,78.03683471679688,0.001985457498121634,5.771929502421439,-28.121164947343356,0.8003051,2.943294,32.676388,6.36596,-12.094527,-3.2839842,-9.769691,-4.606456,-2.2585554,9.929763,-7.6546874,5.3651733,-3.6504524,-1.9690241,1.8721994,3.3983872,14.954342,-32.144516,52.689007,0.32329473,12.02327,17.218199,-0.19440854,-11.502366,38.38202,57.07215,-9.715077,8.676995,-20.594467
148,2.443514108657837,0.33728939294815063,78.03466796875,-0.012820139684292504,5.7975144687330635,-28.108565640237103,0.79457545,2.9531803,32.664085,6.365135,-12.1189995,-3.303607,-9.743796,-4.5995,-2.2798712,9.876975,-7.6538935,5.375826,-3.663786,-1.966514,1.8735936,3.3561144,14.957142,-32.168964,52.679497,0.30661324,12.012992,17.208878,-0.2212418,-11.508185,38.335392,57.036003,-9.714654,8.716138,-20.595245
149,2.470353841781616,0.33115342259407043,78.030029296875,-0.02741106851734196,5.82997987191656,-28.099425192574238,0.7805256,2.9616191,32.65755,6.3640246,-12.1464405,-3.3231068,-9.726781,-4.5927763,-2.29574,9.82064,-7.649348,5.394322,-3.677237,-1.9581321,1.8730948,3.3181303,14.960277,-32.188145,52.658836,0.3052556,12.019053,17.192682,-0.25750932,-11.512361,38.321056,57.029263,-9.718087,8.6807375,-20.694672
150,2.4993624687194824,0.3274211287498474,78.02566528320312,-0.04215787703973534,5.865575216502368,-28.0924201134411,0.7624489,2.9700146,32.65471,6.363988,-12.1778345,-3.343452,-9.714045,-4.5859118,-2.3087234,9.762025,-7.6428003,5.418713,-3.6740046,-1.9469061,1.8793766,3.2583683,14.968418,-32.235374,52.64416,0.29357857,12.033831,17.172451,-0.29722285,-11.52192,38.307438,57.033745,-9.726293,8.59447,-20.857105
151,2.528082847595215,0.31941697001457214,78.02195739746094,-0.05682666445074072,5.901185767141233,-28.087753842168034,0.7456411,2.9780836,32.654896,6.3626466,-12.208979,-3.3619306,-9.70256,-4.5784516,-2.3186545,9.705737,-7.6378913,5.4409876,-3.6770465,-1.9343174,1.8814145,3.2130089,14.976777,-32.26872,52.628998,0.2925909,12.047089,17.152802,-0.34055445,-11.531318,38.30921,57.047176,-9.7361965,8.501793,-21.028574
152,2.5546133518218994,0.3153959810733795,78.02082061767578,-0.07079024325491676,5.931957365906,-28.087331651139714,0.7367401,2.9855554,32.658863,6.3598857,-12.238036,-3.3760548,-9.6912775,-4.570393,-2.32373,9.661108,-7.6392837,5.453193,-3.6825542,-1.9296496,1.8703945,3.1920938,14.981244,-32.280396,52.62567,0.30606678,12.049454,17.143099,-0.37218398,-11.536216,38.312733,57.04688,-9.749938,8.453426,-21.143116
153,2.5817618370056152,0.3083881139755249,78.01934814453125,-0.08610401081364677,5.956004104225021,-28.09076424639811,0.7355192,2.9966877,32.667084,6.361483,-12.266605,-3.3841486,-9.673388,-4.5588994,-2.3247032,9.61997,-7.6439266,5.4489512,-3.669431,-1.9245707,1.885391,3.146121,14.996875,-32.31176,52.63794,0.29450598,12.031023,17.146246,-0.4193678,-11.551384,38.320778,57.043236,-9.727455,8.440424,-21.228876
154,2.6132864952087402,0.3004448115825653,78.01972961425781,-0.10087108415727604,5.975635043667452,-28.097793720636847,0.74160665,3.0071995,32.679806,6.3617845,-12.293664,-3.3877738,-9.655694,-4.546701,-2.3207042,9.5904045,-7.655771,5.434198,-3.6584685,-1.9270164,1.890974,3.1255822,15.015199,-32.3221,52.65405,0.3009759,12.002308,17.15491,-0.45408168,-11.567556,38.332188,57.02218,-9.709961,8.462885,-21.27413
155,2.645671844482422,0.29234448075294495,78.02010345458984,-0.11522369113272725,5.994714361470393,-28.108550105559512,0.7508341,3.0166032,32.694405,6.36083,-12.320399,-3.3897862,-9.639339,-4.5342584,-2.3137276,9.564299,-7.6683536,5.4182034,-3.6470275,-1.929539,1.8872563,3.1118374,15.02382,-32.32206,52.68586,0.31354716,11.973398,17.171547,-0.48857486,-11.574746,38.337803,57.012993,-9.704433,8.495757,-21.293121
156,2.678022861480713,0.28626465797424316,78.01740264892578,-0.12926835421176394,6.015067984884512,-28.123263061169805,0.758571,3.0263157,32.708767,6.3608747,-12.347078,-3.393427,-9.6230135,-4.521826,-2.3052053,9.532588,-7.6749115,5.4102373,-3.634731,-1.9323964,1.8891147,3.0965292,15.032622,-32.319298,52.715492,0.31177405,11.951014,17.196714,-0.5314861,-11.582359,38.34271,56.998726,-9.696149,8.52752,-21.286808
157,2.7092530727386475,0.27837106585502625,78.01322174072266,-0.14187780370962025,6.039653390285491,-28.146951826610785,0.76401246,3.0343058,32.724625,6.3597617,-12.372852,-3.3995342,-9.611917,-4.5097127,-2.2917898,9.495994,-7.672678,5.4133406,-3.6200752,-1.9358817,1.8994408,3.1084955,15.05997,-32.303734,52.69803,0.29543573,11.942096,17.235628,-0.5709781,-11.609229,38.33937,56.94983,-9.695093,8.567078,-21.229275
158,2.743926763534546,0.27717188000679016,78.00959014892578,-0.1537377421815152,6.066735253874592,-28.177796630066535,0.76910335,3.0410511,32.742558,6.3578115,-12.398114,-3.4064562,-9.60407,-4.49723,-2.273943,9.456715,-7.6646895,5.422281,-3.594343,-1.938637,1.8989567,3.1105173,15.0705385,-32.29582,52.70862,0.26498732,11.937209,17.293217,-0.62189883,-11.621945,38.327755,56.921257,-9.697062,8.616628,-21.133818
159,2.778546094894409,0.2684323489665985,78.00752258300781,-0.16546622096655914,6.092773593528182,-28.206066288437572,0.7750367,3.0473125,32.75784,6.356283,-12.424415,-3.413033,-9.593197,-4.486019,-2.2585604,9.41592,-7.657313,5.4344277,-3.5691009,-1.9410139,1.8974371,3.11786,15.078829,-32.28368,52.719837,0.2422422,11.940357,17.345858,-0.6681312,-11.634145,38.310337,56.895905,-9.704238,8.649991,-21.039757
160,2.807666540145874,0.261414110660553,78.00489807128906,-0.17797238095677267,6.114292903701689,-28.221987310378505,0.78407955,3.0533972,32.765976,6.3553843,-12.45408,-3.4180665,-9.573217,-4.4770045,-2.2526584,9.375726,-7.6574683,5.446976,-3.5513098,-1.939467,1.9129072,3.1413336,15.1060295,-32.25784,52.695465,0.24749993,11.956324,17.366592,-0.6829284,-11.680451,38.27932,56.82877,-9.722118,8.641484,-20.980703
161,2.840223789215088,0.25067761540412903,78.00145721435547,-0.19068251214622903,6.129267214503124,-28.21987857056923,0.7981658,3.0584707,32.76388,6.354676,-12.488668,-3.4183059,-9.541231,-4.471245,-2.2597976,9.3382635,-7.6702886,5.45996,-3.5515127,-1.9371411,1.9191021,3.1613889,15.116914,-32.224163,52.699135,0.29254237,11.989446,17.352634,-0.7026599,-11.702209,38.258884,56.819088,-9.742099,8.555329,-20.987679
162,2.879554033279419,0.24067474901676178,78.00196838378906,-0.20368519212230313,6.139902157295942,-28.20603380306996,0.8147751,3.06343,32.75446,6.3561997,-12.527626,-3.415361,-9.501105,-4.4678793,-2.2756627,9.30213,-7.6907654,5.474656,-3.5661423,-1.9320775,1.9312214,3.1921837,15.129932,-32.170067,52.69298,0.371206,12.036842,17.309566,-0.71296376,-11.731309,38.238106,56.81161,-9.76935,8.415145,-21.027975
163,2.9127626419067383,0.23412452638149261,78.00032806396484,-0.21729755810603216,6.149650263333836,-28.188451521432594,0.8327556,3.0676734,32.742588,6.356313,-12.566812,-3.4153006,-9.456878,-4.465639,-2.2953382,9.263515,-7.711467,5.4899716,-3.5837185,-1.9257122,1.9393679,3.2268515,15.139582,-32.117256,52.692406,0.4479972,12.085693,17.263756,-0.71899015,-11.755964,38.21948,56.81026,-9.794105,8.281152,-21.086472
164,2.9505250453948975,0.22901080548763275,77.99528503417969,-0.23162608167819765,6.162192908713252,-28.175514357725778,0.84972966,3.0703773,32.733448,6.3559146,-12.605598,-3.4240203,-9.411647,-4.464088,-2.3133895,9.216322,-7.7236896,5.5050197,-3.5875926,-1.9201987,1.9316305,3.2483792,15.1422415,-32.09793,52.72433,0.4773793,12.120094,17.242052,-0.7320157,-11.764359,38.20976,56.825954,-9.792702,8.210996,-21.147934
165,2.9932219982147217,0.2258545458316803,77.99043273925781,-0.247948076953629,6.179093474412921,-28.169054517152546,0.862917,3.073774,32.72815,6.356153,-12.643243,-3.449927,-9.367504,-4.461676,-2.3300357,9.159906,-7.72435,5.519453,-3.5967484,-1.905525,1.9340919,3.2861454,15.148501,-32.05448,52.731926,0.48667645,12.137285,17.232897,-0.7488052,-11.787125,38.197838,56.802933,-9.784835,8.24135,-21.199572
166,3.03698992729187,0.22336071729660034,77.98426818847656,-0.2652144566099395,6.1987791572614475,-28.16514723072005,0.8745837,3.0760918,32.72462,6.355411,-12.680628,-3.4874806,-9.3222,-4.4598947,-2.3471448,9.09525,-7.7171326,5.533944,-3.600554,-1.8867114,1.930097,3.328576,15.15656,-32.02613,52.74182,0.46146068,12.144316,17.239029,-0.75615305,-11.826253,38.200912,56.754562,-9.746711,8.337431,-21.26013
167,3.079770565032959,0.22184601426124573,77.98031616210938,-0.2829546158679649,6.217649834451203,-28.161704154958546,0.8886501,3.0770361,32.720566,6.3540363,-12.718023,-3.5221539,-9.27313,-4.4590774,-2.3640294,9.026992,-7.7083864,5.5484333,-3.5966156,-1.8669426,1.9222559,3.3650322,15.160876,-32.01416,52.765152,0.41966552,12.145538,17.252247,-0.75511897,-11.863632,38.19673,56.71054,-9.711022,8.439066,-21.3167
168,3.1276166439056396,0.2192373126745224,77.97953796386719,-0.2997165413810033,6.2320398417561655,-28.15668200157644,0.9083578,3.0758827,32.713795,6.3535395,-12.756048,-3.5393434,-9.217931,-4.4603724,-2.3796372,8.959343,-7.704173,5.563003,-3.5865304,-1.8497025,1.9164509,3.402809,15.1613455,-32.004333,52.791656,0.38989615,12.146407,17.263937,-0.7608649,-11.89314,38.186184,56.700764,-9.684878,8.487768,-21.356739
169,3.1771481037139893,0.2191065549850464,77.97897338867188,-0.3159767282875383,6.2397829471768524,-28.151478676335103,0.9374054,3.072359,32.704556,6.353111,-12.794126,-3.5328815,-9.154205,-4.4625187,-2.3912988,8.891659,-7.7038355,5.5748634,-3.568438,-1.8339678,1.9201546,3.4398685,15.159267,-31.994394,52.816414,0.37620017,12.150068,17.270021,-0.7615793,-11.927862,38.16464,56.71111,-9.681221,8.454556,-21.37046
170,3.2248153686523438,0.21811218559741974,77.97578430175781,-0.3324611042733132,6.243252573058096,-28.146403270009703,0.9717425,3.06799,32.693718,6.3542986,-12.832449,-3.5113697,-9.083708,-4.4651155,-2.4005315,8.822263,-7.7049584,5.584867,-3.5403178,-1.8164343,1.9308299,3.4728832,15.152964,-31.989964,52.843605,0.36738327,12.152893,17.274988,-0.7494208,-11.976668,38.131397,56.72147,-9.691629,8.375501,-21.364946
171,3.277358055114746,0.21515443921089172,77.969482421875,-0.34759115820950565,6.245592026215041,-28.138442736010074,1.0077292,3.0609705,32.68003,6.3577304,-12.87433,-3.4821217,-9.011054,-4.4714985,-2.4120536,8.755251,-7.711518,5.598648,-3.5175736,-1.8006175,1.9363292,3.5153942,15.145842,-31.98506,52.870697,0.3592052,12.151141,17.283052,-0.74697405,-12.011432,38.10253,56.76013,-9.69904,8.291117,-21.356188
172,3.336668014526367,0.21687529981136322,77.96558380126953,-0.36045208429693426,6.250223764198613,-28.12452640324439,1.0430968,3.0493994,32.66281,6.357455,-12.917832,-3.4525123,-8.939378,-4.4841084,-2.4310732,8.691043,-7.7247043,5.6219254,-3.5046778,-1.785414,1.9338413,3.564974,15.136076,-31.981651,52.90044,0.34743786,12.140542,17.298038,-0.72819084,-12.048143,38.074497,56.778595,-9.697632,8.2490225,-21.3549
173,3.394483804702759,0.21514494717121124,77.962158203125,-0.37035564574451546,6.256808843737804,-28.105956465043626,1.0767225,3.0345986,32.643814,6.3591933,-12.966553,-3.4222322,-8.86536,-4.5038314,-2.458825,8.624495,-7.7445846,5.6576486,-3.5050256,-1.7633508,1.924329,3.6267939,15.117523,-31.981045,52.93144,0.32689646,12.113782,17.329983,-0.70425606,-12.10284,38.06363,56.77497,-9.659754,8.266473,-21.357481
174,3.4508492946624756,0.21570171415805817,77.95784759521484,-0.3776668277180779,6.26387395140632,-28.08397729975741,1.1120973,3.0154335,32.623093,6.3595734,-13.018271,-3.388074,-8.788736,-4.529325,-2.4924932,8.556728,-7.76986,5.7022986,-3.5193877,-1.7454348,1.9056444,3.7041001,15.103077,-31.980381,52.96054,0.2980216,12.075951,17.373432,-0.69699436,-12.135097,38.06787,56.797874,-9.601133,8.315436,-21.363863
175,3.505341053009033,0.21938490867614746,77.9537353515625,-0.38351233354994774,6.273423599373904,-28.05414756212342,1.142716,2.992939,32.59572,6.361413,-13.072806,-3.353029,-8.717254,-4.560033,-2.5316503,8.499777,-7.8032994,5.752101,-3.5411003,-1.7225119,1.8828677,3.780329,15.076339,-31.975079,52.994522,0.2768134,12.037983,17.410719,-0.671075,-12.1864605,38.07565,56.79636,-9.540391,8.378344,-21.377361
176,3.5672225952148438,0.22383227944374084,77.94890594482422,-0.3877923484047469,6.287113950743784,-28.01265625384374,1.1664364,2.9649117,32.557583,6.362178,-13.129295,-3.3200514,-8.659953,-4.596606,-2.5748384,8.468639,-7.8489046,5.8032312,-3.5653515,-1.7110192,1.852128,3.8574312,15.065944,-31.970768,53.01547,0.26173082,12.014618,17.421516,-0.6497737,-12.203568,38.062737,56.83078,-9.514983,8.424423,-21.408989
177,3.628265380859375,0.23423169553279877,77.94274139404297,-0.39215148386260207,6.307713080099577,-27.957026100913897,1.1783205,2.9329722,32.50636,6.3645263,-13.191651,-3.294497,-8.614937,-4.6384506,-2.6234777,8.451794,-7.898223,5.857387,-3.579377,-1.687587,1.8204509,3.9108338,15.0309725,-31.96446,53.049236,0.27214363,12.007737,17.399282,-0.6028809,-12.258604,38.025383,56.836212,-9.5241375,8.450978,-21.455948
178,3.6882526874542236,0.24131634831428528,77.93365478515625,-0.39547031303979885,6.333441142831783,-27.889936499516722,1.182054,2.8963852,32.445168,6.367333,-13.258703,-3.273283,-8.580631,-4.6859016,-2.677364,8.450761,-7.954769,5.915661,-3.594561,-1.6683246,1.7817614,3.9613965,14.99881,-31.956636,53.07959,0.2929788,12.0120945,17.354206,-0.54826874,-12.306465,37.973217,56.848614,-9.562698,8.468995,-21.519693
179,3.7585551738739014,0.2514849007129669,77.92341613769531,-0.3956069601816576,6.359698366702727,-27.814470503680354,1.1832659,2.8547556,32.37563,6.3716474,-13.325643,-3.246697,-8.559581,-4.7399135,-2.7341502,8.482959,-8.030389,5.97374,-3.625895,-1.6618309,1.7352532,4.0308495,14.989812,-31.946377,53.08345,0.31028882,12.023656,17.297235,-0.5074904,-12.318712,37.935005,56.900013,-9.592964,8.485159,-21.596794
180,3.8244996070861816,0.26790088415145874,77.91482543945312,-0.3914342276015111,6.3812924069824835,-27.733519034533114,1.1905317,2.8060718,32.29965,6.3752866,-13.388035,-3.204637,-8.551037,-4.800617,-2.7921672,8.559775,-8.133955,6.0275216,-3.6356194,-1.645421,1.7014823,4.066857,14.960557,-31.961876,53.09862,0.33239737,12.033621,17.236942,-0.43048316,-12.36002,37.84327,56.91287,-9.6172905,8.506839,-21.656902
181,3.8863003253936768,0.28261399269104004,77.9056625366211,-0.38356735035788436,6.398692654229413,-27.64787953364243,1.202426,2.7524521,32.217575,6.3798223,-13.441638,-3.1393657,-8.547797,-4.8681355,-2.8533742,8.663474,-8.25695,6.0769935,-3.645586,-1.6245446,1.6691504,4.089596,14.926208,-32.005833,53.11562,0.32653508,12.04109,17.1766,-0.3302888,-12.408514,37.742977,56.916138,-9.599794,8.538448,-21.71648
182,3.9550774097442627,0.2919107675552368,77.89859008789062,-0.3726281862752227,6.413964410957163,-27.55575413485991,1.2157191,2.6936605,32.128315,6.385237,-13.489482,-3.0579827,-8.551323,-4.942677,-2.9179401,8.792459,-8.3970375,6.1240335,-3.6527145,-1.5995235,1.6398805,4.0986094,14.887518,-32.070896,53.131924,0.30520296,12.049351,17.10964,-0.21445891,-12.463272,37.62531,56.913754,-9.559975,8.574805,-21.77648
183,4.0274224281311035,0.30554378032684326,77.890869140625,-0.35499294191122666,6.424973661006679,-27.457326110938126,1.2332585,2.625045,32.03206,6.3918796,-13.539587,-2.9729555,-8.579649,-5.026835,-2.9799216,8.991179,-8.57587,6.166887,-3.6704397,-1.5860604,1.6092104,4.1208744,14.862648,-32.131477,53.12313,0.30218205,12.061544,17.042189,-0.10765614,-12.498565,37.521442,56.93061,-9.503136,8.611953,-21.831139
184,4.109993934631348,0.3185347318649292,77.87753295898438,-0.3277551996042444,6.429930363376156,-27.35260749225693,1.2585472,2.5423026,31.928715,6.3980355,-13.598501,-2.8965604,-8.651846,-5.1237793,-3.0332592,9.307072,-8.817189,6.203632,-3.6810637,-1.5857233,1.5737095,4.137471,14.8409195,-32.208874,53.108574,0.3344589,12.078444,16.985409,0.02664371,-12.531181,37.407406,56.926624,-9.4633465,8.647185,-21.867046
185,4.194276809692383,0.33111339807510376,77.8634033203125,-0.2946561001199098,6.423837232238456,-27.24121718135054,1.2971197,2.4503205,31.8156,6.4050746,-13.671194,-2.8354692,-8.75743,-5.23129,-3.076634,9.729022,-9.121498,6.234174,-3.6736372,-1.5959871,1.5368418,4.1405826,14.817789,-32.318497,53.099083,0.41238222,12.099868,16.94864,0.19508706,-12.570319,37.274677,56.889023,-9.442609,8.681405,-21.870066
186,4.270988464355469,0.3472593128681183,77.84304809570312,-0.25589573905984797,6.409192761611535,-27.123309011221387,1.3461915,2.3497102,31.693493,6.413325,-13.753417,-2.7818902,-8.892574,-5.3517365,-3.1121736,10.240348,-9.478387,6.2584395,-3.644611,-1.609339,1.5006177,4.124934,14.786992,-32.465614,53.0959,0.52052736,12.124848,16.925776,0.41181704,-12.630307,37.109936,56.802727,-9.438332,8.716151,-21.846485
187,4.351467609405518,0.36654043197631836,77.81961822509766,-0.2024301609373996,6.39506334209703,-26.999812381555856,1.3961927,2.22994,31.567688,6.420094,-13.838101,-2.7264373,-9.084292,-5.494548,-3.138539,10.873846,-9.891954,6.2736554,-3.6512203,-1.6428461,1.4557489,4.139687,14.772857,-32.567543,53.05273,0.6616562,12.154559,16.896667,0.59628636,-12.661838,37.00234,56.755352,-9.4114685,8.748752,-21.828764
188,4.433438777923584,0.3795928657054901,77.79644775390625,-0.12530318454971262,6.390356175112262,-26.871633927731366,1.4355196,2.0816526,31.44316,6.4270525,-13.919685,-2.6594381,-9.356914,-5.6684847,-3.1546402,11.657722,-10.364265,6.277009,-3.6153305,-1.6931859,1.401364,4.118949,14.751621,-32.707294,53.011055,0.8021379,12.188825,16.857971,0.844036,-12.719841,36.844654,56.655537,-9.398242,8.777664,-21.826193
189,4.517642498016357,0.3991486132144928,77.76801300048828,-0.020561111093702712,6.400359859757253,-26.73486008282006,1.4577248,1.8993609,31.316553,6.432143,-13.993384,-2.5717096,-9.722939,-5.87695,-3.1558325,12.604885,-10.902385,6.274096,-3.6029634,-1.7683069,1.326711,4.107383,14.737507,-32.808968,52.93847,0.96972406,12.233262,16.7923,1.0939173,-12.76919,36.720493,56.56066,-9.3571825,8.804147,-21.868267
190,4.605187892913818,0.4193836748600006,77.73624420166016,0.10740515260482111,6.419224312931969,-26.58998478213034,1.4702477,1.6880611,31.186523,6.435647,-14.063368,-2.4703968,-10.165672,-6.117959,-3.1422412,13.692312,-11.502139,6.262043,-3.5856707,-1.8641609,1.2383488,4.0893574,14.726488,-32.90932,52.848164,1.1609659,12.285985,16.711319,1.3763621,-12.824425,36.588367,56.439964,-9.31039,8.82863,-21.934305
191,4.685330867767334,0.4388647675514221,77.69605255126953,0.2567835267560401,6.438697764038972,-26.44557433703239,1.4835355,1.4503044,31.062172,6.44017,-14.137665,-2.3702095,-10.672172,-6.3924875,-3.1183486,14.906686,-12.149094,6.2260437,-3.572688,-1.9800073,1.1470741,4.079383,14.7199,-32.9876,52.730934,1.3520914,12.335446,16.629642,1.6524601,-12.874515,36.481773,56.336033,-9.265667,8.848292,-21.993792
192,4.777134418487549,0.45503130555152893,77.64575958251953,0.4254600443595891,6.450591996486828,-26.309448302479076,1.5112493,1.1869925,30.95194,6.439719,-14.218999,-2.285745,-11.224695,-6.698932,-3.0900486,16.22769,-12.826956,6.1529064,-3.560878,-2.1127942,1.0631723,4.081508,14.715783,-33.040077,52.586994,1.5136306,12.370222,16.563612,1.9212724,-12.921434,36.401264,56.25812,-9.257709,8.861003,-22.013372
193,4.859827518463135,0.47909486293792725,77.59400939941406,0.6190307529444348,6.454148921990967,-26.184291201792412,1.553806,0.8902721,30.860313,6.433773,-14.309976,-2.228223,-11.820058,-7.0355554,-3.0459046,17.654934,-13.550459,6.0353227,-3.5405493,-2.2637699,0.99127513,4.0918455,14.712107,-33.0685,52.40988,1.6412714,12.385056,16.517906,2.1804545,-12.980135,36.35432,56.203716,-9.283168,8.856214,-21.976091
194,4.951027870178223,0.4976312518119812,77.53572845458984,0.838446148613398,6.452684734606642,-26.064954755203956,1.6051185,0.5598705,30.781746,6.4248614,-14.408297,-2.1870017,-12.461103,-7.4017944,-2.9865155,19.188118,-14.316583,5.8836904,-3.5274494,-2.4369524,0.9201548,4.1177454,14.709059,-33.061913,52.20259,1.7531556,12.386707,16.483416,2.4467075,-13.037866,36.331997,56.164722,-9.351699,8.838698,-21.90386
195,5.046265602111816,0.524861752986908,77.46910095214844,1.0733398376680394,6.444595022645418,-25.94855635815892,1.6680586,0.20942932,30.70981,6.413362,-14.510858,-2.143951,-13.133186,-7.7959213,-2.938075,20.79969,-15.081284,5.712612,-3.5183203,-2.6240146,0.85723346,4.1485634,14.706851,-33.03878,51.979008,1.842684,12.382279,16.457167,2.6951218,-13.0917225,36.336323,56.14906,-9.425186,8.828624,-21.815235
196,5.145999431610107,0.5547531843185425,77.39903259277344,1.3131102866061568,6.428444289049929,-25.83254932024853,1.744289,-0.14702517,30.63817,6.4021263,-14.61555,-2.080904,-13.8217325,-8.2172985,-2.9267774,22.461967,-15.799926,5.5365887,-3.5225987,-2.8129075,0.8065521,4.183313,14.7052765,-33.005642,51.747276,1.903389,12.378304,16.434086,2.9564455,-13.156351,36.34653,56.10978,-9.511833,8.848055,-21.726229
197,5.2442755699157715,0.5872439742088318,77.32874298095703,1.5664689590907805,6.396077023979212,-25.713315055120255,1.8433386,-0.52092797,30.565046,6.3895307,-14.720991,-1.9782574,-14.509573,-8.6748905,-2.9470732,24.166868,-16.493225,5.3587193,-3.5417392,-3.0180373,0.76646835,4.2216573,14.704427,-32.964306,51.51622,1.9217116,12.374402,16.419489,3.235076,-13.206646,36.345207,56.056507,-9.655889,8.918416,-21.628656
198,5.345436096191406,0.6120497584342957,77.25506591796875,1.8354640298202602,6.3507111235441425,-25.593120313612417,1.9606798,-0.9153942,30.493343,6.3760624,-14.829307,-1.850273,-15.199827,-9.162182,-2.9913914,25.919262,-17.167686,5.176164,-3.5685441,-3.2342055,0.74446404,4.266979,14.704576,-32.90869,51.265858,1.9091763,12.367659,16.412413,3.5076754,-13.273129,36.36395,55.991512,-9.810476,9.023162,-21.514318
199,5.451813220977783,0.6320693492889404,77.1811752319336,2.098449456707789,6.307544800838833,-25.47769181974525,2.0782814,-1.302005,30.423737,6.3635826,-14.941153,-1.7301074,-15.912441,-9.658061,-3.0831485,27.718082,-17.763672,4.9912963,-3.6001728,-3.4494574,0.7203187,4.3035727,14.705088,-32.85666,51.026585,1.8784268,12.362013,16.406443,3.7797182,-13.315306,36.381702,55.950577,-9.960271,9.123563,-21.416338
200,5.57157564163208,0.6548111438751221,77.10987091064453,2.3335285449976735,6.281828265771938,-25.373165965037455,2.1799326,-1.6533706,30.357473,6.3517303,-15.056967,-1.6509408,-16.676767,-10.147711,-3.24248,29.578358,-18.22463,4.802518,-3.6368442,-3.6354158,0.69534695,4.3332562,14.7072525,-32.806023,50.786667,1.8568493,12.361295,16.39023,4.0379868,-13.363786,36.426292,55.924866,-10.020236,9.183808,-21.359123
201,5.685573101043701,0.6772779226303101,77.04399871826172,2.5374041565187486,6.284842961080703,-25.28103021343769,2.2534714,-1.9644119,30.29384,6.33878,-15.176038,-1.6294719,-17.520035,-10.636624,-3.4710686,31.53281,-18.540897,4.6057897,-3.6738353,-3.7932272,0.6509643,4.3513355,14.70954,-32.761406,50.558544,1.8341902,12.367816,16.36287,4.321978,-13.400549,36.466595,55.90558,-9.995717,9.183433,-21.37407
202,5.80033016204834,0.6909967660903931,76.98185729980469,2.7201954326031266,6.306140048648994,-25.198044161030246,2.3095558,-2.2480607,30.23299,6.325151,-15.297838,-1.6454114,-18.423168,-11.13866,-3.7574098,33.571014,-18.74454,4.3980646,-3.7120461,-3.9301145,0.6008631,4.356896,14.713026,-32.721775,50.335102,1.800811,12.379202,16.328821,4.5989475,-13.435881,36.528687,55.90326,-9.883201,9.146413,-21.438295
203,5.918750286102295,0.7020204067230225,76.92054748535156,2.8814325071187827,6.329282753985065,-25.12314908320328,2.3673377,-2.5047967,30.177816,6.315085,-15.42529,-1.6767106,-19.342884,-11.646469,-4.1030474,35.634563,-18.843912,4.1739783,-3.7399812,-4.049622,0.5631779,4.339804,14.715097,-32.70468,50.12976,1.7823839,12.392226,16.290552,4.8439627,-13.451254,36.58425,55.945194,-9.753563,9.097487,-21.50152
204,6.037807941436768,0.718255877494812,76.86640930175781,3.02032373000803,6.3388331779963245,-25.055805945543554,2.4470997,-2.735736,30.1305,6.3049445,-15.554696,-1.7014599,-20.237778,-12.156054,-4.5090036,37.667103,-18.848316,3.9288156,-3.8179355,-4.140198,0.54338944,4.351369,14.722918,-32.666836,49.90933,1.7984011,12.402496,16.24645,5.0715785,-13.488731,36.69533,55.984795,-9.657242,9.069017,-21.5178
205,6.170995235443115,0.7265364527702332,76.81814575195312,3.13528052350326,6.3263424884774775,-25.001070983053847,2.5599046,-2.939319,30.098269,6.2958136,-15.689024,-1.7177501,-21.10872,-12.672626,-4.977141,39.69381,-18.727503,3.6599298,-3.949876,-4.20786,0.528415,4.3907228,14.728071,-32.60665,49.706764,1.8659309,12.405176,16.194632,5.5247626,-13.5063095,36.621624,55.868217,-9.954943,9.071525,-21.452633
206,6.299592018127441,0.7333203554153442,76.76824951171875,3.2274239827421365,6.301467021138858,-24.958046920978134,2.6941626,-3.1158237,30.078032,6.2879868,-15.828131,-1.73644,-21.975603,-13.206687,-5.50448,41.7387,-18.492853,3.3605537,-3.9875836,-4.257081,0.5928254,4.335996,14.736522,-32.647938,49.533215,1.9643366,12.403401,16.137686,5.59142,-13.52829,36.744816,56.047638,-9.922802,9.071036,-21.334833
207,6.437503337860107,0.7474257946014404,76.72279357910156,3.2985619978460132,6.275814062049165,-24.914670740058934,2.8344975,-3.2665603,30.054026,6.28115,-15.967176,-1.7546239,-22.820858,-13.75095,-6.090962,43.73802,-18.212389,3.0227063,-4.1098166,-4.281954,0.63423073,4.3385158,14.748653,-32.642582,49.341457,2.0742185,12.40731,16.080156,5.8347807,-13.550874,36.797333,56.088642,-10.059717,9.083386,-21.216852
208,6.5846076011657715,0.7527711987495422,76.68302917480469,3.350754852507405,6.258978218385978,-24.860744451273405,2.9682155,-3.3935695,30.012556,6.2765117,-16.104176,-1.7692595,-23.626766,-14.298924,-6.734408,45.63059,-17.955051,2.644212,-4.2416706,-4.290755,0.6750384,4.3156843,14.757909,-32.654205,49.166195,2.1749644,12.424969,16.021612,6.082462,-13.561583,36.82687,56.123222,-10.121234,9.091896,-21.131063
209,6.737977027893066,0.7567969560623169,76.6496353149414,3.381469902786788,6.25128473717934,-24.79280012831472,3.0930421,-3.4951215,29.94599,6.2741575,-16.235945,-1.7702746,-24.386492,-14.8762455,-7.493425,47.43733,-17.701609,2.2025456,-4.398082,-4.2797256,0.7112119,4.2845836,14.7684765,-32.67645,48.991234,2.2598786,12.464931,15.960644,6.3387375,-13.568217,36.852497,56.13587,-10.034128,9.101554,-21.099762
210,6.896710395812988,0.752216100692749,76.6177749633789,3.390296202835577,6.247784919811143,-24.716812799007847,3.2158852,-3.57079,29.863129,6.2742333,-16.365295,-1.7621737,-25.107126,-15.483951,-8.350515,49.184017,-17.432795,1.7031599,-4.578657,-4.246597,0.7506046,4.2485046,14.775555,-32.70112,48.817055,2.3458402,12.520415,15.895545,6.592819,-13.569152,36.87222,56.14212,-9.857275,9.113299,-21.09623
211,7.064309597015381,0.7430870532989502,76.58554077148438,3.38339576440227,6.2525628096873636,-24.635989178794944,3.334145,-3.6250274,29.775246,6.275767,-16.495962,-1.7634462,-25.795921,-16.056057,-9.193073,50.810886,-17.211666,1.1962988,-4.763008,-4.204879,0.7825342,4.1999817,14.796706,-32.764362,48.649296,2.4096744,12.579165,15.840449,6.871034,-13.568895,36.896442,56.128517,-9.673622,9.122325,-21.101702
212,7.235894203186035,0.7277701497077942,76.55337524414062,3.3656605676077893,6.26843287936556,-24.554553275292005,3.4487805,-3.6628745,29.694427,6.2752285,-16.631723,-1.7927314,-26.466156,-16.521654,-9.907139,52.259666,-17.098536,0.74138415,-4.9626374,-4.146174,0.8242782,4.1361384,14.806691,-32.806572,48.4847,2.4914422,12.626408,15.790473,7.1289563,-13.565662,36.91867,56.128452,-9.597335,9.117586,-21.078493
213,7.410851001739502,0.7149754762649536,76.52357482910156,3.3355683750687173,6.298591632852386,-24.469805265272733,3.5538723,-3.6789997,29.621927,6.275943,-16.77569,-1.8643905,-27.12778,-16.84514,-10.461567,53.520134,-17.155272,0.34597066,-5.143791,-4.0881658,0.8486777,4.0494967,14.838392,-32.919334,48.33647,2.5416114,12.661591,15.762839,7.422676,-13.554615,36.94469,56.116463,-9.653877,9.087778,-21.039595
214,7.595853328704834,0.6962844133377075,76.49395751953125,3.290247831770595,6.340452630741657,-24.38142533939401,3.6538377,-3.6731527,29.552841,6.274606,-16.924225,-1.9653221,-27.778437,-17.0583,-10.918287,54.622818,-17.32992,-0.0060470537,-5.332617,-4.017453,0.878213,3.9489615,14.878905,-33.040154,48.18596,2.5948079,12.690107,15.740143,7.713966,-13.536037,36.964287,56.104965,-9.80563,9.038186,-20.98607
215,7.789522171020508,0.6654244065284729,76.466552734375,3.2360460997837,6.391569286730508,-24.297351270800814,3.750726,-3.6550944,29.490173,6.2741556,-17.075686,-2.073087,-28.421106,-17.18697,-11.302188,55.57112,-17.50972,-0.28902316,-5.526818,-3.9384294,0.9097785,3.8392398,14.922025,-33.163734,48.03273,2.6389918,12.713832,15.727871,7.9966364,-13.511787,36.9887,56.101494,-9.976262,8.996038,-20.91368
216,7.983503341674805,0.6265769004821777,76.43795013427734,3.1786939574051982,6.44934160216346,-24.22504512617921,3.8474505,-3.6337984,29.436455,6.274404,-17.225634,-2.165551,-29.054516,-17.255995,-11.640898,56.364365,-17.585405,-0.48065612,-5.721586,-3.8543277,0.9472675,3.7226899,14.9642315,-33.282658,47.8706,2.6648786,12.735451,15.729135,8.259363,-13.483926,37.018055,56.113262,-10.09672,8.987412,-20.81394
217,8.18673038482666,0.5893687009811401,76.41548919677734,3.119134974416883,6.515009117807808,-24.162598452425218,3.9426782,-3.6120284,29.388714,6.2743955,-17.370325,-2.2298577,-29.683638,-17.25978,-11.92601,56.991703,-17.531687,-0.5702134,-5.916951,-3.7666092,0.9921937,3.601231,15.011717,-33.40427,47.689842,2.644125,12.750282,15.760835,8.496095,-13.447881,37.046032,56.14655,-10.149051,9.024322,-20.672739
218,8.393595695495605,0.5584415197372437,76.38410949707031,3.0541518359581246,6.589247910964253,-24.107412145151056,4.034353,-3.5836053,29.346846,6.2751245,-17.511824,-2.2803407,-30.309967,-17.185738,-12.149666,57.457085,-17.405529,-0.5693432,-6.112737,-3.6778326,1.0425533,3.4732606,15.073752,-33.535007,47.4926,2.585086,12.759233,15.815546,8.710962,-13.39462,37.07221,56.202526,-10.171357,9.090579,-20.49915
219,8.61194896697998,0.5158371925354004,76.35647583007812,2.985606246966701,6.668446741976111,-24.06576799872946,4.130469,-3.5503962,29.317297,6.274399,-17.65694,-2.335157,-30.926586,-17.058767,-12.336232,57.7832,-17.217623,-0.48995453,-6.3055215,-3.5886538,1.0962226,3.3469548,15.141185,-33.656643,47.283356,2.5459428,12.773157,15.861366,8.911834,-13.329828,37.107952,56.273003,-10.176394,9.171272,-20.319515
220,8.831984519958496,0.46979808807373047,76.32408142089844,2.915235767690242,6.748776919276172,-24.04437330812376,4.2374625,-3.5134866,29.306728,6.27206,-17.812923,-2.4124615,-31.52608,-16.901527,-12.51024,57.99354,-16.979094,-0.3449762,-6.489467,-3.4925003,1.1508111,3.2155206,15.18867,-33.75672,47.08546,2.5821607,12.801918,15.868257,9.118921,-13.280646,37.161858,56.332165,-10.175389,9.252298,-20.15824
221,9.062166213989258,0.41607898473739624,76.29181671142578,2.84320870589986,6.82953386779229,-24.046050939701257,4.3571653,-3.471312,29.319262,6.2665577,-17.981215,-2.5253873,-32.10584,-16.705944,-12.663289,58.072582,-16.670357,-0.108023584,-6.6494913,-3.399808,1.2080685,3.083976,15.235804,-33.84463,46.88244,2.7215097,12.857632,15.817513,9.337553,-13.228763,37.228497,56.383366,-10.165788,9.338109,-20.021786
222,9.299314498901367,0.3595457077026367,76.25282287597656,2.7688315832369916,6.912525499952382,-24.06702873213327,4.4858284,-3.4239957,29.350643,6.259922,-18.159212,-2.661575,-32.670162,-16.463549,-12.786422,58.014847,-16.293653,0.21782108,-6.7949047,-3.3105276,1.2673694,2.9577427,15.290602,-33.923412,46.66391,2.92746,12.933076,15.729377,9.551923,-13.165522,37.308872,56.445198,-10.141815,9.431869,-19.897873
223,9.5468111038208,0.290194034576416,76.21215057373047,2.693178441672803,6.99793778059965,-24.10276067574072,4.6222944,-3.3751566,29.395033,6.2512493,-18.34231,-2.801482,-33.22003,-16.19927,-12.903931,57.855156,-15.89158,0.57523775,-6.937818,-3.239337,1.3252442,2.8578098,15.386351,-33.99584,46.40966,3.1461487,13.011034,15.627012,9.730924,-13.052253,37.40054,56.557575,-10.122366,9.518148,-19.79058
224,9.795949935913086,0.23346398770809174,76.16360473632812,2.6163599995410034,7.086208520312688,-24.149558122758407,4.76588,-3.3284986,29.446218,6.2418466,-18.529007,-2.9250853,-33.757267,-15.938688,-13.040103,57.630314,-15.506999,0.90682936,-7.0820484,-3.154841,1.3810637,2.745932,15.455502,-34.06683,46.18516,3.3380983,13.068184,15.542118,9.916102,-12.970025,37.488636,56.645046,-10.1191435,9.586356,-19.688608
225,10.058341026306152,0.16728773713111877,76.11831665039062,2.5415677555392566,7.174684396174747,-24.211119160774132,4.918694,-3.2885933,29.506306,6.2344637,-18.719963,-3.0190606,-34.284714,-15.685348,-13.195725,57.343315,-15.140697,1.2012316,-7.223508,-3.0803483,1.4360977,2.6392365,15.539055,-34.14648,45.96058,3.485687,13.099347,15.479619,10.076788,-12.87243,37.578175,56.76029,-10.152266,9.628182,-19.594734
226,10.327377319335938,0.09557260572910309,76.07435607910156,2.467999114043769,7.264068331055576,-24.288103682033295,5.0815063,-3.253193,29.576918,6.2248635,-18.91425,-3.0967216,-34.800102,-15.427556,-13.358978,56.97475,-14.772343,1.4874995,-7.3587923,-2.9985397,1.4924859,2.5237758,15.601976,-34.22555,45.755836,3.6243188,13.113186,15.427036,10.241754,-12.800142,37.667995,56.858414,-10.206619,9.654007,-19.505203
227,10.602208137512207,0.025033220648765564,76.02862548828125,2.389011989446349,7.359500629006539,-24.3710015474272,5.2468767,-3.212324,29.652311,6.2152243,-19.113096,-3.1791039,-35.296993,-15.167005,-13.537427,56.529716,-14.413454,1.7673609,-7.498417,-2.9194872,1.5418649,2.4229465,15.6892805,-34.30878,45.537407,3.735434,13.123717,15.378675,10.388173,-12.702648,37.7531,56.974117,-10.254058,9.667793,-19.432373
228,10.883390426635742,-0.05142524093389511,75.97830200195312,2.2979069354923207,7.466639682025562,-24.450514357426872,5.4068003,-3.1551678,29.726915,6.2055,-19.315552,-3.28728,-35.768936,-14.90512,-13.73896,56.011482,-14.074354,2.042785,-7.6517434,-2.8154743,1.5789706,2.3197854,15.765235,-34.392483,45.335777,3.817938,13.139406,15.332541,10.546419,-12.621346,37.82224,57.05252,-10.261927,9.678262,-19.376858
229,11.18062973022461,-0.13403698801994324,75.93132781982422,2.190346526073395,7.588695761147221,-24.526725546604137,5.5583663,-3.0766397,29.80345,6.19733,-19.527277,-3.4405339,-36.21419,-14.632377,-13.956432,55.40424,-13.754752,2.3383243,-7.821048,-2.6788638,1.5991325,2.2157423,15.829543,-34.477104,45.144405,3.8624475,13.1686735,15.280413,10.714325,-12.557132,37.878872,57.094505,-10.193253,9.676858,-19.359364
230,11.486886978149414,-0.2276756316423416,75.87960052490234,2.0711084695996034,7.72213004548537,-24.603679803491616,5.705711,-2.9834762,29.883783,6.1890693,-19.745136,-3.6237674,-36.635178,-14.351543,-14.188778,54.709255,-13.449119,2.644435,-7.9991302,-2.529883,1.6079683,2.1241014,15.911553,-34.566704,44.93955,3.8706431,13.205861,15.224835,10.877173,-12.481371,37.923767,57.127308,-10.076355,9.662017,-19.37311
231,11.795219421386719,-0.32209575176239014,75.8275146484375,1.9463668547464417,7.861883879908618,-24.677872850375927,5.852619,-2.8822873,29.96035,6.1810255,-19.960873,-3.806077,-37.032116,-14.082325,-14.453132,53.95798,-13.160247,2.912305,-8.191794,-2.3578215,1.6106614,2.0200696,15.960001,-34.649483,44.777615,3.8690236,13.234371,15.184652,11.058279,-12.43996,37.954655,57.114376,-9.969334,9.655643,-19.375187
232,12.110857963562012,-0.41866931319236755,75.77393341064453,1.8232360887651047,8.00267625125057,-24.746555625381962,6.002545,-2.780524,30.025948,6.1743574,-20.16673,-3.9562652,-37.40495,-13.843885,-14.766731,53.181778,-12.891007,3.0931985,-8.387761,-2.1902866,1.6145641,1.9226998,16.014791,-34.739864,44.634773,3.8646097,13.244517,15.175273,11.250211,-12.394049,37.95322,57.0779,-9.939417,9.674941,-19.330727
233,12.430458068847656,-0.5216699838638306,75.7254638671875,1.7020933067746267,8.145956849491835,-24.81743060028768,6.1537833,-2.6800916,30.08553,6.1705093,-20.366373,-4.0551825,-37.7686,-13.642914,-15.133984,52.397,-12.648018,3.1452422,-8.580499,-2.0347466,1.6239461,1.8325319,16.091894,-34.84901,44.50668,3.8463495,13.222209,15.211721,11.442169,-12.326899,37.912716,57.03358,-10.030899,9.740732,-19.217436
234,12.75648307800293,-0.6294888257980347,75.67594909667969,1.5788693487204317,8.29360937575189,-24.88953903430216,6.3047585,-2.5759876,30.140896,6.168,-20.561161,-4.1232405,-38.116676,-13.465987,-15.547726,51.58305,-12.427191,3.104642,-8.786797,-1.8711648,1.6325364,1.7431787,16.155083,-34.9526,44.412952,3.822651,13.175337,15.2819195,11.639675,-12.268012,37.855698,56.965084,-10.195101,9.838822,-19.05839
235,13.08885669708252,-0.7486273646354675,75.6271743774414,1.4557969694607873,8.440893671810338,-24.946200876912226,6.4609365,-2.467191,30.179384,6.1663284,-20.744907,-4.1877084,-38.421627,-13.305732,-16.004864,50.72119,-12.218586,3.039742,-9.002071,-1.7077787,1.6373159,1.6595978,16.216682,-35.053288,44.336796,3.8050222,13.131091,15.3592,11.849683,-12.207598,37.76983,56.871655,-10.376499,9.930565,-18.887693
236,13.419384956359863,-0.8726484179496765,75.58084106445312,1.3344393693890864,8.583194442854616,-24.970187419604695,6.6261077,-2.3508375,30.188677,6.16566,-20.909636,-4.2755904,-38.657337,-13.154835,-16.50204,49.795322,-12.009176,3.0185401,-9.236306,-1.5442605,1.6345912,1.5907329,16.272556,-35.132317,44.26782,3.815466,13.115179,15.415958,12.079522,-12.151031,37.659916,56.74434,-10.513347,9.978688,-18.739397
237,13.762819290161133,-1.0100815296173096,75.53595733642578,1.2058556816164023,8.726349624219678,-24.95193726252353,6.7921,-2.2139482,30.163073,6.167677,-21.069803,-4.398876,-38.821808,-13.021297,-17.07145,48.802826,-11.800689,3.0491571,-9.477592,-1.3876947,1.6234683,1.5367386,16.357996,-35.210613,44.185574,3.8532887,13.142326,15.442782,12.328502,-12.064364,37.483753,56.590897,-10.600518,9.964056,-18.619184
238,14.114133834838867,-1.1485579013824463,75.49349975585938,1.0718919725146807,8.870910975012453,-24.901959284573483,6.960648,-2.0617197,30.109882,6.1704736,-21.223648,-4.5408187,-38.92637,-12.903049,-17.704506,47.749634,-11.596381,3.0993302,-9.761112,-1.2154993,1.6029457,1.495373,16.419237,-35.24356,44.12797,3.9276314,13.192435,15.454243,12.5966425,-12.002548,37.297916,56.389664,-10.649671,9.913532,-18.509266
239,14.47149658203125,-1.2960644960403442,75.45551300048828,0.9531591431604306,9.002924308783602,-24.834297051420716,7.1495123,-1.9211593,30.036865,6.173327,-21.341469,-4.685183,-38.967793,-12.781697,-18.332584,46.63319,-11.389845,3.1746166,-10.038071,-1.0600141,1.5833216,1.4732102,16.487144,-35.278267,44.063908,4.009037,13.253296,15.460351,12.878954,-11.934789,37.09309,56.172497,-10.687955,9.845529,-18.412212
240,14.836581230163574,-1.452199935913086,75.41383361816406,0.8695278476895965,9.108879727826265,-24.762873578197297,7.3754835,-1.8182268,29.951553,6.17525,-21.39275,-4.816031,-38.943302,-12.64108,-18.886024,45.452374,-11.17563,3.2786205,-10.306653,-0.9366361,1.5690161,1.4912214,16.5544,-35.301228,43.979485,4.090993,13.309031,15.469206,13.161657,-11.866506,36.91982,55.963173,-10.720704,9.782122,-18.332438
