unveil-humanoid-operators/unveil-humanoid-operators.github.io/feature-analysis-animation/data/feature_matrix_instances/height_root_translate_peak_vel_walking_A067_walk_ff_stop_360_004__A067.csv
Frame,root_translateX,root_translateY,root_translateZ,root_rotateX,root_rotateY,root_rotateZ,left_hip_pitch_joint_dof,left_hip_roll_joint_dof,left_hip_yaw_joint_dof,left_knee_joint_dof,left_ankle_pitch_joint_dof,left_ankle_roll_joint_dof,right_hip_pitch_joint_dof,right_hip_roll_joint_dof,right_hip_yaw_joint_dof,right_knee_joint_dof,right_ankle_pitch_joint_dof,right_ankle_roll_joint_dof,waist_yaw_joint_dof,waist_roll_joint_dof,waist_pitch_joint_dof,left_shoulder_pitch_joint_dof,left_shoulder_roll_joint_dof,left_shoulder_yaw_joint_dof,left_elbow_joint_dof,left_wrist_roll_joint_dof,left_wrist_pitch_joint_dof,left_wrist_yaw_joint_dof,right_shoulder_pitch_joint_dof,right_shoulder_roll_joint_dof,right_shoulder_yaw_joint_dof,right_elbow_joint_dof,right_wrist_roll_joint_dof,right_wrist_pitch_joint_dof,right_wrist_yaw_joint_dof
0,-0.37262657284736633,-2.114616870880127,77.43937683105469,-2.542410562270601,0.6086623988813925,86.1527639260821,-20.901602,7.52825,3.1136992,24.868578,-2.6082659,-7.500689,-0.8366244,-3.9059703,-7.794426,41.400135,-15.208081,5.0322714,-2.7188888,-0.9481809,1.448538,16.912378,22.408188,-8.656332,40.167076,27.298615,4.710481,12.301359,13.45602,-18.111408,20.652761,45.9546,-35.52891,6.590849,-20.55359
1,-0.277089923620224,-2.563472270965576,77.35733795166016,-2.436119677770514,0.8790181939570244,86.18631077146678,-21.58617,7.46821,3.0508208,24.756353,-2.1857972,-7.4468966,-0.38568276,-3.7312784,-7.7076273,39.57095,-15.6625805,5.5435343,-2.486392,-1.0017505,1.3418211,17.432747,22.368362,-8.815345,40.20748,27.280418,4.714929,12.264916,12.766399,-18.158728,20.719458,46.062645,-35.57143,6.550402,-20.578257
2,-0.18176327645778656,-3.018765926361084,77.27652740478516,-2.3253405963024116,1.1463434192029822,86.21997594629698,-22.26894,7.403069,2.99308,24.65225,-1.7585353,-7.391643,0.10019016,-3.5598166,-7.611032,37.700054,-16.09714,6.076672,-2.2757413,-1.0269177,1.2317494,17.946703,22.260315,-8.962656,40.272835,27.284092,4.722741,12.244645,12.082503,-18.257456,20.810856,46.154774,-35.605846,6.5092354,-20.598848
3,-0.0909530520439148,-3.4811131954193115,77.19281768798828,-2.21897044703315,1.4185286237044903,86.25252583943649,-22.945406,7.3396306,2.935796,24.51936,-1.3365948,-7.335749,0.5495231,-3.3995085,-7.5405045,35.843063,-16.53659,6.5563464,-2.0715103,-1.0276569,1.1314499,18.446276,22.120104,-9.10326,40.35035,27.304667,4.7316937,12.2226515,11.402964,-18.380983,20.889227,46.22116,-35.635406,6.4730487,-20.617493
4,0.003162031527608633,-3.9482803344726562,77.1163330078125,-2.1265959477855034,1.7034146799436838,86.28265464961292,-23.614388,7.2863154,2.8733714,24.32646,-0.93273103,-7.2801533,0.88737404,-3.2550888,-7.5321317,34.06284,-17.009832,6.9085464,-1.864971,-0.99295855,1.0516586,18.915049,21.956213,-9.241835,40.443466,27.34509,4.741661,12.187471,10.727782,-18.520359,20.923273,46.249428,-35.65956,6.4489512,-20.636389
5,0.09382332116365433,-4.4276862144470215,77.04357147216797,-2.0473122664192465,2.006821594953085,86.31244934735244,-24.284279,7.2363577,2.7926712,24.068493,-0.5341939,-7.2188573,1.0967765,-3.1321633,-7.5930834,32.34311,-17.557777,7.11709,-1.6530548,-0.926389,0.9882933,19.344023,21.77493,-9.389041,40.560394,27.40166,4.7515574,12.13458,10.054341,-18.669193,20.902117,46.242237,-35.690296,6.444827,-20.653109
6,0.1885571926832199,-4.913840293884277,76.97474670410156,-1.9745232443973533,2.3229727428041103,86.3414491073238,-24.952108,7.1888957,2.7003777,23.76043,-0.13964133,-7.153861,1.217441,-3.0229893,-7.7037444,30.659904,-18.153473,7.2238674,-1.4353828,-0.83790994,0.9369587,19.741814,21.58162,-9.544726,40.69652,27.469675,4.761484,12.068955,9.383953,-18.823826,20.83938,46.209343,-35.726097,6.4548,-20.668709
7,0.2769908905029297,-5.4092020988464355,76.91145324707031,-1.9184925274457072,2.6418766311911415,86.36477362931156,-25.598536,7.162206,2.6191893,23.399502,0.22286516,-7.0983577,1.2568694,-2.911229,-7.858654,29.071144,-18.727434,7.2415967,-1.2098724,-0.7234599,0.90814286,20.120014,21.37771,-9.69405,40.83587,27.554787,4.7738876,11.995216,8.716469,-18.984358,20.741766,46.151768,-35.746475,6.4661126,-20.690802
8,0.36480873823165894,-5.912041187286377,76.85873413085938,-1.8866963616563868,2.95354909767016,86.37768860009969,-26.203838,7.175275,2.5708666,22.982195,0.5250029,-7.0654006,1.2224627,-2.781167,-8.052055,27.635986,-19.210798,7.1810718,-0.9756198,-0.576179,0.9125584,20.489847,21.161724,-9.821442,40.963387,27.662775,4.791101,11.917875,8.054085,-19.152287,20.617514,46.067177,-35.73036,6.465596,-20.726246
9,0.4455408453941345,-6.426723480224609,76.81085205078125,-1.8894394535568224,3.261878829696348,86.37986749098503,-26.77921,7.2432623,2.5495558,22.516367,0.75820255,-7.05743,1.0887247,-2.626132,-8.313198,26.407032,-19.598007,7.0062413,-0.7329072,-0.38251922,0.9504534,20.849096,20.932348,-9.928107,41.07711,27.798176,4.814761,11.833599,7.393333,-19.328602,20.457123,45.949574,-35.674446,6.454398,-20.775045
10,0.522304117679596,-6.940372467041016,76.769287109375,-1.9235336005353019,3.5693516938094403,86.37349490834313,-27.33105,7.356646,2.544084,22.00456,0.93576384,-7.067873,0.85815305,-2.4536567,-8.633245,25.347399,-19.925886,6.7231,-0.48286042,-0.14714062,1.016453,21.193827,20.68944,-10.020444,41.18481,27.957104,4.843143,11.741264,6.7348475,-19.513319,20.26132,45.8018,-35.589195,6.437903,-20.833979
11,0.5939632058143616,-7.459977149963379,76.73346710205078,-1.9709042753839738,3.8642737113996293,86.35672396766958,-27.829329,7.496748,2.5699165,21.428207,1.0671009,-7.095675,0.5743018,-2.2723567,-8.949924,24.394346,-20.196398,6.404564,-0.22724488,0.109673806,1.112932,21.532969,20.43248,-10.088912,41.285435,28.133133,4.87333,11.649285,6.0816016,-19.70841,20.055927,45.63784,-35.472763,6.4092674,-20.90527
12,0.6670567393302917,-7.9895524978637695,76.70600128173828,-2.0155230103389554,4.13493907662872,86.32745144019016,-28.241854,7.643682,2.644098,20.764347,1.1637979,-7.139811,0.2821122,-2.0910418,-9.201347,23.48239,-20.408163,6.1238065,0.030689413,0.36742964,1.2428945,21.87839,20.16008,-10.121633,41.376022,28.320827,4.902441,11.565589,5.4359746,-19.916656,19.868725,45.471294,-35.32301,6.3617206,-20.99124
13,0.7341568470001221,-8.5206937789917,76.6836166381836,-2.0475401080768694,4.380920001835861,86.27793526761128,-28.562885,7.7877994,2.7684762,20.00402,1.2198784,-7.201273,-0.018341415,-1.9181834,-9.369008,22.600563,-20.569115,5.891781,0.2972278,0.6158172,1.4136099,22.231192,19.867939,-10.10014,41.4527,28.53922,4.9290776,11.485308,4.7916517,-20.140715,19.701168,45.29893,-35.121807,6.2903757,-21.09002
14,0.7963083982467651,-9.053003311157227,76.66079711914062,-2.081348594808168,4.606581511074119,86.21107793293477,-28.806068,7.9438434,2.934981,19.15765,1.2334268,-7.2795024,-0.34594107,-1.7451854,-9.487327,21.781994,-20.676111,5.671768,0.5691787,0.8718284,1.6221466,22.587105,19.553698,-10.03318,41.517567,28.785732,4.9546447,11.406689,4.149044,-20.380154,19.544764,45.11463,-34.874977,6.199502,-21.20049
15,0.8528384566307068,-9.581228256225586,76.64557647705078,-2.1291632585378815,4.807446490382408,86.14100586460123,-28.972076,8.1277275,3.1465654,18.237106,1.2200184,-7.371827,-0.6817359,-1.5553229,-9.573524,21.02162,-20.715609,5.4656386,0.8302048,1.1526783,1.8565087,22.950626,19.2218,-9.950344,41.575905,29.022118,4.981236,11.342299,3.5140405,-20.63535,19.410568,44.93328,-34.617023,6.0964804,-21.326195
16,0.8978360295295715,-10.112465858459473,76.63436889648438,-2.209243498627884,4.97883450956401,86.08197755591667,-29.060741,8.3530655,3.406812,17.253876,1.1949911,-7.4766636,-1.0072252,-1.3333129,-9.644611,20.315365,-20.674837,5.2748876,1.0653473,1.4744643,2.1052797,23.32665,18.879803,-9.882638,41.630913,29.208565,5.010667,11.304315,2.8976097,-20.904728,19.307966,44.7649,-34.381527,5.988355,-21.470243
17,0.9440259337425232,-10.641717910766602,76.62904357910156,-2.334666987567989,5.113540534121059,86.0422850648774,-29.046219,8.614202,3.664412,16.146091,1.1788497,-7.662886,-1.3027847,-1.0591942,-9.699812,19.641417,-20.538614,5.101889,1.2686126,1.8532219,2.378377,23.719154,18.53236,-9.832784,41.67647,29.324518,5.0464892,11.307781,2.301932,-21.188408,19.233397,44.60054,-34.18594,5.878389,-21.637629
18,0.9859435558319092,-11.166423797607422,76.63030242919922,-2.4979144602944974,5.213842349814345,86.01133073550004,-28.930504,8.908533,3.9373941,14.920143,1.1629227,-7.909748,-1.5820307,-0.74395096,-9.731271,19.009865,-20.318005,4.944446,1.4520726,2.2778678,2.6800156,24.125273,18.179623,-9.788394,41.710068,29.391996,5.08672,11.341361,1.7244097,-21.48619,19.180689,44.435352,-34.009438,5.7618437,-21.824556
19,1.0246095657348633,-11.679681777954102,76.6416015625,-2.6742420964923657,5.292680872963181,85.9764708592409,-28.764725,9.247783,4.331696,13.702183,1.1139861,-8.083827,-1.8777139,-0.42190903,-9.747034,18.461197,-20.037058,4.797806,1.625727,2.7210882,2.987621,24.540146,17.823126,-9.75826,41.74179,29.43633,5.1247725,11.377807,1.1694561,-21.794252,19.15466,44.287388,-33.829914,5.6342397,-22.022873
20,1.0599133968353271,-12.189399719238281,76.66822814941406,-2.836737305220753,5.365376616376773,85.92791395563881,-28.605433,9.636085,4.951011,12.625908,0.9953549,-8.053667,-2.2287757,-0.13179597,-9.757242,18.043005,-19.723125,4.6580567,1.7979052,3.1509304,3.2755096,24.95813,17.46599,-9.75039,41.782635,29.482141,5.1542277,11.389623,0.6366165,-22.108284,19.159895,44.17946,-33.626186,5.4913564,-22.22464
21,1.0920490026474,-12.70029354095459,76.70211029052734,-2.9818341597153752,5.449271205260554,85.87192338521308,-28.510471,10.066392,5.760299,11.736135,0.7527116,-7.6564035,-2.6745968,0.11574852,-9.772896,17.794489,-19.3633,4.52884,1.965424,3.5651565,3.530447,25.37618,17.10711,-9.762546,41.836304,29.51716,5.171118,11.37585,0.11735769,-22.426538,19.204956,44.119553,-33.373634,5.315943,-22.43983
22,1.1174054145812988,-13.198761940002441,76.74501037597656,-3.121085832793238,5.536339044050047,85.81460245685435,-28.443369,10.527577,6.7211924,10.972838,0.40750077,-7.011067,-3.1937273,0.33483687,-9.789987,17.688663,-18.95279,4.413661,2.1214156,3.9740224,3.7640624,25.796938,16.746077,-9.790601,41.897743,29.534689,5.179628,11.348998,-0.39005184,-22.748909,19.285404,44.099182,-33.0911,5.1155863,-22.66915
23,1.1309218406677246,-13.69294261932373,76.79581451416016,-3.243801004731533,5.6037579228232755,85.74616055512418,-28.325132,11.018068,7.9327855,10.325584,0.032547172,-6.4100633,-3.7355306,0.5240883,-9.795692,17.678967,-18.533367,4.3076663,2.2715926,4.365748,3.9881976,26.223831,16.38931,-9.843108,41.963737,29.566774,5.1853514,11.302193,-0.86544734,-23.069002,19.38465,44.109814,-32.820927,4.9228263,-22.890478
24,1.14927339553833,-14.183717727661133,76.8490219116211,-3.346626253615522,5.626014797464999,85.65438564955221,-28.06248,11.538068,9.500905,9.763162,-0.2812162,-6.144381,-4.2448874,0.6879207,-9.775185,17.716728,-18.14614,4.2037926,2.4262686,4.7294564,4.2169814,26.662281,16.04765,-9.929782,42.028763,29.64399,5.1936903,11.22767,-1.2874293,-23.37652,19.483578,44.143974,-32.605907,4.770705,-23.082417
25,1.1535334587097168,-14.667330741882324,76.90120697021484,-3.440811164896789,5.577339067955766,85.50488784800432,-27.499092,12.130948,11.72299,9.077906,-0.42599192,-6.416023,-4.696514,0.8486551,-9.698617,17.800444,-17.791367,4.09644,2.6203592,5.0705185,4.468669,27.125847,15.727278,-10.057093,42.09368,29.760881,5.2043877,11.130174,-1.6550996,-23.665318,19.580772,44.217964,-32.454952,4.6633496,-23.24908
26,1.163971185684204,-15.137415885925293,76.94219970703125,-3.526789837224766,5.477327061278252,85.31356771672046,-26.708769,12.755465,14.466896,8.338081,-0.45018446,-7.031822,-5.1217837,1.0023605,-9.582663,17.951338,-17.450272,3.990396,2.8419497,5.390005,4.7304287,27.612291,15.430023,-10.218847,42.155914,29.903458,5.2147694,11.010673,-1.9795089,-23.934868,19.682098,44.33416,-32.348076,4.5851693,-23.400078
27,1.1834019422531128,-15.593278884887695,76.9800033569336,-3.580841950513237,5.368731465629813,85.14444090322944,-25.968603,13.31839,17.181965,7.9655037,-0.5274987,-7.6754246,-5.5495973,1.1105236,-9.480996,18.152546,-17.134865,3.8926275,3.0315819,5.667097,4.970665,28.101513,15.161429,-10.406304,42.20493,30.088163,5.226717,10.856243,-2.2555027,-24.180994,19.7784,44.463715,-32.283253,4.5400944,-23.522606
28,1.1976358890533447,-16.044567108154297,77.01932525634766,-3.5723819796722847,5.294455292149223,85.06169807629439,-25.57212,13.777736,19.302612,8.40582,-0.8728781,-8.022461,-6.0112104,1.1292424,-9.445006,18.391714,-16.85979,3.8098195,3.1302788,5.8744025,5.1578693,28.572596,14.930139,-10.611013,42.231678,30.33102,5.241655,10.652935,-2.4755409,-24.398409,19.858007,44.577045,-32.26111,4.53186,-23.60438
29,1.2109699249267578,-16.50296974182129,77.06367492675781,-3.4810488649103166,5.267900721782238,85.08229606945847,-25.607471,14.163347,20.776165,9.8451,-1.5626137,-7.935071,-6.530402,1.0275186,-9.483638,18.691292,-16.639042,3.7457976,3.1203275,5.98472,5.286656,29.023983,14.744436,-10.836649,42.229946,30.646511,5.2654576,10.389524,-2.6471972,-24.58047,19.91577,44.678837,-32.309372,4.579914,-23.633535
30,1.2229726314544678,-16.962289810180664,77.1140365600586,-3.3388217947055074,5.255145847754286,85.16206492491635,-25.851898,14.507642,21.876438,11.902819,-2.42222,-7.603723,-7.067702,0.8537579,-9.561824,19.033752,-16.454147,3.6919096,3.0465667,6.0277963,5.3816323,29.470848,14.606136,-11.0858965,42.199852,31.020214,5.2941604,10.074432,-2.768932,-24.725193,19.954218,44.782394,-32.42054,4.6760826,-23.620022
31,1.234814167022705,-17.41136932373047,77.15593719482422,-3.205484625160347,5.226589749122333,85.27287315427373,-26.153606,14.791687,22.520866,14.200269,-3.3169007,-7.1991315,-7.5590954,0.68435735,-9.665061,19.347147,-16.2716,3.635654,2.9443483,6.062894,5.4583697,29.91437,14.51196,-11.347279,42.142975,31.425398,5.314706,9.7235565,-2.8296068,-24.839474,19.975975,44.87636,-32.54071,4.783214,-23.583815
32,1.2439407110214233,-17.843198776245117,77.18522644042969,-3.124439139776795,5.163439630534198,85.39573782933381,-26.412483,14.990029,22.618452,16.442366,-4.156502,-6.883231,-7.9604588,0.5745391,-9.786066,19.5806,-16.068329,3.5679753,2.8395832,6.136524,5.524739,30.350542,14.455239,-11.610481,42.065353,31.836224,5.3141,9.352961,-2.8146327,-24.934248,19.983639,44.94419,-32.61357,4.864104,-23.544916
33,1.248697280883789,-18.261093139648438,77.20783996582031,-3.1055504844271953,5.065801977757599,85.54574662437301,-26.676565,15.07275,21.993055,18.664528,-4.9405904,-6.6829367,-8.265257,0.53059316,-9.9403105,19.729887,-15.847131,3.4827914,2.7155588,6.261841,5.5775957,30.782969,14.435654,-11.890624,41.95863,32.26671,5.288661,8.945589,-2.713774,-25.012894,19.971354,44.974525,-32.628315,4.914106,-23.498213
34,1.249826431274414,-18.67391586303711,77.22373962402344,-3.126613027777502,4.941487755518742,85.72555194372488,-26.989048,15.036857,20.74619,20.992098,-5.7098327,-6.527484,-8.494903,0.528374,-10.127302,19.819572,-15.617754,3.3852594,2.5698175,6.420744,5.6174283,31.206057,14.452498,-12.192204,41.82647,32.72342,5.244297,8.500574,-2.5264225,-25.084509,19.934275,44.963795,-32.61053,4.9504995,-23.433638
35,1.2432523965835571,-19.0783748626709,77.23268127441406,-3.17444385058365,4.793655893169097,85.90763637048097,-27.26246,14.8988495,19.201609,23.299206,-6.460317,-6.4175797,-8.664769,0.5549089,-10.321265,19.858744,-15.375868,3.286757,2.431811,6.591323,5.6469507,31.607494,14.497493,-12.478321,41.690964,33.17152,5.1828475,8.058065,-2.2629135,-25.147093,19.887823,44.923096,-32.560913,4.9707823,-23.369213
36,1.2382031679153442,-19.471263885498047,77.24169921875,-3.2296003841291876,4.6264331222273265,86.06573572257663,-27.410843,14.691135,17.679815,25.468916,-7.196959,-6.346171,-8.793398,0.59362346,-10.496448,19.859226,-15.117813,3.1992893,2.3277977,6.75167,5.6671405,31.97311,14.5554495,-12.711976,41.578667,33.57807,5.1078844,7.6596494,-1.9361372,-25.20431,19.849995,44.86456,-32.480606,4.9725347,-23.322294
37,1.2269099950790405,-19.85919952392578,77.2511215209961,-3.2872869219476706,4.437922417562257,86.20306187041484,-27.439148,14.387641,16.119465,27.50687,-7.926854,-6.324815,-8.876619,0.6359624,-10.655888,19.820602,-14.846791,3.1269891,2.2531137,6.9010797,5.6751347,32.297062,14.617046,-12.894924,41.496414,33.955433,5.0119467,7.3025646,-1.5462607,-25.260263,19.836226,44.78591,-32.338223,4.9435544,-23.300594
38,1.2117109298706055,-20.24129867553711,77.25930786132812,-3.3516236456506734,4.230358658269791,86.33386092288275,-27.38448,13.978886,14.402639,29.47862,-8.656699,-6.3511157,-8.913876,0.68420327,-10.811447,19.74321,-14.565625,3.0645375,2.1885214,7.0476136,5.668249,32.583786,14.679877,-13.0402,41.43763,34.31774,4.8972697,6.9714656,-1.0915446,-25.315681,19.840542,44.684353,-32.142887,4.889303,-23.293314
39,1.1921043395996094,-20.610502243041992,77.27021026611328,-3.4186571411157836,4.014354671540478,86.4481843088721,-27.230198,13.548132,12.752892,31.390072,-9.397448,-6.388213,-8.92998,0.7380412,-10.950497,19.64412,-14.273123,3.01006,2.1379125,7.1832294,5.647186,32.834328,14.738,-13.126729,41.407963,34.635612,4.7829843,6.688237,-0.586752,-25.366953,19.850533,44.576496,-31.954,4.833958,-23.291725
40,1.1703944206237793,-20.976417541503906,77.28197479248047,-3.4857000098658326,3.7997654976106725,86.53545813152658,-26.962532,13.186811,11.388344,33.237743,-10.154522,-6.395699,-8.947782,0.79862756,-11.060187,19.536709,-13.965993,2.9614165,2.1037982,7.3016963,5.6130366,33.05061,14.782933,-13.131658,41.41412,34.881035,4.688592,6.474936,-0.048052374,-25.405804,19.85641,44.48159,-31.83177,4.801854,-23.287699
41,1.1477514505386353,-21.338584899902344,77.29431915283203,-3.551520010052093,3.5881058092987987,86.59114624061846,-26.57371,12.922214,10.355753,35.019035,-10.945197,-6.366561,-8.969597,0.8659416,-11.133245,19.419909,-13.638777,2.9216743,2.0872931,7.3999906,5.558169,33.227043,14.80203,-13.039954,41.47623,35.051353,4.613057,6.341688,0.50984955,-25.421701,19.870178,44.42281,-31.800488,4.799258,-23.285604
42,1.1232048273086548,-21.701086044311523,77.30449676513672,-3.616360920139953,3.374945863958551,86.62193726397382,-26.078176,12.720558,9.534721,36.738697,-11.762928,-6.3136992,-8.986024,0.93844724,-11.1778555,19.289972,-13.295386,2.8910103,2.0879538,7.481218,5.4853635,33.3694,14.809283,-12.866114,41.576824,35.15842,4.5469832,6.27164,1.1066278,-25.427643,19.891836,44.37325,-31.820698,4.8125463,-23.285969
43,1.095664620399475,-22.059907913208008,77.31604766845703,-3.6838971387783594,3.160337298390268,86.63331086074454,-25.498907,12.586306,8.888739,38.40536,-12.577491,-6.2251797,-8.998048,1.0172896,-11.20438,19.149982,-12.944322,2.8626707,2.0959432,7.550482,5.402469,33.475742,14.802993,-12.633871,41.70714,35.20414,4.5082965,6.2626696,1.7324355,-25.42044,19.906979,44.337513,-31.876116,4.8402457,-23.284365
44,1.0673660039901733,-22.41094207763672,77.32479095458984,-3.7571313715742605,2.9441004049633728,86.63099115633132,-24.858068,12.522251,8.381996,40.025913,-13.357626,-6.0899625,-9.006579,1.10341,-11.223016,19.002623,-12.593686,2.8298478,2.0800617,7.604442,5.325128,33.565468,14.7762575,-12.327929,41.838737,35.20494,4.50712,6.303681,2.361341,-25.389095,19.922647,44.323463,-31.946634,4.8799253,-23.274765
45,1.0327363014221191,-22.758811950683594,77.33482360839844,-3.835850706729052,2.7239701904781093,86.61103062210262,-24.146738,12.570474,8.072183,41.619698,-14.106606,-5.8898287,-9.006513,1.1996199,-11.231987,18.842482,-12.244934,2.7899566,2.049142,7.645206,5.24741,33.62821,14.717561,-11.947971,41.99342,35.146534,4.567514,6.4146976,2.9803684,-25.31831,19.937588,44.360638,-32.05027,4.938553,-23.260141
46,0.9992302656173706,-23.112306594848633,77.3375244140625,-3.919368682666826,2.500524137938502,86.57226409245624,-23.359236,12.726616,7.949099,43.177273,-14.838999,-5.631397,-8.998369,1.3047565,-11.227318,18.668901,-11.893365,2.746943,2.0173967,7.673508,5.1658936,33.65733,14.638691,-11.501473,42.17425,35.02562,4.675418,6.5924377,3.6161842,-25.219826,19.942474,44.424107,-32.190308,5.013976,-23.240171
47,0.9638329148292542,-23.45973777770996,77.34246826171875,-4.006201936334564,2.2782056168561122,86.52431424515588,-22.521141,12.917793,7.8786287,44.662334,-15.540175,-5.343237,-8.994033,1.4135089,-11.216066,18.497345,-11.54098,2.7037323,1.9682361,7.689063,5.082072,33.650074,14.547418,-11.02142,42.370354,34.86592,4.8010626,6.813476,4.25186,-25.09459,19.942116,44.518192,-32.337288,5.0967064,-23.219215
48,0.918800950050354,-23.80876922607422,77.3421859741211,-4.094501025549337,2.061661349244511,86.47715052879087,-21.661522,13.065434,7.7294445,46.0426,-16.195509,-5.056423,-9.005093,1.5201263,-11.205523,18.341785,-11.188241,2.663236,1.8918505,7.6924095,4.9962883,33.60153,14.4567995,-10.549963,42.571682,34.687794,4.915405,7.054951,4.8820214,-24.944191,19.931911,44.63903,-32.46255,5.1769776,-23.20078
49,0.8694050908088684,-24.155778884887695,77.34175872802734,-4.183285856153967,1.8524884718972214,86.4272732459131,-20.78136,13.169195,7.5086203,47.325573,-16.81289,-4.749712,-9.03526,1.6236751,-11.192239,18.205711,-10.835696,2.6264098,1.796197,7.679364,4.906873,33.512955,14.374521,-10.086637,42.775112,34.475803,5.0162067,7.3274555,5.5111732,-24.768965,19.904942,44.786823,-32.567192,5.253591,-23.18709
50,0.8197842240333557,-24.50806427001953,77.34111785888672,-4.273916985636507,1.648222284118178,86.3717997028784,-19.868979,13.261741,7.2730465,48.52587,-17.397177,-4.4172254,-9.077868,1.7266103,-11.17419,18.080856,-10.482217,2.5916464,1.6881974,7.6493316,4.8138175,33.388004,14.301773,-9.61694,42.98122,34.22262,5.1155424,7.636208,6.1498985,-24.567213,19.85913,44.955254,-32.66365,5.330677,-23.175207
51,0.7650529742240906,-24.86093521118164,77.33183288574219,-4.367622786454033,1.4483279589841809,86.3211817881878,-18.937992,13.309761,6.9692516,49.62477,-17.927515,-4.114627,-9.132473,1.8270881,-11.16105,17.969618,-10.130129,2.5581057,1.5578816,7.6059694,4.720136,33.225815,14.244085,-9.161983,43.183292,33.960133,5.20682,7.949789,6.7914805,-24.341225,19.797619,45.137386,-32.739666,5.40689,-23.161295
52,0.7127986550331116,-25.217491149902344,77.32109832763672,-4.463957354475892,1.2523513615313424,86.28636345693715,-18.001623,13.279687,6.5451107,50.603436,-18.38288,-3.8978748,-9.198704,1.9231675,-11.162593,17.874489,-9.782009,2.5249665,1.397342,7.5536613,4.6290374,33.0254,14.209343,-8.745874,43.373302,33.719112,5.283656,8.236077,7.4366326,-24.094534,19.719614,45.31958,-32.78265,5.4803824,-23.140942
53,0.6557842493057251,-25.57745933532715,77.30531311035156,-4.564286311830102,1.0593515898876693,86.26811719049385,-17.063946,13.153933,5.972933,51.476933,-18.776274,-3.7679095,-9.276454,2.0141573,-11.178056,17.79874,-9.435785,2.4927926,1.2057382,7.4922943,4.541704,32.78722,14.202155,-8.371422,43.548763,33.498123,5.343012,8.490639,8.090172,-23.828035,19.618263,45.49525,-32.777973,5.5525837,-23.100061
54,0.5948536396026611,-25.93863868713379,77.28666687011719,-4.667382569641478,0.8702714070937603,86.26150541652163,-16.118063,12.951354,5.28799,52.25277,-19.113642,-3.7007525,-9.367277,2.10045,-11.203537,17.74158,-9.091667,2.4618316,0.9905731,7.418928,4.4560003,32.51194,14.223377,-8.030773,43.71195,33.2816,5.388393,8.72789,8.755505,-23.54145,19.491604,45.666954,-32.736073,5.623414,-23.044785
55,0.5316140651702881,-26.304363250732422,77.26341247558594,-4.773878007404477,0.6875513377507412,86.26921179044828,-15.16009,12.694195,4.5325656,52.90411,-19.364693,-3.7142823,-9.469956,2.182298,-11.243925,17.694685,-8.753009,2.4305086,0.7570861,7.334624,4.3699956,32.19781,14.274948,-7.7310805,43.86226,33.0803,5.42368,8.94369,9.432353,-23.236607,19.346079,45.833607,-32.68013,5.688798,-23.000542
56,0.4663773477077484,-26.6729679107666,77.23670196533203,-4.884391240236765,0.5136498263376421,86.29364683764474,-14.186797,12.406125,3.7474945,53.40159,-19.497894,-3.8277152,-9.583519,2.2597475,-11.3041315,17.649202,-8.422449,2.3973207,0.51120186,7.24066,4.2818766,31.842886,14.359041,-7.481243,43.999237,32.90436,5.4527974,9.133948,10.121331,-22.91693,19.187483,45.993565,-32.633545,5.7443414,-22.9922
57,0.40188562870025635,-27.047039031982422,77.20668029785156,-4.99998172969792,0.3496341951323926,86.33815552679553,-13.195425,12.065927,2.8976467,53.762047,-19.460226,-4.0781097,-9.7083645,2.3336256,-11.388988,17.60593,-8.105952,2.3605366,0.25127262,7.137789,4.188007,31.444204,14.479092,-7.293219,44.125984,32.760117,5.473451,9.300355,10.82807,-22.583408,19.011099,46.142014,-32.605923,5.796467,-23.021704
58,0.3316176235675812,-27.427762985229492,77.17115020751953,-5.120288187818242,0.19437905270363634,86.40066098648087,-12.186156,11.671014,1.9753841,53.995792,-19.28679,-4.4449134,-9.845308,2.4031081,-11.494858,17.569353,-7.8006177,2.3213058,-0.022284057,7.025428,4.089951,31.002186,14.635135,-7.1626763,44.241642,32.63933,5.484583,9.443179,11.554196,-22.235216,18.813665,46.27708,-32.58304,5.8444867,-23.07637
59,0.25709012150764465,-27.807022094726562,77.13282775878906,-5.242825507872491,0.04707468188926246,86.4757820030794,-11.16409,11.273979,1.061322,54.065002,-19.078737,-4.8594046,-9.993658,2.466946,-11.614046,17.534912,-7.495761,2.2823453,-0.3023609,6.9028716,3.993817,30.519053,14.822041,-7.071434,44.34149,32.531513,5.4921446,9.557012,12.291622,-21.874388,18.605423,46.402893,-32.55238,5.8736567,-23.160063
60,0.182245671749115,-28.191986083984375,77.09227752685547,-5.366747485286766,-0.09325407355257741,86.55790082552403,-10.138316,10.928868,0.23606654,53.93296,-18.935057,-5.249976,-10.154417,2.5236294,-11.738975,17.502048,-7.182855,2.2462223,-0.58419967,6.770218,3.9062717,29.997807,15.031676,-6.9987397,44.420757,32.4277,5.502321,9.637043,13.028154,-21.506416,18.398615,46.525963,-32.501034,5.869402,-23.276817
61,0.10002406686544418,-28.583276748657227,77.04769134521484,-5.493025073207041,-0.23092535616433188,86.65306206709047,-9.099833,10.636436,-0.5083758,53.62459,-18.82782,-5.605967,-10.322406,2.5730097,-11.875813,17.474522,-6.8645277,2.2128186,-0.87923294,6.6319222,3.831664,29.439285,15.25842,-6.9450955,44.47752,32.347366,5.5184307,9.673908,13.7658825,-21.134466,18.195276,46.646824,-32.42252,5.823206,-23.435234
62,0.012835979461669922,-28.9803466796875,77.00391387939453,-5.623203642158385,-0.3639904807571794,86.76193518482604,-8.051054,10.374102,-1.2073601,53.14973,-18.721973,-5.960622,-10.498839,2.6159456,-12.026092,17.45081,-6.5432873,2.180682,-1.1895351,6.4888678,3.766181,28.841494,15.500765,-6.917758,44.51614,32.290424,5.537214,9.67365,14.507009,-20.759726,17.992855,46.762054,-32.324127,5.744188,-23.629913
63,-0.07382816076278687,-29.380577087402344,76.95520782470703,-5.75246664017235,-0.4837674689466235,86.87052071612072,-7.0211315,10.16121,-1.819218,52.44653,-18.702501,-6.3063774,-10.693083,2.6535034,-12.175237,17.421135,-6.209879,2.15061,-1.4972584,6.337452,3.7040017,28.204145,15.75575,-6.9055767,44.54062,32.217484,5.554906,9.655429,15.244235,-20.383867,17.797596,46.86969,-32.212364,5.644482,-23.844204
64,-0.1614493727684021,-29.795942306518555,76.90406036376953,-5.876012262126518,-0.5814447509463255,86.96533849032618,-6.0394225,10.015663,-2.300702,51.45199,-18.854187,-6.63571,-10.916122,2.686843,-12.308892,17.377874,-5.856223,2.123336,-1.7858379,6.1738534,3.639352,27.527405,16.019215,-6.8962636,44.554783,32.090275,5.567758,9.638261,15.967673,-20.009722,17.617222,46.969597,-32.093414,5.5362844,-24.061365
65,-0.25769472122192383,-30.2115535736084,76.85297393798828,-5.999539358141868,-0.6583035145123559,87.04164304658488,-5.0768027,9.953001,-2.6345236,50.035297,-19.217604,-6.9779315,-11.165865,2.724854,-12.423863,17.31845,-5.477836,2.0999022,-2.0504205,6.005925,3.5694976,26.807901,16.288029,-6.894382,44.566242,31.907131,5.5730953,9.62339,16.682732,-19.639957,17.454302,47.060493,-31.96157,5.420695,-24.285254
66,-0.35983607172966003,-30.632537841796875,76.80294799804688,-6.123776321260108,-0.7177795010931612,87.10727006983682,-4.130069,9.9552,-2.8409739,48.26289,-19.737387,-7.3299522,-11.438657,2.763675,-12.5277405,17.247679,-5.080059,2.0795345,-2.3022923,5.833993,3.4980042,26.04703,16.561062,-6.903034,44.571167,31.6868,5.5736575,9.602253,17.391771,-19.275711,17.306736,47.142673,-31.815132,5.291621,-24.521288
67,-0.4589454233646393,-31.059125900268555,76.75174713134766,-6.233962584708592,-0.7545763331747887,87.1668730327207,-3.2666445,9.987541,-2.933615,46.365337,-20.353573,-7.634739,-11.738925,2.7865047,-12.622439,17.162355,-4.6663437,2.0602899,-2.5502763,5.6428933,3.4284158,25.251707,16.837467,-6.907662,44.55718,31.421509,5.5739684,9.580065,18.08106,-18.916555,17.175432,47.21767,-31.667717,5.1511283,-24.756016
68,-0.5621490478515625,-31.50281524658203,76.7042007446289,-6.3129216166767295,-0.7632439220268,87.22523552265561,-2.5550935,10.016614,-2.9299273,44.577087,-21.009684,-7.8314166,-12.071552,2.776233,-12.709569,17.061195,-4.240839,2.0402086,-2.8033931,5.4165773,3.364125,24.429783,17.117369,-6.8921785,44.51133,31.10409,5.5787153,9.562139,18.732899,-18.562525,17.061571,47.290234,-31.532993,5.0017643,-24.976606
69,-0.6643577814102173,-31.9519100189209,76.66412353515625,-6.366238638641038,-0.7440162617591863,87.27684116458907,-2.0008175,10.054151,-2.8173974,42.87858,-21.763092,-7.895673,-12.436372,2.7380867,-12.788232,16.938662,-3.7993646,2.0175831,-3.0611303,5.1575,3.3019505,23.580235,17.399406,-6.8541102,44.436214,30.726038,5.594869,9.547744,19.346565,-18.213556,16.970913,47.361477,-31.412346,4.843866,-25.183596
70,-0.7700005769729614,-32.416805267333984,76.62114715576172,-6.398463626715349,-0.6991784225863329,87.32152093458916,-1.5705054,10.106658,-2.5940795,41.17164,-22.620726,-7.8635855,-12.831531,2.6783216,-12.857864,16.798027,-3.3419995,1.9937342,-3.3208969,4.8719397,3.2407696,22.701244,17.683498,-6.799727,44.336372,30.294388,5.618234,9.535396,19.92831,-17.870592,16.90215,47.43144,-31.299713,4.676486,-25.382862
71,-0.875780463218689,-32.89189529418945,76.57701873779297,-6.3987396698254555,-0.6273448296412824,87.37123977356187,-1.2766516,10.136377,-2.2975533,39.5761,-23.452663,-7.7591715,-13.257929,2.581792,-12.919948,16.645584,-2.8760188,1.9715148,-3.5881078,4.550606,3.1859803,21.798943,17.971975,-6.7277107,44.20225,29.82397,5.6360908,9.528006,20.475775,-17.533274,16.846224,47.499977,-31.195766,4.50026,-25.569323
72,-0.9779118895530701,-33.37485122680664,76.53690338134766,-6.3561858278979475,-0.5267973985311722,87.43840980344794,-1.13456,10.1090975,-1.966471,38.216797,-24.131422,-7.603845,-13.717497,2.4333205,-12.9757395,16.489954,-2.4104962,1.9538673,-3.8675077,4.1841507,3.1425285,20.879566,18.268444,-6.637531,44.0241,29.32978,5.6356125,9.528386,20.98653,-17.199774,16.793295,47.567696,-31.101395,4.3156676,-25.737844
73,-1.0780634880065918,-33.87681198120117,76.50162506103516,-6.258754718746011,-0.38892847595498214,87.52402401238753,-1.1765567,10.022982,-1.5458558,37.150337,-24.627333,-7.3578124,-14.238448,2.2139642,-13.018795,16.362835,-1.950691,1.9442589,-4.1592007,3.753493,3.1080754,19.938799,18.573902,-6.5168023,43.791252,28.792986,5.6134543,9.5344095,21.456148,-16.868153,16.745125,47.632935,-31.007107,4.1152387,-25.882294
74,-1.1769154071807861,-34.38154602050781,76.47755432128906,-6.114018829538505,-0.21763796610289277,87.62261292559349,-1.3886797,9.898019,-1.0399266,36.307312,-25.009907,-7.0217137,-14.80943,1.9371206,-13.048643,16.247492,-1.4896437,1.9404299,-4.460225,3.2682383,3.0790663,18.975475,18.888584,-6.371492,43.51175,28.213423,5.5762014,9.544691,21.886524,-16.538069,16.70469,47.69828,-30.915916,3.9014676,-26.007458
75,-1.2770142555236816,-34.89519500732422,76.4614486694336,-5.948219831217927,-0.030536012872104775,87.73579153412562,-1.7155731,9.734582,-0.5743228,35.62045,-25.297241,-6.676954,-15.377347,1.6355824,-13.076358,16.087856,-1.0214324,1.9367723,-4.768602,2.7625468,3.0588844,17.997015,19.216122,-6.2316403,43.206055,27.631142,5.5256796,9.562952,22.284512,-16.210472,16.661823,47.767517,-30.847898,3.6896572,-26.124104
76,-1.3802897930145264,-35.41511154174805,76.44689178466797,-5.784474930481561,0.1548817800586461,87.86532918061047,-2.1016917,9.531523,-0.27410623,35.022453,-25.507544,-6.405144,-15.888641,1.3429875,-13.114745,15.826748,-0.53944993,1.9275988,-5.0801725,2.2702987,3.0518696,17.010822,19.561522,-6.1293783,42.893635,27.08511,5.4634447,9.592183,22.660637,-15.886598,16.60327,47.84194,-30.823269,3.4948783,-26.24295
77,-1.474732756614685,-35.943992614746094,76.43583679199219,-5.619835705701221,0.34424030316740756,88.01364466929118,-2.5481327,9.270391,-0.18423939,34.49367,-25.638603,-6.229682,-16.363932,1.0575328,-13.154657,15.482827,-0.011391479,1.899451,-5.4020066,1.7863642,3.0572073,16.016819,19.928637,-6.065665,42.566006,26.566917,5.385408,9.633229,23.011362,-15.56598,16.521015,47.923286,-30.854248,3.3115942,-26.364092
78,-1.5659024715423584,-36.469058990478516,76.42962646484375,-5.445670977892358,0.5429966210759646,88.17905908852478,-3.0787017,8.95927,-0.23209547,34.07023,-25.682613,-6.1071815,-16.821083,0.76542336,-13.193899,15.07689,0.5484383,1.8594549,-5.730288,1.2966473,3.0727723,15.009639,20.316837,-6.030581,42.21752,26.059717,5.2916765,9.68318,23.33714,-15.246797,16.420317,48.007713,-30.927795,3.1348777,-26.482647
79,-1.6571741104125977,-36.99329376220703,76.4281005859375,-5.275099007670563,0.7331572843134929,88.35792760158071,-3.668123,8.632062,-0.36600545,33.76506,-25.64781,-6.019024,-17.198936,0.48226047,-13.257227,14.551032,1.0775967,1.8333303,-6.044812,0.8192267,3.1034126,13.986447,20.723322,-6.038951,41.87214,25.590279,5.190111,9.740008,23.650911,-14.929777,16.307184,48.088802,-31.02601,2.9804585,-26.601826
80,-1.7474647760391235,-37.518245697021484,76.4278793334961,-5.121060253000287,0.8965603471242299,88.54650397276622,-4.2934475,8.321179,-0.5350326,33.595547,-25.544624,-5.946843,-17.433704,0.22452128,-13.369944,13.840555,1.5173532,1.8479614,-6.32531,0.37131456,3.1555161,12.944328,21.144241,-6.105832,41.55337,25.185608,5.0889664,9.802239,23.966488,-14.617738,16.186834,48.15841,-31.131472,2.864176,-26.724424
81,-1.8324939012527466,-38.03508377075195,76.4351577758789,-4.984693638227611,1.0351591525676376,88.75707021642386,-4.9891315,8.021471,-0.7634544,33.620777,-25.359518,-5.9027195,-17.521263,-0.0013054069,-13.503894,12.912273,1.8470429,1.8873771,-6.576764,-0.045213148,3.2366648,11.868,21.581165,-6.2432127,41.26051,24.862238,4.9867406,9.876059,24.29457,-14.311089,16.04747,48.19692,-31.252178,2.799905,-26.853746
82,-1.9112354516983032,-38.54989242553711,76.45455169677734,-4.85480281321818,1.1553753422553406,88.98810730962228,-5.7517343,7.7110868,-1.0626411,33.813507,-25.092432,-5.894232,-17.486706,-0.20517282,-13.658197,11.796718,2.1053464,1.9498229,-6.806519,-0.44387007,3.3439317,10.762678,22.033245,-6.4415803,40.98179,24.601812,4.8803096,9.960011,24.626987,-14.008304,15.890287,48.211952,-31.392792,2.7759676,-26.986845
83,-1.98703134059906,-39.05875778198242,76.48216247558594,-4.725202332450845,1.245617644533499,89.21639900784263,-6.4966383,7.396951,-1.362511,34.051743,-24.769897,-5.89433,-17.311457,-0.39586776,-13.899472,10.528241,2.3228345,2.0856857,-7.00202,-0.83165306,3.469346,9.655885,22.490396,-6.6805515,40.727062,24.380543,4.7754726,10.042745,24.948503,-13.712028,15.741268,48.23732,-31.53057,2.7694106,-27.117252
84,-2.0649828910827637,-39.554264068603516,76.51722717285156,-4.58885526358893,1.2947552772677489,89.41821748303441,-7.141591,7.0886106,-1.5947549,34.21522,-24.418211,-5.8729277,-16.969505,-0.57854486,-14.294933,9.12289,2.539425,2.3457766,-7.153272,-1.2129436,3.6048794,8.578347,22.938623,-6.935978,40.50501,24.177483,4.6787157,10.11366,25.243032,-13.430427,15.62693,48.306908,-31.642225,2.7579954,-27.239206
85,-2.13981032371521,-40.044612884521484,76.55789184570312,-4.428129988526545,1.2933419802367885,89.60697376820906,-7.670213,6.763826,-1.7497313,34.291294,-24.027119,-5.8161516,-16.36077,-0.7612,-14.917175,7.3911505,2.8037055,2.8324125,-7.274159,-1.5985394,3.758176,7.526822,23.373158,-7.212921,40.326046,23.986898,4.5858727,10.174359,25.519754,-13.168368,15.537778,48.42587,-31.723612,2.736436,-27.35848
86,-2.2151083946228027,-40.51787567138672,76.60069274902344,-4.241764376861736,1.248783730801795,89.78985052382558,-8.120803,6.4143224,-1.8570458,34.331127,-23.584358,-5.7398148,-16.078722,-1.0924499,-15.70268,6.588982,2.4611113,3.5090897,-7.369381,-1.9902784,3.9314601,6.49129,23.794415,-7.5149145,40.181496,23.823307,4.4960046,10.230022,25.785313,-12.9279585,15.466222,48.573135,-31.785513,2.716598,-27.475616
87,-2.2907564640045166,-40.98334503173828,76.64752960205078,-4.061790074967181,1.177974650110244,89.9307948738281,-8.500579,6.0882235,-1.9124712,34.3185,-23.117931,-5.65765,-16.05597,-1.4917648,-16.53168,6.533995,1.742863,4.1950703,-7.416106,-2.3623586,4.108163,5.494163,24.194317,-7.8106413,40.05234,23.697046,4.42022,10.276253,26.018194,-12.716212,15.444755,48.743443,-31.82602,2.7017996,-27.576588
88,-2.3677613735198975,-41.44584274291992,76.70330810546875,-3.933758153715855,1.0991059783672381,89.99245314317463,-8.823047,5.846351,-1.9172449,34.24761,-22.661655,-5.584141,-15.978137,-1.7877306,-17.29554,6.495452,1.1544429,4.6921306,-7.39639,-2.6737773,4.2719755,4.5640235,24.5598,-8.061545,39.91791,23.621187,4.3693285,10.309236,26.195122,-12.543008,15.512196,48.93236,-31.840794,2.6949012,-27.646873
89,-2.4458506107330322,-41.899906158447266,76.77291870117188,-3.8884212140224284,1.0093850676550662,89.958664468875,-9.081611,5.725148,-1.8727247,34.11739,-22.232069,-5.521872,-15.834032,-1.9511034,-18.041422,6.4720674,0.70214474,4.9095364,-7.299706,-2.8872936,4.429756,3.704034,24.882057,-8.258502,39.779335,23.622314,4.35572,10.324342,26.306479,-12.42098,15.688467,49.150105,-31.790722,2.697412,-27.685698
90,-2.5238475799560547,-42.352508544921875,76.85110473632812,-3.903287082535369,0.9033685490089192,89.85006795083807,-9.278571,5.6941695,-1.782263,33.939415,-21.813238,-5.462683,-15.616769,-2.0194516,-18.805988,6.458673,0.3227658,4.95409,-7.144453,-3.0176144,4.58656,2.9062574,25.161066,-8.410718,39.64551,23.690126,4.370379,10.326276,26.36638,-12.355861,15.953961,49.39128,-31.686968,2.707016,-27.698353
91,-2.606574296951294,-42.80115509033203,76.9334945678711,-3.9473436250958027,0.794335876943789,89.68523267105003,-9.438948,5.715287,-1.6516706,33.722824,-21.388897,-5.4050865,-15.353862,-2.0140102,-19.458029,6.45405,0.022099815,4.918276,-6.9542623,-3.1012478,4.7235074,2.1843262,25.398474,-8.508534,39.504677,23.783098,4.3925095,10.325489,26.384409,-12.34482,16.285366,49.631386,-31.602549,2.7215204,-27.679642
92,-2.689220905303955,-43.242210388183594,77.01995849609375,-3.9853529950502264,0.6954426642275991,89.48296466156893,-9.587896,5.7496305,-1.486177,33.477642,-20.942955,-5.3479223,-15.074187,-1.9578589,-19.866295,6.45988,-0.19345152,4.893817,-6.751384,-3.1782072,4.822048,1.5491954,25.597496,-8.54487,39.34698,23.858986,4.401377,10.332331,26.36797,-12.380779,16.658976,49.849014,-31.611334,2.739079,-27.625202
93,-2.7664382457733154,-43.6837272644043,77.10860443115234,-4.0134729155887126,0.6098611070265915,89.23178449232823,-9.722434,5.795541,-1.2732829,33.19521,-20.466356,-5.2878275,-14.788721,-1.8398652,-19.967142,6.4772716,-0.30022094,4.886617,-6.515888,-3.2583365,4.872548,0.9952836,25.756346,-8.514935,39.1836,23.928417,4.3925147,10.3424835,26.311953,-12.461592,17.091446,50.057735,-31.729717,2.755261,-27.519962
94,-2.8451454639434814,-44.110496520996094,77.2024917602539,-4.048716148321843,0.5303727845016236,88.92761380134544,-9.832392,5.8709526,-1.0156239,32.87548,-19.970472,-5.226222,-14.480888,-1.6524832,-19.840229,6.5049343,-0.30954823,4.8505163,-6.2449365,-3.3204625,4.886297,0.5184249,25.874952,-8.423337,39.0173,24.006964,4.376637,10.353051,26.213093,-12.586497,17.588928,50.26509,-31.919535,2.772096,-27.371199
95,-2.9174716472625732,-44.53456497192383,77.29660034179688,-4.091534319093051,0.4548570588087529,88.6006123590938,-9.933433,5.9671164,-0.7414231,32.54264,-19.468826,-5.1698093,-14.141414,-1.4246628,-19.569155,6.543431,-0.26641023,4.801322,-5.980805,-3.3621213,4.876886,0.12610371,25.963364,-8.283821,38.828545,24.05818,4.3560286,10.376179,26.078585,-12.750546,18.103767,50.442776,-32.17624,2.7977107,-27.208805
96,-2.9837663173675537,-44.96570587158203,77.39128875732422,-4.142300511127746,0.3811573494496768,88.28061826523378,-10.041383,6.0760417,-0.47925156,32.221336,-18.975716,-5.125324,-13.761251,-1.184691,-19.237873,6.593167,-0.2149622,4.755075,-5.7635717,-3.3824406,4.8579,-0.17393145,26.036333,-8.11242,38.595932,24.043339,4.3327065,10.4231415,25.917828,-12.943115,18.588717,50.56194,-32.495445,2.8402174,-27.06238
97,-3.0485408306121826,-45.38834762573242,77.48146057128906,-4.197247206645101,0.3075289815171417,87.96376228462509,-10.148731,6.1956363,-0.22414985,31.902254,-18.487299,-5.094962,-13.33946,-0.924888,-18.822214,6.658777,-0.16141066,4.721951,-5.5943995,-3.3927834,4.8280106,-0.37104836,26.102518,-7.900791,38.307594,23.934807,4.3103213,10.496007,25.717583,-13.157859,19.059055,50.63252,-32.917873,2.9044585,-26.936062
98,-3.1069538593292236,-45.815460205078125,77.57145690917969,-4.255887064108665,0.23490171999800344,87.63915822680197,-10.250554,6.32719,0.03469479,31.577654,-17.998503,-5.07448,-12.879385,-0.6321952,-18.293518,6.7383523,-0.082017235,4.6980577,-5.4535065,-3.3982441,4.7823906,-0.4717145,26.162777,-7.6467795,37.973915,23.754702,4.2863164,10.5870695,25.475327,-13.392133,19.531185,50.66782,-33.433643,2.9847302,-26.815428
99,-3.1641125679016113,-46.235511779785156,77.65660858154297,-4.31955576883364,0.1649179802442226,87.32594721970227,-10.361033,6.4668803,0.27785334,31.26478,-17.515799,-5.0608993,-12.380199,-0.33019143,-17.728811,6.8306146,0.016792059,4.675974,-5.34607,-3.3895535,4.72913,-0.4967206,26.220049,-7.3806543,37.609222,23.539835,4.253815,10.694237,25.218542,-13.638249,19.956488,50.64478,-33.963264,3.07403,-26.702988
100,-3.2207913398742676,-46.656654357910156,77.73857116699219,-4.394459390502797,0.09895409951724587,87.0432236858458,-10.495848,6.6109324,0.48581126,30.982685,-17.046879,-5.051395,-12.509207,-0.25979728,-17.198187,8.4159355,-0.6513475,4.652852,-5.272467,-3.3589895,4.675643,-0.47529218,26.277893,-7.1400156,37.234997,23.325401,4.2064815,10.816245,24.976461,-13.884493,20.280762,50.541832,-34.43014,3.165895,-26.60218
101,-3.2733333110809326,-47.076499938964844,77.81354522705078,-4.476375432786338,0.037428202981860365,86.79351920105553,-10.656182,6.7556567,0.6565005,30.731577,-16.590673,-5.0425634,-12.717887,-0.23740819,-16.705254,10.274727,-1.4406801,4.6220694,-5.233294,-3.3099117,4.6198635,-0.4068875,26.340128,-6.9348197,36.848095,23.0971,4.1395974,10.961628,24.749727,-14.121913,20.481173,50.3586,-34.857815,3.268251,-26.516573
102,-3.3218748569488525,-47.494781494140625,77.8856430053711,-4.556240328815648,-0.02227710834005575,86.56948263950481,-10.829894,6.8930445,0.80144036,30.496618,-16.141008,-5.0348263,-12.912485,-0.2272577,-16.21691,12.202166,-2.2386653,4.5908494,-5.2230706,-3.257662,4.5589404,-0.2869355,26.407955,-6.7544837,36.446156,22.842512,4.0577316,11.128302,24.524103,-14.347266,20.58427,50.11183,-35.276012,3.3822923,-26.445215
103,-3.368391752243042,-47.91370391845703,77.9476318359375,-4.625165019740312,-0.08356546049617183,86.37584472992411,-11.00923,7.0110874,0.9222108,30.268593,-15.694476,-5.0304804,-13.076271,-0.24281257,-15.763807,14.160179,-3.0433924,4.5561123,-5.23349,-3.2133489,4.4988365,-0.1364066,26.480358,-6.604851,36.050957,22.600462,3.9689374,11.299327,24.307005,-14.558455,20.609629,49.80732,-35.616844,3.4918308,-26.385944
104,-3.407106637954712,-48.334129333496094,78.00299835205078,-4.677225984543255,-0.14902041178288658,86.21647291861947,-11.188842,7.102481,1.0190192,30.041838,-15.249868,-5.0327864,-13.195717,-0.29710695,-15.376932,16.117842,-3.8515775,4.5116634,-5.2549195,-3.181788,4.444949,0.022742953,26.554298,-6.493462,35.68583,22.410011,3.881477,11.458592,24.108074,-14.752885,20.57648,49.449135,-35.81204,3.5805786,-26.336676
105,-3.4433085918426514,-48.74840545654297,78.05157470703125,-4.7127871006335855,-0.22038563640018333,86.09694883364247,-11.365419,7.165924,1.0887718,29.812508,-14.805322,-5.0477014,-13.268964,-0.41050982,-15.086968,18.097822,-4.6753254,4.445786,-5.288527,-3.1618147,4.397935,0.186298,26.629004,-6.4277687,35.35436,22.281374,3.790493,11.61087,23.937878,-14.928685,20.467878,49.02096,-35.832283,3.647278,-26.304462
106,-3.4769275188446045,-49.16287612915039,78.09407806396484,-4.732582146279026,-0.2962614346036308,86.01413067222927,-11.541208,7.202946,1.1328785,29.582884,-14.361309,-5.071574,-13.302384,-0.57868356,-14.866946,20.111437,-5.514599,4.3626943,-5.336513,-3.1533797,4.354986,0.36220554,26.70551,-6.4045835,35.04775,22.19443,3.6945353,11.7622595,23.787169,-15.086435,20.278212,48.529778,-35.718506,3.700355,-26.28901
107,-3.506131172180176,-49.57963943481445,78.12486267089844,-4.738061333739187,-0.3740971772757024,85.95730001104648,-11.718978,7.216993,1.1577959,29.354397,-13.919172,-5.094122,-13.290087,-0.77235645,-14.662141,22.097403,-6.3440742,4.2779946,-5.3928022,-3.1569233,4.3159533,0.5489491,26.782484,-6.4124427,34.770077,22.14276,3.6068609,11.8994,23.637913,-15.226386,20.047462,48.011578,-35.507057,3.7377133,-26.277578
108,-3.5296683311462402,-49.99509048461914,78.15438842773438,-4.732205433317646,-0.4507618262317897,85.91533411479215,-11.908569,7.2148137,1.1676016,29.141321,-13.487329,-5.105685,-13.2279,-0.9581516,-14.420721,23.995125,-7.140676,4.206793,-5.451716,-3.1705794,4.2809415,0.7444255,26.858248,-6.438153,34.525223,22.120771,3.5409806,12.008479,23.46788,-15.351087,19.815575,47.50553,-35.23423,3.7577527,-26.257381
109,-3.5489063262939453,-50.41399002075195,78.1774673461914,-4.7232167396073175,-0.5278208961347782,85.89046721497857,-12.108911,7.203475,1.1548284,28.944096,-13.068038,-5.0994296,-13.112956,-1.131439,-14.134639,25.802818,-7.9035187,4.151609,-5.5229254,-3.1860557,4.253697,0.9563848,26.933933,-6.478409,34.30597,22.138601,3.5034,12.084756,23.273304,-15.4625845,19.58099,47.007107,-34.863155,3.7526026,-26.224165
110,-3.565173625946045,-50.83793258666992,78.19258880615234,-4.711712069141589,-0.605273993090909,85.88571003328647,-12.323073,7.1840644,1.1177287,28.76897,-12.663975,-5.083193,-12.950682,-1.3081814,-13.830761,27.55305,-8.647538,4.1016464,-5.6068506,-3.2012126,4.2327576,1.1860071,27.010084,-6.5365667,34.110497,22.19581,3.4859078,12.135882,23.063911,-15.561919,19.327948,46.50054,-34.3892,3.725813,-26.184439
111,-3.5772507190704346,-51.264225006103516,78.20049285888672,-4.693735196214676,-0.677510570822123,85.89080297224217,-12.547238,7.1553516,1.0737034,28.596296,-12.259488,-5.0697336,-12.757671,-1.4852847,-13.507841,29.25032,-9.372181,4.0528545,-5.684136,-3.2217548,4.21041,1.4239042,27.08216,-6.6102715,33.94955,22.270391,3.4798746,12.166025,22.83995,-15.650445,19.076199,46.00432,-33.896965,3.6925008,-26.141937
112,-3.5812244415283203,-51.686668395996094,78.20636749267578,-4.661181558508681,-0.7386099052468916,85.89553062535943,-12.782015,7.1159806,1.0393989,28.415648,-11.844061,-5.0716434,-12.552445,-1.6590208,-13.164608,30.904398,-10.080081,4.001986,-5.737061,-3.2524512,4.1788716,1.6607717,27.143452,-6.6945987,33.834175,22.341995,3.4763823,12.179974,22.600517,-15.729841,18.84682,45.537567,-33.47084,3.66779,-26.10063
113,-3.5850796699523926,-52.111751556396484,78.20450592041016,-4.61178944229668,-0.7880910922871252,85.89774802957011,-13.023032,7.0651326,1.0216137,28.220509,-11.414482,-5.0986657,-12.341772,-1.8329879,-12.792756,32.531544,-10.784435,3.9445856,-5.76126,-3.2939482,4.135694,1.8948752,27.189121,-6.789125,33.770008,22.412369,3.4743865,12.170595,22.349968,-15.800879,18.634502,45.09543,-33.128815,3.65862,-26.059189
114,-3.585089683532715,-52.544921875,78.19711303710938,-4.552465118384092,-0.8283709997931833,85.90229077368556,-13.272558,7.005973,1.0100082,28.018684,-10.976761,-5.1423416,-12.116867,-2.0079305,-12.39553,34.12559,-11.481355,3.8824458,-5.7670817,-3.3401372,4.0843163,2.1303234,27.217897,-6.893911,33.75264,22.494226,3.4782574,12.138955,22.08233,-15.861368,18.432531,44.677143,-32.828457,3.6568096,-26.018192
115,-3.5803980827331543,-52.978206634521484,78.18795776367188,-4.487753056859084,-0.8581431191828728,85.90878999435743,-13.5408535,6.9425645,0.9958841,27.823803,-10.5367365,-5.1877813,-11.8753395,-2.1755135,-11.989902,35.66593,-12.150146,3.8223128,-5.7575674,-3.3863218,4.027345,2.370649,27.232817,-7.0064034,33.77245,22.579876,3.48749,12.101547,21.79009,-15.914065,18.25845,44.295788,-32.5614,3.6533215,-25.981726
116,-3.5707414150238037,-53.41432571411133,78.17626953125,-4.423939116645604,-0.8759839899126233,85.91716207609996,-13.839426,6.8793736,0.97021806,27.651276,-10.098977,-5.220161,-11.612605,-2.3269312,-11.593327,37.128162,-12.768393,3.771146,-5.7295775,-3.423196,3.9689655,2.6119182,27.23705,-7.134399,33.82299,22.655468,3.50131,12.07498,21.48402,-15.978822,18.119696,43.94174,-32.31613,3.6366427,-25.948372
117,-3.5604920387268066,-53.85353088378906,78.1602554321289,-4.3574890073415125,-0.8827444816947078,85.92632955802786,-14.166792,6.8120875,0.93247765,27.499289,-9.661705,-5.2268567,-11.332137,-2.466436,-11.202862,38.528748,-13.33705,3.7323341,-5.700718,-3.4619253,3.9065597,2.876996,27.23119,-7.2541814,33.894413,22.724527,3.5215945,12.059479,21.119328,-16.03037,18.044691,43.665485,-32.088303,3.6062462,-25.93186
118,-3.5488882064819336,-54.301143646240234,78.1378173828125,-4.288341728302455,-0.8783607891391391,85.93648253473793,-14.520997,6.7418084,0.88633746,27.36635,-9.224772,-5.218863,-11.035741,-2.5966916,-10.812371,39.87563,-13.867084,3.7012737,-5.65488,-3.4920871,3.8417397,3.1436684,27.212101,-7.3905435,34.001434,22.78158,3.5479968,12.049223,20.743414,-16.097765,18.003624,43.409256,-31.877522,3.562855,-25.918222
119,-3.5308759212493896,-54.755367279052734,78.1122055053711,-4.225398184581952,-0.8609774164758174,85.94916203166353,-14.90165,6.67905,0.83137727,27.246813,-8.792527,-5.2169757,-10.721532,-2.7076929,-10.433535,41.141132,-14.355286,3.6727493,-5.5982065,-3.5062556,3.7754943,3.4226956,27.175596,-7.5234966,34.128853,22.845863,3.5758686,12.043841,20.351744,-16.178577,17.999596,43.176662,-31.698755,3.515147,-25.903692
120,-3.506622076034546,-55.21064376831055,78.08145141601562,-4.176028941823271,-0.8285086654071938,85.96584407280334,-15.3089905,6.6342735,0.7667683,27.136036,-8.370417,-5.242031,-10.387743,-2.7896438,-10.077854,42.29891,-14.798668,3.6413198,-5.5275373,-3.4984713,3.7090306,3.712608,27.122484,-7.646744,34.269115,22.931879,3.6011577,12.043877,19.94781,-16.269823,18.02473,42.965046,-31.56942,3.470666,-25.883156
121,-3.477458953857422,-55.672454833984375,78.046875,-4.146921924488137,-0.7795810617678981,85.98773851060676,-15.74539,6.6135216,0.691097,27.034786,-7.96215,-5.29856,-10.033728,-2.8338933,-9.739813,43.34644,-15.195021,3.6084862,-5.4394193,-3.464105,3.6404846,4.010703,27.055962,-7.7637143,34.425526,23.048416,3.6201515,12.047407,19.531727,-16.36481,18.081352,42.782825,-31.508276,3.4302683,-25.85529
122,-3.4485838413238525,-56.13870620727539,78.00708770751953,-4.13293992348838,-0.7155356285814155,86.01372229192835,-16.21264,6.610631,0.60392416,26.949707,-7.5668144,-5.376087,-9.663741,-2.8485594,-9.415891,44.302986,-15.549462,3.5754452,-5.3349323,-3.407638,3.5696447,4.316052,26.975737,-7.8783164,34.602142,23.185627,3.6361206,12.055114,19.100485,-16.464808,18.170732,42.630463,-31.502337,3.3903055,-25.823195
123,-3.4172024726867676,-56.61069869995117,77.96154022216797,-4.126557656879198,-0.6387116347673333,86.04129772168552,-16.702456,6.6169753,0.5071182,26.870346,-7.174274,-5.4726176,-9.279481,-2.8503678,-9.119433,45.166573,-15.865688,3.5358999,-5.21579,-3.3401673,3.4998567,4.6338644,26.88333,-7.986666,34.787945,23.32721,3.6550388,12.069873,18.655272,-16.571434,18.284775,42.49271,-31.521172,3.351248,-25.788328
124,-3.3779184818267822,-57.0897102355957,77.90896606445312,-4.117887200165794,-0.5513718016522607,86.06802573987643,-17.209661,6.62372,0.40232077,26.79171,-6.7772455,-5.586059,-8.884914,-2.8566885,-8.863182,45.938755,-16.149094,3.4833567,-5.084493,-3.2725358,3.4347522,4.9695,26.781208,-8.084305,34.971184,23.456064,3.6829617,12.09444,18.198242,-16.68557,18.416647,42.353397,-31.533611,3.3134005,-25.75171
125,-3.3383712768554688,-57.5726432800293,77.8521728515625,-4.106767890356916,-0.4536314173119324,86.09279954498096,-17.73644,6.6276884,0.28510898,26.717396,-6.371125,-5.7123914,-8.477491,-2.8774493,-8.657374,46.62365,-16.43721,3.4158144,-4.938686,-3.2070997,3.3770432,5.320018,26.671103,-8.172773,35.152077,23.576775,3.7236938,12.130472,17.727716,-16.808352,18.56927,42.2095,-31.533546,3.2773554,-25.711924
126,-3.2932181358337402,-58.062435150146484,77.79026794433594,-4.096534359777218,-0.34439974856685807,86.1169679241872,-18.284319,6.6334934,0.15619338,26.648245,-5.9604583,-5.853804,-8.05805,-2.9033127,-8.491435,47.22203,-16.716284,3.3359401,-4.7784414,-3.1382217,3.3245568,5.685055,26.552689,-8.253156,35.33419,23.694149,3.7732346,12.175692,17.244406,-16.939075,18.745842,42.066868,-31.535812,3.2424428,-25.668354
127,-3.2447948455810547,-58.55793762207031,77.72111511230469,-4.087111861664375,-0.2246485887306394,86.14142076801821,-18.847195,6.6434164,0.024660211,26.576359,-5.5528116,-6.0174127,-7.6340766,-2.92273,-8.348328,47.727234,-16.9138,3.2443767,-4.6087465,-3.0665088,3.2733731,6.073322,26.425297,-8.321029,35.51177,23.79271,3.8258202,12.227621,16.751245,-17.077366,18.937033,41.92569,-31.543297,3.2077277,-25.624046
128,-3.1928374767303467,-59.05616760253906,77.64952850341797,-4.079486888947436,-0.09540003556947697,86.16733932678987,-19.418583,6.65998,-0.100283295,26.4931,-5.155432,-6.2102833,-7.2134614,-2.923913,-8.211359,48.13325,-16.957827,3.1419168,-4.434438,-2.9926744,3.2195656,6.492791,26.288458,-8.372387,35.679855,23.857014,3.8754866,12.283688,16.251177,-17.223467,19.133415,41.78613,-31.55856,3.1722515,-25.581846
129,-3.136660575866699,-59.5567512512207,77.57416534423828,-4.07943839407802,0.04517309354252465,86.19623976784418,-20.005295,6.689786,-0.22054136,26.406395,-4.7744646,-6.434014,-6.8152223,-2.90081,-8.077079,48.47756,-16.768526,2.9614744,-4.2588496,-2.909319,3.1631753,6.9417324,26.143147,-8.411924,35.838417,23.874891,3.9203253,12.345199,15.740981,-17.378464,19.33928,41.64947,-31.585548,3.13674,-25.542412
130,-3.0756618976593018,-60.06603240966797,77.48976135253906,-4.085683414130398,0.19660240171456406,86.22697758632364,-20.607052,6.7290134,-0.33958235,26.316236,-4.403741,-6.6845613,-6.429759,-2.8612077,-7.954902,48.750675,-16.40431,2.7246249,-4.0784874,-2.8186598,3.1060832,7.4175696,25.989418,-8.440198,35.98912,23.85721,3.96342,12.412852,15.22097,-17.542267,19.557365,41.514072,-31.621582,3.1013,-25.504099
131,-3.005276679992676,-60.578948974609375,77.40469360351562,-4.08383877372636,0.35508328925708565,86.25659380625804,-21.20988,6.764586,-0.45090282,26.206608,-4.0343833,-6.9606094,-6.0233393,-2.8126764,-7.846847,48.878895,-16.001942,2.5655425,-3.887994,-2.7350662,3.0472429,7.924048,25.824093,-8.44765,36.13197,23.822073,4.006773,12.483172,14.699208,-17.712904,19.775927,41.376617,-31.659855,3.063956,-25.466503
132,-2.933884620666504,-61.093963623046875,77.31267547607422,-4.060561667361858,0.5166186512317557,86.2817471951262,-21.794151,6.7843957,-0.54669297,26.050148,-3.6521955,-7.260978,-5.560869,-2.7606676,-7.752063,48.785694,-15.696349,2.6192842,-3.6813757,-2.6729214,2.9853714,8.465073,25.642885,-8.425095,36.267517,23.788765,4.052611,12.553108,14.18185,-17.888994,19.982203,41.236656,-31.694416,3.0230777,-25.429659
133,-2.8525822162628174,-61.60789108276367,77.21489715576172,-4.012897651232213,0.6812909286941511,86.30443307909985,-22.363928,6.7816944,-0.63161594,25.855558,-3.2566032,-7.5893273,-5.005451,-2.7083638,-7.6772585,48.429005,-15.479332,3.026502,-3.4581313,-2.636988,2.9189851,9.037795,25.443666,-8.372727,36.399338,23.772095,4.0999956,12.622555,13.670641,-18.069065,20.175322,41.09343,-31.713963,2.9725323,-25.391552
134,-2.770564556121826,-62.13438034057617,77.11293029785156,-3.9474776059096492,0.8507563517018157,86.32485785804711,-22.92537,6.764591,-0.70687455,25.62973,-2.8536403,-7.945166,-4.3850107,-2.6508121,-7.618754,47.856133,-15.292131,3.6807098,-3.2206,-2.6188626,2.8491094,9.640143,25.226572,-8.295444,36.527824,23.75991,4.1484666,12.693561,13.160705,-18.253347,20.360983,40.950115,-31.725765,2.9153554,-25.353456
135,-2.685790538787842,-62.66228103637695,77.00503540039062,-3.8684671506604213,1.023391315387605,86.33816414849741,-23.468136,6.7437,-0.76068,25.35769,-2.4402308,-8.320718,-3.7595482,-2.5813642,-7.5614543,47.121483,-15.1941595,4.3460894,-2.9672182,-2.6122007,2.778388,10.277118,24.989702,-8.190609,36.64753,23.730093,4.2008414,12.765609,12.650715,-18.443436,20.537016,40.80918,-31.751158,2.8635764,-25.319746
136,-2.598982810974121,-63.19063186645508,76.897216796875,-3.780528399169003,1.1974897231152097,86.33940820770707,-23.983755,6.7293406,-0.7817335,25.028627,-2.0148757,-8.708065,-3.1888776,-2.4945247,-7.490959,46.280064,-15.246663,4.7862854,-2.6969523,-2.608978,2.7094386,10.95414,24.729704,-8.055525,36.753,23.660963,4.259826,12.838585,12.141399,-18.640585,20.70237,40.67088,-31.810461,2.8289533,-25.294733
137,-2.5070319175720215,-63.72393798828125,76.78443908691406,-3.679615264200718,1.373272844421279,86.32601531995233,-24.475721,6.71793,-0.7650433,24.64877,-1.571194,-9.108945,-2.6881714,-2.3846047,-7.383856,45.362328,-15.481762,4.873561,-2.4079554,-2.6150022,2.6408482,11.678296,24.441145,-7.873788,36.839016,23.539833,4.3298297,12.912062,11.633897,-18.845451,20.8582,40.532906,-31.92652,2.8218405,-25.282654
138,-2.413656711578369,-64.26484680175781,76.67176818847656,-3.5657452686886937,1.5511517294979522,86.30119252851236,-24.94509,6.7063775,-0.71764386,24.219084,-1.1106942,-9.526312,-2.2249446,-2.2570612,-7.253051,44.334473,-15.862254,4.751425,-2.1026347,-2.6291869,2.5724466,12.4451275,24.122023,-7.651121,36.90952,23.381994,4.408049,12.986805,11.127266,-19.058405,21.00685,40.396008,-32.082027,2.8336277,-25.280111
139,-2.3243727684020996,-64.80500030517578,76.5615463256836,-3.4505175473300755,1.7296505482213682,86.267870799618,-25.382008,6.7057943,-0.6462494,23.72334,-0.6432915,-9.954317,-1.7886122,-2.1243017,-7.1385612,43.159397,-16.349443,4.591096,-1.7846867,-2.635595,2.508488,13.237223,23.776695,-7.421322,36.976868,23.206663,4.486505,13.064509,10.617474,-19.282393,21.145395,40.2664,-32.239204,2.8478436,-25.28037
140,-2.230942487716675,-65.34964752197266,76.45303344726562,-3.3420164419636413,1.9070797076324362,86.22883327417826,-25.772104,6.7263637,-0.5564674,23.136324,-0.17849159,-10.387554,-1.3667884,-1.9976915,-7.08275,41.7935,-16.90264,4.5672655,-1.4556265,-2.6180682,2.453518,14.036265,23.412407,-7.2215853,37.053726,23.03081,4.5568247,13.14563,10.10528,-19.519356,21.269697,40.145744,-32.359005,2.8475392,-25.275927
141,-2.139420747756958,-65.90092468261719,76.34724426269531,-3.2376674001985863,2.08132528817157,86.18667958966462,-26.097443,6.7661967,-0.43541715,22.42978,0.3086789,-10.866619,-0.9155218,-1.8804308,-7.1090417,40.093437,-17.54961,4.781375,-1.1122642,-2.5817661,2.4048672,14.843281,23.034157,-7.0660505,37.1444,22.82123,4.6152577,13.239568,9.598862,-19.77072,21.371712,40.027298,-32.43754,2.8252988,-25.263342
142,-2.046165943145752,-66.45675659179688,76.24971008300781,-3.1320953655838495,2.252956425176457,86.13806795140047,-26.364752,6.8189344,-0.28249016,21.615572,0.8194225,-11.381144,-0.44657627,-1.7661723,-7.1934705,38.107555,-18.28949,5.1232634,-0.75037295,-2.5330536,2.362322,15.6634655,22.641994,-6.940027,37.24239,22.57824,4.6662607,13.341958,9.101126,-20.035696,21.45284,39.906864,-32.492603,2.7905517,-25.246246
143,-1.9489079713821411,-67.02118682861328,76.16093444824219,-3.0394346628850966,2.424474138135442,86.07650061295324,-26.598875,6.8888245,-0.12079936,20.732521,1.3102221,-11.84949,-0.02894315,-1.6496787,-7.3080683,36.075874,-19.036087,5.4558396,-0.37086216,-2.460323,2.3325121,16.488039,22.236853,-6.8353066,37.34348,22.370554,4.7147,13.433396,8.599217,-20.314621,21.523329,39.794853,-32.520203,2.7517967,-25.2279
144,-1.8545783758163452,-67.59803009033203,76.08562469482422,-2.9726358660868764,2.5987368567418345,85.99599966870132,-26.82728,6.9825563,0.025161352,19.823402,1.7337333,-12.190393,0.25924116,-1.5230443,-7.421451,34.258575,-19.714893,5.642964,0.02449463,-2.3498437,2.3215785,17.307455,21.819412,-6.744021,37.44451,22.266397,4.7655225,13.494057,8.082856,-20.607197,21.593414,39.69901,-32.516636,2.7173908,-25.211708
145,-1.7641756534576416,-68.1838150024414,76.02104187011719,-2.940470736199935,2.7818915631453494,85.89359935276569,-27.074348,7.1091485,0.1445679,18.913425,2.0800304,-12.379563,0.38621408,-1.3774458,-7.532877,32.713528,-20.339355,5.6371007,0.43990657,-2.1913962,2.3268383,18.120285,21.390839,-6.667976,37.539925,22.28631,4.8157406,13.514978,7.5467463,-20.9132,21.660643,39.61793,-32.470444,2.6892636,-25.199732
146,-1.678374171257019,-68.77880859375,75.96745300292969,-2.9344715200294083,2.969854460245487,85.77273283650638,-27.317934,7.2639127,0.2525487,17.972382,2.3726354,-12.462625,0.39689338,-1.2130462,-7.6551294,31.30852,-20.941097,5.51991,0.8748035,-1.9934666,2.3450289,18.929743,20.951292,-6.6122494,37.63527,22.392942,4.864315,13.507496,6.99662,-21.232569,21.721882,39.5492,-32.38703,2.6630783,-25.189882
147,-1.595942735671997,-69.38164520263672,75.92325592041016,-2.9456652258756755,3.1504480892478126,85.63721722861894,-27.521639,7.4358087,0.36166382,16.969826,2.6091416,-12.46415,0.3232973,-1.0348809,-7.774919,30.03191,-21.47987,5.345124,1.3193835,-1.7684944,2.381319,19.734838,20.49931,-6.573007,37.742966,22.56817,4.9190454,13.481982,6.4379396,-21.565342,21.787182,39.50149,-32.287876,2.6381838,-25.179518
148,-1.5201002359390259,-69.99109649658203,75.89501953125,-2.961647856325926,3.311118429622231,85.4909645025012,-27.645035,7.6142926,0.48474497,15.8681135,2.7908957,-12.409245,0.19738592,-0.85074884,-7.878672,28.872465,-21.914808,5.1626735,1.7629491,-1.5277785,2.4419053,20.536388,20.03243,-6.5436654,37.874134,22.794292,4.987881,13.449419,5.87237,-21.912289,21.868053,39.485657,-32.193756,2.6141727,-25.166126
149,-1.445757508277893,-70.60850524902344,75.875732421875,-2.9803728039376436,3.454108059881421,85.32918743766218,-27.694744,7.7915106,0.61401945,14.673877,2.9059992,-12.273094,-0.00645365,-0.6740666,-7.973386,27.869915,-22.238491,4.9571395,2.210294,-1.2758895,2.5300581,21.334227,19.546986,-6.516239,38.026897,23.10079,5.07507,13.416554,5.289029,-22.275017,21.96954,39.509857,-32.106136,2.5925324,-25.151836
150,-1.3730958700180054,-71.2275619506836,75.86784362792969,-3.00885240982774,3.583105382572683,85.15136541375803,-27.683165,7.9768357,0.74537677,13.396998,2.9588087,-12.055687,-0.29724073,-0.49651736,-8.062546,27.02574,-22.476822,4.707728,2.6629448,-1.0005188,2.642114,22.128931,19.042027,-6.495474,38.197617,23.486944,5.17555,13.376278,4.688924,-22.653414,22.087626,39.56673,-32.01421,2.5732877,-25.137215
151,-1.3079230785369873,-71.84991455078125,75.8652114868164,-3.059019885576288,3.687212290740336,84.96675133561781,-27.576626,8.186102,0.89828926,12.001349,2.9782248,-11.820222,-0.6132375,-0.2951767,-8.126916,26.261646,-22.63272,4.4540715,3.106028,-0.6889423,2.775263,22.924904,18.52165,-6.4914427,38.39174,23.890978,5.283278,13.318648,4.0907707,-23.04697,22.219494,39.64603,-31.923111,2.5531318,-25.116905
152,-1.2497953176498413,-72.47577667236328,75.8693618774414,-3.142196800209405,3.7553092494647666,84.7841434228667,-27.336617,8.435442,1.0945001,10.441906,2.9997885,-11.6292,-0.89376897,-0.047777947,-8.146459,25.500814,-22.709253,4.236312,3.5258355,-0.33064377,2.9272444,23.727453,17.992744,-6.5144453,38.61231,24.249605,5.3919644,13.233783,3.5159092,-23.45452,22.360622,39.734375,-31.83832,2.5285358,-25.085299
153,-1.1919515132904053,-73.0958023071289,75.86962890625,-3.2555728387858403,3.783289504994869,84.59940620097517,-26.888256,8.716202,1.3175694,8.564369,3.0652025,-11.512758,-1.1278609,0.24829313,-8.0979595,24.72254,-22.705938,4.070537,3.9251344,0.07288196,3.1035337,24.545723,17.456718,-6.566506,38.865364,24.526056,5.503215,13.134191,2.9585876,-23.876245,22.51381,39.83862,-31.75659,2.4936337,-25.035809
154,-1.136610984802246,-73.7107162475586,75.87000274658203,-3.397870446430777,3.776170735439903,84.40921588691765,-26.377205,9.027976,1.5514512,6.660163,3.0330606,-11.432739,-1.3456541,0.5817835,-7.9975805,23.96969,-22.621977,3.9325943,4.310103,0.51766694,3.3043885,25.377438,16.913645,-6.6420474,39.14332,24.759758,5.6193457,13.020319,2.4131737,-24.312492,22.678759,39.959747,-31.67743,2.4515908,-24.972553
155,-1.0851107835769653,-74.32453155517578,75.87230682373047,-3.5752733918022375,3.7366151367230214,84.22446869007308,-26.688583,9.410811,1.7184314,6.5903215,1.9956819,-11.347071,-1.5455998,0.95343417,-7.8844104,23.253721,-22.456268,3.8032868,4.673099,1.0100166,3.5204933,26.210876,16.370773,-6.740611,39.428764,25.000574,5.73417,12.862703,1.8967949,-24.760489,22.848312,40.08078,-31.60631,2.4126296,-24.906445
156,-1.0444042682647705,-74.93940734863281,75.87936401367188,-3.790357148601913,3.6688790897590016,84.05736442333269,-26.953081,9.869151,2.012729,6.5348277,0.98997164,-11.231544,-1.729424,1.3627937,-7.7987933,22.590136,-22.210253,3.6633475,5.0067716,1.5509182,3.740924,27.032913,15.839737,-6.8633056,39.704926,25.296429,5.8410435,12.631337,1.4283291,-25.214706,23.012934,40.18564,-31.548475,2.3866987,-24.84871
157,-1.0086628198623657,-75.54174041748047,75.89318084716797,-4.0655459342547395,3.5672507964892977,83.91033857394609,-27.187658,10.416946,2.330711,6.4888916,-0.023931662,-11.042546,-1.8910302,1.8336967,-7.7503715,21.982006,-21.867989,3.5103433,5.3178034,2.1615076,3.9652183,27.847256,15.326794,-7.013556,39.97206,25.65251,5.9501615,12.293915,1.0175134,-25.674223,23.166798,40.26897,-31.516233,2.382943,-24.804577
158,-0.9741142392158508,-76.1402359008789,75.90862274169922,-4.384837997667301,3.436084371612117,83.78185544595553,-27.39221,11.030654,2.6769605,6.4511833,-1.0657903,-10.81376,-2.0414221,2.3487537,-7.7215986,21.428751,-21.437164,3.356366,5.605322,2.8242416,4.194986,28.659212,14.83307,-7.190508,40.2356,26.043213,6.0592117,11.873398,0.65571266,-26.137987,23.31218,40.338966,-31.502989,2.393575,-24.767542
159,-0.9351263046264648,-76.73526000976562,75.92869567871094,-4.700243913941803,3.2947017280472353,83.67813935545058,-27.53429,11.677779,3.2792003,6.4268312,-2.024261,-10.632012,-2.2124481,2.8480167,-7.7132144,20.950373,-20.958921,3.2039852,5.8510723,3.481535,4.4218874,29.45756,14.363656,-7.385782,40.48733,26.470015,6.142493,11.422475,0.33342597,-26.599632,23.449156,40.40126,-31.490818,2.4032161,-24.731852
160,-0.8977805972099304,-77.3249740600586,75.9602279663086,-4.968900008092601,3.160174013573623,83.60253595556361,-27.573944,12.337242,4.368187,6.4206805,-2.7852275,-10.583668,-2.4238443,3.2808383,-7.724491,20.548664,-20.470095,3.0540898,6.04082,4.0800886,4.639746,30.231274,13.9254875,-7.5913005,40.71911,26.93318,6.1753125,10.9941225,0.045266207,-27.04806,23.575466,40.46007,-31.463991,2.3967717,-24.69199
161,-0.8611735701560974,-77.9216079711914,75.99838256835938,-5.224349346309724,3.00991441894412,83.52980316134926,-27.465042,13.098647,6.222764,6.4293823,-3.3424845,-10.80537,-2.658264,3.6910882,-7.7402406,20.23077,-19.953259,2.8973062,6.194143,4.649618,4.865185,30.9985,13.520728,-7.7964106,40.920155,27.448847,6.137495,10.57667,-0.21900018,-27.479452,23.699074,40.525066,-31.408535,2.3593123,-24.63837
162,-0.8395839333534241,-78.51428985595703,76.04933166503906,-5.481082754947343,2.8437226198829433,83.46570197052426,-27.221722,13.945472,8.655032,6.451639,-3.7371216,-11.214031,-2.908644,4.096713,-7.7677627,19.98537,-19.3946,2.7356043,6.3125443,5.2071013,5.0959735,31.760836,13.149095,-8.00585,41.09531,28.009563,6.0458546,10.151356,-0.45878667,-27.892744,23.818808,40.599575,-31.337227,2.3027058,-24.577745
163,-0.805095374584198,-79.0948715209961,76.09590148925781,-5.655436162016964,2.7121301499963804,83.4594330825888,-26.880167,14.681266,11.206209,6.467941,-3.922257,-11.546068,-3.2232099,4.3890915,-7.8365674,19.819155,-18.847775,2.5878248,6.3569155,5.663626,5.299842,32.4788,12.81607,-8.234748,41.26373,28.579433,5.932503,9.759832,-0.65989757,-28.278576,23.914719,40.67664,-31.277384,2.2521074,-24.529955
164,-0.7685760259628296,-79.683837890625,76.1635513305664,-5.673794554194808,2.6655013473492506,83.55832810837765,-26.506975,15.124504,13.400744,6.479547,-3.888158,-11.534221,-3.6435475,4.472612,-7.9758387,19.726267,-18.360138,2.4699478,6.2925844,5.938802,5.4435053,33.112408,12.531776,-8.499732,41.445053,29.121538,5.8310018,9.442667,-0.81425834,-28.622715,23.966457,40.75837,-31.255558,2.2326543,-24.51528
165,-0.7361968755722046,-80.28248596191406,76.26121520996094,-5.497951934786271,2.7424869029325443,83.79028722413351,-26.168055,15.227395,15.24402,6.5573797,-3.611788,-10.992463,-4.2199197,4.2982235,-8.204123,19.727804,-17.945448,2.3857732,6.0962706,5.9811797,5.5036955,33.645813,12.30633,-8.799805,41.647274,29.637606,5.743158,9.214381,-0.93002313,-28.911728,23.971334,40.856964,-31.294474,2.2546906,-24.554874
166,-0.6952584981918335,-80.88697052001953,76.37722778320312,-5.161821129401194,2.905692325960557,84.12481910943298,-25.817497,15.050043,16.951773,6.665441,-3.106315,-10.093635,-4.922975,3.9097238,-8.492708,19.838589,-17.588188,2.3275013,5.7972,5.826747,5.5014825,34.103195,12.142782,-9.126854,41.857857,30.140623,5.655067,9.050743,-1.0132939,-29.141895,23.936008,40.981056,-31.378199,2.3039196,-24.635061
167,-0.646291971206665,-81.48573303222656,76.49868774414062,-4.778890304427607,3.082770739330684,84.51078645378327,-25.450953,14.694668,18.29545,6.804914,-2.5032012,-9.136746,-5.6222463,3.450602,-8.808069,19.943289,-17.239386,2.278237,5.449945,5.6044097,5.4680824,34.51039,12.038922,-9.486951,42.061615,30.611078,5.5774035,8.933059,-1.0467085,-29.31755,23.852583,41.122295,-31.47791,2.3679047,-24.721794
168,-0.5965188145637512,-82.06305694580078,76.60758972167969,-4.466024758390407,3.203293803396711,84.89613362790104,-25.044264,14.287695,19.046076,6.9499283,-1.9224135,-8.418539,-6.185176,3.0735464,-9.12547,19.917814,-16.845882,2.2202487,5.109387,5.449924,5.437083,34.890396,11.989433,-9.887885,42.24572,31.030167,5.520416,8.8425255,-1.0049019,-29.44881,23.709871,41.26184,-31.565138,2.4337168,-24.780474
169,-0.5517774820327759,-82.62744903564453,76.70319366455078,-4.2617326242442735,3.247006744493739,85.27857221119389,-25.052536,14.026494,18.94208,8.112457,-1.903507,-8.049521,-6.556873,2.8302548,-9.457421,19.699442,-16.386547,2.1456761,4.7741127,5.4060917,5.4198284,35.247173,11.994622,-10.353133,42.412643,31.393276,5.4969482,8.789816,-0.87831354,-29.540525,23.495623,41.39249,-31.643414,2.4995966,-24.790741
170,-0.5196101665496826,-83.17485809326172,76.79070281982422,-4.116685825817093,3.2448591964748763,85.67440492736432,-25.762482,13.943788,18.071234,10.900991,-2.6977153,-7.887077,-6.800995,2.659531,-9.812288,19.350756,-15.885716,2.0622804,4.4188066,5.4145503,5.4044733,35.573944,12.04725,-10.863816,42.566154,31.713806,5.4987397,8.7794695,-0.6899678,-29.58797,23.229748,41.529213,-31.72255,2.5721157,-24.774965
171,-0.48998552560806274,-83.7145004272461,76.87662506103516,-4.011529207890998,3.208709567347854,86.06145051929653,-26.340868,13.749926,16.858803,13.492516,-3.390382,-7.8295007,-6.9657946,2.5376403,-10.164547,18.930717,-15.356766,1.9766009,4.101291,5.46067,5.3942795,35.850395,12.158119,-11.407208,42.699135,31.986753,5.505387,8.784453,-0.4049329,-29.615309,22.889404,41.63352,-31.78233,2.6473587,-24.754238
172,-0.46314117312431335,-84.24508666992188,76.95687103271484,-3.919243782144986,3.153769937122359,86.42132913865117,-26.820211,13.461915,15.51195,15.951964,-4.0588984,-7.767657,-7.109577,2.4288216,-10.4888115,18.511478,-14.818902,1.8967288,3.8238137,5.518427,5.386046,36.086235,12.300133,-11.918233,42.797844,32.22501,5.493452,8.776578,-0.065901466,-29.623184,22.531704,41.730034,-31.792551,2.725392,-24.75798
173,-0.4414239525794983,-84.7683334350586,77.03536987304688,-3.832253017617633,3.0821114701748344,86.76447894387043,-27.24086,13.040128,13.883003,18.325808,-4.7326713,-7.6784306,-7.2375345,2.3187392,-10.788693,18.102835,-14.270351,1.821904,3.5793595,5.5895233,5.3784494,36.262245,12.465146,-12.410926,42.878777,32.438984,5.458808,8.755368,0.33409244,-29.618223,22.152216,41.81157,-31.742994,2.814578,-24.800114
174,-0.4245709776878357,-85.28430938720703,77.10819244384766,-3.7578221525522038,2.990533091624122,87.09925259532503,-27.605286,12.478375,11.927934,20.651875,-5.4116087,-7.6195135,-7.3300743,2.218021,-11.076059,17.677683,-13.707038,1.7504315,3.3524263,5.6804943,5.371306,36.380966,12.651276,-12.899035,42.94652,32.62552,5.413078,8.734679,0.80285317,-29.602089,21.742353,41.87084,-31.647629,2.912772,-24.863348
175,-0.41629108786582947,-85.79817962646484,77.17708587646484,-3.689061617373934,2.8869345694223756,87.40606658362026,-27.85919,11.862526,10.008223,22.903801,-6.086336,-7.5871553,-7.409037,2.124726,-11.338065,17.250158,-13.142592,1.6893075,3.1568,5.7779493,5.3640695,36.463207,12.850556,-13.345829,42.979694,32.77039,5.359555,8.711717,1.314752,-29.576128,21.32197,41.92409,-31.51392,3.002497,-24.92673
176,-0.41216138005256653,-86.30477905273438,77.24212646484375,-3.622497278341006,2.778887427577824,87.66457523407715,-27.96402,11.303922,8.474537,25.066679,-6.7513285,-7.5683403,-7.4931703,2.0379486,-11.560445,16.830761,-12.588719,1.6451504,3.000925,5.868893,5.3549504,36.53418,13.0498085,-13.708975,42.95757,32.862274,5.3022203,8.684707,1.8458579,-29.541428,20.914816,41.985126,-31.353493,3.0669057,-24.97012
177,-0.41440287232398987,-86.81128692626953,77.29826354980469,-3.544375230251643,2.666850794671586,87.87039127614577,-27.90528,10.826111,7.378039,27.120968,-7.4008126,-7.5686646,-7.5876117,1.9429708,-11.736131,16.427153,-12.052418,1.6226707,2.8834107,5.9445634,5.343835,36.593937,13.239244,-13.976356,42.878212,32.895584,5.2348933,8.653118,2.3879468,-29.497782,20.524645,42.062244,-31.147072,3.0935798,-24.9897
178,-0.42252349853515625,-87.31483459472656,77.34622192382812,-3.458535854655312,2.5500601268068857,88.03662540933813,-27.720098,10.399441,6.533195,29.098534,-8.050483,-7.5758467,-7.6867228,1.8383131,-11.874377,16.03534,-11.527093,1.6185586,2.7911446,6.011567,5.3283854,36.63015,13.416154,-14.16569,42.757977,32.88125,5.158613,8.61985,2.945979,-29.44438,20.149485,42.15243,-30.895369,3.0948043,-24.996134
179,-0.4391024708747864,-87.81587219238281,77.39106750488281,-3.37992341778975,2.433315768056278,88.16802781658996,-27.445728,10.066816,5.930351,31.042847,-8.719484,-7.545397,-7.793299,1.7449516,-11.98423,15.6502075,-11.005938,1.6263088,2.7155073,6.081719,5.3051853,36.648216,13.578694,-14.279486,42.60332,32.831905,5.08826,8.588261,3.508624,-29.382769,19.80589,42.259384,-30.63976,3.0908659,-24.991133
180,-0.4576389789581299,-88.3101806640625,77.43037414550781,-3.325983764084558,2.320556031585509,88.26907768005385,-27.11507,9.867763,5.561318,32.990314,-9.4234295,-7.434927,-7.90935,1.6854936,-12.075831,15.267818,-10.483273,1.6396517,2.64752,6.1681776,5.271252,36.654663,13.724279,-14.319958,42.420593,32.760162,5.0384097,8.5619545,4.0680833,-29.314592,19.510881,42.38414,-30.421415,3.1021137,-24.9764
181,-0.47918233275413513,-88.80049896240234,77.45616149902344,-3.3013819693769375,2.2163694812912498,88.3379875709847,-26.735294,9.850169,5.494459,34.970272,-10.172549,-7.205077,-8.035108,1.6649406,-12.149021,14.876426,-9.952883,1.6604327,2.5894177,6.2760825,5.221672,36.652863,13.848776,-14.271291,42.201363,32.67897,5.0211153,8.526883,4.6248217,-29.242086,19.267654,42.529526,-30.250526,3.132928,-24.94932
182,-0.5064494609832764,-89.28620147705078,77.47626495361328,-3.2968011479029062,2.1174137277163387,88.37355120726086,-26.288643,9.999227,5.6996827,36.95619,-10.959073,-6.8779573,-8.170524,1.6711771,-12.199286,14.484993,-9.41991,1.6909466,2.5421505,6.398762,5.15939,36.63778,13.950474,-14.136131,41.948795,32.579918,5.0262017,8.486949,5.1780066,-29.166788,19.071213,42.69712,-30.10452,3.1730528,-24.910032
183,-0.5302982926368713,-89.77174377441406,77.4850845336914,-3.3099713349691275,2.0156229230013127,88.38081241049568,-25.764854,10.248675,6.027393,38.889374,-11.76533,-6.5082393,-8.305774,1.7021415,-12.229391,14.094201,-8.887073,1.7253067,2.495632,6.531572,5.093617,36.604115,14.032359,-13.945115,41.685078,32.442436,5.034568,8.471968,5.7244616,-29.087366,18.92345,42.880547,-29.97622,3.2208939,-24.864801
184,-0.5627753734588623,-90.25142669677734,77.48223114013672,-3.3397499960037536,1.9035633461140171,88.36525381974428,-25.159954,10.5238495,6.3317785,40.718857,-12.574664,-6.1554885,-8.444304,1.7534379,-12.243116,13.732561,-8.364257,1.7577076,2.4412987,6.6692214,5.0329294,36.547215,14.100625,-13.729744,41.430244,32.244995,5.026964,8.510904,6.256619,-29.001429,18.82607,43.077957,-29.857563,3.2747955,-24.820114
185,-0.5991687774658203,-90.73277282714844,77.4716567993164,-3.385197999123999,1.7770930392774562,88.31859808703081,-24.459383,10.84137,6.649999,42.446796,-13.412841,-5.816262,-8.584501,1.8250314,-12.231413,13.404479,-7.8512697,1.7839432,2.3878083,6.8090334,4.980846,36.471382,14.15922,-13.486225,41.17865,31.95207,4.9915442,8.627345,6.772308,-28.908873,18.788832,43.294582,-29.740154,3.3386328,-24.774302
186,-0.6393435001373291,-91.21078491210938,77.45588684082031,-3.44709014893931,1.641134060364198,88.24193643820075,-23.670166,11.2259035,7.0347915,44.10009,-14.281912,-5.466423,-8.724823,1.9172391,-12.195627,13.094318,-7.345465,1.8085572,2.337554,6.9521265,4.931668,36.378807,14.208617,-13.202963,40.92115,31.583637,4.939665,8.79934,7.278029,-28.809467,18.805988,43.52868,-29.630579,3.4118214,-24.725302
187,-0.6805551052093506,-91.68684387207031,77.43267059326172,-3.524615692832746,1.5026659983999169,88.1543361089248,-22.824415,11.607333,7.368995,45.66066,-15.123684,-5.1385117,-8.873629,2.0244248,-12.155506,12.806784,-6.848227,1.8388442,2.273836,7.0977483,4.8798146,36.2613,14.251489,-12.899574,40.6708,31.20229,4.887345,8.98853,7.776014,-28.701757,18.855125,43.771854,-29.544464,3.4856515,-24.679
188,-0.7285966277122498,-92.15723419189453,77.40242004394531,-3.6163781464909874,1.3688684317585358,88.07541258522394,-21.95918,11.912918,7.5375657,47.114132,-15.880087,-4.8653083,-9.034631,2.1417313,-12.130571,12.536163,-6.360734,1.8818935,2.1816401,7.243808,4.819939,36.110554,14.292735,-12.596992,40.440098,30.869516,4.851359,9.156545,8.2726555,-28.583689,18.909863,44.011868,-29.498127,3.5510619,-24.64093
189,-0.7793282866477966,-92.62467956542969,77.36469268798828,-3.7260417599114106,1.242577168802162,88.00433879129096,-21.086172,12.126227,7.510854,48.467598,-16.532917,-4.6572847,-9.209352,2.274545,-12.120708,12.278293,-5.8800883,1.9419255,2.0668411,7.393194,4.746833,35.926937,14.3361635,-12.294502,40.223503,30.595728,4.8393836,9.291942,8.772606,-28.455717,18.974249,44.24949,-29.50535,3.6016648,-24.610792
190,-0.8301223516464233,-93.09280395507812,77.31802368164062,-3.8528091161417035,1.1200765697641986,87.93332940379425,-20.190329,12.278496,7.3551545,49.730907,-17.114456,-4.498806,-9.396549,2.4218624,-12.117422,12.037779,-5.407571,2.0146344,1.9365247,7.5444193,4.6642995,35.714256,14.383136,-11.985266,40.015503,30.348425,4.8415437,9.415107,9.274838,-28.317835,19.055775,44.487614,-29.55441,3.643351,-24.586172
191,-0.8848949074745178,-93.56732177734375,77.26036834716797,-3.9875725314354833,0.9988632221221242,87.87144733751288,-19.26786,12.368986,7.0996084,50.888584,-17.639406,-4.383467,-9.594875,2.5709474,-12.1278925,11.820721,-4.948772,2.093759,1.7780668,7.689167,4.580488,35.469315,14.435876,-11.681467,39.8284,30.124958,4.84872,9.535789,9.7805195,-28.166218,19.130922,44.71538,-29.625265,3.6855533,-24.568478
192,-0.9336149096488953,-94.04007720947266,77.19539642333984,-4.121614900508532,0.876464054644305,87.82742654313597,-18.316015,12.398774,6.771716,51.92708,-18.123861,-4.303985,-9.800637,2.7092047,-12.159133,11.627564,-4.506207,2.173022,1.5811571,7.8188715,4.503428,35.18864,14.49839,-11.397493,39.674114,29.921852,4.8517966,9.66369,10.291818,-27.994835,19.174753,44.922226,-29.697699,3.7377162,-24.559523
193,-0.982234537601471,-94.51122283935547,77.12698364257812,-4.257122679950299,0.7518675562705356,87.80146126885988,-17.334013,12.352627,6.3396177,52.845123,-18.57419,-4.2779474,-10.014406,2.838834,-12.213905,11.463132,-4.084298,2.2523897,1.3423095,7.933519,4.4351773,34.87311,14.574967,-11.137404,39.552895,29.72882,4.848162,9.80761,10.806911,-27.79835,19.187592,45.106674,-29.770342,3.8028762,-24.557653
194,-1.0318013429641724,-94.98912811279297,77.05274963378906,-4.397208092484191,0.6269129109208882,87.78991342713744,-16.324833,12.234833,5.8033986,53.653763,-18.983143,-4.3031793,-10.237428,2.9645302,-12.288269,11.324063,-3.6796958,2.3345475,1.0701554,8.034363,4.3706594,34.52503,14.667906,-10.89502,39.457447,29.549736,4.8427205,9.959884,11.323793,-27.575958,19.178833,45.277847,-29.853943,3.8759255,-24.56325
195,-1.0841917991638184,-95.47130584716797,76.97598266601562,-4.5350689313875,0.5034984317578645,87.79532215555247,-15.291345,12.079524,5.2353663,54.358788,-19.347425,-4.341753,-10.474761,3.0762546,-12.3798485,11.215472,-3.2913365,2.4174454,0.77203596,8.116532,4.3077517,34.14132,14.777281,-10.670318,39.388386,29.401272,4.8378425,10.105353,11.851713,-27.32737,19.134804,45.4327,-29.94792,3.953707,-24.581326
196,-1.1439275741577148,-95.9515151977539,76.90093994140625,-4.664001923098183,0.38363635025279813,87.82043143191895,-14.238223,11.922801,4.7052073,54.966038,-19.662899,-4.3553843,-10.722941,3.1663337,-12.485751,11.125099,-2.9096358,2.4989667,0.45606226,8.176061,4.244096,33.71841,14.903042,-10.464044,39.347317,29.300684,4.8360643,10.229057,12.399697,-27.05366,19.040773,45.56843,-30.051424,4.0329432,-24.61627
197,-1.206101894378662,-96.43366241455078,76.8233413696289,-4.781533474023796,0.2681848877780667,87.86776749489746,-13.162876,11.770045,4.2209964,55.483593,-19.933352,-4.3349285,-10.994226,3.2285635,-12.608219,11.079762,-2.5467894,2.576009,0.11991276,8.213043,4.17823,33.25342,15.044633,-10.282633,39.3378,29.257442,4.8368173,10.327529,12.973739,-26.752947,18.882727,45.681015,-30.180725,4.1142993,-24.678028
198,-1.2670012712478638,-96.92256927490234,76.74400329589844,-4.892205505243075,0.1561657078150317,87.93496741584077,-12.065241,11.607207,3.7462254,55.906185,-20.16119,-4.299647,-11.284342,3.2689505,-12.747665,11.071625,-2.2005913,2.6505284,-0.23786156,8.229791,4.1113315,32.747604,15.202795,-10.1255455,39.358685,29.260689,4.8394394,10.408564,13.56766,-26.424335,18.671127,45.77241,-30.330929,4.199091,-24.760935
199,-1.3279467821121216,-97.40860748291016,76.66443634033203,-4.997642744332925,0.04695366613852458,88.01806901340392,-10.957698,11.439928,3.2823017,56.227146,-20.33562,-4.253197,-11.580066,3.2942085,-12.899315,11.069193,-1.857069,2.7278798,-0.6088744,8.226333,4.045428,32.203266,15.378206,-9.983026,39.403214,29.295357,4.8464837,10.474414,14.176192,-26.070522,18.428791,45.84416,-30.468216,4.2844396,-24.845997
200,-1.3920742273330688,-97.90161895751953,76.57945251464844,-5.10074567496245,-0.06024938327854443,88.11307254120071,-9.852484,11.273032,2.8308506,56.439167,-20.447264,-4.1994643,-11.869661,3.3111017,-13.058357,11.043276,-1.5032109,2.8130817,-0.9854747,8.202584,3.9830277,31.62248,15.571075,-9.844322,39.46481,29.34704,4.8601623,10.5267725,14.79214,-25.697035,18.179205,45.8984,-30.557533,4.367405,-24.914415
201,-1.446327805519104,-98.4046630859375,76.49019622802734,-5.199490802101408,-0.16374491162292124,88.22005860484032,-8.7556305,11.107577,2.3907688,56.57549,-20.472076,-4.102177,-12.1577425,3.3196657,-13.224722,10.998705,-1.137207,2.9055758,-1.3731449,8.158341,3.9235055,31.006756,15.779534,-9.703915,39.544647,29.42769,4.8809686,10.55866,15.418818,-25.304132,17.918158,45.925686,-30.581781,4.450534,-24.959494
202,-1.5139780044555664,-98.90552520751953,76.40140533447266,-5.2938998658857574,-0.26381367951331713,88.34078467868257,-7.661754,10.941944,1.9596702,56.63081,-20.423075,-3.9717782,-12.44905,3.3169305,-13.400551,10.948856,-0.7659858,3.0026028,-1.7748706,8.093759,3.866099,30.354694,16.002531,-9.568105,39.644943,29.540577,4.9077873,10.571463,16.056505,-24.89179,17.63788,45.927605,-30.561892,4.5342464,-24.991974
203,-1.5789028406143188,-99.41344451904297,76.3083724975586,-5.385723466532958,-0.3634419050761801,88.4740424453491,-6.5646896,10.778733,1.5389292,56.537975,-20.345423,-3.8802156,-12.729813,3.3066695,-13.584938,10.8749485,-0.38956878,3.10572,-2.1796222,8.013214,3.812453,29.66473,16.241117,-9.445324,39.762123,29.656116,4.9398317,10.579916,16.701778,-24.464735,17.357672,45.917053,-30.517178,4.6116905,-25.017473
204,-1.6430721282958984,-99.92140197753906,76.21640014648438,-5.476787777611131,-0.4657980553900435,88.61881759597817,-5.459209,10.619527,1.1292342,56.232475,-20.286022,-3.8995376,-12.980026,3.2932692,-13.7765,10.74405,-0.00013496418,3.2168376,-2.577105,7.920409,3.7644696,28.936583,16.496216,-9.343858,39.891293,29.744823,4.976019,10.597989,17.354528,-24.030134,17.096825,45.902954,-30.467379,4.676171,-25.041107
205,-1.7116808891296387,-100.44126892089844,76.12625122070312,-5.5686968322264825,-0.5775459444897343,88.77479928912885,-4.320991,10.45633,0.71911293,55.725327,-20.187944,-4.0553374,-13.198374,3.2782226,-13.97281,10.570018,0.3975418,3.32966,-2.9650474,7.818905,3.7237198,28.1609,16.76647,-9.270803,40.0479,29.794186,5.0176516,10.6284075,18.026531,-23.591127,16.848202,45.879505,-30.410122,4.7271876,-25.065395
206,-1.780645728111267,-100.96406555175781,76.03599548339844,-5.660650141550858,-0.6948615630678111,88.94288005953204,-3.162226,10.290993,0.3101637,55.04534,-20.049116,-4.306899,-13.391124,3.2600121,-14.175182,10.3561,0.80523473,3.445453,-3.34905,7.7069273,3.6889486,27.34045,17.050253,-9.221665,40.228455,29.82113,5.064501,10.663607,18.717855,-23.147593,16.605497,45.839203,-30.336393,4.767453,-25.085936
207,-1.848920226097107,-101.49044799804688,75.9459228515625,-5.749285489236345,-0.8050651636215271,89.12390178691544,-2.029451,10.139168,-0.075703904,54.144924,-20.000412,-4.6270986,-13.567981,3.2347467,-14.389265,10.091092,1.2210786,3.577831,-3.7318316,7.5798244,3.657776,26.492188,17.347914,-9.187081,40.400707,29.839294,5.1131225,10.702757,19.409357,-22.702341,16.390831,45.79055,-30.253977,4.7951684,-25.09807
208,-1.9210398197174072,-102.0207748413086,75.85780334472656,-5.832336300688596,-0.8953830372998617,89.31888458851351,-0.96866506,10.015783,-0.41461742,52.97396,-20.170162,-4.989583,-13.736815,3.1993032,-14.620661,9.759534,1.6454356,3.7405233,-4.116845,7.432924,3.627509,25.634726,17.660376,-9.15633,40.530926,29.863115,5.160005,10.7445135,20.081188,-22.260607,16.227102,45.74253,-30.170044,4.808551,-25.09705
209,-1.9951967000961304,-102.55911254882812,75.76060485839844,-5.91730114993579,-0.9640594830200615,89.53430170025294,0.047267206,9.928348,-0.70936674,51.403183,-20.597666,-5.4608045,-13.892617,3.1617732,-14.88075,9.349186,2.0867782,3.942592,-4.5107613,7.2731524,3.5933537,24.765066,17.987997,-9.135302,40.622383,29.902788,5.211801,10.789937,20.740343,-21.825361,16.122902,45.691822,-30.070053,4.804313,-25.082666
210,-2.0676207542419434,-103.10395812988281,75.6615982055664,-6.002201732054197,-1.0171365681696942,89.76833120873926,1.0327816,9.86475,-0.9637546,49.48781,-21.205162,-6.035451,-14.031483,3.1219733,-15.163333,8.866609,2.5450478,4.175249,-4.911789,7.0998335,3.5575254,23.876081,18.329716,-9.126839,40.68902,29.948261,5.267492,10.838821,21.3939,-21.397463,16.066479,45.635105,-29.954699,4.784198,-25.056658
211,-2.1417579650878906,-103.65945434570312,75.55879211425781,-6.067275060337914,-1.0540467370907274,90.00931922762243,1.9227195,9.807808,-1.155599,47.455658,-21.946814,-6.578816,-14.159585,3.0644722,-15.44736,8.317498,3.0116217,4.4257073,-5.311753,6.8978996,3.527284,22.981556,18.68284,-9.115685,40.712814,29.983862,5.3122716,10.887161,22.026007,-20.977306,16.051268,45.578014,-29.85279,4.754249,-25.01665
212,-2.2133584022521973,-104.22659301757812,75.46255493164062,-6.0948944723496945,-1.0746697571148067,90.24523806718777,2.6492906,9.740044,-1.2681822,45.543076,-22.784367,-6.9527254,-14.28424,2.9733107,-15.711768,7.710915,3.4749875,4.6814766,-5.7036433,6.6527185,3.509719,22.096842,19.043884,-9.084328,40.67567,29.994713,5.3310723,10.931266,22.618162,-20.56529,16.071712,45.528816,-29.793348,4.720513,-24.960947
213,-2.2845466136932373,-104.79090118408203,75.37554168701172,-6.086575295937716,-1.075493641091532,90.47702225458383,3.1951296,9.6693535,-1.3035659,43.73112,-23.81186,-7.107628,-14.399688,2.852169,-15.959518,7.021399,3.9656084,4.9585023,-6.0934896,6.367493,3.5026176,21.2257,19.410795,-9.024526,40.56645,29.98697,5.3162823,10.966129,23.168234,-20.163664,16.1341,45.48953,-29.78832,4.6868258,-24.886032
214,-2.353459596633911,-105.3763656616211,75.29047393798828,-6.050865021979608,-1.058524083032134,90.71007982702211,3.5989916,9.594268,-1.2713751,41.91796,-25.015745,-7.122975,-14.67179,2.6563056,-16.205694,6.6221437,4.284394,5.260024,-6.4848094,6.04792,3.502689,20.36081,19.783504,-8.945257,40.397552,29.966545,5.277163,10.9956455,23.68421,-19.774685,16.239182,45.457123,-29.820807,4.6494255,-24.794191
215,-2.426530599594116,-105.96749877929688,75.2114028930664,-5.973313084579104,-1.0322023790278634,90.93873441087382,3.872758,9.486169,-1.1719333,40.226974,-26.204727,-7.046753,-15.122441,2.3673,-16.435892,6.5855274,4.357543,5.5515714,-6.8655925,5.6837726,3.515657,19.499435,20.161303,-8.854951,40.186546,29.918003,5.2245784,11.028521,24.163027,-19.396921,16.373348,45.43199,-29.875854,4.6027427,-24.692045
216,-2.49692702293396,-106.56819152832031,75.13923645019531,-5.840874141388423,-1.0051906519395029,91.1573527358314,4.0262094,9.318394,-1.0050303,38.785805,-27.189274,-6.9227586,-15.576618,2.0267396,-16.628605,6.5483036,4.3383436,5.796661,-7.2226753,5.262722,3.54699,18.637714,20.544426,-8.76278,39.951855,29.825958,5.1695046,11.07386,24.601242,-19.02753,16.521357,45.415672,-29.939558,4.54141,-24.586807
217,-2.557323694229126,-107.17720031738281,75.08133697509766,-5.644931994572139,-0.9768615165276223,91.36458802620852,4.0409794,9.094712,-0.7126161,37.6457,-27.938232,-6.7151136,-16.04419,1.6221226,-16.781416,6.518398,4.235051,5.985203,-7.5522346,4.7710958,3.599766,17.765982,20.935085,-8.67173,39.692787,29.684591,5.115597,11.137975,24.992115,-18.665073,16.68888,45.40943,-29.999846,4.4566784,-24.479748
218,-2.621333122253418,-107.79991149902344,75.0318374633789,-5.392233992725155,-0.9446393588814138,91.56292856635937,3.9159458,8.82856,-0.31699604,36.739235,-28.551298,-6.4108825,-16.526604,1.1612217,-16.900095,6.493104,4.0604835,6.1365957,-7.8593216,4.218204,3.6693187,16.88883,21.334066,-8.578132,39.401447,29.502378,5.0566316,11.214474,25.340044,-18.308634,16.879887,45.413486,-30.067194,4.353741,-24.367367
219,-2.686065673828125,-108.4264907836914,74.9958267211914,-5.105674861331217,-0.9135550535824921,91.75195241827889,3.682877,8.514276,0.063502625,36.021984,-29.036175,-6.087429,-17.007624,0.67043155,-16.985062,6.469043,3.7843583,6.2603765,-8.1415415,3.6286888,3.7504683,16.020111,21.739397,-8.481825,39.08917,29.28563,4.9890194,11.294099,25.65311,-17.958305,17.073006,45.429863,-30.163473,4.2485704,-24.250795
220,-2.74039363861084,-109.05574798583984,74.97173309326172,-4.805689523881752,-0.8886373952918677,91.93141240106365,3.3746924,8.147138,0.31174263,35.448124,-29.398754,-5.8230686,-17.471815,0.17689286,-17.038012,6.4437127,3.3766654,6.36669,-8.3978815,3.029827,3.8385913,15.174245,22.146671,-8.3829565,38.76739,29.041212,4.909234,11.367676,25.943922,-17.61222,17.24855,45.457764,-30.309782,4.1566377,-24.130217
221,-2.7949440479278564,-109.68331146240234,74.9560775756836,-4.495994349033562,-0.8672407551792621,92.10267570756977,2.973573,7.7202997,0.38353088,35.03582,-29.630564,-5.6398463,-17.92872,-0.31058532,-17.047035,6.419053,2.8190572,6.4417024,-8.6296015,2.4245682,3.9411564,14.3448925,22.554733,-8.269136,38.42737,28.744,4.8111086,11.430068,26.20953,-17.268408,17.402521,45.495117,-30.53026,4.0796065,-24.002071
222,-2.8450727462768555,-110.3145751953125,74.94471740722656,-4.166962985753033,-0.8485000262737817,92.26510800125871,2.4695582,7.2417254,0.34949547,34.80303,-29.732914,-5.4963765,-18.382847,-0.80305344,-17.015968,6.395232,2.1312075,6.487793,-8.836027,1.8015503,4.058936,13.526073,22.964148,-8.145147,38.069157,28.40025,4.698321,11.48711,26.445574,-16.92692,17.543928,45.543762,-30.80798,4.0098505,-23.86788
223,-2.8913488388061523,-110.93927764892578,74.94047546386719,-3.8199597288607334,-0.8398618305633155,92.4154053082686,1.9100192,6.7276673,0.26529142,34.700027,-29.725029,-5.3767204,-18.81348,-1.3048604,-16.970802,6.3731217,1.3363755,6.539849,-9.012361,1.1663611,4.1780376,12.731159,23.372747,-8.03628,37.717484,28.063763,4.582974,11.547096,26.6615,-16.590963,17.669855,45.608498,-31.103931,3.9493334,-23.736322
224,-2.9319138526916504,-111.55152130126953,74.94449615478516,-3.4564517129510075,-0.8481991078467075,92.55003041674878,1.3426472,6.1937833,0.18546335,34.674667,-29.625456,-5.2646265,-19.200518,-1.8224506,-16.938015,6.353402,0.45943558,6.632019,-9.154186,0.52574885,4.284946,11.972061,23.776173,-7.968222,37.39832,27.788284,4.4770994,11.618778,26.868177,-16.26495,17.77668,45.691845,-31.378786,3.9001868,-23.615156
225,-2.9669322967529297,-112.15101623535156,74.95592498779297,-3.052947042694214,-0.8760707514742635,92.68071742794167,0.74243814,5.610246,0.092794545,34.781086,-29.414907,-5.1672974,-19.558178,-2.382982,-16.843878,6.335488,-0.6008079,6.7335005,-9.270173,-0.14123626,4.3771677,11.246171,24.175056,-7.954588,37.11632,27.59134,4.3814464,11.714922,27.077589,-15.950081,17.856203,45.792416,-31.648691,3.8635645,-23.505915
226,-2.9945645332336426,-112.73704528808594,74.96407318115234,-2.629273213549479,-0.9129094945434507,92.80657001367061,0.06522457,5.0002594,-0.03493306,35.091232,-29.134348,-5.1038756,-19.917036,-2.9644787,-16.710814,6.3669124,-1.8479556,6.8340874,-9.360444,-0.8139378,4.4589047,10.543403,24.567013,-7.9829283,36.863228,27.442043,4.290468,11.828827,27.279257,-15.646074,17.909174,45.910984,-31.925396,3.8374033,-23.403645
227,-3.0276498794555664,-113.30903625488281,74.98394775390625,-2.2335694637011754,-0.9611492031259645,92.89920744613639,-0.59949285,4.4249134,-0.13596728,35.42088,-28.789452,-5.052072,-20.224056,-3.5161762,-16.694641,6.416935,-3.0564637,7.01356,-9.403921,-1.4446975,4.5397515,9.87428,24.944275,-8.031909,36.637558,27.325243,4.2072997,11.939576,27.459509,-15.356729,17.950062,46.042027,-32.163708,3.8210773,-23.307528
228,-3.0761172771453857,-113.8743667602539,75.01759338378906,-1.8833253652522624,-1.0187484652577206,92.93317511348965,-1.1767857,3.9206753,-0.15157437,35.62318,-28.411797,-4.9856796,-20.428032,-4.014969,-16.944534,6.4574485,-4.000221,7.3539133,-9.384798,-2.0096753,4.621746,9.250915,25.296377,-8.077192,36.438004,27.227182,4.135132,12.026454,27.603397,-15.090303,17.993448,46.180473,-32.318047,3.8142993,-23.21708
229,-3.1320583820343018,-114.42892456054688,75.06745147705078,-1.581476635820151,-1.0981463948190129,92.91903251315925,-1.640578,3.4911973,-0.07812836,35.680904,-28.006708,-4.8949466,-20.471169,-4.4732723,-17.625723,6.4140368,-4.594496,8.030632,-9.3237915,-2.4847546,4.717394,8.66818,25.586302,-8.1104,36.28051,27.160135,4.0729647,12.084708,27.723276,-14.878139,18.038343,46.31869,-32.348415,3.8213727,-23.132145
230,-3.17697811126709,-114.98201751708984,75.13139343261719,-1.259267994092143,-1.185173552854154,92.8556757114933,-2.0269952,3.0513496,0.07996406,35.62871,-27.537123,-4.780064,-20.466192,-4.9754844,-18.576572,6.4424524,-5.0083637,8.959438,-9.198422,-2.974775,4.8033714,8.132531,25.88919,-8.154347,36.139572,27.104807,4.0180697,12.115844,27.811598,-14.662595,18.07909,46.48134,-32.29397,3.8410041,-23.056656
231,-3.2251551151275635,-115.53175354003906,75.21086120605469,-1.0046597647994497,-1.2648817551189826,92.72828667184339,-2.3832948,2.709546,0.2904782,35.52999,-27.051525,-4.667101,-20.383095,-5.3757186,-19.586851,6.4723983,-5.2348194,9.797352,-9.04531,-3.315114,4.884027,7.6369,26.038979,-8.152117,36.054054,27.124155,3.981253,12.159902,27.884785,-14.567681,18.125479,46.591797,-32.195686,3.867176,-22.975918
232,-3.275261878967285,-116.07916259765625,75.30452728271484,-0.8938240449975924,-1.3275160857300001,92.5259080670382,-2.747132,2.5588732,0.519119,35.440186,-26.593801,-4.579985,-20.171188,-5.5332837,-20.444948,6.397571,-5.265353,10.19984,-8.813593,-3.5313697,4.9661536,7.220032,26.221846,-8.128616,35.949066,27.138044,3.9610002,12.201633,27.895308,-14.465182,18.19545,46.694485,-32.118713,3.8885276,-22.891468
233,-3.3319127559661865,-116.62193298339844,75.41291046142578,-0.9204327059669761,-1.3439658653140567,92.20233969119786,-3.1377888,2.5995245,0.8040497,35.34096,-26.160824,-4.5092306,-19.947788,-5.472397,-21.122644,6.42795,-5.1675086,9.953417,-8.47353,-3.5930815,5.025374,6.8702035,26.371065,-8.059148,35.844574,27.198141,3.9687586,12.252123,27.83859,-14.394988,18.289928,46.77525,-32.061108,3.9083104,-22.791965
234,-3.391547203063965,-117.17340850830078,75.53245544433594,-1.0825054391366882,-1.338105795604348,91.78570162562909,-3.5303075,2.822563,1.127861,35.234375,-25.745914,-4.4518924,-19.630901,-5.199782,-21.74675,6.430309,-4.887986,9.267369,-8.0511265,-3.4978588,5.077629,6.577233,26.477837,-7.953402,35.755203,27.302507,3.9990017,12.307305,27.72409,-14.362154,18.400494,46.841156,-31.999079,3.9301977,-22.68358
235,-3.4552652835845947,-117.71250915527344,75.66297149658203,-1.2984564290795328,-1.3321730244388714,91.33856778520476,-3.8998103,3.120898,1.459762,35.100937,-25.324184,-4.404132,-19.235851,-4.8145766,-22.192429,6.4041653,-4.5237184,8.468088,-7.632093,-3.3540132,5.1203594,6.4125233,26.587154,-7.787239,35.61731,27.391659,4.0342326,12.356316,27.55185,-14.356357,18.554848,46.895897,-31.944185,3.9459145,-22.58354
236,-3.515040397644043,-118.24301147460938,75.79961395263672,-1.4680141257294457,-1.345179257655336,90.91827325788628,-4.215189,3.366145,1.7826812,34.90329,-24.862026,-4.3581343,-18.813541,-4.4457464,-22.319563,6.419257,-4.1931796,7.893045,-7.248468,-3.2416897,5.1422787,6.309321,26.654823,-7.6176133,35.505856,27.435959,4.0591426,12.414823,27.376684,-14.382148,18.704113,46.908283,-31.929865,3.9490614,-22.507355
237,-3.566316604614258,-118.77023315429688,75.94221496582031,-1.5754168420772912,-1.3936522754848153,90.5255824087266,-4.4465923,3.5420344,2.1031117,34.622936,-24.349493,-4.3172827,-18.337442,-4.0807886,-22.0514,6.4351,-3.8724256,7.6603427,-6.9474716,-3.2008343,5.1616364,6.3760395,26.72433,-7.362451,35.32153,27.41543,4.0657797,12.462857,27.16589,-14.456897,18.920006,46.880905,-31.944328,3.931619,-22.456894
238,-3.615412950515747,-119.27713012695312,76.07801818847656,-1.681809836990222,-1.460496019207968,90.1395649163721,-4.6398396,3.7254467,2.417093,34.332546,-23.835789,-4.2904544,-17.801285,-3.6530833,-21.486712,6.45334,-3.5247903,7.589285,-6.6919007,-3.1552203,5.175694,6.56714,26.77455,-7.047021,35.10258,27.353783,4.0631804,12.507315,26.93092,-14.592937,19.177952,46.801018,-31.97812,3.8967478,-22.418627
239,-3.653780460357666,-119.77409362792969,76.21078491210938,-1.8220627896002681,-1.5220220461322154,89.77660616714377,-4.8520823,3.9534237,2.6953843,34.080544,-23.341946,-4.276747,-17.253986,-3.1726563,-20.758137,6.5432444,-3.2066143,7.571075,-6.4574866,-3.0575233,5.1669173,6.797225,26.788935,-6.753064,34.92051,27.256075,4.0581727,12.5664015,26.684225,-14.745076,19.408384,46.69603,-32.0417,3.858635,-22.398481
240,-3.684159755706787,-120.26810455322266,76.34577941894531,-1.9894067905481014,-1.5682057481277625,89.46269402000088,-5.0980186,4.2046003,2.9167712,33.849377,-22.8521,-4.2627573,-16.65907,-2.6761942,-19.98526,6.6110864,-2.888366,7.4992948,-6.2936926,-2.9183972,5.138962,7.0951695,26.778837,-6.4598784,34.7448,27.122305,4.047913,12.637375,26.435732,-14.936837,19.610891,46.54527,-32.115036,3.829441,-22.39077
241,-3.710475206375122,-120.75433349609375,76.4830551147461,-2.1877489746053724,-1.5963083396323858,89.20529764878856,-5.38634,4.4827876,3.071788,33.645866,-22.364418,-4.2423534,-16.043522,-2.162212,-19.11761,6.7031913,-2.597825,7.345326,-6.184919,-2.7394176,5.0819283,7.4305,26.747595,-6.2035136,34.606434,26.931313,4.033276,12.733729,26.182638,-15.134701,19.761003,46.366814,-32.22952,3.8107612,-22.404598
