unveil-humanoid-operators/unveil-humanoid-operators.github.io/feature-analysis-animation/data/feature_matrix_instances/height_root_translate_rom_sitting_A005.csv
Frame,root_translateX,root_translateY,root_translateZ,root_rotateX,root_rotateY,root_rotateZ,left_hip_pitch_joint_dof,left_hip_roll_joint_dof,left_hip_yaw_joint_dof,left_knee_joint_dof,left_ankle_pitch_joint_dof,left_ankle_roll_joint_dof,right_hip_pitch_joint_dof,right_hip_roll_joint_dof,right_hip_yaw_joint_dof,right_knee_joint_dof,right_ankle_pitch_joint_dof,right_ankle_roll_joint_dof,waist_yaw_joint_dof,waist_roll_joint_dof,waist_pitch_joint_dof,left_shoulder_pitch_joint_dof,left_shoulder_roll_joint_dof,left_shoulder_yaw_joint_dof,left_elbow_joint_dof,left_wrist_roll_joint_dof,left_wrist_pitch_joint_dof,left_wrist_yaw_joint_dof,right_shoulder_pitch_joint_dof,right_shoulder_roll_joint_dof,right_shoulder_yaw_joint_dof,right_elbow_joint_dof,right_wrist_roll_joint_dof,right_wrist_pitch_joint_dof,right_wrist_yaw_joint_dof
0,-0.1625613421201706,-1.5038683414459229,77.1300277709961,0.28142279519877755,2.771464688017391,93.71623333521974,-1.376107,4.3753223,-2.50609,12.476362,-16.971434,-3.7382464,2.2588203,-5.679289,-11.571753,8.00111,-9.991805,4.0740004,-3.2470722,0.29046807,-3.4403715,25.94191,86.71451,42.34696,73.59504,-6.2928777,18.950285,-1.8737024,27.657618,-87.31269,-31.504423,77.005035,6.1116314,8.477301,1.6457334
1,-0.18085430562496185,-1.4918652772903442,77.12918853759766,0.2811757397233295,2.779179379070189,93.73671801534734,-1.3735458,4.3594522,-2.507543,12.46433,-16.989271,-3.7301142,2.2711785,-5.698277,-11.597851,7.9887204,-9.977677,4.0954,-3.2311163,0.2599715,-3.6124167,25.036957,87.050735,41.061157,73.99744,-6.264123,18.867418,-1.9031796,26.769152,-87.484955,-30.456078,77.380325,6.187364,8.419745,1.6627936
2,-0.20028957724571228,-1.4816993474960327,77.1289291381836,0.2803336090852559,2.7877348741479118,93.75802738548458,-1.3714122,4.3441987,-2.5087337,12.450281,-17.006857,-3.7228734,2.284022,-5.716557,-11.62556,7.97402,-9.961279,4.116374,-3.2156096,0.23811823,-3.7577796,24.258112,87.3118,39.922874,74.31194,-6.2286005,18.786299,-1.9312114,26.052843,-87.62316,-29.604244,77.686066,6.263134,8.362369,1.6818985
3,-0.227106973528862,-1.473196029663086,77.12610626220703,0.2797401375721425,2.795961297055449,93.77754852820321,-1.369256,4.3280287,-2.510451,12.438618,-17.023872,-3.7137358,2.2966409,-5.735555,-11.6502285,7.9594207,-9.947017,4.1381984,-3.1997726,0.22194773,-3.8791895,23.60304,87.5123,38.9239,74.560104,-6.199361,18.709139,-1.9521279,25.474535,-87.73286,-28.911373,77.93229,6.323755,8.312472,1.7017556
4,-0.23879888653755188,-1.4592092037200928,77.12065887451172,0.2824830730806524,2.802528491364427,93.79238959864657,-1.3669668,4.309295,-2.5134714,12.43398,-17.039598,-3.699754,2.3075027,-5.7564178,-11.66685,7.950584,-9.941444,4.16206,-3.1824677,0.20965333,-3.9787529,23.064371,87.662735,38.050995,74.761185,-6.1900597,18.638046,-1.9590911,25.00321,-87.81777,-28.343641,78.12739,6.353914,8.277557,1.721314
5,-0.25417816638946533,-1.4538666009902954,77.11843872070312,0.2875394062707439,2.8064980433732734,93.80180302782145,-1.3657119,4.286258,-2.5195704,12.4425125,-17.056404,-3.6760473,2.317382,-5.7806554,-11.672829,7.948641,-9.949641,4.1881604,-3.164756,0.19944245,-4.0582504,22.645098,87.769875,37.28544,74.92418,-6.212815,18.569756,-1.9425881,24.610397,-87.880165,-27.870825,78.27803,6.340087,8.263324,1.741055
6,-0.2731054723262787,-1.44463312625885,77.11791229248047,0.296898769900822,2.8086060168619142,93.8072655201434,-1.36454,4.2600718,-2.5276966,12.458902,-17.073011,-3.6455002,2.3264477,-5.807358,-11.671121,7.9515233,-9.96735,4.2158694,-3.1476355,0.19011208,-4.1215396,22.33113,87.84259,36.618378,75.053505,-6.2581534,18.503859,-1.909262,24.281767,-87.925804,-27.475431,78.393524,6.295082,8.263745,1.7597665
7,-0.29368895292282104,-1.430785894393921,77.11593627929688,0.3056767822333866,2.8104000225389316,93.80948897828624,-1.3621504,4.2337503,-2.5347836,12.474655,-17.086023,-3.6170878,2.3338525,-5.8340297,-11.665683,7.956539,-9.985993,4.245306,-3.1293805,0.18413056,-4.173645,22.083147,87.889786,36.04712,75.160355,-6.3062654,18.44705,-1.8775218,24.006636,-87.95849,-27.14317,78.483955,6.241739,8.269405,1.7767048
8,-0.3170638680458069,-1.419716238975525,77.12202453613281,0.31247270704848557,2.813327928016485,93.8091734121417,-1.3566555,4.210819,-2.5377228,12.478491,-17.089857,-3.5997913,2.3409169,-5.8573503,-11.660988,7.95651,-9.994526,4.276507,-3.1083174,0.18287095,-4.219075,21.864697,87.92058,35.57163,75.25493,-6.3372684,18.40601,-1.8658421,23.780025,-87.98213,-26.865288,78.55778,6.2031484,8.270802,1.7905076
9,-0.3387528359889984,-1.4122406244277954,77.12089538574219,0.31741289701639264,2.8177188096512356,93.80597088512675,-1.3480406,4.1909747,-2.5364678,12.467961,-17.07909,-3.600183,2.3442001,-5.878174,-11.658666,7.95699,-9.991745,4.312781,-3.085198,0.18620469,-4.259204,21.662397,87.940125,35.185173,75.3453,-6.3521423,18.385994,-1.8785653,23.593367,-87.99908,-26.633514,78.61651,6.1813693,8.264684,1.7993048
10,-0.35393285751342773,-1.4026354551315308,77.11798858642578,0.3197843757961904,2.8227020156773484,93.79961833336125,-1.3356571,4.172965,-2.5323308,12.44607,-17.056591,-3.6120825,2.3474915,-5.8969183,-11.656411,7.95327,-9.979898,4.3529887,-3.0604246,0.1929355,-4.2938046,21.482212,87.94988,34.873695,75.4324,-6.3594456,18.381899,-1.9069688,23.436728,-88.009186,-26.437042,78.66172,6.1660385,8.256216,1.8048534
11,-0.3699478805065155,-1.3894479274749756,77.11554718017578,0.32077225929368186,2.828449211312085,93.79110314788595,-1.3244786,4.157883,-2.52479,12.425444,-17.037663,-3.6254544,2.3488493,-5.9129777,-11.651664,7.948955,-9.966307,4.39063,-3.040573,0.19859862,-4.300155,21.505041,87.94826,34.843903,75.470505,-6.3361077,18.39046,-1.9794503,23.430473,-88.00798,-26.41905,78.654076,6.153511,8.252751,1.8310876
12,-0.38602590560913086,-1.3851184844970703,77.11524963378906,0.31997782013665066,2.834770262760668,93.78273402323356,-1.3155295,4.146311,-2.5140665,12.411217,-17.03398,-3.6301348,2.3498437,-5.925615,-11.6431265,7.9430623,-9.956455,4.4192557,-3.012261,0.20524682,-4.3084583,21.506687,87.945786,34.82865,75.50759,-6.302308,18.398252,-2.0545242,23.433132,-88.00595,-26.407076,78.65719,6.152781,8.2541485,1.8584318
13,-0.40342608094215393,-1.3776905536651611,77.11551666259766,0.31729031918535616,2.842769635454619,93.77211472678364,-1.3069246,4.139041,-2.4948146,12.399024,-17.050177,-3.6206417,2.3499367,-5.9338036,-11.624393,7.93176,-9.950696,4.437562,-2.9753609,0.21545033,-4.330777,21.471401,87.94232,34.817333,75.552185,-6.248599,18.403656,-2.152624,23.4476,-88.00283,-26.391418,78.67114,6.16969,8.258675,1.8845336
14,-0.4200322926044464,-1.3727625608444214,77.10591125488281,0.311010781290413,2.8521617991321584,93.75934151763347,-1.2995619,4.1359982,-2.469287,12.389289,-17.080097,-3.6033955,2.3490982,-5.9376106,-11.59857,7.9152827,-9.94556,4.4487967,-2.9282854,0.22854127,-4.360667,21.391151,87.938156,34.81153,75.604645,-6.174109,18.410149,-2.2677107,23.47165,-87.99866,-26.372576,78.69631,6.206512,8.264925,1.9068711
15,-0.4339728355407715,-1.3615442514419556,77.10504913330078,0.3046034227490121,2.8609993979598882,93.74544573266556,-1.2917615,4.134744,-2.4428856,12.38193,-17.113592,-3.5856514,2.3476307,-5.9404025,-11.5734,7.901403,-9.941999,4.45362,-2.8757927,0.24216135,-4.387782,21.287907,87.93329,34.808334,75.662964,-6.0815845,18.41646,-2.3788075,23.495432,-87.99324,-26.352066,78.72741,6.2498684,8.275445,1.9352013
16,-0.4490795135498047,-1.3471887111663818,77.10589599609375,0.29972436449440043,2.86692075860964,93.73179480827201,-1.2818203,4.1328135,-2.4215195,12.376974,-17.140045,-3.5746188,2.3479805,-5.9452305,-11.556894,7.8939095,-9.938613,4.4527993,-2.824336,0.25251216,-4.404272,21.193686,87.92797,34.803185,75.72276,-5.982699,18.420841,-2.4611685,23.507946,-87.98688,-26.33174,78.75661,6.2817373,8.293797,1.9799231
17,-0.4651176333427429,-1.334958553314209,77.10504150390625,0.29543690402345946,2.8681850195080325,93.71805549753034,-1.2663821,4.1303024,-2.4072373,12.3728285,-17.154806,-3.5762727,2.3423743,-5.9551206,-11.55297,7.914588,-9.945181,4.4410477,-2.7754447,0.25769678,-4.4092436,21.123436,87.92199,34.793716,75.784676,-5.8778477,18.420963,-2.5002987,23.505033,-87.979576,-26.312218,78.780754,6.2908354,8.326357,2.0542128
18,-0.4805617034435272,-1.3250517845153809,77.10118103027344,0.29203350753523766,2.8659529398464643,93.70401217631556,-1.2466859,4.127703,-2.3970647,12.36914,-17.16383,-3.5853386,2.3372056,-5.967477,-11.557415,7.945322,-9.954044,4.4199505,-2.7283075,0.25931323,-4.409227,21.069046,87.91513,34.780876,75.84905,-5.7721653,18.418362,-2.5079856,23.490128,-87.971306,-26.292976,78.80148,6.2812595,8.371295,2.1517265
19,-0.4946925640106201,-1.3173106908798218,77.10331726074219,0.2893854534759224,2.863225566933469,93.69139318356952,-1.2271879,4.1227236,-2.3888223,12.365514,-17.17039,-3.591955,2.3308225,-5.982208,-11.564077,7.9818687,-9.966103,4.400587,-2.6848643,0.25767836,-4.4077024,21.027893,87.9075,34.76515,75.911026,-5.685229,18.416307,-2.4995651,23.465866,-87.96227,-26.27389,78.81979,6.2611527,8.418998,2.2503812
20,-0.508325457572937,-1.313805341720581,77.10359954833984,0.29085329764126483,2.862914548486142,93.68199351727004,-1.2135084,4.1133966,-2.380707,12.364463,-17.179832,-3.5863192,2.327162,-5.9982424,-11.567276,8.006044,-9.973537,4.393962,-2.6471412,0.25358155,-4.408481,20.999474,87.899185,34.74698,75.9653,-5.6391397,18.418861,-2.4906669,23.435068,-87.95257,-26.254984,78.836685,6.238351,8.458861,2.326216
21,-0.5208513140678406,-1.3076469898223877,77.10459899902344,0.29628757471219264,2.8670550497381586,93.67633374018439,-1.2103785,4.097966,-2.3713925,12.368926,-17.195587,-3.5584314,2.3247218,-6.016295,-11.565313,8.015759,-9.975207,4.404385,-2.6159387,0.24672648,-4.4135303,20.989132,87.89071,34.726147,76.009834,-5.655353,18.430159,-2.4780564,23.39595,-87.9427,-26.237036,78.85305,6.213713,8.488869,2.3688824
22,-0.5324445962905884,-1.2959065437316895,77.1052017211914,0.30442877441655175,2.874107541302461,93.67338699266051,-1.2147743,4.07804,-2.3622131,12.378738,-17.215237,-3.515988,2.3236306,-6.0359964,-11.561373,8.014572,-9.971556,4.4255495,-2.5900328,0.23754884,-4.420983,20.998447,87.882034,34.702606,76.04664,-5.7220883,18.448147,-2.4565477,23.348707,-87.93261,-26.22016,78.86875,6.18459,8.513176,2.390791
23,-0.542014479637146,-1.2870839834213257,77.10139465332031,0.31302306135292546,2.881262838735095,93.67301462016184,-1.2197664,4.0572343,-2.3556092,12.386547,-17.231844,-3.4758384,2.3264525,-6.0546618,-11.557433,8.007176,-9.967616,4.452147,-2.5679154,0.22721878,-4.4288473,21.020172,87.87337,34.677647,76.07573,-5.8073473,18.466202,-2.4383602,23.300905,-87.92256,-26.203495,78.883,6.1551294,8.530902,2.4018755
24,-0.5508394241333008,-1.2822890281677246,77.10086059570312,0.3198530178601726,2.885538562670276,93.67465251827286,-1.216155,4.039529,-2.3538604,12.382715,-17.238083,-3.4547772,2.337333,-6.0688972,-11.555387,7.991747,-9.963528,4.479044,-2.5475156,0.21729161,-4.434879,21.043167,87.864624,34.653072,76.09805,-5.8735185,18.4777,-2.4384131,23.262548,-87.91255,-26.185827,78.895676,6.132874,8.540156,2.4117289
25,-0.560302734375,-1.2690402269363403,77.0968246459961,0.3213234919383978,2.885124428026269,93.67885977709813,-1.1966466,4.0272436,-2.3579495,12.355727,-17.226187,-3.465167,2.3610039,-6.0755506,-11.556043,7.966481,-9.961059,4.507788,-2.5278506,0.21002959,-4.438796,21.058079,87.856346,34.630787,76.11745,-5.9072213,18.480803,-2.4711368,23.239016,-87.90316,-26.16679,78.908295,6.124807,8.539615,2.4269621
26,-0.5710686445236206,-1.255389928817749,77.0970687866211,0.32053838801881196,2.880958874832336,93.68553404184554,-1.16611,4.0178537,-2.3663952,12.312973,-17.201727,-3.4954429,2.3957357,-6.076909,-11.55824,7.930143,-9.957821,4.5402784,-2.5091915,0.20441248,-4.4401236,21.066574,87.84858,34.61096,76.13426,-5.919336,18.478342,-2.5292854,23.227774,-87.894424,-26.147072,78.92096,6.1297426,8.52994,2.4417748
27,-0.5805890560150146,-1.2477089166641235,77.09616088867188,0.3212340855301274,2.8756739213188203,93.69360969751831,-1.1338254,4.006798,-2.377327,12.268789,-17.174833,-3.5262423,2.4340255,-6.079527,-11.560692,7.889076,-9.953601,4.5715704,-2.491291,0.1953931,-4.438557,21.07606,87.84146,34.592648,76.142456,-5.910992,18.470917,-2.592723,23.226265,-87.88643,-26.127222,78.93104,6.1412067,8.512775,2.4475026
28,-0.5846995115280151,-1.2407467365264893,77.09330749511719,0.32664241097184576,2.8720516461634027,93.70202708906426,-1.1110774,3.9902122,-2.3893197,12.241362,-17.157503,-3.5383008,2.4651845,-6.089585,-11.56189,7.8547053,-9.950779,4.596854,-2.4741676,0.17973292,-4.4349904,21.09561,87.83486,34.5742,76.13568,-5.883906,18.459648,-2.6411746,23.232086,-87.87904,-26.107445,78.9357,6.1515574,8.490169,2.4363532
29,-0.5946257710456848,-1.2393625974655151,77.09300994873047,0.34299568634615846,2.871908516134637,93.71012390812889,-1.1029962,3.9630203,-2.4024422,12.238402,-17.153786,-3.5212204,2.488821,-6.111562,-11.558934,7.8216887,-9.946698,4.6139894,-2.4572992,0.15245551,-4.430892,21.131496,87.82829,34.554096,76.10762,-5.831729,18.448662,-2.6588595,23.248674,-87.871765,-26.08696,78.93186,6.156699,8.459586,2.39492
30,-0.603301465511322,-1.2294944524765015,77.0947265625,0.3655016495648852,2.8743572227405814,93.718520896198,-1.1062367,3.9288983,-2.4176412,12.253727,-17.159224,-3.4870446,2.5034702,-6.1421704,-11.552829,7.796373,-9.945558,4.625949,-2.4411175,0.11733009,-4.428372,21.18158,87.822105,34.53237,76.06062,-5.759073,18.437561,-2.6574092,23.276852,-87.86501,-26.065538,78.92062,6.15987,8.42152,2.3310678
31,-0.6089973449707031,-1.2197705507278442,77.09722900390625,0.38695368498124166,2.8776529978497347,93.72854949165753,-1.1132406,3.8960226,-2.4337652,12.2741,-17.167599,-3.4501247,2.5159223,-6.1720815,-11.550178,7.774706,-9.944971,4.634929,-2.4265099,0.08101811,-4.4282794,21.24077,87.81581,34.509506,76.00326,-5.683899,18.41881,-2.6575568,23.309038,-87.8583,-26.044117,78.90578,6.1648507,8.382735,2.2656524
32,-0.6099349856376648,-1.2122585773468018,77.09661865234375,0.40066829966038225,2.8802142079329913,93.74145512939234,-1.1183945,3.872876,-2.4497643,12.289637,-17.174261,-3.4248068,2.5288992,-6.193209,-11.557112,7.7586513,-9.944066,4.6431937,-2.4146082,0.05037146,-4.4293213,21.302967,87.80995,34.48679,75.94527,-5.6261425,18.383455,-2.6799514,23.33417,-87.85226,-26.024748,78.89135,6.173448,8.350303,2.2205434
33,-0.6110877394676208,-1.2050225734710693,77.0953598022461,0.40346874279617867,2.880952455249557,93.75732583914773,-1.1204458,3.863526,-2.4656138,12.299026,-17.177267,-3.4164102,2.5404065,-6.202283,-11.576331,7.757099,-9.946508,4.653186,-2.4063218,0.028767675,-4.4278245,21.370205,87.80448,34.464275,75.89009,-5.58477,18.319818,-2.7410548,23.341913,-87.84691,-26.009312,78.87788,6.183276,8.324936,2.21312
34,-0.6151645183563232,-1.1999456882476807,77.09408569335938,0.4001606733165023,2.880672742122625,93.77568207165218,-1.1213999,3.8626335,-2.4817054,12.305818,-17.178535,-3.4167593,2.549401,-6.204415,-11.604203,7.7677593,-9.952181,4.663165,-2.4014804,0.011476063,-4.4222255,21.443197,87.799965,34.442463,75.83579,-5.552609,18.232359,-2.8278468,23.33482,-87.84293,-25.998146,78.86466,6.1901665,8.3032675,2.2295547
35,-0.6182892918586731,-1.1900663375854492,77.0966567993164,0.39385047081362484,2.880585228077611,93.79638533278872,-1.1218665,3.864903,-2.4975111,12.309505,-17.180763,-3.420004,2.556089,-6.2043085,-11.636342,7.785436,-9.960769,4.6688957,-2.39973,-0.0032129104,-4.4146657,21.512953,87.796295,34.42273,75.784294,-5.5391726,18.138636,-2.9185107,23.323141,-87.8403,-25.989897,78.85361,6.194878,8.287246,2.248892
36,-0.6267675161361694,-1.1847320795059204,77.09768676757812,0.38841267217703396,2.8820388984983176,93.81950491858525,-1.1227807,3.8643775,-2.5123684,12.309871,-17.186773,-3.4202764,2.5580785,-6.2073536,-11.668201,7.809013,-9.973862,4.6661296,-2.3999436,-0.017933747,-4.406984,21.56851,87.793304,34.406487,75.73636,-5.5539546,18.057878,-2.9890983,23.318995,-87.83895,-25.982658,78.845955,6.201335,8.279248,2.2478096
37,-0.6398217082023621,-1.1770998239517212,77.09657287597656,0.38423535025123545,2.8859814437718128,93.8463409142513,-1.1227236,3.861767,-2.5246053,12.301875,-17.198181,-3.417198,2.5498238,-6.2141547,-11.700268,7.8486624,-9.997048,4.6479917,-2.4017048,-0.030813994,-4.398807,21.60416,87.791115,34.394283,75.69062,-5.6111503,17.995296,-3.027862,23.331774,-87.83887,-25.97476,78.844955,6.2157226,8.284165,2.2135262
38,-0.6471655368804932,-1.1668756008148193,77.096923828125,0.37913465770465066,2.891536625935251,93.8761136400629,-1.1221305,3.8590493,-2.5348315,12.287817,-17.213596,-3.413519,2.5330098,-6.2228227,-11.733995,7.9036646,-10.028712,4.618661,-2.4045637,-0.042803477,-4.389972,21.624584,87.789375,34.38499,75.64458,-5.7015405,17.943266,-3.0461795,23.358065,-87.83986,-25.966362,78.84787,6.240501,8.29982,2.1573942
39,-0.6447796821594238,-1.1589704751968384,77.09207916259766,0.37836659660926525,2.899268757636118,93.90700128986836,-1.1226692,3.850892,-2.5461593,12.270174,-17.226025,-3.4072804,2.509018,-6.237666,-11.766115,7.9693165,-10.067293,4.591162,-2.4081776,-0.04085365,-4.4060197,21.568441,87.770485,34.272903,75.61182,-5.825261,17.896376,-3.0406103,23.342035,-87.87601,-25.878475,78.87297,6.290507,8.320074,2.0930178
40,-0.649655818939209,-1.1515461206436157,77.08934020996094,0.37929475373816257,2.9043689796595094,93.93576049090848,-1.1240375,3.841209,-2.5623837,12.26063,-17.234625,-3.398441,2.5096745,-6.248232,-11.796221,7.9857917,-10.082012,4.576422,-2.4139817,-0.047717318,-4.4056134,21.512127,87.77287,34.21108,75.59182,-5.8901157,17.86541,-3.0673392,23.305729,-87.91522,-25.820992,78.89554,6.3122716,8.331267,2.0615902
41,-0.645696222782135,-1.1435476541519165,77.08826446533203,0.3874477864441106,2.9076256000367877,93.96290791414808,-1.1284919,3.8245637,-2.586762,12.261286,-17.236513,-3.3838959,2.5363784,-6.259042,-11.823697,7.9486184,-10.071462,4.5807014,-2.4234757,-0.06470043,-4.4029593,21.46664,87.78481,34.175278,75.57735,-5.910339,17.844862,-3.118911,23.25786,-87.95325,-25.782705,78.90397,6.3186054,8.333126,2.0525627
42,-0.6465467810630798,-1.1358939409255981,77.08948516845703,0.39976738484815494,2.909976553625939,93.98951554433656,-1.1339936,3.8026009,-2.6165743,12.265967,-17.232832,-3.3649743,2.5813942,-6.2702303,-11.849613,7.873531,-10.04358,4.596735,-2.4355419,-0.087936126,-4.398765,21.423199,87.801414,34.156673,75.56626,-5.9054394,17.83445,-3.1830359,23.203976,-87.98919,-25.758312,78.90244,6.315473,8.33009,2.0550456
43,-0.6561897397041321,-1.1342662572860718,77.08987426757812,0.41280104675889323,2.912398487007348,94.01524372902334,-1.1397467,3.7806273,-2.646951,12.27069,-17.226877,-3.3467288,2.6275995,-6.2807965,-11.873491,7.7948823,-10.01446,4.6172166,-2.4471908,-0.11282533,-4.3942165,21.37337,87.8206,34.149937,75.55596,-5.891678,17.835484,-3.252179,23.153677,-88.02331,-25.744173,78.89565,6.310062,8.323207,2.0634663
44,-0.6572234630584717,-1.1275488138198853,77.08850860595703,0.4219094206493897,2.9159404007643537,94.03975559203921,-1.1447026,3.7638583,-2.6730986,12.2713175,-17.221191,-3.334074,2.659811,-6.289116,-11.895306,7.744376,-9.999497,4.634807,-2.4554124,-0.13451916,-4.390766,21.309017,87.84108,34.14948,75.54442,-5.8856244,17.849525,-3.3193598,23.11587,-88.05549,-25.7361,78.888405,6.3096914,8.3137455,2.0726008
45,-0.6584985852241516,-1.1198229789733887,77.08798217773438,0.4244858598293697,2.9214600264953243,94.06401840439996,-1.1493491,3.7545881,-2.693768,12.264976,-17.215748,-3.328827,2.6713297,-6.293982,-11.915762,7.735532,-10.005927,4.6478243,-2.4598103,-0.15040103,-4.3893676,21.217146,87.86352,34.15307,75.53253,-5.8919964,17.885307,-3.3888369,23.091652,-88.086426,-25.73291,78.88199,6.316298,8.300248,2.082862
46,-0.6601458191871643,-1.1166166067123413,77.0862808227539,0.42241322253534386,2.928110745268467,94.08767910064344,-1.1545687,3.7501194,-2.7116435,12.255843,-17.210184,-3.3282297,2.6718636,-6.296167,-11.934739,7.748884,-10.024358,4.6601186,-2.4615455,-0.1626516,-4.389718,21.100752,87.88821,34.158054,75.52212,-5.902549,17.939219,-3.4618523,23.074358,-88.11613,-25.73416,78.87494,6.3260083,8.282739,2.0966387
47,-0.6633318662643433,-1.1046310663223267,77.08517456054688,0.42126987784434294,2.934734098917362,94.10917856109805,-1.156913,3.7466552,-2.727236,12.242898,-17.202433,-3.330218,2.6681468,-6.298473,-11.950488,7.7697787,-10.045679,4.672478,-2.4601293,-0.17551768,-4.3907623,20.975677,87.9138,34.160122,75.512436,-5.9124374,17.99395,-3.5268261,23.063362,-88.14453,-25.738615,78.86747,6.3373733,8.264094,2.1111073
48,-0.6649029850959778,-1.0977387428283691,77.08602905273438,0.4226179451810995,2.940063061016603,94.12661728317657,-1.1555598,3.7411313,-2.741271,12.230053,-17.19301,-3.3328798,2.6652076,-6.303862,-11.961074,7.7883005,-10.063936,4.685845,-2.455162,-0.1928013,-4.3915052,20.859169,87.93822,34.15606,75.50229,-5.917178,18.031994,-3.5718942,23.057793,-88.1718,-25.745228,78.8596,6.348621,8.247233,2.1233582
49,-0.6654338240623474,-1.090484619140625,77.08804321289062,0.4299432708195262,2.9432465351991177,94.13780524955537,-1.149244,3.7321808,-2.753064,12.218677,-17.180882,-3.3356469,2.6634645,-6.3140707,-11.963404,7.803683,-10.077277,4.702601,-2.4447584,-0.21619383,-4.391616,20.754803,87.95941,34.14586,75.48943,-5.9203424,18.046873,-3.588317,23.056866,-88.19816,-25.75243,78.850845,6.3688345,8.234271,2.1311975
50,-0.6720706820487976,-1.082767128944397,77.08731079101562,0.4397431082949096,2.9451445149992352,94.14440999617848,-1.1383324,3.721401,-2.762487,12.205438,-17.165243,-3.3395143,2.6605787,-6.3273244,-11.959454,7.8202963,-10.08878,4.721575,-2.4300373,-0.24322091,-4.3918343,20.655678,87.9775,34.13267,75.47414,-5.922865,18.048582,-3.5836391,23.059689,-88.22407,-25.759819,78.84194,6.3957453,8.223126,2.1366506
51,-0.6736185550689697,-1.0726836919784546,77.08641052246094,0.44926525140004125,2.947038369085458,94.15002692908561,-1.1259687,3.7110431,-2.7712731,12.191479,-17.150684,-3.345117,2.6570866,-6.3410077,-11.954721,7.837671,-10.101119,4.738227,-2.4148905,-0.26999313,-4.3920074,20.562738,87.99347,34.117764,75.45901,-5.916486,18.04411,-3.5709999,23.064322,-88.249214,-25.767214,78.83385,6.410608,8.210653,2.1435585
52,-0.6693185567855835,-1.0621994733810425,77.08523559570312,0.4572120130831895,2.950135307794713,94.15827742168315,-1.1142057,3.7031848,-2.7810721,12.175185,-17.139574,-3.3529537,2.6565604,-6.351588,-11.955256,7.8492727,-10.114082,4.74783,-2.403101,-0.2936546,-4.392325,20.476068,88.009155,34.102287,75.446785,-5.892728,18.040833,-3.5632908,23.070776,-88.27376,-25.776075,78.82775,6.395436,8.193447,2.1551857
53,-0.6730698347091675,-1.0550658702850342,77.08426666259766,0.46140153958381375,2.9552846755889965,94.1710199066605,-1.1039445,3.6982212,-2.792791,12.156568,-17.134588,-3.3642914,2.6568897,-6.3589025,-11.96171,7.8586984,-10.132815,4.7482677,-2.3961961,-0.31390357,-4.3935356,20.392021,88.02605,34.085808,75.44134,-5.835724,18.038311,-3.561834,23.080418,-88.297226,-25.787659,78.826,6.3300953,8.162779,2.1778429
54,-0.6678460836410522,-1.0422018766403198,77.08183288574219,0.463951187517587,2.961637871077267,94.18596942165902,-1.09325,3.695372,-2.8053887,12.135257,-17.133295,-3.3784604,2.6596758,-6.3639364,-11.97151,7.8630157,-10.15366,4.742235,-2.3918147,-0.3323953,-4.395523,20.309818,88.043976,34.06634,75.440956,-5.7543383,18.033329,-3.56087,23.094011,-88.3191,-25.801964,78.827156,6.229428,8.123091,2.2078013
55,-0.6680563688278198,-1.0342376232147217,77.08079528808594,0.46499272934082125,2.9679960370787364,94.20088021472831,-1.0835336,3.6936684,-2.817685,12.11531,-17.133724,-3.3932214,2.6624198,-6.368049,-11.984473,7.868368,-10.173451,4.7327228,-2.3877468,-0.34920633,-4.3965607,20.234673,88.06216,34.042465,75.44016,-5.6780095,18.029413,-3.5626388,23.109858,-88.33935,-25.817743,78.82592,6.127174,8.090945,2.2340467
56,-0.6691452860832214,-1.0236247777938843,77.0809326171875,0.4660186645516867,2.973039694863758,94.21334744996719,-1.0741148,3.6927936,-2.8286254,12.096733,-17.131704,-3.4062738,2.666485,-6.3713665,-12.000927,7.8722897,-10.184563,4.7226553,-2.3820555,-0.36426193,-4.39531,20.17285,88.07947,34.0142,75.43314,-5.6357646,18.029875,-3.569143,23.125803,-88.35869,-25.83322,78.81745,6.057461,8.082536,2.2454262
57,-0.671401858329773,-1.016402006149292,77.08075714111328,0.4649452472355918,2.9760995638423986,94.22323589447022,-1.0658911,3.6926262,-2.8388033,12.081516,-17.126604,-3.418797,2.6709015,-6.37456,-12.024885,7.8792505,-10.185361,4.710398,-2.3752193,-0.37645367,-4.3903413,20.13098,88.09528,33.982956,75.41716,-5.6474504,18.037735,-3.5828388,23.139935,-88.378456,-25.84621,78.79649,6.0294003,8.113754,2.2345872
58,-0.6749915480613708,-1.0135512351989746,77.08207702636719,0.46230652178951703,2.9780220280803373,94.2316663550233,-1.0584173,3.6935225,-2.8485389,12.067818,-17.119623,-3.4314265,2.6762164,-6.3772964,-12.054953,7.8870296,-10.178834,4.695221,-2.368419,-0.38543028,-4.382815,20.105965,88.10899,33.94988,75.39518,-5.6936755,18.050497,-3.6017723,23.149496,-88.398,-25.853792,78.76781,6.0251174,8.17198,2.2093828
59,-0.6719639301300049,-1.0018906593322754,77.08120727539062,0.459261184499398,2.9796758304406827,94.23812168068605,-1.0515465,3.6951685,-2.8561738,12.056723,-17.114237,-3.4410667,2.6825614,-6.3787107,-12.083123,7.891708,-10.169097,4.681253,-2.3606021,-0.39377958,-4.374971,20.091858,88.12104,33.916985,75.369576,-5.7444215,18.063316,-3.6216128,23.15431,-88.41743,-25.856924,78.74161,6.036945,8.231483,2.1804202
60,-0.6698083281517029,-0.9912161827087402,77.07915496826172,0.4581526081588656,2.982023458849708,94.24221357493957,-1.0460249,3.6971116,-2.8601267,12.049989,-17.113544,-3.444657,2.6889255,-6.378596,-12.101238,7.8923907,-10.162327,4.6728435,-2.3508444,-0.404162,-4.3688536,20.081717,88.13189,33.88513,75.34307,-5.7698894,18.071358,-3.6382358,23.155914,-88.43622,-25.857964,78.72751,6.0572767,8.266369,2.1587079
61,-0.664959192276001,-0.9799162149429321,77.08020782470703,0.4582090970427323,2.984889039475835,94.24250474221752,-1.0416812,3.6996124,-2.8575332,12.0493355,-17.12045,-3.4365964,2.6929097,-6.376884,-12.104594,7.892488,-10.160956,4.671157,-2.3368587,-0.41770095,-4.364611,20.072433,88.141266,33.85249,75.314995,-5.7626953,18.074434,-3.651988,23.15414,-88.45295,-25.85863,78.73057,6.0908346,8.266066,2.1521912
62,-0.6644607782363892,-0.971017599105835,77.08052825927734,0.4588680567167698,2.9879236098511046,94.2396848012023,-1.0378754,3.7025847,-2.8499825,12.05322,-17.132914,-3.4201407,2.6984854,-6.3730016,-12.098637,7.8860726,-10.15887,4.673912,-2.3194702,-0.43317842,-4.3611116,20.066772,88.14924,33.818256,75.28459,-5.7384586,18.074617,-3.6646173,23.151041,-88.46742,-25.860014,78.74397,6.1394267,8.245561,2.153186
63,-0.6634953618049622,-0.962757408618927,77.08112335205078,0.4608049596178196,2.9918299169831735,94.23639034270951,-1.0338948,3.705753,-2.8426464,12.05528,-17.143553,-3.4052877,2.703056,-6.368733,-12.089369,7.8794746,-10.1599865,4.68003,-2.302356,-0.44854784,-4.3587985,20.066751,88.156815,33.784634,75.25405,-5.7022505,18.070955,-3.6741238,23.151373,-88.48093,-25.863554,78.75993,6.1907563,8.217542,2.149832
64,-0.6591536998748779,-0.9552046656608582,77.07926940917969,0.461939145133753,2.9974836213000224,94.23546676354134,-1.0306042,3.7088053,-2.8407917,12.053399,-17.148335,-3.4021533,2.706631,-6.364917,-12.083083,7.873643,-10.1652775,4.6883006,-2.2896094,-0.46212026,-4.357107,20.084648,88.162735,33.764805,75.221954,-5.6590056,18.062372,-3.677976,23.157488,-88.49083,-25.86873,78.768394,6.2330894,8.194702,2.1286938
65,-0.6582045555114746,-0.9451225399971008,77.08245849609375,0.4619425717015402,3.0060151796730423,94.23833798789062,-1.0266515,3.711506,-2.8476713,12.040666,-17.14036,-3.41895,2.7087483,-6.361529,-12.080121,7.8673186,-10.177107,4.7027183,-2.2822115,-0.47013348,-4.3583164,20.101866,88.17176,33.74021,75.194595,-5.5984836,18.047983,-3.6796672,23.175457,-88.5058,-25.875381,78.7722,6.261454,8.174986,2.0847874
66,-0.6522491574287415,-0.9354654550552368,77.08110809326172,0.46283928072537545,3.016785442296331,94.24331784459258,-1.0230788,3.714271,-2.8599074,12.022983,-17.125757,-3.448549,2.7092786,-6.358284,-12.077529,7.861636,-10.195039,4.7224126,-2.2784603,-0.47545937,-4.3614373,20.12786,88.18027,33.720234,75.16702,-5.522058,18.028406,-3.677446,23.197891,-88.519165,-25.879383,78.773575,6.2832556,8.153062,2.0226562
67,-0.6539748907089233,-0.9278100728988647,77.0804214477539,0.4636219786740685,3.0274921996241777,94.24841550534276,-1.0189861,3.7169418,-2.8725004,12.00397,-17.110395,-3.4775581,2.7095156,-6.355195,-12.076658,7.8570642,-10.212971,4.7392654,-2.2764525,-0.4809039,-4.3649116,20.163973,88.18894,33.704433,75.142815,-5.451376,18.005228,-3.6699018,23.216627,-88.53228,-25.883163,78.77256,6.3030043,8.138277,1.9600698
68,-0.6499176621437073,-0.9196157455444336,77.07868194580078,0.4638340512047083,3.0358447327041715,94.25156243690985,-1.0147824,3.7198758,-2.8805435,11.99102,-17.1028,-3.4928217,2.710193,-6.3524547,-12.078738,7.8560586,-10.225895,4.7449574,-2.2740202,-0.4891115,-4.3672056,20.211552,88.197624,33.692104,75.12563,-5.4085374,17.979546,-3.6549253,23.223099,-88.54502,-25.888662,78.76923,6.3251033,8.139766,1.9140917
69,-0.6468002796173096,-0.9077059030532837,77.07835388183594,0.4648379121762008,3.0411102032750144,94.25156248597838,-1.0106478,3.7229178,-2.8816953,11.986073,-17.106287,-3.4868224,2.7103446,-6.350312,-12.086027,7.861982,-10.231433,4.7322,-2.2693095,-0.50100803,-4.3678775,20.273018,88.20641,33.68132,75.114685,-5.406438,17.94739,-3.622318,23.215502,-88.5565,-25.895903,78.76156,6.3538623,8.162863,1.8910908
70,-0.6406161785125732,-0.8942622542381287,77.07767486572266,0.464782573588279,3.0445490209936574,94.24975066319142,-1.0059687,3.7262645,-2.8790095,11.984955,-17.116104,-3.467947,2.710235,-6.3483934,-12.097336,7.8721647,-10.232255,4.7070556,-2.263764,-0.5155688,-4.368163,20.34574,88.21641,33.671856,75.10932,-5.430909,17.909515,-3.576548,23.20037,-88.568375,-25.90601,78.75058,6.385591,8.201741,1.8812859
71,-0.6360041499137878,-0.8848224878311157,77.07755279541016,0.4664491004029623,3.046927045511117,94.24787339140863,-1.0013169,3.729512,-2.8753054,11.986192,-17.127853,-3.4467232,2.7118123,-6.34645,-12.108339,7.8807497,-10.231843,4.681544,-2.260017,-0.53016204,-4.367939,20.421108,88.226,33.662987,75.11275,-5.4637356,17.87408,-3.5375316,23.175991,-88.579315,-25.91677,78.73945,6.414404,8.248958,1.8786536
72,-0.6293245553970337,-0.8760530352592468,77.07586669921875,0.46746756732452627,3.0489759771701035,94.24771285398005,-0.9956255,3.732,-2.8733091,11.9853115,-17.135794,-3.4335153,2.7180533,-6.3436775,-12.114899,7.8803706,-10.232818,4.667524,-2.2609422,-0.5434419,-4.367084,20.492195,88.23451,33.65585,75.127365,-5.4863424,17.849478,-3.5249746,23.142668,-88.59061,-25.928291,78.73191,6.4337325,8.296608,1.8765081
73,-0.6245686411857605,-0.866104781627655,77.07605743408203,0.46941371458162295,3.049689862614194,94.25088689304468,-0.98757327,3.7331626,-2.8743877,11.981136,-17.137705,-3.4326596,2.7332592,-6.3395925,-12.114748,7.8651247,-10.236702,4.6724143,-2.2705786,-0.5551674,-4.3643503,20.56424,88.24155,33.65157,75.15573,-5.4992013,17.838293,-3.5521967,23.093235,-88.604195,-25.942284,78.72829,6.4317427,8.345427,1.8830683
74,-0.6188660860061646,-0.8570046424865723,77.0748062133789,0.4719799316908337,3.049111507785463,94.25620795637195,-0.97772443,3.7333982,-2.8768616,11.975166,-17.136272,-3.4380732,2.7558463,-6.334587,-12.110501,7.837621,-10.240076,4.6884055,-2.286411,-0.5654684,-4.3600864,20.639341,88.24654,33.650093,75.19523,-5.51031,17.835985,-3.6057262,23.028553,-88.61893,-25.957016,78.72699,6.4151044,8.398681,1.8986238
75,-0.6148071885108948,-0.8550125360488892,77.07278442382812,0.47462400417434847,3.049534223342001,94.26079168621459,-0.9694944,3.7339888,-2.878975,11.970623,-17.13563,-3.4446597,2.7728987,-6.330165,-12.104902,7.818804,-10.247876,4.70484,-2.3018122,-0.57384354,-4.3573184,20.70729,88.24936,33.651638,75.24178,-5.513164,17.839941,-3.66575,22.96132,-88.63402,-25.966858,78.72974,6.405878,8.452636,1.9061253
76,-0.6133987307548523,-0.840988278388977,77.07363891601562,0.47566581878396164,3.0532978623987987,94.26207177128035,-0.96392554,3.7365205,-2.8789937,11.966485,-17.137674,-3.4473228,2.782697,-6.3255854,-12.102057,7.8059964,-10.252305,4.711111,-2.3091698,-0.5813646,-4.3587437,20.754524,88.25009,33.65327,75.29087,-5.5011463,17.84749,-3.7106447,22.907993,-88.643295,-25.969519,78.735954,6.4263916,8.503023,1.8846625
77,-0.6119558215141296,-0.8270221948623657,77.07398986816406,0.4751949946915815,3.062229786202429,94.2575943419403,-0.9655761,3.7421901,-2.8760386,11.969186,-17.146465,-3.4440088,2.7701695,-6.3229003,-12.1026535,7.824152,-10.261653,4.6988683,-2.3047745,-0.5867446,-4.3656116,20.773815,88.24898,33.652992,75.3472,-5.463454,17.859068,-3.7354085,22.874374,-88.64577,-25.964306,78.746704,6.498832,8.552473,1.8150947
78,-0.6057093143463135,-0.8222205638885498,77.0737533569336,0.47390624324800357,3.073242498326478,94.25044623856014,-0.96940154,3.7503688,-2.8721752,11.974024,-17.158306,-3.4376955,2.751214,-6.3198237,-12.106667,7.8492513,-10.268143,4.6756287,-2.2913024,-0.59276533,-4.376393,20.778318,88.248604,33.652454,75.40609,-5.4141703,17.876701,-3.7487094,22.860815,-88.6456,-25.965055,78.76623,6.593172,8.597182,1.7251011
79,-0.5982397794723511,-0.8126853108406067,77.07327270507812,0.4725955217492865,3.0859324414769,94.24236787320655,-0.97434884,3.7581646,-2.8667715,11.977391,-17.170588,-3.4307644,2.7295187,-6.316936,-12.109497,7.8761196,-10.275416,4.6544437,-2.2780256,-0.5949497,-4.3889647,20.770473,88.24774,33.65309,75.4696,-5.3618755,17.896828,-3.7633944,22.854254,-88.64473,-25.963764,78.7817,6.693162,8.6409235,1.629176
80,-0.5948601961135864,-0.8045171499252319,77.07231140136719,0.47217101354993185,3.0969884069397673,94.23748155541261,-0.97595704,3.7633274,-2.8615444,11.975178,-17.180407,-3.425637,2.7169442,-6.313859,-12.109096,7.8917975,-10.284736,4.648551,-2.2669208,-0.5975009,-4.4031916,20.752993,88.24683,33.65465,75.52407,-5.3243527,17.918444,-3.7804532,22.853596,-88.64367,-25.960983,78.79534,6.7611485,8.673626,1.5666387
81,-0.5903767943382263,-0.7942343950271606,77.06924438476562,0.473078962514296,3.105552481464892,94.23684940636845,-0.9711593,3.764345,-2.8554335,11.960651,-17.185236,-3.4228103,2.721127,-6.309591,-12.103294,7.883467,-10.293477,4.668478,-2.2592485,-0.6010294,-4.4196587,20.72458,88.24575,33.65756,75.56615,-5.3109775,17.943174,-3.8050628,22.859138,-88.642365,-25.956942,78.80888,6.77351,8.688864,1.5535008
82,-0.5853134393692017,-0.7856737971305847,77.06709289550781,0.47585386225250614,3.1124538451222596,94.23898147356704,-0.9604244,3.762955,-2.8485239,11.93522,-17.186111,-3.4210474,2.737134,-6.304262,-12.094422,7.858244,-10.301028,4.7049174,-2.2526016,-0.6050726,-4.438171,20.685602,88.24464,33.661945,75.59999,-5.3134313,17.97173,-3.8330383,22.86998,-88.64109,-25.95214,78.82509,6.7465,8.690154,1.5735617
83,-0.5852632522583008,-0.7717750668525696,77.0684585571289,0.4790403420510903,3.1176091304946425,94.2424746908493,-0.9488172,3.7611604,-2.8432255,11.911375,-17.187109,-3.4202075,2.7569911,-6.2988815,-12.086427,7.83021,-10.308237,4.740962,-2.2466197,-0.6089532,-4.4561563,20.642366,88.243385,33.66701,75.6272,-5.3222814,18.001455,-3.855572,22.881256,-88.63968,-25.947363,78.84249,6.7085905,8.686707,1.6123163
84,-0.5853368639945984,-0.7611455917358398,77.0653305053711,0.4800551455611987,3.120912170357572,94.24631504080189,-0.93800646,3.7607667,-2.8419166,11.8953905,-17.189627,-3.419905,2.7727435,-6.2941394,-12.083722,7.8126216,-10.315568,4.7597675,-2.2413144,-0.61146265,-4.4713044,20.603136,88.24205,33.671486,75.649956,-5.3292837,18.029293,-3.8634446,22.887735,-88.6382,-25.943396,78.85912,6.688648,8.688904,1.6554506
85,-0.5845996141433716,-0.7512466907501221,77.06470489501953,0.4782520150491174,3.121873871148099,94.2507862663832,-0.9303255,3.7627084,-2.8471065,11.89351,-17.195316,-3.4208362,2.7815304,-6.2901917,-12.088685,7.8123965,-10.325152,4.751334,-2.2377913,-0.6118172,-4.483737,20.570408,88.24063,33.67484,75.66801,-5.334143,18.055853,-3.8479695,22.886797,-88.63661,-25.940466,78.87167,6.7006655,8.70154,1.706326
86,-0.5804846286773682,-0.7448458671569824,77.06260681152344,0.4747717550335616,3.1208958239646596,94.2564683328438,-0.9241981,3.7660346,-2.857106,11.900098,-17.202747,-3.4229372,2.7875283,-6.2865157,-12.0988655,7.8208127,-10.335451,4.726434,-2.2364457,-0.61075914,-4.494677,20.541195,88.239,33.677433,75.681015,-5.3423553,18.081884,-3.8146288,22.881962,-88.634796,-25.937988,78.88016,6.730113,8.719992,1.7690194
87,-0.5818927884101868,-0.7315738797187805,77.06216430664062,0.4717149763108053,3.119747331907523,94.26229182556092,-0.92073506,3.7697403,-2.8678956,11.913262,-17.212736,-3.4249558,2.792499,-6.2830334,-12.11047,7.8318806,-10.345102,4.6994143,-2.235979,-0.60787266,-4.5040283,20.5157,88.23699,33.679153,75.69101,-5.3541145,18.104818,-3.7780924,22.877064,-88.63262,-25.935354,78.888016,6.761105,8.740258,1.8307431
88,-0.5793610215187073,-0.7209267020225525,77.0633544921875,0.4684891246117672,3.1200660065817414,94.267194415267,-0.917795,3.7725663,-2.8751073,11.923535,-17.222023,-3.4255602,2.796164,-6.280589,-12.11924,7.842323,-10.353264,4.6848025,-2.2347596,-0.6040398,-4.512206,20.494751,88.23466,33.67982,75.70024,-5.3692446,18.12146,-3.7529974,22.876305,-88.63022,-25.931963,78.89896,6.7776055,8.758003,1.8765393
89,-0.5755489468574524,-0.7072835564613342,77.06123352050781,0.4678395672018283,3.123012414470165,94.26988970097912,-0.9170371,3.7736728,-2.8761368,11.931909,-17.2322,-3.421731,2.7983284,-6.2795086,-12.122417,7.8507,-10.359276,4.6899643,-2.2312622,-0.59746677,-4.519879,20.478321,88.231834,33.67926,75.70889,-5.387605,18.130522,-3.745107,22.882029,-88.627396,-25.927252,78.91397,6.772525,8.775262,1.8973982
90,-0.576808512210846,-0.7014796137809753,77.05880737304688,0.46823143951932356,3.127496806384316,94.27096270138739,-0.91817766,3.773644,-2.8733838,11.940989,-17.243374,-3.4150338,2.796337,-6.2804403,-12.122163,7.8638797,-10.366062,4.706204,-2.2260349,-0.5888527,-4.527751,20.466492,88.22851,33.677315,75.715706,-5.408623,18.133394,-3.747025,22.892305,-88.62413,-25.921305,78.9314,6.7542944,8.793157,1.901208
91,-0.5840170383453369,-0.6984944939613342,77.05787658691406,0.4689347365717634,3.1323457479900325,94.27207542894932,-0.91832036,3.773764,-2.870122,11.947278,-17.252998,-3.4110725,2.7956138,-6.2811885,-12.12264,7.8738384,-10.370164,4.7231936,-2.2209377,-0.5793594,-4.5363946,20.460203,88.2246,33.67377,75.72171,-5.431857,18.130913,-3.7561176,22.904942,-88.62036,-25.914368,78.95003,6.731164,8.805481,1.9010671
92,-0.5844905972480774,-0.6853471398353577,77.0594253540039,0.4676091332933139,3.1356494664216443,94.27489382224522,-0.9148532,3.775462,-2.8699589,11.948457,-17.258438,-3.4155724,2.7982228,-6.2807097,-12.127639,7.8808017,-10.3728075,4.730903,-2.2180996,-0.57039726,-4.5458317,20.460732,88.22018,33.66849,75.72811,-5.4569154,18.123705,-3.7696214,22.917498,-88.61619,-25.906939,78.969185,6.711017,8.805148,1.9099071
93,-0.5862925052642822,-0.6734640598297119,77.05953979492188,0.46229603408065273,3.136406855775699,94.28082856234492,-0.9052523,3.781122,-2.875366,11.940985,-17.256424,-3.437409,2.8091621,-6.2762337,-12.141968,7.8777347,-10.369531,4.721582,-2.2195857,-0.5598311,-4.553695,20.47253,88.21519,33.660793,75.73425,-5.491498,18.10899,-3.790494,22.930893,-88.61164,-25.89902,78.992134,6.694374,8.784732,1.9322888
94,-0.5880032181739807,-0.6609592437744141,77.05821228027344,0.45465377536638235,3.1352384161898117,94.28926218449031,-0.89093345,3.7900732,-2.884577,11.926567,-17.248579,-3.4712029,2.8282897,-6.268333,-12.162986,7.8629127,-10.359119,4.702263,-2.2242937,-0.5475694,-4.560141,20.495369,88.209595,33.65066,75.739426,-5.535623,18.087042,-3.818396,22.946196,-88.60678,-25.890547,79.01884,6.6779437,8.747994,1.9613959
95,-0.5900148153305054,-0.6489869952201843,77.0576171875,0.44770816409755676,3.132885343445001,94.29771895297608,-0.87552065,3.797577,-2.8936934,11.913788,-17.243279,-3.5010707,2.8496273,-6.2614956,-12.182922,7.846707,-10.350079,4.6849995,-2.2295442,-0.5365562,-4.569293,20.520653,88.20342,33.63934,75.74679,-5.574191,18.06392,-3.8475769,22.960192,-88.60168,-25.88194,79.04359,6.6632643,8.706329,1.9958657
96,-0.5919681787490845,-0.645611047744751,77.05511474609375,0.44482141542344494,3.1299933063301566,94.30364467816092,-0.861733,3.7993155,-2.8988652,11.9088545,-17.247198,-3.511103,2.875709,-6.2584944,-12.1949,7.821845,-10.341541,4.682007,-2.2326484,-0.5300727,-4.5835114,20.536139,88.19681,33.628746,75.7602,-5.5884204,18.046358,-3.8721275,22.968208,-88.596466,-25.873873,79.06009,6.651674,8.672182,2.0341327
97,-0.5935296416282654,-0.6343963146209717,77.05440521240234,0.4500902978572637,3.1274374104292737,94.30557036147164,-0.8522719,3.792216,-2.8971689,11.917536,-17.267775,-3.48901,2.9030979,-6.2623997,-12.193936,7.7929835,-10.338572,4.701096,-2.2325578,-0.53142136,-4.6045585,20.534565,88.18996,33.620228,75.783325,-5.552494,18.03625,-3.8944528,22.964708,-88.59131,-25.867287,79.064804,6.6414638,8.651389,2.0831857
98,-0.5953140258789062,-0.6207956671714783,77.05447387695312,0.4598741253234291,3.124722460246762,94.30484372650034,-0.84497905,3.7792165,-2.8910463,11.934871,-17.299229,-3.4458888,2.9333322,-6.270869,-12.184354,7.758138,-10.337651,4.734424,-2.2306414,-0.5387063,-4.6284156,20.516853,88.18304,33.61401,75.81508,-5.474982,18.030634,-3.9172204,22.950232,-88.58637,-25.862402,79.06143,6.630781,8.63882,2.1418548
99,-0.6007207632064819,-0.6118715405464172,77.0503158569336,0.4718835712714988,3.121323483901916,94.30325066307655,-0.83737093,3.7643638,-2.8844807,11.953717,-17.330404,-3.4009867,2.961588,-6.2812476,-12.17267,7.729223,-10.340742,4.770003,-2.2276864,-0.5459594,-4.650536,20.485064,88.176125,33.609962,75.8521,-5.3935294,18.028795,-3.934733,22.93072,-88.58165,-25.858473,79.05504,6.6225295,8.6286,2.1958885
100,-0.6041440367698669,-0.599707305431366,77.05169677734375,0.4802501676881218,3.1170360399935864,94.30254396283364,-0.82652533,3.751435,-2.881452,11.9648075,-17.348652,-3.3734906,2.9857223,-6.291165,-12.165449,7.7106214,-10.345187,4.7962084,-2.2243257,-0.5487339,-4.666703,20.443645,88.16915,33.607395,75.88986,-5.3498693,18.029995,-3.9391773,22.913792,-88.57699,-25.85429,79.05062,6.6215005,8.61503,2.2299461
101,-0.608980119228363,-0.5916668772697449,77.04856872558594,0.4848817096510428,3.1107843208341466,94.30278292573875,-0.81058055,3.7412717,-2.8843374,11.966245,-17.347311,-3.3727694,2.9983106,-6.3014946,-12.164044,7.72091,-10.359138,4.808429,-2.219802,-0.5442158,-4.677058,20.394579,88.16202,33.605732,75.92555,-5.3628836,18.034681,-3.9190407,22.902836,-88.57214,-25.848995,79.04973,6.633099,8.593183,2.2319045
102,-0.6139230728149414,-0.582918643951416,77.04737091064453,0.4881973614067496,3.1031667344868006,94.30337972808056,-0.7906442,3.7315917,-2.8905275,11.96052,-17.3329,-3.387142,3.0053923,-6.3128414,-12.165308,7.7457523,-10.3773155,4.8135486,-2.213851,-0.53641135,-4.6842318,20.339657,88.15457,33.604473,75.96035,-5.4157305,18.043047,-3.8784816,22.896173,-88.56687,-25.842518,79.05005,6.6567254,8.565781,2.21035
103,-0.6211780905723572,-0.5714688301086426,77.04881286621094,0.4913421085541721,3.0959479204816485,94.3045826057896,-0.7701957,3.7216628,-2.8965936,11.951135,-17.316359,-3.404167,3.0094357,-6.325149,-12.167781,7.7761025,-10.39763,4.816607,-2.2084444,-0.52742404,-4.688542,20.282076,88.14675,33.602955,75.9963,-5.4935546,18.054527,-3.8371031,22.893738,-88.5611,-25.834648,79.048676,6.6875134,8.539992,2.183913
104,-0.6262159943580627,-0.5605368614196777,77.04847717285156,0.4963165786522133,3.0908252933970894,94.3069722445088,-0.75424886,3.7109108,-2.8993998,11.945499,-17.310568,-3.4115145,3.0090754,-6.3392363,-12.16933,7.8083034,-10.419442,4.822861,-2.2053916,-0.5195955,-4.6907215,20.22615,88.1385,33.600502,76.035255,-5.582028,18.068108,-3.8150446,22.896025,-88.55486,-25.825323,79.04243,6.719874,8.523343,2.1707988
105,-0.6299439072608948,-0.5499035120010376,77.0463638305664,0.5021789650536271,3.089030625861248,94.31104764808201,-0.7456179,3.6989105,-2.8966606,11.946021,-17.322775,-3.404278,3.0068834,-6.3545737,-12.169388,7.833955,-10.440251,4.836682,-2.2063234,-0.51278627,-4.6902914,20.17411,88.12972,33.596687,76.08039,-5.680892,18.085436,-3.8274696,22.905573,-88.54821,-25.81413,79.027885,6.755335,8.520868,2.1798108
106,-0.6338961124420166,-0.5416903495788574,77.04559326171875,0.5100244383333719,3.089630992058781,94.31666443279154,-0.7430365,3.6865249,-2.8908575,11.952135,-17.346457,-3.389673,3.0028565,-6.3704195,-12.169035,7.855336,-10.459323,4.854247,-2.2101288,-0.50579417,-4.688633,20.12469,88.12021,33.591686,76.12987,-5.795448,18.106312,-3.8623967,22.92277,-88.54111,-25.801075,79.00604,6.795582,8.528951,2.2000332
107,-0.6409024000167847,-0.5403848886489868,77.04064178466797,0.5156594898549396,3.090757381641145,94.3223642443405,-0.7417424,3.6753387,-2.8854327,11.959621,-17.371395,-3.3734567,2.9906354,-6.3869586,-12.169269,7.8926263,-10.483915,4.8681097,-2.2146602,-0.4969896,-4.688383,20.076162,88.110405,33.585854,76.17871,-5.9191637,18.127167,-3.8998795,22.94311,-88.53385,-25.786846,78.98109,6.834401,8.541915,2.2246146
108,-0.649927020072937,-0.5307258367538452,77.04212951660156,0.5194949497894802,3.091139523037038,94.32648365091394,-0.7384795,3.665633,-2.8833294,11.965773,-17.387999,-3.3612134,2.984497,-6.400854,-12.172832,7.91986,-10.500865,4.8709073,-2.2171717,-0.48576483,-4.69245,20.025856,88.10006,33.579678,76.222404,-6.044851,18.144463,-3.920044,22.96012,-88.526115,-25.772297,78.95869,6.8634677,8.553768,2.246615
109,-0.6568784713745117,-0.5213053822517395,77.04196166992188,0.5211650430901997,3.0886180008487547,94.32921775750911,-0.73027605,3.65888,-2.8886786,11.97046,-17.390602,-3.3556192,2.9824305,-6.411955,-12.184109,7.948249,-10.510406,4.8543386,-2.2172668,-0.47013634,-4.7001195,19.969328,88.08964,33.574043,76.260605,-6.1818724,18.15741,-3.920081,22.96956,-88.518135,-25.757992,78.94238,6.8753047,8.563094,2.268016
110,-0.6628665328025818,-0.5098482966423035,77.04226684570312,0.5193460002304527,3.084164951812808,94.33144485019025,-0.7184325,3.6541672,-2.8989277,11.973561,-17.38494,-3.3532772,2.9837253,-6.421257,-12.201,7.976243,-10.514401,4.824582,-2.216272,-0.4523015,-4.708127,19.906834,88.07892,33.56904,76.29585,-6.3302345,18.167442,-3.9082596,22.97169,-88.509636,-25.7438,78.93084,6.8730283,8.571768,2.291802
111,-0.6682490706443787,-0.5002016425132751,77.04188537597656,0.5180483397171675,3.0799890843809874,94.33310798491217,-0.70664793,3.6503594,-2.9079227,11.975395,-17.379313,-3.350954,2.986466,-6.4288387,-12.215383,7.998841,-10.517413,4.7954865,-2.2144678,-0.43327218,-4.7146688,19.843784,88.06806,33.563923,76.32766,-6.4666095,18.17473,-3.8819869,22.967909,-88.50072,-25.729568,78.921455,6.8649263,8.579385,2.311369
112,-0.6733678579330444,-0.49463924765586853,77.0392837524414,0.5160900281833053,3.0787565760338373,94.33405401189398,-0.69778305,3.6466122,-2.9093356,11.974544,-17.381617,-3.3454525,2.9944646,-6.4331164,-12.219513,7.998923,-10.519383,4.780852,-2.211996,-0.41443124,-4.7196436,19.785807,88.05692,33.55762,76.355415,-6.565506,18.179405,-3.8388495,22.96086,-88.491234,-25.714764,78.91133,6.859941,8.585334,2.3217173
113,-0.6821603178977966,-0.488364040851593,77.03925323486328,0.5137768906359323,3.0818928997194934,94.3334766573895,-0.69489175,3.6448,-2.8987978,11.973796,-17.399206,-3.3346002,2.99826,-6.4331737,-12.205332,7.9894023,-10.529547,4.785596,-2.2081704,-0.39395392,-4.723145,19.735132,88.04533,33.54947,76.37811,-6.6092386,18.182743,-3.7700994,22.954317,-88.480965,-25.698639,78.89805,6.8671193,8.585384,2.3063023
114,-0.6959636211395264,-0.48154428601264954,77.03990173339844,0.510408496977016,3.0885727098296427,94.33092709576503,-0.696077,3.644494,-2.8797455,11.971377,-17.42517,-3.3204894,3.0015433,-6.4295197,-12.17839,7.967111,-10.542832,4.8019147,-2.202406,-0.37233257,-4.7280245,19.689196,88.033134,33.53959,76.39557,-6.6117,18.184723,-3.679687,22.94918,-88.469734,-25.680836,78.88231,6.8827333,8.580838,2.2710965
115,-0.6978188157081604,-0.47759371995925903,77.03447723388672,0.5078254726289948,3.0961374873950853,94.32802641717058,-0.69830275,3.6434002,-2.8593626,11.969312,-17.452417,-3.306786,3.0036142,-6.4266686,-12.15019,7.9445314,-10.555911,4.824471,-2.1962337,-0.3513653,-4.7352667,19.646238,88.020325,33.528072,76.40877,-6.598023,18.18359,-3.5844362,22.942022,-88.45751,-25.661743,78.86663,6.8942533,8.580527,2.2448914
116,-0.7055270671844482,-0.478283166885376,77.03175354003906,0.5071277422445524,3.1018553539972036,94.32651549804241,-0.6972125,3.6395185,-2.8451614,11.9649105,-17.471039,-3.2971525,3.0090227,-6.427985,-12.133096,7.9253974,-10.561643,4.847681,-2.1917703,-0.333908,-4.7451644,19.605175,88.006905,33.51517,76.41898,-6.594275,18.1766,-3.501254,22.927946,-88.44445,-25.64226,78.85349,6.8867884,8.593594,2.257627
117,-0.7147744297981262,-0.4721032977104187,77.03022003173828,0.5090401436840658,3.1049393329221298,94.32880844587977,-0.6921031,3.6310372,-2.840109,11.958723,-17.478834,-3.2926636,3.0206265,-6.435939,-12.133255,7.9093204,-10.556295,4.87433,-2.1910152,-0.3223432,-4.758414,19.567215,87.992805,33.50097,76.42491,-6.605439,18.157902,-3.422874,22.900465,-88.43062,-25.62373,78.84404,6.8437023,8.63316,2.3360384
118,-0.7253616452217102,-0.4671700894832611,77.03124237060547,0.5137463066545503,3.1063598094225564,94.33402130275753,-0.6839784,3.6191223,-2.840587,11.94952,-17.479877,-3.2912958,3.034199,-6.448822,-12.143704,7.8992233,-10.54698,4.906026,-2.1936536,-0.31494674,-4.772796,19.533344,87.97858,33.485577,76.42739,-6.6217275,18.129232,-3.3437254,22.85943,-88.41671,-25.606628,78.83691,6.7707167,8.692836,2.4626625
119,-0.7297036051750183,-0.454356849193573,77.03043365478516,0.5192959841933895,3.106658406144939,94.33868555305403,-0.6734462,3.6058068,-2.8436596,11.938398,-17.476362,-3.2918046,3.0464067,-6.4640775,-12.156921,7.895198,-10.537603,4.9357996,-2.1972,-0.30952093,-4.7853537,19.501812,87.96402,33.46931,76.42992,-6.6461873,18.100805,-3.2843156,22.811909,-88.40265,-25.590096,78.83167,6.6910257,8.75043,2.5968688
120,-0.7388051748275757,-0.4504794776439667,77.02896881103516,0.5247310323314048,3.106000404571805,94.33946832231692,-0.65985316,3.5930734,-2.8462427,11.924354,-17.469599,-3.2929862,3.0604038,-6.477474,-12.165867,7.885028,-10.525895,4.9567556,-2.198147,-0.30201045,-4.792497,19.470863,87.94905,33.45238,76.435394,-6.6818957,18.083641,-3.267719,22.767609,-88.38833,-25.572607,78.828735,6.632621,8.781843,2.6954439
121,-0.7467585802078247,-0.44610580801963806,77.02531433105469,0.5290342246947024,3.1039226172599896,94.33410091685525,-0.64164114,3.580813,-2.8485997,11.906463,-17.45735,-3.2965841,3.076219,-6.488775,-12.168405,7.867558,-10.511707,4.966207,-2.1943505,-0.29098302,-4.7919207,19.43975,87.93348,33.43466,76.44227,-6.7375946,18.083023,-3.3106573,22.735397,-88.37348,-25.552488,78.82888,6.6222224,8.76833,2.7333148
122,-0.7587389945983887,-0.438959538936615,77.03047943115234,0.5336691112880627,3.1002312152860547,94.32450744836846,-0.6193538,3.5686781,-2.8517563,11.885051,-17.43962,-3.3026497,3.094311,-6.499123,-12.1682825,7.84561,-10.494649,4.9679832,-2.1864457,-0.27673143,-4.7865496,19.409922,87.91715,33.415745,76.44814,-6.8087354,18.094059,-3.4010935,22.714771,-88.35782,-25.529392,78.83317,6.649136,8.722263,2.7323134
123,-0.7705032825469971,-0.43340766429901123,77.0328369140625,0.5376667309171134,3.0963786768698864,94.31340147725518,-0.59679973,3.5578258,-2.8537395,11.86438,-17.422972,-3.3073301,3.111545,-6.508158,-12.1664715,7.82348,-10.477099,4.96504,-2.1761627,-0.26099414,-4.7817597,19.38188,87.9002,33.395702,76.454765,-6.8771596,18.111301,-3.5149026,22.698446,-88.34136,-25.504332,78.84043,6.679376,8.669955,2.7219436
124,-0.7723256349563599,-0.42880162596702576,77.03089141845703,0.539692999554798,3.094076349354387,94.30351756202953,-0.57936394,3.5501728,-2.8527424,11.850232,-17.41445,-3.3069236,3.1233542,-6.5159545,-12.163901,7.8084188,-10.463381,4.960372,-2.1659195,-0.2461574,-4.78278,19.355286,87.88306,33.375114,76.4649,-6.923447,18.12886,-3.626891,22.676222,-88.32456,-25.479265,78.84872,6.674605,8.639564,2.731798
125,-0.7792471051216125,-0.42420095205307007,77.02919006347656,0.5400033300032383,3.095019322929818,94.29459183419033,-0.5728306,3.5455902,-2.8464034,11.8505125,-17.421555,-3.295233,3.1183066,-6.525029,-12.159796,7.819635,-10.462075,4.9513564,-2.1570585,-0.23239638,-4.792854,19.329388,87.866,33.35445,76.48388,-6.939723,18.144403,-3.7428114,22.634495,-88.30772,-25.45656,78.8569,6.6004987,8.650756,2.781423
126,-0.7860001921653748,-0.4181085228919983,77.0297622680664,0.5408845247936611,3.098679371941014,94.2855130598248,-0.57412744,3.5433671,-2.8362749,11.860959,-17.438953,-3.2759984,3.1047914,-6.5339375,-12.154405,7.8403516,-10.464434,4.937572,-2.149407,-0.22003314,-4.808015,19.302681,87.84922,33.334354,76.51131,-6.9347343,18.159931,-3.8703883,22.57347,-88.291115,-25.436745,78.86489,6.4724207,8.689439,2.8546176
127,-0.7932527661323547,-0.41539040207862854,77.03019714355469,0.5391282447812685,3.103213257663572,94.27704010768171,-0.5770451,3.543149,-2.826078,11.871776,-17.456203,-3.260147,3.084732,-6.5415993,-12.146878,7.872831,-10.4748535,4.9250913,-2.1425147,-0.20685741,-4.8225822,19.274746,87.8329,33.315353,76.5413,-6.91525,18.177357,-3.9908533,22.508104,-88.27494,-25.418161,78.87273,6.333485,8.730835,2.9314222
128,-0.7965933680534363,-0.4100520610809326,77.0312728881836,0.5358034602670111,3.1060757346622796,94.2700952609876,-0.5745609,3.545293,-2.8197646,11.874496,-17.463892,-3.2588284,3.077483,-6.5427094,-12.1388235,7.8849554,-10.479455,4.919829,-2.1356819,-0.19216543,-4.8318896,19.246326,87.817345,33.29788,76.56606,-6.8880606,18.198969,-4.0820227,22.460108,-88.25947,-25.398275,78.87966,6.234837,8.748459,2.9878469
129,-0.7981465458869934,-0.4030664563179016,77.03179931640625,0.5278921275682857,3.105794119992832,94.26615495860564,-0.5622272,3.5511348,-2.821981,11.861971,-17.452057,-3.2850854,3.0838966,-6.5348034,-12.13066,7.8813043,-10.483232,4.9268303,-2.128561,-0.17476617,-4.834832,19.218786,87.80241,33.28194,76.58126,-6.8506284,18.230919,-4.136778,22.44858,-88.24445,-25.374594,78.88538,6.2071137,8.726851,3.0204365
130,-0.8090759515762329,-0.40015503764152527,77.0314712524414,0.5164101701761596,3.102721317982449,94.26456804479665,-0.54187864,3.560616,-2.82985,11.837538,-17.42681,-3.3296804,3.1051452,-6.51885,-12.123084,7.8568335,-10.481456,4.9416866,-2.1208658,-0.15525329,-4.8355765,19.193832,87.78869,33.267365,76.58815,-6.800996,18.27222,-4.165826,22.471634,-88.230415,-25.347525,78.88974,6.2337437,8.678499,3.0380404
131,-0.808655858039856,-0.39333686232566833,77.03040313720703,0.5052745678188129,3.0988094479683754,94.26338261209335,-0.5212735,3.5704374,-2.8357944,11.815067,-17.40653,-3.3701463,3.1289983,-6.5021806,-12.114049,7.827955,-10.4794855,4.9565344,-2.112089,-0.1354924,-4.838119,19.172596,87.775826,33.254036,76.58977,-6.7475758,18.313128,-4.175581,22.51444,-88.21691,-25.319136,78.892334,6.2881393,8.622055,3.0388386
132,-0.8126963973045349,-0.38591060042381287,77.02874755859375,0.4980364437916386,3.0962465720748713,94.26044042367039,-0.506511,3.5776107,-2.831858,11.803049,-17.405943,-3.3839874,3.1441016,-6.4917626,-12.101484,7.8087645,-10.48147,4.9633594,-2.1020248,-0.118530296,-4.8451095,19.155714,87.764465,33.242344,76.589455,-6.7010617,18.342615,-4.1697397,22.55701,-88.20469,-25.29266,78.89362,6.3391285,8.576902,3.0182776
133,-0.8166740536689758,-0.38236814737319946,77.02812957763672,0.4966012153179435,3.096391915763372,94.25442641806029,-0.50300545,3.5801234,-2.811434,11.811758,-17.441378,-3.353609,3.1419215,-6.4921894,-12.080793,7.8100247,-10.493767,4.9597926,-2.090729,-0.10399674,-4.8558054,19.141132,87.75437,33.23304,76.5926,-6.6648045,18.3533,-4.1480727,22.588749,-88.193535,-25.269709,78.89254,6.3725147,8.550515,2.9711282
134,-0.8215157985687256,-0.3796038031578064,77.02838897705078,0.49880368183550045,3.0987624229916624,94.24611992608453,-0.5071821,3.5800416,-2.779701,11.834228,-17.500893,-3.294798,3.126935,-6.4993057,-12.053378,7.827445,-10.515425,4.95016,-2.0787115,-0.091902874,-4.8673034,19.128473,87.746086,33.226784,76.598694,-6.6349125,18.349768,-4.1078715,22.612513,-88.184105,-25.250341,78.88957,6.3967366,8.534637,2.8999834
135,-0.8224478960037231,-0.3747727870941162,77.02741241455078,0.5014723030563927,3.1017606248338576,94.23692618710429,-0.51368237,3.5795276,-2.7469933,11.858761,-17.560137,-3.2352965,3.1081336,-6.5076265,-12.02725,7.8493547,-10.536626,4.9366326,-2.0667665,-0.079944864,-4.87883,19.121256,87.73954,33.223232,76.6042,-6.609955,18.340834,-4.0551353,22.630138,-88.17627,-25.234411,78.887405,6.4169164,8.524367,2.8205454
136,-0.8275843858718872,-0.3719547986984253,77.02676391601562,0.5017603379451884,3.1035142711598684,94.22871944937526,-0.51630425,3.581149,-2.7240064,11.872933,-17.594742,-3.2030306,3.0947912,-6.511686,-12.010927,7.867518,-10.550785,4.921298,-2.0556793,-0.06802054,-4.8899317,19.124704,87.734795,33.2217,76.60326,-6.590096,18.335745,-3.9942653,22.643301,-88.17004,-25.221931,78.888664,6.437005,8.514702,2.746525
137,-0.8268250226974487,-0.36884456872940063,77.02449798583984,0.4959789235278609,3.103022355219538,94.2219646986459,-0.5113346,3.5862722,-2.7152877,11.86819,-17.589586,-3.2134345,3.0881958,-6.509393,-12.008953,7.88133,-10.554252,4.8983064,-2.0458596,-0.054585364,-4.9007826,19.144518,87.732,33.22141,76.59035,-6.5738177,18.342194,-3.9245043,22.65049,-88.165474,-25.21341,78.89422,6.4583497,8.505406,2.68199
138,-0.8264762163162231,-0.3645661175251007,77.02273559570312,0.4872938747687966,3.100797223932595,94.2162337766748,-0.5005675,3.5930717,-2.7150033,11.849918,-17.559038,-3.2489123,3.0880923,-6.5032167,-12.017176,7.88852,-10.54866,4.868602,-2.0371263,-0.04107046,-4.9119067,19.179447,87.73126,33.22272,76.567024,-6.563423,18.355743,-3.8437693,22.65273,-88.16271,-25.208996,78.90306,6.478806,8.497747,2.6197386
139,-0.8290271162986755,-0.36025872826576233,77.02271270751953,0.479398580940075,3.0972600225071094,94.21171217516098,-0.4857825,3.5995607,-2.7178063,11.824901,-17.52163,-3.2878666,3.0974643,-6.4955444,-12.0296,7.8814487,-10.534522,4.8449817,-2.0312665,-0.030885223,-4.9281034,19.252922,87.7342,33.24041,76.530716,-6.5759187,18.371365,-3.750697,22.659315,-88.15937,-25.20434,78.911285,6.5014606,8.489411,2.5566363
140,-0.8316790461540222,-0.3611134886741638,77.02352142333984,0.47447727145674334,3.094162169321872,94.20919337396202,-0.4772669,3.6030483,-2.719617,11.815804,-17.504152,-3.3085065,3.1062703,-6.491323,-12.039552,7.877326,-10.525811,4.8402667,-2.0435967,-0.035374332,-4.929655,19.468382,87.76562,33.433945,76.49379,-6.578806,18.37157,-3.6998053,22.665281,-88.15776,-25.210396,78.90853,6.520242,8.481886,2.5150304
141,-0.83348548412323,-0.35613784193992615,77.02427673339844,0.4749543143409032,3.090850797820286,94.20864321835342,-0.4740927,3.6020067,-2.7182348,11.823465,-17.513386,-3.3000119,3.124482,-6.490232,-12.047522,7.8572025,-10.512755,4.866491,-2.0540142,-0.037176818,-4.930034,19.64369,87.79272,33.604,76.47582,-6.600355,18.343685,-3.6372955,22.69574,-88.166336,-25.229267,78.912445,6.5468082,8.465969,2.4750416
142,-0.8337550163269043,-0.356595903635025,77.02366638183594,0.47934211757794587,3.087175544630078,94.20980665715693,-0.47435305,3.598082,-2.7164407,11.841786,-17.537128,-3.2756073,3.1499515,-6.4909873,-12.056032,7.826597,-10.496513,4.9139547,-2.0635924,-0.0391788,-4.9314065,19.797132,87.81879,33.758083,76.46815,-6.6390357,18.296917,-3.563601,22.741709,-88.17969,-25.254328,78.92062,6.579746,8.444705,2.4345386
143,-0.8341054320335388,-0.3555859625339508,77.02362823486328,0.48356273835562597,3.084113411764052,94.21142817600868,-0.47480875,3.5936487,-2.7150848,11.860009,-17.56256,-3.2496896,3.175265,-6.4918313,-12.062291,7.79476,-10.481672,4.9628153,-2.0730448,-0.041516893,-4.9338136,19.945217,87.8455,33.908794,76.461754,-6.6724095,18.249992,-3.4984603,22.791075,-88.19583,-25.285124,78.93136,6.6055083,8.427828,2.4036324
144,-0.8329745531082153,-0.3517801761627197,77.02375030517578,0.4874538826243052,3.082668880624616,94.21232861890992,-0.47251716,3.591522,-2.7150223,11.867947,-17.576618,-3.2365553,3.191104,-6.491517,-12.063076,7.775492,-10.475272,4.9932427,-2.0806806,-0.04219625,-4.938855,20.081503,87.87095,34.043343,76.44972,-6.6805987,18.220648,-3.4564874,22.833412,-88.213554,-25.320747,78.945114,6.6111307,8.424549,2.3907754
145,-0.8315374255180359,-0.34739571809768677,77.0223159790039,0.4886441484757753,3.0841524497516444,94.21157550334287,-0.46561468,3.5922801,-2.7169406,11.859077,-17.573057,-3.2448943,3.1946027,-6.4891734,-12.053315,7.769433,-10.480542,4.998449,-2.086108,-0.04168985,-4.9477344,20.213203,87.89558,34.16337,76.42674,-6.641604,18.217045,-3.4520485,22.864958,-88.23378,-25.363567,78.963005,6.584842,8.444996,2.4063222
146,-0.8273026943206787,-0.33651721477508545,77.02057647705078,0.48892627011097023,3.087690945010541,94.21001131275841,-0.45531628,3.5946417,-2.720135,11.838505,-17.558722,-3.2653973,3.1896315,-6.485689,-12.035988,7.772832,-10.4943905,4.9894032,-2.089999,-0.04061914,-4.9596734,20.338877,87.91967,34.27171,76.39767,-6.572219,18.228388,-3.4731727,22.89118,-88.2562,-25.412653,78.98433,6.5363975,8.48164,2.4424882
147,-0.8246431350708008,-0.33568450808525085,77.0219955444336,0.48896471553223164,3.0908361088191127,94.20885876184803,-0.4450759,3.5979295,-2.7236512,11.817839,-17.543438,-3.2856028,3.185635,-6.481537,-12.020846,7.7750454,-10.506248,4.973345,-2.0936525,-0.038368106,-4.971647,20.451479,87.9439,34.37218,76.37054,-6.5077047,18.245132,-3.4988441,22.917791,-88.27945,-25.465372,79.00638,6.484772,8.5175905,2.4831917
148,-0.8215864300727844,-0.3293936252593994,77.02066802978516,0.48778703206703694,3.0910730607917403,94.20908907619665,-0.43821225,3.6006424,-2.7262597,11.808758,-17.53708,-3.2929285,3.185811,-6.4784,-12.01691,7.7779613,-10.511911,4.957402,-2.0983598,-0.035562158,-4.9811544,20.544958,87.96946,34.46941,76.35338,-6.484011,18.257828,-3.507628,22.951317,-88.30248,-25.519867,79.02613,6.449449,8.536229,2.5113683
149,-0.8185541033744812,-0.32825419306755066,77.02073669433594,0.4860183537128959,3.086282621395036,94.21081929823221,-0.43458974,3.6029332,-2.7267504,11.814667,-17.543358,-3.278549,3.1985524,-6.4756527,-12.031353,7.770535,-10.50123,4.9385242,-2.1044002,-0.030753376,-4.9863043,20.612814,87.99819,34.569107,76.352394,-6.523194,18.262484,-3.4957108,22.99136,-88.324646,-25.575914,79.04331,6.433742,8.528928,2.5255222
150,-0.815735936164856,-0.32334908843040466,77.02043914794922,0.4843144585789695,3.0783459206802726,94.21355525950642,-0.43366975,3.6048946,-2.726009,11.831289,-17.557568,-3.250939,3.2178028,-6.4733686,-12.057367,7.75891,-10.480985,4.9146276,-2.1113763,-0.025171204,-4.9889183,20.662983,88.02998,34.670803,76.36179,-6.6016135,18.26476,-3.4744937,23.03466,-88.34585,-25.634054,79.05892,6.427856,8.506037,2.533311
151,-0.8165584206581116,-0.3210201561450958,77.02125549316406,0.48158595457802245,3.070507622180343,94.21754546696373,-0.43328696,3.6073124,-2.726234,11.847737,-17.571854,-3.2237122,3.2404196,-6.469995,-12.085515,7.7412558,-10.457522,4.893946,-2.1194615,-0.021218922,-4.991038,20.708776,88.061935,34.766994,76.37147,-6.6869845,18.269665,-3.4451942,23.081575,-88.36488,-25.691776,79.072014,6.431301,8.478973,2.5323942
152,-0.8152769804000854,-0.3214121162891388,77.0239028930664,0.4795883032253254,3.0660587500436574,94.22286904237573,-0.43367502,3.6105552,-2.7295394,11.858365,-17.581095,-3.2104127,3.253219,-6.4663157,-12.104741,7.7344785,-10.446063,4.8847985,-2.1286156,-0.020187644,-4.995244,20.7598,88.08972,34.846947,76.37167,-6.7465353,18.282055,-3.4087284,23.129993,-88.37933,-25.744053,79.08166,6.443508,8.459365,2.5207758
153,-0.8108189105987549,-0.3209109604358673,77.02352142333984,0.4779906817714749,3.0667935643245867,94.22995603411073,-0.43292037,3.6150465,-2.736904,11.856021,-17.580833,-3.2180352,3.2605743,-6.460264,-12.111168,7.725286,-10.443183,4.8934526,-2.1385033,-0.022997862,-5.003643,20.817387,88.109985,34.899418,76.356155,-6.774711,18.30931,-3.3551111,23.17912,-88.38813,-25.784267,79.089195,6.4686646,8.447485,2.4883008
154,-0.8054292798042297,-0.31858742237091064,77.02070617675781,0.47664325626551324,3.0706166778830366,94.23844875835987,-0.43306148,3.620438,-2.7470958,11.848708,-17.576546,-3.2382581,3.2638192,-6.452755,-12.110509,7.716056,-10.445633,4.914098,-2.1495101,-0.02900762,-5.0139995,20.879675,88.12714,34.937042,76.33146,-6.786995,18.346937,-3.2887678,23.233892,-88.393684,-25.821398,79.093605,6.505258,8.438317,2.4403923
155,-0.8033894896507263,-0.31600406765937805,77.02201843261719,0.47501368658862547,3.0751550583394915,94.24808804613663,-0.43353084,3.6258783,-2.7587621,11.83945,-17.570026,-3.2614775,3.2641947,-6.4457436,-12.108698,7.7108946,-10.451297,4.937064,-2.161109,-0.035563175,-5.0246215,20.933203,88.14047,34.9602,76.3065,-6.7871494,18.38147,-3.2235444,23.28458,-88.39668,-25.853891,79.09597,6.545621,8.434026,2.3928103
156,-0.799379289150238,-0.31495487689971924,77.01973724365234,0.4736113884999706,3.0779230433721225,94.25844951716643,-0.43482193,3.6304011,-2.770656,11.833632,-17.564684,-3.2781048,3.2699468,-6.438823,-12.11232,7.6995916,-10.45064,4.952511,-2.1736867,-0.04033722,-5.0334454,20.968021,88.1498,34.973377,76.290146,-6.778622,18.399658,-3.1733685,23.318268,-88.399506,-25.877584,79.09848,6.5818815,8.436852,2.3610997
157,-0.7971776723861694,-0.3154851496219635,77.0180892944336,0.4730053795366542,3.0788392769337856,94.27088720357887,-0.43947333,3.6332216,-2.7841809,11.835084,-17.561447,-3.2853332,3.2773573,-6.4335465,-12.124305,7.6902223,-10.445332,4.9575205,-2.1888888,-0.044982515,-5.03819,20.992823,88.163284,34.99362,76.28849,-6.755068,18.394707,-3.1485112,23.356443,-88.40522,-25.921303,79.09418,6.6084404,8.452415,2.359205
158,-0.7919583320617676,-0.31299030780792236,77.0197982788086,0.47200643140169884,3.079047716661254,94.28513858602183,-0.44559813,3.6350777,-2.7994454,11.838423,-17.557634,-3.288348,3.284072,-6.4296403,-12.140819,7.685318,-10.439851,4.957461,-2.2064512,-0.048372123,-5.042302,21.003296,88.17063,35.004498,76.293175,-6.7189364,18.374044,-3.1327586,23.373041,-88.41007,-25.950762,79.090126,6.6316667,8.477139,2.3708544
159,-0.7866478562355042,-0.3117047846317291,77.02093505859375,0.4712757726059921,3.0779011690047855,94.29831687633069,-0.4510404,3.6367188,-2.8130982,11.843341,-17.554895,-3.2895377,3.2948256,-6.4254704,-12.157387,7.6738195,-10.430743,4.9548616,-2.2233634,-0.05134504,-5.0436907,21.010326,88.17738,35.014427,76.29923,-6.6777077,18.349237,-3.1316712,23.391798,-88.41565,-25.98483,79.083824,6.6567526,8.502908,2.3889272
160,-0.7843729853630066,-0.3137654960155487,77.02095794677734,0.47093629051886954,3.074895535912374,94.30740588913345,-0.45199853,3.638894,-2.8215451,11.845833,-17.55335,-3.2913318,3.3034234,-6.422133,-12.168122,7.667568,-10.426962,4.9522305,-2.236769,-0.054159362,-5.042879,21.01445,88.180016,35.017406,76.29921,-6.641652,18.330261,-3.141453,23.4013,-88.41751,-26.00396,79.079636,6.690184,8.520238,2.3980472
161,-0.7795320153236389,-0.3136524558067322,77.02042388916016,0.47203746112888845,3.0692800081478713,94.31028836799894,-0.44717264,3.6417022,-2.8205633,11.847125,-17.55602,-3.2932265,3.3102283,-6.4202476,-12.169781,7.6675153,-10.431002,4.9498553,-2.2461739,-0.057951685,-5.038567,21.02253,88.180046,35.016018,76.29072,-6.607287,18.318794,-3.1704323,23.397688,-88.41738,-26.005762,79.07956,6.73653,8.527354,2.398898
162,-0.7728792428970337,-0.3128081262111664,77.01837158203125,0.4744757195827684,3.060587978428318,94.30995170585075,-0.43721628,3.644923,-2.8142262,11.847679,-17.561672,-3.294319,3.3211925,-6.4185424,-12.167333,7.6629825,-10.435123,4.946594,-2.2532349,-0.06089531,-5.0296,21.032516,88.17974,35.013798,76.27972,-6.5656276,18.307579,-3.2235496,23.395813,-88.41682,-26.006569,79.07794,6.7971053,8.531233,2.3985517
163,-0.7671036124229431,-0.31388774514198303,77.01832580566406,0.4764726127959078,3.0516423368575003,94.30829575784587,-0.4281613,3.6483266,-2.808214,11.850393,-17.56698,-3.296403,3.3313084,-6.4164233,-12.163703,7.659302,-10.440155,4.9425516,-2.2587082,-0.06359309,-5.0199804,21.038944,88.179,35.01129,76.267845,-6.5344963,18.300856,-3.2788625,23.395937,-88.41572,-26.006084,79.07553,6.8538637,8.530128,2.3952267
164,-0.7658682465553284,-0.31517738103866577,77.01924133300781,0.4769509500363871,3.045692465066102,94.30788630975938,-0.42530397,3.6509604,-2.8088138,11.856062,-17.567429,-3.3011901,3.336359,-6.4136825,-12.162483,7.659324,-10.445004,4.937991,-2.2645035,-0.06484701,-5.0132585,21.03528,88.17767,35.009018,76.25818,-6.5308704,18.302658,-3.3152473,23.396894,-88.41386,-26.004082,79.07259,6.8882475,8.52352,2.389493
165,-0.7660503387451172,-0.3205975592136383,77.01908111572266,0.47633690795094624,3.04491752214916,94.3099449856852,-0.43530676,3.6526718,-2.8215728,11.870833,-17.56151,-3.3116946,3.3323524,-6.410108,-12.166785,7.666324,-10.449396,4.934385,-2.2712235,-0.0646993,-5.0116735,21.013937,88.175644,35.007694,76.25093,-6.580551,18.32002,-3.3153522,23.399569,-88.41106,-26.000158,79.06924,6.8856564,8.507006,2.3763356
166,-0.7601417899131775,-0.32324132323265076,77.01861572265625,0.47376502895818506,3.048168544076494,94.31336421004617,-0.45427254,3.6536388,-2.8420846,11.891726,-17.551197,-3.3261557,3.318892,-6.4066224,-12.173812,7.6837225,-10.456895,4.931124,-2.2785375,-0.06346212,-5.0125537,20.978338,88.172775,35.006386,76.24452,-6.670632,18.350098,-3.2906804,23.401552,-88.4071,-25.994333,79.06641,6.856155,8.481754,2.3582284
167,-0.7559536099433899,-0.32838061451911926,77.02157592773438,0.4712974627431346,3.0521603279782696,94.31646618702553,-0.4754788,3.6544669,-2.8620226,11.91448,-17.542068,-3.3392124,3.3024902,-6.403057,-12.179291,7.7043095,-10.46676,4.925394,-2.2861052,-0.06286921,-5.0119443,20.939457,88.16888,35.00313,76.23948,-6.7567005,18.37981,-3.2643392,23.397463,-88.40183,-25.987223,79.06381,6.820168,8.456183,2.3421342
168,-0.7506420612335205,-0.3302387297153473,77.02161407470703,0.4698701228629101,3.053666859857748,94.31750906532736,-0.49105695,3.6551688,-2.872784,11.933886,-17.539392,-3.345423,3.2849245,-6.4009314,-12.17774,7.731665,-10.484458,4.914584,-2.2939851,-0.063247636,-5.0064864,20.908659,88.16349,34.995865,76.23805,-6.791363,18.395185,-3.2623346,23.382143,-88.39492,-25.97932,79.06041,6.7979064,8.43974,2.3376408
169,-0.7495185136795044,-0.33185940980911255,77.02055358886719,0.4703736005600144,3.0520372289554496,94.31716599659205,-0.49322656,3.6555097,-2.8711593,11.936362,-17.541172,-3.3409677,3.273707,-6.3994856,-12.168664,7.7518244,-10.506383,4.894461,-2.2946,-0.0637288,-5.0060863,20.909046,88.161606,34.994816,76.23771,-6.7907944,18.394999,-3.2628708,23.381573,-88.39289,-25.979486,79.0603,6.798216,8.439659,2.3377957
170,-0.7493653297424316,-0.33386215567588806,77.02029418945312,0.4681894192349792,3.045446671509018,94.3120892110565,-0.49591318,3.6593952,-2.8590958,11.953199,-17.558546,-3.3314376,3.2531734,-6.396665,-12.146087,7.7983994,-10.546613,4.8653717,-2.3136895,-0.06653246,-4.983286,20.898046,88.15253,34.97727,76.25121,-6.648234,18.364645,-3.3682373,23.322649,-88.38282,-25.972002,79.04585,6.832327,8.43999,2.3586476
171,-0.7412897348403931,-0.33468109369277954,77.01875305175781,0.4698032774782629,3.0388539830298447,94.3061324369183,-0.49339935,3.6599178,-2.8438587,11.960472,-17.57211,-3.3189647,3.2328043,-6.3982286,-12.123575,7.8447866,-10.586196,4.8390956,-2.321124,-0.06838455,-4.965147,20.88418,88.141846,34.95721,76.266975,-6.523074,18.332432,-3.4462142,23.271036,-88.37157,-25.960966,79.03819,6.8469763,8.450259,2.380554
172,-0.7379725575447083,-0.3373931050300598,77.01918029785156,0.4718164426531139,3.0317464016749582,94.2995262468918,-0.49089634,3.6580033,-2.8305907,11.9686,-17.579905,-3.3088443,3.218833,-6.4022427,-12.10646,7.8795595,-10.613438,4.823724,-2.3265016,-0.07374763,-4.945854,20.865376,88.12931,34.93455,76.27989,-6.427382,18.306635,-3.50388,23.228333,-88.358734,-25.945726,79.025764,6.8320208,8.466664,2.4203398
173,-0.737515389919281,-0.34129688143730164,77.01886749267578,0.47821618449829273,3.0234201262887983,94.29155064843587,-0.4883381,3.6519845,-2.8194468,11.979636,-17.58068,-3.301179,3.2139297,-6.4105687,-12.096479,7.8986926,-10.6237335,4.8242183,-2.328046,-0.082767464,-4.9239507,20.841442,88.11499,34.909134,76.28814,-6.361765,18.287897,-3.5412562,23.199394,-88.344246,-25.9253,79.009,6.763508,8.491073,2.493276
174,-0.7349838018417358,-0.3449244797229767,77.0185546875,0.48686881886281186,3.013667484525738,94.28245146185037,-0.4847719,3.6432602,-2.808413,11.992163,-17.577364,-3.293986,3.2163537,-6.421766,-12.090823,7.9061007,-10.622452,4.8348866,-2.3269296,-0.095759444,-4.900518,20.816002,88.09877,34.880207,76.29259,-6.3093667,18.272173,-3.5665822,23.179031,-88.3279,-25.900263,78.98833,6.657302,8.52333,2.593388
175,-0.7378064393997192,-0.3485383093357086,77.0218505859375,0.49476405187474803,3.004289736370917,94.27436258624552,-0.48281574,3.6340868,-2.7995758,12.00667,-17.573498,-3.288403,3.2172468,-6.433789,-12.08747,7.9165115,-10.620874,4.848946,-2.326259,-0.10877112,-4.879209,20.78715,88.08051,34.8477,76.29485,-6.2813873,18.263422,-3.5771687,23.158916,-88.30957,-25.871523,78.96274,6.552079,8.559564,2.6940045
176,-0.7366222143173218,-0.3530865013599396,77.02168273925781,0.4997432095144047,2.997423911271274,94.26959362256817,-0.48481524,3.627258,-2.7953725,12.021084,-17.57064,-3.2856839,3.2177703,-6.4416914,-12.0860195,7.922697,-10.6182375,4.8595715,-2.3295743,-0.117928,-4.862177,20.75222,88.05974,34.81147,76.29652,-6.292005,18.266346,-3.568648,23.130428,-88.28871,-25.839882,78.93139,6.489587,8.595807,2.766276
177,-0.7383099794387817,-0.358670711517334,77.02175903320312,0.49852925407434084,2.9934550959678075,94.26967582024439,-0.49111828,3.6260388,-2.7971282,12.035171,-17.57067,-3.2914765,3.2153563,-6.442044,-12.086216,7.9303255,-10.619518,4.8628616,-2.338362,-0.12013195,-4.847602,20.713947,88.036934,34.771103,76.29677,-6.358814,18.288736,-3.538405,23.089542,-88.265816,-25.805834,78.89494,6.494297,8.632473,2.7982674
178,-0.7378740906715393,-0.36486127972602844,77.02169799804688,0.4934874301410566,2.9916863666951996,94.2741077239364,-0.5012721,3.628685,-2.8044415,12.050034,-17.57202,-3.3034332,3.2135909,-6.436957,-12.089661,7.932896,-10.618923,4.8630157,-2.3498135,-0.11798867,-4.831765,20.639048,87.98777,34.682198,76.28507,-6.4980645,18.328714,-3.4542363,23.00439,-88.2165,-25.731058,78.85123,6.5508056,8.67475,2.7786431
179,-0.739983320236206,-0.3717394769191742,77.02027893066406,0.4904640630945692,2.9927969846990217,94.27860265829061,-0.5163345,3.6277819,-2.8132625,12.0668,-17.57221,-3.3104093,3.2058828,-6.435235,-12.093602,7.940231,-10.619205,4.86589,-2.3552577,-0.11752715,-4.826146,20.51327,87.91244,34.54622,76.26431,-6.653221,18.36429,-3.3282537,22.886215,-88.141205,-25.61321,78.81151,6.6258183,8.705295,2.7125726
180,-0.7400354146957397,-0.37296900153160095,77.02024841308594,0.4941040246598978,2.9972505984217532,94.28078161304403,-0.5384159,3.6167383,-2.821655,12.088528,-17.569557,-3.3013551,3.1849334,-6.4455943,-12.096998,7.9649215,-10.624416,4.8772044,-2.3548112,-0.123896345,-4.829148,20.32265,87.81295,34.369694,76.24319,-6.7904296,18.381418,-3.1646793,22.736027,-88.04239,-25.456003,78.77151,6.6859555,8.7274685,2.6164134
181,-0.7426358461380005,-0.378243625164032,77.02213287353516,0.5092614415782865,3.006662702632579,94.27975236176238,-0.57498837,3.5872974,-2.8324876,12.126517,-17.563614,-3.26377,3.1392968,-6.4771166,-12.099867,8.026591,-10.642842,4.903189,-2.3517916,-0.14250593,-4.839811,20.094376,87.71425,34.202175,76.234634,-6.889965,18.378643,-2.98471,22.587097,-87.945435,-25.301983,78.72896,6.7188034,8.745447,2.52095
182,-0.7555244565010071,-0.3965179920196533,77.0228271484375,0.5318433402169651,3.020225117935542,94.27705025251673,-0.6216213,3.5449805,-2.8456833,12.172812,-17.553606,-3.2066817,3.0728292,-6.52409,-12.102326,8.120809,-10.672572,4.9391813,-2.3430912,-0.16904218,-4.858863,19.802443,87.59289,34.0001,76.22619,-6.9784646,18.361795,-2.7624607,22.4071,-87.82765,-25.114632,78.68754,6.7435827,8.756932,2.3960273
183,-0.7611119151115417,-0.4101976156234741,77.02322387695312,0.5538015739441788,3.034810887751793,94.27395637225528,-0.66973996,3.5045347,-2.8555665,12.220259,-17.547756,-3.1514783,3.0102391,-6.568823,-12.104731,8.202382,-10.696133,4.974751,-2.336791,-0.1926805,-4.877969,19.508312,87.47151,33.803436,76.2233,-7.066273,18.336338,-2.5391543,22.229553,-87.71084,-24.930967,78.63843,6.762304,8.765285,2.2623975
184,-0.7723811268806458,-0.41594988107681274,77.02371215820312,0.5655170211899992,3.047315363963882,94.27117630165888,-0.7068276,3.4803572,-2.855986,12.25161,-17.548668,-3.1194813,2.9635067,-6.5972857,-12.105652,8.254362,-10.706224,4.9994125,-2.326518,-0.20627059,-4.8982334,19.169909,87.30374,33.53042,76.201675,-7.183798,18.299881,-2.2757902,21.998854,-87.550156,-24.680481,78.5856,6.7865562,8.762399,2.0641675
185,-0.7835297584533691,-0.4234761595726013,77.0284652709961,0.5618675367070954,3.058033498160098,94.2689806450045,-0.73151386,3.483219,-2.840291,12.266615,-17.566803,-3.1227455,2.938998,-6.5991764,-12.104647,8.262617,-10.695896,5.0080237,-2.318909,-0.20151417,-4.915241,18.845152,87.11888,33.237232,76.17195,-7.329099,18.247704,-2.0134485,21.760553,-87.37313,-24.409872,78.52009,6.7906957,8.746805,1.8210237
186,-0.7936813831329346,-0.43324992060661316,77.03076934814453,0.5477238214700962,3.068176774087331,94.2666771068613,-0.74823296,3.5032728,-2.8132703,12.269288,-17.59578,-3.147802,2.927402,-6.5846496,-12.102384,8.243661,-10.672258,5.006846,-2.312749,-0.1851,-4.930836,18.52494,86.91671,32.93133,76.13522,-7.4918017,18.180933,-1.744136,21.513208,-87.1788,-24.121904,78.44417,6.779563,8.720819,1.539413
187,-0.7948411703109741,-0.44818586111068726,77.02565002441406,0.5328030095161504,3.076311818222938,94.26492342425347,-0.76132315,3.5236402,-2.7869217,12.268141,-17.622639,-3.177668,2.9208102,-6.5690713,-12.099184,8.217937,-10.646421,5.002976,-2.3081775,-0.16860035,-4.9427223,18.201212,86.69469,32.615765,76.090324,-7.663623,18.11656,-1.4569219,21.24552,-86.96484,-23.818712,78.36153,6.797525,8.696557,1.2402859
188,-0.797760009765625,-0.4551909863948822,77.02317810058594,0.5267182799612444,3.0808476091847314,94.26386069045016,-0.7742277,3.5271926,-2.7728946,12.269025,-17.632544,-3.1952918,2.907613,-6.5685105,-12.094991,8.213918,-10.634082,5.003356,-2.302218,-0.16309159,-4.9514556,17.849985,86.432556,32.27233,76.02763,-7.84141,18.069574,-1.1228368,20.931145,-86.7132,-23.482958,78.27833,6.8914332,8.683188,0.92858773
189,-0.8104227781295776,-0.46544232964515686,77.02369689941406,0.5326478897722593,3.0790437655591494,94.26411762277068,-0.7849813,3.5066805,-2.7780375,12.271259,-17.615286,-3.1985462,2.8904455,-6.5888515,-12.089895,8.231925,-10.637037,5.0089326,-2.2965891,-0.17121129,-4.9516406,17.497,86.13622,31.924467,75.93757,-8.019613,18.05401,-0.7510319,20.58851,-86.43136,-23.136284,78.189445,7.0916147,8.680456,0.616929
190,-0.8235316872596741,-0.4782889485359192,77.02378845214844,0.5453132448195913,3.072597302996345,94.26529817567895,-0.7924288,3.4715672,-2.7946799,12.272169,-17.580624,-3.1956036,2.8718894,-6.621335,-12.083688,8.263552,-10.650587,5.016311,-2.290713,-0.18765947,-4.9435654,17.15736,85.79566,31.583958,75.813515,-8.204748,18.057005,-0.33802778,20.231333,-86.11246,-22.786495,78.089195,7.3684683,8.68184,0.28649905
191,-0.8357749581336975,-0.4937521517276764,77.02557373046875,0.5604159672428128,3.066469882113846,94.26659810249815,-0.8012431,3.4320016,-2.8135345,12.274334,-17.544321,-3.1851819,2.8501112,-6.6582146,-12.077043,8.299592,-10.665102,5.0259194,-2.2862592,-0.20605563,-4.929418,16.838495,85.41413,31.278662,75.67287,-8.396104,18.059315,0.10924407,19.872051,-85.76193,-22.456554,77.97653,7.6709433,8.694295,-0.051002204
192,-0.8563472628593445,-0.5118767023086548,77.02730560302734,0.5729092355122286,3.0658393491870144,94.26728378103951,-0.81837153,3.39751,-2.8253748,12.284522,-17.524187,-3.1660492,2.8209426,-6.692286,-12.070604,8.3382015,-10.676112,5.0382814,-2.2827408,-0.22063738,-4.912186,16.536995,84.973625,31.019505,75.52255,-8.599926,18.03841,0.60522515,19.50907,-85.365585,-22.149757,77.84957,7.9525423,8.722407,-0.404571
193,-0.8731197714805603,-0.5272518992424011,77.02904510498047,0.5821896270556108,3.0739542116917513,94.26725941021728,-0.84997845,3.3686311,-2.8275673,12.309947,-17.52983,-3.129772,2.7783756,-6.7239985,-12.064383,8.382974,-10.68264,5.056641,-2.283424,-0.2320587,-4.897402,16.228775,84.512764,30.800768,75.40313,-8.816228,17.979172,1.1556582,19.137737,-84.95507,-21.870796,77.72038,8.216746,8.775836,-0.7707814
194,-0.8847212195396423,-0.5466470718383789,77.02596282958984,0.5915974117869675,3.087537010624597,94.2670219839146,-0.8900439,3.340842,-2.8250132,12.342861,-17.548685,-3.0797043,2.7282474,-6.7561827,-12.058431,8.430558,-10.686046,5.0795894,-2.2839212,-0.24306451,-4.8854356,15.900002,84.009705,30.589205,75.293175,-9.047396,17.8933,1.7718202,18.740395,-84.50865,-21.590311,77.59071,8.48659,8.846113,-1.1658747
195,-0.8960168957710266,-0.5514845848083496,77.0242691040039,0.598909034578685,3.1012221033244742,94.26606321415704,-0.9297307,3.3164918,-2.8200526,12.375481,-17.570145,-3.032301,2.6769843,-6.785808,-12.052056,8.479443,-10.688714,5.1010413,-2.2843513,-0.25108775,-4.869102,15.5675955,83.45771,30.380793,75.173485,-9.279079,17.809114,2.38639,18.327026,-84.02256,-21.308672,77.453804,8.732854,8.924377,-1.543257
196,-0.9200072884559631,-0.563319981098175,77.0290756225586,0.6008617113823589,3.109716169907795,94.26396472158577,-0.9599935,3.2974586,-2.8150322,12.399154,-17.582857,-3.003967,2.63261,-6.8099,-12.044933,8.525941,-10.692903,5.1147985,-2.2856798,-0.25266862,-4.8401127,15.250845,82.852646,30.175207,75.02554,-9.497093,17.756199,2.9282453,17.911171,-83.496826,-21.03071,77.301765,8.925829,9.003661,-1.8510913
197,-0.945761501789093,-0.5834641456604004,77.03175354003906,0.5945944143238218,3.111171638577924,94.26092096691856,-0.9751565,3.2876525,-2.8114123,12.405741,-17.5793,-3.0073044,2.5980966,-6.8245544,-12.037954,8.568323,-10.698512,5.1112523,-2.288698,-0.24486886,-4.796732,14.95396,82.190704,29.972214,74.839485,-9.719846,17.749077,3.3974504,17.492905,-82.93377,-20.76484,77.134384,9.044396,9.087659,-2.046841
198,-0.9704716205596924,-0.6000010967254639,77.03314208984375,0.5821894465795137,3.1086100164045987,94.25705111365848,-0.98073506,3.2850602,-2.8077195,12.401214,-17.566835,-3.0308201,2.5676012,-6.8325806,-12.030914,8.611621,-10.706163,5.09633,-2.2922366,-0.22806409,-4.74211,14.669978,81.4696,29.775208,74.62299,-9.948251,17.769802,3.8280814,17.07319,-82.333176,-20.513613,76.95392,9.108376,9.179408,-2.1673775
199,-0.9818883538246155,-0.60406893491745,77.03294372558594,0.5692003503873914,3.103936997605786,94.25197383749769,-0.9847561,3.2824118,-2.801625,12.398105,-17.5561,-3.054703,2.5425508,-6.8398356,-12.0222435,8.647882,-10.711104,5.0871935,-2.2948384,-0.20583549,-4.676289,14.404933,80.690636,29.591393,74.383675,-10.142984,17.800907,4.199297,16.666035,-81.69266,-20.272474,76.755424,9.149014,9.270099,-2.2801569
200,-1.0047491788864136,-0.6241450309753418,77.0323257446289,0.5614754442525713,3.0988578115972345,94.24503203691752,-0.9945986,3.2730262,-2.7909224,12.408067,-17.557192,-3.0592506,2.5220337,-6.852291,-12.010145,8.673744,-10.710782,5.101032,-2.2954369,-0.18315434,-4.5989294,14.165817,79.85786,29.429733,74.130196,-10.263345,17.825397,4.488739,16.282785,-81.009,-20.033558,76.53382,9.198258,9.351028,-2.4537256
201,-1.0304032564163208,-0.6445454359054565,77.02950286865234,0.5600107175979987,3.093203693983805,94.23681731551596,-1.012097,3.254842,-2.773579,12.435568,-17.576288,-3.034411,2.5112472,-6.871132,-11.995953,8.6806135,-10.700396,5.1525416,-2.2946715,-0.16126435,-4.5073433,13.958188,78.97518,29.295534,73.86596,-10.27488,17.838947,4.6487846,15.92778,-80.27825,-19.786087,76.28567,9.274841,9.417865,-2.7299533
202,-1.0540440082550049,-0.6621085405349731,77.02845001220703,0.5628162724191961,3.086111433151259,94.2272111917483,-1.0336393,3.2316442,-2.751374,12.474829,-17.60767,-2.9923437,2.5095868,-6.892913,-11.980046,8.671478,-10.681954,5.229102,-2.294358,-0.14042589,-4.4026575,13.778758,78.04435,29.184595,73.58681,-10.205992,17.851667,4.7028613,15.586759,-79.49986,-19.528006,76.015144,9.358779,9.475462,-3.0658588
203,-1.0823962688446045,-0.6830874085426331,77.0224838256836,0.5665711951826449,3.0788252840420407,94.21549204195729,-1.056014,3.2048736,-2.7272654,12.516332,-17.639482,-2.946438,2.5063033,-6.9179955,-11.959504,8.663169,-10.66495,5.3070974,-2.2946765,-0.12358333,-4.2907157,13.617864,77.06685,29.087158,73.29224,-10.110888,17.868017,4.7352057,15.24476,-78.677025,-19.266758,75.72956,9.42303,9.528929,-3.4019675
204,-1.1024245023727417,-0.6984745264053345,77.02393341064453,0.573508613317879,3.0724466730444684,94.20059596125073,-1.0773108,3.1756048,-2.7042303,12.553923,-17.662725,-2.9099555,2.4877532,-6.947537,-11.931007,8.677805,-10.661687,5.363054,-2.2949402,-0.11328811,-4.177683,13.460985,76.04372,28.989475,72.982956,-10.043655,17.892519,4.830554,14.891878,-77.81595,-19.01569,75.43611,9.439908,9.583756,-3.677709
205,-1.1357223987579346,-0.7174318432807922,77.02066040039062,0.5825202527345384,3.067551370972708,94.1815098119441,-1.0951303,3.1413655,-2.6834314,12.581444,-17.670698,-2.8888364,2.4552143,-6.982123,-11.888199,8.7088585,-10.673393,5.391895,-2.2934253,-0.11206683,-4.067122,13.2909775,74.975006,28.873386,72.66703,-10.001856,17.944614,5.0127187,14.525179,-76.92037,-18.781752,75.13786,9.383041,9.640037,-3.8421562
206,-1.1608247756958008,-0.7431779503822327,77.02615356445312,0.5957481320093745,3.0635272514079017,94.15897338595062,-1.112455,3.1022954,-2.6631703,12.60666,-17.671627,-2.8751612,2.4099882,-7.022169,-11.833952,8.757818,-10.699417,5.40589,-2.288364,-0.11663146,-3.9569883,13.102702,73.86226,28.732056,72.34901,-9.963156,18.015402,5.236856,14.156636,-75.99173,-18.562082,74.83251,9.273065,9.695841,-3.9367335
207,-1.1756161451339722,-0.7585705518722534,77.02655792236328,0.6073823075369331,3.059361774073239,94.13481696446662,-1.1305658,3.064216,-2.6420903,12.633109,-17.671381,-2.8616128,2.356017,-7.0635552,-11.781495,8.822538,-10.728928,5.406977,-2.279444,-0.11755619,-3.844718,12.903104,72.7072,28.571848,72.02497,-9.951969,18.066912,5.4843946,13.793086,-75.02867,-18.349012,74.520355,9.153346,9.755154,-4.038375
208,-1.20735764503479,-0.7784883379936218,77.02220916748047,0.6124918773951323,3.054179727767053,94.11116952711268,-1.1520083,3.0327277,-2.6190522,12.667798,-17.677725,-2.8409245,2.3023646,-7.1012535,-11.744472,8.892214,-10.747505,5.3971467,-2.2673619,-0.106558084,-3.7266715,12.705855,71.510994,28.406647,71.68729,-9.9918585,18.061064,5.7357993,13.436969,-74.028046,-18.1317,74.204445,9.067541,9.819441,-4.224773
209,-1.2330244779586792,-0.7974719405174255,77.02149963378906,0.6057940423129775,3.0466872977926305,94.08940523649247,-1.1770693,3.0150003,-2.5935905,12.713699,-17.694633,-2.8120646,2.2451103,-7.13099,-11.733321,8.980767,-10.755217,5.363213,-2.2522979,-0.076219104,-3.6001012,12.514742,70.273254,28.25017,71.32872,-10.104535,17.983305,5.981049,13.087726,-72.986984,-17.901922,73.88335,9.001169,9.897726,-4.5306125
210,-1.260027527809143,-0.8228079676628113,77.02506256103516,0.5901183743701122,3.037610697516256,94.06807416087833,-1.2048193,3.006018,-2.5663888,12.767304,-17.717628,-2.7786179,2.1870456,-7.155463,-11.7391615,9.077411,-10.752596,5.308631,-2.2361124,-0.034523197,-3.466656,12.333201,68.99356,28.103117,70.95118,-10.270509,17.855207,6.230797,12.7373705,-71.9058,-17.66054,73.55719,8.94017,9.985789,-4.911299
211,-1.295084834098816,-0.8428295254707336,77.02654266357422,0.5779354695461701,3.029485516586558,94.04499302572975,-1.2357973,2.9937067,-2.5378573,12.825183,-17.741697,-2.7401254,2.1209435,-7.185191,-11.743581,9.186747,-10.753699,5.260781,-2.2224288,0.0046423124,-3.3303874,12.175895,67.67318,27.956734,70.56024,-10.453084,17.69285,6.4962897,12.3795805,-70.786194,-17.41149,73.226814,8.929391,10.069131,-5.3258777
212,-1.330788254737854,-0.8664045333862305,77.02802276611328,0.5766268022523059,3.024491030542816,94.01768184903977,-1.2683032,2.9660501,-2.508366,12.879922,-17.75986,-2.6961596,2.0546687,-7.227219,-11.730279,9.28311,-10.756891,5.2468705,-2.2141573,0.028109325,-3.1956596,12.050516,66.314354,27.79662,70.164696,-10.614673,17.512283,6.789363,12.008111,-69.62953,-17.159178,72.89349,9.013276,10.132574,-5.7331777
213,-1.362009048461914,-0.895797848701477,77.03268432617188,0.5964151673117161,3.0245300617009816,93.98374398202473,-1.3051116,2.9150217,-2.4771335,12.933575,-17.77092,-2.6420422,1.9825695,-7.289729,-11.689654,9.371107,-10.77032,5.281645,-2.208556,0.027724374,-3.0656555,11.957455,64.91888,27.613815,69.77109,-10.756859,17.298653,7.1129313,11.620691,-68.433586,-16.895632,72.55811,9.234599,10.170398,-6.1522584
214,-1.402494192123413,-0.9222532510757446,77.03128814697266,0.6284241565021842,3.0279247017899755,93.94499952250978,-1.3452336,2.848612,-2.4442427,12.987543,-17.778238,-2.5795436,1.9067827,-7.3657575,-11.632618,9.452744,-10.787907,5.348139,-2.2048123,0.011484309,-2.9384437,11.887124,63.488365,27.409575,69.37783,-10.894828,17.049557,7.4604187,11.221145,-67.198006,-16.621208,72.22211,9.559019,10.189307,-6.5954823
215,-1.436191201210022,-0.9479873180389404,77.0300064086914,0.6621147207074798,3.0317035415354567,93.90577333690467,-1.3850008,2.778879,-2.4113352,13.038843,-17.782553,-2.5178294,1.8300737,-7.4441133,-11.571224,9.533927,-10.805556,5.4258304,-2.207199,-0.009434025,-2.8112688,11.830883,62.025055,27.18133,68.9816,-11.01398,16.799946,7.8300047,10.818683,-65.92809,-16.358168,71.884964,9.91581,10.193362,-7.010167
216,-1.4669870138168335,-0.9723512530326843,77.03370666503906,0.6868991318097284,3.032738766459496,93.87010242291541,-1.4193823,2.7180927,-2.380062,13.0820675,-17.784046,-2.4662485,1.7575507,-7.512634,-11.517568,9.615167,-10.816316,5.4944263,-2.2178552,-0.022398109,-2.6803138,11.775186,60.53095,26.923405,68.580826,-11.100055,16.584913,8.220382,10.42955,-64.63247,-16.136562,71.543076,10.233777,10.188783,-7.341888
217,-1.5035743713378906,-0.9969727396965027,77.033203125,0.6981997220298404,3.0299230606308916,93.83839655078732,-1.4478465,2.6701574,-2.3497279,13.118815,-17.785233,-2.4277172,1.6872476,-7.5677595,-11.474354,9.7037735,-10.819899,5.551093,-2.237239,-0.023431549,-2.547159,11.710685,59.00498,26.625788,68.18129,-11.16478,16.418629,8.674584,10.050705,-63.317238,-15.986425,71.19726,10.467288,10.175683,-7.519085
218,-1.540026307106018,-1.023507833480835,77.030029296875,0.7022717937119549,3.024963021803386,93.80865829946856,-1.4720471,2.6287165,-2.3199036,13.149468,-17.784624,-2.3971863,1.6161616,-7.616154,-11.435199,9.80041,-10.821384,5.6057777,-2.2595031,-0.015531598,-2.4123323,11.636774,57.445515,26.284754,67.78675,-11.211429,16.2805,9.18,9.688611,-61.979877,-15.89845,70.840324,10.662301,10.155396,-7.586032
219,-1.5827205181121826,-1.0562583208084106,77.02919006347656,0.7033061579678723,3.0192670881470685,93.78166240362143,-1.4947119,2.5887449,-2.2924306,13.1752615,-17.779892,-2.3715835,1.548464,-7.6618814,-11.398613,9.892037,-10.819133,5.6573205,-2.2785816,-0.0007274745,-2.2708151,11.556239,55.855427,25.907318,67.3908,-11.214033,16.15474,9.652069,9.36252,-60.617508,-15.833964,70.46949,10.884219,10.129066,-7.6631217
220,-1.6232454776763916,-1.0826603174209595,77.03345489501953,0.7051922755751939,3.0141717772737313,93.75799462870363,-1.5207922,2.5454888,-2.2693691,13.201837,-17.771252,-2.3479877,1.4760551,-7.7112336,-11.361178,9.991944,-10.825695,5.704529,-2.291755,0.017816754,-2.1196513,11.474656,54.240223,25.502155,66.9888,-11.14598,16.025501,10.005092,9.082139,-59.227306,-15.741983,70.08695,11.199785,10.0969925,-7.871862
221,-1.6653034687042236,-1.1118190288543701,77.03556060791016,0.7066365101806777,3.0087070071844204,93.73974616486319,-1.5480164,2.5012574,-2.253748,13.224814,-17.754948,-2.3302913,1.4078145,-7.7597494,-11.324029,10.084936,-10.836418,5.742534,-2.3017132,0.041563824,-1.9584184,11.392948,52.60305,25.072992,66.58618,-10.98724,15.893031,10.19129,8.841462,-57.80671,-15.589072,69.699425,11.698871,10.0555525,-8.291476
222,-1.709174394607544,-1.1375503540039062,77.03451538085938,0.7056360533024353,3.002611696904883,93.7260065044577,-1.5753375,2.4573588,-2.2436204,13.243935,-17.732635,-2.3185568,1.3416426,-7.8067513,-11.287586,10.176258,-10.850524,5.773489,-2.3141026,0.06878505,-1.7918627,11.315268,50.9454,24.61923,66.18661,-10.756379,15.764565,10.263576,8.621177,-56.357246,-15.388267,69.314384,12.322922,10.001036,-8.843634
223,-1.7571274042129517,-1.1656560897827148,77.03587341308594,0.7091832426318022,2.998038403508761,93.71266360400773,-1.606442,2.4074523,-2.2334664,13.2646055,-17.708643,-2.3039052,1.2657989,-7.86167,-11.250637,10.281961,-10.87112,5.806495,-2.3288445,0.09223607,-1.6235319,11.248151,49.271202,24.13937,65.78538,-10.485034,15.635404,10.287571,8.414858,-54.88343,-15.160909,68.93477,12.915762,9.935022,-9.412419
224,-1.801598310470581,-1.2036970853805542,77.03203582763672,0.7214797826090679,2.997074872743199,93.69536627343827,-1.644823,2.3452373,-2.2176383,13.291756,-17.687014,-2.2774231,1.1651638,-7.9346766,-11.210999,10.424008,-10.90385,5.850768,-2.3446262,0.10499164,-1.4574506,11.194601,47.585415,23.628563,65.380135,-10.204312,15.500739,10.328506,8.2160015,-53.390648,-14.929179,68.563385,13.321612,9.86468,-9.881514
225,-1.8595280647277832,-1.2546186447143555,77.03427124023438,0.7506830889561019,3.0032601902042755,93.67018025140929,-1.6930026,2.2647636,-2.1880364,13.32259,-17.666288,-2.236965,1.0243801,-8.036292,-11.166306,10.624068,-10.956819,5.9145975,-2.3549173,0.10120508,-1.3024805,11.146427,45.88828,23.084007,64.984314,-9.921231,15.354804,10.385859,8.017697,-51.878773,-14.70981,68.21524,13.466627,9.793385,-10.2052145
226,-1.9106444120407104,-1.2944495677947998,77.03612518310547,0.7903696967312248,3.014464068688438,93.6402292501958,-1.7487583,2.1705394,-2.1497657,13.356451,-17.645199,-2.1871412,0.8551868,-8.158408,-11.118064,10.865282,-11.024691,5.99151,-2.3594904,0.08616003,-1.1536431,11.099025,44.179764,22.503479,64.600426,-9.618394,15.20114,10.430942,7.831385,-50.346283,-14.492855,67.880264,13.44479,9.720682,-10.449809
227,-1.9663373231887817,-1.3355469703674316,77.03736877441406,0.8310300801193945,3.0243956186411314,93.6123225864236,-1.806869,2.0722523,-2.117074,13.397086,-17.626719,-2.129315,0.68802905,-8.282916,-11.0711,11.104005,-11.089926,6.068296,-2.366685,0.06967246,-0.9963924,11.064793,42.466476,21.878607,64.20878,-9.295312,15.050789,10.486544,7.6685424,-48.7983,-14.252844,67.53225,13.350581,9.650238,-10.667222
228,-2.0185866355895996,-1.369638442993164,77.03548431396484,0.8628792223394048,3.0267330366899987,93.59318284369692,-1.8632507,1.9796069,-2.104251,13.450582,-17.614445,-2.0648608,0.5512709,-8.391915,-11.029911,11.299958,-11.136549,6.1315846,-2.386079,0.061540995,-0.81836313,11.048313,40.759235,21.19859,63.799953,-8.947997,14.914713,10.574437,7.535438,-47.244095,-13.958357,67.152954,13.278663,9.584566,-10.908048
229,-2.079981803894043,-1.4115761518478394,77.03736114501953,0.8777475891467574,3.0167907626400625,93.58532557330851,-1.9162486,1.898965,-2.1210258,13.527524,-17.614536,-1.989302,0.461477,-8.474278,-10.995534,11.430322,-11.154439,6.1705813,-2.422303,0.06996737,-0.618831,11.0509,39.062496,20.450214,63.38315,-8.57242,14.808419,10.717936,7.429083,-45.68733,-13.57613,66.748726,13.263682,9.531364,-11.208144
230,-2.142622470855713,-1.46361243724823,77.0384521484375,0.8844746635423832,2.9988945525239057,93.58494563272852,-1.9692004,1.8237681,-2.1577573,13.623673,-17.62408,-1.9035823,0.3975074,-8.542258,-10.965209,11.526396,-11.156977,6.1945806,-2.473299,0.08743112,-0.40817484,11.05493,37.37803,19.641502,62.983894,-8.16497,14.722376,10.898087,7.3396387,-44.12916,-13.1175165,66.33882,13.254562,9.486953,-11.531982
231,-2.1974191665649414,-1.5011459589004517,77.0451889038086,0.8903801038614425,2.9801143756291166,93.58916991866671,-2.0222523,1.745164,-2.1999187,13.717426,-17.631203,-1.8171481,0.3403486,-8.611366,-10.939335,11.610241,-11.153313,6.2198887,-2.5303955,0.10321704,-0.1964585,11.088597,35.71101,18.772573,62.57253,-7.755063,14.6301155,11.071964,7.263985,-42.574593,-12.620986,65.93327,13.215277,9.436144,-11.822458
232,-2.2579383850097656,-1.544213056564331,77.04498291015625,0.905575510000013,2.9677552082424508,93.59519886762618,-2.0761473,1.6542468,-2.2328463,13.787602,-17.624176,-1.7394838,0.27006266,-8.697361,-10.918307,11.70602,-11.153721,6.262843,-2.5915897,0.10590854,0.014553942,11.100815,34.072426,17.856804,62.186977,-7.3361974,14.504862,11.198266,7.1986623,-41.028114,-12.123712,65.52948,13.1118355,9.364654,-12.020318
233,-2.315556526184082,-1.58632230758667,77.03970336914062,0.936246679990946,2.9635072522898347,93.6021648327041,-2.129021,1.546307,-2.253606,13.824765,-17.596935,-1.6778413,0.18117762,-8.806896,-10.904208,11.822018,-11.162928,6.3319774,-2.6751258,0.089549646,0.18595737,11.164374,32.46559,16.87164,61.802067,-6.924732,14.337585,11.278103,7.350994,-39.476055,-11.658529,64.96562,12.941442,9.257533,-12.055857
234,-2.386042594909668,-1.6372392177581787,77.0398178100586,0.9742955089470947,2.9645336261830937,93.61169540553074,-2.1804323,1.426408,-2.2694328,13.837781,-17.5549,-1.6256423,0.08579413,-8.930805,-10.8963995,11.940421,-11.172469,6.417105,-2.7004035,0.058847178,0.41595536,11.154776,30.89552,15.777597,61.417953,-6.504304,14.142128,11.328686,7.1245685,-37.947746,-11.178705,64.74942,12.626604,9.130286,-11.995131
235,-2.4579169750213623,-1.6880061626434326,77.04119873046875,1.015878096443984,2.967836218406221,93.62443040117994,-2.2361252,1.3014988,-2.2817893,13.848043,-17.511469,-1.5711871,-0.019368045,-9.0621,-10.889154,12.071763,-11.186835,6.5070677,-2.7484765,0.025631357,0.61119515,11.157198,29.363234,14.656416,61.081715,-6.0947,13.926241,11.331214,7.092197,-36.42837,-10.675152,64.379166,12.334899,9.001106,-11.923791
236,-2.5249545574188232,-1.7479840517044067,77.04423522949219,1.0562283031055189,2.9717168756771826,93.64104774329275,-2.3002224,1.1780461,-2.2918737,13.870344,-17.476517,-1.5029566,-0.13122822,-9.193573,-10.877599,12.209462,-11.200153,6.5905833,-2.7976744,-0.007117421,0.7991255,11.1365795,27.869555,13.547367,60.792797,-5.7068405,13.6969185,11.267275,7.098158,-34.921883,-10.120751,63.9712,12.093903,8.893471,-11.957393
237,-2.5984842777252197,-1.8051400184631348,77.04969787597656,1.0909315902593988,2.9760751098573452,93.66239783728703,-2.3750036,1.0596718,-2.2985017,13.909614,-17.45601,-1.417116,-0.24750867,-9.320217,-10.859752,12.350005,-11.2126665,6.6684566,-2.8501587,-0.035998486,0.97884375,11.091801,26.408554,12.445766,60.551605,-5.3560266,13.440258,11.149845,7.120149,-33.430172,-9.492742,63.537304,11.942679,8.817093,-12.164839
238,-2.6800858974456787,-1.8638657331466675,77.0512924194336,1.1242362384728637,2.981930466603367,93.68810506584485,-2.4572566,0.94236827,-2.3015084,13.955977,-17.442654,-1.3201089,-0.36969325,-9.44698,-10.838565,12.4951935,-11.225141,6.745509,-2.9082608,-0.063864805,1.1499914,11.029409,24.97666,11.339019,60.352737,-5.0321,13.157037,10.982802,7.155434,-31.953491,-8.802764,63.09092,11.841429,8.758965,-12.474756
239,-2.7520697116851807,-1.9259281158447266,77.05244445800781,1.159749975739602,2.9885597278163596,93.71613574926478,-2.5452332,0.82046497,-2.3033314,14.007026,-17.429024,-1.2156941,-0.5033798,-9.581103,-10.815862,12.656684,-11.240656,6.816347,-2.9683485,-0.09622656,1.317554,10.94842,23.578741,10.2628,60.192554,-4.708489,12.8761015,10.731356,7.198687,-30.499956,-8.07072,62.653275,11.731522,8.708458,-12.785236
240,-2.8243374824523926,-1.991861343383789,77.04740905761719,1.20309782607942,2.995364224068595,93.74478188668787,-2.6372254,0.6880657,-2.3063662,14.060277,-17.407818,-1.1075127,-0.6588841,-9.730892,-10.793062,12.856123,-11.267621,6.8754687,-3.029255,-0.13802609,1.4852401,10.8430195,22.222288,9.25273,60.073982,-4.359834,12.62565,10.358939,7.2416506,-29.078415,-7.312569,62.248318,11.555979,8.655143,-12.992737
