unveil-humanoid-operators/unveil-humanoid-operators.github.io/feature-analysis-animation/data/feature_matrix_instances/height_root_translate_rom_walking_A257_walk_ff_start_270_R_008__A257.csv
Frame,root_translateX,root_translateY,root_translateZ,root_rotateX,root_rotateY,root_rotateZ,left_hip_pitch_joint_dof,left_hip_roll_joint_dof,left_hip_yaw_joint_dof,left_knee_joint_dof,left_ankle_pitch_joint_dof,left_ankle_roll_joint_dof,right_hip_pitch_joint_dof,right_hip_roll_joint_dof,right_hip_yaw_joint_dof,right_knee_joint_dof,right_ankle_pitch_joint_dof,right_ankle_roll_joint_dof,waist_yaw_joint_dof,waist_roll_joint_dof,waist_pitch_joint_dof,left_shoulder_pitch_joint_dof,left_shoulder_roll_joint_dof,left_shoulder_yaw_joint_dof,left_elbow_joint_dof,left_wrist_roll_joint_dof,left_wrist_pitch_joint_dof,left_wrist_yaw_joint_dof,right_shoulder_pitch_joint_dof,right_shoulder_roll_joint_dof,right_shoulder_yaw_joint_dof,right_elbow_joint_dof,right_wrist_roll_joint_dof,right_wrist_pitch_joint_dof,right_wrist_yaw_joint_dof
0,1.2880289554595947,0.9361591935157776,77.01862335205078,0.8076829928190572,6.684033941417924,-152.44773764753302,5.316285,-6.03584,30.717587,29.805609,-11.166363,-13.24057,-21.426767,-1.3749092,-26.509472,27.699697,-13.672176,-12.394256,-12.307859,1.0644494,6.35128,-8.866022,18.196333,-45.474842,45.66109,0.31556392,-3.303739,-2.8726923,3.1639132,-18.416647,23.783808,57.044598,15.749574,6.323969,2.2705235
1,1.3281333446502686,1.343521237373352,76.92606353759766,0.6766894799122755,6.751672690408827,-151.94648924790093,5.2732334,-6.1524506,30.854845,29.538057,-11.086399,-12.081218,-21.803959,-1.2372718,-27.098684,27.959198,-13.600937,-12.809683,-12.478368,1.2201809,6.345326,-9.037635,18.256868,-45.631718,45.680424,0.31265718,-3.274916,-2.8045597,3.310623,-18.37071,23.755312,56.978027,15.788408,6.3224564,2.395245
2,1.4996188879013062,1.7946096658706665,76.80608367919922,0.5457859764876811,6.827248719781016,-151.43821230277342,5.209236,-6.2910743,30.963964,29.304176,-10.969077,-10.9698925,-22.183277,-1.1037136,-27.696217,28.216003,-13.533109,-13.228783,-12.645593,1.3662,6.3299236,-9.217008,18.32817,-45.81228,45.699955,0.31628317,-3.240205,-2.7327628,3.427857,-18.28675,23.724514,56.960983,15.830446,6.3147798,2.515884
3,1.5979554653167725,2.2201650142669678,76.69842529296875,0.4236071747578668,6.890229966741459,-150.9448787565671,5.177585,-6.3839526,31.144419,29.030962,-10.940485,-9.756723,-22.557251,-0.97812927,-28.276525,28.4855,-13.469987,-13.6445,-12.805062,1.4833598,6.3195987,-9.384794,18.409817,-45.97608,45.73045,0.29690838,-3.2142284,-2.6660306,3.540661,-18.175594,23.694832,56.95334,15.85001,6.305495,2.6308537
4,1.6810519695281982,2.6450424194335938,76.5885238647461,0.31998011366491036,6.9199028698223275,-150.4882317660347,5.2308373,-6.367928,31.493454,28.646029,-11.1318865,-8.29179,-22.919128,-0.8657181,-28.813168,28.784187,-13.413031,-14.049901,-12.942743,1.5468593,6.330385,-9.53051,18.504421,-46.094307,45.78628,0.22235224,-3.211674,-2.612114,3.6398976,-18.041424,23.686518,56.948586,15.849542,6.297027,2.7372983
5,1.7733792066574097,3.067404270172119,76.4709701538086,0.23799717747821197,6.905824340057799,-150.08023562231017,5.400272,-6.1888213,32.139862,28.126732,-11.626252,-6.321148,-23.262447,-0.7654711,-29.294966,29.125097,-13.378518,-14.444318,-13.053723,1.546011,6.3621583,-9.638927,18.616753,-46.15161,45.86208,0.07440887,-3.2405465,-2.5777986,3.7433698,-17.884157,23.69341,56.93594,15.805221,6.2907124,2.843348
6,1.8653087615966797,3.5102453231811523,76.35504150390625,0.1776086415174047,6.860615017329896,-149.70733679757384,5.64597,-5.9097133,32.99147,27.531267,-12.369178,-4.0018516,-23.595432,-0.6824765,-29.732796,29.503038,-13.362524,-14.830376,-13.147108,1.4902607,6.407957,-9.716734,18.749075,-46.163055,45.94598,-0.12621222,-3.2916,-2.5578825,3.844306,-17.706156,23.71522,56.92258,15.73106,6.2854233,2.9477906
7,1.9772305488586426,3.956481456756592,76.23765563964844,0.15968936439689488,6.78653998411283,-149.33162263218205,5.944919,-5.6765947,33.789627,26.84881,-13.246428,-1.7945786,-23.925426,-0.6846435,-30.133055,29.950747,-13.360798,-15.000033,-13.254734,1.3712265,6.4775553,-9.783793,18.899345,-46.1433,46.044277,-0.35507455,-3.353304,-2.5426333,3.9275434,-17.512697,23.756166,56.904663,15.652685,6.2799635,3.034596
8,2.090512752532959,4.392765998840332,76.13084411621094,0.17197197631862107,6.700211243312787,-148.9433648228766,6.243643,-5.5719943,34.302097,26.099174,-14.133816,-0.16387698,-24.261364,-0.7540664,-30.508762,30.426073,-13.329369,-15.000033,-13.382524,1.211096,6.57208,-9.859567,19.062351,-46.105072,46.167046,-0.5855666,-3.414319,-2.5222807,3.9907134,-17.31137,23.812042,56.868374,15.58402,6.274226,3.087287
9,2.2242560386657715,4.8296356201171875,76.030029296875,0.19325032239884832,6.603305948134698,-148.54860207219545,6.521784,-5.5774627,34.45669,25.309044,-15.048004,0.6776065,-24.593012,-0.8384932,-30.87255,30.871119,-13.251323,-15.000033,-13.521885,1.0292197,6.6998205,-9.954811,19.234903,-46.056774,46.31414,-0.8183581,-3.4766328,-2.4913313,4.028837,-17.105595,23.884747,56.80817,15.524662,6.275938,3.0954492
10,2.3695712089538574,5.278983116149902,75.93061065673828,0.22065453964773032,6.491610198898603,-148.15712685539143,6.8068895,-5.6338887,34.38939,24.454819,-16.018564,1.0077494,-24.917707,-0.9309766,-31.22023,31.295004,-13.136678,-15.000033,-13.664698,0.82570124,6.8565207,-10.059076,19.41519,-45.98971,46.48479,-1.063471,-3.5449412,-2.4558725,4.0511513,-16.896158,23.971952,56.724987,15.466964,6.283513,3.0707989
11,2.5223402976989746,5.735510349273682,75.8386459350586,0.2514500570374015,6.3804952488288205,-147.7810049769313,7.09619,-5.726282,34.200058,23.51113,-16.94539,1.0955042,-25.259197,-1.0318707,-31.548088,31.714022,-12.960126,-15.000033,-13.800709,0.6106283,7.0222797,-10.166659,19.59896,-45.89808,46.69178,-1.3149161,-3.6123614,-2.4232001,4.0646453,-16.687017,24.07367,56.622887,15.429842,6.2826285,3.030236
12,2.6958563327789307,6.1984357833862305,75.75303649902344,0.2851694637765264,6.28530885956167,-147.4326487931468,7.3844953,-5.8481874,33.983192,22.454786,-17.733698,1.2049191,-25.64238,-1.1435777,-31.850351,32.14747,-12.698403,-15.000033,-13.919781,0.39373383,7.1766834,-10.270244,19.779621,-45.773853,46.947735,-1.563889,-3.672001,-2.4005332,4.08183,-16.48287,24.187855,56.500793,15.430449,6.259907,2.9911823
13,2.88877272605896,6.643510818481445,75.67848205566406,0.32647780037207536,6.213776241178538,-147.10426612795007,7.6822534,-6.027914,33.708534,21.215092,-18.346195,1.3583752,-26.087965,-1.2870357,-32.135155,32.62552,-12.35169,-15.000033,-14.020536,0.1783478,7.315413,-10.386307,19.951138,-45.63028,47.26519,-1.827221,-3.7294781,-2.4037635,4.1000686,-16.288694,24.312761,56.3524,15.493185,6.208818,2.9445002
14,3.0874438285827637,7.094075679779053,75.61487579345703,0.36782770950108845,6.156933522031433,-146.79130204806955,7.9928703,-6.255619,33.34582,19.81452,-18.830275,1.4223429,-26.576021,-1.4474562,-32.407307,33.122913,-11.927401,-15.000033,-14.108878,-0.031054467,7.449118,-10.515854,20.110086,-45.466793,47.641945,-2.1025271,-3.7862952,-2.423974,4.1267905,-16.105783,24.442442,56.16872,15.595176,6.138426,2.8865988
15,3.2657816410064697,7.556142807006836,75.5622787475586,0.39438441953387204,6.105818291876429,-146.51201716889238,8.296062,-6.475591,32.986225,18.374342,-19.221111,1.4291563,-27.069746,-1.5764211,-32.65407,33.57588,-11.412465,-15.000033,-14.180377,-0.22818969,7.582079,-10.6313715,20.25442,-45.25805,48.06925,-2.3529842,-3.8294413,-2.4307442,4.1484823,-15.934822,24.598278,55.980907,15.721979,6.0564384,2.842027
16,3.458378553390503,8.009852409362793,75.51824188232422,0.3958434972717103,6.051122593303738,-146.28631329494414,8.5705595,-6.63627,32.721077,17.016956,-19.5602,1.4184015,-27.536314,-1.6304674,-32.859787,33.92784,-10.796478,-15.000033,-14.234213,-0.41205916,7.71589,-10.702464,20.384333,-44.97603,48.537525,-2.54343,-3.846263,-2.3941488,4.171085,-15.774934,24.788366,55.80323,15.837087,5.9710374,2.8357124
17,3.6549270153045654,8.46641731262207,75.4862289428711,0.3708449985128466,5.984677741960946,-146.1237554088545,8.823977,-6.727115,32.574047,15.758003,-19.855383,1.3940144,-27.963715,-1.6074717,-33.039257,34.17977,-10.077748,-15.000033,-14.264602,-0.5867455,7.853906,-10.722561,20.498726,-44.61075,49.05785,-2.6729922,-3.8350224,-2.3102324,4.180745,-15.629036,25.053972,55.65349,15.976932,5.8768067,2.858056
18,3.833894729614258,8.946893692016602,75.4668960571289,0.3259126631642364,5.913548175126694,-146.01285602821704,9.060576,-6.7750845,32.498978,14.542292,-20.088287,1.3408701,-28.372726,-1.5287431,-33.194702,34.35921,-9.261963,-15.000033,-14.277067,-0.75141937,7.993464,-10.702881,20.597218,-44.172657,49.628918,-2.7557812,-3.8021228,-2.1939342,4.1849575,-15.497259,25.377796,55.513783,16.14196,5.7723484,2.9012825
19,4.043210983276367,9.407625198364258,75.45622253417969,0.27025002166249557,5.850573708620643,-145.9439980746289,9.249261,-6.78651,32.48337,13.400803,-20.266426,1.2775053,-28.780687,-1.392794,-33.286625,34.455338,-8.353096,-15.000033,-14.278762,-0.9089228,8.127838,-10.6466255,20.683142,-43.673626,50.223988,-2.7820399,-3.7468016,-2.0430527,4.19585,-15.374785,25.694199,55.37092,16.264517,5.6708536,2.9915402
20,4.259189605712891,9.87485122680664,75.46052551269531,0.21490454396713893,5.8080717058261255,-145.9079118078541,9.357772,-6.7660584,32.514057,12.371842,-20.401701,1.2250364,-29.204971,-1.2002554,-33.27478,34.458656,-7.354607,-15.000033,-14.273991,-1.0659463,8.250357,-10.557688,20.762707,-43.12814,50.815014,-2.7420754,-3.6679432,-1.8552564,4.2175694,-15.255301,25.939087,55.219563,16.281145,5.584658,3.1540031
21,4.473843574523926,10.349063873291016,75.4778060913086,0.17322651936680392,5.7845898552555175,-145.90004866660271,9.373624,-6.7125926,32.594112,11.491179,-20.499578,1.2022359,-29.644897,-0.9690867,-33.159576,34.376923,-6.2688117,-15.000033,-14.268508,-1.2410557,8.359036,-10.428097,20.840925,-42.525032,51.398266,-2.5940897,-3.5535102,-1.6132648,4.262574,-15.129476,26.083082,55.05173,16.127031,5.5092807,3.4338603
22,4.684483051300049,10.833571434020996,75.50912475585938,0.14309656494248263,5.773506668498301,-145.92756408788475,9.315247,-6.6245184,32.727203,10.740579,-20.560114,1.2018285,-30.092722,-0.7000931,-32.95622,34.217834,-5.0960374,-15.000033,-14.254315,-1.4366744,8.457173,-10.258143,20.919495,-41.8655,51.98309,-2.3584232,-3.4064424,-1.3243593,4.3161445,-14.995333,26.164692,54.883186,15.85343,5.438073,3.8035226
23,4.90009069442749,11.319042205810547,75.54832458496094,0.11108270520798731,5.779225236693188,-145.9983381194132,9.20087,-6.5076933,32.8996,10.0662565,-20.581244,1.2036667,-30.550154,-0.36750963,-32.65154,33.968533,-3.8359408,-15.000033,-14.219438,-1.6311072,8.54662,-10.059025,20.999424,-41.177948,52.557693,-2.1179721,-3.2485478,-1.0233417,4.3685546,-14.8569565,26.208841,54.717667,15.553879,5.381885,4.180759
24,5.115977764129639,11.821770668029785,75.60183715820312,0.06212106711350649,5.805394495571373,-146.11893737373606,9.047977,-6.368656,33.097977,9.416121,-20.562214,1.1840725,-31.014006,0.05427941,-32.239315,33.61166,-2.488772,-15.000033,-14.150941,-1.7991859,8.631388,-9.846476,21.081001,-40.49484,53.112614,-1.9577299,-3.1033468,-0.7441656,4.408026,-14.722632,26.242065,54.559048,15.326829,5.353873,4.484197
25,5.348355293273926,12.30616569519043,75.65392303466797,-0.004926745556112585,5.850384239349866,-146.2909106690593,8.853042,-6.2136254,33.31904,8.787498,-20.494892,1.1305362,-31.480549,0.56008273,-31.74089,33.158974,-1.0735836,-15.000033,-14.045657,-1.9362503,8.721585,-9.620893,21.161997,-39.796898,53.641685,-1.8812368,-2.9677765,-0.48400575,4.437393,-14.598586,26.264227,54.396595,15.191848,5.3522267,4.6888976
26,5.586280345916748,12.791015625,75.714111328125,-0.04982329754506009,5.872923443768746,-146.4126454748533,8.654391,-6.08351,33.472416,8.192278,-20.38013,1.0749544,-31.937092,1.0335904,-31.134476,32.727062,0.33512127,-14.796802,-14.007467,-2.0800683,8.849171,-9.377173,21.238472,-39.07418,54.147392,-1.8504921,-2.832663,-0.22775581,4.454028,-14.49009,26.265078,54.232895,15.102188,5.3726654,4.8415065
27,5.821197509765625,13.269658088684082,75.78216552734375,-0.08179154531671355,5.885492517815181,-146.50903516379887,8.25599,-5.8314276,33.60763,8.132781,-20.502615,1.0236107,-32.405525,1.5234581,-30.10905,32.29721,1.764683,-13.209115,-13.99932,-2.2145147,8.987347,-9.126161,21.305183,-38.38152,54.64465,-1.8855041,-2.714188,0.009187331,4.4788556,-14.40246,26.23908,54.054947,15.046129,5.429549,4.9679675
28,6.063717842102051,13.740946769714355,75.85435485839844,-0.11947837000644702,5.904099589913992,-146.6145839971324,7.868352,-5.572878,33.740665,8.057182,-20.588884,0.9836227,-32.85379,2.1018443,-28.835886,31.754532,3.2642713,-11.285813,-13.991148,-2.327496,9.110756,-8.875695,21.361769,-37.77309,55.14631,-2.0068657,-2.6285834,0.21151152,4.5181413,-14.334423,26.18738,53.86707,15.015284,5.5355015,5.0930605
29,6.2864990234375,14.22250747680664,75.93330383300781,-0.17046112009810666,5.939477590233807,-146.73083572352553,7.475822,-5.295885,33.86837,7.973647,-20.662088,0.9557797,-33.29363,2.804919,-27.250982,31.082947,4.876387,-8.894007,-14.027428,-2.4279401,9.204598,-8.56972,21.448612,-37.19476,55.60431,-2.233227,-2.5721095,0.39393145,4.5153384,-14.252936,26.178635,53.72535,15.051713,5.7054825,5.212907
30,6.525090217590332,14.663102149963379,76.0081787109375,-0.2315017793397787,5.9872893522216755,-146.8597710262238,7.078281,-5.0105567,33.99257,7.880173,-20.706314,0.9325607,-33.70781,3.6261933,-25.372515,30.297682,6.530649,-6.0700006,-14.054643,-2.5103123,9.283807,-8.257271,21.543747,-36.694576,56.048134,-2.5657725,-2.5398173,0.56198716,4.5218024,-14.180402,26.1487,53.57662,15.142568,5.9314795,5.322757
31,6.749925136566162,15.10214614868164,76.0982437133789,-0.2848564075771267,6.022948137002072,-146.99523164547685,6.7036014,-4.739131,34.120453,7.780087,-20.691204,0.9154111,-34.04071,4.5017457,-23.288383,29.430473,8.076287,-3.0452461,-14.0877285,-2.5901644,9.368835,-7.9321537,21.64251,-36.253254,56.481285,-2.934285,-2.5404449,0.66844743,4.536567,-14.117311,26.071928,53.425697,15.202251,6.1777244,5.421321
32,6.95351505279541,15.559239387512207,76.1985092163086,-0.31259830423963386,6.022696876612109,-147.13049868205405,6.3780117,-4.5014095,34.258503,7.6799035,-20.591574,0.9070458,-34.241695,5.356947,-21.101181,28.510368,9.393664,-0.06732536,-14.130673,-2.6851277,9.480749,-7.596085,21.743555,-35.86851,56.90813,-3.274733,-2.5813437,0.66676146,4.5566936,-14.062875,25.91772,53.28064,15.153329,6.407603,5.5088863
33,7.17531681060791,15.96392822265625,76.30120849609375,-0.2927611081505215,5.9634417224616385,-147.27032676087435,6.130851,-4.3255205,34.418385,7.576875,-20.380793,0.9204829,-34.26423,6.282775,-18.545568,27.388666,10.641246,3.1572042,-14.189319,-2.8191404,9.640325,-7.2444243,21.845486,-35.53055,57.337784,-3.6096306,-2.6954691,0.5296236,4.5750446,-14.019285,25.669806,53.136234,14.930771,6.624891,5.606097
34,7.390604019165039,16.360219955444336,76.4038314819336,-0.23778494151777235,5.861490906118826,-147.41269432470497,5.942997,-4.19667,34.59068,7.4684563,-20.08065,0.95173496,-34.111263,7.255617,-15.6619835,26.106205,11.769421,6.6313663,-14.261747,-2.974245,9.827565,-6.892619,21.929256,-35.25082,57.791813,-3.9610314,-2.8688142,0.28849843,4.596873,-13.992134,25.351475,52.99366,14.596846,6.8441668,5.7057877
35,7.590281963348389,16.76542091369629,76.50904083251953,-0.17767642589011148,5.755084912529012,-147.54526453092421,5.7673764,-4.072463,34.754997,7.3585134,-19.725754,0.97859335,-33.86796,8.0211735,-13.054996,24.984394,12.4657135,9.634985,-14.338262,-3.1284287,10.018739,-6.514326,22.052473,-35.033577,58.18521,-4.262631,-3.0302238,-0.025675757,4.6376996,-13.960469,24.967651,52.854504,14.236223,7.045459,5.7721667
36,7.773984432220459,17.199581146240234,76.63990020751953,-0.14753882339725102,5.6874433736350944,-147.66030919665,5.55042,-3.9032865,34.89385,7.254798,-19.351639,0.97811687,-33.679485,8.352488,-11.360058,24.334873,12.536475,11.440223,-14.403693,-3.23187,10.161483,-6.1517825,22.17261,-34.91045,58.561466,-4.448204,-3.119185,-0.36666733,4.725233,-13.923369,24.54549,52.72895,13.95692,7.2095795,5.760411
37,7.939714431762695,17.611671447753906,76.76599884033203,-0.15533211326086802,5.671587840945979,-147.7506728769792,5.2727346,-3.6707444,34.99517,7.169974,-18.9558,0.93460876,-33.646217,8.1636095,-10.847254,24.301996,11.876794,11.62397,-14.452893,-3.2814565,10.246465,-5.810704,22.30839,-34.918037,58.917046,-4.5398197,-3.1158466,-0.73532766,4.872058,-13.861512,24.044538,52.61894,13.739315,7.325384,5.6462398
38,8.105722427368164,18.016382217407227,76.89837646484375,-0.18496335690710888,5.68687001312165,-147.82362884773153,4.960037,-3.3975956,35.07025,7.1015134,-18.525265,0.8634993,-33.709682,7.6069093,-11.140952,24.680069,10.68644,10.666455,-14.512938,-3.2867377,10.284273,-5.489245,22.421661,-35.01228,59.291126,-4.5469184,-3.0596693,-1.1455276,5.0523815,-13.789654,23.496428,52.535446,13.554199,7.405813,5.4512386
39,8.270868301391602,18.415781021118164,77.03368377685547,-0.23281383666699654,5.725279401704523,-147.89443598335205,4.626772,-3.097911,35.13862,7.0374413,-18.083122,0.78745615,-33.789722,6.826861,-11.904459,25.252867,9.252762,9.204663,-14.513156,-3.2749333,10.297852,-5.1881723,22.57427,-35.208687,59.614517,-4.434229,-2.9619248,-1.5895824,5.250135,-13.674115,22.88762,52.489826,13.431724,7.462558,5.2190905
40,8.433124542236328,18.820146560668945,77.17074584960938,-0.2967053598133327,5.779549879670938,-147.9790333196374,4.287595,-2.7863796,35.22096,6.9612947,-17.64954,0.7297262,-33.805466,5.9586825,-12.831287,25.802645,7.886498,7.852919,-14.501587,-3.233656,10.284481,-4.8719096,22.718792,-35.375824,59.886692,-4.111874,-2.8469763,-2.0525677,5.402504,-13.561158,22.36365,52.514984,13.461953,7.510742,4.976322
41,8.593101501464844,19.208738327026367,77.30518341064453,-0.382687673290326,5.853929999731533,-148.07972970324622,3.9391713,-2.4601765,35.322422,6.8668795,-17.225088,0.700507,-33.72429,4.9574385,-14.03628,26.301146,6.589297,6.6525965,-14.488007,-3.132824,10.240974,-4.546197,22.818287,-35.494797,60.12267,-3.5142589,-2.707334,-2.5586143,5.5275736,-13.487845,21.944132,52.58677,13.714073,7.5476685,4.704279
42,8.748644828796387,19.593507766723633,77.43826293945312,-0.48815883923259706,5.948313771975372,-148.18712451217104,3.5792832,-2.1161325,35.430202,6.760517,-16.798737,0.6861459,-33.57113,3.7781105,-15.607167,26.847223,5.191929,5.3382893,-14.415223,-3.0034306,10.179938,-4.227423,22.950472,-35.67078,60.284176,-2.7202265,-2.5362456,-3.111948,5.6571293,-13.4000845,21.515795,52.692204,14.11134,7.564388,4.4016623
43,8.892518043518066,19.977449417114258,77.56614685058594,-0.6018998920304682,6.05206435849281,-148.30209575269686,3.2210143,-1.765512,35.541145,6.64527,-16.37493,0.67473155,-33.370445,2.5488605,-17.235651,27.4183,3.7992148,4.026784,-14.35128,-2.8454828,10.095316,-3.895387,23.049011,-35.807827,60.419926,-1.7873607,-2.3754294,-3.6526074,5.7637544,-13.345381,21.166927,52.827927,14.579076,7.579261,4.1131225
44,9.02197551727295,20.361881256103516,77.68840789794922,-0.7134243858667221,6.155125308170288,-148.42560642546067,2.8743193,-1.4186603,35.65291,6.528568,-15.961977,0.6543128,-33.167072,1.3911915,-18.62483,28.003206,2.5360358,2.8113637,-14.255343,-2.6903677,10.002464,-3.568868,23.14163,-35.945442,60.523888,-0.8258207,-2.2533147,-4.126582,5.860542,-13.306243,20.846737,52.971237,14.994914,7.6096416,3.8975434
45,9.152841567993164,20.73790168762207,77.80610656738281,-0.8263273541236756,6.2602911193581745,-148.5611114956086,2.537554,-1.0739137,35.768196,6.408141,-15.557176,0.61546254,-32.976917,0.30129564,-19.774343,28.610533,1.4688332,1.6359066,-14.122614,-2.537221,9.896868,-3.2394392,23.234104,-36.0879,60.581,0.23611248,-2.1694133,-4.5205507,5.943107,-13.282434,20.567482,53.127537,15.377555,7.6696,3.7686672
46,9.286112785339355,21.104536056518555,77.91907501220703,-0.9450366087584532,6.37105836310409,-148.70648998004603,2.2056818,-0.72878474,35.886997,6.280345,-15.158021,0.56719875,-32.78189,-0.781382,-20.829538,29.250277,0.5251754,0.45696914,-13.952359,-2.3791976,9.781356,-2.8975542,23.347195,-36.240486,60.565346,1.4098282,-2.1080892,-4.866098,6.0187263,-13.273851,20.320225,53.291904,15.766721,7.7478094,3.6998506
47,9.399886131286621,21.472570419311523,78.02131652832031,-1.0581663566475148,6.479498994328265,-148.8559551786183,1.8779683,-0.38986468,36.004635,6.163538,-14.771564,0.5252538,-32.589718,-1.8259355,-21.713943,29.912771,-0.3554253,-0.6250862,-13.783708,-2.2230096,9.657778,-2.5507834,23.442366,-36.351448,60.532146,2.5380898,-2.0780554,-5.1659236,6.0726542,-13.283556,20.119024,53.474438,16.098455,7.823543,3.6748643
48,9.518034934997559,21.833398818969727,78.11310577392578,-1.150305823037544,6.5778271903721315,-149.0027247276893,1.5636308,-0.0730597,36.115883,6.052123,-14.392919,0.50510865,-32.404583,-2.7998357,-22.345446,30.57182,-1.2181071,-1.5053931,-13.609128,-2.0899327,9.546749,-2.1985683,23.553772,-36.42176,60.46092,3.4371562,-2.0804467,-5.430784,6.1235037,-13.3076725,19.91727,53.643066,16.294333,7.877933,3.6897986
49,9.636516571044922,22.197208404541016,78.19994354248047,-1.2030620103228946,6.667068455282003,-149.14609794860272,1.2111691,0.24082266,36.220257,6.0779123,-14.090629,0.5258865,-32.23964,-3.7063336,-22.683388,31.230202,-2.06314,-2.141764,-13.448825,-1.9973024,9.430799,-1.857284,23.639566,-36.425472,60.40877,4.0993423,-2.1251054,-5.661094,6.147586,-13.331608,19.735846,53.83881,16.31939,7.903229,3.75547
50,9.74334716796875,22.55970001220703,78.28008270263672,-1.2374461095537628,6.751535135496617,-149.28675417134454,0.86860406,0.5361749,36.317097,6.105055,-13.793432,0.57385397,-32.08808,-4.551297,-22.791283,31.88063,-2.8452785,-2.6052165,-13.283112,-1.9254655,9.316034,-1.51865,23.727068,-36.391438,60.334774,4.5985394,-2.2022645,-5.854622,6.15612,-13.361069,19.56447,54.046616,16.214628,7.911289,3.8750422
51,9.847013473510742,22.918994903564453,78.34888458251953,-1.2578331969089462,6.825897104292937,-149.42891398265675,0.54423463,0.81646436,36.416206,6.133803,-13.50536,0.61620724,-31.950134,-5.344588,-22.70181,32.534374,-3.5620162,-2.9512918,-13.109448,-1.8726364,9.219207,-1.1538645,23.853003,-36.32406,60.18534,4.9105964,-2.291603,-6.0054035,6.163645,-13.407447,19.402147,54.227547,16.031597,7.907332,4.013301
52,9.946579933166504,23.276365280151367,78.41133880615234,-1.2679142836857642,6.884104260985781,-149.5768428916713,0.24930221,1.0830652,36.527534,6.156992,-13.225622,0.6204076,-31.823128,-6.095219,-22.44585,33.200203,-4.212432,-3.2337666,-12.925871,-1.834956,9.133449,-0.7938068,23.973793,-36.243935,60.02574,5.019713,-2.3774824,-6.095464,6.1624722,-13.457568,19.257504,54.397217,15.81966,7.8913703,4.122738
53,10.032822608947754,23.638877868652344,78.47334289550781,-1.2657651827305707,6.920070019798239,-149.73141917903789,-0.007823241,1.3327079,36.65519,6.175189,-12.957824,0.5701737,-31.718359,-6.782186,-21.962343,33.895454,-4.7842827,-3.4419146,-12.720093,-1.8159163,9.065159,-0.44879448,24.089144,-36.179646,59.85776,4.8672047,-2.4594164,-6.103682,6.163484,-13.513828,19.107424,54.54304,15.547239,7.8584003,4.214744
54,10.127490997314453,23.97601318359375,78.52377319335938,-1.250345325944263,6.938248235395912,-149.89083333010169,-0.23346503,1.5657899,36.79427,6.1882086,-12.699026,0.485633,-31.632647,-7.402826,-21.260143,34.61073,-5.2791543,-3.5577161,-12.49545,-1.814029,9.0103035,-0.11705057,24.198566,-36.118706,59.680325,4.481574,-2.5450423,-6.0431175,6.1675873,-13.575896,18.953617,54.668896,15.199445,7.8090463,4.30448
55,10.219597816467285,24.318584442138672,78.57006072998047,-1.2273615051071434,6.948591513140084,-150.0553482080692,-0.44180804,1.7906983,36.940132,6.1998653,-12.44634,0.38926825,-31.541054,-7.9951115,-20.474226,35.313206,-5.717646,-3.6229305,-12.260445,-1.818434,8.962032,0.21048877,24.30068,-36.02437,59.493343,3.971319,-2.6294463,-5.9534655,6.1609974,-13.644921,18.828016,54.787766,14.857883,7.755659,4.358434
56,10.302523612976074,24.66343116760254,78.61207580566406,-1.2029618218429814,6.961010915760887,-150.22509690926543,-0.64667946,2.0161064,37.087208,6.210887,-12.193986,0.30050197,-31.418934,-8.60126,-19.738966,35.969193,-6.1203356,-3.6791942,-12.026791,-1.8178654,8.912956,0.545576,24.393898,-35.85526,59.29593,3.4467862,-2.707015,-5.8742485,6.1321235,-13.72358,18.762468,54.909935,14.60031,7.711656,4.3432636
57,10.376216888427734,25.00983428955078,78.65553283691406,-1.1811525280682222,6.983422962063167,-150.40339623955057,-0.85549635,2.2461998,37.237404,6.220603,-11.943283,0.22436346,-31.272886,-9.212004,-19.043427,36.573475,-6.4715304,-3.7164197,-11.796065,-1.8041188,8.858911,0.8983201,24.476122,-35.578133,59.074883,2.9240372,-2.7722938,-5.8250074,6.07256,-13.814467,18.777369,55.03908,14.451159,7.6871085,4.234278
58,10.441346168518066,25.352495193481445,78.69780731201172,-1.1579336676321785,7.008921076823301,-150.5894374247999,-1.0608853,2.4773755,37.392864,6.232309,-11.698032,0.14959869,-31.110905,-9.812188,-18.332506,37.143032,-6.767861,-3.7191381,-11.56681,-1.784303,8.804529,1.2649804,24.547295,-35.21605,58.83268,2.3507726,-2.8297837,-5.781967,5.9857025,-13.91934,18.858377,55.171413,14.370548,7.673407,4.0546227
59,10.510669708251953,25.67938232421875,78.73668670654297,-1.127451337209764,7.02563845947747,-150.7765521259181,-1.2501519,2.7010896,37.549545,6.2408166,-11.451508,0.07625785,-30.915388,-10.440567,-17.673494,37.682625,-7.0507793,-3.7220592,-11.343812,-1.7684388,8.755994,1.6366824,24.608572,-34.81453,58.589695,1.7342871,-2.888466,-5.7196,5.888169,-14.034716,18.978876,55.29557,14.336423,7.6559305,3.8436892
60,10.58340835571289,26.009464263916016,78.77316284179688,-1.0830543139011535,7.0218624980169695,-150.95816039080353,-1.4135382,2.9115062,37.7036,6.249816,-11.201721,0.004239257,-30.671785,-11.138476,-17.132637,38.20145,-7.36359,-3.7601645,-11.12995,-1.7679263,8.719248,2.0032904,24.661871,-34.420277,58.36749,1.0824517,-2.9577148,-5.612257,5.7954383,-14.15405,19.110064,55.402225,14.325423,7.620008,3.6407702
61,10.649599075317383,26.352474212646484,78.8019027709961,-1.0082794434660138,6.987864254346095,-151.1316906154615,-1.5762258,3.1172903,37.85568,6.3578277,-11.001915,-0.064801134,-30.378956,-11.940242,-16.72002,38.7286,-7.7398596,-3.85315,-10.92015,-1.8033065,8.70061,2.3570888,24.709236,-34.046738,58.17328,0.36796817,-3.0482152,-5.440982,5.702248,-14.273718,19.263323,55.503017,14.369027,7.5540366,3.437197
62,10.712552070617676,26.693218231201172,78.82966613769531,-0.918802466115863,6.932217609497202,-151.30077644774954,-1.7155491,3.3116376,38.007023,6.477272,-10.80535,-0.13153222,-30.043453,-12.813207,-16.409029,39.250465,-8.149986,-3.9795127,-10.712405,-1.8567318,8.696315,2.7027287,24.751024,-33.67271,57.99678,-0.40496618,-3.1537251,-5.223811,5.605069,-14.393737,19.442818,55.599583,14.462648,7.4672694,3.218174
63,10.762720108032227,27.0357608795166,78.8497543334961,-0.8271478416382048,6.87006675799161,-151.4691662924139,-1.8453375,3.5084603,38.156235,6.605958,-10.613525,-0.19861977,-29.676123,-13.727269,-16.185032,39.73155,-8.548779,-4.1073985,-10.511085,-1.9125506,8.692646,3.0468428,24.786716,-33.2927,57.83468,-1.1782615,-3.2583857,-4.990162,5.5118055,-14.511458,19.616503,55.677353,14.540389,7.3771057,3.012727
64,10.819560050964355,27.354434967041016,78.86588287353516,-0.7396936914368881,6.816584842930079,-151.64039497023103,-1.9747647,3.711291,38.30309,6.7235403,-10.4160795,-0.2684877,-29.281559,-14.655029,-16.03191,40.123478,-8.884396,-4.2050114,-10.318661,-1.9622715,8.673929,3.391891,24.815014,-32.90595,57.687256,-1.8959488,-3.3451145,-4.7684445,5.4295464,-14.624143,19.74949,55.724308,14.535546,7.3010764,2.8495994
65,10.861050605773926,27.680709838867188,78.88115692138672,-0.6574521453029392,6.771984227307863,-151.81350675306928,-2.1057887,3.92272,38.445553,6.8353486,-10.21435,-0.34254926,-28.849676,-15.599808,-15.960971,40.41836,-9.150402,-4.267377,-10.135942,-2.0049622,8.639561,3.7354584,24.834003,-32.517426,57.55722,-2.5736418,-3.407079,-4.552555,5.361429,-14.7304,19.831858,55.732853,14.407587,7.2414975,2.727681
66,10.889753341674805,28.01865005493164,78.89710235595703,-0.5776287574212098,6.729328845900033,-151.98716155946988,-2.229243,4.137281,38.58483,6.936012,-10.008498,-0.419773,-28.378016,-16.57216,-15.979258,40.637627,-9.370186,-4.3099804,-9.957616,-2.045676,8.595378,4.0713243,24.842321,-32.130867,57.450153,-3.231227,-3.4541054,-4.3305,5.3038044,-14.826875,19.877024,55.714542,14.19689,7.1894765,2.6338038
67,10.91865348815918,28.357759475708008,78.91082000732422,-0.49534352834088385,6.6942256800158395,-152.16414195791285,-2.3509204,4.3510256,38.724976,7.026871,-9.797884,-0.49853125,-27.892267,-17.56174,-16.058247,40.792667,-9.543962,-4.3314576,-9.78774,-2.0869994,8.536576,4.4085584,24.842482,-31.731995,57.35754,-3.819677,-3.4924724,-4.1234016,5.252292,-14.921075,19.897806,55.67673,13.963995,7.1473956,2.5795429
68,10.943036079406738,28.70795440673828,78.92061614990234,-0.40782733957058015,6.671847325796053,-152.34730820965677,-2.4740305,4.55981,38.87007,7.103754,-9.582048,-0.57690924,-27.415123,-18.55519,-16.170214,40.888844,-9.66885,-4.330962,-9.61808,-2.1334713,8.45614,4.7426715,24.836174,-31.322992,57.284115,-4.29295,-3.5277014,-3.9510167,5.208533,-15.0068245,19.88938,55.631092,13.759012,7.115658,2.5753706
69,10.962545394897461,29.057369232177734,78.92521667480469,-0.3130422137430061,6.667948743544904,-152.53598791312575,-2.6046958,4.760819,39.018036,7.167286,-9.3602915,-0.6517166,-26.949045,-19.562302,-16.327505,40.92688,-9.744121,-4.3096657,-9.43863,-2.191033,8.341869,5.067625,24.826134,-30.910748,57.244793,-4.628087,-3.56584,-3.8168905,5.1763043,-15.0694065,19.834646,55.585598,13.569938,7.0963707,2.6390371
70,10.968955993652344,29.40542984008789,78.92992401123047,-0.2132867216192869,6.6783256447526655,-152.72958324028588,-2.7406003,4.957672,39.167984,7.2211514,-9.13427,-0.72434944,-26.482395,-20.584373,-16.539093,40.905468,-9.770868,-4.2672224,-9.283857,-2.2509172,8.20592,5.4209523,24.811892,-30.449207,57.201916,-4.8418975,-3.6007676,-3.714231,5.1437526,-15.138526,19.772007,55.52395,13.388952,7.0905895,2.7619827
71,10.968878746032715,29.748291015625,78.93269348144531,-0.11223896782394824,6.693666080943853,-152.930197718614,-2.87091,5.155547,39.32484,7.2627935,-8.904211,-0.7997417,-26.018684,-21.595385,-16.771807,40.829033,-9.750123,-4.201591,-9.108196,-2.31776,8.059253,5.7435746,24.797222,-30.022385,57.186203,-4.993772,-3.6199586,-3.634926,5.124238,-15.18414,19.66546,55.45707,13.232316,7.08747,2.9070058
72,10.964548110961914,30.09589385986328,78.93510437011719,-0.01490741903170574,6.704634197445622,-153.14020334071859,-2.9958317,5.3699975,39.492256,7.3175955,-8.685185,-0.8836067,-25.561867,-22.56726,-16.99273,40.70081,-9.682713,-4.110955,-8.958414,-2.3802004,7.9280667,6.0792227,24.779358,-29.56973,57.143833,-5.099224,-3.6111534,-3.5809143,5.079014,-15.240036,19.586155,55.390835,13.155316,7.082908,3.041364
73,10.960515022277832,30.459360122680664,78.935302734375,0.07771453756292694,6.709240896869119,-153.36310286562184,-3.1016145,5.594977,39.677338,7.3599315,-8.468494,-0.97664356,-25.109339,-23.503792,-17.210367,40.518944,-9.573372,-3.994069,-8.797788,-2.4404233,7.8095756,6.391016,24.760752,-29.14418,57.096516,-5.1551747,-3.5582502,-3.556125,5.0336747,-15.289454,19.486536,55.316116,13.164869,7.077949,3.1739461
74,10.958317756652832,30.812042236328125,78.9323501586914,0.16702390042230655,6.712142680554365,-153.59690916899254,-3.2002316,5.8328357,39.875576,7.406647,-8.260613,-1.0765547,-24.66127,-24.413662,-17.436287,40.284927,-9.4206505,-3.8526003,-8.61194,-2.5045118,7.692011,6.666882,24.745518,-28.763807,57.06469,-5.15883,-3.4717195,-3.5573525,4.9894395,-15.318937,19.352484,55.24416,13.240638,7.0733576,3.314918
75,10.939847946166992,31.183067321777344,78.92852783203125,0.2555283032571723,6.715020111967018,-153.83571007965836,-3.4074914,6.1776557,40.06375,7.7660117,-8.212878,-1.1867138,-24.227507,-25.284359,-17.638527,40.006073,-9.216286,-3.6884334,-8.429345,-2.569899,7.579003,6.929806,24.731848,-28.400877,57.039223,-5.154184,-3.3797312,-3.571215,4.9405217,-15.3425455,19.225473,55.17194,13.354103,7.064501,3.4349523
76,10.925210952758789,31.553497314453125,78.91998291015625,0.34550235513735583,6.719145832208129,-154.07353160151206,-3.6374116,6.5486994,40.240997,8.191975,-8.188394,-1.3045862,-23.818201,-26.099588,-17.784967,39.689907,-8.952721,-3.5040028,-8.282606,-2.6335938,7.483568,7.2102485,24.716341,-28.004522,56.99762,-5.1705565,-3.3100193,-3.5872185,4.8674607,-15.374576,19.143478,55.09949,13.474012,7.047253,3.5087912
77,10.912398338317871,31.943374633789062,78.91146850585938,0.4365355027701117,6.724395383654002,-154.3116018836896,-3.874504,6.9325633,40.40802,8.641428,-8.162327,-1.4274262,-23.439632,-26.865719,-17.87325,39.341114,-8.597162,-3.3130212,-8.129757,-2.6983902,7.394681,7.4602795,24.702688,-27.656973,56.989147,-5.275548,-3.2753668,-3.5879302,4.7930446,-15.40525,19.090431,55.027412,13.619925,7.0203953,3.5160224
78,10.893709182739258,32.3233757019043,78.90044403076172,0.5272331248293852,6.7301828109303745,-154.55229138856782,-4.1157475,7.3301578,40.569824,9.110571,-8.137293,-1.5560936,-23.087727,-27.584606,-17.91557,38.957516,-8.165916,-3.1108894,-7.9641514,-2.7646475,7.3129473,7.6766295,24.692034,-27.355713,57.00887,-5.4314256,-3.2590191,-3.5843568,4.7218523,-15.428401,19.042322,54.95205,13.792328,6.9860086,3.4764707
79,10.867589950561523,32.694881439208984,78.88529205322266,0.617153175457718,6.738076647622802,-154.7916447765655,-4.361515,7.7416654,40.72449,9.596637,-8.113932,-1.6960515,-22.754538,-28.243464,-17.901287,38.530552,-7.7222514,-2.8719563,-7.805168,-2.8295722,7.2334995,7.8772593,24.684244,-27.07999,57.03484,-5.582709,-3.2456512,-3.5925243,4.649336,-15.446175,19.006542,54.87996,13.961554,6.939623,3.4105492
80,10.837372779846191,33.085636138916016,78.86785125732422,0.7058960827083656,6.749317600098491,-155.02524191487288,-4.609501,8.164285,40.870625,10.087821,-8.087784,-1.8525598,-22.431112,-28.826029,-17.821747,38.050438,-7.328644,-2.5706127,-7.6552467,-2.8915367,7.147417,8.057849,24.680298,-26.839584,57.064804,-5.6855783,-3.2201178,-3.6268835,4.5871196,-15.457349,18.972868,54.811768,14.093419,6.875771,3.3378305
81,10.794195175170898,33.489410400390625,78.84856414794922,0.7927260134461049,6.765251480715255,-155.25147743788952,-4.8626466,8.600103,41.005833,10.588386,-8.060967,-2.031076,-22.10646,-29.332127,-17.686104,37.4978,-6.9956703,-2.1753433,-7.5268536,-2.948542,7.054135,8.234218,24.680708,-26.615929,57.083233,-5.714639,-3.1788409,-3.704464,4.536509,-15.463081,18.948769,54.741287,14.177365,6.7860775,3.251484
82,10.753976821899414,33.894065856933594,78.82307434082031,0.8777317244904406,6.784931993049975,-155.4727478389049,-5.12164,9.050574,41.13161,11.103451,-8.035483,-2.2273536,-21.787153,-29.768114,-17.495419,36.882935,-6.69267,-1.7086657,-7.418771,-3.0029595,6.958061,8.409095,24.688166,-26.405794,57.09042,-5.697815,-3.129072,-3.8133647,4.485415,-15.462755,18.941633,54.67555,14.233456,6.6752157,3.1443686
83,10.708849906921387,34.300296783447266,78.7930908203125,0.9612684401230245,6.806238700202529,-155.69187987763092,-5.381048,9.51255,41.250797,11.624425,-8.007718,-2.433247,-21.48817,-30.133059,-17.228949,36.23576,-6.419736,-1.225767,-7.319711,-3.0575519,6.8615866,8.570605,24.704334,-26.220192,57.095684,-5.6595125,-3.0729969,-3.9275649,4.4335017,-15.453903,18.94001,54.619667,14.2666235,6.559829,3.0386717
84,10.657111167907715,34.71943283081055,78.7570571899414,1.044275463774153,6.827436246292202,-155.9115401462381,-5.6381564,9.984716,41.366806,12.147953,-7.9767027,-2.6399412,-21.228603,-30.428345,-16.86377,35.594154,-6.179713,-0.78175825,-7.191003,-3.1033945,6.7536893,8.657426,24.709831,-26.137337,57.162865,-5.649166,-3.0150464,-4.012535,4.4171243,-15.448373,18.912628,54.561707,14.287366,6.457396,2.954869
85,10.597861289978027,35.14707565307617,78.72149658203125,1.1284930823663044,6.848748994178627,-156.13306629551101,-5.892322,10.46411,41.48154,12.671426,-7.941778,-2.8423839,-21.008007,-30.655558,-16.393072,34.949078,-5.9861655,-0.3843744,-7.1261725,-3.164111,6.67868,8.821514,24.738647,-25.931105,57.129547,-5.5665984,-2.9410205,-4.0882034,4.345038,-15.419558,18.894598,54.53008,14.239013,6.3660674,2.9081495
86,10.543600082397461,35.58265686035156,78.68250274658203,1.2134918099805387,6.871635230533658,-156.35505182941293,-6.1489897,10.955058,41.592564,13.206104,-7.9070125,-3.0459604,-20.817926,-30.815487,-15.829163,34.290047,-5.836118,-0.008343415,-7.0435762,-3.2197847,6.589999,8.928271,24.761404,-25.810936,57.143654,-5.496756,-2.8589344,-4.145044,4.2947707,-15.394194,18.869785,54.507355,14.175947,6.2772374,2.8736475
87,10.48746395111084,36.014408111572266,78.64141845703125,1.293248420993779,6.892524058704029,-156.57523716855664,-6.4008217,11.460154,41.69608,13.740374,-7.8676443,-3.257892,-20.652786,-30.904064,-15.184309,33.633984,-5.7050524,0.34011137,-6.977975,-3.273165,6.5088816,9.031438,24.79371,-25.695724,57.14674,-5.4217825,-2.7813988,-4.190631,4.2365584,-15.356397,18.85011,54.49452,14.103047,6.203966,2.857019
88,10.42505168914795,36.45014572143555,78.59590148925781,1.3627508378206332,6.908418228250223,-156.79135176820984,-6.646993,11.986654,41.787914,14.279749,-7.822504,-3.4853022,-20.508574,-30.916502,-14.470132,32.998165,-5.568233,0.6555649,-6.9247303,-3.3204808,6.4336753,9.122458,24.839882,-25.604885,57.14869,-5.369119,-2.7235866,-4.221746,4.1710477,-15.304072,18.843836,54.491825,14.055666,6.1580324,2.8562808
89,10.355878829956055,36.89986038208008,78.55245208740234,1.4177438442916697,6.91682658244135,-157.00404235029055,-6.888251,12.542454,41.86644,14.833466,-7.776659,-3.7351942,-20.386765,-30.85106,-13.6868305,32.392185,-5.4536324,0.89832157,-6.8835764,-3.3601837,6.367173,9.204257,24.909056,-25.546928,57.14696,-5.358557,-2.6911933,-4.232641,4.0940256,-15.230833,18.848406,54.502346,14.052788,6.149683,2.870742
90,10.28693962097168,37.35581970214844,78.50615692138672,1.4607571691517975,6.920012753894533,-157.2142637522219,-7.1256523,13.12309,41.93331,15.396187,-7.7279882,-4.001742,-20.28514,-30.708593,-12.831712,31.804596,-5.362638,1.0830672,-6.8498454,-3.366865,6.3078623,9.242985,24.952366,-25.532736,57.181522,-5.3715835,-2.679956,-4.221702,4.041264,-15.186355,18.852045,54.48407,14.078683,6.176309,2.907814
91,10.206520080566406,37.81338119506836,78.45610809326172,1.4998617524540676,6.921183207773969,-157.42002284991315,-7.359103,13.714819,41.98949,15.956103,-7.6693354,-4.2733555,-20.198572,-30.493702,-11.906137,31.228106,-5.233524,1.2878141,-6.822427,-3.3911536,6.25233,9.291098,25.040047,-25.527851,57.17948,-5.384334,-2.674536,-4.208228,3.966671,-15.101447,18.86876,54.50007,14.09792,6.210153,2.9585881
92,10.124862670898438,38.28507995605469,78.4007797241211,1.539176205006728,6.924589119800712,-157.61937240125846,-7.590689,14.308409,42.033905,16.503197,-7.594902,-4.5388126,-20.115456,-30.206171,-10.915943,30.644135,-5.0002174,1.5915982,-6.793853,-3.389951,6.1970906,9.285743,25.081648,-25.538109,57.215504,-5.352753,-2.6767712,-4.196614,3.9282837,-15.064043,18.896656,54.47805,14.097151,6.2455444,3.0353813
93,10.040003776550293,38.76253890991211,78.34324645996094,1.5808654482786755,6.9353502336227955,-157.8124899952338,-7.8288946,14.90492,42.06641,17.046558,-7.5065293,-4.790712,-20.079847,-29.825607,-9.779363,30.106558,-4.6669073,1.8750397,-6.7611337,-3.3987823,6.132315,9.266926,25.135065,-25.55633,57.2396,-5.2666163,-2.6839862,-4.20204,3.8901894,-15.020048,18.943174,54.471947,14.064941,6.2726974,3.1377223
94,9.946194648742676,39.245121002197266,78.28289031982422,1.6222699190491912,6.950219400236053,-158.00040138478053,-8.069529,15.507042,42.087322,17.584429,-7.4048433,-5.0368896,-20.076323,-29.357168,-8.522862,29.605345,-4.262057,2.144623,-6.7321367,-3.4340608,6.0640807,9.271765,25.247015,-25.573847,57.206955,-5.1521497,-2.6940207,-4.2205,3.8353443,-14.936224,19.009842,54.49805,14.009064,6.296619,3.2601626
95,9.851788520812988,39.733577728271484,78.2171630859375,1.6640578252908476,6.9589700347713865,-158.18238624334268,-8.293797,16.10429,42.098866,18.09158,-7.2818274,-5.288064,-20.00556,-28.844086,-7.3076806,29.023365,-3.7571588,2.6698089,-6.706586,-3.4589264,6.0085936,9.241276,25.338995,-25.59911,57.185608,-5.028387,-2.7049193,-4.2285504,3.7944767,-14.874577,19.090569,54.506313,13.943695,6.321449,3.394535
96,9.755997657775879,40.23131561279297,78.14580535888672,1.7099763553016358,6.951389420726683,-158.35757731039368,-8.481381,16.681921,42.10472,18.540237,-7.127356,-5.554614,-19.77379,-28.335009,-6.286447,28.241982,-3.1253247,3.7201226,-6.692866,-3.479266,5.9783835,9.182708,25.41335,-25.624641,57.163944,-4.9318147,-2.7054174,-4.2089705,3.7553146,-14.828977,19.19262,54.505898,13.873938,6.340892,3.5225961
97,9.656678199768066,40.736778259277344,78.07122802734375,1.7698180852442316,6.919531785427208,-158.5223850417158,-8.615159,17.21905,42.109634,18.903784,-6.9360423,-5.8409147,-19.286163,-27.833168,-5.4704766,27.082325,-2.1553447,5.673662,-6.7009807,-3.5220537,5.981025,9.123443,25.503048,-25.635616,57.10183,-4.871982,-2.68151,-4.1546836,3.6997886,-14.777626,19.335382,54.519035,13.821541,6.344385,3.6363256
98,9.54929256439209,41.2478141784668,77.9981918334961,1.8428753113872005,6.869868571057021,-158.6776892207047,-8.710221,17.72436,42.1116,19.205935,-6.7134647,-6.139847,-18.612297,-27.31576,-4.766692,25.64286,-0.9252012,8.286975,-6.725529,-3.5774844,6.0078673,9.048075,25.590176,-25.641214,57.02337,-4.829048,-2.6430967,-4.0747895,3.6383066,-14.732135,19.50829,54.536194,13.775253,6.3382363,3.7464802
99,9.453446388244629,41.758365631103516,77.9268569946289,1.9181329937506344,6.813291675851248,-158.82965938175087,-8.783308,18.217356,42.10769,19.461853,-6.4607816,-6.444573,-17.90246,-26.801245,-4.1927996,24.201923,0.15958099,10.891942,-6.7587614,-3.6356838,6.0499325,8.961513,25.679317,-25.641693,56.934063,-4.802356,-2.6084898,-3.9864295,3.571977,-14.689587,19.699965,54.54816,13.702465,6.33644,3.856673
100,9.355072021484375,42.27739715576172,77.86296844482422,1.981119445872484,6.761612209306781,-158.9844429650655,-8.854222,18.724333,42.092644,19.693735,-6.1814775,-6.748987,-17.315296,-26.315685,-3.7968247,23.051706,0.6934632,12.818355,-6.778898,-3.6699262,6.0977774,8.827232,25.741516,-25.659925,56.886227,-4.787301,-2.5993981,-3.9018312,3.5170019,-14.66427,19.87608,54.533474,13.562142,6.355064,3.974042
101,9.250094413757324,42.80912399291992,77.79869079589844,2.0287086688322478,6.713399148782819,-159.14385062006102,-8.923009,19.250526,42.06099,19.905012,-5.870436,-7.063647,-16.88893,-25.867987,-3.6293647,22.270296,0.49581718,13.877311,-6.810128,-3.7069297,6.1539116,8.730864,25.852617,-25.65426,56.783646,-4.7895317,-2.6184385,-3.839872,3.4417148,-14.62338,20.07821,54.514374,13.337204,6.3981566,4.103688
102,9.142812728881836,43.348575592041016,77.7307357788086,2.065608142336741,6.664410243428499,-159.30468010691894,-8.985544,19.787971,42.01438,20.09203,-5.5307837,-7.387674,-16.5529,-25.44093,-3.6658382,21.713236,-0.1896313,14.429074,-6.8239336,-3.7234254,6.2221,8.582558,25.94252,-25.67317,56.71782,-4.8020353,-2.661552,-3.7805758,3.3818052,-14.595632,20.260143,54.466785,13.0359335,6.4609227,4.248429
103,9.03161334991455,43.90336227416992,77.66095733642578,2.0895773973610257,6.622432308249443,-159.46663446978957,-9.051558,20.338793,41.959297,20.253477,-5.171106,-7.699675,-16.306034,-25.019573,-3.8487794,21.342228,-1.1330409,14.628517,-6.840314,-3.7303615,6.296818,8.432632,26.044132,-25.685225,56.634243,-4.840273,-2.7096841,-3.7175045,3.313766,-14.568791,20.453066,54.412956,12.719984,6.5268645,4.3805404
104,8.9204683303833,44.45689392089844,77.59195709228516,2.1090336523197952,6.593377627504958,-159.62568455942582,-9.124287,20.888369,41.904346,20.37923,-4.798336,-7.976052,-16.147379,-24.601467,-4.116607,21.125557,-2.1115537,14.63063,-6.863923,-3.7323446,6.3721027,8.275429,26.146523,-25.690506,56.541515,-4.914875,-2.748621,-3.6371515,3.232972,-14.54715,20.656591,54.362534,12.43865,6.5823264,4.475975
105,8.809635162353516,45.01974868774414,77.52580261230469,2.1178799551913885,6.57546141046127,-159.7871393510592,-9.201156,21.45402,41.859356,20.480453,-4.414028,-8.236003,-16.079502,-24.181606,-4.5237117,21.074183,-3.156205,14.363397,-6.8907037,-3.7227197,6.446205,8.105051,26.240099,-25.691286,56.453785,-5.042567,-2.7769287,-3.531833,3.1434212,-14.531476,20.879347,54.30996,12.180217,6.6273594,4.5226903
106,8.696542739868164,45.6023063659668,77.45555877685547,2.116448155236293,6.566665126716229,-159.95026405003313,-9.2766905,22.030409,41.818207,20.547762,-4.0131073,-8.483778,-16.108677,-23.75654,-5.0633187,21.205582,-4.358959,13.78176,-6.918655,-3.6985514,6.519768,7.9103684,26.317696,-25.694372,56.38382,-5.2116213,-2.8032494,-3.407365,3.0485458,-14.522788,21.11377,54.25377,11.922817,6.668439,4.5350537
107,8.583040237426758,46.184844970703125,77.3863754272461,2.096858874915877,6.575972372632425,-160.1087799774004,-9.377842,22.620905,41.75494,20.600245,-3.6110072,-8.679482,-16.238075,-23.307673,-5.603177,21.48477,-5.5725803,13.07031,-6.944847,-3.6439066,6.590546,7.676713,26.368471,-25.706535,56.337856,-5.3865533,-2.828192,-3.27041,2.9415524,-14.523289,21.334772,54.210434,11.706731,6.7026434,4.529253
108,8.475790023803711,46.777610778808594,77.31494903564453,2.0519482940283673,6.61251180450211,-160.25667776316425,-9.526768,23.223307,41.646294,20.642712,-3.2207637,-8.782874,-16.471016,-22.824137,-6.020034,21.878487,-6.6541467,12.414332,-6.988477,-3.5529876,6.657078,7.436896,26.412113,-25.704851,56.272285,-5.5370173,-2.8493605,-3.1332123,2.8037877,-14.532386,21.552586,54.19745,11.587709,6.72597,4.5184326
109,8.364825248718262,47.36857223510742,77.25834655761719,1.9749364245870462,6.687223302930165,-160.3900661237531,-9.738828,23.84829,41.498444,20.675669,-2.7955215,-8.794295,-16.81812,-22.295725,-6.2972975,22.380339,-7.565243,11.842944,-7.0547566,-3.4133298,6.7126503,7.184433,26.447802,-25.694443,56.189484,-5.6639013,-2.8658252,-2.9985702,2.6298876,-14.553794,21.752094,54.219044,11.603603,6.7380843,4.504606
110,8.26822566986084,47.95463943481445,77.21795654296875,1.8706284145686116,6.792352759100617,-160.51266867256325,-10.001836,24.493896,41.31766,20.69884,-2.346898,-8.731398,-17.278494,-21.73077,-6.5007668,23.007246,-8.376594,11.266359,-7.139295,-3.2313604,6.7630286,6.920782,26.475353,-25.674227,56.091164,-5.78164,-2.8784628,-2.862399,2.4303262,-14.593985,21.943956,54.25804,11.725365,6.7415276,4.4822025
111,8.178208351135254,48.543338775634766,77.18122863769531,1.7493881915320773,6.908800769770901,-160.62903567884064,-10.2996025,25.140942,41.07995,20.72263,-1.9778837,-8.58024,-17.824478,-21.13978,-6.6449275,23.746622,-9.106143,10.694986,-7.229737,-3.0209057,6.823952,6.649617,26.487455,-25.638144,55.975784,-5.875739,-2.888453,-2.7203705,2.2227976,-14.655888,22.137901,54.298607,11.88002,6.7372146,4.454833
112,8.095638275146484,49.140480041503906,77.14295959472656,1.6221786137066891,7.017516925877796,-160.7439145915451,-10.6165085,25.772007,40.76162,20.761217,-1.7931567,-8.327003,-18.423529,-20.535692,-6.7434616,24.586657,-9.777536,10.138196,-7.3128185,-2.8025362,6.907777,6.3723035,26.480352,-25.582771,55.8482,-5.93307,-2.897351,-2.5670898,2.0084262,-14.729116,22.352188,54.347466,12.001034,6.7241564,4.422808
113,8.010756492614746,49.74029541015625,77.10881042480469,1.4781614094871562,7.11360394834954,-160.86178157375642,-10.990547,26.40263,40.288116,20.87024,-1.8215226,-7.887741,-19.10707,-19.907774,-6.7770314,25.606106,-10.390356,9.600896,-7.411555,-2.5517101,7.03133,6.1161513,26.442047,-25.457312,55.68378,-5.923468,-2.9028287,-2.4071124,1.7805884,-14.847523,22.635637,54.386852,12.106925,6.694159,4.3940363
114,7.924215316772461,50.33607482910156,77.07775115966797,1.3150071392709903,7.207370972071024,-160.97931637822805,-11.417778,27.035353,39.692204,21.025406,-2.0070643,-7.2949586,-19.87075,-19.255714,-6.753873,26.78305,-10.939401,9.079875,-7.5125475,-2.2667592,7.1806946,5.8480825,26.369934,-25.298695,55.51327,-5.86416,-2.9057496,-2.2384555,1.5436107,-14.993937,22.947363,54.427143,12.211964,6.6495914,4.3650174
115,7.839968204498291,50.93351745605469,77.05207061767578,1.1556158024915593,7.302408161031264,-161.0896221140649,-11.81932,27.63701,39.112175,21.126778,-2.3254771,-6.710471,-20.628796,-18.606314,-6.726005,27.956457,-11.445548,8.569037,-7.618519,-1.9841769,7.328445,5.577409,26.274847,-25.135307,55.340336,-5.7954783,-2.9110327,-2.055562,1.3034614,-15.147132,23.26993,54.48058,12.291788,6.6109734,4.3215017
116,7.754446506500244,51.54250717163086,77.02957153320312,1.0260955528849205,7.402851535132764,-161.18526321341295,-12.102575,28.16526,38.69659,21.048662,-2.7477221,-6.2977514,-21.30287,-17.987495,-6.7395587,28.970293,-11.924623,8.063411,-7.740735,-1.7377211,7.449808,5.321505,26.162043,-24.982899,55.16098,-5.7543106,-2.924102,-1.8539442,1.0713928,-15.299833,23.59448,54.544712,12.327113,6.601083,4.2508564
117,7.65224027633667,52.150856018066406,77.01594543457031,0.9342378472516936,7.502426317423432,-161.2763734291711,-12.21184,28.603317,38.49855,20.72553,-3.2923214,-6.1391273,-21.875057,-17.40032,-6.7897305,29.79022,-12.378746,7.5578446,-7.8768563,-1.5452257,7.5452967,5.097724,26.036371,-24.83739,54.96647,-5.7523003,-2.9468927,-1.603885,0.84276026,-15.445228,23.935455,54.630917,12.306211,6.6251965,4.1505065
118,7.541701793670654,52.75543975830078,77.00563049316406,0.8687171189662306,7.60149454292346,-161.36276595859263,-12.1959095,28.96879,38.44541,20.217026,-3.9581077,-6.1373887,-22.387775,-16.837265,-6.8537593,30.498928,-12.800741,7.055413,-8.024593,-1.3923615,7.625314,4.8985634,25.899906,-24.689346,54.75495,-5.7693496,-2.9758654,-1.318178,0.6085436,-15.582152,24.296658,54.74318,12.243394,6.6710463,4.0260286
119,7.449601650238037,53.345542907714844,76.9981689453125,0.8274552251766809,7.713310956716917,-161.42133073362996,-12.123542,29.27456,38.496387,19.596731,-4.6930647,-6.1899986,-22.852331,-16.310862,-6.950336,31.103714,-13.18697,6.565146,-8.188834,-1.2646621,7.6797013,4.697383,25.752813,-24.554556,54.538666,-5.7954617,-3.0084653,-1.0551645,0.38330597,-15.712166,24.638067,54.861835,12.146901,6.7345524,3.8773074
120,7.354508399963379,53.940860748291016,76.99853515625,0.8086390384814935,7.851397259431724,-161.42843642318653,-12.06448,29.529907,38.607227,18.933876,-5.443365,-6.1946006,-23.283365,-15.835021,-7.097779,31.613712,-13.533489,6.096838,-8.370595,-1.1463882,7.6986585,4.4611077,25.593973,-24.456327,54.33461,-5.823985,-3.0422773,-0.87279063,0.17787726,-15.838987,24.922026,54.96961,12.033947,6.811707,3.7047875
121,7.273100852966309,54.51941680908203,77.00727844238281,0.821754452362508,8.033088875706122,-161.3709162188394,-12.018493,29.70608,38.796707,18.173756,-6.219015,-6.154739,-23.686707,-15.426912,-7.3072987,32.006603,-13.835828,5.6571045,-8.5683975,-1.0465447,7.669555,4.1823716,25.439713,-24.39658,54.14059,-5.8765316,-3.0847082,-0.8112179,0.000796442,-15.950755,25.11865,55.05497,11.879603,6.9112296,3.4926593
122,7.184576988220215,55.079139709472656,77.02239227294922,0.8662153923360809,8.24679622183963,-161.26336285471845,-11.943973,29.791157,39.085094,17.270485,-7.0226526,-6.1241856,-24.059067,-15.078667,-7.5640936,32.284863,-14.093537,5.2386465,-8.788867,-0.9528913,7.598578,3.860011,25.247349,-24.360975,53.981968,-5.9398203,-3.1380248,-0.8267934,-0.14894533,-16.078213,25.26506,55.116585,11.693563,7.0354037,3.2474194
123,7.094607353210449,55.63816452026367,77.05194091796875,0.9268499708833634,8.462701216339346,-161.12339910817462,-11.856133,29.824562,39.424255,16.327833,-7.8037086,-6.0727844,-24.402544,-14.768982,-7.8456264,32.50333,-14.315105,4.8315268,-9.013939,-0.8698805,7.511419,3.5171425,25.042841,-24.371391,53.822586,-5.984922,-3.1807716,-0.8653487,-0.27984968,-16.207056,25.372074,55.177658,11.509853,7.1617775,3.0009804
124,7.023812770843506,56.18397521972656,77.07991790771484,0.9891864106374351,8.651777434007359,-160.96816770736163,-11.770857,29.848728,39.76414,15.4537325,-8.518238,-5.9643345,-24.713058,-14.4751425,-8.132197,32.711666,-14.510009,4.4268713,-9.240166,-0.7947505,7.4321547,3.1774757,24.833,-24.43487,53.63657,-5.9756036,-3.1937103,-0.8708911,-0.39632362,-16.336441,25.463911,55.24989,11.363761,7.2699094,2.785357
125,6.9468865394592285,56.7079963684082,77.10874938964844,1.0508027561151616,8.815372298220568,-160.78712919031548,-11.710987,29.868036,40.05046,14.621337,-9.226434,-5.711691,-24.99424,-14.201739,-8.42938,32.93365,-14.687954,4.024982,-9.482546,-0.7137159,7.3518972,2.839694,24.594687,-24.549473,53.431797,-5.8879566,-3.152376,-0.83537984,-0.49873126,-16.48174,25.557129,55.340046,11.272017,7.35963,2.6148922
126,6.868913650512695,57.213531494140625,77.13220977783203,1.038589798529948,8.954398979707557,-160.59284584292476,-11.887041,30.13143,40.185577,14.349863,-10.215929,-5.3826327,-25.208908,-13.871568,-8.786288,33.119476,-14.840472,3.617529,-9.725143,-0.5544634,7.2883706,2.5028405,24.333347,-24.708733,53.206238,-5.7473183,-3.0717518,-0.7872575,-0.58790594,-16.642162,25.636045,55.44142,11.2108555,7.439947,2.4723878
127,6.798643112182617,57.70771026611328,77.16165924072266,1.0378212091931052,9.069783843681456,-160.39354723295523,-12.039205,30.376667,40.392963,14.185082,-11.07358,-5.10849,-25.372042,-13.556402,-9.146307,33.256794,-14.965523,3.2125075,-9.952643,-0.40934873,7.2369566,2.1496966,24.057135,-24.92448,52.979378,-5.578713,-2.9992194,-0.7189944,-0.6498801,-16.81382,25.681067,55.527386,11.170793,7.5060444,2.3392909
128,6.728721618652344,58.205135345458984,77.2105941772461,1.0833957994964867,9.155800925550329,-160.20731967646532,-12.036959,30.508957,40.820354,14.006216,-11.550527,-5.024713,-25.483189,-13.275293,-9.4771,33.325554,-15.057008,2.8118482,-10.139831,-0.32489228,7.207841,1.7692002,23.781893,-25.209291,52.759956,-5.4114046,-2.980755,-0.62395304,-0.6716154,-16.986845,25.666948,55.572285,11.136377,7.5529723,2.1978974
129,6.65270471572876,58.70770263671875,77.28378295898438,1.1894618609361367,9.203503638577656,-160.04599245877782,-11.80204,30.510935,41.64613,13.743189,-11.455895,-5.2698016,-25.534008,-13.032903,-9.762655,33.316532,-15.111905,2.416096,-10.2746935,-0.3305289,7.209828,1.3668917,23.520813,-25.576338,52.539604,-5.277761,-3.0325384,-0.47615075,-0.6522351,-17.152122,25.580206,55.57181,11.086376,7.5759354,2.0464988
130,6.581898212432861,59.217254638671875,77.37196350097656,1.3397517099337104,9.219081122324214,-159.8967617330023,-11.411176,30.419182,42.747425,13.458042,-10.951724,-5.722012,-25.52769,-12.822791,-10.021172,33.24301,-15.135198,2.024909,-10.370973,-0.4067827,7.2345233,0.9545234,23.276897,-26.016928,52.304005,-5.158201,-3.1272469,-0.288915,-0.6013734,-17.306509,25.434132,55.54323,11.0338745,7.577978,1.8930904
131,6.500858783721924,59.714393615722656,77.46502685546875,1.5182612652369392,9.217724927599086,-159.74234154105145,-10.979046,30.242144,43.816147,13.264381,-10.339173,-6.127801,-25.484745,-12.643118,-10.271866,33.12311,-15.133521,1.638089,-10.443015,-0.5232986,7.266865,0.53315204,23.049488,-26.505573,52.05198,-4.99965,-3.2455332,-0.11448147,-0.5226196,-17.45054,25.244677,55.495743,11.013327,7.564459,1.7342348
132,6.423962116241455,60.196590423583984,77.55706024169922,1.710832671579391,9.21533465268759,-159.56508141240866,-10.610241,29.992558,44.555664,13.261906,-9.917091,-6.2412963,-25.427357,-12.494052,-10.534321,32.976116,-15.113157,1.2555287,-10.506109,-0.6491382,7.2916074,0.10251763,22.835794,-27.016289,51.783577,-4.7485876,-3.3682292,-0.0046468186,-0.4199766,-17.587244,25.030312,55.438038,11.062119,7.541011,1.5666573
133,6.355907917022705,60.67009735107422,77.64363098144531,1.8316786427343468,9.20604081537775,-159.3690228834983,-10.631957,30.012205,44.632446,14.219372,-10.129238,-5.953784,-25.32493,-12.292955,-10.865567,32.774567,-15.060362,0.8603042,-10.552685,-0.694537,7.331657,-0.34081548,22.632353,-27.55081,51.486347,-4.3795843,-3.5010207,0.011501551,-0.28797564,-17.722572,24.776014,55.360035,11.171544,7.5093007,1.3741007
134,6.296948432922363,61.13324737548828,77.73133087158203,1.9365550547820243,9.18545786141353,-159.15961720034574,-10.781415,30.060932,44.35176,15.559443,-10.551532,-5.4097686,-25.190454,-12.090352,-11.222291,32.53522,-14.983247,0.46231917,-10.57964,-0.7224308,7.3820596,-0.7967832,22.438305,-28.118998,51.166336,-3.9237416,-3.6517677,-0.03280914,-0.119634695,-17.857073,24.4764,55.252884,11.326312,7.4664083,1.1636349
135,6.251553535461426,61.61769104003906,77.81684112548828,2.0474300484623438,9.152249584978625,-158.94881593824303,-10.881272,30.04087,44.02643,16.942366,-10.984947,-4.7914762,-25.032167,-11.8983755,-11.57532,32.267887,-14.890157,0.07273309,-10.586808,-0.7580267,7.4371357,-1.2555844,22.25096,-28.706154,50.84251,-3.415847,-3.8014073,-0.095294304,0.059235748,-17.991951,24.176653,55.1491,11.563127,7.4102554,0.97028863
136,6.2004265785217285,62.081993103027344,77.91112518310547,2.1588192668762263,9.103458549078292,-158.7516942530311,-10.8254595,29.965378,43.924946,18.23762,-11.338222,-4.2829022,-24.848661,-11.700878,-11.911158,31.972548,-14.786215,-0.30045393,-10.575259,-0.79906076,7.4968777,-1.703541,22.06605,-29.291002,50.531883,-2.888398,-3.9299774,-0.1342244,0.22153538,-18.130507,23.922785,55.082943,11.913853,7.338727,0.8290817
137,6.14302396774292,62.51384735107422,78.0143051147461,2.2690822929065115,9.036354618901878,-158.5609426618233,-10.603762,29.854755,44.095722,19.475271,-11.59864,-3.9393463,-24.627851,-11.497087,-12.238937,31.636906,-14.670481,-0.6542063,-10.549875,-0.84119165,7.56433,-2.1479826,21.880157,-29.879883,50.24952,-2.3070817,-4.0391374,-0.13777848,0.3680356,-18.27594,23.728615,55.057487,12.451374,7.240792,0.741237
138,6.085808277130127,62.964229583740234,78.1081314086914,2.3787031953564783,8.95410377101006,-158.37159019175013,-10.280796,29.718445,44.391666,20.748182,-11.837171,-3.6566842,-24.373545,-11.291725,-12.564149,31.262693,-14.539971,-0.9934704,-10.512051,-0.8822557,7.6375437,-2.5938563,21.692394,-30.477016,49.985817,-1.6670737,-4.137305,-0.12801085,0.5096498,-18.42912,23.57256,55.057137,13.137879,7.121225,0.6914654
139,6.038743019104004,63.418697357177734,78.20146942138672,2.4876358580778373,8.863718972178015,-158.20061314639153,-9.876823,29.566532,44.778786,22.054981,-12.112319,-3.3781033,-24.110067,-11.079961,-12.867447,30.8733,-14.39904,-1.3218285,-10.459081,-0.9244777,7.708481,-3.0224435,21.502975,-31.05703,49.718998,-1.0452614,-4.2143764,-0.11524434,0.6382651,-18.587158,23.44633,55.082993,13.839105,7.002488,0.689895
140,5.989085674285889,63.84218215942383,78.29463195800781,2.5969552465986068,8.772100656283373,-158.0657287498414,-9.400785,29.392494,45.23077,23.359303,-12.4675455,-3.0491283,-23.861794,-10.857701,-13.128883,30.493153,-14.25182,-1.6429291,-10.390681,-0.971732,7.7686515,-3.4120278,21.313747,-31.591805,49.42524,-0.517813,-4.2601013,-0.110453114,0.74831176,-18.744257,23.338295,55.134827,14.414096,6.9079566,0.74505025
141,5.932640075683594,64.26657104492188,78.38581848144531,2.705416814730659,8.676901237619258,-157.97742619293209,-8.845871,29.211676,45.772842,24.698353,-12.941339,-2.6380847,-23.626604,-10.618876,-13.339545,30.118408,-14.09393,-1.9571112,-10.300771,-1.0262779,7.8188663,-3.75987,21.12751,-32.07656,49.104904,-0.12116275,-4.274602,-0.12553267,0.8300536,-18.89666,23.252464,55.23144,14.86224,6.837704,0.88599944
142,5.876715183258057,64.68171691894531,78.46723175048828,2.8127652325931574,8.576074853801519,-157.92469324971532,-8.208057,29.011719,46.405598,26.06418,-13.496461,-2.1793895,-23.391596,-10.366506,-13.5120945,29.734118,-13.921746,-2.2628262,-10.192598,-1.0870075,7.8627825,-4.074255,20.946098,-32.52354,48.765984,0.19142178,-4.2622786,-0.15240894,0.8842839,-19.043873,23.194252,55.37232,15.246218,6.7822924,1.097979
143,5.8280439376831055,65.09931182861328,78.54130554199219,2.9176586658732035,8.475715385612775,-157.89300921041783,-7.521004,28.761112,47.05608,27.396788,-14.075162,-1.7268159,-23.171913,-10.108832,-13.65866,29.366213,-13.752318,-2.5608609,-10.079158,-1.1496906,7.897475,-4.352734,20.770132,-32.933437,48.398537,0.4656525,-4.2195683,-0.1724087,0.9205567,-19.18488,23.155912,55.52833,15.522026,6.748975,1.3226873
144,5.787513256072998,65.51203918457031,78.61157989501953,3.0181990087959574,8.381556186370194,-157.86760909746812,-6.8223376,28.432072,47.65096,28.641933,-14.6161375,-1.3343469,-22.97945,-9.85287,-13.792404,29.033325,-13.598653,-2.8519733,-9.97323,-1.2099593,7.9198847,-4.5916634,20.599363,-33.305676,47.992157,0.7491545,-4.1429114,-0.16667698,0.94542086,-19.319174,23.131292,55.673145,15.647431,6.7438755,1.5018708
145,5.748555660247803,65.91839599609375,78.67585754394531,3.1166623482256286,8.295368228030947,-157.8568924397763,-6.1013904,28.030695,48.231056,29.807812,-15.119555,-1.0067089,-22.818699,-9.596896,-13.904851,28.73774,-13.462332,-3.131484,-9.868689,-1.27516,7.9272323,-4.7824006,20.439476,-33.63544,47.529175,1.0848923,-4.0079293,-0.117854334,0.9533414,-19.441849,23.132568,55.810833,15.572125,6.776737,1.6318207
146,5.713147163391113,66.31330871582031,78.72716522216797,3.211204811587208,8.213918650365452,-157.86437282266303,-5.3542023,27.566944,48.81021,30.922482,-15.61339,-0.72001296,-22.679857,-9.336174,-13.99494,28.466375,-13.335404,-3.4004784,-9.757734,-1.338763,7.9213347,-4.939514,20.277033,-33.93013,47.033142,1.4387022,-3.8247094,-0.039429598,0.95073354,-19.56322,23.1532,55.944717,15.331719,6.8411355,1.7406491
147,5.678116321563721,66.69445037841797,78.7704849243164,3.297327502430596,8.136382082825902,-157.86828150897023,-4.6311417,27.021261,49.279266,31.967066,-16.083284,-0.48700896,-22.563408,-9.077371,-14.083394,28.231186,-13.222676,-3.6684313,-9.665138,-1.3916682,7.907317,-5.0631547,20.121119,-34.191734,46.514458,1.7360759,-3.6388664,0.037230004,0.9391428,-19.676626,23.17457,56.06962,15.009227,6.917154,1.8146524
148,5.625295639038086,67.06593322753906,78.80879211425781,3.370646242074743,8.06157185115143,-157.8468855552905,-3.984117,26.377184,49.530216,32.92591,-16.515783,-0.32116884,-22.464453,-8.826318,-14.192075,28.034376,-13.129574,-3.9450786,-9.612678,-1.4263538,7.8908105,-5.1547127,19.983936,-34.425926,45.981873,1.9023983,-3.4961421,0.08198004,0.9168222,-19.775002,23.177967,56.183575,14.69175,6.9852266,1.8399026
149,5.608145713806152,67.44391632080078,78.83521270751953,3.4328622455370494,7.985453995351341,-157.80011217999862,-3.411248,25.628777,49.555164,33.803158,-16.925095,-0.21849306,-22.380785,-8.586613,-14.319431,27.882944,-13.059109,-4.229983,-9.60418,-1.4406915,7.8739934,-5.207126,19.862507,-34.62241,45.424496,1.9006087,-3.4055269,0.0911151,0.8957404,-19.860144,23.150139,56.271503,14.335173,7.055165,1.8047484
150,5.581423282623291,67.80592346191406,78.85176849365234,3.4856697689220053,7.9098242814604465,-157.73706827081062,-2.8970585,24.786,49.405087,34.610348,-17.31034,-0.175889,-22.311735,-8.3536415,-14.456991,27.765814,-13.005073,-4.5191617,-9.631181,-1.4443653,7.854619,-5.213925,19.765856,-34.779514,44.8293,1.7752744,-3.3430839,0.07901336,0.8555948,-19.927973,23.113874,56.355526,13.922409,7.131673,1.7183003
151,5.563213348388672,68.1619644165039,78.85945892333984,3.5241384485337783,7.843040759634755,-157.65034896887724,-2.4614754,23.857485,49.075634,35.332684,-17.64272,-0.21171601,-22.265327,-8.124183,-14.615074,27.681416,-12.965671,-4.816626,-9.666035,-1.4086462,7.8255205,-5.2523108,19.629173,-34.95656,44.300053,1.577974,-3.3114176,0.05144335,0.8608862,-20.021873,23.029911,56.380924,13.546698,7.1973915,1.6075355
152,5.531574726104736,68.50527954101562,78.8623275756836,3.546077433454839,7.79276616815377,-157.53217176899054,-2.1222262,22.846716,48.560238,35.950397,-17.890327,-0.3418402,-22.24741,-7.896039,-14.803007,27.622475,-12.935873,-5.126401,-9.732422,-1.3555458,7.783492,-5.2909408,19.511642,-35.146698,43.807777,1.3564907,-3.305053,0.0010856027,0.86895883,-20.10128,22.928925,56.39703,13.303268,7.222841,1.4856225
153,5.511214733123779,68.8386459350586,78.85765075683594,3.5449995119937,7.773573124056778,-157.37051617352958,-1.9220104,21.752295,47.803944,36.476315,-18.049013,-0.57705504,-22.276262,-7.6665354,-15.030646,27.5901,-12.909168,-5.4557414,-9.830304,-1.2722237,7.721156,-5.34671,19.407913,-35.36398,43.36153,1.0959738,-3.337662,-0.07703627,0.8896958,-20.170683,22.796879,56.38676,13.220469,7.1971755,1.3397194
154,5.484636306762695,69.17139434814453,78.8461685180664,3.524627074510458,7.7769407355497435,-157.1725168050061,-1.8309901,20.573812,46.840336,36.921707,-18.142126,-0.9099509,-22.343662,-7.4384727,-15.290667,27.589417,-12.891834,-5.800719,-9.960238,-1.1641077,7.643666,-5.4032683,19.321098,-35.592136,42.94078,0.77972263,-3.404922,-0.18120345,0.9175455,-20.228048,22.638021,56.35435,13.24524,7.13429,1.1652405
155,5.511003017425537,69.54491424560547,78.8145523071289,3.4959367026683537,7.777217763685809,-156.95890414089078,-1.7570509,19.313332,45.78538,37.248016,-18.1688,-1.3222882,-22.407825,-7.2133427,-15.568478,27.597666,-12.885149,-6.1487913,-10.126225,-1.0560308,7.565933,-5.4271846,19.270554,-35.808167,42.52866,0.45013037,-3.4778285,-0.30318567,0.92846864,-20.261469,22.490013,56.337616,13.358504,7.046312,0.9934357
156,5.523238658905029,69.89280700683594,78.78887176513672,3.468020424884583,7.74863778155234,-156.75045358669982,-1.6106849,17.976482,44.748394,37.4142,-18.126905,-1.7930315,-22.427404,-6.9915633,-15.849646,27.594032,-12.891252,-6.4869328,-10.248318,-0.9515994,7.505783,-5.4864,19.21162,-36.09603,42.19809,0.1343782,-3.5308495,-0.42006254,1.0027372,-20.29953,22.28013,56.28776,13.52454,6.9519434,0.86814517
157,5.500869274139404,70.21794891357422,78.767822265625,3.4432102751729126,7.674969688455715,-156.55693584851434,-1.3513293,16.545113,43.728565,37.384777,-18.009035,-2.3161237,-22.373903,-6.7713184,-16.128834,27.565172,-12.915615,-6.8094916,-10.352405,-0.8595655,7.468994,-5.543261,19.153194,-36.41728,41.933735,-0.16377637,-3.55577,-0.5370325,1.1034547,-20.335722,22.052807,56.241337,13.777339,6.841779,0.79273486
158,5.457845211029053,70.5211410522461,78.74702453613281,3.4142315832765835,7.573209643853606,-156.36587276088554,-1.0248767,15.027775,42.67503,37.186634,-17.822994,-2.8993936,-22.276522,-6.5512676,-16.41485,27.527554,-12.956988,-7.1241455,-10.41671,-0.76151896,7.446451,-5.6400113,19.071466,-36.809505,41.764084,-0.46632868,-3.568729,-0.65398866,1.2797538,-20.381197,21.752144,56.14878,14.100832,6.7144723,0.75490856
159,5.449315071105957,70.84667205810547,78.71990966796875,3.3774390071870553,7.466969420580794,-156.16439740648818,-0.6698027,13.469087,41.61655,36.861034,-17.579964,-3.541205,-22.1733,-6.3308454,-16.713938,27.489008,-12.998558,-7.4379535,-10.501605,-0.6572414,7.425689,-5.7331014,18.993927,-37.19906,41.640305,-0.7352254,-3.5760784,-0.7737713,1.439537,-20.418198,21.47426,56.078976,14.4777975,6.5867324,0.7429978
160,5.445553779602051,71.17631530761719,78.68341064453125,3.3292267365742796,7.379952080580867,-155.93994773097964,-0.3276692,11.916896,40.581806,36.456665,-17.293663,-4.2414255,-22.10542,-6.1102295,-17.032574,27.465174,-13.028041,-7.7585444,-10.60577,-0.5403415,7.397119,-5.8395367,18.925026,-37.59181,41.55623,-0.94941044,-3.5849547,-0.89001834,1.5957961,-20.441553,21.204086,56.01373,14.843228,6.479615,0.7544497
161,5.440990447998047,71.50578308105469,78.64991760253906,3.266857846121463,7.322217856893761,-155.68668759926666,-0.011459033,10.3710165,39.554977,35.967007,-16.960434,-5.0227213,-22.090239,-5.8898854,-17.374855,27.466387,-13.042644,-8.089682,-10.724367,-0.40457904,7.355741,-5.9744234,18.860245,-38.002686,41.52445,-1.1172736,-3.6019454,-1.0010175,1.7325709,-20.45121,20.934767,55.968708,15.219994,6.3968267,0.7982723
162,5.434059143066406,71.82861328125,78.61431884765625,3.19187369810863,7.2797189128368744,-155.41214144099277,0.30876496,8.816291,38.523575,35.371,-16.576582,-5.875876,-22.103588,-5.6685905,-17.737638,27.48253,-13.049246,-8.427332,-10.864306,-0.25531393,7.306874,-6.117676,18.805643,-38.419807,41.535904,-1.2460986,-3.6215205,-1.1107891,1.8638625,-20.44482,20.665493,55.93368,15.613105,6.3284736,0.8723259
163,5.426279544830322,72.14580535888672,78.57647705078125,3.1075398992022585,7.240900315223379,-155.123249551451,0.6517569,7.27787,37.52127,34.698143,-16.154266,-6.7542725,-22.122791,-5.444862,-18.116562,27.494682,-13.04798,-8.766926,-10.998764,-0.10230223,7.2615604,-6.2821693,18.755423,-38.8571,41.593304,-1.3172059,-3.6338973,-1.2151929,1.9981719,-20.423643,20.404118,55.90346,15.992448,6.2730055,0.9581594
164,5.461641311645508,72.47901916503906,78.52703857421875,3.017384672382519,7.194212129712077,-154.82692501968677,1.0337839,5.779033,36.58153,33.976776,-15.703036,-7.6114635,-22.125471,-5.217509,-18.507324,27.483936,-13.0392,-9.103903,-11.127563,0.045715123,7.229462,-6.454523,18.712904,-39.295784,41.678894,-1.3059106,-3.6292918,-1.3139492,2.1363585,-20.391104,20.181316,55.872375,16.323877,6.2289586,1.0356212
165,5.548904895782471,72.84846496582031,78.46328735351562,2.927631696042642,7.122340154865259,-154.53508483151663,1.4968348,4.29585,35.71413,33.157623,-15.191071,-8.454942,-22.089699,-4.9879117,-18.89869,27.450138,-13.029341,-9.4341755,-11.260091,0.18038608,7.2265735,-6.609829,18.686508,-39.709427,41.77366,-1.1764477,-3.5978608,-1.4118841,2.2587993,-20.360275,20.034605,55.84861,16.633425,6.1998734,1.1015732
166,5.588055610656738,73.19170379638672,78.41268920898438,2.8330798373107657,7.036507928578065,-154.24050755183515,2.021905,2.8285146,34.892406,32.238213,-14.618265,-9.302307,-22.032162,-4.7545857,-19.297268,27.400255,-13.015309,-9.761289,-11.321185,0.30265045,7.23943,-6.834839,18.646088,-40.21332,41.9542,-0.973145,-3.5479968,-1.4947275,2.4437883,-20.30176,19.836124,55.793934,16.891191,6.1843915,1.1695759
167,5.541454792022705,73.47962951660156,78.38143920898438,2.7216689805047953,6.967235389565146,-153.9209891074322,2.5274823,1.4358237,34.09961,31.325861,-14.043646,-10.123447,-21.989777,-4.512007,-19.724253,27.327644,-12.984038,-10.091629,-11.427152,0.44391277,7.2471256,-7.041545,18.616232,-40.670708,42.141212,-0.7169315,-3.4965458,-1.5769452,2.5921016,-20.24522,19.71631,55.76197,17.109892,6.1764994,1.2329051
168,5.536683559417725,73.78372192382812,78.34374237060547,2.583867401197944,6.945047381770244,-153.55537180045945,2.9304557,0.17253518,33.326458,30.529707,-13.527331,-10.888712,-21.996607,-4.2562914,-20.199087,27.221968,-12.920626,-10.431339,-11.53897,0.61331445,7.2254653,-7.287284,18.58544,-41.151623,42.36738,-0.47692966,-3.4596505,-1.6464994,2.7324147,-20.166832,19.603968,55.74492,17.241642,6.16756,1.2921972
169,5.575605392456055,74.11991119384766,78.28892517089844,2.4124797221513994,6.999613355920945,-153.11651285969324,3.1650522,-0.9460015,32.5506,29.896475,-13.08709,-11.624671,-22.092388,-3.9923103,-20.74717,27.091133,-12.824302,-10.783194,-11.708693,0.83291763,7.155978,-7.554841,18.564463,-41.61977,42.61154,-0.25116348,-3.448951,-1.7098413,2.8384836,-20.079735,19.541359,55.74925,17.273008,6.156372,1.336534
170,5.701048851013184,74.50579071044922,78.21305847167969,2.217488012161518,7.107466626329022,-152.62385007568264,3.2878036,-1.9544327,31.790335,29.36404,-12.688162,-12.336703,-22.243767,-3.7200475,-21.349426,26.927586,-12.6971035,-11.143487,-11.9123745,1.0855334,7.0567713,-7.841856,18.554276,-42.086853,42.875446,-0.017288445,-3.4529068,-1.766488,2.9326382,-19.98173,19.510984,55.758606,17.215809,6.1470256,1.3708357
171,5.764490127563477,74.87273406982422,78.14832305908203,2.016587906849539,7.219305603787324,-152.12571170679948,3.389458,-2.8694048,31.101892,28.897997,-12.324243,-12.963312,-22.400955,-3.4417055,-21.960354,26.754953,-12.560159,-11.506888,-12.112889,1.3363177,6.960765,-8.122968,18.554485,-42.540916,43.146587,0.2208146,-3.453859,-1.8129435,3.0151527,-19.873228,19.508936,55.783337,17.111847,6.1404443,1.4138565
172,5.786465167999268,75.19965362548828,78.09322357177734,1.8254328273339666,7.2857077534375545,-151.67000410060226,3.5576465,-3.705467,30.538925,28.463982,-11.988248,-13.442488,-22.51527,-3.158854,-22.534056,26.596455,-12.433777,-11.868445,-12.277771,1.551575,6.898495,-8.369272,18.56397,-42.965645,43.41144,0.46014902,-3.4339066,-1.8465161,3.1020455,-19.755436,19.52332,55.817917,16.989645,6.138649,1.4848323
173,5.814789295196533,75.53327941894531,78.03784942626953,1.6482375457541385,7.2861662637053195,-151.2796952812887,3.8326793,-4.4717546,30.1307,28.043053,-11.688287,-13.716125,-22.561026,-2.8668041,-23.047075,26.451143,-12.321565,-12.225658,-12.388493,1.7186689,6.8802013,-8.570571,18.581074,-43.360695,43.669262,0.71396583,-3.3791177,-1.8615108,3.19414,-19.631405,19.56333,55.87389,16.855684,6.1373816,1.598178
174,5.852168560028076,75.89216613769531,77.97522735595703,1.4768511293001718,7.249274688509836,-150.92607767077862,4.155002,-5.1604447,29.844872,27.658474,-11.42256,-13.830919,-22.570404,-2.568275,-23.526253,26.313293,-12.215069,-12.58154,-12.467211,1.8568114,6.887348,-8.741896,18.60542,-43.731163,43.926853,0.9802112,-3.3019524,-1.8614568,3.2943377,-19.501202,19.626175,55.939663,16.688425,6.137617,1.7410059
175,5.8969407081604,76.24711608886719,77.91160583496094,1.307299551920905,7.199096155878678,-150.5793226869501,4.470305,-5.764624,29.640966,27.319786,-11.161077,-13.8820715,-22.576338,-2.272039,-24.000662,26.186602,-12.109936,-12.93897,-12.537347,1.9790901,6.9094653,-8.900413,18.638868,-44.076015,44.184963,1.2296423,-3.2244072,-1.8565142,3.389433,-19.362843,19.698904,56.005974,16.498194,6.1475296,1.8911984
176,5.9677934646606445,76.60173034667969,77.83848571777344,1.1362974658941196,7.1595623125388075,-150.20945804009403,4.723246,-6.275999,29.479277,27.042755,-10.877735,-13.965226,-22.613142,-1.9885864,-24.499857,26.078041,-12.002996,-13.300886,-12.624179,2.0976079,6.935208,-9.05978,18.685017,-44.391895,44.4426,1.4340942,-3.1682673,-1.8568363,3.4797218,-19.212532,19.760298,56.05193,16.284002,6.1756926,2.0265884
177,6.052052021026611,76.985107421875,77.7559585571289,0.9612067367541075,7.1371386169938384,-149.80522993510422,4.906861,-6.6854424,29.370522,26.842453,-10.560722,-14.203742,-22.688822,-1.7207521,-25.036137,25.98826,-11.891283,-13.668628,-12.737355,2.2183897,6.9627175,-9.223585,18.747753,-44.683826,44.698063,1.5873965,-3.141649,-1.8633126,3.5653868,-19.045233,19.799658,56.07072,16.0114,6.238692,2.138284
178,6.113846302032471,77.37126922607422,77.67388916015625,0.7852412054472053,7.118948193741799,-149.38397223858578,5.045475,-7.0014143,29.33084,26.709654,-10.227455,-14.514651,-22.787622,-1.4654154,-25.591963,25.917349,-11.777864,-14.040392,-12.860993,2.3305688,6.998086,-9.384433,18.828783,-44.95358,44.94984,1.7030281,-3.1318014,-1.8708128,3.640112,-18.860416,19.831629,56.080727,15.694491,6.3265715,2.238755
179,6.17926549911499,77.73567199707031,77.59540557861328,0.6135336539643701,7.100538741416703,-148.9591682512762,5.1340494,-7.2408266,29.328438,26.61872,-9.893621,-14.683593,-22.90564,-1.2222031,-26.151575,25.866531,-11.667107,-14.414077,-12.983739,2.4237938,7.041583,-9.537725,18.92787,-45.190422,45.194683,1.7828832,-3.1296058,-1.8809849,3.703295,-18.661446,19.869066,56.089287,15.398803,6.4078665,2.3383522
180,6.265739440917969,78.10896301269531,77.50300598144531,0.4508560871959478,7.077443916767632,-148.5445392336759,5.168912,-7.4195256,29.33328,26.542671,-9.572382,-14.496253,-23.039635,-0.9912002,-26.699646,25.83993,-11.565429,-14.787766,-13.095295,2.4884355,7.0927205,-9.6782675,19.043537,-45.382404,45.430386,1.8289229,-3.1260672,-1.8954207,3.7624414,-18.45453,19.920073,56.09584,15.183862,6.451821,2.4477599
181,6.362231731414795,78.4981460571289,77.40805053710938,0.31355147875466155,7.038019600844181,-148.12576732361006,5.1483645,-7.5760574,29.29763,26.469542,-9.15544,-13.951686,-23.185068,-0.8193543,-27.23246,25.881477,-11.498092,-15.000033,-13.209554,2.5130847,7.162931,-9.803672,19.174055,-45.522366,45.648113,1.8370019,-3.119235,-1.9119039,3.8220687,-18.243532,19.983007,56.095432,15.0917225,6.4446626,2.5542517
182,6.457066535949707,78.87972259521484,77.30805969238281,0.20032115785539165,6.984899679545563,-147.69470422727613,5.083598,-7.698179,29.251421,26.40508,-8.663899,-13.143148,-23.345222,-0.71497434,-27.755411,25.999256,-11.466196,-15.000033,-13.332124,2.5021956,7.2513323,-9.918449,19.318867,-45.61731,45.851788,1.8084916,-3.113828,-1.93046,3.8687701,-18.030483,20.06175,56.0954,15.091917,6.4050775,2.6575117
183,6.553864479064941,79.26347351074219,77.20447540283203,0.09721412791588704,6.9327432343340405,-147.26751924231795,4.9951224,-7.735283,29.27596,26.344408,-8.303268,-11.991389,-23.527538,-0.6275008,-28.26914,26.144104,-11.441599,-15.000033,-13.45107,2.4651196,7.3393707,-10.025145,19.478247,-45.674507,46.056705,1.7513068,-3.1111379,-1.9560773,3.9142847,-17.814932,20.154287,56.085754,15.111034,6.3533163,2.787617
184,6.640341281890869,79.66893768310547,77.08785247802734,0.008504422154170502,6.887530089667669,-146.84279879928073,4.9263005,-7.6718755,29.4324,26.246445,-8.267219,-10.407102,-23.7416,-0.5619171,-28.770872,26.320559,-11.424109,-15.000033,-13.567787,2.3941448,7.413555,-10.130763,19.652773,-45.70518,46.2799,1.6721597,-3.1122808,-1.9933854,3.9465284,-17.598713,20.27099,56.078037,15.092692,6.3077693,2.9736984
185,6.735451698303223,80.08061981201172,76.96780395507812,-0.05878365208366242,6.8583956315780945,-146.41400954895107,4.8423886,-7.452968,29.809498,26.178871,-8.68936,-8.022261,-24.002235,-0.5291078,-29.265255,26.54221,-11.427296,-15.000033,-13.6840105,2.2823818,7.4612837,-10.237282,19.845835,-45.711185,46.51544,1.5742774,-3.1135604,-2.0552607,3.969991,-17.377493,20.40614,56.07218,15.009235,6.2751317,3.2468073
186,6.842225074768066,80.49585723876953,76.85025024414062,-0.10189421482330357,6.840409769559093,-145.98413415705645,4.7176933,-7.1164603,30.341267,26.177977,-9.488225,-4.996254,-24.303171,-0.5318273,-29.74746,26.809546,-11.45048,-15.000033,-13.797552,2.1273518,7.4900856,-10.340521,20.05897,-45.687355,46.75648,1.4536239,-3.115495,-2.1352522,3.9853525,-17.150211,20.557407,56.066883,14.895286,6.2440057,3.5832121
187,6.959619998931885,80.91222381591797,76.7271728515625,-0.12702840670599605,6.817337371358091,-145.56592464609625,4.6227717,-6.792612,30.84712,26.115263,-10.503631,-2.0379272,-24.618805,-0.55718595,-30.201561,27.100075,-11.466474,-15.000033,-13.905883,1.9354163,7.520656,-10.437348,20.287365,-45.632626,47.0156,1.3062845,-3.1255212,-2.2096117,3.9806485,-16.92389,20.741993,56.063576,14.791365,6.207369,3.9306982
188,7.080379009246826,81.33455657958984,76.6048355102539,-0.14612994835441376,6.771673821471829,-145.1724290567672,4.6445036,-6.60169,31.15325,25.821606,-11.523013,0.14314282,-24.923012,-0.58657897,-30.615269,27.391117,-11.448599,-15.000033,-14.006813,1.720751,7.575444,-10.522473,20.520765,-45.54109,47.307735,1.1324831,-3.151484,-2.2545593,3.9530203,-16.71022,20.972181,56.054565,14.732988,6.159556,4.238255
189,7.2189226150512695,81.74584197998047,76.49087524414062,-0.17471219320039771,6.693770495450727,-144.8064439948582,4.8367224,-6.5636506,31.210705,25.20629,-12.525242,1.2555975,-25.211538,-0.6075038,-30.988552,27.68734,-11.388381,-15.000033,-14.099443,1.5004174,7.6690965,-10.60353,20.749228,-45.41213,47.64528,0.92608833,-3.2054112,-2.2657063,3.8928084,-16.520313,21.255932,56.042957,14.755805,6.0910797,4.516307
190,7.3589982986450195,82.15989685058594,76.38114929199219,-0.20959976361327118,6.593969363792065,-144.460482303789,5.1567636,-6.6102514,31.113781,24.338125,-13.575669,1.7084942,-25.493898,-0.6236502,-31.33189,27.988295,-11.296078,-15.000033,-14.185508,1.2752404,7.7885575,-10.683636,20.968105,-45.24632,48.026585,0.6911181,-3.2807622,-2.2549822,3.814578,-16.355938,21.58226,56.019062,14.831694,6.009895,4.7859473
191,7.4887895584106445,82.58224487304688,76.27208709716797,-0.23857853456817701,6.483197240609647,-144.1337326724875,5.5566154,-6.71942,30.91642,23.26938,-14.568458,1.8478758,-25.7636,-0.6367181,-31.64952,28.261484,-11.171705,-15.000033,-14.262624,1.0366107,7.9170527,-10.756517,21.175074,-45.046932,48.447098,0.4397316,-3.3575118,-2.2226663,3.7318833,-16.21397,21.946922,55.973278,14.917007,5.9356713,5.011924
192,7.642772197723389,83.00524139404297,76.1667709350586,-0.2459868292063453,6.372496021768767,-143.82570442440118,5.9830575,-6.8766723,30.664911,22.062977,-15.407733,2.0195563,-26.013845,-0.6510748,-31.944065,28.475294,-11.016625,-15.000033,-14.328176,0.77154225,8.0368395,-10.815124,21.369923,-44.81715,48.90219,0.18306756,-3.415686,-2.1688719,3.6580212,-16.087713,22.345945,55.89769,14.966329,5.8873754,5.1580057
193,7.793869972229004,83.43013000488281,76.07318878173828,-0.2243253903368189,6.256972288432791,-143.5371762174509,6.4705057,-7.111194,30.338528,20.635647,-16.050962,2.2511818,-26.238728,-0.67328984,-32.219437,28.63252,-10.843276,-15.000033,-14.378686,0.4696805,8.1473465,-10.860149,21.552368,-44.560867,49.399994,-0.09093016,-3.4619377,-2.094835,3.6013985,-15.971082,22.785444,55.77734,14.959883,5.882288,5.189248
194,7.940019607543945,83.85652923583984,75.991455078125,-0.19137762930410446,6.13393931457681,-143.26631416322107,7.0352073,-7.4072876,29.923555,18.98324,-16.549746,2.3774161,-26.440895,-0.6902307,-32.480892,28.738695,-10.641631,-15.000033,-14.417581,0.14662708,8.25636,-10.894731,21.721457,-44.27593,49.94342,-0.3821294,-3.5029593,-1.9997472,3.549918,-15.86407,23.264809,55.62735,14.922499,5.905237,5.1325564
195,8.094067573547363,84.28474426269531,75.91505432128906,-0.16240697133479676,6.017095008943347,-143.0097693759477,7.5971737,-7.698921,29.471104,17.281595,-16.955378,2.4564457,-26.626444,-0.67969185,-32.72717,28.764494,-10.384003,-15.000033,-14.452539,-0.17623258,8.358972,-10.917548,21.877092,-43.958233,50.516922,-0.66459113,-3.5191717,-1.8808671,3.4934077,-15.766864,23.768309,55.475895,14.874973,5.926848,5.0442634
196,8.25635814666748,84.71549224853516,75.84587097167969,-0.14530759750435476,5.9193403369721596,-142.766690810889,8.068714,-7.9279504,29.036297,15.721693,-17.32329,2.5485651,-26.808174,-0.63003635,-32.95014,28.699265,-10.049299,-15.000033,-14.490456,-0.48618072,8.447744,-10.922754,22.01973,-43.5997,51.103508,-0.90951234,-3.4909155,-1.7354287,3.4402492,-15.679023,24.267345,55.33572,14.819437,5.9182653,4.9812026
197,8.418014526367188,85.14876556396484,75.78558349609375,-0.13901477669877957,5.845912950178814,-142.54040848058213,8.426368,-8.085679,28.611826,14.340099,-17.668867,2.6742709,-26.98344,-0.53631026,-33.15721,28.525301,-9.63562,-15.000033,-14.530986,-0.7828035,8.514925,-10.904411,22.148067,-43.194702,51.708755,-1.1280215,-3.404248,-1.5434061,3.377997,-15.602914,24.774996,55.2244,14.771933,5.857198,4.9468822
198,8.576163291931152,85.59329223632812,75.7336654663086,-0.13683238413125906,5.789030853782924,-142.3311036360146,8.716126,-8.206538,28.17895,13.039921,-17.96218,2.800057,-27.150972,-0.40744,-33.34802,28.261805,-9.157175,-15.000033,-14.571561,-1.0745363,8.565737,-10.865853,22.261377,-42.746777,52.3379,-1.3287534,-3.2727523,-1.3125093,3.3157346,-15.538586,25.295221,55.12252,14.719979,5.764368,4.915282
199,8.756103515625,86.0310287475586,75.69027709960938,-0.13287533625508421,5.7410497939045255,-142.1352235787483,8.949324,-8.301732,27.777655,11.822356,-18.19869,2.9098184,-27.317425,-0.25164947,-33.49528,27.932371,-8.610002,-15.000033,-14.606915,-1.3702879,8.613779,-10.824019,22.362608,-42.27206,52.976154,-1.4832944,-3.1177752,-1.0811098,3.2546067,-15.484024,25.81008,55.023586,14.658345,5.6734056,4.896969
200,8.90916919708252,86.49644470214844,75.66364288330078,-0.11993675866805797,5.694236202288643,-141.94911615600657,9.13944,-8.381696,27.447187,10.685653,-18.37197,2.9909487,-27.491978,-0.0814257,-33.570568,27.566383,-7.9923797,-15.000033,-14.631267,-1.6807908,8.672485,-10.7942295,22.457342,-41.78607,53.606323,-1.5624325,-2.9598992,-0.88785297,3.203438,-15.434987,26.294973,54.91468,14.5743885,5.6180205,4.903181
201,9.089370727539062,86.95256042480469,75.64210510253906,-0.08625476708881566,5.644886813826248,-141.7704887719986,9.284252,-8.452168,27.205791,9.643865,-18.474194,3.0456367,-27.667887,0.077232406,-33.601574,27.170307,-7.309382,-15.000033,-14.644763,-2.0230072,8.7442465,-10.777723,22.549784,-41.279877,54.223972,-1.5429008,-2.7894914,-0.7422241,3.1641872,-15.387597,26.740467,54.79518,14.449956,5.608467,4.939732
202,9.275765419006348,87.4067153930664,75.6283187866211,-0.033423674320920596,5.596947864643926,-141.6037664207696,9.381526,-8.511373,27.030794,8.689324,-18.509624,3.0856822,-27.847124,0.23292224,-33.585396,26.73743,-6.5612674,-15.000033,-14.637096,-2.3926375,8.8228445,-10.776737,22.633928,-40.76144,54.843494,-1.4469732,-2.600036,-0.6236179,3.1363137,-15.344026,27.152365,54.668537,14.299038,5.625828,5.0008054
203,9.457286834716797,87.87786102294922,75.62425231933594,0.023889468701214014,5.5534696629742575,-141.4540062042046,9.448819,-8.558856,26.897646,7.7771177,-18.483416,3.1126952,-28.045742,0.42446256,-33.451782,26.269629,-5.740057,-15.000033,-14.629331,-2.773336,8.905192,-10.763704,22.729301,-40.225143,55.44049,-1.3095152,-2.4155724,-0.5290004,3.0954885,-15.299616,27.567558,54.5572,14.148954,5.6591225,5.0731034
204,9.641669273376465,88.35107421875,75.63025665283203,0.07108980781188455,5.517687286476748,-141.32623422387775,9.134105,-8.398628,26.835806,7.7348022,-18.858128,3.1157992,-28.277025,0.6905114,-33.127777,25.761717,-4.8274727,-15.000033,-14.591496,-3.144202,8.993902,-10.76467,22.829885,-39.730553,56.027187,-1.1784441,-2.2610059,-0.45137286,3.0556896,-15.263809,27.970118,54.447685,14.029653,5.699798,5.1509895
205,9.83770751953125,88.82351684570312,75.64295196533203,0.11113986001155947,5.485660636115304,-141.21115692104897,8.807547,-8.232341,26.780853,7.697612,-19.176533,3.100001,-28.53551,1.0118623,-32.634907,25.234491,-3.8336346,-15.000033,-14.535535,-3.5058677,9.091432,-10.774651,22.937733,-39.278324,56.60103,-1.042366,-2.1363616,-0.38651732,3.0245707,-15.239688,28.35426,54.329536,13.947485,5.747909,5.2332625
206,10.031194686889648,89.29744720458984,75.66456604003906,0.15202043432860957,5.4560971511661185,-141.10921016784891,8.469275,-8.063037,26.74538,7.6676946,-19.428425,3.0676908,-28.810349,1.372743,-31.998236,24.681726,-2.764077,-15.000033,-14.462245,-3.868301,9.199061,-10.79036,23.053577,-38.851395,57.15833,-0.88571495,-2.0306714,-0.33859563,3.0052133,-15.226643,28.718185,54.19899,13.886316,5.8083863,5.324422
207,10.212987899780273,89.76683044433594,75.69432830810547,0.18546267003105177,5.433859805194068,-141.03691641537029,8.116611,-7.8806357,26.741064,7.6444216,-19.632689,3.0277379,-29.091604,1.8170289,-31.158443,24.044321,-1.5971353,-15.000033,-14.360223,-4.2252545,9.314309,-10.810738,23.178026,-38.44498,57.695595,-0.74358124,-1.9523569,-0.31469747,2.9743826,-15.226144,29.088226,54.080063,13.843861,5.8780155,5.42403
208,10.39521598815918,90.2479248046875,75.72747802734375,0.20331050351471533,5.4220494799683125,-141.00832575347113,7.7480893,-7.6748037,26.777477,7.6304426,-19.809908,2.9881098,-29.362415,2.3860338,-30.061064,23.26574,-0.31749097,-15.000033,-14.221131,-4.5694857,9.437523,-10.830746,23.31089,-38.048466,58.2059,-0.6462817,-1.9100698,-0.32198176,2.9113712,-15.238826,29.491785,53.99268,13.818516,5.953546,5.531142
209,10.584545135498047,90.74505615234375,75.76336669921875,0.20037767903651893,5.422205516608233,-141.02960668852504,7.3594885,-7.441957,26.859045,7.6244006,-19.974215,2.9479306,-29.621231,3.1132736,-28.631592,22.330965,1.077185,-15.000033,-14.04074,-4.895788,9.57592,-10.857255,23.45325,-37.654453,58.69281,-0.6095157,-1.9256208,-0.3723639,2.8067963,-15.26629,29.935207,53.945145,13.832433,6.0368967,5.651709
210,10.767300605773926,91.23065185546875,75.80596160888672,0.18371474549239253,5.4217306606108915,-141.0824842638819,6.9657593,-7.190686,26.970533,7.6247993,-20.110115,2.901316,-29.83296,3.9569457,-26.938927,21.264349,2.549133,-15.000033,-13.834522,-5.2124434,9.737117,-10.885214,23.605951,-37.264965,59.154003,-0.61159784,-1.9877805,-0.4589011,2.672676,-15.308774,30.406853,53.924797,13.879791,6.1290617,5.7840757
211,10.970706939697266,91.70791625976562,75.85210418701172,0.18153595714822776,5.387339990688251,-141.0832591638512,6.612063,-6.9586205,27.031767,7.6214843,-20.19048,2.8629487,-29.95206,4.7739396,-25.136667,20.16246,3.9979115,-14.896261,-13.684853,-5.5434046,9.934487,-10.900359,23.766432,-36.892437,59.578884,-0.6388611,-2.055477,-0.5598703,2.5179603,-15.365408,30.901197,53.92141,13.910502,6.2259727,5.917581
212,11.16635513305664,92.16105651855469,75.90958404541016,0.233904447260187,5.296259359165491,-140.94893425813908,6.355766,-6.826747,26.961718,7.5501285,-20.166916,2.865612,-30.011753,5.3473916,-22.983488,19.268095,5.2684417,-12.628299,-13.665094,-5.9110546,10.166887,-10.890139,23.928741,-36.549057,59.960472,-0.67609525,-2.0876231,-0.65310234,2.3545706,-15.435665,31.408272,53.92326,13.868933,6.323266,6.041505
213,11.359304428100586,92.6030502319336,75.97466278076172,0.3071349001228868,5.17225285985504,-140.79385642263946,6.1464367,-6.717871,26.879255,7.474324,-20.05967,2.8812773,-29.929945,5.9109693,-20.66306,18.241339,6.521518,-9.973267,-13.6705475,-6.3078785,10.411925,-10.863353,24.087847,-36.250633,60.315575,-0.73133594,-2.0712588,-0.7270087,2.1810455,-15.513029,31.943499,53.93107,13.734735,6.4192142,6.168501
214,11.537315368652344,93.0400161743164,76.04513549804688,0.39733257321420595,5.022140380350494,-140.62301384521146,5.973212,-6.631105,26.78717,7.392857,-19.880732,2.9075048,-29.717594,6.4723787,-18.140469,17.103285,7.7118716,-6.9483814,-13.706035,-6.7279434,10.672936,-10.80703,24.25849,-35.97166,60.625103,-0.80610484,-2.0283358,-0.79667735,1.9894321,-15.60086,32.514378,53.945763,13.538727,6.5166664,6.298537
215,11.707305908203125,93.46537780761719,76.12837219238281,0.49560001003456167,4.861677782286678,-140.43312801615951,5.815365,-6.555369,26.675617,7.3109026,-19.64309,2.9306471,-29.387632,6.95768,-15.682392,15.91164,8.770929,-3.8021722,-13.749187,-7.1506343,10.931462,-10.744397,24.425264,-35.732647,60.919075,-0.88207,-1.9756818,-0.8759883,1.8066257,-15.688966,33.066696,53.966473,13.305192,6.6166472,6.4004865
216,11.864541053771973,93.88346099853516,76.22289276123047,0.5915315280146067,4.707826486088132,-140.2218836249372,5.6524267,-6.477353,26.534853,7.2344522,-19.361073,2.9368536,-28.973576,7.3000503,-13.559189,14.719629,9.680991,-0.78766483,-13.781597,-7.552023,11.166172,-10.69915,24.566738,-35.548325,61.23383,-0.93799657,-1.9308366,-0.9783649,1.6630505,-15.764663,33.54497,53.993267,13.051188,6.720562,6.4423323
217,12.007119178771973,94.2896499633789,76.32061004638672,0.7062670577941814,4.548630121748732,-139.9694254739182,5.4960136,-6.4199905,26.341293,7.1659036,-19.022902,2.9296358,-28.413784,7.5177917,-11.702956,13.339827,10.634614,2.3558226,-13.831815,-7.956527,11.384394,-10.660106,24.691881,-35.40263,61.564262,-0.98013633,-1.9016352,-1.1226591,1.5570239,-15.83112,33.95963,54.02249,12.774612,6.8356714,6.4024925
218,12.15754222869873,94.68739318847656,76.41780090332031,0.8400719101711268,4.380277245101224,-139.68220831561086,5.3517513,-6.384225,26.105864,7.1031537,-18.627235,2.9147296,-27.723307,7.6262054,-10.018053,11.795691,11.599874,5.648336,-13.943331,-8.373357,11.599868,-10.542853,24.867466,-35.23124,61.799896,-1.0121233,-1.8739364,-1.3036994,1.4603356,-15.918073,34.383728,54.03371,12.487365,6.9617734,6.301733
219,12.30778694152832,95.08430480957031,76.525634765625,0.943211807440946,4.2367582772348005,-139.40308731134476,5.182277,-6.3110533,25.875782,7.0482545,-18.203077,2.8797717,-27.08444,7.5851808,-8.751046,10.466793,12.30468,8.469394,-14.017411,-8.7408905,11.786894,-10.428061,25.037302,-35.113625,62.016994,-1.0151273,-1.8397539,-1.4852328,1.3991299,-15.998001,34.734665,54.047043,12.182707,7.0843816,6.1744475
220,12.445303916931152,95.47502136230469,76.64877319335938,0.9596814526136322,4.155206263718207,-139.17790629040698,4.946299,-6.1331677,25.70067,7.0048866,-17.780018,2.8111386,-26.70593,7.376025,-8.160644,9.76641,12.507589,10.196768,-14.004586,-8.986563,11.911093,-10.350678,25.14982,-35.064037,62.268085,-0.9562207,-1.7919948,-1.6309518,1.3643864,-16.052261,35.000103,54.102875,11.8779955,7.1885314,6.0486956
221,12.571239471435547,95.85811614990234,76.78645324707031,0.8565002740980399,4.156194014151264,-139.02665030284214,4.6229424,-5.8077974,25.599567,6.9733047,-17.3547,2.692271,-26.728367,6.980426,-8.457006,9.955195,12.08654,10.43031,-13.933109,-9.07606,11.970671,-10.222704,25.270897,-35.02774,62.443302,-0.82120234,-1.7144048,-1.7322475,1.3479064,-16.112103,35.22819,54.17371,11.584276,7.270461,5.9131656
222,12.69788932800293,96.23100280761719,76.93415069580078,0.6685978653272869,4.217497878930923,-138.92007644689028,4.236311,-5.375261,25.53852,6.9543066,-16.915848,2.5344362,-27.013384,6.421933,-9.444798,10.750748,11.231336,9.591604,-13.795346,-9.047357,11.972858,-10.116893,25.351292,-35.052338,62.63532,-0.6274182,-1.6200135,-1.8039426,1.3567277,-16.154758,35.379578,54.27964,11.279018,7.3360853,5.759866
223,12.816455841064453,96.61354064941406,77.09324645996094,0.44234894004319714,4.3129183845406995,-138.83129350348807,3.8187962,-4.896651,25.487337,6.939408,-16.47527,2.3658993,-27.372698,5.745574,-10.776049,11.800084,10.147439,8.29153,-13.641931,-8.956581,11.936492,-9.969429,25.443604,-35.07289,62.755596,-0.3900232,-1.5239093,-1.8706675,1.3833468,-16.207338,35.50203,54.38413,11.00497,7.3964977,5.6163974
224,12.935768127441406,96.9751205444336,77.24545288085938,0.22063806659902388,4.416988467329742,-138.73729912869993,3.3973927,-4.428777,25.421963,6.9257417,-16.046604,2.2146056,-27.641708,5.0097036,-12.119481,12.781224,9.052074,7.135419,-13.480701,-8.850663,11.869906,-9.822325,25.511608,-35.076077,62.86072,-0.112720035,-1.452205,-1.9525651,1.415621,-16.250227,35.58134,54.509228,10.769616,7.4570584,5.5152674
225,13.048871994018555,97.33193969726562,77.3906021118164,0.005108945344379585,4.5316898395859395,-138.63497260022876,2.9701552,-3.9756684,25.33915,6.9127636,-15.629854,2.092535,-27.804844,4.1868253,-13.53924,13.69055,7.9249177,6.166976,-13.33361,-8.728371,11.7753525,-9.617986,25.603682,-35.02779,62.86399,0.25367427,-1.3966893,-2.0696075,1.4598409,-16.313356,35.64811,54.620148,10.597854,7.5280576,5.457956
226,13.147582054138184,97.68592071533203,77.53247833251953,-0.22153609615053824,4.665452428130989,-138.5330142046335,2.5279284,-3.5144825,25.248108,6.8997936,-15.217255,1.984178,-27.924511,3.2523491,-15.152757,14.665146,6.6626334,5.112927,-13.178373,-8.569739,11.640372,-9.400932,25.675852,-34.965294,62.836575,0.7018305,-1.352833,-2.2024198,1.5097026,-16.368717,35.67974,54.757313,10.4666395,7.600494,5.4290214
227,13.239240646362305,98.03170013427734,77.66799926757812,-0.45081822113917114,4.806349759328662,-138.42950436840925,2.0831485,-3.0548182,25.14781,6.886707,-14.815784,1.8747212,-27.989676,2.2881725,-16.733917,15.6275215,5.386154,4.088123,-13.019942,-8.395978,11.484494,-9.177558,25.72933,-34.885925,62.795784,1.1178738,-1.3364958,-2.3263185,1.5574423,-16.414879,35.679012,54.91286,10.368537,7.6613297,5.4347763
228,13.334419250488281,98.37319946289062,77.79851531982422,-0.6737270296158756,4.94352965893014,-138.32543868204056,1.646557,-2.605307,25.040642,6.8758383,-14.428818,1.7488037,-28.004993,1.3802873,-18.063822,16.507917,4.229894,3.1968842,-12.871348,-8.228543,11.335645,-8.924048,25.790918,-34.75991,62.71241,1.3945371,-1.3608656,-2.4206145,1.5994034,-16.472692,35.65313,55.05323,10.29499,7.699536,5.48471
229,13.429872512817383,98.71092987060547,77.92318725585938,-0.8968594068344741,5.077029023340561,-138.22088679813405,1.2199767,-2.158695,24.924707,6.8633113,-14.056932,1.596351,-27.978031,0.548129,-19.122555,17.299719,3.234737,2.4399688,-12.720096,-8.06434,11.188105,-8.664676,25.840826,-34.60722,62.620113,1.4976373,-1.4366438,-2.4734707,1.6282197,-16.524296,35.5981,55.20113,10.255856,7.7096148,5.602731
230,13.51495361328125,99.04658508300781,78.0435791015625,-1.1232306153700735,5.212292778875386,-138.11700285894824,0.79710287,-1.7119269,24.801031,6.850909,-13.698895,1.4272017,-27.915102,-0.24845785,-20.023285,18.04267,2.3377223,1.7612072,-12.571705,-7.893555,11.035828,-8.382118,25.888266,-34.41636,62.49303,1.4900699,-1.552622,-2.5000806,1.6487851,-16.578112,35.51741,55.35077,10.251282,7.6997104,5.777884
231,13.597640037536621,99.36913299560547,78.15601348876953,-1.341557524537706,5.348108546921298,-138.01693081298146,0.3781649,-1.2777207,24.676956,6.8378005,-13.352326,1.2563921,-27.829216,-1.007612,-20.753172,18.744677,1.5215425,1.1726499,-12.420945,-7.7263513,10.880016,-8.091998,25.92795,-34.203915,62.35524,1.3898032,-1.693942,-2.5084994,1.6640663,-16.625593,35.405437,55.50571,10.261632,7.671437,5.9593253
232,13.67615032196045,99.69615173339844,78.25679779052734,-1.5403020855824077,5.483213995300554,-137.92389768668633,-0.038036946,-0.8686961,24.559456,6.8279037,-13.017744,1.0962633,-27.7335,-1.7277937,-21.298223,19.411291,0.7697833,0.6877574,-12.282947,-7.570102,10.740671,-7.7603164,25.991781,-33.93415,62.15631,1.2295268,-1.8439399,-2.5145323,1.6776469,-16.69767,35.26773,55.62816,10.270494,7.6304326,6.102797
233,13.756492614746094,100.02294921875,78.35303497314453,-1.7158364155637615,5.622633059091905,-137.83045449533537,-0.45947292,-0.48928228,24.444445,6.8200397,-12.693279,0.95220834,-27.636988,-2.4049222,-21.636187,20.03512,0.10253433,0.3389757,-12.14183,-7.431348,10.604627,-7.420048,26.06748,-33.643715,61.93262,0.9671919,-2.01048,-2.5137968,1.6947223,-16.773174,35.090076,55.747517,10.280246,7.552873,6.2115216
234,13.839180946350098,100.34851837158203,78.4397964477539,-1.8757673779210033,5.765441204350522,-137.73872386693108,-0.8834525,-0.13106611,24.331509,6.814641,-12.380658,0.81616217,-27.537432,-3.037825,-21.784748,20.61848,-0.4748166,0.10534775,-11.9931,-7.304881,10.4639015,-7.0851746,26.133364,-33.337704,61.712894,0.60720336,-2.1991954,-2.5003183,1.7022097,-16.82898,34.869667,55.893253,10.291096,7.4426537,6.303237
235,13.916492462158203,100.6617660522461,78.51970672607422,-2.024075987370996,5.901796904789111,-137.66556311314815,-1.2925181,0.21191254,24.234861,6.807649,-12.078928,0.6829115,-27.430277,-3.6298282,-21.787739,21.178953,-1.0014402,-0.07833932,-11.821584,-7.1885695,10.311451,-6.7845597,26.16182,-33.065388,61.5567,0.19601119,-2.392115,-2.4733577,1.6972672,-16.8496,34.6243,56.067738,10.3071995,7.3414745,6.341731
236,13.988715171813965,100.96554565429688,78.591796875,-2.1642157474000894,6.020676335017095,-137.6272316090532,-1.6694546,0.545525,24.168299,6.798393,-11.788957,0.5472444,-27.309591,-4.1852202,-21.687073,21.735853,-1.518434,-0.27602723,-11.649345,-7.0780435,10.198826,-6.4232655,26.226273,-32.743988,61.32127,-0.1761498,-2.5642025,-2.4542947,1.6700912,-16.88685,34.362762,56.18317,10.315935,7.299345,6.312014
237,14.063145637512207,101.26634979248047,78.65631866455078,-2.2966043326300967,6.114691473215534,-137.63596843091648,-2.002375,0.8703071,24.143387,6.7870393,-11.513618,0.41256452,-27.179464,-4.6883135,-21.438011,22.303684,-2.038284,-0.50720227,-11.44264,-6.9790225,10.101506,-6.0506206,26.29134,-32.45678,61.082024,-0.5728942,-2.719839,-2.430892,1.6349244,-16.916986,34.09007,56.260868,10.335144,7.3473835,6.179434
238,14.126668930053711,101.55684661865234,78.71906280517578,-2.4156339523411594,6.190529889792577,-137.68101899702012,-2.3069935,1.1819515,24.152464,6.7867146,-11.259048,0.28070018,-27.044485,-5.143545,-21.033897,22.874058,-2.539499,-0.7372983,-11.207739,-6.8912945,10.012979,-5.6847234,26.335241,-32.18883,60.864,-0.9981119,-2.8691938,-2.3999865,1.586832,-16.931725,33.792305,56.325832,10.355994,7.4543443,5.966112
239,14.188447952270508,101.85041809082031,78.7756118774414,-2.5247110698922035,6.259955096519968,-137.74368367261707,-2.5998247,1.483913,24.177797,6.7911606,-11.016368,0.14265627,-26.89311,-5.5780735,-20.581118,23.41846,-3.0075479,-0.95018834,-10.9665165,-6.811544,9.926264,-5.3286853,26.368626,-31.939035,60.680634,-1.3789631,-3.0008388,-2.3661199,1.5261861,-16.938995,33.493855,56.380642,10.387868,7.564864,5.708271
240,14.244596481323242,102.1410140991211,78.82794189453125,-2.625168886255778,6.334915810489638,-137.80596795786082,-2.8956468,1.7766074,24.202578,6.7916727,-10.776223,-0.010103796,-26.714996,-6.0236025,-20.184092,23.910776,-3.4298046,-1.1288513,-10.738003,-6.7390027,9.844056,-4.976801,26.415346,-31.696358,60.52216,-1.6378522,-3.1020665,-2.3368907,1.4575571,-16.944635,33.199528,56.41509,10.425647,7.624336,5.446197
