unveil-humanoid-operators/unveil-humanoid-operators.github.io/feature-analysis-animation/data/feature_matrix_instances/height_root_translate_rom_jogging_turning_A061.csv
Frame,root_translateX,root_translateY,root_translateZ,root_rotateX,root_rotateY,root_rotateZ,left_hip_pitch_joint_dof,left_hip_roll_joint_dof,left_hip_yaw_joint_dof,left_knee_joint_dof,left_ankle_pitch_joint_dof,left_ankle_roll_joint_dof,right_hip_pitch_joint_dof,right_hip_roll_joint_dof,right_hip_yaw_joint_dof,right_knee_joint_dof,right_ankle_pitch_joint_dof,right_ankle_roll_joint_dof,waist_yaw_joint_dof,waist_roll_joint_dof,waist_pitch_joint_dof,left_shoulder_pitch_joint_dof,left_shoulder_roll_joint_dof,left_shoulder_yaw_joint_dof,left_elbow_joint_dof,left_wrist_roll_joint_dof,left_wrist_pitch_joint_dof,left_wrist_yaw_joint_dof,right_shoulder_pitch_joint_dof,right_shoulder_roll_joint_dof,right_shoulder_yaw_joint_dof,right_elbow_joint_dof,right_wrist_roll_joint_dof,right_wrist_pitch_joint_dof,right_wrist_yaw_joint_dof
0,0.014357652515172958,-2.1912152767181396,77.19013977050781,-0.44122075712559067,-1.9195481585830052,90.01928412447258,7.046321,8.732227,24.553778,6.790829,-8.807888,-9.792847,5.2889647,-6.977537,-20.053988,7.7906466,-9.809653,4.7128954,-1.6449225,-0.28322288,9.200538,0.61251855,12.079401,-27.150225,63.48183,13.405019,-2.5570073,8.706244,-2.0862005,-11.163877,36.63326,61.357758,-14.278483,-2.3915875,-10.080796
1,0.009199992753565311,-2.1837997436523438,77.19068908691406,-0.4413965910614926,-1.9251105060581797,90.03014790830527,7.052594,8.726834,24.542765,6.791038,-8.811644,-9.795184,5.304948,-6.9818516,-20.066174,7.786888,-9.8121805,4.7224035,-1.6581917,-0.28946176,9.209419,0.6475929,12.106098,-27.160957,63.441963,13.410291,-2.557854,8.6938095,-2.0775566,-11.167719,36.645473,61.33653,-14.271253,-2.3735845,-10.059618
2,0.005268779117614031,-2.184246778488159,77.19100189208984,-0.4412092421728417,-1.931962891370186,90.04162887210255,7.0604773,8.721937,24.530529,6.7909555,-8.815365,-9.798735,5.3224664,-6.985891,-20.078821,7.7833486,-9.814722,4.7325478,-1.6710523,-0.2904036,9.213726,0.66123974,12.114564,-27.17044,63.43807,13.42244,-2.5615752,8.6844635,-2.074139,-11.169024,36.654682,61.330437,-14.265372,-2.3558464,-10.037559
3,0.0030536209233105183,-2.180202007293701,77.1884994506836,-0.4407248637441746,-1.9361597773552317,90.05186282502878,7.065227,8.716689,24.520878,6.790551,-8.8182335,-9.799988,5.3366537,-6.9900656,-20.09051,7.77863,-9.8163,4.74139,-1.6822565,-0.29404694,9.215675,0.681147,12.130981,-27.18462,63.424587,13.425872,-2.5639565,8.676121,-2.0678194,-11.171708,36.668274,61.32068,-14.257746,-2.3391635,-10.018931
4,0.0010560215450823307,-2.176392078399658,77.1845474243164,-0.438414824557827,-1.934534041833374,90.05873951295413,7.0629554,8.7095785,24.518394,6.790882,-8.820907,-9.795204,5.3390045,-6.997136,-20.098995,7.7792726,-9.819374,4.747095,-1.6890876,-0.29657513,9.214888,0.68911743,12.135922,-27.18885,63.422703,13.431682,-2.5639434,8.672172,-2.0666878,-11.17254,36.67149,61.31921,-14.265145,-2.3265002,-10.005303
5,0.0011612913804128766,-2.185474395751953,77.18335723876953,-0.43290706194159984,-1.9234636246258374,90.06008752245422,7.049692,8.699109,24.528912,6.7905726,-8.821963,-9.778883,5.3270617,-7.0071197,-20.104218,7.7787976,-9.820206,4.747825,-1.6893051,-0.3018944,9.207578,0.69323474,12.14025,-27.189007,63.421234,13.431966,-2.5583398,8.675269,-2.0674562,-11.173262,36.67025,61.322407,-14.285425,-2.3189516,-10.002463
6,-0.002924929605796933,-2.183394193649292,77.18165588378906,-0.4232112334772918,-1.9035476546685326,90.05736336899707,7.025645,8.685906,24.548653,6.7910304,-8.822144,-9.7542095,5.298908,-7.021232,-20.106369,7.7860317,-9.823913,4.745123,-1.684999,-0.3097866,9.196472,0.70288116,12.146715,-27.182531,63.405025,13.431185,-2.5464494,8.681447,-2.0695732,-11.174269,36.658627,61.32508,-14.322803,-2.3147426,-10.003898
7,-0.008359852246940136,-2.1751174926757812,77.18389892578125,-0.4158508467249474,-1.885576847567402,90.05508416730491,7.004055,8.674314,24.566439,6.7911496,-8.822054,-9.7320175,5.2748046,-7.0329113,-20.107658,7.7880526,-9.824465,4.741697,-1.6796416,-0.3167902,9.185828,0.7035228,12.150437,-27.177301,63.402546,13.423502,-2.538311,8.688828,-2.0723739,-11.174786,36.651043,61.331768,-14.354088,-2.3114934,-10.008425
8,-0.012734906747937202,-2.183105707168579,77.1896743774414,-0.412555245175444,-1.8719607816417323,90.05640092390506,6.987537,8.667289,24.572414,6.79154,-8.821601,-9.722255,5.255677,-7.0409636,-20.10753,7.7930164,-9.825836,4.7402463,-1.6771159,-0.3197315,9.181267,0.70569336,12.153868,-27.171152,63.39539,13.412489,-2.5357492,8.689452,-2.0766609,-11.175145,36.641365,61.33696,-14.384043,-2.3081057,-10.005202
9,-0.016898591071367264,-2.175337553024292,77.19213104248047,-0.41510393079733593,-1.8708592023162007,90.06316724451676,6.9859347,8.66895,24.559963,6.7904997,-8.81937,-9.734123,5.2547865,-7.040446,-20.105782,7.793389,-9.824347,4.741702,-1.6779,-0.31667766,9.18798,0.7056,12.157529,-27.168587,63.39349,13.387464,-2.546557,8.681121,-2.0837615,-11.17558,36.637386,61.345585,-14.402272,-2.30259,-9.995831
10,-0.016200443729758263,-2.176023006439209,77.19395446777344,-0.423377245352301,-1.8766874571169285,90.07318751302012,6.992306,8.6763935,24.535994,6.790224,-8.817185,-9.759848,5.264507,-7.033997,-20.102287,7.7891583,-9.819819,4.7445326,-1.6813436,-0.30913228,9.199757,0.70442384,12.160526,-27.1697,63.39542,13.348763,-2.5654814,8.66812,-2.090944,-11.175946,36.64049,61.355175,-14.411737,-2.2957823,-9.98416
11,-0.01721309684216976,-2.1670753955841064,77.19044494628906,-0.4320392799498164,-1.8819964297980123,90.08515487600147,6.997956,8.684011,24.508589,6.7902865,-8.81551,-9.785472,5.2755136,-7.026964,-20.100126,7.7834406,-9.814334,4.747851,-1.6862917,-0.3019564,9.209778,0.70307314,12.163607,-27.172539,63.39866,13.313912,-2.5833392,8.656248,-2.09742,-11.176398,36.646927,61.36398,-14.412124,-2.2890575,-9.970083
12,-0.018420863896608353,-2.173746109008789,77.18953704833984,-0.43655167537154954,-1.880090926907954,90.09834098151343,6.995243,8.686668,24.48494,6.78923,-8.814732,-9.796848,5.280263,-7.024457,-20.103289,7.777466,-9.809358,4.750871,-1.6936721,-0.29800585,9.212139,0.70404965,12.167605,-27.177227,63.3984,13.295742,-2.5912192,8.6515465,-2.1030443,-11.177091,36.655968,61.369396,-14.399347,-2.2835877,-9.953309
13,-0.01897675171494484,-2.1766209602355957,77.19010925292969,-0.4350767052153249,-1.866928425250238,90.11330349674111,6.978734,8.681678,24.466791,6.7897134,-8.817686,-9.786649,5.271565,-7.0301433,-20.111721,7.777607,-9.807662,4.7535925,-1.7013599,-0.30039462,9.201455,0.70795405,12.171611,-27.182634,63.394848,13.305275,-2.581274,8.655977,-2.102688,-11.178263,36.662197,61.366657,-14.371701,-2.2793694,-9.92837
14,-0.02101682685315609,-2.1752564907073975,77.19027709960938,-0.4309495964827814,-1.8469518682891932,90.13040509592638,6.9539757,8.672346,24.449835,6.7909513,-8.822794,-9.763406,5.2578106,-7.039772,-20.124342,7.776624,-9.805558,4.75633,-1.709405,-0.30585182,9.18339,0.7127472,12.175234,-27.19055,63.389423,13.331326,-2.5601852,8.666069,-2.0977862,-11.180072,36.666565,61.35661,-14.331213,-2.275823,-9.896628
15,-0.025105740875005722,-2.161092758178711,77.19209289550781,-0.42568512117162494,-1.8255566482856147,90.14702088081589,6.927865,8.661665,24.43526,6.790738,-8.8272915,-9.737614,5.2423673,-7.0502243,-20.139748,7.7763424,-9.804255,4.758879,-1.7170871,-0.3112691,9.165378,0.7143958,12.176797,-27.195992,63.386097,13.370156,-2.5402582,8.67931,-2.09385,-11.181171,36.667408,61.347233,-14.29304,-2.2738612,-9.86893
16,-0.02818901836872101,-2.1564137935638428,77.19255828857422,-0.421771791808119,-1.8054966743854939,90.1611095326856,6.9017987,8.653658,24.423006,6.7925897,-8.830372,-9.719311,5.2278676,-7.058069,-20.157364,7.774475,-9.802517,4.7609906,-1.7193499,-0.31513435,9.149394,0.71338564,12.180633,-27.208017,63.383263,13.410429,-2.5303152,8.695861,-2.0876956,-11.18451,36.663784,61.337772,-14.266741,-2.27208,-9.85593
17,-0.02550714649260044,-2.1659088134765625,77.19705963134766,-0.4192638728208991,-1.7906200892454858,90.17132309788369,6.8811207,8.648632,24.415052,6.7920904,-8.828917,-9.711425,5.219221,-7.0615506,-20.180147,7.767257,-9.798575,4.76216,-1.7219229,-0.31476158,9.143106,0.7064413,12.182992,-27.212866,63.38384,13.471751,-2.5373366,8.717968,-2.090435,-11.186233,36.657925,61.33963,-14.261156,-2.2727957,-9.866002
18,-0.02997341752052307,-2.160881996154785,77.19544982910156,-0.4175632204963875,-1.776434880004864,90.17948980839799,6.859459,8.64532,24.409868,6.793422,-8.826309,-9.708511,5.209459,-7.0637507,-20.207531,7.7621074,-9.796209,4.762652,-1.7192597,-0.31379914,9.142126,0.6926304,12.185754,-27.217686,63.38726,13.553875,-2.5549822,8.746764,-2.0950646,-11.187735,36.64472,61.34336,-14.267474,-2.2757113,-9.89166
19,-0.03338273987174034,-2.150285005569458,77.19273376464844,-0.41698350325168376,-1.7626715741732664,90.18612999763194,6.840696,8.642131,24.406225,6.790767,-8.821387,-9.708112,5.2021394,-7.0641527,-20.23279,7.7520123,-9.791739,4.763394,-1.7106866,-0.31276858,9.143725,0.67382234,12.190657,-27.225414,63.39148,13.620527,-2.5765803,8.769538,-2.0969117,-11.189725,36.618313,61.343525,-14.285294,-2.2790873,-9.918339
20,-0.03059649094939232,-2.159510850906372,77.1928939819336,-0.41735108599608745,-1.7469923535071847,90.19240098866592,6.820587,8.639386,24.401258,6.792101,-8.820319,-9.707739,5.1921287,-7.065867,-20.248945,7.7450023,-9.789101,4.765499,-1.7111497,-0.31139845,9.137137,0.6672716,12.194444,-27.229244,63.389637,13.637055,-2.5943747,8.779607,-2.0989122,-11.190943,36.603905,61.345066,-14.296781,-2.2793922,-9.936677
21,-0.03136064484715462,-2.161245346069336,77.19243621826172,-0.41645344011424823,-1.7293990272705435,90.19682470130833,6.804078,8.635236,24.395895,6.7909827,-8.82149,-9.706997,5.1820397,-7.068004,-20.250141,7.7356925,-9.785871,4.769883,-1.7153955,-0.3118631,9.1251545,0.6695447,12.195739,-27.229397,63.380203,13.580169,-2.6097784,8.767768,-2.0962906,-11.191294,36.596302,61.339977,-14.304037,-2.2768736,-9.940549
22,-0.03989991545677185,-2.1406362056732178,77.19109344482422,-0.41590414144846394,-1.705239460007325,90.20125888490605,6.7810717,8.631435,24.388577,6.7917333,-8.823953,-9.7067175,5.1638317,-7.071468,-20.242746,7.7307534,-9.785405,4.775791,-1.7197682,-0.30919695,9.104032,0.67937464,12.199376,-27.233032,63.360424,13.459298,-2.6277041,8.735305,-2.0874567,-11.1922245,36.571156,61.329624,-14.327619,-2.2713094,-9.93355
23,-0.04438724368810654,-2.130126476287842,77.19319915771484,-0.41672096137854164,-1.684089533558933,90.20528961033713,6.762786,8.628106,24.381824,6.7912683,-8.826287,-9.707539,5.1501346,-7.0736895,-20.233883,7.7231174,-9.783646,4.7815447,-1.720965,-0.30787167,9.085618,0.6887597,12.204398,-27.239735,63.342503,13.337627,-2.6408186,8.704273,-2.0766432,-11.1934805,36.54774,61.315643,-14.345461,-2.2666597,-9.925483
24,-0.0459340400993824,-2.1328141689300537,77.19355773925781,-0.4177299446815786,-1.6673417060400038,90.21024706796562,6.748015,8.626219,24.375027,6.7911906,-8.828268,-9.709623,5.1398625,-7.075065,-20.231663,7.7185965,-9.783137,4.785428,-1.7243294,-0.3067144,9.071643,0.6936888,12.208726,-27.244783,63.334995,13.260335,-2.645931,8.688753,-2.0702758,-11.194773,36.53565,61.303814,-14.354823,-2.2636826,-9.923693
25,-0.04985816031694412,-2.128214120864868,77.19400787353516,-0.4210021010955509,-1.6559374219309608,90.21801466027273,6.7371697,8.627188,24.365816,6.790899,-8.829009,-9.7136965,5.136593,-7.0731525,-20.241924,7.712412,-9.780776,4.7863407,-1.7294611,-0.3044639,9.063912,0.6921303,12.210979,-27.247442,63.34246,13.251741,-2.638022,8.6985655,-2.0703332,-11.195671,36.533997,61.29557,-14.35646,-2.2637184,-9.930593
26,-0.04925498366355896,-2.124351739883423,77.19652557373047,-0.42489923493777226,-1.6480016247723053,90.22749409390171,6.728479,8.630188,24.354671,6.790876,-8.828686,-9.719357,5.137312,-7.069523,-20.258972,7.7066336,-9.7781725,4.7854743,-1.7338665,-0.3015064,9.060317,0.686696,12.213633,-27.251577,63.357727,13.280408,-2.6206477,8.722704,-2.0719426,-11.196973,36.536816,61.285507,-14.353466,-2.265817,-9.941324
27,-0.04817575216293335,-2.1186866760253906,77.19645690917969,-0.42983903092004044,-1.6425878723005682,90.2360120953728,6.722925,8.633116,24.34662,6.7911906,-8.828852,-9.725192,5.140635,-7.06563,-20.275555,7.699858,-9.775338,4.7842803,-1.7378554,-0.30075267,9.059847,0.678755,12.219383,-27.25683,63.37597,13.316096,-2.6030612,8.747383,-2.0713823,-11.200732,36.54536,61.270367,-14.342792,-2.267839,-9.95372
28,-0.04950598627328873,-2.1135013103485107,77.19539642333984,-0.43102363878121347,-1.6389022928182977,90.24004833412516,6.7212,8.633222,24.34738,6.790746,-8.82904,-9.72986,5.1413174,-7.065464,-20.282927,7.698293,-9.776005,4.7844043,-1.7411096,-0.30020314,9.062757,0.6739638,12.223924,-27.25751,63.386257,13.335455,-2.594874,8.756213,-2.0725684,-11.204011,36.54946,61.257164,-14.331772,-2.2707167,-9.960837
29,-0.0534057542681694,-2.1083896160125732,77.19815063476562,-0.42922507052469117,-1.6385135674155076,90.23733552695784,6.7257533,8.628681,24.363308,6.7895756,-8.829129,-9.733122,5.14133,-7.0704727,-20.275457,7.6989274,-9.780331,4.7859054,-1.7402052,-0.3015742,9.070467,0.6685208,12.229271,-27.25455,63.391747,13.326794,-2.6021693,8.740504,-2.0743902,-11.207871,36.54459,61.24538,-14.318644,-2.2745864,-9.9611845
30,-0.05409262329339981,-2.1049768924713135,77.19534301757812,-0.4254996100565385,-1.6406852226423374,90.23115597578473,6.733957,8.621951,24.388727,6.7887626,-8.829187,-9.735804,5.140647,-7.0783806,-20.25983,7.7015963,-9.78683,4.7880363,-1.7392704,-0.3032449,9.077584,0.66706926,12.2301655,-27.252806,63.39463,13.304822,-2.6159272,8.715092,-2.0759017,-11.208456,36.541027,61.238106,-14.300974,-2.278638,-9.9596815
31,-0.05719500407576561,-2.0992090702056885,77.19242858886719,-0.4212832912675351,-1.6437407177122059,90.22217101879619,6.744471,8.614557,24.415836,6.788489,-8.831106,-9.737433,5.1395884,-7.0872,-20.24216,7.7072415,-9.79444,4.7911835,-1.732483,-0.305967,9.091537,0.6549497,12.233173,-27.247454,63.401863,13.282973,-2.6347106,8.6807,-2.0817711,-11.210318,36.52769,61.23191,-14.286054,-2.2840402,-9.954612
32,-0.0624006912112236,-2.097275972366333,77.19242858886719,-0.4189708824424261,-1.6418132253586148,90.21784633451405,6.747653,8.611281,24.428627,6.788755,-8.833513,-9.737479,5.1397123,-7.09099,-20.23643,7.7062774,-9.7960825,4.7956376,-1.729001,-0.30757913,9.1000595,0.64740294,12.236718,-27.244314,63.404198,13.277553,-2.6432827,8.661386,-2.0854676,-11.2123375,36.517387,61.227245,-14.279125,-2.2890975,-9.9518385
33,-0.06204373762011528,-2.0942680835723877,77.19205474853516,-0.42137808101013635,-1.6327676722447981,90.21874091861517,6.742805,8.613442,24.420712,6.7882123,-8.838179,-9.734257,5.140005,-7.087567,-20.247036,7.6991305,-9.789609,4.802694,-1.728153,-0.3073165,9.103302,0.6392175,12.239786,-27.243046,63.406048,13.297417,-2.6385543,8.659721,-2.0885131,-11.21394,36.51364,61.225124,-14.284249,-2.293076,-9.953992
34,-0.061013806611299515,-2.085660457611084,77.19168090820312,-0.4266416041876191,-1.6187985511378953,90.22299481748247,6.7310658,8.619841,24.39884,6.7891073,-8.844826,-9.728654,5.142112,-7.0788217,-20.268478,7.6833987,-9.77521,4.8117156,-1.7311072,-0.307099,9.104523,0.6342261,12.24633,-27.240631,63.40099,13.332349,-2.6256418,8.667762,-2.0932019,-11.217158,36.516525,61.224556,-14.294801,-2.2967975,-9.958962
35,-0.060975655913352966,-2.0797858238220215,77.190673828125,-0.4306575985776633,-1.6062196666235242,90.22620155301426,6.72155,8.625448,24.378794,6.790074,-8.851627,-9.723841,5.1433735,-7.071616,-20.289274,7.673788,-9.765159,4.8203993,-1.7334812,-0.30570278,9.1017065,0.6311009,12.2483,-27.240908,63.400414,13.364412,-2.6134815,8.679214,-2.0962572,-11.218082,36.51961,61.229427,-14.30463,-2.299473,-9.962556
36,-0.06216259300708771,-2.072490692138672,77.1919937133789,-0.4324587900185032,-1.5984571446388107,90.22891187019735,6.717497,8.62765,24.370586,6.7909703,-8.855657,-9.722754,5.149316,-7.067274,-20.304329,7.6619153,-9.759672,4.826289,-1.743849,-0.30739978,9.106149,0.6352328,12.256343,-27.235699,63.38715,13.381751,-2.6065595,8.685974,-2.1043446,-11.221435,36.533886,61.23043,-14.294261,-2.3044794,-9.961066
37,-0.0632670447230339,-2.0660345554351807,77.19265747070312,-0.4293517386739802,-1.602763188286673,90.22675946349369,6.728777,8.622242,24.387396,6.7897735,-8.854373,-9.729199,5.161162,-7.0714483,-20.305948,7.6598825,-9.769023,4.8282495,-1.7490553,-0.31127146,9.11563,0.6364997,12.25899,-27.23488,63.383945,13.371044,-2.6151218,8.68355,-2.1093245,-11.222541,36.535976,61.23272,-14.271192,-2.3110647,-9.947323
38,-0.06241059675812721,-2.0589654445648193,77.1917724609375,-0.42352565756388577,-1.6148176048285428,90.22244809452924,6.749898,8.612515,24.418669,6.78819,-8.850587,-9.74038,5.177467,-7.0806665,-20.300644,7.663668,-9.787679,4.8278522,-1.755768,-0.31792003,9.133186,0.6419952,12.267391,-27.23495,63.373905,13.340699,-2.633119,8.675213,-2.1186957,-11.226111,36.537827,61.235245,-14.23356,-2.3205817,-9.924082
39,-0.0657571330666542,-2.0499379634857178,77.19022369384766,-0.41722756422433976,-1.6235557599532875,90.21766258344246,6.7663293,8.603739,24.448908,6.788115,-8.847656,-9.750508,5.1887746,-7.0894656,-20.293488,7.668228,-9.806299,4.826257,-1.7594949,-0.32278702,9.144316,0.644878,12.268669,-27.235077,63.369072,13.314516,-2.6468415,8.669541,-2.1200883,-11.226666,36.536938,61.233894,-14.199924,-2.32679,-9.906036
40,-0.06638806313276291,-2.046546459197998,77.18866729736328,-0.41407126771489217,-1.6267229085350023,90.21148536832632,6.7771,8.5984,24.466309,6.7873054,-8.848878,-9.75406,5.193793,-7.0947394,-20.286455,7.6716824,-9.8180485,4.825363,-1.758254,-0.3260088,9.153094,0.64467305,12.273049,-27.236599,63.36418,13.29683,-2.6518989,8.6699,-2.1253502,-11.228673,36.53636,61.23424,-14.169158,-2.3302255,-9.893028
41,-0.0658884197473526,-2.0453786849975586,77.19062805175781,-0.41515120152110746,-1.6141553337084342,90.20549921507435,6.7694798,8.599929,24.460176,6.787007,-8.856391,-9.747531,5.1828756,-7.092981,-20.283392,7.6700187,-9.816702,4.824688,-1.7518604,-0.32565615,9.149935,0.64252746,12.278215,-27.237177,63.354214,13.305703,-2.6348312,8.683118,-2.1236482,-11.230993,36.53892,61.225765,-14.151153,-2.3262842,-9.898732
42,-0.06841275840997696,-2.039422035217285,77.1927490234375,-0.41935870200121433,-1.5922712839968678,90.19922279192647,6.7506433,8.606107,24.439743,6.7885814,-8.868908,-9.734589,5.162858,-7.0864964,-20.281864,7.664691,-9.807729,4.8236184,-1.7427416,-0.32260743,9.137939,0.63857174,12.282895,-27.235521,63.345062,13.331103,-2.604583,8.705065,-2.1172228,-11.233055,36.54433,61.212677,-14.13968,-2.3169498,-9.915754
43,-0.06811857223510742,-2.040971040725708,77.19580841064453,-0.4242413286239619,-1.5714012335294127,90.19252313493176,6.7336617,8.612204,24.418343,6.788366,-8.881563,-9.719913,5.1442885,-7.0795155,-20.278437,7.657661,-9.796568,4.823317,-1.7329757,-0.31743234,9.125842,0.63444304,12.2845955,-27.234268,63.33941,13.352436,-2.5782278,8.723838,-2.1134977,-11.23376,36.547153,61.206688,-14.134443,-2.3085768,-9.931931
44,-0.0709739699959755,-2.02778959274292,77.19384765625,-0.4276786438584715,-1.5516158574428913,90.18499959510278,6.7164793,8.616497,24.408522,6.7903275,-8.891961,-9.707682,5.124411,-7.075176,-20.269398,7.653737,-9.788456,4.82396,-1.7234485,-0.3154691,9.11438,0.63045096,12.286733,-27.23138,63.33279,13.359465,-2.5594718,8.7319765,-2.109094,-11.234698,36.55116,61.20149,-14.129281,-2.300931,-9.944756
45,-0.07461648434400558,-2.0199339389801025,77.19290161132812,-0.42683543920578226,-1.5381435985693523,90.17553340165796,6.7063413,8.61632,24.417273,6.7913303,-8.89812,-9.69795,5.107873,-7.075375,-20.249147,7.654937,-9.786161,4.8269377,-1.7167357,-0.3158328,9.10789,0.6309663,12.292307,-27.224468,63.32218,13.329417,-2.559334,8.714738,-2.1051185,-11.237395,36.555195,61.198227,-14.124705,-2.296394,-9.946364
46,-0.07716481387615204,-2.0127241611480713,77.1921157836914,-0.4249236704592538,-1.52952087159024,90.16500381977683,6.7018676,8.613297,24.436327,6.7907004,-8.901689,-9.688715,5.095476,-7.077848,-20.22155,7.656195,-9.784734,4.83169,-1.7081449,-0.3155417,9.105413,0.63421744,12.296603,-27.219921,63.309452,13.275076,-2.571465,8.683052,-2.1060915,-11.239729,36.55174,61.205055,-14.1258135,-2.2955096,-9.940074
47,-0.07815823704004288,-2.010420560836792,77.19212341308594,-0.4220887729737396,-1.5231396755865962,90.15513716245627,6.6999755,8.609991,24.4572,6.791078,-8.905385,-9.681739,5.0864615,-7.0806136,-20.196316,7.657409,-9.785012,4.836199,-1.6993115,-0.31563112,9.104234,0.6355313,12.300358,-27.217644,63.30211,13.227858,-2.587921,8.652969,-2.1064467,-11.241945,36.54565,61.21398,-14.131951,-2.295165,-9.932916
48,-0.07781857997179031,-2.012333393096924,77.19183349609375,-0.42035853329977607,-1.518194046114395,90.14772514527127,6.7003765,8.607611,24.471914,6.7915955,-8.909444,-9.678588,5.0820656,-7.082729,-20.182951,7.658064,-9.787448,4.83854,-1.6920779,-0.31703103,9.105837,0.63620836,12.303937,-27.21588,63.298332,13.219291,-2.6027954,8.638671,-2.1037838,-11.243986,36.539253,61.21691,-14.143341,-2.2940924,-9.9287
49,-0.07646610587835312,-2.0004031658172607,77.19081115722656,-0.4196393630623047,-1.516046896297073,90.14308528110162,6.7059245,8.60635,24.478622,6.791468,-8.914298,-9.680476,5.085946,-7.08368,-20.18845,7.65788,-9.793747,4.8376317,-1.6880553,-0.32018018,9.110977,0.6357979,12.306548,-27.213282,63.302734,13.275884,-2.6177447,8.650458,-2.0974047,-11.245225,36.53679,61.213997,-14.161282,-2.2917595,-9.930254
50,-0.08317930996417999,-1.9980933666229248,77.19120025634766,-0.417915350511603,-1.5166680822319054,90.14025842845814,6.716105,8.605211,24.481804,6.7912297,-8.919755,-9.686206,5.0967546,-7.084031,-20.206331,7.65539,-9.801743,4.8346567,-1.687876,-0.3259741,9.119049,0.6354604,12.309517,-27.207245,63.313133,13.376288,-2.6354373,8.677759,-2.0888412,-11.246393,36.5376,61.20763,-14.185228,-2.2885,-9.935156
51,-0.08383609354496002,-1.9865825176239014,77.19116973876953,-0.4182964435820871,-1.5156152648059567,90.13908106722603,6.724073,8.605012,24.482077,6.791517,-8.924905,-9.694024,5.105474,-7.08419,-20.225424,7.655103,-9.811168,4.8310747,-1.6914823,-0.32817823,9.1242285,0.63525736,12.310593,-27.206072,63.322857,13.465264,-2.6460128,8.704533,-2.0850382,-11.246684,36.53964,61.207848,-14.208166,-2.2852376,-9.939615
52,-0.07824829965829849,-1.97791588306427,77.18878173828125,-0.4185488529726512,-1.511951031709303,90.14096437143789,6.7283382,8.605356,24.478573,6.790372,-8.927912,-9.702351,5.1123157,-7.083059,-20.23706,7.6500063,-9.815684,4.8285584,-1.6987281,-0.33420485,9.128435,0.63819027,12.312278,-27.201263,63.330452,13.531114,-2.6517084,8.726983,-2.0759437,-11.24696,36.543568,61.197453,-14.228811,-2.279028,-9.944761
53,-0.07734484225511551,-1.9678937196731567,77.1895980834961,-0.421117989299538,-1.4998535604944825,90.14640684171144,6.72149,8.607562,24.469381,6.7892847,-8.928083,-9.713259,5.107726,-7.0805936,-20.234867,7.6465955,-9.817764,4.826516,-1.7188116,-0.33836234,9.123153,0.65008336,12.315821,-27.194517,63.32389,13.526137,-2.6377208,8.730323,-2.0722501,-11.247405,36.554207,61.190002,-14.244152,-2.2688868,-9.946395
54,-0.07648009061813354,-1.959269642829895,77.187744140625,-0.4248014940407948,-1.4827505610321168,90.15512906393103,6.7075233,8.611305,24.45521,6.7893176,-8.926954,-9.726815,5.0978622,-7.076902,-20.225544,7.6402373,-9.815636,4.824535,-1.7418419,-0.34042403,9.11322,0.66210896,12.318403,-27.195099,63.314396,13.480862,-2.6116688,8.72653,-2.0706816,-11.247402,36.56334,61.183186,-14.257378,-2.256684,-9.94611
55,-0.07960855960845947,-1.9494202136993408,77.18878936767578,-0.42837443909798456,-1.4659852349885394,90.16378238172017,6.6933436,8.615001,24.44165,6.790222,-8.926816,-9.738249,5.087176,-7.0736403,-20.215065,7.6365423,-9.814732,4.823713,-1.7648567,-0.34153792,9.102909,0.6757469,12.32058,-27.19864,63.301582,13.423387,-2.5840173,8.718607,-2.069412,-11.247075,36.572277,61.177917,-14.266456,-2.2454462,-9.946723
56,-0.08009759336709976,-1.9394170045852661,77.19137573242188,-0.43065109557073483,-1.4546960161029119,90.16867143831398,6.686855,8.615821,24.434856,6.789076,-8.928344,-9.743057,5.0830216,-7.0721984,-20.209366,7.6329026,-9.814957,4.8251643,-1.780707,-0.34264654,9.098771,0.6836046,12.321662,-27.200705,63.293167,13.384383,-2.5673409,8.708477,-2.0669696,-11.246667,36.57567,61.174553,-14.271749,-2.2399735,-9.949147
57,-0.08331058919429779,-1.9327770471572876,77.19526672363281,-0.4305962939360642,-1.4525677866299833,90.16848883332409,6.6899447,8.614239,24.43544,6.790546,-8.936258,-9.7374,5.089648,-7.0725574,-20.211575,7.629935,-9.817442,4.8301826,-1.7890714,-0.34351668,9.103999,0.6874033,12.323262,-27.20191,63.285797,13.364257,-2.5650356,8.691582,-2.0641468,-11.245788,36.575912,61.175236,-14.271753,-2.2414694,-9.958039
58,-0.08093498647212982,-1.919569969177246,77.1960220336914,-0.42987532898082037,-1.4562546016020659,90.16524292287703,6.700315,8.610499,24.440763,6.7908177,-8.946984,-9.724718,5.1030517,-7.0741906,-20.21803,7.6270704,-9.820933,4.8378596,-1.7920023,-0.344686,9.116518,0.68573296,12.325321,-27.200762,63.280956,13.352786,-2.5722373,8.667657,-2.0612652,-11.244312,36.570023,61.178177,-14.269372,-2.2483547,-9.970433
59,-0.08352233469486237,-1.9110677242279053,77.19197082519531,-0.4272027604191667,-1.4602730883085804,90.16061124817269,6.7113533,8.605897,24.450838,6.7917614,-8.957504,-9.710676,5.1166167,-7.0767393,-20.224718,7.624964,-9.825142,4.845839,-1.7907989,-0.34641033,9.13042,0.6814006,12.327696,-27.198486,63.277176,13.353445,-2.5826683,8.64644,-2.0571244,-11.2421255,36.558945,61.179478,-14.265706,-2.2577288,-9.978783
60,-0.08426554501056671,-1.9089215993881226,77.187255859375,-0.4252268949840635,-1.4589774337744787,90.1563790512359,6.7177424,8.601407,24.466003,6.7916236,-8.962398,-9.701136,5.1230545,-7.08022,-20.227533,7.624275,-9.829549,4.85185,-1.7858466,-0.35109115,9.138176,0.67694837,12.332772,-27.197657,63.274597,13.369289,-2.5903208,8.638139,-2.0519981,-11.236434,36.54235,61.179676,-14.263251,-2.2666142,-9.976248
61,-0.08330186456441879,-1.9051839113235474,77.18499755859375,-0.4208648682588143,-1.4492289301982149,90.15185831298018,6.716853,8.596464,24.493069,6.7910323,-8.959549,-9.696503,5.11898,-7.085316,-20.223766,7.623551,-9.832566,4.854617,-1.7843341,-0.35555968,9.132536,0.679822,12.333998,-27.195345,63.273045,13.402366,-2.5958164,8.651378,-2.044923,-11.234533,36.538643,61.177166,-14.250383,-2.2747037,-9.9586525
62,-0.08174435794353485,-1.8974406719207764,77.18565368652344,-0.41569766728204,-1.4348087992173795,90.14665430066019,6.7122273,8.590734,24.52951,6.7899013,-8.951565,-9.694197,5.108226,-7.092326,-20.216045,7.6253395,-9.836784,4.8557115,-1.7820127,-0.36157283,9.120705,0.68480986,12.33485,-27.190468,63.27248,13.452126,-2.6022205,8.67777,-2.0356596,-11.232427,36.53672,61.17121,-14.232938,-2.2833617,-9.929741
63,-0.08577752858400345,-1.8812222480773926,77.18700408935547,-0.41046251061665,-1.4192183655562638,90.1424270592051,6.7059636,8.585875,24.561958,6.788596,-8.942586,-9.69487,5.097214,-7.0984178,-20.208906,7.6251125,-9.839958,4.856626,-1.781013,-0.36675858,9.106522,0.68989116,12.335194,-27.186207,63.272903,13.508939,-2.6039624,8.709333,-2.0269933,-11.230913,36.53664,61.165653,-14.213861,-2.290589,-9.9
64,-0.08967411518096924,-1.8748136758804321,77.1869125366211,-0.4082679273066251,-1.4061704353343734,90.14076892518133,6.7005806,8.583511,24.577244,6.788043,-8.938052,-9.699065,5.0911145,-7.1011343,-20.206371,7.6223884,-9.842541,4.8587613,-1.7834172,-0.36922514,9.093803,0.6937454,12.3355,-27.182682,63.27364,13.564785,-2.5962288,8.737606,-2.0182564,-11.228538,36.5377,61.159916,-14.196072,-2.2945495,-9.87909
65,-0.0895962044596672,-1.8643319606781006,77.18634033203125,-0.41028341714755695,-1.394861314325975,90.14329361209496,6.694561,8.584816,24.565712,6.78845,-8.9396,-9.710274,5.090631,-7.0988684,-20.21076,7.6149383,-9.843362,4.8630085,-1.7896194,-0.36693558,9.081262,0.6947352,12.335815,-27.18396,63.276665,13.633943,-2.5704699,8.767475,-2.0091703,-11.226416,36.539715,61.154026,-14.179412,-2.2934234,-9.870244
66,-0.089907206594944,-1.8542704582214355,77.18569946289062,-0.41471103807959997,-1.384561021229004,90.14794696267441,6.688647,8.588541,24.537537,6.7879524,-8.9435215,-9.727151,5.093261,-7.093139,-20.218678,7.6051145,-9.843346,4.8683133,-1.7990565,-0.3597438,9.069323,0.6924012,12.336324,-27.189032,63.28223,13.708446,-2.5346859,8.79831,-2.002718,-11.224549,36.541775,61.151085,-14.165612,-2.2893229,-9.868222
67,-0.08872520178556442,-1.8470609188079834,77.18550872802734,-0.420681054099926,-1.3761671068167278,90.15502557301299,6.6837115,8.5926,24.504126,6.7880654,-8.949177,-9.742932,5.1002665,-7.0863633,-20.23002,7.592034,-9.842557,4.8738027,-1.8026106,-0.35737556,9.055219,0.69004583,12.337354,-27.204582,63.28754,13.770759,-2.493164,8.827981,-1.985913,-11.219898,36.54448,61.140026,-14.14425,-2.282055,-9.871987
68,-0.09155035763978958,-1.8354121446609497,77.18594360351562,-0.4237518753746154,-1.3742023425626504,90.158643907388,6.686698,8.594387,24.48374,6.7877874,-8.954765,-9.7515,5.110466,-7.0830307,-20.238028,7.5841365,-9.844714,4.8784966,-1.807273,-0.35465327,9.053819,0.68740606,12.337806,-27.212416,63.287544,13.775657,-2.4745493,8.833636,-1.9795866,-11.217713,36.54417,61.135307,-14.12785,-2.2793658,-9.875056
69,-0.09301189333200455,-1.8276145458221436,77.18658447265625,-0.4223380874968695,-1.3837334831795551,90.15994702173406,6.702996,8.592439,24.47961,6.7876906,-8.9613495,-9.749212,5.129191,-7.0847464,-20.244751,7.5831566,-9.852054,4.8823724,-1.8082297,-0.3572303,9.070044,0.6834019,12.338164,-27.219173,63.279938,13.69328,-2.4828873,8.805071,-1.9728725,-11.214552,36.5407,61.124077,-14.105681,-2.2790256,-9.879284
70,-0.09752193838357925,-1.8196470737457275,77.18888854980469,-0.419225961248642,-1.401437945673468,90.15945284732601,6.727971,8.5884495,24.484282,6.7891216,-8.969883,-9.739951,5.154295,-7.089491,-20.25052,7.586312,-9.8628645,4.8859,-1.807497,-0.36294273,9.099809,0.6762469,12.338478,-27.222277,63.269302,13.550011,-2.5108783,8.7507515,-1.9718356,-11.2087755,36.532475,61.114857,-14.082666,-2.2813735,-9.884685
71,-0.10143882781267166,-1.8090705871582031,77.18807220458984,-0.416523921810473,-1.4150146967070605,90.15799136408323,6.7490644,8.584551,24.49213,6.789827,-8.977808,-9.728773,5.172983,-7.0941806,-20.254509,7.592157,-9.873717,4.8884835,-1.8065801,-0.37005988,9.123817,0.67701316,12.338263,-27.220047,63.25354,13.42052,-2.5382507,8.702533,-1.9697193,-11.207538,36.529335,61.10417,-14.064226,-2.2849686,-9.890195
72,-0.09306841343641281,-1.8097171783447266,77.18317413330078,-0.4144938436248957,-1.424609467563694,90.15747467570084,6.7657495,8.582764,24.497,6.790321,-8.984333,-9.721475,5.1888733,-7.0966043,-20.257334,7.594966,-9.880885,4.8905864,-1.8102884,-0.37195182,9.148757,0.66462123,12.337881,-27.217669,63.24597,13.323597,-2.553225,8.668649,-1.977598,-11.201107,36.52214,61.10016,-14.069768,-2.285329,-9.897935
73,-0.09371032565832138,-1.8042830228805542,77.18266296386719,-0.4159658968106399,-1.4139999370022227,90.15757021370757,6.760605,8.585511,24.498373,6.7906575,-8.987576,-9.717912,5.1852517,-7.09354,-20.257824,7.591339,-9.878935,4.8903265,-1.8125752,-0.37218648,9.145469,0.66006273,12.337223,-27.219961,63.240322,13.324297,-2.5365624,8.68248,-1.9808819,-11.194774,36.521744,61.09716,-14.1001425,-2.281781,-9.908118
74,-0.09277256578207016,-1.7968438863754272,77.18087768554688,-0.41967624224801914,-1.3926584040988523,90.15791423815413,6.743842,8.590772,24.499006,6.791221,-8.989157,-9.715875,5.1690125,-7.088214,-20.256332,7.588368,-9.873404,4.8885665,-1.815464,-0.3709587,9.127518,0.65651935,12.335538,-27.226246,63.238403,13.372868,-2.5019991,8.722357,-1.9855101,-11.183756,36.525867,61.099503,-14.149582,-2.274958,-9.922102
75,-0.09413930028676987,-1.7944730520248413,77.18266296386719,-0.4226767986644696,-1.3714100569896308,90.15799757872308,6.727057,8.596101,24.498644,6.7911177,-8.990291,-9.716235,5.1546025,-7.0817842,-20.253912,7.5808496,-9.866111,4.8871827,-1.8174022,-0.3685826,9.110846,0.65161055,12.334681,-27.230473,63.23735,13.436026,-2.471359,8.765066,-1.9903432,-11.179298,36.53071,61.099445,-14.199959,-2.2705905,-9.933844
76,-0.0949636921286583,-1.7834210395812988,77.18218231201172,-0.4251134859381914,-1.3614123135577718,90.15733261945742,6.7214327,8.599526,24.497799,6.7907395,-8.992803,-9.720211,5.1506658,-7.0774283,-20.250916,7.5745454,-9.863491,4.8882384,-1.8159572,-0.36838624,9.106127,0.64378667,12.333639,-27.23228,63.238976,13.478372,-2.463668,8.791211,-1.9949347,-11.174079,36.53542,61.099228,-14.233994,-2.2700603,-9.942538
77,-0.09767843782901764,-1.7825086116790771,77.17893981933594,-0.42559784592341987,-1.368279821814573,90.1554416285249,6.7315946,8.600779,24.492968,6.7910028,-8.998388,-9.731939,5.161913,-7.0758142,-20.246513,7.571882,-9.870493,4.893769,-1.8082826,-0.36963493,9.117902,0.6354686,12.333481,-27.230837,63.24013,13.492746,-2.4913971,8.791591,-1.9988658,-11.172416,36.53696,61.099022,-14.245778,-2.276626,-9.945531
78,-0.09605993330478668,-1.7794854640960693,77.17304992675781,-0.4254364115429868,-1.3895211653864814,90.15234556214673,6.7572,8.60036,24.48594,6.790104,-9.0063505,-9.749659,5.189408,-7.0745716,-20.24049,7.564674,-9.879949,4.9023123,-1.7981894,-0.3755562,9.153445,0.6080415,12.333501,-27.217325,63.26011,13.502534,-2.5542648,8.777567,-2.0133111,-11.1679945,36.538868,61.103027,-14.246365,-2.2902956,-9.948271
79,-0.09269402176141739,-1.7773813009262085,77.17335510253906,-0.4239862778785777,-1.4094427603480162,90.14934939291098,6.780876,8.5991535,24.48208,6.7895017,-9.012756,-9.7653675,5.2136493,-7.0752087,-20.234917,7.561698,-9.891004,4.9102507,-1.7906764,-0.38176766,9.184318,0.5879076,12.334169,-27.200872,63.27274,13.504273,-2.612574,8.75938,-2.0267231,-11.1622305,36.543568,61.109043,-14.240215,-2.3038578,-9.946976
80,-0.09027662128210068,-1.7749011516571045,77.17346954345703,-0.4216125894563268,-1.418122896462089,90.14796119773384,6.794131,8.597165,24.487139,6.788906,-9.015406,-9.770937,5.2261133,-7.07713,-20.232647,7.5623255,-9.898561,4.914071,-1.7842039,-0.38431937,9.197442,0.5766277,12.334501,-27.19811,63.278625,13.494427,-2.6445832,8.749055,-2.0347426,-11.160584,36.54823,61.11796,-14.231892,-2.3154054,-9.942244
81,-0.08954369276762009,-1.7696300745010376,77.17942810058594,-0.41801793168432466,-1.4118133034428113,90.14955512409749,6.7937837,8.592671,24.508114,6.788451,-9.012258,-9.759354,5.2240696,-7.0825977,-20.235025,7.567347,-9.900053,4.9120846,-1.785964,-0.38605192,9.187596,0.565611,12.334725,-27.207458,63.289337,13.460527,-2.643099,8.747492,-2.0407588,-11.157539,36.56502,61.13512,-14.211784,-2.32486,-9.933555
82,-0.08385052531957626,-1.7636778354644775,77.18223571777344,-0.4115289548490264,-1.3958480897572472,90.1532139739413,6.7842174,8.586349,24.539827,6.789884,-9.006409,-9.73636,5.211779,-7.0910797,-20.240448,7.5775976,-9.899372,4.9064856,-1.7891299,-0.38603684,9.156302,0.5628722,12.334104,-27.237934,63.298576,13.403121,-2.6178868,8.75364,-2.0389767,-11.152818,36.591362,61.15943,-14.179737,-2.3316307,-9.924134
83,-0.08330517262220383,-1.751474142074585,77.18635559082031,-0.4071892995843186,-1.376478076582307,90.15536207945573,6.771341,8.581667,24.571844,6.7890897,-8.997875,-9.714048,5.1947165,-7.0977664,-20.245909,7.5870404,-9.89642,4.8993335,-1.7887405,-0.3844184,9.12333,0.55853456,12.332946,-27.269419,63.307007,13.347292,-2.5850377,8.761624,-2.036931,-11.149817,36.611473,61.181526,-14.150616,-2.3376222,-9.912992
84,-0.0874580442905426,-1.73931086063385,77.1889419555664,-0.40651118043869555,-1.3600743536002449,90.15242642320217,6.75921,8.582202,24.592867,6.7895703,-8.992375,-9.704424,5.1788187,-7.0980077,-20.24837,7.5900936,-9.892311,4.8928623,-1.7814337,-0.3823195,9.103695,0.5513638,12.331476,-27.29159,63.30981,13.314449,-2.5573683,8.769267,-2.0392776,-11.147627,36.624065,61.19341,-14.1327715,-2.341461,-9.903766
85,-0.08421487361192703,-1.7356517314910889,77.18544006347656,-0.4103726013219034,-1.3453120292028657,90.14048414184523,6.745398,8.591034,24.599115,6.789351,-8.98765,-9.714479,5.1604214,-7.0883226,-20.246813,7.583742,-9.885485,4.886478,-1.7644235,-0.3782206,9.099849,0.5388261,12.329496,-27.301788,63.307095,13.310787,-2.535269,8.777335,-2.050846,-11.145558,36.62883,61.194572,-14.127963,-2.3435287,-9.894686
86,-0.08207559585571289,-1.7385436296463013,77.18223571777344,-0.41872675029508205,-1.329986319648419,90.12243274041872,6.7292805,8.605353,24.597107,6.7883673,-8.983121,-9.736431,5.138712,-7.0719013,-20.242874,7.571058,-9.875972,4.879378,-1.7423916,-0.37239298,9.106744,0.5215365,12.326258,-27.297932,63.300453,13.329858,-2.513386,8.785578,-2.071524,-11.143122,36.62607,61.18994,-14.133888,-2.3445375,-9.883952
87,-0.08431745320558548,-1.7434345483779907,77.18032836914062,-0.4278091090161763,-1.3181581902481105,90.10489809488658,6.7172494,8.620474,24.590557,6.7862043,-8.979712,-9.760632,5.1218038,-7.0538917,-20.237652,7.5563045,-9.866641,4.8734717,-1.7211839,-0.36787617,9.118645,0.50936925,12.324972,-27.289606,63.2876,13.3566675,-2.4946167,8.792835,-2.0890126,-11.142457,36.62295,61.178383,-14.144733,-2.342644,-9.8781
88,-0.07688207924365997,-1.7477260828018188,77.1762466430664,-0.43436479843005094,-1.314728129724648,90.0953825485143,6.714111,8.632053,24.582462,6.7873235,-8.980989,-9.777163,5.1159754,-7.041745,-20.232668,7.5506506,-9.864081,4.8708935,-1.7068481,-0.36745706,9.128513,0.50426555,12.324491,-27.284975,63.278564,13.375844,-2.4847825,8.796972,-2.097383,-11.1423025,36.62193,61.169975,-14.156247,-2.3386455,-9.881447
89,-0.07602249085903168,-1.7432348728179932,77.17720031738281,-0.4383849006638019,-1.3244508280508158,90.09497814497416,6.7291536,8.639529,24.574934,6.787262,-8.987286,-9.782358,5.1316175,-7.032901,-20.224766,7.547716,-9.865189,4.873097,-1.7048252,-0.37073106,9.157734,0.49990696,12.322055,-27.260126,63.263287,13.40737,-2.4819417,8.796724,-2.110745,-11.1414795,36.621704,61.160637,-14.177131,-2.3270247,-9.901714
90,-0.07418309152126312,-1.7365174293518066,77.17910766601562,-0.44006095619470137,-1.3438901078021968,90.10170883584412,6.7559333,8.643768,24.564077,6.7876835,-8.997972,-9.781593,5.16204,-7.0276566,-20.215878,7.5487237,-9.870991,4.87921,-1.7063558,-0.37825295,9.183748,0.50418097,12.319851,-27.24384,63.252228,13.4322605,-2.4872274,8.795683,-2.1105213,-11.140796,36.626873,61.151676,-14.198537,-2.3109512,-9.935654
91,-0.0718662440776825,-1.7264180183410645,77.18184661865234,-0.44233497325044807,-1.3637008245343145,90.11068017046982,6.7821503,8.6476345,24.552559,6.789049,-9.008599,-9.779742,5.1943264,-7.023236,-20.208736,7.548542,-9.877033,4.8852344,-1.7153121,-0.38641202,9.20912,0.51334345,12.317698,-27.222786,63.238956,13.454934,-2.4959667,8.792952,-2.1112459,-11.140076,36.63569,61.1445,-14.217798,-2.2948735,-9.969709
92,-0.06358394771814346,-1.7256083488464355,77.18093872070312,-0.4432634706938937,-1.3738890168258846,90.11580714335032,6.7971087,8.651266,24.54494,6.7897773,-9.015458,-9.781529,5.2125196,-7.019123,-20.204988,7.548692,-9.883255,4.887214,-1.7257744,-0.3944324,9.224946,0.52168995,12.315755,-27.20135,63.22808,13.464351,-2.5042496,8.788999,-2.1147304,-11.139354,36.644634,61.14096,-14.227603,-2.2844462,-9.991558
93,-0.05868128687143326,-1.7223761081695557,77.17799377441406,-0.4437833693569893,-1.3687890771254476,90.11741163939776,6.7922125,8.654773,24.539917,6.7895417,-9.0145855,-9.790686,5.21197,-7.014886,-20.209097,7.544086,-9.88885,4.883169,-1.7346493,-0.40152436,9.22608,0.5270269,12.314695,-27.189676,63.219093,13.450342,-2.512699,8.783828,-2.1183708,-11.138726,36.64664,61.13924,-14.224948,-2.2827156,-9.99562
94,-0.05763958767056465,-1.725509762763977,77.17623138427734,-0.44419901312359045,-1.3548363107624486,90.11743479585864,6.776371,8.658095,24.536612,6.7885275,-9.009467,-9.803942,5.200381,-7.0112104,-20.21812,7.5373936,-9.894508,4.8755107,-1.7437923,-0.40904117,9.218451,0.53033555,12.313908,-27.181786,63.212837,13.421033,-2.5227106,8.777098,-2.1204534,-11.13791,36.644848,61.137306,-14.213951,-2.2858403,-9.989938
95,-0.05485434830188751,-1.7231827974319458,77.1767807006836,-0.44438098558393163,-1.3395325008305339,90.115039683308,6.759237,8.661381,24.536703,6.7876663,-9.004044,-9.81531,5.185801,-7.007243,-20.225952,7.531486,-9.899119,4.8668704,-1.751574,-0.41540968,9.210046,0.5338729,12.313045,-27.171875,63.206703,13.390565,-2.5316625,8.769372,-2.1251166,-11.1363735,36.639076,61.138523,-14.203832,-2.2910547,-9.978179
96,-0.05111188441514969,-1.7210586071014404,77.1778564453125,-0.4455214197234029,-1.3322442143598048,90.10871655901083,6.752475,8.666392,24.541754,6.78791,-9.002039,-9.819457,5.17656,-7.002486,-20.22535,7.5303583,-9.901013,4.8602457,-1.7499887,-0.41958374,9.209522,0.5356893,12.312197,-27.164043,63.202553,13.367761,-2.5354385,8.764037,-2.129339,-11.134728,36.6319,61.14006,-14.197766,-2.2941635,-9.968593
97,-0.05030006170272827,-1.7205638885498047,77.17587280273438,-0.44861518748836593,-1.337592739255969,90.09334639417708,6.7637987,8.673548,24.558033,6.7872286,-9.004281,-9.811026,5.176009,-6.995425,-20.208965,7.5346947,-9.89686,4.855868,-1.7335842,-0.4203879,9.220764,0.53674024,12.31138,-27.158224,63.199654,13.353081,-2.5299985,8.763602,-2.1322803,-11.133934,36.626472,61.140553,-14.195484,-2.2931025,-9.961518
98,-0.04585945978760719,-1.720839023590088,77.17716979980469,-0.4531215559782897,-1.3505374212567616,90.07067182030174,6.783955,8.683224,24.582901,6.7900853,-9.010652,-9.794342,5.1779428,-6.987467,-20.181536,7.5459967,-9.89,4.8523135,-1.7070354,-0.41800746,9.242295,0.53658175,12.309861,-27.148745,63.195427,13.346554,-2.5180738,8.764901,-2.1384013,-11.133305,36.61787,61.141827,-14.198192,-2.2908316,-9.951918
99,-0.04477667063474655,-1.7242567539215088,77.17852020263672,-0.456849064551551,-1.3633984003854038,90.05143725417437,6.805079,8.691753,24.604473,6.7907906,-9.016543,-9.777801,5.1814666,-6.979973,-20.157063,7.556856,-9.883522,4.8500304,-1.6834109,-0.415152,9.2638,0.53559846,12.30619,-27.135214,63.19427,13.346929,-2.5073035,8.764629,-2.1442242,-11.132628,36.605885,61.143482,-14.204375,-2.2890377,-9.942966
100,-0.044500336050987244,-1.721898078918457,77.17986297607422,-0.4594224897372885,-1.3686086911864983,90.04601151082448,6.8145523,8.698367,24.610533,6.7914376,-9.019988,-9.770202,5.1854763,-6.9741664,-20.149227,7.560723,-9.881197,4.8492513,-1.6738677,-0.41573006,9.270994,0.5366133,12.304314,-27.12874,63.200584,13.345096,-2.5050237,8.760903,-2.142403,-11.13242,36.600285,61.14381,-14.205048,-2.2883353,-9.940134
101,-0.04277963191270828,-1.7129130363464355,77.18055725097656,-0.45923875162198946,-1.3625229403394667,90.06066826389363,6.8076224,8.701734,24.592194,6.791609,-9.021018,-9.775136,5.1911044,-6.9703236,-20.165415,7.5523086,-9.883895,4.8515053,-1.6858925,-0.4200282,9.262918,0.54094386,12.303289,-27.125303,63.211697,13.341939,-2.5157006,8.750684,-2.1339338,-11.132132,36.596786,61.140926,-14.200525,-2.2902012,-9.945989
102,-0.033929724246263504,-1.7051723003387451,77.17853546142578,-0.45784509407280505,-1.349054477532963,90.09079524135714,6.7892737,8.703284,24.55548,6.7919297,-9.020329,-9.787427,5.198768,-6.9677963,-20.199347,7.5356774,-9.889527,4.856263,-1.7132282,-0.42829385,9.23976,0.54617673,12.301908,-27.121199,63.235733,13.343576,-2.538297,8.733831,-2.1122878,-11.131161,36.59226,61.13226,-14.198197,-2.29324,-9.957459
103,-0.02413696050643921,-1.6979992389678955,77.1744384765625,-0.4559320788286666,-1.3342306005842444,90.12327289857478,6.7688584,8.704121,24.518452,6.7917852,-9.018104,-9.802959,5.2063084,-6.965755,-20.23645,7.518279,-9.8969345,4.8603377,-1.7415719,-0.43793583,9.213678,0.5510153,12.301173,-27.120995,63.260376,13.346768,-2.5591924,8.71768,-2.089131,-11.129331,36.589745,61.124424,-14.195069,-2.2956052,-9.969227
104,-0.0194550771266222,-1.695970058441162,77.17394256591797,-0.4530852294474297,-1.3232082689693263,90.1477277706148,6.7544036,8.704846,24.496515,6.7906775,-9.014349,-9.816877,5.212631,-6.963869,-20.26492,7.505328,-9.90412,4.8609376,-1.7615854,-0.4458698,9.194027,0.55724216,12.301389,-27.123518,63.274727,13.351552,-2.5689282,8.706137,-2.0741837,-11.128022,36.589996,61.12468,-14.192619,-2.2972775,-9.97394
105,-0.016783475875854492,-1.688939094543457,77.17192077636719,-0.45154431444406495,-1.3168464396137274,90.16179816719257,6.7465796,8.706386,24.498405,6.7901754,-9.00755,-9.830306,5.2163286,-6.9621854,-20.282148,7.4999504,-9.911415,4.85587,-1.7692182,-0.45247072,9.180846,0.5630759,12.301962,-27.130608,63.27937,13.364002,-2.5613623,8.699978,-2.0656106,-11.127005,36.59345,61.13296,-14.192456,-2.2960904,-9.968329
106,-0.010680316016077995,-1.693450689315796,77.17115783691406,-0.4493128131658186,-1.3128007442203158,90.17120895129506,6.74243,8.707694,24.514296,6.788934,-8.998103,-9.844854,5.21906,-6.960716,-20.294613,7.4984913,-9.919745,4.8470716,-1.7713817,-0.45824206,9.172715,0.5670772,12.302398,-27.138933,63.27847,13.383113,-2.5443604,8.6967,-2.0611386,-11.126637,36.59806,61.144665,-14.195061,-2.2931027,-9.956348
107,0.0002680738689377904,-1.689504861831665,77.17232513427734,-0.44726201714189645,-1.3101036567191826,90.1772027502091,6.740094,8.70891,24.531015,6.78782,-8.990201,-9.857251,5.220371,-6.959691,-20.30341,7.499212,-9.928396,4.838113,-1.7678119,-0.46372318,9.160776,0.57686484,12.303478,-27.155983,63.272873,13.394931,-2.5231266,8.697544,-2.054482,-11.126133,36.606964,61.15964,-14.193836,-2.2904475,-9.943725
108,0.004107799846678972,-1.6798152923583984,77.17428588867188,-0.4449858662252146,-1.30906589730829,90.18105117903146,6.7395396,8.710566,24.535618,6.7875404,-8.987771,-9.864309,5.223312,-6.9580145,-20.309608,7.498656,-9.937007,4.8323627,-1.763307,-0.47005102,9.153539,0.58566505,12.30413,-27.162632,63.269173,13.398601,-2.5117373,8.69941,-2.0479777,-11.1259365,36.610416,61.170094,-14.195704,-2.2907429,-9.934432
109,0.010434419848024845,-1.6796118021011353,77.17522430419922,-0.44288140970040646,-1.3101929402922812,90.18235493337643,6.741946,8.712321,24.520386,6.7877855,-8.994483,-9.863333,5.2290654,-6.9554157,-20.313608,7.4944553,-9.945566,4.8320565,-1.7582127,-0.4769817,9.148088,0.6019185,12.305347,-27.158836,63.261284,13.391243,-2.5114625,8.70305,-2.039048,-11.125446,36.610992,61.176716,-14.202517,-2.2955375,-9.930473
110,0.014835504814982414,-1.6745249032974243,77.17390441894531,-0.44069829589203724,-1.3136949050747933,90.1806239984136,6.7470427,8.714017,24.493816,6.789236,-9.007728,-9.856519,5.2362123,-6.952613,-20.314608,7.4894395,-9.954516,4.8349047,-1.7546042,-0.4857086,9.148333,0.6201149,12.306552,-27.138105,63.251392,13.3815775,-2.5188522,8.7069235,-2.0341406,-11.12468,36.60968,61.182808,-14.215188,-2.3036,-9.928169
111,0.018402181565761566,-1.673876166343689,77.17090606689453,-0.4386249312715085,-1.317618669371768,90.17751441911992,6.752969,8.716503,24.466396,6.7904143,-9.021406,-9.848403,5.242942,-6.94903,-20.313076,7.485181,-9.962537,4.8376775,-1.7463312,-0.49330863,9.147945,0.6348554,12.306648,-27.125511,63.24599,13.361321,-2.528159,8.713837,-2.0274432,-11.124396,36.60666,61.18692,-14.222272,-2.3119085,-9.926628
112,0.025232773274183273,-1.6741666793823242,77.16881561279297,-0.43858799679982774,-1.3202056222589624,90.17424434756572,6.757745,8.720242,24.449188,6.7911377,-9.030017,-9.84326,5.2468586,-6.9446473,-20.308952,7.484429,-9.968642,4.8371205,-1.7425523,-0.49996138,9.146209,0.65532154,12.306676,-27.102987,63.236347,13.347372,-2.5359628,8.719997,-2.020296,-11.123951,36.60072,61.18759,-14.226916,-2.3185074,-9.920156
113,0.030545538291335106,-1.6757713556289673,77.16703796386719,-0.4382055215239029,-1.320951806976111,90.17041259276931,6.7614756,8.725623,24.44635,6.790873,-9.032223,-9.840585,5.2478633,-6.938462,-20.300377,7.486695,-9.970854,4.831307,-1.7390653,-0.504716,9.142168,0.67331773,12.306543,-27.083744,63.22992,13.328842,-2.540862,8.728838,-2.0116208,-11.123457,36.59349,61.18258,-14.214579,-2.323367,-9.906623
114,0.034121423959732056,-1.6727057695388794,77.1650390625,-0.43964318737489705,-1.320609722944695,90.16580549999789,6.763676,8.732418,24.451387,6.7924366,-9.032109,-9.838623,5.2458577,-6.931501,-20.287926,7.4924326,-9.970564,4.822387,-1.7382177,-0.5083571,9.137883,0.69871825,12.306283,-27.0557,63.21619,13.316387,-2.5447533,8.738837,-2.0026019,-11.122769,36.58027,61.172974,-14.199443,-2.3275547,-9.886045
115,0.03962958604097366,-1.674625039100647,77.16423034667969,-0.4415561149746847,-1.3198855145675505,90.16132317305984,6.76613,8.740103,24.459723,6.7926292,-9.029418,-9.839896,5.242732,-6.923801,-20.275587,7.4997,-9.970178,4.8129306,-1.7341912,-0.5110747,9.131811,0.71804345,12.305875,-27.038816,63.209846,13.294223,-2.548752,8.748712,-1.9919275,-11.122251,36.56868,61.16322,-14.181393,-2.3296237,-9.869726
116,0.04561334103345871,-1.6661690473556519,77.1675033569336,-0.444731134836139,-1.3193351845592534,90.15822292982679,6.7678165,8.748915,24.465946,6.7926497,-9.025482,-9.847507,5.2432785,-6.9142857,-20.267717,7.4988027,-9.967828,4.805504,-1.7308518,-0.51284677,9.1274395,0.7365872,12.305385,-27.022738,63.2033,13.275119,-2.5540936,8.752583,-1.9822924,-11.121789,36.556362,61.154915,-14.18135,-2.3287377,-9.862016
117,0.05237874388694763,-1.660959243774414,77.16915893554688,-0.44928729120120153,-1.3189422280310348,90.15833182197339,6.7689214,8.759592,24.467415,6.7920966,-9.019913,-9.866331,5.2457623,-6.9030685,-20.267258,7.4948072,-9.967092,4.8020153,-1.7295872,-0.5124043,9.124179,0.7512019,12.305006,-27.012829,63.200108,13.249856,-2.5611422,8.75008,-1.9751878,-11.12141,36.549038,61.15132,-14.202043,-2.3232481,-9.870433
118,0.05979728698730469,-1.6638281345367432,77.16878509521484,-0.45486069434267845,-1.3184284926285446,90.16051917326854,6.7693033,8.772275,24.467216,6.790772,-9.012006,-9.893411,5.2514815,-6.889286,-20.271542,7.483211,-9.963662,4.8006163,-1.7341325,-0.50910413,9.123293,0.7745941,12.304545,-26.991386,63.18639,13.233461,-2.5689974,8.740789,-1.9704132,-11.120474,36.53679,61.14973,-14.249934,-2.3139074,-9.886873
119,0.06840997189283371,-1.662642478942871,77.1689682006836,-0.46052796169466975,-1.3178757260507392,90.161446754332,6.76963,8.784504,24.469265,6.7899475,-9.004423,-9.919663,5.2558413,-6.876307,-20.27528,7.4734526,-9.96193,4.798529,-1.7354863,-0.5077794,9.121385,0.78902614,12.304364,-26.98176,63.183685,13.211154,-2.577505,8.730445,-1.9663697,-11.119878,36.53265,61.149525,-14.289039,-2.303553,-9.906496
120,0.07379844039678574,-1.657670021057129,77.1693344116211,-0.4636815672808805,-1.3174482010972157,90.15790708773434,6.7710667,8.794106,24.477142,6.7891517,-8.998306,-9.935682,5.255754,-6.86679,-20.273539,7.4701867,-9.962818,4.7929463,-1.7335124,-0.5093678,9.121189,0.80219185,12.304313,-26.972878,63.181904,13.199035,-2.5849326,8.719397,-1.9626074,-11.119181,36.53024,61.146732,-14.314468,-2.2951794,-9.917462
121,0.0763411819934845,-1.6577045917510986,77.16732025146484,-0.46200450669049065,-1.3171991850883977,90.14840059010666,6.774051,8.799305,24.494677,6.7895446,-8.994959,-9.935967,5.252205,-6.861968,-20.265017,7.4724936,-9.967069,4.781205,-1.7252289,-0.5169665,9.123088,0.8088491,12.304365,-26.969927,63.185577,13.198204,-2.5917091,8.706707,-1.961103,-11.118801,36.5307,61.144238,-14.318151,-2.2896485,-9.915915
122,0.08322543650865555,-1.6595075130462646,77.1671142578125,-0.45679323837869984,-1.3167615007064017,90.13178156002475,6.7795,8.801463,24.522568,6.78851,-8.99234,-9.926796,5.241372,-6.861345,-20.248549,7.4856887,-9.976622,4.765215,-1.7166097,-0.529519,9.123518,0.81900513,12.30552,-26.959255,63.19018,13.210946,-2.6009269,8.687563,-1.9605092,-11.117013,36.541843,61.1401,-14.308699,-2.281957,-9.906863
123,0.08789411932229996,-1.6592475175857544,77.17167663574219,-0.4523210941058277,-1.316744853269994,90.11600349339142,6.7835503,8.80459,24.547186,6.7892947,-8.990956,-9.915675,5.2319736,-6.8598824,-20.232986,7.4964685,-9.984811,4.749685,-1.704936,-0.54084224,9.126824,0.82288694,12.3063135,-26.95771,63.19846,13.221879,-2.6064892,8.673479,-1.9609128,-11.116164,36.548088,61.136208,-14.29549,-2.2779973,-9.897505
124,0.09559992700815201,-1.6653673648834229,77.1703872680664,-0.44963336348688954,-1.3159965500533721,90.10288027124805,6.7848063,8.809635,24.562487,6.7903295,-8.990156,-9.91034,5.2223506,-6.8558254,-20.219421,7.50515,-9.990474,4.738843,-1.6992497,-0.54974574,9.128476,0.8284182,12.307737,-26.95468,63.208515,13.227113,-2.6084101,8.667713,-1.9624176,-11.114692,36.558395,61.13156,-14.280043,-2.2762814,-9.894367
125,0.10085184872150421,-1.6703191995620728,77.16891479492188,-0.4521146043276002,-1.3165083930651387,90.0957430351406,6.7841816,8.818133,24.560804,6.7903814,-8.989488,-9.912535,5.219916,-6.8460197,-20.211273,7.501617,-9.988276,4.7360396,-1.6981971,-0.55162394,9.132874,0.8344794,12.308335,-26.95297,63.218807,13.225086,-2.6024504,8.676533,-1.9648104,-11.113919,36.559887,61.126602,-14.272173,-2.2807434,-9.898967
126,0.10880576074123383,-1.6727696657180786,77.16529083251953,-0.4570942479567819,-1.317565482227123,90.09104690593233,6.78143,8.828937,24.549084,6.791016,-8.989801,-9.918534,5.2195616,-6.833185,-20.204782,7.494091,-9.983056,4.7381,-1.7021209,-0.5500776,9.139593,0.8434307,12.30899,-26.94963,63.227337,13.220319,-2.5908258,8.697142,-1.969756,-11.112547,36.560303,61.120655,-14.263732,-2.2900007,-9.907425
127,0.11774715781211853,-1.6759634017944336,77.16667938232422,-0.4628858840162481,-1.3170652467026418,90.08697698951227,6.7772055,8.840862,24.53628,6.7909265,-8.989072,-9.927037,5.218634,-6.818633,-20.199512,7.4833436,-9.975215,4.7400885,-1.7065231,-0.54767543,9.14518,0.85001403,12.309619,-26.946419,63.237206,13.215463,-2.5788126,8.716415,-1.9755073,-11.110713,36.5589,61.115566,-14.257426,-2.2990098,-9.918129
128,0.12225784361362457,-1.676854133605957,77.1692886352539,-0.468356023417893,-1.3132319702794224,90.08107357869099,6.7706466,8.853737,24.531748,6.790379,-8.985553,-9.9372425,5.212804,-6.8036933,-20.19401,7.4741263,-9.96747,4.736799,-1.7083671,-0.54621875,9.148045,0.85369366,12.310496,-26.944504,63.24478,13.212897,-2.5704408,8.724788,-1.9815961,-11.108507,36.55788,61.111305,-14.252766,-2.304306,-9.928859
129,0.1275642365217209,-1.6767312288284302,77.17237091064453,-0.4738334546463415,-1.3045882623194478,90.07277841885146,6.760828,8.8683605,24.5388,6.790848,-8.9792,-9.951502,5.1991076,-6.78862,-20.189856,7.4708467,-9.962624,4.725325,-1.7071385,-0.5458572,9.146632,0.8537079,12.310822,-26.944782,63.25018,13.213248,-2.5685105,8.71475,-1.9846084,-11.108018,36.55828,61.103485,-14.251081,-2.303724,-9.939342
130,0.13294930756092072,-1.6755342483520508,77.17455291748047,-0.47955497025701554,-1.2909637365764146,90.06229565056891,6.7478485,8.8849125,24.55357,6.788746,-8.968566,-9.969698,5.180805,-6.7708583,-20.18634,7.4636865,-9.954456,4.7085147,-1.7031988,-0.5459519,9.141622,0.8496547,12.311411,-26.945854,63.254684,13.21534,-2.5696173,8.693209,-1.9880189,-11.107501,36.559704,61.094475,-14.250784,-2.2990205,-9.952268
131,0.14020222425460815,-1.6811463832855225,77.17488861083984,-0.48579368586619265,-1.274560092335612,90.04999426253809,6.7312126,8.902058,24.571634,6.7892675,-8.958908,-9.986374,5.156054,-6.754063,-20.17924,7.4621997,-9.9485,4.690874,-1.6962653,-0.5484624,9.133759,0.837038,12.315633,-26.949795,63.265266,13.214731,-2.572715,8.668344,-1.9906437,-11.10463,36.56493,61.08515,-14.246335,-2.291545,-9.967504
132,0.14881031215190887,-1.6908317804336548,77.16989135742188,-0.49000172852177976,-1.2640377616188494,90.04059199949528,6.7203155,8.914738,24.585423,6.7886724,-8.950875,-9.995751,5.138086,-6.7412887,-20.169561,7.4603667,-9.942404,4.677981,-1.6942003,-0.5526796,9.128678,0.8359983,12.321348,-26.951393,63.267136,13.215416,-2.572434,8.660695,-1.9925667,-11.100967,36.568314,61.080986,-14.240668,-2.2887971,-9.976884
133,0.15173044800758362,-1.6922433376312256,77.17172241210938,-0.49084765761769245,-1.2607298253436274,90.0355204698105,6.7153287,8.922009,24.592957,6.789091,-8.947203,-9.992508,5.1266394,-6.7347193,-20.153282,7.4620767,-9.93824,4.672559,-1.6973754,-0.5556889,9.127748,0.83915776,12.322202,-26.951006,63.26926,13.219355,-2.56787,8.675716,-1.992078,-11.100333,36.568485,61.080555,-14.231959,-2.290897,-9.979194
134,0.15414221584796906,-1.6919996738433838,77.17066955566406,-0.4906360064846646,-1.259341454996642,90.03116035182856,6.711918,8.925835,24.5997,6.789839,-8.945925,-9.981057,5.1147456,-6.732179,-20.130222,7.467395,-9.935152,4.6710715,-1.7028949,-0.56222296,9.12582,0.8483662,12.324185,-26.948397,63.2692,13.227407,-2.5601819,8.709313,-1.9902397,-11.098483,36.568974,61.083622,-14.219112,-2.2957783,-9.977264
135,0.16277839243412018,-1.6967499256134033,77.17276000976562,-0.48961939015828265,-1.259041861542072,90.02624060794638,6.709905,8.928927,24.606045,6.789581,-8.943716,-9.970158,5.10517,-6.7295823,-20.10866,7.470541,-9.931016,4.669673,-1.7088119,-0.5676298,9.12467,0.8590512,12.325962,-26.943438,63.26607,13.234366,-2.5530965,8.74195,-1.989082,-11.0963745,36.569225,61.08849,-14.207934,-2.3014398,-9.974265
136,0.16981767117977142,-1.70380699634552,77.17594909667969,-0.49070846123166945,-1.25709809513343,90.0176226833453,6.7053285,8.935904,24.61458,6.7905664,-8.938674,-9.968931,5.0940824,-6.72298,-20.094128,7.4730563,-9.9268875,4.6642942,-1.7089014,-0.56931484,9.124037,0.8624176,12.326504,-26.940668,63.265026,13.2336035,-2.5497031,8.7596245,-1.9884117,-11.095659,36.568897,61.090317,-14.200688,-2.305487,-9.974128
137,0.17455483973026276,-1.7012443542480469,77.18356323242188,-0.49615318937532005,-1.2472811803445347,90.00173469360907,6.6937795,8.948242,24.627707,6.7889214,-8.927487,-9.984551,5.076328,-6.7083454,-20.090166,7.4699793,-9.919574,4.6510873,-1.7031221,-0.5697066,9.119754,0.8640618,12.329127,-26.929913,63.25856,13.214141,-2.5593126,8.754087,-1.9910603,-11.092553,36.567863,61.089066,-14.199512,-2.3092725,-9.976355
138,0.1770104616880417,-1.7105473279953003,77.18254852294922,-0.5040388440332808,-1.2341575292792082,89.98288233143263,6.677733,8.963978,24.641405,6.7874265,-8.912649,-10.010354,5.057237,-6.6893625,-20.094868,7.46283,-9.910682,4.633614,-1.6944346,-0.56597406,9.114973,0.86210793,12.331815,-26.917488,63.249187,13.179832,-2.5783694,8.729881,-1.9976181,-11.089908,36.566284,61.088463,-14.202658,-2.312938,-9.979743
139,0.1839563399553299,-1.7180068492889404,77.18269348144531,-0.5108137799036185,-1.2254709909682349,89.96260162210841,6.666338,8.978808,24.657162,6.7882113,-8.899031,-10.035295,5.040538,-6.672524,-20.098429,7.4608917,-9.904521,4.617005,-1.6814004,-0.563254,9.1123,0.8594339,12.332432,-26.912724,63.24188,13.161085,-2.5857337,8.714937,-1.9997013,-11.089385,36.565403,61.08496,-14.205894,-2.3156936,-9.983925
140,0.18917550146579742,-1.731609582901001,77.17990112304688,-0.514019982572531,-1.2225921791070544,89.93710129776134,6.665074,8.989518,24.682253,6.7863345,-8.886264,-10.048494,5.025896,-6.660043,-20.086367,7.4611335,-9.897238,4.605212,-1.6674075,-0.563876,9.11996,0.8517559,12.335212,-26.894327,63.236546,13.195965,-2.5659592,8.719337,-2.0051382,-11.087468,36.5629,61.08135,-14.216918,-2.3181818,-9.988693
141,0.19176392257213593,-1.7359918355941772,77.1795883178711,-0.5107862952991502,-1.2352970378905619,89.90793565616643,6.684641,8.9919815,24.71765,6.785493,-8.87785,-10.042655,5.02207,-6.658596,-20.053802,7.4714665,-9.89442,4.6020427,-1.6491517,-0.57212985,9.138778,0.8480803,12.337094,-26.881681,63.234074,13.318135,-2.4939299,8.771378,-2.0061736,-11.0862465,36.563778,61.079727,-14.235488,-2.3200517,-9.9945
142,0.19896502792835236,-1.7475450038909912,77.17992401123047,-0.5037982117067327,-1.2575082609856856,89.87412838732621,6.7165065,8.9899435,24.762157,6.786713,-8.872001,-10.025382,5.0225654,-6.663971,-20.006496,7.4906263,-9.895112,4.6040006,-1.6314194,-0.5859437,9.167907,0.847897,12.339914,-26.858152,63.229584,13.506806,-2.3866668,8.850466,-2.0080202,-11.084188,36.56891,61.07828,-14.262809,-2.3213627,-10.000907
143,0.19726501405239105,-1.752023458480835,77.18341827392578,-0.4963682899747802,-1.2811886853486576,89.8417686911522,6.7496815,8.987035,24.804388,6.7868924,-8.867144,-10.0063715,5.0248637,-6.6697326,-19.959879,7.507975,-9.894111,4.607318,-1.6155585,-0.5992542,9.196577,0.8461036,12.342177,-26.837898,63.22783,13.688297,-2.2800438,8.93079,-2.0093877,-11.082348,36.57598,61.077343,-14.281487,-2.3216193,-10.00763
144,0.20061565935611725,-1.7573751211166382,77.18629455566406,-0.49268482438257655,-1.298156365773566,89.81707044798037,6.770752,8.987546,24.832426,6.7863555,-8.862144,-9.995713,5.0234866,-6.671024,-19.928974,7.519978,-9.890291,4.6082225,-1.6062269,-0.60718125,9.21755,0.8410666,12.343616,-26.824232,63.226902,13.797136,-2.2103603,8.984855,-2.0122209,-11.081434,36.580288,61.077168,-14.278332,-2.3206701,-10.012532
145,0.20237424969673157,-1.7600963115692139,77.1863784790039,-0.4965638457700711,-1.3079483712286917,89.80378706432838,6.7763767,8.995162,24.839066,6.786788,-8.858119,-10.00211,5.021639,-6.6636233,-19.922037,7.5208473,-9.882183,4.606873,-1.6106559,-0.60734206,9.229714,0.8337591,12.345319,-26.81458,63.22738,13.81531,-2.184958,9.007924,-2.0159876,-11.080679,36.58388,61.074482,-14.241223,-2.3186395,-10.012614
146,0.1995626837015152,-1.7728362083435059,77.18289947509766,-0.503071644419175,-1.3152151159951777,89.79774441409207,6.775251,9.006683,24.832085,6.786117,-8.85453,-10.018212,5.021574,-6.651129,-19.92956,7.5144405,-9.871294,4.6049485,-1.6227739,-0.60408556,9.240523,0.82357806,12.346496,-26.808235,63.227215,13.781724,-2.182691,9.015976,-2.0224001,-11.080426,36.586834,61.06962,-14.178066,-2.3150175,-10.010153
147,0.20690494775772095,-1.7845183610916138,77.18305969238281,-0.5105837171369306,-1.3169082015036928,89.79356833023989,6.7657523,9.016873,24.821972,6.7853765,-8.850518,-10.029989,5.0156894,-6.6392083,-19.94005,7.505896,-9.856761,4.600671,-1.6445655,-0.60306436,9.248989,0.81099975,12.352953,-26.787903,63.225918,13.710669,-2.209392,9.000919,-2.0354562,-11.079767,36.598434,61.066193,-14.10963,-2.3100295,-10.008779
148,0.2104959487915039,-1.797184944152832,77.18697357177734,-0.5135071783524849,-1.3097208922016494,89.78536359690044,6.7464805,9.020212,24.819763,6.786688,-8.846656,-10.02314,4.9920015,-6.635922,-19.94056,7.5099683,-9.8432455,4.5925093,-1.6513659,-0.6021218,9.245535,0.80367476,12.35542,-26.773882,63.21638,13.619479,-2.2590857,8.967069,-2.0383558,-11.079904,36.595222,61.0638,-14.069444,-2.3031988,-10.014618
149,0.2071496993303299,-1.8100401163101196,77.19503021240234,-0.5079263330330744,-1.2913647086273492,89.77032304620964,6.7169476,9.01338,24.828867,6.7879553,-8.843415,-9.986134,4.947187,-6.643383,-19.926361,7.526821,-9.8288965,4.5780745,-1.647295,-0.6086977,9.237422,0.7944792,12.3591,-26.739086,63.206398,13.503328,-2.3633533,8.895082,-2.0410802,-11.080998,36.58445,61.063145,-14.065897,-2.2950165,-10.026936
150,0.20353594422340393,-1.8256332874298096,77.20050811767578,-0.499462733810507,-1.2641372296415134,89.75185701706366,6.6779413,9.000053,24.843517,6.790121,-8.841211,-9.929329,4.885218,-6.658853,-19.904068,7.5563445,-9.815886,4.558945,-1.6439892,-0.61995,9.2289715,0.7927092,12.364889,-26.675169,63.182785,13.36574,-2.5110223,8.789882,-2.0459058,-11.084569,36.570038,61.059414,-14.087708,-2.2856247,-10.042141
151,0.1980314701795578,-1.838344931602478,77.20858001708984,-0.48875777568803636,-1.2317760134961617,89.73393358093062,6.6320868,8.984301,24.85997,6.791551,-8.835227,-9.870624,4.81673,-6.6760483,-19.880913,7.5840263,-9.79884,4.539171,-1.6338495,-0.62755525,9.204976,0.78775525,12.3670635,-26.63692,63.160305,13.207483,-2.6485555,8.683916,-2.041346,-11.086778,36.552326,61.05874,-14.111013,-2.2736816,-10.063992
152,0.1956486999988556,-1.8581899404525757,77.21195983886719,-0.4798962150345646,-1.1986555343523222,89.71972252402558,6.5817995,8.969655,24.87509,6.7919774,-8.820951,-9.828191,4.745924,-6.692625,-19.862324,7.6095347,-9.779175,4.522919,-1.64335,-0.6322244,9.193843,0.77732384,12.37416,-26.55975,63.11202,13.102201,-2.7324157,8.581607,-2.0416477,-11.094648,36.50737,61.038685,-14.156923,-2.2645311,-10.073536
153,0.19950638711452484,-1.8822805881500244,77.2164535522461,-0.4747747433656259,-1.1681930961979332,89.71543324132085,6.5303454,8.959357,24.884062,6.790971,-8.79618,-9.813845,4.686164,-6.7034173,-19.856936,7.6174636,-9.753436,4.5116444,-1.6619487,-0.62622744,9.167778,0.76099485,12.381094,-26.521814,63.062088,13.018535,-2.7298982,8.505397,-2.0282595,-11.101343,36.451393,61.017006,-14.20443,-2.2518625,-10.083974
154,0.19304528832435608,-1.906110167503357,77.2232666015625,-0.47097710403806,-1.1376956882935978,89.71710055281173,6.4766655,8.950243,24.890385,6.7881675,-8.763782,-9.815533,4.628494,-6.712594,-19.858698,7.6194334,-9.725487,4.503058,-1.6816869,-0.6148226,9.139938,0.73391646,12.390557,-26.496792,63.005295,12.957593,-2.6750243,8.435617,-2.0036533,-11.1090765,36.36456,60.982876,-14.274028,-2.2387109,-10.089596
155,0.18688073754310608,-1.9280439615249634,77.22891235351562,-0.4665699735078328,-1.1007798486925668,89.71477741252413,6.4129415,8.939394,24.901182,6.786745,-8.727754,-9.815971,4.5581827,-6.723846,-19.854784,7.622365,-9.690448,4.4953446,-1.6939311,-0.6026027,9.1109,0.6992613,12.401132,-26.471407,62.93105,12.900487,-2.602902,8.37177,-1.9766527,-11.11735,36.262836,60.936985,-14.338117,-2.2277317,-10.094332
156,0.17017480731010437,-1.9558653831481934,77.23656463623047,-0.46013344455727995,-1.0517243235719962,89.69865831524203,6.333823,8.923106,24.92359,6.784263,-8.688858,-9.798094,4.460187,-6.740715,-19.83216,7.6341133,-9.643677,4.486844,-1.6806484,-0.59613943,9.095304,0.65706336,12.424404,-26.427094,62.81466,12.838161,-2.5515835,8.305832,-1.946001,-11.138646,36.1289,60.853596,-14.3886,-2.2238371,-10.093323
157,0.15051361918449402,-1.9791901111602783,77.25094604492188,-0.4513507634244293,-0.9900682442318207,89.6642903568481,6.239301,8.900912,24.962149,6.783507,-8.649952,-9.757659,4.333151,-6.7635064,-19.781122,7.654818,-9.582504,4.478385,-1.6736836,-0.5968766,9.085481,0.6342841,12.44427,-26.322704,62.642517,12.77037,-2.52505,8.243433,-1.9351532,-11.162003,36.028534,60.756123,-14.383705,-2.2264705,-10.094955
158,0.13457466661930084,-2.0254106521606445,77.26203155517578,-0.441577454935403,-0.918551690663367,89.61757974877487,6.13267,8.874259,25.012573,6.7818675,-8.607759,-9.703785,4.1831045,-6.7909684,-19.710337,7.6826153,-9.510244,4.470589,-1.6731981,-0.6018361,9.088414,0.62746793,12.470421,-26.163696,62.412674,12.71095,-2.507263,8.180175,-1.9315379,-11.200193,35.93855,60.62509,-14.348362,-2.2345176,-10.092306
159,0.10952863097190857,-2.0769646167755127,77.27499389648438,-0.42997049111908003,-0.8356099107098013,89.56389950347157,6.0097246,8.843986,25.067984,6.781691,-8.563552,-9.638832,4.0122128,-6.8217125,-19.635862,7.711797,-9.428047,4.4610195,-1.6799572,-0.6048871,9.0923605,0.621723,12.504897,-25.983494,62.153442,12.648908,-2.4961646,8.116864,-1.9284496,-11.259122,35.86081,60.468502,-14.301829,-2.2423391,-10.090238
160,0.08516813814640045,-2.1325206756591797,77.29229736328125,-0.4175922168302195,-0.7398258057426778,89.50860063708967,5.8672657,8.8108425,25.121557,6.7805667,-8.514428,-9.565635,3.8213987,-6.8547983,-19.573555,7.738936,-9.337406,4.4473147,-1.681035,-0.5997593,9.074197,0.5755019,12.528966,-25.830238,61.936813,12.575737,-2.4897807,8.060171,-1.9394832,-11.301441,35.77483,60.34833,-14.276908,-2.2466385,-10.098142
161,0.06794373691082001,-2.1948461532592773,77.31297302246094,-0.4056603596602676,-0.6339227796341134,89.45313020428812,5.7086997,8.777575,25.170742,6.7802916,-8.463389,-9.483042,3.6150708,-6.8875284,-19.543608,7.7650905,-9.240934,4.425169,-1.6852114,-0.58472854,9.048744,0.51037455,12.567417,-25.695206,61.729797,12.501033,-2.487425,8.011193,-1.95052,-11.365877,35.705956,60.22231,-14.268534,-2.2439973,-10.105894
162,0.031212840229272842,-2.2620842456817627,77.32522583007812,-0.39617772083395875,-0.5177231333255417,89.39475500354071,5.5346966,8.743788,25.219126,6.7797194,-8.409521,-9.390406,3.3931906,-6.9193277,-19.53208,7.787279,-9.134925,4.3966913,-1.6832733,-0.5620341,9.012069,0.42074957,12.608824,-25.579855,61.539146,12.420239,-2.4895144,7.971846,-1.9674997,-11.431845,35.64243,60.106884,-14.268458,-2.2377796,-10.116852
163,-0.001671155565418303,-2.328749656677246,77.34078979492188,-0.38534547992250046,-0.38478172124372456,89.3326240608701,5.336572,8.706183,25.270212,6.7795825,-8.350246,-9.290308,3.143621,-6.955103,-19.504812,7.81094,-9.019311,4.3713894,-1.6851752,-0.53489137,8.971407,0.32365945,12.667371,-25.459322,61.31972,12.322598,-2.498969,7.9161673,-1.9711107,-11.519935,35.556,59.95286,-14.282719,-2.2312763,-10.133403
164,-0.03823211416602135,-2.400893449783325,77.35633087158203,-0.3708538946824405,-0.22888945185759432,89.26591014103803,5.107114,8.6597185,25.327011,6.7779765,-8.282109,-9.185663,2.8604038,-6.998443,-19.429276,7.8289785,-8.887361,4.3591685,-1.6952621,-0.506927,8.917985,0.21124926,12.730221,-25.321295,61.075294,12.196805,-2.518186,7.827109,-1.9674442,-11.607014,35.41238,59.774178,-14.324043,-2.2289176,-10.16601
165,-0.07884056866168976,-2.4882829189300537,77.37242889404297,-0.3503121305628861,-0.039104887219778284,89.19811790674547,4.833597,8.599794,25.385406,6.7755575,-8.206333,-9.0798235,2.533455,-7.053417,-19.285112,7.84057,-8.738348,4.3667245,-1.7154207,-0.48100847,8.844538,0.09712359,12.808592,-25.156874,60.78191,12.022669,-2.5526423,7.672375,-1.941106,-11.7052765,35.200436,59.54365,-14.418224,-2.229643,-10.215568
166,-0.1389094889163971,-2.577207326889038,77.38975524902344,-0.32571398844941263,0.17806017797659057,89.12839148516673,4.523959,8.52902,25.444607,6.7712593,-8.12288,-8.970595,2.1698704,-7.117189,-19.093027,7.8473926,-8.574795,4.387278,-1.7428848,-0.45587048,8.752642,-0.025468908,12.89749,-24.97587,60.459225,11.812426,-2.598817,7.4724536,-1.9050784,-11.80728,34.93874,59.286236,-14.552972,-2.2321384,-10.279715
167,-0.19197115302085876,-2.676766872406006,77.40596771240234,-0.2923152299163194,0.40266893429058703,89.04845403164195,4.2003927,8.446259,25.515318,6.7667212,-8.030765,-8.8514185,1.7803459,-7.1938057,-18.880089,7.864437,-8.404011,4.4122267,-1.7740338,-0.43610674,8.668062,-0.16535492,12.996849,-24.788446,60.111332,11.599798,-2.64621,7.277924,-1.8645676,-11.912659,34.63768,59.00161,-14.676162,-2.2389026,-10.352937
168,-0.24458903074264526,-2.771368980407715,77.42769622802734,-0.24798023429129196,0.6150280995503907,88.950211425467,3.8864322,8.349187,25.607964,6.7614613,-7.928593,-8.715635,1.383613,-7.2847695,-18.67353,7.8883753,-8.224263,4.4318013,-1.805647,-0.42768335,8.614907,-0.3327884,13.105304,-24.605103,59.74607,11.41856,-2.6848736,7.1401544,-1.8290114,-12.021364,34.30758,58.69619,-14.736172,-2.2523863,-10.430348
169,-0.29579704999923706,-2.8880774974823,77.4478988647461,-0.16883367887397707,0.8237714051460907,88.8293258402526,3.5718613,8.210289,25.73211,6.7538714,-7.814168,-8.554841,0.7144264,-7.5035696,-18.441963,8.476503,-8.337037,4.444268,-1.8294078,-0.45383295,8.587186,-0.5386764,13.221788,-24.429352,59.376892,11.264989,-2.7226784,7.0685368,-1.8022137,-12.132679,33.950954,58.369556,-14.707797,-2.2754548,-10.511266
170,-0.3635208010673523,-3.0334181785583496,77.45394134521484,-0.05393125926636247,1.0335139466882306,88.69221333288864,3.2512925,8.028391,25.879797,6.7431226,-7.6882243,-8.374391,-0.12146664,-7.8110337,-18.182913,9.387557,-8.611581,4.454246,-1.8506608,-0.5150251,8.576049,-0.7764025,13.34651,-24.256102,58.998657,11.125086,-2.7616851,7.0374646,-1.7805521,-12.2470455,33.562054,58.022118,-14.622926,-2.3061693,-10.59827
171,-0.44137948751449585,-3.1805951595306396,77.45720672607422,0.057234562421269786,1.2269405775033888,88.53928622918788,2.8918073,7.8748245,26.034674,6.863886,-7.6266265,-8.184501,-0.97954905,-8.123093,-17.908834,10.354945,-8.891673,4.4706964,-1.8779818,-0.57234496,8.594977,-1.0296233,13.480168,-24.082859,58.58867,11.018846,-2.7840872,7.0449023,-1.7544172,-12.362091,33.139023,57.649647,-14.512791,-2.3396206,-10.69067
172,-0.522574245929718,-3.3365983963012695,77.44815063476562,0.1463743081815166,1.3925689614946228,88.36708555971003,2.547676,7.7543383,26.199461,7.0298386,-7.5850244,-7.994182,-1.8666826,-8.423022,-17.607496,11.432261,-9.18393,4.5009904,-1.916888,-0.6084878,8.648556,-1.2807995,13.623719,-23.906986,58.124874,10.965751,-2.7716928,7.0888124,-1.7175114,-12.476305,32.680004,57.25446,-14.410266,-2.3710997,-10.787789
173,-0.6080260276794434,-3.487823247909546,77.43343353271484,0.21345491062143615,1.541214036549494,88.18349199029804,2.0988567,7.732463,26.402107,7.5034695,-7.7096577,-7.803092,-2.757574,-8.698848,-17.300467,12.551818,-9.460421,4.535728,-1.9745369,-0.6212348,8.720102,-1.5242069,13.778322,-23.722342,57.60302,10.996413,-2.71096,7.167299,-1.6683886,-12.588972,32.191414,56.84244,-14.325582,-2.4029627,-10.886445
174,-0.6956610083580017,-3.639244556427002,77.413330078125,0.2629047465860436,1.6753609451289435,87.98804374378552,1.294578,7.9264846,26.592545,8.860196,-8.29714,-7.6110034,-3.6595252,-8.958066,-16.987299,13.71457,-9.728447,4.5718837,-2.047642,-0.6166743,8.811501,-1.7680907,13.944127,-23.531359,57.0328,11.092109,-2.6139934,7.2813125,-1.6126994,-12.700281,31.672258,56.414116,-14.241597,-2.4366078,-10.988187
175,-0.7842607498168945,-3.7964913845062256,77.38864135742188,0.29830944443141133,1.7703512338528584,87.76302478500814,0.48477995,8.157389,26.726933,10.328577,-8.930085,-7.4209104,-4.5770025,-9.203637,-16.628675,14.962294,-9.989909,4.624335,-2.1243982,-0.5981179,8.956765,-2.016964,14.119388,-23.347357,56.41247,11.195843,-2.501284,7.4333057,-1.5511,-12.808347,31.109816,55.955875,-14.146702,-2.4657066,-11.09864
176,-0.8994508385658264,-3.9815430641174316,77.34485626220703,0.3228062760509451,1.8013484157248465,87.49122467985225,-0.31434888,8.411809,26.71502,11.915896,-9.5998335,-7.2397466,-5.509678,-9.43509,-16.186165,16.325687,-10.239232,4.708462,-2.1922722,-0.5680459,9.189437,-2.2756665,14.300865,-23.184189,55.741253,11.251188,-2.3932905,7.626133,-1.4845074,-12.910109,30.490007,55.455513,-14.030145,-2.48383,-11.223629
177,-1.0127532482147217,-4.173603057861328,77.28953552246094,0.3294660520489049,1.7535562196437964,87.16235108439483,-1.0478357,8.71748,26.729158,13.590562,-10.312425,-7.0901275,-6.462276,-9.646478,-15.647329,17.844454,-10.497167,4.827687,-2.242623,-0.5178283,9.523629,-2.5478582,14.487289,-23.060467,55.018867,11.234586,-2.2877295,7.8884172,-1.4066294,-13.002543,29.78673,54.9104,-13.91009,-2.476967,-11.366697
178,-1.1359832286834717,-4.367961883544922,77.2250747680664,0.3169942002965466,1.6427320902948288,86.7871589197925,-1.7378229,9.076853,26.749735,15.352612,-11.067809,-6.9588766,-7.4364467,-9.835062,-15.034076,19.497232,-10.760141,4.971692,-2.2817845,-0.4451454,9.938694,-2.833146,14.677765,-22.967499,54.24931,11.17807,-2.1761286,8.210116,-1.3213294,-13.084634,29.011528,54.32982,-13.785863,-2.4527972,-11.524412
179,-1.2663605213165283,-4.561971664428711,77.14720916748047,0.29255869677936924,1.4901497358049396,86.38000966690525,-2.4890845,9.426296,26.399153,17.249365,-11.839736,-6.802423,-8.418996,-10.000538,-14.362139,21.205076,-10.986854,5.1380043,-2.3226633,-0.36298367,10.414942,-3.1288183,14.8691845,-22.874666,53.439762,11.109716,-2.0703561,8.5364895,-1.24797,-13.158933,28.209173,53.725674,-13.620054,-2.4376037,-11.692427
180,-1.4062676429748535,-4.769152641296387,77.0540542602539,0.2617557273656323,1.3172883690778203,85.95512097090848,-3.4095662,9.682813,25.302187,19.314043,-12.593482,-6.582438,-9.402227,-10.141503,-13.647136,22.901155,-11.136253,5.327771,-2.379496,-0.28256446,10.9333935,-3.4321916,15.057086,-22.748802,52.59673,11.05886,-1.9819974,8.812692,-1.2015938,-13.228551,27.427994,53.10459,-13.373239,-2.457972,-11.865942
181,-1.550881028175354,-4.9892778396606445,76.95435333251953,0.2300557898764995,1.1118455605226496,85.53157196503075,-4.5551214,9.790335,23.295149,21.62567,-13.349942,-6.215148,-10.371325,-10.268776,-12.903043,24.60189,-11.199048,5.553774,-2.4686928,-0.20896351,11.501461,-3.7348852,15.239137,-22.55215,51.71031,11.06484,-1.9245626,8.983343,-1.172856,-13.296152,26.669264,52.46403,-12.989675,-2.5284946,-12.044685
182,-1.7240172624588013,-5.217231273651123,76.86038208007812,0.19212169679196003,0.868427038256168,85.0964657494361,-5.852878,9.744653,20.60806,24.10841,-14.091173,-5.7588573,-11.333056,-10.3713,-12.121163,26.32939,-11.19458,5.818261,-2.5818903,-0.13357691,12.124629,-4.0410533,15.415468,-22.307703,50.782127,11.103238,-1.8884234,9.09116,-1.1569022,-13.362717,25.916307,51.80013,-12.503855,-2.633222,-12.230102
183,-1.9074740409851074,-5.455699920654297,76.75658416748047,0.14260973005760935,0.6188890065872554,84.6158278337749,-7.2129526,9.528179,17.4621,26.565561,-14.726536,-5.3923807,-12.303983,-10.418514,-11.282745,28.009764,-11.121297,6.1089497,-2.6937056,-0.05317568,12.779684,-4.3670506,15.58535,-22.074934,49.83859,11.108896,-1.8504564,9.229036,-1.1743312,-13.429888,25.187418,51.120567,-12.014166,-2.7524073,-12.420445
184,-2.1112060546875,-5.706314563751221,76.64411926269531,0.08016136472820799,0.3950634187451203,84.05554494379197,-8.55799,9.150124,14.075749,28.849218,-15.193708,-5.2922378,-13.310919,-10.388123,-10.366626,29.59127,-10.984844,6.4118047,-2.778572,0.032778103,13.442757,-4.7285256,15.747258,-21.913597,48.90653,11.016607,-1.7879277,9.490064,-1.2463838,-13.500019,24.501244,50.43392,-11.618585,-2.8657544,-12.614634
185,-2.328064203262329,-5.954728603363037,76.5018310546875,0.008840265393229546,0.18088318802029085,83.45446151847752,-9.890624,8.5469055,10.319476,30.987043,-15.454404,-5.5564985,-14.322217,-10.298604,-9.386875,31.072294,-10.792924,6.7472596,-2.8594747,0.12249316,14.12316,-5.1494784,15.90271,-21.872047,48.005295,10.763154,-1.6833321,9.923129,-1.3555722,-13.575912,23.847805,49.72321,-11.337479,-2.97081,-12.796339
186,-2.543070077896118,-6.240799427032471,76.36123657226562,-0.06443665659942573,-0.03196298078189202,82.8156836756367,-11.214785,7.69963,6.1599145,33.07893,-15.578587,-6.0939803,-15.342122,-10.161027,-8.346583,32.492332,-10.548492,7.117916,-2.9364831,0.20994312,14.827614,-5.6154,16.050875,-21.913033,47.116364,10.396904,-1.5548689,10.471492,-1.4902321,-13.65827,23.217413,48.983658,-11.121484,-3.0770762,-12.970814
187,-2.770310878753662,-6.550587177276611,76.21864318847656,-0.13931515238462935,-0.20115344359845444,82.05062885427786,-12.455664,6.7239804,1.9415872,35.051624,-15.655627,-6.779998,-16.433044,-9.931652,-7.2103887,33.825985,-10.2333355,7.4832067,-2.953722,0.29472342,15.528021,-6.0849056,16.185753,-21.964098,46.213966,10.019918,-1.4330198,11.070714,-1.6875579,-13.745928,22.635275,48.250656,-10.962657,-3.181368,-13.170953
188,-3.0599308013916016,-6.8258137702941895,76.06014251708984,-0.2196314848750172,-0.2856742719353017,81.07001274583197,-13.565892,5.76783,-2.008658,36.819035,-15.76341,-7.4732647,-17.651348,-9.559198,-5.9473553,35.04277,-9.826696,7.8063107,-2.8579721,0.38219976,16.195913,-6.517981,16.299313,-21.947624,45.276005,9.736808,-1.3457577,11.65591,-1.9897778,-13.836391,22.130089,47.565666,-10.853191,-3.2806997,-13.430814
189,-3.364562511444092,-7.121362686157227,75.89244079589844,-0.3155876582540457,-0.2700570860333222,79.860968321203,-14.571224,4.841483,-5.7827225,38.346302,-15.899059,-8.133131,-19.030603,-9.028969,-4.54365,36.168068,-9.314401,8.08113,-2.6399257,0.49231932,16.81433,-6.9223166,16.38887,-21.857012,44.318363,9.605842,-1.3159524,12.221603,-2.4068124,-13.928754,21.713188,46.935944,-10.801318,-3.3684165,-13.791931
190,-3.6828794479370117,-7.442091464996338,75.71976470947266,-0.4275241821618149,-0.18074382358697685,78.46698701897171,-15.483738,3.900594,-9.510865,39.684837,-16.03248,-8.826341,-20.518127,-8.355588,-3.0260086,37.19871,-8.7061205,8.3364105,-2.3322113,0.62229276,17.398573,-7.3168645,16.451221,-21.721077,43.357426,9.566584,-1.3221813,12.799572,-2.9279873,-14.016709,21.375296,46.35752,-10.808809,-3.4473715,-14.228849
191,-4.020008087158203,-7.7880754470825195,75.54312896728516,-0.5472683431022691,-0.039843661003891126,76.88222163291759,-16.277712,3.042002,-12.937072,40.867706,-16.189508,-9.556694,-22.043667,-7.530868,-1.4250504,38.069557,-8.020854,8.590284,-1.9368027,0.7491845,17.978199,-7.6701336,16.49348,-21.52272,42.34561,9.538039,-1.3243023,13.377086,-3.5432682,-14.114123,21.103855,45.817772,-10.853718,-3.529084,-14.667451
192,-4.376298904418945,-8.122978210449219,75.35470581054688,-0.666168695419277,0.1312041003866205,75.10012507814882,-16.953775,2.3713465,-15.804732,41.934166,-16.396206,-10.322735,-23.538837,-6.5537367,0.23244213,38.716343,-7.278797,8.860318,-1.467047,0.84706146,18.572067,-7.9569173,16.50411,-21.23128,41.262383,9.449006,-1.2842782,13.944907,-4.2725143,-14.209658,20.903086,45.349083,-10.917434,-3.6249845,-15.041756
193,-4.796983242034912,-8.426109313964844,75.15681457519531,-0.8012137619605244,0.33237415147245636,73.08789962809573,-17.509632,1.9013368,-18.224304,42.83961,-16.643314,-11.156114,-24.974432,-5.420962,1.9690021,39.07582,-6.5062175,9.124102,-0.90007675,0.93515104,19.188303,-8.160015,16.470144,-20.829128,40.07998,9.311408,-1.1676388,14.530999,-5.1353464,-14.308268,20.79273,44.97951,-10.995461,-3.7446108,-15.357268
194,-5.215250492095947,-8.759881019592285,74.95557403564453,-0.9565057963736744,0.5694042566979117,70.85999452804538,-17.98747,1.6078856,-20.286562,43.579716,-16.91523,-12.032153,-26.374084,-4.1469812,3.7907455,39.190487,-5.6846976,9.38433,-0.24163732,1.0268762,19.81393,-8.303321,16.388231,-20.33213,38.8295,9.156108,-1.0039822,15.131894,-6.121283,-14.410618,20.769335,44.6924,-11.096446,-3.8791058,-15.642686
195,-5.649947166442871,-9.126323699951172,74.74595642089844,-1.1033193870931688,0.8326113605724924,68.47984625638506,-18.465523,1.5444317,-21.701286,44.247784,-17.223492,-12.863398,-27.757505,-2.7630982,5.6548214,39.15919,-4.7732224,9.702829,0.46173993,1.0841019,20.442118,-8.417662,16.276323,-19.770391,37.562313,8.933684,-0.8519533,15.689594,-7.1951103,-14.505279,20.792109,44.440277,-11.222544,-4.0133815,-15.863467
196,-6.104849338531494,-9.507064819335938,74.52798461914062,-1.2125908920478374,1.1155883603302978,66.00930872301102,-19.014988,1.7658557,-22.177185,44.93884,-17.583036,-13.5642,-29.14642,-1.2986536,7.5255065,39.073532,-3.7328537,10.153174,1.1657083,1.0614552,21.070063,-8.523164,16.166378,-19.174147,36.31444,8.593112,-0.7698909,16.14446,-8.324587,-14.572473,20.818079,44.17883,-11.37747,-4.13287,-15.985478
197,-6.569863319396973,-9.886924743652344,74.30076599121094,-1.2725416870589379,1.446079585894994,63.37411317213344,-19.632486,2.3808124,-21.458298,45.61685,-17.960793,-14.22791,-30.678295,0.36157095,9.641221,39.065845,-2.5438116,10.461558,1.931786,0.9202339,21.705189,-8.59789,16.079285,-18.512085,35.03442,8.089632,-0.78006613,16.45441,-9.534119,-14.592707,20.8098,43.91403,-11.57862,-4.2367744,-15.9657955
198,-7.067680358886719,-10.263710975646973,74.06511688232422,-1.3088296095595915,1.8191432023603331,60.57202759707169,-20.266695,3.3515258,-19.770374,46.261074,-18.363064,-14.8623905,-32.27631,2.1734962,11.956171,39.039127,-1.2279612,10.726015,2.758629,0.68363214,22.356842,-8.619107,16.020079,-17.779898,33.69556,7.4550624,-0.8478519,16.65655,-10.84295,-14.559961,20.80029,43.67903,-11.822791,-4.3337145,-15.835626
199,-7.562121868133545,-10.64804458618164,73.82292938232422,-1.2835899319770667,2.1705140811514347,57.76974965250091,-20.875427,4.441191,-17.476059,46.954884,-18.849607,-15.000033,-33.692024,3.8120108,14.087948,38.80695,0.0951886,11.577759,3.5102315,0.33997622,23.036854,-8.603587,15.99996,-17.047224,32.368977,6.7538557,-0.94668144,16.808254,-12.208828,-14.477728,20.851032,43.465508,-12.081994,-4.4232316,-15.671832
200,-8.087870597839355,-11.024724960327148,73.5660400390625,-1.3343319233184852,2.4705654371723873,55.13714607784002,-21.544037,5.6358886,-15.149299,47.87115,-19.53757,-15.000033,-34.68831,5.0985036,15.508502,38.018093,1.3423661,13.552985,4.0450106,0.046754748,23.706606,-8.566051,16.032373,-16.386034,31.123009,6.0480595,-1.0507449,16.96731,-13.582737,-14.356968,21.020807,43.25538,-12.327176,-4.5037093,-15.548995
201,-8.587188720703125,-11.404048919677734,73.29236602783203,-1.6204247985644917,2.636620308817389,52.67945289262304,-22.246092,7.1521635,-12.775902,49.159195,-20.586725,-14.481046,-35.007683,5.978492,15.390343,36.12479,2.7008646,15.000033,4.3293147,-0.053157136,24.433779,-8.485053,16.127306,-15.791698,29.909042,5.3189216,-1.1408302,17.135649,-14.997331,-14.204097,21.36076,43.04819,-12.510051,-4.5617805,-15.509714
202,-9.037734031677246,-11.79471492767334,73.0042724609375,-2.3012719575211427,2.628574402379771,50.30523857642506,-22.903238,9.2416935,-10.3286495,50.82425,-21.995268,-13.395115,-34.672237,6.7021604,13.645162,33.119602,4.267028,15.000033,4.4524302,0.19024368,25.270199,-8.349526,16.288704,-15.231453,28.69723,4.541532,-1.2346483,17.283478,-16.454132,-14.014327,21.82734,42.835308,-12.655648,-4.601445,-15.5047455
203,-9.467307090759277,-12.162334442138672,72.69319152832031,-2.9298585006373887,2.6080485448303343,48.01850538920851,-23.523485,11.330052,-7.873893,52.51095,-23.423368,-12.26801,-34.29697,7.2087264,11.450116,30.129837,5.4919667,15.000033,4.473838,0.3507616,26.061426,-8.198579,16.517332,-14.741827,27.591042,3.7687478,-1.3622779,17.422771,-17.85041,-13.782324,22.32749,42.579453,-12.845107,-4.6467357,-15.470287
204,-9.910380363464355,-12.499945640563965,72.35530853271484,-3.4036288463233486,2.6404765764167597,45.83353192296673,-24.098953,13.182954,-5.6818614,54.008217,-24.659397,-11.533523,-34.33195,7.5012026,9.1699705,28.06562,5.97491,15.000033,4.445508,0.34194604,26.722652,-8.081486,16.808764,-14.3624115,26.700829,3.0527925,-1.5547197,17.569168,-19.089987,-13.508738,22.761889,42.247593,-13.164966,-4.7239833,-15.343183
205,-10.367758750915527,-12.801448822021484,72.00091552734375,-3.7548738037106397,2.730186025718569,43.776141416764865,-24.645306,14.796942,-3.8368125,55.2668,-25.703836,-11.333427,-34.881878,7.587543,6.691591,27.140724,5.564488,15.000033,4.335303,0.19573945,27.22956,-8.012433,17.16756,-14.12514,26.056814,2.3506403,-1.8415006,17.748272,-20.171402,-13.192417,23.116882,41.847996,-13.696948,-4.8702116,-15.074712
206,-10.82992935180664,-13.112549781799316,71.64717102050781,-4.047465875270008,2.844972535914016,41.82791852152357,-25.181059,16.301838,-2.1823344,56.411255,-26.664156,-11.424967,-35.726807,7.474163,3.8194826,26.909485,4.548499,15.000033,4.133973,-0.033150714,27.62324,-7.9767904,17.594475,-14.009437,25.60827,1.6516759,-2.199949,17.945583,-21.138857,-12.836225,23.428905,41.391766,-14.379364,-5.0654216,-14.710695
207,-11.305851936340332,-13.426179885864258,71.29387664794922,-4.273995330965756,2.985408905683571,39.9509400548443,-25.715382,17.701305,-0.65786105,57.498653,-27.513239,-11.671338,-36.82031,7.1082015,0.6961178,27.3314,3.1802118,15.000033,3.9116595,-0.3426512,27.925385,-7.9847717,18.068874,-13.971511,25.349535,1.0596379,-2.5822902,18.119709,-21.973305,-12.460102,23.682735,40.856613,-15.080056,-5.2502713,-14.328303
208,-11.764389038085938,-13.718147277832031,70.94869995117188,-4.421784534569306,3.157340197345935,38.10599385837983,-26.256868,18.993252,0.79474634,58.58266,-28.219212,-11.936076,-38.092228,6.4325376,-2.5141664,28.357452,1.7069905,15.000033,3.746363,-0.7256013,28.15856,-8.056606,18.556192,-13.97292,25.284729,0.6809102,-2.9391363,18.232172,-22.638596,-12.094128,23.861027,40.204197,-15.666037,-5.361314,-14.0007925
209,-12.213635444641113,-13.964827537536621,70.61077117919922,-4.470621213513439,3.375030224435775,36.309226193761376,-26.833447,20.134361,2.1447542,59.66528,-28.750164,-12.241666,-39.53822,5.322306,-5.9040227,30.126621,0.030078094,15.000033,3.6468415,-1.1889143,28.32042,-8.248917,19.034744,-14.046443,25.514055,0.47538558,-3.3518467,18.246447,-23.084192,-11.76394,23.942478,39.344204,-16.142715,-5.3511887,-13.697478
210,-12.638421058654785,-14.235014915466309,70.28487396240234,-4.4202270387387355,3.614807029902282,34.60308408250165,-27.421692,21.109274,3.3679788,60.71878,-29.13716,-12.634651,-41.07399,3.7384517,-9.492165,32.609814,-1.9255414,15.000033,3.5560937,-1.7239361,28.426289,-8.55863,19.499203,-14.212375,26.023548,0.41601166,-3.8137248,18.195116,-23.315977,-11.480842,23.940262,38.292686,-16.561914,-5.261421,-13.390433
211,-13.06637954711914,-14.471663475036621,69.97461700439453,-4.292044965888886,3.8333134083155636,32.977560131739914,-27.952042,21.965446,4.533002,61.742783,-29.433722,-13.018563,-42.51666,1.8107936,-12.971614,35.48194,-3.9181037,15.000033,3.4604456,-2.2987497,28.518482,-8.914945,19.937065,-14.4047365,26.654598,0.63269293,-4.15016,18.146362,-23.385012,-11.2503805,23.892023,37.175007,-16.86437,-5.1579375,-13.156973
212,-13.452847480773926,-14.715970993041992,69.69319152832031,-4.116523457651188,3.9963092917325524,31.407938087609995,-28.36352,22.766672,5.7105775,62.74044,-29.69092,-13.30048,-43.75026,-0.27870545,-16.079542,38.41547,-5.6422153,15.000033,3.3537536,-2.8714516,28.628387,-9.244406,20.332455,-14.549345,27.248825,1.258523,-4.1863008,18.166222,-23.35404,-11.0719595,23.841671,36.128204,-16.987125,-5.1056833,-13.077993
213,-13.826248168945312,-14.923386573791504,69.42742156982422,-3.873892384706955,4.104784024521832,29.88890125342524,-28.655296,23.493845,6.927098,63.724194,-29.893133,-13.432057,-44.804234,-2.5573838,-18.79579,41.486187,-7.0215497,15.000033,3.2478268,-3.4502132,28.75992,-9.567521,20.671839,-14.628147,27.836098,2.5872958,-3.744535,18.269978,-23.21258,-10.944284,23.806425,35.148613,-16.848984,-5.090304,-13.241078
214,-14.172762870788574,-15.120946884155273,69.1756820678711,-3.5564275564841514,4.158346732441078,28.45364769279156,-28.840431,24.109339,8.130388,64.68291,-30.023438,-13.472296,-45.671265,-5.082361,-21.20267,44.766582,-8.244598,15.000033,3.1201468,-4.0427732,28.914074,-9.914415,20.952038,-14.6752615,28.48815,4.4672527,-2.95906,18.402147,-22.943892,-10.868349,23.768663,34.186962,-16.503805,-5.087996,-13.583284
215,-14.485305786132812,-15.304597854614258,68.93695068359375,-3.221518755377027,4.138845160851919,27.106689402197993,-28.896278,24.673752,9.284531,65.59018,-30.129007,-13.490995,-46.288177,-7.6513963,-23.23885,47.97392,-9.413116,15.000033,2.9392438,-4.601881,29.0971,-10.224687,21.17647,-14.693194,29.107594,6.3629417,-2.1237972,18.535858,-22.59923,-10.842688,23.7155,33.3122,-16.092684,-5.1492944,-13.959442
216,-14.775736808776855,-15.468339920043945,68.70528411865234,-2.929099801168546,4.044281677364649,25.83191173942975,-28.818298,25.26291,10.364089,66.42519,-30.256067,-13.557364,-46.64247,-10.049394,-24.892773,50.83965,-10.586852,15.000033,2.6879063,-5.0834413,29.29661,-10.431262,21.354998,-14.678467,29.589975,7.7411566,-1.5353348,18.674557,-22.235401,-10.863674,23.637945,32.59843,-15.758806,-5.321432,-14.224349
217,-15.016284942626953,-15.653122901916504,68.48382568359375,-2.6890774979545315,3.8771078409540887,24.6141511860204,-28.606829,25.906425,11.380507,67.18981,-30.418625,-13.681069,-46.770824,-12.23726,-26.203892,53.337536,-11.7568245,15.000033,2.367389,-5.4835186,29.502598,-10.50423,21.495089,-14.610581,29.920633,8.414227,-1.3195868,18.836527,-21.862417,-10.926921,23.538778,32.085716,-15.527577,-5.6622486,-14.324894
218,-15.229657173156738,-15.837864875793457,68.26732635498047,-2.468858876413989,3.651572363685051,23.446640784994937,-28.279356,26.568624,12.355087,67.89508,-30.588327,-13.826604,-46.743732,-14.297793,-27.20151,55.60744,-12.871537,15.000033,1.9988877,-5.830696,29.70917,-10.475539,21.599257,-14.493316,30.142317,8.680858,-1.3040348,19.027737,-21.457203,-11.029887,23.422485,31.733252,-15.326433,-6.130721,-14.34262
219,-15.419493675231934,-16.020212173461914,68.06387329101562,-2.267785177406639,3.415790725849941,22.311471966420278,-27.896814,27.240131,13.280447,68.5416,-30.74577,-13.99288,-46.65342,-16.195292,-27.884672,57.642216,-13.897565,15.000033,1.5987942,-6.12577,29.793802,-10.3607235,21.660877,-14.386092,30.301107,8.726341,-1.3397588,19.241121,-20.991018,-11.158755,23.298655,31.536077,-15.139183,-6.6264467,-14.326688
220,-15.585578918457031,-16.22877311706543,67.87364959716797,-2.186953944094134,3.2394059278582077,21.060025503936668,-27.552685,28.109396,14.148554,69.178246,-30.884348,-14.229971,-46.555523,-17.727955,-28.513313,59.31332,-14.732654,14.072602,1.3180897,-6.2830586,29.793802,-10.209678,21.689781,-14.299937,30.307457,8.763876,-1.2728162,19.486353,-20.503998,-11.314573,23.130049,31.389597,-14.986044,-7.0423408,-14.349842
221,-15.720722198486328,-16.464025497436523,67.69715881347656,-2.1370305455475025,3.0598798261001035,19.812007384613402,-27.18405,29.002293,14.939399,69.7754,-30.977758,-14.496243,-46.49152,-18.971632,-28.735687,60.72712,-15.434731,13.045711,1.057506,-6.377449,29.793802,-10.001389,21.69808,-14.239087,30.106253,8.7653055,-1.0683495,19.806599,-19.996506,-11.506265,22.893698,31.297377,-14.892112,-7.376695,-14.363416
222,-15.828837394714355,-16.709739685058594,67.53775024414062,-2.0923395284064243,2.858180012780631,18.599360572954804,-26.758867,29.88029,15.669372,70.31614,-31.036474,-14.776659,-46.461163,-19.992994,-28.506287,61.929787,-16.0211,12.2658825,0.7841504,-6.4308987,29.793802,-9.725793,21.686842,-14.191737,29.726587,8.645054,-0.80657005,20.1872,-19.455896,-11.735863,22.60176,31.27832,-14.845307,-7.6767225,-14.355162
223,-15.929293632507324,-16.968894958496094,67.39598083496094,-2.0198337561692896,2.659398680709894,17.419379404593602,-26.263042,30.704304,16.410677,70.753174,-31.078485,-15.000033,-46.455177,-20.954758,-28.051506,62.98677,-16.50928,11.614415,0.49573627,-6.478816,29.793802,-9.427912,21.655031,-14.14849,29.211283,8.520333,-0.50546974,20.542315,-18.87514,-12.004505,22.277925,31.24778,-14.799262,-7.912573,-14.442508
224,-15.997547149658203,-17.2276668548584,67.2754898071289,-1.9097935623454203,2.4807901356300777,16.25528011871016,-25.679058,31.460438,17.23781,71.05123,-31.129955,-15.000033,-46.436726,-21.992466,-27.614721,63.94456,-16.917625,10.965569,0.20522274,-6.532445,29.793802,-9.154606,21.598936,-14.102655,28.61199,8.508586,-0.18145251,20.784847,-18.24847,-12.312476,21.948261,31.129633,-14.706568,-8.055413,-14.741918
225,-16.036317825317383,-17.5076961517334,67.1656265258789,-1.7957546760706977,2.316320927440101,15.070685745484331,-24.984705,32.2106,18.130064,71.212975,-31.212423,-15.000033,-46.389187,-23.042118,-27.20334,64.77189,-17.208021,10.330241,-0.049122367,-6.5594516,29.788116,-8.89404,21.500269,-14.018829,27.9204,8.601294,0.17228508,20.864153,-17.57333,-12.651023,21.628597,30.949625,-14.547006,-8.076876,-15.380922
226,-16.07337760925293,-17.79690933227539,67.06953430175781,-1.6797985245619556,2.185550282045664,13.879160077667798,-24.228754,32.949146,19.057549,71.258934,-31.304708,-15.000033,-46.36241,-24.054008,-26.716673,65.45018,-17.37613,9.755946,-0.29792646,-6.554158,29.639826,-8.615234,21.345278,-13.935414,27.210123,8.74004,0.55816746,20.825588,-16.833849,-13.007106,21.33771,30.819885,-14.328437,-8.004972,-16.254663
227,-16.084182739257812,-18.101940155029297,66.98371887207031,-1.5580674060216566,2.0606956908643497,12.70450164845717,-23.396975,33.664867,20.01334,71.19753,-31.387962,-15.000033,-46.297417,-25.113958,-26.276997,66.02962,-17.512941,9.161878,-0.5664662,-6.523276,29.45441,-8.375526,21.154621,-13.9074135,26.489954,9.0014105,0.95934343,20.749495,-16.057606,-13.388873,21.039251,30.646616,-14.093771,-7.8876643,-17.159739
228,-16.06768035888672,-18.430652618408203,66.92085266113281,-1.4266977844988866,1.9355538831679688,11.570096290987367,-22.500591,34.34664,20.98939,71.037735,-31.441383,-15.000033,-46.156036,-26.308252,-26.008615,66.555695,-17.707325,8.465347,-0.88433975,-6.4760947,29.239264,-8.212044,20.957848,-14.0146475,25.815636,9.440548,1.3582262,20.706049,-15.23915,-13.8071785,20.715143,30.37039,-13.8681345,-7.773304,-17.880089
229,-16.03672218322754,-18.77908706665039,66.87713623046875,-1.2809039037300296,1.810879666840455,10.487634146150516,-21.546938,34.98264,21.982561,70.78015,-31.475826,-15.000033,-45.922764,-27.690222,-25.965296,67.04549,-17.992052,7.6396294,-1.2567197,-6.4172277,29.000486,-8.128378,20.77268,-14.291905,25.177301,10.112959,1.7906013,20.746984,-14.3576565,-14.266108,20.32596,29.949179,-13.657533,-7.6524353,-18.379116
230,-15.976874351501465,-19.1435546875,66.8526382446289,-1.1233436256174414,1.6894013173534126,9.442777382141971,-20.530025,35.57703,22.998377,70.41965,-31.496235,-15.000033,-45.618008,-29.20602,-26.078436,67.475235,-18.325624,6.7333736,-1.6592371,-6.3454003,28.740877,-8.100493,20.599709,-14.700586,24.53789,10.964468,2.2528977,20.819233,-13.404706,-14.765549,19.880983,29.398554,-13.445993,-7.5061383,-18.76162
231,-15.8811616897583,-19.54547691345215,66.84786987304688,-0.9607923680937374,1.5677484484247177,8.418656735537548,-19.439209,36.142773,24.043423,69.955826,-31.473352,-15.000033,-45.25627,-30.779007,-26.28886,67.82841,-18.68634,5.7773223,-2.079809,-6.260963,28.462381,-8.114944,20.442118,-15.204089,23.900871,11.887994,2.671605,20.835997,-12.394956,-15.31065,19.437326,28.744726,-13.226768,-7.366065,-19.023798
232,-15.80376148223877,-19.968660354614258,66.84899139404297,-0.8005769773943457,1.4424469700767368,7.3984414820521325,-18.264277,36.693596,25.123713,69.39037,-31.378317,-15.000033,-44.852722,-32.33175,-26.537285,68.08799,-19.049988,4.8014603,-2.5074015,-6.164022,28.168024,-8.157535,20.30445,-15.764004,23.269192,12.777156,2.96892,20.714087,-11.343086,-15.909439,19.053255,28.011728,-12.992278,-7.263694,-19.161879
233,-15.692314147949219,-20.422182083129883,66.87311553955078,-0.656387891521642,1.3048146244600023,6.3863917212278265,-17.020498,37.24936,26.217672,68.75588,-31.234795,-15.000033,-44.399975,-33.854084,-26.811405,68.25642,-19.423454,3.7981932,-2.9376955,-6.037147,27.870684,-8.224851,20.194647,-16.38196,22.634443,13.641017,3.0609183,20.40138,-10.249292,-16.570229,18.7191,27.201353,-12.7091,-7.227423,-19.134254
234,-15.54591178894043,-20.90983009338379,66.92439270019531,-0.5204296360173088,1.1591980299233464,5.388077717141056,-15.708718,37.794144,27.332134,68.041115,-31.04741,-15.000033,-43.89237,-35.380154,-27.147507,68.34199,-19.820618,2.7614892,-3.3766117,-5.8859878,27.569853,-8.316281,20.114195,-17.07221,21.985884,14.520216,3.0044863,19.955494,-9.0997,-17.29228,18.408611,26.290657,-12.38749,-7.2326055,-18.955305
235,-15.388525009155273,-21.42922019958496,66.99706268310547,-0.3679417345657898,1.0218105763027117,4.387969985306806,-14.29768,38.285362,28.51428,67.1825,-30.75786,-15.000033,-43.3481,-36.89926,-27.558018,68.339,-20.224974,1.7219354,-3.8312745,-5.7468762,27.243834,-8.423336,20.05416,-17.81176,21.329273,15.360252,2.9328153,19.458212,-7.8935337,-18.067905,18.158386,25.269537,-12.089553,-7.228149,-18.704681
236,-15.199780464172363,-21.969362258911133,67.09549713134766,-0.17474421627690673,0.9090658968893213,3.3701350760225366,-12.757546,38.677387,29.808102,66.117424,-30.307177,-15.000033,-42.783897,-38.39985,-28.056688,68.24162,-20.617668,0.70856845,-4.3141365,-5.656141,26.866518,-8.532975,20.000792,-18.571066,20.668514,16.113043,2.9851708,18.986708,-6.6474147,-18.886585,18.014984,24.147066,-11.878671,-7.1653237,-18.465536
237,-14.982636451721191,-22.536924362182617,67.22589111328125,0.056885490945389014,0.8121684811478982,2.335724403081206,-11.06874,38.95503,31.215357,64.82353,-29.7185,-15.000033,-42.18991,-39.87211,-28.621742,68.031685,-20.97582,-0.2793477,-4.8407917,-5.617437,26.436195,-8.6623745,19.949188,-19.354,19.993519,16.77758,3.2522552,18.521616,-5.388259,-19.753798,18.023544,22.919487,-11.707926,-7.0428658,-18.227451
238,-14.750859260559082,-23.161088943481445,67.3830795288086,0.3165347229697373,0.7273402542350522,1.2895715509981753,-9.258717,39.13149,32.705235,63.335754,-29.008068,-15.000033,-41.556797,-41.31828,-29.2636,67.71976,-21.316101,-1.2517147,-5.4025674,-5.612097,25.959978,-8.810291,19.899279,-20.168196,19.310299,17.383335,3.6431334,18.031563,-4.114189,-20.673937,18.153261,21.594437,-11.566429,-6.8811803,-17.958471
239,-14.481423377990723,-23.824594497680664,67.57772827148438,0.614818639110857,0.6790880159661584,0.22109965092366532,-7.3689985,39.202015,34.27156,61.67334,-28.105394,-15.000033,-40.893818,-42.74176,-30.048447,67.342026,-21.677267,-2.1940713,-5.977081,-5.6415687,25.422544,-8.9431505,19.843372,-20.988977,18.657959,17.927595,4.024911,17.57646,-2.8035913,-21.628023,18.336294,20.212408,-11.577064,-6.671784,-17.71145
