unveil-humanoid-operators/unveil-humanoid-operators.github.io/feature-analysis-animation/data/feature_matrix_instances/height_root_translate_rom_jogging_A202_jog_ff_stop_180_R_001__A202.csv
Frame,root_translateX,root_translateY,root_translateZ,root_rotateX,root_rotateY,root_rotateZ,left_hip_pitch_joint_dof,left_hip_roll_joint_dof,left_hip_yaw_joint_dof,left_knee_joint_dof,left_ankle_pitch_joint_dof,left_ankle_roll_joint_dof,right_hip_pitch_joint_dof,right_hip_roll_joint_dof,right_hip_yaw_joint_dof,right_knee_joint_dof,right_ankle_pitch_joint_dof,right_ankle_roll_joint_dof,waist_yaw_joint_dof,waist_roll_joint_dof,waist_pitch_joint_dof,left_shoulder_pitch_joint_dof,left_shoulder_roll_joint_dof,left_shoulder_yaw_joint_dof,left_elbow_joint_dof,left_wrist_roll_joint_dof,left_wrist_pitch_joint_dof,left_wrist_yaw_joint_dof,right_shoulder_pitch_joint_dof,right_shoulder_roll_joint_dof,right_shoulder_yaw_joint_dof,right_elbow_joint_dof,right_wrist_roll_joint_dof,right_wrist_pitch_joint_dof,right_wrist_yaw_joint_dof
0,-0.08540531247854233,-1.995686411857605,79.09613037109375,0.3522231398999124,1.5219040297913184,85.74389146023225,2.3078747,3.8024228,3.7385042,7.0868444,-11.458722,-4.9476686,-1.1827371,-3.625775,2.8269916,8.853368,-7.693049,5.5149446,-2.2733204,1.528889,5.1112175,6.3499,13.250617,-26.21055,55.00251,13.221441,0.89459616,8.005946,8.613375,-1.9078707,0.38414297,39.175922,112.99987,-30.324238,5.010224
1,-0.08361546695232391,-1.9945632219314575,79.10070037841797,0.3648470141807214,1.5359990459270185,85.7432351509804,2.2772286,3.7900636,3.7413464,7.1196837,-11.490303,-4.8877673,-1.1996313,-3.6393962,2.8327308,8.85511,-7.6953926,5.526087,-2.3249996,1.5686791,5.0893526,6.441957,13.262338,-26.1792,54.90511,13.222814,0.8879198,7.9932246,8.683498,-1.8157873,0.1690175,38.867847,112.99987,-30.39739,4.872289
2,-0.08168119937181473,-1.994557499885559,79.09937286376953,0.3784898731855006,1.5507847740388716,85.74244283525923,2.246593,3.776827,3.7446074,7.1511993,-11.522112,-4.824107,-1.21816,-3.6538804,2.8388748,8.858862,-7.698905,5.5379157,-2.3504477,1.59067,5.0578327,6.48294,13.25809,-26.173315,54.87567,13.228286,0.88138825,7.99354,8.759521,-1.6689229,-0.083872795,38.559372,112.99987,-30.476633,4.747515
3,-0.07995165884494781,-1.9921841621398926,79.10029602050781,0.39061353561364104,1.5638069274971005,85.74220327430179,2.218693,3.7652338,3.7469273,7.180568,-11.551071,-4.768068,-1.2348417,-3.6664739,2.8440344,8.86281,-7.7024374,5.5481677,-2.3661165,1.6029711,5.026875,6.5023546,13.2483015,-26.173403,54.87233,13.237024,0.8775175,7.9990287,8.828611,-1.519022,-0.3134899,38.285236,112.99987,-30.553303,4.6412067
4,-0.07884969562292099,-1.9928619861602783,79.1005859375,0.3991367490735903,1.572661335788108,85.7428767229363,2.1994734,3.757217,3.7471364,7.200521,-11.570485,-4.731005,-1.2464565,-3.6751337,2.846917,8.866321,-7.7056065,5.5543914,-2.3666413,1.6000689,5.003542,6.4987106,13.242474,-26.180828,54.888683,13.247999,0.87947464,8.00833,8.880015,-1.392264,-0.48372433,38.092907,112.99987,-30.609655,4.5733247
5,-0.07352612912654877,-1.9916478395462036,79.10005187988281,0.4024688566698223,1.5774330056320176,85.74556072034568,2.1925702,3.7542524,3.7440329,7.202149,-11.573084,-4.721787,-1.2521138,-3.6777296,2.8461657,8.867482,-7.7070947,5.5548396,-2.3560355,1.5860908,4.990889,6.4800496,13.245377,-26.191124,54.910023,13.261242,0.8905107,8.017901,8.90695,-1.3199881,-0.5635656,38.00777,112.99987,-30.639076,4.5510254
6,-0.07370783388614655,-1.9906450510025024,79.10169219970703,0.4020625403788027,1.5792671703453875,85.74968869760863,2.1919656,3.7551563,3.7383707,7.1957507,-11.566241,-4.7323546,-1.2534192,-3.6760733,2.8428495,8.867111,-7.7076726,5.551214,-2.3522384,1.5796878,4.9855847,6.468597,13.24651,-26.192106,54.918427,13.275312,0.90699035,8.025,8.911713,-1.314657,-0.5679697,38.000427,112.99987,-30.645685,4.5517077
7,-0.07362798601388931,-1.9921176433563232,79.1001968383789,0.39992893040657534,1.5774946258819724,85.75367083400793,2.1959198,3.7579422,3.7323403,7.1882,-11.557967,-4.748773,-1.250642,-3.67265,2.8387082,8.866565,-7.7082763,5.546235,-2.3329725,1.566581,4.988341,6.447885,13.24837,-26.196482,54.93165,13.296727,0.9229782,8.032754,8.910648,-1.3118138,-0.5627617,38.02321,112.99987,-30.64458,4.5693793
8,-0.07265057414770126,-1.9947923421859741,79.10026550292969,0.3982006139234964,1.5700006190356237,85.75559214322918,2.2037172,3.7609437,3.7284024,7.186309,-11.555603,-4.757079,-1.2438092,-3.6696804,2.8360155,8.869888,-7.7114887,5.542758,-2.3211854,1.5524902,4.996217,6.417392,13.252236,-26.20374,54.959564,13.300619,0.9321226,8.04075,8.907633,-1.307908,-0.5544871,38.0428,112.99987,-30.639633,4.5847874
9,-0.06888319551944733,-1.996095895767212,79.0988540649414,0.396521906382607,1.5543879273315415,85.75490944300346,2.2151854,3.7650561,3.7266839,7.1963005,-11.564755,-4.752698,-1.2297747,-3.666692,2.8345692,8.876139,-7.7169514,5.541154,-2.3166945,1.546719,5.0149655,6.4016404,13.256602,-26.209652,54.974323,13.287445,0.9275526,8.049738,8.909631,-1.3037648,-0.55053604,38.035732,112.99987,-30.646767,4.59349
10,-0.06990578025579453,-1.996999740600586,79.10011291503906,0.39379735613010686,1.5321291487112259,85.75283523462664,2.2313442,3.770762,3.7260554,7.2123065,-11.57988,-4.743319,-1.2075478,-3.6629343,2.833308,8.880171,-7.721819,5.539994,-2.3106163,1.5424521,5.042287,6.3899546,13.260496,-26.213984,54.98582,13.271888,0.91605455,8.059486,8.907424,-1.3013384,-0.54593647,38.03572,112.99987,-30.651432,4.6079593
11,-0.0704798623919487,-2.001042366027832,79.10012817382812,0.39174999582187053,1.5095400654841178,85.7501127288709,2.2468197,3.7760212,3.7264652,7.2302475,-11.595403,-4.733559,-1.1876005,-3.6596684,2.832951,8.888979,-7.7289863,5.539523,-2.306352,1.5380069,5.0710077,6.380121,13.263659,-26.217411,54.995605,13.25449,0.90468186,8.068196,8.903252,-1.3002433,-0.5418751,38.038822,112.99987,-30.650787,4.6174603
12,-0.06813409179449081,-2.0036020278930664,79.09921264648438,0.3911780163325517,1.4952931068761377,85.7479320635317,2.2567976,3.7785676,3.7277067,7.2408276,-11.603478,-4.727805,-1.1756253,-3.6581686,2.833226,8.894568,-7.733353,5.5398307,-2.3060334,1.5340698,5.0881534,6.3764353,13.264717,-26.218021,55.00057,13.244806,0.9020654,8.072914,8.901834,-1.3001139,-0.54196274,38.041176,112.99987,-30.646063,4.610133
13,-0.06495139747858047,-2.0035102367401123,79.09974670410156,0.39307309122737494,1.485101829172999,85.74652958287086,2.266624,3.7773113,3.730131,7.2433877,-11.603277,-4.7268085,-1.1670521,-3.6594875,2.834515,8.897367,-7.735522,5.5418653,-2.3128674,1.5283712,5.1046114,6.371172,13.267471,-26.216707,55.004005,13.236106,0.90835994,8.07314,8.898803,-1.2997946,-0.5514686,38.04246,112.99987,-30.630997,4.571002
14,-0.0666593462228775,-2.004817008972168,79.10050201416016,0.3968216634381925,1.481426745154192,85.74589505609838,2.27148,3.7732759,3.7331939,7.240533,-11.596617,-4.72824,-1.1650127,-3.6629944,2.8362625,8.898079,-7.7355723,5.5452905,-2.3203604,1.5212079,5.1142592,6.369023,13.270422,-26.213406,55.002533,13.234298,0.921717,8.067417,8.894243,-1.2994525,-0.5748427,38.045734,112.99987,-30.603832,4.5085044
15,-0.06606118381023407,-2.0083649158477783,79.09939575195312,0.4006215332016221,1.4801542014013434,85.74435904708504,2.275898,3.7689555,3.73768,7.233666,-11.587022,-4.7325177,-1.1659229,-3.6664603,2.8391886,8.898906,-7.735365,5.5481415,-2.315736,1.5147591,5.124685,6.362411,13.276536,-26.215271,54.996758,13.238355,0.9374594,8.057222,8.873873,-1.2984235,-0.62468547,38.070145,112.99987,-30.56308,4.458166
16,-0.06588000059127808,-2.009599447250366,79.10029602050781,0.40232874156251397,1.4801445335675953,85.74130693312401,2.2785728,3.7676141,3.7430704,7.228229,-11.579332,-4.7401967,-1.1671125,-3.6674519,2.8426638,8.896803,-7.733395,5.548478,-2.3193934,1.5107707,5.128717,6.361421,13.278001,-26.216002,54.993694,13.236125,0.9509359,8.056175,8.872425,-1.2981806,-0.63297653,38.071392,112.99987,-30.551243,4.437169
17,-0.06310030072927475,-2.0103373527526855,79.09831237792969,0.4010687718139896,1.4804463872928406,85.7350322522373,2.2844212,3.7703667,3.7514107,7.216915,-11.5697565,-4.755881,-1.1710202,-3.6644735,2.8479345,8.899434,-7.733711,5.5440464,-2.310055,1.5104595,5.1346226,6.3568196,13.280453,-26.221375,54.98314,13.23834,0.9685017,8.057648,8.863289,-1.2979337,-0.6397669,38.07956,112.99987,-30.555904,4.4656525
18,-0.06320053339004517,-2.0122408866882324,79.09811401367188,0.3976011532943383,1.4823194538572206,85.72625494476169,2.2914438,3.7759101,3.7621307,7.20115,-11.558407,-4.7778416,-1.1762,-3.6587434,2.8545606,8.900662,-7.733051,5.5364013,-2.2991111,1.513302,5.137146,6.3556256,13.28268,-26.230112,54.968517,13.2387905,0.98732406,8.063689,8.855779,-1.2978883,-0.6296897,38.08566,112.99987,-30.575232,4.527867
19,-0.06340730935335159,-2.0140278339385986,79.09762573242188,0.3944683629873515,1.4853988511361451,85.71824362934366,2.2952037,3.7808897,3.771755,7.188011,-11.5489,-4.7967725,-1.1815687,-3.6537313,2.860923,8.899167,-7.7310247,5.5295525,-2.2908516,1.5154587,5.1388416,6.3544035,13.284134,-26.236805,54.955345,13.235821,1.0019218,8.071245,8.852964,-1.2982413,-0.61090595,38.084003,112.99987,-30.602165,4.595027
20,-0.06519478559494019,-2.014460325241089,79.1000747680664,0.3946971979815699,1.4890851670548095,85.713481814493,2.2934787,3.7816212,3.7777176,7.182684,-11.54496,-4.8032765,-1.188078,-3.6532357,2.8663297,8.899035,-7.7305846,5.527607,-2.2887483,1.5132313,5.141135,6.3531914,13.28495,-26.241064,54.946423,13.22244,1.0075318,8.079149,8.851023,-1.2987527,-0.5934588,38.077347,112.99987,-30.620255,4.634218
21,-0.06622730195522308,-2.016273021697998,79.10198211669922,0.40043660662715685,1.4929918182705304,85.71374629337664,2.2855034,3.7751043,3.7783897,7.185353,-11.54674,-4.790696,-1.1939639,-3.6601954,2.8694608,8.898174,-7.7313476,5.53395,-2.298523,1.505816,5.1452503,6.3512864,13.286003,-26.246765,54.944054,13.182167,0.9969465,8.091645,8.850154,-1.2999902,-0.5713373,38.063023,112.99987,-30.636217,4.637875
22,-0.0677812322974205,-2.0185883045196533,79.10240936279297,0.409567813937535,1.4973662004927404,85.71717882999224,2.271896,3.7640905,3.7755594,7.1961074,-11.554244,-4.7654,-1.2000918,-3.6720138,2.871314,8.896981,-7.7328672,5.545652,-2.3098483,1.4955959,5.152022,6.3459587,13.287096,-26.254486,54.945896,13.128351,0.9744245,8.105758,8.848332,-1.3021531,-0.5575521,38.046337,112.99987,-30.640108,4.623605
23,-0.06713496148586273,-2.022113800048828,79.10295104980469,0.41875032975914545,1.502935055364384,85.72148199731431,2.2566423,3.7527986,3.7713194,7.2065125,-11.561938,-4.7376423,-1.207191,-3.683781,2.873482,8.894392,-7.7335267,5.5572433,-2.3171911,1.4851884,5.1592565,6.338217,13.287291,-26.259935,54.94787,13.081087,0.9531189,8.1147,8.841798,-1.3034829,-0.55555147,38.03503,112.99987,-30.63852,4.606206
24,-0.06807322055101395,-2.026442289352417,79.10430145263672,0.4244960957253932,1.5107469265964593,85.72408047177622,2.2401278,3.7457242,3.7674088,7.214941,-11.567912,-4.7175865,-1.217346,-3.6903932,2.8774912,8.891475,-7.732653,5.5632925,-2.3184872,1.4785291,5.164557,6.3324904,13.286706,-26.259533,54.9424,13.057104,0.94629866,8.113114,8.837821,-1.3044127,-0.5587286,38.020657,112.99987,-30.638935,4.59409
25,-0.0677950531244278,-2.030848979949951,79.10299682617188,0.42582137298809497,1.5210104958348427,85.7229032379496,2.2232928,3.7447634,3.7664094,7.2196455,-11.569826,-4.7065897,-1.2334071,-3.6897802,2.8860493,8.892086,-7.7311444,5.561195,-2.309633,1.4764769,5.1643944,6.3323827,13.28576,-26.251102,54.925224,13.07016,0.96296924,8.0948,8.8391075,-1.3044189,-0.5642499,38.00497,112.99987,-30.64399,4.596387
26,-0.06885335594415665,-2.034266948699951,79.10387420654297,0.4247188990778396,1.533731602127703,85.7195798032743,2.2053714,3.74717,3.7668614,7.2216663,-11.569277,-4.69964,-1.2531482,-3.6848996,2.8976629,8.892702,-7.728065,5.554161,-2.2995977,1.476152,5.167774,6.336988,13.280795,-26.211021,54.894463,13.126559,0.9945628,8.05797,8.83592,-1.3032913,-0.5780183,37.99116,112.99987,-30.643686,4.609038
27,-0.06865876168012619,-2.039181709289551,79.1031723022461,0.42179597103075905,1.5465987624640445,85.71810275059728,2.1893663,3.7506275,3.7638443,7.217502,-11.56677,-4.697388,-1.27134,-3.6787,2.9072096,8.890123,-7.72395,5.5457826,-2.29068,1.477782,5.16422,6.3397202,13.277949,-26.193695,54.875248,13.1580715,1.0229884,8.030856,8.837097,-1.3021642,-0.5860686,37.975315,112.99987,-30.65189,4.6127424
28,-0.06869868189096451,-2.0422210693359375,79.10485076904297,0.4184537296340608,1.5626939512216604,85.72161312474029,2.1685812,3.7527938,3.753248,7.2125454,-11.567222,-4.7004824,-1.2922477,-3.674113,2.911051,8.886877,-7.7210774,5.5395684,-2.2917953,1.4813832,5.1726837,6.341756,13.273096,-26.160631,54.845207,13.190354,1.0443934,8.004849,8.832088,-1.2998893,-0.6002669,37.940792,112.99987,-30.66435,4.5885
29,-0.0704558715224266,-2.0469253063201904,79.10525512695312,0.41443361056586925,1.5783525050226714,85.73260364484916,2.1512885,3.7523396,3.7298858,7.1955695,-11.568369,-4.7122884,-1.3076003,-3.671739,2.9059021,8.8748665,-7.7163606,5.5361185,-2.3144076,1.4847615,5.1863523,6.3317966,13.266939,-26.139376,54.841217,13.173781,1.0397215,8.001317,8.808665,-1.2967237,-0.6130012,37.91575,112.99987,-30.679108,4.5371466
30,-0.07292144000530243,-2.0564632415771484,79.1044921875,0.4096966128210831,1.595684597482957,85.74834947293657,2.133189,3.750532,3.6978524,7.1726756,-11.571285,-4.7315283,-1.3220061,-3.6703186,2.895214,8.858776,-7.711548,5.5335894,-2.3460145,1.4915581,5.199508,6.319855,13.263187,-26.137014,54.8441,13.120548,1.0232544,8.011379,8.788224,-1.2942562,-0.6242204,37.881477,112.99987,-30.696869,4.4648895
31,-0.0739828422665596,-2.062869071960449,79.1047134399414,0.404937765901796,1.613439991025903,85.76629366768925,2.1154447,3.7478104,3.665257,7.1466007,-11.571205,-4.752026,-1.3369955,-3.6701503,2.8820612,8.843561,-7.7081175,5.532125,-2.3774552,1.5006415,5.2145977,6.310706,13.260444,-26.138712,54.840992,13.06076,1.0040032,8.024869,8.7724695,-1.291971,-0.6360933,37.83642,112.99987,-30.718641,4.3853636
32,-0.0783035084605217,-2.070225715637207,79.10566711425781,0.40055388956520305,1.6303951817128597,85.78427332353984,2.095836,3.745548,3.6394145,7.12727,-11.566857,-4.7676587,-1.350942,-3.6712205,2.8688138,8.828647,-7.7050514,5.53169,-2.3853574,1.5066146,5.2341247,6.285153,13.25253,-26.145287,54.842968,13.020951,0.99117994,8.036003,8.760347,-1.2852863,-0.6602361,37.758495,112.99987,-30.770359,4.276938
33,-0.08116825670003891,-2.078004837036133,79.10408020019531,0.3973932437442927,1.6471276901797427,85.80252921989005,2.0739837,3.742192,3.6236675,7.1143055,-11.554308,-4.7761483,-1.364359,-3.675483,2.8552945,8.81376,-7.7017345,5.5332932,-2.374995,1.5108867,5.25115,6.253058,13.239076,-26.149115,54.84529,13.00743,0.9862251,8.043829,8.7678,-1.2747009,-0.68435216,37.670574,112.99987,-30.818365,4.1940274
34,-0.08960351347923279,-2.0829334259033203,79.1082534790039,0.39572194884549106,1.6640481178943072,85.82243482386424,2.0500824,3.736917,3.6132839,7.105043,-11.536042,-4.7811623,-1.3785911,-3.6828172,2.8401608,8.801056,-7.7000737,5.5366044,-2.3644285,1.5139296,5.2697144,6.231514,13.224229,-26.140316,54.83055,13.009887,0.9852784,8.050033,8.781112,-1.2640294,-0.69906217,37.57274,112.99987,-30.872126,4.1166916
35,-0.0946342945098877,-2.0884196758270264,79.11097717285156,0.39390314613595523,1.680174412854087,85.84067752016574,2.0269763,3.7322137,3.6061301,7.096834,-11.516642,-4.785592,-1.3909805,-3.6899498,2.8264832,8.786757,-7.698262,5.539633,-2.3543384,1.5193458,5.2914047,6.2199945,13.21121,-26.123428,54.80149,13.019438,0.9867152,8.052691,8.798411,-1.2544693,-0.71038675,37.446365,112.99987,-30.94514,4.007582
36,-0.10139944404363632,-2.094569444656372,79.11027526855469,0.39034789410852394,1.6945765048296226,85.85392037873133,2.007394,3.7303631,3.5999885,7.0878186,-11.501152,-4.7920947,-1.4035184,-3.693624,2.8175824,8.775906,-7.6988683,5.5405917,-2.3487985,1.5282233,5.315844,6.213268,13.191818,-26.097307,54.77287,13.03367,0.9906838,8.054638,8.818198,-1.2389882,-0.71897495,37.27458,112.99987,-31.055851,3.8372386
37,-0.10995428264141083,-2.100895643234253,79.1103744506836,0.3811598272988281,1.7069659632266645,85.86083346017438,1.9894528,3.737444,3.592921,7.0815177,-11.492876,-4.8060555,-1.4121127,-3.6878285,2.8135018,8.760252,-7.6973042,5.5380645,-2.3478858,1.5444113,5.3416095,6.207964,13.162041,-26.06161,54.751984,13.059342,1.000843,8.05867,8.840191,-1.212528,-0.72691023,37.0608,112.99987,-31.201437,3.6000652
38,-0.1172742024064064,-2.1071152687072754,79.10916137695312,0.36856821876509827,1.7178898084853782,85.86326728906815,1.9754266,3.750558,3.5868523,7.0723696,-11.486028,-4.8245325,-1.4187114,-3.6758363,2.8129456,8.743061,-7.695174,5.533368,-2.3444684,1.5702481,5.3718,6.221518,13.141237,-26.026627,54.704193,13.087302,1.01638,8.0579,8.862676,-1.1906418,-0.7430887,36.810272,112.99987,-31.372307,3.3068485
39,-0.12423425167798996,-2.1116456985473633,79.1059341430664,0.35499066943814517,1.7274423361410376,85.86362616373988,1.9612089,3.763011,3.5830765,7.069279,-11.483809,-4.837762,-1.4250933,-3.6640766,2.8148088,8.728972,-7.6962156,5.5282435,-2.3448296,1.5885786,5.4010754,6.2146006,13.100791,-25.979336,54.69493,13.120749,1.0287963,8.061897,8.894559,-1.1459036,-0.7448268,36.51517,112.99987,-31.587107,2.9731925
40,-0.12341209501028061,-2.110281467437744,79.10296630859375,0.34561051203350207,1.7360220499921004,85.86395158140964,1.9476808,3.768374,3.5835,7.070583,-11.484029,-4.835822,-1.4292156,-3.6594179,2.8180785,8.714187,-7.6997194,5.5246177,-2.3436334,1.6079634,5.434113,6.2151046,13.061137,-25.935995,54.675743,13.131614,1.0303698,8.058309,8.931066,-1.0993938,-0.7434475,36.170425,112.99987,-31.84009,2.5931408
41,-0.1314125955104828,-2.1105599403381348,79.10269927978516,0.34083408241490876,1.7428319364646248,85.86612459163123,1.9278426,3.765121,3.5883908,7.0907316,-11.490792,-4.8152466,-1.4393518,-3.6632605,2.8227663,8.718058,-7.716891,5.5230665,-2.3449554,1.6305443,5.474529,6.2352777,13.033107,-25.896088,54.627865,13.107639,1.0167683,8.038508,8.975493,-1.0634654,-0.7411804,35.75516,112.99987,-32.151207,2.143973
42,-0.14481030404567719,-2.1158318519592285,79.09819030761719,0.33720753706764656,1.7482680654777376,85.86909393872367,1.8495063,3.762497,3.5923703,7.2398634,-11.563798,-4.7818694,-1.4438729,-3.67039,2.8276787,8.715099,-7.7333565,5.5222,-2.3533049,1.6454214,5.5142784,6.237809,12.985216,-25.845203,54.615406,13.0741625,0.9934467,8.019081,9.035851,-1.0028368,-0.7165428,35.274597,112.99987,-32.529343,1.6393989
43,-0.1603725105524063,-2.1149942874908447,79.09408569335938,0.32746321451042915,1.7544866586138017,85.87069579547965,1.673594,3.7706459,3.589965,7.5984397,-11.751894,-4.7394214,-1.4476974,-3.6733758,2.8318858,8.710135,-7.7502127,5.5215864,-2.3590705,1.67078,5.556963,6.252278,12.943366,-25.798344,54.585304,13.02947,0.9650017,7.996534,9.092045,-0.94941825,-0.68620807,34.76794,112.99987,-32.9201,1.1086383
44,-0.18014419078826904,-2.1109073162078857,79.09119415283203,0.31743930041006235,1.7625780201907544,85.86694567952841,1.511592,3.7773595,3.5892155,7.9311376,-11.9374895,-4.6904254,-1.4525968,-3.6768794,2.8385863,8.7044735,-7.7673583,5.521439,-2.357164,1.7010674,5.60245,6.28426,12.915901,-25.758389,54.526093,12.981603,0.935771,7.975194,9.130731,-0.912226,-0.6460162,34.269054,112.99987,-33.28671,0.5853978
45,-0.20013032853603363,-2.105853796005249,79.08709716796875,0.30566440622053775,1.7700777148250246,85.8572261769501,1.361202,3.7849026,3.5882115,8.250712,-12.131376,-4.6334434,-1.4564631,-3.678983,2.84711,8.701647,-7.787742,5.521228,-2.368168,1.7190968,5.642898,6.3095007,12.871095,-25.696337,54.497395,12.952906,0.9039135,7.9770107,9.170087,-0.8527355,-0.54871976,33.76656,112.99987,-33.65262,0.07869959
46,-0.2185237854719162,-2.0977671146392822,79.08295440673828,0.29356564182311157,1.776959556559986,85.84300801317139,1.2136865,3.792074,3.5874338,8.574107,-12.336869,-4.567201,-1.4562624,-3.6808243,2.8569765,8.694458,-7.8077006,5.5215197,-2.3743567,1.7384769,5.685287,6.3416624,12.828484,-25.636818,54.460953,12.923995,0.86757284,7.985922,9.1970415,-0.7962313,-0.4426814,33.26433,112.99987,-34.006626,-0.4311361
47,-0.23967088758945465,-2.089714765548706,79.07890319824219,0.2824706451360311,1.789024915110744,85.8248408381897,1.0721225,3.7959309,3.5898478,8.876665,-12.53762,-4.4956226,-1.4627411,-3.6849625,2.869911,8.688206,-7.82739,5.5238805,-2.3743606,1.7585502,5.7277308,6.377405,12.79096,-25.579702,54.413746,12.891018,0.8336036,7.990604,9.213381,-0.74538165,-0.32278246,32.763477,112.99987,-34.34036,-0.9215682
48,-0.2594549059867859,-2.0796000957489014,79.07418823242188,0.2734099540875099,1.8120420724046378,85.8033194730825,0.922095,3.7946467,3.5975022,9.171006,-12.731217,-4.4215918,-1.4823407,-3.6941133,2.8872194,8.67949,-7.842847,5.529842,-2.3550208,1.7857155,5.771135,6.4148893,12.766422,-25.538725,54.341404,12.845246,0.80814695,7.97596,9.210203,-0.7090044,-0.21353908,32.281258,112.99987,-34.621338,-1.3673451
49,-0.3050260841846466,-2.0850203037261963,79.0695571899414,0.2692489112123705,1.8489951690954187,85.7760384661344,0.7611037,3.7846653,3.613623,9.454043,-12.913978,-4.341331,-1.5201908,-3.711794,2.9116347,8.6687355,-7.852475,5.5397277,-2.3413882,1.7978735,5.807429,6.43365,12.731666,-25.479553,54.29427,12.815996,0.79834414,7.9451294,9.204168,-0.6568372,-0.055237606,31.805143,112.99987,-34.866577,-1.7582629
50,-0.3348887860774994,-2.080054521560669,79.06328582763672,0.2702376318490164,1.8962338901772058,85.74335066826055,0.5908523,3.7663078,3.636559,9.733675,-13.09413,-4.2543917,-1.5721308,-3.738193,2.942318,8.658886,-7.8596535,5.553208,-2.312241,1.8056175,5.8415184,6.4391537,12.695819,-25.42776,54.252155,12.792117,0.7987639,7.8993053,9.18124,-0.6018907,0.102520384,31.351776,112.99987,-35.05845,-2.1008294
51,-0.3593885600566864,-2.064157247543335,79.0599365234375,0.2762134137799627,1.9499635491520901,85.70983912066094,0.41585365,3.7426827,3.6603045,10.009616,-13.273225,-4.1724153,-1.6296226,-3.7698402,2.974273,8.646015,-7.8646984,5.5706496,-2.2726655,1.8134937,5.875682,6.444386,12.664598,-25.381578,54.196823,12.744305,0.79869497,7.852932,9.14814,-0.5505396,0.2627462,30.901861,112.99987,-35.224438,-2.4020944
52,-0.3818570077419281,-2.0454704761505127,79.05363464355469,0.2764242860597843,2.00604662242098,85.6807985559062,0.24910277,3.7231693,3.6779866,10.264055,-13.443714,-4.1082106,-1.682231,-3.7970164,3.0023727,8.623726,-7.866967,5.5902243,-2.2522843,1.8132019,5.9084616,6.4459033,12.620851,-25.299097,54.15287,12.666269,0.7872918,7.830118,9.113547,-0.4711771,0.4680498,30.442265,112.99987,-35.400307,-2.6463325
53,-0.4122028946876526,-2.0341246128082275,79.04499053955078,0.27296806031804427,2.0649911070533116,85.6577574401923,0.0891739,3.7082276,3.6869838,10.497541,-13.607186,-4.064591,-1.7342461,-3.8196623,3.0243323,8.599568,-7.870417,5.61384,-2.2290971,1.822621,5.9434667,6.4603095,12.585491,-25.216444,54.082844,12.499957,0.75164104,7.836425,9.073473,-0.39473373,0.6815632,29.97516,112.99987,-35.570747,-2.8257565
54,-0.44564712047576904,-2.0155465602874756,79.0368881225586,0.2766840815837979,2.1290755878698997,85.63697865791659,-0.063405536,3.6825676,3.6945362,10.704761,-13.759752,-4.0335484,-1.8983557,-3.8464012,3.0539036,8.804291,-7.9957366,5.642606,-2.2038755,1.8280165,5.9787445,6.486726,12.558412,-25.130358,53.988525,12.270276,0.7003764,7.858973,9.028866,-0.32352823,0.9111122,29.498936,112.99987,-35.7346,-2.953969
55,-0.47109687328338623,-1.9980000257492065,79.02153015136719,0.2851138232185883,2.1957548071110238,85.61709935492458,-0.21610013,3.652504,3.7018466,10.909662,-13.912187,-4.014555,-2.1261878,-3.873781,3.0892158,9.142425,-8.1934395,5.6728764,-2.1948142,1.8155872,6.0154,6.5148263,12.528506,-25.009016,53.88831,12.062177,0.6564441,7.880129,8.977561,-0.22452915,1.175585,29.014786,112.99987,-35.899982,-3.0548792
56,-0.5066912770271301,-1.9821196794509888,79.00387573242188,0.286736607910989,2.262466070280798,85.59692447146183,-0.37105972,3.628782,3.7092454,11.123998,-14.068323,-4.0071244,-2.3340209,-3.8947902,3.124585,9.44335,-8.374076,5.700521,-2.1756961,1.8122414,6.058624,6.545513,12.505062,-24.890848,53.753796,11.926115,0.64268523,7.8702483,8.916714,-0.12347686,1.4223897,28.516096,112.99987,-36.05931,-3.183153
57,-0.5398785471916199,-1.9622286558151245,78.98554992675781,0.2832600933471276,2.3297765964990615,85.57454439177886,-0.5281022,3.612241,3.718548,11.34768,-14.228186,-4.016849,-2.5349786,-3.907996,3.1640947,9.732804,-8.549719,5.7231627,-2.1552026,1.8102444,6.106694,6.5819445,12.484822,-24.751497,53.58296,11.897571,0.6780005,7.8167233,8.845682,-0.007995508,1.6620207,28.000324,112.99987,-36.21656,-3.3506582
58,-0.5709561705589294,-1.9388962984085083,78.97026824951172,0.27462314791906145,2.39840292743371,85.55125987185083,-0.68634754,3.6018763,3.728113,11.575694,-14.389998,-4.0425315,-2.7227013,-3.9156122,3.20536,9.995234,-8.714903,5.7427573,-2.1333077,1.8051933,6.1584063,6.6201615,12.468726,-24.593882,53.387352,11.93811,0.7460815,7.736413,8.76479,0.12818184,1.9009905,27.47434,112.99987,-36.370586,-3.5291557
59,-0.6034993529319763,-1.9113868474960327,78.95372772216797,0.26178288153607915,2.466898234331079,85.53017360708088,-0.847031,3.5950646,3.7356846,11.813004,-14.556295,-4.0720687,-2.8990378,-3.9203503,3.2435553,10.239598,-8.872843,5.762325,-2.1069267,1.8114266,6.218054,6.6599827,12.4582815,-24.449059,53.16655,12.003963,0.81654793,7.646598,8.67787,0.2578355,2.1372066,26.933195,112.99987,-36.518913,-3.7114553
60,-0.6399816274642944,-1.8812522888183594,78.93817138671875,0.24572860609134803,2.5337361820122637,85.51424201414328,-1.0115325,3.5892804,3.7389739,12.064491,-14.729478,-4.0936575,-3.0583315,-3.925578,3.2733176,10.458992,-9.019929,5.7849894,-2.088117,1.8121243,6.2874947,6.687601,12.45392,-24.315958,52.951477,12.070206,0.8597017,7.5722265,8.581835,0.40537012,2.3960695,26.390959,112.99987,-36.66931,-3.8673613
61,-0.6804954409599304,-1.850862741470337,78.92012786865234,0.22582538991791049,2.595349046864427,85.50624164315606,-1.1790773,3.5845702,3.7356343,12.3360405,-14.91189,-4.1065187,-3.1962883,-3.9320288,3.2906148,10.653933,-9.157288,5.8133545,-2.074704,1.8166127,6.3714705,6.7008195,12.458889,-24.220192,52.74436,12.131122,0.86017793,7.5167747,8.477901,0.56123734,2.667908,25.84207,112.99987,-36.82055,-3.9913063
62,-0.7274875640869141,-1.820214867591858,78.9013442993164,0.20267124009708518,2.6536135730975445,85.50402432318621,-1.3471502,3.581479,3.7277148,12.618766,-15.09915,-4.116195,-3.3143024,-3.9383132,3.298994,10.822016,-9.283176,5.8450785,-2.064624,1.8257219,6.467423,6.7065253,12.47262,-24.149282,52.532536,12.201528,0.8362533,7.46851,8.367098,0.7210173,2.9501848,25.282045,112.99987,-36.974064,-4.1001215
63,-0.7701816558837891,-1.7872260808944702,78.88655853271484,0.17689165561985895,2.7155012247436607,85.50264063152036,-1.5229884,3.5801365,3.7184641,12.913661,-15.293708,-4.120196,-3.4276092,-3.9437208,3.3054829,10.976806,-9.4035635,5.8761206,-2.0510824,1.8364166,6.5679975,6.7118993,12.491033,-24.079544,52.300533,12.269974,0.8086802,7.4239483,8.2507925,0.88127744,3.2435775,24.71688,112.99987,-37.120224,-4.202098
64,-0.8032301664352417,-1.7410238981246948,78.8695297241211,0.14967722314513232,2.787724020688223,85.49731450957015,-1.7096018,3.5795105,3.7115936,13.212937,-15.493206,-4.116,-3.5446534,-3.9483993,3.3166895,11.118286,-9.516724,5.902477,-2.0280519,1.8373827,6.6652083,6.7210836,12.513306,-23.984308,52.038612,12.326656,0.79848343,7.38082,8.127859,1.0513239,3.5502412,24.160778,112.99987,-37.245625,-4.300807
65,-0.843668520450592,-1.6949412822723389,78.85404205322266,0.12163443873561386,2.8744688484924956,85.48616848905976,-1.9127839,3.5798476,3.70797,13.518514,-15.699032,-4.103521,-3.6734548,-3.9515507,3.3359187,11.250799,-9.622277,5.920164,-1.9914794,1.8319911,6.75548,6.7348924,12.535887,-23.859684,51.744713,12.369424,0.8063309,7.338734,7.9978986,1.2223831,3.8681993,23.612349,112.99987,-37.35041,-4.4102535
66,-0.8914327025413513,-1.6536507606506348,78.83678436279297,0.09168829935465496,2.971368238263031,85.47196652935311,-2.130647,3.58115,3.7055728,13.836352,-15.91218,-4.083801,-3.8064287,-3.9538352,3.3591409,11.370634,-9.719797,5.9322824,-1.9472868,1.8230664,6.8430233,6.749367,12.5582285,-23.716213,51.427795,12.404635,0.8226443,7.2994723,7.8611836,1.3942643,4.199313,23.067331,112.99987,-37.439465,-4.522987
67,-0.9440802335739136,-1.607744574546814,78.82025909423828,0.060525944533221514,3.0722534015576897,85.4569255691639,-2.3491917,3.5834308,3.703762,14.1525755,-16.128202,-4.0563593,-3.933467,-3.955622,3.3820386,11.474602,-9.812466,5.945536,-1.8984123,1.8135912,6.9325223,6.76588,12.579166,-23.559658,51.084747,12.43081,0.85275805,7.26175,7.7226615,1.5672187,4.5438294,22.521162,112.99987,-37.515137,-4.6234603
68,-0.9896134734153748,-1.551908016204834,78.80122375488281,0.02571072290207837,3.1710864794165845,85.44318614056444,-2.561627,3.5868022,3.7015014,14.468488,-16.346518,-4.0204678,-4.043111,-3.957813,3.400254,11.556249,-9.901725,5.966577,-1.8480093,1.8064859,7.0285516,6.7857223,12.597116,-23.396015,50.712757,12.44636,0.90186507,7.2242866,7.587196,1.7418975,4.9014134,21.970184,112.99987,-37.577732,-4.692565
69,-1.0451637506484985,-1.4970353841781616,78.78373718261719,-0.014188856188152393,3.26542292282344,85.43265641791346,-2.767038,3.5950277,3.6971986,14.789185,-16.569511,-3.977,-4.1286254,-3.9578912,3.4101949,11.610497,-9.988585,5.9944863,-1.7986642,1.8063924,7.131865,6.8122582,12.610764,-23.22434,50.309574,12.443496,0.9785985,7.187877,7.4568024,1.9216311,5.265516,21.424063,112.99987,-37.608406,-4.706624
70,-1.0941753387451172,-1.4263988733291626,78.77143096923828,-0.05860440823508787,3.358822092970774,85.42361831213799,-2.96889,3.6067977,3.6918194,15.112471,-16.795942,-3.9259162,-4.1969833,-3.9562755,3.414925,11.640631,-10.071025,6.0266533,-1.7465565,1.8127918,7.240061,6.842563,12.618945,-23.044949,49.878082,12.425084,1.077812,7.1532774,7.330946,2.1023312,5.636199,20.879335,112.99987,-37.60996,-4.682118
71,-1.1567704677581787,-1.3646631240844727,78.75242614746094,-0.10191707874579241,3.454150192782286,85.41324652837315,-3.1673126,3.6148586,3.6878152,15.430127,-17.022038,-3.8652914,-4.258835,-3.9584303,3.4201412,11.657676,-10.149995,6.0671,-1.6894635,1.8104699,7.351526,6.866577,12.6250725,-22.85612,49.429665,12.409451,1.1844178,7.119405,7.201856,2.2884924,6.0321345,20.323566,112.99987,-37.629795,-4.660236
72,-1.2059533596038818,-1.2962387800216675,78.73180389404297,-0.14128332498610754,3.55437584696804,85.39867231180158,-3.3644285,3.6125796,3.6875746,15.737942,-17.246431,-3.7930565,-4.3257394,-3.9696212,3.4315183,11.674283,-10.227162,6.1198707,-1.6204008,1.7966717,7.4667196,6.877614,12.630123,-22.668488,48.96616,12.407592,1.2833475,7.084625,7.071931,2.4587069,6.462539,19.727732,112.99987,-37.70833,-4.6932135
73,-1.2663874626159668,-1.238113284111023,78.71339416503906,-0.17386576608372947,3.659641780585655,85.3828728661351,-3.5611124,3.594108,3.6872873,16.034397,-17.469164,-3.7001326,-4.3970056,-3.9954333,3.4470859,11.688634,-10.301659,6.191162,-1.5416727,1.7722892,7.5870333,6.876457,12.632519,-22.478489,48.486065,12.418968,1.3620127,7.047281,6.9395366,2.6005006,6.9294534,19.086254,112.99987,-37.86138,-4.797649
74,-1.343589186668396,-1.1740895509719849,78.6963119506836,-0.20303769240116792,3.768564226510126,85.36613740001302,-3.7562466,3.5643985,3.6870878,16.322,-17.691042,-3.5903728,-4.468152,-4.0315676,3.4649317,11.6966305,-10.373517,6.2770104,-1.461673,1.7390912,7.712218,6.8707333,12.631857,-22.275272,47.984848,12.44035,1.4309164,7.007294,6.8025527,2.722818,7.4353557,18.412752,112.99987,-38.07043,-4.9481993
75,-1.4212583303451538,-1.085465908050537,78.67855072021484,-0.23111161826100401,3.8819041157359164,85.34161997267823,-3.949557,3.53345,3.6951556,16.604351,-17.910997,-3.4812028,-4.5417786,-4.068816,3.4905796,11.700055,-10.441854,6.3667145,-1.3672944,1.7082467,7.840745,6.8573537,12.626888,-22.08159,47.460155,12.4708605,1.5098604,6.9662914,6.673403,2.8171675,7.9686174,17.692997,112.99987,-38.311363,-5.135721
76,-1.4942491054534912,-0.9976787567138672,78.6572494506836,-0.26485298333683255,4.000267457629523,85.30228924048693,-4.1312003,3.5109982,3.7203586,16.864555,-18.123075,-3.390398,-4.6226068,-4.0976014,3.5297816,11.705457,-10.508387,6.449307,-1.2719548,1.6754768,7.97103,6.8462725,12.619681,-21.880754,46.9062,12.523247,1.6177018,6.923663,6.5513654,2.90153,8.553604,16.929289,112.99987,-38.572395,-5.341285
77,-1.5656821727752686,-0.9223101735115051,78.63836669921875,-0.30584878302580853,4.123018639333256,85.240446487243,-4.3030486,3.5039341,3.7713954,17.11246,-18.327156,-3.3288007,-4.710256,-4.1121645,3.589055,11.709826,-10.569063,6.5213203,-1.1471153,1.6456773,8.103941,6.8242683,12.61288,-21.701023,46.331844,12.587112,1.7599176,6.8840823,6.436147,2.9633548,9.175869,16.119085,112.99987,-38.855473,-5.565618
78,-1.6405245065689087,-0.8418682813644409,78.61477661132812,-0.35183892366509534,4.250058448168566,85.16159505920561,-4.4663405,3.5055335,3.8417501,17.347254,-18.524807,-3.2850084,-4.803465,-4.118743,3.663826,11.712596,-10.6251335,6.5888133,-1.0084968,1.6121583,8.239962,6.798856,12.60739,-21.52272,45.732944,12.665895,1.9260668,6.8450513,6.3223133,3.0058541,9.843417,15.269905,112.99987,-39.166695,-5.8111286
79,-1.7144372463226318,-0.7472681403160095,78.59365844726562,-0.39853812094142715,4.382802549733324,85.07907231729152,-4.6262507,3.5056486,3.9162488,17.56929,-18.719147,-3.2427833,-4.900868,-4.1262765,3.7426767,11.714231,-10.680726,6.6552486,-0.876883,1.5787492,8.376032,6.779964,12.60106,-21.341658,45.095623,12.76506,2.1131184,6.799591,6.2245436,3.0386708,10.539311,14.37154,112.99987,-39.481007,-6.0764346
80,-1.798328161239624,-0.6526057124137878,78.57247161865234,-0.4402143476660679,4.522856646953988,85.00593879170104,-4.795272,3.4939604,3.979233,17.793827,-18.916685,-3.1856601,-5.0027895,-4.1445565,3.8144991,11.718293,-10.741607,6.7242584,-0.739462,1.5541052,8.50568,6.7510114,12.590094,-21.196053,44.4271,12.880036,2.31961,6.7455983,6.158472,3.0718253,11.203282,13.41793,112.99987,-39.76233,-6.360245
81,-1.892243504524231,-0.5167306661605835,78.55436706542969,-0.4740506038583043,4.677025573378064,84.94213993338778,-4.9793696,3.46577,4.031033,18.01446,-19.113869,-3.1088338,-5.1174927,-4.1775217,3.8806314,11.722081,-10.805696,6.800667,-0.6267192,1.5239264,8.62305,6.728557,12.57295,-21.044796,43.71656,13.035847,2.5557537,6.683592,6.121721,3.114926,11.88482,12.40498,112.99987,-40.023216,-6.6588016
82,-1.9561233520507812,-0.4739886522293091,78.52911376953125,-0.5037662683318214,4.842226843957719,84.8818354757795,-5.1723847,3.4272256,4.078393,18.22943,-19.309813,-3.0211904,-5.2424245,-4.219598,3.945602,11.726118,-10.871943,6.881216,-0.5017548,1.493347,8.729461,6.689835,12.55184,-20.925646,42.984135,13.216597,2.8204305,6.618622,6.107979,3.16463,12.551158,11.344219,112.99987,-40.26174,-6.9714117
83,-2.063619613647461,-0.3675006330013275,78.50040435791016,-0.5341167022614629,5.005481148294673,84.829633021102,-5.359151,3.3834715,4.1158977,18.442526,-19.508953,-2.926861,-5.3578568,-4.2659945,4.0027742,11.729382,-10.941763,6.9574656,-0.3885755,1.466723,8.839595,6.652514,12.526432,-20.814816,42.221207,13.40624,3.0890765,6.5406666,6.1186514,3.2236688,13.209347,10.24545,112.99987,-40.47613,-7.2966413
84,-2.1548995971679688,-0.2370687872171402,78.47806549072266,-0.567777841633454,5.153497812145003,84.79048927462112,-5.5194855,3.3390715,4.138937,18.646679,-19.709408,-2.830411,-5.447546,-4.311476,4.0456457,11.739471,-11.021698,7.0207953,-0.30156404,1.4506153,8.967111,6.626571,12.494902,-20.700764,41.425694,13.586396,3.3377206,6.441441,6.1538196,3.298593,13.852208,9.1236105,112.99987,-40.656765,-7.6307817
85,-2.235417366027832,-0.10271742939949036,78.45989227294922,-0.6146683166510473,5.2787649827379255,84.7705066717427,-5.6506433,3.3027332,4.138075,18.853224,-19.916826,-2.7324083,-5.4864864,-4.3486824,4.064191,11.727777,-11.097887,7.0652566,-0.23072292,1.4616195,9.121776,6.606955,12.45844,-20.603111,40.594936,13.760761,3.5564764,6.311146,6.2233725,3.3883445,14.461004,7.9473586,112.99987,-40.80703,-7.9984937
86,-2.3299496173858643,0.04640750214457512,78.43800354003906,-0.668090270783973,5.389611145721041,84.76563323543614,-5.76033,3.2688878,4.118758,19.056896,-20.12773,-2.6307626,-5.490337,-4.382355,4.064671,11.700747,-11.172166,7.096646,-0.18925545,1.4831972,9.292712,6.5960355,12.413655,-20.498169,39.73412,13.945187,3.7585514,6.156385,6.314092,3.5049891,15.06741,6.7384796,112.99987,-40.933235,-8.385114
87,-2.429337501525879,0.16780604422092438,78.40863037109375,-0.7142920523114411,5.4971484000314375,84.76463747352952,-5.8524227,3.2230885,4.097486,19.242796,-20.335346,-2.5257764,-5.5034003,-4.42569,4.064987,11.716248,-11.273059,7.124313,-0.14046286,1.5047232,9.467273,6.5784483,12.369126,-20.424519,38.850513,14.0987015,3.9583893,5.999116,6.431626,3.6263945,15.639944,5.52423,112.99987,-41.018864,-8.765088
88,-2.5334067344665527,0.30220624804496765,78.37967681884766,-0.7395149678880467,5.6125084574179605,84.75618421953702,-5.9279795,3.1499255,4.091061,19.390297,-20.530165,-2.41778,-5.5680437,-4.4923615,4.0829372,11.828119,-11.427069,7.157365,-0.09098851,1.4994805,9.629891,6.5552893,12.323312,-20.362766,37.955013,14.200993,4.1688337,5.858644,6.55863,3.7600813,16.192543,4.373154,112.99987,-41.04615,-9.090405
89,-2.6359987258911133,0.4503192901611328,78.34937286376953,-0.7410561574328269,5.740644620481959,84.73334005764347,-5.9819217,3.047194,4.1086335,19.482426,-20.705584,-2.3112705,-5.6902657,-4.5848155,4.1260676,12.035406,-11.638632,7.1963673,-0.025509898,1.4684426,9.774911,6.525231,12.277346,-20.32968,37.044384,14.225346,4.417203,5.7554626,6.7047663,3.9037044,16.718975,3.270906,112.99987,-41.004078,-9.37336
90,-2.7409188747406006,0.6003404855728149,78.31444549560547,-0.7258040367538772,5.875016438142364,84.70348611674737,-6.014897,2.922501,4.1396713,19.532848,-20.86742,-2.204771,-5.8495836,-4.6960907,4.184128,12.314537,-11.89431,7.2370424,0.05181795,1.4248173,9.913479,6.492593,12.232635,-20.325802,36.10777,14.189433,4.6888804,5.673581,6.8799405,4.0495453,17.221159,2.1835897,112.99987,-40.904007,-9.6288185
91,-2.839853286743164,0.7502939701080322,78.2787857055664,-0.6941366021227666,6.009284403249451,84.67720594701218,-6.0388575,2.7751255,4.1714087,19.572687,-21.028067,-2.0894294,-6.0498075,-4.8253045,4.2483835,12.689562,-12.197022,7.281018,0.12348277,1.3629894,10.052038,6.453359,12.190107,-20.331875,35.15633,14.131305,4.934949,5.5804386,7.064582,4.1992908,17.701246,1.1496713,112.99987,-40.76509,-9.83008
92,-2.9474353790283203,0.940811812877655,78.24147033691406,-0.6465709591970724,6.1370825216145946,84.66500149015826,-6.0668917,2.6046731,4.190985,19.635345,-21.200943,-1.9564395,-6.297381,-4.971774,4.310482,13.189187,-12.550309,7.329918,0.17809775,1.2796298,10.197831,6.4033365,12.15361,-20.335985,34.197372,14.086666,5.106554,5.4427304,7.24288,4.349178,18.15206,0.20158859,112.99987,-40.602215,-9.947944
93,-3.055135488510132,1.1021045446395874,78.19206237792969,-0.581611547348466,6.2582192215765335,84.67642630403407,-6.1040587,2.4061468,4.18773,19.726505,-21.385826,-1.7996378,-6.5853143,-5.1408706,4.3610587,13.803257,-12.956399,7.3918242,0.2104552,1.1795173,10.356005,6.3494687,12.125349,-20.334076,33.22653,14.051518,5.150262,5.228451,7.429311,4.4926987,18.575521,-0.68265444,112.99987,-40.405087,-9.965092
94,-3.162276268005371,1.2693856954574585,78.14281463623047,-0.4982739479321968,6.37554154358187,84.70383939185979,-6.1435804,2.1809876,4.1707163,19.831415,-21.578072,-1.6244379,-6.9162397,-5.331269,4.4076557,14.528798,-13.414105,7.463259,0.22917247,1.0653864,10.5239725,6.2932076,12.104638,-20.335445,32.23582,14.008369,5.10554,4.96232,7.633137,4.623511,18.973953,-1.5232023,112.99987,-40.171455,-9.903657
95,-3.2667107582092285,1.4554826021194458,78.08531188964844,-0.3986476829268315,6.487558617004203,84.73136956096472,-6.1769457,1.9373128,4.1575336,19.944225,-21.779366,-1.4405667,-7.293771,-5.5349703,4.4664984,15.368787,-13.915199,7.5292435,0.23761885,0.92509484,10.695579,6.2260947,12.092237,-20.340714,31.226128,13.974712,5.062626,4.694925,7.823416,4.7560415,19.345232,-2.2715397,112.99987,-39.925896,-9.78894
96,-3.3806471824645996,1.6314247846603394,78.02445983886719,-0.28466751025070214,6.59278048671673,84.74343824749597,-6.1964283,1.6827519,4.1653695,20.060474,-21.992989,-1.2569588,-7.7214227,-5.7435837,4.55388,16.325315,-14.450373,7.5749474,0.26199952,0.76788324,10.873879,6.1334243,12.090268,-20.38401,30.185404,13.955113,5.1118407,4.4777346,8.003687,4.852996,19.668797,-2.9467812,112.99987,-39.70504,-9.669116
97,-3.4829933643341064,1.815637230873108,77.96027374267578,-0.1440778455814143,6.694166895449676,84.72746307111122,-6.1979218,1.4040508,4.2095957,20.16652,-22.213707,-1.0647295,-8.218057,-5.965911,4.6999083,17.417898,-15.036504,7.5923986,0.29907894,0.56704694,11.053754,6.0187273,12.09942,-20.457191,29.10561,13.942312,5.301708,4.345532,8.149272,4.9310975,19.962547,-3.5215058,112.99987,-39.520508,-9.537405
98,-3.5820863246917725,2.0134317874908447,77.88927459716797,0.02296397643048807,6.791460462832276,84.69480713867614,-6.1839423,1.1002836,4.2773314,20.263884,-22.43939,-0.86313176,-8.772392,-6.203442,4.8886895,18.630838,-15.669454,7.591296,0.3449754,0.3323099,11.238093,5.887193,12.119368,-20.557838,27.989168,13.932603,5.5760202,4.2636547,8.275714,4.9899855,20.221453,-4.014716,112.99987,-39.35383,-9.381794
99,-3.6794185638427734,2.1787829399108887,77.8059310913086,0.19101274155294712,6.8783518549755,84.66519579973254,-6.1645055,0.7976218,4.344225,20.386955,-22.685478,-0.6688167,-9.347232,-6.4384403,5.0679374,19.923965,-16.309261,7.58242,0.3824431,0.09589869,11.429385,5.742961,12.1473875,-20.668104,26.85336,13.960386,5.8667045,4.175652,8.396879,5.0305614,20.428854,-4.423727,112.99987,-39.190292,-9.2116375
100,-3.774797201156616,2.367826461791992,77.7182388305664,0.33821479583064784,6.948464714926604,84.65840528208878,-6.1476884,0.52284193,4.3860717,20.565836,-22.964855,-0.49823698,-9.905089,-6.6547565,5.184655,21.257195,-16.91838,7.5759244,0.3904371,-0.11735829,11.631192,5.599877,12.194296,-20.767075,25.702316,14.056378,6.1062427,4.0250154,8.532367,5.067788,20.576935,-4.742147,112.99987,-39.00225,-9.023678
101,-3.861628770828247,2.5733277797698975,77.62709045410156,0.4629124142924536,6.996028838599478,84.6811452872051,-6.129079,0.27521262,4.3968654,20.803862,-23.281523,-0.3575446,-10.421815,-6.856705,5.242834,22.600441,-17.500225,7.585114,0.3638721,-0.29405564,11.843982,5.4484444,12.240682,-20.850807,24.549734,14.283055,6.281071,3.7586439,8.676339,5.0939846,20.646442,-4.9851108,112.99987,-38.81311,-8.871805
102,-3.9557557106018066,2.791036367416382,77.53333282470703,0.5760799273182678,7.02572292791683,84.72229390244158,-6.1069837,0.04262121,4.38972,21.086363,-23.627924,-0.2373251,-10.92326,-7.053246,5.2654014,23.983816,-18.07178,7.5996537,0.31797662,-0.46929505,12.068688,5.31067,12.331947,-20.937305,23.350105,14.591037,6.427125,3.4193938,8.820123,5.131308,20.647228,-5.1434035,112.99987,-38.618805,-8.731419
103,-4.037155628204346,3.004542589187622,77.4370346069336,0.6714789754384768,7.046411015217072,84.77459005977154,-6.093462,-0.16326462,4.3689466,21.41908,-24.00134,-0.13046645,-11.44384,-7.234895,5.2265606,25.454586,-18.613401,7.592891,0.25615278,-0.6232714,12.296914,5.154357,12.42574,-21.019772,22.160118,14.89522,6.541105,3.092389,8.964494,5.160957,20.58708,-5.1743245,112.99987,-38.372913,-8.511158
104,-4.115861892700195,3.2286298274993896,77.33810424804688,0.7398510020391055,7.06703103179679,84.83077437461583,-6.09903,-0.3321311,4.3393445,21.804548,-24.397413,-0.029929727,-12.017043,-7.3949585,5.101746,27.057274,-19.106186,7.5369835,0.19147639,-0.7562001,12.525938,4.9763756,12.53189,-21.107193,20.985674,15.089842,6.627321,2.864534,9.114799,5.1832304,20.47232,-5.039987,112.99987,-38.02186,-8.116301
105,-4.187005043029785,3.4706320762634277,77.24369812011719,0.7768768214959494,7.08685611713445,84.89031224359434,-6.1320868,-0.45608234,4.3009553,22.261309,-24.822836,0.06825131,-12.641951,-7.5353947,4.871734,28.80015,-19.544317,7.458132,0.120331384,-0.8598601,12.755361,4.7648625,12.637018,-21.202862,19.844374,15.136519,6.678331,2.7809927,9.270962,5.191779,20.307129,-4.7263637,112.99987,-37.554897,-7.5193086
106,-4.251870632171631,3.7041618824005127,77.14471435546875,0.786520936608624,7.102237526753677,84.95656566029034,-6.1844254,-0.54285634,4.252143,22.780123,-25.27634,0.15954174,-13.30244,-7.666216,4.5564065,30.659475,-19.939634,7.3534007,0.042058423,-0.93979985,12.9875555,4.528595,12.750559,-21.30742,18.71945,15.089938,6.6970057,2.789626,9.430029,5.187812,20.08241,-4.256585,112.99987,-37.000973,-6.77503
107,-4.318049430847168,3.947493553161621,77.04068756103516,0.778016002344604,7.117439914755124,85.02815895985908,-6.242048,-0.6056489,4.194772,23.3236,-25.741999,0.23872943,-14.0146,-7.791303,4.1905365,32.645275,-20.298409,7.150859,-0.053644028,-1.0002371,13.212681,4.261204,12.842095,-21.38749,17.63766,15.017862,6.6968603,2.827984,9.584833,5.166689,19.808872,-3.6271257,112.99987,-36.367283,-5.899646
108,-4.382174491882324,4.189986228942871,76.93499755859375,0.7618640159006946,7.136958282069981,85.10374780159353,-6.2916403,-0.65877086,4.131012,23.855938,-26.205288,0.30078998,-14.789101,-7.9141474,3.807965,34.755814,-20.621618,6.7812433,-0.13728532,-1.0539135,13.434578,3.978147,12.953521,-21.464397,16.562168,14.947998,6.696793,2.8411355,9.74353,5.1226354,19.457624,-2.8744807,112.99987,-35.66367,-4.9237127
109,-4.441816806793213,4.453896999359131,76.82921600341797,0.7334621414922726,7.164038137151459,85.18823945739365,-6.339791,-0.70075476,4.05511,24.37852,-26.664322,0.3384324,-15.6444845,-8.034092,3.4049435,37.042892,-20.90986,6.1695647,-0.23265573,-1.0996758,13.643929,3.6649373,13.055242,-21.504215,15.541569,14.912985,6.680208,2.8038716,9.891687,5.0505095,19.04728,-1.95699,112.99987,-34.872982,-3.8185985
110,-4.509751796722412,4.728066444396973,76.72298431396484,0.6929504153622928,7.195394800412123,85.28081315134028,-6.3918076,-0.7272323,3.9685075,24.91103,-27.12592,0.35663462,-16.56214,-8.15652,2.9673262,39.476883,-21.159197,5.3683267,-0.33885816,-1.1367848,13.841213,3.3145645,13.142306,-21.517162,14.580621,14.887751,6.645177,2.7506979,10.024687,4.9521637,18.576948,-0.87110656,112.99987,-34.005665,-2.5888195
111,-4.565297603607178,4.991572856903076,76.61373901367188,0.6488141950012416,7.2255820456245425,85.37185254086098,-6.4230585,-0.74770993,3.8833718,25.424269,-27.585995,0.3688284,-17.502024,-8.289457,2.5108268,41.942287,-21.367334,4.502434,-0.43545064,-1.1644822,14.044343,2.9582825,13.242116,-21.530756,13.595012,14.841903,6.6265435,2.7071729,10.176812,4.80108,18.045383,0.27709487,112.99987,-33.12205,-1.3119543
112,-4.601099967956543,5.277541637420654,76.50470733642578,0.6122169553786505,7.248909999400323,85.45158408482145,-6.4116154,-0.7702206,3.8117046,25.89424,-28.041798,0.38828766,-18.4273,-8.437603,2.0520864,44.33208,-21.534517,3.6976175,-0.55173737,-1.2002281,14.249709,2.6190987,13.331106,-21.501068,12.560137,14.787777,6.6547017,2.6866999,10.339507,4.6230607,17.503078,1.4757631,112.99987,-32.274395,-0.029853517
113,-4.63306999206543,5.577612400054932,76.39427947998047,0.5817286822246563,7.257988397675301,85.51266903890824,-6.3453546,-0.79353696,3.7605479,26.317188,-28.49824,0.4190246,-19.33939,-8.618304,1.5629698,46.680202,-21.654844,2.951723,-0.67582536,-1.2467993,14.46337,2.2966993,13.40647,-21.424345,11.471542,14.724337,6.7595367,2.6738188,10.508054,4.4243283,16.94107,2.7589536,112.99987,-31.433222,1.3158239
114,-4.673125267028809,5.896875381469727,76.28267669677734,0.5530687317675856,7.257794654942083,85.56193708681023,-6.238309,-0.8136929,3.7218826,26.705086,-28.954817,0.45376337,-20.255196,-8.8267765,1.0457287,49.029835,-21.735039,2.2049026,-0.8056107,-1.2992859,14.679962,1.976816,13.470882,-21.31044,10.355695,14.654187,6.9171658,2.6660566,10.677247,4.201294,16.347506,4.142997,112.99987,-30.58257,2.732423
115,-4.710280418395996,6.219206809997559,76.17057037353516,0.5271048619143313,7.261783903310107,85.61025539400332,-6.108702,-0.83309746,3.6850545,27.060276,-29.402262,0.48844856,-21.168943,-9.025882,0.5614603,51.298664,-21.794664,1.503191,-0.9511341,-1.3530751,14.88488,1.6550717,13.527359,-21.182682,9.220039,14.575754,7.0796843,2.7051454,10.850626,3.9547672,15.719903,5.5681505,112.99987,-29.773972,4.102922
116,-4.740259647369385,6.5513081550598145,76.05537414550781,0.5027118645450542,7.283484325925651,85.66846412039196,-5.9748487,-0.85344213,3.6392949,27.384655,-29.830696,0.5190323,-22.075985,-9.170122,0.16789635,53.403355,-21.849617,0.90081865,-1.123583,-1.4008849,15.064207,1.3285855,13.578796,-21.063704,8.068893,14.486345,7.1990576,2.8326552,11.036133,3.6913998,15.056663,6.9721346,112.99987,-29.054615,5.3105373
117,-4.76315975189209,6.910099983215332,75.94622039794922,0.47745301471462703,7.330950683692523,85.74098428935257,-5.8586335,-0.8743048,3.5799975,27.703482,-30.249178,0.5460849,-22.98694,-9.2399025,-0.12435714,55.34883,-21.907885,0.41662672,-1.3284391,-1.4418422,15.209926,1.0058525,13.626714,-20.954927,6.9038525,14.4160795,7.2533736,3.0672839,11.234303,3.4170597,14.345115,8.372108,112.99987,-28.409008,6.3618436
118,-4.788679599761963,7.281108856201172,75.83755493164062,0.4536963562597248,7.395621306821582,85.82141617088762,-5.745759,-0.8933727,3.5133007,28.009823,-30.660055,0.57093406,-23.904655,-9.250637,-0.34987262,57.177677,-21.95634,0.031115266,-1.5577948,-1.4795102,15.330335,0.68587804,13.671707,-20.847202,5.7213025,14.3547125,7.2714453,3.384809,11.442525,3.1334229,13.587235,9.794779,112.99987,-27.812092,7.314282
119,-4.802769660949707,7.655876159667969,75.72862243652344,0.4290177154824721,7.466102372081807,85.90364031367443,-5.5996704,-0.9106244,3.445211,28.25572,-31.043516,0.59040654,-24.811153,-9.20483,-0.5208275,58.853577,-21.976837,-0.2542787,-1.8017699,-1.5154396,15.435981,0.35240626,13.715469,-20.747442,4.5174074,14.239801,7.280474,3.7621436,11.662969,2.8376637,12.799239,11.197621,112.99987,-27.287163,8.139584
120,-4.8227033615112305,8.025689125061035,75.62052917480469,0.4057063115019472,7.530931119143445,85.98184702387456,-5.3811774,-0.9262308,3.3818126,28.387026,-31.376177,0.6012985,-25.690153,-9.106014,-0.6481467,60.343708,-21.94913,-0.43898317,-2.051767,-1.5489318,15.538635,-0.008010497,13.75966,-20.661777,3.2846844,14.0076685,7.306713,4.176439,11.904972,2.5266414,12.003838,12.5229435,112.99987,-26.867783,8.80341
121,-4.832033634185791,8.441831588745117,75.53196716308594,0.386991169123774,7.579727805584453,86.05009727041087,-5.06893,-0.9454904,3.3291707,28.388077,-31.657154,0.6073637,-26.535204,-8.935494,-0.70620424,61.646606,-21.866337,-0.50037456,-2.3051174,-1.5853274,15.649122,-0.39605966,13.80441,-20.587934,2.0241194,13.588565,7.350658,4.646094,12.163317,2.198238,11.189561,13.774016,112.99987,-26.58991,9.2616
122,-4.838008403778076,8.85909366607666,75.44557189941406,0.3708110061906348,7.620847845328638,86.1130358245401,-4.6872463,-0.9665355,3.282423,28.287588,-31.897333,0.60898256,-27.35728,-8.692187,-0.70220965,62.779484,-21.739262,-0.439679,-2.567632,-1.6215338,15.759255,-0.80109787,13.849045,-20.522966,0.73383236,13.033462,7.397108,5.1758914,12.445978,1.8536177,10.354877,14.960067,112.99987,-26.43121,9.540224
123,-4.842592239379883,9.284775733947754,75.36528778076172,0.34972575963608266,7.6714712899619295,86.17986238488268,-4.268122,-0.9780738,3.2321544,28.105627,-32.0942,0.5977558,-28.167233,-8.409192,-0.6921097,63.73594,-21.575403,-0.2942555,-2.841762,-1.6464378,15.852163,-1.2251216,13.896268,-20.473677,-0.5947195,12.456654,7.4498363,5.722246,12.772117,1.4905347,9.529283,16.051933,112.99987,-26.331907,9.712723
124,-4.841058254241943,9.7295503616333,75.29354858398438,0.315271370174126,7.74879962820209,86.25987465883408,-3.8435817,-0.96987015,3.169036,27.862051,-32.24423,0.56565666,-28.975718,-8.123372,-0.7310347,64.509705,-21.382816,-0.104921505,-3.1326954,-1.6472377,15.913169,-1.6630139,13.949446,-20.44415,-1.9788249,11.972602,7.515286,6.241115,13.161908,1.1083804,8.745722,17.019588,112.99987,-26.227932,9.8529415
125,-4.834868907928467,10.199085235595703,75.23497009277344,0.2724310875774029,7.85940858885084,86.35226235938946,-3.4219668,-0.94610965,3.0959482,27.558304,-32.348583,0.5081977,-29.795183,-7.8420157,-0.82026476,65.09735,-21.164835,0.14623752,-3.4388065,-1.6316433,15.936202,-2.1193445,14.0136795,-20.438202,-3.421236,11.59292,7.6099744,6.7320065,13.6021595,0.7009671,7.995487,17.904854,112.99987,-26.11067,9.957245
126,-4.831276893615723,10.671855926513672,75.18429565429688,0.22334027079615928,7.993308765747483,86.45337010093725,-2.9853032,-0.90994483,3.015927,27.183447,-32.40853,0.43134114,-30.616571,-7.548868,-0.9329939,65.50094,-20.91713,0.47069386,-3.761592,-1.6005279,15.9319515,-2.587134,14.089321,-20.45013,-4.923847,11.259203,7.726727,7.2148924,14.092512,0.27094796,7.271715,18.7024,112.99987,-26.013113,9.989787
127,-4.809950828552246,11.159476280212402,75.13923645019531,0.15711079775033857,8.143260708944524,86.56794521299618,-2.5293233,-0.84885925,2.920155,26.747194,-32.422897,0.3426279,-31.422266,-7.2475405,-1.0806533,65.72753,-20.63865,0.8158332,-4.1110606,-1.5339507,15.9091625,-3.044214,14.170476,-20.470104,-6.500254,10.985308,7.8383913,7.6754084,14.663013,-0.16315122,6.6058207,19.320826,112.99987,-25.940233,9.969868
128,-4.790013313293457,11.663426399230957,75.10578918457031,0.06362955075660502,8.301414213337905,86.70114743390637,-2.0493314,-0.7506642,2.79967,26.258554,-32.388832,0.24991196,-32.193356,-6.942215,-1.2754067,65.781815,-20.32664,1.1281123,-4.495881,-1.4145069,15.874495,-3.4756093,14.249762,-20.488617,-8.153975,10.785931,7.9184494,8.098544,15.337744,-0.5761599,6.0245013,19.678337,112.99987,-25.894148,9.921103
129,-4.764263153076172,12.178853988647461,75.08058166503906,-0.06209275352513118,8.462882708874844,86.85756718433986,-1.5387099,-0.6080049,2.6467133,25.717535,-32.316727,0.15386236,-32.92513,-6.6310244,-1.5229574,65.65816,-19.964222,1.3994943,-4.911571,-1.2419784,15.832278,-3.8937757,14.326128,-20.52329,-9.876992,10.7155695,7.9713545,8.508923,16.120867,-0.96039754,5.534021,19.781233,112.99987,-25.86055,9.863796
130,-4.729539394378662,12.717313766479492,75.06656646728516,-0.21144475055462505,8.632576347598004,87.0334725824227,-1.000782,-0.42819378,2.4680104,25.119911,-32.203754,0.05182155,-33.62713,-6.315512,-1.8133378,65.35376,-19.556944,1.6550428,-5.3529987,-1.0280696,15.777061,-4.305594,14.400731,-20.575802,-11.6624155,10.752726,8.00954,8.904871,16.993635,-1.3156898,5.1141467,19.675346,112.99987,-25.841602,9.786073
131,-4.701045989990234,13.27232551574707,75.06946563720703,-0.37906422152366465,8.818579870578747,87.22064915047481,-0.450523,-0.22114031,2.2760727,24.478304,-32.035667,-0.05382843,-34.301544,-6.0055227,-2.1358411,64.87927,-19.13491,1.8902631,-5.8259673,-0.77550447,15.699551,-4.6945815,14.470628,-20.61269,-13.508189,10.797608,8.017686,9.23183,17.942438,-1.6275228,4.746368,19.343843,112.99987,-25.856844,9.660636
132,-4.658094882965088,13.862503051757812,75.08334350585938,-0.5555817740390661,9.028669415327176,87.4110120195205,0.10209713,0.0030039083,2.0833962,23.793633,-31.797865,-0.15990956,-34.950775,-5.710518,-2.480149,64.2452,-18.728283,2.100409,-6.335524,-0.48796895,15.589372,-5.0450163,14.531032,-20.601353,-15.409826,10.754008,7.979259,9.435383,18.94989,-1.874068,4.4134703,18.77565,112.99987,-25.924877,9.461638
133,-4.620494842529297,14.444425582885742,75.09590148925781,-0.7473450721096524,9.26604865565475,87.60457290532722,0.66193914,0.25242138,1.8896759,23.048655,-31.492327,-0.27349836,-35.576942,-5.4293394,-2.8542666,63.44397,-18.348936,2.2760704,-6.8799143,-0.15823449,15.443561,-5.357895,14.577124,-20.532143,-17.382137,10.573803,7.8796396,9.483303,20.029617,-2.0444038,4.1227636,17.937548,112.99987,-26.04096,9.197754
134,-4.578647613525391,15.054109573364258,75.12389373779297,-0.9553811487523891,9.525970358004214,87.80470946687846,1.2311032,0.52827996,1.6889724,22.251871,-31.127127,-0.3919649,-36.176548,-5.160918,-3.258285,62.471436,-17.97877,2.4208412,-7.439637,0.20083332,15.264136,-5.675001,14.60215,-20.436289,-19.37839,10.325705,7.7301345,9.405904,21.181273,-2.1148279,3.8776422,16.861141,112.99987,-26.19959,8.888152
135,-4.529136657714844,15.681229591369629,75.16315460205078,-1.1622871822353142,9.804803385850555,88.00842651419453,1.7961962,0.81093574,1.4864718,21.438179,-30.690336,-0.5063274,-36.741554,-4.9121504,-3.6706665,61.34166,-17.602255,2.5502553,-8.027984,0.58556294,15.058478,-5.963108,14.624283,-20.321903,-21.402742,10.063103,7.5569167,9.260869,22.37377,-2.1399658,3.6606727,15.583209,112.99987,-26.428602,8.4922085
136,-4.479298114776611,16.334739685058594,75.21013641357422,-1.3488910099857552,10.098102783847112,88.21294463760847,2.3432553,1.0795066,1.2871064,20.643833,-30.17004,-0.6078343,-37.261337,-4.689486,-4.0698667,60.06515,-17.20149,2.6799493,-8.64506,0.96726936,14.824947,-6.2360663,14.642021,-20.193518,-23.392666,9.860985,7.383398,9.084607,23.564014,-2.1154606,3.4659529,14.172722,112.99987,-26.770172,7.9861264
137,-4.4320068359375,16.9921875,75.26546478271484,-1.5076776232494047,10.408794283320113,88.42319164753127,2.8738282,1.324092,1.0946428,19.856865,-29.562485,-0.6818045,-37.73812,-4.5046926,-4.457323,58.631134,-16.787502,2.8180647,-9.267611,1.3279126,14.558845,-6.513564,14.686581,-20.088835,-25.36254,9.710011,7.2397194,8.883045,24.768282,-2.0135312,3.284892,12.582275,112.99987,-27.26799,7.3197513
138,-4.374076843261719,17.669740676879883,75.32923889160156,-1.6455638412387676,10.737224655806493,88.63907080734973,3.392563,1.5539296,0.9055838,19.067928,-28.875307,-0.737956,-38.173264,-4.351642,-4.840207,57.037575,-16.364416,2.9547973,-9.899863,1.669395,14.262035,-6.790905,14.754062,-19.988794,-27.325155,9.584084,7.1049223,8.630214,25.987825,-1.826185,3.1414137,10.804572,112.99987,-27.90917,6.518112
139,-4.3086018562316895,18.360576629638672,75.40025329589844,-1.7714796506769928,11.075055285943748,88.84999305411557,3.8917165,1.7783139,0.7138705,18.313446,-28.112724,-0.80453986,-38.55461,-4.2057276,-5.2075963,55.308094,-15.904404,3.0795133,-10.539367,2.0029933,13.94497,-7.0471673,14.83544,-19.887386,-29.24549,9.503981,6.93219,8.359366,27.185081,-1.5781103,3.0232062,8.944123,112.99987,-28.623037,5.6581397
140,-4.231612205505371,19.074859619140625,75.48176574707031,-1.8952666170578223,11.414042046357748,89.04497947901281,4.364536,2.0074599,0.512927,17.628496,-27.278078,-0.9098615,-38.870937,-4.04155,-5.549231,53.466362,-15.379683,3.1812985,-11.177348,2.332764,13.618421,-7.269701,14.929666,-19.78166,-31.082188,9.4884,6.675062,8.103168,28.318321,-1.2667303,2.9123592,7.1251674,112.99987,-29.322493,4.8400135
141,-4.158882141113281,19.80554962158203,75.5696029663086,-2.018740268475837,11.757476729812138,89.22561189808314,4.815354,2.2437632,0.29278985,16.993763,-26.352478,-1.0705935,-39.120117,-3.8590126,-5.868306,51.48563,-14.791793,3.250346,-11.836659,2.6713653,13.277976,-7.4421873,15.032436,-19.651463,-32.855614,9.557618,6.311941,7.8596697,29.394238,-0.8710781,2.805614,5.2936487,112.99987,-30.025776,4.046279
142,-4.074451923370361,20.552671432495117,75.66139221191406,-2.135608484830862,12.107282758266818,89.39678409701713,5.2480397,2.4797518,0.05732975,16.396122,-25.33844,-1.2690063,-39.3014,-3.6674507,-6.169352,49.354145,-14.149553,3.295558,-12.504156,3.009242,12.91846,-7.592729,15.144282,-19.514145,-34.5605,9.695996,5.8704596,7.615962,30.42654,-0.3915097,2.7156131,3.4067168,112.99987,-30.782667,3.2259576
143,-3.9775681495666504,21.32484245300293,75.75663757324219,-2.2448435600109016,12.45248690510169,89.55192432086498,5.652853,2.7110996,-0.17876698,15.8848915,-24.275871,-1.4822859,-39.41275,-3.456368,-6.442988,47.13104,-13.437702,3.333487,-13.12327,3.3202841,12.552448,-7.7608953,15.270437,-19.419113,-36.133705,9.87246,5.3781047,7.388443,31.391056,0.13028814,2.6409235,1.6007133,112.99987,-31.542492,2.4323838
144,-3.884773015975952,22.103374481201172,75.85356140136719,-2.3447026462545892,12.782787015504729,89.68444319367937,6.0215783,2.933302,-0.39962623,15.504832,-23.201456,-1.6879113,-39.451874,-3.2163622,-6.6792545,44.871758,-12.643134,3.3798048,-13.654999,3.586361,12.196221,-7.9639163,15.4155855,-19.398943,-37.53393,10.054464,4.8618274,7.192826,32.26914,0.6393549,2.578722,0.015254191,112.99987,-32.223656,1.7400879
145,-3.779336452484131,22.897436141967773,75.94755554199219,-2.441370690503216,13.104829965959707,89.79257631726779,6.353632,3.1551528,-0.61205703,15.239897,-22.10788,-1.8910159,-39.420624,-2.932181,-6.863846,42.527504,-11.694155,3.4338558,-14.100657,3.81482,11.851215,-8.21246,15.583285,-19.447748,-38.76583,10.246541,4.299487,7.0220733,33.065025,1.1002983,2.5306315,-1.2858707,112.99987,-32.753593,1.2179823
146,-3.679255485534668,23.71271514892578,76.04510498046875,-2.5332244675899416,13.420435866158085,89.88125989437242,6.651696,3.3736534,-0.82303035,15.077311,-20.97981,-2.0998209,-39.315414,-2.6153445,-7.0050764,40.08261,-10.61808,3.487913,-14.508564,4.0229516,11.515507,-8.459622,15.770473,-19.52302,-39.882004,10.457921,3.6856267,6.8719277,33.789673,1.5187205,2.5025094,-2.3867147,112.99987,-33.168205,0.82600176
147,-3.570298910140991,24.554630279541016,76.13562774658203,-2.6094148329183247,13.712489465604765,89.95357474173237,6.923484,3.56976,-1.0147014,15.042565,-19.836052,-2.2988513,-39.12929,-2.2956197,-7.127441,37.645943,-9.550076,3.546844,-14.905481,4.2088766,11.198628,-8.641912,15.96997,-19.604797,-40.91161,10.663859,3.0731258,6.759735,34.435574,1.9092783,2.488473,-3.3585846,112.99987,-33.53832,0.482896
148,-3.461193561553955,25.40806770324707,76.2210464477539,-2.6560649417029647,13.964567491546484,90.01232374272972,7.1726785,3.7256699,-1.1676548,15.168318,-18.697805,-2.4683404,-38.860954,-2.0001335,-7.25716,35.33499,-8.628799,3.6158555,-15.312075,4.3705716,10.908271,-8.704025,16.172369,-19.678183,-41.872787,10.841814,2.5151553,6.7015142,34.99219,2.2907014,2.4814565,-4.272388,112.99987,-33.94126,0.09995578
149,-3.3503546714782715,26.27442741394043,76.29306030273438,-2.6700934468041098,14.17862342769108,90.06017206484114,7.4209123,3.8361754,-1.2767743,15.407774,-17.54518,-2.6206386,-38.496597,-1.7320609,-7.3979697,33.09882,-7.88787,3.7124557,-15.732901,4.5042458,10.637948,-8.647385,16.372725,-19.741812,-42.760887,11.002656,2.0121582,6.698302,35.457745,2.6696248,2.4738588,-5.1320453,112.99987,-34.393925,-0.33784726
150,-3.2404792308807373,27.16670036315918,76.35466766357422,-2.6558716972361047,14.361296633825269,90.09667135196288,7.6599784,3.9121046,-1.3531816,15.7591715,-16.372633,-2.7574434,-38.042755,-1.4773748,-7.5387645,30.90206,-7.2538314,3.8285599,-16.151545,4.612679,10.384279,-8.5074215,16.57048,-19.808395,-43.55844,11.157163,1.5409527,6.7398305,35.839935,3.0444798,2.4621234,-5.9007792,112.99987,-34.850513,-0.782479
151,-3.1276094913482666,28.071313858032227,76.40420532226562,-2.630055378728801,14.504620495101147,90.11779403228788,7.849305,3.965614,-1.3992243,16.316309,-15.21965,-2.8477478,-37.53436,-1.2313915,-7.687168,28.892822,-6.7074394,3.9308586,-16.5501,4.706236,10.15746,-8.286679,16.76333,-19.887997,-44.256893,11.283211,1.1194347,6.823789,36.141888,3.4196882,2.4419272,-6.5928454,112.99987,-35.303444,-1.2285172
152,-3.0179593563079834,28.991371154785156,76.44242095947266,-2.6101813130053197,14.603235538302787,90.11741700065811,7.9454503,4.01528,-1.4143116,17.174692,-14.126741,-2.8624396,-37.01282,-0.9846975,-7.85343,27.228947,-6.2340384,3.985498,-16.906912,4.799559,9.966579,-7.990071,16.94787,-19.993805,-44.84464,11.359972,0.7653742,6.9476185,36.367714,3.8022234,2.4093769,-7.2229466,112.99987,-35.748505,-1.6728876
153,-2.904217481613159,29.92028045654297,76.46173095703125,-2.5951650241729864,14.657143389081178,90.09334947348908,7.954441,4.0598044,-1.3862011,18.329994,-13.097048,-2.774364,-36.45433,-0.72816825,-8.056376,25.840092,-5.749108,4.108937,-17.213655,4.887364,9.806103,-7.6198626,17.122671,-20.146212,-45.31414,11.378369,0.49712804,7.1340647,36.523003,4.1973176,2.3579328,-7.787905,112.99987,-36.194096,-2.1230788
154,-2.7874534130096436,30.86475372314453,76.46370697021484,-2.582432580115945,14.671958629531295,90.04622911510819,7.901073,4.1048164,-1.3132674,19.717457,-12.102374,-2.6026316,-35.859158,-0.459254,-8.288491,24.692078,-5.293389,4.277091,-17.47522,4.9718223,9.671434,-7.182074,17.287115,-20.336132,-45.66414,11.350855,0.30053616,7.3746967,36.605785,4.607186,2.2862794,-8.280538,112.99987,-36.635727,-2.5748563
155,-2.676584243774414,31.82564353942871,76.44630432128906,-2.607101208362822,14.653357677841337,89.97155032732199,7.7545815,4.187529,-1.2112485,21.371271,-11.140495,-2.3900719,-35.309223,-0.17363842,-8.527175,24.001047,-5.041959,4.2437415,-17.686234,5.08545,9.573562,-6.6839104,17.437279,-20.53938,-45.89846,11.294301,0.14436662,7.621193,36.607563,5.0310245,2.1958523,-8.709121,112.99987,-37.0512,-3.0110838
156,-2.5537948608398438,32.773136138916016,76.42427825927734,-2.698665257348213,14.606503543833805,89.86452900416482,7.4902368,4.34358,-1.0977064,23.315882,-10.207495,-2.1821573,-34.88759,0.13265476,-8.751486,23.986849,-5.170751,3.7621124,-17.843481,5.263162,9.524261,-6.134208,17.567215,-20.727398,-46.01429,11.222742,-0.002573197,7.824449,36.520714,5.4675145,2.0902355,-9.081551,112.99987,-37.415257,-3.4144034
157,-2.430668354034424,33.72184753417969,76.38248443603516,-2.8784449321453294,14.5356774915809,89.71728476677089,7.0981083,4.59053,-0.96046114,25.57478,-9.314555,-1.9524606,-34.675217,0.46023557,-8.96525,24.925951,-5.7877355,2.505061,-17.947962,5.527749,9.517868,-5.5195074,17.671717,-20.894787,-46.007065,11.127343,-0.1480695,7.9742823,36.344574,5.9194775,1.9643714,-9.404658,112.99987,-37.73165,-3.8046436
158,-2.313234806060791,34.679203033447266,76.31208038330078,-3.1104205077808453,14.428559979173663,89.54270442816882,6.6179295,4.895976,-0.80522454,28.09433,-8.441506,-1.6849245,-34.59059,0.8040096,-9.16858,26.605377,-6.759218,0.6928859,-18.006273,5.843197,9.554282,-4.8486543,17.749691,-21.059336,-45.870007,11.004392,-0.27601883,8.093369,36.08721,6.3870506,1.8157425,-9.67625,112.99987,-38.011803,-4.183874
159,-2.196242094039917,35.64683532714844,76.20011901855469,-3.35416658713795,14.268504711925402,89.3619366230592,6.0931344,5.2181845,-0.6737182,30.792635,-7.540755,-1.446759,-34.477955,1.159584,-9.330195,28.520529,-7.9115176,-1.0991564,-18.025066,6.161652,9.651479,-4.1526937,17.80053,-21.223223,-45.605457,10.878387,-0.38160434,8.183228,35.751938,6.8659315,1.6564169,-9.884872,112.99987,-38.230892,-4.498892
160,-2.08925724029541,36.625648498535156,76.06104278564453,-3.5843245763764857,14.048433844391866,89.18408703908133,5.544705,5.528675,-0.5985278,33.62067,-6.5837097,-1.3130146,-34.20718,1.526507,-9.424148,30.205635,-9.104135,-2.298647,-18.002926,6.45409,9.823014,-3.4583783,17.823385,-21.385134,-45.221794,10.773938,-0.4603916,8.2460785,35.33875,7.3498955,1.4999238,-10.016022,112.99987,-38.36178,-4.6941576
161,-1.9684431552886963,37.59394836425781,75.89482116699219,-3.7964802147533856,13.761975370632092,88.99824236901398,4.987035,5.8204017,-0.5643875,36.611935,-5.5625896,-1.3863751,-33.75825,1.8930856,-9.414595,31.619041,-10.375056,-2.648027,-17.937738,6.7208986,10.074216,-2.7538898,17.818346,-21.542522,-44.74391,10.663233,-0.5056512,8.29429,34.85571,7.8454785,1.3450515,-10.030373,112.99987,-38.321644,-4.6935463
162,-1.8465551137924194,38.555152893066406,75.70802307128906,-4.003246943719736,13.417675814339932,88.79801932487985,4.389926,6.0938854,-0.56033266,39.812275,-4.514236,-1.6119474,-33.2066,2.2450533,-9.322697,33.00918,-11.792886,-2.4876032,-17.825724,6.976651,10.391762,-2.0320344,17.784523,-21.698349,-44.158028,10.543808,-0.5220607,8.323393,34.300255,8.358767,1.1847247,-9.939208,112.99987,-38.136364,-4.53542
163,-1.7261911630630493,39.49956130981445,75.501220703125,-4.217573092497999,13.036463755784395,88.59405671897221,3.6970577,6.34593,-0.6200136,43.206963,-3.4764845,-1.8306507,-32.585308,2.584715,-9.215991,34.3779,-13.284105,-2.1439364,-17.6584,7.2262115,10.760017,-1.326747,17.719202,-21.858328,-43.414196,10.477309,-0.52209187,8.30966,33.655777,8.872106,1.0215946,-9.8127165,112.99987,-37.957058,-4.3483577
164,-1.6260217428207397,40.442481994628906,75.27864074707031,-4.45370875113956,12.637687148651523,88.39964172445217,2.860213,6.581572,-0.77569056,46.7683,-2.4752,-1.875322,-31.916103,2.9334455,-9.156317,35.69953,-14.76613,-1.942789,-17.437845,7.4771657,11.16615,-0.6606185,17.618038,-22.019936,-42.471226,10.526545,-0.51836944,8.228925,32.90571,9.351038,0.8650768,-9.73616,112.99987,-37.95318,-4.2797976
165,-1.5326403379440308,41.38634490966797,75.03942108154297,-4.714065049094919,12.202288702851142,88.2124481019107,1.8572353,6.8009434,-1.0360833,50.596176,-1.3926494,-1.6423912,-31.194712,3.3057857,-9.153254,37.005108,-16.258537,-1.9564387,-17.178282,7.7277474,11.628994,-0.021530816,17.477009,-22.166052,-41.321053,10.7222395,-0.5710395,8.077058,32.037785,9.76467,0.7122328,-9.754886,112.99987,-38.218082,-4.3852005
166,-1.4492887258529663,42.323326110839844,74.78456115722656,-4.9894414943160434,11.727748007717599,88.02854762288595,0.72351503,7.0021095,-1.3771498,54.66089,-0.24827288,-1.2370955,-30.411139,3.6957297,-9.175793,38.28911,-17.789314,-2.016018,-16.892046,7.983649,12.149273,0.6164804,17.293962,-22.288635,-39.997456,11.026699,-0.6562825,7.8657513,31.062176,10.104465,0.57145447,-9.838894,112.99987,-38.67828,-4.6087065
167,-1.3587034940719604,43.262149810791016,74.52011108398438,-5.285436590381858,11.257690508477962,87.8597521557345,-0.5020211,7.1900363,-1.7846718,58.74463,0.7253595,-0.8016279,-29.575777,4.107142,-9.220373,39.462784,-19.286556,-2.0859601,-16.574797,8.261926,12.687451,1.2451633,17.06915,-22.399078,-38.51821,11.399066,-0.66073364,7.5925875,29.996346,10.370336,0.46636194,-9.963662,112.99987,-39.259,-4.9405155
168,-1.2618143558502197,44.191349029541016,74.25543212890625,-5.604344273391673,10.83621481212734,87.71712761510517,-1.7870703,7.3639364,-2.2520852,62.64983,1.2836878,-0.48651364,-28.70301,4.541673,-9.284635,40.443447,-20.681211,-2.1303923,-16.221394,8.579795,13.20384,1.857177,16.803734,-22.509571,-36.901073,11.80044,-0.47073638,7.254288,28.857534,10.569746,0.4201152,-10.098991,112.99987,-39.873905,-5.361401
169,-1.1671161651611328,45.10867691040039,73.99151611328125,-5.987969415159723,10.46926809621144,87.61358525597701,-3.14436,7.5609455,-2.8140078,66.43218,1.3653011,-0.32445914,-27.787426,5.0358562,-9.40702,41.201504,-21.964403,-2.14304,-15.836389,8.974645,13.701396,2.4304857,16.494984,-22.622389,-35.060818,12.153088,-0.11360227,6.8425694,27.638702,10.709851,0.39905363,-10.173519,112.99987,-40.490658,-5.820771
170,-1.0788215398788452,46.01814651489258,73.73494720458984,-6.420769469886092,10.136187599221735,87.54028101287027,-4.5862665,7.7575583,-3.465766,70.18447,1.0859722,-0.24468836,-26.827282,5.5807133,-9.575556,41.78411,-23.169474,-2.1424778,-15.416064,9.427097,14.19429,2.9720404,16.141615,-22.73582,-33.014114,12.505197,0.36789227,6.3593316,26.336,10.793847,0.39925942,-10.225127,112.99987,-41.152397,-6.3386393
171,-0.9993212223052979,46.91910171508789,73.49391174316406,-6.830032979974253,9.840992394875611,87.47095019961245,-6.0880756,7.863831,-4.1386414,73.78442,0.4520896,-0.24768266,-25.851566,6.107939,-9.715135,42.237537,-24.294476,-2.1305718,-14.94029,9.869161,14.660442,3.5144954,15.751827,-22.85129,-30.930168,13.003948,1.0636761,5.8133683,24.967266,10.822889,0.4895259,-10.380907,112.99987,-41.88636,-6.9981766
172,-0.923374593257904,47.81340408325195,73.27600860595703,-7.142178698663528,9.587244729645752,87.37685833868552,-7.6284723,7.7988596,-4.7585425,77.1105,-0.52926236,-0.33278295,-24.88864,6.550104,-9.754142,42.607998,-25.335958,-2.1096601,-14.393095,10.232856,15.081119,4.0988417,15.340524,-22.965857,-28.986057,13.7973995,2.0616484,5.210093,23.544172,10.797487,0.7435568,-10.756588,112.99987,-42.71457,-7.8789163
173,-0.8514018058776855,48.702049255371094,73.08665466308594,-7.341055725086699,9.387573873571387,87.26297251673404,-9.223362,7.5196896,-5.3364997,80.17845,-2.0334213,-0.5185861,-23.960268,6.887015,-9.689245,42.914486,-26.296167,-2.0848405,-13.757267,10.478493,15.443641,4.7050033,14.913702,-23.082293,-27.127995,15.048098,3.6094248,4.500374,22.030394,10.687223,1.1507868,-11.375039,112.99987,-43.80604,-9.0906515
174,-0.783750593662262,49.603153228759766,72.93319702148438,-7.467013946033327,9.23664996027296,87.13888713939726,-10.878535,7.088164,-5.884969,83.05084,-4.009439,-0.79242647,-23.045399,7.156681,-9.559322,43.12834,-27.175152,-2.0547345,-13.063478,10.649555,15.765308,5.3417892,14.470371,-23.18603,-25.3092,16.651749,5.5731134,3.6653008,20.414295,10.485406,1.6856111,-12.150742,112.99987,-45.0819,-10.551191
175,-0.7226815819740295,50.49846649169922,72.81311798095703,-7.532158097477467,9.111006739963504,86.98441570843373,-12.564861,6.584782,-6.338059,85.6653,-6.1007266,-1.1055037,-22.105556,7.3724785,-9.356724,43.221622,-27.964344,-2.0111322,-12.355442,10.79737,16.06931,6.0811152,14.020203,-23.263256,-23.713413,18.345455,7.471949,2.7747514,18.755705,10.255129,2.3969038,-13.038921,112.99987,-46.174763,-12.037264
176,-0.6790260672569275,51.4049072265625,72.7342758178711,-7.545147433180515,8.986724911876387,86.77986715158917,-14.253908,6.08632,-6.6412716,87.946846,-7.9432125,-1.4144933,-21.103102,7.5455503,-9.07274,43.170357,-28.657583,-1.945606,-11.651744,10.964637,16.375261,6.9776855,13.586012,-23.32301,-22.515268,19.844551,8.839192,1.9421779,17.139238,10.101708,3.3359232,-14.013271,112.99987,-46.70537,-13.316267
177,-0.622051477432251,52.32276916503906,72.6799087524414,-7.5066150577620885,8.853200881523925,86.514404820331,-15.953298,5.576699,-6.8043337,89.88473,-9.427911,-1.7519516,-20.026144,7.6809983,-8.695596,42.97286,-29.264433,-1.8591284,-10.948393,11.163378,16.71018,8.073534,13.182844,-23.37649,-21.79051,21.269522,9.581375,1.2451982,15.633983,10.136057,4.579155,-15.002552,112.99987,-46.280212,-14.214694
178,-0.5890300273895264,53.250492095947266,72.65692138671875,-7.413084602777333,8.724391342996794,86.1996114204165,-17.678688,5.0391307,-6.8511424,91.50827,-10.7422695,-2.123487,-18.895,7.768019,-8.234672,42.64323,-29.786211,-1.7561116,-10.178827,11.334296,17.045067,9.271869,12.827518,-23.464983,-21.383064,22.695677,9.946297,0.6333889,14.251244,10.372441,6.0961723,-16.027014,112.99987,-45.10262,-14.79932
179,-0.5634847283363342,54.1788215637207,72.66820526123047,-7.266322856935364,8.613179328015667,85.84991132346317,-19.416332,4.546031,-6.7608256,92.7966,-11.962377,-2.4497652,-17.719826,7.7933393,-7.712334,42.17738,-30.20198,-1.632879,-9.286112,11.417042,17.31793,10.450816,12.556957,-23.622595,-21.154064,23.747307,9.997103,0.06234689,12.960273,10.726084,7.777122,-17.208092,112.99987,-43.74035,-15.244826
180,-0.5484920144081116,55.12837600708008,72.70182037353516,-7.069674639084928,8.532995549293767,85.47964527663126,-21.151077,4.167784,-6.5187287,93.72952,-13.16617,-2.655498,-16.510616,7.7451243,-7.151359,41.570614,-30.490328,-1.4855511,-8.260948,11.373543,17.477503,11.558237,12.410185,-23.844614,-21.039743,24.035128,9.801661,-0.5131309,11.67082,11.073816,9.501155,-18.672033,112.99987,-42.80691,-15.777569
181,-0.5304271578788757,56.06354522705078,72.76289367675781,-6.814148086957184,8.480466528748188,85.0677617563883,-22.891056,3.901809,-6.1028876,94.297386,-14.385002,-2.718093,-15.264097,7.612224,-6.533774,40.819744,-30.680996,-1.3026748,-7.1087637,11.189268,17.525837,12.63881,12.422994,-24.12002,-21.143919,23.236826,9.2513685,-1.0916191,10.295997,11.333465,11.2787695,-20.538282,112.99987,-42.551037,-16.583057
182,-0.5223652720451355,57.04419708251953,72.87487030029297,-6.501942448522308,8.452011472428138,84.61387974493384,-24.636404,3.7228217,-5.5345364,94.5053,-15.56851,-2.6848204,-13.978896,7.400277,-5.8570356,39.93098,-30.77572,-1.0906878,-5.879521,10.897448,17.504519,13.785259,12.597622,-24.416239,-21.560095,21.599485,8.375847,-1.6639373,8.879362,11.498226,13.1773615,-22.744999,112.99987,-42.679806,-17.55941
183,-0.5261698961257935,58.053409576416016,73.0284652709961,-6.155651932122733,8.460166725550694,84.16328294200812,-26.353691,3.664083,-4.859092,94.34973,-16.669758,-2.5804677,-12.667462,7.123871,-5.165215,38.913177,-30.711042,-0.87120724,-4.6376543,10.544185,17.423004,15.015901,12.897478,-24.692081,-22.196743,19.595873,7.445904,-2.2626529,7.5080423,11.592124,15.143596,-25.145882,112.99987,-42.9962,-18.503801
184,-0.5233664512634277,59.10093688964844,73.21891021728516,-5.798679146704072,8.51652572281285,83.76178872952518,-28.006138,3.753295,-4.11915,93.825745,-17.642996,-2.4314265,-11.342133,6.798546,-4.501342,37.77397,-30.42279,-0.6640871,-3.4280849,10.177551,17.283838,16.313866,13.263917,-24.921852,-22.92269,17.712254,6.721979,-2.8934562,6.2755203,11.647923,17.119886,-27.598644,112.99987,-43.302505,-19.213093
185,-0.5243405103683472,60.15999221801758,73.43846893310547,-5.4287326830213365,8.633047589802159,83.40705226283069,-29.596216,4.0196133,-3.2830932,92.90995,-18.522133,-2.2827966,-10.000597,6.4211416,-3.8614657,36.48062,-29.915316,-0.4794056,-2.2289813,9.801532,17.061014,17.648338,13.657368,-25.11141,-23.690973,15.960236,6.2679243,-3.6060228,5.1687684,11.682657,19.09714,-30.1233,112.99987,-43.630325,-19.613817
186,-0.523152232170105,61.24086380004883,73.6905517578125,-5.0366962426895725,8.799596364895706,83.08010855481875,-31.117685,4.4215446,-2.3278406,91.60485,-19.318491,-2.127135,-8.64211,5.981785,-3.2270167,35.047573,-29.219828,-0.3028388,-1.0243706,9.390641,16.753256,18.999231,14.067763,-25.27027,-24.517448,14.13976,5.9501076,-4.382575,4.139131,11.696768,21.088833,-32.7474,112.99987,-44.04446,-19.810755
187,-0.5269709229469299,62.35195541381836,73.97434997558594,-4.627680908298593,8.99432741491249,82.80238007098183,-32.52025,4.878756,-1.3071597,89.94078,-19.963465,-1.9081475,-7.2857256,5.491036,-2.6196957,33.562996,-28.316317,-0.11655761,0.14540361,8.953949,16.402729,20.350628,14.4815235,-25.389936,-25.3568,12.422726,5.7139654,-5.104208,3.2447462,11.692968,23.088923,-35.361744,112.99987,-44.400845,-19.865786
188,-0.5336697101593018,63.48365020751953,74.29119873046875,-4.207444586537215,9.195472749430204,82.59568847370808,-33.76295,5.3118887,-0.28218362,87.95532,-20.390608,-1.5663997,-5.9477606,4.9623713,-2.0610237,32.10921,-27.181887,0.09668143,1.243907,8.503153,16.049314,21.678226,14.882971,-25.465855,-26.158043,10.984382,5.4936986,-5.6548376,2.5472243,11.6727295,25.099876,-37.855484,112.99987,-44.553535,-19.839788
189,-0.5443932414054871,64.63087463378906,74.63235473632812,-3.7674877079586557,9.40448883062619,82.47049624202754,-34.85398,5.743371,0.78412855,85.63641,-20.594917,-1.0150106,-4.605417,4.387102,-1.5343913,30.645674,-25.79985,0.3697014,2.2788272,8.041301,15.702017,22.963858,15.2612505,-25.506924,-26.897346,9.888065,5.2657,-6.002013,2.068082,11.637289,27.15766,-40.246853,112.99987,-44.469757,-19.708027
190,-0.5543726682662964,65.81256866455078,75.00239562988281,-3.3077244195749818,9.629438943157808,82.41605230933648,-35.794586,6.1760736,1.9247026,82.96928,-20.626225,-0.32624176,-3.2656376,3.76605,-1.0355424,29.160503,-24.192152,0.68429786,3.2660575,7.564419,15.342831,24.206472,15.61361,-25.51592,-27.589745,9.042808,5.0526266,-6.2076025,1.7843716,11.579885,29.282255,-42.57046,112.99987,-44.201046,-19.429235
191,-0.5630377531051636,67.0164794921875,75.3873291015625,-2.851017900047239,9.858910485884065,82.42192861632017,-36.54752,6.520679,3.0601954,79.98188,-20.487158,0.34190267,-1.9848332,3.1325352,-0.6027825,27.77267,-22.38914,0.98151433,4.182873,7.07861,14.968523,25.409279,15.937752,-25.481009,-28.233698,8.393065,4.853923,-6.297895,1.6798118,11.481311,31.43574,-44.74242,112.99987,-43.748928,-19.052992
192,-0.5908336639404297,68.24720001220703,75.78875732421875,-2.4241788460355305,10.081474667185805,82.47704897950216,-37.089005,6.7051353,4.094759,76.699745,-20.16753,0.84514403,-0.8174589,2.5222309,-0.27571756,26.602766,-20.419277,1.2034042,5.0071745,6.597568,14.575611,26.576323,16.229618,-25.393349,-28.83243,7.8804584,4.6711397,-6.298658,1.7310584,11.318979,33.557693,-46.692074,112.99987,-43.132347,-18.646345
193,-0.6136554479598999,69.49309539794922,76.19349670410156,-2.0125841249204806,10.305566177770087,82.60049347472628,-37.42721,6.7338996,5.0243936,73.06554,-19.639381,1.2435944,0.23101902,1.9196156,-0.06954723,25.661068,-18.236803,1.3334944,5.725691,6.1147676,14.152164,27.707169,16.483002,-25.257954,-29.375572,7.5416923,4.495954,-6.1801224,1.9332666,11.073292,35.628826,-48.42162,112.99987,-42.346394,-18.250658
194,-0.6343119144439697,70.7525405883789,76.60071563720703,-1.6132982509015246,10.531469204888458,82.79275460324959,-37.576786,6.644386,5.8811812,69.08305,-18.91344,1.5916121,1.1877075,1.321764,0.03613326,24.899078,-15.849031,1.4070716,6.3552275,5.64008,13.706202,28.792435,16.694595,-25.085526,-29.862282,7.39143,4.328152,-5.939176,2.2893498,10.734276,37.664978,-49.98418,112.99987,-41.3999,-17.83368
195,-0.6580003499984741,72.041748046875,77.00431823730469,-1.2677562205146227,10.736120019968764,83.01283362978161,-37.535416,6.4356003,6.602768,64.860634,-18.01976,1.7558771,2.0545619,0.7831675,0.055085305,24.334404,-13.345792,1.4436941,6.920194,5.211251,13.262264,29.830317,16.86533,-24.876486,-30.318176,7.3395715,4.183022,-5.6418877,2.7781975,10.298747,39.64088,-51.393723,112.99987,-40.345333,-17.375378
196,-0.6815913915634155,73.34522247314453,77.39474487304688,-1.0150655446303116,10.897759193236828,83.21618023950369,-37.302055,6.1199307,7.1177154,60.492085,-16.97658,1.6134609,2.838133,0.35639897,0.004944624,23.964575,-10.803763,1.4590601,7.4493294,4.8629537,12.844022,30.818539,16.999643,-24.630558,-30.767712,7.2940993,4.0758543,-5.3543277,3.3752806,9.7711525,41.524483,-52.66521,112.99987,-39.24089,-16.859188
197,-0.7059404850006104,74.66744232177734,77.7713623046875,-0.8767799637334383,11.012100764331574,83.3843817347933,-36.8336,5.704824,7.3592772,55.827526,-15.702341,1.1000774,3.5428307,0.060934898,-0.11966975,23.75725,-8.110885,1.4368069,7.965846,4.611212,12.449572,31.76717,17.09758,-24.336454,-31.220722,7.2677083,4.017729,-5.092167,4.088744,9.148967,43.303776,-53.753216,112.99987,-38.006496,-16.24114
198,-0.7210579514503479,76.0029296875,78.1251449584961,-0.83104223335669,11.090099857281919,83.5380575133801,-36.14176,5.2310576,7.3393188,50.84961,-14.209641,0.3298522,4.171955,-0.12982121,-0.32431555,23.704647,-5.2534714,1.3721033,8.456225,4.439919,12.0676985,32.674255,17.158733,-23.999136,-31.663427,7.2961135,3.9989462,-4.820246,4.904589,8.430849,44.964657,-54.681942,112.99987,-36.670322,-15.568437
199,-0.7299215793609619,77.34814453125,78.4467544555664,-0.8525643288023681,11.13323507414798,83.69124311684425,-35.310135,4.7535706,7.1158004,45.851734,-12.650088,-0.5555025,4.7358546,-0.2398206,-0.58815396,23.82595,-2.4482017,1.2914261,8.896624,4.3300834,11.710866,33.521183,17.19088,-23.645306,-32.102116,7.320692,4.0024614,-4.5282197,5.7826414,7.6353483,46.483543,-55.565304,112.99987,-35.437073,-14.951507
200,-0.7320860028266907,78.69060516357422,78.72598266601562,-0.9119043811239312,11.143268098104453,83.85839947971735,-34.42701,4.306101,6.768266,41.130657,-11.171852,-1.430133,5.2443852,-0.2955551,-0.8884565,24.141851,0.08554553,1.2177011,9.2645855,4.2588377,11.391595,34.292088,17.207676,-23.302273,-32.54294,7.281595,4.010713,-4.204054,6.692749,6.7978673,47.8562,-56.5082,112.99987,-34.495647,-14.4853735
201,-0.7232491970062256,80.04389953613281,78.9627685546875,-1.0391596989927991,11.125840905647356,84.03387710681095,-33.470837,3.877526,6.226045,36.576443,-9.733701,-2.3617196,5.719093,-0.26620272,-1.2191,24.590057,2.378229,1.1391166,9.569284,4.250592,11.095865,35.006676,17.21808,-22.965326,-33.001507,7.157909,4.020887,-3.8413293,7.656408,5.953689,49.107662,-57.513885,112.99987,-33.865967,-14.174474
202,-0.7132934927940369,81.39358520507812,79.15149688720703,-1.2439551345807838,11.075509170957512,84.20716524375632,-32.39272,3.4905095,5.4701095,32.06243,-8.276515,-3.3729029,6.1596646,-0.14975648,-1.5906215,25.165348,4.5320997,1.0310493,9.824103,4.3137183,10.821788,35.67709,17.223877,-22.622719,-33.482574,6.978518,4.041104,-3.4444733,8.672786,5.123608,50.235912,-58.506775,112.99987,-33.45546,-13.974561
203,-0.7054983377456665,82.73656463623047,79.28709411621094,-1.4662441850992174,10.979791645143894,84.38984886404504,-31.273567,3.1847713,4.683733,27.908646,-6.9258523,-4.29988,6.556817,-0.016634218,-2.004705,25.943132,6.436438,0.8988632,10.010969,4.4042225,10.601392,36.271385,17.22953,-22.293938,-33.973454,6.7585707,4.069677,-3.0173573,9.698257,4.323432,51.21381,-59.45048,112.99987,-33.24197,-13.879121
204,-0.6911395788192749,84.07108306884766,79.36932373046875,-1.63351932265746,10.83175494083571,84.59955427549616,-30.226921,2.952838,4.067917,24.482721,-5.816305,-4.998494,6.8849344,0.050518513,-2.463817,27.023022,7.9677415,0.75499266,10.0663,4.5536337,10.438732,36.81853,17.23112,-22.02367,-34.504395,6.455786,4.100073,-2.5455976,10.598715,3.5967224,52.02497,-60.000134,112.99987,-33.110023,-13.728531
205,-0.6791877150535583,85.39026641845703,79.39012908935547,-1.7249371790992667,10.638729551120434,84.86298888727384,-29.30574,2.7565322,3.687394,21.889385,-4.9808064,-5.4733543,7.122421,0.012223244,-3.0258648,28.478876,9.038328,0.5809705,9.928969,4.735484,10.308631,37.312237,17.172451,-21.818842,-35.03259,6.0767617,4.1445446,-1.9957712,11.304793,3.1511912,52.67724,-60.000134,112.99987,-33.125652,-13.621152
206,-0.6793319582939148,86.69393157958984,79.35621643066406,-1.7650464250978142,10.40977764646416,85.17479287591019,-28.49222,2.5574977,3.4474175,19.995363,-4.3691444,-5.810304,7.266497,-0.11464231,-3.6761868,30.281626,9.708191,0.36817893,9.674942,4.8426523,10.229695,37.67562,17.091251,-21.613863,-35.505016,5.68089,4.2042346,-1.4131418,11.912335,2.922033,53.076466,-60.000134,112.99987,-33.58846,-13.918728
207,-0.6846871376037598,87.9752197265625,79.27104187011719,-1.7386348154695703,10.147488111273711,85.50951586999892,-27.806816,2.3200274,3.3174276,18.82474,-3.998472,-5.9883585,7.3102126,-0.33664703,-4.308049,32.383728,10.070442,0.1581513,9.372974,4.842464,10.218016,37.878693,17.032646,-21.410593,-35.90882,5.325138,4.25728,-0.8627964,12.506104,2.8024428,53.23941,-60.000134,112.99987,-34.218204,-14.354218
208,-0.6881598830223083,89.24185943603516,79.13471984863281,-1.6267662635876095,9.852889209120653,85.8393860114738,-27.26736,2.017364,3.2662296,18.405416,-3.8847673,-5.979991,7.253787,-0.648921,-4.811959,34.720535,10.228453,0.0031835905,9.104928,4.688612,10.292492,37.868687,17.036108,-21.21443,-36.211212,5.0813265,4.285249,-0.4123316,13.193582,2.706956,53.203445,-60.000134,112.99987,-34.69233,-14.63002
209,-0.7068660855293274,90.48998260498047,78.93196868896484,-1.4157556082022336,9.517379855236877,86.1641182789287,-26.935635,1.6424068,3.3228462,18.897375,-3.9220028,-5.8091674,7.10762,-1.0597122,-5.178202,37.320488,10.228791,-0.036218308,8.856751,4.414203,10.498584,37.694386,17.125181,-21.012264,-36.51712,4.9004374,4.277369,-0.09754295,14.116673,2.3892083,53.093723,-60.000134,112.99987,-34.73928,-14.391749
210,-0.7266668677330017,91.71813201904297,78.67931365966797,-1.1214049415853182,9.140899934704917,86.49503776730865,-26.783653,1.2141913,3.4928868,20.238913,-4.1402993,-5.477843,6.867635,-1.5670024,-5.450113,40.21359,10.002037,0.0030894612,8.623477,4.0505996,10.813679,37.35024,17.29897,-20.85304,-36.81122,4.7587466,4.2481847,0.14699695,15.254485,1.9095355,52.890038,-60.000134,112.99987,-34.49303,-13.771959
211,-0.7171092629432678,92.9653091430664,78.38809204101562,-0.7786156062699575,8.735088172122301,86.81879258692743,-26.69089,0.7534362,3.705021,22.11808,-4.760421,-4.926314,6.515788,-2.1213472,-5.59808,43.330585,9.492009,0.04434467,8.388066,3.6334987,11.205991,36.850246,17.513273,-20.724733,-37.045116,4.695683,4.201076,0.35740155,16.502611,1.3636984,52.569687,-60.000134,112.99987,-34.143414,-13.020145
212,-0.720167875289917,94.18241882324219,78.0631103515625,-0.4141585006268738,8.316632434685856,87.12347414278868,-26.54462,0.2670525,3.880733,24.234596,-6.004863,-4.096996,6.03536,-2.6607323,-5.595686,46.593544,8.648424,0.025324564,8.100336,3.2762144,11.623269,36.285465,17.74094,-20.664389,-37.24661,4.6973634,4.1347647,0.6159891,17.75857,0.8152004,52.191982,-59.694332,112.99987,-33.637386,-12.086137
213,-0.7314061522483826,95.38066101074219,77.7176284790039,-0.039926814482101745,7.867753324475254,87.41992241354814,-26.332285,-0.25905132,3.930135,26.726423,-8.179638,-2.7799277,5.450813,-3.0916626,-5.4083304,50.044678,7.3460073,-0.06513678,7.728294,2.9654956,12.056933,35.63902,17.946285,-20.641022,-37.369576,4.807878,4.029292,0.93288034,18.928925,0.37034383,51.690414,-59.081753,112.99987,-33.128414,-11.160588
214,-0.7189302444458008,96.582275390625,77.30133056640625,0.342008133960662,7.379330528807618,87.70089907658895,-26.080923,-0.83632165,3.8737762,29.63792,-11.058091,-1.0741236,4.7767982,-3.3995442,-5.0628085,53.69576,5.6545415,-0.16381386,7.3171234,2.6552203,12.533365,34.865337,18.144192,-20.647799,-37.399242,5.036178,3.8950393,1.264562,20.079847,0.0053427853,51.043835,-58.3092,112.99987,-32.61828,-10.250668
215,-0.7133975625038147,97.7850341796875,76.83572387695312,0.744248361959904,6.889882927039309,87.93787753594344,-25.763836,-1.4659325,3.8179753,32.567394,-14.092594,0.6147627,3.9693577,-3.6747696,-4.6295676,57.438816,3.8120399,-0.22059001,6.894272,2.3306992,13.028712,33.959377,18.326435,-20.6728,-37.31677,5.3345156,3.7777224,1.5617313,21.166616,-0.27338156,50.241207,-57.41128,112.99987,-32.192513,-9.428594
216,-0.7234054803848267,98.96852111816406,76.34650421142578,1.1950639580975284,6.443906659690264,88.10913109821496,-25.380201,-2.1219072,3.9103777,35.158848,-16.771315,1.8840796,2.9786954,-4.0539684,-4.1717534,61.16829,2.0539978,-0.19586363,6.479081,1.9642466,13.514567,32.908432,18.476423,-20.700691,-37.09001,5.6558642,3.7218254,1.771924,22.142794,-0.45622507,49.27471,-56.40765,112.99987,-31.924257,-8.75472
217,-0.7507538795471191,100.13098907470703,75.84615325927734,1.7439887762700226,6.044536484109216,88.19624010619523,-24.96623,-2.7930841,4.2839074,37.44896,-19.046156,2.59082,1.7870541,-4.622394,-3.644012,64.95228,0.42143336,0.0067471447,6.0782266,1.5108707,13.9885435,31.719707,18.576511,-20.712818,-36.704884,5.934069,3.697482,1.839243,22.954311,-0.53840524,48.11762,-55.27603,112.99987,-31.865402,-8.318061
218,-0.7840249538421631,101.26323699951172,75.33995819091797,2.376865219998446,5.67709206857176,88.21986756172032,-24.529587,-3.4694674,4.8428826,39.62833,-21.19127,2.9649682,0.42513743,-5.2999525,-3.0344243,68.82084,-1.2111914,0.3430014,5.6654143,0.9832317,14.45271,30.39544,18.620222,-20.707033,-36.1641,6.216906,3.6932068,1.7985129,23.617712,-0.5185213,46.79394,-53.975822,112.99987,-31.947403,-8.048814
219,-0.8291290402412415,102.37066650390625,74.83514404296875,3.0253588221506056,5.361913907085014,88.21918522275197,-24.041437,-4.118757,5.4204516,41.592094,-23.192043,3.1598878,-1.0942695,-6.011859,-2.4369783,72.60846,-2.85606,0.62571114,5.226434,0.44343632,14.881132,28.905281,18.615694,-20.71429,-35.465256,6.628477,3.7820027,1.7381457,24.191319,-0.3816601,45.34567,-52.497017,112.99987,-32.065025,-7.7770348
220,-0.8590299487113953,103.46611785888672,74.3607406616211,3.6233268043695053,5.117516437349041,88.23311428812163,-23.46747,-4.7322574,5.8549995,43.209236,-25.020172,3.3259985,-2.7655945,-6.6950154,-1.9353722,76.14305,-4.512045,0.6583768,4.723175,-0.058308408,15.252497,27.24909,18.572927,-20.732212,-34.625465,7.290791,4.036833,1.740376,24.732847,-0.115123354,43.845074,-50.83577,112.99987,-32.1242,-7.3365355
221,-0.8548471927642822,104.55384063720703,73.932373046875,4.2023813557506005,4.964251766130408,88.25904211052759,-22.8031,-5.3706317,6.1485476,44.39827,-26.639809,3.4732444,-4.6609707,-7.3969264,-1.4863677,79.468605,-6.1841173,0.32763213,4.145224,-0.56289196,15.555914,25.384771,18.498837,-20.743137,-33.57006,8.201877,4.5095143,1.8098553,25.195135,0.31377232,42.21253,-48.974632,112.99987,-32.282017,-6.9112067
222,-0.8318535089492798,105.64997100830078,73.5695571899414,4.785614770994124,4.888194747072408,88.28231196040808,-22.06916,-6.031487,6.3871884,45.241123,-28.070572,3.5316553,-6.768683,-8.138436,-1.0384017,82.64401,-7.8578386,-0.24932526,3.5087278,-1.0927768,15.78624,23.341848,18.39686,-20.734205,-32.315845,9.307433,5.152403,1.9000127,25.52022,0.91876423,40.43058,-46.855194,112.99987,-32.514996,-6.516785
223,-0.7948237657546997,106.74593353271484,73.26500701904297,5.2886301142962395,4.853957965544534,88.32363414631541,-21.270397,-6.6233006,6.538467,45.844467,-29.363932,3.5316126,-8.966787,-8.826762,-0.6671711,85.525185,-9.504043,-0.92538,2.83373,-1.5585865,15.942246,21.205936,18.277472,-20.738533,-31.021069,10.648425,5.89299,2.0190718,25.785614,1.6654005,38.63575,-44.467358,112.99987,-32.491287,-5.7537107
224,-0.7477307915687561,107.83837127685547,73.00716400146484,5.629868992952473,4.825627491494095,88.4031086307584,-20.408998,-7.0515304,6.570119,46.31519,-30.572622,3.5038009,-11.130596,-9.380874,-0.46500993,87.96791,-11.095499,-1.5555294,2.1423826,-1.8665708,16.045341,19.059666,18.154129,-20.800016,-29.861872,12.262314,6.6596684,2.1786916,26.129185,2.479859,36.986454,-41.893604,112.99987,-31.894037,-4.224554
225,-0.7125892639160156,108.92973327636719,72.7971420288086,5.763865047292018,4.793366501785778,88.51181718120253,-19.48101,-7.265499,6.4800406,46.68645,-31.727125,3.4473927,-13.265785,-9.781776,-0.48076478,89.95971,-12.660888,-2.1468492,1.4602673,-1.9625083,16.145279,16.856058,18.034985,-20.96802,-28.831135,14.478208,7.5374513,2.38037,26.67495,3.2852511,35.491142,-38.97873,112.99987,-30.343721,-1.3133312
226,-0.6678750514984131,110.0258560180664,72.62789154052734,5.741756391389921,4.775599405067808,88.64463763592302,-18.484495,-7.3250017,6.292862,46.90009,-32.79565,3.3532457,-15.42445,-10.085024,-0.6704158,91.569756,-14.200941,-2.7639937,0.7615567,-1.9135939,16.234045,14.586794,17.919296,-21.203293,-27.878136,17.167452,8.537912,2.5986636,27.311127,4.0479,34.036983,-35.873993,112.99987,-28.275385,2.4617007
227,-0.6149083375930786,111.1363525390625,72.50833892822266,5.625484462368034,4.779279955856037,88.82693744398632,-17.421753,-7.2984548,6.013473,46.923557,-33.735764,3.2381341,-17.550776,-10.330375,-0.9985006,92.77236,-15.642951,-3.3486168,0.0032121523,-1.789651,16.267244,12.374409,17.802462,-21.440948,-27.112532,19.674519,9.474177,2.831355,27.932066,4.766194,32.666237,-33.13501,112.99987,-26.472569,5.9289613
228,-0.5537043809890747,112.25093841552734,72.4260025024414,5.474349957549216,4.811990462857459,89.0839549074439,-16.296047,-7.2527604,5.6427903,46.72343,-34.503883,3.116581,-19.591274,-10.560142,-1.4272527,93.54161,-16.91286,-3.8432918,-0.85255307,-1.6345954,16.222412,10.336408,17.677473,-21.626852,-26.666666,21.335503,10.152697,3.1113195,28.58897,5.465674,31.53689,-31.307379,112.99987,-25.462286,8.163014
229,-0.49535873532295227,113.3915786743164,72.39705657958984,5.292175923270212,4.87921014070533,89.43950263724395,-15.113053,-7.190143,5.1585026,46.293377,-35.12657,2.9847822,-21.55753,-10.802115,-1.9983169,93.86328,-18.00404,-4.233535,-1.8420727,-1.4198257,16.107992,8.479205,17.541225,-21.76658,-26.609186,21.899683,10.514399,3.5193176,29.406979,6.184647,30.772795,-30.710459,112.99987,-25.408987,8.850403
230,-0.4381507635116577,114.5456314086914,72.414794921875,5.050760805056664,4.976746503460627,89.87508980062897,-13.869959,-7.0721927,4.5659733,45.655506,-35.617,2.8384562,-23.46092,-11.037347,-2.7290106,93.74831,-18.949615,-4.5460873,-2.9353776,-1.1235726,15.943063,6.7463164,17.395458,-21.8966,-26.859827,21.741068,10.6570635,4.0410104,30.377186,6.929185,30.308239,-30.997223,112.99987,-25.952042,8.574164
231,-0.3860599398612976,115.72321319580078,72.4840316772461,4.770668540949354,5.0973200342276686,90.35249448943779,-12.558051,-6.902278,3.9057102,44.815014,-35.91051,2.6868455,-25.251581,-11.235704,-3.53874,93.20592,-19.731255,-4.7850294,-4.0706997,-0.78959453,15.725005,5.156484,17.239693,-22.010618,-27.334948,21.134127,10.619493,4.5784087,31.390377,7.6749535,30.033495,-31.704695,112.99987,-26.755875,7.825514
232,-0.3161161541938782,116.92579650878906,72.60367584228516,4.4722760601323746,5.233566944739211,90.83335011450643,-11.169334,-6.6852922,3.2180386,43.776524,-35.94271,2.5376263,-26.883293,-11.364797,-4.3448043,92.246574,-20.33215,-4.958048,-5.186932,-0.452196,15.460632,3.729524,17.069906,-22.100882,-27.962576,20.354517,10.444928,5.02837,32.380775,8.378775,29.85997,-32.37791,112.99987,-27.427385,7.154779
233,-0.24347975850105286,118.14732360839844,72.77986907958984,4.151947880067868,5.388064937205205,91.35961277657462,-9.685251,-6.421448,2.4609137,42.484646,-35.72368,2.400486,-28.344923,-11.438131,-5.180183,90.84509,-20.761427,-5.053238,-6.320141,-0.093999855,15.159967,2.4843829,16.871159,-22.149065,-28.79579,19.28164,10.069036,5.3673673,33.408955,9.014749,29.862429,-33.072796,112.99987,-27.907846,6.600006
234,-0.16719695925712585,119.4015884399414,73.00193786621094,3.8032791460880038,5.565115013829237,91.93381891808025,-8.122279,-6.100915,1.6321788,40.96088,-35.28234,2.264672,-29.654993,-11.46485,-6.074452,89.00063,-21.026636,-5.0686855,-7.4926095,0.3043306,14.823769,1.4023429,16.637424,-22.166246,-29.842451,17.840595,9.489053,5.639814,34.492477,9.575734,30.068083,-34.011543,112.99987,-28.42843,5.87646
235,-0.092875175178051,120.69685363769531,73.26798248291016,3.4406037502004616,5.758397149013906,92.45766739600859,-6.524466,-5.720029,0.83345735,39.325504,-34.579163,2.1070807,-30.815626,-11.40066,-6.9355054,86.76098,-21.108953,-5.0284834,-8.617805,0.72420365,14.4562845,0.45234638,16.380121,-22.188143,-30.98909,16.37137,8.848403,5.851369,35.568855,10.0495825,30.350954,-34.971092,112.99987,-28.900686,5.176436
236,-0.013874080032110214,122.02608489990234,73.58580780029297,3.0794475334384974,5.960124384847745,92.83295878617785,-4.931911,-5.2822504,0.16495338,37.69661,-33.572014,1.907041,-31.830227,-11.198851,-7.67032,84.17111,-20.988771,-4.957586,-9.605377,1.1458964,14.063384,-0.39138156,16.11871,-22.247267,-32.138885,15.207911,8.293998,6.0186534,36.59127,10.429328,30.586569,-35.719246,112.99987,-29.198616,4.7256217
237,0.06673359870910645,123.38563537597656,73.92897033691406,2.709896750249224,6.171914986751565,93.02194101690738,-3.3137133,-4.7730274,-0.36191195,36.031326,-32.235817,1.6540786,-32.710217,-10.8055725,-8.23987,81.199005,-20.665865,-4.8827133,-10.417714,1.5701605,13.644248,-1.1154313,15.860593,-22.334393,-33.335003,14.458941,7.895943,6.132375,37.56047,10.702285,30.770481,-36.152874,112.99987,-29.178041,4.6985297
238,0.1523962765932083,124.75704193115234,74.2962646484375,2.3304470945052658,6.394195122087023,93.07936551334868,-1.6647297,-4.2059116,-0.79426634,34.298065,-30.600061,1.3621866,-33.441708,-10.253312,-8.694883,77.82785,-20.153337,-4.7850604,-11.106025,2.006871,13.203565,-1.7015777,15.604965,-22.430134,-34.634674,13.934012,7.569522,6.1956077,38.518883,10.867482,30.97128,-36.41073,112.99987,-28.90386,4.977971
239,0.24325184524059296,126.15219116210938,74.68521881103516,1.9677331982567947,6.61583591131702,93.04588896190901,-0.057993658,-3.6319072,-1.1241621,32.632103,-28.71034,1.0486884,-33.992718,-9.62287,-9.075728,74.1201,-19.449497,-4.621817,-11.710956,2.4468324,12.754159,-2.1644955,15.364369,-22.550526,-35.96662,13.517068,7.2288423,6.2476997,39.480278,10.948722,31.175516,-36.62093,112.99987,-28.553295,5.357744
240,0.3423803746700287,127.566650390625,75.09455108642578,1.6487673238785259,6.826500931183867,92.96292407416738,1.4351453,-3.1016695,-1.3472191,31.1671,-26.607845,0.7297772,-34.336292,-8.995064,-9.422679,70.132126,-18.548872,-4.3501196,-12.269014,2.8774486,12.30638,-2.517675,15.158827,-22.716831,-37.260662,13.090038,6.7879496,6.3271546,40.44892,10.9913025,31.362896,-36.88823,112.99987,-28.292406,5.6406174
241,0.4459550082683563,129.01011657714844,75.50617218017578,1.3576687530036815,7.029386559423715,92.80473390817747,2.8311439,-2.5967922,-1.4368685,29.8806,-24.233553,0.35465702,-34.44468,-8.371393,-9.771669,65.76475,-17.377438,-3.9520886,-12.76245,3.3056328,11.85604,-2.7488005,15.006952,-22.943102,-38.523495,12.6119585,6.184332,6.4650517,41.410324,11.034588,31.527138,-37.204033,112.99987,-28.150011,5.780295
