unveil-humanoid-operators/unveil-humanoid-operators.github.io/feature-analysis-animation/data/feature_matrix_instances/height_root_translate_rom_jogging_turning_A067.csv
Frame,root_translateX,root_translateY,root_translateZ,root_rotateX,root_rotateY,root_rotateZ,left_hip_pitch_joint_dof,left_hip_roll_joint_dof,left_hip_yaw_joint_dof,left_knee_joint_dof,left_ankle_pitch_joint_dof,left_ankle_roll_joint_dof,right_hip_pitch_joint_dof,right_hip_roll_joint_dof,right_hip_yaw_joint_dof,right_knee_joint_dof,right_ankle_pitch_joint_dof,right_ankle_roll_joint_dof,waist_yaw_joint_dof,waist_roll_joint_dof,waist_pitch_joint_dof,left_shoulder_pitch_joint_dof,left_shoulder_roll_joint_dof,left_shoulder_yaw_joint_dof,left_elbow_joint_dof,left_wrist_roll_joint_dof,left_wrist_pitch_joint_dof,left_wrist_yaw_joint_dof,right_shoulder_pitch_joint_dof,right_shoulder_roll_joint_dof,right_shoulder_yaw_joint_dof,right_elbow_joint_dof,right_wrist_roll_joint_dof,right_wrist_pitch_joint_dof,right_wrist_yaw_joint_dof
0,-0.3970092236995697,-2.0171091556549072,78.43400573730469,-2.800814507872432,0.0899593046530664,86.50292638567234,-12.251728,4.5471554,-0.6210652,27.52944,-14.120822,-3.4726865,-5.623549,-1.4107465,-10.144545,13.005402,-8.049656,2.980451,-1.791822,0.3603728,1.7621194,17.78677,15.986096,-10.67795,43.416042,29.266102,9.40946,12.624341,14.36589,-11.329034,17.017414,49.427708,-37.378983,11.087461,-23.586039
1,-0.4006384313106537,-2.0132014751434326,78.4345474243164,-2.8015277205607174,0.10701998208097492,86.50258970315592,-12.270268,4.546766,-0.6227978,27.52519,-14.121819,-3.4620163,-5.635851,-1.4095951,-10.151809,12.989195,-8.040001,2.9841194,-1.758958,0.34481144,1.726097,17.818375,15.991337,-10.703988,43.431686,29.250134,9.4247875,12.648794,14.382701,-11.330543,17.05771,49.3669,-37.352486,11.123768,-23.563526
2,-0.3989241421222687,-2.0172948837280273,78.43377685546875,-2.8025188123857485,0.12538476881320315,86.5016355762096,-12.288122,4.546542,-0.62414724,27.51719,-14.121286,-3.4500299,-5.6473713,-1.4078184,-10.159033,12.96792,-8.027188,2.9883106,-1.7307943,0.33120096,1.6861819,17.85483,15.994943,-10.732376,43.446285,29.226852,9.441863,12.675983,14.402397,-11.340477,17.112204,49.302456,-37.315132,11.163201,-23.540842
3,-0.3993213176727295,-2.016547203063965,78.43399810791016,-2.8030072951758727,0.14123078890387475,86.50203899717283,-12.305091,4.5459495,-0.6263482,27.511835,-14.120956,-3.4405456,-5.657585,-1.4064704,-10.166091,12.950002,-8.016978,2.991349,-1.7008523,0.31905684,1.6538167,17.88634,15.994942,-10.75174,43.461063,29.217424,9.455476,12.698604,14.422475,-11.348962,17.150465,49.23388,-37.291138,11.196925,-23.517136
4,-0.40048104524612427,-2.0172786712646484,78.43334197998047,-2.803797631304468,0.15109161683347153,86.5058316128869,-12.318989,4.5449104,-0.63053733,27.511026,-14.120319,-3.4372394,-5.6645417,-1.4058713,-10.172859,12.939028,-8.012491,2.9915578,-1.6795459,0.31061003,1.6300671,17.92134,15.989897,-10.756661,43.470562,29.224714,9.46492,12.716312,14.452166,-11.370602,17.18938,49.146618,-37.27263,11.22454,-23.498072
5,-0.3989735543727875,-2.0210931301116943,78.43321990966797,-2.8041740794009073,0.15075012023577275,86.51439922371777,-12.325019,4.5425267,-0.6363028,27.513166,-14.116727,-3.444318,-5.663306,-1.4070667,-10.178336,12.934848,-8.015316,2.9874208,-1.6538957,0.3028899,1.6263057,17.946787,15.978707,-10.735943,43.479458,29.271618,9.464729,12.724454,14.487729,-11.386834,17.191607,49.046333,-37.2873,11.23993,-23.4833
6,-0.3973807096481323,-2.0302083492279053,78.43305206298828,-2.803307680065885,0.14326689431854783,86.52632473403492,-12.32685,4.5394535,-0.6434796,27.520712,-14.113062,-3.4587069,-5.6577024,-1.4094988,-10.182995,12.93817,-8.024562,2.9802494,-1.6302077,0.2988388,1.635643,17.96526,15.954954,-10.693986,43.49174,29.348846,9.458789,12.7282295,14.524576,-11.405087,17.174377,48.93818,-37.32277,11.248165,-23.472519
7,-0.3952183723449707,-2.0376780033111572,78.43194580078125,-2.8041292216627993,0.13512225852192522,86.5397466442669,-12.329183,4.5367,-0.6528626,27.52857,-14.108499,-3.4733698,-5.650609,-1.4110018,-10.188589,12.939376,-8.032356,2.972291,-1.6110696,0.2980071,1.6470033,17.97802,15.923235,-10.649684,43.508755,29.433298,9.453165,12.728663,14.555948,-11.420326,17.151781,48.833786,-37.366264,11.251458,-23.463161
8,-0.39517417550086975,-2.043362617492676,78.43109130859375,-2.805890377323195,0.1330465410946265,86.55276673251754,-12.339499,4.535241,-0.6654125,27.538067,-14.106463,-3.4811778,-5.6500506,-1.4105029,-10.196882,12.939072,-8.036429,2.9659674,-1.5968331,0.29426858,1.6512481,17.992418,15.900872,-10.621954,43.521255,29.498438,9.452862,12.723716,14.575475,-11.428938,17.136166,48.739437,-37.404243,11.252069,-23.451477
9,-0.3953630030155182,-2.0485873222351074,78.42967224121094,-2.810767776851354,0.13986363239085442,86.56541768606711,-12.361638,4.536274,-0.68371004,27.550531,-14.108235,-3.4791636,-5.6586924,-1.4062206,-10.209465,12.936117,-8.034092,2.9614582,-1.5932075,0.29000595,1.6456763,18.011986,15.887656,-10.613979,43.525696,29.543589,9.460976,12.707655,14.580918,-11.434092,17.13179,48.65667,-37.43498,11.248705,-23.432394
10,-0.3929569721221924,-2.0556795597076416,78.42860412597656,-2.8181440510989746,0.1514127607762007,86.5784393151922,-12.389359,4.5388994,-0.7061253,27.561766,-14.110556,-3.471396,-5.670437,-1.3991472,-10.224861,12.927065,-8.025182,2.9575875,-1.5969296,0.28362012,1.6363544,18.029295,15.884716,-10.616259,43.52848,29.576902,9.471931,12.680585,14.573838,-11.435068,17.132229,48.58325,-37.462257,11.239069,-23.409033
11,-0.391115665435791,-2.0653419494628906,78.4277114868164,-2.8251709460003114,0.1624796962120802,86.59019588152118,-12.416547,4.540961,-0.72696036,27.572784,-14.112848,-3.4615424,-5.682398,-1.3928132,-10.239279,12.918547,-8.0165205,2.9549575,-1.6007026,0.27600583,1.6274859,18.043299,15.8833275,-10.619829,43.534218,29.598711,9.479352,12.654471,14.5629,-11.4354,17.133478,48.513855,-37.4857,11.224088,-23.390053
12,-0.3890068531036377,-2.0698678493499756,78.42670440673828,-2.830380155024017,0.17573042025794955,86.60337053609668,-12.448799,4.542239,-0.7467049,27.587976,-14.115092,-3.453665,-5.694754,-1.3870798,-10.254743,12.906308,-8.008829,2.9534945,-1.6025838,0.26782754,1.6217554,18.066484,15.880336,-10.62607,43.522972,29.606373,9.487554,12.640147,14.560692,-11.435952,17.135891,48.419693,-37.50979,11.213398,-23.372025
13,-0.38577568531036377,-2.073716878890991,78.42578125,-2.8299360228864097,0.1837901577522939,86.61416308497454,-12.473085,4.539075,-0.7571819,27.599321,-14.113377,-3.4470685,-5.702284,-1.386718,-10.265203,12.894342,-8.005737,2.955088,-1.5936545,0.2567374,1.6197916,18.082874,15.873123,-10.6341715,43.52004,29.585823,9.486479,12.647877,14.56715,-11.437501,17.140186,48.317226,-37.52749,11.201058,-23.373037
14,-0.38377198576927185,-2.0849475860595703,78.42639923095703,-2.8263984482849422,0.19009033420240692,86.62404458197179,-12.497328,4.533515,-0.76266927,27.614168,-14.11267,-3.4403574,-5.709607,-1.3898728,-10.274092,12.885064,-8.006817,2.9591591,-1.5812042,0.24139687,1.6230295,18.086977,15.869769,-10.637189,43.527008,29.544756,9.474819,12.662645,14.561896,-11.437812,17.143675,48.221924,-37.541325,11.181138,-23.381475
15,-0.37893494963645935,-2.0967607498168945,78.42554473876953,-2.823669182119191,0.19659232640348062,86.63376968498059,-12.52136,4.5289183,-0.7684374,27.62824,-14.111101,-3.4353518,-5.715464,-1.3916577,-10.282848,12.872419,-8.006525,2.9625747,-1.5695359,0.22878325,1.6248689,18.084034,15.85791,-10.64413,43.543446,29.502796,9.465763,12.685623,14.566411,-11.439045,17.15388,48.112705,-37.547466,11.167149,-23.392954
16,-0.3780062794685364,-2.103052854537964,78.4245834350586,-2.824685072849241,0.20426001953296957,86.64388212189102,-12.5463085,4.528507,-0.77859944,27.643522,-14.110981,-3.433884,-5.721757,-1.389324,-10.292704,12.860093,-8.004324,2.962601,-1.5607493,0.2179646,1.6248105,18.088806,15.85511,-10.646594,43.550694,29.479784,9.458418,12.694244,14.554649,-11.4388275,17.157871,48.02172,-37.54527,11.14823,-23.39121
17,-0.37836843729019165,-2.1074466705322266,78.42365264892578,-2.8337918474175545,0.21593129926217228,86.65626675359356,-12.5761385,4.5353355,-0.79823166,27.661411,-14.113539,-3.4383214,-5.727927,-1.3786018,-10.306234,12.842188,-7.9960465,2.9566138,-1.5622017,0.2142807,1.621283,18.097254,15.842326,-10.650783,43.556576,29.482746,9.463568,12.702805,14.553831,-11.437555,17.17197,47.910084,-37.526897,11.145507,-23.376364
18,-0.37440842390060425,-2.113908290863037,78.42332458496094,-2.8474065035669924,0.2293001988716789,86.66912186528644,-12.607175,4.546252,-0.82246107,27.679392,-14.116759,-3.4469106,-5.733561,-1.3633621,-10.32089,12.821671,-7.9846096,2.9469056,-1.5650015,0.21303305,1.6152344,18.110832,15.835989,-10.652968,43.555996,29.501139,9.470838,12.699963,14.545107,-11.435591,17.18048,47.806602,-37.49799,11.139728,-23.348726
19,-0.3709973096847534,-2.1189968585968018,78.42295837402344,-2.8613286514259144,0.2415871500894856,86.6813572742022,-12.638296,4.5578985,-0.846297,27.700327,-14.1216345,-3.455998,-5.7399673,-1.347955,-10.335435,12.804645,-7.974936,2.9372697,-1.5668868,0.2121451,1.6116629,18.121891,15.834022,-10.655963,43.555424,29.523819,9.477474,12.695742,14.532552,-11.434198,17.186007,47.704475,-37.46773,11.131863,-23.31987
20,-0.3717697262763977,-2.125393867492676,78.42079162597656,-2.873152789880922,0.2500740128959632,86.69155991102578,-12.666922,4.567716,-0.86464965,27.72348,-14.126711,-3.4620867,-5.7438636,-1.3351468,-10.348647,12.787945,-7.9674478,2.931225,-1.5691946,0.20890903,1.6127142,18.136562,15.829219,-10.662348,43.54918,29.542084,9.486531,12.702338,14.522402,-11.429472,17.20202,47.595894,-37.443745,11.128918,-23.305704
21,-0.36641132831573486,-2.1345913410186768,78.41803741455078,-2.879930703448141,0.2509102088416655,86.69829050139708,-12.689778,4.573643,-0.87352157,27.750978,-14.1329365,-3.4639485,-5.7448726,-1.3279703,-10.359415,12.777402,-7.9667068,2.9307992,-1.5673274,0.20290716,1.6263983,18.143734,15.825841,-10.67125,43.54498,29.5556,9.491007,12.719571,14.505268,-11.425026,17.214542,47.487263,-37.432472,11.121673,-23.306362
22,-0.36525794863700867,-2.1426477432250977,78.41542053222656,-2.8835037154843963,0.24701045726001986,86.70289739209024,-12.709597,4.577897,-0.8768042,27.782158,-14.140421,-3.4636664,-5.7437863,-1.3234102,-10.368993,12.770336,-7.9700284,2.9336278,-1.5635626,0.1958573,1.6444145,18.145624,15.8218775,-10.687187,43.545963,29.565695,9.496084,12.748086,14.483792,-11.418043,17.230843,47.38121,-37.424553,11.115982,-23.319792
23,-0.364624559879303,-2.1535980701446533,78.41191101074219,-2.8869897052325455,0.24366400799523485,86.70691595795175,-12.730042,4.5816383,-0.87931913,27.81312,-14.14758,-3.4620297,-5.744014,-1.319619,-10.377695,12.763832,-7.972766,2.9373443,-1.5567367,0.18840995,1.6654325,18.14596,15.819216,-10.702112,43.542297,29.576077,9.500908,12.773034,14.463206,-11.4116535,17.243757,47.271683,-37.42374,11.108108,-23.333694
24,-0.36493119597435,-2.160978078842163,78.40943145751953,-2.8913690066668476,0.24664989435542867,86.71200905464741,-12.755131,4.5859594,-0.88592625,27.83917,-14.152366,-3.4598105,-5.749562,-1.3141588,-10.38619,12.755077,-7.9704556,2.9394362,-1.5479362,0.18273912,1.681641,18.14459,15.817949,-10.711919,43.5357,29.586216,9.505196,12.784387,14.444787,-11.407809,17.254263,47.164017,-37.427387,11.095951,-23.340008
25,-0.36731553077697754,-2.1700668334960938,78.4070053100586,-2.8977162058328463,0.26046224671779344,86.71949921905598,-12.789063,4.591459,-0.8997441,27.85805,-14.153181,-3.4560905,-5.7637415,-1.3053874,-10.394902,12.741475,-7.9591746,2.9385927,-1.5381029,0.17625932,1.6827961,18.138754,15.815667,-10.723271,43.534023,29.593462,9.515467,12.783534,14.425077,-11.398437,17.275322,47.06932,-37.435936,11.086485,-23.345846
26,-0.3664027154445648,-2.176319122314453,78.40608215332031,-2.9065034225602755,0.2809503142554799,86.72827994940006,-12.830234,4.5975895,-0.91759187,27.87583,-14.1535635,-3.450794,-5.7847457,-1.2952447,-10.403646,12.727136,-7.943366,2.9364624,-1.5288405,0.16938117,1.6793345,18.13338,15.813679,-10.725609,43.527355,29.603903,9.526521,12.770485,14.402509,-11.385781,17.297367,46.980534,-37.45431,11.074548,-23.348684
27,-0.3649161458015442,-2.1821415424346924,78.40618133544922,-2.913592689464253,0.301246076194701,86.73630914957353,-12.8690605,4.6026735,-0.9348108,27.890453,-14.152633,-3.4461052,-5.8055162,-1.2860304,-10.411213,12.713485,-7.9276524,2.9347346,-1.5197481,0.1625808,1.6759431,18.12859,15.812345,-10.724473,43.519047,29.612047,9.536359,12.753026,14.374363,-11.374886,17.319159,46.9003,-37.469685,11.06045,-23.3482
28,-0.35831397771835327,-2.1896893978118896,78.40726470947266,-2.9180158189296304,0.31411260047575323,86.74190543193971,-12.897371,4.6054893,-0.94662124,27.902521,-14.151366,-3.444074,-5.820044,-1.2804067,-10.416626,12.704238,-7.917695,2.9351828,-1.5091529,0.1548164,1.6804663,18.12527,15.811093,-10.722633,43.507465,29.61657,9.544542,12.739768,14.350705,-11.365284,17.337418,46.81442,-37.47411,11.048909,-23.344221
29,-0.35642072558403015,-2.196687698364258,78.40802001953125,-2.916753743318759,0.31500033914386194,86.7422933249987,-12.908901,4.6042595,-0.94865227,27.91158,-14.150592,-3.4461973,-5.825432,-1.2808126,-10.4169855,12.70356,-7.918337,2.9399474,-1.4980084,0.14208648,1.6955339,18.124512,15.808906,-10.718552,43.494595,29.616194,9.551525,12.734795,14.32185,-11.349241,17.354313,46.734615,-37.46281,11.041573,-23.33802
30,-0.35730499029159546,-2.202470541000366,78.4066390991211,-2.913422484604022,0.30837660992302196,86.73902280338629,-12.908975,4.600324,-0.94449824,27.916914,-14.149278,-3.4510589,-5.8246765,-1.2853647,-10.41377,12.707151,-7.9245753,2.9475305,-1.4826714,0.12701325,1.7170376,18.122139,15.806169,-10.715509,43.482285,29.61193,9.557997,12.733331,14.29086,-11.32882,17.36445,46.660057,-37.44333,11.035362,-23.328766
31,-0.35738855600357056,-2.2092113494873047,78.40602111816406,-2.910383732475653,0.30148785499711256,86.73721740999774,-12.909553,4.5965223,-0.9413775,27.923752,-14.148472,-3.456515,-5.8242526,-1.2899152,-10.412239,12.71322,-7.9321,2.9543169,-1.4659821,0.114058696,1.7395996,18.117254,15.803719,-10.713091,43.47118,29.606178,9.562626,12.731586,14.264508,-11.310933,17.371876,46.581764,-37.42073,11.030445,-23.317257
32,-0.3602854609489441,-2.2157435417175293,78.40482330322266,-2.9116913979575707,0.30135123340567216,86.74186597073401,-12.921498,4.595999,-0.94645095,27.935154,-14.147859,-3.4605658,-5.8277464,-1.290051,-10.417745,12.713896,-7.933154,2.9566097,-1.4522766,0.105236456,1.7554119,18.108137,15.801148,-10.708069,43.46592,29.603825,9.564992,12.726711,14.238712,-11.291488,17.381102,46.507843,-37.403248,11.027558,-23.30806
33,-0.36114439368247986,-2.2202961444854736,78.4031982421875,-2.9194879751641247,0.3145446700279228,86.75416561466842,-12.952416,4.600025,-0.96145654,27.951664,-14.147743,-3.4617796,-5.8403993,-1.2840064,-10.43174,12.705273,-7.9254384,2.9514115,-1.4389176,0.10455834,1.7598395,18.09579,15.799209,-10.702554,43.465366,29.604322,9.562217,12.717629,14.228507,-11.278616,17.390095,46.419106,-37.389294,11.027783,-23.296913
34,-0.3614889979362488,-2.2257137298583984,78.40081787109375,-2.9304083771180123,0.33563657716363027,86.77138241034625,-12.994111,4.6064725,-0.9824715,27.970278,-14.147437,-3.4615006,-5.8593993,-1.2749647,-10.451246,12.693779,-7.9140577,2.9414647,-1.4282235,0.108119994,1.7546637,18.08037,15.7974,-10.693872,43.472973,29.60834,9.555642,12.706893,14.216504,-11.269382,17.400448,46.337498,-37.376892,11.031288,-23.286736
35,-0.3602401912212372,-2.2321815490722656,78.39817810058594,-2.944258203618169,0.3538436939851575,86.79300314812312,-13.036886,4.614107,-1.0087216,27.99507,-14.148124,-3.461947,-5.8751745,-1.2642819,-10.475328,12.682924,-7.900096,2.9313571,-1.4318933,0.10652238,1.7504926,18.065533,15.791216,-10.668061,43.484177,29.619446,9.550527,12.694547,14.178375,-11.235702,17.426203,46.291676,-37.37028,11.038117,-23.286394
36,-0.3571653962135315,-2.2381105422973633,78.39686584472656,-2.960098502173809,0.3585771772830236,86.81803001168144,-13.073137,4.6218967,-1.0396707,28.033087,-14.152432,-3.4652083,-5.880589,-1.2531701,-10.502965,12.679424,-7.886089,2.9259005,-1.427859,0.113147184,1.7674333,18.045544,15.789676,-10.659787,43.479397,29.618647,9.551391,12.676477,14.1635475,-11.2232895,17.439625,46.215405,-37.364025,11.033984,-23.281591
37,-0.3487838804721832,-2.255619764328003,78.3930435180664,-2.9747901363760803,0.3407213973370328,86.84955449484306,-13.091842,4.6276956,-1.077896,28.081667,-14.15976,-3.473105,-5.8653445,-1.2436945,-10.537076,12.685605,-7.877055,2.924883,-1.4369142,0.11534313,1.8100625,18.022987,15.787605,-10.643651,43.474262,29.609562,9.555417,12.660349,14.129183,-11.199318,17.460209,46.16413,-37.35529,11.017897,-23.288094
38,-0.3555428087711334,-2.260719060897827,78.39191436767578,-2.992444750805478,0.30823777226065496,86.88700441591426,-13.10083,4.6328692,-1.1228741,28.13883,-14.169261,-3.4841068,-5.83608,-1.2339348,-10.577078,12.695992,-7.869189,2.9263039,-1.4431717,0.123945944,1.8744774,17.997929,15.787305,-10.638139,43.458153,29.58908,9.562251,12.643624,14.113055,-11.190162,17.469791,46.089867,-37.34466,10.989655,-23.293808
39,-0.35285675525665283,-2.2734322547912598,78.38723754882812,-3.0113642078979135,0.27521449198774156,86.92408780214257,-13.116057,4.6404314,-1.1687818,28.208878,-14.18123,-3.4952877,-5.810697,-1.2224681,-10.616918,12.712743,-7.855981,2.9320588,-1.4565288,0.12976995,1.9375111,17.96799,15.788274,-10.626383,43.43767,29.576115,9.576904,12.615335,14.076161,-11.169472,17.494997,46.04256,-37.344383,10.967854,-23.303598
40,-0.35197192430496216,-2.2860708236694336,78.38211822509766,-3.0351762824576363,0.2566035541084119,86.95435723052415,-13.153645,4.653554,-1.2094992,28.293648,-14.194597,-3.503745,-5.806936,-1.2065,-10.650095,12.734332,-7.828941,2.9439688,-1.4612467,0.14252192,1.9858539,17.944511,15.79313,-10.626031,43.380665,29.576773,9.608532,12.563244,14.04155,-11.154354,17.526926,45.9904,-37.36679,10.960188,-23.302965
41,-0.35510489344596863,-2.2947850227355957,78.37799835205078,-3.0610177699695558,0.2624035478183003,86.98031617033136,-13.217894,4.669732,-1.2458154,28.379734,-14.200205,-3.5099835,-5.8292394,-1.1882174,-10.679312,12.749221,-7.777321,2.9650567,-1.4558606,0.16125675,2.0066116,17.926739,15.7999,-10.638639,43.291065,29.619036,9.669851,12.48602,14.012843,-11.149436,17.573414,45.93067,-37.407597,10.972284,-23.286882
42,-0.3611745834350586,-2.3033223152160645,78.3740234375,-3.088571236194476,0.2828407643055246,87.00386617088668,-13.300375,4.688123,-1.280012,28.470724,-14.201828,-3.5150676,-5.8675838,-1.1675247,-10.706527,12.760364,-7.7079835,2.9934237,-1.4503427,0.18048847,2.0101953,17.922028,15.815123,-10.655821,43.167843,29.685568,9.7529745,12.388416,13.987405,-11.1515875,17.645178,45.865086,-37.45594,11.000031,-23.263021
43,-0.36510398983955383,-2.316589832305908,78.3660659790039,-3.123561277735354,0.3025753308294005,87.01812573813747,-13.39813,4.7155857,-1.3091065,28.59454,-14.216886,-3.5171924,-5.9212317,-1.1407503,-10.724315,12.795102,-7.6412582,3.0238256,-1.4422063,0.20935854,2.019654,17.91954,15.837715,-10.677422,43.009876,29.726946,9.831298,12.266729,13.961122,-11.165579,17.715937,45.79333,-37.526398,11.0310755,-23.233871
44,-0.37287870049476624,-2.3316898345947266,78.35810089111328,-3.169457816659292,0.3063243015128053,87.0159250160104,-13.507524,4.7582054,-1.3298239,28.777758,-14.262576,-3.5143368,-5.9889684,-1.1036276,-10.725471,12.880136,-7.597528,3.0509043,-1.4318228,0.2542273,2.056704,17.916557,15.874728,-10.70389,42.808628,29.687368,9.878429,12.116629,13.93481,-11.199235,17.771063,45.70828,-37.624947,11.055014,-23.20366
45,-0.3862804174423218,-2.355865716934204,78.34300994873047,-3.22285290076149,0.2912624696911963,86.99392543001738,-13.6218195,4.8118596,-1.3420694,29.01502,-14.340307,-3.5015624,-6.064029,-1.0580049,-10.704499,13.007157,-7.5777583,3.0737154,-1.4064416,0.31517762,2.1215913,17.911104,15.909776,-10.722523,42.572025,29.540468,9.882675,11.926734,13.894498,-11.240136,17.7963,45.633133,-37.784767,11.073573,-23.164915
46,-0.4052497446537018,-2.3823471069335938,78.32579803466797,-3.2846084643287914,0.26503232457458303,86.95629769274684,-13.745672,4.8750687,-1.3474807,29.297941,-14.442868,-3.4814787,-6.14888,-1.0048823,-10.666576,13.166631,-7.5725827,3.094889,-1.3710531,0.3894091,2.2054577,17.91036,15.949232,-10.736766,42.29427,29.317135,9.859693,11.700864,13.849613,-11.296001,17.805708,45.554527,-37.98838,11.090032,-23.117044
47,-0.42765796184539795,-2.4091200828552246,78.3038330078125,-3.3607992460065272,0.22803023832098016,86.90767492473975,-13.888377,4.9587436,-1.3451234,29.641083,-14.5706625,-3.4637482,-6.256132,-0.9390006,-10.620371,13.383289,-7.5858827,3.1146445,-1.348607,0.4840493,2.3072634,17.885921,15.994929,-10.776577,42.001804,29.067078,9.831521,11.474529,13.796671,-11.362438,17.810284,45.47609,-38.19042,11.102681,-23.085438
48,-0.46119970083236694,-2.442148208618164,78.27432250976562,-3.457667517015168,0.1807408084137472,86.85269097764588,-14.0610285,5.073719,-1.3342079,30.061499,-14.725175,-3.4583664,-6.3979716,-0.8549668,-10.574682,13.680311,-7.621057,3.133057,-1.3579532,0.6046716,2.4286594,17.815884,16.060562,-10.8764105,41.708435,28.833822,9.81768,11.279338,13.745748,-11.446503,17.81778,45.381683,-38.34142,11.10758,-23.091747
49,-0.49556511640548706,-2.4848992824554443,78.23753356933594,-3.5859153557058865,0.1364903797331207,86.79116833708134,-14.282963,5.227858,-1.3152101,30.571024,-14.90973,-3.4706812,-6.58178,-0.74230945,-10.53691,14.043114,-7.670248,3.147735,-1.38778,0.7613735,2.553997,17.708385,16.152752,-11.046087,41.41343,28.593182,9.8065605,11.105546,13.687725,-11.553768,17.848394,45.281017,-38.413624,11.106829,-23.130877
50,-0.5242487192153931,-2.5297815799713135,78.19306945800781,-3.7381166173543554,0.09060887039921373,86.72117558528,-14.540362,5.4132776,-1.2881725,31.154642,-15.12072,-3.4957492,-6.800665,-0.6070481,-10.500974,14.468572,-7.7358413,3.1589117,-1.430935,0.94704056,2.6895633,17.574682,16.2712,-11.2703495,41.102795,28.329462,9.792176,10.939591,13.629052,-11.68556,17.890072,45.166515,-38.435886,11.100029,-23.192501
51,-0.5580902695655823,-2.5850558280944824,78.14058685302734,-3.9001211240930562,0.016381050856829348,86.64437226369166,-14.798661,5.616491,-1.2517457,31.798464,-15.354659,-3.5281775,-7.0434237,-0.46806595,-10.455338,14.993559,-7.8346057,3.170884,-1.5136632,1.1416289,2.8674443,17.391808,16.412212,-11.545613,40.782516,28.102974,9.803244,10.810798,13.592878,-11.827783,17.903536,45.01357,-38.44716,11.081517,-23.294569
52,-0.5970137119293213,-2.6431729793548584,78.08047485351562,-4.055672782334686,-0.11290178625652714,86.56269340243622,-15.02007,5.823459,-1.2038463,32.48132,-15.603454,-3.56228,-7.299918,-0.34460726,-10.388018,15.656875,-7.984133,3.1883457,-1.660726,1.3222097,3.1184833,17.133429,16.571972,-11.870192,40.462204,27.974495,9.868669,10.749499,13.597926,-11.957614,17.846962,44.805817,-38.48962,11.046734,-23.456884
53,-0.6243739724159241,-2.728285551071167,78.01024627685547,-4.197766983288983,-0.3114738848889527,86.47612929885469,-15.193945,6.02579,-1.1355593,33.211487,-15.867319,-3.5924637,-7.574944,-0.2457762,-10.297218,16.498276,-8.203365,3.2083044,-1.8677183,1.4768876,3.4634397,16.787611,16.75293,-12.249407,40.152313,27.960491,10.004527,10.762516,13.616427,-12.063423,17.709576,44.564518,-38.586327,10.998067,-23.693245
54,-0.6625759601593018,-2.8121585845947266,77.93196105957031,-4.334398207545057,-0.5629475866489749,86.38388327972908,-15.336948,6.229085,-1.0486574,33.988735,-16.145971,-3.6241686,-7.8724756,-0.16082875,-10.188022,17.489683,-8.479286,3.2301617,-2.1223693,1.6125802,3.879285,16.367767,16.957174,-12.687275,39.84956,28.028118,10.192937,10.834648,13.642577,-12.143504,17.51016,44.30417,-38.715504,10.93863,-23.993263
55,-0.7132949829101562,-2.887805938720703,77.84553527832031,-4.473364700012295,-0.8480945560754388,86.28714796609896,-15.4572735,6.4397764,-0.9568297,34.792095,-16.438723,-3.6674924,-8.173715,-0.0779088,-10.061616,18.551607,-8.773403,3.2635126,-2.4377973,1.7312353,4.331313,15.884176,17.179539,-13.17818,39.543518,28.166517,10.412517,10.963508,13.719879,-12.191636,17.249739,44.005768,-38.853806,10.86519,-24.342186
56,-0.7537370324134827,-2.9861347675323486,77.74913024902344,-4.624055302486401,-1.1477804831209308,86.18706500257379,-15.564047,6.6655383,-0.87449884,35.60214,-16.745897,-3.7320821,-8.462968,0.015690275,-9.919503,19.611462,-9.051115,3.3187394,-2.828146,1.8367333,4.7845554,15.345639,17.411152,-13.715151,39.225582,28.365755,10.642346,11.148104,13.890509,-12.19863,16.930174,43.65278,-38.97879,10.774551,-24.725702
57,-0.8113924264907837,-3.0707037448883057,77.64673614501953,-4.789164075999211,-1.4665225702762517,86.09183602335945,-15.655465,6.905989,-0.81212276,36.423393,-17.07213,-3.829394,-8.745198,0.12060006,-9.7682905,20.69204,-9.315331,3.4017816,-3.3066332,1.9321287,5.245133,14.748782,17.648619,-14.3067875,38.884377,28.649876,10.900534,11.4037075,14.153047,-12.155504,16.52569,43.233852,-39.121933,10.669209,-25.153473
58,-0.8582624793052673,-3.1744725704193115,77.53363800048828,-4.963980926594828,-1.811460937234466,85.99869394366097,-15.72597,7.1559386,-0.7581114,37.26076,-17.415655,-3.9517283,-9.025214,0.2340465,-9.606437,21.816582,-9.580372,3.5089111,-3.8617887,2.010123,5.7251,14.087252,17.89222,-14.95555,38.531258,29.015394,11.19253,11.725876,14.482512,-12.061362,16.043203,42.76967,-39.285927,10.551209,-25.630434
59,-0.9121343493461609,-3.274724006652832,77.41728210449219,-5.146616659779016,-2.167730939356392,85.89161292964151,-15.783509,7.418613,-0.6957622,38.10223,-17.769182,-4.079495,-9.28424,0.3655485,-9.423285,22.906452,-9.823559,3.6354537,-4.4747066,2.0632892,6.19935,13.367472,18.136305,-15.639456,38.190105,29.413631,11.477403,12.084597,14.888017,-11.920445,15.539104,42.28919,-39.402267,10.414708,-26.134459
60,-0.9805896282196045,-3.3688745498657227,77.2978515625,-5.334760065345123,-2.520545126563521,85.75447190783801,-15.8355875,7.698987,-0.6092862,38.93442,-18.124622,-4.1927357,-9.5046835,0.5233478,-9.207674,23.885122,-10.023707,3.7755644,-5.1294765,2.0859606,6.64305,12.596582,18.372408,-16.331932,37.88558,29.79861,11.713921,12.450568,15.37586,-11.743517,15.072885,41.82121,-39.402157,10.25359,-26.642933
61,-1.0529288053512573,-3.4516491889953613,77.17781066894531,-5.535530905979718,-2.8780124384530765,85.60398908367904,-15.884265,7.997119,-0.51902217,39.775494,-18.494627,-4.2910676,-9.671816,0.70971876,-8.959595,24.748222,-10.180018,3.9440644,-5.8519373,2.0866294,7.056698,11.768579,18.596313,-17.03592,37.626854,30.208788,11.886788,12.836642,15.9654455,-11.534267,14.656248,41.344067,-39.21584,10.040769,-27.192022
62,-1.1340006589889526,-3.5499610900878906,77.05572509765625,-5.74913144755659,-3.2443323075680284,85.44199708884874,-15.925721,8.312513,-0.42590046,40.6264,-18.878988,-4.3831635,-9.802029,0.92197496,-8.68471,25.538221,-10.304091,4.1394224,-6.6455283,2.0670104,7.4513774,10.883787,18.805946,-17.755205,37.39819,30.654154,12.020063,13.252117,16.648218,-11.292338,14.266722,40.84855,-38.895718,9.7844925,-27.777004
63,-1.2234251499176025,-3.6451053619384766,76.93793487548828,-5.9600639257583,-3.598607009931593,85.22959553157477,-15.9586315,8.650098,-0.2859041,41.447315,-19.248825,-4.462118,-9.911239,1.1600496,-8.379221,26.224735,-10.388936,4.3296103,-7.460582,2.0151718,7.818302,9.958767,18.99467,-18.463055,37.187687,31.04686,12.129138,13.664231,17.38868,-11.027435,13.911766,40.3811,-38.555744,9.5324955,-28.315462
64,-1.3088140487670898,-3.742539882659912,76.82662963867188,-6.157079539796826,-3.920484282889236,84.92785406371722,-15.983805,9.015139,-0.0560307,42.20246,-19.57778,-4.520908,-10.019694,1.4212663,-8.038924,26.786825,-10.430178,4.4813027,-8.250997,1.9234793,8.149196,9.012985,19.152376,-19.129534,36.982853,31.300043,12.227389,14.039778,18.153084,-10.754436,13.601861,39.984093,-38.30522,9.335262,-28.72578
65,-1.4131730794906616,-3.8270652294158936,76.72659301757812,-6.345913957052793,-4.220786235560717,84.55207794127243,-16.00206,9.415176,0.25076696,42.914246,-19.863853,-4.552716,-10.103495,1.705256,-7.6852617,27.216099,-10.436703,4.576236,-9.030232,1.7969415,8.453338,8.033468,19.270187,-19.764723,36.798195,31.355911,12.31941,14.384595,18.970112,-10.479517,13.336792,39.644386,-38.16924,9.1901245,-28.98113
66,-1.5208901166915894,-3.925596237182617,76.63671112060547,-6.531791863267242,-4.505775684357646,84.11437856223259,-16.01224,9.846628,0.61867917,43.59231,-20.119473,-4.562796,-10.162079,2.0105097,-7.3118076,27.527653,-10.407645,4.633205,-9.817959,1.6442137,8.730352,7.0154533,19.344406,-20.373484,36.638615,31.27456,12.395305,14.713039,19.84731,-10.202659,13.116173,39.343544,-38.086185,9.076706,-29.126144
67,-1.6373250484466553,-4.026841163635254,76.56523895263672,-6.691255521941705,-4.747070338293085,83.56975856028613,-16.011053,10.30019,1.0867136,44.179718,-20.337385,-4.5615807,-10.245293,2.3338447,-6.8715315,27.72412,-10.318592,4.6747003,-10.575913,1.4648625,8.95774,5.9880524,19.37519,-20.920816,36.48078,31.147772,12.446494,15.004617,20.715797,-9.935727,12.946928,39.116055,-38.03511,9.020929,-29.187624
68,-1.7602952718734741,-4.135561943054199,76.5078125,-6.8062476146820226,-4.9168968273562035,82.87317032584804,-15.996135,10.767704,1.6933746,44.622696,-20.512457,-4.5585375,-10.401845,2.672626,-6.3176613,27.806799,-10.144575,4.7241964,-11.270354,1.2619791,9.114054,4.9856296,19.365082,-21.367077,36.296925,31.067257,12.464792,15.237617,21.512772,-9.695321,12.839468,38.98905,-37.991894,9.047931,-29.191408
69,-1.9002076387405396,-4.244708061218262,76.46666717529297,-6.870917539910243,-5.006620785005093,82.00712049252854,-15.966319,11.2545805,2.4543004,44.912502,-20.645145,-4.5559306,-10.645936,3.0242546,-5.631402,27.782505,-9.891507,4.7693267,-11.897808,1.0323782,9.187588,4.0044465,19.312344,-21.705076,36.08927,31.045837,12.444765,15.385101,22.250988,-9.489811,12.80401,38.9653,-37.9923,9.20788,-29.133074
70,-2.059486150741577,-4.354413032531738,76.4404525756836,-6.898072485920495,-5.03132508871725,80.99723290944442,-15.921972,11.764201,3.3467066,45.080265,-20.739174,-4.5477333,-10.9482155,3.3891385,-4.8387947,27.647638,-9.56785,4.803985,-12.480658,0.7834253,9.191804,3.0335739,19.216715,-21.947515,35.869644,31.039677,12.391194,15.4655695,22.95788,-9.320086,12.836001,39.025173,-38.030704,9.472594,-29.00146
71,-2.2407467365264893,-4.477588176727295,76.4287109375,-6.890634548215835,-4.996666296984654,79.86306460392301,-15.862841,12.285372,4.3509855,45.13116,-20.794233,-4.5303597,-11.289648,3.769212,-3.9596832,27.38805,-9.154705,4.8619847,-13.020632,0.53220916,9.143541,2.0944884,19.087658,-22.090492,35.62424,31.055449,12.3121,15.52491,23.592741,-9.195258,12.918338,39.160862,-38.021965,9.7498045,-28.811754
72,-2.421088218688965,-4.5983357429504395,76.43762969970703,-6.8536940535040936,-4.908702774444539,78.62424545501648,-15.788408,12.806638,5.447903,45.069355,-20.80958,-4.502536,-11.651795,4.1647296,-3.0128293,26.988457,-8.633491,4.977598,-13.521006,0.29479602,9.061242,1.2151593,18.940033,-22.12931,35.330254,31.097857,12.215029,15.607869,24.117695,-9.128131,13.036391,39.359825,-37.87768,9.947024,-28.579271
73,-2.6041691303253174,-4.720462322235107,76.46641540527344,-6.792883312548597,-4.745581662914239,77.27674123198524,-15.714699,13.327532,6.634095,44.88462,-20.787424,-4.4634542,-12.06547,4.6084547,-1.9000106,26.45219,-7.9864554,5.1233683,-13.997811,0.06845246,8.928997,0.41208562,18.782095,-22.049295,34.968304,31.175974,12.098809,15.731393,24.525885,-9.127599,13.221055,39.652092,-37.48264,10.048798,-28.308487
74,-2.800192356109619,-4.840798854827881,76.50845336914062,-6.7088213785705495,-4.511338849499016,75.81437778176225,-15.632788,13.848906,7.9214215,44.580486,-20.729136,-4.4158335,-12.519655,5.081111,-0.63992167,25.779697,-7.2275558,5.294669,-14.450354,-0.15317537,8.745983,-0.32299855,18.616318,-21.852684,34.54149,31.282158,11.95999,15.868354,24.839596,-9.195063,13.472199,40.026424,-36.90983,10.102696,-27.989952
75,-3.0177974700927734,-4.980126857757568,76.56594848632812,-6.590816350565443,-4.249518947750162,74.25254318930133,-15.501408,14.357919,9.317062,44.176826,-20.63012,-4.35916,-12.941745,5.5035963,0.57320106,24.959219,-6.3920236,5.5581527,-14.852686,-0.3632539,8.553758,-1.0012914,18.449959,-21.564861,34.060104,31.395885,11.803479,15.996638,25.066788,-9.329877,13.724676,40.40702,-36.353085,10.110554,-27.616758
76,-3.2453324794769287,-5.1149983406066895,76.64141845703125,-6.4287778522660375,-4.003629920843877,72.60611664941244,-15.281113,14.838693,10.828064,43.696312,-20.487389,-4.292478,-13.266195,5.799614,1.5444089,23.97887,-5.515408,5.9786024,-15.175377,-0.5577792,8.394561,-1.6329917,18.29233,-21.214592,33.53155,31.495031,11.6341505,16.093359,25.216867,-9.527942,13.910914,40.716423,-36.007854,10.071809,-27.181458
77,-3.4727766513824463,-5.247055530548096,76.72992706298828,-6.194078927505146,-3.7789525611640378,70.85965066690763,-14.933245,15.259231,12.49939,43.102108,-20.291819,-4.2120266,-13.46492,5.989586,2.4225209,22.742647,-4.4697137,6.6826973,-15.413984,-0.7650715,8.27371,-2.211339,18.14761,-20.786901,32.930336,31.564404,11.455004,16.127129,25.292637,-9.7881,13.99448,40.942608,-35.940495,9.958248,-26.606537
78,-3.7186450958251953,-5.3878068923950195,76.82758331298828,-5.895083487687591,-3.552232932506984,69.0132654033975,-14.4777565,15.6147375,14.320672,42.38963,-20.046371,-4.121765,-13.575142,6.0923553,3.254064,21.280624,-3.2810435,7.599499,-15.581218,-0.9884531,8.171369,-2.7350793,18.016853,-20.27801,32.256935,31.616821,11.263924,16.117397,25.29274,-10.108589,14.015806,41.121456,-36.041355,9.776286,-25.920591
79,-3.9660441875457764,-5.5127949714660645,76.9281005859375,-5.572055242242837,-3.3235069568016518,67.1023030351907,-13.96469,15.935257,16.215927,41.628014,-19.764967,-4.031077,-13.631607,6.042547,3.6777945,19.754936,-2.201699,8.493664,-15.671717,-1.1873237,8.093069,-3.2217946,17.906013,-19.73391,31.560524,31.671524,11.055223,16.119198,25.217684,-10.482096,14.021797,41.25019,-36.244415,9.575969,-25.276806
80,-4.214144706726074,-5.635770797729492,77.0370101928711,-5.273665707201757,-3.094399604890727,65.15976964123523,-13.449706,16.265654,18.105764,40.89098,-19.462458,-3.9486368,-13.683496,5.7931767,3.314973,18.35022,-1.4811207,9.12911,-15.677317,-1.31477,8.045364,-3.6866422,17.823462,-19.202875,30.888292,31.746967,10.823281,16.188147,25.064611,-10.895848,14.058734,41.329544,-36.486862,9.409411,-24.828154
81,-4.479550361633301,-5.763505458831787,77.1526107788086,-5.00907710785006,-2.852981366193259,63.17353927868532,-12.947769,16.623686,20.009943,40.18146,-19.141506,-3.8619633,-13.719122,5.28605,1.8305824,17.03259,-1.1926081,9.495529,-15.582237,-1.3501148,8.029156,-4.1358533,17.778229,-18.694996,30.225275,31.867912,10.554386,16.339653,24.819796,-11.348521,14.133976,41.3635,-36.82544,9.286637,-24.6479
82,-4.728121757507324,-5.895684719085693,77.28275299072266,-4.755846197892521,-2.604007709180473,61.13212899534936,-12.427301,16.979067,21.95916,39.465584,-18.795315,-3.7719922,-13.699724,4.600002,-0.51189566,15.732917,-1.1911658,9.722584,-15.3959675,-1.3249198,8.043716,-4.5512686,17.773294,-18.185507,29.54266,32.01643,10.256858,16.542152,24.483175,-11.83894,14.228511,41.35532,-37.271698,9.181818,-24.644133
83,-4.98418664932251,-6.016666889190674,77.39937591552734,-4.518994317455997,-2.3713445420287056,59.06663046404486,-11.886431,17.326445,23.88466,38.770615,-18.424953,-3.705943,-13.643616,3.8914135,-3.1945686,14.585712,-1.4085639,9.777235,-15.140896,-1.2620332,8.093831,-4.918073,17.80593,-17.674492,28.88064,32.146736,9.954128,16.783676,24.067677,-12.352206,14.342996,41.310513,-37.699883,9.09572,-24.722239
84,-5.236044883728027,-6.150783061981201,77.5344467163086,-4.306373403719366,-2.1760413348758556,57.00527229149118,-11.332794,17.673456,25.713272,38.13396,-18.03459,-3.6899822,-13.602296,3.2891917,-5.693338,13.7416725,-1.7930462,9.604178,-14.833167,-1.1789398,8.182874,-5.2291656,17.870079,-17.166748,28.287104,32.21409,9.670432,17.052193,23.58469,-12.86593,14.473247,41.239277,-37.986633,9.0285,-24.78926
85,-5.4831037521362305,-6.295897006988525,77.67721557617188,-4.129128590536419,-2.0266514193381355,54.9433252002243,-10.760818,18.049059,27.451794,37.563156,-17.616892,-3.7231019,-13.5720825,2.7946084,-8.010479,13.204907,-2.4199271,9.1036,-14.447661,-1.0671306,8.3235445,-5.5060596,17.965755,-16.684168,27.778309,32.21576,9.400909,17.379383,23.027712,-13.368764,14.618851,41.148266,-38.09128,8.992315,-24.84478
86,-5.7089385986328125,-6.417325973510742,77.78633117675781,-3.9845439917227945,-1.9079163273466695,52.86473444309643,-10.180379,18.457989,29.127172,37.0512,-17.174227,-3.791474,-13.538196,2.3427298,-10.366768,12.919637,-3.3121343,8.332209,-13.97612,-0.91419613,8.507623,-5.751245,18.094069,-16.224289,27.336279,32.17405,9.136398,17.760336,22.387518,-13.859069,14.7784605,41.04102,-38.087303,8.984366,-24.932838
87,-5.94428825378418,-6.557133197784424,77.91918182373047,-3.8615942960710132,-1.80362244932234,50.78164828729983,-9.623957,18.877533,30.694305,36.60737,-16.720284,-3.9007294,-13.556662,1.9351434,-12.565172,12.944464,-4.333805,7.444152,-13.458645,-0.7303309,8.706807,-5.9328747,18.247429,-15.756534,26.96247,32.08181,8.894211,18.129313,21.672533,-14.328033,14.945099,40.924095,-38.02246,8.9816475,-25.027544
88,-6.166828155517578,-6.708974361419678,78.05744171142578,-3.747827862714622,-1.6969916379871774,48.7073183606969,-9.123242,19.28331,32.10722,36.238525,-16.26798,-4.055838,-13.685815,1.5647936,-14.414316,13.334961,-5.339263,6.585801,-12.933011,-0.5297709,8.891816,-6.0266747,18.414022,-15.252979,26.667812,31.933212,8.691669,18.421387,20.890125,-14.765796,15.108014,40.80817,-37.94654,8.962137,-25.104195
89,-6.386717319488525,-6.8543806076049805,78.18354797363281,-3.6309236761491213,-1.5755161288098014,46.62610409829773,-8.670059,19.672983,33.416862,35.91668,-15.806592,-4.2500296,-13.984042,1.2061435,-15.877336,14.1884775,-6.3189816,5.701608,-12.390743,-0.3201492,9.044853,-6.0294657,18.585447,-14.697429,26.472012,31.716679,8.522353,18.643682,20.0211,-15.165502,15.2562685,40.71122,-37.873676,8.92048,-25.157673
90,-6.599972248077393,-6.999496936798096,78.29309844970703,-3.5106683636072127,-1.448102318747557,44.53735653860982,-8.251812,20.05262,34.62826,35.64275,-15.329829,-4.477908,-14.40444,0.84187096,-17.043684,15.436311,-7.335354,4.730509,-11.813913,-0.10247055,9.180025,-5.961901,18.761133,-14.111708,26.37674,31.44175,8.380562,18.823402,19.068954,-15.527504,15.394484,40.627926,-37.779884,8.869588,-25.202976
91,-6.809136867523193,-7.142629623413086,78.38986206054688,-3.39119373622988,-1.3314002585088003,42.47719163880807,-7.8973684,20.416767,35.62171,35.467228,-14.860155,-4.746853,-14.865689,0.4767849,-17.92092,16.91021,-8.353099,3.8095224,-11.227781,0.118752874,9.317637,-5.8370657,18.941242,-13.524633,26.365541,31.132444,8.286149,18.925966,18.078407,-15.8540535,15.534559,40.530067,-37.65703,8.814495,-25.244102
92,-7.018579006195068,-7.283228874206543,78.46826934814453,-3.2839279276289592,-1.2445893620316386,40.481191427865355,-7.640099,20.773441,36.271717,35.443104,-14.422077,-5.066291,-15.285946,0.13280489,-18.52375,18.43765,-9.328703,3.0788708,-10.658882,0.34788835,9.4797,-5.666769,19.125875,-12.963628,26.420357,30.812386,8.259274,18.917356,17.09296,-16.147879,15.689359,40.389957,-37.495884,8.759775,-25.28459
93,-7.218719482421875,-7.43328857421875,78.53172302246094,-3.1844143665847664,-1.2050300078212057,38.5521985569526,-7.5087843,21.142403,36.536373,35.642235,-14.007869,-5.4421763,-15.646088,-0.15136983,-18.7498,19.973866,-10.220137,2.6259542,-10.10755,0.58358264,9.68848,-5.4614034,19.313934,-12.426346,26.555002,30.503807,8.325813,18.784979,16.106623,-16.409597,15.854231,40.191547,-37.29508,8.711722,-25.32798
94,-7.403722286224365,-7.580418109893799,78.56450653076172,-3.0849521425556383,-1.20085527218426,36.673288910827196,-7.481672,21.517397,36.47872,36.01088,-13.609318,-5.8686943,-15.99488,-0.38852122,-18.635077,21.604015,-11.049052,2.36004,-9.563527,0.8246045,9.927113,-5.213639,19.504192,-11.901049,26.773561,30.188625,8.469608,18.549334,15.103105,-16.63857,16.022991,39.95097,-37.05863,8.665971,-25.370947
95,-7.579802513122559,-7.726009845733643,78.5720443725586,-2.9984521872674144,-1.2094463622508773,34.85052141911137,-7.517389,21.876225,36.13338,36.41844,-13.25482,-6.344204,-16.34885,-0.6262058,-18.402853,23.350552,-11.862788,2.155674,-9.037963,1.0816275,10.159269,-4.908659,19.69663,-11.400268,27.043154,29.829872,8.648378,18.225517,14.110482,-16.8354,16.206997,39.68749,-36.78504,8.610967,-25.40704
96,-7.741494655609131,-7.877830982208252,78.57008361816406,-2.9364464303288647,-1.2084211228670836,33.09098800194137,-7.5754766,22.189108,35.533127,36.734447,-12.971835,-6.864032,-16.727942,-0.92439467,-18.270163,25.24887,-12.721054,1.8853588,-8.541443,1.3615371,10.348446,-4.531044,19.89223,-10.9367285,27.32998,29.390207,8.820279,17.828815,13.156701,-17.001547,16.41764,39.419876,-36.47289,8.535206,-25.429317
97,-7.882688999176025,-8.022163391113281,78.54585266113281,-2.9184858480502873,-1.2062043990765277,31.40097115412828,-7.677984,22.458866,34.561474,36.96811,-12.773452,-7.4352574,-17.135431,-1.2641128,-18.229406,27.33916,-13.628919,1.52795,-8.073831,1.6783781,10.49855,-4.0870233,20.093916,-10.523291,27.642426,28.829418,8.994398,17.325785,12.249592,-17.139126,16.662865,39.143456,-36.08495,8.429164,-25.443241
98,-8.008452415466309,-8.180303573608398,78.5010986328125,-2.9292311578457086,-1.2133989149946696,29.77538809779773,-7.8277345,22.683285,33.24618,37.16682,-12.648213,-8.061211,-17.555346,-1.6249831,-18.184544,29.581226,-14.552646,1.148793,-7.6317377,2.0205822,10.624428,-3.5791419,20.30161,-10.148607,27.989454,28.177069,9.190149,16.721355,11.377222,-17.246485,16.935593,38.848022,-35.63262,8.300824,-25.448883
99,-8.127538681030273,-8.324042320251465,78.42810821533203,-2.930161785684258,-1.2102695654460554,28.20420630783624,-7.952322,22.834904,31.842808,37.263294,-12.588747,-8.72942,-17.967777,-2.072543,-18.213171,31.876713,-15.487583,0.7448684,-7.219262,2.354047,10.706299,-2.9897969,20.510641,-9.791045,28.342201,27.500765,9.380108,16.087463,10.535569,-17.321165,17.221983,38.546623,-35.19094,8.166003,-25.4324
100,-8.239006996154785,-8.469501495361328,78.33352661132812,-2.885753419043064,-1.1747530878524988,26.677300273546816,-7.9832954,22.898262,30.606026,37.192074,-12.583905,-9.423712,-18.354265,-2.6782074,-18.38999,34.134136,-16.434488,0.30922067,-6.8398256,2.6473618,10.724917,-2.3008003,20.712942,-9.428966,28.671923,26.86789,9.533506,15.495144,9.722142,-17.359552,17.50766,38.25281,-34.833576,8.040434,-25.381014
101,-8.333974838256836,-8.615720748901367,78.22980499267578,-2.7928279789698944,-1.1006213856290192,25.198724032759333,-7.923008,22.833475,29.420807,36.896034,-12.623266,-10.203042,-18.711563,-3.4797862,-18.733158,36.37725,-17.434975,-0.15993272,-6.4985623,2.8951075,10.667147,-1.5060608,20.902918,-9.061022,28.982056,26.247517,9.639159,14.928049,8.937303,-17.35802,17.78454,37.973854,-34.582684,7.928054,-25.279766
102,-8.403470039367676,-8.765460968017578,78.10978698730469,-2.6716817271963884,-0.9983605571313822,23.770853636767715,-7.7948375,22.672083,28.217787,36.429085,-12.723634,-11.046613,-19.041529,-4.44035,-19.195879,38.638683,-18.479042,-0.66459614,-6.189937,3.1140282,10.546096,-0.62064946,21.079836,-8.699069,29.292131,25.621328,9.713589,14.360413,8.180619,-17.31775,18.057629,37.706207,-34.39948,7.8212337,-25.140818
103,-8.46241283416748,-8.914148330688477,77.9778823852539,-2.524179463655845,-0.8686704961051632,22.381332148120237,-7.577453,22.51218,27.312204,35.890137,-12.899029,-11.821243,-19.335909,-5.523259,-19.755728,40.8442,-19.493734,-1.2148013,-5.901353,3.3081732,10.382356,0.34369755,21.242891,-8.341399,29.59126,25.075874,9.766325,13.847243,7.4493103,-17.244814,18.33203,37.444534,-34.267162,7.718109,-24.992647
104,-8.503129959106445,-9.080421447753906,77.83570861816406,-2.3519299701133165,-0.7117897334350386,21.017997839999737,-7.2633023,22.448444,27.012829,35.378986,-13.152802,-12.400917,-19.590351,-6.6919365,-20.393099,42.92451,-20.40985,-1.8216255,-5.62216,3.4828494,10.196412,1.3757572,21.390959,-7.984853,29.869255,24.697353,9.80356,13.443501,6.7410235,-17.14833,18.614506,37.18164,-34.167877,7.6164794,-24.86299
105,-8.536978721618652,-9.249098777770996,77.69037628173828,-2.142919807794536,-0.5150559468723439,19.659928610458355,-6.8036547,22.49588,27.562395,34.869507,-13.537412,-12.720437,-19.82778,-8.004135,-21.13399,44.929783,-21.227499,-2.5066867,-5.3449993,3.6314762,9.975669,2.4970014,21.523285,-7.6233582,30.101332,24.507383,9.815362,13.156742,6.0445585,-17.035698,18.915264,36.911358,-34.119038,7.526277,-24.751244
106,-8.561453819274902,-9.426592826843262,77.5499496459961,-1.9023462343418642,-0.28032962259042227,18.319795878455388,-6.2248144,22.595901,28.74127,34.324173,-14.02309,-12.866848,-20.039839,-9.466716,-21.978138,46.882584,-21.99161,-3.2655466,-5.0788975,3.7557688,9.716601,3.7067747,21.637909,-7.2592936,30.298243,24.45963,9.798087,12.959005,5.367497,-16.908772,19.228565,36.63254,-34.120068,7.444424,-24.644218
107,-8.585104942321777,-9.618081092834473,77.42594146728516,-1.658598177500124,-0.03150503229462198,17.036079213741868,-5.6334896,22.729641,30.158354,33.820675,-14.480801,-12.946513,-20.181416,-10.959967,-22.871372,48.673157,-22.696962,-4.0667467,-4.8357916,3.8765757,9.451746,4.9597144,21.731104,-6.903316,30.504446,24.53921,9.767576,12.85313,4.741454,-16.765238,19.535355,36.341984,-34.126553,7.3495283,-24.550882
108,-8.589213371276855,-9.83111572265625,77.31202697753906,-1.4408290285506418,0.2059362503146393,15.846469244333624,-5.1397643,22.896734,31.422802,33.44286,-14.786403,-13.059543,-20.214329,-12.356575,-23.765882,50.19772,-23.336626,-4.873002,-4.6249795,4.0172815,9.212993,6.206513,21.798897,-6.5686135,30.768068,24.732178,9.740335,12.842809,4.1966143,-16.60096,19.814728,36.03942,-34.095604,7.220485,-24.480553
109,-8.584137916564941,-10.06189250946045,77.21658325195312,-1.2507659966799567,0.43462478953002953,14.775460137795678,-4.796702,23.117538,32.491726,33.252808,-14.911151,-13.200452,-20.117306,-13.728625,-24.77818,51.48423,-23.96122,-5.771452,-4.4626055,4.180246,9.009414,7.4352803,21.84019,-6.254335,31.090088,25.078457,9.712138,12.957606,3.7389836,-16.41241,20.055044,35.701435,-33.996643,7.032714,-24.42627
110,-8.564323425292969,-10.319497108459473,77.14802551269531,-1.0758616801227445,0.663442730985477,13.797118780355724,-4.536379,23.390549,33.55043,33.19652,-14.9208,-13.323395,-19.914944,-15.099702,-25.901909,52.577343,-24.568687,-6.745043,-4.3365264,4.357071,8.822261,8.665795,21.85615,-5.9597096,31.456451,25.572224,9.67814,13.187788,3.350212,-16.200806,20.267,35.34178,-33.861195,6.804089,-24.386547
111,-8.532275199890137,-10.595338821411133,77.10226440429688,-0.9234692790581762,0.8747702185757739,12.871839253435128,-4.2901278,23.703413,34.559227,33.19267,-14.839798,-13.464566,-19.650757,-16.266,-26.91226,53.4051,-25.058578,-7.5913997,-4.2138147,4.558266,8.641681,9.900081,21.846771,-5.695931,31.885395,26.130852,9.657279,13.476136,3.0270407,-15.969321,20.464836,35.013477,-33.738655,6.5769196,-24.378422
112,-8.481865882873535,-10.890707015991211,77.07665252685547,-0.8014867863554286,1.0512104725230746,11.960878159354365,-3.9945197,24.04002,35.4718,33.15655,-14.687315,-13.662071,-19.384773,-17.022522,-27.576252,53.895523,-25.30818,-8.110133,-4.061927,4.795387,8.45792,11.1389475,21.811106,-5.473854,32.39734,26.671618,9.66458,13.766085,2.7681975,-15.721667,20.662777,34.767254,-33.677795,6.393427,-24.419088
113,-8.416971206665039,-11.19961929321289,77.06254577636719,-0.7229352201349747,1.1822648661632156,11.063031936526935,-3.638352,24.413645,36.272316,33.067818,-14.448812,-13.928417,-19.14697,-17.274109,-27.788292,54.005726,-25.299122,-8.247258,-3.8692038,5.0892954,8.280787,12.372279,21.743488,-5.2974377,33.02772,27.208231,9.695533,14.087225,2.5878322,-15.457542,20.848751,34.605877,-33.695347,6.260226,-24.54004
114,-8.332350730895996,-11.530634880065918,77.05838012695312,-0.6803486524817007,1.2772080647983566,10.194953007459196,-3.2562432,24.832394,36.987118,32.973534,-14.12072,-14.241497,-18.912586,-17.139198,-27.689005,53.784138,-25.076876,-8.104971,-3.6543686,5.431836,8.110171,13.603966,21.643831,-5.159931,33.754684,27.774654,9.746252,14.454966,2.4805107,-15.177914,21.022072,34.50749,-33.764423,6.156708,-24.723452
115,-8.231207847595215,-11.875872611999512,77.0571060180664,-0.6491338613127017,1.3497176262926205,9.34483725092059,-2.8585048,25.26722,37.625767,32.887524,-13.734453,-14.587504,-18.670029,-16.73363,-27.400925,53.30155,-24.61028,-7.722523,-3.4309208,5.7892704,7.9231906,14.861715,21.52253,-5.0516505,34.50513,28.316177,9.830032,14.790853,2.4188209,-14.888658,21.215197,34.480675,-33.86591,6.0837407,-24.911203
116,-8.11960220336914,-12.243003845214844,77.0614242553711,-0.598914942064695,1.4173205858067761,8.505049421553863,-2.4556363,25.680225,38.202698,32.8166,-13.319601,-14.952011,-18.409723,-16.183968,-27.047983,52.631966,-23.87311,-7.1351366,-3.216392,6.119386,7.695453,16.175549,21.39451,-4.961335,35.20236,28.775555,9.957766,15.014257,2.3759787,-14.597804,21.46192,34.529915,-33.9784,6.041691,-25.045109
117,-7.995802879333496,-12.618056297302246,77.06632232666016,-0.470622879704871,1.5138115960386451,7.711428961919905,-2.0429835,25.947834,38.835407,32.631004,-12.855558,-15.000033,-18.217247,-15.504968,-26.511215,51.76383,-22.578304,-6.1678033,-3.042404,6.368248,7.3835416,17.558544,21.262854,-4.8828225,35.856346,29.144674,10.145536,15.101935,2.3536358,-14.309033,21.786362,34.679962,-34.096447,6.0390835,-25.123373
118,-7.855796813964844,-13.002751350402832,77.06139373779297,-0.3349264045507209,1.6001714021311326,6.928189963674018,-1.5934764,26.204098,39.48234,32.41404,-12.35497,-15.000033,-18.026888,-14.561604,-25.757254,50.628685,-20.842148,-4.863331,-2.8670187,6.6061716,7.0367284,19.000444,21.124428,-4.81856,36.488113,29.449162,10.379945,15.09516,2.3684115,-14.021139,22.167429,34.912277,-34.228004,6.072524,-25.1713
119,-7.709635257720947,-13.406176567077637,77.05303192138672,-0.18394869846361145,1.680302487809873,6.160842359843662,-1.2142124,26.455877,39.915142,32.297962,-11.810301,-15.000033,-17.766582,-13.550879,-25.034227,49.354908,-19.268486,-3.551021,-2.7008777,6.816062,6.6714845,20.493649,20.989521,-4.771044,37.04142,29.682573,10.626523,15.012222,2.4144762,-13.7350235,22.569567,35.167732,-34.37392,6.1239233,-25.17188
120,-7.553526878356934,-13.829671859741211,77.03194427490234,-0.007736740368404345,1.7570929593426758,5.416652353538493,-1.0139092,26.709538,39.906483,32.41392,-11.216527,-15.000033,-17.375286,-12.693436,-24.620033,48.086372,-18.438019,-2.5800748,-2.5538323,6.9767413,6.306824,22.028564,20.87549,-4.7458835,37.460445,29.83405,10.850482,14.870809,2.4885988,-13.451522,22.95478,35.38327,-34.533245,6.1743703,-25.107338
121,-7.397781848907471,-14.26562213897705,76.9925537109375,0.20961729358830028,1.8403977779549525,4.725077903169747,-1.0069053,26.92567,39.388386,32.70232,-10.53116,-15.000033,-16.793394,-12.096044,-24.73144,46.80728,-18.602001,-2.0428357,-2.452838,7.065897,5.9293375,23.624165,20.795746,-4.7349234,37.720207,29.864515,11.062722,14.637939,2.6121461,-13.166381,23.316065,35.542377,-34.722893,6.2279086,-24.940378
122,-7.234550952911377,-14.719586372375488,76.93080139160156,0.4619583943024925,1.9237113665069436,4.072485657121618,-1.1413156,27.12081,38.49024,33.13022,-9.773532,-15.000033,-16.073309,-11.631256,-25.1869,45.46031,-19.400219,-1.7560982,-2.3792017,7.091686,5.5390983,25.278671,20.750874,-4.740845,37.85115,29.786215,11.274696,14.315607,2.7865765,-12.87618,23.667404,35.672504,-34.93756,6.2899346,-24.690798
123,-7.072897434234619,-15.195326805114746,76.84487915039062,0.7249973525324975,1.9857896780491897,3.4030126488042667,-1.4266881,27.379377,37.274498,33.858753,-9.031085,-15.000033,-15.326787,-11.173497,-25.6791,44.13218,-20.487015,-1.6670203,-2.276089,7.0807385,5.174032,26.949287,20.737837,-4.7878075,37.884014,29.665419,11.452748,13.974683,2.9743965,-12.587587,24.002306,35.778904,-35.1451,6.3442526,-24.426182
124,-6.912909984588623,-15.685791969299316,76.73937225341797,0.9713607700205968,2.0085483012889567,2.662828983962206,-1.8755301,27.773323,35.789684,35.0291,-8.385508,-15.000033,-14.664452,-10.608044,-25.896627,42.91457,-21.523447,-1.7348232,-2.087802,7.066644,4.8699665,28.587961,20.752897,-4.9050627,37.854275,29.56802,11.562745,13.686065,3.1427321,-12.313439,24.313349,35.860638,-35.310745,6.3751817,-24.213669
125,-6.753818511962891,-16.200231552124023,76.61445617675781,1.22711393139926,1.9958358838648582,1.8642829801360594,-2.5061128,28.270073,33.99918,36.64581,-7.817583,-15.000033,-14.083956,-9.9421,-25.786177,41.782486,-22.530811,-2.022817,-1.8150758,7.0259643,4.611594,30.18689,20.807964,-5.1130266,37.756817,29.469065,11.584038,13.44036,3.3210642,-12.057739,24.591938,35.90054,-35.42674,6.3753834,-24.07051
126,-6.605157852172852,-16.724021911621094,76.47412109375,1.4915595731337443,1.9611392122852624,1.0298390819456629,-3.3179333,28.809702,31.867025,38.599064,-7.2766466,-15.000033,-13.537128,-9.221131,-25.496622,40.704174,-23.651361,-2.5370188,-1.4811321,6.9582357,4.384737,31.761604,20.908733,-5.399018,37.584248,29.344803,11.538576,13.208461,3.5218465,-11.820939,24.840755,35.893856,-35.509125,6.354201,-23.960041
127,-6.4668169021606445,-17.258941650390625,76.31269836425781,1.6942124198960613,1.9030936247496768,0.12309496410471214,-4.306463,29.407244,29.417118,40.84798,-6.790836,-15.000033,-13.0691185,-8.396394,-25.0238,39.77187,-24.732258,-3.1595976,-1.0684249,6.9400573,4.222994,33.298138,21.033337,-5.744004,37.369286,29.268066,11.455544,13.032909,3.6861145,-11.61466,25.072746,35.857605,-35.557846,6.3218317,-23.867538
128,-6.336148738861084,-17.788944244384766,76.13519287109375,1.7637237626318791,1.820465413402793,-0.8919891298329707,-5.4708,30.070076,26.66472,43.34809,-6.3811154,-15.000033,-12.722412,-7.41803,-24.37296,39.069782,-25.616533,-3.7669888,-0.566224,7.0564723,4.157984,34.78403,21.143515,-6.1263785,37.144814,29.317537,11.364617,12.958739,3.7529142,-11.4591,25.306925,35.80769,-35.57176,6.289219,-23.778242
129,-6.212545871734619,-18.31678581237793,75.9463882446289,1.6556266016905647,1.711018345188666,-2.042409941617108,-6.8466606,30.885874,23.686674,46.191803,-6.004551,-14.517602,-12.531707,-6.220505,-23.491472,38.63542,-26.249413,-4.3500004,0.03947389,7.385541,4.2007966,36.210438,21.199852,-6.533002,36.905437,29.572348,11.256964,13.006315,3.7391899,-11.390391,25.556475,35.698036,-35.52971,6.269162,-23.70093
130,-6.133505344390869,-18.824981689453125,75.76263427734375,1.6594566730789295,1.6697974857928934,-3.165815261639486,-8.515265,31.492033,20.779835,49.22594,-5.5869985,-12.43625,-12.678102,-5.2359715,-22.39933,38.693977,-26.8283,-4.892239,0.616351,7.637292,4.232677,37.57994,21.22771,-6.9698977,36.650143,29.979345,11.122339,13.1497755,3.648047,-11.371188,25.817398,35.561005,-35.442345,6.25286,-23.642387
131,-6.078804016113281,-19.314414978027344,75.5792007446289,1.7758942987664286,1.674352144512311,-4.255883428680519,-10.391613,31.720222,17.699537,52.271122,-5.183843,-10.115501,-13.046754,-4.46621,-21.229265,39.127563,-27.376638,-5.374411,1.143288,7.7825103,4.266119,38.896458,21.230677,-7.4627137,36.418404,30.422604,10.994165,13.37686,3.4394045,-11.396122,26.10195,35.457195,-35.33421,6.222679,-23.576077
132,-6.028209209442139,-19.791183471679688,75.40924835205078,1.895111463855524,1.6727368447960493,-5.357351132829003,-12.334327,31.523554,14.359133,55.194443,-4.873457,-7.9262505,-13.441254,-3.7524912,-20.116297,39.674076,-27.840687,-5.8033,1.6399195,7.936835,4.3649497,40.164967,21.170424,-8.023219,36.241283,30.808475,10.903801,13.675734,3.0948234,-11.511926,26.42071,35.396023,-35.226883,6.1531477,-23.462297
133,-5.9926533699035645,-20.246665954589844,75.24197387695312,2.0116039392639395,1.661554985184584,-6.484586289222504,-14.350466,30.816532,10.662013,58.08469,-4.641825,-5.7376933,-13.895444,-3.1082788,-19.073456,40.394196,-28.169586,-6.1380353,2.1051664,8.114498,4.552425,41.395813,20.99815,-8.576037,36.13477,31.197208,10.857595,14.085026,2.5960772,-11.739692,26.786366,35.37541,-35.08556,6.015858,-23.27477
134,-5.9585442543029785,-20.675626754760742,75.08109283447266,2.122265569086203,1.6414254910600845,-7.644649448106592,-16.402018,29.643545,6.726526,61.026302,-4.4242806,-3.5071855,-14.434653,-2.5034735,-18.046204,41.310207,-28.370607,-6.3909464,2.5386403,8.326847,4.8207793,42.59051,20.716503,-9.134539,36.079216,31.620316,10.843464,14.60104,1.9460759,-12.063524,27.209705,35.391125,-34.907997,5.8329873,-23.0388
135,-5.9279255867004395,-21.08393096923828,74.92143249511719,2.2561506314956037,1.6158381432003086,-8.797119789091244,-18.308548,28.001968,2.8236947,63.84776,-4.239761,-1.6817175,-14.969982,-1.9364734,-17.05453,42.265892,-28.5518,-6.6224365,2.882716,8.538695,5.1515527,43.763,20.354588,-9.799361,36.03353,31.964634,10.855565,15.140097,1.1538327,-12.469401,27.69576,35.438435,-34.77443,5.6493874,-22.782612
136,-5.892370223999023,-21.49510383605957,74.76238250732422,2.440595340269637,1.5893805272146158,-9.902368744759595,-19.914341,25.942263,-0.8125751,66.390305,-4.167725,-0.6898523,-15.413788,-1.4105572,-16.11211,43.111427,-28.823387,-6.9042273,3.093696,8.705525,5.5251307,44.929073,19.968061,-10.673221,35.953117,32.11018,10.88362,15.615891,0.23322923,-12.930797,28.238367,35.516144,-34.768272,5.507968,-22.535679
137,-5.848983287811279,-21.906169891357422,74.5968017578125,2.704595717211852,1.546227928218546,-10.92899652600586,-21.128538,23.249487,-4.3726726,68.596725,-4.351973,-0.8947134,-15.736601,-0.9718523,-15.233335,43.849277,-29.2557,-7.2704425,3.1456497,8.776405,5.9620876,46.115437,19.598387,-11.781021,35.85546,31.908772,10.936529,16.101425,-0.82494855,-13.426967,28.833462,35.662395,-34.923904,5.4192076,-22.291384
138,-5.806041240692139,-22.31694793701172,74.43379211425781,3.026533222825097,1.48540760625693,-11.91143925768268,-21.972694,20.015543,-7.870967,70.60102,-4.834919,-1.9895642,-15.983289,-0.6025216,-14.39679,44.54699,-29.775955,-7.685482,3.0954027,8.77187,6.4652543,47.32019,19.25824,-13.073727,35.74433,31.449629,11.0090065,16.607918,-2.0186663,-13.950112,29.468197,35.871044,-35.19719,5.3580294,-22.040844
139,-5.764074802398682,-22.726953506469727,74.2778091430664,3.3519440982649162,1.4386923988414735,-12.905495720303163,-22.585575,16.808777,-10.895179,72.506836,-5.5252132,-3.3481045,-16.181288,-0.21227288,-13.564401,45.155476,-30.281174,-8.123713,3.0227387,8.756071,6.981009,48.507214,18.964031,-14.545188,35.565693,30.96997,11.0722885,16.955236,-3.3130565,-14.492791,30.12063,36.075134,-35.557648,5.313315,-21.809628
140,-5.720717906951904,-23.14828109741211,74.12754821777344,3.626623385354322,1.443437056493116,-13.958706797760632,-23.210432,14.183842,-13.087757,74.38752,-6.224932,-4.337227,-16.366444,0.28148744,-12.705876,45.630104,-30.671198,-8.556057,3.0047798,8.792821,7.448445,49.62725,18.733692,-16.194975,35.270374,30.705175,11.103206,16.959822,-4.674847,-15.050067,30.76494,36.20927,-35.973907,5.2740483,-21.623165
141,-5.673513412475586,-23.566757202148438,73.99752807617188,3.8160854348647706,1.5222100368696696,-15.063494039088312,-24.03314,12.379707,-14.335771,76.28134,-6.8300443,-4.785934,-16.560266,0.9103537,-11.840445,45.957542,-30.931692,-8.987277,3.0345128,8.919495,7.839791,50.645157,18.59165,-18.136469,34.862537,30.6463,11.129738,16.516745,-6.1258492,-15.620402,31.418861,36.283558,-36.539337,5.253972,-21.485607
142,-5.616053581237793,-23.997039794921875,73.89148712158203,3.9498802394425505,1.6552162147720952,-16.19610825289925,-25.009443,11.122425,-14.907455,78.123764,-7.423146,-4.979244,-16.745462,1.6227059,-10.979867,46.165367,-31.113983,-9.430573,3.0934494,9.095601,8.180535,51.577076,18.547024,-20.341457,34.371925,30.684711,11.154084,15.738471,-7.6639457,-16.203094,32.07688,36.31788,-37.23786,5.2521663,-21.38362
143,-5.548101425170898,-24.4252872467041,73.8130111694336,4.071835105318289,1.819493864272613,-17.376495636319373,-26.052845,10.169366,-15.027138,79.81372,-8.028378,-4.984935,-16.896852,2.3715837,-10.084559,46.264553,-31.214493,-9.866014,3.22984,9.268073,8.490004,52.456734,18.582417,-22.593334,33.777256,30.90845,11.112384,14.76723,-9.215064,-16.792446,32.68221,36.259663,-37.875286,5.237449,-21.317945
144,-5.473874568939209,-24.85824203491211,73.7655258178711,4.226795317004937,1.9924889597997588,-18.62597731365135,-27.056305,9.263219,-14.906855,81.25082,-8.673991,-4.888234,-16.988556,3.1108384,-9.11396,46.269028,-31.230175,-10.27392,3.4789543,9.383303,8.79071,53.33632,18.664993,-24.664772,33.046284,31.409983,10.9372835,13.747823,-10.721261,-17.380098,33.1908,36.073,-38.258507,5.179934,-21.290485
145,-5.388687610626221,-25.30321502685547,73.75007629394531,4.416921346255773,2.1673800306163007,-19.971207930100867,-28.016787,8.457727,-14.482179,82.442665,-9.397427,-4.6299095,-17.012356,3.845946,-8.04211,46.18567,-31.157549,-10.650587,3.8454368,9.445118,9.097367,54.23884,18.770355,-26.534357,32.14713,32.385384,10.537072,12.594151,-12.218144,-17.962341,33.618233,35.779926,-38.29085,5.047328,-21.301277
146,-5.298644065856934,-25.749710083007812,73.76130676269531,4.619619006699651,2.3585504688908543,-21.39427511521705,-28.986204,7.863641,-13.6944475,83.425705,-10.173042,-4.1889844,-16.97864,4.5927863,-6.8935146,46.008495,-30.999666,-11.007295,4.2943015,9.478819,9.395852,55.136482,18.892818,-28.29948,31.111612,33.72633,9.950558,11.283466,-13.739055,-18.535755,34.00109,35.41105,-38.090115,4.8648176,-21.349482
147,-5.1901445388793945,-26.210668563842773,73.79829406738281,4.84298483455056,2.575727273549246,-22.850592689518056,-29.93475,7.294244,-12.747663,84.14104,-10.930331,-3.7151208,-16.888859,5.3213124,-5.70139,45.730858,-30.763174,-11.347007,4.7999115,9.462249,9.667815,56.017918,19.027039,-29.908928,29.991728,35.07514,9.321564,10.050946,-15.2249565,-19.089668,34.32286,34.948975,-37.786045,4.689613,-21.437344
148,-5.075427055358887,-26.683637619018555,73.86793518066406,5.094569734789781,2.8282567323840255,-24.295231843540112,-30.840174,6.5588965,-11.838909,84.52647,-11.595287,-3.356327,-16.746975,6.0016255,-4.4989667,45.347324,-30.455736,-11.674069,5.336573,9.371678,9.895239,56.878498,19.166903,-31.30994,28.8333,36.086727,8.818641,9.116337,-16.619373,-19.60819,34.562492,34.38519,-37.50931,4.5785685,-21.570122
149,-4.937324523925781,-27.188634872436523,73.96772766113281,5.3833874026085615,3.1273285971530886,-25.730155178135448,-31.72411,5.6564307,-10.931429,84.57709,-12.184968,-3.0891688,-16.565405,6.6169586,-3.282375,44.8668,-30.093128,-11.993509,5.904821,9.187781,10.070993,57.753296,19.304373,-32.48007,27.589243,36.70111,8.494296,8.541492,-17.946,-20.081816,34.716484,33.738182,-37.25629,4.5475082,-21.76191
150,-4.797691345214844,-27.714866638183594,74.09468078613281,5.6996572604289515,3.4670088954177953,-27.175064427756826,-32.592754,4.675416,-9.94908,84.31323,-12.723898,-2.856205,-16.339233,7.1826105,-2.033795,44.295063,-29.669893,-12.305836,6.510839,8.925451,10.207511,58.643818,19.433426,-33.447296,26.248013,37.10096,8.271865,8.199688,-19.233257,-20.506443,34.79703,33.028408,-36.97237,4.5656314,-22.00867
151,-4.657647609710693,-28.254959106445312,74.25044250488281,6.021586635252063,3.830864875316431,-28.61165753169941,-33.413788,3.5553787,-9.0361,83.71452,-13.136124,-2.7592058,-16.04388,7.7158065,-0.7696033,43.61231,-29.158463,-12.605185,7.1351023,8.61091,10.315571,59.49389,19.552307,-34.233086,24.90789,37.310642,8.137283,8.020385,-20.442856,-20.876421,34.807323,32.255596,-36.7133,4.624,-22.2881
152,-4.504513740539551,-28.82142448425293,74.43183898925781,6.327532618910969,4.201087196883845,-30.021921531038103,-34.155872,2.2394948,-8.337771,82.76232,-13.348687,-2.892494,-15.657843,8.235087,0.4936694,42.802315,-28.533857,-12.885979,7.759648,8.271965,10.404295,60.245,19.662409,-34.859425,23.667475,37.352413,8.074097,7.933772,-21.531218,-21.184982,34.747364,31.415993,-36.535183,4.714432,-22.578035
153,-4.347127437591553,-29.418954849243164,74.63813018798828,6.6117887284089125,4.570236522849348,-31.403081804579863,-34.814224,0.64187175,-7.9388146,81.43553,-13.322452,-3.286942,-15.156375,8.750782,1.771325,41.823757,-27.790655,-13.144727,8.383093,7.9124913,10.480876,60.905415,19.7634,-35.32417,22.50645,37.16381,8.122619,7.9808273,-22.50758,-21.426956,34.600857,30.51212,-36.478962,4.853385,-22.897057
154,-4.179620265960693,-30.038616180419922,74.86862182617188,6.881739620916135,4.94751159925672,-32.7660929436888,-35.40562,-1.1632504,-7.766611,79.7432,-13.111392,-3.8766696,-14.560648,9.249953,3.0667918,40.703247,-26.945883,-13.387581,9.01357,7.521127,10.5389,61.504223,19.852043,-35.618553,21.38186,36.753586,8.275271,8.179674,-23.398636,-21.601616,34.37306,29.559715,-36.50568,5.040361,-23.249834
155,-4.006449222564697,-30.67893409729004,75.11363983154297,7.135582151100572,5.3398545711544365,-34.11316625460582,-35.920628,-2.994203,-7.72936,77.70215,-12.785753,-4.610365,-13.915074,9.717562,4.3439827,39.513313,-26.002476,-13.6196575,9.646892,7.1020226,10.566079,62.016388,19.92524,-35.75488,20.351053,36.25115,8.447308,8.423539,-24.17569,-21.71056,34.091705,28.563833,-36.55758,5.2419963,-23.592285
156,-3.8219597339630127,-31.35145378112793,75.37583923339844,7.373471996289276,5.754408240013904,-35.44606950290643,-36.34774,-4.68035,-7.7264524,75.32974,-12.407786,-5.441136,-13.267387,10.14058,5.5637236,38.328526,-24.965569,-13.843005,10.266903,6.658484,10.549159,62.411835,19.961441,-35.744904,19.487885,35.78831,8.55475,8.605967,-24.82398,-21.744297,33.799862,27.543839,-36.57397,5.4259152,-23.883623
157,-3.6447384357452393,-32.04307174682617,75.64840698242188,7.60445691515554,6.198052461445894,-36.76751077205837,-36.665398,-6.2870717,-7.8098845,72.55547,-11.971839,-6.460367,-12.606416,10.511749,6.7498198,37.106907,-23.83416,-14.074539,10.902458,6.1835923,10.487417,62.681496,19.981453,-35.573795,18.791462,35.3449,8.554664,8.706162,-25.296417,-21.734423,33.451313,26.445984,-36.501156,5.576836,-24.105772
158,-3.4559340476989746,-32.75986862182617,75.92338562011719,7.821242956696307,6.665129418865102,-38.0770722468982,-36.8651,-7.8547444,-8.024112,69.37911,-11.454489,-7.646609,-11.921055,10.847222,7.9072924,35.8317,-22.60969,-14.30648,11.554756,5.669153,10.389347,62.845406,19.992657,-35.226818,18.224438,34.87438,8.496341,8.773362,-25.612612,-21.65868,33.020832,25.281878,-36.39587,5.709731,-24.279194
159,-3.2604308128356934,-33.5047492980957,76.2000732421875,8.001082384956725,7.143869173980165,-39.36959482801652,-36.95691,-9.203098,-8.236543,65.92138,-10.872335,-8.800006,-11.255784,11.166625,8.965261,34.6049,-21.29654,-14.497588,12.182346,5.149484,10.256007,62.89333,19.973238,-34.77474,17.807652,34.447575,8.445023,8.817728,-25.815388,-21.526667,32.598423,24.094646,-36.328823,5.8494864,-24.427435
160,-3.0761513710021973,-34.264251708984375,76.4679946899414,8.129444593778977,7.621224473078848,-40.63942093158643,-36.95208,-10.179341,-8.293459,62.29787,-10.22822,-9.73834,-10.647563,11.483704,9.860248,33.518463,-19.892801,-14.60744,12.763885,4.6360445,10.095463,62.807014,19.917427,-34.26588,17.55949,34.14701,8.463508,8.842734,-25.915913,-21.344751,32.220512,22.897364,-36.391483,6.00955,-24.559956
161,-2.8904247283935547,-35.046878814697266,76.72257232666016,8.215457233732137,8.114276006714078,-41.87313666827735,-36.871716,-10.747324,-8.099958,58.460953,-9.488694,-10.396664,-10.128624,11.820074,10.652623,32.579926,-18.363926,-14.752299,13.2996645,4.115848,9.888736,62.5711,19.817038,-33.682285,17.50184,34.03233,8.56766,8.8066635,-25.909887,-21.120207,31.886438,21.657269,-36.66012,6.2164946,-24.661318
162,-2.716203212738037,-35.84602737426758,76.96790313720703,8.263619709409864,8.619508086821051,-43.080383537730086,-36.6772,-11.032372,-7.7308493,54.34704,-8.637377,-10.911709,-9.666625,12.164461,11.35003,31.737026,-16.71624,-14.908596,13.799743,3.5866537,9.642627,62.186916,19.66749,-33.00724,17.634377,34.051163,8.724268,8.72184,-25.781872,-20.855524,31.573715,20.361042,-37.071056,6.4545636,-24.728415
163,-2.5305283069610596,-36.66606140136719,77.19842529296875,8.25738564078996,9.091103727900006,-44.29032491795507,-36.29531,-11.133765,-7.2818537,50.041428,-7.694451,-11.407543,-9.1873255,12.478858,11.826123,30.966427,-15.004277,-14.824484,14.251706,3.0760446,9.400361,61.670315,19.471704,-32.29333,17.935139,34.114285,8.92201,8.676434,-25.546108,-20.551287,31.305054,19.070988,-37.499268,6.676154,-24.792725
164,-2.349944591522217,-37.4931526184082,77.40109252929688,8.181350412565928,9.482197259060548,-45.532701934491364,-35.662033,-11.131995,-6.859755,45.629566,-6.6824694,-11.993919,-8.61338,12.732315,11.96922,30.240658,-13.276901,-14.248998,14.646145,2.612763,9.204171,61.039555,19.237589,-31.592789,18.380072,34.130043,9.148597,8.760071,-25.208761,-20.205118,31.100319,17.845123,-37.820885,6.834408,-24.888254
165,-2.168830633163452,-38.32215118408203,77.57530975341797,8.02707143189295,9.786648234594512,-46.80852802460347,-34.716984,-10.989039,-6.446705,40.935894,-5.542662,-12.744644,-7.9233894,12.940248,11.706918,29.514145,-11.499715,-13.154596,14.989561,2.2111428,9.0574665,60.27552,18.9694,-30.914732,18.988342,34.047295,9.419895,9.02648,-24.76239,-19.812845,30.954586,16.66871,-38.057674,6.914396,-25.034266
166,-1.986636757850647,-39.161659240722656,77.71470642089844,7.789819395295425,10.017362725394285,-48.115971730968845,-33.47427,-10.683809,-6.0023537,35.917595,-4.246884,-13.603136,-7.1302323,13.155775,11.1460495,28.777266,-9.649797,-11.664208,15.294725,1.8723861,8.939656,59.385235,18.669172,-30.229002,19.756535,33.92194,9.735599,9.419071,-24.206163,-19.374365,30.862349,15.522704,-38.25773,6.942204,-25.21018
167,-1.8032220602035522,-40.020809173583984,77.81298828125,7.463097061331362,10.158423476534026,-49.47688578497248,-32.023933,-10.29097,-5.607371,30.918755,-2.8905187,-14.45784,-6.207164,13.404565,10.445419,28.050184,-7.785599,-9.753574,15.560513,1.6027704,8.852933,58.43297,18.345247,-29.526995,20.614962,33.823406,10.062117,9.859791,-23.564432,-18.897043,30.84611,14.466358,-38.3396,6.9311023,-25.390095
168,-1.6111632585525513,-40.88203811645508,77.8703842163086,7.076899746161329,10.192375350419079,-50.90435014580237,-30.476057,-9.897951,-5.293463,26.317312,-1.5933976,-15.000033,-5.16241,13.67004,9.7602625,27.437033,-6.0085607,-7.393075,15.781049,1.3777139,8.808376,57.481674,18.010256,-28.803339,21.491915,33.820976,10.367032,10.269446,-22.85772,-18.393614,30.925354,13.554994,-38.219433,6.8937707,-25.548187
169,-1.4055172204971313,-41.731956481933594,77.88567352294922,6.629571132698155,10.090367694699218,-52.41810476342151,-28.711205,-9.481351,-4.9749355,21.920101,-0.30372432,-15.000033,-3.9560902,13.948684,9.075849,26.957968,-4.344323,-4.431803,15.981344,1.206987,8.825409,56.54163,17.673122,-28.051065,22.389915,33.94362,10.641527,10.644741,-22.05147,-17.870384,31.10978,12.768751,-37.757984,6.808726,-25.697124
170,-1.1979308128356934,-42.57527160644531,77.84963989257812,6.061879604555382,9.880652113144752,-54.00366986101149,-26.79937,-8.940496,-4.7590594,17.728323,0.960545,-15.000033,-2.6280246,14.336913,8.31812,26.574392,-2.7233057,-0.9592072,16.165548,1.1435133,8.861935,55.58554,17.3393,-27.274633,23.330393,34.14975,10.903955,11.021122,-21.137934,-17.331137,31.386005,12.0790205,-37.037693,6.675815,-25.842842
171,-0.996811032295227,-43.42464828491211,77.76061248779297,5.460487870458514,9.633436383903037,-55.58842035108816,-25.13938,-8.375325,-4.7436376,14.416345,1.9579549,-15.000033,-1.4040662,14.783867,7.533187,26.532536,-1.241818,2.7296026,16.26847,1.098278,8.872493,54.611336,17.01652,-26.489746,24.27371,34.401157,11.16439,11.374812,-20.167274,-16.788101,31.728317,11.518769,-36.310886,6.540313,-25.95189
172,-0.8249168395996094,-44.282798767089844,77.63562774658203,4.968283196812308,9.433999337408606,-57.08112000542903,-24.201298,-7.938602,-4.990705,12.791975,2.3776417,-15.000033,-0.5495732,15.152793,6.7404265,27.136381,-0.027931811,6.356431,16.209623,0.9234233,8.8207445,53.60022,16.714735,-25.712881,25.193583,34.658695,11.430365,11.68185,-19.188564,-16.256927,32.10502,11.116092,-35.826504,6.4486833,-25.994188
173,-0.6698508262634277,-45.16345977783203,77.48165893554688,4.750338030008022,9.31770191465025,-58.42288962012921,-24.276321,-7.9075675,-5.672214,13.378825,2.2079344,-14.174525,-0.16311026,15.258943,5.918614,28.56943,0.9327899,10.273689,15.933007,0.45354775,8.710829,52.540688,16.442078,-24.941935,26.094957,34.93305,11.711312,11.915716,-18.173803,-15.743899,32.520462,10.852757,-35.65065,6.4215302,-25.945127
174,-0.4875355362892151,-46.006961822509766,77.31031799316406,4.926126180314282,9.150858941909792,-59.65571478079399,-24.760773,-8.520103,-6.2668185,15.235578,1.8449384,-10.361423,-0.18588832,14.916353,5.065293,31.126923,1.4062406,14.55126,15.473938,-0.36317033,8.686359,51.45971,16.20137,-24.18424,26.973568,35.237064,12.001835,12.097163,-17.10112,-15.255923,32.983707,10.715288,-35.647015,6.431087,-25.824123
175,-0.34313589334487915,-46.80635070800781,77.15023040771484,4.902938400379516,8.94999140487398,-60.8841328564918,-25.786493,-8.913338,-6.7487674,18.661224,0.6786133,-6.501345,-0.34499466,14.602809,3.260478,33.962803,1.7583379,15.000033,14.943591,-1.0038835,8.613429,50.36249,16.003405,-23.444695,27.804882,35.534462,12.282909,12.268126,-16.031633,-14.80113,33.46249,10.720882,-35.757854,6.4541483,-25.674006
176,-0.19363878667354584,-47.611228942871094,76.90840148925781,4.692390357948426,8.674024596547117,-62.19335498080204,-26.600744,-8.884856,-6.69607,22.208649,-1.1094038,-3.6844997,-0.6915328,14.259052,1.4982262,37.25423,1.6345537,15.000033,14.441091,-1.4172163,8.551151,49.26521,15.854347,-22.75919,28.562227,35.784046,12.538454,12.474767,-15.00788,-14.402226,33.91718,10.888766,-35.93027,6.465095,-25.53399
177,-0.017597578465938568,-48.40956497192383,76.59269714355469,4.429582592880741,8.28098748089655,-63.5885253930404,-26.98395,-8.401584,-5.8483014,25.668892,-3.773544,-2.2004285,-1.2319463,13.782712,0.1019447,41.243073,0.7300308,15.000033,13.960111,-1.7113446,8.55241,48.188587,15.759459,-22.150707,29.22124,35.94109,12.7561655,12.695682,-14.025284,-14.085122,34.373444,11.198667,-36.2185,6.470127,-25.372038
178,0.17779089510440826,-49.17243576049805,76.24502563476562,4.200508527210586,7.7835007909060865,-65.0199777224768,-27.13347,-7.5986814,-4.5029726,29.354673,-7.160756,-1.429931,-1.878905,13.13779,-0.9518246,45.75906,-0.7768629,15.000033,13.465551,-1.9780419,8.62576,47.11511,15.721724,-21.610342,29.794632,36.03596,12.94674,12.917157,-13.040313,-13.859876,34.82671,11.612385,-36.622005,6.478903,-25.181385
179,0.38496872782707214,-49.89445495605469,75.87985229492188,4.0496696215655,7.228192703953017,-66.41060524909753,-27.066866,-6.6570625,-3.066981,32.870003,-10.617605,-1.093372,-2.5559855,12.355579,-1.6870672,50.377743,-2.5867252,15.000033,12.940459,-2.2683055,8.784909,45.97529,15.742193,-21.116018,30.334908,36.138596,13.127837,13.195724,-12.038703,-13.722825,35.18914,12.115371,-37.00561,6.4722276,-25.042614
180,0.5899652242660522,-50.591285705566406,75.52883911132812,3.9934730438745354,6.67084320730819,-67.69379062578965,-26.806753,-5.840232,-1.9126076,35.813442,-13.478923,-0.9051731,-3.2322721,11.468254,-2.1767738,54.739887,-4.4147925,15.000033,12.373919,-2.6129644,9.0304365,44.701984,15.822436,-20.645697,30.894054,36.31887,13.318371,13.58812,-11.009295,-13.661009,35.373726,12.701513,-37.23688,6.4311886,-25.035465
181,0.7757058143615723,-51.28311538696289,75.20342254638672,4.088400449648962,6.105720325357525,-68.85120042114926,-26.345442,-5.32928,-1.0534573,38.09631,-15.5180235,-0.9175145,-3.9542427,10.485598,-2.284899,58.93628,-6.345917,15.000033,11.747154,-3.0781553,9.405138,43.214127,15.975782,-20.239172,31.56668,36.551502,13.489616,14.182787,-9.947323,-13.663059,35.333508,13.385654,-37.384132,6.3199487,-25.206018
182,0.9614487886428833,-52.00480651855469,74.89312744140625,4.327847297220973,5.524015962914556,-69.91212230320961,-25.710875,-5.0380774,-0.2411768,39.97963,-17.112463,-1.2306083,-4.744422,9.411071,-2.0048344,63.114033,-8.495078,15.000033,11.073485,-3.6617312,9.884299,41.56856,16.20858,-19.900719,32.290035,36.80881,13.644416,14.923326,-8.855054,-13.726438,35.113556,14.166753,-37.48669,6.1587377,-25.503832
183,1.1081254482269287,-52.744300842285156,74.59624481201172,4.4320481316169165,4.982135428154035,-70.92969863459146,-25.05294,-4.6443653,0.4484059,41.75714,-18.612278,-1.684599,-5.5453506,8.324553,-1.9162251,66.94478,-10.542159,14.3061075,10.421101,-4.1026263,10.330548,39.907463,16.502274,-19.548513,32.887928,37.159306,13.849946,15.650164,-7.7351203,-13.848958,34.773746,15.016886,-37.369892,6.0116777,-25.862066
184,1.2376441955566406,-53.50861358642578,74.31295776367188,4.350655903149904,4.51472954633353,-71.89634606602179,-24.375235,-4.0660357,1.0225284,43.41504,-20.195446,-2.054724,-6.322834,7.084811,-2.4384031,70.27952,-12.323059,12.444675,9.786798,-4.346883,10.667692,38.36278,16.820763,-19.093405,33.206654,37.67749,14.173693,16.203945,-6.604136,-14.029029,34.383736,15.922164,-36.856987,5.940252,-26.214226
185,1.3804289102554321,-54.296512603759766,74.05512237548828,4.1520629560489315,4.110788590656368,-72.79784980219169,-23.591768,-3.3758705,1.5411786,44.808834,-21.857666,-2.243546,-7.063112,5.6550536,-3.3084843,73.1887,-13.878091,10.693903,9.14511,-4.4345126,10.907267,36.935364,17.125507,-18.475664,33.261936,38.52334,14.710719,16.497004,-5.460344,-14.264029,33.93769,16.969664,-35.70883,5.926104,-26.58308
186,1.5387663841247559,-55.0892219543457,73.83171081542969,3.8795237851980793,3.751931040393551,-73.62866009607404,-22.703804,-2.6393726,2.00271,45.933285,-23.487232,-2.3715353,-7.788652,4.0581856,-4.3844666,75.78445,-15.331641,8.930846,8.467303,-4.4083233,11.09082,35.544567,17.404247,-17.745869,33.15884,39.62562,15.398886,16.62385,-4.3122916,-14.550701,33.423885,18.15499,-34.08212,5.939657,-26.992048
187,1.690812349319458,-55.88123321533203,73.6414566040039,3.5821323258899453,3.4561552173336763,-74.3628079232448,-21.778929,-1.9275113,2.384705,46.820133,-25.004515,-2.4788983,-8.536839,2.4151664,-5.5071282,78.0516,-16.699865,7.2222757,7.7229977,-4.324891,11.208523,34.20162,17.667576,-16.9808,32.87543,40.708416,16.069132,16.704958,-3.1888719,-14.887271,32.89847,19.324633,-32.393276,6.0306296,-27.378765
188,1.8518116474151611,-56.670005798339844,73.4805679321289,3.307937801434809,3.244453934457259,-74.97537294843337,-20.886114,-1.3080895,2.6626914,47.49947,-26.32886,-2.6053536,-9.359112,0.8587535,-6.5268087,79.96574,-17.979826,5.642448,6.8888,-4.2442236,11.249812,32.92894,17.940413,-16.25758,32.37242,41.487026,16.554743,16.870787,-2.1154137,-15.271968,32.412903,20.32058,-31.057781,6.258274,-27.683308
189,1.9983543157577515,-57.46516036987305,73.34947204589844,3.069480035905325,3.1426770145705873,-75.43204832543103,-20.076504,-0.81878674,2.8030424,47.983814,-27.443125,-2.7509525,-10.310191,-0.6492956,-7.496525,81.545074,-19.136374,4.177381,5.9269257,-4.1863036,11.186332,31.736258,18.239836,-15.576705,31.608677,41.839043,16.819801,17.191713,-1.1174603,-15.702272,31.975279,21.138807,-30.08933,6.742662,-27.882633
190,2.136625289916992,-58.27137756347656,73.25408172607422,2.8385847080452176,3.1354686201250503,-75.75619746053391,-19.311718,-0.41162047,2.8240473,48.26133,-28.390665,-2.8984113,-11.353451,-2.145392,-8.491228,82.79686,-20.172586,2.8068795,4.8701982,-4.1173882,11.032094,30.616507,18.568348,-14.906967,30.602161,41.924736,16.947962,17.588974,-0.16752209,-16.17557,31.548185,21.847847,-29.296934,7.4232516,-28.017828
191,2.2563316822052,-59.096622467041016,73.1949462890625,2.60062075530929,3.183240122864553,-76.01071550692055,-18.532896,-0.024355255,2.7809474,48.339153,-29.189081,-3.0615225,-12.430737,-3.4844081,-9.401517,83.6903,-21.115217,1.6005769,3.804519,-4.016574,10.839988,29.571518,18.932283,-14.279675,29.393755,41.879887,16.954954,17.975254,0.79754835,-16.688604,31.11162,22.389149,-28.790478,8.094034,-28.117025
192,2.371758460998535,-59.92736053466797,73.18147277832031,2.3409658454920668,3.245770954831655,-76.25857837015752,-17.67765,0.4036492,2.732027,48.21962,-29.853468,-3.2534864,-13.4913845,-4.517271,-10.118888,84.1863,-21.98524,0.6299859,2.8180835,-3.8666954,10.664815,28.60572,19.340614,-13.728507,28.021517,41.83971,16.857304,18.262493,1.8416731,-17.240622,30.642244,22.70155,-28.682251,8.54778,-28.200893
193,2.469531297683716,-60.775543212890625,73.20745086669922,2.0577505555694784,3.3140465771455174,-76.50567981749597,-16.72865,0.8889425,2.7053688,47.89543,-30.387886,-3.466166,-14.555899,-5.1740932,-10.596912,84.243866,-22.795427,-0.058889266,1.9237654,-3.666039,10.528999,27.719505,19.810335,-13.265331,26.444956,41.822624,16.6,18.418756,2.9829016,-17.841265,30.09747,22.731499,-29.202085,8.690824,-28.248026
194,2.5513901710510254,-61.64653396606445,73.2746353149414,1.757932808330144,3.409023254524419,-76.72238101825542,-15.720555,1.3990791,2.6689491,47.371212,-30.785929,-3.6958723,-15.652332,-5.543416,-10.917353,83.89094,-23.513393,-0.51313776,1.0909202,-3.4256063,10.407113,26.917078,20.34715,-12.879703,24.648006,41.755493,16.191444,18.491749,4.209463,-18.495152,29.48194,22.499172,-30.225891,8.6469755,-28.249275
195,2.6206655502319336,-62.534912109375,73.37254333496094,1.4406015381796824,3.534951147320106,-76.91740652276617,-14.665016,1.9191351,2.5910747,46.660053,-31.04423,-3.9604533,-16.743162,-5.713998,-11.158977,83.19244,-24.090681,-0.79991984,0.33302978,-3.147752,10.281089,26.21586,20.93304,-12.565333,22.694271,41.64015,15.751752,18.509243,5.5287075,-19.187267,28.852066,22.067015,-31.335905,8.534924,-28.244816
196,2.680616617202759,-63.445735931396484,73.50819396972656,1.1050056097606915,3.695793994949148,-77.09997243797486,-13.575641,2.4373655,2.439949,45.779903,-31.16189,-4.2789054,-17.788013,-5.77484,-11.399867,82.21488,-24.485033,-0.9864813,-0.3489374,-2.83359,10.12726,25.630146,21.534029,-12.304215,20.661058,41.483406,15.400679,18.505379,6.9205785,-19.888872,28.278845,21.530008,-32.117672,8.474498,-28.272705
197,2.736410617828369,-64.38008880615234,73.67498016357422,0.7384769114494334,3.894650953694425,-77.27578024211147,-12.431929,2.9567604,2.1803539,44.68222,-31.152222,-4.669599,-18.780716,-5.7317014,-11.666549,80.940414,-24.663158,-1.0828701,-0.96310323,-2.4688065,9.93287,25.176779,22.127161,-12.07006,18.513107,41.304405,15.178563,18.458303,8.352435,-20.58139,27.801962,20.933298,-32.465622,8.494839,-28.36337
198,2.784635305404663,-65.33164978027344,73.86906433105469,0.34583543062831734,4.128160002754754,-77.43902247327945,-11.235687,3.485258,1.8377407,43.37756,-31.01363,-5.116065,-19.73491,-5.5506983,-11.917723,79.34046,-24.656649,-1.0607752,-1.5282173,-2.0578926,9.707769,24.854198,22.707928,-11.855618,16.23223,41.104465,15.021206,18.364649,9.8021755,-21.260145,27.396416,20.268463,-32.605362,8.534139,-28.493273
199,2.8212461471557617,-66.3017578125,74.07974243164062,-0.04864906122971529,4.391323886012445,-77.5814816899668,-10.033007,4.0161996,1.4678767,41.9691,-30.721104,-5.5851984,-20.6424,-5.2588477,-12.125484,77.46775,-24.51972,-0.92745703,-2.0614653,-1.6301442,9.459747,24.646883,23.268484,-11.670164,13.92513,40.863857,14.892747,18.287445,11.254429,-21.914192,27.043892,19.565195,-32.61921,8.576402,-28.618147
200,2.857795476913452,-67.29740905761719,74.30963134765625,-0.4206661725264017,4.679358301596856,-77.69456911622127,-8.869532,4.5393753,1.1251957,40.558643,-30.247705,-6.0454364,-21.49497,-4.88443,-12.259989,75.37402,-24.30696,-0.692383,-2.5822906,-1.2145044,9.193976,24.535303,23.798721,-11.523809,11.705172,40.563217,14.756883,18.290403,12.689995,-22.526659,26.73133,18.859396,-32.589596,8.605794,-28.693213
201,2.8844189643859863,-68.29557800292969,74.54867553710938,-0.76460804198098,5.000566230216925,-77.7726620026421,-7.7344427,5.0479236,0.8207078,39.108818,-29.572815,-6.485043,-22.301739,-4.4227657,-12.295887,73.04223,-24.022522,-0.336311,-3.1060004,-0.8190637,8.896432,24.526007,24.295504,-11.4185915,9.565985,40.179604,14.621271,18.415457,14.091428,-23.085844,26.480324,18.18288,-32.46644,8.631455,-28.720459
202,2.9090778827667236,-69.31777954101562,74.80127716064453,-1.0909310936354029,5.354381415497122,-77.82127726420076,-6.610088,5.5435863,0.5218448,37.58634,-28.71495,-6.921652,-23.055994,-3.8771844,-12.243428,70.4495,-23.645823,0.12672514,-3.623962,-0.43305445,8.566201,24.629993,24.760212,-11.340242,7.4600673,39.73418,14.499159,18.621466,15.450529,-23.590397,26.300896,17.536432,-32.235638,8.657786,-28.721172
203,2.911329984664917,-70.34864807128906,75.05783081054688,-1.3988484945532973,5.723187893192761,-77.84789541669439,-5.5326047,6.026652,0.2157474,36.101265,-27.707842,-7.367737,-23.726257,-3.2870195,-12.124766,67.63582,-23.191425,0.63988656,-4.1198287,-0.05828587,8.227127,24.8284,25.18868,-11.276196,5.4448724,39.275402,14.36191,18.847033,16.758478,-24.03998,26.165766,16.91158,-32.033,8.662123,-28.679115
204,2.909672975540161,-71.38882446289062,75.32078552246094,-1.687598761733778,6.089351358476546,-77.86019971927503,-4.5380764,6.49752,-0.11103746,34.763363,-26.585575,-7.835706,-24.284252,-2.6872633,-11.96577,64.64009,-22.670729,1.1474736,-4.5759697,0.30448228,7.901929,25.0943,25.573563,-11.219823,3.5870876,38.852364,14.182384,19.030888,18.006891,-24.435434,26.046757,16.3011,-31.994429,8.621428,-28.577003
205,2.8936142921447754,-72.44036865234375,75.58454132080078,-1.9535551687158097,6.458971510710565,-77.8442657162555,-3.6305716,6.9584565,-0.45027572,33.56183,-25.311674,-8.351915,-24.733456,-2.0256805,-11.706815,61.390934,-22.082493,1.687582,-5.000825,0.6534897,7.5883484,25.4205,25.911945,-11.164689,1.8813303,38.47388,13.923776,19.156532,19.215872,-24.775211,25.945415,15.688633,-32.164314,8.517076,-28.415972
206,2.869373321533203,-73.50373077392578,75.84391021728516,-2.195391387425093,6.837676755882665,-77.80039008013901,-2.790039,7.402609,-0.80703574,32.448635,-23.882914,-8.90185,-25.074131,-1.3210928,-11.34266,57.88323,-21.422264,2.2578964,-5.4008727,0.9864693,7.2756357,25.81294,26.204212,-11.1183405,0.30810517,38.118584,13.610373,19.25568,20.375078,-25.060255,25.880869,15.089958,-32.468178,8.364504,-28.203442
207,2.8436195850372314,-74.56312561035156,76.08943939208984,-2.4174539955017527,7.2074050915049686,-77.75781454234759,-2.022722,7.820251,-1.2121116,31.490084,-22.389187,-9.438827,-25.279842,-0.6919292,-10.9955845,54.25172,-20.686754,2.7630188,-5.7544518,1.3043422,6.9730296,26.258095,26.44649,-11.099403,-1.0815285,37.79061,13.306577,19.339918,21.430773,-25.2976,25.850733,14.544272,-32.861897,8.191327,-27.930685
208,2.8140478134155273,-75.63883972167969,76.32568359375,-2.62578287241446,7.550101658040969,-77.74666479119762,-1.3325974,8.203504,-1.6927011,30.745644,-20.914743,-9.916045,-25.333437,-0.23016477,-10.804354,50.630024,-19.865902,3.1285095,-6.0373235,1.6104552,6.6897774,26.738373,26.63271,-11.129318,-2.2333024,37.49539,13.076997,19.421564,22.331303,-25.499918,25.848377,14.087765,-33.302017,8.025061,-27.587948
209,2.783785820007324,-76.70955657958984,76.54844665527344,-2.8354648510817118,7.871445682698526,-77.76111303772522,-0.7080868,8.568028,-2.3021984,30.165354,-19.431984,-10.363457,-25.210287,0.091018334,-10.820802,46.914913,-18.905258,3.3819087,-6.2457156,1.9223498,6.419322,27.250702,26.75567,-11.217667,-3.133274,37.22938,12.936711,19.504915,23.107449,-25.67414,25.878569,13.698452,-33.782787,7.8571553,-27.151022
210,2.741701126098633,-77.7922592163086,76.74775695800781,-3.0369236454447934,8.176573497086359,-77.78906965928967,-0.14876296,8.908555,-3.0122302,29.734186,-17.909029,-10.794422,-24.92208,0.33801323,-10.985543,43.05314,-17.808372,3.5739439,-6.392264,2.232937,6.159453,27.794998,26.813944,-11.356506,-3.8029556,36.99498,12.851228,19.582502,23.774155,-25.824005,25.943308,13.361404,-34.323044,7.675769,-26.631863
211,2.700277090072632,-78.87434387207031,76.92411041259766,-3.2019471688844634,8.447503459491932,-77.85136225744067,0.31629813,9.189694,-3.7201874,29.577766,-16.42904,-11.13782,-24.528341,0.49461195,-11.283228,39.285137,-16.658207,3.6779482,-6.4768267,2.5111132,5.925063,28.361897,26.811867,-11.541631,-4.2437205,36.80511,12.810439,19.649406,24.265057,-25.958157,26.030556,13.113863,-34.915203,7.5044155,-26.073467
212,2.6545097827911377,-79.95319366455078,77.07320404052734,-3.3055927145118553,8.667081468191673,-77.96989359210279,0.6611406,9.380463,-4.3177457,29.811726,-15.067378,-11.321317,-24.098083,0.5425895,-11.699724,35.870693,-15.546811,3.66311,-6.49748,2.7302482,5.7308855,28.941528,26.756044,-11.76973,-4.458625,36.66988,12.804666,19.701376,24.518812,-26.086222,26.12747,12.986658,-35.55028,7.367408,-25.517927
213,2.615973472595215,-81.02472686767578,77.19452667236328,-3.342902795441912,8.839480481947112,-78.16063985091692,0.90697396,9.479938,-4.7620807,30.40214,-13.809015,-11.3546,-23.641405,0.4481593,-12.31011,32.8099,-14.45814,3.5035582,-6.4425893,2.8823576,5.567621,29.539606,26.645987,-12.047592,-4.439607,36.61118,12.85423,19.732744,24.537342,-26.212515,26.240162,12.97138,-36.313667,7.284096,-24.917873
214,2.581357479095459,-82.08406829833984,77.28634643554688,-3.331914789587662,8.972211192250755,-78.40898476841632,1.0608078,9.512339,-5.1077514,31.296581,-12.615851,-11.26124,-23.138613,0.2656244,-13.118365,30.000948,-13.367575,3.2379606,-6.3154807,2.988047,5.430626,30.157251,26.480238,-12.377768,-4.188331,36.615746,12.956105,19.746964,24.354467,-26.338373,26.370716,13.046778,-37.179195,7.2335157,-24.268837
215,2.5493922233581543,-83.14006805419922,77.35490417480469,-3.289299935956896,9.055506416089107,-78.6931674435544,1.0695174,9.493081,-5.3879313,32.59341,-11.535479,-10.992592,-22.630533,0.08192716,-13.989433,27.587677,-12.370173,2.913093,-6.13436,3.070525,5.3411136,30.77777,26.266195,-12.751178,-3.723528,36.638794,13.066745,19.752996,23.959873,-26.46825,26.50015,13.220291,-37.970848,7.18538,-23.678396
216,2.517472743988037,-84.1822738647461,77.39141845703125,-3.2343012195647765,9.080418540015318,-78.99258369032258,0.88505226,9.438147,-5.632187,34.381172,-10.609365,-10.508796,-22.163544,-0.044431385,-14.774248,25.73155,-11.564561,2.5602663,-5.914767,3.1552372,5.320138,31.386114,26.016518,-13.158967,-3.0668795,36.632698,13.142896,19.761185,23.346157,-26.608644,26.60729,13.495519,-38.511192,7.1153297,-23.254063
217,2.491427183151245,-85.21273803710938,77.39700317382812,-3.1751714265242734,9.04848863886135,-79.32175017881653,0.47251853,9.352847,-5.8081737,36.758442,-9.867349,-9.704284,-21.79231,-0.1427149,-15.521799,24.523033,-10.840824,2.107466,-5.6381674,3.2506244,5.371145,31.970028,25.73711,-13.619528,-2.1944857,36.54293,13.162863,19.798193,22.505867,-26.760105,26.691193,13.875103,-38.749413,7.023508,-23.035082
218,2.4596450328826904,-86.24109649658203,77.36566162109375,-3.112453729493398,8.96692058982216,-79.68855383300499,-0.12274147,9.242787,-5.8997903,39.62108,-9.260075,-8.642147,-21.495926,-0.249415,-16.276766,23.897753,-10.211303,1.544257,-5.296526,3.3566291,5.481755,32.53994,25.428185,-14.135718,-1.1072787,36.403885,13.153645,19.851303,21.456757,-26.921467,26.754864,14.344679,-38.780865,6.9257903,-22.96018
219,2.412679672241211,-87.24183654785156,77.31893157958984,-3.0497530554778214,8.834448313073425,-80.06229036758351,-0.83007133,9.112408,-5.965181,42.766434,-8.716526,-7.538933,-21.204199,-0.3325068,-16.86902,23.777401,-9.946308,0.9939914,-4.9233556,3.480071,5.649716,33.118095,25.095566,-14.672308,0.13268615,36.301323,13.145318,19.872717,20.225502,-27.100239,26.785353,14.883629,-38.647194,6.8240514,-22.986431
220,2.3856351375579834,-88.2488021850586,77.21185302734375,-2.985445545004516,8.648306852086721,-80.41115908178132,-1.5849853,8.960218,-6.069487,46.01483,-8.180641,-6.607208,-20.843067,-0.35621306,-17.120903,24.072153,-10.307964,0.5863591,-4.554779,3.621737,5.8742185,33.732464,24.748276,-15.190813,1.458398,36.318676,13.168371,19.815258,18.83958,-27.310232,26.77349,15.466911,-38.386517,6.719162,-23.070751
221,2.354382276535034,-89.2325439453125,77.06137084960938,-2.8707276758917293,8.371974360676155,-80.71061084453109,-2.3870265,8.6973295,-6.27453,49.482376,-7.5394645,-5.8889527,-20.377817,-0.33134902,-16.858095,24.947134,-11.580377,0.36210388,-4.2131376,3.7354994,6.189323,34.394833,24.393402,-15.69911,2.864763,36.52504,13.249582,19.639704,17.30251,-27.563847,26.709053,16.08085,-37.912426,6.596032,-23.2357
222,2.3330039978027344,-90.20384979248047,76.84712982177734,-2.712386279948292,8.016823480704753,-80.98133125041095,-3.2649853,8.336008,-6.5304008,53.228237,-6.8660975,-5.279453,-19.848782,-0.2743419,-16.210045,26.379509,-13.545096,0.2477955,-3.8775516,3.82931,6.5872583,35.0982,24.03222,-16.210142,4.373369,36.85601,13.36576,19.38068,15.61525,-27.865189,26.600834,16.721771,-37.233574,6.456754,-23.491522
223,2.3151934146881104,-91.1651840209961,76.58930969238281,-2.5977550712647557,7.653062777107308,-81.26000254332573,-4.209788,8.034625,-6.747653,57.015915,-6.402925,-4.7637124,-19.29482,-0.14884467,-15.458293,27.99374,-15.707614,0.20289998,-3.5203977,3.9887445,7.001948,35.84339,23.662762,-16.691442,5.9562416,37.194668,13.472358,19.101128,13.795809,-28.21367,26.47269,17.38264,-36.530262,6.3292794,-23.777287
224,2.3003780841827393,-92.11788177490234,76.3135986328125,-2.619848816554197,7.352014599078097,-81.58373747396328,-5.218942,7.963241,-6.8472314,60.61882,-6.399072,-4.3196945,-18.758707,0.08378132,-14.885433,29.416557,-17.57425,0.18880507,-3.1139545,4.303474,7.364043,36.6298,23.28015,-17.10953,7.5859776,37.424683,13.525843,18.864311,11.856499,-28.606169,26.348259,18.062424,-35.98303,6.245028,-24.035082
225,2.301100730895996,-93.06986236572266,76.01815795898438,-2.8525404910234715,7.120953563013042,-81.95266109634804,-6.2963357,8.242803,-6.8235555,64.09006,-7.0701485,-3.948077,-18.257103,0.47828743,-14.609542,30.617744,-19.05529,0.2080692,-2.6576653,4.8557277,7.656259,37.44583,22.875988,-17.486845,9.2994795,37.478733,13.497151,18.680897,9.746414,-29.050303,26.237091,18.79478,-35.61233,6.2103033,-24.253456
226,2.3199446201324463,-94.00865173339844,75.71343231201172,-3.2319795821437522,6.924437451317009,-82.34958355528813,-7.444898,8.7620535,-6.7330537,67.539085,-8.253007,-3.6526365,-17.774033,1.0122876,-14.473385,31.773834,-20.401522,0.27759683,-2.168909,5.5820513,7.9079866,38.29197,22.44667,-17.831343,11.100203,37.43388,13.415383,18.51821,7.4806104,-29.550938,26.125969,19.564472,-35.33211,6.2116146,-24.465525
227,2.3458752632141113,-94.9472885131836,75.40451049804688,-3.6478661323921906,6.770155843379162,-82.78704408409486,-8.659516,9.348874,-6.589642,70.809235,-9.619854,-3.4159987,-17.303547,1.6015508,-14.34022,32.826084,-21.632614,0.38151976,-1.6411215,6.3563433,8.120037,39.182014,21.997114,-18.092283,12.910685,37.38873,13.325173,18.37383,5.1661396,-30.090273,26.003479,20.3032,-35.160328,6.2525377,-24.680895
228,2.3651323318481445,-95.88106536865234,75.1177978515625,-3.990038333153743,6.6667122579152185,-83.27847490625973,-9.9387455,9.8333025,-6.3968167,73.736725,-10.8366785,-3.219756,-16.832825,2.1543665,-14.072118,33.719574,-22.770117,0.50173575,-1.0632856,7.04819,8.295347,40.132057,21.538942,-18.21752,14.651405,37.440434,13.27084,18.245905,2.8956144,-30.634172,25.861149,20.960356,-35.118893,6.3354797,-24.908209
229,2.386343240737915,-96.81422424316406,74.86048126220703,-4.251914352212699,6.626986735842061,-83.83957282039616,-11.301291,10.2117815,-6.1359444,76.30518,-11.868284,-3.081772,-16.377422,2.6601298,-13.625908,34.465416,-23.819162,0.6439632,-0.4122765,7.643874,8.42478,41.14968,21.071726,-18.205574,16.400064,37.604233,13.247952,18.173937,0.60414255,-31.15875,25.71939,21.623075,-35.310925,6.4920025,-25.184448
230,2.402613401412964,-97.74882507324219,74.62957000732422,-4.486908214555245,6.642641859732407,-84.46061902529867,-12.745641,10.568846,-5.807979,78.597466,-12.87162,-3.0021038,-15.935679,3.160802,-13.078661,35.08875,-24.77306,0.81183815,0.30507314,8.199818,8.50628,42.224995,20.59358,-18.080284,18.164705,37.83109,13.238908,18.144827,-1.7583951,-31.65544,25.584372,22.322088,-35.697784,6.71233,-25.494541
231,2.430251121520996,-98.71282958984375,74.43053436279297,-4.674970201027077,6.692929948623774,-85.11634294508539,-14.244366,10.864703,-5.4398746,80.58916,-13.791742,-2.938145,-15.45857,3.635461,-12.467482,35.55128,-25.631775,0.981503,1.0594728,8.687352,8.558258,43.35175,20.122164,-17.828276,19.756544,38.11603,13.268101,18.080105,-4.074364,-32.10989,25.420643,22.92372,-36.0924,6.9335575,-25.768799
232,2.4520325660705566,-99.67870330810547,74.26337432861328,-4.797232100306378,6.757658911819864,-85.78175422436199,-15.772047,11.057885,-5.0576344,82.252716,-14.572143,-2.8481202,-14.898462,4.0594525,-11.825919,35.816643,-26.393341,1.128863,1.8260392,9.073599,8.601327,44.53176,19.689783,-17.436432,20.974981,38.44875,13.360583,17.901363,-6.222411,-32.506207,25.185654,23.297234,-36.307655,7.0892344,-25.938366
233,2.4625415802001953,-100.663330078125,74.13099670410156,-4.83619629348377,6.831778144619073,-86.47392705741646,-17.334383,11.1208,-4.647863,83.578,-15.163443,-2.7230859,-14.242396,4.4080734,-11.134518,35.88383,-27.081789,1.245711,2.636953,9.334408,8.652278,45.81446,19.320074,-16.88095,21.728182,38.910744,13.568891,17.522978,-8.256794,-32.82403,24.841536,23.46941,-36.277214,7.1388426,-25.943811
234,2.457411766052246,-101.6584243774414,74.03208923339844,-4.807600074137719,6.927457479964018,-87.19890304437375,-18.94306,11.086287,-4.1979175,84.57531,-15.600978,-2.5850725,-13.5130415,4.68968,-10.377966,35.77485,-27.691738,1.3431971,3.4991844,9.472799,8.69378,47.2134,19.015236,-16.168512,22.106907,39.47028,13.8624525,17.00326,-10.140641,-33.061703,24.385159,23.440353,-36.13276,7.12337,-25.837547
235,2.442195177078247,-102.66742706298828,73.96514129638672,-4.73858580351185,7.050888803089771,-87.9132516837489,-20.579044,10.998509,-3.7361803,85.23769,-15.949124,-2.4396663,-12.710528,4.9257603,-9.593795,35.476875,-28.172123,1.4291005,4.3764234,9.521793,8.720424,48.637173,18.779577,-15.358738,22.19397,39.94194,14.138284,16.484917,-11.900474,-33.225815,23.901031,23.293615,-35.902443,7.0947294,-25.718868
236,2.4260952472686768,-103.69646453857422,73.9337387084961,-4.656376399531775,7.2073788996682975,-88.57374094522729,-22.220469,10.898924,-3.291996,85.55812,-16.275883,-2.2922692,-11.837749,5.137429,-8.819972,34.980625,-28.473925,1.5138102,5.2207403,9.509091,8.718626,50.00586,18.615759,-14.498839,22.071236,40.13828,14.299348,16.114609,-13.478062,-33.33093,23.459085,23.028975,-35.63305,7.1052847,-25.686335
237,2.4024224281311035,-104.73796081542969,73.9384536743164,-4.576650268653909,7.396887102208961,-89.17708696137484,-23.882341,10.79978,-2.877652,85.52601,-16.594189,-2.158832,-10.871543,5.342774,-8.052654,34.228497,-28.587942,1.6032065,6.034851,9.450876,8.691764,51.347916,18.531136,-13.570057,21.680119,39.93775,14.316717,15.96334,-14.86768,-33.38377,23.060543,22.618233,-35.301693,7.170813,-25.787035
238,2.3736679553985596,-105.80435180664062,73.97888946533203,-4.482911974995581,7.616971863764103,-89.74439699666263,-25.563662,10.676451,-2.4714963,85.141525,-16.868507,-2.0335016,-9.819564,5.5184884,-7.2720413,33.244137,-28.538557,1.6957077,6.844226,9.329073,8.646403,52.701782,18.523132,-12.5523615,20.991428,39.458298,14.244819,15.941589,-16.08392,-33.383625,22.668371,22.05463,-34.89088,7.262256,-25.96056
239,2.3419137001037598,-106.88298797607422,74.05675506591797,-4.353190261590211,7.869336321438118,-90.26864737378848,-27.215803,10.51117,-2.0510616,84.412346,-17.09364,-1.8893955,-8.730224,5.6266947,-6.494134,32.1346,-28.325022,1.7920883,7.6292305,9.11955,8.57784,53.995144,18.574877,-11.482358,20.137968,38.878204,14.112499,15.956244,-17.11519,-33.33293,22.30047,21.376877,-34.453053,7.363689,-26.141254
240,2.3114609718322754,-107.97738647460938,74.16844940185547,-4.166182771473079,8.15584091392393,-90.7421434802448,-28.789942,10.286062,-1.5945208,83.34601,-17.263666,-1.7010785,-7.651792,5.63302,-5.7376823,31.005383,-27.946,1.8923643,8.360368,8.80587,8.47747,55.141262,18.661291,-10.407862,19.276798,38.37479,13.952358,15.920994,-17.924042,-33.244843,21.980762,20.599195,-34.039913,7.4622407,-26.264353
