unveil-humanoid-operators/unveil-humanoid-operators.github.io/feature-analysis-animation/data/feature_matrix_instances/height_root_translate_rom_walking_A257_walk_ff_loop_270_R_003__A257.csv
Frame,root_translateX,root_translateY,root_translateZ,root_rotateX,root_rotateY,root_rotateZ,left_hip_pitch_joint_dof,left_hip_roll_joint_dof,left_hip_yaw_joint_dof,left_knee_joint_dof,left_ankle_pitch_joint_dof,left_ankle_roll_joint_dof,right_hip_pitch_joint_dof,right_hip_roll_joint_dof,right_hip_yaw_joint_dof,right_knee_joint_dof,right_ankle_pitch_joint_dof,right_ankle_roll_joint_dof,waist_yaw_joint_dof,waist_roll_joint_dof,waist_pitch_joint_dof,left_shoulder_pitch_joint_dof,left_shoulder_roll_joint_dof,left_shoulder_yaw_joint_dof,left_elbow_joint_dof,left_wrist_roll_joint_dof,left_wrist_pitch_joint_dof,left_wrist_yaw_joint_dof,right_shoulder_pitch_joint_dof,right_shoulder_roll_joint_dof,right_shoulder_yaw_joint_dof,right_elbow_joint_dof,right_wrist_roll_joint_dof,right_wrist_pitch_joint_dof,right_wrist_yaw_joint_dof
0,1.2076095342636108,0.7549706101417542,74.91630554199219,-0.2456219552859572,6.383088375575998,-146.29142725972326,6.4481087,-7.3744173,30.924875,20.420866,-19.883377,3.1454942,-23.740553,-1.8297924,-39.729374,29.170637,-14.812428,-15.000033,-12.342669,-0.31430134,7.4424605,-4.316146,21.845045,-40.751236,49.23646,-2.0734968,-4.213558,-0.24269812,1.7335775,-14.997612,29.733004,54.10709,14.9573145,6.900046,5.0747733
1,1.3423019647598267,1.1353729963302612,74.8531265258789,-0.19819284740247495,6.310540495444201,-146.1634135378771,6.801983,-7.59088,30.657887,19.12383,-20.15695,3.1455433,-23.984863,-1.7891175,-39.776695,29.22916,-14.470287,-15.000033,-12.339452,-0.46852645,7.5131555,-4.2618117,21.86546,-40.399036,49.532673,-2.220605,-4.220851,-0.16578244,1.6776174,-15.00507,29.998817,53.980232,15.037924,6.7695236,5.3106823
2,1.4873046875,1.5212538242340088,74.8021011352539,-0.16374486840740168,6.2379951114270735,-146.0279664993027,7.178456,-7.8084946,30.375587,17.78082,-20.431883,3.1380208,-24.215199,-1.7317731,-39.847954,29.268383,-14.146424,-15.000033,-12.379031,-0.60104907,7.5785007,-4.184859,21.86751,-39.99957,49.829998,-2.3520253,-4.234696,-0.09292022,1.5859997,-15.020437,30.330492,53.880146,15.147965,6.6328845,5.556619
3,1.637725591659546,1.9023228883743286,74.76815032958984,-0.13878309620801432,6.1688050555568275,-145.89841318889646,7.5287037,-8.000709,30.111605,16.479553,-20.677654,3.1204312,-24.457636,-1.660605,-39.90108,29.299042,-13.770609,-15.000033,-12.40595,-0.7251028,7.648125,-4.1249228,21.853653,-39.611835,50.160038,-2.484262,-4.241021,-0.0149362525,1.5152239,-15.037021,30.62319,53.766727,15.235562,6.509464,5.775267
4,1.799109935760498,2.2917709350585938,74.74855041503906,-0.11658052758670195,6.105663297451303,-145.7898599288876,7.8033633,-8.143846,29.900372,15.310017,-20.868029,3.0942402,-24.741606,-1.5836536,-39.88979,29.340414,-13.274984,-15.000033,-12.420397,-0.8551476,7.730518,-4.077769,21.829641,-39.220528,50.533596,-2.6153545,-4.227146,0.072162315,1.4481981,-15.050106,30.869267,53.65516,15.299019,6.4159694,5.9218473
5,1.9650771617889404,2.686041831970215,74.74092102050781,-0.09412124892347033,6.0510773747344935,-145.71030953845565,7.9924283,-8.233531,29.753365,14.282692,-20.994009,3.0618453,-25.071678,-1.499049,-39.802338,29.383844,-12.640641,-15.000033,-12.430411,-0.99510354,7.8258576,-4.0340977,21.794697,-38.80392,50.960075,-2.7463048,-4.192699,0.17988168,1.3779528,-15.056857,31.068903,53.552704,15.308106,6.36066,5.981884
6,2.137942314147949,3.09155535697937,74.74396514892578,-0.0709297821164412,6.002035021020071,-145.65178738573644,8.117087,-8.285366,29.653128,13.363091,-21.07571,3.0273447,-25.435173,-1.4084634,-39.658085,29.428299,-11.901738,-15.000033,-12.432097,-1.1440339,7.928933,-3.9985173,21.74862,-38.376686,51.431503,-2.8785014,-4.143396,0.30279794,1.3149259,-15.054467,31.222832,53.45399,15.268279,6.332601,5.9793315
7,2.3133363723754883,3.5025277137756348,74.7579574584961,-0.03957358562857565,5.953364084583206,-145.6053403224965,8.186431,-8.308702,29.589157,12.554687,-21.12152,2.9956083,-25.83631,-1.3332435,-39.46239,29.516151,-11.090047,-15.000033,-12.396952,-1.31339,8.044047,-3.9856923,21.711103,-37.987362,51.917877,-3.0135808,-4.074293,0.4192169,1.2833234,-15.044879,31.310791,53.333942,15.228661,6.3210473,5.929376
8,2.495577096939087,3.9261128902435303,74.78170013427734,0.005253977119864628,5.899958293116155,-145.56190100358765,8.202719,-8.312468,29.552578,11.871106,-21.144577,2.9703662,-26.279755,-1.2915744,-39.217903,29.684095,-10.227497,-15.000033,-12.388255,-1.5044123,8.164397,-3.9546196,21.669088,-37.55963,52.394176,-3.1102574,-3.9839303,0.5011591,1.238647,-15.025572,31.422318,53.227985,15.25909,6.3132496,5.83566
9,2.6881628036499023,4.358043670654297,74.81198120117188,0.0794534506970611,5.834241915687463,-145.50428196378203,8.15743,-8.3011675,29.535332,11.351542,-21.145065,2.9579089,-26.769411,-1.3283488,-38.956085,29.9871,-9.329782,-15.000033,-12.381419,-1.7434053,8.295663,-3.9310536,21.63661,-37.133804,52.87057,-3.182448,-3.8621688,0.5314573,1.2386281,-14.994445,31.499178,53.082115,15.372055,6.314467,5.689073
10,2.8187925815582275,4.810186862945557,74.84393310546875,0.17815130515925348,5.760509137009251,-145.4429969699549,8.05072,-8.2722435,29.54478,10.980763,-21.119598,2.9552097,-27.303066,-1.4224628,-38.662285,30.3907,-8.380093,-15.000033,-12.398211,-2.0258076,8.43309,-3.8950171,21.611553,-36.67212,53.348427,-3.2258646,-3.7137618,0.52500904,1.2411033,-14.937457,31.572872,52.941364,15.540385,6.3258295,5.4847965
11,2.989403247833252,5.237980365753174,74.88762664794922,0.2756419588478231,5.6922609820752195,-145.41158943421726,7.8994737,-8.2216215,29.595287,10.688427,-21.073416,2.9510133,-27.870588,-1.4898949,-38.275387,30.788002,-7.352109,-15.000033,-12.384851,-2.3122196,8.575307,-3.8567579,21.600945,-36.236046,53.7952,-3.255844,-3.5535734,0.51562625,1.236554,-14.872131,31.629463,52.816948,15.71754,6.336354,5.257788
12,3.235652208328247,5.6593708992004395,74.94934844970703,0.3443816384078557,5.643093907566937,-145.44351763208977,7.721398,-8.146063,29.701077,10.400874,-21.010221,2.9337256,-28.459152,-1.4442607,-37.739677,31.071943,-6.221159,-15.000033,-12.318521,-2.5544877,8.719207,-3.8076932,21.595707,-35.84491,54.18038,-3.2728002,-3.3978577,0.53496796,1.2236942,-14.8248205,31.6744,52.70684,15.84437,6.3370943,5.040709
13,3.4721574783325195,6.07492208480835,75.01331329345703,0.38016691285397275,5.613474379878852,-145.55349583451653,7.512249,-8.043545,29.876604,10.122898,-20.927774,2.8986647,-29.060888,-1.2793324,-37.079433,31.233883,-4.9796305,-15.000033,-12.239038,-2.7447193,8.866544,-3.7072992,21.585773,-35.419533,54.479877,-3.2225273,-3.229646,0.6010984,1.12994,-14.782018,31.788748,52.681232,15.938375,6.3134885,4.80884
14,3.6893110275268555,6.494083881378174,75.07881164550781,0.3958288858465557,5.596186700750408,-145.7214050359864,7.2647595,-7.914496,30.110659,9.890139,-20.827335,2.851716,-29.673656,-1.0316925,-36.32374,31.316942,-3.64481,-15.000033,-12.135265,-2.9000065,9.020398,-3.5859034,21.567448,-34.99243,54.72691,-3.1282728,-3.0481536,0.6950959,1.0055565,-14.754649,31.92937,52.688416,16.01595,6.2768245,4.5577555
15,3.903602361679077,6.913739204406738,75.14098358154297,0.3903901493709633,5.592058181060458,-145.9283099992894,6.9936385,-7.753239,30.37843,9.682163,-20.722141,2.796703,-30.29197,-0.6837487,-35.427956,31.301079,-2.2370207,-15.000033,-12.002643,-3.0234904,9.169047,-3.4616523,21.544588,-34.611588,54.949795,-3.0561273,-2.8944025,0.784695,0.88781255,-14.746493,32.05012,52.69298,16.057775,6.248115,4.336886
16,4.111669063568115,7.339873790740967,75.2093734741211,0.3614068558623829,5.600245331351914,-146.1538822830943,6.7141137,-7.5582213,30.654123,9.475774,-20.623152,2.737655,-30.905598,-0.21612705,-34.349888,31.165464,-0.7782172,-15.000033,-11.863368,-3.121105,9.29727,-3.3320568,21.525013,-34.294075,55.16924,-3.0656278,-2.8098,0.8368568,0.793066,-14.747137,32.129993,52.684853,16.042217,6.2463536,4.190896
17,4.323663711547852,7.764224529266357,75.28070831298828,0.30193195209060497,5.620885335453084,-146.39258554567445,6.435979,-7.328017,30.923792,9.244929,-20.52997,2.6724033,-31.513395,0.37703118,-33.090443,30.936049,0.7022957,-15.000033,-11.71485,-3.1909523,9.404323,-3.2010155,21.515396,-34.05753,55.38889,-3.1922078,-2.811184,0.8533052,0.72976553,-14.748629,32.147392,52.659763,15.951371,6.2764583,4.1486526
18,4.533349990844727,8.172719955444336,75.35391235351562,0.25969187348191125,5.598066002993545,-146.52538956844086,6.324562,-7.1985393,31.062422,8.721602,-20.286648,2.627865,-32.10116,0.9449546,-31.644869,30.780602,2.0989375,-14.774615,-11.700223,-3.2696166,9.546218,-3.0465732,21.509789,-33.851852,55.58125,-3.3876932,-2.8735287,0.846704,0.6487768,-14.75274,32.14917,52.65808,15.80923,6.325894,4.1794868
19,4.734714508056641,8.567235946655273,75.42875671386719,0.22248574619673067,5.56089900831522,-146.6307298071214,6.256877,-7.099927,31.172634,8.148887,-20.01357,2.5986264,-32.67779,1.5863345,-29.660463,30.589382,3.475194,-12.919844,-11.727956,-3.340839,9.688336,-2.8728251,21.508755,-33.68221,55.75252,-3.6116855,-2.9766107,0.8041823,0.5694304,-14.759136,32.135147,52.665615,15.624277,6.3919897,4.241249
20,4.938287734985352,8.961359977722168,75.50456237792969,0.19107378213678616,5.514872308474191,-146.73570457572959,5.9931884,-6.871788,31.32173,8.104429,-19.98197,2.571324,-33.17864,2.3442051,-27.402187,30.21865,4.8656073,-10.749428,-11.754531,-3.41431,9.8216915,-2.702965,21.512154,-33.586536,55.921642,-3.8388393,-3.0994723,0.7163479,0.50368094,-14.763547,32.100372,52.682487,15.418951,6.47011,4.2918186
21,5.138537883758545,9.353079795837402,75.58064270019531,0.16764150377323397,5.456437041101735,-146.8361924358125,5.753336,-6.652731,31.48922,8.058832,-19.920277,2.559377,-33.569023,3.29379,-24.685677,29.551321,6.416341,-7.9298167,-11.801802,-3.4940712,9.943963,-2.531086,21.51609,-33.560425,56.095123,-4.096625,-3.2586823,0.57617784,0.43694368,-14.765443,32.070522,52.718422,15.183279,6.5687656,4.3358264
22,5.33014440536499,9.728860855102539,75.65681457519531,0.1467955687066008,5.387526168985488,-146.93333057787788,5.5315332,-6.4386735,31.668242,8.013106,-19.83439,2.557838,-33.829273,4.414679,-21.55055,28.6522,7.9898295,-4.569209,-11.88293,-3.5744092,10.063822,-2.342865,21.524225,-33.564423,56.255863,-4.3755617,-3.4576712,0.38504997,0.3641409,-14.766493,32.03585,52.767742,14.9009075,6.6883435,4.393346
23,5.513875961303711,10.103913307189941,75.73970794677734,0.1296642203345023,5.310573509946629,-147.03161563465434,5.3252735,-6.229487,31.847357,7.9689555,-19.71816,2.555316,-33.968655,5.5317473,-18.355715,27.751032,9.233451,-1.3371793,-11.949399,-3.6504064,10.188055,-2.1343565,21.550997,-33.620506,56.366356,-4.6112566,-3.653322,0.15681386,0.30751032,-14.76491,31.943922,52.824986,14.598989,6.8097725,4.444231
24,5.690567970275879,10.46998405456543,75.82635498046875,0.1157337510577505,5.229944849314051,-147.13522860755444,5.129094,-6.0226026,32.01478,7.9291105,-19.564358,2.5410154,-34.043354,6.4610023,-15.500544,27.075598,9.903182,1.063313,-11.978522,-3.7292733,10.313153,-1.9354937,21.604206,-33.725903,56.454277,-4.7398567,-3.8085542,-0.10185222,0.30125022,-14.755196,31.788925,52.86812,14.325694,6.911663,4.4502068
25,5.863990783691406,10.830095291137695,75.91556549072266,0.1106844001906726,5.140085446079872,-147.24639515151577,4.9488854,-5.8230414,32.167336,7.8961506,-19.363632,2.5110905,-34.131607,7.2196317,-12.934681,26.695326,9.998128,2.3506324,-12.012109,-3.8076792,10.438519,-1.7179806,21.650242,-33.81904,56.518406,-4.7111855,-3.9170206,-0.39482102,0.305377,-14.740829,31.613874,52.93631,14.094634,6.989102,4.3997726
26,6.02687931060791,11.182456016540527,76.00521087646484,0.1129651369817062,5.042427970677576,-147.36228797195363,4.7836432,-5.630192,32.31112,7.868394,-19.122713,2.4724686,-34.21636,7.872828,-10.525548,26.492565,9.721118,2.8940423,-12.03462,-3.8867497,10.564607,-1.4962661,21.698769,-33.93848,56.562347,-4.576079,-3.9987967,-0.7236855,0.33212432,-14.718587,31.393679,53.015724,13.876781,7.0533743,4.3124037
27,6.190724849700928,11.52056884765625,76.09884643554688,0.11028734446810029,4.954479531551115,-147.48263781346364,4.6142817,-5.4308324,32.44973,7.841586,-18.856373,2.4305665,-34.256187,8.314958,-8.554591,26.402311,9.196102,2.967763,-12.0507765,-3.9457924,10.672863,-1.2742572,21.742083,-34.070576,56.60398,-4.352674,-4.062581,-1.0725026,0.37582543,-14.691605,31.151545,53.108284,13.684332,7.1080475,4.194898
28,6.349554538726807,11.854414939880371,76.19823455810547,0.09170675742345928,4.893449352210084,-147.60800632982927,4.4233503,-5.2144785,32.587414,7.8082685,-18.577936,2.3906486,-34.21595,8.432447,-7.30049,26.353485,8.527271,2.8584075,-12.02341,-3.974093,10.752911,-1.0776706,21.795147,-34.250168,56.655834,-4.0731797,-4.1146817,-1.425153,0.4319591,-14.650776,30.872047,53.21934,13.532104,7.1555176,4.0590825
29,6.492164134979248,12.188984870910645,76.30224609375,0.05477349170434161,4.863555489154859,-147.73908170899773,4.2021585,-4.9740367,32.723827,7.778372,-18.288013,2.3530521,-34.087326,8.13071,-6.9727573,26.334297,7.649616,2.5676363,-11.997866,-3.956531,10.792943,-0.8823942,21.83582,-34.432934,56.722473,-3.7058682,-4.159388,-1.7919878,0.48877022,-14.610544,30.604485,53.357643,13.438757,7.1917644,3.8771102
30,6.641385555267334,12.512816429138184,76.40973663330078,0.006462067469861624,4.855409312993188,-147.8754714715494,3.96611,-4.719442,32.856285,7.743636,-17.976528,2.3152018,-33.9045,7.49882,-7.363094,26.36076,6.544291,2.0003858,-11.96124,-3.9048479,10.803942,-0.6969266,21.866735,-34.63625,56.801643,-3.2516277,-4.1939726,-2.1760705,0.55850095,-14.570302,30.32418,53.51241,13.390438,7.2173023,3.6550283
31,6.788367748260498,12.835592269897461,76.5217514038086,-0.05225230332724389,4.866041105081096,-148.01597301914387,3.7173312,-4.452172,32.98697,7.706088,-17.660807,2.2774975,-33.689632,6.6925597,-8.13179,26.40041,5.375837,1.295008,-11.885103,-3.8313253,10.791545,-0.5360217,21.896418,-34.868855,56.895622,-2.7549524,-4.2174354,-2.5517163,0.6432083,-14.5202,30.0097,53.675415,13.36603,7.242141,3.4424126
32,6.931262969970703,13.147862434387207,76.63192749023438,-0.11925820478083761,4.8933837938820774,-148.1601481651646,3.4573324,-4.177781,33.119377,7.6645374,-17.351637,2.2411118,-33.470444,5.8599863,-8.948502,26.430134,4.316795,0.56430227,-11.813758,-3.7405577,10.755115,-0.35790974,21.915466,-35.04197,56.982754,-2.23049,-4.2300987,-2.8959908,0.7146096,-14.478228,29.731064,53.842247,13.370834,7.278218,3.2822027
33,7.060730457305908,13.454320907592773,76.7419662475586,-0.19938454354651006,4.941839672522453,-148.30971277618977,3.1818826,-3.8942454,33.256355,7.6159234,-17.049824,2.20614,-33.250877,4.9864893,-9.845448,26.45942,3.3919573,-0.2478235,-11.756026,-3.6216602,10.690159,-0.149605,21.922716,-35.13706,57.054104,-1.6484177,-4.2281065,-3.2160518,0.7715433,-14.4542265,29.50453,54.006622,13.4333935,7.3375316,3.1738281
34,7.191033840179443,13.760316848754883,76.8465347290039,-0.2914239150447275,5.010499987928839,-148.46448122660522,2.8906698,-3.601534,33.395508,7.5624313,-16.749454,2.1723216,-33.008724,4.01372,-10.959253,26.497269,2.5021884,-1.169365,-11.64675,-3.4783797,10.605263,0.03132472,21.92638,-35.24784,57.136684,-1.0208067,-4.2120767,-3.519733,0.85102886,-14.428024,29.230154,54.158287,13.51736,7.4110103,3.1049976
35,7.323294162750244,14.069323539733887,76.95032501220703,-0.38756843400605256,5.091512501700034,-148.62186448788606,2.5925336,-3.3061173,33.533257,7.5043354,-16.453108,2.1400895,-32.751717,3.016375,-12.130367,26.538671,1.6473091,-2.0736547,-11.526093,-3.3282034,10.502019,0.21019965,21.923687,-35.33587,57.222748,-0.40849784,-4.1899667,-3.7858794,0.9241283,-14.406592,28.972897,54.314407,13.603017,7.4785924,3.083652
36,7.442837715148926,14.37331771850586,77.05219268798828,-0.4803012890678445,5.177317799304177,-148.77916503400627,2.2956436,-3.0134032,33.665924,7.4444833,-16.165173,2.1099007,-32.492477,2.0651414,-13.200663,26.577208,0.8411475,-2.8409798,-11.410738,-3.188192,10.390071,0.3954921,21.916376,-35.38709,57.304314,0.12401409,-4.167562,-3.9925344,0.9711601,-14.394206,28.76227,54.48303,13.661129,7.5214133,3.1229136
37,7.558824062347412,14.672433853149414,77.1515884399414,-0.5712264484944588,5.270747748159555,-148.93376288467334,1.9983491,-2.7215133,33.79073,7.3791704,-15.884455,2.0804157,-32.228294,1.1537946,-14.189793,26.601831,0.1065467,-3.4632812,-11.308845,-3.0600605,10.26339,0.59898967,21.909075,-35.393147,57.375465,0.5831703,-4.142158,-4.1295304,0.985912,-14.392108,28.62072,54.67602,13.692672,7.52717,3.2493217
38,7.677256107330322,14.975997924804688,77.24508666992188,-0.6640098182695692,5.374147679184178,-149.08858398766392,1.6967174,-2.428479,33.91128,7.30992,-15.610623,2.051647,-31.955055,0.24938527,-15.167059,26.62371,-0.5625586,-4.007091,-11.181595,-2.934847,10.128782,0.78366315,21.896765,-35.38653,57.456074,0.996894,-4.1109467,-4.21193,0.99901706,-14.398465,28.483202,54.865322,13.69211,7.509982,3.4552686
39,7.7875518798828125,15.27199935913086,77.33551025390625,-0.751389836040553,5.480613517328703,-149.2470181654403,1.396594,-2.143252,34.031216,7.2381935,-15.342209,2.026878,-31.691984,-0.62360686,-16.047068,26.669683,-1.1866733,-4.469193,-11.061417,-2.8191164,9.985383,0.98133594,21.886772,-35.34896,57.52059,1.3208665,-4.0757737,-4.2500577,0.98704785,-14.409281,28.384064,55.063217,13.675976,7.4849467,3.6803312
40,7.89738655090332,15.559228897094727,77.42159271240234,-0.8266115332306619,5.582462527849306,-149.41293368656665,1.1046612,-1.8725808,34.155083,7.1694202,-15.081022,2.0091765,-31.458025,-1.4401604,-16.742405,26.761461,-1.7842764,-4.846488,-10.940692,-2.7173288,9.846606,1.1800627,21.878965,-35.29115,57.5677,1.5175618,-4.0401697,-4.2582045,0.9714855,-14.421259,28.278744,55.236134,13.616265,7.470659,3.875771
41,8.014686584472656,15.852189064025879,77.49994659423828,-0.8865598581151568,5.683889274219803,-149.5848514870184,0.81343436,-1.6195503,34.28124,7.106069,-14.827047,2.0044065,-31.267122,-2.195448,-17.223524,26.903591,-2.3624291,-5.133516,-10.81373,-2.6289096,9.717348,1.3710957,21.871859,-35.20734,57.593136,1.5619944,-3.999455,-4.2359047,0.94887936,-14.440018,28.145638,55.380985,13.497494,7.4685965,4.055574
42,8.12629222869873,16.142946243286133,77.57221984863281,-0.9351516780123188,5.787334285696582,-149.76115260872277,0.5224718,-1.3792633,34.408226,7.046298,-14.580623,2.0092714,-31.108788,-2.9061134,-17.539848,27.083282,-2.9047608,-5.341669,-10.682609,-2.5555105,9.582481,1.5593892,21.869253,-35.110706,57.607487,1.4674809,-3.9536488,-4.174779,0.9150745,-14.457842,28.017881,55.519135,13.343716,7.468066,4.2328243
43,8.223505973815918,16.436798095703125,77.6391830444336,-0.9773546436975877,5.880462629113714,-149.9455136603408,0.24751483,-1.1451187,34.54101,6.990748,-14.343476,2.013271,-30.967909,-3.5792098,-17.721617,27.30304,-3.3978977,-5.4922276,-10.545553,-2.4919386,9.463644,1.7508758,21.871796,-34.99519,57.597343,1.2986683,-3.9114566,-4.0864034,0.87961346,-14.478409,27.880634,55.624687,13.152109,7.476598,4.3777156
44,8.316198348999023,16.730514526367188,77.70127868652344,-1.0169739924617998,5.952516941904093,-150.14120763830672,0.003031487,-0.91150063,34.68401,6.9402013,-14.117483,2.006129,-30.829641,-4.2215004,-17.798922,27.56304,-3.8281517,-5.605167,-10.401043,-2.4343746,9.365362,1.9467201,21.881134,-34.87963,57.569584,1.0935736,-3.8851147,-3.9799387,0.83296156,-14.503621,27.75286,55.70809,12.958854,7.49527,4.4543843
45,8.411478996276855,17.007909774780273,77.76160430908203,-1.0566702660407388,5.99807181584818,-150.3488461247524,-0.20626347,-0.673649,34.836918,6.8976073,-13.904885,1.9858382,-30.69838,-4.818587,-17.738848,27.875263,-4.173863,-5.67891,-10.248687,-2.3816724,9.296905,2.1492994,21.899235,-34.764633,57.51457,0.8486015,-3.8716674,-3.8453968,0.78014296,-14.535854,27.634375,55.752876,12.733722,7.537949,4.437015
46,8.506551742553711,17.286088943481445,77.81588745117188,-1.0938177021677489,6.023944511519861,-150.56643886527183,-0.38775676,-0.4359162,34.997128,6.8600626,-13.7029,1.955749,-30.578382,-5.370533,-17.539995,28.233274,-4.4467077,-5.7073927,-10.086166,-2.3384092,9.235965,2.3391902,21.911251,-34.666977,57.472446,0.5320543,-3.8691697,-3.6761532,0.7083562,-14.554603,27.534187,55.79949,12.488089,7.5952487,4.3418784
47,8.593555450439453,17.575687408447266,77.86721801757812,-1.1242278185104961,6.035437435770307,-150.79331422743775,-0.5490076,-0.20216946,35.167694,6.8331456,-13.513446,1.9206663,-30.452988,-5.9070745,-17.27853,28.611645,-4.6847987,-5.70152,-9.922464,-2.3006952,9.208448,2.5576112,21.946077,-34.53031,57.36643,0.20503916,-3.8826122,-3.5093846,0.6427681,-14.59584,27.415312,55.78854,12.248416,7.6531615,4.228394
48,8.678705215454102,17.854557037353516,77.91229248046875,-1.1436972563072945,6.039462124239136,-151.0294886625371,-0.69619083,0.021958515,35.3519,6.813745,-13.332759,1.883334,-30.308477,-6.4599633,-17.030361,28.986437,-4.9268484,-5.6724105,-9.750899,-2.277167,9.164271,2.7715874,21.979027,-34.410736,57.28709,-0.14114143,-3.9231286,-3.3540306,0.57274914,-14.628745,27.305931,55.797794,12.100529,7.67958,4.1174417
49,8.754134178161621,18.12533187866211,77.95417785644531,-1.1514456305409007,6.035438594107228,-151.274937641361,-0.8291405,0.23637512,35.55025,6.8046994,-13.1629715,1.8430654,-30.143232,-7.0310717,-16.799082,29.35988,-5.175845,-5.615163,-9.57432,-2.2678475,9.117789,2.998197,22.024178,-34.286167,57.20473,-0.5160956,-4.0072465,-3.2152278,0.5034809,-14.6660595,27.197674,55.80469,12.062049,7.6641593,4.019836
50,8.827163696289062,18.389728546142578,77.99403381347656,-1.1494045576691978,6.02066224430374,-151.52974293715982,-0.94447434,0.44312355,35.761383,6.8042455,-13.003631,1.7988181,-29.962938,-7.605155,-16.55018,29.739859,-5.41319,-5.5261073,-9.392748,-2.272011,9.074846,3.2389843,22.085892,-34.158318,57.10817,-0.9272989,-4.125295,-3.0838695,0.43845868,-14.707272,27.088943,55.79696,12.095173,7.621611,3.9166424
51,8.895020484924316,18.651010513305664,78.02851867675781,-1.1379725758715504,5.998106934620726,-151.7937281242107,-1.0445757,0.64241606,35.985416,6.811865,-12.8536415,1.7529379,-29.76664,-8.189958,-16.303493,30.114676,-5.6461244,-5.4187903,-9.204362,-2.2875605,9.028139,3.4822085,22.148756,-34.029686,57.01122,-1.3157389,-4.2441297,-2.9672108,0.36408925,-14.742216,26.976906,55.79832,12.168856,7.56937,3.8115194
52,8.959157943725586,18.921491622924805,78.06120300292969,-1.1180077699733852,5.9707756608193385,-152.06695284980566,-1.1307098,0.83371013,36.222603,6.8216786,-12.707827,1.7079892,-29.552515,-8.793227,-16.078941,30.470528,-5.8809824,-5.306941,-9.011636,-2.3107908,8.9735365,3.7265496,22.207207,-33.89785,56.909443,-1.6252174,-4.3296237,-2.8739889,0.2917297,-14.770088,26.845156,55.801037,12.232851,7.5268903,3.710308
53,9.025369644165039,19.18233871459961,78.09010314941406,-1.0876055405967842,5.938395417602696,-152.35464641761266,-1.2010157,1.0147389,36.479725,6.836016,-12.569785,1.6678026,-29.32228,-9.415285,-15.866397,30.811829,-6.128167,-5.1814556,-8.810014,-2.3428907,8.914813,3.9849653,22.275396,-33.758636,56.772873,-1.8365785,-4.369398,-2.8124466,0.21749344,-14.79947,26.693092,55.80262,12.287881,7.5049133,3.6114957
54,9.070821762084961,19.437240600585938,78.11495971679688,-1.046912971162845,5.899919501279615,-152.65511110429506,-1.2543801,1.185705,36.754852,6.853413,-12.438482,1.6301265,-29.075382,-10.053188,-15.6608515,31.140934,-6.380435,-5.0391717,-8.599898,-2.3833952,8.849938,4.246915,22.340988,-33.61672,56.626537,-1.9798361,-4.382979,-2.774166,0.13972858,-14.82549,26.525934,55.80922,12.352898,7.491026,3.5123427
55,9.109851837158203,19.681196212768555,78.13694763183594,-0.9993801195934287,5.856944480032093,-152.95799212614483,-1.2977701,1.3521886,37.034195,6.8771133,-12.311877,1.5882318,-28.812609,-10.711709,-15.48877,31.45239,-6.6219573,-4.9026985,-8.389626,-2.4324443,8.782112,4.510175,22.4088,-33.47311,56.4794,-2.0791314,-4.380257,-2.7498577,0.06863247,-14.849886,26.34669,55.804417,12.42451,7.4720106,3.4222968
56,9.148734092712402,19.92880630493164,78.15525817871094,-0.9483114376159971,5.811340297080143,-153.25300199416884,-1.3388226,1.5196484,37.30414,6.9102564,-12.187345,1.5354394,-28.533354,-11.395668,-15.376546,31.73891,-6.8360953,-4.7945304,-8.186158,-2.4892015,8.711391,4.7617383,22.470726,-33.3325,56.358685,-2.1562736,-4.372147,-2.7280688,-0.002654831,-14.869865,26.169525,55.79267,12.513942,7.433419,3.3488822
57,9.195387840270996,20.17964744567871,78.17266082763672,-0.8935383482732088,5.763651290264297,-153.54057215106917,-1.3778712,1.6876384,37.563416,6.9523606,-12.064136,1.4678053,-28.23958,-12.111804,-15.334082,32.00728,-7.021996,-4.7324386,-7.9877357,-2.5556684,8.636985,5.0005984,22.527122,-33.193935,56.269775,-2.2093573,-4.3599,-2.7087774,-0.06321585,-14.88543,25.983952,55.765594,12.626771,7.3628273,3.2986028
58,9.235433578491211,20.432491302490234,78.18714141845703,-0.8336024623786764,5.713056299858177,-153.8252479863359,-1.411218,1.8536204,37.818798,7.000532,-11.942429,1.3897096,-27.930674,-12.85634,-15.346641,32.25847,-7.187024,-4.700241,-7.794257,-2.6280408,8.551427,5.217053,22.558014,-33.06084,56.231205,-2.228592,-4.3401527,-2.6930697,-0.12124369,-14.892359,25.795322,55.740868,12.760245,7.269836,3.2625482
59,9.253782272338867,20.680631637573242,78.20123291015625,-0.7699135770528474,5.658794491974553,-154.1024267937268,-1.4381994,2.0185544,38.067547,7.053416,-11.821891,1.30696,-27.603762,-13.619313,-15.403011,32.4814,-7.3285203,-4.6694055,-7.6091266,-2.7051673,8.464447,5.426232,22.584455,-32.93027,56.206413,-2.2246404,-4.3118105,-2.6815867,-0.18099108,-14.897309,25.610556,55.708164,12.889758,7.176254,3.2352872
60,9.280735969543457,20.923242568969727,78.21371459960938,-0.7036174154324845,5.600222348548256,-154.3678765152782,-1.4591529,2.184112,38.3076,7.1112056,-11.702735,1.2252171,-27.253765,-14.389879,-15.492806,32.660404,-7.4417477,-4.611448,-7.4391017,-2.7848458,8.384119,5.6394253,22.619299,-32.79546,56.168438,-2.20577,-4.2745924,-2.6746051,-0.24175845,-14.901756,25.431772,55.655426,12.981522,7.104032,3.210914
61,9.298356056213379,21.171466827392578,78.2236328125,-0.6355233082349386,5.532398645748453,-154.61714408241363,-1.4682654,2.3501415,38.53565,7.1730857,-11.58574,1.1469563,-26.869497,-15.172405,-15.627059,32.791237,-7.5164733,-4.5095086,-7.297541,-2.8671236,8.310167,5.8632154,22.66255,-32.65524,56.116398,-2.162937,-4.2219367,-2.6722658,-0.31279212,-14.9036875,25.277847,55.589943,13.02919,7.06273,3.186015
62,9.314176559448242,21.42159652709961,78.23103332519531,-0.5643214692582261,5.457334246003408,-154.8536379970399,-1.4675401,2.5155547,38.754196,7.238306,-11.469445,1.0686901,-26.457958,-15.970928,-15.807413,32.88561,-7.559332,-4.381554,-7.176896,-2.9493454,8.231402,6.0769463,22.689274,-32.521366,56.089516,-2.0966089,-4.15768,-2.6706913,-0.3891477,-14.902159,25.14505,55.52108,13.050813,7.039042,3.1612716
63,9.329383850097656,21.6745548248291,78.23629760742188,-0.4905269105890406,5.384851559826622,-155.085068282645,-1.4614079,2.6766708,38.96928,7.293123,-11.346305,0.9865877,-26.040194,-16.771685,-16.009953,32.950096,-7.590244,-4.2516303,-7.066116,-3.0360231,8.153767,6.29941,22.726635,-32.373867,56.04667,-2.0277905,-4.0931273,-2.6728928,-0.46697643,-14.897745,25.01549,55.43873,13.054329,7.0201783,3.1402502
64,9.335278511047363,21.918394088745117,78.23856353759766,-0.4141070514799165,5.325845870258711,-155.31881219291586,-1.4719827,2.8430593,39.18588,7.3675284,-11.231404,0.89669836,-25.641817,-17.562557,-16.209078,32.997078,-7.6323605,-4.1438603,-6.945473,-3.1220732,8.053745,6.5074234,22.756306,-32.246758,56.026577,-2.0018363,-4.043829,-2.668236,-0.53036094,-14.892281,24.893038,55.351887,13.069517,6.9908466,3.1141026
65,9.33703899383545,22.161489486694336,78.23768615722656,-0.3346547343591715,5.285450120747876,-155.55732943680815,-1.4902806,3.0025456,39.407875,7.426694,-11.106903,0.79859024,-25.267775,-18.346275,-16.4072,33.02428,-7.6871514,-4.066981,-6.813803,-3.2098107,7.93334,6.7168527,22.789413,-32.124992,56.00477,-2.021599,-4.0130434,-2.6564035,-0.5758947,-14.884977,24.759726,55.248074,13.086684,6.947196,3.0864954
66,9.334811210632324,22.40765380859375,78.23503875732422,-0.2529354920690085,5.257864055956204,-155.79676583265552,-1.5154743,3.1597764,39.631428,7.4833417,-10.979607,0.6938274,-24.906528,-19.127172,-16.614477,33.02907,-7.7450643,-4.0073442,-6.6732936,-3.301609,7.7969465,6.9251547,22.832424,-32.014072,55.98248,-2.0749424,-3.9939995,-2.641074,-0.6054606,-14.873887,24.619862,55.12743,13.10242,6.896497,3.0583158
67,9.32802677154541,22.652999877929688,78.23114013671875,-0.16877010266631906,5.234919577060939,-156.03490984456084,-1.5419811,3.316742,39.852802,7.538405,-10.848842,0.5828419,-24.555553,-19.895847,-16.816252,33.01866,-7.810204,-3.955006,-6.5293884,-3.3920524,7.653552,7.1144185,22.864859,-31.916588,55.978733,-2.1468053,-3.9807596,-2.6244156,-0.6286068,-14.863696,24.49184,55.00475,13.118862,6.844471,3.027851
68,9.319541931152344,22.909852981567383,78.2252197265625,-0.0818061526588884,5.208918979977448,-156.26931125510248,-1.5672765,3.4783869,40.06824,7.6021376,-10.719284,0.46589968,-24.212795,-20.643198,-16.997602,33.000923,-7.8858876,-3.9002185,-6.386897,-3.482341,7.520357,7.283968,22.89126,-31.820454,55.98094,-2.217848,-3.966226,-2.6146617,-0.6478608,-14.853774,24.376879,54.881237,13.123175,6.7974677,2.997591
69,9.314126968383789,23.1697940826416,78.21669006347656,0.008179231282328463,5.175260513499148,-156.4993647151723,-1.7287256,3.7698584,40.26479,8.067581,-10.79521,0.3345211,-23.871386,-21.37063,-17.164446,32.97459,-7.983158,-3.8435936,-6.246843,-3.576121,7.410217,7.441592,22.920973,-31.717676,55.966675,-2.2768211,-3.9434743,-2.6149232,-0.67626816,-14.842529,24.278824,54.761333,13.10643,6.7546525,2.97021
70,9.294992446899414,23.428394317626953,78.20633697509766,0.10075308385647605,5.139311596931601,-156.72613592395345,-1.8893839,4.067627,40.45415,8.543991,-10.873669,0.19428453,-23.535006,-22.082243,-17.32121,32.93632,-8.095549,-3.789218,-6.1118507,-3.6732333,7.3098655,7.5940576,22.956362,-31.609247,55.940975,-2.3372161,-3.918633,-2.6219919,-0.7094397,-14.829315,24.201,54.64376,13.078469,6.713111,2.9431212
71,9.281458854675293,23.689714431762695,78.19453430175781,0.19468272428566,5.106643467634279,-156.95138573005246,-2.0531418,4.3710046,40.640236,9.027948,-10.953044,0.05341017,-23.214197,-22.767105,-17.452341,32.88558,-8.206096,-3.7334657,-5.97636,-3.7686284,7.2113366,7.7326617,22.988287,-31.501804,55.919796,-2.4067204,-3.897914,-2.632785,-0.73954064,-14.816121,24.135641,54.526417,13.057385,6.6769342,2.9144502
72,9.26425838470459,23.957334518432617,78.1816635131836,0.28897779808646745,5.0829035391439845,-157.17647297717565,-2.2253826,4.6808577,40.826565,9.51947,-11.032932,-0.080011256,-22.92091,-23.418995,-17.540571,32.823402,-8.298358,-3.6727095,-5.837898,-3.8592224,7.108944,7.857626,23.014273,-31.392672,55.906975,-2.4897363,-3.8867705,-2.6452985,-0.76590455,-14.803659,24.074509,54.412266,13.058111,6.649591,2.883552
73,9.250017166137695,24.222652435302734,78.16883850097656,0.3847021491817355,5.071486379372365,-157.40220407489915,-2.4072237,4.9938703,41.014324,10.013334,-11.110908,-0.19924062,-22.659267,-24.039259,-17.591738,32.74624,-8.367097,-3.6001933,-5.6933684,-3.9428623,6.9994597,7.969984,23.032427,-31.283777,55.899883,-2.5927596,-3.8884552,-2.6641219,-0.7899901,-14.792657,24.017756,54.2976,13.104714,6.6347504,2.846076
74,9.22487735748291,24.489665985107422,78.15792846679688,0.48130087260191534,5.068619865488278,-157.62771104034564,-2.5976734,5.3134704,41.20135,10.516057,-11.189942,-0.31044808,-22.423422,-24.630234,-17.610367,32.655155,-8.421904,-3.520214,-5.5559835,-4.0296097,6.8946476,8.086093,23.059502,-31.14251,55.875973,-2.6988738,-3.900075,-2.6955485,-0.8238404,-14.77422,23.968937,54.18517,13.172798,6.6297574,2.8068092
75,9.196672439575195,24.759248733520508,78.14323425292969,0.5759742385238905,5.069751312288904,-157.85238655237487,-2.79002,5.6403823,41.386772,11.022224,-11.26799,-0.42457646,-22.210443,-25.183258,-17.578398,32.554935,-8.46664,-3.4458487,-5.420542,-4.1125507,6.789941,8.201248,23.088505,-31.001076,55.84442,-2.8118665,-3.9118125,-2.7197351,-0.8604096,-14.75107,23.931894,54.089798,13.235721,6.627263,2.7691147
76,9.171140670776367,25.032732009887695,78.12576293945312,0.6651217207102857,5.069847130813958,-158.0753973970416,-2.9790478,5.9782434,41.569756,11.530903,-11.343685,-0.5525812,-22.016409,-25.68768,-17.478075,32.44884,-8.504311,-3.3901567,-5.2733555,-4.1842594,6.6877956,8.285304,23.1043,-30.891813,55.838062,-2.930194,-3.918288,-2.720283,-0.8831284,-14.735543,23.893543,54.010483,13.260779,6.622062,2.7413435
77,9.149492263793945,25.31174087524414,78.10784149169922,0.7467963324335033,5.0699690360994305,-158.29520799739728,-3.1645184,6.3262897,41.749695,12.036066,-11.4165325,-0.6992809,-21.845007,-26.143873,-17.310732,32.343014,-8.533193,-3.3622766,-5.1447496,-4.248523,6.5986314,8.39168,23.12637,-30.753878,55.79239,-3.0172248,-3.9067686,-2.69528,-0.92935336,-14.712642,23.865356,53.977715,13.231214,6.6011925,2.741692
78,9.119325637817383,25.58819007873535,78.0901870727539,0.8229007388395867,5.072412780811237,-158.51307951416337,-3.3493586,6.6836295,41.92768,12.540943,-11.4866,-0.85817754,-21.697603,-26.556404,-17.0824,32.23188,-8.551635,-3.353414,-5.003712,-4.30252,6.5094748,8.468601,23.13952,-30.645678,55.76733,-3.106631,-3.8886366,-2.648461,-0.96263146,-14.696456,23.836039,53.961803,13.177746,6.572322,2.7577233
79,9.084783554077148,25.868526458740234,78.06784057617188,0.8966222973195077,5.072240408250011,-158.73144844953495,-3.5294693,7.0506835,42.10348,13.05072,-11.5559025,-1.0227687,-21.568472,-26.91939,-16.783382,32.110256,-8.568808,-3.3499253,-4.863782,-4.3501806,6.429678,8.540247,23.148434,-30.53776,55.739788,-3.2054856,-3.873964,-2.5925417,-0.9956398,-14.682476,23.81474,53.95418,13.091311,6.557813,2.7658718
80,9.047148704528809,26.153993606567383,78.0447769165039,0.9720120891560948,5.064961684187044,-158.95336774160933,-3.6970148,7.4237776,42.278294,13.560961,-11.622351,-1.1867721,-21.451998,-27.228994,-16.40318,31.97193,-8.592908,-3.3380086,-4.7026052,-4.3935494,6.353417,8.579134,23.149876,-30.480425,55.743298,-3.3581426,-3.8760617,-2.532588,-1.0074514,-14.677819,23.801247,53.935116,12.982389,6.5790973,2.735258
81,9.006103515625,26.445161819458008,78.02153015136719,1.0466406383840736,5.045478629018272,-159.186369642732,-3.85137,7.8148017,42.45777,14.094592,-11.698649,-1.34837,-21.345207,-27.47094,-15.914148,31.807957,-8.615247,-3.3031955,-4.5713773,-4.438738,6.3110533,8.665689,23.152695,-30.32644,55.696606,-3.5175962,-3.9019382,-2.487993,-1.0492916,-14.662392,23.807714,53.915073,12.814131,6.655025,2.6647418
82,8.96512508392334,26.734479904174805,77.99807739257812,1.1221247356512887,5.017390443684443,-159.42682918512972,-3.991321,8.21432,42.641163,14.633245,-11.775733,-1.5107439,-21.25343,-27.654861,-15.327107,31.626516,-8.636163,-3.2558472,-4.447376,-4.4843783,6.274244,8.758349,23.15437,-30.168175,55.65045,-3.7224576,-3.9449868,-2.441339,-1.1037414,-14.63975,23.85373,53.914005,12.6259165,6.7662234,2.55532
83,8.916570663452148,27.03358268737793,77.97211456298828,1.1954104939714716,4.9896512610461645,-159.66043167439983,-4.1309032,8.6217165,42.812584,15.171081,-11.84676,-1.6769143,-21.173237,-27.794868,-14.703727,31.435986,-8.672971,-3.222154,-4.3136945,-4.525145,6.240131,8.822019,23.153688,-30.04905,55.624653,-3.935087,-3.9904494,-2.387664,-1.144258,-14.621451,23.900486,53.90819,12.409304,6.8907957,2.4322288
84,8.87417984008789,27.3411922454834,77.94145965576172,1.2646050254569823,4.970677966426134,-159.87277925807433,-4.283432,9.033628,42.957005,15.700231,-11.903036,-1.849698,-21.10429,-27.909935,-14.1025715,31.24903,-8.745123,-3.2276888,-4.218953,-4.5646253,6.200509,8.886892,23.151516,-29.921787,55.599648,-4.093804,-4.023142,-2.3269308,-1.2033675,-14.596294,23.987755,53.922066,12.170916,7.003329,2.3113637
85,8.829703330993652,27.654844284057617,77.91422271728516,1.3264922204313985,4.962538644855586,-160.0587345245704,-4.45051,9.449999,43.066334,16.209715,-11.940447,-2.0307336,-21.051392,-27.997297,-13.520053,31.078783,-8.866233,-3.300756,-4.1514387,-4.5999417,6.153704,8.932689,23.14814,-29.81475,55.592213,-4.195692,-4.039134,-2.250924,-1.2722244,-14.565947,24.113924,53.951252,11.899481,7.1072783,2.1821659
86,8.778969764709473,27.967973709106445,77.88530731201172,1.3828645603326863,4.960792141226931,-160.22640402342756,-4.633086,9.878317,43.14835,16.726257,-11.968468,-2.218679,-21.012798,-28.048885,-12.931269,30.916126,-9.023718,-3.4201968,-4.0674367,-4.6262913,6.1130085,8.9304905,23.146137,-29.766342,55.609547,-4.273128,-4.0462403,-2.1632547,-1.3105367,-14.549893,24.222492,53.953636,11.584951,7.2155957,2.0490077
87,8.726790428161621,28.29376983642578,77.8560791015625,1.4398317158496106,4.964266584953147,-160.38112385800912,-4.815846,10.301062,43.21686,17.218586,-11.981976,-2.4108748,-20.977512,-28.076296,-12.363396,30.73919,-9.197284,-3.5381207,-4.037438,-4.655358,6.059014,8.956442,23.141119,-29.687061,55.614326,-4.3189645,-4.047545,-2.0756795,-1.3819593,-14.522004,24.391312,53.993603,11.276328,7.3090124,1.9235321
88,8.676036834716797,28.62473487854004,77.82427978515625,1.503540882340878,4.971599305843394,-160.52824358870015,-4.992578,10.710139,43.284084,17.68325,-11.982482,-2.6050754,-20.933968,-28.090462,-11.844077,30.526224,-9.366323,-3.6070094,-3.9928093,-4.686023,6.004482,8.956534,23.13804,-29.648302,55.623158,-4.356897,-4.045899,-1.9987175,-1.4071422,-14.504788,24.496992,53.99611,10.961141,7.3769565,1.8475881
89,8.616007804870605,28.9490966796875,77.788330078125,1.5777654532373706,4.984029085284257,-160.66746823318599,-5.159576,11.096557,43.355453,18.109184,-11.968166,-2.800328,-20.878822,-28.102375,-11.381893,30.269548,-9.521562,-3.608941,-3.970252,-4.7227707,5.937406,8.967154,23.134428,-29.614487,55.61722,-4.3788466,-4.037704,-1.930079,-1.4162631,-14.486612,24.586569,53.995243,10.645834,7.4011493,1.8273854
90,8.55379581451416,29.27805519104004,77.74981689453125,1.6592322533627848,5.001634174769805,-160.79580570325962,-5.322135,11.466459,43.423203,18.504,-11.93927,-2.9976392,-20.818665,-28.106634,-10.961215,29.983278,-9.67515,-3.5713441,-3.9489975,-4.7601676,5.8681545,8.968037,23.133045,-29.60652,55.602905,-4.3813567,-4.0228586,-1.8667369,-1.4057561,-14.478251,24.635706,53.984085,10.314405,7.393128,1.8548415
91,8.49526596069336,29.62274932861328,77.712890625,1.7484230954796705,5.021058324492329,-160.91673059897582,-5.478082,11.823215,43.4847,18.87224,-11.894088,-3.1973302,-20.756634,-28.09242,-10.56999,29.67591,-9.840665,-3.5148473,-3.9397576,-4.804683,5.7988515,8.961564,23.132092,-29.604425,55.58904,-4.374461,-4.009004,-1.8160927,-1.3831359,-14.4704685,24.676191,53.959164,10.002534,7.379645,1.9022057
92,8.430983543395996,29.966888427734375,77.67105865478516,1.8260309946517257,5.0441729012524705,-161.0308319685612,-5.651184,12.209059,43.525013,19.269123,-11.853699,-3.4019706,-20.69268,-28.03203,-10.211378,29.351658,-10.025105,-3.4640076,-3.9578092,-4.838999,5.710497,8.968353,23.130747,-29.597094,55.582123,-4.3739905,-4.0046687,-1.7830024,-1.3561152,-14.455323,24.74232,53.93613,9.749351,7.3854055,1.938128
93,8.35707950592041,30.31725311279297,77.63182067871094,1.9078025342125102,5.06760937225548,-161.13704763509648,-5.8247285,12.593487,43.54661,19.658108,-11.800079,-3.60966,-20.628826,-27.940872,-9.87326,29.009066,-10.2507,-3.4155958,-3.9744916,-4.8743367,5.6353607,8.952725,23.131502,-29.600498,55.579872,-4.37414,-4.017221,-1.7825779,-1.3193791,-14.44385,24.773518,53.880856,9.515435,7.4265156,1.9816566
94,8.284141540527344,30.67854881286621,77.58790588378906,1.9897941313099028,5.093910780699376,-161.23451970192656,-6.0028243,12.981449,43.551052,20.043211,-11.737198,-3.820879,-20.564013,-27.820461,-9.563421,28.646496,-10.504589,-3.3628697,-4.0037837,-4.91113,5.553452,8.92995,23.134521,-29.614712,55.58674,-4.375759,-4.040914,-1.8045253,-1.2736957,-14.430027,24.798983,53.81372,9.307776,7.4851303,2.0297477
95,8.20938777923584,31.04877471923828,77.54285430908203,2.0712285558134638,5.119835983122501,-161.32851175321946,-6.1789823,13.373239,43.548176,20.420301,-11.664866,-4.03575,-20.50141,-27.670763,-9.2769,28.280827,-10.75813,-3.3146596,-4.033078,-4.945917,5.4758773,8.898359,23.138737,-29.631466,55.594833,-4.3746924,-4.0620055,-1.8333787,-1.2200515,-14.416543,24.809801,53.74385,9.162532,7.5416827,2.0844436
96,8.132293701171875,31.42157745361328,77.49687194824219,2.1504310944764233,5.142402001034258,-161.42443827305243,-6.3455606,13.769548,43.547718,20.783499,-11.581875,-4.2542195,-20.443901,-27.492271,-9.00886,27.92768,-10.981196,-3.278134,-4.0537868,-4.9795957,5.411545,8.857585,23.14369,-29.641367,55.599674,-4.3649464,-4.066294,-1.8518068,-1.156265,-14.401738,24.801975,53.679073,9.112238,7.5781455,2.1422386
97,8.049196243286133,31.796672821044922,77.4483413696289,2.2286100267971922,5.162898650599921,-161.52233044546261,-6.5069947,14.172457,43.55241,21.142117,-11.495705,-4.4760675,-20.390081,-27.284603,-8.761075,27.577946,-11.186008,-3.268005,-4.071656,-5.0106907,5.3564057,8.815998,23.147985,-29.63744,55.59547,-4.335878,-4.0408874,-1.8546575,-1.0838754,-14.387146,24.774124,53.62733,9.198668,7.586599,2.2045174
98,7.963555335998535,32.18323516845703,77.40221405029297,2.306377251496887,5.182042485183634,-161.6197464102172,-6.6659136,14.581654,43.556667,21.497477,-11.404936,-4.7010536,-20.3388,-27.047731,-8.534958,27.22681,-11.38133,-3.2756193,-4.0722632,-5.0498276,5.3130174,8.752974,23.156887,-29.63097,55.597927,-4.2849402,-3.9961116,-1.8535916,-0.997468,-14.354019,24.694561,53.58339,9.370116,7.577375,2.273904
99,7.885210990905762,32.576881408691406,77.35432434082031,2.3799486302654103,5.196292293783474,-161.71853035763561,-6.811164,14.9933815,43.558834,21.827324,-11.2929125,-4.9285245,-20.293287,-26.779678,-8.325409,26.895685,-11.530572,-3.2715764,-4.067859,-5.0884066,5.2831116,8.683315,23.168644,-29.618332,55.598114,-4.240886,-3.9533427,-1.8496529,-0.9252664,-14.308167,24.612747,53.56269,9.584311,7.55855,2.3439186
100,7.802464008331299,32.980133056640625,77.30227661132812,2.4454717442687315,5.202005521332615,-161.82027626747086,-6.9350767,15.406578,43.555878,22.117487,-11.146481,-5.1577926,-20.257084,-26.476055,-8.128378,26.608406,-11.599034,-3.2265494,-4.065848,-5.1164856,5.2777143,8.611789,23.17636,-29.584984,55.589912,-4.219646,-3.9347188,-1.8483588,-0.86595696,-14.274215,24.560339,53.538273,9.786025,7.541121,2.4122443
101,7.722296714782715,33.39716720581055,77.24921417236328,2.500789076864745,5.1945208181996945,-161.924981158847,-7.034988,15.824224,43.544487,22.36961,-10.962694,-5.3900075,-20.221548,-26.138624,-7.9790163,26.369995,-11.573553,-3.1440353,-4.058038,-5.1337714,5.3037963,8.530463,23.180988,-29.540274,55.577507,-4.228751,-3.9514725,-1.8513107,-0.8178397,-14.25016,24.52691,53.509995,9.962961,7.525454,2.4808722
102,7.639427661895752,33.820396423339844,77.19847869873047,2.54875931657273,5.1769017972324995,-162.03200973745967,-7.1160607,16.245956,43.527172,22.590841,-10.748594,-5.624682,-20.187922,-25.768433,-7.8669124,26.16786,-11.473669,-3.0348902,-4.0450706,-5.1460066,5.3563957,8.439732,23.184368,-29.482182,55.561764,-4.255319,-3.9900968,-1.8561356,-0.7814504,-14.228149,24.500998,53.486385,10.142047,7.507063,2.5503473
103,7.554296493530273,34.22666549682617,77.17900848388672,2.592647245867309,5.1565721146470676,-162.14185639369092,-7.181065,16.66368,43.508816,22.770666,-10.504541,-5.8590274,-20.171476,-25.361996,-7.7215567,25.993973,-11.310977,-2.88097,-4.0331044,-5.1555877,5.4245386,8.347977,23.18726,-29.39811,55.539104,-4.2884088,-4.0350475,-1.8618121,-0.7649171,-14.199338,24.490242,53.47698,10.313477,7.486196,2.6188622
104,7.4730753898620605,34.64780044555664,77.16236877441406,2.635582449578516,5.141841470518728,-162.25521939514726,-7.23217,17.06919,43.49511,22.89697,-10.230156,-6.0903487,-20.188354,-24.91556,-7.4723787,25.84139,-11.097908,-2.6639273,-4.002037,-5.1575203,5.493119,8.23812,23.187243,-29.326778,55.525288,-4.3426175,-4.071309,-1.8615745,-0.7355966,-14.184674,24.491026,53.45367,10.483274,7.466185,2.6828613
105,7.384105205535889,35.07221984863281,77.13575744628906,2.6837060716784906,5.137121350752589,-162.37931951610332,-7.2673655,17.45398,43.497177,22.963146,-9.9222355,-6.3222356,-20.26672,-24.390854,-6.9996915,25.715225,-10.801976,-2.4067752,-3.99566,-5.1661587,5.563811,8.153277,23.182299,-29.1794,55.48963,-4.3699846,-4.0950437,-1.8632256,-0.7552293,-14.156618,24.538776,53.466354,10.628019,7.441932,2.7439466
106,7.303959846496582,35.517601013183594,77.10570526123047,2.7336887240199137,5.137860234098567,-162.51169526018163,-7.287195,17.823435,43.50909,22.97511,-9.580545,-6.554371,-20.38832,-23.802578,-6.375496,25.617989,-10.430378,-2.1072724,-3.9592257,-5.1706862,5.634942,8.042347,23.175451,-29.05858,55.46703,-4.419724,-4.1147184,-1.858698,-0.7587696,-14.140744,24.589025,53.46586,10.76412,7.415779,2.802939
107,7.220021724700928,35.9615478515625,77.08216094970703,2.7753017915918807,5.136047118709984,-162.63764944770617,-7.2986135,18.193478,43.509823,22.95239,-9.216618,-6.7788057,-20.502344,-23.226677,-5.814058,25.544079,-10.058662,-1.7106827,-3.9471464,-5.166341,5.720145,7.9443026,23.160591,-28.88169,55.43669,-4.471602,-4.132335,-1.8549604,-0.79071546,-14.12447,24.677769,53.479378,10.909543,7.392718,2.8546944
108,7.12801456451416,36.410457611083984,77.07131958007812,2.798302072640772,5.123892950996734,-162.7421609266822,-7.3025517,18.572618,43.479507,22.894318,-8.830765,-6.9873333,-20.56135,-22.740292,-5.5284944,25.485708,-9.759935,-1.165837,-3.9574852,-5.142253,5.8287916,7.8512874,23.138178,-28.659643,55.404617,-4.5401044,-4.1494803,-1.8520187,-0.8406689,-14.111336,24.786785,53.496857,11.082232,7.378273,2.897848
109,7.048707962036133,36.86709213256836,77.06362915039062,2.802142007977455,5.091844483339165,-162.8224758345433,-7.289723,18.962927,43.414967,22.80125,-8.419309,-7.1871943,-20.527975,-22.395222,-5.6429334,25.412092,-9.538616,-0.32221037,-3.9707904,-5.1028924,5.980153,7.727457,23.114048,-28.432125,55.394733,-4.66638,-4.167297,-1.8437247,-0.8959256,-14.104373,24.912159,53.49927,11.264468,7.3748093,2.9305747
110,6.968655586242676,37.333946228027344,77.05768585205078,2.791402730120691,5.0471673737739495,-162.88510923132603,-7.263694,19.357327,43.324764,22.668571,-7.9806905,-7.3795347,-20.45132,-22.142643,-6.017776,25.362392,-9.366428,0.74144787,-4.045687,-5.045207,6.1577573,7.642335,23.074286,-28.113928,55.363995,-4.8072596,-4.185117,-1.8333578,-1.0154241,-14.100156,25.121008,53.53809,11.46893,7.377317,2.9515135
111,6.878540515899658,37.820701599121094,77.05217742919922,2.7633192510128874,5.008028276720516,-162.93421540058446,-7.2492013,19.763803,43.20967,22.513927,-7.5337906,-7.5492334,-20.41481,-21.901558,-6.4665513,25.427256,-9.273003,1.7330923,-4.1466217,-4.966315,6.3325515,7.571955,23.014614,-27.723337,55.33513,-4.917465,-4.2022133,-1.8319978,-1.1405207,-14.098945,25.338537,53.576145,11.717584,7.3873196,2.9638748
112,6.778860092163086,38.303497314453125,77.04805755615234,2.7155083528018906,4.991423240434246,-162.97151541856516,-7.2686167,20.18746,43.06823,22.350788,-7.095529,-7.681115,-20.487099,-21.592772,-6.80741,25.66599,-9.282612,2.368825,-4.2465324,-4.863617,6.4784017,7.517445,22.940964,-27.26759,55.3008,-4.9450617,-4.2166533,-1.8511504,-1.2367107,-14.100594,25.489431,53.60009,12.031589,7.405184,2.9756262
113,6.6803083419799805,38.7947998046875,77.04647827148438,2.6420245464984538,4.99649296990331,-163.00351989345012,-7.3172975,20.646149,42.909863,22.193398,-6.6561527,-7.774756,-20.723566,-21.178473,-6.9686,26.1638,-9.435388,2.489458,-4.3331437,-4.735021,6.5971627,7.488631,22.868183,-26.747047,55.245625,-4.851267,-4.22608,-1.9027466,-1.296455,-14.102782,25.55527,53.61038,12.468919,7.4338546,2.9840195
114,6.579685211181641,39.29038619995117,77.04347229003906,2.545875335657593,5.015511549267002,-163.02669662463055,-7.384642,21.13353,42.730255,22.033379,-6.2135673,-7.837939,-21.068592,-20.698383,-7.0600076,26.842056,-9.69317,2.2826552,-4.4463944,-4.580962,6.698659,7.5012608,22.78039,-26.125713,55.16879,-4.6600804,-4.232738,-1.9789718,-1.3565371,-14.104667,25.60139,53.62787,13.005649,7.471879,2.9844213
115,6.472618103027344,39.78219223022461,77.04229736328125,2.4389778257749577,5.055222537357325,-163.02676372176188,-7.4872146,21.62184,42.506836,21.861168,-5.8009944,-7.867025,-21.430023,-20.197084,-7.1673,27.523859,-9.966305,1.9862027,-4.5971513,-4.411391,6.7733674,7.5344067,22.665916,-25.41512,55.089973,-4.4403715,-4.2394557,-2.0617013,-1.4178704,-14.106632,25.636148,53.643734,13.5344715,7.51275,2.9840944
116,6.354768753051758,40.2818603515625,77.0419921875,2.334629437704529,5.1230520202231435,-162.989837995631,-7.639188,22.078142,42.219845,21.656614,-5.4484644,-7.857989,-21.717419,-19.725086,-7.3733673,28.041328,-10.180832,1.8327835,-4.723003,-4.249982,6.82064,7.5313134,22.566378,-24.721174,55.018692,-4.299667,-4.2443705,-2.1337872,-1.4206502,-14.107368,25.582972,53.59982,13.932951,7.550861,2.9992762
117,6.23792028427124,40.78315353393555,77.0422134399414,2.2355792843870455,5.223309981367422,-162.90925528173625,-7.870377,22.4971,41.82695,21.440191,-5.141901,-7.773771,-21.896473,-19.302366,-7.711646,28.334972,-10.317373,1.9065411,-4.929652,-4.0826216,6.828343,7.558666,22.416794,-23.875172,54.943184,-4.152135,-4.2521663,-2.2090173,-1.4376502,-14.106946,25.543575,53.53823,14.196184,7.5881314,3.006735
118,6.131684303283691,41.29606246948242,77.0440902709961,2.136614397399725,5.351702676901344,-162.79328295735124,-8.163582,22.893642,41.351242,21.21353,-4.8725514,-7.627283,-22.019964,-18.906042,-8.131892,28.497614,-10.418423,2.073363,-5.129383,-3.9137177,6.8043876,7.5611053,22.259228,-23.000042,54.881084,-4.021404,-4.259286,-2.286946,-1.4065104,-14.103824,25.42648,53.426422,14.362309,7.6270156,3.0140376
119,6.012671947479248,41.8170166015625,77.05409240722656,2.035914648161894,5.502265435612409,-162.65072274841506,-8.470974,23.272957,40.868546,20.943882,-4.6818023,-7.488415,-22.123426,-18.515192,-8.594299,28.59306,-10.510964,2.2341132,-5.331363,-3.7444277,6.7584715,7.5439034,22.1004,-22.12933,54.827965,-3.9816465,-4.2650948,-2.3406525,-1.3624992,-14.102085,25.27993,53.304283,14.45494,7.660113,3.051021
120,5.900317192077637,42.324180603027344,77.06531524658203,1.9315489782224111,5.668554401876695,-162.4907297950643,-8.742448,23.636066,40.4565,20.588938,-4.607419,-7.4273114,-22.242151,-18.113499,-9.059255,28.686312,-10.619692,2.291207,-5.5148964,-3.5791698,6.701089,7.490669,21.961866,-21.340721,54.786915,-4.124968,-4.267655,-2.3423083,-1.310751,-14.106343,25.116287,53.189816,14.488384,7.6808887,3.1503465
121,5.791661739349365,42.83219909667969,77.08065795898438,1.817885335573986,5.859186102674073,-162.30769060545023,-8.978515,23.980122,40.12765,20.117863,-4.668605,-7.483092,-22.381477,-17.693312,-9.531795,28.778963,-10.747075,2.2128363,-5.725053,-3.395988,6.619978,7.4062204,21.794376,-20.574541,54.788395,-4.4900355,-4.274465,-2.2788482,-1.2837676,-14.123555,24.972404,53.102604,14.45694,7.6883407,3.3319905
122,5.682923316955566,43.34996032714844,77.10179138183594,1.6979439209012424,6.073792364191664,-162.10004492887424,-9.198059,24.298496,39.8477,19.545383,-4.8339324,-7.6137223,-22.522076,-17.266594,-10.026879,28.839602,-10.878333,2.0520236,-5.9224343,-3.2049937,6.5188932,7.2765775,21.628231,-19.860838,54.820564,-5.0422206,-4.2828903,-2.167515,-1.2394015,-14.154574,24.794083,53.002686,14.351045,7.6861978,3.5792215
123,5.56318998336792,43.856536865234375,77.12801361083984,1.5810825186599418,6.2924895711117825,-161.88227407382075,-9.378047,24.586977,39.624638,18.891924,-5.0659504,-7.7688847,-22.658445,-16.842632,-10.522408,28.880604,-11.010139,1.8379496,-6.1126647,-3.0158658,6.413489,7.1246614,21.463875,-19.209595,54.85712,-5.6688557,-4.2871637,-2.018056,-1.1957138,-14.200188,24.631514,52.92362,14.210546,7.6735897,3.849925
124,5.439507007598877,44.351070404052734,77.161865234375,1.4756913676903973,6.495362113398679,-161.66849818360075,-9.506715,24.851906,39.46053,18.208698,-5.3369713,-7.897627,-22.783176,-16.429216,-10.997217,28.914976,-11.140729,1.6000098,-6.2922997,-2.8381922,6.3186703,6.961985,21.303759,-18.6471,54.879642,-6.2642746,-4.2810287,-1.8387086,-1.171874,-14.261177,24.530441,52.902294,14.081069,7.649512,4.101956
125,5.318864345550537,44.83557891845703,77.19664001464844,1.3819143952970594,6.676821618151404,-161.45485076104825,-9.559857,25.085932,39.37662,17.462187,-5.6431513,-8.010414,-22.884153,-16.025703,-11.450406,28.941801,-11.272888,1.3271955,-6.4616055,-2.6767375,6.2391453,6.7911477,21.152103,-18.173523,54.885914,-6.835021,-4.250472,-1.6145812,-1.1720402,-14.336285,24.502619,52.956276,13.963922,7.6011343,4.3611283
126,5.200364589691162,45.317108154296875,77.23310089111328,1.2952753023496872,6.847315883113538,-161.2364134880569,-9.548265,25.283882,39.36818,16.630524,-5.990099,-8.131894,-22.962984,-15.62777,-11.893107,28.955444,-11.408607,1.0098435,-6.629581,-2.5200467,6.166037,6.6066413,20.995794,-17.768988,54.88979,-7.4222007,-4.205098,-1.3455427,-1.1906426,-14.432081,24.533678,53.065178,13.842503,7.5336246,4.6367254
127,5.0836920738220215,45.794342041015625,77.26756286621094,1.2188489093448955,7.011591675996914,-161.02576502917503,-9.50938,25.454145,39.39882,15.776254,-6.369023,-8.229349,-23.035967,-15.239182,-12.320015,28.962593,-11.543844,0.6799474,-6.784064,-2.3720422,6.095176,6.412219,20.846075,-17.45168,54.876698,-7.983221,-4.1694446,-1.066075,-1.2203946,-14.542728,24.60161,53.20297,13.723972,7.4718175,4.8642893
128,4.967724323272705,46.27013397216797,77.29656219482422,1.1563623800485583,7.174412787293415,-160.83501775360713,-9.480949,25.607578,39.430008,14.966774,-6.7755575,-8.266515,-23.120605,-14.864962,-12.726286,28.967623,-11.671544,0.36918968,-6.9182243,-2.2377923,6.0220704,6.2172837,20.713634,-17.232428,54.829605,-8.473059,-4.1672034,-0.8116902,-1.2606347,-14.660648,24.690844,53.349705,13.616921,7.44034,4.978729
129,4.8544535636901855,46.73970031738281,77.32608032226562,1.1059078651134748,7.341392378352611,-160.6737182449878,-9.464021,25.74219,39.44523,14.175462,-7.2456565,-8.227117,-23.229872,-14.500989,-13.1063795,28.969782,-11.78802,0.08632301,-7.029409,-2.1136703,5.94098,6.0297775,20.596628,-17.11871,54.737835,-8.911616,-4.2112055,-0.57659477,-1.321536,-14.790012,24.81555,53.514492,13.549869,7.4518895,4.947999
130,4.744362831115723,47.19710922241211,77.35191345214844,1.0663627503875674,7.508241052443601,-160.53308565446656,-9.440552,25.853773,39.466072,13.38115,-7.770733,-8.132619,-23.354723,-14.147448,-13.463892,28.97209,-11.896843,-0.18566024,-7.120159,-2.0007489,5.8560286,5.847049,20.496025,-17.104551,54.607395,-9.314024,-4.285293,-0.34878153,-1.396845,-14.929311,24.973814,53.70098,13.505439,7.4915037,4.8121753
131,4.637559413909912,47.65083312988281,77.37944793701172,1.0437491104001202,7.665352858282565,-160.39818895556905,-9.418399,25.950556,39.511543,12.659662,-8.280783,-8.000811,-23.477058,-13.815788,-13.807593,28.97262,-12.001715,-0.45415893,-7.1980944,-1.9057149,5.776741,5.6551776,20.409094,-17.173067,54.4597,-9.621617,-4.3707924,-0.15077764,-1.4693203,-15.081186,25.14395,53.882477,13.440054,7.543963,4.6141634
132,4.534271240234375,48.08930969238281,77.40315246582031,1.045591038578469,7.803453871415967,-160.2536295171487,-9.401935,26.036736,39.603004,12.078609,-8.703454,-7.847847,-23.580864,-13.519365,-14.1452265,28.973917,-12.107747,-0.72627723,-7.2694945,-1.8413805,5.7111034,5.4416456,20.340672,-17.309448,54.313732,-9.778526,-4.4477243,-0.0054568304,-1.52513,-15.235161,25.300182,54.039574,13.304926,7.593466,4.3957953
133,4.433895111083984,48.524375915527344,77.4271011352539,1.0788973777334232,7.922909675394723,-160.09223826724346,-9.425415,26.133757,39.728218,11.681061,-9.068194,-7.6268826,-23.670778,-13.2686615,-14.476821,28.98781,-12.220922,-1.009547,-7.3481016,-1.8350807,5.651817,5.2163596,20.310564,-17.50805,54.16045,-9.746283,-4.5080724,0.07733325,-1.6023808,-15.341122,25.451866,54.22457,13.036051,7.6356277,4.1551056
134,4.3372483253479,48.95298385620117,77.45449829101562,1.138764303090771,8.02889744278826,-159.9222207847446,-9.4762,26.232254,39.880924,11.423428,-9.400851,-7.343599,-23.753548,-13.055983,-14.799221,29.009645,-12.336561,-1.2981138,-7.410596,-1.8426007,5.605187,4.956473,20.28096,-17.804005,54.008015,-9.568807,-4.565158,0.113192745,-1.627997,-15.502678,25.594616,54.33337,12.692916,7.689732,3.884062
135,4.236584663391113,49.38023376464844,77.49286651611328,1.2148764623064918,8.11764578532099,-159.75165059320332,-9.519641,26.320417,40.07682,11.32954,-9.659858,-7.0911317,-23.81415,-12.864863,-15.115182,29.018442,-12.445666,-1.5798994,-7.4627447,-1.870547,5.5719357,4.684873,20.266342,-18.156527,53.85538,-9.293347,-4.62218,0.11127729,-1.6408777,-15.666997,25.720587,54.426476,12.354605,7.7426834,3.5832143
136,4.139839172363281,49.80119323730469,77.53810119628906,1.2916683860896332,8.18515848961838,-159.58951387539565,-9.534535,26.40659,40.32549,11.460643,-9.819146,-6.961798,-23.834482,-12.673059,-15.430412,28.988626,-12.53795,-1.8433521,-7.498154,-1.9023546,5.554905,4.4055057,20.263754,-18.548615,53.71689,-8.975455,-4.6844854,0.08393488,-1.640777,-15.831102,25.820765,54.512604,12.1149,7.7859287,3.2564335
137,4.03413200378418,50.21319580078125,77.58697509765625,1.3687010978908012,8.229163929794954,-159.44119386132786,-9.482125,26.482353,40.69857,11.778509,-9.763613,-7.057387,-23.805841,-12.476678,-15.745699,28.910267,-12.611925,-2.079744,-7.5144773,-1.940273,5.553078,4.114501,20.274164,-18.98868,53.603558,-8.615662,-4.764834,0.011998095,-1.6329062,-15.9865265,25.89991,54.605602,11.999979,7.8129067,2.8771844
138,3.9387502670288086,50.62165832519531,77.63369750976562,1.4565155025791232,8.252195144757055,-159.30117990878597,-9.369663,26.53579,41.17488,12.240395,-9.526905,-7.2969766,-23.740284,-12.290321,-16.05564,28.80168,-12.675147,-2.296363,-7.514825,-1.995819,5.5633345,3.8091245,20.298204,-19.483368,53.50878,-8.189432,-4.857455,-0.10251261,-1.618392,-16.134811,25.962006,54.70274,11.959775,7.827994,2.4512515
139,3.848130226135254,51.027915954589844,77.6750259399414,1.5557043586952117,8.2563980690273,-159.16142130624257,-9.245102,26.569843,41.624256,12.899289,-9.304989,-7.500494,-23.64772,-12.118205,-16.357405,28.674526,-12.727603,-2.506078,-7.533118,-2.0714784,5.5793467,3.5184383,20.32499,-19.970213,53.417088,-7.7001543,-4.9401813,-0.21582265,-1.6412073,-16.24266,26.027758,54.848007,11.969514,7.834529,2.0234106
140,3.7523887157440186,51.42267990112305,77.72144317626953,1.66351100298686,8.24404351954239,-159.01454644871896,-9.146177,26.584576,41.922802,13.782421,-9.284568,-7.490715,-23.538374,-11.96182,-16.649876,28.540733,-12.769986,-2.722068,-7.510361,-2.1451771,5.6198063,3.201441,20.357882,-20.509127,53.320312,-7.19457,-4.988968,-0.28380865,-1.5921829,-16.393114,26.010336,54.899284,12.006738,7.8494306,1.6629993
141,3.663548469543457,51.793636322021484,77.77253723144531,1.7777130083915564,8.211802808144416,-158.855248871447,-9.112247,26.591866,41.969784,14.971494,-9.536427,-7.1823916,-23.413221,-11.824175,-16.93717,28.412683,-12.804036,-2.9494796,-7.5150585,-2.2169518,5.6794806,2.9036722,20.377666,-21.009798,53.205738,-6.614523,-4.9924073,-0.29794767,-1.5606937,-16.532084,25.969929,54.95326,12.070624,7.870703,1.363674
142,3.5837173461914062,52.17841720581055,77.82141876220703,1.8962649569857317,8.158261888238565,-158.69026363668843,-9.096753,26.574179,41.860878,16.380417,-9.928832,-6.686195,-23.26126,-11.697998,-17.220428,28.27241,-12.827663,-3.1812625,-7.536316,-2.2905307,5.7532554,2.612705,20.386034,-21.495026,53.09334,-5.9642005,-4.9648213,-0.2790361,-1.5518703,-16.64973,25.913769,55.029114,12.172796,7.8916273,1.0978618
143,3.5060112476348877,52.556575775146484,77.87528228759766,2.0136025464253713,8.087932496766697,-158.53134988801867,-9.033946,26.519426,41.752956,17.854439,-10.375824,-6.1191826,-23.086819,-11.568654,-17.492794,28.114843,-12.841297,-3.413032,-7.523599,-2.3545208,5.8422585,2.302846,20.383575,-22.014275,52.99384,-5.3162265,-4.9220433,-0.23202386,-1.4970307,-16.793657,25.81044,55.05019,12.304586,7.911576,0.8801344
144,3.439293384552002,52.92510986328125,77.92835235595703,2.1271096098824676,8.006323023169768,-158.38908636557647,-8.86936,26.42892,41.79784,19.277405,-10.815548,-5.5949745,-22.896751,-11.426114,-17.746088,27.939478,-12.849328,-3.639812,-7.5141163,-2.4184177,5.9301267,2.0268235,20.372168,-22.50184,52.886677,-4.7085795,-4.8797493,-0.16649944,-1.4512222,-16.929916,25.735405,55.075832,12.466889,7.919906,0.70585454
145,3.3641648292541504,53.28535461425781,77.98307800292969,2.2397499861441217,7.907235991940096,-158.2686184038254,-8.574717,26.316963,42.061947,20.664639,-11.261978,-5.12087,-22.682276,-11.267851,-17.97441,27.737358,-12.8491745,-3.8603718,-7.488888,-2.484033,6.024945,1.7681555,20.352962,-22.989748,52.781403,-4.1500316,-4.8350096,-0.06770817,-1.3900576,-17.069525,25.669641,55.078358,12.66455,7.918527,0.5733523
146,3.281426429748535,53.6430778503418,78.03373718261719,2.353102677354316,7.791092128007941,-158.16276509513125,-8.184563,26.182817,42.449986,22.072735,-11.749705,-4.639652,-22.444197,-11.101443,-18.183004,27.513155,-12.8410425,-4.0765896,-7.4555225,-2.5515945,6.1280684,1.5254533,20.326336,-23.47298,52.675674,-3.6137013,-4.7809496,0.062258292,-1.324437,-17.210794,25.610802,55.06795,12.90255,7.9097123,0.48178416
147,3.209404945373535,53.99022674560547,78.08638000488281,2.4631117412956054,7.673725568889878,-158.06309316364118,-7.7464356,26.014662,42.868763,23.469217,-12.251896,-4.16876,-22.2036,-10.929838,-18.38096,27.282034,-12.829774,-4.2884784,-7.4390807,-2.6242194,6.217672,1.3271838,20.300863,-23.90494,52.553284,-3.1093285,-4.727851,0.19247504,-1.2830529,-17.323267,25.578785,55.08805,13.152667,7.8875437,0.43673325
148,3.1251044273376465,54.34408187866211,78.136474609375,2.5651167165097166,7.571171358178635,-157.96051826377263,-7.309599,25.794388,43.227932,24.813156,-12.736182,-3.7282689,-21.980663,-10.755492,-18.578384,27.056955,-12.819582,-4.496279,-7.4014997,-2.6802216,6.284552,1.1324791,20.261965,-24.32299,52.437145,-2.6666546,-4.68869,0.29857972,-1.2061243,-17.459946,25.528456,55.0776,13.398874,7.8554225,0.4587847
149,3.0496883392333984,54.677696228027344,78.18342590332031,2.662608552432687,7.488561981077792,-157.85546252947617,-6.8820677,25.51584,43.53209,26.111574,-13.2048855,-3.3118057,-21.780312,-10.580744,-18.77042,26.836765,-12.812303,-4.697431,-7.399008,-2.7457533,6.311027,1.0107889,20.232113,-24.638767,52.286213,-2.2481885,-4.6627135,0.37320602,-1.179735,-17.553526,25.532572,55.137882,13.659492,7.797911,0.5624904
150,2.9678447246551514,55.01192855834961,78.22321319580078,2.755147849127062,7.417952417984263,-157.7511090880534,-6.4496083,25.191204,43.814785,27.393335,-13.676123,-2.9147382,-21.5917,-10.402299,-18.955677,26.614683,-12.804789,-4.8927083,-7.3713703,-2.7982519,6.3152857,0.8929932,20.188086,-24.947086,52.14342,-1.8739171,-4.6467037,0.4372283,-1.1105822,-17.6714,25.51861,55.163338,13.936248,7.7277474,0.7465315
151,2.884655237197876,55.33457565307617,78.26016998291016,2.8364858917630524,7.3535667690036375,-157.64355563410354,-6.025239,24.815872,44.036613,28.637938,-14.131665,-2.5630877,-21.41474,-10.220099,-19.145247,26.403006,-12.797112,-5.0877504,-7.356832,-2.8351643,6.3073354,0.8045106,20.137617,-25.21136,51.988323,-1.5711238,-4.6431623,0.47803652,-1.0468487,-17.790981,25.515606,55.186527,14.189392,7.6567135,0.95585406
152,2.8053205013275146,55.65903854370117,78.28812408447266,2.9001668622710377,7.290477587972015,-157.52853086159845,-5.623579,24.385794,44.159676,29.825481,-14.553861,-2.2827275,-21.248648,-10.032978,-19.3509,26.212393,-12.788664,-5.288091,-7.34905,-2.8343813,6.3001904,0.7191786,20.065405,-25.460342,51.837288,-1.3838712,-4.6563168,0.4901389,-0.9532791,-17.942434,25.491964,55.155895,14.367797,7.602659,1.1442055
153,2.7367186546325684,55.97289276123047,78.30697631835938,2.94120237251663,7.228577285307197,-157.40543468313527,-5.2560015,23.899374,44.176643,30.964846,-14.944963,-2.0860226,-21.090464,-9.836941,-19.580515,26.0367,-12.771431,-5.4939213,-7.370463,-2.8063772,6.290032,0.66883665,19.991144,-25.660341,51.665085,-1.3472302,-4.6975274,0.46611923,-0.880767,-18.081823,25.479216,55.126457,14.451877,7.560885,1.3017303
154,2.6713812351226807,56.27459716796875,78.32669830322266,2.9653099883584426,7.170354804841143,-157.27583790827612,-4.917147,23.350197,44.110435,32.058567,-15.309993,-1.9612347,-20.941284,-9.634938,-19.82595,25.872335,-12.748226,-5.702706,-7.41313,-2.7642243,6.2703986,0.65413654,19.923264,-25.816677,51.472,-1.4339027,-4.7605696,0.41117805,-0.8315454,-18.198933,25.47753,55.112534,14.467915,7.522963,1.4508237
155,2.605282783508301,56.57288360595703,78.34027099609375,2.981634625995987,7.114314264047169,-157.1393347337248,-4.603352,22.732412,43.964867,33.094196,-15.636235,-1.9018093,-20.807777,-9.435937,-20.074936,25.736267,-12.735379,-5.9163127,-7.4617867,-2.7039857,6.2456827,0.6431321,19.845165,-25.96384,51.287037,-1.5800433,-4.822318,0.3337699,-0.76151377,-18.32525,25.453627,55.06973,14.438309,7.4952664,1.5856831
156,2.542313575744629,56.86954879760742,78.34910583496094,3.0012943028645984,7.058732271156095,-156.9953535007,-4.30345,22.034748,43.746075,34.043858,-15.907073,-1.9023205,-20.695107,-9.250543,-20.314383,25.64357,-12.748589,-6.1366124,-7.531363,-2.6643846,6.211832,0.65930045,19.799988,-26.096752,51.089863,-1.7216165,-4.854817,0.23611963,-0.7233885,-18.397854,25.42497,55.07216,14.390741,7.4715843,1.6875126
157,2.477449893951416,57.161705017089844,78.35043334960938,3.0266737372356696,7.001852675534349,-156.8455253467964,-4.0208826,21.246626,43.442616,34.90778,-16.117678,-1.9619852,-20.608894,-9.08349,-20.537165,25.609335,-12.797269,-6.3663664,-7.5777154,-2.6134732,6.1766825,0.64034593,19.73544,-26.272144,50.932213,-1.8682133,-4.8493395,0.12193497,-0.61551356,-18.500938,25.325796,55.00318,14.296112,7.4674478,1.7644696
158,2.415039300918579,57.448482513427734,78.3484115600586,3.0533654812550837,6.945024184578892,-156.6893378692082,-3.7602859,20.370325,43.05965,35.69397,-16.276085,-2.087712,-20.54444,-8.929634,-20.751123,25.621485,-12.87118,-6.6042166,-7.662414,-2.5801556,6.13213,0.67171615,19.703163,-26.40149,50.743855,-2.0349257,-4.816741,-0.0204633,-0.54627496,-18.551714,25.239145,54.976475,14.153606,7.4699216,1.8091768
159,2.3528554439544678,57.732147216796875,78.33732604980469,3.0735968187757843,6.891556089049347,-156.52331816479216,-3.518244,19.430239,42.625896,36.402706,-16.396137,-2.27833,-20.492989,-8.77879,-20.969215,25.65502,-12.957095,-6.8453865,-7.710391,-2.5238466,6.086592,0.65148836,19.654737,-26.595743,50.60406,-2.2139583,-4.7781086,-0.16840461,-0.40671742,-18.630322,25.07411,54.885628,14.014987,7.4809084,1.8426005
160,2.2988500595092773,58.010929107666016,78.32005310058594,3.0818871920053335,6.844465778092452,-156.344179070285,-3.2891223,18.450243,42.169205,37.033688,-16.491224,-2.5313015,-20.44794,-8.623085,-21.202898,25.689232,-13.043817,-7.085261,-7.780227,-2.4505749,6.0356746,0.6352788,19.612852,-26.787064,50.474365,-2.3626072,-4.7495127,-0.31940448,-0.2751918,-18.70029,24.908768,54.806984,13.950574,7.48682,1.8615315
161,2.238888740539551,58.277503967285156,78.297119140625,3.0729264291741427,6.808373746566347,-156.15476899907082,-3.0832465,17.426292,41.664642,37.587624,-16.56921,-2.8682537,-20.412216,-8.45559,-21.452745,25.721764,-13.131892,-7.3201184,-7.86579,-2.3550224,5.9724903,0.6244486,19.579561,-26.977825,50.355442,-2.4870872,-4.7372236,-0.48507965,-0.14932567,-18.760706,24.735231,54.739357,13.980338,7.492954,1.8611639
162,2.18402361869812,58.553672790527344,78.26773834228516,3.050405021946692,6.780540755417698,-155.955482545295,-2.8982806,16.34967,41.11097,38.06496,-16.626553,-3.2830827,-20.387486,-8.281442,-21.714,25.760921,-13.225063,-7.5534716,-7.9389033,-2.2328928,5.903478,0.59121937,19.542091,-27.201225,50.26362,-2.604682,-4.73217,-0.6630583,0.022186758,-18.834448,24.508165,54.630123,14.058684,7.5049644,1.8468395
163,2.132005453109741,58.82145690917969,78.23699951171875,3.0235921761178037,6.752588086867759,-155.73962010206503,-2.7065454,15.240928,40.569565,38.464268,-16.657797,-3.7290099,-20.365902,-8.111931,-21.988428,25.807882,-13.320361,-7.7910957,-8.0637045,-2.1133392,5.833741,0.58697504,19.525757,-27.392551,50.162617,-2.685179,-4.7257214,-0.83184856,0.13673392,-18.873255,24.329477,54.584164,14.188685,7.5017567,1.8168659
164,2.082958698272705,59.093223571777344,78.20170593261719,2.999875426944626,6.716132891691443,-155.50010735832743,-2.4802513,14.124607,40.097553,38.784172,-16.654797,-4.1574774,-20.340576,-7.95728,-22.279224,25.865345,-13.415653,-8.038946,-8.166129,-1.9956634,5.784194,0.52249706,19.51484,-27.664352,50.106106,-2.7359545,-4.7122393,-0.9545141,0.2946686,-18.913506,24.096075,54.517628,14.3182745,7.476198,1.795469
165,2.0332653522491455,59.36993408203125,78.16466522216797,2.9852509092160338,6.663280997209511,-155.23371510151782,-2.2048604,12.990025,39.686222,39.00707,-16.600325,-4.555132,-20.307102,-7.826243,-22.584743,25.943205,-13.514199,-8.304104,-8.276735,-1.8895229,5.7621818,0.41818598,19.515198,-27.987492,50.080948,-2.748694,-4.689956,-1.0250789,0.45412943,-18.943714,23.849022,54.47028,14.459569,7.4069796,1.7748355
166,1.9860320091247559,59.642173767089844,78.12639617919922,2.973689067118813,6.600137211766322,-154.9447674856848,-1.8929328,11.8348675,39.30832,39.135857,-16.500412,-4.944556,-20.268972,-7.7106447,-22.904707,26.03573,-13.615664,-8.581818,-8.43869,-1.7891238,5.753849,0.3218746,19.526474,-28.294966,50.06268,-2.7149074,-4.6626425,-1.0636812,0.5715198,-18.952208,23.642487,54.47515,14.632243,7.3041654,1.7449169
167,1.9610505104064941,59.91512680053711,78.105224609375,2.954892169105283,6.539409123818489,-154.6379942833562,-1.5580096,10.69952,38.992214,39.205257,-16.381922,-5.3304863,-20.230429,-7.5946875,-23.243046,26.120836,-13.711933,-8.859854,-8.54664,-1.6882428,5.753799,0.15954241,19.555002,-28.70867,50.084366,-2.6653256,-4.630262,-1.0694188,0.7482272,-18.949482,23.354597,54.44817,14.806541,7.2048697,1.7288547
168,1.924463152885437,60.18286895751953,78.06885528564453,2.9189809586286555,6.493678866904113,-154.31784411587512,-1.2141546,9.62418,38.766388,39.25081,-16.271418,-5.717424,-20.196686,-7.4636087,-23.603678,26.179111,-13.795709,-9.125921,-8.699034,-1.5691484,5.7413116,0.025787761,19.587154,-29.083094,50.096302,-2.5572553,-4.595259,-1.0613712,0.8768691,-18.937387,23.13728,54.46027,15.024792,7.140311,1.7254695
169,1.8808709383010864,60.45963668823242,78.02261352539062,2.858391325184274,6.46593479091073,-153.98456051146215,-0.85144645,8.631275,38.660046,39.27734,-16.173016,-6.111603,-20.161325,-7.3054276,-23.990717,26.192402,-13.861062,-9.371766,-8.878146,-1.4194515,5.7168803,-0.09641663,19.618599,-29.449251,50.113403,-2.3761823,-4.5596023,-1.0318326,0.9834337,-18.922565,22.961649,54.49009,15.312283,7.1262813,1.7389041
170,1.8579157590866089,60.72520446777344,77.98606872558594,2.7808463045457357,6.449780539317371,-153.63630188550167,-0.46496227,7.6989546,38.64707,39.27041,-16.072615,-6.5063186,-20.125786,-7.131568,-24.40035,26.17921,-13.915122,-9.605537,-8.989462,-1.2626431,5.693827,-0.28293082,19.676592,-29.93821,50.16352,-2.1711116,-4.519255,-0.9694824,1.1372566,-18.891487,22.70931,54.498936,15.636227,7.14304,1.7719772
171,1.8258514404296875,60.98965835571289,77.94708251953125,2.697499426139285,6.4437356187033705,-153.2741317836549,-0.07409585,6.7999854,38.675003,39.22775,-15.965524,-6.8872285,-20.099482,-6.957017,-24.826784,26.157352,-13.961416,-9.839285,-9.162895,-1.0929735,5.6620007,-0.43136838,19.724781,-30.351795,50.20079,-1.9229298,-4.4749026,-0.90203816,1.246172,-18.863066,22.541475,54.53493,15.955494,7.1736345,1.8146435
172,1.804701566696167,61.259971618652344,77.90856170654297,2.6206448623308947,6.4462425070549365,-152.89936872698604,0.30055428,5.9060836,38.693233,39.14976,-15.849271,-7.240538,-20.094316,-6.799466,-25.263449,26.150982,-14.006951,-10.08539,-9.327411,-0.93481654,5.623765,-0.59263504,19.77246,-30.759563,50.24201,-1.6922355,-4.422516,-0.83699185,1.3640863,-18.83054,22.379408,54.5603,16.183292,7.2011595,1.8746977
173,1.79335618019104,61.52888488769531,77.8669204711914,2.5558514712938294,6.4651308432844665,-152.51305650546593,0.66290176,5.016628,38.735775,39.02966,-15.736348,-7.541704,-20.124025,-6.6680636,-25.711058,26.169378,-14.053029,-10.347382,-9.449591,-0.8025692,5.5732727,-0.79023683,19.83532,-31.206337,50.291367,-1.4979626,-4.3547053,-0.76601,1.5073931,-18.778639,22.184011,54.56921,16.281475,7.2239466,1.9653883
174,1.7814520597457886,61.805564880371094,77.82247924804688,2.4959534291908803,6.498318426923164,-152.11440127194408,1.0223826,4.1451745,38.812805,38.869198,-15.622039,-7.8047175,-20.176342,-6.5503263,-26.172094,26.193037,-14.092905,-10.619308,-9.578413,-0.6814517,5.5112944,-0.9886885,19.904453,-31.637291,50.33784,-1.3037102,-4.2756352,-0.6894383,1.6369971,-18.712639,22.011913,54.589603,16.302792,7.249268,2.0776305
175,1.7635947465896606,62.0809440612793,77.7799301147461,2.434228045353414,6.5293481911696745,-151.7017065499428,1.3675547,3.2843606,38.840946,38.680424,-15.480066,-8.0738,-20.234327,-6.4395165,-26.644814,26.229717,-14.137316,-10.89691,-9.718087,-0.5628747,5.450199,-1.1809366,19.972105,-32.040905,50.38134,-1.1120727,-4.1970015,-0.62272227,1.7623541,-18.640436,21.868673,54.611412,16.282515,7.2732887,2.1897666
176,1.7564561367034912,62.3642578125,77.73224639892578,2.363405740348918,6.542013423748196,-151.2735539355306,1.6889775,2.423452,38.73678,38.466698,-15.278829,-8.39424,-20.265638,-6.3180876,-27.124788,26.247938,-14.174677,-11.178616,-9.869503,-0.4396716,5.404195,-1.3630036,20.033426,-32.41053,50.421116,-0.9274257,-4.130364,-0.5811697,1.8908876,-18.570282,21.757492,54.626736,16.258059,7.2920814,2.2806945
177,1.7440465688705444,62.64792251586914,77.68318939208984,2.2837162601786316,6.53065427055572,-150.82207577835865,1.9877672,1.5447633,38.463768,38.21768,-14.996251,-8.8056135,-20.263384,-6.188595,-27.61473,26.251265,-14.210548,-11.465888,-10.0273,-0.31565768,5.376846,-1.540625,20.093021,-32.759136,50.461136,-0.7424803,-4.0764737,-0.5711527,2.0314243,-18.498,21.67168,54.633057,16.223839,7.305144,2.3426085
178,1.7275760173797607,62.92749786376953,77.6283187866211,2.1983161073763005,6.504497447876485,-150.3505177321619,2.2713647,0.6569378,38.072857,37.93161,-14.654293,-9.275694,-20.241285,-6.0561314,-28.115103,26.245403,-14.244413,-11.759397,-10.173157,-0.2055473,5.3605475,-1.7222538,20.169983,-33.112873,50.497955,-0.5675048,-4.0283513,-0.5821999,2.1839266,-18.398792,21.585905,54.640232,16.153795,7.3118606,2.3871002
179,1.7198724746704102,63.22040557861328,77.57600402832031,2.104445907425879,6.469645947795194,-149.87362235741105,2.5357091,-0.20632635,37.612858,37.63761,-14.2952385,-9.741038,-20.20902,-5.913179,-28.6193,26.227543,-14.270283,-12.054344,-10.3281145,-0.093998566,5.35417,-1.8879769,20.248478,-33.428818,50.51845,-0.41389823,-3.9893327,-0.60804206,2.3180974,-18.297226,21.535574,54.656193,16.086752,7.3134604,2.4230163
180,1.7146223783493042,63.514827728271484,77.5262222290039,2.000083989593611,6.43180427338294,-149.4060169759252,2.7750475,-1.0101842,37.134594,37.369015,-13.962565,-10.137499,-20.185312,-5.760463,-29.122433,26.219318,-14.295534,-12.3439,-10.478029,0.021502966,5.3548646,-2.0390258,20.328577,-33.712215,50.51619,-0.30798692,-3.960842,-0.63906133,2.4578428,-18.19301,21.487898,54.65479,16.019796,7.309994,2.4617374
181,1.7283058166503906,63.80394744873047,77.47258758544922,1.8823781243945708,6.389366965705797,-148.95232582054626,2.978451,-1.77006,36.60131,37.132774,-13.652732,-10.457553,-20.159882,-5.587869,-29.620367,26.198414,-14.305865,-12.625561,-10.614887,0.14339353,5.3672442,-2.1803567,20.410442,-33.96512,50.489273,-0.26839772,-3.9477139,-0.68369955,2.5755787,-18.089628,21.46047,54.65858,15.978111,7.2998815,2.4989986
182,1.7284963130950928,64.10467529296875,77.40831756591797,1.753425490236716,6.340490953606758,-148.50450669770274,3.1523025,-2.4959743,36.00526,36.91567,-13.34991,-10.732541,-20.131544,-5.401734,-30.11675,26.172432,-14.30808,-12.90246,-10.746786,0.26987186,5.389163,-2.308021,20.49384,-34.18558,50.44091,-0.27685407,-3.947616,-0.7433593,2.70475,-17.98601,21.439054,54.640785,15.929366,7.284719,2.5325835
183,1.726955771446228,64.39961242675781,77.34349822998047,1.6186551845049828,6.290563778364848,-148.0589945125324,3.3210096,-3.1507401,35.436935,36.70125,-13.063524,-10.955834,-20.109867,-5.2089787,-30.614033,26.14816,-14.308459,-13.181449,-10.872825,0.39496142,5.4183087,-2.4299173,20.579588,-34.38569,50.378033,-0.31064788,-3.9511166,-0.796492,2.8161056,-17.881786,21.429682,54.62866,15.897413,7.2655015,2.572887
184,1.7332063913345337,64.6965560913086,77.27552032470703,1.4831624148908331,6.245102715219895,-147.6124218558419,3.5053666,-3.6942544,34.98627,36.478878,-12.805349,-11.119737,-20.10503,-5.016701,-31.114325,26.134233,-14.313937,-13.469703,-10.999062,0.51314235,5.447513,-2.543406,20.668041,-34.56855,50.3047,-0.3434992,-3.9486055,-0.8224054,2.9352643,-17.773363,21.407185,54.601665,15.860554,7.2450604,2.6310017
185,1.741584062576294,65.00041198730469,77.20240020751953,1.3445215092712115,6.206198362848517,-147.1641050385412,3.7192466,-4.1054792,34.69741,36.253075,-12.59935,-11.252449,-20.11695,-4.819591,-31.618402,26.126266,-14.324458,-13.771354,-11.122478,0.625967,5.4758377,-2.650078,20.75932,-34.735798,50.219738,-0.36468297,-3.9331138,-0.80829173,3.0488284,-17.658192,21.377037,54.57188,15.8305435,7.2247424,2.7064464
186,1.7489758729934692,65.3250503540039,77.1274185180664,1.2014075466902574,6.170848662087663,-146.71587473069798,3.9465475,-4.408684,34.51593,36.0279,-12.431145,-11.346998,-20.141188,-4.6164217,-32.124794,26.123814,-14.338883,-14.082132,-11.243538,0.73446673,5.5044103,-2.7479928,20.853489,-34.883274,50.12209,-0.38890803,-3.9111257,-0.7677831,3.1701844,-17.53489,21.335905,54.52832,15.794672,7.203271,2.7944384
187,1.7699943780899048,65.63632202148438,77.04767608642578,1.061011436101094,6.136364571426125,-146.2686276925213,4.164113,-4.631254,34.3831,35.78892,-12.253158,-11.343065,-20.179386,-4.420576,-32.63257,26.13739,-14.360806,-14.396191,-11.36031,0.831269,5.5374284,-2.844051,20.95162,-35.01961,50.01959,-0.43181214,-3.8934996,-0.71857893,3.2781715,-17.405716,21.293798,54.490925,15.766948,7.176045,2.89861
188,1.7902331352233887,65.9496841430664,76.965576171875,0.9301037422887605,6.099988157783265,-145.82302513391926,4.3495264,-4.800428,34.240753,35.52148,-12.018543,-11.180441,-20.23454,-4.2466683,-33.141113,26.18098,-14.395327,-14.7076845,-11.474767,0.9104242,5.5767603,-2.940573,21.054848,-35.14938,49.91751,-0.5089385,-3.8910553,-0.67900085,3.3852248,-17.271782,21.24271,54.449287,15.736412,7.1399245,3.023877
189,1.8122246265411377,66.27264404296875,76.8785629272461,0.8311491091306076,6.045454183002292,-145.35444599278455,4.527325,-4.9552364,34.063644,35.175667,-11.619901,-10.9147,-20.303972,-4.1486244,-33.662987,26.31055,-14.474401,-15.000033,-11.609864,0.95090455,5.6384096,-3.0400803,21.164076,-35.272457,49.810715,-0.6312939,-3.910488,-0.6571215,3.4755352,-17.135912,21.180721,54.416912,15.706778,7.086003,3.1841679
190,1.8510173559188843,66.59638214111328,76.78469848632812,0.7470006850274468,5.982961832334367,-144.87724492586608,4.6950574,-5.0622835,33.893967,34.780632,-11.119257,-10.554783,-20.378199,-4.1184297,-34.191505,26.504103,-14.581057,-15.000033,-11.7486925,0.9713355,5.7132416,-3.139063,21.279463,-35.385963,49.69564,-0.78817433,-3.9447374,-0.6425107,3.5542448,-16.998394,21.109905,54.387226,15.679906,7.0191383,3.3731632
191,1.8840117454528809,66.92183685302734,76.6912841796875,0.6715141612743668,5.921629909695549,-144.40253614667037,4.834958,-5.107455,33.73714,34.3819,-10.6885395,-9.958497,-20.47083,-4.1056366,-34.714413,26.721615,-14.694815,-15.000033,-11.883185,0.97347265,5.789201,-3.236814,21.400528,-35.494797,49.583443,-0.9629914,-3.983852,-0.6247875,3.632336,-16.858662,21.04262,54.350925,15.662567,6.9551716,3.564554
192,1.9262267351150513,67.2518081665039,76.59769439697266,0.6081583180053367,5.865626840638551,-143.93205432881783,4.9419656,-5.095345,33.591465,34.006847,-10.492869,-8.979402,-20.58778,-4.110188,-35.221607,26.961926,-14.81194,-15.000033,-12.009838,0.95187,5.8586664,-3.3353903,21.525925,-35.605488,49.485535,-1.1384791,-4.018069,-0.59321535,3.6986492,-16.716522,21.004162,54.31754,15.6803875,6.9094663,3.7312276
193,1.954415202140808,67.60372161865234,76.49398040771484,0.5624109728417345,5.817200553494417,-143.45796334754024,4.98006,-4.9959064,33.46592,33.7054,-10.578747,-7.346546,-20.735336,-4.1423335,-35.712822,27.236485,-14.9405155,-15.000033,-12.133063,0.89996606,5.9155993,-3.439541,21.65634,-35.728474,49.407417,-1.3226573,-4.046301,-0.54164124,3.7599106,-16.56913,20.990305,54.282463,15.742977,6.8948164,3.8660111
194,2.0043606758117676,67.94596099853516,76.39105987548828,0.5343830805066915,5.773950523669874,-142.98239660078863,4.9516053,-4.821069,33.35939,33.47083,-10.875296,-5.211905,-20.910137,-4.2032847,-36.190365,27.546011,-15.081821,-15.000033,-12.251308,0.81854784,5.9648905,-3.5489159,21.792187,-35.85897,49.343803,-1.5209819,-4.073392,-0.47668895,3.8100667,-16.415462,20.995743,54.251778,15.842524,6.8999224,3.9827347
195,2.061769485473633,68.29320526123047,76.28894805908203,0.5166876562171917,5.732423264969403,-142.5218960779754,4.915438,-4.6421685,33.24622,33.229702,-11.360927,-3.0676274,-21.100367,-4.2747083,-36.648804,27.86454,-15.21673,-15.000033,-12.357068,0.71574426,6.012636,-3.6512666,21.930231,-35.974644,49.288525,-1.7087923,-4.098645,-0.40696868,3.8429887,-16.260515,21.031057,54.23015,15.955688,6.904508,4.0867763
196,2.1144466400146484,68.6429672241211,76.17967224121094,0.49990613963844094,5.688934900226473,-142.09322566497661,4.940401,-4.5292306,33.095062,32.886192,-11.996046,-1.4098282,-21.29666,-4.3371882,-37.08439,28.171316,-15.329534,-15.000033,-12.444144,0.60412675,6.066121,-3.7365863,22.065054,-36.052883,49.238102,-1.8630992,-4.1215715,-0.34090003,3.8545713,-16.112862,21.108418,54.219215,16.060207,6.888927,4.183682
197,2.1745193004608154,69.00887298583984,76.06758880615234,0.47645043050372865,5.641309005145238,-141.70066212854923,5.0523596,-4.49362,32.87053,32.41246,-12.82517,-0.41251007,-21.49645,-4.379619,-37.49994,28.459553,-15.415818,-15.000033,-12.50833,0.4938748,6.1285725,-3.8039055,22.192106,-36.08622,49.19103,-1.9665018,-4.1397715,-0.27864859,3.844288,-15.979923,21.233044,54.223587,16.17385,6.8400884,4.2775908
198,2.24139666557312,69.36349487304688,75.9609375,0.450317194606148,5.591492199643091,-141.33501319081284,5.21874,-4.4991393,32.591007,31.843939,-13.837939,0.20034164,-21.705477,-4.4119573,-37.898083,28.741213,-15.484385,-15.000033,-12.555859,0.38309842,6.1966643,-3.8588932,22.309576,-36.084347,49.151882,-2.0338612,-4.1546345,-0.21641795,3.8227222,-15.862163,21.396744,54.230152,16.299522,6.7722955,4.3658667
199,2.3121232986450195,69.71826934814453,75.8551254272461,0.4279663379650501,5.542153879793014,-140.9932084210494,5.4321203,-4.543369,32.309895,31.158897,-14.8985405,0.6066651,-21.920296,-4.4396863,-38.276062,29.006706,-15.530065,-15.000033,-12.593147,0.26581514,6.268647,-3.9025352,22.416063,-36.052944,49.12726,-2.0899787,-4.1711845,-0.15636429,3.7841628,-15.759715,21.599356,54.232265,16.403994,6.7058263,4.4432983
200,2.3840320110321045,70.08174896240234,75.74803161621094,0.4167265411577841,5.495980214332577,-140.67225120113017,5.68226,-4.6261024,32.079575,30.340801,-15.875612,0.98292893,-22.140371,-4.4709005,-38.630695,29.251831,-15.549198,-15.000033,-12.628414,0.13559611,6.341575,-3.9319506,22.510221,-35.993885,49.121315,-2.157295,-4.194347,-0.101016276,3.7330756,-15.67086,21.835606,54.214054,16.445902,6.661272,4.5049477
201,2.462137222290039,70.44774627685547,75.64200592041016,0.41615126669345004,5.455534612402831,-140.37305770972233,5.982184,-4.7562943,31.930092,29.351175,-16.760422,1.3424499,-22.37268,-4.5099335,-38.96398,29.483532,-15.545464,-15.000033,-12.655615,-0.0021320358,6.4180717,-3.9576569,22.584656,-35.911674,49.133648,-2.2289555,-4.228499,-0.053168233,3.6598568,-15.603229,22.114155,54.17019,16.408796,6.649845,4.5464306
202,2.5470244884490967,70.822509765625,75.540771484375,0.42043060073414296,5.4189039206463425,-140.09613074480245,6.3365808,-4.929579,31.830742,28.199791,-17.608677,1.5988252,-22.618216,-4.5513287,-39.27824,29.704714,-15.516257,-15.000033,-12.660225,-0.13902108,6.499268,-3.9944742,22.63077,-35.820736,49.177326,-2.2993581,-4.270736,-0.009303987,3.5859985,-15.562429,22.413517,54.090313,16.309454,6.6604176,4.574597
203,2.6414148807525635,71.1866455078125,75.44487762451172,0.4309086201857603,5.382104017233106,-139.83787832286896,6.721142,-5.130827,31.741438,26.944794,-18.387976,1.7787603,-22.858763,-4.583051,-39.570705,29.884695,-15.447818,-15.000033,-12.7002125,-0.29584748,6.575991,-3.9736135,22.685625,-35.659683,49.22318,-2.3808959,-4.3127255,0.031847276,3.4596353,-15.512844,22.788122,54.04751,16.198393,6.671182,4.585802
204,2.7586047649383545,71.5611343383789,75.36436462402344,0.44824709818643255,5.340803873357459,-139.59457211595102,7.108669,-5.3420506,31.621367,25.6533,-19.071173,1.9100915,-23.078388,-4.594351,-39.83924,29.999155,-15.330297,-15.000033,-12.726494,-0.4692438,6.6479177,-3.9507089,22.725817,-35.504295,49.330048,-2.510968,-4.3498135,0.08127972,3.3690262,-15.46857,23.133404,53.983833,16.077488,6.672127,4.5998645
205,2.8446686267852783,71.94059753417969,75.28560638427734,0.4751621329689537,5.2909617252623775,-139.35540691016558,7.5206413,-5.57503,31.454443,24.28293,-19.645214,1.9803917,-23.265089,-4.5877056,-40.09988,30.04494,-15.174768,-15.000033,-12.738677,-0.665274,6.711693,-3.9376445,22.747536,-35.377174,49.52004,-2.7175598,-4.38414,0.14926384,3.3091605,-15.43198,23.457148,53.9127,15.958002,6.6559014,4.627454
206,2.927816390991211,72.33875274658203,75.2160873413086,0.5065545451121055,5.236129486233331,-139.12486715962328,7.964234,-5.830077,31.265417,22.813063,-20.12278,1.9787729,-23.429295,-4.5621476,-40.35183,30.030643,-14.981259,-15.000033,-12.77062,-0.88171184,6.765079,-3.8953643,22.7625,-35.223507,49.758255,-2.970419,-4.4172087,0.22697733,3.244256,-15.387799,23.80772,53.857536,15.824757,6.628535,4.6537766
207,3.0340991020202637,72.71866607666016,75.16030883789062,0.5338223864062023,5.183872908033325,-138.92208307180255,8.390043,-6.074258,31.07488,21.344444,-20.51639,1.9376522,-23.58719,-4.5010195,-40.565826,29.947083,-14.71885,-15.000033,-12.803329,-1.1036433,6.815988,-3.82788,22.769697,-35.030857,50.027786,-3.229282,-4.443641,0.2987255,3.1662748,-15.335002,24.162714,53.816334,15.6936,6.5985937,4.661138
208,3.1364693641662598,73.10908508300781,75.11894989013672,0.5517027256193311,5.141321622649919,-138.7672180766221,8.745921,-6.2782326,30.90462,19.982624,-20.841673,1.8913751,-23.75319,-4.3881726,-40.70944,29.779156,-14.356949,-15.000033,-12.820878,-1.3181149,6.871637,-3.7353601,22.764465,-34.779385,50.311985,-3.4499772,-4.4582753,0.34864384,3.0658588,-15.275174,24.50548,53.78807,15.582004,6.574738,4.631555
209,3.2521891593933105,73.49560546875,75.08483123779297,0.559275219670695,5.10685289029936,-138.66486250394883,9.022261,-6.4375906,30.738035,18.745768,-21.098146,1.8414714,-23.919937,-4.215852,-40.786427,29.512058,-13.894549,-15.000033,-12.818675,-1.5209084,6.937196,-3.6211705,22.738098,-34.46165,50.622356,-3.6268106,-4.4658875,0.36988825,2.9430556,-15.21184,24.824167,53.77104,15.488759,6.5616503,4.5540648
210,3.3868796825408936,73.87968444824219,75.07015228271484,0.5602543085482966,5.077999915105379,-138.604953048912,9.24543,-6.570274,30.572939,17.57848,-21.280357,1.7722858,-24.082977,-3.9887657,-40.80817,29.152596,-13.340498,-15.000033,-12.776574,-1.7146366,7.014588,-3.5072498,22.69335,-34.124825,50.966545,-3.7919872,-4.466931,0.37330496,2.8320096,-15.162272,25.097992,53.731537,15.406874,6.557088,4.447083
211,3.5174455642700195,74.27399444580078,75.06637573242188,0.5606877175769359,5.059925921788344,-138.58674036484248,9.407932,-6.6780405,30.45368,16.503342,-21.403027,1.6959592,-24.266611,-3.7246134,-40.756733,28.748796,-12.704857,-15.000033,-12.731579,-1.9060837,7.085159,-3.3701417,22.622952,-33.73322,51.332664,-3.9248292,-4.451842,0.366784,2.7073424,-15.112849,25.382906,53.700775,15.343314,6.553247,4.3194265
212,3.6407206058502197,74.67738342285156,75.06993865966797,0.5679367594225136,5.057602689156888,-138.60961927243744,9.502819,-6.762477,30.423506,15.542656,-21.48283,1.6278929,-24.49626,-3.442893,-40.608597,28.345448,-11.986222,-15.000033,-12.669621,-2.1020482,7.140433,-3.2226799,22.528547,-33.315426,51.71,-4.024104,-4.409927,0.36117256,2.5864685,-15.064121,25.673782,53.664967,15.29875,6.545148,4.1899223
213,3.7581098079681396,75.0815658569336,75.08274841308594,0.5933514960703069,5.076770318801007,-138.68251149426754,9.507748,-6.820939,30.51042,14.73963,-21.522728,1.5775177,-24.77872,-3.1499474,-40.34668,27.934578,-11.180825,-15.000033,-12.56675,-2.318003,7.1774135,-3.065448,22.424335,-32.872185,52.08786,-4.086214,-4.328763,0.3534,2.4920442,-15.021282,25.9564,53.5952,15.275292,6.536162,4.055038
214,3.90079402923584,75.48628234863281,75.10662841796875,0.6348559572947958,5.112346611288566,-138.80361732788865,9.431607,-6.8553414,30.68563,14.076958,-21.519156,1.5405608,-25.09991,-2.8398247,-39.98274,27.503555,-10.28954,-15.000033,-12.436042,-2.552345,7.2027364,-2.8890004,22.311047,-32.39071,52.466473,-4.114463,-4.2167106,0.33921823,2.406803,-14.98282,26.239103,53.50781,15.274078,6.5273137,3.908028
215,4.053161144256592,75.89143371582031,75.13824462890625,0.6800791955663944,5.15292300492639,-138.95705319842577,9.316976,-6.8741827,30.907034,13.482886,-21.478424,1.5122225,-25.45474,-2.5203586,-39.537884,27.09357,-9.324906,-15.000033,-12.290007,-2.7893367,7.232033,-2.696894,22.199652,-31.914816,52.823982,-4.13494,-4.091996,0.32658443,2.3295155,-14.950746,26.509598,53.407177,15.283543,6.512859,3.7690046
216,4.204314708709717,76.3077163696289,75.18194580078125,0.7142845733814158,5.187584666606079,-139.12688933969383,9.2041235,-6.8835983,31.13292,12.888858,-21.4083,1.4864209,-25.837751,-2.1980765,-39.034256,26.742628,-8.298774,-15.000033,-12.1658945,-3.007287,7.271578,-2.489258,22.077276,-31.458675,53.162346,-4.161115,-3.9751267,0.32446352,2.2356412,-14.921741,26.784485,53.32744,15.2939625,6.486227,3.6531858
217,4.352711200714111,76.72185516357422,75.23096466064453,0.740267036892607,5.209309449039536,-139.30969433928675,9.099656,-6.8878126,31.358593,12.294498,-21.303911,1.4713646,-26.24913,-1.9076585,-38.514645,26.495497,-7.2173076,-15.000033,-12.048449,-3.2094035,7.334064,-2.276595,21.958048,-31.067486,53.47056,-4.216164,-3.8621755,0.35943738,2.1454806,-14.900832,27.042763,53.25136,15.3132,6.431038,3.558217
218,4.496282577514648,77.12479400634766,75.2887191772461,0.7646981564300783,5.225628414697381,-139.51513090558183,8.979744,-6.878871,31.605053,11.740721,-21.169249,1.46788,-26.690071,-1.6349615,-37.953396,26.3141,-6.0694113,-15.000033,-11.925512,-3.406766,7.4133997,-2.050632,21.8496,-30.717999,53.74395,-4.2871714,-3.7449644,0.41782165,2.062512,-14.888369,27.285337,53.16857,15.343556,6.355809,3.4786355
219,4.667913913726807,77.52482604980469,75.35274505615234,0.7785245012949134,5.246445077276124,-139.74516272468415,8.851275,-6.853769,31.867502,11.190642,-21.00817,1.45794,-27.15684,-1.3190476,-37.276363,26.123283,-4.856242,-15.000033,-11.808724,-3.5875566,7.49336,-1.8060334,21.736021,-30.364246,53.994698,-4.348165,-3.6364229,0.45027247,1.9739234,-14.879897,27.518377,53.086617,15.354925,6.2927485,3.4292538
220,4.854966640472412,77.93201446533203,75.41192626953125,0.7716288438329779,5.280422056442064,-140.00061138036517,8.712919,-6.804295,32.141644,10.631035,-20.83768,1.4226277,-27.635824,-0.8937848,-36.412495,25.835495,-3.5696108,-15.000033,-11.679425,-3.746247,7.5684767,-1.5462002,21.630548,-30.001017,54.21327,-4.3910894,-3.546779,0.40634382,1.8945076,-14.87268,27.706877,52.982975,15.308474,6.2758684,3.4311812
221,5.0164008140563965,78.34664154052734,75.47703552246094,0.7418842792124596,5.3224153799581915,-140.2781555570656,8.580271,-6.7365413,32.418205,10.034395,-20.644789,1.3453816,-28.115904,-0.35476673,-35.37506,25.4595,-2.227221,-15.000033,-11.547618,-3.8848572,7.643698,-1.259327,21.5351,-29.60588,54.391357,-4.4095325,-3.4770179,0.26201972,1.818731,-14.864229,27.850801,52.855125,15.173396,6.323809,3.5101514
222,5.173950672149658,78.75855255126953,75.53948211669922,0.6938906699700989,5.3662609620328245,-140.5761331780864,8.452496,-6.65233,32.69998,9.416803,-20.426815,1.2385321,-28.585997,0.26986963,-34.206944,25.019941,-0.83709276,-15.000033,-11.412042,-4.009244,7.726268,-0.94745743,21.4563,-29.19964,54.524994,-4.4155755,-3.4211488,0.046781022,1.7464496,-14.85437,27.955194,52.707657,14.975179,6.4152174,3.6500099
223,5.32688045501709,79.1812973022461,75.6017074584961,0.6284107065281339,5.417126479442757,-140.89568328620558,8.322731,-6.549507,32.997482,8.789419,-20.19455,1.1263896,-29.031565,0.98796993,-32.885925,24.473757,0.60586166,-15.000033,-11.274306,-4.1150026,7.806748,-0.6187984,21.389132,-28.79497,54.625317,-4.407831,-3.3806565,-0.20925719,1.674811,-14.841853,28.032434,52.55766,14.76254,6.5214453,3.8026185
224,5.49260139465332,79.60157775878906,75.6705093383789,0.5469449411284905,5.478286887884644,-141.23615496749267,8.175664,-6.4194136,33.320934,8.189564,-19.972147,1.0328735,-29.434158,1.8035055,-31.38861,23.78181,2.1041536,-15.000033,-11.121341,-4.2005987,7.880496,-0.2908282,21.336872,-28.426384,54.701637,-4.3934536,-3.356438,-0.47580025,1.6096236,-14.82673,28.07894,52.412823,14.586328,6.6150365,3.9222507
225,5.669625759124756,80.02070617675781,75.73358154296875,0.45584089363071434,5.5391953863166945,-141.555353633796,7.812362,-6.1286526,33.649914,8.142974,-20.052967,0.9669324,-29.807869,2.6808527,-29.685452,23.02475,3.631106,-15.000033,-11.016851,-4.2668567,7.9558644,0.049337078,21.286943,-28.062689,54.749332,-4.3535776,-3.357545,-0.7590235,1.5247428,-14.808358,28.117523,52.29889,14.467278,6.690917,4.001831
226,5.829594135284424,80.40484619140625,75.79988861083984,0.3934134049020129,5.564721594321769,-141.76345951518076,7.4930964,-5.895784,33.868404,8.08081,-20.138546,0.9481383,-30.194899,3.460935,-27.458696,22.46294,5.026529,-13.2547655,-11.008643,-4.340076,8.064536,0.3844017,21.248056,-27.741745,54.76705,-4.308425,-3.37925,-1.0678955,1.4480544,-14.794616,28.105772,52.183266,14.370405,6.763848,4.0691385
227,5.985980987548828,80.7874526977539,75.8658676147461,0.335840959781641,5.579373807395279,-141.9573049869561,7.195105,-5.6758256,34.07579,8.006938,-20.19467,0.94307256,-30.502697,4.2823596,-24.964924,21.827381,6.32552,-10.927929,-11.0460205,-4.405926,8.176359,0.73276305,21.203913,-27.416977,54.773075,-4.249989,-3.4075885,-1.383075,1.3578306,-14.776635,28.092457,52.08762,14.280738,6.832363,4.1113334
228,6.13494348526001,81.16218566894531,75.93815612792969,0.3032965052307793,5.563315768170545,-142.11860834959447,6.937654,-5.4806905,34.257797,7.9348183,-20.195238,0.9458135,-30.67055,5.095195,-22.37013,21.085415,7.4585404,-8.456779,-11.091446,-4.491773,8.305905,1.0491866,21.172462,-27.181728,54.795998,-4.2261815,-3.4241333,-1.6779716,1.316571,-14.75893,28.021948,51.963184,14.169064,6.8968844,4.124721
229,6.280704021453857,81.54072570800781,76.00743865966797,0.31822331618483324,5.496064029343019,-142.22723350068082,6.74093,-5.3318405,34.401752,7.870364,-20.136784,0.9655977,-30.620775,5.95016,-19.461079,20.053665,8.548856,-5.488877,-11.198226,-4.621348,8.4691,1.3595079,21.147362,-26.999023,54.82067,-4.243461,-3.4214652,-1.9423146,1.295806,-14.736076,27.912556,51.819664,13.989484,6.966515,4.104947
230,6.423458576202393,81.91230010986328,76.07061767578125,0.3699694268985601,5.39124098464262,-142.29511755289062,6.5928,-5.22284,34.515617,7.803705,-20.031464,1.003248,-30.372515,6.820959,-16.262644,18.809961,9.526063,-2.1149812,-11.347825,-4.784049,8.652121,1.659373,21.131804,-26.87926,54.847893,-4.299009,-3.4092653,-2.187951,1.3076472,-14.712221,27.76803,51.65018,13.775041,7.039209,4.052786
231,6.560140609741211,82.26898193359375,76.1386947631836,0.4244204238977717,5.282472909973074,-142.35533346155043,6.452996,-5.1132026,34.619514,7.742608,-19.885277,1.0418781,-30.072067,7.541372,-13.260163,17.747639,10.125178,0.88409716,-11.492141,-4.9401608,8.835725,1.9344904,21.119568,-26.794529,54.89005,-4.3270764,-3.3977537,-2.4383452,1.3320161,-14.675382,27.578543,51.503292,13.586293,7.093882,3.9829328
232,6.688636779785156,82.61702728271484,76.22132110595703,0.4407568570774641,5.209431671930721,-142.44689710365512,6.2756543,-4.954298,34.739002,7.6949196,-19.703602,1.0633067,-29.91453,7.990975,-10.948558,17.23851,10.197259,2.729561,-11.566024,-5.045592,8.977488,2.159726,21.112778,-26.77376,54.97968,-4.3095956,-3.3975544,-2.7058575,1.3825816,-14.61934,27.359316,51.407875,13.520597,7.1078806,3.8933647
233,6.81478214263916,82.95917510986328,76.31180572509766,0.40344795859542043,5.185048901352576,-142.5886165751824,6.0448775,-4.7244434,34.883446,7.6682105,-19.478489,1.0626979,-30.046253,8.181571,-9.415779,17.46853,9.711255,2.9744632,-11.559516,-5.0811777,9.068248,2.342664,21.113857,-26.81458,55.114235,-4.2527127,-3.4179156,-3.0114355,1.4726758,-14.554721,27.122593,51.350533,13.636346,7.0571976,3.7565334
234,6.931143760681152,83.30158996582031,76.41160583496094,0.33736177602688455,5.189631149872418,-142.75692223008465,5.783734,-4.4524794,35.037735,7.6589103,-19.208874,1.0508801,-30.37696,8.193273,-8.407305,18.19378,8.842979,2.1159787,-11.504265,-5.0736237,9.126093,2.490951,21.122507,-26.910528,55.281128,-4.168226,-3.4513292,-3.3416183,1.5928593,-14.485505,26.864166,51.321194,13.879531,6.9590883,3.5810838
235,7.032460689544678,83.6436538696289,76.52241516113281,0.25677932374349144,5.213595097628549,-142.92702544877653,5.504287,-4.160014,35.18893,7.6555266,-18.915989,1.0319854,-30.755077,8.02044,-7.8994403,19.128016,7.7806735,0.80413646,-11.417832,-5.0381265,9.159826,2.6048174,21.13901,-27.046995,55.468594,-4.028904,-3.4835186,-3.6618478,1.7311187,-14.405052,26.576693,51.328876,14.159506,6.856168,3.4237823
236,7.151034355163574,83.97852325439453,76.63359069824219,0.17255228757765428,5.248612186679349,-143.07794580597937,5.217996,-3.8650928,35.32845,7.646949,-18.620728,1.0088515,-31.022486,7.643834,-7.878457,19.986416,6.70226,-0.31175143,-11.35346,-4.977749,9.17965,2.7203052,21.155369,-27.158543,55.638035,-3.7948272,-3.5008857,-3.940538,1.8575889,-14.340618,26.31015,51.37403,14.414768,6.793953,3.338096
237,7.270228862762451,84.30828094482422,76.744384765625,0.08440377444263616,5.293102005047963,-143.20262500665348,4.9257746,-3.5665596,35.453453,7.6332006,-18.320862,0.97769684,-31.125208,6.979051,-8.52055,20.717684,5.5827765,-1.1298769,-11.261241,-4.9018297,9.187237,2.7811363,21.18451,-27.327612,55.827236,-3.457018,-3.490706,-4.1700077,1.9891604,-14.243359,25.97669,51.484814,14.611333,6.773559,3.3375216
238,7.370147705078125,84.63375854492188,76.85484313964844,-0.01143940456639245,5.349896088405534,-143.31085296624158,4.6245813,-3.257336,35.566296,7.6182857,-18.007322,0.93837434,-31.133497,6.0471845,-9.761859,21.44993,4.3321533,-1.9522022,-11.210778,-4.7905197,9.179663,2.8565402,21.20743,-27.458553,55.99535,-3.010904,-3.4656234,-4.372397,2.1103806,-14.17441,25.683268,51.63092,14.830601,6.7793493,3.3888924
239,7.461264610290527,84.94966125488281,76.9640121459961,-0.11174984897544928,5.41778203483719,-143.41123838350396,4.3173294,-2.9429057,35.67021,7.6025677,-17.694452,0.89776385,-31.082071,4.987301,-11.244655,22.1848,3.0442035,-2.746373,-11.142294,-4.6621633,9.156339,2.9116008,21.231178,-27.59145,56.16701,-2.5161262,-3.4443448,-4.5392523,2.232491,-14.1104765,25.385149,51.80206,15.018296,6.816054,3.493171
240,7.554712295532227,85.25999450683594,77.07276916503906,-0.21366746909588363,5.496790877111735,-143.51304536384754,4.006438,-2.6302023,35.76958,7.580643,-17.392574,0.8632789,-31.021235,3.9412093,-12.618887,22.9298,1.8247838,-3.4990892,-11.02974,-4.534179,9.113089,2.946316,21.264284,-27.720798,56.3426,-2.021796,-3.4448981,-4.6653156,2.3462358,-14.036348,25.081478,51.99734,15.132737,6.8874993,3.6476145
