unveil-humanoid-operators/unveil-humanoid-operators.github.io/feature-analysis-animation/data/feature_matrix_instances/height_ankle_rom_jogging_A063_jog_ff_stop_180_R_003__A063.csv
Frame,root_translateX,root_translateY,root_translateZ,root_rotateX,root_rotateY,root_rotateZ,left_hip_pitch_joint_dof,left_hip_roll_joint_dof,left_hip_yaw_joint_dof,left_knee_joint_dof,left_ankle_pitch_joint_dof,left_ankle_roll_joint_dof,right_hip_pitch_joint_dof,right_hip_roll_joint_dof,right_hip_yaw_joint_dof,right_knee_joint_dof,right_ankle_pitch_joint_dof,right_ankle_roll_joint_dof,waist_yaw_joint_dof,waist_roll_joint_dof,waist_pitch_joint_dof,left_shoulder_pitch_joint_dof,left_shoulder_roll_joint_dof,left_shoulder_yaw_joint_dof,left_elbow_joint_dof,left_wrist_roll_joint_dof,left_wrist_pitch_joint_dof,left_wrist_yaw_joint_dof,right_shoulder_pitch_joint_dof,right_shoulder_roll_joint_dof,right_shoulder_yaw_joint_dof,right_elbow_joint_dof,right_wrist_roll_joint_dof,right_wrist_pitch_joint_dof,right_wrist_yaw_joint_dof
0,-0.5631030201911926,2.763835906982422,71.63136291503906,2.0587170129368895,0.08426531546604055,-85.82781141242324,-15.187826,-2.2408144,2.398662,49.327106,-32.43731,-1.2728056,-6.574862,-6.677711,-0.54671293,94.7161,-13.029617,6.793865,-3.4569862,-4.1936436,14.255445,-8.096343,26.157503,-31.218952,-16.524717,-0.94991887,-9.178104,11.8284445,17.477797,-16.314198,22.451324,-4.445525,-0.50272065,-20.006905,6.226141
1,-0.5284523367881775,1.2001992464065552,71.76336669921875,1.904974050146452,0.2111602271877651,-85.60954362475293,-13.29232,-2.139641,1.9286257,48.07739,-32.514732,-1.4658515,-8.944418,-6.884391,-0.9886233,94.62937,-13.63649,6.462954,-4.469666,-4.2816606,14.145856,-10.293486,26.163176,-30.825697,-17.106089,-0.8723153,-9.152014,11.69245,19.0309,-16.453876,21.677065,-5.322983,0.0157443,-19.938759,6.5677805
2,-0.5007146596908569,-0.38332584500312805,71.95216369628906,1.7504033520788627,0.3365033198264454,-85.3825152731712,-11.407117,-2.029336,1.4583025,46.861595,-32.693832,-1.6527791,-11.324487,-7.100753,-1.431755,94.62171,-14.263743,6.1504426,-5.4710712,-4.3304496,14.058793,-12.595442,26.11317,-30.472273,-17.622057,-0.7423813,-9.1367655,11.540254,20.739632,-16.675154,20.823624,-6.3731146,0.5826539,-19.866076,6.9156666
3,-0.4889850616455078,-1.9882673025131226,72.21003723144531,1.596642945458345,0.45940725429619184,-85.17147141891574,-9.494722,-1.8993148,0.9879963,45.581936,-32.67357,-1.8470504,-13.643443,-7.307009,-1.8770654,94.40515,-14.833507,5.817339,-6.4555907,-4.3492393,13.968044,-14.818882,26.013786,-30.105644,-18.150438,-0.69655216,-9.116621,11.430906,22.46659,-16.943441,20.005981,-7.477599,1.1538461,-19.783457,7.235609
4,-0.4816308617591858,-3.6265454292297363,72.53288269042969,1.4445939945636783,0.5784817322814836,-85.00146712679619,-7.5161414,-1.7402894,0.51589626,44.139904,-32.153698,-2.0608957,-15.823461,-7.474631,-2.3294044,93.68815,-15.272244,5.4318285,-7.4000297,-4.3433733,13.851996,-16.801426,25.872957,-29.69804,-18.759012,-0.8749362,-9.07505,11.428794,24.100512,-17.24685,19.320004,-8.547426,1.6885043,-19.685892,7.4977713
5,-0.4745364785194397,-5.3028059005737305,72.909912109375,1.2933055856381082,0.6843286405722087,-84.85842959947063,-5.4195795,-1.550016,0.0033848013,42.4664,-31.07619,-2.301778,-17.837559,-7.6487904,-2.8601146,92.39269,-15.592005,4.93688,-8.323477,-4.3283286,13.707923,-18.492125,25.696077,-29.220514,-19.496181,-1.3374388,-8.988116,11.584757,25.59356,-17.59331,18.817032,-9.551361,2.1960692,-19.562635,7.688642
6,-0.4779263734817505,-6.991258144378662,73.3259048461914,1.1421717737162436,0.7797791239624686,-84.73673362387234,-3.2421894,-1.331479,-0.53874564,40.63988,-29.602282,-2.561249,-19.714602,-7.8158865,-3.45515,90.67002,-15.832825,4.375591,-9.234249,-4.302918,13.543011,-19.97351,25.491907,-28.688637,-20.322845,-2.005703,-8.872164,11.853713,26.988781,-17.984434,18.446722,-10.512728,2.6855347,-19.42133,7.825244
7,-0.49612662196159363,-8.695186614990234,73.77793884277344,0.9934307067053154,0.8812115901538177,-84.67404898678988,-1.0772172,-1.0889859,-1.0385265,38.784447,-27.759333,-2.8287265,-21.460314,-7.860865,-3.9919965,88.56989,-15.96266,3.862703,-10.08652,-4.246997,13.353957,-21.277456,25.273052,-28.150936,-21.187237,-2.8059123,-8.77039,12.158443,28.317858,-18.402662,18.146296,-11.433856,3.1163523,-19.284735,7.9260864
8,-0.5133245587348938,-10.43513298034668,74.26506042480469,0.851868083417507,1.0046351551837112,-84.70789792188305,0.98389083,-0.8354617,-1.423377,37.02193,-25.570404,-3.095275,-23.08556,-7.677594,-4.340894,86.1398,-15.94247,3.50366,-10.832311,-4.144635,13.137935,-22.435034,25.055593,-27.657156,-22.038513,-3.6653225,-8.723485,12.419828,29.607147,-18.815716,17.853338,-12.309266,3.444148,-19.176237,8.011451
9,-0.5331892371177673,-12.195191383361816,74.77543640136719,0.7149033917038944,1.1517586607592014,-84.87439708252778,2.9528208,-0.56625587,-1.6446141,35.344006,-22.946184,-3.3448756,-24.614332,-7.2010508,-4.437753,83.37197,-15.744433,3.2676105,-11.431567,-3.9971097,12.8929405,-23.436611,24.852474,-27.22077,-22.876678,-4.68412,-8.760545,12.634889,30.848312,-19.19801,17.55655,-13.099424,3.618421,-19.109861,8.078347
10,-0.5512083768844604,-13.974067687988281,75.29761505126953,0.587070939967295,1.312343136353519,-85.1467813601093,4.8674326,-0.29432142,-1.7505069,33.70833,-19.90965,-3.596658,-26.021307,-6.5100183,-4.3532267,80.24159,-15.397978,3.106933,-11.90932,-3.8275058,12.622218,-24.268864,24.668444,-26.82456,-23.73469,-5.8642497,-8.853682,12.839986,32.011337,-19.543242,17.289665,-13.792857,3.665531,-19.072174,8.125123
11,-0.5628467202186584,-15.766744613647461,75.82008361816406,0.48169393562928353,1.4855074000463424,-85.46665718079122,6.6789284,-0.060317684,-1.8201879,32.173676,-16.640339,-3.8959837,-27.250107,-5.7217197,-4.152718,76.7634,-14.943903,3.0959103,-12.314988,-3.6515534,12.3305235,-24.96169,24.507196,-26.471754,-24.601267,-6.9886427,-8.953675,13.0148535,33.094593,-19.851095,17.052889,-14.428435,3.6558888,-19.04471,8.1739855
12,-0.5797204375267029,-17.56851577758789,76.33876037597656,0.4097157783119893,1.6721828855206327,-85.77461597242115,8.33852,0.099355675,-1.94052,30.791037,-13.308548,-4.2856717,-28.24948,-4.9509993,-3.9020407,72.94351,-14.419099,3.3102803,-12.698615,-3.4797006,12.022149,-25.547403,24.369963,-26.16515,-25.465723,-7.8414664,-9.009553,13.141017,34.102047,-20.123558,16.844429,-15.050977,3.6608872,-19.008595,8.246318
13,-0.5903198719024658,-19.375608444213867,76.84101104736328,0.3643806744377782,1.8972513379341174,-86.08109337431051,9.804266,0.17761955,-2.1080656,29.538937,-9.721031,-4.789388,-29.016933,-4.1295905,-3.5340495,68.67331,-13.777356,3.8968484,-13.0621,-3.29317,11.678111,-26.000969,24.256647,-25.888903,-26.337595,-8.353129,-9.00823,13.200187,35.017925,-20.361963,16.670805,-15.643696,3.6863668,-18.966919,8.348788
14,-0.5888968110084534,-21.20827865600586,77.32032012939453,0.34719837230989076,2.151865486693695,-86.40729983509138,11.117936,0.18093908,-2.3094769,28.389185,-5.8540006,-5.402603,-29.559591,-3.2535927,-3.0212908,63.956665,-13.009883,4.754675,-13.384206,-3.097902,11.303371,-26.314388,24.168867,-25.644718,-27.22383,-8.645633,-8.973923,13.206642,35.845673,-20.567764,16.532518,-16.194723,3.6976209,-18.926796,8.469494
15,-0.5953791737556458,-23.036706924438477,77.77066040039062,0.37472756371535826,2.3887964125266077,-86.70894014494735,12.357765,0.104174376,-2.612564,27.368937,-2.1283627,-6.105572,-29.857088,-2.5124145,-2.5045438,58.962894,-12.200643,5.6058555,-13.682296,-2.9338145,10.938168,-26.538336,24.107372,-25.464737,-28.109104,-8.782015,-8.911815,13.194274,36.619606,-20.744577,16.417938,-16.757196,3.7074478,-18.876173,8.602894
16,-0.5998631715774536,-24.888446807861328,78.1785659790039,0.4576540523424409,2.5623078417862692,-86.94218746480932,13.596797,-0.045090407,-3.0694942,26.51281,1.0352927,-6.8510356,-29.905008,-2.0669734,-2.1479158,53.863827,-11.428213,6.1897397,-13.973953,-2.832414,10.622253,-26.727133,24.070925,-25.380314,-28.973831,-8.826992,-8.827636,13.196807,37.376163,-20.894524,16.317266,-17.385794,3.7295468,-18.802616,8.74265
17,-0.6128041744232178,-26.723285675048828,78.52550506591797,0.5872789737863956,2.664300293943307,-87.0954886566582,14.884299,-0.2616641,-3.7925978,25.736765,3.5281923,-7.689935,-29.654268,-1.9149425,-2.021546,48.509968,-10.653103,6.4979267,-14.264141,-2.78428,10.360583,-26.902689,24.059443,-25.405277,-29.81205,-8.724642,-8.70346,13.218521,38.149323,-21.021336,16.22545,-18.125643,3.77964,-18.685616,8.893662
18,-0.6275686621665955,-28.565126419067383,78.80377960205078,0.7596633146627328,2.718441407050889,-87.18790386115768,16.173399,-0.5349056,-4.721694,25.051771,5.584281,-8.606309,-29.123304,-1.9599699,-2.0517688,42.841473,-9.832965,6.6710386,-14.54694,-2.7774553,10.13313,-27.033842,24.070229,-25.524187,-30.632765,-8.461433,-8.542468,13.242282,38.90977,-21.118652,16.151047,-18.93311,3.8444684,-18.538467,9.057575
19,-0.642768919467926,-30.41977310180664,79.00643157958984,0.9922891740175238,2.727789510867073,-87.22153401377933,17.385933,-0.8427131,-5.6289816,24.637774,7.302852,-9.432811,-28.417145,-2.1955142,-2.2057397,37.164154,-9.045386,6.6934733,-14.822438,-2.8339317,9.940246,-27.113407,24.096443,-25.720867,-31.425955,-8.178999,-8.382368,13.268809,39.61556,-21.18798,16.095522,-19.751488,3.8991208,-18.39606,9.221855
20,-0.6710355877876282,-32.268455505371094,79.15290832519531,1.3029058885640037,2.6957704992785523,-87.20030986518573,18.434132,-1.1675992,-6.277649,24.69422,8.768265,-9.996689,-27.662813,-2.6102645,-2.4511003,31.825527,-8.388608,6.5541654,-15.090861,-2.9776974,9.780353,-27.130814,24.127861,-25.978342,-32.177654,-8.013115,-8.260384,13.297325,40.21169,-21.22405,16.066097,-20.50929,3.914914,-18.293941,9.374622
21,-0.7116568684577942,-34.10059356689453,79.24044799804688,1.7281974548313188,2.6005474645235647,-87.10826334736606,19.309427,-1.5031561,-6.5475326,25.307154,10.0347,-10.221634,-26.85883,-3.2636766,-2.8064241,26.809483,-7.9237156,6.1852155,-15.35381,-3.2523267,9.665986,-27.111773,24.171713,-26.32785,-32.898792,-7.9514256,-8.1842785,13.340632,40.74991,-21.23376,16.043266,-21.255342,3.9054246,-18.243095,9.529092
22,-0.7540079951286316,-35.91848373413086,79.26377868652344,2.2558140806433897,2.4428800316291297,-86.94539946458043,20.05072,-1.8319473,-6.5695357,26.373827,11.042965,-10.166885,-25.962517,-4.106613,-3.3046856,21.96521,-7.596206,5.6593194,-15.622085,-3.6426177,9.589672,-27.05281,24.221615,-26.754583,-33.582886,-7.9367356,-8.132957,13.3842745,41.21799,-21.209745,16.043982,-21.98371,3.8719294,-18.223846,9.6845665
23,-0.8024871349334717,-37.73668670654297,79.24503326416016,2.8275259142085547,2.2619952005427,-86.7407736611194,20.635353,-2.1314967,-6.4810424,27.818995,11.692281,-9.8741045,-25.05018,-4.9829426,-3.9202287,17.470755,-7.344635,5.156366,-15.8570385,-4.090254,9.53366,-26.932959,24.290327,-27.265606,-34.207996,-8.042278,-8.110522,13.44796,41.559025,-21.124273,16.069393,-22.628664,3.7932389,-18.228117,9.823495
24,-0.848085343837738,-39.538700103759766,79.17776489257812,3.3798020371976993,2.1021547156438762,-86.52677961587266,21.041063,-2.4013767,-6.4218564,29.554913,11.889917,-9.418419,-24.209192,-5.756119,-4.6107616,13.540523,-7.102929,4.824404,-16.059116,-4.509043,9.4729,-26.697977,24.34997,-27.790442,-34.74865,-8.333472,-8.114881,13.507783,41.683098,-20.997736,16.148266,-23.10697,3.6458595,-18.24569,9.911416
25,-0.8938347101211548,-41.31536102294922,79.05640411376953,3.891900807686162,2.02255695825392,-86.3108668290374,21.181786,-2.65872,-6.417208,31.656733,11.442334,-8.754151,-23.484674,-6.4388313,-5.5022583,10.160476,-6.8312526,4.632239,-16.210117,-4.8634434,9.37063,-26.364885,24.39848,-28.347086,-35.20388,-8.883912,-8.166728,13.579036,41.58871,-20.82203,16.270544,-23.417652,3.3992555,-18.282236,9.935787
26,-0.9514889717102051,-43.07313537597656,78.8904800415039,4.374851067015143,1.9942817843814338,-86.0925711012836,21.07887,-2.8859122,-6.391372,34.16053,10.431508,-7.887258,-22.796322,-7.0527673,-6.5680714,7.1552467,-6.5205393,4.5062094,-16.302343,-5.172805,9.247826,-25.959583,24.435516,-28.952726,-35.571815,-9.638113,-8.260052,13.658051,41.305424,-20.593176,16.426224,-23.587975,3.0733001,-18.339943,9.913804
27,-1.012071967124939,-44.812862396240234,78.6782455444336,4.800801661676807,1.9396952620593695,-85.89992311188495,20.873386,-3.044062,-6.3230147,36.899815,9.195047,-6.993338,-23.26427,-7.665705,-7.3544297,7.082207,-7.511897,4.4833927,-16.314304,-5.427054,9.167796,-25.459513,24.454626,-29.593906,-35.827576,-10.464204,-8.358325,13.726831,40.833347,-20.329836,16.613686,-23.612978,2.7319078,-18.405075,9.863967
28,-1.0673539638519287,-46.53788375854492,78.42557525634766,5.140775768983548,1.784042844846205,-85.75963992278113,20.706713,-3.0882711,-6.178081,39.700558,8.083603,-6.2379045,-23.441118,-8.064985,-7.731049,7.0523195,-8.260907,4.5837708,-16.23294,-5.610004,9.190719,-24.833754,24.447182,-30.24697,-35.94476,-11.230085,-8.4237585,13.766662,40.177597,-20.065508,16.83666,-23.496948,2.4440403,-18.464018,9.800719
29,-1.113334059715271,-48.26091384887695,78.11845397949219,5.449545282985367,1.4361412256634283,-85.6724609924802,20.725334,-3.1021347,-5.957178,42.4955,7.196981,-5.6405783,-23.226997,-8.273185,-7.4810553,7.0665708,-8.9924345,5.0056567,-16.070742,-5.7889156,9.371892,-24.036623,24.404043,-30.90048,-35.93208,-12.007437,-8.445703,13.778359,39.3663,-19.828253,17.099745,-23.259905,2.2217321,-18.510235,9.717542
30,-1.1496394872665405,-49.986045837402344,77.762451171875,5.704748387900064,0.9716244666129814,-85.63528376047621,20.812971,-3.079641,-5.6604185,45.38159,6.3522573,-5.133731,-22.698729,-8.304698,-6.8153358,7.1217446,-9.645118,5.639677,-15.832781,-5.9178934,9.660095,-23.081345,24.323727,-31.55363,-35.79986,-12.824282,-8.443546,13.7672205,38.395683,-19.624369,17.4034,-22.907421,2.0403228,-18.551388,9.60173
31,-1.174106240272522,-51.73945999145508,77.36910247802734,5.77041302721104,0.5601473700052101,-85.65897190370382,20.733557,-2.8383815,-5.254192,48.41462,5.487086,-4.742666,-22.0295,-8.071197,-6.078772,7.2087893,-9.767158,6.0593095,-15.501287,-5.8229327,9.955781,-22.039413,24.213789,-32.19634,-35.520847,-13.498345,-8.42377,13.722676,37.227543,-19.452984,17.741926,-22.42872,1.9132895,-18.596079,9.460443
32,-1.1911126375198364,-53.50703430175781,76.95010375976562,5.527732326468647,0.3589838527468253,-85.74300201154351,20.27133,-2.2023866,-4.724546,51.640213,4.544318,-4.485775,-21.45895,-7.512856,-5.5863857,7.4672737,-8.968888,5.8635106,-15.071353,-5.355313,10.16175,-20.974077,24.085962,-32.82323,-35.074112,-13.841576,-8.393452,13.635209,35.827133,-19.308725,18.110199,-21.81731,1.8523195,-18.652763,9.301851
33,-1.2041804790496826,-55.26093292236328,76.5328140258789,4.9063406379499455,0.4674830984044208,-85.87839394126443,19.330492,-1.0463763,-4.032687,55.09833,3.5327108,-4.4505897,-22.831896,-6.714808,-5.213269,11.632669,-8.442464,4.778415,-14.551565,-4.4203467,10.189624,-19.892454,23.949324,-33.44944,-34.442814,-13.812902,-8.356066,13.506292,34.180435,-19.1808,18.511362,-21.05474,1.8438112,-18.734028,9.125145
34,-1.2621488571166992,-56.86857604980469,76.16968536376953,4.1030108470531905,0.7263479359221461,-86.02130384927086,18.127958,0.3914816,-3.2725863,58.69917,2.5181997,-4.577865,-24.418716,-5.731881,-5.076352,16.331577,-6.829044,3.1841211,-13.98824,-3.2577062,10.114575,-18.759466,23.808105,-34.08017,-33.65007,-13.513448,-8.307147,13.3413725,32.342396,-19.062307,18.948803,-20.182901,1.884245,-18.831562,8.926445
35,-1.310605764389038,-58.49476623535156,75.72904968261719,3.3356362086224522,0.9318024445350278,-86.14029927406344,16.878782,1.8141696,-2.602029,62.326164,1.4993804,-4.6774745,-25.90088,-4.8239107,-5.1394653,21.156858,-5.272083,1.5643191,-13.414164,-2.1472118,10.081786,-17.5863,23.667952,-34.684906,-32.73339,-12.9800205,-8.2443075,13.1371975,30.36258,-18.957071,19.413816,-19.272743,2.0019152,-18.923569,8.710205
36,-1.3497005701065063,-60.154296875,75.19273376464844,2.7039626830197245,0.9296142462168073,-86.24367690333962,15.72796,3.0403912,-2.1226301,65.91171,0.43864334,-4.5862427,-26.99188,-4.0790205,-5.262012,25.738659,-4.975015,0.29372877,-12.834049,-1.2286545,10.231095,-16.36685,23.532717,-35.21867,-31.741314,-12.242395,-8.167721,12.8916855,28.25357,-18.877369,19.904568,-18.36366,2.2295592,-18.990074,8.480374
37,-1.3876651525497437,-61.753334045410156,74.61799621582031,2.152914307873153,0.6501373573670528,-86.36970344122213,14.74497,4.1440673,-1.8050802,69.55949,-0.71449345,-4.2507358,-27.837109,-3.4312594,-5.332241,30.623554,-6.7426763,-0.65350235,-12.212796,-0.44030085,10.654312,-15.121452,23.409039,-35.670334,-30.67545,-11.238359,-8.06654,12.548024,26.030596,-18.836187,20.408258,-17.513664,2.6237402,-19.015343,8.250973
38,-1.416287899017334,-63.327049255371094,74.03573608398438,1.5995985472008614,0.21103303907076096,-86.52151207701094,13.810789,5.230142,-1.5911645,73.29039,-1.9471189,-3.7799683,-28.608524,-2.8194363,-5.360756,36.00022,-9.907433,-1.5050067,-11.562915,0.34020647,11.252023,-13.821883,23.299253,-36.04287,-29.538269,-9.972978,-7.9530854,12.126965,23.659725,-18.834644,20.940548,-16.674324,3.158339,-19.01604,8.012426
39,-1.4609278440475464,-64.90618896484375,73.49615478515625,1.0644385669311,-0.24400333748632833,-86.66877481038398,12.757215,6.201007,-1.5218257,76.93001,-3.2137938,-3.2637477,-29.12426,-2.2627249,-5.3698134,41.06961,-13.521699,-2.2070687,-10.941771,1.1043386,11.875902,-12.397083,23.197063,-36.30868,-28.380453,-8.58313,-7.8573766,11.741074,21.074247,-18.86622,21.540014,-15.72729,3.7413852,-19.021265,7.734061
40,-1.5014722347259521,-66.48401641845703,73.03308868408203,0.5745718133258308,-0.5744245895331654,-86.77807421942238,11.408998,6.9527016,-1.638705,80.30748,-4.465973,-2.7866814,-29.190372,-1.7571547,-5.4331408,44.976597,-16.595053,-2.692608,-10.395898,1.8244914,12.384156,-10.781393,23.091879,-36.446495,-27.244404,-7.2054725,-7.8015413,11.503063,18.21928,-18.918211,22.240065,-14.566667,4.279221,-19.059584,7.3849
41,-1.5492225885391235,-68.03504180908203,72.6667251586914,0.10062294047378353,-0.7235045751582967,-86.85862530277875,9.658861,7.4498663,-2.0102553,83.455765,-5.71421,-2.3487115,-28.715681,-1.2530189,-5.633228,47.396866,-18.939514,-2.901581,-9.934654,2.5191667,12.749071,-8.894287,22.967731,-36.435562,-26.11202,-5.7809668,-7.811388,11.493049,14.952496,-18.983511,23.105034,-13.043298,4.767046,-19.147297,6.9040737
42,-1.5808466672897339,-69.55510711669922,72.39242553710938,-0.36376789159130657,-0.7691614514776439,-86.92556890413896,7.6070614,7.736484,-2.5852451,86.44851,-6.972577,-1.916763,-27.842987,-0.74961805,-5.9358797,48.85013,-21.068327,-2.8892171,-9.517517,3.1940808,13.050108,-6.8034124,22.820595,-36.2993,-24.961266,-4.26695,-7.8592525,11.6326275,11.370911,-19.050213,24.07863,-11.298606,5.2472215,-19.26648,6.320546
43,-1.5819644927978516,-71.0946044921875,72.20490264892578,-0.755696822870348,-0.7747658734450611,-86.95305593238844,5.3858204,7.8355355,-3.2218094,89.17383,-8.190547,-1.5148137,-26.71254,-0.3107181,-6.263372,49.71447,-23.020267,-2.7586448,-9.103022,3.7886896,13.307727,-4.671612,22.661715,-36.09404,-23.82632,-2.8260152,-7.8862085,11.797611,7.773655,-19.095346,25.007559,-9.639676,5.6929226,-19.39537,5.746072
44,-1.5810601711273193,-72.65528106689453,72.08909606933594,-1.0159262334751027,-0.8040452779809022,-86.91549898925987,3.1232207,7.7873535,-3.7789962,91.519615,-9.320358,-1.1626893,-25.455727,-0.0057477597,-6.532254,50.362972,-24.830914,-2.6037993,-8.653761,4.2429576,13.537192,-2.6511285,22.510958,-35.873325,-22.74964,-1.6207728,-7.8403287,11.864778,4.423925,-19.098892,25.759268,-8.3191805,6.0737615,-19.51032,5.3008184
45,-1.5906915664672852,-74.21112060546875,72.0209732055664,-1.095812937581135,-0.8859706001060923,-86.73703984540758,0.7930208,7.5271764,-4.3061886,93.500626,-10.326196,-0.89452016,-24.03749,0.07169431,-6.764772,50.84168,-26.558691,-2.4039,-8.220214,4.4996023,13.753764,-0.73499554,22.377888,-35.634827,-21.7102,-0.7329763,-7.6965494,11.845698,1.2835711,-19.05414,26.343857,-7.297269,6.336736,-19.621609,5.0246344
46,-1.6176408529281616,-75.7608871459961,71.99981689453125,-1.0431918646537215,-0.9836190926003353,-86.45256206546584,-1.6525546,7.062157,-4.8310227,95.15664,-11.229513,-0.68455064,-22.399513,-0.024656583,-6.9992027,50.965595,-28.169167,-2.123932,-7.801797,4.598062,13.948162,1.1556325,22.26453,-35.34879,-20.711164,-0.063152656,-7.487745,11.793511,-1.7852477,-18.96485,26.825766,-6.4298635,6.507432,-19.734264,4.858808
47,-1.6638424396514893,-77.29492950439453,72.03016662597656,-0.9306249893504368,-1.0625064986072457,-86.20651073769326,-4.1274047,6.564099,-5.189456,96.41781,-12.073735,-0.4613969,-20.6412,-0.14230376,-7.1653147,50.763103,-29.553885,-1.828687,-7.293506,4.6318665,14.094495,2.988979,22.18283,-35.015667,-19.841381,0.4957168,-7.2545853,11.648356,-4.6994195,-18.83693,27.18528,-5.777261,6.6730704,-19.816881,4.7776995
48,-1.7102755308151245,-78.79443359375,72.1153793334961,-0.8324241161147973,-1.0863531978868377,-86.14344005361156,-6.5513496,6.213863,-5.23174,97.21238,-12.904555,-0.15521358,-18.865982,-0.13382332,-7.179364,50.265297,-30.604692,-1.5824951,-6.587978,4.692308,14.163622,4.73278,22.150753,-34.644875,-19.192308,1.0495294,-7.038876,11.352972,-7.3675523,-18.680698,27.40118,-5.4036508,6.9218736,-19.838388,4.7572927
49,-1.738776445388794,-80.29967498779297,72.26122283935547,-0.7556966602366791,-1.0296411400509087,-86.33934853044089,-8.949488,6.093084,-4.863545,97.518486,-13.775071,0.249544,-17.098692,0.051187336,-6.973906,49.42429,-31.33034,-1.4073912,-5.6046395,4.8073072,14.133125,6.378917,22.186487,-34.224228,-18.831532,1.6374857,-6.8360248,10.842792,-9.7721195,-18.504766,27.437183,-5.383432,7.247593,-19.774113,4.8333673
50,-1.7457703351974487,-81.83525085449219,72.46874237060547,-0.6671497591394114,-0.9172390581721593,-86.70683196930575,-11.340306,6.1126056,-4.1841393,97.36738,-14.649886,0.7084585,-15.28508,0.3173208,-6.5911922,48.24727,-31.777987,-1.2650647,-4.4240065,4.9251466,14.025593,7.975006,22.296654,-33.741253,-18.732973,2.1954408,-6.632322,10.168444,-11.975685,-18.31504,27.337408,-5.6545763,7.6152787,-19.645735,5.003185
51,-1.7460200786590576,-83.39571380615234,72.74040985107422,-0.5652914038695838,-0.7876604472147262,-87.14337559309715,-13.635095,6.194929,-3.341755,96.76677,-15.442222,1.2009145,-13.411529,0.5931216,-6.108542,46.851536,-31.89944,-1.1323415,-3.1829138,5.014729,13.876724,9.568444,22.47836,-33.20774,-18.839575,2.673408,-6.4543304,9.444295,-14.000309,-18.11792,27.199423,-6.081626,8.071211,-19.492268,5.184047
52,-1.7513911724090576,-84.98028564453125,73.07411193847656,-0.44753396852828903,-0.6795156194551849,-87.54589837677321,-15.749676,6.2534833,-2.4833338,95.726265,-16.066244,1.7092085,-11.46405,0.81253177,-5.609723,45.352005,-31.645958,-0.9868561,-2.0159743,5.0466585,13.724798,11.195192,22.721619,-32.639046,-19.077188,3.0224254,-6.325728,8.7839985,-15.852799,-17.91886,27.112316,-6.5419774,8.662788,-19.352379,5.2932706
53,-1.7502028942108154,-86.58921813964844,73.4632797241211,-0.31470979033546054,-0.6002326129554953,-87.92780887173456,-17.670639,6.334762,-1.560645,94.22689,-16.537838,2.2895072,-9.408403,0.9790839,-5.0633087,43.707733,-31.00055,-0.8275607,-0.91204065,5.0202312,13.570855,12.852893,23.024137,-32.03085,-19.455633,3.2212703,-6.2679954,8.172582,-17.533264,-17.722404,27.090372,-7.0227723,9.479706,-19.236618,5.2912526
54,-1.755321741104126,-88.22344207763672,73.8936996459961,-0.16491230100088666,-0.5297234235479064,-88.33012068630183,-19.422619,6.452178,-0.5172496,92.27003,-16.903278,2.9184756,-7.2657824,1.113262,-4.440159,41.893795,-29.998825,-0.6644512,0.18329334,4.946686,13.399795,14.52767,23.384872,-31.375736,-19.999691,3.2973843,-6.2597704,7.5628333,-19.032085,-17.529554,27.091103,-7.592162,10.472365,-19.12516,5.2240715
55,-1.760574460029602,-89.87626647949219,74.35871124267578,0.0002891418052699025,-0.46606581967598465,-88.68922234224026,-20.989048,6.469896,0.5089929,89.89049,-17.120537,3.4707553,-5.102526,1.1855716,-3.8352892,40.03935,-28.666323,-0.4909507,1.2040919,4.8165493,13.226145,16.223497,23.789108,-30.68885,-20.644506,3.2768095,-6.2591376,7.0205865,-20.33123,-17.340502,27.11084,-8.251927,11.474245,-19.01034,5.1412225
56,-1.766302466392517,-91.54497528076172,74.84916687011719,0.1793524263806598,-0.4078808960283344,-88.94149221442161,-22.365477,6.2611,1.3718731,87.12256,-17.139206,3.8322392,-2.9845533,1.1764369,-3.347379,38.27005,-27.025137,-0.29993472,2.0839317,4.6244125,13.062573,17.93284,24.211803,-29.986305,-21.31132,3.1884792,-6.2252703,6.6109514,-21.418356,-17.15608,27.1451,-8.996074,12.321377,-18.883,5.093654
57,-1.7722817659378052,-93.2398681640625,75.35979461669922,0.3741565219086213,-0.37159711306252996,-89.05634440256247,-23.562162,5.777074,2.0116007,83.95524,-16.917025,4.024507,-0.8764012,1.0779021,-3.012079,36.56753,-25.017538,-0.09246632,2.7932796,4.3672376,12.927593,19.65127,24.631111,-29.263865,-21.96694,3.0102012,-6.1423125,6.3778257,-22.277607,-16.978947,27.189377,-9.841725,12.994754,-18.74046,5.079877
58,-1.7816245555877686,-94.94864654541016,75.8812255859375,0.58103413130317,-0.35423022971243157,-89.07044913692822,-24.575655,5.1015754,2.497907,80.37378,-16.494505,4.1053348,1.2353287,0.91546065,-2.7792382,34.891155,-22.65771,0.12831637,3.3714817,4.058209,12.807476,21.357826,25.038372,-28.521175,-22.619087,2.742751,-6.033236,6.2755923,-22.919579,-16.813229,27.245148,-10.7793,13.573473,-18.587255,5.0789742
59,-1.785799503326416,-96.67727661132812,76.40383911132812,0.7867870519835971,-0.3256240270869948,-89.02187453956623,-25.385475,4.3143206,2.87283,76.38837,-15.937864,4.0241866,3.2537055,0.7271489,-2.6177423,33.327682,-20.068188,0.3661498,3.8584445,3.7171843,12.666536,23.01321,25.429152,-27.783276,-23.24948,2.4502091,-5.916397,6.2353616,-23.3594,-16.660892,27.313507,-11.779432,14.035313,-18.420193,5.112234
60,-1.7870440483093262,-98.40999603271484,76.91516876220703,0.9787367499899506,-0.2545219147715565,-88.94971797142813,-25.975458,3.492838,3.1805208,72.000984,-15.304957,3.7287545,5.0840693,0.54757434,-2.4924836,31.959833,-17.36648,0.627589,4.2941775,3.3607857,12.467928,24.579624,25.802362,-27.07661,-23.839914,2.1966605,-5.8097477,6.1880984,-23.616526,-16.522987,27.395317,-12.805471,14.359094,-18.236465,5.20174
61,-1.7843378782272339,-100.16167449951172,77.41200256347656,1.1983985376160309,-0.09278620585349408,-88.83917634461069,-26.358484,2.5765436,3.4075682,67.051865,-14.547705,3.1689842,6.6430902,0.32965663,-2.4149606,30.828514,-14.436502,0.87355596,4.6749163,2.9381945,12.17472,26.033577,26.154774,-26.402298,-24.363947,1.9954569,-5.715109,6.129662,-23.661446,-16.402628,27.470068,-13.886911,14.493637,-18.023378,5.3774033
62,-1.7983579635620117,-101.9219741821289,77.88676452636719,1.4345172223628049,0.12816266645258986,-88.67700824584061,-26.521591,1.5665278,3.515235,61.558422,-13.647233,2.3997052,8.004264,0.085170455,-2.3947206,29.886461,-11.2633295,1.124251,4.982408,2.465974,11.81578,27.388542,26.485815,-25.75356,-24.828707,1.8161242,-5.6238317,6.0911937,-23.49328,-16.303207,27.542658,-15.033374,14.46503,-17.786215,5.6213546
63,-1.8102256059646606,-103.70048522949219,78.32860565185547,1.5918054435004658,0.32245156396013214,-88.50991543209787,-26.419172,0.6356936,3.5178976,55.77225,-12.696177,1.5276096,9.316364,-0.06453236,-2.3810508,29.052597,-8.095259,1.4715154,5.2388687,2.0571032,11.450974,28.670588,26.803488,-25.14098,-25.26979,1.6571296,-5.537915,6.0560193,-23.17868,-16.224112,27.655064,-16.173601,14.368531,-17.549297,5.8840404
64,-1.8181297779083252,-105.49291229248047,78.72077178955078,1.582875204681528,0.4063520905024572,-88.38481196044005,-26.022398,-0.045561694,3.439683,49.953575,-11.792007,0.66178054,10.731436,-0.0031887128,-2.3166,28.233088,-5.1793175,1.9960407,5.4665933,1.8162185,11.139442,29.914629,27.12111,-24.57061,-25.732182,1.5153428,-5.4592724,6.0082083,-22.787874,-16.160822,27.849205,-17.235834,14.30001,-17.336535,6.1149592
65,-1.824916124343872,-107.31147766113281,79.04864501953125,1.3681773623656357,0.32912519238015564,-88.30556345362278,-25.198345,-0.4479457,3.2273877,43.87658,-10.885664,-0.29490837,12.378893,0.34643248,-2.1172156,27.26705,-2.4780679,2.754088,5.6707244,1.7855407,10.907399,31.151207,27.456457,-24.04043,-26.236626,1.4011751,-5.3896666,5.94014,-22.30516,-16.106709,28.13811,-18.221664,14.260902,-17.150335,6.3073244
66,-1.8393275737762451,-109.14228820800781,79.30908966064453,0.9909221810135628,0.14532482218605636,-88.2551747189026,-23.99325,-0.60746664,2.879517,37.442802,-9.928045,-1.3229816,14.169052,0.9142101,-1.8036631,26.204906,0.13470101,3.6874878,5.8448186,1.9063064,10.720398,32.37745,27.816921,-23.536963,-26.783642,1.3091973,-5.327568,5.8628755,-21.708313,-16.059639,28.497213,-19.162567,14.206893,-16.979052,6.4869127
67,-1.8589774370193481,-110.97456359863281,79.50029754638672,0.5042268021979366,-0.06942873481877507,-88.24598581687644,-22.674213,-0.49256083,2.5286112,31.14785,-9.013942,-2.1712823,15.920861,1.5874037,-1.4880675,25.270063,2.5534148,4.693151,5.992892,2.128011,10.543748,33.572666,28.194746,-23.052711,-27.375824,1.2142589,-5.270437,5.7884955,-21.057772,-16.022942,28.913944,-20.020262,14.164174,-16.82541,6.6509748
68,-1.8868882656097412,-112.81434631347656,79.62486267089844,-0.03853908646185531,-0.23842653417704204,-88.2913414148502,-21.533064,-0.12678096,2.329498,25.544134,-8.254471,-2.6325366,17.441046,2.2461717,-1.3043333,24.707104,4.661914,5.66078,6.1191,2.3985431,10.340841,34.701828,28.570406,-22.589075,-28.000614,1.0932785,-5.2154403,5.727391,-20.409784,-16.001598,29.378233,-20.761343,14.157045,-16.691591,6.795414
69,-1.9019912481307983,-114.6371841430664,79.6880111694336,-0.6465807434122269,-0.330220798866481,-88.40637214520859,-20.689516,0.4863172,2.3314278,20.774836,-7.684332,-2.6564176,18.698383,2.8916492,-1.2948139,24.522612,6.489804,6.7202206,6.229012,2.731798,10.074442,35.77219,28.931282,-22.145723,-28.668642,0.94708776,-5.1627507,5.6636395,-19.796026,-16.000917,29.920082,-21.367048,14.20408,-16.59024,6.9016643
70,-1.8973727226257324,-116.41770935058594,79.68907928466797,-1.3337889842456325,-0.38865634370354235,-88.5792613739164,-20.025377,1.303164,2.4818752,16.62423,-7.2808437,-2.393575,19.75846,3.5467808,-1.3990456,24.682745,8.055736,7.853891,6.316383,3.1424358,9.769947,36.780922,29.27382,-21.730427,-29.357527,0.7898769,-5.1138034,5.595018,-19.18262,-16.022232,30.538736,-21.856447,14.288005,-16.51597,6.9765263
71,-1.8722493648529053,-118.15971374511719,79.64078521728516,-2.029282633698561,-0.4464114586608361,-88.77183672853569,-19.506168,2.1830478,2.7824187,13.167082,-7.0887556,-1.9595361,20.560703,4.1070013,-1.6388685,25.381683,9.204162,8.733056,6.3574214,3.5641015,9.482083,37.664032,29.588604,-21.365349,-30.000792,0.61911607,-5.0677843,5.552076,-18.53621,-16.064608,31.176449,-22.236153,14.384611,-16.444633,7.054305
72,-1.850489854812622,-119.88848114013672,79.56999969482422,-2.6592962101282773,-0.5332047476531442,-88.94406426035128,-19.071821,2.9835324,3.2294996,10.431417,-7.1264105,-1.4676963,21.058935,4.471873,-2.0468223,26.763508,9.785901,9.043155,6.3271785,3.9281201,9.263836,38.348457,29.863565,-21.078825,-30.520487,0.4334337,-5.0241027,5.5652504,-17.824215,-16.125246,31.775719,-22.511122,14.469196,-16.351538,7.1692643
73,-1.8302855491638184,-121.60076904296875,79.47347259521484,-3.1989935881187757,-0.6241422078165305,-89.07719725859563,-18.768986,3.6903234,4.0043936,8.505944,-7.468261,-0.85098344,21.150667,4.580529,-2.7348194,29.033937,9.603491,8.509385,6.1974707,4.2077403,9.107855,38.813393,30.083143,-20.88329,-30.905317,0.23624988,-4.971131,5.648784,-17.06478,-16.204437,32.346466,-22.67814,14.576963,-16.222958,7.3375626
74,-1.7943309545516968,-123.28813171386719,79.34062194824219,-3.6602492840996566,-0.7039733864338236,-89.184115327891,-18.635475,4.315443,5.0432096,7.3824863,-8.113684,-0.0971468,20.903778,4.453384,-3.6654003,32.020256,8.784806,7.3693547,5.973729,4.4160604,8.985428,39.07333,30.24269,-20.775358,-31.164337,0.031402353,-4.913588,5.7810698,-16.278917,-16.301088,32.917454,-22.722172,14.708,-16.074808,7.5373774
75,-1.7557587623596191,-124.9548568725586,79.15857696533203,-4.030979594580247,-0.8170469564429297,-89.27722037356878,-18.695715,4.8092365,5.9597545,7.1615033,-9.074263,0.6233962,20.542004,4.1482224,-4.6384606,35.258007,7.6893854,6.0947213,5.6848383,4.551055,8.917432,39.11956,30.353823,-20.754211,-31.264063,-0.18319273,-4.874828,5.9397826,-15.43889,-16.408997,33.462563,-22.633968,14.781625,-15.927046,7.7479773
76,-1.720044732093811,-126.62060546875,78.92732238769531,-4.307965687698069,-1.0093881336341581,-89.36777542420676,-18.629993,5.10069,6.3980126,7.205791,-9.949904,1.1615217,20.263876,3.7383506,-5.4795423,38.33338,6.668909,5.1591487,5.3646727,4.6112537,8.927256,38.947323,30.440834,-20.818296,-31.178938,-0.41304907,-4.878057,6.1056376,-14.504853,-16.518799,33.94611,-22.411388,14.717421,-15.80092,7.949976
77,-1.6865512132644653,-128.27603149414062,78.6467056274414,-4.5566615041831495,-1.3453420877509275,-89.46614843535984,-18.345312,5.2366433,6.155577,7.470424,-10.924565,1.3677189,20.202263,3.3199747,-6.200164,41.129627,5.8028445,4.6837134,5.022737,4.663399,9.058042,38.587044,30.528898,-20.969526,-30.930445,-0.6858722,-4.928865,6.286888,-13.4456215,-16.621233,34.3675,-22.05267,14.484494,-15.691041,8.149378
78,-1.6481306552886963,-129.9348907470703,78.3204574584961,-4.757240799267392,-1.7833037788333514,-89.56449121365557,-18.114664,5.2523036,5.4495378,8.46702,-12.218331,1.3800266,20.221933,2.8584151,-6.8811064,43.87918,4.9122195,4.4332423,4.6480446,4.67934,9.284965,38.04763,30.6259,-21.20423,-30.5451,-0.99793947,-5.0156183,6.4951825,-12.282637,-16.712948,34.733124,-21.562037,14.127505,-15.591152,8.355326
79,-1.604316234588623,-131.60256958007812,77.95484924316406,-4.789020224178522,-2.2140314452769303,-89.65109843612747,-18.016634,5.030463,4.5755124,10.075598,-13.307826,1.4715036,20.120642,2.2364647,-7.4676547,46.697132,3.9655244,4.34425,4.2471066,4.522382,9.52969,37.295612,30.726318,-21.512188,-30.012522,-1.3056192,-5.135186,6.7159305,-11.0568285,-16.796747,35.021873,-20.941195,13.678484,-15.520454,8.553262
80,-1.5679833889007568,-133.27777099609375,77.56019592285156,-4.5392591116962775,-2.5334730764823914,-89.72122380706998,-18.208883,4.490006,3.8185952,12.349074,-13.752042,1.8925866,19.713242,1.346251,-7.8911834,49.677574,2.942091,4.3500843,3.8311417,4.0766506,9.71543,36.29584,30.815207,-21.88406,-29.318653,-1.5631523,-5.283964,6.933328,-9.810156,-16.879068,35.215496,-20.197412,13.172478,-15.497589,8.727145
81,-1.5239506959915161,-134.91616821289062,77.17743682861328,-3.892045886427944,-2.6784163593737946,-89.77129196160794,-18.813202,3.4963562,3.1619525,15.443783,-12.95647,2.9175403,18.921816,0.061494865,-8.120982,52.86554,1.8552243,4.5075765,3.4043846,3.2299845,9.78812,35.00241,30.873198,-22.340902,-28.403015,-1.7614703,-5.4736223,7.125797,-8.526415,-16.963633,35.32,-19.326437,12.602453,-15.529421,8.864881
82,-1.4313087463378906,-136.47360229492188,76.83972930908203,-3.002611066725147,-2.738609535469437,-89.8272748746125,-19.622082,2.1982796,2.5630257,19.09133,-11.180772,4.266264,17.906656,-1.434968,-8.162041,56.1475,0.7410817,4.8310986,2.9743233,2.1503215,9.809572,33.463367,30.89068,-22.873922,-27.304827,-1.9194459,-5.7012744,7.3059764,-7.1946793,-17.050997,35.351086,-18.328203,11.960074,-15.604287,8.975351
83,-1.3532179594039917,-138.04733276367188,76.4252700805664,-2.1187637878827905,-2.822628599968983,-89.91498006771141,-20.361712,0.91993976,2.1899788,22.830448,-9.371723,5.430904,16.80789,-2.850317,-8.01531,59.411522,-0.41079402,5.191492,2.545929,1.0905136,9.867408,31.77485,30.87119,-23.426937,-26.154291,-2.0337694,-5.94182,7.50847,-5.8614836,-17.142029,35.304485,-17.217869,11.276506,-15.714522,9.072181
84,-1.275892972946167,-139.61691284179688,75.93927001953125,-1.4352357302137662,-3.0192630474352784,-90.04329834635665,-20.86103,-0.06668519,2.0963175,26.437017,-8.635462,5.9970417,15.717706,-3.964706,-7.7123084,62.60113,-1.635213,5.4581704,2.1160944,0.24073566,10.037571,30.015066,30.830643,-23.949114,-25.064398,-2.1038685,-6.1709304,7.7682366,-4.5649366,-17.23571,35.169113,-16.01893,10.581439,-15.8539095,9.168434
85,-1.2064931392669678,-141.14901733398438,75.39295196533203,-0.9801132431078068,-3.370856464299466,-90.21504721710346,-21.252525,-0.6662213,2.3153696,30.371458,-9.592627,5.7821646,14.659455,-4.753952,-7.2326703,65.79974,-2.9858236,5.6269274,1.679409,-0.3903433,10.357466,28.256664,30.784477,-24.39218,-24.099697,-2.064344,-6.3927493,8.080602,-3.332602,-17.334417,34.95989,-14.717919,9.984885,-15.999593,9.34283
86,-1.139420747756958,-142.64366149902344,74.80796813964844,-0.6054528944704785,-3.80439282125748,-90.4076763015255,-21.687294,-0.9808822,2.7548058,34.865974,-11.693456,5.128753,13.544096,-5.3824825,-6.591969,69.05313,-4.4563794,5.7641387,1.2306437,-0.9556364,10.77041,26.442354,30.738485,-24.786833,-23.194914,-1.9416978,-6.6168346,8.433135,-2.1269822,-17.434921,34.673073,-13.322886,9.437828,-16.164423,9.560685
87,-1.0927306413650513,-144.16064453125,74.21739959716797,-0.24951925520208804,-4.237637465585864,-90.59425689293602,-22.008326,-1.0937811,3.2511775,39.318714,-14.295597,4.3836617,12.291002,-5.920226,-5.8736057,72.25156,-5.9891524,5.832623,0.7754832,-1.4998616,11.21191,24.445307,30.695744,-25.211044,-22.261686,-1.8735188,-6.827571,8.850874,-0.88303524,-17.52331,34.26216,-11.893832,8.728627,-16.393435,9.66596
88,-1.0443600416183472,-145.66845703125,73.69135284423828,0.12448296630050548,-4.595603065630567,-90.75389794493223,-21.993147,-1.2020445,3.6587362,42.956413,-16.692337,3.8300369,10.829453,-6.4115615,-5.1513453,75.26574,-7.5125546,5.789576,0.32183135,-2.0411887,11.621413,22.146072,30.655321,-25.739985,-21.222334,-1.9972938,-7.0110946,9.360496,0.46270612,-17.580992,33.68033,-10.481696,7.641861,-16.725605,9.501486
89,-1.0046535730361938,-147.13583374023438,73.24552917480469,0.5566208498230129,-4.871079216444908,-90.87971970069907,-21.50529,-1.4785393,4.009462,45.435852,-18.76804,3.4781237,9.107921,-6.854741,-4.354404,78.13427,-9.065687,5.588365,-0.12976855,-2.6100512,12.008078,19.448507,30.61847,-26.42377,-19.997482,-2.4547524,-7.1533856,10.052458,1.918625,-17.583752,32.89753,-8.991574,5.9073787,-17.216719,8.905287
90,-0.9806647896766663,-148.56600952148438,72.86360168457031,1.0076937716493397,-5.102905115878751,-90.986251045038,-20.67129,-1.8605127,4.390697,47.146896,-20.84503,3.1639802,7.1741,-7.212645,-3.463214,80.897736,-10.657461,5.2574334,-0.5790592,-3.182007,12.393961,16.454876,30.580732,-27.196531,-18.666958,-3.1392138,-7.2730207,10.890161,3.4460487,-17.523287,31.94135,-7.4097695,3.6948571,-17.801516,7.987407
91,-0.9710482358932495,-149.9893798828125,72.53438568115234,1.3928694220848645,-5.2867497013330285,-91.08169680961068,-19.649801,-2.2431052,4.7415285,48.378983,-22.861769,2.8917449,5.1002154,-7.482729,-2.6320484,83.435814,-12.170106,4.858061,-1.032489,-3.6829693,12.742787,13.348395,30.527676,-27.952106,-17.397333,-3.8119423,-7.399982,11.70482,5.03264,-17.415104,30.859528,-5.9113054,1.4559355,-18.35211,7.0068655
92,-0.963132917881012,-151.4250946044922,72.26830291748047,1.6259179442816356,-5.418631969573482,-91.17223758059245,-18.589243,-2.491208,4.9874597,49.42494,-24.756824,2.6580772,2.9581096,-7.6817827,-2.0196888,85.62397,-13.488411,4.449197,-1.4974185,-4.0360727,13.023589,10.284651,30.4425,-28.60083,-16.331594,-4.233021,-7.55449,12.323455,6.6768694,-17.289938,29.69864,-4.694377,-0.3410008,-18.775011,6.2400193
93,-0.9511265158653259,-152.86505126953125,72.06221771240234,1.652407086941862,-5.5009749530149525,-91.31359298777976,-17.483051,-2.4932077,5.129197,50.339188,-26.572979,2.4622107,0.71029955,-7.7814507,-1.6332465,87.467995,-14.55643,4.0286317,-1.9320654,-4.1672187,13.249495,7.2444587,30.310202,-29.138306,-15.471378,-4.3072505,-7.736833,12.690201,8.433009,-17.162962,28.400585,-3.8225741,-1.6280272,-19.071692,5.7559695
94,-0.9211328029632568,-154.31495666503906,71.90686798095703,1.5296394712580204,-5.536527763572664,-91.48363194840482,-16.259663,-2.336799,5.1978765,50.970654,-28.320017,2.3081648,-1.662083,-7.7973537,-1.4118022,89.01629,-15.438372,3.5632813,-2.3515046,-4.1231837,13.441946,4.144318,30.127266,-29.602982,-14.734556,-4.169796,-7.93246,12.896999,10.300233,-17.033928,26.957138,-3.2275517,-2.622245,-19.299732,5.4168367
95,-0.8807440996170044,-155.74984741210938,71.78583526611328,1.338583966408659,-5.52068623341231,-91.57123166721784,-14.966581,-2.1645346,5.153281,51.309597,-29.890753,2.1857986,-4.0671873,-7.8262362,-1.405861,90.22522,-16.202705,3.0724545,-2.8431265,-4.011945,13.583167,1.0279542,29.900549,-29.993599,-14.126423,-3.9256818,-8.132403,12.990572,12.205441,-16.913181,25.485085,-2.9196506,-3.2759767,-19.472555,5.1969585
96,-0.8572627902030945,-157.1611328125,71.71686553955078,1.1654675523911984,-5.447172317779427,-91.46481588734612,-13.655137,-2.1155002,4.948119,51.35014,-31.179173,2.0831702,-6.414126,-7.969595,-1.6568455,91.05022,-16.918192,2.5794778,-3.4964044,-3.9459965,13.654113,-2.0503838,29.645338,-30.31094,-13.662187,-3.6819353,-8.329359,13.014746,14.083319,-16.822407,24.109259,-2.910048,-3.5423653,-19.602001,5.0680723
97,-0.8329684138298035,-158.57411193847656,71.70648956298828,1.0181543576549361,-5.289135784536791,-91.080657451841,-12.365917,-2.2421758,4.5111613,51.071724,-32.190098,2.0101035,-8.715536,-8.329916,-2.271347,91.474815,-17.609753,2.0724607,-4.3814197,-3.9503126,13.636667,-5.137977,29.374655,-30.569006,-13.3556385,-3.4063725,-8.542907,12.920316,15.975719,-16.784254,22.825752,-3.3358152,-3.2719114,-19.683975,5.0621047
98,-0.8150084614753723,-159.9979705810547,71.76799011230469,0.8589106174951183,-5.057127362668274,-90.49514641031114,-11.06446,-2.4499397,3.873053,50.4894,-32.970818,1.9622623,-10.995989,-8.850725,-3.1942103,91.52201,-18.241617,1.5517404,-5.4334064,-3.9630327,13.556399,-8.2434845,29.090385,-30.775915,-13.2121,-3.0683806,-8.77343,12.705407,17.934845,-16.802353,21.572647,-4.191695,-2.5240986,-19.716,5.181614
99,-0.8210021257400513,-161.43084716796875,71.88636016845703,0.6964434817954176,-4.800852175233249,-89.836792078627,-9.690171,-2.659649,3.13956,49.652752,-33.480846,1.9078109,-13.189312,-9.388132,-4.2196627,91.21026,-18.791344,1.0608293,-6.540175,-3.9708135,13.451392,-11.254634,28.790886,-30.928967,-13.227487,-2.7768798,-8.983079,12.483329,19.899155,-16.869377,20.39278,-5.2492743,-1.5708535,-19.711243,5.354143
100,-0.8346242904663086,-162.8848114013672,72.06443786621094,0.537819604874639,-4.570888797201917,-89.23500725396867,-8.182061,-2.7969596,2.4215882,48.60824,-33.678043,1.8198507,-15.239374,-9.785904,-5.146422,90.5557,-19.232271,0.6397415,-7.5943766,-3.9649754,13.352908,-14.056133,28.476252,-31.017647,-13.390852,-2.6398141,-9.130716,12.363306,21.782986,-16.973253,19.338432,-6.2511325,-0.69035137,-19.686117,5.5055623
101,-0.8565651178359985,-164.35043334960938,72.29728698730469,0.3821991692769644,-4.374183121139818,-88.66669616436262,-6.5003037,-2.8584762,1.6901648,47.29508,-33.58206,1.6954465,-17.136608,-10.06993,-6.0183997,89.5383,-19.583622,0.2593393,-8.613236,-3.95934,13.259906,-16.65372,28.14819,-31.042017,-13.711553,-2.6545687,-9.185351,12.375752,23.570858,-17.112022,18.424358,-7.16401,0.1316125,-19.630358,5.6366577
102,-0.8848605751991272,-165.83726501464844,72.5889892578125,0.22706609998933666,-4.185831922339966,-88.08251661382158,-4.6861715,-2.8733032,0.9066701,45.7165,-33.208263,1.5491505,-18.906033,-10.299117,-6.915625,88.155235,-19.853989,-0.08574858,-9.639418,-3.9578826,13.154314,-19.09818,27.807222,-31.017721,-14.1858,-2.771044,-9.175549,12.462104,25.294397,-17.290615,17.622723,-8.091289,1.0083228,-19.539843,5.779753
103,-0.9145925045013428,-167.3528594970703,72.93472290039062,0.07458900826435197,-4.010959514528934,-87.5717692475362,-2.800618,-2.8262584,0.17203578,44.017403,-32.511124,1.3857825,-20.55401,-10.3601885,-7.6910043,86.44339,-19.995117,-0.32568598,-10.600712,-3.9388225,13.03752,-21.358091,27.457157,-30.956032,-14.7704315,-3.0367265,-9.144522,12.595117,26.929737,-17.506353,16.922174,-8.97034,1.8081216,-19.443653,5.909127
104,-0.9594002962112427,-168.89305114746094,73.32982635498047,-0.06933680641675556,-3.8558064096646114,-87.22372275468105,-0.9035373,-2.7114663,-0.41183153,42.341896,-31.44464,1.2106304,-22.088924,-10.14032,-8.194645,84.438385,-19.957668,-0.39568245,-11.424721,-3.8857555,12.912608,-23.38367,27.10537,-30.86498,-15.433324,-3.4856205,-9.135775,12.747201,28.445078,-17.752672,16.312544,-9.731304,2.396949,-19.372694,6.0006604
105,-0.994787335395813,-170.44903564453125,73.75765991210938,-0.20806521651706888,-3.7409643790850624,-87.08476898011193,1.0661161,-2.516692,-0.80995136,40.644974,-29.969683,1.010357,-23.52156,-9.542497,-8.333729,82.1289,-19.702421,-0.29881996,-12.069554,-3.800375,12.795546,-25.166563,26.760576,-30.740238,-16.18723,-4.2050514,-9.155354,12.924165,29.814936,-18.035637,15.802354,-10.328356,2.6950667,-19.341055,6.0397415
106,-1.0229977369308472,-172.0327911376953,74.21755981445312,-0.3395573054957841,-3.6598896394639993,-87.10031139624148,3.1147938,-2.2651865,-1.0760298,38.884254,-28.124765,0.78844815,-24.833576,-8.656377,-8.1967125,79.49647,-19.269077,-0.07583803,-12.5792055,-3.6982288,12.681827,-26.726841,26.428526,-30.583605,-17.052729,-5.148213,-9.183244,13.136562,31.056253,-18.362732,15.391893,-10.80206,2.7859952,-19.331894,6.043547
107,-1.0470104217529297,-173.63267517089844,74.70352172851562,-0.451572710324878,-3.5778668263407294,-87.20855872026047,5.1052933,-2.007369,-1.2433743,37.198765,-25.972363,0.5727636,-25.991333,-7.647776,-7.9052076,76.563034,-18.723461,0.2809593,-13.005108,-3.5830262,12.542424,-28.082983,26.116611,-30.415073,-17.985647,-6.16414,-9.222294,13.361557,32.201756,-18.724108,15.05418,-11.209992,2.7781491,-19.329226,6.0371165
108,-1.0836924314498901,-175.2407684326172,75.20057678222656,-0.532413983298935,-3.458505171849993,-87.34765590601654,6.896982,-1.7897416,-1.3477478,35.73083,-23.57194,0.38771528,-26.968449,-6.676895,-7.5840144,73.3455,-18.124523,0.7845073,-13.398936,-3.4578207,12.347283,-29.244522,25.830711,-30.25649,-18.947248,-7.0948954,-9.273331,13.577216,33.277348,-19.09532,14.7666645,-11.600787,2.7776706,-19.31726,6.046484
109,-1.1196300983428955,-176.86566162109375,75.70626831054688,-0.584861441260067,-3.2711235254437785,-87.54099776128793,8.438409,-1.605598,-1.3353149,34.511696,-20.82785,0.28332812,-27.791565,-5.683503,-7.187863,69.77868,-17.43634,1.5504678,-13.739699,-3.3117867,12.065245,-30.220238,25.580088,-30.119675,-19.926899,-7.9616985,-9.356851,13.795813,34.264645,-19.459578,14.527284,-11.945974,2.7662544,-19.294353,6.0893593
110,-1.1505857706069946,-178.51126098632812,76.21347045898438,-0.6103977109999512,-3.043239584522133,-87.80790531359466,9.811127,-1.4454014,-1.2080938,33.466465,-17.739254,0.21613985,-28.445923,-4.6226554,-6.664869,65.854996,-16.640236,2.5267894,-14.00734,-3.1577153,11.721087,-30.995787,25.367643,-30.001448,-20.954762,-8.821671,-9.464815,14.024004,35.145374,-19.815474,14.350384,-12.217998,2.6952035,-19.268682,6.152166
111,-1.1799359321594238,-180.15945434570312,76.71099853515625,-0.5967928055731675,-2.8238337170690992,-88.07957718699049,11.07671,-1.3456037,-1.0950508,32.564022,-14.499368,0.07220811,-28.861004,-3.6651373,-6.139407,61.67574,-15.816924,3.4883204,-14.247517,-3.0274808,11.363974,-31.59243,25.18871,-29.90437,-22.01978,-9.600733,-9.553324,14.229389,35.95444,-20.162054,14.226361,-12.46811,2.623476,-19.23881,6.2147455
112,-1.2158665657043457,-181.81019592285156,77.19000244140625,-0.5342580465032497,-2.6600714578667244,-88.2873016609694,12.296969,-1.3425412,-1.1360224,31.769627,-11.299594,-0.25405058,-28.98375,-2.9716625,-5.7468853,57.348602,-15.043218,4.216616,-14.5018635,-2.947211,11.041032,-32.04887,25.033367,-29.832468,-23.097496,-10.2334585,-9.577352,14.38018,36.732323,-20.498062,14.140617,-12.750195,2.6107876,-19.203411,6.25689
113,-1.2526627779006958,-183.47836303710938,77.64636993408203,-0.42886971118627426,-2.563377514248073,-88.42991759644818,13.494958,-1.4436605,-1.3816133,31.03263,-8.023349,-0.82161856,-28.771378,-2.5414906,-5.516319,52.77889,-14.30398,4.6840796,-14.773671,-2.9102414,10.761263,-32.348484,24.891676,-29.782522,-24.184084,-10.687419,-9.51276,14.45423,37.47654,-20.824568,14.1062975,-13.064206,2.6688185,-19.159342,6.260947
114,-1.2810946702957153,-185.16102600097656,78.07268524169922,-0.28267122660583516,-2.5072385376281816,-88.5380389069936,14.642644,-1.6409506,-1.7806731,30.371786,-4.617777,-1.5786049,-28.26875,-2.290206,-5.388293,47.936146,-13.561153,5.0099964,-15.041831,-2.9059854,10.498406,-32.481728,24.757933,-29.760437,-25.286024,-10.992774,-9.385622,14.473848,38.173286,-21.143393,14.123913,-13.388315,2.7665396,-19.108406,6.241889
115,-1.3084213733673096,-186.86058044433594,78.46123504638672,-0.07882946145595604,-2.481286884072826,-88.58876802023799,15.730278,-1.94028,-2.318196,29.839916,-1.3634247,-2.4454556,-27.571125,-2.2405033,-5.3815465,43.03944,-12.853619,5.205495,-15.310606,-2.949375,10.243658,-32.51968,24.629967,-29.780512,-26.371767,-11.19707,-9.226397,14.472317,38.850662,-21.45074,14.1569805,-13.744725,2.9006236,-19.055603,6.2277427
116,-1.3312329053878784,-188.57655334472656,78.79269409179688,0.2017672895640491,-2.474564423086549,-88.55916907679078,16.736298,-2.339963,-2.9604328,29.512526,1.4552191,-3.3219144,-26.781115,-2.4144173,-5.515834,38.31602,-12.228369,5.2843347,-15.586067,-3.0591078,9.987775,-32.52013,24.504206,-29.859694,-27.416208,-11.335576,-9.066291,14.484276,39.532627,-21.738258,14.172178,-14.151861,3.0666897,-19.006353,6.2474504
117,-1.3538178205490112,-190.2870330810547,79.06822967529297,0.585538502762509,-2.50455480575857,-88.42127013272493,17.69729,-2.8658917,-3.7699513,29.366673,3.7966032,-4.231887,-25.860886,-2.8608723,-5.833736,33.69802,-11.689337,5.2366796,-15.887736,-3.2677195,9.73085,-32.487984,24.372797,-30.022955,-28.42302,-11.364393,-8.8936405,14.521403,40.2445,-22.005009,14.164035,-14.635466,3.2850382,-18.962105,6.3292565
118,-1.3763715028762817,-191.99407958984375,79.28515625,1.056794528062321,-2.5715583993872215,-88.19274927779679,18.607248,-3.4960463,-4.737312,29.397362,5.8038883,-5.192001,-24.785767,-3.5289395,-6.337295,29.099363,-11.212072,5.0853934,-16.20325,-3.5567696,9.472681,-32.41459,24.231884,-30.259468,-29.38467,-11.288762,-8.698314,14.562174,40.973125,-22.248926,14.146118,-15.179529,3.549804,-18.919798,6.4511256
119,-1.4007599353790283,-193.6986541748047,79.44790649414062,1.569922509172799,-2.6391764724169215,-87.92023222866798,19.37881,-4.1513014,-5.696503,29.703964,7.4687347,-6.0767837,-23.68351,-4.2931705,-6.978239,24.73582,-10.807658,4.8890634,-16.495508,-3.872665,9.207728,-32.30093,24.081942,-30.540066,-30.284166,-11.185856,-8.513868,14.595523,41.672386,-22.457243,14.1187525,-15.732527,3.8147159,-18.87815,6.5683136
120,-1.4165927171707153,-195.38479614257812,79.55089569091797,2.0823364336468484,-2.670151049360719,-87.6508934211276,19.92295,-4.7606635,-6.471827,30.375864,8.782167,-6.761153,-22.68601,-5.036949,-7.696143,20.83931,-10.491661,4.697443,-16.727215,-4.1645465,8.933422,-32.13381,23.924122,-30.841984,-31.121138,-11.1192665,-8.374264,14.612746,42.287926,-22.611649,14.085339,-16.235847,4.0307155,-18.837078,6.6376233
121,-1.4404579401016235,-197.05491638183594,79.59220123291016,2.6094228711276446,-2.6368596807808204,-87.38779892001675,20.169163,-5.3415313,-7.006825,31.487108,9.783787,-7.200086,-21.842113,-5.807008,-8.591168,17.446793,-10.294444,4.479611,-16.880493,-4.438906,8.627675,-31.965984,23.765217,-31.164946,-31.878752,-11.120061,-8.294734,14.609888,42.840347,-22.691513,14.030515,-16.705513,4.1793323,-18.790571,6.6494846
122,-1.4781956672668457,-198.6975555419922,79.58174896240234,3.162636408640653,-2.5652122216174034,-87.1129986142252,20.16698,-5.9058075,-7.371041,32.99554,10.456735,-7.443975,-21.092966,-6.621655,-9.656869,14.465078,-10.212568,4.234956,-16.970623,-4.7199407,8.302541,-31.775408,23.604076,-31.53247,-32.57368,-11.135519,-8.255677,14.595011,43.330612,-22.691769,13.963429,-17.145144,4.2812223,-18.741714,6.630301
123,-1.5195313692092896,-200.33331298828125,79.52957916259766,3.6874056980130474,-2.494435802055654,-86.84272841981549,20.009928,-6.378877,-7.5772953,34.79293,10.706006,-7.5219264,-20.403877,-7.34585,-10.655832,11.918498,-10.205702,4.031001,-16.991838,-4.9726305,8.001483,-31.519136,23.437069,-31.939127,-33.188915,-11.177043,-8.237297,14.571572,43.69495,-22.622656,13.910707,-17.486258,4.351056,-18.702782,6.5895987
124,-1.5641132593154907,-201.9503173828125,79.43070220947266,4.1270657719976365,-2.4601974687439303,-86.59486917245253,19.790705,-6.6895213,-7.644671,36.76623,10.437664,-7.4775743,-19.746397,-7.8652177,-11.341401,9.847152,-10.237869,3.9130783,-16.937502,-5.1526127,7.7658,-31.169338,23.263514,-32.36715,-33.697094,-11.27525,-8.219405,14.540298,43.87643,-22.50416,13.896481,-17.66755,4.406751,-18.68593,6.534672
125,-1.6121467351913452,-203.5482635498047,79.27903747558594,4.461342649353866,-2.447631488585548,-86.3835508969603,19.499344,-6.833497,-7.562183,38.93614,9.453707,-7.28691,-19.147959,-8.163201,-11.612718,8.280507,-10.31448,3.876418,-16.799038,-5.232478,7.595369,-30.691847,23.081263,-32.815807,-34.12201,-11.445135,-8.211999,14.510379,43.87589,-22.346464,13.9227085,-17.691837,4.4632235,-18.69496,6.456341
126,-1.6570786237716675,-205.13531494140625,79.0806655883789,4.707320966298637,-2.437359836723917,-86.20427382116378,19.089602,-6.8318295,-7.3237195,41.35022,7.851478,-6.952377,-18.702848,-8.325194,-11.58407,7.3748603,-10.549924,3.87121,-16.575634,-5.217261,7.4693613,-30.12354,22.893045,-33.280537,-34.458035,-11.684967,-8.220454,14.475878,43.721676,-22.150713,13.976358,-17.589474,4.5127354,-18.723051,6.351642
127,-1.7125561237335205,-206.724365234375,78.83769989013672,4.851695094668435,-2.455954173183664,-86.04639811642286,18.601574,-6.6566143,-6.9626026,43.932384,5.9858966,-6.5666614,-18.495655,-8.397221,-11.327619,7.3796773,-11.0675745,3.8642404,-16.290457,-5.112158,7.403516,-29.45453,22.698456,-33.760674,-34.695854,-11.917135,-8.219037,14.422598,43.38229,-21.932013,14.067573,-17.33753,4.5384746,-18.76654,6.2381124
128,-1.7603859901428223,-208.3212890625,78.55419921875,4.887269745794054,-2.5318281099064683,-85.89638955461919,18.082697,-6.273371,-6.509525,46.597424,4.217979,-6.212559,-18.080347,-8.314617,-10.998842,7.415361,-11.398605,3.8249552,-15.970592,-4.9219713,7.4118,-28.687712,22.498466,-34.246048,-34.81443,-12.080339,-8.181474,14.33452,42.834175,-21.714447,14.204083,-16.920067,4.526253,-18.821314,6.1308656
129,-1.8070664405822754,-209.91961669921875,78.21946716308594,4.852082267782353,-2.7421386894890163,-85.7255661666386,17.657665,-5.7062407,-5.980018,49.28855,2.6095119,-5.907269,-17.6853,-8.183288,-10.479927,8.223255,-12.138329,3.9938817,-15.657178,-4.7025847,7.5341473,-27.785906,22.293741,-34.720882,-34.827763,-12.188661,-8.08242,14.200562,42.09643,-21.517286,14.391817,-16.344955,4.479511,-18.883959,6.0343704
130,-1.8452167510986328,-211.52330017089844,77.84141540527344,4.7396412267674135,-3.051334984869618,-85.5445029322195,17.282621,-4.961205,-5.367244,52.046143,0.9867085,-5.606691,-17.243298,-7.9429545,-9.778728,9.550929,-13.0961895,4.3044987,-15.3433,-4.4292345,7.751045,-26.740934,22.085732,-35.18352,-34.752087,-12.257152,-7.941995,14.031238,41.17945,-21.345694,14.628571,-15.629738,4.4105062,-18.956877,5.9350014
131,-1.878703236579895,-213.1224822998047,77.42701721191406,4.4814295749057065,-3.326172778500133,-85.39066398404978,16.762934,-3.9784706,-4.6787333,54.925285,-0.63619405,-5.2938385,-17.099415,-7.5388107,-9.052134,11.680318,-14.0018215,4.2881827,-14.986833,-3.9985926,7.985622,-25.63427,21.882273,-35.63148,-34.551964,-12.26172,-7.8014426,13.840447,40.054237,-21.197094,14.909349,-14.776782,4.32022,-19.045689,5.8202534
132,-1.9622743129730225,-214.63723754882812,77.05517578125,4.043686005626087,-3.4432509266798252,-85.29276666548515,15.919568,-2.7303605,-3.941368,57.96583,-2.2327704,-4.9440017,-17.584219,-6.970938,-8.451553,14.875648,-14.556259,3.4981792,-14.553779,-3.3478236,8.157633,-24.544006,21.694546,-36.067196,-34.193127,-12.176707,-7.70201,13.643193,38.699375,-21.063316,15.22912,-13.795506,4.2070446,-19.155584,5.678334
133,-2.0547590255737305,-216.12615966796875,76.67609405517578,3.4241565910961764,-3.30839560887619,-85.24665688078984,14.634597,-1.1420438,-3.1034844,61.23039,-3.74607,-4.56145,-19.080336,-6.2710605,-7.9827266,19.695084,-14.272597,1.3464197,-14.040724,-2.459327,8.17193,-23.502975,21.537924,-36.51004,-33.684258,-11.994183,-7.644442,13.469886,37.11465,-20.92435,15.578993,-12.674244,4.0448713,-19.295607,5.5265737
134,-2.135891914367676,-217.61798095703125,76.22551727294922,2.771777189054877,-3.040936208989656,-85.20912481916268,13.08117,0.62119234,-2.2278116,64.63179,-5.1655087,-4.1175203,-21.13349,-5.5942125,-7.688018,25.478514,-13.208277,-1.7163445,-13.491993,-1.5187018,8.084058,-22.461945,21.420134,-36.96073,-33.04952,-11.734236,-7.609819,13.305823,35.340294,-20.770706,15.959515,-11.441178,3.8370886,-19.45947,5.3646593
135,-2.189703941345215,-219.1141815185547,75.70126342773438,2.1576185950510394,-2.8083874020337394,-85.1769229009712,11.475204,2.3431413,-1.4847333,68.020386,-6.572364,-3.570126,-22.974041,-5.0186024,-7.663774,30.969254,-12.086884,-4.6393166,-12.926056,-0.6346511,8.045511,-21.372961,21.335175,-37.380505,-32.282883,-11.4141245,-7.612083,13.098385,33.390553,-20.617018,16.383152,-10.14556,3.6297984,-19.630444,5.153119
136,-2.2407987117767334,-220.55384826660156,75.13128662109375,1.5766872476603482,-2.7549468549465552,-85.17045281903268,9.995079,3.873578,-1.0107327,71.27371,-8.0735035,-2.908709,-24.024488,-4.4864893,-7.821912,35.32664,-11.881672,-6.389274,-12.348647,0.17981985,8.205782,-20.185003,21.266682,-37.71802,-31.375107,-11.049648,-7.6663327,12.793207,31.261248,-20.49486,16.86869,-8.824958,3.4769719,-19.792486,4.8501096
137,-2.281264066696167,-221.9755859375,74.55028533935547,0.9329006599963773,-2.9379915758568957,-85.23760456089232,8.685496,5.281331,-0.8263993,74.480515,-9.780941,-2.0855522,-24.230501,-3.8582618,-8.12076,38.64687,-13.269,-6.4699755,-11.717408,1.0442761,8.658198,-18.90343,21.204317,-37.94605,-30.319952,-10.683008,-7.820929,12.254975,28.949001,-20.438015,17.409815,-7.502591,3.428428,-19.949411,4.410643
138,-2.3026371002197266,-223.40122985839844,74.00298309326172,0.203525861244732,-3.25428547132001,-85.37048306317445,7.4184523,6.644655,-0.8473047,77.68559,-11.627757,-1.1492712,-24.018858,-3.1594572,-8.561586,41.59073,-15.785258,-5.541582,-11.041107,2.0133102,9.297442,-17.543163,21.149075,-38.087757,-29.137476,-10.292397,-8.058382,11.556264,26.465454,-20.445757,17.9915,-6.178802,3.4590187,-20.108316,3.8673728
139,-2.3259832859039307,-224.81295776367188,73.51838684082031,-0.4901220992424854,-3.6092008882046356,-85.50516403513923,6.1058946,7.806787,-1.0307649,80.70135,-13.447406,-0.23082727,-23.544964,-2.5344076,-9.048634,44.204628,-18.715168,-4.273725,-10.455218,2.9477777,9.963385,-16.043322,21.07727,-38.102196,-27.814451,-9.791422,-8.288135,10.929657,23.742472,-20.499231,18.713484,-4.7725434,3.5027647,-20.257368,3.2648053
140,-2.360708236694336,-226.20947265625,73.10601806640625,-1.017651245553356,-3.911639121998804,-85.57585096683789,4.660732,8.61399,-1.3268985,83.34368,-15.071493,0.5505316,-22.909504,-2.085537,-9.43951,46.414326,-21.287159,-3.321727,-9.9822035,3.6994843,10.539569,-14.382243,20.995533,-38.062313,-26.390087,-9.094084,-8.425779,10.64308,20.8721,-20.567621,19.520119,-3.3613157,3.5059137,-20.381605,2.6953375
141,-2.3930087089538574,-227.59619140625,72.77195739746094,-1.3192060996672708,-4.150778275887388,-85.54968800706591,3.0443397,8.963029,-1.7530845,85.58414,-16.453072,1.1696242,-22.048954,-1.8465046,-9.671848,48.08115,-23.353704,-2.806565,-9.670796,4.16863,11.013653,-12.490706,20.891567,-37.967857,-24.772945,-8.139688,-8.423298,10.818969,17.71254,-20.632622,20.4983,-1.787741,3.4110591,-20.466404,2.1110528
142,-2.4048750400543213,-229.00119018554688,72.52104187011719,-1.4687863527767695,-4.372510915029345,-85.46562144692346,1.3033545,8.946205,-2.296507,87.52349,-17.676695,1.695119,-20.914148,-1.7382232,-9.83619,49.234894,-25.283298,-2.4008543,-9.456037,4.439081,11.460351,-10.423205,20.762682,-37.819218,-22.969847,-6.9857645,-8.324193,11.297924,14.316795,-20.679508,21.590073,-0.12605594,3.2609162,-20.520006,1.4934758
143,-2.3994927406311035,-230.43792724609375,72.34365844726562,-1.5317449156447545,-4.573664284126512,-85.3654138402104,-0.5149246,8.709978,-2.8597765,89.16314,-18.765985,2.1532574,-19.605724,-1.669389,-9.965842,50.00763,-27.061903,-2.0756102,-9.239858,4.610833,11.875175,-8.3237295,20.620562,-37.629562,-21.123316,-5.721082,-8.173642,11.904321,10.951937,-20.67684,22.6213,1.3358247,3.1301458,-20.563469,0.95423937
144,-2.3860158920288086,-231.8643341064453,72.20790100097656,-1.5841167499134157,-4.749937681230364,-85.29358140971375,-2.3674335,8.409688,-3.3552837,90.50689,-19.749617,2.566958,-18.233181,-1.5611465,-10.083092,50.540157,-28.674349,-1.7924057,-8.922609,4.785697,12.244127,-6.3321104,20.483992,-37.41313,-19.380033,-4.435,-8.0253725,12.468973,7.852676,-20.594732,23.437551,2.365762,3.08573,-20.621998,0.6132088
145,-2.3812267780303955,-233.29437255859375,72.11276245117188,-1.6324620827964755,-4.904840122097859,-85.2176888014967,-4.285833,8.032155,-3.8208952,91.5725,-20.606089,2.9236364,-16.785446,-1.4294026,-10.212157,50.836224,-30.143908,-1.5614324,-8.523323,4.968453,12.567019,-4.46394,20.362276,-37.17426,-17.701687,-3.051998,-7.8932896,13.117953,5.005735,-20.413342,24.020737,2.964183,3.1220796,-20.730139,0.54628205
146,-2.3908560276031494,-234.71112060546875,72.05484008789062,-1.6469112058971371,-5.040155036641549,-85.12937547672554,-6.2740736,7.5143204,-4.2693877,92.34755,-21.322351,3.2158635,-15.214739,-1.31688,-10.318234,50.832916,-31.465122,-1.39078,-8.07402,5.10301,12.841534,-2.6441169,20.257326,-36.903584,-16.04465,-1.5599178,-7.739712,13.887914,2.2686305,-20.133293,24.456537,3.3016183,3.2001472,-20.868387,0.6834697
147,-2.4048924446105957,-236.10353088378906,72.0394287109375,-1.6199221522545308,-5.149321267170611,-85.1046189823286,-8.248142,6.939313,-4.5900283,92.77392,-21.932592,3.4755986,-13.568053,-1.200847,-10.332864,50.563137,-32.582767,-1.2309934,-7.51615,5.1968923,13.046659,-0.8604022,20.17852,-36.580643,-14.543117,-0.13993226,-7.5630665,14.480453,-0.34441268,-19.772348,24.78024,3.4285946,3.3378797,-20.982937,0.92556274
148,-2.417571544647217,-237.49575805664062,72.07931518554688,-1.5470181813621569,-5.224999568712593,-85.21947987764663,-10.127039,6.3967023,-4.6779656,92.79427,-22.474415,3.7352078,-11.894573,-1.0591323,-10.189896,50.06246,-33.442745,-1.0368652,-6.794164,5.259442,13.165446,0.9036037,20.140537,-36.18568,-13.34641,1.0265312,-7.3780384,14.599793,-2.8047357,-19.361742,25.026007,3.373754,3.5556905,-21.018642,1.1729397
149,-2.413984537124634,-238.90988159179688,72.17698669433594,-1.415954857616947,-5.253222108964922,-85.53716228501236,-11.904544,5.933073,-4.4415884,92.36688,-22.990974,4.001712,-10.201209,-0.876427,-9.822552,49.287624,-34.065247,-0.79744303,-5.853064,5.2960205,13.188632,2.6874685,20.153902,-35.66127,-12.55907,1.8778706,-7.2028236,14.026271,-5.094371,-18.920528,25.180845,3.0576706,3.8734841,-20.942732,1.4410261
150,-2.392690896987915,-240.34371948242188,72.32916259765625,-1.2307040426311153,-5.240919148861193,-86.00409593878074,-13.614432,5.5108833,-3.959184,91.52603,-23.455772,4.2557445,-8.46411,-0.6807927,-9.27571,48.241287,-34.470535,-0.53484553,-4.751863,5.303569,13.133798,4.5051746,20.222097,-35.015614,-12.124028,2.5144446,-7.042126,12.966897,-7.2393384,-18.456715,25.261213,2.484644,4.281214,-20.788904,1.7643259
151,-2.3551714420318604,-241.79640197753906,72.53665924072266,-1.0208622670036969,-5.21127737618385,-86.51986366104234,-15.234061,5.0912857,-3.3848329,90.326614,-23.802382,4.49065,-6.686523,-0.50986797,-8.655549,47.03124,-34.60415,-0.25790796,-3.6060345,5.2817035,13.027002,6.3292556,20.348803,-34.33057,-11.939981,2.9975436,-6.8935323,11.767451,-9.255736,-17.985336,25.34094,1.7842686,4.7553487,-20.601631,2.0713084
152,-2.315699815750122,-243.27101135253906,72.79446411132812,-0.8132326028449937,-5.188606019027749,-86.98365795250203,-16.74239,4.628988,-2.8730364,88.82701,-23.965324,4.7020783,-4.8697414,-0.39333332,-8.070801,45.762318,-34.41465,0.021781422,-2.5282328,5.2329483,12.897206,8.124923,20.538126,-33.68938,-11.898822,3.3881412,-6.7499933,10.773278,-11.149531,-17.524336,25.487087,1.0748174,5.2755146,-20.426321,2.2917526
153,-2.279736280441284,-244.7527618408203,73.09562683105469,-0.6084997179634208,-5.180551340263741,-87.39804847468035,-18.13813,4.138114,-2.414197,87.02713,-23.924046,4.9200926,-2.9885993,-0.32958838,-7.512482,44.412235,-33.88664,0.30696878,-1.5169538,5.1638756,12.748947,9.881781,20.800264,-33.118694,-12.018762,3.6959798,-6.6019974,10.060646,-12.917817,-17.08663,25.71885,0.35570145,5.8658714,-20.271093,2.381137
154,-2.2498221397399902,-246.2648162841797,73.43519592285156,-0.3947424029138615,-5.173736426246105,-87.80652459400488,-19.423899,3.6352963,-1.9451538,84.90001,-23.72185,5.1369724,-1.0511284,-0.3046231,-6.9344587,42.94677,-33.053833,0.59913117,-0.5210335,5.0739765,12.576423,11.626053,21.138119,-32.571213,-12.355522,3.8879395,-6.4499183,9.450942,-14.5394745,-16.675081,26.001328,-0.45561853,6.5329823,-20.113453,2.3833091
155,-2.2246367931365967,-247.7817840576172,73.80065155029297,-0.1813854178304554,-5.162092140316848,-88.1696163176113,-20.58739,3.0747218,-1.542487,82.459335,-23.384068,5.29538,0.8936293,-0.31975892,-6.392046,41.449257,-31.93019,0.88510567,0.42450282,4.955909,12.392488,13.363997,21.539179,-32.0212,-12.840358,3.961104,-6.301052,8.906174,-15.991791,-16.29032,26.314085,-1.3624265,7.231453,-19.952366,2.362546
156,-2.1909866333007812,-249.33261108398438,74.19689178466797,0.023591957141533042,-5.140169007390647,-88.44788285196314,-21.617748,2.4125323,-1.2859873,79.7156,-22.934414,5.341448,2.7934387,-0.37227985,-5.9413905,40.005585,-30.528854,1.1533949,1.2864993,4.802771,12.206387,15.089064,21.978971,-31.446096,-13.385735,3.9147124,-6.1633167,8.388468,-17.253656,-15.933598,26.634325,-2.361187,7.9123693,-19.785381,2.3845794
157,-2.164264440536499,-250.88458251953125,74.6098861694336,0.22085583016464524,-5.122151961357581,-88.6180807207697,-22.507217,1.5808419,-1.2588694,76.64852,-22.364157,5.2540636,4.6847563,-0.46434218,-5.6095505,38.589314,-28.79716,1.4138628,2.0528362,4.6139097,12.028658,16.77538,22.439661,-30.846157,-13.959073,3.714131,-6.0336695,7.86942,-18.309877,-15.610166,26.951502,-3.474226,8.598957,-19.609013,2.4560635
158,-2.134443521499634,-252.45289611816406,75.03520202636719,0.411625463003924,-5.107557185717088,-88.70473717827865,-23.252691,0.6326029,-1.4141672,73.25425,-21.669764,5.0759892,6.578084,-0.58546454,-5.363581,37.17567,-26.74893,1.6710021,2.7448773,4.398072,11.849948,18.412592,22.915571,-30.236013,-14.576771,3.3762336,-5.906794,7.3741245,-19.1728,-15.325733,27.278612,-4.6956925,9.30378,-19.423761,2.545712
159,-2.113330125808716,-254.02708435058594,75.46202850341797,0.5862772562080115,-5.0689062650404715,-88.73828823209854,-23.858448,-0.2981055,-1.6371208,69.568306,-20.880096,4.846757,8.38472,-0.71257305,-5.1725435,35.849598,-24.493935,1.9082875,3.3799486,4.1629725,11.647726,20.01316,23.397646,-29.617361,-15.22013,2.9786117,-5.7888656,6.9450893,-19.860472,-15.080843,27.623993,-5.981306,9.962495,-19.23331,2.6626256
160,-2.086383819580078,-255.61651611328125,75.88871002197266,0.7421095080875908,-4.977628475311931,-88.75277988682969,-24.328526,-1.086504,-1.8002832,65.606964,-20.013111,4.598361,10.01574,-0.8291652,-5.00239,34.689625,-22.13389,2.110786,3.9774277,3.910328,11.397521,21.58737,23.87432,-28.992567,-15.866174,2.599397,-5.688166,6.624093,-20.394522,-14.872073,27.997086,-7.280267,10.508693,-19.041193,2.8167558
161,-2.0637834072113037,-257.21759033203125,76.30631256103516,0.9045200320616628,-4.795998339408487,-88.7393712943013,-24.687435,-1.771619,-1.9232832,61.28128,-19.011726,4.3207145,11.401152,-0.96852857,-4.871892,33.74039,-19.596735,2.232047,4.5333476,3.6052942,11.066605,23.124977,24.335117,-28.365583,-16.484993,2.2575212,-5.6175065,6.453618,-20.766987,-14.701925,28.403185,-8.597955,10.911545,-18.847,3.0184948
162,-2.052305221557617,-258.829345703125,76.7085189819336,1.0604598700226673,-4.549684259029787,-88.68551597156008,-24.917603,-2.3956535,-2.0604339,56.59448,-17.87985,4.0000553,12.602664,-1.1209967,-4.7936244,32.955948,-16.858465,2.3037746,5.0386796,3.2640722,10.674712,24.610779,24.77604,-27.738066,-17.0772,1.9153237,-5.5700917,6.399169,-20.972357,-14.573637,28.837692,-9.952324,11.208685,-18.647913,3.2612305
163,-2.0400774478912354,-260.4443054199219,77.08660125732422,1.1600456030107487,-4.305246091634024,-88.62090688829628,-24.968754,-2.852038,-2.1228738,51.68938,-16.719467,3.6557295,13.73595,-1.2113107,-4.7171946,32.26083,-14.082589,2.4256194,5.505215,2.9575355,10.2729845,26.051271,25.197937,-27.107439,-17.665571,1.5657614,-5.5271387,6.387532,-21.049797,-14.482396,29.298239,-11.292668,11.44057,-18.448105,3.5310655
164,-2.026597023010254,-262.0722961425781,77.4254150390625,1.1539616718976016,-4.128015103358573,-88.57651091104566,-24.797495,-3.042286,-2.0141692,46.705395,-15.6254635,3.305056,14.91891,-1.1670954,-4.58255,31.57142,-11.431093,2.691556,5.9456325,2.7503195,9.911756,27.460531,25.605362,-26.468124,-18.283098,1.2012436,-5.467435,6.345712,-21.037848,-14.415738,29.783304,-12.567778,11.643507,-18.25008,3.8129165
165,-2.0143954753875732,-263.71246337890625,77.71142578125,1.02859556480611,-4.033085758651844,-88.55408799019014,-24.327234,-2.9220324,-1.6861923,41.475784,-14.572935,2.8991098,16.196648,-0.95365006,-4.3303804,30.807777,-8.864005,3.1420057,6.362278,2.6523035,9.595109,28.860287,26.004175,-25.806606,-18.943647,0.7885689,-5.3860683,6.257129,-20.935127,-14.364022,30.28936,-13.770248,11.800526,-18.045515,4.131521
166,-2.001972198486328,-265.369140625,77.9496078491211,0.8078786046551237,-3.987276817114419,-88.54336351652587,-23.592258,-2.5648057,-1.1839149,35.94692,-13.49953,2.4319966,17.512228,-0.60580534,-3.986127,30.010801,-6.3106737,3.724105,6.749753,2.6337454,9.297606,30.248112,26.396984,-25.123943,-19.639765,0.3414533,-5.2935,6.160575,-20.733065,-14.32386,30.820171,-14.9140625,11.895916,-17.836548,4.4867926
167,-1.998332142829895,-267.03094482421875,78.13787841796875,0.49414502209632927,-3.9831250699669076,-88.55666759252887,-22.731518,-2.0425448,-0.5500974,30.455278,-12.458736,1.9899989,18.825712,-0.15396404,-3.616854,29.280521,-3.8857422,4.3814955,7.107534,2.70055,9.021425,31.602068,26.7822,-24.435684,-20.364864,-0.07716047,-5.191471,6.06638,-20.472313,-14.292826,31.385963,-15.968974,11.976783,-17.641787,4.8272815
168,-1.999200463294983,-268.7098388671875,78.2620849609375,0.09202165567732291,-4.012159880455324,-88.60567713491426,-21.902716,-1.4176903,0.16894175,25.380013,-11.526727,1.6691241,20.094084,0.36489862,-3.2990763,28.722593,-1.7088552,5.0496645,7.4351277,2.8559632,8.767556,32.893364,27.154932,-23.762104,-21.10464,-0.40379292,-5.08221,5.9840713,-20.193207,-14.268553,31.998404,-16.90352,12.089377,-17.479227,5.101143
169,-2.00028395652771,-270.3854064941406,78.32841491699219,-0.4316519175275725,-4.0882739928674985,-88.69703570732433,-21.12547,-0.62657654,1.0382557,20.772234,-10.742392,1.4944167,21.355392,1.0103896,-2.9671252,28.278154,0.2450388,5.7701845,7.7338195,3.1391575,8.5354805,34.13505,27.517172,-23.102554,-21.872461,-0.6188126,-4.957063,5.9114923,-19.906107,-14.247628,32.680763,-17.709118,12.252549,-17.362364,5.281204
170,-1.988776445388794,-272.04803466796875,78.34213256835938,-1.0713835102119946,-4.210930967682139,-88.82500561036807,-20.347342,0.33835033,2.0697536,16.491657,-10.084723,1.4140122,22.61336,1.7697843,-2.6012049,27.931007,2.0228894,6.546287,8.004953,3.537796,8.321415,35.33623,27.869574,-22.449488,-22.66904,-0.7563603,-4.818232,5.8443127,-19.595081,-14.22828,33.42226,-18.393282,12.439379,-17.278519,5.400207
171,-1.9752459526062012,-273.6940612792969,78.30792236328125,-1.7448344281136952,-4.346616818037405,-88.97719156641809,-19.64252,1.3340919,3.1259124,12.678333,-9.561991,1.4205974,23.754095,2.483345,-2.3719797,27.884443,3.525689,7.247417,8.245135,3.9681554,8.118756,36.44835,28.200148,-21.821096,-23.441135,-0.833129,-4.6845584,5.7884817,-19.25921,-14.212044,34.18256,-18.952446,12.627215,-17.207006,5.496261
172,-1.9519869089126587,-275.3177185058594,78.22742462158203,-2.3637488854255255,-4.459650354618901,-89.13734102939095,-19.070448,2.2118857,4.05992,9.432944,-9.161467,1.5129349,24.652695,2.984931,-2.4711168,28.352741,4.6462283,7.738319,8.446574,4.3411717,7.9208736,37.407288,28.488424,-21.244408,-24.120808,-0.8628518,-4.5747685,5.749096,-18.898535,-14.202859,34.921535,-19.381662,12.793703,-17.126797,5.60702
173,-1.922814130783081,-276.912841796875,78.09595489501953,-2.901362585350271,-4.505404658981306,-89.30742107904072,-18.878672,2.9545693,4.891503,7.1362863,-9.10891,1.7425755,25.207909,3.1980355,-3.0260549,29.470572,5.332882,7.9541135,8.6051035,4.631877,7.6970053,38.18869,28.714104,-20.727966,-24.686697,-0.8257001,-4.49552,5.720435,-18.536428,-14.206306,35.659363,-19.675846,12.968062,-17.04121,5.716781
174,-1.884865403175354,-278.4886169433594,77.92814636230469,-3.3767788158900354,-4.507037280835498,-89.47978405990665,-19.640766,3.678673,5.621219,7.046101,-10.092749,2.1034431,25.486462,3.155789,-3.9444447,31.152498,5.618624,7.947302,8.707471,4.862305,7.458088,38.79664,28.871437,-20.272602,-25.138582,-0.7151631,-4.436754,5.6977277,-18.172594,-14.222681,36.41388,-19.831425,13.151011,-16.959213,5.812445
175,-1.8434849977493286,-280.0682373046875,77.73085021972656,-3.769920342396351,-4.5298998347806645,-89.62453684770675,-20.226711,4.264922,6.177556,6.997434,-10.898902,2.514411,25.635073,2.8718796,-5.0867796,33.23451,5.534593,7.7691317,8.732637,5.0180287,7.2601447,39.210815,28.967112,-19.89326,-25.44103,-0.5661445,-4.391837,5.688659,-17.775423,-14.2465925,37.13953,-19.845707,13.280307,-16.868252,5.936923
176,-1.804808497428894,-281.6284484863281,77.48278045654297,-4.074326508737432,-4.63994225197324,-89.71575793164621,-20.523912,4.6759996,6.451825,6.9872394,-11.452518,2.8870187,25.802996,2.3975277,-6.3038387,35.537746,5.125068,7.4942017,8.675995,5.097761,7.154002,39.393906,29.013416,-19.6225,-25.543442,-0.41304997,-4.3537087,5.706522,-17.306782,-14.267093,37.774807,-19.713987,13.292759,-16.754602,6.1383176
177,-1.7632570266723633,-283.1728515625,77.18199157714844,-4.374388114829562,-4.9195715533110045,-89.76135930854642,-20.429066,4.9761896,6.2968254,7.0260496,-12.071064,3.1136997,26.1498,1.8210936,-7.638129,37.991238,4.293987,7.0758395,8.51567,5.1852016,7.2000036,39.460594,29.04015,-19.397888,-25.555782,-0.24749328,-4.3086333,5.738341,-16.747223,-14.2801895,38.347496,-19.452414,13.188275,-16.597832,6.445513
178,-1.720439076423645,-284.7008361816406,76.83555603027344,-4.654347115535752,-5.312730424762524,-89.7708754656209,-20.032717,5.15937,5.8191376,7.1131105,-12.682944,3.2673733,26.583216,1.1043609,-9.120977,40.67162,3.0567706,6.5103493,8.296037,5.2629476,7.345232,39.33739,29.051586,-19.275217,-25.422806,-0.0571305,-4.2624016,5.7961135,-16.110739,-14.28117,38.833637,-19.043238,12.994012,-16.407839,6.8428025
179,-1.683107614517212,-286.2337951660156,76.45441436767578,-4.7436539412064604,-5.677571433429075,-89.72837450846646,-19.511581,5.081544,5.294453,7.2332306,-12.633158,3.5256505,26.870342,0.13201432,-10.596465,43.608334,1.6503711,5.951863,7.9863563,5.1357503,7.520409,39.012234,29.049185,-19.223837,-25.132988,0.100742556,-4.2435236,5.884894,-15.439951,-14.273843,39.254585,-18.495958,12.685619,-16.234697,7.2530293
180,-1.6624202728271484,-287.7840881347656,76.0474624633789,-4.489663015273829,-5.879000226168117,-89.62665240749776,-19.832514,4.6855464,4.9285865,9.061799,-12.158221,4.055859,26.78919,-1.1915444,-11.912547,46.806034,0.3383575,5.5464783,7.604408,4.6384177,7.6411977,38.389523,29.027025,-19.281956,-24.601252,0.1775435,-4.2784967,6.022556,-14.768794,-14.261395,39.58186,-17.80303,12.243134,-16.121672,7.617904
181,-1.579208254814148,-289.2037353515625,75.74039459228516,-3.7805544968741427,-5.79399162903489,-89.44891686829287,-21.397,3.8718398,4.8204055,13.212836,-10.677697,5.1421885,26.18515,-3.0015228,-13.121278,50.346878,-0.7679417,5.3495536,7.1404405,3.6634781,7.603291,37.36988,28.925327,-19.497936,-23.738491,0.16171685,-4.367469,6.199223,-14.122438,-14.240368,39.822227,-16.93399,11.637281,-16.072243,7.9186816
182,-1.4988245964050293,-290.5978088378906,75.40477752685547,-2.8382226487423123,-5.56534723236141,-89.24336870803343,-23.363361,2.85929,4.9520936,18.185764,-7.9625564,6.571683,25.291159,-5.0579014,-14.205242,54.101223,-1.7534055,5.2707148,6.629861,2.4531386,7.492297,36.070354,28.763449,-19.822268,-22.65693,0.08184269,-4.4979334,6.405902,-13.46941,-14.22377,39.97489,-15.92167,10.895308,-16.06278,8.195041
183,-1.4388418197631836,-292.01971435546875,74.98088836669922,-1.908023583869966,-5.421413949169443,-89.06958953686593,-25.161833,1.9241352,5.265287,23.148794,-5.1498127,7.82016,24.388155,-7.0035405,-14.976557,57.8364,-2.6966822,5.260754,6.1204047,1.285824,7.467521,34.569767,28.55861,-20.23798,-21.390484,-0.026452038,-4.678459,6.6797895,-12.794281,-14.210061,40.039314,-14.763284,10.0661125,-16.101282,8.454715
184,-1.3886942863464355,-293.4094543457031,74.48167419433594,-1.1423917133510826,-5.551873464757993,-88.95563969975656,-26.367537,1.1805711,5.5683455,27.575006,-3.5574622,8.399177,23.68832,-8.581213,-15.314805,61.384743,-3.7231777,5.2868304,5.6453786,0.3247615,7.672742,32.919456,28.348806,-20.737705,-19.958122,-0.13279156,-4.918189,7.0592804,-12.069958,-14.190894,39.995445,-13.462656,9.197623,-16.196627,8.710687
185,-1.356544017791748,-294.77166748046875,73.90756225585938,-0.5067883845562895,-6.064745065703034,-88.88029724453028,-26.990631,0.5371284,5.7497973,31.81258,-3.8606012,8.018278,23.31146,-9.7883835,-15.191435,64.79431,-4.9368753,5.399639,5.1969056,-0.4994709,8.215005,31.17667,28.164131,-21.278978,-18.396921,-0.3220393,-5.2426524,7.5349236,-11.299663,-14.162596,39.842724,-12.057575,8.299604,-16.333761,9.057585
186,-1.3152927160263062,-296.113525390625,73.32841491699219,0.11982571674941597,-6.810366502393274,-88.81480211750521,-27.367922,-0.0753247,5.8856077,36.31487,-5.422534,7.0366673,23.066452,-10.780627,-14.7336,68.17402,-6.283892,5.631999,4.7670217,-1.3341348,8.979486,29.297867,28.011452,-21.878159,-16.70147,-0.5909849,-5.6414647,8.0984335,-10.47916,-14.122017,39.57376,-10.552211,7.346178,-16.51896,9.456249
187,-1.2554858922958374,-297.4841613769531,72.8069839477539,0.7011465371531966,-7.594282247863587,-88.77866667941642,-27.559172,-0.55688864,6.0173283,40.71429,-7.611928,5.8960333,22.693354,-11.54789,-14.048316,71.45909,-7.6530805,5.9006863,4.3908854,-2.1130493,9.782442,27.176825,27.893177,-22.626123,-14.816426,-0.77798617,-6.0708475,8.7954645,-9.566595,-14.058605,39.155033,-8.894751,6.332308,-16.785065,9.721648
188,-1.2007331848144531,-298.82269287109375,72.35736083984375,1.1852094472829144,-8.23088299570278,-88.7966239452984,-27.558607,-0.8648429,6.1713705,44.470955,-9.720364,5.0006948,21.936512,-12.077102,-13.209932,74.57969,-8.923926,6.1090803,4.0927424,-2.7410457,10.45194,24.723244,27.805122,-23.608675,-12.705218,-0.7214381,-6.4819345,9.678067,-8.520629,-13.959412,38.553856,-7.0238967,5.249662,-17.1588,9.669336
189,-1.14082932472229,-300.13275146484375,71.99520111083984,1.5511304914671733,-8.679307646473148,-88.88683747539787,-27.266388,-1.024088,6.3775,47.2764,-11.653531,4.3837695,20.687447,-12.268697,-12.074616,77.53971,-10.074704,6.2437806,3.896151,-3.1594505,10.957009,21.790255,27.744734,-24.943876,-10.190164,-0.2649649,-6.861166,10.955764,-7.2666163,-13.800776,37.728752,-4.879528,3.9940908,-17.667011,9.191702
190,-1.0993295907974243,-301.3878479003906,71.69317626953125,1.823408945096554,-9.03926957625606,-89.03372048406527,-26.692022,-1.0936512,6.6380234,49.404186,-13.727386,3.8317783,19.100735,-12.144921,-10.656247,80.380806,-11.164775,6.3429484,3.775835,-3.4166462,11.397522,18.50568,27.692389,-26.523714,-7.4156666,0.46206376,-7.215631,12.555924,-5.854732,-13.576947,36.706116,-2.4941847,2.5909915,-18.26934,8.40309
191,-1.0890192985534668,-302.6050720214844,71.45244598388672,2.007508458001867,-9.33644279283958,-89.21121452932528,-25.972263,-1.1066306,6.907456,51.135326,-15.823842,3.3646152,17.308498,-11.897555,-9.242174,83.07941,-12.181258,6.3715386,3.6579618,-3.5679405,11.798424,15.1919,27.612133,-28.079302,-4.807826,1.198614,-7.5359635,14.090545,-4.434055,-13.313649,35.573105,0.050265554,1.229295,-18.894499,7.45037
192,-1.0759986639022827,-303.829345703125,71.25978088378906,2.114721812987542,-9.596035316520007,-89.39536842267395,-25.245968,-1.0740074,7.1232977,52.758083,-17.825117,2.9953532,15.425305,-11.741785,-8.101152,85.60961,-13.113126,6.2907214,3.4708447,-3.671118,12.17789,12.124352,27.476414,-29.373095,-2.716737,1.6929946,-7.8380437,15.152582,-3.141079,-13.05611,34.419544,2.653133,0.10739942,-19.48548,6.482743
193,-1.03620445728302,-305.0274963378906,71.09281158447266,2.1139636078796316,-9.824993466058226,-89.66076409445063,-24.503073,-0.8968483,7.282185,54.321712,-19.754572,2.7464497,13.409907,-11.717595,-7.224829,87.999664,-13.9128,6.056683,3.253477,-3.6816528,12.545091,9.323116,27.27272,-30.387476,-1.1430782,1.8881937,-8.163474,15.568961,-1.980712,-12.835867,33.251022,5.3671207,-0.68439615,-20.07363,5.388731
194,-0.9871206283569336,-306.1875,70.93157196044922,2.0123006908963026,-10.010437248427564,-89.98984005061298,-23.684345,-0.589992,7.3956575,55.679478,-21.649237,2.6036344,11.212984,-11.730776,-6.488408,90.252655,-14.594341,5.6841784,3.0104759,-3.579297,12.888776,6.6268187,27.004932,-31.233948,0.1191972,1.9241338,-8.504582,15.562643,-0.8700845,-12.663724,32.03179,8.176266,-1.2620046,-20.677118,4.1355324
195,-0.9238559603691101,-307.35064697265625,70.80982208251953,1.876060026885684,-10.147475192381531,-90.22198536634913,-22.850168,-0.32194272,7.4120407,56.82881,-23.414413,2.5158362,8.93305,-11.817899,-5.9702435,92.28836,-15.235747,5.227936,2.6421769,-3.4646184,13.193362,3.9940038,26.689774,-31.926085,1.0779661,1.8443307,-8.816602,15.316968,0.20637971,-12.55647,30.77151,10.86248,-1.72276,-21.233501,2.995253
196,-0.8843544125556946,-308.4817810058594,70.71259307861328,1.7666429237520984,-10.22921599489744,-90.19755228013376,-22.06022,-0.2615264,7.2808123,57.766685,-24.958475,2.4342804,6.6695766,-12.014789,-5.7475257,94.019646,-15.910071,4.7492948,2.0508802,-3.4417334,13.445615,1.3981793,26.3535,-32.47693,1.7232317,1.6898293,-9.053566,15.014893,1.2691922,-12.534443,29.48515,13.204192,-2.1540732,-21.681679,2.2396674
197,-0.8759968280792236,-309.5703125,70.64205169677734,1.7077262460178688,-10.24506998031319,-89.82141169752892,-21.349457,-0.5040323,6.95239,58.48291,-26.248228,2.3719227,4.4372916,-12.42702,-5.942938,95.45048,-16.66368,4.2079268,1.1611853,-3.56423,13.639977,-1.1707666,26.019178,-32.89573,1.9683263,1.4061109,-9.19903,14.608728,2.3351007,-12.615311,28.130314,15.117477,-2.5006819,-21.99931,2.0512693
198,-0.86325603723526,-310.6600646972656,70.61512756347656,1.66275162816187,-10.200486186330927,-89.19567011483397,-20.681574,-0.9367779,6.4547186,58.98997,-27.338646,2.344583,2.1886463,-13.025063,-6.472438,96.6161,-17.44765,3.5943706,0.0609221,-3.772835,13.786716,-3.7103305,25.696264,-33.213066,1.8367323,0.9827348,-9.276771,14.033401,3.4373424,-12.802967,26.696575,16.678076,-2.7223957,-22.228624,2.2549343
199,-0.85764080286026,-311.7343444824219,70.61567687988281,1.613487626817284,-10.113126692382139,-88.45652241667786,-20.009459,-1.4226714,5.857957,59.31558,-28.267057,2.3109312,-0.072756335,-13.643551,-7.1067123,97.48108,-18.190557,3.0256197,-1.1070547,-4.0017595,13.8955145,-6.216483,25.386076,-33.467926,1.47717,0.53278327,-9.303392,13.447517,4.613624,-13.090966,25.250212,17.921188,-2.9295588,-22.40353,2.5850115
200,-0.879040539264679,-312.79473876953125,70.65951538085938,1.538095155353556,-10.000861015529996,-87.74024172937246,-19.28995,-1.827878,5.2391195,59.488842,-29.071445,2.231967,-2.3531518,-14.104142,-7.6255846,98.00778,-18.814987,2.6157873,-2.2079868,-4.1809797,13.979285,-8.679246,25.084248,-33.686153,1.0408831,0.17100312,-9.299474,13.008863,5.883937,-13.465022,23.864517,18.900812,-3.2372625,-22.557272,2.7729244
201,-0.9228819012641907,-313.855224609375,70.7528076171875,1.4237036504954839,-9.857621903456383,-87.02655009148168,-18.516378,-2.1437945,4.5833826,59.479874,-29.776007,2.1001751,-4.670872,-14.361269,-8.04033,98.17105,-19.316729,2.4369054,-3.2532597,-4.295804,14.033252,-11.13381,24.789522,-33.880795,0.55011624,-0.046018656,-9.256954,12.763343,7.251921,-13.922254,22.540808,19.590382,-3.7490058,-22.692928,2.7341387
202,-0.9795981645584106,-314.9086608886719,70.89303588867188,1.2846266426740487,-9.67769124282189,-86.2612590245883,-17.708084,-2.4344275,3.864179,59.285187,-30.356289,1.9383036,-7.0167217,-14.514638,-8.454164,97.99113,-19.726124,2.415597,-4.3022223,-4.3780465,14.052518,-13.57301,24.499933,-34.043636,-0.06620122,-0.18806544,-9.171764,12.626748,8.707184,-14.45869,21.24405,19.991455,-4.379323,-22.793894,2.6170065
203,-1.0341007709503174,-315.96368408203125,71.0711441040039,1.1436121215418313,-9.479798088060155,-85.5301972866413,-16.86024,-2.6775746,3.1450186,58.969803,-30.777367,1.7540746,-9.359103,-14.587726,-8.7883215,97.496086,-20.016882,2.4466496,-5.299385,-4.4292054,14.050359,-15.9216,24.208624,-34.15443,-0.7873743,-0.32792866,-9.07224,12.559384,10.217656,-15.051802,19.997467,20.23161,-4.966439,-22.86554,2.5008698
204,-1.0941112041473389,-317.02459716796875,71.2899169921875,1.0258961893953007,-9.283488621580428,-84.91997812589052,-15.969912,-2.851567,2.4891887,58.59627,-31.002342,1.5537417,-11.66462,-14.596646,-8.963422,96.715034,-20.164497,2.4260383,-6.193429,-4.4539967,14.0364065,-18.10289,23.908571,-34.183716,-1.5844283,-0.5326189,-8.985905,12.520408,11.730538,-15.667432,18.82966,20.460123,-5.3532476,-22.915398,2.4637635
205,-1.1556096076965332,-318.09503173828125,71.55461883544922,0.9325540029680456,-9.084261190988974,-84.46169210550623,-15.028994,-2.9458268,1.9131935,58.151196,-31.024906,1.3411535,-13.974416,-14.507423,-8.927325,95.6515,-20.146666,2.3424575,-6.9587646,-4.459541,14.00079,-20.129644,23.598293,-34.118427,-2.4481227,-0.8010632,-8.899916,12.52415,13.212727,-16.2909,17.744238,20.726994,-5.483189,-22.938848,2.5542464
206,-1.2173681259155273,-319.16339111328125,71.85713195800781,0.8557554180220698,-8.877033158322662,-84.10621026909676,-14.040725,-2.976203,1.3837309,57.610233,-30.864687,1.1127278,-16.277548,-14.310809,-8.73851,94.2861,-19.986746,2.245693,-7.6265173,-4.4473743,13.938955,-22.044928,23.281721,-33.979366,-3.371569,-1.1018921,-8.8061,12.5832205,14.672911,-16.921978,16.725523,20.986423,-5.454657,-22.935806,2.7204041
207,-1.2801761627197266,-320.23388671875,72.1885986328125,0.7874251046896092,-8.67965856733432,-83.81832550613208,-13.019543,-2.960431,0.8904696,57.02148,-30.524082,0.8613625,-18.46324,-14.052554,-8.48259,92.61685,-19.731075,2.125715,-8.232298,-4.416991,13.866024,-23.81197,22.962778,-33.78298,-4.330627,-1.4511911,-8.738027,12.653707,16.106312,-17.544222,15.776623,21.256035,-5.3441896,-22.921879,2.8900425
208,-1.3488824367523193,-321.3110046386719,72.55329132080078,0.7274318319350227,-8.50954637720716,-83.56378808252632,-11.979696,-2.9167783,0.42246762,56.43202,-30.005362,0.5789505,-20.424494,-13.783167,-8.244598,90.64368,-19.42748,1.9727982,-8.810516,-4.371368,13.792805,-25.406034,22.648928,-33.54915,-5.290293,-1.8747903,-8.728708,12.690284,17.495857,-18.132484,14.903712,21.571304,-5.2327824,-22.9156,2.9897077
209,-1.4263206720352173,-322.395751953125,72.94185638427734,0.6772238740957062,-8.372892820448008,-83.3589427504418,-10.889097,-2.8377671,-0.001988079,55.80174,-29.300755,0.24813227,-22.16333,-13.503302,-8.012044,88.37265,-19.090796,1.7388452,-9.351173,-4.3230863,13.721526,-26.83403,22.349907,-33.275803,-6.2459593,-2.409988,-8.809612,12.687517,18.815151,-18.67016,14.117651,21.979042,-5.13487,-22.92659,2.9722376
210,-1.5037484169006348,-323.4906311035156,73.3513412475586,0.6376440034313241,-8.259610369538795,-83.21428875635613,-9.751707,-2.7208414,-0.38455862,55.122253,-28.413332,-0.12439405,-23.719208,-13.184484,-7.755899,85.80409,-18.704752,1.4455886,-9.837019,-4.27799,13.64625,-28.108963,22.07167,-32.965565,-7.2134767,-3.0321443,-8.953975,12.666476,20.060389,-19.159597,13.413273,22.469267,-5.021194,-22.944904,2.8848865
211,-1.5842252969741821,-324.59423828125,73.77344512939453,0.5996712242400629,-8.161489117368955,-83.08674417466237,-8.636855,-2.5902956,-0.7665499,54.48788,-27.359983,-0.5131894,-25.045599,-12.840472,-7.5329247,82.923615,-18.267252,1.1887877,-10.294495,-4.2255006,13.564511,-29.212103,21.813852,-32.641136,-8.190329,-3.6747837,-9.106841,12.6214,21.252537,-19.60327,12.7785845,22.984009,-4.905008,-22.957325,2.7960253
212,-1.6684534549713135,-325.7042236328125,74.20498657226562,0.551581957987258,-8.069759097999883,-82.93285474658904,-7.6138973,-2.470263,-1.1897807,53.99349,-26.15725,-0.8944618,-26.097843,-12.491088,-7.395381,79.70975,-17.775633,1.0633788,-10.747991,-4.1540384,13.473154,-30.133345,21.571352,-32.328373,-9.165011,-4.274824,-9.213589,12.548111,22.415373,-20.003767,12.197899,23.464941,-4.799469,-22.950062,2.774473
213,-1.7430024147033691,-326.81597900390625,74.64125061035156,0.4821258931334378,-7.970703276645913,-82.75268750877841,-6.712826,-2.3500903,-1.6621575,53.656826,-24.733727,-1.2664886,-26.874622,-12.124752,-7.347754,76.11533,-17.203632,1.1122576,-11.196522,-4.043605,13.36756,-30.863537,21.338806,-32.026226,-10.129889,-4.8467484,-9.267716,12.437307,23.54543,-20.3601,11.666472,23.923811,-4.693934,-22.914854,2.8491502
214,-1.8257074356079102,-327.9353942871094,75.07774353027344,0.3981400749680779,-7.871574996524532,-82.566086016067,-5.892794,-2.2273655,-2.1642313,53.429775,-23.102797,-1.6505122,-27.395464,-11.739756,-7.3602877,72.16094,-16.561348,1.2794183,-11.622251,-3.9052424,13.251388,-31.431429,21.11643,-31.732365,-11.077209,-5.4237123,-9.294923,12.293861,24.638996,-20.675127,11.187333,24.376822,-4.58837,-22.859749,2.9797556
215,-1.9054564237594604,-329.0650939941406,75.50572204589844,0.32562198791097535,-7.796386186606815,-82.3592718332124,-5.109917,-2.1368494,-2.6966825,53.295464,-21.410875,-2.0546846,-27.650393,-11.375328,-7.429678,67.91324,-15.895854,1.5097208,-12.038952,-3.7745855,13.137475,-31.828844,20.895401,-31.463436,-12.034402,-5.9250956,-9.288194,12.140017,25.704914,-20.957079,10.771343,24.780924,-4.5089393,-22.79883,3.130338
216,-1.9841294288635254,-330.2007141113281,75.91069030761719,0.2873745325015933,-7.769122816758976,-82.118587250958,-4.325916,-2.109783,-3.2594907,53.24502,-19.805069,-2.4806118,-27.63499,-11.074064,-7.5530105,63.436234,-15.253427,1.7422951,-12.4405985,-3.6781778,13.030941,-32.13204,20.678778,-31.240126,-12.966058,-6.341327,-9.244535,11.990901,26.77603,-21.216242,10.409615,25.084105,-4.479223,-22.74594,3.2655547
217,-2.067605495452881,-331.3497314453125,76.28770446777344,0.27476208872734476,-7.80279669921408,-81.83047309634706,-3.5389378,-2.140169,-3.8739622,53.274548,-18.234987,-2.9230096,-27.290861,-10.837078,-7.7343426,58.60701,-14.626637,1.9449648,-12.843923,-3.6106389,12.946757,-32.30478,20.461666,-31.058392,-13.893134,-6.6349273,-9.141135,11.847501,27.852995,-21.459576,10.114536,25.278542,-4.541875,-22.708582,3.3775244
218,-2.13889217376709,-332.511962890625,76.62570190429688,0.27864898401925525,-7.882244939658048,-81.50565698761687,-2.765634,-2.2162302,-4.5343995,53.387207,-16.649101,-3.3836014,-26.642527,-10.651778,-7.968099,53.425114,-13.994593,2.147404,-13.245012,-3.55874,12.877789,-32.332043,20.239296,-30.910614,-14.818336,-6.8249955,-8.988124,11.702212,28.928072,-21.690588,9.8827915,25.382051,-4.670046,-22.678164,3.484612
219,-2.206117868423462,-333.69091796875,76.91984558105469,0.32521117260692767,-7.989576796260696,-81.16687520958405,-2.0000494,-2.357389,-5.200566,53.59203,-15.197942,-3.865293,-25.81796,-10.538308,-8.238964,48.140495,-13.3796425,2.3867407,-13.623017,-3.5428889,12.80143,-32.2514,20.01049,-30.805893,-15.736086,-6.9330926,-8.829216,11.56288,30.00277,-21.912308,9.696737,25.386593,-4.7831535,-22.644245,3.5913303
220,-2.265406847000122,-334.8899841308594,77.16114807128906,0.43774117819776104,-8.107119629822432,-80.83649177026622,-1.2363967,-2.5770257,-5.829638,53.89762,-14.029511,-4.3632803,-24.943594,-10.510512,-8.5354185,42.990208,-12.7981205,2.7071967,-13.950356,-3.5803075,12.692461,-32.128643,19.783472,-30.750692,-16.619244,-7.010329,-8.708072,11.434658,31.085493,-22.124504,9.533823,25.28214,-4.8000574,-22.595499,3.7023044
221,-2.3272335529327393,-336.1069641113281,77.33790588378906,0.6398558963278815,-8.251197297245476,-80.5001330104085,-0.43970585,-2.8896773,-6.4220247,54.268196,-13.165047,-4.88879,-23.95497,-10.574332,-8.863561,37.805637,-12.210439,3.190905,-14.234922,-3.697449,12.551476,-31.96053,19.563303,-30.74741,-17.489668,-7.0174966,-8.616301,11.317045,32.211876,-22.329792,9.389561,25.027729,-4.6997204,-22.522865,3.8345082
222,-2.382988691329956,-337.3251037597656,77.44619750976562,0.9199106500040066,-8.427945565595953,-80.15028200481251,0.3765389,-3.278312,-7.000295,54.71561,-12.527107,-5.426375,-22.803398,-10.72479,-9.232282,32.482098,-11.594379,3.7921977,-14.497651,-3.8859835,12.3932295,-31.685427,19.342468,-30.794102,-18.375498,-6.917921,-8.537418,11.210505,33.36187,-22.530777,9.2807,24.638712,-4.5261245,-22.433765,3.9796534
223,-2.435443639755249,-338.552490234375,77.48723602294922,1.2451831801914284,-8.603983438606631,-79.81641745479504,1.1431977,-3.7147915,-7.553574,55.31639,-12.111207,-5.92998,-21.634098,-10.946733,-9.6449375,27.338902,-10.976773,4.3817496,-14.710886,-4.106764,12.2051525,-31.369947,19.130598,-30.881523,-19.208765,-6.8509955,-8.502621,11.112912,34.479992,-22.721361,9.200385,24.18878,-4.2941318,-22.341711,4.10462
224,-2.4915971755981445,-339.77752685546875,77.46139526367188,1.5858401119194423,-8.74548540587286,-79.5287704981774,1.793215,-4.176574,-8.066703,56.141552,-11.9181595,-6.358455,-20.608753,-11.212224,-10.106236,22.73624,-10.400407,4.8445907,-14.863821,-4.3294144,11.98264,-31.005823,18.93134,-31.008503,-19.975975,-6.891091,-8.542384,11.031084,35.48439,-22.89345,9.161272,23.762676,-4.0235295,-22.26101,4.176064
225,-2.544954299926758,-341.00146484375,77.37760925292969,1.9530629719916466,-8.817913875268042,-79.28856974887017,2.2801633,-4.6926193,-8.547171,57.209457,-12.000046,-6.690939,-19.782808,-11.55439,-10.740759,18.711514,-9.862658,5.1834936,-14.946752,-4.5576935,11.688847,-30.622957,18.75482,-31.190166,-20.674591,-7.0980716,-8.686805,10.985191,36.382114,-23.042006,9.172004,23.351055,-3.6835527,-22.1877,4.179494
226,-2.612459182739258,-342.2142639160156,77.23707580566406,2.366729874100098,-8.85172245256026,-79.07783213886353,2.6511831,-5.2727766,-8.9963255,58.488605,-12.34347,-6.9491878,-19.076664,-11.956303,-11.5161295,15.09663,-9.343247,5.478811,-14.975119,-4.8198943,11.341648,-30.19901,18.604254,-31.425354,-21.327305,-7.410456,-8.911711,10.966998,37.197746,-23.166945,9.233888,22.925209,-3.2797139,-22.117296,4.1335754
227,-2.6956851482391357,-343.4129943847656,77.03882598876953,2.7943928215112046,-8.903324188082058,-78.9038258209736,2.9770916,-5.856644,-9.383181,59.967827,-12.845127,-7.161074,-18.460224,-12.317263,-12.191691,11.969139,-8.884088,5.7178793,-14.952113,-5.1014757,11.010769,-29.714945,18.476912,-31.683136,-21.904907,-7.776338,-9.166572,10.934405,37.89117,-23.268406,9.3338585,22.540104,-2.8835654,-22.063667,4.0556464
228,-2.7845618724823,-344.5971374511719,76.78941345214844,3.1873037381384957,-9.02146290335809,-78.78202257587392,3.3203132,-6.364077,-9.67477,61.639782,-13.406982,-7.3590775,-17.923931,-12.546166,-12.51518,9.451486,-8.545396,5.8646607,-14.873585,-5.3664093,10.764168,-29.15194,18.365246,-31.93145,-22.374918,-8.14123,-9.400967,10.846109,38.419807,-23.346844,9.458853,22.252415,-2.565964,-22.039505,3.963522
229,-2.883768320083618,-345.7579650878906,76.4903335571289,3.5418361392597384,-9.235163127399185,-78.7349404405997,3.7289305,-6.82315,-9.874027,63.523838,-14.060711,-7.584566,-17.486084,-12.651672,-12.351167,7.671746,-8.561888,5.791979,-14.713562,-5.615479,10.625401,-28.499666,18.260136,-32.16847,-22.737822,-8.545102,-9.626137,10.672193,38.787956,-23.40431,9.615051,22.076612,-2.3304765,-22.05711,3.8488767
230,-2.9851937294006348,-346.9146423339844,76.13877868652344,3.8473685273245883,-9.498246212798234,-78.76274324815628,4.144795,-7.222223,-9.986476,65.62698,-14.852751,-7.819028,-17.4715,-12.716627,-11.778341,7.201588,-9.189493,5.5351076,-14.466103,-5.8220205,10.554332,-27.781794,18.1594,-32.4071,-22.99513,-9.002551,-9.860339,10.43953,39.00809,-23.442108,9.804032,21.988863,-2.1430173,-22.106565,3.7075853
231,-3.0724880695343018,-348.0851135253906,75.74061584472656,4.039516908615955,-9.746616008332705,-78.84750200616914,4.475855,-7.4169593,-9.984424,67.91123,-15.702577,-8.004535,-17.55423,-12.607606,-11.035802,7.201646,-9.655502,5.279463,-14.163895,-5.905808,10.526815,-26.9924,18.079105,-32.63942,-23.153349,-9.402802,-10.065117,10.197078,39.038815,-23.457075,10.009422,21.99488,-2.0214717,-22.170637,3.5646799
232,-3.1226911544799805,-349.2742614746094,75.29997253417969,4.06039119175789,-9.91897228848865,-78.96870761450742,4.631052,-7.26748,-9.845015,70.339455,-16.52725,-8.079954,-17.580359,-12.244024,-10.329032,7.211572,-9.381542,5.2101555,-13.834911,-5.790478,10.504708,-26.177507,17.99966,-32.86056,-23.154726,-9.646813,-10.202956,9.990314,38.848053,-23.451452,10.218587,22.10395,-1.9742798,-22.231407,3.4414287
233,-3.149967670440674,-350.46417236328125,74.81083679199219,3.9045220511622034,-10.026543362583151,-79.11817333816961,4.6350603,-6.72897,-9.532854,72.91352,-17.275509,-8.028743,-17.669151,-11.607091,-9.60517,7.576213,-8.49331,5.7251487,-13.500883,-5.475432,10.498862,-25.2827,17.940344,-33.058968,-23.067305,-9.738809,-10.233975,9.842875,38.41872,-23.421785,10.419765,22.318132,-2.052646,-22.27957,3.36121
234,-3.1954736709594727,-351.6148681640625,74.32022094726562,3.5976530156678446,-10.093821525707526,-79.30742302918283,4.531928,-5.872995,-9.079106,75.63981,-18.000927,-7.880428,-17.987154,-10.735563,-8.764368,8.663345,-7.370693,6.6451983,-13.12969,-5.0057507,10.506766,-24.349884,17.86967,-33.26378,-22.83047,-9.716536,-10.189115,9.72713,37.753567,-23.339722,10.638324,22.66852,-2.2403114,-22.327778,3.2953517
235,-3.311661720275879,-352.614013671875,73.89173889160156,3.141243326989188,-10.085852015580857,-79.5393103881647,4.2698793,-4.7469544,-8.573351,78.483955,-18.77425,-7.641827,-18.755255,-9.70897,-7.893708,10.697967,-6.1334796,7.30986,-12.701653,-4.3561645,10.514501,-23.43039,17.807402,-33.47856,-22.406925,-9.546294,-10.140012,9.616585,36.919075,-23.22502,10.847564,23.083284,-2.444044,-22.386244,3.2257392
236,-3.444760322570801,-353.5845642089844,73.41394805908203,2.5762352415432463,-9.97957944235094,-79.80490572596777,3.8049078,-3.4506798,-8.108835,81.40619,-19.656492,-7.314141,-20.276094,-8.6933975,-7.086872,14.116241,-4.957124,7.0555553,-12.214747,-3.5605786,10.493269,-22.590107,17.75155,-33.7109,-21.715588,-9.183773,-10.15663,9.484013,35.95719,-23.095757,11.058666,23.52496,-2.5655313,-22.466764,3.1204185
237,-3.571415424346924,-354.5816345214844,72.84160614013672,1.9415623547460668,-9.704012403243476,-80.09452108747473,3.0237541,-1.9678587,-7.670396,84.52832,-20.681751,-6.8260736,-22.982443,-7.782071,-6.341256,19.57398,-3.356758,5.281041,-11.657215,-2.6345298,10.357371,-21.880562,17.711151,-33.96382,-20.77857,-8.64823,-10.24058,9.253412,34.933434,-22.953444,11.243991,23.899237,-2.5402884,-22.574715,2.9832609
238,-3.6578166484832764,-355.546630859375,72.21158599853516,1.3600248314757037,-9.344639925240394,-80.36602227992337,2.0410216,-0.44308513,-7.2424717,87.78828,-21.771776,-6.159315,-26.33562,-7.0451436,-5.755273,26.156437,-1.0581746,2.5582728,-11.083591,-1.739905,10.148902,-21.250868,17.693447,-34.229996,-19.62712,-7.959719,-10.359466,8.962013,33.836033,-22.792906,11.414323,24.227556,-2.4304922,-22.70173,2.825008
