unveil-humanoid-operators/unveil-humanoid-operators.github.io/feature-analysis-animation/data/feature_matrix_instances/height_root_translate_peak_vel_walking_A036_walk_sideway_135_loop_001__A036.csv
Frame,root_translateX,root_translateY,root_translateZ,root_rotateX,root_rotateY,root_rotateZ,left_hip_pitch_joint_dof,left_hip_roll_joint_dof,left_hip_yaw_joint_dof,left_knee_joint_dof,left_ankle_pitch_joint_dof,left_ankle_roll_joint_dof,right_hip_pitch_joint_dof,right_hip_roll_joint_dof,right_hip_yaw_joint_dof,right_knee_joint_dof,right_ankle_pitch_joint_dof,right_ankle_roll_joint_dof,waist_yaw_joint_dof,waist_roll_joint_dof,waist_pitch_joint_dof,left_shoulder_pitch_joint_dof,left_shoulder_roll_joint_dof,left_shoulder_yaw_joint_dof,left_elbow_joint_dof,left_wrist_roll_joint_dof,left_wrist_pitch_joint_dof,left_wrist_yaw_joint_dof,right_shoulder_pitch_joint_dof,right_shoulder_roll_joint_dof,right_shoulder_yaw_joint_dof,right_elbow_joint_dof,right_wrist_roll_joint_dof,right_wrist_pitch_joint_dof,right_wrist_yaw_joint_dof
0,2.796243667602539,0.3180164396762848,78.1343994140625,0.32853231872747024,0.4287214083086611,-176.71562754613242,-3.7442656,4.0179243,4.539214,16.294226,-13.061267,-6.0218596,-2.0259721,-4.008989,-5.043594,16.328438,-14.479567,3.9357772,-3.4900887,0.7724425,5.5461936,-11.245225,17.168467,-41.83824,69.92551,5.0851235,-0.3818478,1.6448443,1.7465745,-16.236702,21.483316,57.128235,-11.102274,-1.35175,0.35940695
1,2.798814058303833,0.33597227931022644,78.12603759765625,0.37935351435234477,0.4273892764029166,-176.75984288387016,-3.7103946,3.9866817,4.592613,16.244022,-13.051324,-6.0371923,-2.1860273,-4.048491,-4.9752827,16.642733,-14.645782,3.8859804,-3.470205,0.71136206,5.551539,-11.241336,17.170092,-41.82894,69.93996,5.040784,-0.3724999,1.6362399,1.7826183,-16.241314,21.485058,57.0712,-11.067347,-1.3666266,0.36509308
2,2.8009188175201416,0.3552969694137573,78.11901092529297,0.4324323911215335,0.4268265129984256,-176.80377399008316,-3.6744056,3.951344,4.647058,16.18736,-13.038532,-6.051518,-2.3501537,-4.0920324,-4.9057207,16.963253,-14.814763,3.8380935,-3.454229,0.6469388,5.555379,-11.2414665,17.172277,-41.820507,69.95985,4.9876146,-0.3643806,1.6270349,1.8189954,-16.24397,21.489311,57.013702,-11.033151,-1.3814031,0.37045112
3,2.8059494495391846,0.3755900263786316,78.10971069335938,0.48365207808280414,0.4255376905964692,-176.84907302298987,-3.640425,3.9206877,4.7011228,16.137856,-13.028612,-6.067387,-2.5106118,-4.1304784,-4.8360333,17.27782,-14.981484,3.7865183,-3.4361215,0.582211,5.559984,-11.24002,17.175793,-41.810528,69.9813,4.945346,-0.35654822,1.6173043,1.8544407,-16.244759,21.495054,56.95828,-10.999909,-1.3960689,0.37457725
4,2.8087685108184814,0.4053281545639038,78.097900390625,0.5312891707620092,0.42299124503520646,-176.89828321853784,-3.6115348,3.900401,4.7552032,16.104963,-13.025926,-6.0868745,-2.6649046,-4.158287,-4.765407,17.58249,-15.144403,3.726091,-3.4199908,0.5136769,5.5682974,-11.2371435,17.184664,-41.797565,70.008644,4.9221964,-0.35100362,1.605512,1.8907743,-16.240871,21.509874,56.8985,-10.970697,-1.4082297,0.3749838
5,2.8114802837371826,0.438383549451828,78.08553314208984,0.5733579577535682,0.4164485141155327,-176.95104186131334,-3.5864208,3.8935137,4.8075657,16.092384,-13.032369,-6.1118393,-2.8074715,-4.1723623,-4.6950355,17.872448,-15.302017,3.6534915,-3.3937643,0.4464541,5.5836997,-11.232686,17.192905,-41.784405,70.039604,4.9321938,-0.3470188,1.5890601,1.9212228,-16.232824,21.523159,56.845898,-10.941844,-1.4207568,0.36726576
6,2.8132894039154053,0.47725433111190796,78.07234954833984,0.6163099123753004,0.40853095662687045,-177.00745084246302,-3.561148,3.8905916,4.861393,16.084835,-13.040137,-6.139716,-2.949571,-4.1824636,-4.621989,18.16393,-15.461701,3.5730562,-3.375611,0.3658157,5.599311,-11.225332,17.21163,-41.767136,70.0796,4.956313,-0.34616786,1.5679439,1.9463918,-16.21013,21.556116,56.796715,-10.913675,-1.4292433,0.3480852
7,2.817711114883423,0.5119583010673523,78.06039428710938,0.6537386269864284,0.40121508027502034,-177.06639329347465,-3.544261,3.898933,4.914491,16.095858,-13.056054,-6.169449,-3.0845444,-4.1808887,-4.5499296,18.44013,-15.614452,3.4878461,-3.3611739,0.27774185,5.6141105,-11.206253,17.251959,-41.752388,70.10902,4.9853935,-0.34317273,1.5514385,1.9471537,-16.15829,21.594019,56.77957,-10.899364,-1.4377683,0.33057696
8,2.8160738945007324,0.5580390095710754,78.05049133300781,0.6849418009145489,0.3983005556013482,-177.12789343606389,-3.5403345,3.9189062,4.967769,16.125732,-13.080083,-6.19856,-3.2157743,-4.167068,-4.4792643,18.69886,-15.757623,3.402392,-3.3409781,0.1988082,5.6274433,-11.188362,17.284874,-41.739197,70.14174,5.022933,-0.3368939,1.55036,1.9660214,-16.113865,21.615503,56.741894,-10.906596,-1.4423736,0.33531597
9,2.816554546356201,0.6094845533370972,78.03904724121094,0.7131768814790079,0.40321223652075705,-177.19268995790134,-3.5499902,3.9456835,5.023149,16.16752,-13.106687,-6.2223997,-3.3503737,-4.1449747,-4.408168,18.94746,-15.894117,3.318128,-3.3292809,0.11245548,5.632528,-11.156387,17.337523,-41.72916,70.1582,5.064504,-0.31947324,1.5708705,1.9728808,-16.042875,21.630957,56.72117,-10.95154,-1.4418303,0.36528566
10,2.8151695728302,0.6657313704490662,78.0269546508789,0.7381038898107531,0.4133149116347928,-177.26058511774917,-3.571977,3.9805179,5.0797596,16.224623,-13.138398,-6.2434287,-3.4869683,-4.11415,-4.336863,19.18869,-16.025366,3.2328024,-3.3174832,0.03108424,5.6345897,-11.122264,17.387789,-41.721806,70.17354,5.117155,-0.29557586,1.6075095,1.9891472,-15.975532,21.636326,56.688248,-11.020342,-1.436811,0.4174223
11,2.8112025260925293,0.7193024158477783,78.01337432861328,0.7530411863131969,0.42319375824656824,-177.33006262506242,-3.603686,4.0324516,5.134123,16.306202,-13.183133,-6.2702475,-3.6092277,-4.066481,-4.2694035,19.402172,-16.14416,3.1448455,-3.3055508,-0.045067947,5.638417,-11.086906,17.444704,-41.72143,70.19318,5.155009,-0.2773071,1.648012,2.005482,-15.900412,21.644562,56.6564,-11.092743,-1.4311342,0.47234762
12,2.801006317138672,0.7762143611907959,78.00154876708984,0.7515059013517047,0.42747629374433166,-177.39962282144225,-3.6458757,4.110752,5.182586,16.42789,-13.2522955,-6.3114347,-3.7021165,-3.9942243,-4.209862,19.57008,-16.245117,3.0528011,-3.288911,-0.10733667,5.6505632,-11.050913,17.501356,-41.713585,70.22455,5.1758003,-0.2764131,1.6806182,2.026414,-15.826067,21.664957,56.619297,-11.1431465,-1.428145,0.5147905
13,2.790494680404663,0.8421819806098938,77.9906997680664,0.7361681731094416,0.4243953598997474,-177.46864925835013,-3.6874478,4.2130327,5.227004,16.57247,-13.339109,-6.37062,-3.7587216,-3.8999352,-4.160728,19.683357,-16.32782,2.9555461,-3.26594,-0.15684204,5.6733985,-11.02245,17.55289,-41.707188,70.2835,5.1704917,-0.3023541,1.706582,2.059432,-15.757529,21.696737,56.567905,-11.164239,-1.4296262,0.5408851
14,2.7816309928894043,0.912539005279541,77.98036193847656,0.7087976298750727,0.4168272698376586,-177.53804651720776,-3.7282274,4.3356824,5.2685957,16.730679,-13.439402,-6.442955,-3.791945,-3.786445,-4.1191463,19.761097,-16.39612,2.85408,-3.2386243,-0.19627367,5.7031174,-10.996926,17.601828,-41.698864,70.36074,5.1510043,-0.34645,1.7305902,2.10101,-15.689973,21.735716,56.506435,-11.169267,-1.4334267,0.55900604
15,2.7689380645751953,0.9843553304672241,77.97054290771484,0.6617229067418274,0.4066974817234717,-177.60834615454567,-3.7956512,4.488188,5.30175,16.95381,-13.571438,-6.523699,-3.8008711,-3.6448922,-4.082448,19.795301,-16.444513,2.7503903,-3.2041433,-0.20659709,5.7389503,-10.978594,17.632935,-41.69055,70.44994,5.112116,-0.39675587,1.7486777,2.1584828,-15.644804,21.780207,56.424824,-11.161244,-1.4364251,0.5770406
16,2.7618072032928467,1.061387538909912,77.95648193359375,0.5878315139654232,0.39541727392458076,-177.6803052072194,-3.9128222,4.678794,5.3212805,17.283667,-13.750295,-6.60837,-3.7889688,-3.4676185,-4.0473695,19.787298,-16.47069,2.6463785,-3.181269,-0.2031872,5.772535,-10.932094,17.687454,-41.656616,70.50587,5.0595903,-0.43736207,1.7528542,2.177605,-15.567539,21.856077,56.39275,-11.152202,-1.4367629,0.58643866
17,2.7527575492858887,1.1417700052261353,77.93982696533203,0.4851031433130414,0.3804937928301012,-177.7566592729667,-4.069383,4.91048,5.3285456,17.70664,-13.975858,-6.6998253,-3.7453332,-3.249865,-4.010665,19.72029,-16.464659,2.5415192,-3.149554,-0.15883103,5.81124,-10.885811,17.724333,-41.625168,70.55059,4.9660864,-0.4717604,1.7265469,2.2080305,-15.518054,21.943636,56.34764,-11.129315,-1.4320996,0.5981124
18,2.7422850131988525,1.2242933511734009,77.92160034179688,0.35764723276342303,0.361851673357859,-177.83610357096143,-4.257248,5.177805,5.325246,18.206432,-14.239307,-6.7992887,-3.671906,-2.9969459,-3.9746115,19.600151,-16.43156,2.435201,-3.1312115,-0.09717244,5.851261,-10.809428,17.77732,-41.559795,70.564415,4.857017,-0.5029158,1.6762339,2.209158,-15.452532,22.068949,56.33702,-11.093449,-1.4245685,0.60046935
19,2.730483293533325,1.3044627904891968,77.896728515625,0.20409782606954366,0.3454100058707281,-177.9132333234798,-4.502535,5.4806776,5.305017,18.818659,-14.547595,-6.8999662,-3.5860813,-2.7121325,-3.9452925,19.450758,-16.385277,2.3291733,-3.1115384,-0.0019314141,5.894179,-10.730971,17.825928,-41.48448,70.569466,4.7483835,-0.526856,1.6393781,2.2140644,-15.399724,22.197397,56.3188,-11.060687,-1.4160122,0.6080104
20,2.718653917312622,1.388134479522705,77.87117004394531,0.023372673851231523,0.33708862098816594,-177.98258110955456,-4.8290443,5.8179674,5.26142,19.574282,-14.904852,-6.994885,-3.5061374,-2.3990405,-3.9287302,19.296734,-16.340322,2.2250319,-3.0945668,0.13015223,5.9374256,-10.643337,17.866528,-41.364048,70.56393,4.7020226,-0.53707135,1.652127,2.222849,-15.361008,22.31877,56.289658,-11.047234,-1.4085822,0.6271533
21,2.704347610473633,1.466525673866272,77.84272766113281,-0.18651914149537413,0.3393985006660895,-178.045759646309,-5.232584,6.19307,5.1953883,20.464052,-15.32394,-7.0860944,-3.4356651,-2.0524247,-3.921569,19.139748,-16.297682,2.1196837,-3.0653474,0.30413866,5.977181,-10.56868,17.88793,-41.237915,70.568344,4.722647,-0.52335775,1.7454509,2.253836,-15.341791,22.416939,56.23416,-11.064374,-1.400369,0.66528815
22,2.69533371925354,1.5464259386062622,77.8035888671875,-0.4243616388883916,0.3485719451675359,-178.1046566208121,-5.702786,6.6049957,5.107788,21.473543,-15.796813,-7.175728,-3.3617845,-1.672369,-3.9221032,18.960876,-16.249565,2.013461,-3.0653346,0.5102319,6.01346,-10.465836,17.914097,-41.04762,70.55228,4.8074265,-0.49099645,1.8919826,2.2601254,-15.323201,22.54844,56.196934,-11.095149,-1.3901513,0.7092705
23,2.687917470932007,1.625874638557434,77.76204681396484,-0.6881523393563715,0.36214181892633973,-178.15441901695047,-6.25384,7.0476794,4.991425,22.624022,-16.295235,-7.256997,-3.2862344,-1.2683092,-3.938499,18.770538,-16.196297,1.9125878,-3.0706475,0.75122976,6.0553975,-10.3557005,17.939316,-40.822765,70.52053,4.896641,-0.46083605,2.0440352,2.2625546,-15.314851,22.676321,56.156345,-11.129445,-1.3835999,0.757194
24,2.6813416481018066,1.7008068561553955,77.71073913574219,-0.976016142226543,0.3773121257342185,-178.19019441616817,-6.899283,7.51463,4.838936,23.936035,-16.79004,-7.3236837,-3.2095165,-0.84963435,-3.9791288,18.575533,-16.1381,1.82321,-3.0527887,1.0283996,6.1076293,-10.277405,17.94995,-40.62356,70.501366,4.9062285,-0.45530465,2.155926,2.2816336,-15.320404,22.75838,56.09808,-11.160402,-1.386487,0.80561656
25,2.6722588539123535,1.764587163925171,77.649169921875,-1.3028151517047426,0.3964831672847845,-178.21570894322213,-7.643163,8.026897,4.6630497,25.421547,-17.309813,-7.3831677,-3.1334715,-0.39788812,-4.0460367,18.368382,-16.070845,1.742003,-3.0754755,1.3651984,6.1720457,-10.167085,17.960802,-40.314808,70.44548,4.856545,-0.48299852,2.193426,2.2658682,-15.34905,22.875797,56.051796,-11.177717,-1.4008626,0.8480241
26,2.6707510948181152,1.8200924396514893,77.58358001708984,-1.6645645259399744,0.42013839367712297,-178.2320315336548,-8.47317,8.577886,4.4607124,27.056314,-17.85439,-7.436596,-3.058315,0.085389696,-4.1342845,18.147114,-15.994841,1.6672666,-3.1048753,1.7561018,6.2477508,-10.055726,17.969109,-39.97407,70.369644,4.741744,-0.531881,2.1884637,2.2534764,-15.408833,22.989838,55.98463,-11.190688,-1.4239857,0.89349085
27,2.6754238605499268,1.8751591444015503,77.51485443115234,-2.0320883044021487,0.4428431245352984,-178.2301288202932,-9.383117,9.118984,4.200847,28.818073,-18.351353,-7.469409,-2.9791536,0.5620506,-4.242307,17.921333,-15.915964,1.607307,-3.1230993,2.1587598,6.3370266,-9.967082,17.967993,-39.65864,70.30355,4.6143265,-0.5909636,2.1913133,2.2508047,-15.475507,23.065575,55.90703,-11.190231,-1.4499097,0.9401516
28,2.6816673278808594,1.9209662675857544,77.4480209350586,-2.3771099782070704,0.4596542538649311,-178.20075261194836,-10.363295,9.600528,3.8541825,30.677608,-18.72844,-7.4685116,-2.8960395,0.9951605,-4.3694806,17.712234,-15.841275,1.5702986,-3.1775115,2.5579135,6.4550214,-9.880763,17.958551,-39.352734,70.23472,4.5316205,-0.6522956,2.251028,2.2472003,-15.582512,23.14807,55.802937,-11.135334,-1.468853,0.9907771
29,2.6809613704681396,1.955781102180481,77.38517761230469,-2.7030021676835347,0.4699847663139614,-178.13759855110212,-11.438457,10.020478,3.4129853,32.687534,-18.962442,-7.44286,-2.8078356,1.3853308,-4.524377,17.51773,-15.767704,1.5646724,-3.2453885,2.9488864,6.6032176,-9.822137,17.937325,-39.096504,70.18555,4.49041,-0.7160208,2.3971233,2.2521026,-15.710664,23.191725,55.669403,-11.022565,-1.4800017,1.0475906
30,2.6870174407958984,1.9747976064682007,77.32583618164062,-3.0210864300013336,0.4769331605659196,-178.0468774968193,-12.600661,10.393851,2.8955116,34.835575,-19.089176,-7.400921,-2.7176569,1.7490581,-4.7047186,17.333117,-15.6947155,1.584003,-3.328145,3.3453684,6.7772064,-9.778968,17.90159,-38.85231,70.14591,4.483618,-0.7858609,2.597817,2.261906,-15.860707,23.209446,55.51099,-10.864871,-1.4869666,1.1092628
31,2.695594310760498,1.9861887693405151,77.26790618896484,-3.3150631364170993,0.47961580539950865,-177.9380107110592,-13.795429,10.696917,2.3135655,37.0051,-19.127409,-7.3295918,-2.6242976,2.0731456,-4.8938875,17.162096,-15.630735,1.6140312,-3.4157422,3.725024,6.9650116,-9.758176,17.855412,-38.6645,70.12442,4.4804688,-0.8579968,2.8133047,2.274503,-16.030058,23.221737,55.35262,-10.6868725,-1.4918898,1.1681316
32,2.699686288833618,1.9907000064849854,77.21327209472656,-3.5689628359614196,0.47721149476852187,-177.8203619766046,-14.967504,10.90807,1.6797286,39.078323,-19.094557,-7.2142906,-2.524978,2.3446777,-5.075688,17.00649,-15.583086,1.6403643,-3.4948354,4.0646405,7.155515,-9.756177,17.8043,-38.55513,70.11743,4.4754095,-0.92729634,3.002378,2.291553,-16.211004,23.244432,55.215466,-10.51521,-1.4972198,1.217138
33,2.6979501247406006,1.9882149696350098,77.16573333740234,-3.7819709089642948,0.4701891788687522,-177.6839466011354,-16.143435,10.998609,0.9526062,41.104923,-18.96413,-7.010451,-2.4228716,2.5601099,-5.2595797,16.876534,-15.557474,1.655865,-3.5739105,4.3616195,7.351993,-9.787944,17.754805,-38.564823,70.132126,4.428577,-1.001789,3.1464782,2.3039932,-16.399763,23.280107,55.110847,-10.330913,-1.5098213,1.2584095
34,2.690500020980835,1.9802719354629517,77.12816619873047,-3.961687929651426,0.4588866314514431,-177.52776333487142,-17.33689,10.982004,0.14724565,43.121704,-18.734385,-6.7463684,-2.3177793,2.726431,-5.4504066,16.768902,-15.549075,1.6692467,-3.6546688,4.624373,7.5585856,-9.842293,17.707945,-38.66036,70.15811,4.366621,-1.0801737,3.268958,2.3128657,-16.594805,23.318953,55.02773,-10.130291,-1.5265956,1.2939214
35,2.673553943634033,1.9659185409545898,77.09993743896484,-4.104014307470588,0.4414831226724007,-177.37467316222074,-18.476772,10.907738,-0.6427181,44.99809,-18.464817,-6.509893,-2.2008605,2.845613,-5.624495,16.665462,-15.550407,1.6899564,-3.718449,4.8460026,7.762356,-9.896635,17.66416,-38.802277,70.18583,4.328363,-1.1456388,3.3938107,2.3250263,-16.793108,23.366179,54.9666,-9.961872,-1.535238,1.3144517
36,2.652420997619629,1.9474393129348755,77.0779800415039,-4.204505242843728,0.4166811146290789,-177.2475579786164,-19.497894,10.832267,-1.329777,46.611378,-18.22299,-6.38131,-2.0642643,2.9192057,-5.7582064,16.550217,-15.554847,1.7274463,-3.746174,5.0182457,7.9503083,-9.918407,17.621738,-38.923176,70.19806,4.3821273,-1.1799475,3.5444329,2.3465333,-16.991167,23.426052,54.92927,-9.874693,-1.5237576,1.3103522
37,2.6126973628997803,1.9178345203399658,77.06476593017578,-4.255459951255062,0.3804068076424782,-177.1463199257892,-20.380268,10.759048,-1.9033525,47.93639,-18.046669,-6.396794,-1.8975221,2.9382856,-5.848049,16.413166,-15.561543,1.7905679,-3.7360668,5.1314526,8.121239,-9.907097,17.581467,-39.044422,70.19182,4.5616875,-1.1678424,3.757959,2.3752954,-17.188137,23.512644,54.92305,-9.89369,-1.4822474,1.2693292
38,2.5630204677581787,1.8847309350967407,77.05906677246094,-4.261365732882269,0.3345614268808427,-177.0608229386932,-21.165659,10.670367,-2.409584,49.048367,-17.901829,-6.501496,-1.7067919,2.904802,-5.9062147,16.264057,-15.573382,1.8722435,-3.698338,5.19205,8.280666,-9.87404,17.544329,-39.180977,70.17361,4.8320217,-1.1212713,4.0112844,2.4067295,-17.3839,23.620607,54.947857,-9.9895115,-1.4194136,1.1991812
39,2.50508451461792,1.848767876625061,77.05936431884766,-4.236814233619604,0.2858136462416808,-176.99894209356904,-21.881865,10.5957155,-2.849611,49.970932,-17.747282,-6.6354866,-1.5110447,2.8368459,-5.9322953,16.120167,-15.590864,1.9578873,-3.6336527,5.218308,8.425198,-9.815803,17.51045,-39.286232,70.150894,5.1239676,-1.0649459,4.2385993,2.439583,-17.575193,23.731638,54.996418,-10.126347,-1.3505408,1.1201233
40,2.4324753284454346,1.7999436855316162,77.06843566894531,-4.196387608965316,0.24068294653471167,-176.9684770650255,-22.55691,10.563908,-3.2254784,50.727745,-17.540798,-6.7401085,-1.3306395,2.7526114,-5.9260178,16.001955,-15.614585,2.032726,-3.5444403,5.2280855,8.551692,-9.722123,17.479265,-39.296684,70.12701,5.3849936,-1.0241433,4.374061,2.4713826,-17.757118,23.828114,55.06324,-10.269475,-1.2911501,1.0517265
41,2.3486900329589844,1.7497258186340332,77.08003234863281,-4.135969633053901,0.19734227611354355,-176.975450607389,-23.187487,10.581323,-3.5286329,51.3095,-17.281248,-6.8039193,-1.1595128,2.6502464,-5.880793,15.899593,-15.641349,2.0921934,-3.4275126,5.2158875,8.660298,-9.584614,17.451487,-39.198147,70.10036,5.633263,-1.0071306,4.3913126,2.4957635,-17.925423,23.9168,55.162758,-10.429074,-1.2423792,0.9958459
42,2.2621707916259766,1.6908921003341675,77.0959701538086,-4.050925680595964,0.15331534155413834,-177.01436406836302,-23.763693,10.637811,-3.7639024,51.709263,-16.98746,-6.854038,-0.99243915,2.5226161,-5.7993155,15.810523,-15.67197,2.1442618,-3.2854,5.1749077,8.751625,-9.413541,17.429602,-39.03346,70.073395,5.873729,-1.0012723,4.328866,2.51067,-18.080105,24.006533,55.29978,-10.617924,-1.1970367,0.9420346
43,2.1661479473114014,1.632432222366333,77.11421966552734,-3.9538313207853553,0.11516341409529499,-177.07589863629047,-24.303196,10.735154,-3.9515724,51.95075,-16.645105,-6.8900843,-0.83880883,2.3794882,-5.6937556,15.741087,-15.710715,2.1932971,-3.1270983,5.120246,8.825223,-9.210902,17.412169,-38.784187,70.04043,6.0780206,-0.99924713,4.216987,2.5248878,-18.221241,24.079988,55.447147,-10.804116,-1.1580665,0.8922624
44,2.063009262084961,1.5675017833709717,77.13124084472656,-3.8578605746396564,0.0894542587494953,-177.1505785308955,-24.825615,10.874025,-4.1125703,52.061646,-16.242146,-6.9118824,-0.7090911,2.2312078,-5.5766616,15.699466,-15.7629385,2.243576,-2.9639242,5.0690136,8.879298,-8.994579,17.398804,-38.470123,70.01028,6.1758246,-0.99526083,4.08743,2.54585,-18.349962,24.12341,55.579247,-10.955017,-1.1282221,0.84823394
45,1.9498580694198608,1.4909603595733643,77.14514923095703,-3.76086378620463,0.0789992697854811,-177.2422300743838,-25.334658,11.063048,-4.2327847,52.036793,-15.766699,-6.9108863,-0.6122091,2.0754535,-5.4438705,15.695477,-15.830653,2.2895944,-2.7900949,5.019412,8.909488,-8.754777,17.38555,-38.052692,69.97817,6.137179,-0.987086,3.9245043,2.5775518,-18.467619,24.12925,55.69609,-11.065582,-1.1118306,0.8050491
46,1.8314553499221802,1.4061415195465088,77.15946197509766,-3.657858470694694,0.08000074188915736,-177.35365694506442,-25.82234,11.29995,-4.308066,51.868153,-15.229477,-6.8883433,-0.54057264,1.9082975,-5.2911477,15.72205,-15.911048,2.331374,-2.6032364,4.9655914,8.918352,-8.488731,17.370457,-37.53833,69.943985,6.0002112,-0.9776612,3.7194407,2.6168458,-18.574074,24.106812,55.806767,-11.151351,-1.106248,0.7638281
47,1.7153358459472656,1.3140252828598022,77.17060852050781,-3.5567060174076954,0.08932976564824952,-177.47433110459409,-26.284857,11.567901,-4.372206,51.568344,-14.64605,-6.859099,-0.4779179,1.7383263,-5.1301684,15.755801,-15.997839,2.3814352,-2.4148836,4.9148126,8.913303,-8.216377,17.356401,-36.991074,69.91575,5.8259673,-0.9675599,3.5135016,2.6599236,-18.67037,24.06117,55.903126,-11.213165,-1.1041446,0.734856
48,1.5883687734603882,1.2089688777923584,77.17908477783203,-3.4655601044464146,0.10361682135823884,-177.59359619180043,-26.718847,11.849481,-4.458946,51.150146,-14.03189,-6.838369,-0.40752545,1.5734437,-4.972891,15.773896,-16.085302,2.4522858,-2.2183075,4.8675237,8.897477,-7.9631004,17.347754,-36.484406,69.90652,5.684995,-0.95659804,3.3480525,2.7082334,-18.737768,23.977015,55.984875,-11.259475,-1.0994542,0.7266801
49,1.450495719909668,1.0995169878005981,77.18428039550781,-3.3835700769464343,0.12434428044379978,-177.71322091875905,-27.126755,12.150159,-4.5609546,50.608807,-13.37034,-6.823262,-0.3282163,1.4139922,-4.8173823,15.769898,-16.170591,2.5501225,-2.054186,4.8388805,8.882825,-7.6902127,17.34678,-35.94094,69.874535,5.6300054,-0.9422681,3.2245529,2.7570214,-18.820036,23.88518,56.019962,-11.271713,-1.0863824,0.7553164
50,1.3092641830444336,0.9866272211074829,77.1866455078125,-3.3071402287711016,0.15244067359482416,-177.83733902743603,-27.509638,12.473992,-4.664308,49.939976,-12.660464,-6.8080187,-0.24541017,1.2561102,-4.6590676,15.751501,-16.257006,2.6672392,-1.8714536,4.81195,8.853903,-7.428761,17.352882,-35.41726,69.85155,5.5888257,-0.9244407,3.1252787,2.825006,-18.880177,23.736877,56.027596,-11.2675905,-1.071473,0.80896807
51,1.1591440439224243,0.8670520782470703,77.18270111083984,-3.241428725523389,0.18383915294243303,-177.95894570524953,-27.862604,12.802127,-4.794563,49.158634,-11.941213,-6.8039923,-0.15797,1.1026019,-4.5060987,15.729394,-16.347773,2.7951076,-1.7027584,4.7955313,8.822904,-7.165381,17.367702,-34.90282,69.83082,5.550819,-0.91179895,3.055129,2.8876588,-18.9354,23.591423,56.01742,-11.239154,-1.0584947,0.8715509
52,1.0052262544631958,0.7398427724838257,77.17237091064453,-3.1912041651975342,0.2146154677675521,-178.07105136265668,-28.179064,13.115964,-4.9771485,48.2773,-11.2506275,-6.8226104,-0.059493773,0.9566279,-4.366647,15.702331,-16.444237,2.925397,-1.5524809,4.792583,8.796003,-6.9083724,17.391838,-34.428688,69.82245,5.4911494,-0.91223454,3.0197177,2.9369571,-18.991018,23.47726,55.997272,-11.186638,-1.0522431,0.92629546
53,0.8449169993400574,0.6038097143173218,77.16038513183594,-3.1598047988248013,0.24338744018820163,-178.1697725186241,-28.460436,13.416121,-5.220904,47.29312,-10.616494,-6.8548336,0.056138184,0.8220538,-4.2456274,15.661558,-16.54315,3.0594497,-1.418085,4.806597,8.772763,-6.6711493,17.422716,-34.01057,69.841225,5.3834977,-0.9325659,3.0340452,2.9789946,-19.043621,23.386795,55.961998,-11.099551,-1.0569135,0.97478
54,0.6793138980865479,0.4587116539478302,77.14249420166016,-3.143793334775256,0.27211922740459954,-178.25951595480478,-28.707476,13.7097,-5.510613,46.19799,-10.011239,-6.8994126,0.18549773,0.69598645,-4.137899,15.607193,-16.643776,3.2006023,-1.2953255,4.8344526,8.749426,-6.446142,17.458162,-33.62507,69.88018,5.255892,-0.96695983,3.090888,3.0160627,-19.09335,23.307343,55.91063,-10.98119,-1.0689079,1.0237825
55,0.49960026144981384,0.30699288845062256,77.12097930908203,-3.1383851852701943,0.30224086905008846,-178.34589833356637,-28.917624,13.989427,-5.8387423,45.005222,-9.393871,-6.9795084,0.31776792,0.57208675,-4.0364447,15.55974,-16.754633,3.343299,-1.1873634,4.873838,8.727732,-6.221408,17.500898,-33.27412,69.92509,5.1326027,-1.0054531,3.1633112,3.040835,-19.145905,23.257996,55.85079,-10.854669,-1.0814412,1.0651953
56,0.30855998396873474,0.14382150769233704,77.09583282470703,-3.138761450678995,0.3349753033491252,-178.43432314062912,-29.087673,14.249585,-6.199129,43.727028,-8.723173,-7.117766,0.4432009,0.4443931,-3.9343019,15.536825,-16.882254,3.481868,-1.0883825,4.920164,8.706049,-5.990627,17.546585,-32.95888,69.97142,5.0496597,-1.0374118,3.2254915,3.0490837,-19.199404,23.24687,55.794807,-10.748066,-1.0881242,1.0896798
57,0.11815586686134338,-0.026208989322185516,77.06504821777344,-3.146817508116222,0.3705707163916776,-178.5226376314111,-29.21785,14.486221,-6.6112394,42.3504,-7.948586,-7.3408976,0.5563226,0.31337118,-3.8347394,15.550758,-17.03078,3.6076272,-0.98450094,4.97485,8.678575,-5.77929,17.578892,-32.70389,70.053444,5.0227304,-1.0615185,3.2793071,3.0394413,-19.23939,23.261257,55.759155,-10.664165,-1.0864226,1.0892121
58,-0.0858859196305275,-0.2063143253326416,77.02967834472656,-3.1644166820739845,0.40839674100823115,-178.60923712594357,-29.30634,14.705526,-7.0734763,40.870056,-7.103972,-7.6293287,0.6648502,0.18236056,-3.7397294,15.587017,-17.194569,3.7257988,-0.92641354,5.0459166,8.665341,-5.529331,17.631905,-32.435608,70.097466,5.0477443,-1.0823721,3.3288639,3.0001836,-19.305063,23.347855,55.710445,-10.573019,-1.078583,1.0757885
59,-0.29660868644714355,-0.3976707458496094,76.98693084716797,-3.1857873453581513,0.44777672823847087,-178.70029836450757,-29.353361,14.918391,-7.5492806,39.320335,-6.279254,-7.936191,0.77421856,0.04750845,-3.6405585,15.631833,-17.370546,3.8518372,-0.86262923,5.120143,8.646162,-5.2859426,17.685242,-32.2235,70.15482,5.072142,-1.1002907,3.375051,2.95845,-19.370941,23.455412,55.658253,-10.504993,-1.0701411,1.0533626
60,-0.5117393136024475,-0.6007813215255737,76.94528198242188,-3.205470321944808,0.4883288574639033,-178.80192224038132,-29.357794,15.136521,-7.9997163,37.73335,-5.5630174,-8.213829,0.8897858,-0.09463952,-3.5287035,15.671718,-17.556047,4.001196,-0.79628974,5.188428,8.616791,-5.032294,17.73876,-32.039913,70.2136,5.0843034,-1.1151425,3.4125977,2.9086268,-19.438519,23.59327,55.609505,-10.473129,-1.0650128,1.0280805
61,-0.7364729642868042,-0.8051502704620361,76.89478302001953,-3.2248061294456485,0.5306916982104798,-178.91636017670842,-29.311092,15.357367,-8.442423,36.083317,-4.9566813,-8.4634285,1.0122284,-0.24029842,-3.4006479,15.701883,-17.752731,4.178059,-0.72766316,5.251903,8.57533,-4.7684016,17.794228,-31.896965,70.26975,5.0705943,-1.1187525,3.4414659,2.8489134,-19.508905,23.78066,55.563614,-10.49444,-1.0644293,0.99330175
62,-0.9729617238044739,-1.0285934209823608,76.84085083007812,-3.246046467132878,0.574802203221486,-179.0404428649211,-29.21518,15.582821,-8.888055,34.363026,-4.420359,-8.702696,1.1399564,-0.3887841,-3.2614539,15.727589,-17.960167,4.3741317,-0.6604572,5.3141165,8.525344,-4.495953,17.852438,-31.791534,70.32542,5.0468545,-1.1138569,3.4636185,2.7776046,-19.583155,24.01286,55.520382,-10.5566225,-1.0660926,0.94828695
63,-1.2260431051254272,-1.253726840019226,76.78814697265625,-3.2653962935051752,0.6185872481539602,-179.17183206618904,-29.087568,15.828872,-9.285797,32.632576,-3.9797595,-8.910395,1.271662,-0.5488853,-3.11581,15.757445,-18.17535,4.586305,-0.5956452,5.373331,8.470587,-4.214331,17.912088,-31.70564,70.385414,5.019082,-1.1171566,3.4775367,2.6997564,-19.658983,24.256737,55.476616,-10.627136,-1.068535,0.90929395
64,-1.4846479892730713,-1.482425332069397,76.73249053955078,-3.279132871940303,0.6604180180062483,-179.30829421040139,-28.944082,16.106869,-9.582543,30.95018,-3.658746,-9.067845,1.4090552,-0.7289473,-2.9683151,15.794247,-18.392748,4.8112116,-0.53285944,5.4268913,8.414018,-3.9203076,17.969837,-31.613028,70.45392,5.0033207,-1.1448959,3.481562,2.6210694,-19.732613,24.476469,55.430614,-10.675589,-1.0705831,0.8924125
65,-1.7504960298538208,-1.735314965248108,76.66958618164062,-3.283701429264736,0.6968148087314118,-179.45489271868988,-28.770418,16.419355,-9.759112,29.291592,-3.509342,-9.16661,1.545424,-0.9343471,-2.8141935,15.859223,-18.621351,5.050704,-0.47071958,5.471603,8.358492,-3.6109424,18.02274,-31.513037,70.53635,4.9881563,-1.2126479,3.4770231,2.538233,-19.801874,24.665869,55.385303,-10.692569,-1.0734924,0.90980613
66,-2.0324838161468506,-1.9908206462860107,76.60388946533203,-3.2817846601498792,0.7294958086524843,-179.61120443122005,-28.56264,16.757019,-9.8415,27.636274,-3.5001123,-9.22012,1.6882255,-1.1588271,-2.6532228,15.933533,-18.85895,5.305426,-0.40808982,5.5088186,8.300648,-3.2890863,18.069904,-31.412844,70.63221,4.977325,-1.3078698,3.464674,2.4481514,-19.867712,24.841867,55.34487,-10.695431,-1.0776328,0.9496526
67,-2.317678689956665,-2.248471736907959,76.53736877441406,-3.27943373161626,0.7643962908470892,-179.76626502688305,-28.352907,17.110527,-9.845616,26.048548,-3.5344322,-9.246237,1.842355,-1.3946064,-2.496737,15.995281,-19.090866,5.5702515,-0.3478269,5.545621,8.234664,-2.969886,18.112951,-31.32258,70.74343,4.9815955,-1.4054422,3.4425962,2.3586748,-19.929144,25.004736,55.305126,-10.693951,-1.0795971,0.9921944
68,-2.6153602600097656,-2.5238595008850098,76.46932983398438,-3.2816399551675457,0.8073201308404259,-179.9090602361394,-28.177671,17.468729,-9.788588,24.601002,-3.515284,-9.262506,2.015392,-1.6348652,-2.3558073,16.015388,-19.300304,5.8403754,-0.28971308,5.5862446,8.152023,-2.6734967,18.152628,-31.257929,70.87865,5.0100017,-1.4805739,3.4097607,2.2750056,-19.982521,25.151268,55.26964,-10.700495,-1.0765479,1.016506
69,-2.9125702381134033,-2.8091371059417725,76.40165710449219,-3.2899565585049473,0.8647496431672864,179.957471489747,-28.044954,17.83281,-9.680965,23.282654,-3.4116888,-9.268245,2.1971211,-1.8777721,-2.2279317,15.996135,-19.48548,6.1124477,-0.22584456,5.6321907,8.042423,-2.410384,18.183243,-31.23632,71.05209,5.0752907,-1.5253178,3.3642805,2.1949625,-20.019985,25.281597,55.244514,-10.725712,-1.0647929,1.0139055
70,-3.228700637817383,-3.101404905319214,76.3318099975586,-3.300955000638359,0.932445961511251,179.8296622256259,-27.936926,18.201866,-9.511202,22.06706,-3.277414,-9.258913,2.3874228,-2.1280785,-2.1092546,15.9478,-19.65292,6.3901677,-0.18722025,5.682061,7.92638,-2.1211207,18.235363,-31.200333,71.19347,5.1805944,-1.5521737,3.3000994,2.1128712,-20.075457,25.431137,55.199646,-10.743118,-1.0455467,1.0007073
71,-3.551938056945801,-3.399590015411377,76.26006317138672,-3.31349459532967,1.0000839274652522,179.71782617262235,-27.856058,18.563505,-9.266418,21.013561,-3.1495273,-9.245001,2.6051853,-2.3885276,-2.009158,15.862472,-19.802858,6.679265,-0.14620894,5.730124,7.804371,-1.8550256,18.28862,-31.187109,71.3544,5.2860217,-1.5700347,3.2290125,2.0469093,-20.122047,25.542496,55.152782,-10.762431,-1.027339,0.9830776
72,-3.8804776668548584,-3.707393169403076,76.18456268310547,-3.3261600858207703,1.0577869158723698,179.63228624135047,-27.806452,18.90688,-8.934948,20.18479,-3.0659857,-9.235653,2.870148,-2.6624262,-1.9374017,15.7299795,-19.933752,6.985584,-0.11405352,5.7735605,7.688479,-1.6077238,18.342754,-31.167965,71.527756,5.375783,-1.5864277,3.1571336,1.9986882,-20.15663,25.609379,55.10812,-10.771544,-1.0168855,0.9687573
73,-4.208698272705078,-4.025444030761719,76.10818481445312,-3.341368678479905,1.1011478573374336,179.57648367532184,-27.7848,19.239763,-8.505843,19.585253,-3.023252,-9.254553,3.199212,-2.9459155,-1.8969535,15.527355,-20.040104,7.3107004,-0.09361529,5.8148975,7.576549,-1.3921957,18.384562,-31.155756,71.741684,5.4246936,-1.6058427,3.0863912,1.9659821,-20.173088,25.624176,55.07682,-10.77188,-1.0186917,0.95850986
74,-4.549768447875977,-4.35538387298584,76.03104400634766,-3.3581958001385352,1.137035844786581,179.5451527315346,-27.795012,19.56443,-7.9904985,19.194748,-3.009404,-9.287935,3.57219,-3.2398937,-1.8833426,15.2774315,-20.125948,7.6518555,-0.09057892,5.848596,7.4755898,-1.1657419,18.45707,-31.129688,71.92803,5.45871,-1.6213429,3.0048108,1.9506402,-20.18621,25.604065,55.031,-10.760308,-1.0281978,0.95200014
75,-4.901541233062744,-4.6922993659973145,75.94945526123047,-3.370026332317579,1.171480208727352,179.5354439645058,-27.845003,19.864655,-7.408524,19.026651,-3.0462818,-9.287246,3.9727259,-3.553429,-1.8962064,14.996953,-20.19548,8.008923,-0.09342445,5.872262,7.3749347,-0.95820165,18.537817,-31.106342,72.11771,5.4910083,-1.6299113,2.9233792,1.945555,-20.18737,25.552029,54.992256,-10.742245,-1.0389125,0.9440407
76,-5.269451141357422,-5.050337791442871,75.86951446533203,-3.3705514741407283,1.2106924100036776,179.54470235071787,-27.947945,20.124634,-6.7821636,19.103527,-3.1585925,-9.203636,4.3816776,-3.8951964,-1.9353164,14.709165,-20.254232,8.381619,-0.098750085,5.883045,7.2723794,-0.77275246,18.623854,-31.075556,72.302635,5.5500417,-1.6275077,2.8478625,1.9469261,-20.179272,25.480099,54.96384,-10.715697,-1.0441487,0.93214715
77,-5.630669593811035,-5.415159225463867,75.78702545166016,-3.3607478772639348,1.2573106663120053,179.57510900266595,-28.122255,20.345028,-6.1294885,19.46103,-3.356147,-9.024481,4.8076215,-4.2641654,-2.0049806,14.390791,-20.295288,8.777148,-0.10936486,5.8820205,7.16576,-0.60713696,18.715187,-31.030828,72.481346,5.661345,-1.6042293,2.7810752,1.9591895,-20.163177,25.379698,54.93933,-10.671279,-1.0394901,0.911938
78,-5.995809078216553,-5.785178184509277,75.69742584228516,-3.3436187181065664,1.3074842482694502,179.6267993462719,-28.35104,20.538889,-5.435015,20.068274,-3.624052,-8.77361,5.2567897,-4.655426,-2.1044571,14.038978,-20.317669,9.193515,-0.12688166,5.871841,7.057699,-0.46139002,18.812511,-30.981316,72.658646,5.800157,-1.5657097,2.7196624,1.9833584,-20.139458,25.24941,54.917652,-10.612558,-1.0293221,0.8862508
79,-6.373049259185791,-6.178891181945801,75.60960388183594,-3.315792636522703,1.3573278138635447,179.69371923107371,-28.603651,20.707598,-4.67347,20.868313,-3.9529061,-8.457215,5.708036,-5.0725603,-2.2252192,13.704638,-20.334597,9.616438,-0.14452177,5.8497105,6.953147,-0.3378141,18.917469,-30.934,72.829735,5.9256854,-1.5299617,2.6591852,2.0089293,-20.111797,25.11272,54.90926,-10.554724,-1.0200078,0.86392146
80,-6.748934745788574,-6.5824360847473145,75.52222442626953,-3.2740930953297616,1.403135456035659,179.7700398156716,-28.84152,20.85265,-3.8167837,21.788284,-4.3306966,-8.082267,6.1394753,-5.519469,-2.3583815,13.439175,-20.359138,10.031498,-0.15680753,5.8134503,6.8576374,-0.23661932,19.032207,-30.893013,72.98759,5.99859,-1.515107,2.59526,2.0263078,-20.085909,24.993313,54.922935,-10.51331,-1.0177718,0.85408616
81,-7.1299052238464355,-7.000249862670898,75.4342269897461,-3.2160242482712555,1.444358609575154,179.85641876815697,-29.071114,20.984695,-2.799998,22.883356,-4.7937956,-7.5927057,6.5528555,-6.000291,-2.506088,13.2424345,-20.404362,10.431832,-0.16474305,5.762589,6.772555,-0.16506162,19.160297,-30.880226,73.13782,5.970285,-1.5320599,2.5162425,2.0381258,-20.065086,24.89299,54.958286,-10.493833,-1.024898,0.86793333
82,-7.51168155670166,-7.438381671905518,75.3420181274414,-3.1448624625560533,1.4812013253372593,179.95435080850385,-29.297098,21.104809,-1.6563288,24.153244,-5.330546,-7.0037627,6.959647,-6.510697,-2.6707098,13.088967,-20.45784,10.82603,-0.16834764,5.699628,6.697868,-0.11352031,19.301266,-30.87153,73.27225,5.889891,-1.5684246,2.426785,2.0513272,-20.04969,24.798996,55.005424,-10.486362,-1.0377693,0.89872074
83,-7.898074150085449,-7.88632345199585,75.25310516357422,-3.0654149521072966,1.5123463900901304,-179.93970103697694,-29.488247,21.193964,-0.5061881,25.457743,-5.861567,-6.4292603,7.347805,-7.0438986,-2.8432112,13.002682,-20.502354,11.222344,-0.16905095,5.627768,6.6359673,-0.07934124,19.453676,-30.866842,73.38495,5.7931576,-1.6094749,2.3494136,2.0593395,-20.04139,24.720001,55.06136,-10.483761,-1.0536484,0.9282082
84,-8.283942222595215,-8.352645874023438,75.16026306152344,-2.9804141596489613,1.5373520313015623,-179.828447883687,-29.622929,21.227287,0.5302694,26.667591,-6.3108997,-5.9832273,7.705159,-7.595116,-3.01452,13.006028,-20.519386,11.628734,-0.16786203,5.5493975,6.5882106,-0.057839166,19.614431,-30.85751,73.46818,5.7255764,-1.6405028,2.306427,2.0565658,-20.041632,24.664577,55.121796,-10.477544,-1.0699428,0.9381637
85,-8.676290512084961,-8.829744338989258,75.07374572753906,-2.8877316362903156,1.5553209818626346,-179.71169584940736,-29.687696,21.22298,1.4930673,27.778208,-6.6768117,-5.6905537,8.042795,-8.165795,-3.1908584,13.082351,-20.512722,12.039578,-0.16251828,5.460934,6.5555587,-0.04682973,19.781803,-30.820992,73.51601,5.721584,-1.6577451,2.3022501,2.0430114,-20.052265,24.637978,55.18272,-10.4579525,-1.0868969,0.9250592
86,-9.067026138305664,-9.319955825805664,74.99322509765625,-2.784957450526983,1.5671807336157875,-179.58759764286808,-29.702131,21.180773,2.4230385,28.853483,-6.9960017,-5.491803,8.362214,-8.760414,-3.3731732,13.226794,-20.489098,12.452298,-0.15579373,5.3623075,6.5365596,-0.051694598,19.956177,-30.77486,73.5369,5.741667,-1.669382,2.326029,2.0203109,-20.073708,24.637606,55.246647,-10.430523,-1.1054155,0.89828837
87,-9.470805168151855,-9.829829216003418,74.91343688964844,-2.6756789523119964,1.576517115680842,-179.45568377200448,-29.705462,21.043873,3.1995292,29.880136,-7.250708,-5.3756337,8.6328,-9.378437,-3.543736,13.484645,-20.436964,12.879016,-0.15311153,5.2587447,6.5282607,-0.067661986,20.134806,-30.732355,73.535736,5.763621,-1.6775353,2.3764021,1.9886327,-20.10532,24.653393,55.31949,-10.412433,-1.1240629,0.8590473
88,-9.868897438049316,-10.352770805358887,74.84587097167969,-2.5622695120231307,1.5867471875993082,-179.31579502671775,-29.736074,20.753609,3.7037864,30.839193,-7.4231415,-5.333064,8.827593,-10.020005,-3.6841676,13.895087,-20.342604,13.331658,-0.15973729,5.1559353,6.52688,-0.09363722,20.31323,-30.716002,73.52131,5.7559843,-1.6847025,2.4526145,1.9494311,-20.144659,24.674688,55.40583,-10.422508,-1.1412296,0.80857056
89,-10.275179862976074,-10.89232349395752,74.78697204589844,-2.4522591528271676,1.610135938990516,-179.17441572104897,-29.838512,20.260752,3.8102481,31.718058,-7.4401484,-5.411311,8.943424,-10.677793,-3.7940485,14.430975,-20.195366,13.839657,-0.17319456,5.0607505,6.5238414,-0.1352698,20.489477,-30.731024,73.49604,5.697692,-1.691001,2.5736785,1.8834487,-20.19444,24.726,55.51995,-10.467313,-1.1581144,0.7457874
90,-10.672952651977539,-11.450956344604492,74.73312377929688,-2.3399985092849818,1.641589640692676,-179.02941005139553,-29.984768,19.598967,3.6179557,32.5324,-7.3363423,-5.606112,8.99555,-11.355938,-3.8785872,15.0784855,-20.002832,14.387313,-0.19081978,4.967419,6.522415,-0.19104849,20.662281,-30.759968,73.456696,5.6169996,-1.695429,2.7339845,1.7979808,-20.25506,24.80278,55.653786,-10.536389,-1.1748401,0.6705264
91,-11.062333106994629,-12.024566650390625,74.68482971191406,-2.206824283816302,1.6597414011120455,-178.8682926697042,-30.102531,18.835585,3.345802,33.302402,-7.2530365,-5.827746,8.98063,-12.072147,-3.9261842,15.905795,-19.78453,14.920223,-0.21765807,4.8593297,6.5343723,-0.26245645,20.829401,-30.817047,73.41732,5.531549,-1.6994928,2.8972492,1.7278852,-20.32041,24.853283,55.788586,-10.622229,-1.1883422,0.5842638
92,-11.471746444702148,-12.61181640625,74.64396667480469,-2.0803342770725917,1.6479838065434405,-178.6899640416991,-30.152962,18.098831,3.1721215,34.07683,-7.339761,-5.994736,8.908262,-12.726439,-3.8655124,16.919155,-19.524008,15.000033,-0.24211895,4.7599998,6.5654855,-0.34149146,20.985027,-30.885342,73.38397,5.496342,-1.7030486,3.0261364,1.7123102,-20.379715,24.81813,55.90503,-10.719737,-1.195746,0.48849392
93,-11.891801834106445,-13.203959465026855,74.61463928222656,-1.9362569538604593,1.5944206950285356,-178.49078662171198,-30.12815,17.37423,3.1409738,34.901455,-7.6623178,-6.0624685,8.822977,-13.398072,-3.7472448,18.076237,-19.241192,15.000033,-0.25981688,4.6481857,6.622175,-0.43795243,21.126749,-30.978687,73.37967,5.522388,-1.7146121,3.114827,1.7576939,-20.425507,24.683443,56.01468,-10.843586,-1.1900142,0.36409998
94,-12.317464828491211,-13.811845779418945,74.59672546386719,-1.7494379035345242,1.5082728873553493,-178.2693409752951,-30.035622,16.589182,3.1722713,35.72817,-8.127019,-6.0719533,8.704496,-14.131721,-3.5965848,19.400974,-18.945333,15.000033,-0.27636766,4.4972906,6.6983986,-0.55148107,21.253412,-31.088219,73.39699,5.599266,-1.7307237,3.182055,1.8436261,-20.45607,24.475296,56.1287,-10.9942465,-1.1746742,0.21577965
95,-12.752196311950684,-14.43341064453125,74.59770202636719,-1.5140887485130257,1.4025985590688894,-178.02253776306574,-29.845243,15.745658,3.2844505,36.451797,-8.639685,-6.050281,8.477099,-14.951374,-3.4348133,21.00237,-18.609365,15.000033,-0.30664158,4.3021793,6.7818723,-0.6829711,21.365858,-31.23012,73.42131,5.6760178,-1.7360251,3.2305996,1.9577879,-20.472134,24.20646,56.23904,-11.142132,-1.163362,0.07905541
96,-13.185307502746582,-15.065614700317383,74.61223602294922,-1.2192688693180798,1.2910806911945474,-177.74823477238607,-29.525898,14.8408575,3.5007424,36.96228,-9.104503,-6.024056,8.059929,-15.886831,-3.269529,22.991373,-18.204609,15.000033,-0.36102393,4.0523043,6.8604302,-0.8250316,21.464048,-31.397182,73.428825,5.7275543,-1.7143923,3.2617757,2.0927098,-20.475048,23.886675,56.33166,-11.255979,-1.1701336,-0.009778918
97,-13.623370170593262,-15.707145690917969,74.63526153564453,-0.8494497439854098,1.1756999344914996,-177.4367592109298,-29.048847,13.863436,3.8464386,37.200962,-9.497775,-6.0246973,7.4812946,-16.956715,-3.0786994,25.331703,-17.720646,15.000033,-0.45191374,3.7336147,6.928655,-0.98082334,21.54649,-31.605694,73.419,5.7319956,-1.645531,3.2721584,2.258328,-20.462458,23.49096,56.39961,-11.344295,-1.2059431,-0.037546422
98,-14.05333137512207,-16.358158111572266,74.6753158569336,-0.405887429448667,1.0500320435192474,-177.09415007722896,-28.434736,12.808518,4.3030076,37.220333,-9.8618965,-6.0275693,6.785278,-18.143948,-2.837165,27.931942,-17.144064,15.000033,-0.55854326,3.3434935,6.9920735,-1.1512213,21.619688,-31.852272,73.39548,5.717221,-1.5425104,3.260063,2.4634283,-20.431648,23.011679,56.444427,-11.419493,-1.261447,-0.023636851
99,-14.476349830627441,-17.01858139038086,74.72189331054688,0.10011785515534122,0.9156338435466014,-176.7418647215134,-27.722992,11.678103,4.8302402,37.071484,-10.196751,-5.975244,5.9343505,-19.427187,-2.533965,30.776049,-16.417908,15.000033,-0.6739414,2.893684,7.052215,-1.3315697,21.6811,-32.11921,73.36627,5.686016,-1.4427888,3.2361805,2.6739655,-20.388447,22.52214,56.484993,-11.453278,-1.318864,0.015778765
100,-14.905379295349121,-17.69098472595215,74.78053283691406,0.6101313936439803,0.7784665328099097,-176.40888070789146,-26.9778,10.529485,5.3549056,36.839096,-10.517075,-5.82433,4.889129,-20.702671,-2.1626964,33.830475,-15.464118,14.792278,-0.77573353,2.439695,7.109818,-1.5160838,21.731798,-32.383453,73.33162,5.6524835,-1.3826488,3.2095454,2.8647494,-20.343603,22.085093,56.530766,-11.418174,-1.36072,0.06619415
101,-15.325977325439453,-18.355222702026367,74.8482666015625,0.976878359332095,0.6580737241748197,-176.1202170855991,-26.275988,9.528394,5.771836,36.618893,-10.876578,-5.5940247,3.6067631,-21.750744,-1.7881849,37.107426,-14.154552,13.66317,-0.8647504,2.129767,7.1480336,-1.6809788,21.762543,-32.627266,73.28237,5.6210403,-1.3796558,3.189977,3.0145626,-20.313017,21.745779,56.58922,-11.263813,-1.3717947,0.13257447
102,-15.751398086547852,-19.022184371948242,74.92990112304688,1.339381031941141,0.5396895324078148,-175.84191658839788,-25.521824,8.515516,6.192083,36.288677,-11.228336,-5.2785196,2.1163652,-22.819235,-1.4062349,40.633705,-12.574682,12.244642,-0.9577867,1.8296891,7.1789365,-1.8363699,21.77965,-32.8653,73.21651,5.5888743,-1.4115574,3.1687462,3.1512196,-20.292786,21.454239,56.641926,-11.019225,-1.3645624,0.22142339
103,-16.16681671142578,-19.684310913085938,75.01628112792969,1.7002130573304637,0.41189223675682674,-175.5818506279009,-24.731504,7.500009,6.610526,35.892128,-11.565379,-4.9054766,0.4682289,-23.895351,-1.020208,44.271404,-10.879712,10.605666,-0.9823569,1.5280815,7.223158,-2.045905,21.793627,-33.165554,73.15801,5.528199,-1.4551293,3.1299584,3.3363261,-20.268764,21.112768,56.649082,-10.780292,-1.3639249,0.3232845
104,-16.582324981689453,-20.351165771484375,75.10308074951172,2.060809521672993,0.26310047035639517,-175.34771256483177,-23.921717,6.492834,7.0218744,35.47589,-11.882073,-4.5029006,-1.293108,-24.962587,-0.6249963,47.901302,-9.237387,8.807365,-1.055411,1.2295096,7.301923,-2.2183392,21.79957,-33.33712,73.05878,5.488978,-1.4897015,3.0658956,3.4547493,-20.256756,20.878086,56.68278,-10.573435,-1.3892826,0.41340563
105,-16.989322662353516,-21.0146484375,75.18619537353516,2.4235415527996613,0.07778243598278034,-175.1477667767133,-23.066269,5.4911747,7.434937,35.03508,-12.182049,-4.061711,-3.2464468,-26.06661,-0.20271704,51.661453,-7.552063,6.6800694,-1.0486522,0.9252505,7.4325294,-2.4436789,21.805065,-33.516804,72.9511,5.439929,-1.5102826,2.9409451,3.6246932,-20.244442,20.592443,56.66393,-10.469513,-1.4558706,0.5096779
106,-17.396190643310547,-21.674978256225586,75.26436614990234,2.7888945211857865,-0.1345764624911171,-174.97357418981895,-22.16135,4.4861693,7.8457584,34.54881,-12.4680395,-3.5733182,-5.4049473,-27.246119,0.22664893,55.569794,-5.8042793,4.186011,-1.0122831,0.61828625,7.6017733,-2.684122,21.80854,-33.66974,72.82075,5.388621,-1.5281329,2.7727191,3.802658,-20.234346,20.31429,56.623867,-10.413528,-1.5487012,0.6127706
107,-17.78523063659668,-22.303651809692383,75.32987976074219,3.1548857460292883,-0.34869619668854224,-174.808526270033,-21.256664,3.4839363,8.232572,34.04077,-12.732158,-3.066517,-7.62507,-28.437277,0.6393686,59.35745,-4.2908406,1.6210698,-1.011316,0.30576745,7.7872024,-2.917842,21.81461,-33.760624,72.67012,5.3341646,-1.5431448,2.6177258,3.9357314,-20.226385,20.100348,56.59832,-10.354982,-1.6508797,0.6977094
108,-18.171142578125,-22.922895431518555,75.38906860351562,3.513824384438139,-0.5379633011957711,-174.63813110209722,-20.409164,2.500094,8.574398,33.542458,-12.96841,-2.5705223,-9.754956,-29.519619,1.0391027,62.778725,-3.3028836,-0.65101916,-0.99891514,-0.015272666,7.9727077,-3.2035823,21.836338,-33.880665,72.52824,5.2521515,-1.5525388,2.5263636,4.0800376,-20.205053,19.851883,56.54535,-10.288384,-1.7487669,0.7516323
109,-18.550092697143555,-23.519573211669922,75.42804718017578,3.8791945364603735,-0.7001849590306019,-174.47604069513176,-19.634281,1.5297854,8.889735,33.074776,-13.178497,-2.074258,-11.772695,-30.516064,1.3927424,65.850334,-2.9750936,-2.554335,-1.0087488,-0.36212948,8.1545105,-3.503845,21.874348,-33.96208,72.37016,5.1357827,-1.554774,2.5232723,4.1786532,-20.169878,19.63093,56.50427,-10.189659,-1.8482453,0.7602623
110,-18.910295486450195,-24.08059310913086,75.45382690429688,4.246178075474059,-0.847282216828719,-174.3254726746395,-18.904018,0.57469654,9.183139,32.62176,-13.36644,-1.5695732,-13.752828,-31.423302,1.7457613,68.7187,-3.1475577,-4.222614,-0.9877435,-0.7451029,8.347995,-3.8280356,21.966896,-34.050713,72.17069,4.9855456,-1.5479442,2.5690846,4.265885,-20.086075,19.377117,56.460747,-10.100396,-1.956628,0.7355142
111,-19.263774871826172,-24.622100830078125,75.48075866699219,4.570862792646586,-0.9722602626311051,-174.1587421093097,-18.224651,-0.3256213,9.414537,32.187336,-13.54209,-1.0894012,-15.6678295,-32.023685,2.2007813,71.33475,-3.648224,-5.550319,-1.011617,-1.1044313,8.534204,-4.155995,22.089405,-34.125122,71.96525,4.844404,-1.5392581,2.6433542,4.309157,-19.979134,19.167679,56.446423,-9.999602,-2.0526252,0.6833192
112,-19.605518341064453,-25.141674041748047,75.50726318359375,4.810762172668844,-1.0676890471289315,-173.94871886211126,-17.603514,-1.1322783,9.547687,31.775429,-13.714665,-0.6657621,-17.481543,-32.09871,2.832705,73.642845,-4.2891903,-6.429188,-1.0860474,-1.3918593,8.701325,-4.515085,22.239908,-34.259342,71.79456,4.7227173,-1.5335212,2.7197404,4.337586,-19.849531,18.98337,56.450993,-9.894737,-2.1177175,0.6157782
113,-19.94420051574707,-25.629810333251953,75.53128814697266,4.939632842877365,-1.1161215631184143,-173.69468839874474,-17.079546,-1.8050297,9.576409,31.417175,-13.8911295,-0.31932,-19.170551,-31.420027,3.735449,75.625015,-5.1030016,-6.6577835,-1.2058146,-1.5827762,8.84008,-4.92854,22.41925,-34.47217,71.67692,4.6167245,-1.538567,2.8037517,4.345452,-19.694256,18.82309,56.475296,-9.762156,-2.1419055,0.5201134
114,-20.283443450927734,-26.101776123046875,75.56206512451172,4.9860778956549785,-1.1258323971488795,-173.40988510416972,-16.643131,-2.3717098,9.529105,31.111975,-14.068895,-0.026568182,-20.725359,-30.13675,4.786593,77.32845,-6.155656,-6.3193707,-1.358367,-1.7088062,8.9587965,-5.3870687,22.627188,-34.741924,71.59295,4.516961,-1.549605,2.9048963,4.3323417,-19.511656,18.679993,56.51636,-9.611507,-2.1374326,0.39610222
115,-20.62550926208496,-26.544973373413086,75.60299682617188,4.990115271655811,-1.1288052470543695,-173.08783065090753,-16.221882,-2.8971896,9.419156,30.80572,-14.237632,0.24744971,-22.13839,-28.60557,5.7443557,78.779305,-7.3005505,-5.742828,-1.5527164,-1.8058975,9.069935,-5.855967,22.85429,-35.045208,71.52339,4.4496717,-1.5521356,3.0042055,4.317962,-19.308935,18.549458,56.572666,-9.490735,-2.117866,0.2721764
116,-20.971933364868164,-26.972829818725586,75.65011596679688,4.991002511226788,-1.1559015580879146,-172.72231575738195,-15.747009,-3.443636,9.256955,30.450064,-14.389685,0.53549933,-23.429628,-27.194054,6.4029565,79.997086,-8.380495,-5.2656426,-1.7972139,-1.9064935,9.184091,-6.30275,23.084776,-35.358517,71.45447,4.4419637,-1.5319992,3.0835776,4.324975,-19.099962,18.425905,56.63895,-9.44782,-2.096479,0.17787302
117,-21.329591751098633,-27.405834197998047,75.70284271240234,4.99059595778433,-1.2154955785566608,-172.30062480087707,-15.200775,-4.022267,9.030786,30.03077,-14.524166,0.84987485,-24.598223,-25.94567,6.7418075,80.96443,-9.365127,-4.9195724,-2.1061902,-2.0071347,9.306079,-6.73243,23.306978,-35.683537,71.40405,4.5243473,-1.4839644,3.1348403,4.3659115,-18.892038,18.30324,56.706493,-9.514724,-2.0712328,0.12122366
118,-21.691404342651367,-27.849668502807617,75.7544174194336,4.971706028024528,-1.2908759804859606,-171.8290999940162,-14.618472,-4.6009135,8.739901,29.57704,-14.64672,1.1721067,-25.651651,-24.704762,6.8736267,81.668396,-10.331583,-4.558456,-2.4711351,-2.0896335,9.42883,-7.167204,23.51672,-36.034515,71.385994,4.672693,-1.416781,3.1705053,4.4318376,-18.687145,18.185379,56.77416,-9.656968,-2.0362706,0.088072866
119,-22.057937622070312,-28.298906326293945,75.8071060180664,4.9418088476911635,-1.3740250681712745,-171.33174713669595,-14.007403,-5.1760936,8.406126,29.092844,-14.751693,1.487918,-26.631624,-23.519537,6.826267,82.12562,-11.254082,-4.2248464,-2.8659992,-2.160429,9.543885,-7.5965447,23.708576,-36.39539,71.378174,4.842619,-1.3370414,3.2036011,4.518188,-18.492285,18.080126,56.843586,-9.824048,-1.9990977,0.075762205
120,-22.439197540283203,-28.753158569335938,75.8675537109375,4.907845897515067,-1.4570447660438233,-170.8326725281749,-13.377826,-5.7433896,8.052157,28.587275,-14.83604,1.7829576,-27.575209,-22.434631,6.6225705,82.353935,-12.108294,-3.9621813,-3.2657967,-2.2228093,9.644048,-8.003141,23.876024,-36.73472,71.35205,5.0026608,-1.2510076,3.2468789,4.6232715,-18.315567,17.99591,56.91058,-9.964715,-1.9669603,0.08251525
121,-22.81431770324707,-29.208881378173828,75.92726135253906,4.870435599848445,-1.546036813399029,-170.3317266541268,-12.719755,-6.3062077,7.6752033,28.057919,-14.893613,2.0528743,-28.479927,-21.49905,6.2187533,82.34352,-12.920238,-3.8146014,-3.674107,-2.271768,9.733937,-8.38392,24.013187,-37.05067,71.30951,5.1616635,-1.1418947,3.3194387,4.75008,-18.166208,17.940147,56.974537,-10.081009,-1.9413844,0.10871524
122,-23.193862915039062,-29.65388298034668,75.98265838623047,4.824745868964041,-1.6420376646199917,-169.81821949280598,-12.0320635,-6.862409,7.264995,27.50342,-14.928711,2.305075,-29.328676,-20.676949,5.626004,82.08213,-13.687425,-3.744228,-4.1020527,-2.3008165,9.816062,-8.749433,24.117577,-37.35638,71.26652,5.3302217,-1.012856,3.4100409,4.9039493,-18.04648,17.907017,57.029488,-10.193187,-1.9184049,0.15687022
123,-23.579288482666016,-30.103588104248047,76.03861999511719,4.770209793253564,-1.7292025838222678,-169.3004536945223,-11.33712,-7.40001,6.833446,26.931864,-14.953625,2.5429351,-30.13287,-19.88017,4.945084,81.58719,-14.3452015,-3.670654,-4.535255,-2.3142045,9.879155,-9.105872,24.190453,-37.64732,71.21969,5.476172,-0.900405,3.4860346,5.079815,-17.95398,17.887102,57.07305,-10.275281,-1.8975438,0.22673115
124,-23.9676456451416,-30.558086395263672,76.09397888183594,4.707379835602786,-1.791613795884454,-168.78652637017217,-10.6580515,-7.9091983,6.3932543,26.351608,-14.980318,2.7702374,-30.906397,-19.023981,4.2768044,80.87508,-14.828208,-3.5164044,-4.962051,-2.3175383,9.910805,-9.468749,24.239164,-37.95277,71.17233,5.5319405,-0.84232295,3.516022,5.268946,-17.884233,17.874908,57.10736,-10.300835,-1.8783815,0.31748268
125,-24.351770401000977,-31.007936477661133,76.14924621582031,4.637619469173994,-1.828941564987944,-168.27222573621455,-9.985158,-8.392789,5.9398704,25.739086,-14.996942,2.9959705,-31.648714,-18.104553,3.6208577,79.929955,-15.110811,-3.2506151,-5.4070735,-2.306261,9.903957,-9.807756,24.259327,-38.22365,71.110565,5.5004644,-0.8606237,3.4884374,5.4611225,-17.855005,17.90282,57.132454,-10.226577,-1.8564261,0.44721627
126,-24.73636245727539,-31.43695831298828,76.19712829589844,4.561512985974058,-1.848177947470909,-167.75521191900089,-9.3118305,-8.85516,5.469579,25.098925,-15.002275,3.2155516,-32.35157,-17.161057,2.9345758,78.74433,-15.23024,-2.9169147,-5.82049,-2.295157,9.864415,-10.160041,24.269598,-38.545643,71.04699,5.3746676,-0.9293112,3.417524,5.690888,-17.82824,17.913141,57.14277,-10.092187,-1.8347466,0.608405
127,-25.11690902709961,-31.861141204833984,76.24047088623047,4.477450642168513,-1.845197840582642,-167.24639467179412,-8.664399,-9.285925,4.998239,24.47774,-15.022073,3.417141,-33.019558,-16.177692,2.2559361,77.34751,-15.215337,-2.5526989,-6.23442,-2.2756257,9.808557,-10.504388,24.265686,-38.84035,70.964066,5.224315,-1.0178466,3.3192198,5.917664,-17.81602,17.928123,57.156136,-9.955548,-1.8193501,0.7656525
128,-25.49790382385254,-32.27825927734375,76.27584838867188,4.38446466204925,-1.815928699907972,-166.75675958507676,-8.071158,-9.675713,4.542768,23.92448,-15.083536,3.5882251,-33.658203,-15.140017,1.6235307,75.76948,-15.096389,-2.197222,-6.6408777,-2.248526,9.750298,-10.857651,24.256634,-39.119404,70.85923,5.0696964,-1.0950805,3.2070658,6.1326118,-17.81322,17.93005,57.175434,-9.880317,-1.8177867,0.8841748
129,-25.878074645996094,-32.68552780151367,76.302490234375,4.274652258693875,-1.746308954884968,-166.2926727922888,-7.5558553,-10.011315,4.1121583,23.451138,-15.194844,3.7184615,-34.29157,-14.025909,1.0439774,73.996254,-14.824848,-1.8601426,-6.982867,-2.2078505,9.683057,-11.256905,24.227388,-39.41854,70.742805,4.9001975,-1.156892,3.068533,6.375489,-17.81078,17.857943,57.173203,-9.920222,-1.8418759,0.96138674
130,-26.25653839111328,-33.07487487792969,76.31932067871094,4.152093943939931,-1.642959978269419,-165.84680958847233,-7.0970263,-10.302444,3.6971765,23.027962,-15.342118,3.8175747,-34.904938,-12.850433,0.5022707,72.01234,-14.403911,-1.5205085,-7.3314357,-2.1574323,9.603024,-11.647312,24.1981,-39.679565,70.59123,4.7019124,-1.2193274,2.9028556,6.588045,-17.812595,17.796417,57.191814,-10.020554,-1.883368,1.0076989
131,-26.64136505126953,-33.45826721191406,76.32884216308594,4.0350767890746875,-1.5326884502536577,-165.41073713875298,-6.6598797,-10.577337,3.2888463,22.650064,-15.515304,3.9032297,-35.44807,-11.655524,0.007826302,69.847595,-13.940943,-1.1754637,-7.6493077,-2.117254,9.526078,-12.060028,24.154942,-39.948753,70.44412,4.542876,-1.2757719,2.7348294,6.826438,-17.813864,17.691372,57.20016,-10.125574,-1.9256629,1.0299182
132,-27.019554138183594,-33.83453369140625,76.32333374023438,3.941287161906031,-1.4423801594816965,-164.97587313279774,-6.2092524,-10.865601,2.8775296,22.312435,-15.705264,3.9935157,-35.87361,-10.4830675,-0.42758355,67.53495,-13.543585,-0.8219612,-7.9650817,-2.1087918,9.46526,-12.489297,24.109884,-40.24716,70.32153,4.4494686,-1.3224032,2.5920513,7.0804935,-17.811747,17.566668,57.215088,-10.16714,-1.9504503,1.0265812
133,-27.40868377685547,-34.205589294433594,76.30752563476562,3.8784908067430353,-1.3799932734796518,-164.548604279542,-5.7375813,-11.173945,2.46532,22.017326,-15.909368,4.105413,-36.163414,-9.340997,-0.79853976,65.04467,-13.260725,-0.4655592,-8.264053,-2.1463792,9.428673,-12.919028,24.063347,-40.53479,70.20953,4.5081315,-1.3521733,2.4765882,7.360409,-17.79944,17.408396,57.22933,-10.118769,-1.9532135,0.9760139
134,-27.80788230895996,-34.57358169555664,76.28081512451172,3.836666727326726,-1.3317685352164517,-164.1302264809654,-5.2622743,-11.491106,2.055851,21.764566,-16.131247,4.2262664,-36.342003,-8.213209,-1.1046536,62.367245,-13.027249,-0.11319037,-8.551311,-2.2185047,9.405502,-13.361335,24.021626,-40.850506,70.10698,4.631539,-1.37111,2.376596,7.6536746,-17.77614,17.22565,57.249954,-10.018256,-1.943555,0.88386405
135,-28.21281623840332,-34.934749603271484,76.24849700927734,3.808031096597013,-1.2915301704522892,-163.7038181922978,-4.784116,-11.812499,1.640581,21.541769,-16.369719,4.329184,-36.428333,-7.106974,-1.3401462,59.565556,-12.780287,0.23297931,-8.837426,-2.3148806,9.3878145,-13.803081,23.981321,-41.152523,70.00367,4.810961,-1.3861892,2.290394,7.959016,-17.744423,17.0204,57.279327,-9.902709,-1.925554,0.79570067
136,-28.624692916870117,-35.29727554321289,76.20388793945312,3.7845441298731894,-1.2530477609649446,-163.25242453941823,-4.303836,-12.134075,1.2110244,21.336546,-16.624792,4.387015,-36.443905,-6.030931,-1.4990832,56.70562,-12.458649,0.5705953,-9.1409,-2.4194431,9.366023,-14.257036,23.94216,-41.472984,69.911064,4.9566665,-1.4075663,2.2191842,8.271059,-17.710524,16.804747,57.32186,-9.805127,-1.9026157,0.75727963
137,-29.04086685180664,-35.66432189941406,76.1489486694336,3.7661367135050994,-1.2195626352069706,-162.76933743422734,-3.812134,-12.452807,0.76672107,21.132933,-16.892246,4.3625417,-36.38948,-4.941277,-1.5034968,53.77506,-12.041295,0.8764223,-9.468535,-2.5338664,9.343747,-14.723003,23.90355,-41.80557,69.82544,5.0634995,-1.437467,2.1696498,8.593562,-17.676537,16.562843,57.37469,-9.721655,-1.8706062,0.79325056
138,-29.45720863342285,-36.02651596069336,76.08516693115234,3.7574105826558584,-1.193418605190455,-162.26321391337402,-3.3100474,-12.773249,0.31153592,20.939117,-17.173868,4.2805715,-36.25291,-3.8668942,-1.3714017,50.746357,-11.565228,1.1446699,-9.811106,-2.6644459,9.324556,-15.189397,23.862684,-42.12122,69.73828,5.1895676,-1.47007,2.1385508,8.930384,-17.64139,16.293795,57.432613,-9.638425,-1.8292166,0.8760894
139,-29.881546020507812,-36.40441131591797,76.01297760009766,3.756991706141527,-1.1668782455637694,-161.74143592642093,-2.8139844,-13.102231,-0.15635048,20.77919,-17.47668,4.2066593,-36.038574,-2.9102888,-1.2486339,47.662224,-11.048997,1.4114174,-10.161048,-2.801916,9.297731,-15.668538,23.818968,-42.460945,69.66651,5.2981224,-1.5045577,2.113383,9.276671,-17.610683,16.031607,57.498272,-9.573605,-1.7872659,0.9727386
140,-30.321645736694336,-36.78434371948242,75.9300308227539,3.7633160149171347,-1.132514396376701,-161.21132492130118,-2.3399107,-13.447113,-0.6392488,20.678045,-17.80694,4.2059827,-35.74506,-2.1522412,-1.2919148,44.549145,-10.504966,1.729146,-10.508672,-2.937301,9.255294,-16.155422,23.767805,-42.815693,69.61326,5.4038234,-1.5385664,2.0802395,9.632162,-17.592247,15.804276,57.568634,-9.547947,-1.7540069,1.0510304
141,-30.766674041748047,-37.17385482788086,75.83663940429688,3.7821060101604607,-1.0939915757527365,-160.6675628534635,-1.8800758,-13.821111,-1.1484389,20.634644,-18.164923,4.3006606,-35.344444,-1.5975559,-1.53229,41.359013,-9.907758,2.1895454,-10.859651,-3.0706673,9.195823,-16.658257,23.70662,-43.219524,69.58697,5.472635,-1.5752224,2.038633,10.003623,-17.594711,15.624422,57.642117,-9.572633,-1.7328593,1.1083817
142,-31.221040725708008,-37.57021713256836,75.73656463623047,3.8156823452458304,-1.055955045394106,-160.10661514220726,-1.4254906,-14.221514,-1.6818213,20.635988,-18.544395,4.4546075,-34.831547,-1.1833718,-1.90096,38.069168,-9.242225,2.7593722,-11.217748,-3.2074332,9.126423,-17.167324,23.631275,-43.633858,69.577644,5.540404,-1.613905,1.9941667,10.394032,-17.618877,15.472406,57.713566,-9.634195,-1.718563,1.1616011
143,-31.679651260375977,-37.98210906982422,75.63367462158203,3.8578274851554473,-1.012240615672746,-159.53859358763475,-0.9878276,-14.632895,-2.22251,20.683966,-18.9392,4.645182,-34.241886,-0.87603223,-2.4117577,34.748337,-8.537103,3.313232,-11.577611,-3.3417192,9.04795,-17.693863,23.54453,-44.06821,69.59296,5.5920763,-1.6509714,1.9464139,10.791397,-17.659973,15.341538,57.781956,-9.7096815,-1.7069376,1.2071216
144,-32.141883850097656,-38.39573287963867,75.5194091796875,3.9024071965804925,-0.9559375470624348,-158.9742616087833,-0.5835199,-15.036446,-2.751412,20.788643,-19.348562,4.848816,-33.621758,-0.6476514,-3.0760832,31.487461,-7.833652,3.7235398,-11.931203,-3.471135,8.961435,-18.238134,23.450802,-44.503487,69.631485,5.6433487,-1.681505,1.8934647,11.183963,-17.708784,15.221742,57.84696,-9.77985,-1.6937361,1.2405927
145,-32.605628967285156,-38.80305099487305,75.39469909667969,3.9506500174328325,-0.8825518530799232,-158.41078184010885,-0.22728181,-15.433078,-3.2658432,20.968327,-19.778828,5.064353,-32.977955,-0.4965681,-3.9040267,28.27548,-7.120656,3.9549315,-12.278949,-3.6007822,8.8630705,-18.803139,23.354002,-44.939587,69.69097,5.6901913,-1.7015172,1.8280704,11.569314,-17.759455,15.116884,57.90938,-9.842014,-1.6767539,1.2516026
146,-33.07992172241211,-39.215023040771484,75.26473236083984,4.011390942321095,-0.7999341444817291,-157.8409932262903,0.10148721,-15.84076,-3.7781534,21.203396,-20.223104,5.302496,-32.28448,-0.42054573,-4.8955398,25.078892,-6.3848357,4.090301,-12.627602,-3.739376,8.754019,-19.39669,23.259146,-45.418808,69.7767,5.693285,-1.7154632,1.7537339,11.950357,-17.81229,15.031818,57.97456,-9.9067335,-1.6585418,1.2439742
147,-33.55408477783203,-39.61906051635742,75.12254333496094,4.088780817408085,-0.7177604774921618,-157.27079103645687,0.43688303,-16.260174,-4.290818,21.446936,-20.65979,5.557195,-31.544777,-0.39682248,-6.0444646,21.96376,-5.6719027,4.171573,-12.9897995,-3.8971658,8.645206,-19.972395,23.185524,-45.857525,69.85326,5.7302976,-1.7258493,1.6801038,12.30329,-17.858416,14.973656,58.062527,-9.973758,-1.6420981,1.231174
148,-34.033119201660156,-40.03105926513672,74.97540283203125,4.183117767612513,-0.6436609734055464,-156.7074779399945,0.8081998,-16.691698,-4.804798,21.657068,-21.07006,5.822629,-30.77287,-0.40547854,-7.3431215,19.011524,-5.0340343,4.2355313,-13.327353,-4.0608683,8.547099,-20.557016,23.086803,-46.271164,69.956924,5.8293753,-1.7392217,1.6220163,12.670946,-17.91034,14.887498,58.138355,-10.046422,-1.6316353,1.2402252
149,-34.51472473144531,-40.4490966796875,74.82736206054688,4.29493909258269,-0.5747125680863737,-156.1501364418353,1.207242,-17.136114,-5.327909,21.841953,-21.459,6.0987134,-29.951563,-0.44836876,-8.852289,16.174036,-4.479051,4.303708,-13.684177,-4.239759,8.450008,-21.15026,23.015524,-46.72963,70.08396,5.913824,-1.760409,1.58264,12.998684,-17.955252,14.828912,58.251778,-10.116184,-1.6287913,1.2703981
150,-35.009559631347656,-40.868953704833984,74.67526245117188,4.423751111027034,-0.5065582817493443,-155.59731992451046,1.6231351,-17.593615,-5.8569937,22.014982,-21.83311,6.387575,-29.086775,-0.5187074,-10.558825,13.4337,-3.9840264,4.355953,-14.047676,-4.440968,8.36308,-21.68247,22.962002,-47.002857,70.17,6.2090282,-1.7755069,1.5465106,13.29847,-17.98607,14.781782,58.381306,-10.191567,-1.6323704,1.3130721
151,-35.51372146606445,-41.28042984008789,74.52377319335938,4.554689786834307,-0.43667098100344015,-155.063579238008,2.0576532,-18.039108,-6.366973,22.172258,-22.187124,6.6842146,-28.23301,-0.5800541,-12.342624,10.914352,-3.5441892,4.357517,-14.371412,-4.6275706,8.274171,-22.25581,22.885254,-47.367474,70.30573,6.405439,-1.7961951,1.5281384,13.615588,-18.028164,14.711443,58.503246,-10.271031,-1.6372521,1.3612976
152,-36.01829528808594,-41.71177291870117,74.37910461425781,4.664491127224604,-0.3592526064145268,-154.56782586399683,2.5108182,-18.441185,-6.829196,22.30446,-22.518438,6.9824357,-27.444666,-0.5960075,-14.081957,8.735809,-3.1562822,4.2664657,-14.692458,-4.788507,8.179124,-22.792082,22.834097,-47.713818,70.427444,6.4948535,-1.8190885,1.5278966,13.868488,-18.065804,14.686589,58.689373,-10.352052,-1.6369206,1.3831347
153,-36.53522872924805,-42.14183807373047,74.23407745361328,4.7393993258951665,-0.2666718607636536,-154.12666178595234,2.9701335,-18.777546,-7.2225327,22.419458,-22.842005,7.278542,-26.839355,-0.5875144,-15.810311,7.149781,-2.9570441,4.0593143,-14.945018,-4.9005256,8.083805,-23.327509,22.771257,-48.075745,70.56083,6.4586344,-1.8438942,1.5483006,14.119933,-18.1152,14.651301,58.89035,-10.423433,-1.6354756,1.3889009
154,-37.050209045410156,-42.581459045410156,74.09710693359375,4.774957259051157,-0.15413099531741134,-153.73784673690133,3.4161985,-19.04944,-7.5520716,22.540817,-23.167881,7.5733886,-26.862297,-0.72071093,-17.560154,7.1353607,-3.49484,3.758022,-15.179099,-4.9717474,7.9883924,-23.797598,22.731667,-48.29311,70.658554,6.4518995,-1.865623,1.5827601,14.301475,-18.152788,14.65771,59.1569,-10.491238,-1.6332735,1.3726232
155,-37.58205795288086,-43.034507751464844,73.97020721435547,4.759065183797921,-0.018273694386982245,-153.39158458702067,3.8316886,-19.25063,-7.8265314,22.695683,-23.493755,7.8674035,-26.811861,-0.79225385,-19.22695,7.1443357,-3.9332001,3.3691974,-15.367894,-4.971845,7.8874903,-24.243938,22.682425,-48.495632,70.746376,6.4145284,-1.8870851,1.6328541,14.474875,-18.203907,14.657006,59.424316,-10.579801,-1.6242098,1.3495514
156,-38.11370849609375,-43.48523712158203,73.84790802001953,4.6821216792289695,0.14226414608176913,-153.07714298723664,4.201769,-19.379255,-8.055386,22.910177,-23.816551,8.160834,-26.69319,-0.7856413,-20.696543,7.1724257,-4.248265,2.9036496,-15.534564,-4.8778152,7.780643,-24.651377,22.608644,-48.65945,70.81559,6.393458,-1.9087319,1.6968119,14.639039,-18.281485,14.647839,59.673447,-10.717643,-1.6008306,1.3232718
157,-38.64793014526367,-43.95176315307617,73.73870849609375,4.537565582782169,0.3278091632723298,-152.79877967440999,4.5375814,-19.428865,-8.239499,23.164099,-24.1452,8.458063,-26.481922,-0.7022408,-22.019394,7.2248893,-4.43867,2.3168323,-15.689492,-4.6865897,7.6697993,-25.00149,22.521774,-48.74967,70.85162,6.406746,-1.9308693,1.7825835,14.768586,-18.377996,14.654021,59.931698,-10.9277725,-1.553863,1.2847004
158,-39.189300537109375,-44.430641174316406,73.63995361328125,4.331157528296359,0.5346275137456526,-152.55971035155537,4.8458543,-19.403917,-8.372993,23.449299,-24.477634,8.757113,-26.183853,-0.54428905,-23.225492,7.3040237,-4.5229716,1.6064355,-15.825627,-4.4361706,7.5590825,-25.284018,22.480608,-48.783,70.82073,6.4318175,-1.9483553,1.88353,14.824708,-18.436537,14.680862,60.252987,-11.203393,-1.4906654,1.2199779
159,-39.744503021240234,-44.91464614868164,73.5431900024414,4.071506789620652,0.7594310371801428,-152.34548480031486,5.1038485,-19.31396,-8.456925,23.813557,-24.795639,9.047631,-26.246634,-0.48965293,-24.166578,8.317682,-4.982654,0.8581201,-15.945571,-4.11787,7.444884,-25.528728,22.444181,-48.8042,70.76577,6.4512806,-1.9648135,1.9846764,14.870096,-18.501362,14.699934,60.556602,-11.496296,-1.422887,1.1511686
160,-40.31340408325195,-45.420021057128906,73.44802856445312,3.765157778556103,1.0008088757739404,-152.14193895111958,5.2894435,-19.168999,-8.493195,24.299982,-25.07794,9.318425,-26.58464,-0.47755256,-24.709087,9.93515,-5.639649,0.15330547,-16.06972,-3.6901171,7.3248925,-25.744268,22.36051,-48.820267,70.71026,6.457361,-1.9816971,2.0750904,14.954364,-18.66146,14.686466,60.76574,-11.748539,-1.3703679,1.1149118
161,-40.898277282714844,-45.94728469848633,73.35488891601562,3.4199545735491963,1.2539042545756454,-151.94305851057908,5.443218,-18.971846,-8.474773,24.862429,-25.332129,9.595412,-26.933552,-0.3642247,-24.69047,11.585982,-6.2055597,-0.4254666,-16.196608,-3.208393,7.1905622,-25.915768,22.28622,-48.859734,70.61958,6.449654,-1.9901857,2.1233916,15.031287,-18.819513,14.635194,60.954163,-12.011952,-1.3341318,1.0837168
162,-41.481407165527344,-46.47241973876953,73.28265380859375,3.037427888230115,1.5162034110048312,-151.75151348930837,5.577957,-18.726034,-8.411947,25.477018,-25.553465,9.874725,-27.32794,-0.17888707,-24.233614,13.385281,-6.7265778,-0.93393844,-16.323387,-2.6719255,7.0496273,-26.044802,22.217426,-48.90772,70.49649,6.4312153,-1.9929245,2.1460874,15.106279,-18.986914,14.555332,61.116135,-12.2893095,-1.3063538,1.0573258
163,-42.076637268066406,-47.009735107421875,73.2300796508789,2.6129612682049363,1.7934212727006626,-151.5718050056347,5.6245527,-18.432928,-8.327236,26.226822,-25.70725,10.09588,-27.761267,0.071420856,-23.640509,15.156937,-7.0669565,-1.5081543,-16.441511,-2.076513,6.9161067,-26.148846,22.157234,-48.96102,70.35926,6.40023,-1.9965886,2.1854477,15.158887,-19.158009,14.460111,61.260242,-12.523846,-1.2885582,1.0341876
164,-42.6627082824707,-47.5378532409668,73.19386291503906,2.1343809193874446,2.0950311584680885,-151.41161723578028,5.5098934,-18.085686,-8.241884,27.196571,-25.761106,10.195157,-28.225817,0.36734125,-23.213497,16.728886,-7.0984583,-2.2950025,-16.538412,-1.40915,6.803764,-26.24782,22.105215,-49.01677,70.22903,6.355352,-2.0079057,2.284431,15.172467,-19.333601,14.361428,61.389675,-12.65623,-1.282489,1.0145205
165,-43.2565803527832,-48.06743240356445,73.1857681274414,1.5416601417938653,2.466850309268167,-151.26439893324994,5.178647,-17.623545,-8.170839,28.42042,-25.792587,10.177276,-28.78482,0.7415417,-23.04609,18.021065,-6.6252556,-3.4915907,-16.616203,-0.5937046,6.6950755,-26.369791,22.062775,-49.10987,70.10865,6.2820716,-2.0281827,2.4466584,15.134194,-19.518587,14.261039,61.50569,-12.627574,-1.2978754,1.0034028
166,-43.83568572998047,-48.60206985473633,73.18869018554688,0.8520708434075975,2.8937450553335577,-151.13324501618894,4.691495,-17.061113,-8.10742,29.833134,-25.785748,10.059314,-29.426926,1.1829662,-23.003029,19.152702,-5.78224,-4.978008,-16.67849,0.34905764,6.5904064,-26.496948,22.029358,-49.22883,69.986465,6.1857095,-2.054138,2.6520343,15.058684,-19.713865,14.151496,61.60215,-12.484704,-1.3308601,0.99976194
167,-44.413909912109375,-49.166351318359375,73.21227264404297,0.16653053813146482,3.2939371456241324,-151.04022358979987,4.143497,-16.505255,-8.03628,31.375261,-25.572838,9.792188,-30.031353,1.6025184,-23.02184,20.25203,-4.94692,-6.4332085,-16.713133,1.2875592,6.5268354,-26.581583,22.001028,-49.301487,69.86518,6.0955153,-2.0859456,2.9077215,14.961775,-19.912148,14.035811,61.680176,-12.323218,-1.3627051,0.9934427
168,-44.992942810058594,-49.727638244628906,73.24053192138672,-0.40856588728273635,3.583023622395011,-151.00324279969328,3.6234677,-16.07118,-7.937954,32.99474,-24.9909,9.326436,-30.477955,1.9148926,-23.00032,21.44902,-4.4949694,-7.5286636,-16.710592,2.082073,6.537449,-26.574837,21.973114,-49.256794,69.74975,6.041469,-2.1235912,3.2209473,14.856649,-20.103954,13.917129,61.745056,-12.239823,-1.374414,0.9729
169,-45.58269119262695,-50.303035736083984,73.27352142333984,-0.8210262734823335,3.7369535884330567,-151.03357628117993,3.1490934,-15.841735,-7.7733994,34.719364,-24.01317,8.784486,-30.771507,2.057277,-22.87346,22.88248,-4.597336,-8.093523,-16.669277,2.676621,6.624416,-26.450466,21.940338,-49.068737,69.643776,6.053179,-2.1710956,3.6695156,14.741122,-20.28802,13.797181,61.808685,-12.286483,-1.3606294,0.9293283
170,-46.19134521484375,-50.88041305541992,73.32038879394531,-1.1350834373072267,3.801053239264563,-151.1181963753989,2.668835,-15.747393,-7.5652266,36.564175,-22.727814,8.136245,-30.973133,2.0785525,-22.678808,24.47247,-5.0418744,-8.33342,-16.594206,3.1503837,6.7670574,-26.242138,21.901514,-48.77787,69.55044,6.1084056,-2.2265825,4.22473,14.6036215,-20.467499,13.678307,61.871674,-12.40045,-1.3313797,0.8697133
171,-46.79996109008789,-51.449275970458984,73.3841323852539,-1.4146791748258332,3.7939801472334667,-151.2372182770776,2.1712782,-15.691854,-7.4014506,38.460293,-21.14916,7.106815,-31.029757,2.078471,-22.453407,25.977415,-5.608897,-8.471333,-16.487423,3.5625226,6.9637136,-25.988111,21.859983,-48.411842,69.47101,6.15856,-2.2814116,4.7339444,14.453149,-20.63398,13.555321,61.91392,-12.518231,-1.2910076,0.8071937
172,-47.39097595214844,-52.00685119628906,73.46823120117188,-1.72175958525499,3.733469505830034,-151.37095672400326,1.6519624,-15.596757,-7.3877363,40.346123,-19.304916,5.4159207,-30.887,2.1724973,-22.24136,27.14864,-6.073839,-8.7225685,-16.350546,3.9667222,7.2122593,-25.725262,21.823122,-48.00028,69.40475,6.154013,-2.3275943,5.0440803,14.297797,-20.77214,13.422506,61.91666,-12.578452,-1.24267,0.75343645
173,-47.975955963134766,-52.55084228515625,73.57327270507812,-2.068721470475579,3.604090875639051,-151.54201835900653,1.0871547,-15.528729,-7.6181903,42.316578,-17.154963,2.9662404,-30.490103,2.425524,-22.034782,27.871328,-6.350695,-9.165738,-16.162142,4.3667183,7.540706,-25.44096,21.796282,-47.495136,69.33184,6.084804,-2.361893,5.0954103,14.130219,-20.864172,13.239139,61.88127,-12.592846,-1.173596,0.69258565
174,-48.556549072265625,-53.08352279663086,73.68476104736328,-2.416316061033549,3.402065331161251,-151.75343869768324,0.5001299,-15.5803795,-8.066863,44.38954,-14.779296,-0.1350979,-29.888475,2.7749841,-21.814682,28.302036,-6.5631976,-9.671849,-15.918339,4.7210956,7.9366665,-25.129473,21.781708,-46.91387,69.26005,5.971311,-2.387774,4.975035,13.943149,-20.89927,13.017304,61.826958,-12.591049,-1.0852537,0.61927545
175,-49.12582778930664,-53.61023712158203,73.80216217041016,-2.748513142460446,3.1627376853086875,-151.95619062606323,-0.050160516,-15.711451,-8.6659775,46.41394,-12.388261,-3.848207,-29.181305,3.1465101,-21.608482,28.597107,-6.804529,-10.144176,-15.664148,5.0297937,8.343309,-24.821386,21.7795,-46.34982,69.220245,5.822518,-2.4091299,4.7506924,13.738926,-20.906393,12.844573,61.761955,-12.527739,-1.0094291,0.5653565
176,-49.70169448852539,-54.123802185058594,73.919189453125,-3.050303682117587,2.923153519400033,-152.10109112846848,-0.5228544,-15.849472,-9.334141,48.25789,-10.154375,-8.100028,-28.46373,3.4600236,-21.440908,28.907856,-7.1727004,-10.484296,-15.413851,5.2825127,8.697209,-24.567678,21.78554,-45.953312,69.25519,5.623945,-2.4291897,4.490726,13.550401,-20.897139,12.778137,61.679993,-12.362854,-0.9787907,0.56319916
177,-50.276893615722656,-54.61647033691406,74.02513122558594,-3.326676667338686,2.672993965573186,-152.1552638058958,-0.79361665,-16.066408,-10.300726,49.750847,-7.8172297,-13.630065,-27.733093,3.689189,-21.340315,29.28283,-7.7414136,-10.670366,-15.239968,5.482902,9.00371,-24.361322,21.825027,-45.750153,69.37062,5.325003,-2.4494271,4.141265,13.3332205,-20.886057,12.909125,61.625465,-11.999725,-1.010864,0.6386018
178,-50.813472747802734,-55.19551086425781,74.0873031616211,-3.1165957147743675,2.3402243917115952,-152.15390969006185,-0.842671,-16.531137,-9.9757,50.68379,-5.081635,-15.000033,-27.315111,3.1975346,-20.947254,30.645107,-8.924751,-10.607439,-15.065841,5.1989117,9.243062,-24.092167,21.852676,-45.345676,69.46864,5.303491,-2.448098,3.675524,13.132859,-20.858053,13.133709,61.533955,-11.494343,-1.0868231,0.7788182
179,-51.32341384887695,-55.77713394165039,74.12738800048828,-2.608125926710247,2.012483337961273,-152.1117370110403,-1.1294475,-16.805494,-8.679403,51.69618,-2.5444467,-15.000033,-27.065403,2.2995973,-20.389912,32.396038,-10.354644,-10.378771,-14.916997,4.630478,9.362754,-23.9594,21.940252,-45.449997,69.69346,4.8047547,-2.4663475,3.2556188,12.915112,-20.84102,13.447386,61.446712,-10.996786,-1.1748813,0.9242111
180,-51.84337615966797,-56.31012725830078,74.18087768554688,-2.2859505796376447,1.7958225302405213,-152.0698930882394,-2.0176156,-16.468039,-7.100385,53.503838,-1.0233212,-15.000033,-26.665213,1.6915392,-19.982506,33.51097,-11.4605,-10.129124,-14.759348,4.2364225,9.445267,-23.74248,22.029554,-45.30991,69.87164,4.591573,-2.481768,2.987925,12.683196,-20.804958,13.747704,61.305836,-10.707633,-1.2513245,1.0200402
181,-52.37786102294922,-56.787723541259766,74.27101135253906,-2.267984088058673,1.6926018929664781,-152.05902705030664,-3.5095692,-15.449122,-5.5325313,56.263844,-0.9257989,-15.000033,-26.046305,1.5446393,-19.799433,33.82941,-12.160155,-9.870532,-14.570516,4.135646,9.488547,-23.59185,22.147497,-45.3993,70.1349,4.188364,-2.5316079,2.927933,12.419209,-20.765778,14.089063,61.13999,-10.68665,-1.3062913,1.0620656
182,-52.92584228515625,-57.22290802001953,74.3885726928711,-2.47737369397761,1.6517873881344147,-152.08375397103788,-5.3308744,-13.913742,-4.109852,59.58882,-1.8433173,-15.000033,-25.250668,1.7480356,-19.776724,33.5829,-12.60417,-9.586358,-14.336862,4.236917,9.523486,-23.4293,22.277567,-45.464016,70.42014,3.8575587,-2.5963674,2.9932132,12.134832,-20.71522,14.472632,60.93931,-10.839576,-1.3566488,1.0769458
183,-53.48303985595703,-57.61594772338867,74.51615142822266,-2.8156078659152595,1.6403461243857242,-152.17377148605362,-7.2590017,-12.0325985,-2.8504786,63.01733,-3.1698701,-15.000033,-24.348232,2.1813364,-19.798029,32.9881,-12.879842,-9.304718,-14.052088,4.4561343,9.553673,-23.230955,22.41803,-45.471127,70.69688,3.602938,-2.6498816,3.153541,11.834883,-20.655935,14.839958,60.70703,-11.06936,-1.4064223,1.0488577
184,-54.02257537841797,-58.02862548828125,74.64157104492188,-3.1634593583027746,1.6361013062515035,-152.3412995524646,-9.128436,-9.98566,-1.681399,66.12946,-4.27576,-15.000033,-23.428356,2.6817894,-19.750319,32.287342,-13.086026,-9.046102,-13.7211895,4.691371,9.573213,-22.961334,22.568773,-45.36414,70.91947,3.4547894,-2.6633592,3.377554,11.531839,-20.590187,15.123075,60.43668,-11.283964,-1.459623,0.96320915
185,-54.57175827026367,-58.430057525634766,74.77120971679688,-3.5187952875655806,1.6521157269529374,-152.6015887024835,-10.9721985,-7.70353,-0.516032,68.92069,-5.0813003,-15.000033,-22.499722,3.2531257,-19.613016,31.461058,-13.205592,-8.808634,-13.336334,4.944973,9.572122,-22.569368,22.7177,-44.98933,71.04855,3.6203334,-2.6153142,3.7011125,11.222992,-20.517948,15.295164,60.11917,-11.538552,-1.517452,0.783456
186,-55.1108283996582,-58.82556915283203,74.901611328125,-3.9505408467092846,1.6762702550101765,-152.96328378987315,-12.824616,-5.125304,0.5493323,71.59185,-5.9540124,-15.000033,-21.485891,3.9972565,-19.421824,30.370943,-13.182103,-8.588907,-12.882515,5.275517,9.567137,-22.107674,22.869032,-44.498703,71.13516,3.9389346,-2.5267246,4.1281652,10.905257,-20.445946,15.399364,59.76074,-11.852162,-1.5762872,0.52926874
187,-55.65717315673828,-59.22883605957031,75.0327377319336,-4.416549216553928,1.6648637837505706,-153.40654422230097,-14.582803,-2.4681988,1.4141959,74.04196,-6.8623075,-15.000033,-20.384857,4.8407817,-19.1567,29.133251,-13.07656,-8.395351,-12.370196,5.6301255,9.593905,-21.561256,23.016129,-43.837498,71.171,4.350257,-2.4144948,4.565676,10.590036,-20.371893,15.457984,59.36343,-12.08985,-1.6356796,0.27007645
188,-56.194271087646484,-59.6412467956543,75.15855407714844,-4.736964532509014,1.6082312416523405,-153.85806737706508,-16.1877,-0.06652447,2.1063166,76.10323,-7.67798,-15.000033,-19.341518,5.4901934,-18.780924,28.136568,-13.084716,-8.200568,-11.862595,5.8335114,9.628146,-20.958076,23.161789,-43.095295,71.17977,4.6465693,-2.304196,4.926783,10.281685,-20.297594,15.503473,58.9405,-12.110813,-1.6961565,0.07418455
189,-56.70842361450195,-60.089378356933594,75.2815933227539,-4.75525468346518,1.5329883400621862,-154.26039457590142,-17.655495,2.4096956,3.5200107,77.72053,-8.302709,-12.594045,-18.51907,5.675772,-18.274227,27.710777,-13.365512,-7.957934,-11.405733,5.75929,9.634782,-20.2483,23.294273,-42.122646,71.12191,4.937791,-2.1865337,5.2185936,9.987998,-20.21567,15.511644,58.477425,-11.835003,-1.7582206,-0.053031076
190,-57.2218132019043,-60.53644561767578,75.4041976928711,-4.743188506814806,1.4246618893845062,-154.6977578116832,-19.020487,4.871677,4.916287,79.07595,-8.940004,-9.777736,-17.672476,5.8324018,-17.713194,27.296503,-13.642923,-7.7342343,-10.9311905,5.652694,9.671897,-19.445612,23.411627,-40.964657,71.0101,5.2415295,-2.0555036,5.478224,9.701265,-20.126423,15.482319,57.97818,-11.350104,-1.8220835,-0.14423116
191,-57.73462677001953,-60.99003982543945,75.51873016357422,-4.719378464051523,1.3005894172938084,-155.15278346715593,-20.30153,7.180235,6.1233177,80.15586,-9.600033,-7.138296,-16.817854,5.9697714,-17.124474,26.88883,-13.915073,-7.514463,-10.453233,5.531217,9.724595,-18.597757,23.515524,-39.74185,70.88347,5.479721,-1.9342693,5.6577387,9.40793,-20.037306,15.464324,57.469345,-10.774861,-1.8895354,-0.1866113
192,-58.24030685424805,-61.437904357910156,75.62602233886719,-4.698389539035208,1.178788035955834,-155.60601275222302,-21.520988,9.273022,7.0976443,80.94243,-10.263113,-4.858637,-15.974357,6.090152,-16.533274,26.489765,-14.182926,-7.2809496,-9.987592,5.41399,9.776642,-17.756413,23.611736,-38.58954,70.784,5.5590496,-1.8469732,5.710699,9.098301,-19.956882,15.505833,56.973495,-10.228853,-1.9619286,-0.16721527
193,-58.741539001464844,-61.88612747192383,75.7261962890625,-4.682195001680775,1.06233087594444,-156.05845264487652,-22.710981,11.123685,7.82651,81.42728,-10.889617,-2.993812,-15.149398,6.198861,-15.936485,26.101847,-14.446874,-7.043234,-9.529316,5.302009,9.827537,-16.910223,23.698948,-37.4508,70.70036,5.4316583,-1.8075316,5.5845065,8.780242,-19.882675,15.600257,56.480385,-9.677141,-2.049091,-0.056274045
194,-59.23591995239258,-62.33600997924805,75.81651306152344,-4.661183207454591,0.9439621474553339,-156.51651320371263,-23.87892,12.749239,8.354987,81.617226,-11.448641,-1.4549488,-14.336263,6.2888365,-15.3253145,25.728987,-14.709597,-6.8055816,-9.075997,5.186155,9.882351,-16.046482,23.77686,-36.311363,70.62116,5.1267033,-1.8007425,5.318487,8.456953,-19.812895,15.729295,55.98187,-9.077733,-2.1450324,0.1313192
195,-59.725032806396484,-62.78721618652344,75.9030990600586,-4.632780893163116,0.8256850264864872,-156.9687446957424,-25.009148,14.155446,8.72176,81.517365,-11.930966,-0.2093557,-13.532189,6.3458204,-14.717402,25.375519,-14.976326,-6.544156,-8.641054,5.066193,9.937113,-15.171353,23.84346,-35.227596,70.55376,4.8154755,-1.8028104,4.999135,8.116694,-19.753845,15.914668,55.49647,-8.541001,-2.229394,0.34254816
196,-60.21266174316406,-63.24039077758789,75.98221588134766,-4.594666974565194,0.7094549659434874,-157.40360388428255,-26.080807,15.348775,8.963097,81.13388,-12.332579,0.77480596,-12.733213,6.3572865,-14.130948,25.043005,-15.251415,-6.2357154,-8.238882,4.9465175,9.985896,-14.312886,23.901123,-34.317726,70.52481,4.6076717,-1.794332,4.7157354,7.752659,-19.715002,16.177748,55.038666,-8.178179,-2.283223,0.5247038
197,-60.706382751464844,-63.70638656616211,76.05758666992188,-4.536614501913964,0.5927993366325159,-157.82048838961094,-27.088182,16.291784,9.07484,80.43987,-12.636116,1.4446529,-11.941495,6.3068547,-13.569406,24.744326,-15.542195,-5.8569584,-7.8674083,4.819772,10.029226,-13.476925,23.950445,-33.60795,70.5343,4.5545073,-1.7642084,4.4583955,7.363216,-19.702017,16.531458,54.608074,-8.036708,-2.2946086,0.6864364
198,-61.20112991333008,-64.19274139404297,76.12736511230469,-4.462824519850974,0.4763758553374235,-158.22416428329902,-28.04433,16.997248,9.051318,79.44119,-12.828942,1.8075875,-11.159126,6.2067556,-13.026746,24.47558,-15.846764,-5.4270296,-7.519317,4.688982,10.068841,-12.651449,23.989338,-33.03516,70.57356,4.5949445,-1.7257566,4.1909823,6.9595613,-19.712696,16.95832,54.191044,-8.051828,-2.277216,0.84937394
199,-61.68976974487305,-64.67207336425781,76.1871566772461,-4.393600781693389,0.36563145814133663,-158.6120870264675,-28.952278,17.546577,8.924174,78.189285,-12.926129,1.983251,-10.380267,6.0880566,-12.506694,24.210623,-16.153572,-4.986231,-7.1987844,4.574004,10.100823,-11.842493,24.018158,-32.589172,70.65887,4.6676702,-1.6973951,3.9639752,6.54903,-19.743269,17.437159,53.787083,-8.162668,-2.2515142,0.9797243
200,-62.18256378173828,-65.15567016601562,76.23501586914062,-4.348570208597598,0.26596652902352946,-158.9812713183109,-29.815477,18.017233,8.724189,76.7352,-12.946846,2.089596,-9.6056595,5.978682,-12.012972,23.93606,-16.455381,-4.573733,-6.9018936,4.4909487,10.121126,-11.049039,24.032204,-32.228333,70.799385,4.750453,-1.695582,3.826273,6.1457524,-19.786009,17.934555,53.391552,-8.312969,-2.2378955,1.0441558
201,-62.67842102050781,-65.64891815185547,76.2745361328125,-4.3313881478883145,0.178225109229121,-159.32512624072808,-30.647593,18.408236,8.444453,75.083916,-12.877643,2.1505558,-8.830658,5.8820586,-11.549129,23.637947,-16.745575,-4.1957173,-6.6507497,4.44246,10.129056,-10.27146,24.035946,-31.972404,71.01185,4.840027,-1.7367166,3.8122954,5.7291946,-19.844883,18.489405,53.01789,-8.543568,-2.2384083,1.0162064
202,-63.182151794433594,-66.14852905273438,76.30327606201172,-4.33205985791629,0.09942943774504658,-159.6469679694209,-31.437304,18.688652,8.074101,73.21043,-12.715263,2.109817,-8.057475,5.7851315,-11.11212,23.329113,-17.029427,-3.8323433,-6.4289546,4.4191833,10.125471,-9.517355,24.028942,-31.831425,71.29052,4.960953,-1.8070567,3.8885157,5.30897,-19.916517,19.090841,52.658417,-8.8692875,-2.2432888,0.92033285
203,-63.68840789794922,-66.64700317382812,76.32315826416016,-4.351514718359028,0.028720818266201407,-159.95929449983126,-32.152946,18.890106,7.637314,71.119194,-12.492997,1.963283,-7.2883663,5.692882,-10.693431,23.016985,-17.31497,-3.48429,-6.2209067,4.422682,10.109062,-8.776684,24.009253,-31.750256,71.60816,5.0868397,-1.8801076,4.0052977,4.8993483,-19.995798,19.690132,52.309505,-9.180216,-2.253359,0.79341996
204,-64.19953155517578,-67.14839935302734,76.33092498779297,-4.389848010905604,-0.03465356783655134,-160.27414098636396,-32.764412,19.045555,7.1577964,68.81423,-12.244974,1.7067118,-6.525471,5.6101346,-10.284525,22.708824,-17.610907,-3.1522987,-6.007291,4.453713,10.078546,-8.039879,23.972895,-31.671087,71.93738,5.197374,-1.9294788,4.112475,4.516357,-20.076015,20.234682,51.96614,-9.366645,-2.2701356,0.67233425
205,-64.71229553222656,-67.65596771240234,76.3313980102539,-4.450835023991175,-0.08409440183275428,-160.59168749024045,-33.268295,19.163877,6.6502075,66.26617,-11.988468,1.3220718,-5.7797613,5.539885,-9.889069,22.411263,-17.924637,-2.8441074,-5.78817,4.51532,10.02919,-7.3062305,23.916086,-31.592196,72.28481,5.2975674,-1.9449419,4.231373,4.152311,-20.155542,20.722172,51.63562,-9.391061,-2.3027167,0.5461967
206,-65.2348403930664,-68.17774963378906,76.31761169433594,-4.532970492578647,-0.1220974403031553,-160.90657330706364,-33.672752,19.236069,6.0979266,63.478443,-11.703231,0.82386774,-5.0478497,5.4790473,-9.509552,22.12274,-18.251902,-2.5566158,-5.5707717,4.6052475,9.961201,-6.585201,23.839552,-31.543123,72.667625,5.394163,-1.9416534,4.3779545,3.7998629,-20.236107,21.176996,51.32323,-9.315215,-2.347833,0.4011822
207,-65.76644134521484,-68.69288635253906,76.28866577148438,-4.631773538986382,-0.16213972354976608,-161.22246501647226,-33.970394,19.270779,5.4721513,60.507523,-11.368247,0.25427175,-4.303391,5.4276967,-9.134359,21.823208,-18.57624,-2.2755268,-5.3470583,4.7188926,9.882229,-5.8761654,23.745619,-31.501944,73.066025,5.4793434,-1.9314028,4.4931993,3.4772499,-20.31396,21.584414,51.016605,-9.180091,-2.3887057,0.27055085
208,-66.31304931640625,-69.22463989257812,76.25169372558594,-4.743014772039823,-0.2176628079330786,-161.5429302730252,-34.15619,19.277042,4.743418,57.410225,-10.964099,-0.343927,-3.5255575,5.384362,-8.7534685,21.504189,-18.887262,-1.98575,-5.1080294,4.848888,9.800491,-5.16859,23.635757,-31.411745,73.45411,5.580848,-1.9285209,4.5167727,3.2008288,-20.384,21.927876,50.706715,-9.027439,-2.4086533,0.18687566
209,-66.86982727050781,-69.75989532470703,76.20398712158203,-4.867935741321744,-0.2971020835641361,-161.86987252935734,-34.206623,19.23697,3.8842785,54.128555,-10.42616,-1.0085344,-2.7045102,5.351636,-8.3647585,21.16498,-19.18201,-1.6883624,-4.854855,4.9952087,9.722599,-4.461922,23.51427,-31.288193,73.82894,5.673771,-1.9311627,4.412705,2.9700847,-20.443169,22.199171,50.39453,-8.854238,-2.4021864,0.16285434
210,-67.44642639160156,-70.29463958740234,76.1483154296875,-5.008089933785189,-0.3922116577784048,-162.20148617370532,-34.12573,19.169199,2.9100819,50.65274,-9.785793,-1.7366588,-1.8508873,5.3293767,-7.9721956,20.806196,-19.464329,-1.3897451,-4.59005,5.1585536,9.643155,-3.7547252,23.382118,-31.135477,74.197334,5.7695074,-1.935236,4.2186465,2.7741961,-20.49135,22.407766,50.08802,-8.643488,-2.3786187,0.17898066
211,-68.01805877685547,-70.84278106689453,76.08082580566406,-5.159095139483181,-0.49117430344138524,-162.53532565853234,-33.955524,19.129805,1.8620604,47.10963,-9.173045,-2.4252408,-0.9776649,5.3097715,-7.576965,20.427439,-19.736183,-1.0809969,-4.315055,5.3365917,9.550145,-3.047617,23.241095,-30.950974,74.54684,5.871592,-1.9389775,3.9875393,2.610046,-20.529425,22.571943,49.79046,-8.416693,-2.342607,0.21859984
212,-68.60301208496094,-71.39398193359375,76.00260162353516,-5.3167236376249125,-0.5820464748787477,-162.8684660161376,-33.74275,19.16221,0.78916585,43.622505,-8.709673,-2.9824853,-0.095974624,5.2851524,-7.180196,20.024378,-19.997934,-0.752761,-4.0340834,5.527565,9.431985,-2.3482041,23.095554,-30.758448,74.870316,5.955166,-1.9409972,3.7731533,2.4715166,-20.558804,22.714697,49.507347,-8.192364,-2.2989573,0.26493073
213,-69.20748901367188,-71.95307922363281,75.91099548339844,-5.490244956639235,-0.6659174510188969,-163.20587813442955,-33.47802,19.252886,-0.34309384,40.13192,-8.424214,-3.4174008,0.79604757,5.2677474,-6.778703,19.596333,-20.250631,-0.40495774,-3.742721,5.740486,9.28474,-1.638871,22.945549,-30.541851,75.153336,6.024594,-1.944085,3.5735407,2.3680751,-20.578094,22.827322,49.23159,-7.955097,-2.2401233,0.32202363
214,-69.8116226196289,-72.52046203613281,75.81202697753906,-5.67848344760924,-0.7484688886135338,-163.54763977047702,-33.14449,19.386066,-1.536822,36.589012,-8.244402,-3.7714741,1.7041641,5.255113,-6.3721275,19.142498,-20.4909,-0.040130414,-3.4417613,5.9723477,9.115181,-0.9223836,22.791399,-30.304598,75.402565,6.078527,-1.9478431,3.3655214,2.2971127,-20.586798,22.90431,48.964096,-7.701603,-2.1662474,0.39559314
215,-70.42912292480469,-73.09819793701172,75.70195770263672,-5.861486191756929,-0.8230356673388595,-163.88332711458239,-32.7925,19.578943,-2.6911857,33.144054,-8.140156,-4.020166,2.6145747,5.2173166,-5.9688635,18.673965,-20.721325,0.34696677,-3.138637,6.201666,8.9285345,-0.22035733,22.635477,-30.038013,75.62714,6.1488023,-1.9452486,3.1681092,2.2396605,-20.589172,22.965216,48.71775,-7.4706497,-2.0943303,0.4725607
216,-71.04076385498047,-73.67696380615234,75.58856964111328,-6.016875167212501,-0.8827386826754229,-164.2030490090412,-32.466698,19.830198,-3.697791,29.93881,-8.07744,-4.152203,3.5176423,5.1226974,-5.5766006,18.192106,-20.939756,0.7610375,-2.843085,6.4058666,8.7315645,0.44526497,22.482445,-29.746626,75.83474,6.2503963,-1.9293258,3.0004478,2.1783695,-20.590483,23.032242,48.50072,-7.3004823,-2.0412436,0.5406476
217,-71.67147064208984,-74.26898193359375,75.47319030761719,-6.146467679680094,-0.9236717080937134,-164.5051423945823,-32.176647,20.143333,-4.5437093,26.94841,-8.064186,-4.13797,4.416497,4.9735785,-5.1948395,17.681847,-21.145061,1.2090571,-2.557373,6.585997,8.5227375,1.0861375,22.332304,-29.39515,76.012955,6.4251375,-1.8945409,2.8690336,2.114414,-20.59476,23.106792,48.310135,-7.214605,-2.017137,0.6040342
218,-72.29132080078125,-74.86982727050781,75.35989379882812,-6.258331259083184,-0.9504031238420796,-164.79481767738727,-31.89426,20.480227,-5.2659674,24.091303,-8.104169,-4.027467,5.3152895,4.7822733,-4.8217273,17.14546,-21.337864,1.6863699,-2.2796757,6.7510996,8.302571,1.7106043,22.185133,-28.998343,76.15811,6.643035,-1.8464303,2.7627425,2.0551338,-20.602692,23.182005,48.138958,-7.18627,-2.0112262,0.66769
219,-72.90559387207031,-75.4740219116211,75.24604034423828,-6.341911079353095,-0.9686549555628579,-165.07282095993125,-31.618229,20.784655,-5.841224,21.455488,-8.161141,-3.921657,6.200779,4.5355234,-4.464944,16.622139,-21.525652,2.179425,-2.0084586,6.8908963,8.081599,2.2992492,22.04535,-28.60235,76.28345,6.849954,-1.7926372,2.6728482,1.9964511,-20.613987,23.260874,47.987926,-7.1792855,-2.0092561,0.72089595
220,-73.51593780517578,-76.09550476074219,75.12837982177734,-6.3876687103865315,-0.9842547595739412,-165.34012192544947,-31.345345,21.02247,-6.2535934,19.139664,-8.200772,-3.9017441,7.061726,4.221331,-4.131409,16.147346,-21.713766,2.6751382,-1.7392445,6.995628,7.871281,2.8371184,21.91891,-28.231579,76.396515,7.0150476,-1.7400461,2.5894961,1.9366354,-20.627087,23.34307,47.856148,-7.158255,-1.9969984,0.753009
221,-74.13713073730469,-76.7160873413086,75.00640106201172,-6.389821610659058,-0.9980068070952455,-165.5970718512019,-31.060276,21.231668,-6.449293,17.125301,-8.235515,-3.9848862,7.910039,3.835554,-3.8152444,15.696112,-21.902828,3.1732826,-1.4687024,7.0576353,7.6720524,3.3185143,21.812752,-27.895483,76.49618,7.1020365,-1.6813678,2.504382,1.8726416,-20.641031,23.435709,47.74403,-7.1221013,-1.9660566,0.7548353
222,-74.75211334228516,-77.35514831542969,74.89082336425781,-6.356127391800714,-1.0072182086136174,-165.84328637255953,-30.774372,21.421736,-6.4599967,15.393494,-8.279682,-4.1237745,8.747139,3.3872075,-3.5165489,15.260524,-22.090117,3.6797302,-1.1983644,7.083494,7.481633,3.7570064,21.72831,-27.572699,76.57172,7.143602,-1.615255,2.4231007,1.807884,-20.654882,23.53398,47.64948,-7.087526,-1.9258206,0.73448634
223,-75.37216186523438,-78.00092315673828,74.77593231201172,-6.2955463952337,-1.0094756674343988,-166.0754001425504,-30.5253,21.536259,-6.4076133,14.04101,-8.317207,-4.2753224,9.542376,2.882586,-3.2532868,14.901465,-22.275387,4.191287,-0.93653244,7.0822077,7.3026066,4.15573,21.666721,-27.288935,76.62889,7.1630735,-1.5589706,2.3594682,1.7437599,-20.668098,23.624268,47.575726,-7.0453877,-1.8887216,0.7065497
224,-75.98877716064453,-78.65341186523438,74.65766906738281,-6.214052961741124,-0.998419080687603,-166.28701748430942,-30.380543,21.521372,-6.428968,13.212164,-8.352487,-4.383579,10.262529,2.3257911,-3.0457056,14.677128,-22.457783,4.705228,-0.6977918,7.0626297,7.1335516,4.516625,21.621769,-27.060898,76.67809,7.1912017,-1.529661,2.3284166,1.6798226,-20.680864,23.69749,47.52723,-6.9850507,-1.8670504,0.6850356
225,-76.5942611694336,-79.32840728759766,74.54326629638672,-6.107979511628339,-0.9653805347296411,-166.47273036301425,-30.405798,21.355406,-6.603305,13.048711,-8.413135,-4.4346,10.910511,1.7129474,-2.9073613,14.570632,-22.648653,5.218108,-0.46569508,7.0170097,6.961986,4.8247223,21.602215,-26.91422,76.73425,7.2422943,-1.5407032,2.336356,1.6362935,-20.688732,23.721523,47.497448,-6.8930106,-1.8718998,0.6821149
226,-77.20026397705078,-80.00642395019531,74.43353271484375,-5.970853798489384,-0.9094232280241584,-166.63133225855273,-30.58385,21.066393,-6.8600826,13.4898,-8.514308,-4.443289,11.494612,1.0394118,-2.8300447,14.561795,-22.844404,5.733703,-0.274655,6.944194,6.7912436,5.0976195,21.593035,-26.799746,76.78914,7.304741,-1.5808643,2.379093,1.5795451,-20.697783,23.747581,47.502342,-6.7703133,-1.8931649,0.6846664
227,-77.8026123046875,-80.69364929199219,74.32728576660156,-5.803283762079603,-0.8372152827196371,-166.76425002119743,-30.844814,20.674782,-7.1036882,14.352839,-8.634106,-4.3995233,11.987427,0.30721402,-2.7983465,14.713055,-23.023237,6.2599483,-0.103245884,6.8434286,6.6260495,5.3199015,21.59376,-26.73853,76.83992,7.3543143,-1.62824,2.443507,1.525855,-20.704985,23.756916,47.52996,-6.659716,-1.9147738,0.67733157
228,-78.40387725830078,-81.39781188964844,74.22434997558594,-5.606064918359902,-0.7567183992202244,-166.87392022828183,-31.109543,20.206795,-7.235774,15.438171,-8.745976,-4.290318,12.362743,-0.4820811,-2.7938707,15.086262,-23.162336,6.8044434,0.039557055,6.716957,6.479504,5.501761,21.598415,-26.710855,76.86689,7.376761,-1.6609432,2.5187998,1.4613851,-20.711966,23.766865,47.58336,-6.5968237,-1.920028,0.6434292
229,-79.0167007446289,-82.12020874023438,74.12908935546875,-5.366519767692925,-0.6620944202855893,-166.95620811104484,-31.405659,19.6525,-7.188242,16.87881,-8.937968,-4.013767,12.626831,-1.3416117,-2.831779,15.668929,-23.27363,7.3909516,0.14075328,6.5545974,6.354579,5.645761,21.607847,-26.722208,76.858475,7.3489056,-1.6781602,2.612705,1.3769783,-20.720137,23.787798,47.66131,-6.592237,-1.8992584,0.56790125
230,-79.61371612548828,-82.85370635986328,74.0486831665039,-5.088617473975435,-0.5581774633461535,-167.0178470644606,-31.730547,19.003155,-7.006836,18.668415,-9.163545,-3.6206617,12.797674,-2.2671986,-2.9024923,16.43543,-23.360634,8.00693,0.21973662,6.3590746,6.2476335,5.7422957,21.629684,-26.795193,76.83003,7.272618,-1.6908342,2.7253337,1.2907673,-20.73241,23.806864,47.755714,-6.62399,-1.8629367,0.46323168
231,-80.18991088867188,-83.59844207763672,74.00582885742188,-4.790890164205018,-0.4614655370316208,-167.07264208186197,-31.992819,18.28495,-6.7797728,20.452477,-9.219147,-3.314739,12.867169,-3.2374413,-2.9535313,17.415354,-23.385862,8.607315,0.2948032,6.1478705,6.1653867,5.8013015,21.657402,-26.898844,76.78314,7.194815,-1.6918718,2.8392498,1.208607,-20.749437,23.815228,47.86721,-6.6801944,-1.823717,0.35505056
232,-80.76403045654297,-84.36200714111328,73.97126770019531,-4.486279851345809,-0.3822003019572419,-167.13047323775166,-32.12847,17.517742,-6.608171,21.927301,-8.932372,-3.2924583,12.809757,-4.2363787,-2.935589,18.66144,-23.316969,9.149216,0.34759572,5.9361486,6.1067533,5.837912,21.67036,-27.006102,76.73514,7.13129,-1.6760088,2.9437194,1.0995975,-20.76633,23.849081,48.029083,-6.7418528,-1.7937156,0.26262024
233,-81.34459686279297,-85.14370727539062,73.94918060302734,-4.164706454865784,-0.3021735813360201,-167.2026041914981,-32.12632,16.689314,-6.54405,22.978668,-8.100107,-3.7102084,12.638564,-5.27495,-2.837892,20.106642,-23.150867,9.708526,0.39707506,5.7123747,6.058868,5.8479667,21.675508,-27.117813,76.67336,7.086365,-1.62647,3.038055,0.95941305,-20.79375,23.91721,48.2263,-6.8002944,-1.7710222,0.20369461
234,-81.93567657470703,-85.93892669677734,73.93849182128906,-3.815924756821517,-0.2167785339670861,-167.2798971560537,-32.035667,15.783898,-6.5395594,23.80797,-6.889552,-4.428998,12.364344,-6.359477,-2.6807323,21.731607,-22.89452,10.285171,0.43420568,5.4769926,6.020131,5.826647,21.66676,-27.251265,76.59873,7.03833,-1.5519024,3.12882,0.8135628,-20.859047,24.02115,48.42701,-6.8498244,-1.7476113,0.16278985
235,-82.52088165283203,-86.751708984375,73.93688201904297,-3.446660556337715,-0.15573424234446778,-167.3424855442615,-31.885746,14.816765,-6.5390587,24.596815,-5.6885524,-5.1912036,11.971638,-7.4729123,-2.4616876,23.627583,-22.516148,10.7275095,0.43912742,5.2263618,6.0094438,5.787738,21.648966,-27.387846,76.52429,7.0092597,-1.4829061,3.2076766,0.6676298,-20.915594,24.11471,48.674484,-6.921287,-1.7353381,0.11544908
236,-83.10352325439453,-87.5875244140625,73.94876861572266,-3.062565515830974,-0.14835656955427143,-167.3727821615571,-31.704197,13.8106785,-6.467628,25.518017,-4.8736105,-5.730774,11.45182,-8.599845,-2.1784658,25.867893,-21.970943,10.886562,0.41839603,4.9930367,6.034425,5.707792,21.592564,-27.590076,76.49657,6.97303,-1.4519726,3.2653027,0.61864793,-21.01779,24.148712,48.907192,-7.0023346,-1.738342,0.042781606
237,-83.68756866455078,-88.4327621459961,73.97403717041016,-2.66120322587228,-0.2063234627051763,-167.3784614475275,-31.532547,12.755988,-6.313244,26.712687,-4.6071973,-5.924003,10.821268,-9.739414,-1.7834581,28.463398,-21.235334,10.714756,0.36574763,4.7593813,6.097574,5.6215744,21.517971,-27.851072,76.50652,6.9511647,-1.4820557,3.2965653,0.625811,-21.104523,24.12546,49.210377,-7.1231923,-1.7714356,-0.098161384
238,-84.30154418945312,-89.30152893066406,74.00782012939453,-2.2373605900076075,-0.3120906972389333,-167.36830116424142,-31.337957,11.654917,-6.1029954,28.045639,-4.6592813,-5.917754,10.101794,-10.893857,-1.2987951,31.31864,-20.296352,10.31275,0.29435304,4.5193696,6.18617,5.512865,21.418615,-28.16499,76.556145,6.942891,-1.5513481,3.3086443,0.6759769,-21.18508,24.060802,49.57246,-7.2729635,-1.8263111,-0.28478596
