unveil-humanoid-operators/unveil-humanoid-operators.github.io/feature-analysis-animation/data/feature_matrix_instances/height_ankle_rom_walking_A428_walking_270_talking_R_001__A428.csv
Frame,root_translateX,root_translateY,root_translateZ,root_rotateX,root_rotateY,root_rotateZ,left_hip_pitch_joint_dof,left_hip_roll_joint_dof,left_hip_yaw_joint_dof,left_knee_joint_dof,left_ankle_pitch_joint_dof,left_ankle_roll_joint_dof,right_hip_pitch_joint_dof,right_hip_roll_joint_dof,right_hip_yaw_joint_dof,right_knee_joint_dof,right_ankle_pitch_joint_dof,right_ankle_roll_joint_dof,waist_yaw_joint_dof,waist_roll_joint_dof,waist_pitch_joint_dof,left_shoulder_pitch_joint_dof,left_shoulder_roll_joint_dof,left_shoulder_yaw_joint_dof,left_elbow_joint_dof,left_wrist_roll_joint_dof,left_wrist_pitch_joint_dof,left_wrist_yaw_joint_dof,right_shoulder_pitch_joint_dof,right_shoulder_roll_joint_dof,right_shoulder_yaw_joint_dof,right_elbow_joint_dof,right_wrist_roll_joint_dof,right_wrist_pitch_joint_dof,right_wrist_yaw_joint_dof
0,2.167243719100952,0.09549766778945923,77.77019500732422,1.0535491830880308,-0.6345080372029479,179.2117647160481,0.3278234,2.5481968,6.3127074,10.321488,-9.096673,-3.2157853,-0.11532068,-10.600236,-18.764858,15.195321,-14.01567,7.8470607,-3.2715766,-0.5026463,10.811935,0.025674341,17.028944,-34.857365,46.562927,9.537087,3.8641434,-0.4749851,-3.4057114,-11.76027,22.737139,54.708076,-8.8396435,-4.2776375,-1.7792222
1,2.1657118797302246,0.09632739424705505,77.76629638671875,1.04777891948765,-0.6246751132596914,179.21353786875673,0.31445265,2.5542898,6.3250694,10.32552,-9.1166315,-3.2093096,-0.10901151,-10.590292,-18.769674,15.160007,-13.998381,7.8641486,-3.270844,-0.49889812,10.809597,0.027208623,17.03703,-34.856262,46.540867,9.52638,3.8718786,-0.472251,-3.4076886,-11.760058,22.741686,54.704884,-8.829505,-4.2853384,-1.7642215
2,2.165940284729004,0.09627248346805573,77.76380920410156,1.042363793775336,-0.61447199196191,179.2151955533587,0.30256686,2.5595322,6.338408,10.324985,-9.135384,-3.2021525,-0.10297165,-10.5806875,-18.773619,15.124038,-13.981237,7.8820643,-3.2689116,-0.49484104,10.805483,0.024915356,17.039934,-34.85575,46.52517,9.515403,3.8799343,-0.46921113,-3.409385,-11.760299,22.74467,54.703415,-8.819806,-4.293814,-1.7479143
3,2.1676149368286133,0.09391877055168152,77.76480102539062,1.0382485712681335,-0.6058092210207711,179.2168183452678,0.2926408,2.5635748,6.3505816,10.324176,-9.151329,-3.1959746,-0.09807738,-10.57329,-18.778114,15.094691,-13.966643,7.898759,-3.2668476,-0.49129376,10.802302,0.022325652,17.041075,-34.855637,46.512894,9.508359,3.885133,-0.46616653,-3.4101274,-11.760499,22.747047,54.700775,-8.8127775,-4.3000464,-1.7352765
4,2.16485595703125,0.09191498160362244,77.76749420166016,1.0310849805045634,-0.5983953832644883,179.21882277901994,0.279955,2.5717623,6.358449,10.33327,-9.165361,-3.1933594,-0.09075576,-10.5619,-18.787226,15.063703,-13.948503,7.911055,-3.2684777,-0.48649508,10.800472,0.02136718,17.043774,-34.85529,46.500835,9.506496,3.8903286,-0.46093422,-3.4146438,-11.761296,22.754892,54.700264,-8.807679,-4.3025494,-1.7298243
5,2.160477876663208,0.09260794520378113,77.76884460449219,1.0259657271618698,-0.5947085498598446,179.22102645182306,0.27163175,2.5781412,6.3625054,10.342612,-9.168634,-3.1935372,-0.085964166,-10.554763,-18.801785,15.048569,-13.934071,7.920059,-3.2714732,-0.4844157,10.800683,0.022633107,17.046112,-34.854774,46.495274,9.51752,3.8872554,-0.45330635,-3.4174092,-11.761825,22.76346,54.69774,-8.815444,-4.2970715,-1.7368966
6,2.159907341003418,0.08941788971424103,77.76781463623047,1.0210333766935618,-0.593231886797222,179.22352738878848,0.26485258,2.5845842,6.3635135,10.354624,-9.165823,-3.1959345,-0.081911035,-10.548844,-18.820671,15.041204,-13.92038,7.92642,-3.27598,-0.4835227,10.802235,0.025239617,17.048368,-34.854042,46.493343,9.537236,3.8797965,-0.44360486,-3.4198513,-11.761813,22.7728,54.694702,-8.831763,-4.286219,-1.7525628
7,2.1606063842773438,0.09050329029560089,77.76982879638672,1.016913793407731,-0.593096584706256,179.2252537298539,0.26026183,2.590269,6.3630958,10.365863,-9.160913,-3.2008595,-0.07966274,-10.544516,-18.83667,15.0404825,-13.910423,7.929375,-3.2791007,-0.48372325,10.80428,0.02718136,17.049562,-34.8538,46.49395,9.559831,3.8731759,-0.43607652,-3.422538,-11.761486,22.779764,54.69186,-8.846564,-4.2752824,-1.7698495
8,2.1613612174987793,0.09015732258558273,77.77204895019531,1.0140119168110526,-0.5935761776903578,179.22552691300444,0.25965762,2.5942407,6.3625984,10.36982,-9.156488,-3.2085505,-0.07971055,-10.54163,-18.842918,15.044066,-13.906429,7.9281273,-3.2801611,-0.48479992,10.8061495,0.028929435,17.050589,-34.85362,46.494,9.579508,3.8719952,-0.43391424,-3.425401,-11.760978,22.786682,54.687958,-8.847668,-4.268055,-1.7837379
9,2.1603810787200928,0.09120870381593704,77.77253723144531,1.0127560285130444,-0.5947006594247565,179.22416075596743,0.2637272,2.595137,6.3609834,10.365489,-9.15344,-3.222334,-0.08455629,-10.541767,-18.833546,15.056794,-13.912443,7.92008,-3.2781024,-0.48764545,10.808364,0.031333093,17.051449,-34.853004,46.4908,9.59238,3.8793764,-0.4372398,-3.4300575,-11.760552,22.794878,54.6837,-8.826151,-4.26593,-1.7952828
10,2.1575257778167725,0.09000438451766968,77.77154541015625,1.0135573303521868,-0.5970662243272976,179.22116386266282,0.27327037,2.5931604,6.358373,10.352652,-9.1486,-3.2409143,-0.09351895,-10.544991,-18.813028,15.078704,-13.926239,7.906536,-3.2781963,-0.4926667,10.809702,0.036776066,17.053196,-34.849514,46.48532,9.599429,3.8923974,-0.44478437,-3.4384468,-11.759951,22.812006,54.682034,-8.78654,-4.2675576,-1.8061087
11,2.1584479808807373,0.09197577089071274,77.77214813232422,1.0146090622871116,-0.5995588872283831,179.2170189676328,0.28345522,2.591339,6.357087,10.3395195,-9.145488,-3.2577407,-0.10291733,-10.548425,-18.791126,15.101944,-13.942139,7.8924212,-3.275368,-0.497398,10.811634,0.0413562,17.05439,-34.84644,46.480656,9.613111,3.9066947,-0.45765525,-3.4441235,-11.759787,22.821913,54.676712,-8.747363,-4.2700386,-1.8134702
12,2.157961130142212,0.09023269265890121,77.76839447021484,1.0141786049582246,-0.6013677954662919,179.21271010137326,0.2879543,2.5923216,6.358441,10.33846,-9.150059,-3.2662282,-0.10789629,-10.549017,-18.778584,15.115542,-13.952816,7.882808,-3.2737308,-0.4998392,10.812622,0.045431256,17.054626,-34.84595,46.480133,9.637266,3.917243,-0.4733785,-3.4470165,-11.759754,22.823502,54.669827,-8.722001,-4.271013,-1.8173007
13,2.154857635498047,0.08854912221431732,77.76927185058594,1.0140704541477517,-0.6016417313661709,179.20382997051985,0.28826,2.5955825,6.3696704,10.3471365,-9.162901,-3.2613523,-0.11353036,-10.54883,-18.774822,15.127112,-13.961803,7.8797626,-3.2714145,-0.50175774,10.809762,0.05920886,17.055126,-34.84217,46.472878,9.697742,3.9299407,-0.50328165,-3.4487216,-11.759417,22.822968,54.663242,-8.701062,-4.2684326,-1.8175564
14,2.151536464691162,0.08880454301834106,77.76686096191406,1.0128677790360578,-0.6011138670844455,179.19329163467324,0.28366077,2.6015882,6.385279,10.366156,-9.183735,-3.2478929,-0.116699725,-10.54632,-18.77814,15.131964,-13.96774,7.8802075,-3.2714612,-0.5015518,10.806023,0.07684062,17.05582,-34.83588,46.464844,9.777335,3.9408166,-0.5409613,-3.4490001,-11.758289,22.81446,54.655346,-8.691889,-4.265251,-1.8126346
15,2.1508190631866455,0.08930572867393494,77.76286315917969,1.01130703806534,-0.6007505343567119,179.18451444295928,0.27765805,2.6078484,6.3989444,10.388498,-9.205487,-3.2331803,-0.11751142,-10.543278,-18.784384,15.134204,-13.972337,7.882059,-3.2704396,-0.5017137,10.803534,0.09359038,17.05734,-34.83023,46.457916,9.851943,3.9492972,-0.57607937,-3.4480987,-11.755026,22.799492,54.646187,-8.689459,-4.261135,-1.807002
16,2.151122570037842,0.09133562445640564,77.76255798339844,1.0104936049935507,-0.6020601313582608,179.18121541716332,0.27495995,2.6109736,6.4036493,10.404059,-9.2193985,-3.2243268,-0.11577063,-10.542163,-18.789776,15.137447,-13.976986,7.8834157,-3.2721145,-0.50403786,10.802126,0.10185235,17.057823,-34.83123,46.462124,9.886922,3.9530802,-0.5933956,-3.4497607,-11.753896,22.796307,54.639603,-8.681658,-4.25645,-1.8082458
17,2.1497626304626465,0.08805400878190994,77.76400756835938,1.0093886744977867,-0.6047518995606781,179.18661024018508,0.27220297,2.6113927,6.394916,10.418339,-9.226429,-3.2237527,-0.110011525,-10.541903,-18.794653,15.140331,-13.980847,7.8840837,-3.275464,-0.50756824,10.802556,0.10639369,17.058306,-34.834435,46.470516,9.880093,3.9529467,-0.5908026,-3.4522712,-11.7532015,22.797358,54.632713,-8.674865,-4.2492023,-1.8161321
18,2.1479392051696777,0.09198595583438873,77.76315307617188,1.007451352928658,-0.6089754030157483,179.19942593051522,0.2672222,2.6108289,6.375497,10.436857,-9.231088,-3.2275264,-0.09926317,-10.541616,-18.80244,15.141675,-13.983899,7.8851047,-3.2832131,-0.51197463,10.803691,0.10733191,17.059193,-34.84459,46.486534,9.83695,3.948065,-0.56991947,-3.4564044,-11.752557,22.806345,54.625782,-8.6655035,-4.237413,-1.830715
19,2.1449949741363525,0.089595727622509,77.76321411132812,1.0060232642255984,-0.6133288695500669,179.21239121598273,0.26416454,2.6091604,6.354633,10.451454,-9.232856,-3.2334828,-0.08878533,-10.54212,-18.808687,15.142795,-13.986668,7.8855386,-3.2902722,-0.51770216,10.801559,0.106561504,17.061249,-34.863613,46.50654,9.773789,3.9408264,-0.54040277,-3.4590013,-11.751674,22.826458,54.622307,-8.649626,-4.227534,-1.8495812
20,2.1411917209625244,0.09156059473752975,77.7655029296875,1.0054162965447455,-0.61623180138731,179.22019001865152,0.26280358,2.6078072,6.3390613,10.460407,-9.233329,-3.2396724,-0.08239111,-10.542796,-18.81189,15.144173,-13.989431,7.8843727,-3.2940347,-0.52400315,10.794758,0.10977532,17.06407,-34.88028,46.52533,9.711051,3.9309554,-0.5121814,-3.4604216,-11.75069,22.84766,54.62549,-8.628451,-4.223275,-1.8673346
21,2.1396496295928955,0.09270843863487244,77.76839447021484,1.005830098345512,-0.6178786701741104,179.2206488571036,0.26627666,2.6067202,6.330202,10.458965,-9.231098,-3.2490659,-0.081122205,-10.544103,-18.811163,15.146799,-13.993456,7.879632,-3.2899497,-0.5292155,10.792141,0.11598018,17.064781,-34.881214,46.535557,9.660233,3.9147356,-0.49018595,-3.4587958,-11.750354,22.85113,54.628616,-8.615175,-4.2295475,-1.8771874
22,2.1397652626037598,0.09182364493608475,77.76795959472656,1.0067485464097699,-0.6187505966229057,179.21721697259858,0.27266788,2.605693,6.3241043,10.449991,-9.225673,-3.2615893,-0.08302464,-10.545613,-18.807865,15.149796,-13.997833,7.8723817,-3.282458,-0.5350564,10.787475,0.123751044,17.065775,-34.880066,46.546238,9.601028,3.8921824,-0.46471778,-3.4562986,-11.749688,22.85479,54.6372,-8.599127,-4.2427487,-1.8862177
23,2.140933036804199,0.09476672857999802,77.76362609863281,1.008480700191348,-0.6192630932748283,179.21197839156335,0.2785215,2.604271,6.320855,10.442408,-9.221721,-3.270476,-0.08625188,-10.547842,-18.802359,15.153351,-14.002275,7.8664503,-3.2751918,-0.54122406,10.781397,0.1353711,17.066996,-34.874672,46.554382,9.553197,3.8711462,-0.44473344,-3.4543672,-11.748287,22.85741,54.648823,-8.586346,-4.2559967,-1.8922939
24,2.1389169692993164,0.09361966699361801,77.76376342773438,1.0100599668929666,-0.6202365376290085,179.20755539738607,0.2791286,2.6036112,6.3197665,10.44784,-9.225071,-3.2692006,-0.08715064,-10.549222,-18.796196,15.155052,-14.00514,7.8654013,-3.2680426,-0.5465464,10.776425,0.14724442,17.067837,-34.86703,46.559616,9.53711,3.862094,-0.43959355,-3.4527113,-11.7467985,22.856138,54.65679,-8.582073,-4.2598395,-1.8938167
25,2.139249324798584,0.09275781363248825,77.76640319824219,1.0128138460318623,-0.6216039320930391,179.20356912741508,0.26987416,2.6029282,6.321685,10.476162,-9.240662,-3.249295,-0.086601004,-10.551196,-18.787268,15.156537,-14.006815,7.873602,-3.2623866,-0.55244327,10.770869,0.16276072,17.06848,-34.85404,46.56055,9.568158,3.8700302,-0.4556132,-3.4516265,-11.744963,22.84882,54.66194,-8.593313,-4.2492895,-1.887195
26,2.138887882232666,0.094445139169693,77.76100158691406,1.0165901189921356,-0.623228093289908,179.1989912326645,0.25541845,2.6019382,6.326701,10.517197,-9.26339,-3.2165349,-0.08512748,-10.553518,-18.775675,15.157681,-14.007921,7.887994,-3.2556882,-0.5583553,10.764973,0.17911592,17.068684,-34.840027,46.559307,9.630078,3.8896563,-0.48578668,-3.4505148,-11.743428,22.837574,54.66541,-8.613221,-4.229767,-1.8750408
27,2.1381092071533203,0.09460639953613281,77.7598648071289,1.018363307017547,-0.6247525216697809,179.19552187981614,0.23778923,2.6035674,6.3323765,10.564555,-9.289944,-3.1856315,-0.082454436,-10.553369,-18.765846,15.15701,-14.008018,7.900979,-3.2517006,-0.56181973,10.76452,0.20164394,17.069124,-34.808826,46.547577,9.716161,3.9106443,-0.52720976,-3.4526181,-11.740211,22.81398,54.666946,-8.647882,-4.210586,-1.8568622
28,2.1332881450653076,0.09124138206243515,77.76045227050781,1.0171355600233611,-0.6269868770808423,179.1941990123662,0.22825989,2.6071873,6.3377533,10.593795,-9.30723,-3.170956,-0.078320004,-10.550664,-18.760849,15.154845,-14.008009,7.905608,-3.2459865,-0.5632041,10.760533,0.21360487,17.069317,-34.79968,46.54956,9.770064,3.9241347,-0.556129,-3.4534106,-11.739009,22.807705,54.671524,-8.661297,-4.199188,-1.8501703
29,2.126645565032959,0.0919211357831955,77.75892639160156,1.009836383536144,-0.6293379739406617,179.19678875707467,0.22720718,2.616134,6.342584,10.602821,-9.31546,-3.1821606,-0.0732013,-10.542154,-18.76428,15.152968,-14.010208,7.8956504,-3.2417278,-0.5589484,10.758663,0.22104329,17.069645,-34.797478,46.55559,9.802971,3.927222,-0.5770474,-3.4545562,-11.738112,22.808832,54.67608,-8.660724,-4.1997375,-1.8519758
30,2.12811541557312,0.09121538698673248,77.75784301757812,0.9989288965599555,-0.6316055227615874,179.2020877112023,0.23322245,2.627852,6.3477845,10.5944805,-9.315411,-3.2094073,-0.06716822,-10.530363,-18.77327,15.15003,-14.0129595,7.876528,-3.2389967,-0.5516418,10.758462,0.22496286,17.06992,-34.79965,46.563637,9.825841,3.925744,-0.5937809,-3.4560516,-11.737926,22.813398,54.67866,-8.654371,-4.206181,-1.8578639
31,2.13063383102417,0.09135519713163376,77.75894165039062,0.9865976252543612,-0.6349312261195689,179.2074777979657,0.23546211,2.6416998,6.3520317,10.595759,-9.319833,-3.238997,-0.058859546,-10.516485,-18.78299,15.14452,-14.0138855,7.8573627,-3.2370193,-0.5424564,10.753888,0.23145144,17.07081,-34.808437,46.57384,9.837672,3.9202013,-0.6081553,-3.4597244,-11.737907,22.832363,54.690536,-8.636796,-4.217065,-1.8708016
32,2.1289637088775635,0.09287968277931213,77.75982666015625,0.9810852405620093,-0.6385824033556441,179.20974040869567,0.2399664,2.6480331,6.3565035,10.59344,-9.319498,-3.255702,-0.053058423,-10.510355,-18.786346,15.142345,-14.012879,7.848481,-3.236607,-0.5402072,10.750361,0.23844443,17.072355,-34.813232,46.582367,9.83602,3.9137993,-0.6163446,-3.4611652,-11.738192,22.851162,54.69755,-8.62905,-4.2245936,-1.881228
33,2.128997325897217,0.0958457812666893,77.76005554199219,0.984551796561137,-0.6431607788964807,179.20740606930366,0.23793408,2.645806,6.3614097,10.606649,-9.322604,-3.253073,-0.05180801,-10.514499,-18.779303,15.147248,-14.009871,7.8550944,-3.23022,-0.5465965,10.751359,0.24255954,17.0729,-34.811226,46.588272,9.827032,3.905365,-0.6225818,-3.462449,-11.738354,22.85318,54.702003,-8.641782,-4.2298946,-1.8859837
34,2.1300413608551025,0.09570436924695969,77.76111602783203,0.9937030433966207,-0.6489601834069223,179.20142411484147,0.23580088,2.6380167,6.367626,10.623055,-9.324131,-3.2398086,-0.052130558,-10.524737,-18.765285,15.155228,-14.004495,7.8710303,-3.2237499,-0.55746794,10.754713,0.24819118,17.073698,-34.8017,46.59292,9.808542,3.890607,-0.62837774,-3.4634414,-11.738302,22.851067,54.70677,-8.667987,-4.237384,-1.8894509
35,2.131462574005127,0.0951027125120163,77.76020050048828,1.0035019522095898,-0.65442288697168,179.19585226859013,0.23397347,2.6291425,6.3712044,10.638591,-9.325444,-3.2244933,-0.052231174,-10.535746,-18.752613,15.162656,-13.999191,7.8887434,-3.218067,-0.5689333,10.759173,0.25325513,17.07475,-34.78867,46.595623,9.786125,3.876796,-0.6307178,-3.465338,-11.737962,22.845049,54.71064,-8.696792,-4.2436976,-1.8896307
36,2.1346116065979004,0.09106385707855225,77.76197814941406,1.008678600387292,-0.6593823891918521,179.1936544381154,0.23457819,2.6239083,6.3695164,10.648791,-9.327662,-3.2158883,-0.048062805,-10.541765,-18.748968,15.16411,-13.995858,7.900709,-3.21691,-0.5763178,10.764505,0.25938007,17.077091,-34.7714,46.59435,9.765063,3.8676827,-0.62987405,-3.4708743,-11.7371,22.8389,54.71501,-8.71749,-4.248157,-1.8849641
37,2.132899761199951,0.09180068969726562,77.75908660888672,1.0069917110619144,-0.6638775150524697,179.19631106456623,0.24071366,2.6244698,6.3584166,10.6490135,-9.331202,-3.2187083,-0.03704734,-10.540068,-18.75986,15.156295,-13.995229,7.905146,-3.2163544,-0.57656807,10.763021,0.2610322,17.078007,-34.77037,46.60014,9.726789,3.8669455,-0.61495554,-3.4727945,-11.736927,22.840178,54.72108,-8.712332,-4.248681,-1.8792549
38,2.1327269077301025,0.09350379556417465,77.7587890625,1.0010946045937656,-0.6682941472638866,179.2019536735359,0.25035748,2.6279354,6.340496,10.6435795,-9.335874,-3.2274997,-0.020401781,-10.5337,-18.78023,15.140595,-13.995344,7.9060016,-3.218295,-0.5729004,10.758815,0.26130092,17.080027,-34.775043,46.607628,9.677057,3.8706474,-0.59092313,-3.4746537,-11.736835,22.84583,54.72849,-8.693107,-4.246783,-1.8708559
39,2.1314258575439453,0.0950709655880928,77.75784301757812,0.994528324196705,-0.6715124953496449,179.2086158731369,0.25904593,2.6321912,6.3229213,10.636331,-9.339184,-3.235748,-0.005155552,-10.526702,-18.80128,15.125725,-13.9966,7.90423,-3.2204096,-0.56863695,10.750536,0.26167643,17.083052,-34.787098,46.61525,9.623235,3.8764992,-0.56346387,-3.4764838,-11.737059,22.857447,54.736927,-8.668445,-4.244045,-1.8644736
40,2.1288774013519287,0.09457887709140778,77.75843811035156,0.9908715846803349,-0.6722650298099228,179.21398763303787,0.26240507,2.634259,6.313109,10.632406,-9.339746,-3.2366912,0.0018939957,-10.523107,-18.813885,15.118448,-13.998296,7.9008875,-3.2210238,-0.566796,10.743708,0.26055086,17.085085,-34.792587,46.621292,9.58989,3.8799894,-0.54608256,-3.4760342,-11.737234,22.863455,54.737095,-8.662864,-4.242561,-1.8585733
41,2.1291866302490234,0.09429221600294113,77.7568359375,0.9912404134049931,-0.6687419756332712,179.21764989244096,0.25504637,2.6338906,6.3153777,10.635525,-9.3366,-3.2254183,-0.004429053,-10.5242815,-18.813995,15.123068,-14.000981,7.894958,-3.2206664,-0.56847376,10.735371,0.25881726,17.087105,-34.793896,46.624416,9.575784,3.8808835,-0.53851074,-3.4752135,-11.737177,22.868132,54.729923,-8.682056,-4.2413154,-1.8546578
42,2.1295571327209473,0.09138944745063782,77.75811004638672,0.9931276417001125,-0.663123367706845,179.2209627644422,0.24338783,2.632739,6.32487,10.639929,-9.3298235,-3.2066388,-0.016061097,-10.526775,-18.807638,15.130859,-14.002696,7.886268,-3.218951,-0.5707049,10.726933,0.25652608,17.088322,-34.79256,46.625484,9.575406,3.8809142,-0.5368529,-3.4753447,-11.736897,22.870201,54.719284,-8.715208,-4.2401633,-1.8509837
43,2.129375696182251,0.09070492535829544,77.76070404052734,0.9965612733450661,-0.6559592544087123,179.22351256953527,0.22906308,2.6299024,6.335762,10.645525,-9.32252,-3.1878362,-0.03399534,-10.532397,-18.798513,15.147298,-14.007883,7.8772755,-3.2198567,-0.5757894,10.7179365,0.25398803,17.089836,-34.78639,46.626812,9.585127,3.8797815,-0.54040796,-3.4726107,-11.73613,22.873264,54.70339,-8.7539425,-4.2408624,-1.8491545
44,2.134333848953247,0.09119922667741776,77.76268005371094,0.9997583614067834,-0.6542347054993132,179.2263510366997,0.22458582,2.626182,6.3405457,10.645276,-9.315226,-3.1769388,-0.043310046,-10.537956,-18.793715,15.161429,-14.0139675,7.870401,-3.2215579,-0.5812109,10.714668,0.25196344,17.09135,-34.777985,46.629166,9.605768,3.8776386,-0.5499214,-3.4686024,-11.735114,22.876993,54.6882,-8.7740965,-4.2466865,-1.849955
45,2.131206512451172,0.09150940179824829,77.76487731933594,1.0022637757709427,-0.661019371998852,179.22967907561153,0.23242822,2.6216402,6.335189,10.641567,-9.309421,-3.17834,-0.039705083,-10.543459,-18.795465,15.172796,-14.0217905,7.865882,-3.2264698,-0.5873168,10.719647,0.252936,17.094648,-34.765198,46.631874,9.644349,3.87403,-0.5689474,-3.467829,-11.732663,22.884401,54.68159,-8.767885,-4.2639046,-1.8548571
46,2.1368703842163086,0.09385078400373459,77.76313018798828,1.0044314439330726,-0.6728941621759892,179.23338027088477,0.24655631,2.6165357,6.3237557,10.637579,-9.304883,-3.1871307,-0.02865494,-10.549007,-18.800821,15.183081,-14.03071,7.8625293,-3.226865,-0.59176546,10.728612,0.25042635,17.09662,-34.76173,46.639126,9.693807,3.8698454,-0.5930612,-3.4652607,-11.731129,22.887175,54.67824,-8.746224,-4.2890778,-1.8623688
47,2.1379945278167725,0.09217860549688339,77.76133728027344,1.0064022816959246,-0.6849491950586198,179.23654518265315,0.26303333,2.6114202,6.3124685,10.629786,-9.300218,-3.1972778,-0.016894342,-10.554324,-18.806513,15.192008,-14.039095,7.8605,-3.227028,-0.5964415,10.737807,0.24703817,17.098324,-34.758053,46.64601,9.740275,3.8656337,-0.6168269,-3.4622786,-11.729766,22.890213,54.674706,-8.719855,-4.3126836,-1.8708677
48,2.1380996704101562,0.090871661901474,77.76101684570312,1.0073925725479647,-0.692089306521783,179.2383543642803,0.2741868,2.608146,6.3069835,10.62157,-9.297841,-3.202923,-0.010466596,-10.557604,-18.809965,15.197585,-14.0446415,7.859775,-3.2253597,-0.5988173,10.741757,0.24192244,17.099165,-34.756172,46.650524,9.764447,3.8624218,-0.6309715,-3.4607055,-11.72905,22.892155,54.67129,-8.7002535,-4.3256545,-1.8775668
49,2.1412734985351562,0.09101039916276932,77.7574234008789,1.006585807879358,-0.6910199572717114,179.23822661629592,0.2752983,2.607932,6.31066,10.615367,-9.299865,-3.2012124,-0.013536238,-10.5581,-18.810919,15.200065,-14.047872,7.8603907,-3.2235532,-0.5987967,10.737519,0.235098,17.101059,-34.75335,46.650158,9.762181,3.8625576,-0.6361949,-3.4602263,-11.72705,22.895952,54.666164,-8.68842,-4.323208,-1.8824003
50,2.141674280166626,0.08934028446674347,77.755859375,1.0051369444634144,-0.6849722090014609,179.2367800586241,0.2717089,2.6091793,6.3199067,10.607364,-9.303731,-3.1956403,-0.021686986,-10.556965,-18.810543,15.199095,-14.048836,7.8623867,-3.2213373,-0.59796447,10.727534,0.2270772,17.102926,-34.75145,46.647945,9.742365,3.8648329,-0.6355228,-3.4630675,-11.724878,22.901152,54.66308,-8.67884,-4.310229,-1.8869109
51,2.140498638153076,0.0868496224284172,77.75654602050781,1.002901221220933,-0.678773205726385,179.23488511255383,0.26778162,2.6111565,6.329676,10.599676,-9.30867,-3.1901364,-0.029684868,-10.55462,-18.80889,15.196332,-14.04792,7.865543,-3.2191725,-0.5961527,10.717147,0.2201454,17.104937,-34.749325,46.64285,9.707892,3.8652756,-0.62654215,-3.4676785,-11.722097,22.907537,54.662167,-8.671021,-4.294288,-1.8910202
52,2.141765594482422,0.08582498878240585,77.75745391845703,1.0011923749904958,-0.6769833326543414,179.23327017865515,0.2701577,2.6123075,6.335543,10.589252,-9.311239,-3.1885202,-0.032299694,-10.552176,-18.805271,15.192943,-14.0451765,7.8697677,-3.2149544,-0.5950985,10.712545,0.21329895,17.106518,-34.746735,46.637646,9.663156,3.8594587,-0.607654,-3.4692504,-11.719439,22.911945,54.65894,-8.666304,-4.2816954,-1.8943843
53,2.1435046195983887,0.08800085633993149,77.7581787109375,0.9996338644803735,-0.6815180308272777,179.2323532751905,0.28213748,2.6123004,6.3351088,10.572373,-9.310127,-3.1933773,-0.026376689,-10.548482,-18.798527,15.1868305,-14.038868,7.8759828,-3.2089605,-0.59609014,10.715041,0.20699674,17.108149,-34.742138,46.63367,9.595747,3.8421178,-0.5697818,-3.4699404,-11.715919,22.91604,54.656803,-8.665648,-4.273464,-1.896594
54,2.1473822593688965,0.08754554390907288,77.75675964355469,0.9978952570040199,-0.6888754477478394,179.23192054670372,0.2986932,2.6120107,6.3308234,10.552713,-9.307908,-3.2021348,-0.016710283,-10.543933,-18.789171,15.179683,-14.03036,7.8839793,-3.2003944,-0.59587866,10.720583,0.20219512,17.108505,-34.737034,46.627605,9.510514,3.8181221,-0.5186463,-3.4688408,-11.714449,22.91783,54.65519,-8.667822,-4.266965,-1.8970602
55,2.1474058628082275,0.08561121672391891,77.75688934326172,0.9969131749550446,-0.6983739724200901,179.23101472570573,0.3167916,2.6110103,6.326578,10.534307,-9.30439,-3.210846,-0.0055703977,-10.540589,-18.779934,15.174067,-14.02208,7.891788,-3.1919127,-0.5964739,10.729502,0.1962523,17.108696,-34.73138,46.621258,9.429252,3.7941694,-0.46933082,-3.467158,-11.712728,22.920246,54.651306,-8.669495,-4.2616973,-1.8982857
56,2.1478865146636963,0.08575233817100525,77.75808715820312,0.9982640400670703,-0.7097612928776661,179.22905917020574,0.33524534,2.6083314,6.3258324,10.519965,-9.299179,-3.2154243,0.006569152,-10.540933,-18.77341,15.171053,-14.016041,7.8976116,-3.1875904,-0.6003091,10.743289,0.18610613,17.108849,-34.724457,46.617535,9.373227,3.777135,-0.43672433,-3.4676378,-11.709374,22.926598,54.643867,-8.667262,-4.2575445,-1.9041423
57,2.1522812843322754,0.08518745005130768,77.75724792480469,1.0017546189696453,-0.7208380598668165,179.22604975422084,0.34387484,2.6053393,6.329343,10.525194,-9.297044,-3.2148848,0.014963733,-10.546463,-18.771585,15.175308,-14.014169,7.900925,-3.1799667,-0.6034192,10.755298,0.17734914,17.108818,-34.72127,46.60627,9.3644705,3.7775521,-0.43739155,-3.467759,-11.707354,22.931925,54.638283,-8.652045,-4.2579193,-1.9163868
58,2.152869939804077,0.08427819609642029,77.7582778930664,1.0074903888204558,-0.7340280699585815,179.22212374012202,0.34990415,2.601269,6.3356805,10.540698,-9.295417,-3.2112818,0.024192555,-10.55562,-18.772577,15.182818,-14.014023,7.902783,-3.1726365,-0.6086804,10.770842,0.16477996,17.108683,-34.718193,46.594288,9.382574,3.7876394,-0.45740402,-3.4676,-11.704015,22.941683,54.629723,-8.627153,-4.2604737,-1.9351984
59,2.1544837951660156,0.08482207357883453,77.75624084472656,1.0128705370104507,-0.745208856662048,179.21789659756595,0.35438535,2.5971751,6.342467,10.555065,-9.292602,-3.2056847,0.030773912,-10.56479,-18.77426,15.190777,-14.014715,7.903003,-3.1660578,-0.6127488,10.782939,0.15486299,17.108498,-34.71705,46.581066,9.410396,3.7995644,-0.4819641,-3.4680789,-11.701344,22.948961,54.622776,-8.607046,-4.2641506,-1.9517734
60,2.158060073852539,0.08281530439853668,77.75885772705078,1.016031311116318,-0.7515409817471563,179.21381565647914,0.35469607,2.5948503,6.3478274,10.567351,-9.293149,-3.1992128,0.0298387,-10.571372,-18.773855,15.202422,-14.018621,7.9013586,-3.1631083,-0.61452514,10.788485,0.14719622,17.108213,-34.71608,46.570667,9.429458,3.8064716,-0.49727094,-3.468065,-11.698252,22.95563,54.615295,-8.600735,-4.266658,-1.9616375
61,2.1612703800201416,0.08363247662782669,77.75542449951172,1.0158676756264085,-0.7496518754775207,179.2096879448542,0.34886414,2.594553,6.3508744,10.574151,-9.2973,-3.1903505,0.01711794,-10.574151,-18.770487,15.218355,-14.026767,7.8967576,-3.1669588,-0.61424273,10.780481,0.1452104,17.107512,-34.71399,46.565723,9.432055,3.804243,-0.49641293,-3.4698646,-11.692,22.962582,54.61246,-8.618372,-4.2676053,-1.9641879
62,2.165846824645996,0.08126477897167206,77.75286865234375,1.013511381327747,-0.7421027277441374,179.20545132903425,0.33967274,2.5956001,6.352863,10.576015,-9.302637,-3.1790695,-0.0031148721,-10.574536,-18.765596,15.236285,-14.037633,7.8897142,-3.1731515,-0.61106735,10.764682,0.14751688,17.10678,-34.713264,46.561222,9.429534,3.7974756,-0.48811415,-3.4723735,-11.686009,22.963882,54.61134,-8.653779,-4.268518,-1.9599321
63,2.166475296020508,0.07951950281858444,77.75228118896484,1.0105009400506506,-0.7343808995615566,179.20157984320926,0.33256516,2.5967631,6.3545046,10.572417,-9.305571,-3.1687663,-0.022694483,-10.5737295,-18.760824,15.252022,-14.047165,7.8822694,-3.1791012,-0.60662764,10.749569,0.14895438,17.106281,-34.713596,46.557175,9.431512,3.7913568,-0.48115963,-3.4741447,-11.682336,22.962679,54.60791,-8.690663,-4.269053,-1.9504101
64,2.1656315326690674,0.07488130033016205,77.75501251220703,1.0088206600559881,-0.7306562583812309,179.19856885666303,0.3258512,2.597405,6.3560634,10.575976,-9.310137,-3.162725,-0.038267847,-10.575008,-18.756516,15.268675,-14.055879,7.876659,-3.1819985,-0.6052821,10.740175,0.1488851,17.104994,-34.714417,46.553078,9.45007,3.7918758,-0.48230657,-3.4758503,-11.672728,22.957975,54.604748,-8.719091,-4.267713,-1.9378464
65,2.1654388904571533,0.07565661519765854,77.75598907470703,1.0090875977324718,-0.7336811795981301,179.1964989405337,0.32555106,2.596643,6.358234,10.578477,-9.310255,-3.162327,-0.04564212,-10.578647,-18.752642,15.283179,-14.060744,7.8735847,-3.1812139,-0.6076961,10.740604,0.14080971,17.103024,-34.714577,46.554817,9.4979315,3.8013573,-0.50001884,-3.4866,-11.661341,22.950418,54.612324,-8.733938,-4.2673926,-1.9190811
66,2.1735568046569824,0.07288702577352524,77.7555160522461,1.009578866879375,-0.7404971555656094,179.19542707127903,0.32761592,2.5961227,6.3601084,10.583167,-9.3096075,-3.1657672,-0.047622815,-10.582379,-18.749294,15.2947,-14.062662,7.871736,-3.1812356,-0.6088099,10.748962,0.13544534,17.10243,-34.71402,46.548748,9.563335,3.8173285,-0.52645105,-3.4913623,-11.658557,22.948246,54.606533,-8.734691,-4.2647696,-1.8945576
67,2.1793720722198486,0.07152485102415085,77.75469207763672,1.0106678961262987,-0.7486218062187401,179.1946405718142,0.33221692,2.5948322,6.361837,10.585676,-9.307762,-3.1711345,-0.047011882,-10.586617,-18.746923,15.304375,-14.063682,7.8705583,-3.1807606,-0.6114631,10.7596445,0.1280959,17.10104,-34.710888,46.543903,9.628489,3.8341987,-0.5539784,-3.4975743,-11.653136,22.94336,54.60131,-8.732305,-4.260846,-1.869104
68,2.179908275604248,0.07137337327003479,77.75501251220703,1.0115306389345637,-0.7552187103424753,179.1939671220922,0.33748293,2.5932364,6.3629646,10.584702,-9.305328,-3.1767786,-0.04576019,-10.589867,-18.746588,15.31127,-14.064815,7.869336,-3.1821616,-0.6130662,10.76544,0.12292587,17.099623,-34.70995,46.540043,9.6663475,3.845838,-0.5701334,-3.501078,-11.647735,22.941654,54.59524,-8.728294,-4.255385,-1.8495327
69,2.178584337234497,0.07150118052959442,77.75431060791016,1.0125066050483278,-0.761040290426416,179.19308857320857,0.34711713,2.590444,6.363541,10.575836,-9.301549,-3.1835723,-0.04230312,-10.592435,-18.74973,15.315255,-14.067344,7.8670645,-3.1841748,-0.6147431,10.766524,0.118813574,17.098381,-34.710915,46.536076,9.66274,3.8514304,-0.5707371,-3.5022635,-11.642981,22.943155,54.586758,-8.714418,-4.244994,-1.8357031
70,2.1794750690460205,0.06928078830242157,77.75344848632812,1.0138026007006087,-0.7670177589475474,179.19245614131873,0.36104468,2.586743,6.363556,10.559862,-9.295482,-3.1920295,-0.035101715,-10.59436,-18.755838,15.31412,-14.068963,7.8643384,-3.1879153,-0.6174447,10.763718,0.11548414,17.09668,-34.715218,46.534645,9.630135,3.8539822,-0.55935705,-3.5009787,-11.63569,22.949736,54.5771,-8.692146,-4.2296987,-1.8274144
71,2.184574604034424,0.0691639631986618,77.75476837158203,1.01547375565412,-0.7712216979283462,179.19168328874426,0.37213755,2.5826273,6.3635273,10.545867,-9.290203,-3.199578,-0.030189361,-10.596722,-18.76103,15.313956,-14.070829,7.863197,-3.1921623,-0.6199311,10.75833,0.112142414,17.09582,-34.719715,46.53537,9.595091,3.8539205,-0.5475809,-3.4995246,-11.631768,22.9561,54.569023,-8.675456,-4.217822,-1.8212419
72,2.1853885650634766,0.06782527267932892,77.75558471679688,1.0178040372034254,-0.772603329565097,179.19027113229512,0.378251,2.5781543,6.364304,10.534714,-9.284731,-3.203602,-0.030183572,-10.600139,-18.761787,15.314598,-14.070883,7.86564,-3.1962228,-0.62490237,10.745505,0.10859892,17.093641,-34.731155,46.5443,9.579056,3.8556595,-0.54088044,-3.4963536,-11.621292,22.970423,54.56819,-8.673165,-4.2138944,-1.822027
73,2.186573028564453,0.06442143023014069,77.75830078125,1.0208878467085745,-0.7687077075670256,179.1881175651999,0.37497437,2.573311,6.365832,10.529606,-9.279168,-3.2033188,-0.03691352,-10.604153,-18.756481,15.313941,-14.066815,7.87485,-3.1992474,-0.6268994,10.734953,0.107035674,17.092993,-34.735607,46.547783,9.608055,3.8570938,-0.5519945,-3.493373,-11.61782,22.973976,54.565876,-8.703484,-4.2264915,-1.8196558
74,2.189958095550537,0.06309763342142105,77.75547790527344,1.0250508691647642,-0.7607001795071455,179.1853532694659,0.36391905,2.5677938,6.367852,10.530784,-9.275122,-3.200059,-0.04934562,-10.609561,-18.746717,15.314009,-14.060877,7.8889737,-3.1998518,-0.6313204,10.716683,0.10424789,17.091553,-34.74661,46.559376,9.657546,3.8589618,-0.5691554,-3.4849627,-11.609417,22.97797,54.566418,-8.753481,-4.248677,-1.8226489
75,2.191317558288574,0.06325818598270416,77.75577545166016,1.0285840088757434,-0.753198268935532,179.1823953846825,0.3525583,2.5632627,6.370157,10.533569,-9.272105,-3.1949043,-0.06218362,-10.614379,-18.736197,15.315229,-14.055168,7.901919,-3.2012575,-0.6337392,10.702465,0.101936325,17.091133,-34.752373,46.56742,9.7101555,3.860556,-0.5889918,-3.4812553,-11.606657,22.979519,54.568893,-8.809119,-4.2719336,-1.8245333
76,2.193437337875366,0.061090871691703796,77.75419616699219,1.03025086784738,-0.7491305241193051,179.17958024245723,0.34576425,2.5608597,6.372723,10.534345,-9.269939,-3.188864,-0.072227865,-10.6172085,-18.7279,15.319022,-14.052448,7.9075933,-3.197521,-0.6371264,10.687471,0.09651632,17.08892,-34.76507,46.579536,9.741286,3.8638706,-0.6020352,-3.4727075,-11.5949955,22.976858,54.57285,-8.861068,-4.287018,-1.8294921
77,2.196650743484497,0.05738629400730133,77.75736236572266,1.0285348864487611,-0.7507076856979474,179.17734642894123,0.34080735,2.5634005,6.375738,10.544403,-9.276057,-3.1805043,-0.07892642,-10.61695,-18.723392,15.331009,-14.056776,7.900558,-3.1980672,-0.63594294,10.683694,0.094842255,17.088589,-34.765957,46.579,9.746201,3.8678603,-0.60932434,-3.4723456,-11.593565,22.977026,54.574734,-8.899855,-4.2886887,-1.8315301
78,2.19840669631958,0.05441831424832344,77.75621032714844,1.0247525941371296,-0.7541221747509007,179.17464975233813,0.3371195,2.568781,6.380071,10.556172,-9.285155,-3.169801,-0.08695189,-10.615098,-18.719786,15.3496065,-14.065537,7.885247,-3.199097,-0.63415366,10.6785755,0.09331547,17.085775,-34.765057,46.57924,9.735262,3.8747942,-0.61427474,-3.4718819,-11.5838375,22.975111,54.582584,-8.949681,-4.283511,-1.8385558
79,2.200892686843872,0.05711544677615166,77.75370788574219,1.020975546037501,-0.760381558696715,179.17217307993994,0.33707613,2.5738626,6.383184,10.566975,-9.2939825,-3.160136,-0.0905074,-10.612967,-18.716837,15.366074,-14.073849,7.8707128,-3.2015789,-0.6333722,10.676637,0.09192262,17.082056,-34.759666,46.58082,9.721461,3.8806298,-0.6168269,-3.4783847,-11.573226,22.975035,54.59662,-8.988622,-4.2765646,-1.8438891
80,2.2042338848114014,0.056944798678159714,77.75204467773438,1.0198157191559636,-0.7681811832891565,179.16954272678103,0.34072202,2.575246,6.383354,10.574914,-9.300211,-3.1548314,-0.08929458,-10.613114,-18.712704,15.376714,-14.07857,7.8659,-3.2023575,-0.6328703,10.6779,0.092593044,17.08061,-34.75605,46.5791,9.713336,3.8848042,-0.6187259,-3.4776638,-11.569651,22.974552,54.600307,-9.012795,-4.2731495,-1.844801
81,2.2027809619903564,0.053610846400260925,77.7554702758789,1.022779535850015,-0.7791131610445685,179.1666525098879,0.35075855,2.5704746,6.377715,10.578783,-9.302862,-3.1566112,-0.07871175,-10.6165695,-18.706564,15.375347,-14.076164,7.877324,-3.2023344,-0.6363374,10.68212,0.09447683,17.078281,-34.750324,46.580135,9.718021,3.8871846,-0.6204279,-3.4753032,-11.564126,22.972973,54.602905,-9.022615,-4.275069,-1.8408469
82,2.207237482070923,0.055129971355199814,77.7524642944336,1.0281546701315898,-0.7932950757907378,179.16381228219467,0.36637926,2.561866,6.3678985,10.579644,-9.303123,-3.1630802,-0.061673377,-10.622192,-18.699242,15.368575,-14.070587,7.8988605,-3.2023563,-0.6418881,10.689353,0.09669639,17.076216,-34.742355,46.583885,9.729525,3.8878224,-0.6218662,-3.4725904,-11.559423,22.969872,54.605896,-9.023199,-4.280116,-1.8329731
83,2.208810329437256,0.054697319865226746,77.749755859375,1.0338510713134663,-0.8059587771340567,179.1606418024465,0.3808573,2.5531125,6.359641,10.579583,-9.302266,-3.1699305,-0.046068173,-10.628107,-18.69221,15.3612995,-14.064776,7.9203115,-3.2009418,-0.6465558,10.695467,0.09916675,17.075338,-34.738174,46.585903,9.737541,3.8877263,-0.6214701,-3.469263,-11.557509,22.967817,54.60752,-9.012821,-4.2853723,-1.8252896
84,2.2117857933044434,0.05257009342312813,77.75225830078125,1.0370425560430114,-0.816051132371043,179.1574901246461,0.3889217,2.5486746,6.3577747,10.586321,-9.30455,-3.1729827,-0.03525629,-10.6318245,-18.687485,15.357874,-14.061517,7.9315567,-3.201218,-0.6499529,10.6995325,0.102841206,17.073036,-34.730194,46.58668,9.745649,3.886745,-0.62112886,-3.4636455,-11.552328,22.964645,54.60694,-8.99943,-4.290066,-1.8192227
85,2.2150981426239014,0.05039321258664131,77.75116729736328,1.0369710875185536,-0.8183537098931144,179.15448068253616,0.38469127,2.5497663,6.36561,10.5996475,-9.309242,-3.1695583,-0.03766991,-10.633455,-18.686821,15.363801,-14.064242,7.927529,-3.2025616,-0.649626,10.694297,0.10625766,17.071722,-34.727245,46.586315,9.742206,3.8849115,-0.61900777,-3.4609249,-11.549266,22.964447,54.611797,-8.974944,-4.2928467,-1.8194953
86,2.21596360206604,0.04780350625514984,77.75031280517578,1.0349026741796374,-0.8160256545498406,179.15149245377654,0.37266427,2.5545948,6.3796506,10.617871,-9.315459,-3.1625242,-0.046368126,-10.633272,-18.688906,15.372094,-14.068868,7.914399,-3.2055879,-0.64804363,10.682189,0.11088358,17.068865,-34.725647,46.586628,9.733072,3.8825812,-0.6146936,-3.4593158,-11.542037,22.967783,54.62109,-8.940078,-4.294553,-1.8245473
87,2.218719959259033,0.047792620956897736,77.7516860961914,1.0323069383808237,-0.8136933067736566,179.14788837948763,0.3602597,2.5602338,6.3960857,10.636601,-9.322272,-3.155448,-0.05751861,-10.632802,-18.689726,15.38419,-14.0749235,7.8988514,-3.2072334,-0.64456165,10.672275,0.114436306,17.067543,-34.72647,46.584827,9.722437,3.879689,-0.60958433,-3.4555197,-11.538402,22.969519,54.624836,-8.904948,-4.2961183,-1.8279797
88,2.218594789505005,0.048391636461019516,77.7508773803711,1.0305246527592804,-0.8155301202387927,179.14317066279668,0.35554755,2.5641713,6.411091,10.648701,-9.326782,-3.1520026,-0.065136686,-10.632801,-18.685328,15.39666,-14.079703,7.8875046,-3.2077255,-0.6415775,10.66844,0.115915604,17.066786,-34.72807,46.584816,9.716243,3.877158,-0.6031853,-3.4533107,-11.5361805,22.970818,54.626408,-8.880243,-4.2975554,-1.827582
89,2.224705696105957,0.04695979133248329,77.74957275390625,1.0285923780676416,-0.823588285268938,179.13601532996194,0.36084044,2.5673654,6.4257917,10.654538,-9.3308325,-3.1553261,-0.06896421,-10.631729,-18.670822,15.410962,-14.082838,7.881022,-3.2041688,-0.6397513,10.6694565,0.1113536,17.06397,-34.737007,46.5957,9.71582,3.8751328,-0.5909071,-3.4554539,-11.528114,22.972677,54.63335,-8.868733,-4.299277,-1.8238239
90,2.2317352294921875,0.04293856397271156,77.74828338623047,1.026451627125118,-0.8359014812545117,179.12736670526084,0.374302,2.5703375,6.441291,10.653386,-9.333262,-3.1627026,-0.06982505,-10.629584,-18.649973,15.426135,-14.084655,7.876284,-3.198139,-0.63702375,10.678271,0.10237175,17.061563,-34.747726,46.608353,9.720612,3.8732708,-0.57658386,-3.4597633,-11.521637,22.970455,54.637665,-8.867769,-4.3010545,-1.8154298
91,2.2321290969848633,0.042550232261419296,77.74714660644531,1.0257526460085897,-0.848264359154447,179.11887022105253,0.3872616,2.5713081,6.4545994,10.652958,-9.335175,-3.1691818,-0.071444385,-10.629788,-18.630054,15.44332,-14.087422,7.874022,-3.1939135,-0.634653,10.689137,0.09678831,17.060452,-34.753555,46.616066,9.726388,3.8710086,-0.5654059,-3.462297,-11.518803,22.969185,54.63537,-8.869801,-4.3025208,-1.804632
92,2.236215114593506,0.0404215082526207,77.74838256835938,1.0287387031426622,-0.8570393554380226,179.1119770559014,0.39565766,2.5676208,6.4628983,10.652013,-9.333193,-3.1698022,-0.07477048,-10.635215,-18.618578,15.458942,-14.090238,7.874925,-3.1907256,-0.6365994,10.694156,0.09208657,17.05978,-34.75696,46.624527,9.724353,3.8681712,-0.5603302,-3.46327,-11.517236,22.967716,54.63253,-8.870928,-4.303363,-1.7953706
93,2.2367360591888428,0.03795270249247551,77.75025939941406,1.0389188077092355,-0.8606063259833968,179.10631126285446,0.39655828,2.5550768,6.4648128,10.653929,-9.326674,-3.1597357,-0.08338925,-10.651623,-18.61837,15.477671,-14.095864,7.881727,-3.1848865,-0.64771974,10.690678,0.08586262,17.05786,-34.758152,46.638157,9.707572,3.8624423,-0.5633497,-3.4587412,-11.513728,22.962208,54.624596,-8.871175,-4.302532,-1.7871501
94,2.2435030937194824,0.038371238857507706,77.75008392333984,1.053553304181801,-0.8611227667972502,179.10158278888272,0.3924269,2.536998,6.461649,10.65792,-9.316879,-3.142916,-0.093860514,-10.674538,-18.626097,15.496047,-14.102132,7.893094,-3.1820636,-0.6633487,10.682486,0.085367575,17.056091,-34.751423,46.648193,9.68308,3.855336,-0.5725922,-3.4536154,-11.51107,22.958523,54.61441,-8.87189,-4.3006196,-1.7790488
95,2.247723340988159,0.03919307515025139,77.7471694946289,1.067460412077567,-0.860513669832923,179.09868228304234,0.3874823,2.5194712,6.4560714,10.660065,-9.306493,-3.1270545,-0.1045979,-10.696683,-18.6363,15.513619,-14.108248,7.904092,-3.1838536,-0.6788354,10.673979,0.08450732,17.05385,-34.73993,46.658638,9.665164,3.8495994,-0.586598,-3.4505448,-11.507939,22.956554,54.606304,-8.874544,-4.299051,-1.7717593
96,2.2506823539733887,0.03450292348861694,77.74982452392578,1.0744442746341913,-0.8607291308994857,179.09875225632427,0.38117924,2.510189,6.449457,10.665011,-9.30224,-3.1200478,-0.113824494,-10.709479,-18.644253,15.529587,-14.113706,7.90966,-3.1909323,-0.6866907,10.668809,0.08284438,17.052277,-34.73266,46.66627,9.663037,3.849758,-0.60075045,-3.4525752,-11.5054,22.95768,54.606483,-8.877486,-4.299496,-1.7671283
97,2.254591226577759,0.037304703146219254,77.74895477294922,1.0701182296940162,-0.8618062977659476,179.10314464748788,0.37622678,2.5144393,6.442007,10.667205,-9.30532,-3.1277142,-0.11818045,-10.706062,-18.649818,15.536996,-14.116298,7.9061832,-3.203508,-0.6824095,10.667517,0.07873579,17.051592,-34.733406,46.671112,9.687773,3.8594878,-0.61635274,-3.4598722,-11.5034895,22.961878,54.61842,-8.880565,-4.304446,-1.7652799
98,2.2619433403015137,0.03448503091931343,77.74612426757812,1.0581081688102651,-0.8626437551978147,179.11090857987645,0.36891222,2.5276554,6.4325213,10.672048,-9.31493,-3.1446717,-0.12017117,-10.692162,-18.655079,15.5397005,-14.117506,7.89705,-3.2202907,-0.6701015,10.667311,0.072784565,17.051495,-34.741222,46.674946,9.728364,3.8758478,-0.63351035,-3.4715576,-11.500493,22.969751,54.640224,-8.882754,-4.3124456,-1.7661848
99,2.2658729553222656,0.03532896935939789,77.74614715576172,1.0468061976794654,-0.8643737394000972,179.1196023244894,0.3636624,2.5400152,6.4227033,10.673467,-9.322001,-3.161727,-0.12363865,-10.679672,-18.658897,15.546625,-14.119292,7.887995,-3.2378235,-0.6586181,10.670374,0.06529575,17.052174,-34.749447,46.67707,9.770461,3.8925903,-0.6502602,-3.4800148,-11.498582,22.97449,54.65562,-8.887833,-4.317966,-1.7681907
100,2.271772623062134,0.03772950917482376,77.74520111083984,1.043454231965186,-0.867556961106275,179.12695876258962,0.35874325,2.543399,6.413904,10.676721,-9.322904,-3.1698925,-0.13247946,-10.678753,-18.660303,15.566721,-14.123729,7.884421,-3.2543988,-0.6542253,10.675183,0.056301672,17.053108,-34.756523,46.67904,9.792764,3.9043772,-0.66286236,-3.4903235,-11.497082,22.976688,54.667194,-8.891609,-4.318674,-1.7719525
101,2.2755088806152344,0.03460186719894409,77.749267578125,1.0537509650016554,-0.8744220740172335,179.13254355656798,0.35776576,2.530851,6.4055877,10.678956,-9.311468,-3.161554,-0.14669478,-10.697643,-18.658007,15.603993,-14.129481,7.8916063,-3.2690318,-0.6633321,10.684706,0.045441505,17.0541,-34.76221,46.67953,9.783791,3.9095428,-0.6683595,-3.5006902,-11.495782,22.975231,54.668766,-8.894942,-4.309499,-1.7810144
102,2.2818069458007812,0.03668951243162155,77.74736022949219,1.072803819061186,-0.8838102503430343,179.1375029889295,0.35958806,2.50791,6.397715,10.680068,-9.291973,-3.143205,-0.16505013,-10.729335,-18.652702,15.654266,-14.136693,7.9054236,-3.2829924,-0.6811983,10.698796,0.031435784,17.056377,-34.767723,46.679276,9.755989,3.910844,-0.6698052,-3.5101507,-11.493019,22.968838,54.661884,-8.899664,-4.2934165,-1.7934774
103,2.2898526191711426,0.03787463158369064,77.74801635742188,1.0930483359446757,-0.8920641756616677,179.14165384900383,0.36258474,2.4840322,6.391565,10.675334,-9.269093,-3.126816,-0.1885931,-10.762849,-18.64594,15.711586,-14.147661,7.917431,-3.2926898,-0.70120144,10.714644,0.011462375,17.059893,-34.77531,46.681877,9.727867,3.9095054,-0.67109585,-3.5195227,-11.489172,22.955685,54.651104,-8.906944,-4.2769628,-1.8023242
104,2.3013603687286377,0.03982604667544365,77.74907684326172,1.1046048625514369,-0.8952725854533788,179.1455902644442,0.35952437,2.4717717,6.3874207,10.671316,-9.253332,-3.1248202,-0.21602151,-10.783999,-18.640978,15.765306,-14.16253,7.91885,-3.2938483,-0.714451,10.72617,-0.013990595,17.067986,-34.792442,46.68917,9.715935,3.9069283,-0.6762515,-3.5266185,-11.481293,22.931883,54.64137,-8.918426,-4.2667284,-1.7997261
105,2.3076484203338623,0.04416631534695625,77.74455261230469,1.1028494202863208,-0.8923811592067568,179.14831783550088,0.35180935,2.4763172,6.3880663,10.662705,-9.245678,-3.1444218,-0.24691184,-10.786422,-18.63751,15.811722,-14.182726,7.9038186,-3.301843,-0.713342,10.729985,-0.03359616,17.07532,-34.803833,46.69902,9.733592,3.9015245,-0.68772835,-3.5364394,-11.475534,22.920225,54.635826,-8.926034,-4.2645974,-1.7830118
106,2.3175089359283447,0.048540499061346054,77.73974609375,1.0931196747764058,-0.8858731076026304,179.15046177206335,0.341773,2.4910786,6.391918,10.650374,-9.242522,-3.1778176,-0.28025547,-10.7774105,-18.63519,15.854287,-14.206551,7.878061,-3.3115132,-0.70501477,10.730236,-0.05089437,17.085375,-34.81453,46.70877,9.767229,3.8933988,-0.7029727,-3.5479033,-11.469322,22.9114,54.63167,-8.933356,-4.266898,-1.7564436
107,2.3273284435272217,0.050922900438308716,77.74349212646484,1.08282820213609,-0.8760193207808908,179.15268609279997,0.32684407,2.507966,6.394918,10.639671,-9.240874,-3.214377,-0.3198838,-10.767324,-18.633152,15.901619,-14.233049,7.850732,-3.322811,-0.693712,10.727232,-0.06947737,17.091705,-34.821842,46.722115,9.806091,3.886292,-0.71686673,-3.5595026,-11.466058,22.90775,54.62624,-8.938338,-4.2704873,-1.7280157
108,2.3389432430267334,0.05706502124667168,77.73934936523438,1.0794882705964473,-0.8619370397184845,179.15640568568128,0.30287018,2.5188267,6.3923078,10.636909,-9.237885,-3.2435598,-0.36921123,-10.765893,-18.631548,15.959525,-14.259767,7.830814,-3.3254814,-0.69279736,10.721787,-0.102375194,17.103819,-34.83824,46.745304,9.830031,3.882636,-0.72475183,-3.573124,-11.460302,22.899527,54.621635,-8.941073,-4.2717557,-1.7057765
109,2.3485171794891357,0.06649115681648254,77.73798370361328,1.082875991101553,-0.8434848748861136,179.1634820700814,0.26506314,2.5239367,6.378025,10.650737,-9.235302,-3.2607908,-0.42195,-10.771487,-18.63465,16.015188,-14.278807,7.822614,-3.3288448,-0.6997177,10.711262,-0.13502741,17.118189,-34.853912,46.767353,9.847115,3.8872418,-0.72317654,-3.584339,-11.454175,22.896955,54.61135,-8.940982,-4.26583,-1.6939942
110,2.3570547103881836,0.07536096125841141,77.73765563964844,1.0903091617664806,-0.8204367559120943,179.17220182204824,0.21759014,2.5263076,6.356582,10.672938,-9.232352,-3.2722604,-0.4795502,-10.780666,-18.640211,16.069988,-14.293405,7.820737,-3.3289866,-0.712741,10.696715,-0.16989838,17.139898,-34.874805,46.787315,9.857094,3.898557,-0.7150014,-3.5960193,-11.4461565,22.897564,54.59926,-8.93694,-4.2565026,-1.6884252
111,2.371100664138794,0.08862339705228806,77.73667907714844,1.1007921948308663,-0.7968683718924078,179.181550404654,0.16756764,2.5266633,6.3358126,10.698168,-9.23028,-3.2843585,-0.54727256,-10.795621,-18.643915,16.145367,-14.316648,7.8191805,-3.3313386,-0.72825134,10.682812,-0.206529,17.160635,-34.888626,46.810165,9.861013,3.9093213,-0.7045394,-3.6084578,-11.439165,22.901455,54.587387,-8.9340105,-4.2489123,-1.6857603
112,2.380061626434326,0.10151495039463043,77.73583221435547,1.113933915778775,-0.7771293316781387,179.19004697588724,0.13077398,2.524087,6.324269,10.70261,-9.219577,-3.3032763,-0.6275383,-10.817907,-18.641516,16.255724,-14.357689,7.8120966,-3.3334422,-0.74818885,10.675213,-0.23624657,17.190153,-34.89607,46.821297,9.851277,3.9169643,-0.6939499,-3.6237502,-11.429809,22.90311,54.581963,-8.9377985,-4.2490582,-1.6854404
113,2.393303155899048,0.11625536531209946,77.73627471923828,1.127757150659572,-0.7625358913007838,179.19841078645882,0.10890981,2.520187,6.3263927,10.6858425,-9.202586,-3.3310146,-0.7201429,-10.845857,-18.631609,16.405018,-14.420907,7.7953577,-3.3380957,-0.76669663,10.673877,-0.26718867,17.216566,-34.893238,46.836292,9.817991,3.9175339,-0.6801267,-3.6393428,-11.42124,22.901896,54.583508,-8.953687,-4.2609205,-1.6885973
114,2.4040064811706543,0.1320025473833084,77.73159790039062,1.1429536648123024,-0.750726189249377,179.20697734348585,0.09560017,2.5146997,6.3369293,10.655882,-9.181105,-3.364112,-0.82371974,-10.87932,-18.616562,16.584555,-14.500129,7.7730083,-3.3432133,-0.78503686,10.674983,-0.30382153,17.237385,-34.884567,46.861908,9.766699,3.913236,-0.66222215,-3.6553206,-11.414548,22.899002,54.591194,-8.977352,-4.2807007,-1.6954187
115,2.419555902481079,0.14972072839736938,77.72544860839844,1.1629950345431541,-0.7404975703111738,179.2139911967001,0.0874936,2.5053878,6.349303,10.617823,-9.154684,-3.4006321,-0.94049233,-10.921283,-18.597546,16.794056,-14.591279,7.7514496,-3.3447893,-0.8057291,10.678746,-0.34286347,17.251444,-34.87494,46.88902,9.720944,3.9099174,-0.6459248,-3.6710203,-11.410267,22.896023,54.59927,-8.998513,-4.301382,-1.7021986
116,2.4350128173828125,0.17017722129821777,77.71866607666016,1.1918239495757796,-0.7303741502824894,179.2173735240794,0.08222343,2.4891868,6.3574905,10.574037,-9.121833,-3.4386258,-1.0741056,-10.975987,-18.574833,17.036215,-14.691851,7.7371364,-3.3405845,-0.847922,10.6917515,-0.3688423,17.298288,-34.860588,46.88224,9.698863,3.9081018,-0.6452711,-3.6935916,-11.395498,22.893988,54.603092,-9.008173,-4.317618,-1.7033575
117,2.4518883228302,0.19315414130687714,77.71304321289062,1.2320852089336394,-0.7181500889173488,179.21479374725257,0.07562089,2.463504,6.3594337,10.529375,-9.083453,-3.4773045,-1.2316715,-11.04808,-18.547356,17.318727,-14.80251,7.735834,-3.32212,-0.9006496,10.70292,-0.41775754,17.326668,-34.854023,46.903355,9.722923,3.905601,-0.66218793,-3.7095068,-11.387455,22.892532,54.59307,-8.995797,-4.322754,-1.6980008
118,2.4683351516723633,0.2201646864414215,77.70601654052734,1.2818365255951387,-0.7053670224517851,179.20781540665672,0.07281154,2.4296575,6.3589826,10.475583,-9.037062,-3.5177772,-1.4094671,-11.134459,-18.515013,17.638777,-14.92482,7.743187,-3.2964294,-0.9672722,10.719462,-0.45765948,17.369177,-34.845352,46.901886,9.775822,3.9060974,-0.69354355,-3.7290065,-11.37756,22.890009,54.577705,-8.972948,-4.322315,-1.6884625
119,2.486309766769409,0.2525264322757721,77.69757080078125,1.3342866226044763,-0.6957404213438617,179.20107328164497,0.07311686,2.3955445,6.3563156,10.420546,-8.988942,-3.5611422,-1.5923364,-11.22354,-18.481623,17.976433,-15.053159,7.750027,-3.2651753,-1.0329502,10.736708,-0.52181923,17.387608,-34.842556,46.934597,9.830131,3.9049563,-0.7201194,-3.743407,-11.374033,22.89071,54.561962,-8.942347,-4.323425,-1.6760892
120,2.5060036182403564,0.28694409132003784,77.68988800048828,1.3838061732259228,-0.6930146182156264,179.19904825580383,0.08034262,2.367247,6.3522816,10.363626,-8.941152,-3.6085758,-1.7680717,-11.306139,-18.449963,18.317717,-15.183903,7.7468204,-3.2341216,-1.1099741,10.76979,-0.5592069,17.457697,-34.842804,46.91068,9.843745,3.9075215,-0.73316413,-3.760109,-11.360426,22.89236,54.55005,-8.917326,-4.3355007,-1.661614
121,2.5286505222320557,0.3221532702445984,77.67961120605469,1.4302991051444425,-0.6989830880765882,179.2020718986889,0.09474277,2.3452199,6.3476443,10.305717,-8.894471,-3.6599567,-1.9350774,-11.38172,-18.418766,18.662607,-15.318547,7.730909,-3.2041366,-1.178706,10.806995,-0.62244314,17.49776,-34.84961,46.925373,9.812104,3.9105978,-0.713266,-3.773098,-11.352842,22.89784,54.550304,-8.891764,-4.3664765,-1.6442189
122,2.548854112625122,0.3651564121246338,77.67093658447266,1.4769117553473452,-0.7111405637254663,179.20794522349303,0.11628079,2.3256712,6.341911,10.243739,-8.846418,-3.7148094,-2.1031876,-11.45649,-18.386322,19.024857,-15.459364,7.7071586,-3.172191,-1.2594963,10.85793,-0.66633993,17.578821,-34.860855,46.895664,9.742283,3.9174137,-0.67791927,-3.7873814,-11.336877,22.90255,54.553276,-8.866131,-4.4110565,-1.6232958
123,2.57234787940979,0.4123363494873047,77.66036224365234,1.5200716911850984,-0.727959856664479,179.2176755903131,0.1414598,2.3125353,6.333538,10.183922,-8.799765,-3.7734663,-2.2602096,-11.523113,-18.35873,19.377634,-15.597875,7.677538,-3.140555,-1.3234143,10.904236,-0.7532608,17.59795,-34.87322,46.940376,9.682227,3.920305,-0.63633174,-3.799497,-11.333517,22.915846,54.568554,-8.8440895,-4.4512234,-1.6025778
124,2.5903263092041016,0.46260958909988403,77.65589141845703,1.5580799073661877,-0.7473975560147139,179.23221616239277,0.16905797,2.3075564,6.3210115,10.127141,-8.754812,-3.836387,-2.3958046,-11.576889,-18.342026,19.697035,-15.726054,7.643967,-3.1017394,-1.3992699,10.958622,-0.8069649,17.685175,-34.904976,46.91847,9.622278,3.9255648,-0.6122609,-3.8102562,-11.315165,22.940422,54.58286,-8.828949,-4.472298,-1.5894362
125,2.611210823059082,0.513019859790802,77.64823150634766,1.5887040185847372,-0.7718808752490508,179.25031481203092,0.20203607,2.3130968,6.306804,10.075451,-8.713552,-3.9075062,-2.508091,-11.61582,-18.335817,19.983791,-15.842858,7.605708,-3.0624015,-1.4519602,11.012012,-0.90346014,17.707716,-34.93102,46.97039,9.618234,3.923659,-0.60969305,-3.823947,-11.310712,22.974358,54.611862,-8.830714,-4.4617305,-1.5827991
126,2.6265370845794678,0.5688599944114685,77.64089965820312,1.6148606403772,-0.8009931259425573,179.27193694260814,0.24126676,2.3261719,6.291236,10.023949,-8.673447,-3.9854293,-2.6039956,-11.6447,-18.337194,20.251034,-15.953831,7.561975,-3.0233378,-1.5233625,11.074755,-0.94882345,17.816986,-34.975002,46.93329,9.603611,3.9258904,-0.62077534,-3.8441114,-11.284654,23.03762,54.64936,-8.829745,-4.430903,-1.5908746
127,2.645766496658325,0.6294562220573425,77.6353530883789,1.6370487777627722,-0.8302954811878432,179.29988737241086,0.27820924,2.3460948,6.267961,9.976609,-8.634136,-4.0621476,-2.6814592,-11.661966,-18.349543,20.486038,-16.05581,7.5149674,-2.9865775,-1.5886115,11.134859,-1.0039029,17.91357,-35.01258,46.91379,9.600313,3.9260097,-0.63717103,-3.8643732,-11.259898,23.104362,54.691475,-8.840515,-4.397995,-1.593318
128,2.6587347984313965,0.6973478198051453,77.63077545166016,1.6563266279637041,-0.8550374949606206,179.33698022023617,0.3039774,2.3716745,6.2311935,9.935867,-8.594059,-4.129751,-2.739254,-11.666671,-18.37577,20.676708,-16.146019,7.4666977,-2.9492974,-1.6444895,11.177612,-1.085164,17.977757,-35.057228,46.942524,9.586814,3.9247396,-0.64390033,-3.8717966,-11.242835,23.173851,54.729553,-8.855728,-4.3796206,-1.5831152
129,2.6753454208374023,0.7678322196006775,77.6248779296875,1.6747504294929456,-0.8733819861376142,179.385683725292,0.3124334,2.4007468,6.177783,9.910244,-8.556927,-4.1823134,-2.7778456,-11.661554,-18.418278,20.822628,-16.225441,7.4190936,-2.9210043,-1.7141976,11.208849,-1.1387954,18.088583,-35.106224,46.930813,9.539438,3.9274187,-0.6434954,-3.8773932,-11.2108965,23.255999,54.770477,-8.873888,-4.3833566,-1.5578157
130,2.6881930828094482,0.8394708037376404,77.6226577758789,1.690911719223943,-0.8883138314871222,179.4438958626197,0.31099775,2.4347582,6.111475,9.892211,-8.519899,-4.225311,-2.7969987,-11.645825,-18.474993,20.928532,-16.294672,7.3705573,-2.8945243,-1.780992,11.227231,-1.2056842,18.188858,-35.164368,46.94313,9.479032,3.9299486,-0.63703674,-3.8738723,-11.180112,23.344934,54.812,-8.897169,-4.398417,-1.5211985
131,2.6971068382263184,0.9208438992500305,77.62185668945312,1.702277485015065,-0.9008012391302015,179.50761145861347,0.30470753,2.476712,6.036369,9.875842,-8.481746,-4.2681084,-2.7986953,-11.616011,-18.54159,20.996828,-16.353777,7.3176203,-2.8680186,-1.8457366,11.239233,-1.2668701,18.295965,-35.215405,46.951557,9.418654,3.9318166,-0.6311616,-3.8689463,-11.146386,23.437141,54.84974,-8.927173,-4.418416,-1.4802127
132,2.710365056991577,0.9998945593833923,77.62264251708984,1.7059767847752656,-0.9118475625182391,179.57282762999915,0.30116025,2.5295784,5.956475,9.850027,-8.4385195,-4.320139,-2.7848394,-11.56856,-18.61385,21.029753,-16.402916,7.256938,-2.8373127,-1.9007539,11.248343,-1.3232392,18.398027,-35.244946,46.96056,9.377591,3.9307745,-0.6303783,-3.8631182,-11.115124,23.525845,54.873978,-8.966325,-4.436509,-1.4404427
133,2.718527317047119,1.0902522802352905,77.62305450439453,1.7008428146172445,-0.9215135533836497,179.63799277788374,0.303847,2.5947871,5.8714824,9.807845,-8.386951,-4.3832808,-2.7533782,-11.500369,-18.68935,21.02209,-16.441483,7.187148,-2.7986896,-1.9446832,11.255663,-1.3782133,18.493822,-35.251373,46.97378,9.357272,3.9229202,-0.6329652,-3.8569765,-11.089806,23.619658,54.88285,-9.023186,-4.4555206,-1.4028612
134,2.7218618392944336,1.1741429567337036,77.62505340576172,1.6886247949518585,-0.9292260122717491,179.70540742067192,0.3043241,2.6706977,5.7794814,9.76403,-8.333885,-4.452742,-2.7042983,-11.413983,-18.770752,20.974495,-16.469765,7.1102614,-2.7543676,-1.9777505,11.258755,-1.4359816,18.580017,-35.242584,46.996693,9.350197,3.9100602,-0.63694113,-3.8451004,-11.070907,23.717821,54.875477,-9.093238,-4.477244,-1.3638574
135,2.738696575164795,1.2663277387619019,77.62596893310547,1.6702292568779824,-0.9352487540306309,179.77682361984358,0.30350998,2.7557638,5.682581,9.717684,-8.27848,-4.5279408,-2.641154,-11.313704,-18.861513,20.896816,-16.488115,7.027898,-2.7124884,-2.0030053,11.257641,-1.4838136,18.663877,-35.214867,47.014946,9.357853,3.8995337,-0.6477081,-3.8323557,-11.056061,23.804781,54.857487,-9.158483,-4.494044,-1.3237262
136,2.7480061054229736,1.3619773387908936,77.63146209716797,1.6464772056042603,-0.9398073910388094,179.8539152674448,0.29605636,2.8488066,5.58274,9.680827,-8.226929,-4.608131,-2.5677948,-11.204121,-18.965158,20.799688,-16.497726,6.941749,-2.6529202,-2.001559,11.241285,-1.5727165,18.675875,-35.202644,47.107254,9.387798,3.896137,-0.65998137,-3.8043516,-11.05427,23.826935,54.833183,-9.211209,-4.499041,-1.2772348
137,2.755669593811035,1.4631668329238892,77.635498046875,1.6171509820539316,-0.9454940073916079,179.93810543542955,0.28672618,2.950636,5.4798565,9.651751,-8.179584,-4.6956973,-2.4769995,-11.084172,-19.086805,20.677603,-16.496159,6.851677,-2.6432385,-2.0183728,11.228591,-1.5746961,18.763868,-35.123493,47.096046,9.491346,3.913573,-0.7022921,-3.7913408,-11.0388775,23.891315,54.79491,-9.217708,-4.4835615,-1.2392588
138,2.7620737552642822,1.5616047382354736,77.63892364501953,1.5817031884767514,-0.9510659695591231,-179.97193061562734,0.27610463,3.0614946,5.3733163,9.625408,-8.133098,-4.7900596,-2.3697455,-10.9520035,-19.223051,20.528128,-16.483768,6.757165,-2.6239245,-2.023837,11.207726,-1.5725819,18.83865,-35.048004,47.08974,9.651975,3.9445634,-0.7542383,-3.775421,-11.024232,23.917133,54.754772,-9.214921,-4.4570565,-1.1964806
139,2.770085334777832,1.6607844829559326,77.6452865600586,1.5422253126099512,-0.9516787872017726,-179.87812119657275,0.25352797,3.1789777,5.263059,9.608994,-8.089881,-4.886598,-2.2611127,-10.81101,-19.364767,20.36297,-16.464891,6.658927,-2.5885296,-2.005469,11.16404,-1.6139,18.848616,-35.0029,47.161552,9.728195,3.9701061,-0.790663,-3.7423415,-11.02176,23.895132,54.71009,-9.187493,-4.4241624,-1.157912
140,2.7744948863983154,1.7685049772262573,77.65095520019531,1.5011893000642307,-0.943473126511318,-179.78220245130876,0.21114747,3.3003829,5.1492167,9.605185,-8.048768,-4.981117,-2.1647243,-10.664178,-19.50345,20.19466,-16.444256,6.557109,-2.5902898,-1.9971154,11.156544,-1.5829358,18.925306,-34.824474,47.112892,9.654195,3.9708881,-0.8529905,-3.7381713,-10.998393,23.785099,54.642124,-9.189093,-4.3969665,-1.1031717
141,2.782383441925049,1.8740732669830322,77.65713500976562,1.459113271231828,-0.9217260028759712,-179.68608221146988,0.14272492,3.425622,5.03385,9.614249,-8.009573,-5.0710135,-2.0889065,-10.511388,-19.633547,20.024818,-16.422302,6.4526525,-2.5833645,-1.977881,11.136571,-1.5600171,18.992418,-34.667217,47.06651,9.43621,3.9617345,-0.84963465,-3.7285607,-10.96939,23.583326,54.56462,-9.2117195,-4.368997,-1.0418475
142,2.798487424850464,1.9809238910675049,77.66016387939453,1.414374826635252,-0.8902218998999756,-179.58826272533338,0.053365488,3.5562787,4.915981,9.637128,-7.97406,-5.1591134,-2.0238833,-10.35061,-19.761204,19.847141,-16.397007,6.345085,-2.57678,-1.9477156,11.113907,-1.540878,19.046688,-34.49503,47.019623,9.129293,3.9442372,-0.8120362,-3.716823,-10.936065,23.299795,54.472378,-9.2541485,-4.3385887,-0.9708816
143,2.818281888961792,2.0947988033294678,77.66194915771484,1.3675475876926135,-0.8543459163048429,-179.48598579673907,-0.047329936,3.6899843,4.791796,9.666504,-7.937773,-5.248754,-1.9626597,-10.185421,-19.893192,19.66516,-16.369532,6.233368,-2.5855212,-1.8998027,11.083638,-1.5201505,19.066599,-34.273304,47.00128,8.545165,3.8911684,-0.82296526,-3.70037,-10.917909,22.996899,54.372486,-9.225637,-4.3117833,-0.91791624
144,2.835484027862549,2.2088489532470703,77.66896057128906,1.319588897155884,-0.8211229072713737,-179.37647814996322,-0.15225856,3.8240976,4.6574063,9.7036,-7.901545,-5.3434014,-1.8974811,-10.020243,-20.035847,19.483864,-16.342497,6.1162033,-2.5763571,-1.8587896,11.08649,-1.4773322,19.120226,-33.950905,46.944466,7.525765,3.7802253,-0.99901193,-3.708626,-10.8654175,22.588484,54.291473,-9.126156,-4.307185,-0.8810288
145,2.8517982959747314,2.3188204765319824,77.67575073242188,1.2695345193892988,-0.7913130500509159,-179.25601703908436,-0.26184952,3.958459,4.5080185,9.751061,-7.866976,-5.4443893,-1.8260208,-9.8559065,-20.19496,19.305302,-16.319157,5.990982,-2.5965028,-1.809584,11.091941,-1.3972149,19.164913,-33.49564,46.89636,5.8631873,3.5955925,-1.3762529,-3.7269485,-10.81303,22.179876,54.228718,-8.838183,-4.3244433,-0.8956893
146,2.8775038719177246,2.4373114109039307,77.67636108398438,1.2172376534455867,-0.7620517660476217,-179.1270529250443,-0.37724778,4.094008,4.3469553,9.804863,-7.832139,-5.5497546,-1.7509538,-9.6897955,-20.365854,19.123665,-16.295935,5.8591075,-2.623789,-1.7439322,11.106181,-1.3074336,19.18821,-32.94633,46.86388,3.7044542,3.3665817,-1.9049578,-3.736946,-10.773914,21.725414,54.154167,-8.422834,-4.3585196,-0.93792284
147,2.898160219192505,2.551023006439209,77.6805191040039,1.1640469687606698,-0.7313314084959285,-178.99617297004968,-0.4993886,4.231101,4.182282,9.86289,-7.7947807,-5.6579313,-1.6791525,-9.521209,-20.53915,18.941124,-16.268805,5.7254834,-2.6543176,-1.6705413,11.126583,-1.2080874,19.204048,-32.35573,46.83082,1.3492754,3.137855,-2.5102563,-3.7572532,-10.738104,21.260092,54.08193,-7.96271,-4.3960857,-0.99528134
148,2.9209136962890625,2.6704587936401367,77.68412017822266,1.1112339637354058,-0.6977339240845275,-178.86995296267557,-0.62670857,4.3698683,4.0224705,9.919012,-7.750528,-5.767424,-1.617308,-9.350251,-20.705463,18.76083,-16.234425,5.594993,-2.7079952,-1.6045073,11.158432,-1.0735813,19.235867,-31.726425,46.754868,-0.8811355,2.9437256,-3.1231537,-3.838436,-10.679254,20.826822,54.049465,-7.553172,-4.425074,-1.0532907
149,2.9501144886016846,2.7940196990966797,77.68928527832031,1.059693657275001,-0.660556815271398,-178.74845056012762,-0.76135206,4.509367,3.8661792,9.975594,-7.6970134,-5.8787217,-1.5668958,-9.177379,-20.863562,18.582392,-16.189747,5.4701114,-2.7327008,-1.5285846,11.190847,-0.96176153,19.251925,-31.136578,46.695457,-3.1304262,2.785804,-3.776078,-3.9063554,-10.646027,20.398865,53.984097,-7.1571736,-4.435148,-1.1106725
150,2.976605176925659,2.909135341644287,77.69380950927734,1.008629176236201,-0.6211089427476448,-178.62872925684164,-0.90149134,4.649547,3.7102742,10.0314,-7.635169,-5.992396,-1.5242034,-9.002737,-21.018145,18.404776,-16.13738,5.347784,-2.7702298,-1.4517083,11.235762,-0.82604724,19.270288,-30.49162,46.610798,-5.468746,2.6574793,-4.502555,-4.006008,-10.612615,19.980627,53.925323,-6.7587233,-4.4370093,-1.1723365
151,3.015026569366455,3.030428886413574,77.69776916503906,0.9561297755615575,-0.578626747995142,-178.51289174198254,-1.0482488,4.793292,3.5592766,10.090114,-7.57462,-6.106703,-1.4893041,-8.824374,-21.168741,18.22777,-16.080969,5.2246675,-2.8145757,-1.3676904,11.283961,-0.68292445,19.291376,-29.876604,46.51043,-7.6022334,2.551406,-5.158909,-4.1246696,-10.583826,19.59425,53.87958,-6.4029193,-4.4392567,-1.2394704
152,3.0530905723571777,3.153392791748047,77.70128631591797,0.8997417931222509,-0.5324491345071911,-178.4031378140199,-1.2019054,4.9439964,3.417659,10.152856,-7.523375,-6.219968,-1.4617449,-8.639762,-21.314972,18.049492,-16.023188,5.0975003,-2.8420815,-1.2633163,11.325104,-0.5712769,19.30154,-29.400187,46.426506,-9.237652,2.4411085,-5.597585,-4.2344646,-10.572561,19.241383,53.842834,-6.1375866,-4.4505086,-1.3102598
153,3.0923116207122803,3.2704484462738037,77.70270538330078,0.8376754824838641,-0.4823506867366778,-178.30032800801112,-1.3598713,5.1043153,3.2897604,10.215913,-7.4853334,-6.3318057,-1.4405355,-8.446742,-21.45656,17.868076,-15.963695,4.966083,-2.8907819,-1.1422756,11.372745,-0.43777317,19.315512,-28.985176,46.300728,-10.305505,2.2957773,-5.796882,-4.3769107,-10.565163,18.933317,53.8433,-6.004911,-4.4808407,-1.375374
154,3.13226056098938,3.3944714069366455,77.70345306396484,0.771408831352871,-0.42859783865165896,-178.20331167794401,-1.5267538,5.272536,3.171628,10.287496,-7.459736,-6.443191,-1.429863,-8.248317,-21.593147,17.692602,-15.904202,4.831882,-2.9447594,-1.0084329,11.420678,-0.29445952,19.33352,-28.639343,46.15082,-10.972709,2.1190696,-5.821359,-4.5361304,-10.562864,18.66127,53.86676,-5.964193,-4.522219,-1.4418766
155,3.1678664684295654,3.517805337905884,77.70602416992188,0.7046283635522207,-0.3722507861356839,-178.11091472962852,-1.6971686,5.442894,3.0574849,10.3582325,-7.432853,-6.554267,-1.4232491,-8.046065,-21.7266,17.510153,-15.840681,4.6941643,-2.9981027,-0.8656989,11.469457,-0.16824251,19.355947,-28.388992,46.00004,-11.211593,1.940608,-5.69817,-4.711315,-10.567766,18.434544,53.90771,-5.9767885,-4.5601487,-1.5163972
156,3.2140889167785645,3.6480541229248047,77.70835876464844,0.6408977827240577,-0.314237523276094,-178.02215134359813,-1.871644,5.610264,2.9410439,10.429057,-7.396409,-6.6651235,-1.4217738,-7.8443975,-21.857313,17.324257,-15.77281,4.552219,-3.0492084,-0.71692216,11.506986,-0.09255032,19.371223,-28.271685,45.894714,-11.001606,1.7911594,-5.446322,-4.899471,-10.575584,18.283371,53.9704,-5.994112,-4.5787215,-1.6147742
157,3.26224946975708,3.7722322940826416,77.71248626708984,0.5816381658793263,-0.25519588994196446,-177.93990493561745,-2.0482879,5.773241,2.8249505,10.498639,-7.3478856,-6.7743235,-1.4270489,-7.6443253,-21.984335,17.137161,-15.700902,4.4039702,-3.0826538,-0.5643856,11.582873,-0.032098033,19.436506,-28.255857,45.72488,-10.22905,1.6813949,-5.0512366,-5.098508,-10.61125,18.14343,53.999573,-6.0486574,-4.572687,-1.711472
158,3.309633493423462,3.9003047943115234,77.71717834472656,0.5249511146607545,-0.1938898226632765,-177.86365302502116,-2.2290175,5.934423,2.7110767,10.568209,-7.292314,-6.8821936,-1.4392364,-7.4440145,-22.107546,16.948288,-15.625307,4.2504616,-3.1111145,-0.4067872,11.650424,-0.007657778,19.509724,-28.378052,45.575016,-8.969191,1.596884,-4.4847965,-5.3072505,-10.656148,18.081066,54.042572,-6.1176276,-4.547116,-1.8350047
159,3.3642637729644775,4.03000020980835,77.71881866455078,0.4688653022962007,-0.13126421290715998,-177.78719071398356,-2.4151685,6.094701,2.5918531,10.640031,-7.2318816,-6.991684,-1.4548051,-7.242569,-22.229652,16.75711,-15.547364,4.0955997,-3.1584437,-0.24172716,11.7112,-0.020777792,19.561752,-28.570648,45.473736,-7.354491,1.5636761,-3.8481202,-5.5527534,-10.69117,18.078989,54.132584,-6.216417,-4.517579,-1.9644669
160,3.421788215637207,4.1613335609436035,77.71920776367188,0.41208759352011104,-0.06720527160667283,-177.7042912558824,-2.6032095,6.2537937,2.4604924,10.705222,-7.1628942,-7.105619,-1.4679888,-7.0391164,-22.353678,16.557854,-15.466035,3.9433126,-3.1928127,-0.06642673,11.781948,-0.061556857,19.640322,-28.857237,45.371105,-5.5764866,1.6060898,-3.2379832,-5.774933,-10.745724,18.0822,54.194996,-6.335932,-4.498558,-2.0658767
161,3.481405258178711,4.290539264678955,77.72119903564453,0.3546929821970087,-0.002482811414985843,-177.61230072269774,-2.792696,6.4107633,2.3112328,10.764798,-7.0839305,-7.226922,-1.4786797,-6.8344064,-22.479202,16.35493,-15.384532,3.7946517,-3.2298064,0.1182815,11.864993,-0.114388,19.754078,-29.232779,45.24567,-3.5336418,1.7429839,-2.651342,-5.9838886,-10.823917,18.106377,54.238094,-6.479545,-4.494642,-2.1336277
162,3.5380308628082275,4.419870376586914,77.7234115600586,0.29756856819623007,0.06305614468874395,-177.5148615425652,-2.9832754,6.5653377,2.1494358,10.818154,-6.994912,-7.35327,-1.4861023,-6.6279564,-22.605385,16.14211,-15.300275,3.6475794,-3.2874181,0.30983147,11.94813,-0.18907137,19.87001,-29.679169,45.13771,-1.171187,1.965722,-2.0526855,-6.2151923,-10.900558,18.181902,54.309044,-6.6494346,-4.497716,-2.188666
163,3.5945801734924316,4.556028366088867,77.72338104248047,0.23969056331693858,0.13090811262997498,-177.41526615104172,-3.1789365,6.720129,1.9832045,10.868886,-6.9020834,-7.4799957,-1.4958694,-6.41937,-22.733053,15.923926,-15.211237,3.501083,-3.350158,0.5085145,12.034431,-0.28573412,19.988169,-30.172165,45.0539,1.259882,2.2452812,-1.4957608,-6.452871,-10.976796,18.28401,54.384827,-6.837137,-4.503483,-2.2329977
164,3.65399169921875,4.6911516189575195,77.72398376464844,0.18054286034717304,0.20233983807307943,-177.3167584137531,-3.3825428,6.87756,1.8208616,10.919191,-6.8113785,-7.602275,-1.5076239,-6.2060666,-22.863527,15.691305,-15.111922,3.3542538,-3.4134476,0.7134862,12.125945,-0.39703843,20.106503,-30.673111,44.998352,3.5149746,2.5433578,-1.0306818,-6.6923766,-11.053144,18.40146,54.45237,-7.0305886,-4.5075336,-2.270439
165,3.725189685821533,4.82926607131958,77.72571563720703,0.11998323430035854,0.27931643852231053,-177.2212554987761,-3.5967693,7.0384307,1.6654648,10.968903,-6.72543,-7.717606,-1.5237426,-5.987526,-22.99696,15.442701,-14.999931,3.2088978,-3.476555,0.92710996,12.220997,-0.52702516,20.224886,-31.196661,44.97637,5.6638994,2.8678758,-0.6565573,-6.9325943,-11.129168,18.539703,54.50925,-7.2458944,-4.5095425,-2.3024173
166,3.797198534011841,4.965468883514404,77.72584533691406,0.05842042390445072,0.36059718073721797,-177.12673583891691,-3.8187432,7.201339,1.5122216,11.016415,-6.640659,-7.828917,-1.5422307,-5.764424,-23.132826,15.1802845,-14.87811,3.064908,-3.54181,1.1486201,12.318895,-0.67719454,20.343819,-31.756006,44.984398,7.794348,3.2257972,-0.353365,-7.1768174,-11.205559,18.702099,54.563168,-7.482688,-4.511654,-2.3267004
167,3.864196300506592,5.097912311553955,77.72718811035156,-0.003677161659195169,0.4427784119090598,-177.03042044767744,-4.044001,7.3646526,1.3583854,11.060653,-6.5516567,-7.939589,-1.5602027,-5.538336,-23.27145,14.908031,-14.750206,2.9185207,-3.6096554,1.3747352,12.424365,-0.834615,20.461123,-32.306732,45.01072,9.69203,3.5691297,-0.13458297,-7.4211555,-11.280571,18.874268,54.6087,-7.704654,-4.5128536,-2.3411512
168,3.9344563484191895,5.236720085144043,77.72493743896484,-0.06584989175401794,0.5224121183503111,-176.92964384661198,-4.2713413,7.52656,1.2005619,11.1078005,-6.45745,-8.05293,-1.575658,-5.311332,-23.41318,14.633048,-14.622136,2.7659655,-3.6829515,1.6010827,12.541575,-0.986251,20.57408,-32.802177,45.04548,11.141625,3.8476958,-0.008342044,-7.6665626,-11.35261,19.045628,54.646523,-7.874058,-4.512413,-2.3444965
169,4.005411624908447,5.374000549316406,77.72522735595703,-0.12901019436145336,0.598487539468686,-176.8224231607383,-4.4982767,7.687591,1.0386117,11.154614,-6.3554068,-8.169227,-1.5853379,-5.081758,-23.559866,14.351285,-14.493437,2.6045778,-3.7663279,1.8271081,12.670416,-1.1332588,20.681753,-33.23483,45.098946,12.054694,4.0412016,0.008297594,-7.9168615,-11.420246,19.21837,54.68181,-7.976561,-4.512362,-2.332395
170,4.084294319152832,5.513502597808838,77.72271728515625,-0.19303437865031484,0.6727901254751065,-176.7107213135566,-4.727851,7.8483,0.8739134,11.202984,-6.2486677,-8.286897,-1.5923193,-4.849592,-23.710573,14.063892,-14.363422,2.436995,-3.8587766,2.054467,12.808817,-1.2805343,20.784622,-33.62582,45.17323,12.55867,4.172136,-0.06780462,-8.1719055,-11.482991,19.397766,54.715183,-8.034494,-4.5125275,-2.3074076
171,4.166957855224609,5.653302192687988,77.72212219238281,-0.2560907895344887,0.7463582748415187,-176.59735477653174,-4.958162,8.006566,0.7063376,11.247249,-6.1344676,-8.406349,-1.5990795,-4.617421,-23.862362,13.772228,-14.229747,2.267455,-3.9542568,2.2822437,12.9574175,-1.4221745,20.88211,-33.972572,45.24729,12.760765,4.2561717,-0.19239101,-8.428382,-11.541371,19.579826,54.740067,-8.062647,-4.508179,-2.278838
172,4.255513668060303,5.797003269195557,77.7235107421875,-0.31645929113092663,0.8196153029959785,-176.48522584099888,-5.189271,8.160654,0.53566384,11.286646,-6.0125704,-8.528076,-1.6103228,-4.388285,-24.011217,13.482845,-14.092991,2.0993943,-4.047162,2.5106637,13.117452,-1.5518193,20.973085,-34.271946,45.29935,12.76732,4.3099256,-0.32274616,-8.680192,-11.595101,19.76007,54.74691,-8.076301,-4.494802,-2.2556102
173,4.3481340408325195,5.938940048217773,77.72144317626953,-0.37460554359106113,0.8926516062174189,-176.3751944123368,-5.422108,8.310887,0.36063918,11.322417,-5.880962,-8.658038,-1.6271554,-4.1623154,-24.156044,13.196766,-13.951981,1.9310799,-4.136175,2.7396498,13.2901535,-1.67207,21.057007,-34.521824,45.335274,12.501398,4.3245854,-0.4620691,-8.930814,-11.646067,19.945314,54.73131,-8.064741,-4.4656157,-2.235361
174,4.434103488922119,6.078171253204346,77.7248764038086,-0.43117117321275145,0.9650364997926613,-176.26574167488056,-5.6570716,8.458022,0.18183516,11.355955,-5.7413125,-8.793872,-1.6476096,-3.938277,-24.298727,12.911447,-13.806963,1.7612137,-4.224857,2.9703116,13.4735155,-1.7891954,21.1285,-34.72429,45.370808,11.941903,4.297365,-0.6273934,-9.181083,-11.69074,20.134817,54.700253,-8.025974,-4.424774,-2.2153473
175,4.528768539428711,6.225203514099121,77.72293090820312,-0.4848028895168736,1.0370189300200292,-176.156044010754,-5.8913503,8.600107,0.00147252,11.382835,-5.5960383,-8.923941,-1.6700082,-3.7180264,-24.441406,12.625007,-13.659042,1.5955855,-4.3124337,3.1998365,13.661645,-1.9203768,21.156769,-34.87185,45.43157,11.297556,4.250638,-0.7997219,-9.446082,-11.709426,20.297478,54.694412,-8.004953,-4.386101,-2.2027786
176,4.6240644454956055,6.361813068389893,77.71912384033203,-0.5342729415704299,1.110292157676753,-176.04543804151632,-6.1239185,8.735728,-0.17771773,11.399284,-5.4479756,-9.036524,-1.6940936,-3.5031707,-24.585985,12.336119,-13.509451,1.4399493,-4.401728,3.4305503,13.858313,-1.9906105,21.22915,-35.00188,45.380615,10.703315,4.2143493,-0.95074683,-9.666257,-11.758956,20.473852,54.641804,-7.971304,-4.3564916,-2.2099576
177,4.725226879119873,6.503745079040527,77.71517944335938,-0.5831286637969056,1.179444779765045,-175.93235928001053,-6.3562155,8.868598,-0.3603911,11.420473,-5.308039,-9.124033,-1.7083338,-3.2871673,-24.732944,12.031864,-13.35313,1.2971542,-4.4905887,3.6632605,14.070471,-2.0438077,21.28545,-35.064644,45.290123,10.222319,4.1839113,-1.1079262,-9.8821335,-11.794213,20.600822,54.60401,-7.994823,-4.3438973,-2.2408977
178,4.823548793792725,6.645459175109863,77.71251678466797,-0.630877666929754,1.2457284579280976,-175.8176648880272,-6.58914,8.998211,-0.54612064,11.444019,-5.171718,-9.194136,-1.7171879,-3.071839,-24.880905,11.717698,-13.191505,1.1636511,-4.5726237,3.8975444,14.285777,-2.1004124,21.312387,-35.08869,45.199104,9.752925,4.149401,-1.2669604,-10.09266,-11.810222,20.69485,54.58511,-8.049701,-4.341057,-2.2949612
179,4.924767971038818,6.784024715423584,77.70843505859375,-0.6694548732343412,1.3186807302994412,-175.7040246149744,-6.815721,9.116155,-0.7244258,11.435261,-5.016832,-9.25823,-1.7412738,-2.8708272,-25.030169,11.41565,-13.032515,1.0354424,-4.6637864,4.1231804,14.503035,-2.126951,21.341276,-35.073784,45.060215,9.332461,4.1155047,-1.3903337,-10.301613,-11.8271265,20.793013,54.563812,-8.098439,-4.3445487,-2.3487747
180,5.02542781829834,6.927867412567139,77.70403289794922,-0.6912559923922657,1.407206260243502,-175.5942923156536,-7.0266156,9.214948,-0.8841303,11.3559475,-4.819114,-9.327855,-1.8011144,-2.6976306,-25.180832,11.149541,-12.885041,0.90851736,-4.7435513,4.3293653,14.707026,-2.160305,21.356037,-35.065166,44.917664,9.001272,4.084166,-1.4349208,-10.510344,-11.837757,20.875937,54.545734,-8.131334,-4.3542485,-2.3783376
181,5.132626056671143,7.067534923553467,77.70288848876953,-0.6916376288095328,1.5099862369513526,-175.4905673013084,-7.2171044,9.290606,-1.0232512,11.198779,-4.5693808,-9.406376,-1.8980292,-2.5592904,-25.335184,10.923809,-12.751516,0.7833247,-4.826595,4.513847,14.906011,-2.1729224,21.36481,-35.037132,44.73905,8.781003,4.0541086,-1.3712231,-10.726051,-11.850161,20.966177,54.520935,-8.128939,-4.370472,-2.375448
182,5.2455525398254395,7.207505226135254,77.70105743408203,-0.6760745617261907,1.6234057873960341,-175.39098910876655,-7.3923793,9.350057,-1.1474899,10.983517,-4.281778,-9.488065,-2.0267572,-2.4490361,-25.492552,10.736972,-12.629652,0.6614525,-4.883482,4.680866,15.099517,-2.1970053,21.363993,-35.018356,44.550446,8.640337,4.0234084,-1.2258612,-10.926957,-11.856377,21.01719,54.483692,-8.119954,-4.39528,-2.3496575
183,5.351205348968506,7.341011047363281,77.70606231689453,-0.6521420798850829,1.7526223874358506,-175.2916820087239,-7.56074,9.400826,-1.2587478,10.71725,-3.9700503,-9.57035,-2.1812963,-2.3529744,-25.649305,10.566233,-12.512131,0.5408391,-4.9817343,4.8433843,15.280891,-2.1805189,21.349333,-34.949425,44.327263,8.570886,3.994857,-1.0501398,-11.151358,-11.873352,21.126701,54.466785,-8.081348,-4.4210744,-2.319799
184,5.45432710647583,7.47438383102417,77.70864868164062,-0.6268827435198182,1.9026246488700524,-175.18892406457365,-7.7289734,9.449417,-1.3583947,10.40523,-3.646815,-9.65069,-2.357224,-2.25841,-25.801857,10.392075,-12.392028,0.41935787,-5.0541797,4.9993477,15.430769,-2.1877255,21.332197,-34.935585,44.11573,8.526479,3.976574,-0.8844214,-11.355138,-11.882472,21.204947,54.46118,-8.056114,-4.4470615,-2.2910182
185,5.561715602874756,7.615262985229492,77.70975494384766,-0.6016714178281378,2.0820779699602165,-175.0828455556184,-7.892879,9.497923,-1.4431698,10.01703,-3.2932522,-9.743019,-2.5633798,-2.1636553,-25.949175,10.212905,-12.268036,0.29450357,-5.1402626,5.1588955,15.538548,-2.1964161,21.28867,-34.93372,43.918262,8.551933,3.9745104,-0.7274098,-11.561349,-11.893277,21.309223,54.486725,-8.023645,-4.475122,-2.2700472
186,5.6656575202941895,7.747356414794922,77.71239471435547,-0.5733789151766726,2.2854212851693556,-174.97508324939665,-8.048101,9.54362,-1.5133322,9.555869,-2.9078498,-9.843885,-2.79733,-2.0745924,-26.09316,10.035533,-12.142655,0.16799995,-5.21266,5.3123074,15.616209,-2.2108166,21.244724,-34.963646,43.713535,8.636928,3.9863386,-0.55909747,-11.756762,-11.896839,21.397429,54.52532,-7.993877,-4.507422,-2.2472422
187,5.769779682159424,7.879994869232178,77.71613311767578,-0.5421588822945841,2.496943513018428,-174.86412025606307,-8.207318,9.5867,-1.5763788,9.087604,-2.5334578,-9.924192,-3.040269,-1.9897953,-26.23521,9.85789,-12.0157,0.044133347,-5.2864885,5.458858,15.675391,-2.2343752,21.18379,-35.010723,43.525425,8.718528,3.9956083,-0.40000483,-11.955096,-11.895922,21.491589,54.590305,-7.966248,-4.53351,-2.2275202
188,5.871402263641357,8.015583038330078,77.71668243408203,-0.5071865372726542,2.701123841789683,-174.74832582695993,-8.380368,9.62543,-1.6388936,8.671953,-2.2101836,-9.954609,-3.2729526,-1.9081066,-26.376514,9.676345,-11.886499,-0.07274475,-5.3590837,5.593007,15.732533,-2.268694,21.116133,-35.080044,43.352364,8.723715,3.9872653,-0.27127495,-12.152037,-11.889027,21.584518,54.674194,-7.950555,-4.5437326,-2.2117047
189,5.9742913246154785,8.152718544006348,77.71810913085938,-0.46988919750071845,2.898998808849907,-174.62833979168659,-8.575913,9.650457,-1.7615008,8.30269,-1.9420227,-9.919737,-3.4956348,-1.8262339,-26.515453,9.48555,-11.751326,-0.17702538,-5.432042,5.7135887,15.787568,-2.3105595,21.0465,-35.16602,43.19147,8.612943,3.95237,-0.1802949,-12.356084,-11.87754,21.68238,54.782444,-7.9327774,-4.528842,-2.1935353
190,6.071160793304443,8.289669036865234,77.72309875488281,-0.429271103539794,3.097304379695495,-174.50452698882677,-8.7940035,9.664938,-1.9221168,7.970931,-1.7156681,-9.83734,-3.7165132,-1.7462484,-26.651947,9.28854,-11.611847,-0.27242747,-5.50534,5.8224726,15.834985,-2.35627,20.97541,-35.26839,43.0349,8.430604,3.9006546,-0.11601983,-12.562458,-11.860486,21.783842,54.910202,-7.9136558,-4.496272,-2.1741407
191,6.170496940612793,8.429865837097168,77.72644805908203,-0.38156947263333624,3.2890721290109757,-174.37475952065412,-9.0112505,9.686441,-1.9983366,7.6867604,-1.5271286,-9.72773,-3.9309223,-1.6760035,-26.789675,9.09664,-11.47554,-0.36860204,-5.5793815,5.914943,15.8796,-2.4036117,20.903305,-35.392906,42.88054,8.232867,3.8448913,-0.07148382,-12.764386,-11.837932,21.882511,55.055126,-7.9215145,-4.4612446,-2.167195
192,6.271732807159424,8.566115379333496,77.73185729980469,-0.32332338476668926,3.467175399873864,-174.23687901162174,-9.211649,9.730651,-1.8702579,7.4747467,-1.3797704,-9.61404,-4.1324573,-1.621927,-26.932587,8.918398,-11.349194,-0.4752686,-5.6538033,5.987818,15.926701,-2.4514983,20.830353,-35.546978,42.72577,8.075431,3.7981856,-0.03964022,-12.953263,-11.80958,21.971628,55.212673,-7.983463,-4.4390397,-2.1861632
193,6.363222599029541,8.706210136413574,77.74126434326172,-0.2526592889978593,3.6331229319596132,-174.08221940527463,-9.406087,9.798821,-1.5106186,7.34299,-1.2761201,-9.475754,-4.321425,-1.5867047,-27.089127,8.75435,-11.234796,-0.59787077,-5.734652,6.0383077,15.974989,-2.5003395,20.756107,-35.731365,42.572144,7.9623857,3.764232,-0.024777189,-13.127937,-11.775153,22.05801,55.384327,-8.132006,-4.4386535,-2.2433214
194,6.451598644256592,8.84512710571289,77.75367736816406,-0.1715490365669719,3.7897434699494927,-173.91444976553274,-9.599367,9.881495,-0.98154104,7.282047,-1.2177534,-9.309772,-4.500891,-1.5662452,-27.254927,8.601764,-11.129762,-0.73026747,-5.820225,6.0685015,16.02202,-2.5504696,20.68044,-35.942936,42.42043,7.8675756,3.7362635,-0.02848841,-13.292889,-11.734946,22.141962,55.572277,-8.344645,-4.4499784,-2.328615
195,6.54684591293335,8.984444618225098,77.76626586914062,-0.08361817932957166,3.931612498806719,-173.75055922805026,-9.763362,9.98043,-0.29645568,7.284558,-1.2027878,-9.163882,-4.667865,-1.5546556,-27.414454,8.459766,-11.03031,-0.86518025,-5.896098,6.084165,16.071842,-2.6005147,20.603931,-36.183422,42.26706,7.8012104,3.7110546,-0.039335057,-13.443956,-11.687905,22.205294,55.768078,-8.566153,-4.459796,-2.421832
196,6.6469879150390625,9.121805191040039,77.7777099609375,0.007914961317813354,4.053352745401118,-173.60739938689838,-9.867933,10.09674,0.531749,7.339556,-1.2260717,-9.085418,-4.8226132,-1.5488468,-27.552004,8.336053,-10.937203,-0.99513537,-5.947789,6.0897264,16.128452,-2.649329,20.527632,-36.455467,42.108093,7.774098,3.685616,-0.045985766,-13.57856,-11.63299,22.230295,55.96519,-8.740029,-4.455338,-2.502444
197,6.738739490509033,9.257377624511719,77.7900161743164,0.09968568695924782,4.149157833140023,-173.49249397807506,-9.876754,10.247825,1.5715634,7.40499,-1.2650192,-9.145817,-4.956995,-1.5420607,-27.661951,8.222875,-10.844604,-1.1214067,-5.967476,6.0878167,16.199009,-2.6980338,20.452204,-36.76383,41.941666,7.7872024,3.6546364,-0.041024607,-13.697737,-11.569457,22.208616,56.163948,-8.8438225,-4.426736,-2.5641217
198,6.827297210693359,9.388500213623047,77.80577087402344,0.19540910678875392,4.223727822016542,-173.39554469398223,-9.812297,10.425344,2.806469,7.4978943,-1.3243195,-9.29851,-5.075507,-1.5402099,-27.752958,8.122736,-10.75588,-1.2466649,-5.9634676,6.073861,16.278599,-2.746564,20.377792,-37.106846,41.76974,7.8352914,3.6213682,-0.031929623,-13.801799,-11.497212,22.149618,56.36695,-8.910746,-4.383219,-2.6179483
199,6.916317462921143,9.526103973388672,77.82080078125,0.301059414809922,4.287401385868052,-173.30747326103656,-9.7424135,10.597463,4.093377,7.716917,-1.4533454,-9.414468,-5.194692,-1.5554056,-27.830973,8.052738,-10.6817875,-1.3659966,-5.945605,6.04341,16.3548,-2.7911527,20.304821,-37.476883,41.59341,7.918248,3.5953393,-0.02950197,-13.886062,-11.416329,22.063202,56.5708,-8.968155,-4.3408637,-2.6698318
200,6.998882293701172,9.66456127166748,77.83390045166016,0.42156955736093144,4.349896312989448,-173.21949484016588,-9.719705,10.738089,5.2916517,8.126264,-1.6928294,-9.364892,-5.3255563,-1.5959013,-27.901596,8.019076,-10.627967,-1.4746853,-5.923359,5.9937963,16.416006,-2.8277285,20.233952,-37.8663,41.412716,8.036271,3.585975,-0.044673257,-13.945935,-11.326423,21.959879,56.771954,-9.041617,-4.3156943,-2.7254958
201,7.078918933868408,9.796653747558594,77.85641479492188,0.5621154066218375,4.414751742726158,-173.13525103553204,-9.769048,10.849907,6.3930817,8.776251,-2.0702646,-9.083494,-5.4807796,-1.6716586,-27.957945,8.040418,-10.602907,-1.5707742,-5.895895,5.919148,16.455984,-2.8520682,20.165981,-38.28118,41.226944,8.202694,3.603057,-0.078600235,-13.979214,-11.225414,21.835442,56.98139,-9.146731,-4.3185215,-2.7857213
202,7.1474289894104,9.931487083435059,77.87586212158203,0.7152850141783286,4.475458013475482,-173.0582106775698,-9.848001,10.95421,7.4619465,9.60339,-2.555931,-8.649962,-5.646788,-1.7698368,-27.999796,8.10072,-10.598052,-1.6576122,-5.8592,5.826023,16.483261,-2.8657625,20.101261,-38.722538,41.03467,8.41305,3.6391652,-0.12629052,-13.990463,-11.112417,21.688137,57.198933,-9.265257,-4.3385825,-2.847812
203,7.2269768714904785,10.062955856323242,77.89493560791016,0.8657683154121277,4.526562059871415,-172.97954735296483,-9.922988,11.053548,8.460828,10.523638,-3.1106408,-8.158909,-5.7988086,-1.8652583,-28.043062,8.158158,-10.594079,-1.7386795,-5.8197374,5.7295947,16.508318,-2.8715024,20.039465,-39.17318,40.835747,8.640543,3.6779056,-0.18950592,-13.984448,-10.991617,21.530663,57.403835,-9.379559,-4.359485,-2.9124374
204,7.303228378295898,10.19619083404541,77.90805053710938,1.0011255393616276,4.563089754582778,-172.89016992023127,-9.964478,11.145199,9.353065,11.459993,-3.6962574,-7.7041364,-5.9215636,-1.9409078,-28.103127,8.194469,-10.584653,-1.8166996,-5.7844596,5.6437764,16.541508,-2.8722126,19.98009,-39.61485,40.628677,8.858784,3.702714,-0.26992723,-13.963099,-10.869888,21.374426,57.571175,-9.473892,-4.364678,-2.9796069
205,7.370550155639648,10.321113586425781,77.92774963378906,1.120375585319489,4.582276830349917,-172.79445668995774,-9.961301,11.228321,10.124652,12.397278,-4.3174324,-7.3002186,-6.0055623,-1.99049,-28.17622,8.191723,-10.560482,-1.8873532,-5.7481437,5.5701838,16.586533,-2.867597,19.922989,-40.047356,40.40913,9.058904,3.7081094,-0.37798503,-13.922388,-10.751717,21.215775,57.692215,-9.543481,-4.343383,-3.0570903
206,7.441993713378906,10.45372486114502,77.93871307373047,1.2293501067186012,4.5870771828034,-172.69527278893324,-9.930813,11.304609,10.795124,13.373956,-4.9888763,-6.9005847,-6.061352,-2.0239153,-28.256886,8.165961,-10.528646,-1.9507478,-5.708729,5.504197,16.638895,-2.8570518,19.868122,-40.479324,40.17743,9.2554,3.7029638,-0.50959265,-13.857737,-10.637222,21.049227,57.773495,-9.5974045,-4.3064003,-3.1410275
207,7.515974998474121,10.58200740814209,77.94480895996094,1.3262243847826394,4.581515822505161,-172.5803898019914,-9.89088,11.373611,11.37883,14.400703,-5.689517,-6.50678,-6.1000414,-2.0473118,-28.358154,8.1390085,-10.500752,-2.0165787,-5.678734,5.4488907,16.696215,-2.8416784,19.814846,-40.904446,39.93974,9.458374,3.6923318,-0.6448096,-13.776607,-10.527859,20.891973,57.818886,-9.630819,-4.269763,-3.2147863
208,7.580514907836914,10.7096586227417,77.94833374023438,1.4091122283583062,4.570008157712386,-172.43768455444498,-9.861777,11.434384,11.89016,15.493708,-6.4014454,-6.1199102,-6.131056,-2.0662565,-28.493975,8.127717,-10.485578,-2.0941753,-5.672158,5.4072375,16.755365,-2.823833,19.762571,-41.315464,39.70377,9.676698,3.6811037,-0.76394856,-13.686108,-10.42603,20.761023,57.83239,-9.641829,-4.2494903,-3.261768
209,7.646653652191162,10.838386535644531,77.95185089111328,1.4768521337461205,4.552960558902013,-172.26630223339393,-9.847141,11.486823,12.332642,16.662327,-7.1342597,-5.7281523,-6.161378,-2.084055,-28.66816,8.147879,-10.489091,-2.1921453,-5.6943493,5.3819933,16.818802,-2.798011,19.710894,-41.70479,39.45569,9.907414,3.670221,-0.87629676,-13.585935,-10.332187,20.658144,57.80532,-9.627378,-4.250261,-3.2711678
210,7.713407516479492,10.96158218383789,77.95386505126953,1.531285158031252,4.528534977202172,-172.0719376663967,-9.836623,11.528836,12.698654,17.893402,-7.8915043,-5.334356,-6.182513,-2.0971801,-28.873507,8.182164,-10.50302,-2.3030834,-5.7378316,5.3706293,16.887053,-2.7660599,19.65993,-42.07757,39.197193,10.147039,3.6569932,-0.98758787,-13.473021,-10.245829,20.577076,57.738148,-9.587631,-4.263336,-3.2538002
211,7.779068470001221,11.08775806427002,77.95340728759766,1.5742835754765805,4.49700855323399,-171.85181468689672,-9.826019,11.556212,12.9874735,19.161934,-8.636172,-4.9615874,-6.1892004,-2.1029277,-29.104404,8.217079,-10.525166,-2.4149694,-5.80091,5.370179,16.956469,-2.7327373,19.613146,-42.439373,38.947826,10.408235,3.6411724,-1.0739603,-13.346293,-10.173149,20.524141,57.642742,-9.5262375,-4.284575,-3.2247553
212,7.8409576416015625,11.214715003967285,77.94792938232422,1.6088349998510871,4.458892213814237,-171.60307966877696,-9.812021,11.5628805,13.199814,20.443874,-9.331233,-4.632687,-6.1757474,-2.100382,-29.356316,8.238149,-10.552216,-2.5141459,-5.8760414,5.3763165,17.02143,-2.7112484,19.56894,-42.80451,38.737473,10.7013445,3.6228466,-1.1099876,-13.201856,-10.111886,20.496304,57.5326,-9.450534,-4.310429,-3.1996448
213,7.8950347900390625,11.342793464660645,77.94141387939453,1.6351556674390841,4.412359801150576,-171.32301881647484,-9.79367,11.541372,13.320275,21.736713,-9.964548,-4.3563504,-6.1370316,-2.0877838,-29.627703,8.239778,-10.583898,-2.5937526,-5.9529905,5.3839936,17.07595,-2.7206197,19.513138,-43.194897,38.596783,11.011514,3.5953696,-1.083768,-13.037961,-10.051613,20.484526,57.4118,-9.355782,-4.345814,-3.1818838
214,7.948591709136963,11.469710350036621,77.93206787109375,1.653242280960106,4.3582130622388275,-171.0135216367239,-9.779731,11.493384,13.355242,23.063469,-10.558059,-4.1200223,-6.0782614,-2.0679011,-29.92117,8.231376,-10.622196,-2.6615877,-6.050063,5.3979697,17.128115,-2.7364302,19.45526,-43.581055,38.487495,11.342529,3.5607917,-1.0132741,-12.856766,-10.006183,20.507969,57.265533,-9.234458,-4.390029,-3.1620162
215,7.992038249969482,11.593693733215332,77.92387390136719,1.6640513704460727,4.300514316809629,-170.67871056066528,-9.76207,11.422735,13.341572,24.39862,-11.117817,-3.9153075,-6.0076666,-2.0434804,-30.236683,8.218152,-10.666358,-2.7279656,-6.1597443,5.4208164,17.175468,-2.7615702,19.398968,-43.96114,38.410343,11.721636,3.534422,-0.90648943,-12.663907,-9.973924,20.553251,57.11407,-9.110553,-4.4333963,-3.142106
216,8.040456771850586,11.721953392028809,77.91522979736328,1.6689850003485682,4.243144905295673,-170.32267313286638,-9.733261,11.334334,13.315358,25.719744,-11.650559,-3.7335324,-5.9317956,-2.0169463,-30.57407,8.201601,-10.713543,-2.803176,-6.2732415,5.4545383,17.213345,-2.8050232,19.340164,-44.336937,38.37888,12.17507,3.5314436,-0.77067554,-12.467037,-9.947342,20.604252,56.984108,-9.010322,-4.466421,-3.1254964
217,8.092493057250977,11.845417976379395,77.9010238647461,1.6667512534652988,4.18386108053015,-169.94192318744376,-9.6937685,11.224924,13.267491,27.031038,-12.161488,-3.584906,-5.849622,-1.988348,-30.936329,8.185779,-10.767448,-2.890684,-6.389072,5.499622,17.239109,-2.8834453,19.266165,-44.73234,38.424473,12.779437,3.5640244,-0.5754589,-12.269988,-9.921336,20.664726,56.887157,-8.939133,-4.4865117,-3.117303
218,8.121352195739746,11.976190567016602,77.89073944091797,1.6576268024199912,4.122000171823391,-169.5357834758348,-9.64871,11.090477,13.186473,28.344404,-12.647031,-3.471332,-5.7579446,-1.9569504,-31.322392,8.168123,-10.82833,-2.984504,-6.518021,5.5537467,17.256609,-2.980696,19.185835,-45.130276,38.524586,13.49899,3.6231334,-0.3297095,-12.073151,-9.898721,20.748787,56.811005,-8.880723,-4.498717,-3.1152778
219,8.172061920166016,12.093852043151855,77.8760757446289,1.6451701705435149,4.063200237797653,-169.11220069818702,-9.59583,10.936584,13.104445,29.6447,-13.10092,-3.3707852,-5.664117,-1.924727,-31.726377,8.145539,-10.889538,-3.0810168,-6.6488113,5.614903,17.261229,-3.090638,19.09889,-45.50078,38.66163,14.188131,3.690723,-0.093266584,-11.872745,-9.878216,20.827152,56.755867,-8.842975,-4.505356,-3.1124551
220,8.215047836303711,12.215975761413574,77.85918426513672,1.633275125678637,4.013331747542339,-168.67931505267583,-9.537396,10.770701,13.051959,30.926552,-13.517047,-3.2603204,-5.5744643,-1.8937285,-32.14218,8.116097,-10.946332,-3.1764946,-6.7729087,5.680378,17.249018,-3.2037601,19.005865,-45.8093,38.814846,14.702881,3.7461092,0.074091636,-11.667924,-9.858672,20.875912,56.723495,-8.830567,-4.5085707,-3.1022706
221,8.252652168273926,12.340606689453125,77.84466552734375,1.6201422988655434,3.974701869586596,-168.2357343240157,-9.481308,10.59634,13.028492,32.206364,-13.893027,-3.1227653,-5.4899135,-1.8620375,-32.57536,8.077024,-10.994722,-3.2718272,-6.8927875,5.7531347,17.217628,-3.3199627,18.907196,-46.044094,38.986313,15.013817,3.779841,0.16267845,-11.457301,-9.8392315,20.890293,56.716362,-8.858045,-4.5088196,-3.079961
222,8.282148361206055,12.467085838317871,77.82872009277344,1.6049718366595922,3.943998121685265,-167.7783097071471,-9.424373,10.408931,13.0207205,33.482555,-14.232094,-2.9739068,-5.406814,-1.8289207,-33.02693,8.029599,-11.03836,-3.3682814,-7.0117254,5.8330197,17.169764,-3.4429734,18.80342,-46.223267,39.183723,15.195442,3.8026164,0.20262711,-11.241801,-9.8189535,20.882357,56.733047,-8.919116,-4.5049334,-3.050244
223,8.319941520690918,12.587947845458984,77.81977844238281,1.5916995044631124,3.918322767796502,-167.31260545169985,-9.349181,10.206941,13.039386,34.715027,-14.537543,-2.8397675,-5.3272414,-1.7990062,-33.483837,7.9801188,-11.082597,-3.463165,-7.1232853,5.913768,17.108816,-3.5707135,18.696121,-46.358223,39.39567,15.257778,3.8227153,0.19462423,-11.027179,-9.797784,20.856007,56.77328,-8.985152,-4.4971766,-3.0209947
224,8.353569984436035,12.704751014709473,77.81100463867188,1.5843550632889263,3.894766870353944,-166.8441137869329,-9.239271,9.989123,13.094854,35.866116,-14.814132,-2.7459743,-5.252887,-1.7767237,-33.9339,7.934438,-11.133141,-3.5536726,-7.22128,5.9897566,17.038794,-3.6999755,18.587769,-46.459595,39.60876,15.211479,3.848738,0.13927463,-10.814726,-9.775006,20.811293,56.83168,-9.032091,-4.4854717,-2.9996662
225,8.387016296386719,12.823404312133789,77.79874420166016,1.5856782239079958,3.87702689171523,-166.37252567893202,-9.097571,9.751265,13.187476,36.932686,-15.080663,-2.676737,-5.189262,-1.7661464,-34.371197,7.896075,-11.193948,-3.6397884,-7.3036695,6.058521,16.955835,-3.8257236,18.48405,-46.52258,39.814148,15.050299,3.8900304,0.02044885,-10.602549,-9.749871,20.743954,56.90867,-9.051942,-4.4650807,-2.9927716
226,8.417491912841797,12.945307731628418,77.78669738769531,1.5933776935767885,3.865090770649787,-165.8952386521287,-8.931266,9.496276,13.311561,37.934784,-15.329956,-2.6250978,-5.134976,-1.764996,-34.803696,7.864169,-11.262553,-3.7227244,-7.372266,6.1232724,16.858261,-3.9555988,18.376925,-46.546436,40.028625,14.771808,3.9402,-0.15588538,-10.391129,-9.720072,20.65309,57.00886,-9.059368,-4.4376144,-2.9952064
227,8.446935653686523,13.067560195922852,77.7757797241211,1.602060498696705,3.8505160149147093,-165.41509353479034,-8.731365,9.234893,13.468606,38.870243,-15.52807,-2.6302655,-5.076518,-1.7640412,-35.23821,7.8266554,-11.329393,-3.801889,-7.431284,6.1862016,16.757715,-4.087003,18.273132,-46.539413,40.242764,14.390762,3.9851902,-0.3585907,-10.185652,-9.6883955,20.551237,57.12681,-9.059677,-4.4127746,-2.9960866
228,8.477303504943848,13.186735153198242,77.76546478271484,1.607378485097325,3.824957631963594,-164.93488191294844,-8.488674,8.976456,13.660694,39.73733,-15.642022,-2.7314882,-5.0004153,-1.7549273,-35.681664,7.7724004,-11.385474,-3.8764868,-7.482805,6.248987,16.665203,-4.2203536,18.174799,-46.51298,40.453465,13.922284,4.0106015,-0.5560748,-9.991522,-9.658242,20.449072,57.258404,-9.05817,-4.4002213,-2.9843419
229,8.51090145111084,13.310787200927734,77.74717712402344,1.609162133582771,3.7836423956736667,-164.45765163523228,-8.184563,8.723406,13.908574,40.514782,-15.654266,-2.954878,-4.8997116,-1.7364185,-36.133266,7.697352,-11.427972,-3.941077,-7.524894,6.311929,16.58619,-4.3577294,18.0832,-46.46227,40.663456,13.296547,4.00805,-0.759967,-9.805945,-9.632205,20.345016,57.403866,-9.047367,-4.411439,-2.9490066
230,8.54488468170166,13.42933177947998,77.73746490478516,1.6093456323525073,3.7318462438693674,-163.98125456116745,-7.8303137,8.4699545,14.203455,41.21223,-15.586317,-3.2737145,-4.7816615,-1.7113794,-36.590412,7.6040525,-11.45964,-3.997805,-7.5568023,6.3747272,16.51458,-4.4970465,17.999,-46.383625,40.869904,12.529926,3.9882736,-0.98105276,-9.625704,-9.610885,20.234373,57.56186,-9.027575,-4.438281,-2.898139
231,8.583596229553223,13.549921035766602,77.72525024414062,1.6061504905878827,3.676837767215257,-163.50003248146552,-7.4612556,8.211861,14.50317,41.871822,-15.461105,-3.648245,-4.6832037,-1.7002032,-37.05607,7.5697274,-11.521621,-4.0563316,-7.586815,6.437539,16.45019,-4.6148205,17.952915,-46.28698,41.022373,11.762707,3.9652474,-1.1880089,-9.452406,-9.599395,20.129305,57.714344,-9.008918,-4.460675,-2.8476624
232,8.615172386169434,13.672322273254395,77.71173095703125,1.5977139679463535,3.6255013609279967,-163.00806064993205,-7.1119947,7.945591,14.766375,42.53443,-15.301629,-4.0395865,-4.6029367,-1.6932338,-37.53479,7.568899,-11.600789,-4.127525,-7.610181,6.502682,16.375711,-4.7458973,17.890604,-46.19672,41.18692,11.144573,3.9470708,-1.3448507,-9.29792,-9.584484,20.023745,57.87859,-9.012936,-4.4597774,-2.8172498
233,8.651057243347168,13.800742149353027,77.69930267333984,1.5818269370081106,3.5810449592468565,-162.50350636539682,-6.786027,7.6702976,14.989826,43.20046,-15.100123,-4.456398,-4.531019,-1.677481,-38.031143,7.567442,-11.680871,-4.219545,-7.6344094,6.5712323,16.296835,-4.8550067,17.857292,-46.10417,41.29926,10.692299,3.936424,-1.4449152,-9.158979,-9.577224,19.931171,58.036087,-9.039376,-4.4189205,-2.8155386
234,8.691792488098145,13.927282333374023,77.68885803222656,1.560106562249835,3.53911766960573,-161.9894263673922,-6.4664135,7.386353,15.1930895,43.850224,-14.848849,-4.9141498,-4.4621153,-1.6549304,-38.54196,7.5644937,-11.761025,-4.325013,-7.652675,6.6427984,16.213291,-4.964943,17.825134,-46.00662,41.40167,10.339423,3.925359,-1.5059544,-9.03521,-9.57101,19.836973,58.19911,-9.086676,-4.3527646,-2.8311794
235,8.735505104064941,14.052386283874512,77.67533874511719,1.5365550397976038,3.4968062142055643,-161.46795552473648,-6.160612,7.0917306,15.369439,44.49901,-14.573536,-5.385441,-4.394206,-1.630689,-39.06049,7.56022,-11.838069,-4.4322734,-7.670114,6.7113566,16.126516,-5.067524,17.810635,-45.915478,41.475937,10.08075,3.9148815,-1.5288078,-8.923753,-9.569022,19.7577,58.36546,-9.134675,-4.2856607,-2.8537993
236,8.769292831420898,14.185133934020996,77.66177368164062,1.5148582984991592,3.450548662396229,-160.94131216853893,-5.875559,6.78447,15.513001,45.16155,-14.29997,-5.84356,-4.3224807,-1.6091616,-39.58074,7.55256,-11.909264,-4.5294356,-7.687753,6.7739353,16.04145,-5.1753364,17.80218,-45.829575,41.536095,9.928346,3.903091,-1.5221075,-8.826982,-9.568256,19.68487,58.53833,-9.180408,-4.2436714,-2.8668761
237,8.806295394897461,14.319703102111816,77.64834594726562,1.4943838192901224,3.39886620006699,-160.4083063646987,-5.6150994,6.4650736,15.624535,45.85153,-14.02876,-6.266453,-4.2446976,-1.5897907,-40.105988,7.541285,-11.972953,-4.613074,-7.7087092,6.8307495,15.953231,-5.2870183,17.80213,-45.768356,41.5794,9.931819,3.8966787,-1.4735639,-8.744027,-9.568804,19.636982,58.728943,-9.214078,-4.2408943,-2.870493
