unveil-humanoid-operators/unveil-humanoid-operators.github.io/feature-analysis-animation/data/feature_matrix_instances/height_root_translate_peak_vel_walking_A053_walk_ff_start_180_R_004__A053.csv
Frame,root_translateX,root_translateY,root_translateZ,root_rotateX,root_rotateY,root_rotateZ,left_hip_pitch_joint_dof,left_hip_roll_joint_dof,left_hip_yaw_joint_dof,left_knee_joint_dof,left_ankle_pitch_joint_dof,left_ankle_roll_joint_dof,right_hip_pitch_joint_dof,right_hip_roll_joint_dof,right_hip_yaw_joint_dof,right_knee_joint_dof,right_ankle_pitch_joint_dof,right_ankle_roll_joint_dof,waist_yaw_joint_dof,waist_roll_joint_dof,waist_pitch_joint_dof,left_shoulder_pitch_joint_dof,left_shoulder_roll_joint_dof,left_shoulder_yaw_joint_dof,left_elbow_joint_dof,left_wrist_roll_joint_dof,left_wrist_pitch_joint_dof,left_wrist_yaw_joint_dof,right_shoulder_pitch_joint_dof,right_shoulder_roll_joint_dof,right_shoulder_yaw_joint_dof,right_elbow_joint_dof,right_wrist_roll_joint_dof,right_wrist_pitch_joint_dof,right_wrist_yaw_joint_dof
0,-0.1255483627319336,2.5910563468933105,78.46089935302734,0.450644933745837,-6.50979480869543,-88.58027626764448,12.290506,3.292054,5.675065,8.889099,-12.359593,-4.8066893,12.081593,-4.246342,-1.1495789,8.7842045,-14.26102,6.896236,3.059251,1.8598111,6.590053,8.19248,6.2568145,-14.782156,57.907295,16.95397,1.0274365,7.200787,7.5358114,-14.879571,34.52557,58.12324,1.6467551,3.5706944,-19.20365
1,-0.12061350047588348,2.6019842624664307,78.46327209472656,0.4191400605372995,-6.521117758656045,-88.68628827963111,12.305113,3.3327005,5.7543674,8.909953,-12.404558,-4.7862806,12.049044,-4.1958785,-1.0252888,8.802134,-14.23595,6.875136,3.0078783,1.910584,6.613116,8.204242,6.2568684,-14.8680525,57.926243,17.143604,1.0135419,7.180276,7.4891467,-14.886941,34.489178,58.222305,1.664433,3.6115854,-19.216927
2,-0.11431247740983963,2.6188242435455322,78.46171569824219,0.3891614992205159,-6.530689115131464,-88.79695267852799,12.319311,3.3738322,5.835831,8.929275,-12.44994,-4.764414,12.015465,-4.1440973,-0.8960179,8.8167305,-14.207802,6.855249,3.002353,1.9686551,6.6286764,8.202388,6.264541,-15.0208235,57.953804,17.313644,1.0012699,7.1580634,7.464906,-14.890751,34.39656,58.32295,1.6692314,3.6545997,-19.228823
3,-0.11153307557106018,2.638622999191284,78.46095275878906,0.35907276500516433,-6.543814012562293,-88.89835493978826,12.335209,3.4139547,5.9127707,8.94941,-12.493608,-4.745702,11.985133,-4.094604,-0.77713597,8.835679,-14.184414,6.83289,2.971909,2.014426,6.6524224,8.203328,6.272695,-15.131704,57.980755,17.493397,0.9912717,7.14835,7.430524,-14.888034,34.338165,58.413723,1.6808382,3.6907616,-19.241814
4,-0.1031867116689682,2.6487889289855957,78.46028137207031,0.33329598981416253,-6.565332423182623,-88.97552843646618,12.357445,3.4519067,5.9773064,8.9657955,-12.529364,-4.7346673,11.969152,-4.049778,-0.68577623,8.853172,-14.166919,6.804402,2.9758508,2.046515,6.686784,8.178067,6.2901945,-15.284233,58.027912,17.649935,0.9981732,7.1896462,7.4330163,-14.872641,34.253353,58.451996,1.6896294,3.7071354,-19.25502
5,-0.09678541123867035,2.669262170791626,78.46006774902344,0.31022978575889854,-6.601492093775111,-89.01520917680459,12.388107,3.4873416,6.0233674,8.98367,-12.558809,-4.7333894,11.97304,-4.01277,-0.63910306,8.875185,-14.162943,6.762662,2.9476688,2.0556788,6.7506943,8.140931,6.3073015,-15.396399,58.08139,17.803585,1.0244275,7.286484,7.4344187,-14.847039,34.21189,58.447727,1.719219,3.6948116,-19.284056
6,-0.1037503033876419,2.694800853729248,78.45951080322266,0.2903526505984199,-6.64775083407398,-89.0279554311466,12.425873,3.5208569,6.056095,8.999416,-12.581964,-4.739208,11.99122,-3.9813209,-0.6242619,8.899895,-14.168324,6.71166,2.9050095,2.0477102,6.832733,8.093382,6.32589,-15.4930935,58.142365,17.951117,1.0662482,7.426022,7.4352856,-14.806159,34.193478,58.42064,1.7613337,3.6617892,-19.325453
7,-0.11128323525190353,2.7187206745147705,78.4604263305664,0.2730650105463283,-6.694198698077378,-89.03662860110327,12.4640465,3.55245,6.0860195,9.012051,-12.599763,-4.749295,12.009872,-3.9513688,-0.6109533,8.92472,-14.172909,6.6644397,2.869536,2.0244055,6.9051805,8.043912,6.3481264,-15.575999,58.218727,18.101145,1.1103294,7.588678,7.43269,-14.737546,34.192448,58.39267,1.7970402,3.6218708,-19.351486
8,-0.12051458656787872,2.7399611473083496,78.46238708496094,0.25568989670502,-6.730800186799342,-89.06359281574926,12.497418,3.5821493,6.1229095,9.018012,-12.611819,-4.761213,12.016937,-3.9190607,-0.56945556,8.942484,-14.163761,6.6340704,2.8544114,1.9874835,6.942491,8.003971,6.3727617,-15.635756,58.314827,18.2679,1.1432911,7.7552943,7.4200697,-14.6303835,34.213875,58.382786,1.8111849,3.5913994,-19.33549
9,-0.1274268925189972,2.7628722190856934,78.46195220947266,0.23882730539824423,-6.75592456346469,-89.11716398533106,12.525415,3.6113658,6.171203,9.017613,-12.617738,-4.7770543,12.009863,-3.8804467,-0.48240465,8.951529,-14.135206,6.6262684,2.8789368,1.9486926,6.934451,7.9689136,6.3840194,-15.674867,58.447758,18.484398,1.1626234,7.9367914,7.450871,-14.545645,34.253395,58.315914,1.8103629,3.5796678,-19.2432
10,-0.13105592131614685,2.7832205295562744,78.46344757080078,0.22312962691439936,-6.7746699088833084,-89.18445617346435,12.552103,3.6393073,6.22492,9.009994,-12.616741,-4.797303,11.995735,-3.8387313,-0.36905992,8.95363,-14.093696,6.63328,2.9332635,1.8938384,6.8877025,7.932195,6.391128,-15.699077,58.621067,18.73347,1.176976,8.141254,7.4824677,-14.421248,34.310043,58.262363,1.7939003,3.5730162,-19.104181
11,-0.12934620678424835,2.8028202056884766,78.45942687988281,0.20846055647504216,-6.78681643349149,-89.25681314644419,12.572671,3.6641183,6.2792625,8.999728,-12.612585,-4.816539,11.97476,-3.799984,-0.25342786,8.952524,-14.048305,6.6483035,2.981228,1.8452957,6.839813,7.8998504,6.3903093,-15.701427,58.786007,18.955242,1.1834226,8.336762,7.512882,-14.303969,34.384094,58.18543,1.7599041,3.5706916,-18.956564
12,-0.12551183998584747,2.802872896194458,78.45803833007812,0.19541712454411758,-6.7922885103775785,-89.32511823584683,12.582162,3.6845047,6.329064,8.992473,-12.609734,-4.8295074,11.948588,-3.769503,-0.15994518,8.948684,-14.006902,6.6643896,2.988642,1.8184577,6.821378,7.87722,6.383334,-15.67785,58.901047,19.087822,1.1792738,8.492668,7.5166116,-14.203874,34.476715,58.0927,1.7038659,3.5688274,-18.842522
13,-0.11854895949363708,2.8082144260406494,78.45637512207031,0.18540376976984546,-6.79297647203342,-89.38494031015662,12.580295,3.6949759,6.3661804,8.985673,-12.605651,-4.8326383,11.919784,-3.7530334,-0.10053955,8.939434,-13.968578,6.686812,2.9183915,1.8164482,6.8516784,7.8751097,6.3676195,-15.595044,58.946068,19.123438,1.1503193,8.595408,7.444117,-14.092266,34.60901,58.03065,1.605956,3.5684853,-18.784233
14,-0.10777140408754349,2.8199353218078613,78.45577239990234,0.17945153800285316,-6.787893567587501,-89.44179767280983,12.56807,3.6987526,6.3952703,8.979584,-12.600145,-4.829639,11.887403,-3.7459552,-0.060490105,8.92371,-13.929606,6.7169447,2.8047252,1.8367538,6.9162483,7.8882933,6.346201,-15.475288,58.937263,19.087915,1.1012719,8.66064,7.347772,-14.003214,34.7635,57.940178,1.4755098,3.5731485,-18.750332
15,-0.10420690476894379,2.8422696590423584,78.45629119873047,0.17146539706948535,-6.774081205990103,-89.50179439140786,12.549568,3.703931,6.4319024,8.972307,-12.595538,-4.8254104,11.845202,-3.7394452,-0.023679243,8.910498,-13.894929,6.7417436,2.6902986,1.8621345,6.9719253,7.8988085,6.3185434,-15.3552685,58.920803,18.988703,1.0603458,8.711424,7.254161,-13.919681,34.929234,57.835896,1.3496183,3.5741446,-18.725027
16,-0.09746837615966797,2.866042137145996,78.45914459228516,0.15904404368068328,-6.748261191184052,-89.57092143082663,12.527646,3.718878,6.491233,8.963959,-12.595063,-4.824956,11.788557,-3.7247405,0.02560831,8.905728,-13.868845,6.7484026,2.637013,1.8793043,6.9819517,7.8864107,6.293933,-15.294855,58.933533,18.825092,1.0555564,8.76845,7.2213273,-13.852853,35.069633,57.68678,1.261778,3.5643077,-18.686731
17,-0.10158070176839828,2.8760454654693604,78.46456146240234,0.13587497083746594,-6.699369725706273,-89.66010419026192,12.500313,3.7515602,6.593235,8.949534,-12.600364,-4.8331227,11.704271,-3.6950731,0.09917055,8.914189,-13.855767,6.7242875,2.6729443,1.8819448,6.9140077,7.8440185,6.271735,-15.308081,58.998466,18.534534,1.1098709,8.84855,7.265386,-13.790729,35.191708,57.490047,1.2379006,3.5321894,-18.640842
18,-0.10157500952482224,2.8843648433685303,78.47305297851562,0.10526178599049316,-6.632648214559412,-89.76284135687959,12.466178,3.7954254,6.7244544,8.93178,-12.609851,-4.8461027,11.599677,-3.6566048,0.18574533,8.929066,-13.850866,6.6794252,2.7660692,1.87454,6.7886915,7.7779765,6.246675,-15.370411,59.103386,18.13679,1.2041744,8.941418,7.3405576,-13.708142,35.30425,57.293823,1.2494487,3.482613,-18.599068
19,-0.08933795988559723,2.8808209896087646,78.47823333740234,0.07548383428793025,-6.56904027468837,-89.85960478107329,12.433767,3.837819,6.850109,8.915033,-12.618933,-4.855881,11.499611,-3.6197512,0.26741195,8.944952,-13.847726,6.6345553,2.8695018,1.8650426,6.672554,7.708771,6.2350473,-15.453538,59.186306,17.76143,1.2979437,9.009412,7.452011,-13.663761,35.39069,57.0395,1.2621045,3.439687,-18.535591
20,-0.07193592935800552,2.8860559463500977,78.48172760009766,0.054813925023727575,-6.529232160654033,-89.93042343476642,12.407714,3.866811,6.934839,8.910232,-12.626187,-4.8548374,11.428973,-3.5945396,0.3260871,8.955448,-13.839568,6.610094,2.928312,1.853918,6.592479,7.6447415,6.2217593,-15.537315,59.246384,17.53604,1.3601357,9.040696,7.511616,-13.594248,35.463932,56.85628,1.2418206,3.4178107,-18.452343
21,-0.06467150151729584,2.9076528549194336,78.48465728759766,0.04773687559830225,-6.524231209677496,-89.9644802927305,12.391884,3.875925,6.9623895,8.922384,-12.631404,-4.834451,11.403659,-3.586571,0.3540153,8.95201,-13.819612,6.61657,2.9169133,1.8352491,6.5742507,7.587988,6.213234,-15.596058,59.270008,17.554646,1.3783922,9.007302,7.500363,-13.492281,35.509186,56.750732,1.1597947,3.428344,-18.322218
22,-0.06233442574739456,2.928452730178833,78.48519897460938,0.05021030819357978,-6.5409264822167295,-89.9745259224247,12.383219,3.8722262,6.9539905,8.944115,-12.635158,-4.800894,11.4046955,-3.5898507,0.3624393,8.945269,-13.795812,6.6415644,2.8635705,1.8166949,6.6020164,7.5421915,6.213507,-15.646868,59.248287,17.725891,1.3702972,8.921835,7.4857707,-13.42594,35.535408,56.619606,1.0506248,3.4636474,-18.150166
23,-0.06629981100559235,2.943264961242676,78.48672485351562,0.05404714171000241,-6.564979120191792,-89.9748142591655,12.376205,3.865523,6.9304266,8.967877,-12.636307,-4.768486,11.414992,-3.5960236,0.35938954,8.937215,-13.772157,6.670612,2.7967525,1.7981398,6.6446834,7.4971433,6.218819,-15.699194,59.207893,17.925892,1.3451188,8.822151,7.453506,-13.356914,35.557053,56.515694,0.93723744,3.5035942,-17.984829
24,-0.0687224492430687,2.9558565616607666,78.48634338378906,0.0553278076982274,-6.582043048592079,-89.97985432581122,12.3670845,3.8645742,6.9123635,8.98391,-12.6332445,-4.751442,11.41813,-3.5967882,0.35315424,8.927493,-13.751145,6.68955,2.7414322,1.7780919,6.676672,7.449919,6.232338,-15.7564125,59.160706,18.031775,1.3114371,8.742034,7.4033074,-13.265231,35.5926,56.461266,0.84596616,3.529812,-17.871164
25,-0.08200538903474808,2.9695403575897217,78.48603057861328,0.05080955857823917,-6.59108690001188,-89.99658834345944,12.359089,3.8716028,6.9028854,8.985487,-12.623608,-4.7568617,11.414171,-3.5916471,0.3391696,8.911857,-13.734862,6.7014055,2.691237,1.7673544,6.704146,7.404623,6.251943,-15.818782,59.09256,18.003355,1.2672921,8.694569,7.3408966,-13.176458,35.65163,56.436768,0.78268445,3.539922,-17.816654
26,-0.08759260922670364,2.987222671508789,78.48841857910156,0.044339901703668236,-6.598722018340536,-90.01640643901027,12.351082,3.8823104,6.8917117,8.982659,-12.610741,-4.7760034,11.4107895,-3.5841045,0.31525174,8.890157,-13.72046,6.711574,2.6370895,1.7726148,6.7418523,7.356185,6.266437,-15.882284,59.003666,17.912075,1.2089863,8.660426,7.286191,-13.125812,35.719364,56.39902,0.73516876,3.5455847,-17.794487
27,-0.09361448138952255,3.00650954246521,78.49271392822266,0.03888607183397348,-6.602431362798688,-90.02996301248123,12.338866,3.8944182,6.880014,8.977916,-12.594436,-4.799422,11.399542,-3.5734937,0.29349607,8.878969,-13.709333,6.709112,2.5921478,1.7588031,6.7648973,7.3134527,6.3011537,-15.945105,58.91012,17.7899,1.143773,8.6205225,7.203322,-13.024357,35.80057,56.431293,0.70721626,3.5438786,-17.809547
28,-0.09565865248441696,3.0316741466522217,78.49738311767578,0.03169682510217937,-6.599577698878805,-90.02827034481459,12.316125,3.9065115,6.8693004,8.977673,-12.576415,-4.817421,11.374236,-3.5588548,0.28625473,8.888817,-13.699707,6.6833673,2.5714262,1.7375358,6.7757945,7.257342,6.330622,-15.993482,58.834686,17.685753,1.074593,8.5537,7.151737,-12.944996,35.8765,56.437336,0.70521456,3.5435421,-17.844398
29,-0.09751082211732864,3.057429552078247,78.50390625,0.02381417707322522,-6.587837605743007,-90.00511977135348,12.2769375,3.920914,6.863057,8.98899,-12.55758,-4.8277206,11.327458,-3.5347445,0.30689836,8.931991,-13.690734,6.615208,2.579135,1.703899,6.766949,7.1884217,6.357184,-16.017626,58.78433,17.607998,0.9943358,8.444256,7.1319075,-12.875055,35.95641,56.424538,0.7458037,3.543388,-17.921995
30,-0.0976937860250473,3.073866605758667,78.50909423828125,0.016102813426070027,-6.569212424204025,-89.96677054553416,12.228324,3.9370193,6.8598576,9.002349,-12.534647,-4.835292,11.263472,-3.5036328,0.3457641,9.001836,-13.684799,6.5159154,2.6061325,1.6617861,6.743423,7.11109,6.3822403,-16.023497,58.748013,17.535322,0.90341187,8.306496,7.1281624,-12.809572,36.043125,56.410866,0.8207316,3.5412717,-18.03927
31,-0.10222940146923065,3.094297170639038,78.51253509521484,0.008600045668272221,-6.547244508975443,-89.9222490951314,12.173458,3.9509223,6.852365,9.018436,-12.512717,-4.8415766,11.196569,-3.4754567,0.37916648,9.073517,-13.679861,6.4200273,2.6431105,1.6027317,6.7082787,7.032767,6.4160233,-16.026815,58.715965,17.459312,0.8191284,8.166286,7.1152186,-12.722146,36.13102,56.430717,0.90137595,3.5374358,-18.155798
32,-0.1123458743095398,3.120311737060547,78.5147933959961,0.0041960042719759675,-6.526210160799941,-89.8808154432478,12.12202,3.9590006,6.8341446,9.027107,-12.492041,-4.848031,11.148121,-3.4594007,0.38352874,9.108681,-13.667359,6.36218,2.6960535,1.5486463,6.6754684,6.938062,6.4368625,-16.060995,58.692516,17.372742,0.7585521,8.053796,7.125683,-12.670071,36.187878,56.424175,0.9581028,3.5387394,-18.220577
33,-0.12467553466558456,3.1394872665405273,78.51679229736328,0.005150270038279105,-6.5040017465102755,-89.84911220828097,12.07772,3.9590101,6.8063416,9.016764,-12.470237,-4.8544927,11.121826,-3.4603503,0.3500104,9.0933695,-13.645005,6.363055,2.779138,1.4780561,6.631271,6.8312993,6.4578366,-16.125809,58.680138,17.235899,0.72842216,7.9759736,7.146116,-12.621218,36.214756,56.423874,0.9848553,3.5464694,-18.209394
34,-0.13273799419403076,3.1562023162841797,78.51790618896484,0.009500494624788913,-6.479237119240028,-89.82071687645816,12.024044,3.954698,6.7705865,9.019609,-12.4616585,-4.8603945,11.099636,-3.4725013,0.29245088,9.0636835,-13.625415,6.400301,2.9039707,1.3852017,6.5715737,6.711063,6.492698,-16.230976,58.68113,17.057243,0.7200727,7.918191,7.1710544,-12.547036,36.20132,56.4532,0.98779386,3.5556738,-18.152876
35,-0.1354455053806305,3.174654722213745,78.51976013183594,0.01581619659110309,-6.4578336483552565,-89.78550903213304,11.976228,3.946359,6.723787,9.011488,-12.445139,-4.866607,11.088251,-3.489332,0.22041638,9.022385,-13.603379,6.4438167,3.0076146,1.3017256,6.5239367,6.5947967,6.5234175,-16.345585,58.66841,16.921694,0.7245046,7.8712754,7.1852393,-12.48674,36.187073,56.491703,0.9828219,3.5627294,-18.089947
36,-0.1348099261522293,3.195355176925659,78.52092742919922,0.020015090594678642,-6.444990331387493,-89.73281007502636,11.928344,3.9366996,6.661316,9.011907,-12.423496,-4.8740144,11.079792,-3.5047603,0.14409195,9.000081,-13.588783,6.4634132,3.0480206,1.243843,6.5072775,6.502142,6.556113,-16.469576,58.61435,16.900272,0.7352485,7.8274674,7.1553445,-12.4288845,36.189445,56.569836,0.97543305,3.5587513,-18.063921
37,-0.13418251276016235,3.210737943649292,78.5238037109375,0.025245133064853775,-6.447451546570259,-89.65660214240775,11.886366,3.9252872,6.5745573,9.01936,-12.3917,-4.8854804,11.077655,-3.5162752,0.06407487,9.006677,-13.584851,6.4440656,2.9616175,1.2410647,6.548868,6.453077,6.5764647,-16.586868,58.47968,17.062473,0.7532901,7.775376,7.0516906,-12.397682,36.236294,56.696877,0.9620272,3.5376658,-18.09166
38,-0.13266879320144653,3.2190966606140137,78.52835083007812,0.029287479282559044,-6.460792538378007,-89.56346938138385,11.846584,3.9115574,6.468097,9.035219,-12.355419,-4.89969,11.084074,-3.5275803,-0.024495637,9.025393,-13.586256,6.4042125,2.7896419,1.275333,6.634587,6.423587,6.586592,-16.693396,58.295742,17.36232,0.77900904,7.718285,6.8963337,-12.386147,36.29866,56.858788,0.9309707,3.5049691,-18.144596
39,-0.14617320895195007,3.250788450241089,78.53314208984375,0.035022690030532065,-6.472790592844738,-89.46254673674622,11.802676,3.89639,6.3582044,9.053461,-12.317912,-4.9111757,11.089775,-3.540909,-0.119124666,9.04644,-13.589931,6.363778,2.6290898,1.3050803,6.7052693,6.4045014,6.6031423,-16.83488,58.118774,17.663895,0.8135057,7.690102,6.74714,-12.372195,36.378246,57.031593,0.9290677,3.4722953,-18.214415
40,-0.1588396430015564,3.273927688598633,78.54002380371094,0.043112732765811186,-6.473173013557414,-89.36307696048625,11.748799,3.8812163,6.260626,9.069883,-12.283251,-4.914541,11.090463,-3.5583289,-0.21766445,9.053053,-13.589256,6.3428235,2.552422,1.2977885,6.7405453,6.332688,6.615825,-16.941614,58.039215,17.909811,0.8401885,7.6935477,6.660839,-12.3654,36.432137,57.14098,0.94844586,3.454939,-18.262339
41,-0.1633618324995041,3.3056790828704834,78.54179382324219,0.05044722010018123,-6.455072697645227,-89.26906753485467,11.679549,3.8696094,6.1848354,9.087154,-12.255477,-4.9054327,11.081118,-3.5788133,-0.32163337,9.042978,-13.585945,6.3425627,2.6435363,1.2246355,6.6946635,6.1956363,6.6422825,-17.094845,58.10312,18.06274,0.8713632,7.7664104,6.6945014,-12.353107,36.45718,57.16027,1.0369189,3.4605398,-18.296572
42,-0.17506572604179382,3.3275961875915527,78.54832458496094,0.05869128985923229,-6.42616077102896,-89.174739267806,11.599581,3.8602037,6.120327,9.10721,-12.231819,-4.8877797,11.067337,-3.6018817,-0.43184453,9.022223,-13.581569,6.3537984,2.8219073,1.1115367,6.6073737,6.0064225,6.667088,-17.238682,58.269135,18.19795,0.9021689,7.8814583,6.790043,-12.34283,36.46589,57.12592,1.161533,3.4808486,-18.319872
43,-0.18449580669403076,3.3409481048583984,78.55241394042969,0.07086875160405755,-6.394247337211704,-89.07579086829546,11.516559,3.8453424,6.054373,9.122803,-12.205916,-4.8683176,11.052356,-3.630142,-0.5436483,8.994277,-13.571631,6.380545,3.0312977,0.9901062,6.5202065,5.8204117,6.711825,-17.396774,58.429012,18.250883,0.9277292,7.999885,6.901665,-12.325882,36.434742,57.080936,1.2711331,3.5006819,-18.33429
44,-0.1885923594236374,3.366861581802368,78.55435943603516,0.09040440831116399,-6.367890914000567,-88.96675630917562,11.437481,3.818377,5.972954,9.131041,-12.17414,-4.853847,11.044224,-3.666007,-0.6538728,8.955345,-13.548096,6.4270597,3.1122768,0.91279334,6.484594,5.693092,6.729008,-17.432056,58.500313,18.230793,0.93115675,8.075821,6.9172015,-12.321946,36.435623,57.104782,1.3268708,3.5082922,-18.338568
45,-0.18532508611679077,3.390934944152832,78.55366516113281,0.1207926915836783,-6.341977704914978,-88.85052767303488,11.363438,3.770811,5.877384,9.116747,-12.130838,-4.846497,11.032062,-3.7142894,-0.749292,8.903044,-13.499988,6.516872,3.072298,0.8923423,6.5123124,5.647994,6.745828,-17.391514,58.425278,18.049118,0.9082069,8.107258,6.8339243,-12.323496,36.417118,57.20623,1.291232,3.4967897,-18.317162
46,-0.18747840821743011,3.415508270263672,78.55619812011719,0.15923793633045277,-6.314806451027524,-88.72803053303659,11.2899685,3.709335,5.7727556,9.089291,-12.081048,-4.842626,11.021007,-3.7717955,-0.83666694,8.831259,-13.430242,6.640184,2.9305017,0.9033227,6.5868425,5.6693954,6.763678,-17.24147,58.244816,17.766422,0.86139643,8.104534,6.670661,-12.335923,36.40484,57.357788,1.1948553,3.4749382,-18.270761
47,-0.1841304451227188,3.437242031097412,78.5571060180664,0.1984308320208732,-6.2985858640461565,-88.59315658366803,11.221091,3.6461446,5.654014,9.067532,-12.029686,-4.8400908,11.019935,-3.8312016,-0.93848896,8.769981,-13.371234,6.7514076,2.7401738,0.91850704,6.686408,5.712309,6.777912,-17.03455,58.039986,17.467747,0.8075098,8.070381,6.4866753,-12.362405,36.429634,57.50812,1.1007353,3.4504514,-18.238586
48,-0.20012226700782776,3.480043649673462,78.56151580810547,0.23413692411757753,-6.305825914958671,-88.44038604062263,11.162015,3.594269,5.516239,9.067686,-11.979437,-4.836871,11.044608,-3.8840034,-1.0778587,8.736347,-13.34873,6.804873,2.5798888,0.9113968,6.789638,5.718671,6.790013,-16.851498,57.90033,17.232233,0.7642449,8.009422,6.3511434,-12.400817,36.488945,57.604317,1.0615408,3.4301443,-18.257475
49,-0.2505607604980469,3.534322500228882,78.57257080078125,0.26008932255055106,-6.36161448385246,-88.24804525116534,11.124868,3.5612032,5.336758,9.108174,-11.934174,-4.834804,11.123236,-3.927037,-1.2924362,8.749142,-13.388881,6.7622633,2.4875176,0.8715101,6.912462,5.6375775,6.8025336,-16.748615,57.880325,17.077877,0.7360978,7.910163,6.2851577,-12.424649,36.554157,57.647736,1.0885116,3.4106197,-18.371778
50,-0.28076136112213135,3.5724337100982666,78.5801773071289,0.2819622053984391,-6.452138125707772,-88.02594754993811,11.105206,3.5380132,5.1254497,9.172125,-11.889592,-4.8341045,11.23956,-3.9649408,-1.5594572,8.795069,-13.4719715,6.6567545,2.4009418,0.80777353,7.0626407,5.527327,6.8253083,-16.651695,57.902756,16.966755,0.71245676,7.7688427,6.2443085,-12.445277,36.654266,57.65915,1.1597108,3.3900986,-18.550093
51,-0.30011120438575745,3.6032814979553223,78.58149719238281,0.3031489509949451,-6.531027173255694,-87.81482995340859,11.076663,3.514231,4.925437,9.235448,-11.843045,-4.8310037,11.340736,-4.001514,-1.8113623,8.844033,-13.555163,6.5497117,2.3546343,0.735391,7.1862235,5.413642,6.8502107,-16.58171,57.949623,16.863573,0.69745636,7.627671,6.2207723,-12.458186,36.7401,57.665836,1.2351996,3.3720198,-18.717897
52,-0.31241869926452637,3.6248178482055664,78.59008026123047,0.32911858451816983,-6.552245467972462,-87.6560562996005,11.01567,3.4785798,4.7801294,9.268341,-11.788484,-4.821356,11.374112,-4.041329,-1.9806643,8.865667,-13.595102,6.502297,2.3517768,0.66477025,7.236662,5.3502064,6.8781915,-16.51945,57.96971,16.742163,0.69305956,7.5204573,6.1994157,-12.473284,36.79909,57.680916,1.2851772,3.3618414,-18.79959
53,-0.3160227835178375,3.6502230167388916,78.59780883789062,0.35817036877282826,-6.482013045655208,-87.57964130322938,10.902046,3.4288146,4.7196813,9.255932,-11.724605,-4.803816,11.2991495,-4.083948,-2.0250058,8.848337,-13.570672,6.5445185,2.4362578,0.6096315,7.1639194,5.332396,6.8896904,-16.488708,57.986355,16.570694,0.7103486,7.468417,6.1843033,-12.486889,36.79453,57.726864,1.2885616,3.3616114,-18.745342
54,-0.3167038559913635,3.668708324432373,78.6073226928711,0.38990080250912895,-6.352470636748098,-87.55693798141323,10.753859,3.3708396,4.7145824,9.214213,-11.652783,-4.7804914,11.153792,-4.1283574,-1.988547,8.808506,-13.508337,6.6392,2.57596,0.5573409,7.013822,5.353392,6.895806,-16.467613,57.990852,16.379492,0.74466926,7.444558,6.182867,-12.507852,36.75923,57.768684,1.2670984,3.3727458,-18.605492
55,-0.2768957316875458,3.662287473678589,78.60640716552734,0.4246172835149291,-6.214742149769921,-87.54207794271177,10.601418,3.306709,4.71987,9.168,-11.5779505,-4.752871,10.998058,-4.176838,-1.9320058,8.763682,-13.437854,6.7466917,2.7398946,0.5077451,6.855021,5.375111,6.8973675,-16.471432,58.001656,16.208973,0.77506256,7.4350915,6.206178,-12.551711,36.696598,57.77689,1.2407113,3.3865116,-18.449154
56,-0.2696661651134491,3.6845619678497314,78.61051177978516,0.4666307919504801,-6.120799293931195,-87.48844690618282,10.474545,3.2382703,4.6901135,9.142715,-11.504837,-4.722224,10.88982,-4.2310977,-1.9169701,8.737104,-13.391409,6.8271823,2.8727307,0.45540515,6.7515783,5.377372,6.8927455,-16.493284,58.028095,16.105385,0.7837095,7.4298487,6.2357564,-12.612267,36.64622,57.760605,1.2383337,3.3972063,-18.356997
57,-0.27502813935279846,3.6997876167297363,78.61804962158203,0.5188849890996783,-6.085840280639935,-87.37880912842715,10.382788,3.1587775,4.6102095,9.14143,-11.432165,-4.685481,10.847912,-4.294396,-1.950389,8.724081,-13.367607,6.8856525,2.9567335,0.39296433,6.7238784,5.3527637,6.883991,-16.527357,58.074112,16.11755,0.7513233,7.409465,6.2744555,-12.697015,36.617847,57.7066,1.268384,3.4047976,-18.348206
58,-0.27859631180763245,3.728381633758545,78.623046875,0.5814451673293286,-6.08196080600008,-87.23922052921621,10.310077,3.0691557,4.505202,9.151487,-11.358162,-4.6430826,10.837868,-4.3649945,-2.003,8.71991,-13.353809,6.9378,3.003492,0.3080874,6.724199,5.3245597,6.8807836,-16.55627,58.138145,16.214226,0.69257593,7.3848853,6.2660294,-12.730607,36.614777,57.719563,1.3132427,3.4053526,-18.390635
59,-0.2861216962337494,3.769979238510132,78.63117980957031,0.641880057396769,-6.09587611963811,-87.0892267874516,10.248048,2.9830976,4.3902774,9.172557,-11.285041,-4.602026,10.846273,-4.4354014,-2.082086,8.730278,-13.357649,6.960172,3.0384984,0.22387289,6.7491684,5.299227,6.8776016,-16.592892,58.198154,16.313154,0.6386739,7.38667,6.2560835,-12.763885,36.61931,57.724365,1.3689502,3.4040236,-18.462713
60,-0.2947092652320862,3.8056633472442627,78.64137268066406,0.6914976581760075,-6.113761267992864,-86.94830521201648,10.189393,2.913505,4.2810483,9.2018795,-11.214111,-4.5689216,10.855836,-4.498723,-2.1945333,8.769131,-13.39132,6.929605,3.073961,0.15687585,6.7890496,5.2905564,6.870025,-16.636868,58.23436,16.333078,0.62128156,7.446154,6.262791,-12.819965,36.632496,57.69024,1.4350085,3.4038544,-18.5488
61,-0.2997109293937683,3.832580804824829,78.65412139892578,0.722207360080912,-6.143686473367927,-86.81040673079679,10.138148,2.86859,4.1703577,9.246523,-11.144552,-4.5497365,10.877655,-4.551371,-2.3688128,8.851373,-13.472299,6.8059425,3.0765297,0.10855034,6.8541074,5.3093486,6.8605437,-16.66419,58.23132,16.20054,0.65100884,7.585214,6.230862,-12.860564,36.68026,57.690987,1.5093434,3.3935113,-18.66985
62,-0.32753440737724304,3.874274730682373,78.66561889648438,0.7422867831423479,-6.188945441698232,-86.66913460169233,10.095712,2.8397162,4.0538425,9.306829,-11.077141,-4.5395765,10.913595,-4.598049,-2.5917773,8.970857,-13.5922785,6.6130667,3.046996,0.07562456,6.945758,5.3477073,6.8438144,-16.680456,58.202183,15.974623,0.7099322,7.7845917,6.181475,-12.9073305,36.763474,57.695553,1.5995136,3.3780386,-18.826708
63,-0.34636151790618896,3.9014458656311035,78.67839050292969,0.7595248452764363,-6.229258475945441,-86.54161473864012,10.052392,2.813915,3.949522,9.364472,-11.011572,-4.5289335,10.945788,-4.6436253,-2.8110812,9.085598,-13.713569,6.424269,3.0323477,0.041380405,7.0282955,5.395074,6.8233457,-16.691538,58.181023,15.7971325,0.7834928,8.00306,6.131175,-12.944122,36.841644,57.702297,1.6923372,3.3642414,-18.973888
64,-0.3520980179309845,3.9260401725769043,78.68814086914062,0.7831626867178795,-6.244440867700117,-86.44502299475297,10.000585,2.7778597,3.8755836,9.399394,-10.94747,-4.5081387,10.953963,-4.6935177,-2.9741719,9.15787,-13.799472,6.312878,3.0800486,-0.01406992,7.0680356,5.4446993,6.8086634,-16.704205,58.19565,15.807888,0.8583136,8.197645,6.0988774,-12.961633,36.87437,57.704155,1.7752234,3.3594096,-19.065413
65,-0.3565608263015747,3.95493221282959,78.69702911376953,0.8166698470728694,-6.221214091903805,-86.38925955263814,9.927704,2.7252524,3.8419828,9.409416,-10.885401,-4.4696217,10.928683,-4.7516336,-3.0634365,9.163767,-13.835296,6.3156176,3.211877,-0.08608217,7.0363355,5.4876466,6.772572,-16.723593,58.279728,16.11187,0.94343233,8.368802,6.1208267,-12.993455,36.863777,57.65891,1.8659862,3.376545,-19.076183
66,-0.34963008761405945,3.9799373149871826,78.70330047607422,0.8556216784703883,-6.173287693840249,-86.36345898784379,9.842952,2.664163,3.8374443,9.402774,-10.825084,-4.420073,10.881885,-4.8142567,-3.1079817,9.127911,-13.841489,6.387551,3.418217,-0.16647527,6.9616613,5.5137324,6.718045,-16.759882,58.420666,16.612364,1.0430834,8.534065,6.184981,-13.033177,36.796112,57.577946,1.9514613,3.4076207,-19.030737
67,-0.3385133147239685,3.992933511734009,78.70618438720703,0.8928733841594559,-6.119802427305035,-86.35345597715003,9.761695,2.6045098,3.8479912,9.388231,-10.770087,-4.37107,10.826841,-4.87386,-3.1258335,9.083089,-13.834517,6.479472,3.6372669,-0.23401538,6.8799,5.540505,6.6464744,-16.787071,58.58015,17.14903,1.1387336,8.694113,6.2517705,-13.080848,36.712173,57.492985,2.0268757,3.4367855,-18.970407
68,-0.32858604192733765,4.008110046386719,78.70924377441406,0.9230483790398919,-6.079664826155997,-86.34505042649073,9.699012,2.556265,3.8593602,9.375021,-10.724183,-4.33438,10.778167,-4.922251,-3.135691,9.057424,-13.828122,6.5421057,3.7999089,-0.28822577,6.832072,5.615376,6.6013746,-16.771608,58.67763,17.555588,1.2098873,8.838539,6.2647576,-13.107954,36.66217,57.451813,2.086766,3.445291,-18.93638
69,-0.3168443441390991,4.024982452392578,78.71279907226562,0.9408035930652134,-6.057431521289095,-86.33705105631145,9.659214,2.5241046,3.8727643,9.366445,-10.689362,-4.315456,10.72972,-4.9543896,-3.1341195,9.076742,-13.831233,6.5449195,3.908372,-0.28599593,6.822986,5.6846,6.506508,-16.700554,58.784363,17.798399,1.2489045,8.989346,6.2434397,-13.162449,36.63351,57.429462,2.1299539,3.4305303,-18.93732
70,-0.30764836072921753,4.0407562255859375,78.7169189453125,0.9515798662253983,-6.0429199120677515,-86.3355768896823,9.6336565,2.5023267,3.8935935,9.357513,-10.66315,-4.3073573,10.679735,-4.975081,-3.114592,9.113562,-13.831284,6.519845,3.9794524,-0.26369196,6.836053,5.7855973,6.413034,-16.584415,58.859554,17.95428,1.2670245,9.132774,6.1871724,-13.215971,36.627613,57.43107,2.1633742,3.3988683,-18.953705
71,-0.29509150981903076,4.068187713623047,78.7192611694336,0.9599803796565478,-6.0345128766852785,-86.34016223423299,9.620184,2.4844851,3.9159458,9.345084,-10.643826,-4.302563,10.639497,-4.992456,-3.088255,9.140009,-13.822268,6.5121417,4.012478,-0.2210962,6.864549,5.9050283,6.3129544,-16.447418,58.916504,18.072212,1.2706622,9.263862,6.102061,-13.273385,36.6431,57.45133,2.1824808,3.3602562,-18.97651
72,-0.28778713941574097,4.08141565322876,78.7211685180664,0.9691573184614756,-6.030123373274372,-86.34935306014172,9.614959,2.4647233,3.9331765,9.329041,-10.6313,-4.293836,10.623365,-5.014296,-3.0666773,9.12101,-13.793909,6.5669117,4.009243,-0.16996183,6.9032874,6.0464373,6.2249327,-16.3203,58.944084,18.19372,1.2669097,9.372397,5.9898977,-13.324804,36.676888,57.492016,2.1812909,3.3230746,-18.997456
73,-0.27487465739250183,4.099343299865723,78.7164077758789,0.9871066828369005,-6.029420702522193,-86.36892407195289,9.620294,2.437012,3.9503264,9.30488,-10.6237335,-4.2751765,10.642667,-5.04949,-3.0480886,9.021609,-13.727032,6.742385,3.9364572,-0.0915418,6.9569244,6.216004,6.1217327,-16.189135,58.936817,18.3332,1.2509307,9.461495,5.828706,-13.388532,36.75949,57.568867,2.15681,3.2826095,-19.02788
74,-0.266996294260025,4.110925674438477,78.70714569091797,1.007145878568185,-6.032739326150855,-86.3974010035611,9.636386,2.4053714,3.9685676,9.27468,-10.62208,-4.2519174,10.68552,-5.092204,-3.0279455,8.870855,-13.632824,6.9990535,3.8155928,0.0011054164,7.0276237,6.419038,6.0292454,-16.060278,58.884342,18.458797,1.2210903,9.5300255,5.6270013,-13.44911,36.87055,57.677094,2.1091046,3.2354202,-19.066847
75,-0.2575882077217102,4.116983890533447,78.70059967041016,1.0206343566990557,-6.0415524863902155,-86.423576786559,9.657464,2.381406,3.9759145,9.248375,-10.630087,-4.2333293,10.735387,-5.1260376,-3.0134032,8.726293,-13.546827,7.235465,3.6843746,0.09850128,7.100293,6.6195507,5.939981,-15.934317,58.83892,18.577383,1.1889096,9.580134,5.427941,-13.509575,36.97921,57.77672,2.0516992,3.1974692,-19.090096
76,-0.24586567282676697,4.120833396911621,78.69463348388672,1.0172577940330587,-6.056648962738707,-86.43602255111198,9.676857,2.3760185,3.9600017,9.236498,-10.651373,-4.228867,10.775088,-5.1347995,-3.0119357,8.64709,-13.506218,7.350185,3.5987508,0.17814057,7.161287,6.7882977,5.875048,-15.834283,58.837734,18.684933,1.166515,9.610358,5.2774997,-13.553962,37.034252,57.83137,1.9931502,3.1829388,-19.072512
77,-0.23298293352127075,4.120942115783691,78.69120025634766,0.985174398350839,-6.08436282895864,-86.43148252551853,9.695196,2.402419,3.9103868,9.251873,-10.696926,-4.2470694,10.796013,-5.103438,-3.0325873,8.680467,-13.545047,7.2702546,3.5610988,0.25229275,7.2067227,6.910417,5.8096747,-15.7383,58.91324,18.803432,1.1644735,9.624742,5.191534,-13.599184,37.031494,57.816498,1.9304008,3.208365,-18.983952
78,-0.22182925045490265,4.135071277618408,78.68482971191406,0.9312172315290275,-6.121955949648562,-86.4158934069685,9.716159,2.4516327,3.8356845,9.283254,-10.760219,-4.2812614,10.811881,-5.043597,-3.0692244,8.778091,-13.6328125,7.0650253,3.5613809,0.31677678,7.2446284,7.008503,5.76653,-15.663452,59.02672,18.9173,1.1743183,9.619617,5.146778,-13.630592,36.9767,57.760586,1.8549249,3.2603176,-18.845146
79,-0.21864598989486694,4.139942169189453,78.68175506591797,0.8763081594624809,-6.157789182109982,-86.39206591065634,9.732625,2.5008328,3.753459,9.316853,-10.824762,-4.3168187,10.822907,-4.981514,-3.1052454,8.88742,-13.724668,6.8468604,3.574034,0.3669171,7.276164,7.0925455,5.7433686,-15.609703,59.153942,19.00585,1.1783725,9.595267,5.1173987,-13.648039,36.9055,57.696236,1.7895881,3.3135462,-18.710482
80,-0.21237707138061523,4.142514705657959,78.67794799804688,0.8384369039305777,-6.180233047402379,-86.36313655013754,9.740215,2.5280256,3.6808245,9.3344555,-10.871916,-4.3394184,10.834284,-4.941768,-3.1246638,8.943495,-13.768352,6.7281404,3.5757217,0.39846355,7.2992983,7.1684494,5.7358785,-15.584082,59.279106,19.044424,1.1590492,9.555134,5.0814075,-13.653771,36.857014,57.653465,1.7619002,3.3439355,-18.636341
81,-0.19228874146938324,4.159799098968506,78.66727447509766,0.8260150847529075,-6.182635044049508,-86.32784678136076,9.732124,2.5232844,3.6220598,9.331884,-10.894622,-4.344457,10.84224,-4.933011,-3.1116693,8.926339,-13.739328,6.7572746,3.5638123,0.41172957,7.3186154,7.2135205,5.7313576,-15.5811615,59.42653,19.055227,1.1036404,9.495546,5.037604,-13.658027,36.813606,57.626713,1.7694974,3.3385992,-18.636753
82,-0.18840967118740082,4.159852981567383,78.66598510742188,0.8269960379612472,-6.17273998039111,-86.28486160495898,9.71274,2.5004113,3.5674863,9.319152,-10.903676,-4.339871,10.847343,-4.940622,-3.0792198,8.868188,-13.667255,6.868262,3.5588396,0.413946,7.3331785,7.2227144,5.7299657,-15.614583,59.606415,19.037527,1.0244895,9.420155,4.9997015,-13.661299,36.754036,57.603123,1.8018435,3.3124614,-18.6816
83,-0.17631906270980835,4.164096832275391,78.66175079345703,0.832040764376943,-6.159588981155368,-86.23831109584354,9.6920805,2.470887,3.5156074,9.302523,-10.909638,-4.329858,10.85577,-4.956409,-3.052344,8.795781,-13.588269,7.0014744,3.5576036,0.41166523,7.342978,7.227029,5.735784,-15.666257,59.773746,18.964918,0.93991977,9.330961,4.974597,-13.660266,36.697277,57.579624,1.845348,3.2850575,-18.751362
84,-0.15951722860336304,4.174030780792236,78.658447265625,0.8331331956422499,-6.1528331630753765,-86.19043621892826,9.677214,2.4470391,3.462336,9.293731,-10.924795,-4.3186293,10.872484,-4.9720993,-3.0580955,8.738875,-13.539275,7.097494,3.5523927,0.4166378,7.3567863,7.250767,5.7457848,-15.702823,59.884754,18.824814,0.8646366,9.225853,4.956319,-13.65494,36.647297,57.558453,1.8788475,3.2750487,-18.81928
85,-0.14794328808784485,4.175131320953369,78.6575698852539,0.8256981351289877,-6.158615341795337,-86.14215322096862,9.673933,2.4336746,3.4102833,9.299391,-10.95452,-4.305934,10.90541,-4.9863825,-3.1143885,8.706544,-13.538173,7.1337934,3.5566843,0.42988917,7.378391,7.2927175,5.766767,-15.736091,59.935,18.553593,0.80043095,9.100684,4.9533277,-13.638424,36.59319,57.539642,1.8923805,3.2936258,-18.89408
86,-0.13089114427566528,4.176512718200684,78.654541015625,0.8151471968551803,-6.170712648016441,-86.09177494953313,9.677192,2.4241114,3.3596442,9.312339,-10.991568,-4.2900486,10.95153,-5.0034285,-3.204035,8.679175,-13.560904,7.1445813,3.5414705,0.4515154,7.4028616,7.3453403,5.7799582,-15.741996,59.94998,18.19087,0.73834693,8.957986,4.952117,-13.624891,36.56985,57.525536,1.9094975,3.3302827,-18.985743
87,-0.10668095201253891,4.185453414916992,78.64563751220703,0.8063771848764967,-6.1800499610787805,-86.03882237695791,9.67715,2.4124575,3.30525,9.324371,-11.030384,-4.2728457,10.994275,-5.0227966,-3.2986393,8.654755,-13.587033,7.1544533,3.5312243,0.46445438,7.426856,7.4165373,5.815695,-15.7456875,59.909233,17.8387,0.68458104,8.7999935,4.9420357,-13.582628,36.53048,57.535774,1.913268,3.363405,-19.065056
88,-0.09087144583463669,4.181117534637451,78.64421081542969,0.7987873783907126,-6.177612513021671,-85.98233258208454,9.6632595,2.393384,3.2414896,9.328752,-11.066086,-4.25627,11.020611,-5.043455,-3.370991,8.623927,-13.592121,7.1879807,3.5085092,0.47984916,7.446135,7.4884353,5.8406386,-15.720456,59.83961,17.62118,0.6395068,8.639811,4.928902,-13.548296,36.483936,57.54023,1.9118547,3.3807642,-19.104643
89,-0.0697740912437439,4.188055992126465,78.63836669921875,0.7972743085422556,-6.1577314064984074,-85.92063601951786,9.632694,2.3629463,3.160518,9.313059,-11.093242,-4.244233,11.028535,-5.0645285,-3.4072633,8.565758,-13.553068,7.2706504,3.4748385,0.4874244,7.459655,7.571408,5.8729277,-15.65832,59.71715,17.613977,0.6033549,8.451471,4.8985224,-13.499068,36.395695,57.5593,1.8833095,3.3699405,-19.072931
90,-0.0520692840218544,4.186270713806152,78.63520050048828,0.7965918067578229,-6.1260304230515725,-85.85439469685133,9.58901,2.3247118,3.067582,9.287413,-11.11706,-4.234505,11.022863,-5.0869045,-3.4238532,8.494799,-13.4907675,7.3830967,3.430943,0.4972156,7.469251,7.6604605,5.89925,-15.567508,59.55314,17.740835,0.5745634,8.24323,4.865845,-13.454556,36.283817,57.575287,1.8387821,3.3437781,-18.99271
91,-0.025127114728093147,4.183586597442627,78.62773132324219,0.7971333696717046,-6.09164093179498,-85.78765832725293,9.541037,2.2852972,2.9760907,9.264926,-11.142796,-4.2198873,11.010554,-5.1104255,-3.4402978,8.435706,-13.435109,7.4819226,3.3934805,0.50869715,7.477774,7.7467284,5.9240456,-15.48082,59.370426,17.880749,0.5531308,8.059801,4.835433,-13.408481,36.180347,57.592133,1.8019413,3.3144577,-18.9159
92,0.008094639517366886,4.191872596740723,78.61649322509766,0.794068593859315,-6.063548612501146,-85.72407884374594,9.498728,2.2503846,2.8997633,9.255998,-11.174122,-4.193083,10.999654,-5.1359005,-3.475902,8.412357,-13.416212,7.523768,3.3782837,0.51605314,7.485239,7.8253484,5.956172,-15.431652,59.19127,17.911497,0.54059875,7.946596,4.804778,-13.344446,36.120857,57.628326,1.797501,3.2935207,-18.896885
93,0.04765704274177551,4.201091766357422,78.61067199707031,0.7813683450972737,-6.048218664917316,-85.6604394296832,9.460463,2.225535,2.8389008,9.279219,-11.21951,-4.1459956,10.993095,-5.159509,-3.5418544,8.449522,-13.456975,7.4682555,3.3920448,0.53495383,7.496864,7.881524,5.977715,-15.44485,59.02022,17.780663,0.55233115,7.934579,4.801494,-13.30057,36.13696,57.64581,1.8590801,3.282494,-18.975563
94,0.087007537484169,4.203212738037109,78.61093139648438,0.7641868278155844,-6.039611459489615,-85.59642462934836,9.424432,2.2057395,2.7875016,9.319901,-11.272518,-4.0845537,10.986394,-5.182993,-3.6256914,8.5273075,-13.535507,7.3482337,3.4258885,0.55431193,7.50928,7.9273477,6.001595,-15.497172,58.840935,17.558632,0.58250517,7.991561,4.8070645,-13.253644,36.202244,57.66761,1.9627297,3.2739277,-19.115585
95,0.1259213387966156,4.196593284606934,78.61441040039062,0.748010960649429,-6.027093893470366,-85.53917002184554,9.390256,2.1837232,2.7490757,9.356085,-11.323349,-4.022316,10.975124,-5.212231,-3.7115557,8.608846,-13.619606,7.2297897,3.4672062,0.5735584,7.5180817,7.9787493,6.0277042,-15.551696,58.662468,17.311934,0.60196936,8.0772915,4.8102713,-13.20236,36.274014,57.694653,2.062927,3.2753592,-19.250893
96,0.16087758541107178,4.180471420288086,78.62220764160156,0.7391480820634262,-6.000554864444761,-85.49649885430098,9.359011,2.1526818,2.7273848,9.365884,-11.363169,-3.973059,10.960731,-5.252665,-3.7844167,8.644177,-13.669608,7.179081,3.5073147,0.6010091,7.523689,8.036214,6.041124,-15.570761,58.507484,17.112783,0.581244,8.153612,4.8213725,-13.173484,36.301228,57.691982,2.1128347,3.2981913,-19.311123
97,0.21561607718467712,4.1819682121276855,78.61943817138672,0.741640961008701,-5.953500084617267,-85.47181397472069,9.332387,2.1070328,2.7283974,9.332791,-11.383627,-3.9453096,10.936029,-5.312647,-3.8446343,8.625057,-13.677919,7.2296867,3.5311906,0.6339865,7.517591,8.111715,6.045616,-15.563434,58.36046,16.95668,0.5125219,8.221054,4.8209033,-13.161314,36.28507,57.679775,2.09707,3.357209,-19.258913
98,0.2611498236656189,4.169393539428711,78.62140655517578,0.7526913953341964,-5.893210208976435,-85.46055986497016,9.310163,2.0522265,2.7483947,9.271599,-11.39129,-3.930459,10.909546,-5.3862424,-3.8996186,8.563622,-13.6585655,7.340655,3.5619688,0.6587692,7.505351,8.210975,6.0635214,-15.548371,58.198517,16.821604,0.4134616,8.29243,4.790888,-13.109496,36.2124,57.704487,2.0148406,3.4404104,-19.13451
99,0.3132980465888977,4.1559038162231445,78.61963653564453,0.7627114299445047,-5.827542529447124,-85.45815553379904,9.288351,1.9947014,2.7763984,9.205342,-11.398549,-3.9155614,10.877185,-5.462289,-3.9412272,8.497298,-13.633759,7.4673514,3.596609,0.69142836,7.488801,8.314205,6.0682864,-15.49332,58.077076,16.713991,0.28928554,8.360711,4.7784758,-13.085875,36.14182,57.703968,1.9352102,3.5191445,-19.001785
100,0.36805251240730286,4.153048992156982,78.6187744140625,0.7682605195493316,-5.76560734934427,-85.46026025464718,9.264699,1.9407234,2.8014617,9.154293,-11.415606,-3.8879628,10.841147,-5.5286217,-3.9623258,8.451646,-13.619311,7.5649447,3.6507466,0.7244993,7.4704857,8.42485,6.06814,-15.367643,58.018204,16.653498,0.14788617,8.408974,4.7712584,-13.058326,36.07565,57.72217,1.8811328,3.555177,-18.919273
101,0.42228052020072937,4.133246898651123,78.61632537841797,0.76488362005872,-5.707078608050313,-85.4650630489144,9.23231,1.8954349,2.8200347,9.127513,-11.445714,-3.844031,10.796326,-5.578298,-3.9633844,8.438188,-13.621952,7.6108494,3.72907,0.75964516,7.4469924,8.551784,6.0600758,-15.143948,58.03264,16.662106,-0.04137684,8.429256,4.7810416,-13.035494,36.032955,57.75002,1.8790402,3.5279398,-18.915009
102,0.4865630865097046,4.115805149078369,78.61334228515625,0.7565607377205003,-5.648503637985098,-85.47507382556468,9.196062,1.8533293,2.8381293,9.110679,-11.481943,-3.790738,10.743652,-5.619765,-3.947605,8.441942,-13.632345,7.6327043,3.800734,0.7941128,7.41902,8.698056,6.038046,-14.808097,58.10324,16.739054,-0.27458334,8.426156,4.7780495,-13.00996,36.023083,57.806858,1.905994,3.4586,-18.952433
103,0.5495781898498535,4.091139316558838,78.60819244384766,0.7498123072729412,-5.59223958410264,-85.49287822095935,9.166925,1.8051785,2.8593137,9.09469,-11.522303,-3.7309773,10.692641,-5.6624565,-3.9111176,8.447329,-13.639655,7.6608977,3.8497596,0.8306362,7.3864784,8.857102,5.9920974,-14.413035,58.215443,16.83554,-0.4826376,8.423681,4.75154,-12.979437,36.050854,57.899994,1.9463116,3.381476,-19.006374
104,0.6203979849815369,4.06655216217041,78.60066986083984,0.7516762045161636,-5.540962231250776,-85.52044448380677,9.156537,1.7427908,2.8865817,9.068471,-11.56363,-3.6676207,10.65323,-5.716139,-3.8507063,8.439367,-13.633722,7.7259665,3.9121609,0.8697494,7.357883,9.0162735,5.949982,-14.076754,58.337612,16.87952,-0.5961186,8.438742,4.738559,-12.961987,36.05118,57.979507,1.9661179,3.330618,-19.04049
105,0.6995105743408203,4.036646842956543,78.58972930908203,0.7624102142666765,-5.493203941532397,-85.56250907715865,9.167463,1.6615525,2.9214895,9.0258465,-11.602738,-3.6022885,10.622892,-5.781958,-3.746768,8.413619,-13.604866,7.844037,3.9555228,0.9087534,7.333503,9.186263,5.898754,-13.756268,58.463978,16.846226,-0.57603174,8.489387,4.706116,-12.950847,36.068336,58.0777,1.9706403,3.31573,-19.051003
106,0.7820864915847778,3.9915714263916016,78.57868957519531,0.7784691284059816,-5.448280476194909,-85.61642620796678,9.193437,1.5672954,2.961858,8.973732,-11.642031,-3.533053,10.599158,-5.854763,-3.6075191,8.375607,-13.559737,7.99623,3.9840097,0.9518252,7.309209,9.364297,5.829803,-13.426291,58.613796,16.772665,-0.46580163,8.563157,4.6582656,-12.945592,36.10321,58.196056,1.9691312,3.3188689,-19.053856
107,0.8762659430503845,3.940324544906616,78.57027435302734,0.7982415500192865,-5.409787978825911,-85.67344767409206,9.233317,1.4667275,3.0054765,8.921481,-11.687726,-3.4573288,10.587473,-5.935694,-3.4708662,8.3368435,-13.519052,8.16049,4.0257287,0.9925014,7.2890673,9.54798,5.778064,-13.14458,58.77338,16.70407,-0.3239925,8.621786,4.6278143,-12.947114,36.10714,58.29652,1.9555506,3.3304214,-19.04908
108,0.9696927070617676,3.890299081802368,78.56077575683594,0.8163215666088457,-5.381820143758099,-85.72472050724933,9.285633,1.3674309,3.050109,8.879709,-11.746425,-3.3725746,10.5977545,-6.024652,-3.3753726,8.299874,-13.498504,8.31453,4.019825,1.040652,7.271548,9.737003,5.705976,-12.848699,58.958675,16.735956,-0.21300298,8.6322365,4.5784125,-12.9552765,36.13093,58.40626,1.9429054,3.3418078,-19.044939
109,1.059255838394165,3.8330442905426025,78.54728698730469,0.834799640188394,-5.369517181697324,-85.76667245334403,9.355523,1.270035,3.0945587,8.851016,-11.820292,-3.2734513,10.639064,-6.1260996,-3.3445406,8.264243,-13.504388,8.455997,4.022354,1.0831869,7.262929,9.93579,5.66871,-12.625277,59.1458,16.863766,-0.14405988,8.569823,4.552344,-12.964561,36.100952,58.48818,1.9102437,3.3511283,-19.02836
110,1.1477165222167969,3.767768383026123,78.5390625,0.8518780026796748,-5.369183535035057,-85.80436930859902,9.440804,1.1712644,3.139991,8.832423,-11.9073715,-3.1629078,10.704265,-6.238446,-3.3536618,8.227611,-13.526632,8.595536,4.011993,1.122044,7.260303,10.1492605,5.648492,-12.4347315,59.338165,17.059988,-0.087434866,8.45715,4.5299225,-12.973401,36.054264,58.561634,1.8665779,3.363038,-19.002867
111,1.2418898344039917,3.7002499103546143,78.52930450439453,0.8702236492949531,-5.372025503214628,-85.84199839623085,9.536944,1.07098,3.1878443,8.809544,-11.998766,-3.050683,10.778182,-6.3540683,-3.3688114,8.193196,-13.558145,8.730466,3.9804664,1.1575226,7.2602353,10.365418,5.6311097,-12.243017,59.54569,17.300514,-0.037574,8.321033,4.5029182,-12.987467,36.011536,58.628532,1.8260494,3.3762286,-18.984373
112,1.349612832069397,3.636288642883301,78.51329803466797,0.8847415475231207,-5.368389319702958,-85.88300055921765,9.630581,0.9699606,3.2391195,8.784128,-12.093697,-2.946744,10.842339,-6.464759,-3.3559382,8.168254,-13.5932255,8.857715,3.969207,1.1915015,7.2459807,10.576162,5.6264277,-12.108661,59.774494,17.519218,0.019349357,8.199969,4.4942956,-12.999821,35.95337,58.685295,1.8029963,3.3880346,-18.995474
113,1.446213722229004,3.5516862869262695,78.50420379638672,0.900075278673998,-5.3604185573831336,-85.92859408226236,9.733057,0.8657064,3.2977405,8.739547,-12.183089,-2.8558943,10.903312,-6.56923,-3.2960086,8.140237,-13.621317,8.990462,3.958447,1.2248288,7.22811,10.776239,5.62985,-11.98422,60.0313,17.729103,0.08437224,8.052238,4.494221,-13.017033,35.89385,58.729954,1.797478,3.3986921,-19.054785
114,1.5573365688323975,3.48319935798645,78.48855590820312,0.9137512676142607,-5.351130552988717,-85.97656673757002,9.84311,0.7594202,3.3618588,8.687283,-12.273984,-2.7723627,10.96589,-6.6710258,-3.210528,8.111218,-13.648695,9.125707,3.9480677,1.2586266,7.2051105,10.973861,5.642941,-11.886201,60.310104,17.941786,0.15337871,7.879241,4.5040545,-13.037637,35.83083,58.76484,1.8064508,3.408696,-19.148947
115,1.6760027408599854,3.4009530544281006,78.47190856933594,0.9234136307859021,-5.334581137151595,-86.02609811744259,9.947919,0.6545535,3.424344,8.633285,-12.369067,-2.689402,11.01722,-6.7710667,-3.1264236,8.096199,-13.688045,9.236494,3.9503653,1.283931,7.1738915,11.169398,5.671384,-11.832224,60.594845,18.15604,0.21850456,7.756423,4.535236,-13.06856,35.74929,58.766575,1.8237886,3.419994,-19.234383
116,1.7934907674789429,3.3203299045562744,78.45606994628906,0.9253424085696241,-5.304280307400601,-86.07607383301972,10.032592,0.5551655,3.477951,8.586898,-12.472878,-2.6004267,11.045732,-6.8692665,-3.0708585,8.109424,-13.752609,9.295536,3.9982867,1.2961911,7.127264,11.36051,5.728978,-11.876115,60.87082,18.352896,0.2738585,7.761568,4.6170154,-13.12179,35.617287,58.699257,1.8461851,3.4328535,-19.26593
117,1.906070351600647,3.232698917388916,78.44567108154297,0.9097808698798311,-5.260150394930313,-86.12404942064,10.091157,0.4719002,3.5159533,8.558178,-12.592974,-2.5069838,11.050908,-6.9534416,-3.061005,8.16702,-13.862965,9.264767,4.1061134,1.2901149,7.038566,11.525683,5.787642,-12.043373,61.205555,18.568916,0.31518275,8.000286,4.73812,-13.165045,35.436733,58.59862,1.8894784,3.4501562,-19.216715
118,2.027073860168457,3.1538736820220947,78.42957305908203,0.8811400220713893,-5.204884393871323,-86.1712085404008,10.132832,0.3998462,3.543557,8.538251,-12.724117,-2.4115193,11.0389385,-7.026685,-3.0789933,8.257042,-14.005527,9.168427,4.294153,1.266011,6.925794,11.6671915,5.8831377,-12.35073,61.571217,18.780006,0.34760788,8.396695,4.9333205,-13.222092,35.174072,58.415348,1.9413452,3.4717433,-19.108406
119,2.160581111907959,3.0741846561431885,78.40839385986328,0.858422127960246,-5.13728130571396,-86.22263063117444,10.163085,0.3171603,3.5721767,8.513665,-12.854252,-2.308068,11.006646,-7.1134005,-3.0994031,8.355757,-14.145206,9.074011,4.4523263,1.2428907,6.815336,11.827113,5.982455,-12.649222,61.8839,18.960182,0.38249603,8.79038,5.1053977,-13.280274,34.9198,58.251934,1.9778162,3.4873087,-19.003746
120,2.2921648025512695,2.9927878379821777,78.38972473144531,0.856667858978661,-5.055536928257935,-86.28288337363877,10.189189,0.2029177,3.6133308,8.466832,-12.969234,-2.1907098,10.955236,-7.2359004,-3.0983598,8.430437,-14.243356,9.050642,4.4988794,1.2454985,6.736045,12.03385,6.059192,-12.825643,62.065517,19.072824,0.43118346,9.022712,5.180604,-13.337462,34.729023,58.18452,1.9675714,3.487073,-18.962124
121,2.426518678665161,2.903907299041748,78.370361328125,0.8720488546220434,-4.965134073523972,-86.34361038136629,10.213482,0.059937976,3.658848,8.4050865,-13.069179,-2.05494,10.912497,-7.389906,-3.092792,8.439168,-14.281958,9.150516,4.391183,1.30594,6.7175717,12.324432,6.121178,-12.844072,62.034153,19.076517,0.49862444,9.010059,5.148724,-13.420323,34.608646,58.20931,1.8827767,3.461851,-19.018507
122,2.572974681854248,2.8159027099609375,78.35486602783203,0.8933304728795661,-4.865001219197385,-86.40418264916626,10.23165,-0.09896553,3.705059,8.334383,-13.160803,-1.9046756,10.874617,-7.5591516,-3.0928853,8.399399,-14.279481,9.328273,4.1567554,1.4153922,6.7320943,12.670071,6.1469984,-12.742248,61.868664,19.013659,0.5782957,8.857613,5.0244265,-13.517615,34.557766,58.319042,1.7520347,3.4192317,-19.138697
123,2.7331113815307617,2.728018283843994,78.34385681152344,0.926241838684022,-4.742876061449979,-86.48113149097223,10.233492,-0.27755842,3.7691326,8.248699,-13.246265,-1.7469774,10.791403,-7.7463794,-3.0655446,8.3796835,-14.259522,9.508017,3.8964097,1.5276228,6.7441792,13.003518,6.148342,-12.610092,61.679863,18.932796,0.66040224,8.667446,4.8803596,-13.641246,34.52435,58.43277,1.614661,3.3788307,-19.258448
124,2.8932912349700928,2.6619873046875,78.32291412353516,1.0001375107914547,-4.580019888654261,-86.5973691093472,10.164397,-0.49788672,3.8747575,8.224731,-13.372215,-1.5883601,10.503256,-7.981844,-2.9561174,8.662424,-14.355341,9.616323,3.7204525,1.570433,6.711559,13.25932,6.1450515,-12.538145,61.577785,18.88161,0.7358686,8.542795,4.772051,-13.777681,34.4552,58.498333,1.5087732,3.358158,-19.316727
125,3.052593469619751,2.6099653244018555,78.2719955444336,1.1871078051225148,-4.316627164748236,-86.78289844764994,9.977424,-0.84139395,4.0590563,8.216723,-13.5056,-1.415557,9.239279,-8.379278,-2.6142418,10.712355,-15.357247,9.643048,3.704464,1.4474031,6.5747437,13.42067,6.1588554,-12.55126,61.587124,18.877783,0.7994841,8.518987,4.7278533,-13.92398,34.323402,58.48063,1.4455128,3.3682344,-19.284363
126,3.2039198875427246,2.5383379459381104,78.21541595458984,1.4195191754356566,-4.000504692273376,-86.99959448675632,9.746257,-1.2408276,4.2814665,8.181271,-13.626212,-1.2338263,7.770764,-8.819243,-2.182844,13.041304,-16.485514,9.625649,3.7670152,1.2444587,6.3931346,13.525581,6.1927614,-12.612779,61.641163,18.887062,0.85649365,8.53427,4.7183905,-14.07895,34.14875,58.41153,1.4007425,3.396544,-19.197247
127,3.346968412399292,2.4699182510375977,78.14724731445312,1.6783623228258449,-3.69572895347872,-87.24169041252395,9.557584,-1.6717948,4.5258965,8.094257,-13.736099,-1.05593,6.2341146,-9.264977,-1.7025485,15.521502,-17.618324,9.586131,3.852632,1.0007353,6.235046,13.600021,6.245305,-12.7071905,61.702866,18.883917,0.9126589,8.544431,4.71825,-14.239871,33.959602,58.32511,1.3645705,3.427041,-19.091166
128,3.496890068054199,2.4075844287872314,78.05972290039062,1.942587560365251,-3.4640634030630544,-87.50493125304423,9.493201,-2.110271,4.7758417,7.935826,-13.839335,-0.89480877,4.7723513,-9.689846,-1.2163215,18.002083,-18.62397,9.540791,3.906949,0.7563706,6.165105,13.668882,6.313111,-12.818674,61.73688,18.843702,0.97402966,8.506002,4.7015257,-14.402698,33.78319,58.25653,1.325387,3.4438744,-19.002422
129,3.649585247039795,2.353832244873047,77.9576187133789,2.2321557834187953,-3.3183197050833297,-87.79500442293228,9.579595,-2.584345,5.029859,7.6810493,-13.932135,-0.74594426,3.4080923,-10.130559,-0.7023755,20.463707,-19.517262,9.506318,3.9229543,0.49763545,6.1990027,13.75019,6.3906064,-12.922726,61.722416,18.7514,1.0392421,8.39526,4.653801,-14.5662565,33.62817,58.22251,1.2772261,3.4425159,-18.93729
130,3.8024260997772217,2.2728772163391113,77.85447692871094,2.5505895225683286,-3.2233052867554317,-88.11293962754146,9.778047,-3.0959294,5.2934456,7.3251247,-14.004514,-0.6054425,2.056779,-10.59052,-0.14359534,22.99159,-20.358244,9.462267,3.9250875,0.2142176,6.2987947,13.826649,6.476656,-13.030258,61.68477,18.624912,1.1065336,8.240703,4.5868635,-14.729707,33.483673,58.20797,1.2272305,3.4314218,-18.878305
131,3.950037717819214,2.1795334815979004,77.75245666503906,2.849692596138124,-3.1664143171982193,-88.44883042663409,9.898544,-3.5678322,5.5718374,7.2445855,-14.235402,-0.4880542,0.6973932,-11.006151,0.40857905,25.59567,-21.083569,9.366162,3.9097521,-0.054366805,6.4454145,13.869809,6.5769596,-13.18193,61.657322,18.487759,1.1812831,8.076929,4.5120554,-14.889269,33.347347,58.203487,1.1859661,3.4139378,-18.826277
132,4.0864973068237305,2.079406261444092,77.65957641601562,3.089543840347779,-3.1368379118488776,-88.79293371358987,10.024242,-3.950859,5.8581967,7.2365937,-14.498891,-0.40671486,-0.68593913,-11.315293,0.8991605,28.284975,-21.62853,9.177755,3.8743618,-0.27160093,6.620215,13.851777,6.7011433,-13.420467,61.671707,18.362549,1.2687564,7.937606,4.442591,-15.038111,33.21488,58.198242,1.1628503,3.393353,-18.781414
133,4.206036567687988,1.973783016204834,77.58081817626953,3.2604690516509334,-3.147280945175043,-89.1560097681873,10.202837,-4.233645,6.1595335,7.2350926,-14.760093,-0.37689102,-2.0911713,-11.504064,1.3392717,31.086002,-21.938906,8.936022,3.8285198,-0.43726027,6.833922,13.761198,6.861403,-13.774743,61.738426,18.145258,1.3902464,7.8555264,4.3749337,-15.17129,33.080925,58.194206,1.1647389,3.3665907,-18.72931
134,4.278416156768799,1.850545048713684,77.51214599609375,3.386307368690028,-3.1977666757406737,-89.53940123403166,10.439625,-4.4493084,6.475099,7.2265654,-15.019145,-0.3875212,-3.5179183,-11.615026,1.7476542,33.99928,-22.064957,8.637139,3.7754295,-0.5747938,7.090215,13.615174,7.0592203,-14.222086,61.83519,17.857561,1.5357926,7.802577,4.30659,-15.2862,32.943672,58.19532,1.1835115,3.3327343,-18.674484
135,4.367380142211914,1.7405132055282593,77.45387268066406,3.475376260558442,-3.2593983749951954,-89.91984409318641,10.694827,-4.61121,6.788965,7.217832,-15.274364,-0.41165045,-4.9682937,-11.674647,2.0761156,36.967377,-22.09791,8.181515,3.6999722,-0.68455607,7.3596897,13.427604,7.283732,-14.72597,61.947014,17.709982,1.6640426,7.721169,4.2443914,-15.3806925,32.808224,58.202595,1.2090595,3.298132,-18.646729
136,4.463912010192871,1.6254279613494873,77.41117858886719,3.5303427074707967,-3.3031476165576996,-90.27416477183048,10.930574,-4.7338176,7.084971,7.2101426,-15.521988,-0.42163628,-6.443663,-11.705572,2.2761867,39.933376,-22.127619,7.473025,3.584217,-0.764425,7.612756,13.21162,7.5178614,-15.246378,62.062504,17.915825,1.733368,7.5544167,4.192889,-15.452962,32.68323,58.218998,1.2316921,3.2693522,-18.676828
137,4.534124374389648,1.5015137195587158,77.3780288696289,3.5526048180644323,-3.333101124218376,-90.60110056154116,11.149004,-4.817352,7.3647866,7.2038326,-15.75659,-0.40787324,-7.9820857,-11.726248,2.3291202,43.034065,-22.141048,6.336174,3.4063828,-0.803805,7.8547873,12.971808,7.753183,-15.789173,62.189476,18.678366,1.7061139,7.2265215,4.1347136,-15.501782,32.590977,58.267963,1.2551795,3.2368984,-18.800732
138,4.605088233947754,1.3530550003051758,77.34092712402344,3.540215125264092,-3.361317083840425,-90.9115115100639,11.366344,-4.8574057,7.635794,7.198066,-15.98277,-0.38530302,-9.563434,-11.734502,2.2551348,46.237637,-22.099031,4.8649993,3.176751,-0.8064103,8.095627,12.698039,7.9897723,-16.364332,62.33677,19.838003,1.6070013,6.791875,4.0668087,-15.527176,32.52633,58.348793,1.2835088,3.200976,-18.994375
139,4.6790947914123535,1.2082544565200806,77.30901336669922,3.5006221420507435,-3.3723158020203985,-91.20134873573366,11.567222,-4.86159,7.890787,7.192449,-16.203259,-0.36356497,-11.105985,-11.723627,2.0716658,49.2445,-22.055752,3.3772483,2.9253225,-0.7900968,8.312437,12.3808775,8.223228,-16.938229,62.495758,21.064201,1.4925863,6.3889904,4.017638,-15.530937,32.453953,58.427765,1.3035532,3.1829941,-19.196861
140,4.762593746185303,1.068575382232666,77.27915954589844,3.4377724952930446,-3.350718968513553,-91.4666865577758,11.736748,-4.8355165,8.122648,7.1885157,-16.423038,-0.3525741,-12.535178,-11.6769085,1.8037498,51.772285,-22.071228,2.1992118,2.6816092,-0.76934046,8.482889,12.010587,8.445657,-17.476727,62.65889,22.02789,1.4293499,6.1534786,4.0156946,-15.516459,32.338543,58.47058,1.3020216,3.2045088,-19.347878
141,4.826241493225098,0.8984719514846802,77.2464599609375,3.348406645269098,-3.285160561140271,-91.70806375802366,11.859054,-4.776151,8.328037,7.1874847,-16.64,-0.35112488,-13.847986,-11.601712,1.4097039,53.790264,-22.214746,1.4061506,2.4510417,-0.7412081,8.590673,11.568611,8.651695,-18.015783,62.850002,22.659357,1.4495453,6.167219,4.0712943,-15.484805,32.160522,58.457645,1.2751551,3.2921479,-19.42781
142,4.885328769683838,0.7340600490570068,77.22828674316406,3.231633354148794,-3.1871894551372955,-91.92762337140417,11.9475,-4.6813684,8.511582,7.187778,-16.853075,-0.3552818,-15.08402,-11.5014105,0.8968071,55.454784,-22.4447,0.83417374,2.219694,-0.69595104,8.652425,11.061574,8.8409605,-18.560328,63.06917,23.12836,1.519275,6.342645,4.1703796,-15.437044,31.940134,58.408604,1.229231,3.4277332,-19.469702
143,4.926597595214844,0.539404034614563,77.21534729003906,3.090257197280975,-3.0757996963357224,-92.12307875537073,12.027485,-4.555209,8.678338,7.189302,-17.066996,-0.37095398,-16.236553,-11.333742,0.36117837,56.769,-22.649733,0.45975927,1.9847479,-0.6352656,8.694448,10.520189,9.012673,-19.02549,63.27254,23.469217,1.6085777,6.559276,4.3024206,-15.377234,31.707823,58.348423,1.1706374,3.5658114,-19.49212
144,4.966667175292969,0.322846919298172,77.20507049560547,2.932465364432253,-2.970042213031702,-92.29198801435305,12.126507,-4.4015646,8.832974,7.1891418,-17.285728,-0.403896,-17.29841,-11.053859,-0.10495692,57.72587,-22.717377,0.261751,1.7400208,-0.56048393,8.742585,9.977907,9.165689,-19.322725,63.415237,23.718033,1.6861271,6.696777,4.4545913,-15.311887,31.498888,58.303646,1.1077656,3.6611588,-19.514065
145,4.984760761260986,0.10224707424640656,77.19541931152344,2.7440636028049292,-2.8734949162960217,-92.43028377766923,12.253671,-4.2071247,8.976283,7.1852193,-17.516033,-0.46896878,-18.247292,-10.6271515,-0.4907592,58.271885,-22.629585,0.30836153,1.477188,-0.4604538,8.793033,9.448463,9.296893,-19.40823,63.49753,23.8631,1.7459911,6.727927,4.6388464,-15.245352,31.321255,58.268326,1.0259142,3.708167,-19.551775
146,5.017110824584961,-0.1325499564409256,77.18937683105469,2.53259351392671,-2.7771729655363973,-92.54139945882474,12.392369,-3.977031,9.1067705,7.1852427,-17.7574,-0.557716,-19.0992,-10.084407,-0.83816135,58.423504,-22.440634,0.5941304,1.1973269,-0.33899617,8.836458,8.914317,9.405569,-19.330078,63.540146,23.894548,1.8037684,6.715758,4.856991,-15.178164,31.163849,58.22983,0.9291226,3.7294123,-19.591206
147,5.04434061050415,-0.410105437040329,77.17872619628906,2.320849709330753,-2.6808915175394104,-92.63309659823912,12.533317,-3.741627,9.225291,7.196269,-17.999723,-0.641138,-19.903849,-9.477905,-1.1347196,58.278458,-22.13897,0.9858355,0.9101226,-0.21846844,8.88963,8.356792,9.493294,-19.140186,63.53971,23.851439,1.8549589,6.677795,5.083879,-15.114244,31.028418,58.20239,0.8512083,3.7217634,-19.60583
148,5.059596061706543,-0.6644113659858704,77.16645812988281,2.128881296208509,-2.5825837031239405,-92.71160466337528,12.6715145,-3.5283387,9.330651,7.2076526,-18.2222,-0.6914751,-20.70823,-8.855296,-1.3739202,57.93481,-21.710285,1.348135,0.62464684,-0.12281481,8.968255,7.7653537,9.573315,-18.890467,63.480156,23.770758,1.8944834,6.628288,5.2937737,-15.049085,30.915539,58.20068,0.8246997,3.681574,-19.568563
149,5.089249610900879,-0.9019813537597656,77.15321350097656,1.9569064490615335,-2.490946177413908,-92.7778300251626,12.816879,-3.338998,9.424138,7.216273,-18.413572,-0.69346535,-21.5004,-8.208108,-1.5660958,57.37565,-21.1581,1.66931,0.346146,-0.053088754,9.0876255,7.1364937,9.6381445,-18.548803,63.34815,23.650566,1.941599,6.5555573,5.4897175,-14.991626,30.82628,58.213837,0.87578744,3.588472,-19.44399
150,5.09610652923584,-1.1758571863174438,77.13544464111328,1.7962005976815814,-2.4035798660515875,-92.82810559584414,12.968376,-3.1598916,9.504997,7.2268095,-18.586412,-0.66479236,-22.259167,-7.518193,-1.707997,56.556736,-20.486393,2.011369,0.082675666,0.009028841,9.233782,6.463537,9.680676,-18.125174,63.166336,23.467955,1.9940051,6.45976,5.699069,-14.95231,30.744114,58.22424,0.98088723,3.4517848,-19.253933
151,5.0903191566467285,-1.4800041913986206,77.11235046386719,1.65153417395088,-2.302335427400794,-92.86208993663126,13.106745,-2.9972162,9.570164,7.236488,-18.752388,-0.6267208,-23.012228,-6.8187804,-1.7734624,55.53715,-19.678429,2.3514478,-0.21444462,0.03695584,9.385031,5.786922,9.74418,-17.640009,62.918526,23.258236,2.006446,6.3572516,5.866085,-14.891304,30.712887,58.28881,1.103154,3.3101764,-19.062801
152,5.091482162475586,-1.7613059282302856,77.07762145996094,1.5255261402018594,-2.1686506323123464,-92.87985526339655,13.212856,-2.856708,9.616763,7.2458544,-18.92627,-0.6000377,-23.785578,-6.139841,-1.738266,54.375977,-18.718407,2.6677532,-0.49467894,0.055150475,9.509902,5.057172,9.814523,-17.262201,62.678608,23.014458,1.9455456,6.2911205,6.040587,-14.832629,30.661222,58.380657,1.1917567,3.2055519,-18.929045
153,5.093174934387207,-2.0258591175079346,77.042236328125,1.4248647693374543,-1.9827855332116195,-92.88841901635011,13.264516,-2.742304,9.653432,7.253377,-19.108217,-0.5795419,-24.61184,-5.4538517,-1.554067,53.068703,-17.547228,2.9596908,-0.7575108,0.05751738,9.595224,4.282621,9.89894,-16.99825,62.436817,22.703865,1.7627431,6.2725635,6.218582,-14.77683,30.616314,58.508804,1.2412964,3.1416996,-18.918076
154,5.092707633972168,-2.3215057849884033,76.99752807617188,1.344124131701848,-1.7598132953781296,-92.8852468795015,13.277857,-2.650737,9.678062,7.261593,-19.293715,-0.5569306,-25.458046,-4.7540174,-1.2466493,51.58431,-16.190468,3.2380848,-1.0072839,0.038002394,9.65914,3.4777827,10.004879,-16.79781,62.16191,22.33096,1.4915644,6.2771406,6.3972597,-14.716973,30.580149,58.66687,1.2732605,3.098806,-18.980795
155,5.102218151092529,-2.6401100158691406,76.94722747802734,1.2800195264983436,-1.5326647342399344,-92.85540627072434,13.2911215,-2.5758114,9.671479,7.2688875,-19.481873,-0.5482951,-26.25779,-4.1008973,-0.90437865,49.949203,-14.752956,3.497245,-1.2627637,0.0032109069,9.724691,2.6398685,10.128161,-16.651718,61.86762,21.974016,1.2091084,6.2865133,6.572193,-14.655006,30.509155,58.841625,1.2840087,3.0822563,-19.005531
156,5.065645217895508,-2.9814276695251465,76.88565063476562,1.2262839839372202,-1.334178859417286,-92.78425322567244,13.341119,-2.5114949,9.61539,7.276046,-19.674025,-0.570352,-26.95035,-3.5562806,-0.6153177,48.19339,-13.340933,3.730005,-1.5418584,-0.041508786,9.81543,1.7677636,10.26829,-16.55128,61.563293,21.71044,0.99329525,6.2825394,6.740037,-14.59049,30.35956,59.018467,1.2700073,3.0977218,-18.880705
157,5.026847839355469,-3.3303709030151367,76.8179702758789,1.1888821751559797,-1.1830309331225182,-92.65749282034744,13.443043,-2.46359,9.4873495,7.282993,-19.866123,-0.63889736,-27.519453,-3.1316605,-0.3850059,46.30835,-11.942294,3.906234,-1.8611863,-0.10186444,9.955226,0.8463099,10.428995,-16.511383,61.24463,21.619816,0.88468343,6.265004,6.897403,-14.520965,30.098644,59.196346,1.2170794,3.1649237,-18.554216
158,5.006770610809326,-3.68310809135437,76.7513656616211,1.1671540396034623,-1.0582746027411467,-92.48603665038037,13.574862,-2.4329648,9.303157,7.2893662,-20.059439,-0.74182993,-27.998444,-2.796485,-0.17204155,44.284218,-10.513311,4.0370865,-2.2044823,-0.18020469,10.1253,-0.119642496,10.610495,-16.534382,60.90769,21.639833,0.83517927,6.242584,7.048195,-14.445576,29.753601,59.38212,1.129868,3.2741501,-18.092806
159,4.994960308074951,-4.040137767791748,76.68111419677734,1.1535485770125482,-0.9328120436418718,-92.29277747139149,13.71779,-2.4057894,9.102256,7.295106,-20.261518,-0.8538039,-28.402216,-2.5474281,0.0046740253,42.143147,-9.109838,4.177253,-2.5435019,-0.2636697,10.286113,-1.101454,10.803764,-16.589157,60.56334,21.63639,0.78974426,6.2117224,7.200841,-14.366403,29.373402,59.56937,1.0344284,3.386751,-17.56232
160,4.983161449432373,-4.3946146965026855,76.59757995605469,1.1386335050654433,-0.7799784785069629,-92.10062428877347,13.851812,-2.3703992,8.92366,7.3022103,-20.481274,-0.94891065,-28.743044,-2.3765733,0.12567872,39.903233,-7.7860055,4.383225,-2.8528793,-0.33779776,10.398345,-2.0711699,10.995056,-16.64029,60.22613,21.477892,0.6938976,6.169902,7.3630314,-14.288832,29.008812,59.752773,0.9570133,3.4650836,-17.02953
161,4.9685163497924805,-4.789575576782227,76.50878143310547,1.1307474045962065,-0.5851113561890292,-91.90291857996047,13.964657,-2.3381467,8.767985,7.3088355,-20.721905,-1.0109988,-29.003874,-2.286324,0.18954922,37.480045,-6.5167103,4.764764,-3.1398575,-0.40255713,10.441759,-3.0333207,11.176832,-16.689825,59.89897,21.093998,0.52775276,6.1116004,7.5422106,-14.219083,28.646538,59.923576,0.93729836,3.4766228,-16.45887
162,4.930816173553467,-5.225014686584473,76.41511535644531,1.1332009315874498,-0.3668924738823841,-91.68909937035241,14.069119,-2.3134494,8.614572,7.316944,-20.978573,-1.0554761,-29.172384,-2.2711127,0.2029788,34.8696,-5.271595,5.2646794,-3.4184475,-0.46120894,10.442526,-4.002097,11.348273,-16.748405,59.57956,20.569023,0.32294762,6.04028,7.7357,-14.159568,28.269278,60.082554,0.9512094,3.4502418,-15.832673
163,4.912798881530762,-5.672086238861084,76.30740356445312,1.1281366315194832,-0.14820923658175136,-91.4755500377899,14.192375,-2.2732158,8.469818,7.3247447,-21.247337,-1.1040916,-29.272728,-2.305108,0.15046959,32.216236,-4.0989428,5.69112,-3.6756508,-0.5022905,10.429585,-4.9653554,11.506293,-16.792131,59.277493,20.00324,0.10189802,5.9682612,7.928467,-14.110413,27.928513,60.245502,0.93513024,3.4397404,-15.244462
164,4.885592460632324,-6.124688625335693,76.20305633544922,1.099173336476027,0.049421006786347046,-91.28106405083291,14.356097,-2.192305,8.342627,7.3338656,-21.523901,-1.1789862,-29.337437,-2.3591669,0.011740412,29.681467,-3.0580082,5.853029,-3.8998935,-0.5140152,10.430724,-5.907567,11.647227,-16.790424,59.001198,19.499807,-0.113440886,5.90887,8.102125,-14.070153,27.67926,60.432007,0.8243656,3.497745,-14.788615
165,4.853964805603027,-6.5711259841918945,76.0962142944336,1.0315840938122893,0.21853509330103227,-91.11527342591695,14.569795,-2.054651,8.243177,7.3429403,-21.805536,-1.2899462,-29.376984,-2.4231246,-0.24425289,27.30221,-2.182335,5.645048,-4.0766296,-0.48553064,10.460208,-6.842323,11.772248,-16.740623,58.774723,19.058172,-0.3389102,5.867571,8.248143,-14.038112,27.559534,60.666958,0.55916697,3.6679323,-14.528497
166,4.782604217529297,-7.089197635650635,75.99542236328125,0.9382223707450625,0.3717257406098454,-90.96748978486228,14.818865,-1.8765521,8.165436,7.3526726,-22.0948,-1.4234964,-29.376112,-2.4936142,-0.61171335,25.002966,-1.4470088,5.1991014,-4.218549,-0.42578438,10.500747,-7.769266,11.883261,-16.650494,58.585594,18.634665,-0.57942075,5.8368564,8.373541,-14.014315,27.536406,60.93709,0.18875578,3.9121294,-14.400705
167,4.727279186248779,-7.607564926147461,75.87850952148438,0.8325566682320175,0.5191811920002126,-90.8272059963105,15.095513,-1.6781256,8.09501,7.3627377,-22.397783,-1.5682743,-29.339779,-2.5568473,-1.0531623,22.79624,-0.8311869,4.675732,-4.3516417,-0.350343,10.53031,-8.6566,11.977591,-16.51065,58.393673,18.265867,-0.79675394,5.812904,8.480715,-14.00056,27.557987,61.20973,-0.18793531,4.1590605,-14.310683
168,4.669501781463623,-8.15157699584961,75.74950408935547,0.7307416603415497,0.6701578481022531,-90.68272401575271,15.390022,-1.4813594,8.016027,7.3731565,-22.718315,-1.7125313,-29.266296,-2.613693,-1.5233932,20.678303,-0.30226418,4.229052,-4.492213,-0.2691884,10.522716,-9.493357,12.031583,-16.325008,58.185688,17.989786,-0.9514504,5.7994056,8.579657,-14.001268,27.560312,61.453365,-0.47398153,4.3367734,-14.166691
169,4.612998962402344,-8.718441009521484,75.61009216308594,0.6351794956306644,0.8320118358663722,-90.54427636897886,15.69638,-1.2902956,7.937557,7.384274,-23.067738,-1.8582414,-29.163198,-2.6821065,-2.0271811,18.623875,0.13782166,3.857123,-4.6535606,-0.19560955,10.473469,-10.24096,12.075845,-16.057621,57.901737,17.864546,-1.013681,5.782522,8.6600485,-14.017154,27.571625,61.658813,-0.6148463,4.4176817,-13.937701
170,4.5527143478393555,-9.320206642150879,75.45537567138672,0.5406045404886167,0.9977308759990647,-90.41273325588833,16.022093,-1.0957035,7.861998,7.395001,-23.440355,-2.0092018,-29.027117,-2.7601998,-2.5784962,16.638866,0.47693276,3.494686,-4.799302,-0.11735764,10.389645,-10.94699,12.092579,-15.752968,57.601673,17.847893,-1.008397,5.7754946,8.735324,-14.042114,27.584963,61.84245,-0.67503977,4.442898,-13.676761
171,4.491479873657227,-9.926441192626953,75.30145263671875,0.44859697868231,1.1562688089900552,-90.26367136044516,16.371819,-0.8965008,7.764218,7.40627,-23.814495,-2.1585186,-28.863277,-2.8312466,-3.1411147,14.804962,0.7285318,3.1879392,-4.9882383,-0.038268585,10.295304,-11.584297,12.093536,-15.380337,57.28029,17.847921,-0.99126667,5.77504,8.788003,-14.088532,27.604866,62.00152,-0.7186523,4.445183,-13.410711
172,4.41156530380249,-10.549761772155762,75.14672088623047,0.35732170831728327,1.29852026883652,-90.0746798500956,16.750162,-0.6883235,7.623071,7.417628,-24.168324,-2.3017027,-28.681992,-2.8831327,-3.677205,13.208417,0.90665036,2.9755514,-5.2159915,0.042382814,10.203912,-12.172218,12.077641,-14.996559,56.974808,17.74752,-1.0118761,5.791382,8.838798,-14.153077,27.574442,62.120827,-0.8204115,4.455276,-13.16626
173,4.326859474182129,-11.202421188354492,74.97625732421875,0.2650787560558293,1.4049709543789775,-89.82645669427203,17.179827,-0.4670839,7.4124393,7.429881,-24.535383,-2.4342809,-28.412867,-2.934756,-4.1974607,11.746936,0.961323,2.9109602,-5.495107,0.11984573,10.121346,-12.707449,12.04289,-14.599651,56.695507,17.481253,-1.0950798,5.828232,8.902887,-14.231924,27.474403,62.2059,-1.0476334,4.4626646,-12.913452
174,4.253207683563232,-11.841135025024414,74.81336975097656,0.16934570046016795,1.4898461200410145,-89.5402525298102,17.645067,-0.22934064,7.1567187,7.4429746,-24.912802,-2.5636778,-28.082329,-2.9924483,-4.71078,10.417958,0.9066841,2.9496112,-5.805234,0.19914933,10.034884,-13.194726,11.986586,-14.183419,56.433125,17.118866,-1.2093825,5.8822694,8.973815,-14.323091,27.321667,62.260178,-1.3485504,4.4558353,-12.650481
175,4.149745464324951,-12.512948989868164,74.65777587890625,0.056195861206489714,1.5975184104579196,-89.26029616332266,18.090324,0.03891765,6.9182324,7.45496,-25.224718,-2.7069685,-27.871964,-3.021212,-5.175813,9.503342,0.8283132,2.9722185,-6.1012993,0.30589774,9.933264,-13.652664,11.914799,-13.778604,56.180733,16.748472,-1.3223672,5.948254,9.02747,-14.42109,27.126497,62.272087,-1.6193342,4.464837,-12.445998
176,4.05776309967041,-13.200881004333496,74.50829315185547,-0.09146255274556311,1.7728900365933191,-89.03412633300997,18.463903,0.3526394,6.7624683,7.4632936,-25.396868,-2.8758407,-27.984419,-2.9863613,-5.5473866,9.32946,0.78571063,2.856677,-6.3351655,0.46418807,9.806357,-14.092684,11.842586,-13.416808,55.922203,16.456059,-1.4016172,6.019592,9.035173,-14.514327,26.898117,62.235218,-1.758706,4.520375,-12.368716
177,3.96740984916687,-13.898372650146484,74.39989471435547,-0.2859195752905533,2.0666697188029612,-88.8544030623849,18.70062,0.7174443,6.703188,7.469546,-25.416689,-3.0667841,-28.562328,-2.8881233,-5.7877274,10.100892,0.8142699,2.5433931,-6.5129538,0.7089951,9.646588,-14.533665,11.7578945,-13.084211,55.626186,16.286036,-1.4223647,6.091044,8.976232,-14.622831,26.623987,62.112385,-1.7099795,4.666955,-12.481233
178,3.896030902862549,-14.558813095092773,74.33511352539062,-0.5117531595556658,2.4405939144847784,-88.70217554467608,18.849152,1.1188587,6.7054763,7.4729686,-25.321104,-3.2721944,-29.449097,-2.7492366,-5.9340844,11.564023,0.9012226,2.1127596,-6.653567,1.0101318,9.463434,-14.957065,11.668029,-12.774285,55.301445,16.180765,-1.4072306,6.1657524,8.867918,-14.73752,26.303383,61.92392,-1.5384014,4.8753963,-12.733606
179,3.7942614555358887,-15.21750545501709,74.30162048339844,-0.7450548753760072,2.8035077024309625,-88.60330526535327,19.030502,1.5398854,6.759781,7.4726763,-25.114317,-3.497133,-30.410524,-2.5708578,-6.0554857,13.389329,1.0145948,1.6504953,-6.740486,1.3142463,9.27699,-15.3237095,11.584679,-12.507399,55.00037,16.089838,-1.3960522,6.25352,8.757864,-14.842738,25.972546,61.71139,-1.3162102,5.069594,-13.020078
180,3.6467466354370117,-15.969196319580078,74.24052429199219,-0.971801244573205,3.065408729130874,-88.58757658037784,19.36385,1.9723549,6.8637705,7.467239,-24.79841,-3.750787,-31.243776,-2.3514488,-6.2155156,15.312464,1.0815303,1.225134,-6.7492566,1.5864674,9.106568,-15.603449,11.502003,-12.306282,54.78374,15.966496,-1.4285463,6.3667774,8.707487,-14.945223,25.655071,61.498875,-1.1207017,5.17598,-13.231169
181,3.430971622467041,-16.79332733154297,74.16362762451172,-1.2017784091598773,3.1991730769364133,-88.6739901172852,19.897884,2.4335313,7.0386114,7.456673,-24.392487,-4.06827,-31.971052,-2.0989363,-6.4824853,17.477352,1.1183717,0.80056286,-6.6584516,1.809688,8.94559,-15.798431,11.444645,-12.219171,54.697243,15.764835,-1.5336251,6.531452,8.745633,-15.0225115,25.331497,61.279305,-0.9546225,5.1517534,-13.333571
182,3.231220245361328,-17.606182098388672,74.10484313964844,-1.434098060434313,3.246312153257952,-88.8311079082493,20.577942,2.9052706,7.2719126,7.4390726,-23.890886,-4.438287,-32.66086,-1.833438,-6.8122106,19.946692,1.1501688,0.34555703,-6.496895,1.9921881,8.791124,-15.919859,11.414409,-12.2234,54.696754,15.519871,-1.6843333,6.731144,8.833008,-15.070005,24.996355,61.04943,-0.7865996,5.043706,-13.386614
183,3.054265260696411,-18.419282913208008,74.066650390625,-1.6547256388974003,3.227112700620201,-89.02836454347029,21.356705,3.346493,7.5275493,7.4140153,-23.258677,-4.803779,-33.205845,-1.5432779,-7.08947,22.371248,1.0945302,-0.072266296,-6.319917,2.1333218,8.659063,-15.936624,11.403069,-12.226394,54.69862,15.296013,-1.8367211,6.9114866,8.881409,-15.08488,24.730906,60.891582,-0.6328938,4.9115515,-13.427688
184,2.888723611831665,-19.260692596435547,74.0421371459961,-1.8621551957486522,3.1649443832783284,-89.24524124300622,22.158577,3.741524,7.776135,7.431214,-22.486412,-5.105901,-33.525375,-1.1831504,-7.195941,24.43789,0.85633475,-0.37005046,-6.1518793,2.253692,8.566994,-15.830161,11.391568,-12.15952,54.622986,15.152016,-1.944715,7.0231056,8.833356,-15.083405,24.584991,60.853233,-0.51623535,4.8154845,-13.48889
185,2.7051103115081787,-20.110279083251953,74.04006958007812,-2.0876297231922067,3.048367663091347,-89.4907085487251,23.005138,4.1257815,8.020605,7.477372,-21.56567,-5.352155,-33.59723,-0.6660706,-7.0588512,26.109161,0.3430864,-0.50287944,-5.9808893,2.3939574,8.534323,-15.588813,11.35116,-11.966888,54.444553,15.145846,-1.9965813,7.0325975,8.664759,-15.0707655,24.58676,60.991016,-0.43839705,4.7562394,-13.5772085
186,2.521763563156128,-20.969167709350586,74.05522918701172,-2.331051605354416,2.877415970201203,-89.77628540967122,23.703964,4.5445876,8.261106,7.9800425,-20.73542,-5.562355,-33.47917,-0.014167132,-6.7545066,27.552315,-0.3807342,-0.5178283,-5.830287,2.5550702,8.529326,-15.216291,11.272366,-11.651033,54.221066,15.251307,-2.0160666,6.9808908,8.376072,-15.047763,24.761425,61.302353,-0.3653659,4.7076206,-13.686814
187,2.3391880989074707,-21.83119010925293,74.07991790771484,-2.573209637934918,2.700328363762084,-90.07788552026557,23.989244,5.017342,8.467645,9.34389,-20.193363,-5.699405,-33.227814,0.67693144,-6.4159436,28.771032,-1.1657487,-0.4656374,-5.6798167,2.7252674,8.522594,-14.776951,11.183275,-11.336587,53.993584,15.372877,-2.0122523,6.916208,8.044255,-15.017934,24.973616,61.634518,-0.34254047,4.6885786,-13.799527
188,2.152618885040283,-22.70465660095215,74.12527465820312,-2.8035937094598453,2.5717156207108745,-90.36268304627919,23.955513,5.5156345,8.637452,11.192402,-19.717842,-5.7368836,-32.89722,1.3086767,-6.1892605,29.749212,-1.8534228,-0.39899325,-5.5395293,2.900041,8.474111,-14.322024,11.109898,-11.123127,53.804672,15.424964,-1.9944077,6.886909,7.717794,-14.981867,25.120867,61.86671,-0.4035557,4.717843,-13.904215
189,1.9617326259613037,-23.570587158203125,74.18315887451172,-3.0324903536712187,2.521059401752564,-90.63501671041598,23.54107,6.0433474,8.769949,13.601713,-19.344774,-5.6599917,-32.49681,1.8652358,-6.1267133,30.435513,-2.3749151,-0.29509288,-5.4371133,3.0961123,8.350037,-13.8373995,11.037707,-10.995604,53.670864,15.387087,-1.9448751,6.9276967,7.3612003,-14.922548,25.166168,62.03011,-0.6547434,4.8570356,-13.931517
190,1.7956856489181519,-24.426250457763672,74.26081848144531,-3.2750143848625464,2.523384008360946,-90.9012214882777,22.879204,6.5995803,8.876729,16.365421,-18.971237,-5.5022874,-32.006706,2.4014165,-6.160933,30.846235,-2.8215272,-0.14337042,-5.3455944,3.3163867,8.178318,-13.305447,10.982378,-10.947147,53.55315,15.284721,-1.865133,7.0016446,6.9889092,-14.850057,25.139841,62.13696,-1.0540167,5.077138,-13.900205
191,1.6055669784545898,-25.270526885986328,74.33299255371094,-3.5251950393098097,2.5516233888620317,-91.13164001716864,22.069708,7.183895,8.951743,19.301367,-18.501745,-5.313413,-31.43494,2.919906,-6.255035,31.060926,-3.2701855,-0.013881224,-5.2615433,3.5492482,7.976612,-12.775611,10.930485,-10.98051,53.48892,15.176352,-1.7916949,7.0699973,6.6030717,-14.745681,25.139664,62.215622,-1.3905505,5.2582703,-13.973253
192,1.4168494939804077,-26.132827758789062,74.41730499267578,-3.776323193317685,2.5792051917290943,-91.2954695098582,21.17424,7.8059993,8.981077,22.309332,-17.876152,-5.1362996,-30.788002,3.420947,-6.3708444,31.160639,-3.797229,0.024297168,-5.181175,3.7830434,7.778207,-12.28024,10.8935995,-11.106382,53.4761,15.104204,-1.762624,7.083495,6.2411065,-14.628355,25.25751,62.2272,-1.445771,5.284538,-14.302473
193,1.2409884929656982,-26.97581672668457,74.52890014648438,-4.022843194135052,2.615905802752937,-91.37773408304574,20.188614,8.469409,8.964939,25.392122,-17.080889,-4.9743814,-30.06562,3.897101,-6.4968567,31.148226,-4.451569,-0.05826928,-5.115843,4.0213957,7.566891,-11.822617,10.876645,-11.357876,53.52569,15.059064,-1.8102788,7.017522,5.931768,-14.506471,25.57584,62.154472,-1.0460008,5.057509,-15.057492
194,1.0325604677200317,-27.83712387084961,74.65483856201172,-4.258589271229028,2.665565910587558,-91.40358640532176,19.093655,9.153004,8.911218,28.59027,-16.144302,-4.8067904,-29.261942,4.344623,-6.6363063,30.9951,-5.186335,-0.22033174,-5.063801,4.253994,7.338636,-11.381099,10.880688,-11.713925,53.62901,15.024509,-1.9075443,6.8995233,5.6486173,-14.366937,26.03257,62.017693,-0.3498863,4.6514244,-16.11063
195,0.8233345150947571,-28.688758850097656,74.79132080078125,-4.480434561382754,2.6945233871842715,-91.40025493661247,17.915796,9.839761,8.813641,31.88273,-15.088919,-4.6337514,-28.37298,4.7695208,-6.776562,30.730186,-5.9315505,-0.4236641,-5.000279,4.463185,7.1467423,-10.954927,10.898893,-12.104993,53.756786,15.0329895,-2.0032885,6.7591534,5.3626547,-14.219588,26.496294,61.810825,0.368127,4.2172966,-17.166557
196,0.6504110097885132,-29.500288009643555,74.94596862792969,-4.686431921535521,2.6695211089522934,-91.39388563534649,16.675837,10.515998,8.665149,35.262653,-13.938988,-4.453116,-27.395079,5.1774955,-6.9079885,30.382893,-6.61778,-0.62982076,-4.901253,4.635883,7.042372,-10.544789,10.918002,-12.460758,53.884068,15.119173,-2.0466266,6.6283417,5.040296,-14.071951,26.835932,61.53568,0.84293383,3.9218602,-17.939785
197,0.48216068744659424,-30.308319091796875,75.0978775024414,-4.872193078218208,2.5854494402931145,-91.38663763587044,15.349188,11.199301,8.473198,38.815765,-12.651212,-4.2821064,-26.317184,5.559682,-7.038472,29.94831,-7.240602,-0.8519302,-4.758104,4.769173,7.0375595,-10.165351,10.9305315,-12.794616,54.018158,15.326204,-2.0078874,6.5021715,4.678444,-13.930176,26.993654,61.166233,0.9829141,3.8391886,-18.336138
198,0.29847538471221924,-31.106048583984375,75.26484680175781,-5.038715704328071,2.457949794921216,-91.36687391492907,13.924261,11.889946,8.2348585,42.54122,-11.240997,-4.112288,-25.140533,5.9144263,-7.16575,29.413593,-7.832863,-1.099107,-4.577335,4.8746667,7.104994,-9.81751,10.934388,-13.137746,54.17482,15.627245,-1.9198195,6.3706117,4.299023,-13.796921,27.038551,60.70445,0.9390194,3.8781586,-18.516651
199,0.12686342000961304,-31.88727569580078,75.44312286376953,-5.19271391244963,2.2855316364632,-91.33905611322864,12.4426365,12.551178,7.9303007,46.302307,-9.822349,-3.9003413,-23.882504,6.258722,-7.268868,28.796999,-8.380472,-1.3291376,-4.362052,4.963247,7.236849,-9.478908,10.92423,-13.443327,54.33999,15.950457,-1.8246713,6.2576914,3.899549,-13.676809,27.038582,60.199093,0.81911784,3.9643526,-18.581545
200,-0.052574191242456436,-32.67449188232422,75.61549377441406,-5.341781934245521,2.0673403767909515,-91.30695832765072,10.944487,13.14861,7.543223,49.963226,-8.508467,-3.6015027,-22.560719,6.610178,-7.329403,28.11458,-8.867459,-1.5025812,-4.119629,5.048777,7.425535,-9.123875,10.893148,-13.65916,54.49553,16.225925,-1.7645206,6.187341,3.4775913,-13.579609,27.066536,59.695858,0.733792,4.0229545,-18.630566
201,-0.20988017320632935,-33.44172668457031,75.77276611328125,-5.493813960937655,1.7984694323126507,-91.26523286727532,9.386951,13.710643,7.065938,53.615723,-7.2046905,-3.1322615,-21.168344,6.977017,-7.3465886,27.35447,-9.2791395,-1.6036497,-3.8498924,5.1405,7.677956,-8.755967,10.830759,-13.76697,54.65369,16.46503,-1.7601525,6.170077,3.0320764,-13.503062,27.119974,59.1933,0.6685854,4.048017,-18.650597
202,-0.3659159243106842,-34.20707321166992,75.91256713867188,-5.644201346312026,1.4816100343666077,-91.21334918526496,7.7603683,14.251834,6.512965,57.300373,-5.894408,-2.5268312,-19.697739,7.3485465,-7.330495,26.507076,-9.623757,-1.6580343,-3.5548816,5.237066,7.9952235,-8.383681,10.737156,-13.78906,54.817123,16.697153,-1.7859925,6.192005,2.5667582,-13.454551,27.175266,58.66387,0.5826478,4.075682,-18.600094
203,-0.5128287672996521,-34.96462631225586,76.03394317626953,-5.778989854240679,1.1280014542400667,-91.16270317503307,6.1511846,14.707475,5.901035,60.814247,-4.8132544,-1.9259213,-18.168274,7.710088,-7.2789073,25.600754,-9.923985,-1.6882312,-3.2374263,5.3279524,8.355803,-7.9966664,10.620689,-13.743044,54.964943,16.881525,-1.8131816,6.2434964,2.0791738,-13.433825,27.26335,58.13763,0.5396219,4.092554,-18.541487
204,-0.6274682283401489,-35.67268371582031,76.15292358398438,-5.884114809616674,0.7484849398657676,-91.12395806075293,4.646788,14.998881,5.2432446,63.960354,-4.2042785,-1.4865644,-16.602686,8.043964,-7.189736,24.67186,-10.206365,-1.7133859,-2.905628,5.404097,8.736442,-7.5870414,10.482588,-13.640619,55.08415,16.980055,-1.8129978,6.3166604,1.5596077,-13.435905,27.421038,57.655865,0.6043063,4.0850525,-18.539186
205,-0.7582255005836487,-36.39141845703125,76.27391052246094,-5.962358397992479,0.334996045752675,-91.10046047395386,3.2865803,15.06538,4.494594,66.709335,-4.3007846,-1.289067,-14.995075,8.350282,-7.061291,23.725973,-10.472622,-1.726823,-2.5584788,5.4639816,9.150347,-7.144576,10.332958,-13.471091,55.140797,16.921831,-1.7659914,6.414373,0.9999153,-13.461194,27.683231,57.217567,0.8320566,4.037097,-18.628016
206,-0.9051938652992249,-37.14045333862305,76.39038848876953,-6.0188278975685545,-0.11435102788694737,-91.08567911309508,2.0162668,14.948318,3.6688125,69.18542,-4.9307685,-1.2481931,-13.339951,8.629938,-6.896701,22.754309,-10.714721,-1.7168698,-2.197105,5.512406,9.603906,-6.672192,10.171287,-13.229618,55.147774,16.746628,-1.6923102,6.537915,0.40476218,-13.507693,28.027657,56.806225,1.1765645,3.9591992,-18.767244
207,-1.0095930099487305,-37.87845993041992,76.50503540039062,-6.044422050209602,-0.5792229218719093,-91.07592152887457,0.7784705,14.72533,2.863279,71.42371,-5.7268224,-1.2752457,-11.658098,8.868003,-6.703026,21.764616,-10.940211,-1.6955463,-1.8265216,5.5420456,10.069398,-6.1736355,10.002044,-12.94749,55.14437,16.5753,-1.6222866,6.671821,-0.20792656,-13.566411,28.397552,56.424644,1.5500559,3.878272,-18.905733
208,-1.111431360244751,-38.60552978515625,76.6142578125,-6.027537784608198,-1.0391199269548395,-91.06734169641621,-0.48659834,14.478873,2.1693034,73.44659,-6.313074,-1.278445,-9.9669075,9.051909,-6.4881964,20.75434,-11.155214,-1.6790575,-1.4500551,5.540759,10.518791,-5.6531615,9.832412,-12.6593075,55.170586,16.527266,-1.5857148,6.800459,-0.8213187,-13.624485,28.731405,56.07992,1.8613342,3.8216217,-18.993195
209,-1.2280415296554565,-39.344871520996094,76.71723937988281,-5.965320235710879,-1.5063613302360974,-91.04952234976453,-1.7814717,14.211819,1.579706,75.24562,-6.550366,-1.2657142,-8.246383,9.175277,-6.2670984,19.717857,-11.365371,-1.6798905,-1.0713098,5.4989734,10.959309,-5.1071906,9.66691,-12.363206,55.232132,16.658537,-1.6125826,6.9177294,-1.4364402,-13.672978,29.019365,55.788273,2.1052122,3.7894464,-19.020182
210,-1.3393770456314087,-40.08775329589844,76.8187484741211,-5.865903628647987,-1.9862545154628541,-91.0286991248163,-3.081866,13.89826,1.0551819,76.8145,-6.6477757,-1.2703699,-6.501528,9.249092,-6.0371733,18.666328,-11.570264,-1.6907916,-0.6844056,5.4233284,11.40087,-4.5343347,9.506122,-12.049453,55.30973,16.895218,-1.6788076,7.032472,-2.066451,-13.709838,29.288822,55.552578,2.3209944,3.7689784,-19.013914
211,-1.449820637702942,-40.82297897338867,76.91822052001953,-5.739133250976501,-2.4472053206382482,-91.02450071253742,-4.404972,13.583792,0.63521415,78.16393,-6.7481475,-1.23343,-4.7795215,9.287671,-5.781517,17.610044,-11.75798,-1.6994066,-0.27950656,5.325447,11.818379,-3.9416769,9.351319,-11.738606,55.404278,17.163406,-1.7324898,7.151027,-2.7132113,-13.733061,29.533678,55.35951,2.4858441,3.7689433,-18.979069
212,-1.531334638595581,-41.56147384643555,77.00282287597656,-5.593203832439549,-2.857751102359703,-91.05655902734749,-5.7684155,13.312664,0.35838458,79.302826,-6.9939637,-1.0961807,-3.127944,9.302605,-5.481449,16.56031,-11.916141,-1.6917169,0.15581705,5.215895,12.186749,-3.3382313,9.204309,-11.454278,55.518063,17.387815,-1.7220234,7.2796893,-3.3771188,-13.740684,29.746319,55.194473,2.577136,3.7979238,-18.920551
213,-1.6239699125289917,-42.31522750854492,77.08283233642578,-5.426826876156418,-3.197433792276598,-91.13425794966845,-7.212753,13.100463,0.2384428,80.24408,-7.4480743,-0.8129601,-1.5857606,9.2968025,-5.1208687,15.540242,-12.042838,-1.6632956,0.6360194,5.0899053,12.489444,-2.7288902,9.06599,-11.202804,55.648415,17.587864,-1.6125451,7.4157434,-4.063449,-13.729623,29.910038,55.07139,2.5553558,3.8734999,-18.818811
214,-1.7288508415222168,-43.06753158569336,77.17383575439453,-5.2349756632450575,-3.487056184859359,-91.24584803788288,-8.715252,12.925096,0.25128844,80.974014,-8.023749,-0.42670557,-0.12040101,9.262928,-4.7152233,14.541156,-12.146656,-1.6222471,1.1522552,4.9435124,12.743699,-2.1077535,8.936716,-10.9720545,55.794647,17.789925,-1.4385127,7.556904,-4.771007,-13.698687,30.032084,54.995163,2.4423435,3.98515,-18.678085
215,-1.8164474964141846,-43.76755142211914,77.22352600097656,-5.026397191354448,-3.7566109145552553,-91.37956489914329,-10.200303,12.775741,0.3799273,81.46299,-8.641954,-0.006850406,1.3298451,9.197541,-4.291571,13.522199,-12.2284565,-1.5724756,1.6802307,4.7879853,12.973515,-1.4674213,8.817945,-10.757537,55.9625,17.92777,-1.2522831,7.7106566,-5.493457,-13.652354,30.142859,54.93988,2.3070455,4.1001425,-18.539076
216,-1.8944365978240967,-44.448646545410156,77.2685775756836,-4.806090105796473,-4.0360284761981395,-91.52376099079835,-11.592477,12.642388,0.6071614,81.68159,-9.222358,0.37499994,2.8247035,9.097439,-3.877961,12.446449,-12.291947,-1.5175221,2.195123,4.635992,13.203492,-0.80062014,8.711407,-10.55483,56.15629,17.934889,-1.1067923,7.884291,-6.2208524,-13.598013,30.273117,54.873245,2.2199023,4.1866245,-18.442614
217,-1.972858190536499,-45.261173248291016,77.33512878417969,-4.569179883392174,-4.350527378485823,-91.67093403737461,-12.85662,12.518498,0.9347329,81.61148,-9.77208,0.7199416,4.4195995,8.955466,-3.485202,11.267084,-12.324931,-1.4537865,2.6879673,4.4929695,13.455094,-0.10357753,8.617519,-10.371807,56.394436,17.742607,-1.0292033,8.103239,-6.945622,-13.541228,30.430855,54.791637,2.200978,4.2392254,-18.413715
218,-2.0317463874816895,-46.03398513793945,77.382568359375,-4.31804375706506,-4.6785110489234745,-91.8287020732682,-14.034028,12.409738,1.369644,81.26895,-10.325008,1.0532175,6.07361,8.775815,-3.0995061,10.008129,-12.32982,-1.3810918,3.1715808,4.3537755,13.71221,0.61925805,8.535564,-10.207873,56.667763,17.402397,-0.9887453,8.355393,-7.6692495,-13.482879,30.599785,54.701656,2.2124662,4.274664,-18.424961
219,-2.0875308513641357,-46.74946212768555,77.40340423583984,-4.059868343123024,-4.980379808777289,-92.0075575672785,-15.164486,12.328673,1.9022247,80.67892,-10.841392,1.3425823,7.689494,8.573795,-2.7138631,8.766014,-12.334608,-1.3082513,3.6540797,4.215912,13.943258,1.364936,8.46417,-10.044802,56.93718,17.032019,-0.95091105,8.591533,-8.397395,-13.422324,30.775328,54.58723,2.2437823,4.2944975,-18.438217
220,-2.1382906436920166,-47.476749420166016,77.4103012084961,-3.8054653131993454,-5.216245722936624,-92.21787706607512,-16.28873,12.289102,2.524212,79.86595,-11.280827,1.5584321,9.175878,8.364941,-2.3179584,7.6238704,-12.365528,-1.2442057,4.1424947,4.0740657,14.116744,2.1312852,8.401578,-9.862592,57.16327,16.748575,-0.87952465,8.762543,-9.134762,-13.357573,30.952326,54.431816,2.2814026,4.3003983,-18.415468
221,-2.2055435180664062,-48.18452453613281,77.41340637207031,-3.5488761261881803,-5.369106587154654,-92.47245904832891,-17.427351,12.283723,3.239626,78.82327,-11.649749,1.6705476,10.229216,8.135923,-1.9312024,7.175938,-12.727727,-1.1852065,4.6476235,3.9193327,14.212327,2.9241257,8.34876,-9.667712,57.33014,16.54831,-0.7556926,8.84826,-9.875647,-13.286302,31.118452,54.227848,2.332367,4.286434,-18.342419
222,-2.2483608722686768,-48.986061096191406,77.41144561767578,-3.2867563139098084,-5.462301517697339,-92.76152202001235,-18.551216,12.310144,4.0518665,77.538765,-11.962916,1.6998521,11.032086,7.8923845,-1.5420295,7.104485,-13.266558,-1.1306405,5.1618805,3.753944,14.251355,3.7428918,8.305982,-9.466582,57.461067,16.380722,-0.6008141,8.877358,-10.619852,-13.208073,31.278507,53.986134,2.399371,4.253748,-18.240978
223,-2.3058133125305176,-49.7415885925293,77.37442779541016,-3.020920674249154,-5.517806719559037,-93.06507286126005,-19.62727,12.377698,4.962969,76.04209,-12.200158,1.6959611,11.780553,7.6390657,-1.1553758,7.056381,-13.806258,-1.0871884,5.6671233,3.5748172,14.266299,4.574838,8.269363,-9.23828,57.57737,16.292273,-0.438876,8.874281,-11.38583,-13.125603,31.457224,53.724136,2.4649003,4.2145386,-18.128496
224,-2.3707504272460938,-50.503570556640625,77.31587982177734,-2.763097374747393,-5.5579827078233945,-93.36046541726176,-20.621273,12.499933,5.967993,74.35595,-12.337284,1.7060674,12.488147,7.381864,-0.80618924,7.062151,-14.375915,-1.0571996,6.1410284,3.3906906,14.288619,5.4073954,8.231705,-8.959434,57.70054,16.330956,-0.29406893,8.86348,-12.193921,-13.04358,31.683924,53.46016,2.5153224,4.180817,-18.02234
225,-2.419520854949951,-51.262847900390625,77.25452423095703,-2.5331816720134355,-5.583163350834605,-93.64052594348449,-21.526764,12.734678,7.100756,72.459946,-12.365182,1.7731334,13.168231,7.133719,-0.52133,7.0934215,-14.969631,-1.0404013,6.5753875,3.2213497,14.322782,6.237595,8.187631,-8.610605,57.83252,16.534954,-0.1714939,8.839033,-13.054884,-12.964012,31.984972,53.184334,2.5620487,4.176026,-17.941021
226,-2.4681951999664307,-52.0216064453125,77.18624877929688,-2.3235783242476225,-5.581281125544532,-93.91669493363003,-22.353634,13.048143,8.356121,70.34217,-12.29502,1.8544202,13.816899,6.8899016,-0.27642286,7.12383,-15.56361,-1.027312,6.9792323,3.061336,14.350315,7.071181,8.134988,-8.205217,57.96516,16.872684,-0.05890725,8.791904,-13.955726,-12.885794,32.342823,52.890194,2.6092663,4.18752,-17.870733
227,-2.5100221633911133,-52.77611541748047,77.10475158691406,-2.1356050571925254,-5.550688157789006,-94.18588424226654,-23.096182,13.342317,9.644968,68.00903,-12.114937,1.8715417,14.43091,6.6625433,-0.035017487,7.1535935,-16.142458,-1.0089693,7.350294,2.9137223,14.358214,7.9074464,8.072442,-7.7718644,58.105804,17.286297,0.046064902,8.742672,-14.878962,-12.810004,32.71645,52.599754,2.6291611,4.1732345,-17.780045
228,-2.5430517196655273,-53.518943786621094,77.01094818115234,-1.9676713881163708,-5.490128148246747,-94.44569554300631,-23.755856,13.527705,10.871828,65.464424,-11.810409,1.7532929,15.010188,6.4635215,0.24119864,7.1810827,-16.690666,-0.98298764,7.688297,2.7821255,14.334732,8.744836,7.99948,-7.341721,58.26111,17.716509,0.14633863,8.71182,-15.803131,-12.739054,33.059967,52.329815,2.5904877,4.091287,-17.637003
229,-2.5765295028686523,-54.28299331665039,76.90948486328125,-1.8235518189997926,-5.396901181446185,-94.70554962341284,-24.343084,13.584554,11.973008,62.687187,-11.3946905,1.455818,15.54594,6.305383,0.59947455,7.206293,-17.189672,-0.94715285,8.001851,2.6631968,14.273789,9.59552,7.91529,-6.907087,58.428562,18.225649,0.24535245,8.6875515,-16.732887,-12.679319,33.379818,52.101044,2.4630086,3.8819332,-17.41138
230,-2.6132395267486572,-55.03647232055664,76.79621887207031,-1.7001941297892382,-5.272960321500367,-94.96422648138251,-24.860659,13.5670395,13.00192,59.680523,-10.869997,1.034435,16.043253,6.1770024,1.0091163,7.2296124,-17.653452,-0.90854585,8.291035,2.555853,14.18356,10.454017,7.819185,-6.4595714,58.606,18.818514,0.34066316,8.6642,-17.67158,-12.633605,33.69017,51.89141,2.2703364,3.583238,-17.127527
231,-2.6299285888671875,-55.80946350097656,76.67230987548828,-1.5915219570924442,-5.124225405704368,-95.2038988276714,-25.296886,13.495248,14.040673,56.475708,-10.202014,0.5681376,16.521067,6.0525336,1.3927939,7.252268,-18.115152,-0.88034105,8.544677,2.4633853,14.07358,11.293118,7.7136917,-6.028416,58.80132,19.350243,0.4271793,8.673208,-18.604324,-12.599171,33.962784,51.662647,2.0690687,3.29959,-16.835606
232,-2.6421456336975098,-56.58668899536133,76.54096984863281,-1.4897650439612664,-4.9564284804102225,-95.40620872791388,-25.64058,13.380526,15.173647,53.102673,-9.35715,0.12906745,16.996172,5.9087133,1.6712577,7.276814,-18.607965,-0.8746484,8.752596,2.3896706,13.9527,12.085225,7.604966,-5.6467137,59.022606,19.673485,0.50054103,8.746357,-19.512827,-12.569611,34.163464,51.375744,1.9084367,3.1363552,-16.584457
233,-2.668142557144165,-57.35848617553711,76.40011596679688,-1.3922532455154688,-4.776206910460665,-95.558470249162,-25.876886,13.261006,16.52463,49.549248,-8.299841,-0.19567057,17.483444,5.736113,1.8085679,7.3023257,-19.161077,-0.912477,8.897084,2.3334012,13.830416,12.830331,7.500681,-5.3291335,59.277912,19.657003,0.54333514,8.934209,-20.409653,-12.540579,34.269955,50.992374,1.8257761,3.1858525,-16.3684
234,-2.6770246028900146,-58.14726257324219,76.25597381591797,-1.3012990910993283,-4.578964432206792,-95.67314882541717,-26.015795,13.102025,18.015167,45.79353,-7.052617,-0.47342306,17.97061,5.549062,1.8520358,7.3288164,-19.750618,-0.98113924,8.991097,2.2894328,13.698396,13.542385,7.4037976,-5.058675,59.55939,19.407383,0.5621715,9.205203,-21.30026,-12.512753,34.302208,50.54603,1.7849703,3.3706036,-16.166855
235,-2.6693918704986572,-58.9521598815918,76.10577392578125,-1.2217522003962744,-4.354613724570729,-95.77048140497742,-26.082535,12.810938,19.422035,41.840717,-5.6567054,-0.8605822,18.437027,5.3608685,1.8491204,7.353477,-20.326244,-1.0417626,9.071789,2.2556722,13.539483,14.215839,7.3150973,-4.8196077,59.85137,19.135008,0.5893788,9.468041,-22.155949,-12.489141,34.288853,50.107212,1.7238951,3.5409563,-16.006123
236,-2.654689311981201,-59.75349044799805,75.94508361816406,-1.1580154167217054,-4.094048301216799,-95.87286683630582,-26.09446,12.315443,20.51073,37.67581,-4.1460266,-1.5033251,18.864605,5.1885877,1.8490102,7.373224,-20.8383,-1.0572302,9.171092,2.2383318,13.337506,14.845445,7.221741,-4.590032,60.13917,19.054613,0.661332,9.63414,-22.955317,-12.468746,34.266663,49.754353,1.582904,3.5469453,-15.913461
237,-2.6451027393341064,-60.56853103637695,75.77517700195312,-1.126042934543557,-3.756097690741741,-95.98203201262355,-26.07149,11.557733,21.226442,33.126873,-2.3224196,-2.5486295,19.20157,5.062533,1.857821,7.388158,-21.292852,-1.0253841,9.297848,2.247418,13.063083,15.409342,7.1254687,-4.3851657,60.433266,19.271265,0.80796355,9.660667,-23.700981,-12.452527,34.233154,49.51145,1.3301435,3.2894778,-15.9410515
238,-2.6399948596954346,-61.381507873535156,75.6008071899414,-1.1349030139590257,-3.3673590768319053,-96.1034379100092,-25.939373,10.638367,21.659168,28.142746,-0.20044193,-3.8612785,19.483849,4.983741,1.8705891,7.3965087,-21.7069,-0.9685074,9.446989,2.2971878,12.738067,15.9204445,7.0251384,-4.207539,60.734108,19.656948,1.0047995,9.60098,-24.405708,-12.440665,34.175446,49.34104,0.9999914,2.8690016,-16.061129
239,-2.6203136444091797,-62.219757080078125,75.42303466796875,-1.1863600221339494,-3.0232871909325247,-96.2709196022896,-25.56504,9.720342,21.820312,22.898611,1.8786494,-5.1693397,19.82432,4.9351025,1.925973,7.3994603,-22.049877,-0.8889333,9.645209,2.404359,12.424802,16.421766,6.9165173,-4.0269785,61.017895,20.070078,1.2024893,9.5107765,-25.0579,-12.439195,34.111397,49.219063,0.6446164,2.434117,-16.1795
240,-2.6125853061676025,-63.07408142089844,75.23619079589844,-1.2865879627359758,-2.818283725214679,-96.51874725047271,-24.838152,8.935248,21.763273,17.618896,3.5758064,-6.2231693,20.336262,4.9037876,2.0649986,7.395515,-22.289955,-0.7897157,9.918424,2.5916398,12.183521,16.95575,6.7919126,-3.8117807,61.263466,20.370024,1.3511384,9.448046,-25.641647,-12.456825,34.058376,49.1169,0.31287226,2.132849,-16.199041
241,-2.555492639541626,-63.98914337158203,75.05524444580078,-1.4649610323592968,-2.8034548457675514,-96.87738822144686,-23.623663,8.254704,21.410084,12.069658,4.7994156,-7.0040183,21.084974,4.9182734,2.3116658,7.380984,-22.435553,-0.6653556,10.302616,2.9071295,12.037786,17.545208,6.640102,-3.5368767,61.459343,20.50831,1.4363651,9.422211,-26.15117,-12.505873,34.020096,49.026714,-0.0016082281,2.0038342,-16.058687
242,-2.4801573753356934,-64.942138671875,74.84805297851562,-1.7617629371551633,-2.9322919118387265,-97.35818677017508,-22.152729,7.749167,20.782497,6.5923285,5.5593567,-7.686404,22.00942,5.0326414,2.692133,7.3548803,-22.49054,-0.5295548,10.806314,3.3930645,11.946767,18.173681,6.456577,-3.2259266,61.614204,20.565794,1.485339,9.407053,-26.594397,-12.592476,33.99947,48.960236,-0.31262586,1.9687235,-15.817153
