unveil-humanoid-operators/unveil-humanoid-operators.github.io/feature-analysis-animation/data/feature_matrix_instances/height_root_translate_peak_vel_walking_A055_walk_ff_loop_270_002__A055.csv
Frame,root_translateX,root_translateY,root_translateZ,root_rotateX,root_rotateY,root_rotateZ,left_hip_pitch_joint_dof,left_hip_roll_joint_dof,left_hip_yaw_joint_dof,left_knee_joint_dof,left_ankle_pitch_joint_dof,left_ankle_roll_joint_dof,right_hip_pitch_joint_dof,right_hip_roll_joint_dof,right_hip_yaw_joint_dof,right_knee_joint_dof,right_ankle_pitch_joint_dof,right_ankle_roll_joint_dof,waist_yaw_joint_dof,waist_roll_joint_dof,waist_pitch_joint_dof,left_shoulder_pitch_joint_dof,left_shoulder_roll_joint_dof,left_shoulder_yaw_joint_dof,left_elbow_joint_dof,left_wrist_roll_joint_dof,left_wrist_pitch_joint_dof,left_wrist_yaw_joint_dof,right_shoulder_pitch_joint_dof,right_shoulder_roll_joint_dof,right_shoulder_yaw_joint_dof,right_elbow_joint_dof,right_wrist_roll_joint_dof,right_wrist_pitch_joint_dof,right_wrist_yaw_joint_dof
0,1.0606566667556763,1.2372345924377441,77.25932312011719,1.792389856818566,4.763350170759502,-138.93619980097472,-16.76929,17.595333,28.539104,21.564957,-5.0212193,-5.02579,-2.9161758,-20.140547,-21.61317,17.44941,-12.523636,12.323218,-2.0632606,-4.122967,0.16401455,10.099976,15.698687,-32.416245,60.086037,-2.5755885,10.474355,13.938671,-4.6341763,-10.277737,43.58953,58.832317,-8.421941,8.14503,-18.557135
1,1.0109058618545532,1.8587926626205444,77.26152801513672,1.503908952831656,4.894232903310497,-139.13253175089636,-17.073425,18.314081,28.48049,21.215094,-5.0800157,-5.185405,-3.3389132,-19.251247,-21.447353,17.172268,-12.572449,12.092947,-2.2315483,-3.8402429,0.30233854,9.666256,15.806456,-32.544777,60.23196,-2.757029,10.345484,14.09471,-4.7888713,-10.199861,43.784214,58.7101,-8.135627,7.991746,-18.515106
2,0.9643526673316956,2.486297369003296,77.26805877685547,1.2175384658428656,5.017171710735836,-139.33155683083288,-17.373537,19.044638,28.423405,20.88343,-5.1263833,-5.3477244,-3.7163403,-18.348074,-21.284155,16.847351,-12.6188135,11.88488,-2.3979852,-3.577523,0.45369592,9.265808,15.958936,-32.668427,60.32579,-2.9479833,10.210182,14.248953,-4.943366,-10.107541,43.973217,58.576027,-7.849323,7.843234,-18.46497
3,0.928485095500946,3.120975971221924,77.27428436279297,0.9399773723060654,5.148602097102072,-139.52416884037126,-17.66543,19.742058,28.356024,20.504026,-5.194257,-5.4966526,-4.1286116,-17.472263,-21.131584,16.605103,-12.670261,11.640119,-2.571149,-3.3284051,0.60284716,8.864523,16.136822,-32.799652,60.400833,-3.1320252,10.095518,14.389987,-5.1105638,-10.008572,44.16398,58.463657,-7.5645647,7.682558,-18.430502
4,0.9028898477554321,3.7554924488067627,77.28011322021484,0.6747994574418805,5.3047180990412315,-139.70171984911053,-17.953106,20.368984,28.262829,20.029934,-5.3230166,-5.615724,-4.661593,-16.660696,-20.999598,16.580673,-12.73774,11.296702,-2.757674,-3.0855675,0.7316564,8.464021,16.32485,-32.920567,60.46064,-3.2569568,10.030459,14.505192,-5.293137,-9.910331,44.358517,58.40284,-7.2900004,7.492296,-18.43576
5,0.881773054599762,4.377422332763672,77.29534149169922,0.40532484836536387,5.507832971809491,-139.85807394123916,-18.265388,20.93508,28.122564,19.445868,-5.5400414,-5.6992598,-5.395296,-15.914653,-20.893911,16.867392,-12.828841,10.803576,-2.9733303,-2.8196065,0.82523996,8.024372,16.51225,-33.056366,60.5425,-3.340186,10.031736,14.571921,-5.5022335,-9.821273,44.576828,58.40092,-7.0109286,7.233928,-18.484745
6,0.8705210089683533,4.998775005340576,77.31392669677734,0.13186815722045295,5.743446467549031,-140.00001136745408,-18.592573,21.458942,27.947931,18.780493,-5.81903,-5.755412,-6.273067,-15.214959,-20.811876,17.376211,-12.935471,10.203731,-3.208179,-2.5332787,0.895668,7.555783,16.692944,-33.20089,60.643127,-3.389347,10.080106,14.60585,-5.728638,-9.745084,44.812027,58.43779,-6.728165,6.9281535,-18.564083
7,0.8685395121574402,5.60477876663208,77.34039306640625,-0.1173482432677805,5.973068776516578,-140.1375229556544,-18.876995,21.917234,27.776546,18.044767,-6.1168222,-5.787769,-7.179253,-14.571448,-20.749256,17.968616,-13.04261,9.577177,-3.4394085,-2.2672768,0.96690714,7.090833,16.863846,-33.333607,60.739174,-3.396977,10.149435,14.650914,-5.943232,-9.679984,45.02862,58.49612,-6.479133,6.646748,-18.672838
8,0.8705378770828247,6.19972038269043,77.37239837646484,-0.3120080639999172,6.159134533523935,-140.27994697421533,-19.059475,22.285877,27.64801,17.249426,-6.390514,-5.7993317,-7.990671,-13.991527,-20.699738,18.490942,-13.133041,9.003342,-3.6452196,-2.065094,1.0612037,6.6542883,17.024933,-33.44394,60.81298,-3.3673346,10.213429,14.751288,-6.1210065,-9.620256,45.19288,58.564396,-6.2990313,6.4613605,-18.811815
9,0.878151535987854,6.778442859649658,77.40103149414062,-0.43123998627138105,6.2883316109804515,-140.43356511243383,-19.086147,22.536352,27.62232,16.321024,-6.70433,-5.725051,-8.706667,-13.508148,-20.653254,18.973326,-13.219118,8.500372,-3.819171,-1.9527031,1.1839536,6.259192,17.173931,-33.521404,60.866524,-3.2779226,10.276514,14.934238,-6.2535696,-9.560225,45.305798,58.645573,-6.2600737,6.421329,-19.00122
10,0.8788499236106873,7.346321105957031,77.42965698242188,-0.4941421516326253,6.383098240221451,-140.59150971970064,-19.00459,22.692968,27.661596,15.2914915,-7.0595903,-5.5803323,-9.385003,-13.107729,-20.61314,19.46723,-13.298738,8.029138,-3.9734018,-1.903599,1.3203417,5.883305,17.309965,-33.582157,60.91547,-3.1417918,10.349115,15.171157,-6.3634186,-9.4978895,45.386616,58.755642,-6.316865,6.4787903,-19.235725
11,0.8695728182792664,7.902560234069824,77.4559097290039,-0.530925516800212,6.458546070374512,-140.74318793526385,-18.898811,22.805023,27.663511,14.3065,-7.315559,-5.4934883,-10.004506,-12.734463,-20.587385,19.89084,-13.345296,7.581163,-4.115388,-1.8835025,1.4596461,5.509406,17.437716,-33.648228,60.954544,-3.0096273,10.413961,15.421595,-6.449281,-9.434352,45.41447,58.88631,-6.349225,6.558532,-19.476702
12,0.8543505072593689,8.447233200073242,77.47577667236328,-0.5742868076468159,6.528983087446909,-140.8788079817789,-18.849325,22.920004,27.527994,13.501981,-7.3273787,-5.599622,-10.544131,-12.331534,-20.584179,20.16991,-13.338247,7.1456256,-4.24944,-1.8555241,1.5947087,5.115952,17.561512,-33.746094,60.97953,-2.935384,10.453476,15.645537,-6.51374,-9.375704,45.3702,59.027584,-6.232537,6.584742,-19.685799
13,0.8495582342147827,8.991631507873535,77.48838806152344,-0.6332931651203075,6.596705677162657,-140.99959109273638,-18.846663,23.041986,27.276264,12.8071165,-7.0120754,-5.9867544,-10.981755,-11.87533,-20.606087,20.257303,-13.266586,6.7195835,-4.3720503,-1.819421,1.729089,4.7127395,17.700195,-33.880833,60.962303,-2.9405775,10.4648285,15.851053,-6.555468,-9.31953,45.225693,59.17899,-5.8933973,6.5165987,-19.870178
14,0.8398561477661133,9.532572746276855,77.5149917602539,-0.6922682117564264,6.6535017172413085,-141.1107025197804,-18.853075,23.144773,26.946,12.172253,-6.4590673,-6.5729413,-11.332444,-11.397668,-20.647127,20.203287,-13.145543,6.3069086,-4.4793453,-1.7903942,1.8685136,4.3064346,17.850094,-34.042473,60.9083,-2.9971237,10.456977,16.052515,-6.572128,-9.269354,44.998257,59.337032,-5.4103622,6.4006395,-20.043196
15,0.8358657360076904,10.058699607849121,77.55825805664062,-0.7439181907951915,6.698739319188818,-141.20659781083168,-18.911518,23.224745,26.46052,11.769834,-5.7861185,-7.2423615,-11.626205,-10.925088,-20.70484,20.069597,-12.991949,5.9061675,-4.572101,-1.7673329,2.0107477,3.8897698,18.00802,-34.231922,60.83337,-3.079284,10.431229,16.216589,-6.566215,-9.227751,44.725266,59.49166,-4.8927765,6.2903314,-20.175306
16,0.8440123796463013,10.582978248596191,77.60608673095703,-0.7782088588133272,6.73342870019356,-141.2804702117318,-19.0722,23.27552,25.74371,11.783006,-5.1140723,-7.8791246,-11.896797,-10.488159,-20.776743,19.923607,-12.825079,5.516596,-4.6557927,-1.7497953,2.151769,3.439287,18.168272,-34.464664,60.76912,-3.1805687,10.388487,16.310543,-6.534929,-9.198255,44.442757,59.627686,-4.454988,6.2407994,-20.238811
17,0.8507115840911865,11.104082107543945,77.65386962890625,-0.7882864092192037,6.763097204515448,-141.317316200675,-19.374363,23.278275,24.723236,12.27183,-4.3149986,-8.546966,-12.146201,-10.097316,-20.873201,19.764738,-12.643487,5.1301684,-4.7376804,-1.7439045,2.2891686,2.936472,18.329176,-34.75736,60.73225,-3.3280742,10.313549,16.313871,-6.484137,-9.183801,44.135365,59.741764,-4.0870547,6.280921,-20.191845
18,0.8606748580932617,11.60837459564209,77.70040893554688,-0.7763959160623005,6.787490370636929,-141.32331757099615,-19.788345,23.224634,23.4526,13.140743,-3.3828483,-9.285412,-12.360669,-9.739053,-20.991608,19.566788,-12.442694,4.74995,-4.8147483,-1.7503369,2.4228196,2.3941116,18.48997,-35.098885,60.707523,-3.5172863,10.211108,16.24818,-6.4032326,-9.185863,43.786396,59.832344,-3.7491415,6.378431,-20.061401
19,0.8890957832336426,12.103362083435059,77.74044036865234,-0.7494003782853123,6.797578806884408,-141.32435655812046,-20.250656,23.12458,22.057339,14.320721,-2.607273,-9.937717,-12.546942,-9.405247,-21.111088,19.352068,-12.233691,4.391888,-4.870606,-1.7579534,2.5573263,1.8434839,18.643341,-35.44938,60.670456,-3.6741092,10.11152,16.14503,-6.304093,-9.204879,43.456417,59.917202,-3.467161,6.4956436,-19.923136
20,0.9274663329124451,12.592059135437012,77.77767181396484,-0.717633826882385,6.783082765292253,-141.34781978017574,-20.696997,23.0008,20.670225,15.742776,-2.272057,-10.339735,-12.713191,-9.085835,-21.209808,19.146654,-12.028447,4.0718527,-4.892528,-1.7503543,2.6964293,1.3186089,18.777613,-35.761463,60.599533,-3.7217185,10.044517,16.036806,-6.193972,-9.239737,43.205814,60.01209,-3.273282,6.5942383,-19.852726
21,0.9599912762641907,13.065422058105469,77.81331634521484,-0.6822457552287446,6.734403187670569,-141.39322812515968,-21.152756,22.846582,19.185505,17.464804,-2.5168893,-10.357347,-12.847793,-8.78376,-21.29046,18.94684,-11.821815,3.8044991,-4.8787074,-1.7169144,2.8452294,0.81719863,18.879015,-36.028206,60.504837,-3.6095388,10.013191,15.914733,-6.0671577,-9.28856,43.03371,60.124725,-3.1984506,6.663481,-19.899975
22,1.0067856311798096,13.523356437683105,77.84183502197266,-0.6446621234574257,6.656276613995751,-141.45174027851576,-21.624279,22.653538,17.588139,19.47858,-3.1501043,-10.105197,-12.947686,-8.495056,-21.360582,18.739344,-11.608307,3.5771465,-4.829576,-1.6599886,3.0047672,0.31334946,18.952927,-36.281963,60.40304,-3.3963597,10.002241,15.768766,-5.9285803,-9.356,42.916515,60.248795,-3.209711,6.7237244,-20.014076
23,1.0494132041931152,13.97249984741211,77.86422729492188,-0.6127911873254528,6.560667844072588,-141.53720161270806,-22.016933,22.455107,16.149113,21.607712,-3.9635077,-9.786133,-13.032249,-8.201354,-21.406137,18.532639,-11.396763,3.3644776,-4.7624674,-1.5811324,3.1563253,-0.16006234,18.990662,-36.47448,60.287468,-3.1236222,10.011769,15.630308,-5.792201,-9.429845,42.886738,60.399113,-3.2721705,6.7828174,-20.12374
24,1.0908682346343994,14.411616325378418,77.88040924072266,-0.5913793704444288,6.461660540465288,-141.66165523064552,-22.254381,22.298813,15.135225,23.70688,-4.765617,-9.600095,-13.12655,-7.889775,-21.413515,18.342903,-11.199389,3.1415381,-4.675103,-1.4885505,3.2891781,-0.5803228,19.00326,-36.58845,60.13583,-2.848221,10.0439005,15.529498,-5.67398,-9.518167,42.971912,60.57362,-3.3302264,6.8483086,-20.154922
25,1.1339441537857056,14.838653564453125,77.89326477050781,-0.5880948606159067,6.355766773145541,-141.8418208305817,-22.305197,22.225334,14.654507,25.77086,-5.53777,-9.623652,-13.225682,-7.5432315,-21.369606,18.15716,-11.011758,2.8974156,-4.559361,-1.3724489,3.4074755,-0.9323012,18.988823,-36.585983,59.929157,-2.5370026,10.116625,15.458643,-5.5808454,-9.631938,43.222813,60.780994,-3.3425925,6.9132853,-20.084782
26,1.1767650842666626,15.260866165161133,77.89904022216797,-0.596499011542118,6.238958789455422,-142.06566814709345,-22.222387,22.218193,14.547312,27.882742,-6.3809786,-9.734484,-13.323347,-7.176412,-21.284756,17.976364,-10.8307705,2.6470587,-4.4211445,-1.2362996,3.5134614,-1.2287934,18.947186,-36.484398,59.681007,-2.173974,10.223363,15.406208,-5.517298,-9.755773,43.62054,61.035393,-3.33628,6.975793,-19.954666
27,1.2173980474472046,15.676633834838867,77.90151977539062,-0.5989560794250736,6.125372717743189,-142.30131608559412,-22.051502,22.237284,14.681713,30.01551,-7.2813997,-9.836024,-13.433517,-6.820713,-21.182531,17.816677,-10.660834,2.404624,-4.2998695,-1.098801,3.593312,-1.4803607,18.88329,-36.328083,59.4159,-1.8399777,10.328627,15.395717,-5.4562335,-9.886764,44.08446,61.289436,-3.388281,7.054112,-19.784924
28,1.259851098060608,16.08617401123047,77.90201568603516,-0.5789249008377737,6.028756034978238,-142.51749186508115,-21.837662,22.23559,14.925332,32.14028,-8.218493,-9.835184,-13.569541,-6.506714,-21.086298,17.694475,-10.506563,2.1842425,-4.229366,-0.9790338,3.6372151,-1.7029787,18.804605,-36.16898,59.158115,-1.6204348,10.397963,15.451861,-5.3939824,-10.021039,44.549274,61.51319,-3.5496993,7.1653204,-19.595268
29,1.3045121431350708,16.492528915405273,77.89704895019531,-0.5297708802634802,5.955763392555891,-142.71671386634813,-21.58237,22.211199,15.308008,34.26657,-9.1971245,-9.705002,-13.740663,-6.242341,-20.991123,17.614304,-10.3710985,1.9898357,-4.20421,-0.8863881,3.6381192,-1.8876394,18.715065,-36.00366,58.897675,-1.5485678,10.423298,15.604854,-5.3471155,-10.155798,45.04269,61.71339,-3.8566473,7.3241897,-19.37181
30,1.3460991382598877,16.88678741455078,77.89450073242188,-0.46166637715572784,5.897968004497898,-142.91237207387246,-21.26171,22.1816,15.876281,36.39979,-10.221862,-9.496257,-13.936481,-6.010364,-20.888165,17.565836,-10.250573,1.8139882,-4.2109923,-0.8108011,3.6028278,-2.0307977,18.616327,-35.8159,58.62513,-1.5828072,10.4229965,15.833617,-5.303067,-10.28994,45.57375,61.89578,-4.289029,7.516783,-19.108881
31,1.3933987617492676,17.269699096679688,77.88719177246094,-0.38401442198525343,5.845897615650927,-143.09006211411221,-20.880655,22.122566,16.524961,38.493904,-11.27208,-9.235975,-14.146268,-5.8044424,-20.79424,17.551056,-10.143701,1.6538053,-4.2612305,-0.74340445,3.5468953,-2.1448493,18.511427,-35.625263,58.349792,-1.6719477,10.402923,16.08578,-5.248157,-10.421982,46.07405,62.051956,-4.768719,7.7166567,-18.839592
32,1.4397904872894287,17.639541625976562,77.8736343383789,-0.3058765769713688,5.790067445133519,-143.23495697541975,-20.448517,22.011307,17.14812,40.507973,-12.328997,-8.951427,-14.358167,-5.618296,-20.726276,17.569609,-10.047841,1.5065725,-4.3626394,-0.6763692,3.4858587,-2.2462087,18.40401,-35.457912,58.083576,-1.76745,10.369166,16.30946,-5.170383,-10.551413,46.473106,62.1756,-5.214506,7.898277,-18.597769
33,1.4873305559158325,18.00728416442871,77.85803985595703,-0.22563917592329216,5.729362105644474,-143.34368428205045,-19.963545,21.844606,17.747202,42.45078,-13.431372,-8.624048,-14.566602,-5.452799,-20.68866,17.614216,-9.958846,1.3853611,-4.520931,-0.6120096,3.4184797,-2.3326063,18.297083,-35.315006,57.82354,-1.8984023,10.312688,16.509375,-5.0730696,-10.678696,46.765022,62.264008,-5.6395435,8.062653,-18.365583
34,1.541243314743042,18.37700843811035,77.83716583251953,-0.13966091949376117,5.668197287526977,-143.42403125998788,-19.425623,21.628698,18.365046,44.339367,-14.575244,-8.249012,-14.779469,-5.3104877,-20.672117,17.688883,-9.8804865,1.2873147,-4.7293625,-0.55472505,3.3374481,-2.3935957,18.191347,-35.184372,57.560917,-2.074763,10.233807,16.706589,-4.9504824,-10.804312,46.972168,62.313,-6.087379,8.221098,-18.133932
35,1.596519112586975,18.734235763549805,77.81433868408203,-0.05449353115089087,5.606187226219261,-143.47761569171146,-18.8461,21.356678,18.96125,46.143448,-15.676247,-7.874144,-15.002832,-5.1864624,-20.673756,17.805162,-9.819165,1.1856866,-4.973003,-0.49789044,3.253145,-2.4504805,18.087477,-35.090164,57.308502,-2.2368548,10.153143,16.87398,-4.8022346,-10.926858,47.09074,62.332466,-6.486107,8.363974,-17.950645
36,1.657628059387207,19.098941802978516,77.78689575195312,0.02360724757809053,5.542800408271827,-143.50604494643778,-18.23728,21.022676,19.498026,47.833843,-16.650291,-7.5471187,-15.244008,-5.076485,-20.690884,17.978138,-9.783131,1.0536147,-5.2368855,-0.4363207,3.1732848,-2.522286,17.98527,-35.056263,57.08033,-2.3235016,10.091469,16.985231,-4.6122265,-11.044981,47.09962,62.323746,-6.785402,8.482845,-17.86431
37,1.7192919254302979,19.45481300354004,77.75521087646484,0.08989897023185506,5.475695928761663,-143.50523731983006,-17.608662,20.627485,19.96342,49.429707,-17.481974,-7.244922,-15.511593,-4.981958,-20.725174,18.23482,-9.781653,0.8666053,-5.5227256,-0.3644029,3.1034849,-2.6124234,17.883976,-35.08986,56.873905,-2.3076174,10.056191,17.028404,-4.3761415,-11.156394,46.976353,62.286655,-6.9606547,8.563571,-17.90267
38,1.7743332386016846,19.803342819213867,77.72294616699219,0.1491409678821519,5.405855712865549,-143.47611846063523,-16.954592,20.171629,20.379568,50.9383,-18.212776,-6.954618,-15.798367,-4.90399,-20.776932,18.557913,-9.80681,0.6446565,-5.835463,-0.2871243,3.0375416,-2.7137709,17.783218,-35.182224,56.686993,-2.228566,10.035901,17.019562,-4.097664,-11.260363,46.731655,62.21956,-7.0479474,8.615511,-18.035744
39,1.832159399986267,20.145315170288086,77.68721771240234,0.20755560707594622,5.337412688236673,-143.42697172629565,-16.266647,19.651672,20.760725,52.31425,-18.844683,-6.7389913,-16.090586,-4.838461,-20.842567,18.899237,-9.843003,0.4279068,-6.162827,-0.21348058,2.9681287,-2.8284857,17.683119,-35.329952,56.530296,-2.1203573,10.023228,16.974634,-3.7876318,-11.358017,46.406803,62.127644,-7.0683875,8.665686,-18.225561
40,1.8973191976547241,20.491374969482422,77.64920806884766,0.2706482619490469,5.274768820462986,-143.36620214092872,-15.537124,19.064865,21.121082,53.512352,-19.380157,-6.6609507,-16.373434,-4.7800794,-20.918793,19.209871,-9.874548,0.25593135,-6.494735,-0.1511206,2.8873234,-2.960573,17.584364,-35.531754,56.416664,-2.0215406,10.010791,16.909134,-3.4475548,-11.450827,46.038475,62.007042,-7.050853,8.741206,-18.433903
41,1.964801549911499,20.835323333740234,77.61136627197266,0.34597124626368375,5.222522191964138,-143.29471413470367,-14.76413,18.38992,21.464514,54.516357,-19.798462,-6.7628565,-16.649834,-4.7346005,-21.002188,19.481722,-9.899133,0.14449663,-6.8303585,-0.10882444,2.7901921,-3.1117456,17.487623,-35.791912,56.35068,-1.9427863,9.991006,16.82211,-3.0788622,-11.5397835,45.62234,61.852043,-6.9918523,8.873232,-18.668653
42,2.033961534500122,21.1708984375,77.56932067871094,0.42829249405012637,5.177285922311761,-143.2085377257787,-13.955322,17.633993,21.783667,55.35082,-20.108316,-7.003228,-16.925594,-4.702562,-21.095415,19.7402,-9.925706,0.07040027,-7.176412,-0.07970473,2.6810706,-3.2776122,17.392904,-36.10882,56.32429,-1.8648165,9.96981,16.70639,-2.669552,-11.624681,45.13778,61.6563,-6.888809,9.039081,-18.944168
43,2.1004507541656494,21.504806518554688,77.52549743652344,0.5049398567765424,5.131397530507668,-143.10835049337797,-13.116464,16.836973,22.075993,56.032986,-20.347021,-7.3183537,-17.18516,-4.668148,-21.201912,19.972345,-9.947084,0.014317702,-7.5295515,-0.048368864,2.5702846,-3.4528394,17.299314,-36.47028,56.325512,-1.774117,9.959513,16.569036,-2.2407756,-11.705579,44.625942,61.446434,-6.731018,9.184375,-19.231972
44,2.1738100051879883,21.84265899658203,77.47631072998047,0.5629102189800153,5.0772554707242685,-142.99520372118457,-12.252211,16.03987,22.33915,56.580357,-20.554188,-7.644386,-17.41825,-4.617724,-21.325745,20.176617,-9.961858,-0.04276441,-7.891607,0.00074916286,2.4659212,-3.6309707,17.205915,-36.861656,56.345177,-1.6600436,9.972639,16.416956,-1.8005323,-11.78289,44.12055,61.240955,-6.524741,9.255122,-19.503138
45,2.2420530319213867,22.17892074584961,77.43018341064453,0.5957597799687729,5.009622930763794,-142.8653523350434,-11.355479,15.243574,22.560778,56.995792,-20.7418,-7.9858627,-17.60416,-4.541658,-21.47177,20.3257,-9.962353,-0.08931246,-8.270681,0.0765239,2.3722672,-3.8085926,17.111444,-37.286194,56.384266,-1.5094643,10.022415,16.234192,-1.3504857,-11.857732,43.62544,61.041473,-6.222284,9.211619,-19.777018
46,2.3102991580963135,22.50404930114746,77.38331604003906,0.6110119366352791,4.933555305241519,-142.71956628299924,-10.426347,14.429761,22.745148,57.269558,-20.888811,-8.368898,-17.756023,-4.4494853,-21.636822,20.432426,-9.953525,-0.120823786,-8.665043,0.16973872,2.2838771,-3.9871764,17.015291,-37.746243,56.446346,-1.3294613,10.098463,16.022858,-0.8835728,-11.93021,43.12532,60.837543,-5.8395753,9.090148,-20.058973
47,2.3791284561157227,22.82462501525879,77.33558654785156,0.6172728880071282,4.85730655713616,-142.56582392768917,-9.477102,13.612356,22.916393,57.40049,-20.982244,-8.761001,-17.904387,-4.351695,-21.811008,20.532656,-9.940285,-0.16751549,-9.060061,0.26799035,2.1959555,-4.1703043,16.918278,-38.228043,56.52564,-1.1408116,10.177889,15.816185,-0.40471423,-11.998263,42.63095,60.63573,-5.468891,8.951918,-20.299498
48,2.4472804069519043,23.15347671508789,77.2840576171875,0.6236044844741762,4.788737746996905,-142.41181698840805,-8.519933,12.806083,23.096529,57.388626,-21.008942,-9.129974,-18.081558,-4.2609196,-21.985765,20.666843,-9.930004,-0.25909713,-9.441592,0.3587117,2.104634,-4.355153,16.82184,-38.710197,56.609856,-0.95721626,10.23877,15.647779,0.07538483,-12.056365,42.157158,60.445107,-5.1953416,8.859492,-20.450977
49,2.51920747756958,23.483314514160156,77.2335205078125,0.6283458712869451,4.730066659300556,-142.25832061954293,-7.547944,12.026056,23.298832,57.240993,-20.970928,-9.470378,-18.288502,-4.1720667,-22.15665,20.830656,-9.920445,-0.4068596,-9.813732,0.44004002,2.0033748,-4.540022,16.728094,-39.200634,56.70716,-0.77785355,10.270948,15.530842,0.5569328,-12.100006,41.70224,60.272087,-5.0474544,8.8259115,-20.487167
50,2.597733736038208,23.8148193359375,77.1769790649414,0.6283222156378341,4.677055696009328,-142.10169414099335,-6.5562067,11.262337,23.506021,56.95515,-20.872059,-9.797563,-18.51138,-4.082169,-22.329437,21.00917,-9.909756,-0.5937529,-10.182242,0.51694685,1.8961443,-4.724693,16.637825,-39.705334,56.817596,-0.5970224,10.288281,15.446045,1.038698,-12.126883,41.262947,60.11706,-4.974763,8.819749,-20.439041
51,2.674821138381958,24.143075942993164,77.11550903320312,0.6297049835591688,4.627873023876479,-141.9431630006668,-5.557728,10.493422,23.694897,56.513954,-20.698833,-10.110673,-18.753681,-4.0030875,-22.508114,21.21419,-9.898272,-0.80775625,-10.539851,0.58580697,1.7906755,-4.9069214,16.550446,-40.196503,56.920586,-0.42083386,10.30397,15.377904,1.5192039,-12.137782,40.844242,59.97855,-4.962007,8.837558,-20.346096
52,2.765043258666992,24.4815731048584,77.04881286621094,0.638621477511563,4.580880416982005,-141.78408565605469,-4.5648494,9.697913,23.842827,55.898666,-20.437757,-10.408664,-19.018679,-3.9459827,-22.696333,21.456285,-9.885691,-1.0369853,-10.87958,0.6440699,1.6955516,-5.083942,16.46457,-40.64348,56.99353,-0.25250626,10.331502,15.310681,1.993323,-12.134566,40.455116,59.854904,-4.988241,8.875881,-20.247038
53,2.8627734184265137,24.823240280151367,76.9800796508789,0.6572250917645535,4.5366183161375515,-141.62584662982707,-3.5715296,8.873188,23.951588,55.09511,-20.041136,-10.709204,-19.311333,-3.9169617,-22.899384,21.747496,-9.87087,-1.2861402,-11.204009,0.68969524,1.6136266,-5.251545,16.382643,-41.02911,57.021572,-0.078891985,10.385852,15.240366,2.4655,-12.119349,40.0882,59.737946,-5.068487,8.939546,-20.141895
54,2.9604201316833496,25.153749465942383,76.91484069824219,0.6824499301965715,4.495712164383665,-141.46727445646655,-2.5715241,8.030765,24.0276,54.114464,-19.52974,-11.006929,-19.62694,-3.9092774,-23.11406,22.07691,-9.853388,-1.5591668,-11.506975,0.7244297,1.5390816,-5.422243,16.297546,-41.38246,57.03033,0.09624671,10.455976,15.17621,2.9388282,-12.091986,39.733227,59.63027,-5.207664,9.02801,-20.01251
55,3.051394462585449,25.487056732177734,76.8537368774414,0.7115881446251783,4.456177912061026,-141.30597976890704,-1.576376,7.17167,24.055973,52.978065,-18.993767,-11.265958,-19.957302,-3.9156191,-23.331285,22.426222,-9.836946,-1.8431228,-11.800183,0.7528208,1.46952,-5.5875506,16.213808,-41.703655,57.026134,0.25081262,10.516139,15.119502,3.4002893,-12.053392,39.425648,59.54244,-5.369347,9.131215,-19.873062
56,3.1608831882476807,25.819374084472656,76.78633117675781,0.7423724836239186,4.416035414041175,-141.13935571427106,-0.5977447,6.2977033,24.022903,51.7076,-18.523613,-11.449619,-20.293316,-3.9283106,-23.542068,22.774805,-9.823919,-2.1249535,-12.0842085,0.77815545,1.4024138,-5.746722,16.131762,-42.00446,57.02208,0.36166823,10.540718,15.072483,3.8363843,-12.003878,39.19066,59.48809,-5.515839,9.238773,-19.737263
57,3.275874614715576,26.150911331176758,76.70978546142578,0.7821368340045021,4.378296490540587,-140.9640712852343,0.35742283,5.3562174,23.866962,50.27189,-18.078934,-11.607447,-20.640017,-3.9572546,-23.741121,23.127993,-9.820954,-2.39808,-12.3608885,0.79602605,1.3345714,-5.90293,16.051737,-42.290985,57.022465,0.41210407,10.511735,15.037506,4.24107,-11.944102,39.041473,59.480145,-5.6397066,9.353155,-19.617939
58,3.3922693729400635,26.4840087890625,76.63395690917969,0.8292893392387889,4.342880625386155,-140.78227536726732,1.3012686,4.368722,23.612993,48.67212,-17.631025,-11.736696,-20.999102,-4.001974,-23.9345,23.491838,-9.82454,-2.6707754,-12.639575,0.8087844,1.272721,-6.040528,15.988877,-42.54143,56.9956,0.4208117,10.447175,15.010602,4.6229577,-11.886283,38.972992,59.494797,-5.7568035,9.478936,-19.503344
59,3.516674757003784,26.823440551757812,76.55384826660156,0.8673697985088121,4.303304052769827,-140.59968996512217,2.2532518,3.4443824,23.38029,46.968746,-17.291283,-11.724615,-21.356918,-4.0390387,-24.129751,23.848953,-9.82238,-2.9523213,-12.889412,0.82130826,1.2124752,-6.1952014,15.910366,-42.791813,56.995605,0.39841717,10.373666,14.993791,4.988097,-11.803003,38.93554,59.541172,-5.879388,9.606013,-19.375574
60,3.6455414295196533,27.173324584960938,76.46453094482422,0.8803055813337505,4.253368659259254,-140.42207895739836,3.226227,2.6859806,23.292059,45.225426,-17.17121,-11.46277,-21.698904,-4.0449243,-24.334719,24.179054,-9.800751,-3.251996,-13.135177,0.848779,1.1664554,-6.336607,15.839804,-43.003983,56.98243,0.36914182,10.319705,14.979287,5.3383408,-11.715208,38.943493,59.582775,-6.0014553,9.727744,-19.213013
61,3.7825539112091064,27.51822853088379,76.36783599853516,0.8681837598402133,4.187787753518934,-140.24977800978345,4.240531,2.1135323,23.404858,43.445576,-17.388523,-10.888387,-22.026587,-4.023713,-24.546883,24.500008,-9.771049,-3.5716217,-13.366058,0.891627,1.136698,-6.473029,15.770544,-43.188633,56.962948,0.3234882,10.292036,14.96548,5.6783,-11.616485,38.99359,59.624912,-6.111542,9.847612,-19.017073
62,3.9202756881713867,27.872568130493164,76.26648712158203,0.8398447918175785,4.111354687448673,-140.08016169604798,5.27922,1.6564744,23.647095,41.598328,-17.86159,-10.084345,-22.344818,-3.985646,-24.762918,24.812641,-9.73657,-3.9066865,-13.5860405,0.94431365,1.1222916,-6.5982985,15.710696,-43.342884,56.925144,0.2570877,10.276568,14.953865,6.0085664,-11.519701,39.093937,59.663994,-6.2116275,9.968501,-18.795132
63,4.061595439910889,28.231266021728516,76.16401672363281,0.7929566073735923,4.032809930965114,-139.9147849221321,6.295586,1.2825731,23.955547,39.7039,-18.407394,-9.160681,-22.652302,-3.9212894,-24.989216,25.08966,-9.67532,-4.256514,-13.793946,0.99942523,1.1127046,-6.726259,15.652844,-43.479694,56.89761,0.18294738,10.267938,14.950709,6.321828,-11.406623,39.217247,59.70734,-6.3359194,10.078401,-18.53973
64,4.201640605926514,28.602577209472656,76.05955505371094,0.7253833124294167,3.960799612186002,-139.7554623184758,7.244806,0.969428,24.271976,37.78359,-18.839972,-8.219006,-22.941454,-3.8172107,-25.23238,25.288939,-9.562424,-4.6205153,-13.992007,1.0525612,1.1048907,-6.85143,15.60851,-43.599762,56.874622,0.12173815,10.262355,14.96039,6.6216397,-11.284145,39.341274,59.732235,-6.515023,10.166316,-18.239931
65,4.347590923309326,28.977397918701172,75.94951629638672,0.6297006679596583,3.892448535941285,-139.61089518468492,8.123934,0.7299527,24.618513,35.80826,-19.061436,-7.193327,-23.208496,-3.660756,-25.494993,25.411844,-9.39944,-5.0092134,-14.174444,1.1062782,1.0976576,-6.97239,15.582868,-43.711895,56.854317,0.066722825,10.264356,14.989447,6.9125767,-11.149291,39.467148,59.73498,-6.785672,10.224685,-17.86798
66,4.494675636291504,29.356647491455078,75.8459243774414,0.5121983957639078,3.824583835166367,-139.47804564528892,8.950742,0.5654268,25.025312,33.78844,-19.199036,-6.062104,-23.45924,-3.464502,-25.771809,25.480984,-9.200787,-5.419051,-14.341631,1.1576313,1.0939956,-7.0855,15.577898,-43.810703,56.828617,0.013247381,10.274758,15.033223,7.191088,-11.001232,39.605152,59.72526,-7.1214004,10.259472,-17.43768
67,4.642186164855957,29.751718521118164,75.74571228027344,0.38773894500974115,3.765285764686121,-139.34129883243602,9.71527,0.44392094,25.445427,31.794184,-19.391188,-4.988916,-23.699808,-3.2506979,-26.060112,25.48277,-8.9554825,-5.8289223,-14.504944,1.1955281,1.0952343,-7.197724,15.594256,-43.890316,56.799587,-0.032404676,10.283249,15.079534,7.4478555,-10.839056,39.74368,59.70824,-7.46245,10.279773,-17.001492
68,4.808474540710449,30.160781860351562,75.64437103271484,0.2685051223721981,3.723598660882331,-139.1839199925133,10.410601,0.33553314,25.824003,29.880768,-19.763481,-4.1399264,-23.934946,-3.0380473,-26.359947,25.39948,-8.650792,-6.217455,-14.676165,1.2121769,1.1018472,-7.316331,15.631408,-43.94493,56.77153,-0.06296991,10.279365,15.11615,7.6754117,-10.662963,39.86812,59.68893,-7.7524114,10.296523,-16.61183
69,4.977627277374268,30.57425308227539,75.5455551147461,0.13360528575704705,3.7011755097276278,-138.9873636288788,11.05115,0.26381755,26.14614,28.01809,-20.393179,-3.5808096,-24.156857,-2.8117032,-26.699827,25.211998,-8.280778,-6.5880394,-14.871159,1.2290263,1.1186174,-7.447019,15.688739,-43.971153,56.746223,-0.072902344,10.257171,15.137694,7.875061,-10.473,39.97533,59.65974,-7.98411,10.312908,-16.266644
70,5.154547691345215,31.000513076782227,75.45135498046875,-0.01949221541994842,3.6950940158248264,-138.763247482441,11.6393175,0.23420869,26.442469,26.166649,-21.17921,-3.2268488,-24.364773,-2.5636623,-27.075407,24.928951,-7.8506794,-6.949112,-15.080965,1.247098,1.143342,-7.582081,15.765744,-43.96899,56.719707,-0.062192883,10.223543,15.151285,8.0499115,-10.269192,40.07202,59.621025,-8.1853695,10.323954,-15.943396
71,5.345854759216309,31.44487953186035,75.36428833007812,-0.15450210053211058,3.7067869955886885,-138.53920669226295,12.153628,0.19592911,26.722109,24.361448,-21.972164,-3.0137486,-24.575445,-2.3205385,-27.439217,24.573854,-7.3612123,-7.2877455,-15.281941,1.2318505,1.1672647,-7.722535,15.8628435,-43.95401,56.696117,-0.052185666,10.186522,15.164146,8.196198,-10.051534,40.15869,59.587215,-8.353364,10.328858,-15.663568
72,5.54338264465332,31.89384651184082,75.28562927246094,-0.23391475652297491,3.7367846503769226,-138.3438115712262,12.571615,0.100742556,26.991604,22.650799,-22.630217,-2.8674242,-24.801409,-2.107948,-27.742588,24.163807,-6.814956,-7.591532,-15.448032,1.1473123,1.1816529,-7.8639107,15.980092,-43.936493,56.675335,-0.056558877,10.154505,15.183291,8.310346,-9.819169,40.23495,59.572033,-8.483915,10.326689,-15.44825
73,5.739315509796143,32.354408264160156,75.21680450439453,-0.24299614284419363,3.78203867938644,-138.1626356987287,12.879803,-0.055318683,27.240286,21.068289,-23.14207,-2.7863088,-25.050247,-1.9557278,-27.998926,23.731928,-6.2369742,-7.8673444,-15.585753,0.97325945,1.1864461,-8.017775,16.119991,-43.93766,56.663147,-0.0724993,10.130922,15.213269,8.399656,-9.569682,40.286777,59.57122,-8.550931,10.314202,-15.316101
74,5.951560974121094,32.82405471801758,75.1568374633789,-0.20681717126785337,3.842825040454852,-137.98661249832458,13.092971,-0.23988354,27.469637,19.587,-23.571688,-2.797658,-25.31006,-1.8365419,-28.22866,23.25108,-5.6146526,-8.119246,-15.703836,0.73521316,1.1861335,-8.181424,16.282946,-43.946976,56.655533,-0.09393395,10.111192,15.249361,8.46331,-9.302027,40.316322,59.580727,-8.565977,10.293538,-15.251445
75,6.165802001953125,33.30034255981445,75.11367797851562,-0.14544377114780968,3.924010053776871,-137.853957292573,13.234356,-0.4474454,27.699507,18.163677,-23.903437,-2.8617222,-25.572445,-1.6962874,-28.390566,22.668375,-4.8971696,-8.329792,-15.781839,0.4646142,1.1792127,-8.333333,16.46486,-43.928085,56.643898,-0.13441853,10.091113,15.284866,8.48408,-9.020027,40.349133,59.61712,-8.58188,10.271331,-15.225314
76,6.386367321014404,33.77863311767578,75.08570861816406,-0.07864143323037887,4.030502265938903,-137.8021965954082,13.327578,-0.67327243,27.94819,16.754656,-24.122961,-2.9364479,-25.826544,-1.4821287,-28.442375,21.925919,-4.0303345,-8.480941,-15.80022,0.19295122,1.1648364,-8.449295,16.658419,-43.838905,56.61976,-0.20179884,10.066633,15.312915,8.445647,-8.732083,40.412598,59.695995,-8.651114,10.254533,-15.208573
77,6.61163330078125,34.261600494384766,75.0611572265625,-0.003350913868218929,4.167143458888631,-137.84696858278468,13.364944,-0.9166568,28.215324,15.3635025,-24.221935,-3.0164785,-26.071793,-1.191088,-28.394783,21.00856,-3.018976,-8.635157,-15.746608,-0.07866948,1.137867,-8.527121,16.858377,-43.66362,56.588104,-0.31025335,10.031154,15.328066,8.351184,-8.443141,40.511223,59.817886,-8.795779,10.25776,-15.204163
78,6.853850364685059,34.746768951416016,75.04644775390625,0.08863085587362364,4.328802483579492,-137.9655705949216,13.336622,-1.1737198,28.489645,14.021425,-24.217125,-3.112604,-26.30589,-0.8483648,-28.260494,19.936686,-1.8793416,-8.778523,-15.635953,-0.3634783,1.1028063,-8.578817,17.063353,-43.42223,56.556065,-0.44930193,9.988085,15.335283,8.212546,-8.154672,40.63257,59.967937,-8.985583,10.273847,-15.223343
79,7.093139171600342,35.2374267578125,75.04261779785156,0.1880397952709382,4.504457515040262,-138.1371189220616,13.274719,-1.4431105,28.770145,12.695844,-24.115715,-3.2068043,-26.519016,-0.45217857,-27.997217,18.722324,-0.58550394,-8.777698,-15.489497,-0.6529042,1.0736568,-8.602734,17.271135,-43.12819,56.51848,-0.5923173,9.948359,15.3440895,8.020358,-7.8726797,40.780743,60.142994,-9.188323,10.276256,-15.24979
80,7.337998390197754,35.73599624633789,75.04276275634766,0.28763915036306087,4.682032245972097,-138.33944460221196,13.20358,-1.7213929,29.052902,11.374983,-23.937397,-3.279909,-26.688528,0.0026025828,-27.55405,17.349014,0.90424573,-8.496483,-15.332145,-0.9394818,1.0640998,-8.598142,17.479536,-42.796024,56.47079,-0.71640295,9.922255,15.363552,7.7756133,-7.6048417,40.95661,60.327827,-9.378986,10.238786,-15.266821
81,7.585231781005859,36.23253631591797,75.06229400634766,0.37081241470516585,4.867314761776896,-138.5900635366873,13.10997,-1.9829415,29.34954,10.073951,-23.700699,-3.3282337,-26.849499,0.5421719,-26.863855,15.849504,2.6195588,-8.031607,-15.149072,-1.2065876,1.0786911,-8.562137,17.686396,-42.40478,56.405037,-0.7948908,9.920007,15.393038,7.4716597,-7.357807,41.16278,60.522514,-9.551844,10.122615,-15.260517
82,7.844546318054199,36.72684860229492,75.0906982421875,0.4565866049169681,5.058219316410762,-138.88933220092363,13.011633,-2.2549295,29.649761,8.748727,-23.370943,-3.3537383,-26.982407,1.1366081,-25.950512,14.212025,4.527931,-7.40125,-14.937578,-1.4722291,1.113583,-8.4963045,17.890673,-41.955643,56.32664,-0.84875584,9.9331665,15.42874,7.11203,-7.1338115,41.40292,60.72738,-9.713817,9.9527,-15.242244
83,8.115494728088379,37.21683120727539,75.12164306640625,0.5958271977170078,5.228265046681207,-139.1830391179803,12.607708,-2.3951542,29.926838,8.212992,-23.36149,-3.3569744,-26.976877,1.7037934,-24.887712,12.344251,6.567366,-6.349553,-14.746061,-1.7862096,1.1696936,-8.399412,18.091743,-41.488426,56.247566,-0.9154419,9.945179,15.4748955,6.72327,-6.933696,41.66614,60.922745,-9.875559,9.798529,-15.233039
84,8.375200271606445,37.7053108215332,75.15264129638672,0.8405481725518241,5.348741456917373,-139.4115105082625,12.079907,-2.5502427,30.13535,8.107761,-23.471323,-3.3293388,-26.712952,2.1633146,-23.744469,10.1339655,8.683085,-4.6218204,-14.624317,-2.1987674,1.2510585,-8.271817,18.288568,-41.044514,56.179493,-1.0303893,9.939431,15.535894,6.322235,-6.7564135,41.948025,61.096413,-10.035056,9.729432,-15.25293
85,8.637916564941406,38.189552307128906,75.17774200439453,1.2267242645131051,5.405129282183464,-139.5516545010786,11.624277,-2.879666,30.245213,7.981722,-23.448462,-3.2560115,-26.06278,2.5139003,-22.471943,7.3373337,10.919672,-2.0773716,-14.591399,-2.7468817,1.3698632,-8.125032,18.48152,-40.62934,56.12472,-1.221503,9.906538,15.627342,5.906563,-6.600043,42.252132,61.233078,-10.207112,9.810603,-15.318372
86,8.897833824157715,38.66568374633789,75.20006561279297,1.7258017400468517,5.405169590945942,-139.62757608880904,11.229193,-3.3465047,30.27579,7.8396106,-23.30589,-3.142651,-26.035295,2.3790152,-21.072512,6.209995,12.118017,1.1425492,-14.627003,-3.4039495,1.5263654,-7.9503655,18.669857,-40.219685,56.075096,-1.4573786,9.857191,15.741657,5.469502,-6.463859,42.579243,61.34543,-10.386191,9.989982,-15.41381
87,9.148345947265625,39.1219367980957,75.22927856445312,2.2872120755458747,5.357144994440155,-139.6556030321667,10.890931,-3.8828099,30.256262,7.6910753,-23.078527,-3.0112166,-26.338898,1.9764308,-19.62823,6.0478015,12.696047,4.829088,-14.706064,-4.111498,1.7038884,-7.7595754,18.830767,-39.85239,56.06801,-1.7148592,9.802293,15.850959,5.037759,-6.3618016,42.903378,61.44633,-10.549937,10.160818,-15.511046
88,9.385746955871582,39.56454086303711,75.26370239257812,2.8574376234305032,5.273365008794858,-139.6586620032287,10.603635,-4.421569,30.220263,7.5413957,-22.80229,-2.8837328,-26.569975,1.5369145,-18.206598,5.9090934,13.216902,8.788629,-14.756536,-4.812038,1.8842334,-7.6091027,18.91432,-39.60896,56.18619,-1.9741813,9.750616,15.931132,4.6720977,-6.3170824,43.143215,61.51824,-10.701278,10.215952,-15.579211
89,9.614806175231934,39.98760223388672,75.28657531738281,3.503295080678115,5.132936214469069,-139.60526581441454,10.393328,-5.0480027,30.133123,7.375991,-22.454264,-2.7478068,-26.721098,0.9831591,-16.807652,5.810136,13.778032,13.559658,-14.938038,-5.5688453,2.046332,-7.3479505,19.008192,-39.34587,56.295128,-2.2118704,9.709764,15.9619875,4.2869596,-6.2789855,43.4353,61.681263,-10.800542,10.092828,-15.619182
90,9.788637161254883,40.46236801147461,75.29238891601562,4.07973469068646,4.977071133389719,-139.78070823088473,10.195781,-5.513985,30.28389,7.344515,-22.09684,-2.709369,-26.690626,0.8204484,-16.243149,5.3301187,14.530158,15.000033,-14.921031,-6.3146105,2.2078743,-7.0400033,19.098898,-39.119835,56.452446,-2.4465437,9.66706,15.960506,3.9446077,-6.2735367,43.741695,61.830837,-10.863161,9.863393,-15.639871
91,9.94737434387207,40.96427917480469,75.3081283569336,4.5626403632007095,4.846437149866515,-140.08424778615523,9.993199,-5.856457,30.570799,7.332491,-21.712942,-2.7129421,-26.667059,0.8230209,-15.908811,4.88745,15.128579,15.000033,-14.781841,-6.995186,2.3589356,-6.6886845,19.21625,-38.935177,56.619778,-2.6658468,9.634223,15.935012,3.603996,-6.2447786,44.035255,62.006298,-10.912663,9.611618,-15.664625
92,10.116105079650879,41.46237564086914,75.38964080810547,4.861610149274189,4.7748321331020716,-140.41769423123142,9.748825,-6.005601,30.898907,7.289197,-21.310276,-2.726338,-26.68692,0.897955,-15.268035,4.6051683,15.279515,15.000033,-14.584429,-7.456039,2.514559,-6.324188,19.303137,-38.785572,56.804306,-2.8325942,9.619963,15.904907,3.2423184,-6.2326145,44.291393,62.18703,-10.94981,9.4217,-15.702263
93,10.29249382019043,41.91717529296875,75.51082611083984,4.974661224377068,4.762449933130965,-140.75470724945453,9.466959,-5.9612956,31.239029,7.1975865,-20.882195,-2.7391984,-26.783476,1.0262345,-14.0736685,4.555595,14.796989,15.000033,-14.402998,-7.698718,2.6690266,-5.9127336,19.394777,-38.61392,56.99144,-2.9340003,9.624148,15.861033,2.8372712,-6.226815,44.59994,62.38323,-10.924933,9.322444,-15.79108
94,10.478631019592285,42.336788177490234,75.64968872070312,4.959797265815349,4.788468978367022,-141.09284633773353,9.163189,-5.7792506,31.5846,7.074698,-20.419724,-2.7520678,-26.900713,1.1843773,-12.5219755,4.633153,13.917555,15.000033,-14.206762,-7.7760386,2.8163471,-5.474282,19.457218,-38.474724,57.201565,-2.990493,9.647265,15.808763,2.4065201,-6.233367,44.897938,62.606987,-10.863887,9.2623825,-15.908029
95,10.666818618774414,42.74794387817383,75.80490112304688,4.856231069554174,4.848188393522488,-141.45662597013163,8.844596,-5.503664,31.957624,6.91848,-19.935507,-2.7731996,-26.99308,1.321745,-11.000723,4.768185,12.9591,15.000033,-13.928908,-7.759225,2.9608092,-5.0874176,19.481962,-38.402,57.480354,-3.0040963,9.680089,15.737106,1.9858469,-6.24381,45.096962,62.813053,-10.84367,9.221838,-15.991268
96,10.850802421569824,43.15748596191406,75.96635437011719,4.70458366847638,4.956989863955606,-141.8409949085057,8.450329,-5.1533623,32.358788,6.8232927,-19.484509,-2.8079574,-27.042542,1.3763222,-9.89938,4.900611,12.180611,15.000033,-13.780478,-7.6619596,3.0396628,-4.5413556,19.521347,-38.18019,57.634914,-2.9568326,9.725148,15.664215,1.5011612,-6.274813,45.42725,63.046215,-10.802051,9.191861,-16.007835
97,11.043378829956055,43.576602935791016,76.13504791259766,4.491120868104324,5.0938286932324495,-142.2732320327968,8.041103,-4.7354555,32.81048,6.707082,-19.03043,-2.863272,-27.017553,1.3545694,-9.274208,5.019292,11.619788,15.000033,-13.575863,-7.511158,3.1186945,-4.0007796,19.553747,-37.951847,57.784004,-2.8235285,9.775787,15.56906,1.0062397,-6.3179154,45.657627,63.244324,-10.877182,9.160916,-15.869313
98,11.240559577941895,43.98822784423828,76.31278228759766,4.199742956814894,5.268977485331644,-142.74001606033517,7.5924234,-4.222517,33.29841,6.601624,-18.58161,-2.9336,-26.954395,1.277097,-8.939544,5.147759,11.150666,15.000033,-13.351791,-7.273859,3.1850693,-3.4285486,19.584827,-37.702618,57.902077,-2.6154604,9.8356495,15.457605,0.50255024,-6.3895082,45.833,63.404293,-11.022987,9.140067,-15.625995
99,11.430563926696777,44.39983367919922,76.4959945678711,3.866960141392007,5.477337834622376,-143.2236832979743,7.109096,-3.6551926,33.797585,6.5075808,-18.139265,-3.01299,-26.862375,1.1291763,-8.867697,5.2887073,10.724596,15.000033,-13.03833,-7.002163,3.227225,-2.9228199,19.59744,-37.55759,58.05537,-2.4312327,9.909282,15.330333,0.0058644046,-6.449864,45.899033,63.56445,-11.172693,9.12137,-15.390161
100,11.611091613769531,44.808624267578125,76.6825942993164,3.5202356322083173,5.701052170766361,-143.70537914304188,6.60434,-3.0595043,34.282127,6.440359,-17.713179,-3.0982046,-26.72422,0.90892345,-9.04283,5.427195,10.307813,15.000033,-12.74082,-6.7054,3.2513692,-2.3957617,19.605614,-37.381157,58.142452,-2.2722957,10.005118,15.169969,-0.46972153,-6.529104,45.93741,63.69395,-11.289189,9.111725,-15.264823
101,11.794910430908203,45.218563079833984,76.86473083496094,3.1614440997655318,5.950402799166307,-144.17655783128828,6.0646434,-2.4385602,34.741043,6.395657,-17.297655,-3.18956,-26.553265,0.5988324,-9.497023,5.595191,9.848106,15.000033,-12.452218,-6.3947935,3.2616217,-1.863292,19.613386,-37.16189,58.151646,-2.1473885,10.150782,14.954275,-0.91900384,-6.6382675,45.94769,63.760815,-11.358059,9.116339,-15.273979
102,11.982234954833984,45.62495040893555,77.04339599609375,2.7762886648894187,6.216735863846028,-144.64218351761758,5.500586,-1.7761382,35.180195,6.377002,-16.897173,-3.2890368,-26.340975,0.19702697,-10.228111,5.812434,9.328598,15.000033,-12.139503,-6.0618925,3.2576818,-1.3553236,19.61895,-36.96371,58.134174,-2.0612776,10.332463,14.697431,-1.3550154,-6.758275,45.902622,63.808155,-11.396358,9.127078,-15.366238
103,12.162999153137207,46.01415252685547,77.21565246582031,2.386391816944994,6.489152048781309,-145.0899186587968,4.931525,-1.1015457,35.590374,6.3684225,-16.506227,-3.388497,-26.089607,-0.2943494,-11.174766,6.066799,8.7814245,15.000033,-11.830266,-5.7175937,3.234026,-0.8541804,19.62426,-36.8072,58.100845,-1.9996567,10.4982815,14.440563,-1.7570856,-6.8996396,45.812233,63.82446,-11.400447,9.142862,-15.527161
104,12.327635765075684,46.405765533447266,77.37509155273438,2.0013177310307935,6.757524228513127,-145.51767755813182,4.3651366,-0.41971022,35.9726,6.392679,-16.141651,-3.4835868,-25.791265,-0.8478831,-12.279481,6.3212247,8.267487,14.999151,-11.504934,-5.348901,3.201707,-0.37907946,19.63131,-36.76443,58.072636,-1.9769024,10.593047,14.222624,-2.0578918,-7.16138,45.668125,63.707535,-11.351171,9.159588,-15.7337055
105,12.470512390136719,46.83417510986328,77.51883697509766,1.6100266085334562,7.030194000251212,-146.02062219264695,3.8047416,0.3197929,36.419662,6.462512,-15.799849,-3.606356,-25.442572,-1.2874161,-13.857646,6.4992046,7.8343163,12.958755,-11.076068,-5.0018554,3.117692,0.053122442,19.638655,-36.887062,58.119648,-2.0118809,10.589929,14.069121,-2.315859,-7.3898826,45.453716,63.62273,-11.248038,9.176823,-16.022148
106,12.594361305236816,47.23894119262695,77.65119171142578,1.2489697999617202,7.302454715144794,-146.48923409818747,3.2454913,1.0316107,36.8266,6.5479493,-15.475408,-3.716313,-25.637497,-1.999874,-15.625927,8.013586,6.6897473,10.870155,-10.651396,-4.6753783,3.0001585,0.4578274,19.647512,-37.126217,58.191338,-2.093095,10.523967,13.953251,-2.53821,-7.624219,45.176964,63.537292,-11.094927,9.195023,-16.386045
107,12.72080135345459,47.647457122802734,77.77061462402344,0.9508037417956403,7.543246118374622,-146.90496403533183,2.7219002,1.6749529,37.178314,6.640003,-15.166292,-3.8194625,-26.624798,-3.1381054,-17.375605,11.473831,4.53503,8.893963,-10.250458,-4.404302,2.870956,0.8391792,19.65694,-37.43466,58.28563,-2.1986332,10.428334,13.84423,-2.7197015,-7.864523,44.8709,63.448376,-10.889932,9.203932,-16.785908
108,12.835333824157715,48.04663848876953,77.8604736328125,0.7391242635827839,7.725857589080209,-147.2555198027568,2.2667544,2.2172754,37.46767,6.7285852,-14.87149,-3.9231439,-27.318964,-4.399773,-18.97724,14.502837,2.660185,7.176125,-9.887098,-4.213775,2.750163,1.2080238,19.664415,-37.755077,58.3967,-2.2975833,10.33624,13.711792,-2.8691282,-8.100575,44.577946,63.36978,-10.621365,9.1926565,-17.18301
109,12.931588172912598,48.438758850097656,77.93476867675781,0.6229268704404952,7.841648160234002,-147.53700891705543,1.8898923,2.64547,37.69393,6.808962,-14.592463,-4.0315194,-27.7846,-5.8250175,-20.505028,17.280874,1.0389583,5.7984915,-9.563643,-4.1122026,2.643357,1.5604488,19.67029,-38.098988,58.526646,-2.400791,10.242011,13.53356,-2.990596,-8.332988,44.3055,63.30555,-10.219099,9.150404,-17.603281
110,13.02621841430664,48.83740997314453,77.99527740478516,0.5876306118190241,7.9058227601561795,-147.75961030651422,1.5756042,2.9758072,37.868385,6.881618,-14.328133,-4.140456,-28.074913,-7.416553,-22.020008,19.917385,-0.403996,4.655867,-9.272819,-4.0833635,2.5421326,1.8969942,19.67501,-38.48084,58.675304,-2.5144439,10.133077,13.330305,-3.0813546,-8.563193,44.03614,63.25241,-9.712421,9.083399,-18.055017
111,13.111625671386719,49.22270584106445,78.04060363769531,0.6070910169310966,7.9354305239277325,-147.9429096544938,1.3036776,3.243576,38.009705,6.955597,-14.073839,-4.247545,-28.249569,-9.072521,-23.342672,22.397207,-1.7455575,3.6249118,-8.997911,-4.10025,2.4450288,2.2204194,19.67583,-38.86739,58.839405,-2.616417,10.03105,13.137558,-3.1476276,-8.791984,43.777634,63.2083,-9.224208,9.007995,-18.472794
112,13.189133644104004,49.602481842041016,78.07422637939453,0.6537604463083003,7.948438327878238,-148.1073737826451,1.0560681,3.4832656,38.136597,7.0334034,-13.821597,-4.3503723,-28.384377,-10.6793585,-24.286665,24.704138,-3.060889,2.5906012,-8.7246,-4.1341257,2.347757,2.5371962,19.66797,-39.220055,59.015324,-2.6805892,9.956981,12.990755,-3.1915631,-9.019129,43.53737,63.168858,-8.881727,8.943853,-18.79172
113,13.252907752990723,49.9822998046875,78.10572814941406,0.7195559777772161,7.9564893476214955,-148.2657962112685,0.81998986,3.7060301,38.262135,7.1182475,-13.570158,-4.4444947,-28.535034,-12.2074995,-24.808025,26.86469,-4.3789067,1.5083857,-8.439044,-4.175109,2.239119,2.8459227,19.646528,-39.54653,59.21176,-2.6872644,9.909732,12.908701,-3.2144814,-9.2442465,43.31143,63.1366,-8.726116,8.8855915,-18.991179
114,13.305075645446777,50.36178207397461,78.12722778320312,0.8083922094959778,7.954967943443251,-148.41405695630763,0.60252064,3.904857,38.38217,7.204535,-13.320687,-4.5337014,-28.688437,-13.679923,-25.007782,28.882235,-5.645795,0.44679537,-8.1449585,-4.2270203,2.1187723,3.1396742,19.60954,-39.863552,59.43491,-2.6574612,9.879388,12.870234,-3.2133553,-9.468165,43.096386,63.113014,-8.691203,8.828599,-19.10751
115,13.351387023925781,50.74213790893555,78.14311981201172,0.9110663731492381,7.937731630603716,-148.5470227480187,0.40833005,4.0913415,38.488384,7.292648,-13.071783,-4.628083,-28.827177,-15.057442,-24.912088,30.70956,-6.816674,-0.5336843,-7.8508606,-4.2820807,1.999985,3.429113,19.55629,-40.132217,59.66484,-2.6074343,9.875061,12.850903,-3.1974082,-9.690215,42.91061,63.098404,-8.722263,8.79419,-19.162058
116,13.389761924743652,51.124656677246094,78.15323638916016,1.0181907889365185,7.8984513169700845,-148.65913131461852,0.24284917,4.276568,38.571724,7.382186,-12.822253,-4.7380466,-28.93075,-16.304333,-24.550676,32.30488,-7.847534,-1.3724785,-7.5697036,-4.3326077,1.8954325,3.7293684,19.487638,-40.30836,59.87818,-2.5524557,9.905864,12.825995,-3.1738136,-9.908639,42.77233,63.091484,-8.770106,8.803435,-19.176506
117,13.41406536102295,51.4969482421875,78.15641784667969,1.121977154458396,7.837415254911092,-148.75225042401354,0.109041505,4.4700713,38.633373,7.4684305,-12.567141,-4.8769326,-29.018345,-17.386591,-23.867481,33.67344,-8.728094,-2.0655334,-7.2996526,-4.3712516,1.8026406,4.048713,19.404123,-40.37131,60.067413,-2.482955,9.991347,12.777346,-3.1468866,-10.120995,42.704346,63.102654,-8.829696,8.878521,-19.146507
118,13.431456565856934,51.86919403076172,78.15980529785156,1.2229833619301784,7.76048765560474,-148.83162619046064,-0.0052744714,4.6759295,38.679585,7.568103,-12.315948,-5.0370493,-29.112764,-18.31521,-22.876379,34.855022,-9.480845,-2.6403651,-7.0362396,-4.397924,1.714136,4.381584,19.305895,-40.343044,60.242813,-2.3945587,10.120908,12.721816,-3.1166275,-10.326457,42.695415,63.13343,-8.924245,9.00251,-19.064257
119,13.436405181884766,52.247650146484375,78.1620101928711,1.3267605075313331,7.668855614803836,-148.8969545730542,-0.098249376,4.8796697,38.71089,7.664417,-12.063019,-5.1965423,-29.189064,-19.129261,-21.713825,35.856483,-10.110231,-3.0835772,-6.7861648,-4.417573,1.6356456,4.7203126,19.194054,-40.24754,60.408417,-2.312701,10.258245,12.687041,-3.0810804,-10.526006,42.711136,63.167156,-9.045363,9.137408,-18.9457
120,13.439268112182617,52.62544250488281,78.1624755859375,1.4398500056446493,7.563282760995874,-148.94756483846822,-0.1729134,5.070197,38.726677,7.754871,-11.810686,-5.3328867,-29.219694,-19.874489,-20.515898,36.685444,-10.623737,-3.381918,-6.554144,-4.436047,1.5742882,5.0618997,19.070066,-40.102905,60.564426,-2.2543776,10.3676195,12.700829,-3.0414484,-10.722475,42.717903,63.189354,-9.180733,9.245233,-18.806768
121,13.442148208618164,52.998291015625,78.15531921386719,1.5585611059451814,7.439287730615814,-148.99087185611955,-0.51968485,5.5003796,38.70204,8.646186,-11.979533,-5.4462433,-29.202831,-20.539223,-19.271568,37.34316,-11.01158,-3.5206292,-6.3292017,-4.44757,1.5388739,5.4087796,18.93331,-39.895042,60.704033,-2.218256,10.445494,12.778902,-2.996625,-10.91869,42.704666,63.19723,-9.338085,9.310506,-18.638103
122,13.448558807373047,53.373558044433594,78.13923645019531,1.6769559619341512,7.298880259240323,-149.02605094822826,-0.8909139,5.971135,38.65805,9.661407,-12.217747,-5.542478,-29.147991,-21.105696,-17.932585,37.837673,-11.279618,-3.5110257,-6.109518,-4.446817,1.5243897,5.7621026,18.782938,-39.619923,60.826813,-2.1944337,10.509152,12.903743,-2.9456415,-11.115787,42.68827,63.194607,-9.518924,9.354996,-18.435322
123,13.429342269897461,53.740787506103516,78.11386108398438,1.8024649188534945,7.152148689573918,-149.03941093047163,-1.2505733,6.4271364,38.58889,10.656015,-12.446078,-5.62611,-29.048769,-21.619038,-16.575071,38.18983,-11.46102,-3.3790095,-5.9149814,-4.4444065,1.5157385,6.109023,18.62206,-39.321552,60.94816,-2.2001996,10.553826,13.053738,-2.886673,-11.314378,42.675907,63.1752,-9.705634,9.396732,-18.221611
124,13.402670860290527,54.11857986450195,78.0738525390625,1.9446837894378566,7.009032296773078,-149.01737827241695,-1.5962329,6.838176,38.486454,11.577147,-12.636017,-5.7026668,-28.902983,-22.129461,-15.270765,38.42327,-11.590404,-3.1502128,-5.762085,-4.4545913,1.4997377,6.435824,18.456638,-39.045967,61.08147,-2.2525468,10.574917,13.207244,-2.8252194,-11.515188,42.677265,63.13833,-9.874282,9.453811,-18.020094
125,13.377426147460938,54.49640655517578,78.02835083007812,2.1130332685166793,6.865377828748884,-148.9543525914975,-1.9213387,7.186568,38.34757,12.414857,-12.784396,-5.76393,-28.704596,-22.646196,-14.010827,38.538868,-11.653092,-2.7937622,-5.657798,-4.4882,1.4784428,6.752892,18.290878,-38.78643,61.219822,-2.3632972,10.567886,13.3774395,-2.7550766,-11.718127,42.700058,63.07237,-10.042039,9.540972,-17.834242
126,13.33473014831543,54.87305450439453,77.9837417602539,2.301505138383587,6.717955810720292,-148.85890795459645,-2.2303908,7.490622,38.17803,13.1986065,-12.906594,-5.809159,-28.453299,-23.149593,-12.766775,38.530014,-11.643112,-2.3089352,-5.590905,-4.538307,1.4586599,7.0655437,18.126272,-38.523758,61.352985,-2.5198872,10.536112,13.56905,-2.6801567,-11.92347,42.739727,62.983994,-10.209925,9.64525,-17.65262
127,13.297674179077148,55.24699020385742,77.9363784790039,2.496845187519451,6.577953402211452,-148.73874502549415,-2.5409796,7.7754188,37.98402,13.945701,-13.008399,-5.8567834,-28.15935,-23.64411,-11.582106,38.41141,-11.609892,-1.7686379,-5.551843,-4.5928354,1.4313874,7.3551817,17.965164,-38.284958,61.49087,-2.7034512,10.487651,13.7477455,-2.5992599,-12.131165,42.772064,62.88006,-10.348045,9.743766,-17.475115
128,13.252988815307617,55.62141418457031,77.88587951660156,2.686582455839114,6.456745701553861,-148.6010287443679,-2.865135,8.059782,37.77069,14.6572485,-13.084934,-5.924664,-27.837355,-24.13551,-10.495009,38.200684,-11.599477,-1.2439221,-5.5288234,-4.6401057,1.3874876,7.6061487,17.809742,-38.094166,61.64072,-2.8885815,10.430561,13.879227,-2.506482,-12.341292,42.767086,62.76408,-10.429967,9.813929,-17.301983
129,13.203230857849121,55.9979133605957,77.8262710571289,2.879871102997681,6.355863792367162,-148.4397013564151,-3.1943252,8.319191,37.534927,15.300115,-13.125908,-6.018262,-27.480022,-24.640875,-9.501701,37.872276,-11.59306,-0.7068685,-5.524993,-4.6886396,1.3218598,7.812376,17.66155,-37.96547,61.811077,-3.1096933,10.353185,13.954193,-2.4026456,-12.556384,42.715313,62.63225,-10.4435835,9.859061,-17.111502
130,13.144956588745117,56.37852478027344,77.7638931274414,3.0815689601212206,6.269600111809919,-148.25347156118235,-3.5278327,8.551123,37.275806,15.890055,-13.135755,-6.1281505,-27.084938,-25.15484,-8.585297,37.432297,-11.578881,-0.1368103,-5.5413465,-4.743406,1.2406827,7.985296,17.521158,-37.88212,61.99237,-3.3628266,10.25602,13.9905815,-2.2853854,-12.77731,42.628456,62.478695,-10.40637,9.888654,-16.9106
131,13.081228256225586,56.76646423339844,77.7004623413086,3.268341349954261,6.198271595966616,-148.05704743634402,-3.8799853,8.802598,37.003403,16.472277,-13.133469,-6.2523,-26.67048,-25.655466,-7.7692747,36.935726,-11.60733,0.38295427,-5.5658236,-4.783757,1.1529486,8.122227,17.390474,-37.838272,62.174484,-3.585937,10.166104,13.995787,-2.1578248,-13.001241,42.519478,62.318,-10.327626,9.88894,-16.742786
132,13.009612083435059,57.160614013671875,77.63138580322266,3.416403327816315,6.142898649314305,-147.8648487822042,-4.2664237,9.122474,36.72673,17.094074,-13.137875,-6.389144,-26.258036,-26.11421,-7.078246,36.43983,-11.726869,0.7697523,-5.5856466,-4.788821,1.0661372,8.229184,17.271458,-37.818104,62.341763,-3.7056613,10.110798,13.977089,-2.021015,-13.222885,42.397827,62.165565,-10.220134,9.845911,-16.65187
133,12.933667182922363,57.56639862060547,77.56727600097656,3.5206745550516794,6.109020880285179,-147.67464104685615,-4.701694,9.522888,36.444008,17.777332,-13.159641,-6.5380287,-25.857168,-26.533066,-6.518715,35.956158,-11.960113,0.9862853,-5.600814,-4.7526402,0.9764679,8.303928,17.166126,-37.828346,62.492855,-3.682256,10.100645,13.919311,-1.8759658,-13.438217,42.26277,62.03223,-10.046901,9.72021,-16.683956
134,12.845726013183594,57.97749328613281,77.50582122802734,3.5921662543148196,6.094744834634514,-147.48070087240544,-5.173702,9.977418,36.15017,18.490067,-13.185244,-6.7019286,-25.457745,-26.919252,-6.0779443,35.457165,-12.275677,1.0835174,-5.6181755,-4.686314,0.881223,8.34492,17.075666,-37.87507,62.63482,-3.564894,10.119811,13.824153,-1.7263075,-13.645957,42.112045,61.914864,-9.814615,9.530336,-16.804173
135,12.74276065826416,58.397525787353516,77.45183563232422,3.6309554451837536,6.090142130656656,-147.29267778529294,-5.6568785,10.475648,35.848606,19.194235,-13.194395,-6.8843093,-25.053665,-27.255714,-5.7488832,34.944702,-12.642047,1.1132704,-5.633714,-4.5943613,0.790859,8.365564,16.999636,-37.931934,62.75738,-3.4020364,10.15706,13.724913,-1.5754988,-13.842634,41.95332,61.80418,-9.598375,9.349449,-16.935293
136,12.630484580993652,58.826751708984375,77.40243530273438,3.6370138070397444,6.085125324563686,-147.1205079506742,-6.130431,11.011241,35.541958,19.863865,-13.173324,-7.0880876,-24.63522,-27.52159,-5.527429,34.41513,-13.025318,1.1262317,-5.645944,-4.480861,0.7162231,8.373373,16.937262,-37.97861,62.855503,-3.2509491,10.200733,13.655167,-1.4328681,-14.022674,41.798466,61.69565,-9.469059,9.25142,-17.001417
137,12.516748428344727,59.27008819580078,77.35161590576172,3.601315149369141,6.0742938421596415,-146.9642765750978,-6.591904,11.595743,35.22473,20.504673,-13.120856,-7.3224463,-24.191048,-27.716705,-5.4329944,33.870857,-13.443833,1.1098949,-5.6560903,-4.337188,0.6606505,8.367687,16.887253,-38.019493,62.930458,-3.1125312,10.260932,13.6198225,-1.3001359,-14.181653,41.644463,61.60076,-9.461024,9.269048,-16.980507
138,12.400510787963867,59.718143463134766,77.30623626708984,3.5268222176938036,6.064134066145451,-146.8200185046147,-7.051783,12.228025,34.895832,21.126015,-13.043839,-7.5839767,-23.728817,-27.845722,-5.460071,33.312912,-13.906466,1.05019,-5.6801424,-4.174775,0.6105482,8.360742,16.862604,-38.046875,62.977135,-2.9607522,10.340339,13.601897,-1.2102026,-14.270633,41.508095,61.57847,-9.526834,9.356648,-16.920935
139,12.278635025024414,60.17667770385742,77.26297760009766,3.429898786192222,6.062781219975198,-146.6903909686303,-7.5048876,12.881825,34.56553,21.698862,-12.935117,-7.855524,-23.263895,-27.89916,-5.56872,32.73209,-14.362499,0.99212945,-5.67912,-3.9918666,0.575558,8.321594,16.836601,-38.077587,63.014133,-2.8104465,10.413394,13.604374,-1.0929482,-14.389985,41.351566,61.498466,-9.633541,9.477118,-16.829672
140,12.14585018157959,60.641597747802734,77.2234878540039,3.3298003740455147,6.077966913321557,-146.578569128348,-7.9432354,13.526706,34.24621,22.188337,-12.784161,-8.119101,-22.814426,-27.873549,-5.7156687,32.121925,-14.766076,0.97742295,-5.685061,-3.8209586,0.5389016,8.290502,16.826118,-38.053352,63.018677,-2.6681604,10.457984,13.627399,-0.995921,-14.485012,41.227997,61.412937,-9.731599,9.587891,-16.735756
141,12.00522232055664,61.11983108520508,77.18534851074219,3.2245679623819257,6.109985236410152,-146.48394757103438,-8.367497,14.166206,33.936676,22.596172,-12.595907,-8.375371,-22.371435,-27.760946,-5.9044495,31.460707,-15.116036,1.0193418,-5.6996737,-3.6636171,0.49247727,8.268708,16.830189,-37.978558,63.00126,-2.5307384,10.459428,13.680831,-0.93311405,-14.527465,41.140434,61.358345,-9.818565,9.688618,-16.650482
142,11.862098693847656,61.603675842285156,77.1474838256836,3.106923803743756,6.155245039702432,-146.40555501609933,-8.781552,14.812559,33.631462,22.937742,-12.3734045,-8.631469,-21.9298,-27.56616,-6.151218,30.75633,-15.432808,1.0922575,-5.7108397,-3.5049584,0.4484279,8.241028,16.844484,-37.87188,62.962196,-2.3940454,10.432574,13.760215,-0.87756854,-14.557823,41.066254,61.2912,-9.916981,9.79813,-16.555832
143,11.712642669677734,62.10529327392578,77.1103744506836,2.989669328083038,6.215368180286549,-146.34476341240293,-9.183401,15.449784,33.337578,23.205809,-12.107185,-8.879024,-21.515554,-27.305775,-6.430255,30.051403,-15.699375,1.1763879,-5.7186785,-3.3615072,0.4114715,8.209039,16.873592,-37.71953,62.889996,-2.2719235,10.400283,13.849314,-0.8312155,-14.579634,41.008865,61.19556,-10.020048,9.902644,-16.444077
144,11.55957317352295,62.621646881103516,77.0755386352539,2.8857020518229666,6.292370803615508,-146.30294049812412,-9.572345,16.063545,33.0622,23.397554,-11.790046,-9.110133,-21.155844,-26.994688,-6.7163677,29.389807,-15.899474,1.2519037,-5.7187104,-3.2509599,0.37927413,8.162141,16.918465,-37.525497,62.791954,-2.1920037,10.382948,13.93244,-0.8024886,-14.588745,40.973305,61.075848,-10.116631,9.985148,-16.309698
145,11.397238731384277,63.14642333984375,77.04280090332031,2.8162919883167,6.39041480953524,-146.28498450705783,-9.940422,16.628109,32.819744,23.495794,-11.404139,-9.325828,-20.871586,-26.64274,-6.9916854,28.789864,-16.031223,1.2830925,-5.7128863,-3.1982405,0.35130224,8.110051,16.98669,-37.26218,62.64268,-2.1596336,10.397617,14.008016,-0.7976944,-14.58322,40.96279,60.930153,-10.211507,10.037179,-16.141289
146,11.232922554016113,63.694698333740234,77.01107025146484,2.7704552316744637,6.507237563731351,-146.28867151211614,-10.28871,17.158152,32.603848,23.50824,-10.959372,-9.529317,-20.647818,-26.24441,-7.2693615,28.226957,-16.103426,1.2884545,-5.7277856,-3.2040477,0.3333174,8.103085,17.13141,-36.90355,62.37808,-2.1584573,10.432605,14.0749,-0.8339252,-14.546443,41.003902,60.771366,-10.300046,10.067456,-15.947466
147,11.056741714477539,64.24890899658203,76.97850036621094,2.7107387405449597,6.634729538903063,-146.3040524913907,-10.631962,17.702642,32.387444,23.473194,-10.491937,-9.716923,-20.45132,-25.785048,-7.5755587,27.67426,-16.113083,1.3314104,-5.726017,-3.2155151,0.32357016,8.072876,17.296736,-36.55172,62.106335,-2.1966918,10.460578,14.140064,-0.8805746,-14.484623,41.047905,60.596806,-10.383561,10.0891285,-15.7481785
148,10.88780689239502,64.81330108642578,76.94669342041016,2.6002916959183504,6.764491580401991,-146.32191085719103,-10.984622,18.309525,32.14298,23.42762,-10.037451,-9.88484,-20.244936,-25.247576,-7.938019,27.100557,-16.055567,1.4768041,-5.72538,-3.1885657,0.3318082,8.024053,17.483189,-36.227398,61.840927,-2.261176,10.457404,14.198519,-0.9423029,-14.401733,41.109764,60.405582,-10.446538,10.1157875,-15.562341
149,10.706974029541016,65.38468933105469,76.9111557006836,2.433058004757633,6.897820295515955,-146.34626209062372,-11.341649,18.985735,31.87177,23.357147,-9.565039,-10.041636,-20.02061,-24.622578,-8.3902025,26.519236,-15.982401,1.7136527,-5.722901,-3.122578,0.3603389,7.957805,17.692747,-35.924786,61.57941,-2.3656404,10.411371,14.246696,-1.0150933,-14.299444,41.188313,60.181,-10.490923,10.151184,-15.391436
150,10.514159202575684,65.9703598022461,76.89293670654297,2.2286962055651243,7.037561827908607,-146.37954752690513,-11.69732,19.707405,31.583328,23.250496,-9.069662,-10.186073,-19.793222,-23.919327,-8.908576,25.931103,-15.873132,2.0187824,-5.7184076,-3.0378642,0.40577862,7.8741207,17.92691,-35.63198,61.312336,-2.5133796,10.337074,14.287068,-1.0998852,-14.178169,41.28388,59.924786,-10.520931,10.188712,-15.225787
151,10.31460189819336,66.57070922851562,76.87973022460938,1.9887905915440145,7.177447609130246,-146.41019332301374,-12.061582,20.472523,31.264128,23.14028,-8.620018,-10.298226,-19.558706,-23.146648,-9.43396,25.28672,-15.612846,2.440105,-5.719097,-2.923126,0.4683369,7.7768016,18.182133,-35.36547,61.04436,-2.6636796,10.250117,14.324694,-1.201491,-14.041614,41.39692,59.66472,-10.529066,10.2250595,-15.068809
152,10.109259605407715,67.18377685546875,76.8632583618164,1.7144332337093002,7.311183547005839,-146.42624366360099,-12.454266,21.284575,30.898504,23.078495,-8.295505,-10.359638,-19.31624,-22.317347,-9.906325,24.546944,-15.092189,3.0256584,-5.7324367,-2.7652977,0.5490837,7.655223,18.451666,-35.155907,60.792927,-2.7921894,10.165764,14.365861,-1.3199873,-13.89494,41.525887,59.421127,-10.509438,10.257776,-14.923222
153,9.895668029785156,67.79902648925781,76.84423065185547,1.3961481686647381,7.430329556035725,-146.42389953941935,-12.8757,22.14955,30.462189,23.060743,-8.075558,-10.366419,-19.009417,-21.39966,-10.285833,23.580032,-14.137362,3.9181712,-5.7600794,-2.5524402,0.65576583,7.5118484,18.732424,-35.016296,60.562355,-2.8828337,10.072545,14.406854,-1.4425814,-13.74198,41.653847,59.169388,-10.464149,10.288608,-14.798448
154,9.685714721679688,68.41535949707031,76.81331634521484,1.0406653039023126,7.539598538207474,-146.40844443289467,-13.317792,23.058308,29.969208,23.065992,-7.9323416,-10.326639,-18.648746,-20.3975,-10.598385,22.445591,-12.8443,5.044008,-5.7990313,-2.2963533,0.78712684,7.3317895,19.024374,-34.946503,60.360176,-2.970647,9.966699,14.447022,-1.5706242,-13.5848675,41.785984,58.902763,-10.395635,10.318691,-14.68941
155,9.465367317199707,69.032958984375,76.7853012084961,0.6714376809923075,7.652580023768596,-146.38341236580044,-13.770199,23.978872,29.468737,23.072481,-7.905279,-10.234292,-18.3293,-19.368702,-10.892534,21.37427,-11.506377,6.1250257,-5.8402596,-2.017499,0.927131,7.144021,19.31844,-34.88452,60.15851,-3.0161457,9.876946,14.496389,-1.7205994,-13.425426,41.947533,58.6705,-10.296768,10.34359,-14.577006
156,9.242730140686035,69.65139770507812,76.76461029052734,0.306788094094283,7.784217805444464,-146.35381024603504,-14.225318,24.886232,29.01028,23.060808,-8.034949,-10.084088,-18.160316,-18.382586,-11.232447,20.607643,-10.436035,6.8902593,-5.879496,-1.7291983,1.0590832,6.956711,19.60107,-34.786118,59.95065,-3.0060787,9.830588,14.565971,-1.9158816,-13.26562,42.17162,58.5275,-10.158409,10.358955,-14.4422035
157,9.033500671386719,70.27688598632812,76.75199127197266,-0.09505824696203771,7.956169345449031,-146.32158914269138,-14.742717,25.8513,28.583706,23.093557,-8.360284,-9.879713,-18.220238,-17.409595,-11.670063,20.251314,-9.724798,7.2210054,-5.920515,-1.3748574,1.1750876,6.7373343,19.862164,-34.668724,59.766384,-2.9334524,9.838735,14.649133,-2.1768599,-13.108081,42.481087,58.487793,-9.959265,10.378064,-14.28817
158,8.833024024963379,70.89820861816406,76.74142456054688,-0.5335617209761394,8.155694625437743,-146.28584332206688,-15.31308,26.864376,28.16567,23.156086,-8.848985,-9.623814,-18.449577,-16.434286,-12.172554,20.175093,-9.21764,7.282314,-5.9634295,-0.9582245,1.2815901,6.508081,20.096214,-34.522266,59.597057,-2.7791615,9.885253,14.744635,-2.4841063,-12.954504,42.85483,58.524235,-9.710891,10.399041,-14.122046
159,8.637545585632324,71.50760650634766,76.73826599121094,-0.9303851032214686,8.34601145582597,-146.24716448879303,-15.826022,27.78904,27.789211,23.126139,-9.44076,-9.309999,-18.750338,-15.537949,-12.688483,20.25671,-8.855756,7.231602,-6.0008616,-0.5787738,1.3858337,6.32272,20.298527,-34.29947,59.40493,-2.5565295,9.956027,14.871283,-2.8064032,-12.801825,43.264297,58.628006,-9.448355,10.395089,-13.931649
160,8.435445785522461,72.1133041381836,76.7529067993164,-1.2059321916854504,8.49092683897958,-146.2048502783478,-16.168774,28.495026,27.492588,22.89698,-10.08261,-8.92951,-19.021559,-14.802346,-13.161566,20.37633,-8.582005,7.224465,-6.039727,-0.33825397,1.4991765,6.1478844,20.471308,-34.04145,59.221813,-2.390524,10.034272,15.048765,-3.1238666,-12.645013,43.69359,58.796574,-9.207226,10.339399,-13.706472
161,8.234437942504883,72.71195220947266,76.7752685546875,-1.3179318332697363,8.572248079885263,-146.16418068206278,-16.259249,28.918306,27.319685,22.389503,-10.805801,-8.502416,-19.256989,-14.284329,-13.5775385,20.561834,-8.413897,7.3224483,-6.06527,-0.28649306,1.6269574,6.070665,20.60628,-33.627136,58.97989,-2.1656833,10.139804,15.3035755,-3.4348168,-12.479545,44.15762,59.062138,-8.956971,10.181587,-13.443478
162,8.036636352539062,73.29109954833984,76.8088150024414,-1.3160951683848354,8.6129713845096,-146.12303523917058,-16.17425,29.14572,27.241459,21.693428,-11.632149,-8.020846,-19.505527,-13.927081,-13.967684,20.860395,-8.372419,7.4372635,-6.0848207,-0.36154196,1.7588122,6.077187,20.69986,-33.07229,58.69207,-1.863474,10.274112,15.617587,-3.7540066,-12.30381,44.666557,59.425404,-8.689666,9.950605,-13.149024
163,7.833711624145508,73.85724639892578,76.85196685791016,-1.2575738474990803,8.638811444488143,-146.06870699986635,-16.0495,29.2786,27.182302,20.983612,-12.502311,-7.4341097,-19.743853,-13.6407795,-14.341352,21.179955,-8.405353,7.497396,-6.112782,-0.50174564,1.877768,6.06569,20.763681,-32.54749,58.4381,-1.6427966,10.395595,15.943083,-4.0651584,-12.116301,45.16757,59.822426,-8.480725,9.738013,-12.824409
164,7.6210222244262695,74.40983581542969,76.90178680419922,-1.198542179356987,8.675657758285364,-145.988322315877,-16.017456,29.412214,27.068392,20.42158,-13.35366,-6.6959753,-19.948498,-13.337656,-14.706264,21.425962,-8.457626,7.4296684,-6.140006,-0.64989984,1.9592255,6.05023,20.811272,-32.118393,58.199703,-1.5231345,10.466221,16.230946,-4.335373,-11.917116,45.581852,60.184338,-8.411391,9.63326,-12.470298
165,7.400204181671143,74.95272827148438,76.96054077148438,-1.1341066841409073,8.725354253070304,-145.87852359688435,-16.103443,29.54725,26.893747,20.028881,-14.2865305,-5.6408935,-20.117748,-13.018088,-15.050258,21.601334,-8.545068,7.188667,-6.165865,-0.8218854,1.9960189,6.02663,20.85564,-31.811293,57.97494,-1.5928599,10.472328,16.505936,-4.5570207,-11.706013,45.89914,60.500137,-8.533183,9.665085,-12.038762
166,7.189967632293701,75.49835205078125,77.02471923828125,-1.0381193211956719,8.777356321947364,-145.74446091258034,-16.254118,29.638197,26.6814,19.7477,-15.308202,-4.341269,-20.262709,-12.724097,-15.373474,21.745306,-8.682577,6.8196363,-6.186451,-1.0445619,2.001348,6.0062423,20.90075,-31.582584,57.74851,-1.7999227,10.435641,16.780651,-4.7432876,-11.482507,46.146553,60.798187,-8.795237,9.780908,-11.544456
167,6.977819442749023,76.04291534423828,77.08391571044922,-0.9392334327210421,8.83633196043536,-145.58826298155736,-16.468775,29.70983,26.417538,19.592346,-16.19766,-3.1200342,-20.379015,-12.428691,-15.70097,21.821278,-8.816985,6.385292,-6.2022176,-1.2716824,1.9866012,5.972803,20.9479,-31.446321,57.52894,-2.0266635,10.368835,16.988516,-4.9007397,-11.250689,46.315434,61.073753,-9.129394,9.949197,-11.083142
168,6.762619972229004,76.57752990722656,77.14158630371094,-0.8683472192363466,8.905535701924993,-145.41389745158492,-16.721567,29.78299,26.111141,19.527786,-16.716969,-2.3097055,-20.458883,-12.102241,-16.058914,21.793207,-8.899531,5.9490533,-6.210262,-1.4529771,1.9672105,5.8803406,20.997824,-31.44663,57.34888,-2.1866503,10.284511,17.06407,-5.034478,-11.0177355,46.39456,61.31586,-9.466153,10.14086,-10.750564
169,6.560943126678467,77.10054779052734,77.19790649414062,-0.8502351557205918,8.993332175629575,-145.22496074319528,-16.989214,29.880535,25.787245,19.464622,-16.750301,-2.0843523,-20.485601,-11.708439,-16.459679,21.615326,-8.91408,5.5030427,-6.205615,-1.5587095,1.938548,5.7062874,21.053638,-31.642704,57.22757,-2.288963,10.163759,16.974003,-5.1383805,-10.788145,46.35827,61.513165,-9.833324,10.375375,-10.571051
170,6.368053913116455,77.6129150390625,77.26054382324219,-0.864410847123913,9.093771631288472,-145.02023219363812,-17.27531,29.982521,25.448292,19.417627,-16.426731,-2.2407472,-20.461767,-11.268404,-16.887785,21.318262,-8.8923645,5.022327,-6.184966,-1.6197288,1.899018,5.4683514,21.115957,-32.00942,57.149445,-2.3805072,10.007702,16.758518,-5.2086406,-10.564707,46.21502,61.665833,-10.253528,10.660463,-10.491787
171,6.17893123626709,78.12401580810547,77.33749389648438,-0.8739511845027773,9.18851104318714,-144.79647417916368,-17.588707,30.048231,25.0733,19.503666,-15.873152,-2.545134,-20.408888,-10.83897,-17.327017,20.97929,-8.856391,4.545548,-6.148597,-1.6752362,1.8688707,5.196503,21.178051,-32.445793,57.081936,-2.4128013,9.859967,16.462492,-5.2528405,-10.352266,46.00589,61.777294,-10.646095,10.951124,-10.494909
172,6.005551815032959,78.63188171386719,77.40367889404297,-0.8422358712254836,9.259570522963518,-144.54938012267706,-17.936842,30.038338,24.643534,19.839947,-15.222242,-2.76809,-20.35215,-10.479762,-17.761318,20.67844,-8.827109,4.1102057,-6.1037197,-1.7617114,1.8678515,4.9064775,21.230474,-32.86061,57.00791,-2.3529017,9.762593,16.132002,-5.2818418,-10.156876,45.780315,61.853638,-10.92812,11.202305,-10.564227
173,5.840828895568848,79.12928009033203,77.46704864501953,-0.7565699313298685,9.305820954046641,-144.26302265035963,-18.35088,29.924267,24.104666,20.47129,-14.328561,-2.9346683,-20.295076,-10.214895,-18.198433,20.428358,-8.807201,3.725301,-6.0638747,-1.8885645,1.900074,4.58518,21.26779,-33.24912,56.933266,-2.1489472,9.733444,15.723236,-5.2917547,-9.983405,45.531948,61.88389,-11.075457,11.412783,-10.760632
174,5.685139179229736,79.62139129638672,77.53656768798828,-0.6361401793653229,9.33577920937232,-143.94388554633727,-18.821138,29.734066,23.480139,21.34503,-13.18758,-3.1377106,-20.225164,-10.01109,-18.643625,20.189335,-8.786516,3.37146,-6.0253344,-2.0338469,1.9562252,4.218208,21.289318,-33.65855,56.874905,-1.8415468,9.744929,15.2309265,-5.28413,-9.8332405,45.25085,61.868183,-11.12374,11.604078,-11.072152
175,5.5311808586120605,80.1036605834961,77.60502624511719,-0.49398796169534664,9.346027754664897,-143.62201716773995,-19.272879,29.509584,22.88491,22.387798,-12.13029,-3.2571337,-20.148506,-9.84327,-19.075665,19.969275,-8.767685,3.0422964,-5.970799,-2.1863687,2.0289574,3.8513668,21.290472,-34.045116,56.81376,-1.5030564,9.771951,14.758328,-5.2574906,-9.708013,44.96427,61.818626,-11.105268,11.764304,-11.373589
176,5.3881611824035645,80.57819366455078,77.6664047241211,-0.3451708313947311,9.332787558482789,-143.32817337647973,-19.641863,29.303722,22.430456,23.54598,-11.491241,-3.170936,-20.06786,-9.684126,-19.474123,19.770199,-8.749712,2.7309613,-5.890075,-2.3307674,2.1141076,3.5270855,21.26672,-34.36387,56.73286,-1.2136456,9.791544,14.408627,-5.2207556,-9.612146,44.715233,61.751926,-11.042428,11.882176,-11.539457
177,5.24601411819458,81.04151153564453,77.72059631347656,-0.17968956745878387,9.29016510820154,-143.06350082154333,-19.93096,29.099735,22.06961,24.833387,-11.42042,-2.7688293,-19.985306,-9.549361,-19.834038,19.606104,-8.736236,2.446977,-5.770131,-2.4751887,2.219519,3.2371984,21.210798,-34.611774,56.637714,-0.97581744,9.803883,14.201697,-5.178406,-9.538565,44.493153,61.67806,-10.899605,11.942922,-11.531924
178,5.119028091430664,81.49707794189453,77.76911926269531,0.004516061538842039,9.221648777031392,-142.81422831469632,-20.165565,28.880224,21.768158,26.261372,-11.714797,-2.1441362,-19.898537,-9.445872,-20.166586,19.47102,-8.725452,2.1895895,-5.630722,-2.619778,2.3445604,2.9703512,21.126049,-34.799545,56.532448,-0.753852,9.81998,14.084465,-5.1224246,-9.494564,44.291607,61.57986,-10.681838,11.957658,-11.419166
179,4.989994525909424,81.94267272949219,77.80697631835938,0.18032655197715378,9.138108215279155,-142.589600067433,-20.309523,28.700453,21.657713,27.761536,-12.178723,-1.4754199,-19.812494,-9.335453,-20.47345,19.352873,-8.715176,1.9359562,-5.4735293,-2.7424164,2.4698184,2.7356899,21.010695,-34.93984,56.42831,-0.5680403,9.834609,14.056353,-5.061967,-9.475117,44.13481,61.471767,-10.457032,11.951614,-11.236113
180,4.865049362182617,82.37841796875,77.84577941894531,0.3214653464600065,9.05134105896356,-142.39805668335586,-20.32667,28.620949,21.872555,29.27063,-12.621173,-0.93765825,-19.727266,-9.178634,-20.7574,19.228014,-8.697756,1.6636143,-5.314302,-2.8199055,2.5756357,2.5243611,20.864698,-35.05793,56.352127,-0.46673307,9.84125,14.116658,-5.007842,-9.477346,44.058926,61.36854,-10.295831,11.950154,-11.018667
181,4.743409156799316,82.80883026123047,77.87383270263672,0.4194943073768154,8.961570840623377,-142.25389015526568,-20.180346,28.691048,22.541025,30.791458,-13.0312805,-0.57555884,-19.637661,-8.958334,-21.010418,19.079128,-8.665868,1.369827,-5.14132,-2.84844,2.6604779,2.3704062,20.69337,-35.12654,56.27908,-0.46257433,9.83843,14.305056,-4.9658866,-9.499813,44.087334,61.275257,-10.206348,11.953713,-10.7480955
182,4.620418548583984,83.22246551513672,77.89373016357422,0.48944720435483324,8.86427370002325,-142.14815495999747,-19.891338,28.872974,23.558558,32.356167,-13.503566,-0.28892887,-19.543825,-8.697821,-21.234137,18.917871,-8.622644,1.0653583,-4.9575286,-2.8405657,2.731582,2.2622519,20.496704,-35.147045,56.210846,-0.53886074,9.829208,14.60881,-4.919895,-9.541107,44.191006,61.178925,-10.167949,11.951071,-10.415158
183,4.496888637542725,83.63322448730469,77.90975952148438,0.540247103123406,8.76351181504354,-142.054585912128,-19.516884,29.098042,24.71244,33.958927,-14.012364,-0.037233412,-19.460299,-8.420058,-21.44482,18.77745,-8.583123,0.7478636,-4.7900786,-2.8025458,2.7885773,2.1723218,20.2816,-35.147316,56.157494,-0.64944416,9.816469,14.944799,-4.8834414,-9.598682,44.35488,61.090744,-10.160658,11.9475155,-10.069869
184,4.376202583312988,84.0479507446289,77.91522979736328,0.5808446578292454,8.663294699076777,-141.94730063396187,-19.119808,29.290497,25.7907,35.584423,-14.520354,0.21434182,-19.39997,-8.147502,-21.658735,18.688566,-8.560756,0.4151489,-4.6676335,-2.7419398,2.8296375,2.0819929,20.058846,-35.149666,56.121773,-0.7446418,9.803913,15.229687,-4.852955,-9.668767,44.54914,61.00888,-10.184895,11.94881,-9.761882
185,4.253423690795898,84.45767211914062,77.91510009765625,0.6065426668197298,8.566532378178438,-141.82978252895668,-18.703522,29.46011,26.820816,37.248257,-15.028103,0.48824266,-19.365282,-7.8718414,-21.872494,18.647089,-8.552962,0.061267294,-4.5904574,-2.6572733,2.851895,2.0001853,19.836063,-35.144768,56.09252,-0.8302761,9.795659,15.463923,-4.8335733,-9.7498865,44.79734,60.927586,-10.268024,11.959366,-9.488502
186,4.138757705688477,84.85768127441406,77.90557098388672,0.6155242348405022,8.47054579140905,-141.7122707284976,-18.238874,29.62481,27.891336,38.9465,-15.546126,0.7564001,-19.349146,-7.5859165,-22.080017,18.639864,-8.553782,-0.31081548,-4.544368,-2.5487132,2.859964,1.9406853,19.615751,-35.121925,56.058083,-0.9230551,9.789148,15.683208,-4.8365006,-9.840767,45.113308,60.856346,-10.387659,11.973925,-9.228569
187,4.031674861907959,85.24992370605469,77.88954162597656,0.6194434511361081,8.370566829670855,-141.57930337222322,-17.749659,29.718664,28.880411,40.62921,-16.051735,0.972833,-19.353176,-7.3152885,-22.29372,18.68941,-8.575406,-0.68999416,-4.5444155,-2.4270391,2.8559117,1.8887218,19.401615,-35.107666,56.02984,-1.0045117,9.780018,15.856751,-4.8107457,-9.938336,45.402397,60.77987,-10.545637,11.985697,-9.003802
188,3.9277803897857666,85.63877868652344,77.8705062866211,0.6303199069531448,8.26184755911039,-141.41500581297188,-17.265188,29.67879,29.663816,42.247913,-16.52324,1.0910374,-19.378586,-7.0859876,-22.525902,18.818567,-8.629985,-1.064963,-4.5882177,-2.304059,2.8517225,1.8185009,19.198322,-35.140568,56.017673,-1.0525324,9.763701,15.955184,-4.783339,-10.038376,45.630535,60.73574,-10.642755,11.985327,-8.836506
189,3.8281664848327637,86.02001190185547,77.84708404541016,0.653424871194002,8.145124351484824,-141.21900711454026,-16.800325,29.488647,30.218315,43.807777,-16.96933,1.1100496,-19.433725,-6.907439,-22.773857,19.043629,-8.716874,-1.4325022,-4.6857653,-2.1838799,2.8410413,1.7356898,19.009052,-35.218533,56.0194,-1.0738577,9.731128,15.956093,-4.7282906,-10.138271,45.76561,60.714375,-10.713418,11.961525,-8.736456
190,3.7296864986419678,86.4029769897461,77.81353759765625,0.6820507032601782,8.022275809049079,-140.99785694625797,-16.34862,29.174759,30.606579,45.32857,-17.39603,1.0443529,-19.51443,-6.765989,-23.03305,19.347383,-8.829947,-1.7983687,-4.8293276,-2.062928,2.822323,1.6532207,18.83464,-35.325943,56.0247,-1.0713525,9.6879835,15.879828,-4.6553774,-10.237372,45.83925,60.713017,-10.774614,11.921782,-8.690648
191,3.6328089237213135,86.78125,77.77777099609375,0.7104279946050865,7.890594511064885,-140.7473107704492,-15.912718,28.74583,30.832384,46.793774,-17.783407,0.87082916,-19.603046,-6.6513762,-23.313656,19.704163,-8.974997,-2.1661336,-5.0086284,-1.94028,2.8044827,1.5482372,18.676796,-35.489357,56.04883,-1.0446417,9.651371,15.760592,-4.563641,-10.33387,45.848434,60.724796,-10.809184,11.887923,-8.687317
192,3.551804542541504,87.16279602050781,77.7334976196289,0.7323429555211848,7.747434259642973,-140.46288512971898,-15.492325,28.211506,30.900433,48.1862,-18.112299,0.5669501,-19.682293,-6.553327,-23.625515,20.088694,-9.1582775,-2.539178,-5.2123194,-1.815956,2.7931752,1.410777,18.535938,-35.725254,56.100033,-0.97947204,9.638763,15.63214,-4.4300594,-10.42647,45.767483,60.73037,-10.827327,11.882428,-8.714261
193,3.4709360599517822,87.53680419921875,77.681640625,0.7452935550686781,7.58301128517171,-140.13994081962863,-15.086296,27.552055,30.774584,49.49864,-18.386824,0.08661635,-19.74185,-6.4724116,-23.9715,20.509483,-9.3957615,-2.925835,-5.444249,-1.6884809,2.7958431,1.236217,18.412298,-36.049995,56.185932,-0.87141824,9.656042,15.483225,-4.2310677,-10.51416,45.559086,60.7144,-10.843627,11.9167185,-8.786105
194,3.382479667663574,87.90941619873047,77.6260986328125,0.7525884476907889,7.4017615687757585,-139.78180033228813,-14.697031,26.766129,30.471354,50.74468,-18.622267,-0.55001324,-19.791023,-6.412808,-24.345648,20.971514,-9.677684,-3.3217542,-5.7037516,-1.559696,2.809084,1.0285864,18.305681,-36.455902,56.30009,-0.72880834,9.693303,15.302778,-3.9953535,-10.596412,45.25339,60.69915,-10.834228,11.976576,-8.903371
195,3.30118465423584,88.28389739990234,77.566162109375,0.7573180763417947,7.222575476829649,-139.39509989178205,-14.327902,25.892464,30.072184,51.937614,-18.816006,-1.2645804,-19.845606,-6.3705735,-24.745079,21.45243,-9.976265,-3.7117155,-5.984272,-1.433289,2.8156912,0.7934911,18.215063,-36.921158,56.434395,-0.5647391,9.743984,15.123902,-3.7250397,-10.673176,44.886326,60.6825,-10.817209,12.047235,-9.032401
196,3.2166879177093506,88.6440658569336,77.50431823730469,0.7618753667005129,7.064132041544376,-138.98691222243013,-13.981273,24.971819,29.655577,53.087234,-18.95922,-1.9775707,-19.918352,-6.3407564,-25.167475,21.922962,-10.260049,-4.0806713,-6.2783422,-1.3119566,2.799176,0.537535,18.138945,-37.422054,56.579792,-0.38953626,9.801922,14.979877,-3.4268322,-10.74406,44.498985,60.664555,-10.803199,12.113846,-9.13956
197,3.1360607147216797,89.01764678955078,77.43482208251953,0.7611069576136299,6.934073540215508,-138.55309120444582,-13.690577,23.99319,29.172747,54.210594,-19.021488,-2.6798291,-20.010572,-6.317881,-25.624973,22.373203,-10.52148,-4.4198275,-6.5983477,-1.1900005,2.750403,0.25929686,18.08005,-37.97405,56.743397,-0.20177963,9.876252,14.886327,-3.1011286,-10.805517,44.083935,60.650497,-10.782432,12.172349,-9.227856
198,3.0629682540893555,89.39155578613281,77.36666107177734,0.7555069372546519,6.82180882920238,-138.09195288930746,-13.440087,22.940004,28.608921,55.296505,-19.018936,-3.4139938,-20.115582,-6.3063297,-26.11472,22.818754,-10.77734,-4.738996,-6.9308076,-1.0669305,2.6809223,-0.05267758,18.032148,-38.59659,56.93389,0.0015899447,9.96679,14.824377,-2.743442,-10.861878,43.61817,60.635548,-10.747392,12.230383,-9.310311
199,2.988718032836914,89.75482940673828,77.29632568359375,0.7568400506969369,6.718027774379952,-137.6143248472459,-13.161622,21.848759,28.085915,56.309853,-19.005213,-4.1721954,-20.235847,-6.3165975,-26.611067,23.27502,-11.035189,-5.0509944,-7.2744293,-0.953357,2.60179,-0.37299424,17.995588,-39.22264,57.120438,0.21675238,10.053163,14.771103,-2.3658338,-10.910422,43.154675,60.62227,-10.723835,12.291702,-9.371533
200,2.9151439666748047,90.11897277832031,77.22373962402344,0.7763073614563049,6.612901341419776,-137.13142671300176,-12.787908,20.760986,27.720886,57.21111,-19.03325,-4.940208,-20.372705,-6.3585935,-27.088823,23.754793,-11.301441,-5.368818,-7.6165,-0.859965,2.5248642,-0.696268,17.968002,-39.808002,57.287434,0.42687422,10.11434,14.705595,-1.9835677,-10.953023,42.741806,60.614872,-10.7302265,12.359645,-9.395623
201,2.854732036590576,90.48715209960938,77.15081787109375,0.8226717315414964,6.50570796983374,-136.64369782431615,-12.306754,19.664871,27.521425,57.988426,-19.10628,-5.7655606,-20.533413,-6.4425716,-27.5337,24.269985,-11.583172,-5.695344,-7.9853487,-0.7931375,2.448134,-1.0019425,17.953793,-40.3174,57.430626,0.65124506,10.131129,14.622738,-1.612452,-10.982239,42.41694,60.62931,-10.771866,12.446896,-9.386408
202,2.797065019607544,90.8583755493164,77.0787353515625,0.8870920933663003,6.400321573145221,-136.14651360826102,-11.754244,18.552347,27.425068,58.662018,-19.19748,-6.631093,-20.713848,-6.56081,-27.961733,24.810795,-11.875796,-6.024197,-8.334002,-0.7477769,2.3679929,-1.3346752,17.945038,-40.838303,57.582092,0.8759866,10.119311,14.537403,-1.2195096,-11.009127,42.097893,60.64042,-10.846728,12.5464325,-9.346368
203,2.736485719680786,91.22463989257812,77.00413513183594,0.9549304078158938,6.2938157795690906,-135.64315883620296,-11.138311,17.475536,27.437994,59.24388,-19.305073,-7.4221654,-20.896702,-6.6929936,-28.393185,25.352938,-12.165131,-6.355087,-8.6682,-0.70838314,2.2892914,-1.6779305,17.939306,-41.333263,57.7103,1.0886066,10.109884,14.448148,-0.8083303,-11.037694,41.80082,60.642433,-10.938736,12.636301,-9.267216
204,2.693809986114502,91.59867858886719,76.92497253417969,1.0115177401242286,6.183617142313918,-135.13742122401032,-10.465884,16.486317,27.565632,59.745842,-19.423847,-8.024745,-21.067636,-6.8206677,-28.847927,25.878086,-12.440485,-6.687555,-9.051309,-0.65559137,2.2152884,-1.9666088,17.940351,-41.680428,57.755394,1.3071854,10.133285,14.349263,-0.43338555,-11.053693,41.622086,60.674896,-11.00144,12.695753,-9.146368
205,2.641782522201538,91.9682388305664,76.84555053710938,1.0509726089605886,6.066115534922313,-134.62836732009848,-9.718072,15.620635,27.841572,60.188225,-19.557314,-8.373409,-21.214764,-6.9379964,-29.338573,26.378305,-12.697586,-7.024717,-9.381169,-0.59451306,2.1493754,-2.2767758,17.942934,-42.01246,57.747818,1.4905671,10.205568,14.226095,-0.026688721,-11.075599,41.43957,60.683064,-11.069737,12.702317,-8.941803
206,2.590111494064331,92.33074188232422,76.76188659667969,1.0813308802593984,5.943488715888687,-134.1143244472749,-8.8957205,14.845101,28.24364,60.556248,-19.69747,-8.53733,-21.348581,-7.0554786,-29.852638,26.866718,-12.944932,-7.366134,-9.754354,-0.5196002,2.086653,-2.5469143,17.947012,-42.215153,57.671566,1.6861523,10.30565,14.079423,0.353533,-11.090515,41.359108,60.717735,-11.125007,12.674515,-8.674139
207,2.5540082454681396,92.70590209960938,76.6774673461914,1.1086371677933295,5.822172174250487,-133.60079585569287,-8.031668,14.108178,28.698933,60.80555,-19.820684,-8.605846,-21.483246,-7.1751995,-30.370243,27.343151,-13.18426,-7.7063212,-10.064898,-0.45344555,2.0316336,-2.8531387,17.953665,-42.431896,57.580433,1.8357993,10.418219,13.960598,0.7774332,-11.116033,41.255733,60.71001,-11.189182,12.6433,-8.405288
208,2.5216288566589355,93.07714080810547,76.58816528320312,1.1390816315806027,5.708217154056539,-133.0892694862378,-7.1605477,13.357665,29.132446,60.89248,-19.904345,-8.668277,-21.63423,-7.3028097,-30.874891,27.81472,-13.416033,-8.03878,-10.3992405,-0.38719374,1.9839652,-3.132881,17.95991,-42.549305,57.458683,1.9711239,10.52322,13.906646,1.170835,-11.133069,41.217007,60.726322,-11.235846,12.63951,-8.205176
209,2.494224786758423,93.45932006835938,76.49646759033203,1.176735685277636,5.602068766168784,-132.5828030983147,-6.2666216,12.611699,29.58109,60.821747,-19.948145,-8.698076,-21.80449,-7.4388866,-31.358162,28.27876,-13.640365,-8.356721,-10.720895,-0.33101118,1.9474891,-3.4096901,17.964943,-42.595085,57.31229,2.0670247,10.621306,13.944345,1.5499085,-11.140711,41.21511,60.753773,-11.276799,12.677354,-8.090565
210,2.4709079265594482,93.84635925292969,76.40230560302734,1.2174223889624591,5.50077884363251,-132.07927266610716,-5.3378515,11.887421,30.062807,60.61048,-19.961126,-8.664588,-21.986631,-7.5813446,-31.830776,28.735117,-13.85714,-8.6653595,-11.013384,-0.28306523,1.918328,-3.6986506,17.971428,-42.60691,57.145092,2.1146855,10.721292,14.04907,1.9375507,-11.147958,41.230354,60.776257,-11.319292,12.737817,-8.025868
211,2.4609944820404053,94.22534942626953,76.30537414550781,1.2552526030304219,5.405927417239586,-131.57488594854738,-4.4163537,11.133974,30.478798,60.235184,-19.936476,-8.651009,-22.179718,-7.7280784,-32.30311,29.18409,-14.066497,-8.976813,-11.301452,-0.23658091,1.8896712,-3.9847581,17.983704,-42.58599,56.964863,2.142357,10.818056,14.1848955,2.340427,-11.159528,41.265873,60.77353,-11.345546,12.805985,-7.997848
212,2.4563636779785156,94.60594940185547,76.20507049560547,1.28335736324264,5.317571272597557,-131.06514595725076,-3.5434136,10.304908,30.730669,59.67381,-19.867481,-8.739883,-22.380352,-7.875597,-32.786186,29.624329,-14.267379,-9.303275,-11.601589,-0.17642854,1.8593229,-4.2675385,17.992779,-42.544487,56.794025,2.182907,10.905626,14.316464,2.7374403,-11.163897,41.288883,60.777416,-11.367035,12.858402,-7.9894357
213,2.454030990600586,94.99445343017578,76.10259246826172,1.2987708950977837,5.24070896676806,-130.55249396501634,-2.724879,9.378971,30.784641,58.900597,-19.724789,-8.996527,-22.597897,-8.023897,-33.281815,30.06659,-14.466178,-9.649692,-11.908079,-0.099506974,1.8209358,-4.542328,18.002699,-42.48539,56.622368,2.238583,10.985732,14.445709,3.1455324,-11.166455,41.31065,60.768974,-11.372154,12.888686,-8.0315695
214,2.4582176208496094,95.3835220336914,75.99552154541016,1.3048713204107265,5.1734958702544915,-130.03781725517084,-1.9352132,8.3890705,30.695627,57.93197,-19.52154,-9.359936,-22.827118,-8.171166,-33.78521,30.499723,-14.656231,-10.009462,-12.222813,-0.0098493295,1.7807722,-4.804513,18.01767,-42.39028,56.43548,2.3007524,11.061052,14.586365,3.5556314,-11.16862,41.342762,60.754784,-11.36479,12.908015,-8.120666
215,2.4694416522979736,95.77489471435547,75.88426208496094,1.3055330302058203,5.107681802481468,-129.51439502298507,-1.1691662,7.370578,30.499037,56.81251,-19.317091,-9.722891,-23.057264,-8.323452,-34.29795,30.921865,-14.836258,-10.374528,-12.534198,0.08173187,1.7414184,-5.085962,18.027227,-42.312065,56.282307,2.3440688,11.125464,14.728269,3.9780104,-11.167011,41.340584,60.727283,-11.35898,12.926307,-8.192223
216,2.4835383892059326,96.17564392089844,75.7709732055664,1.3040237841074886,5.0344387430852,-128.97510828638121,-0.42264676,6.3583603,30.230358,55.58814,-19.16975,-9.978639,-23.274994,-8.485214,-34.822586,31.325842,-15.002298,-10.737031,-12.867868,0.17075591,1.7160304,-5.380569,18.037584,-42.242645,56.167805,2.368868,11.17457,14.85426,4.391499,-11.163299,41.29822,60.689842,-11.357645,12.9549,-8.18048
217,2.5046045780181885,96.57299041748047,75.6575698852539,1.3065254466152132,4.955582712825784,-128.410473267649,0.28100502,5.2878304,29.805096,54.236225,-19.05029,-10.178921,-23.484133,-8.672712,-35.36434,31.723919,-15.159734,-11.088271,-13.211601,0.24824746,1.7101548,-5.707433,18.056152,-42.208733,56.096436,2.365242,11.207043,14.96291,4.798399,-11.15505,41.156075,60.634064,-11.391408,12.99819,-8.012994
218,2.532285213470459,96.97486114501953,75.54463195800781,1.3086857033253936,4.874403300993899,-127.8264625035874,0.95716673,4.1705055,29.234604,52.742977,-18.942465,-10.3493,-23.688042,-8.877252,-35.921246,32.11282,-15.307316,-11.434458,-13.558322,0.31925675,1.7119952,-6.0619164,18.07343,-42.211403,56.06983,2.3326647,11.225289,15.066085,5.2151375,-11.14306,40.943363,60.55483,-11.44286,13.050531,-7.745065
219,2.564250946044922,97.38762664794922,75.43141174316406,1.2997575712444285,4.784159715045691,-127.24071531468614,1.6599079,3.1484396,28.700228,51.167816,-18.919971,-10.3498745,-23.874998,-9.068825,-36.48323,32.47045,-15.43559,-11.79074,-13.8836355,0.39132854,1.7274046,-6.440202,18.091183,-42.258213,56.075897,2.2755997,11.231949,15.155675,5.643712,-11.124874,40.689663,60.462177,-11.487934,13.102013,-7.491293
220,2.610849618911743,97.81452178955078,75.31548309326172,1.270082962337431,4.678509067703942,-126.67033895514162,2.434263,2.3534117,28.384867,49.5658,-19.055798,-10.049896,-24.036295,-9.219859,-37.03984,32.779526,-15.538372,-12.172024,-14.175564,0.46911684,1.755931,-6.8234887,18.111185,-42.343662,56.099815,2.203697,11.229364,15.226736,6.092585,-11.093893,40.43998,60.364548,-11.500494,13.144323,-7.3694973
221,2.6493616104125977,98.23946380615234,75.19932556152344,1.217065140410699,4.55338720205137,-126.1188063505298,3.2993996,1.8358328,28.38463,47.970505,-19.430096,-9.358633,-24.170174,-9.32412,-37.584793,33.045277,-15.623184,-12.587569,-14.4791975,0.5657719,1.7978886,-7.183923,18.125696,-42.414272,56.14152,2.1242619,11.211396,15.277375,6.5485477,-11.065837,40.264538,60.271793,-11.4434395,13.183787,-7.450463
222,2.689222574234009,98.67255401611328,75.08930206298828,1.1487992498531945,4.413525392469456,-125.57710464198692,4.218,1.4953451,28.589006,46.343708,-19.996962,-8.387777,-24.284897,-9.400634,-38.12303,33.28063,-15.695038,-13.027196,-14.753675,0.6640714,1.854833,-7.5584173,18.143167,-42.532597,56.209553,2.0167906,11.180235,15.311187,7.0264325,-11.026494,40.075478,60.170055,-11.35732,13.2198105,-7.6562448
223,2.727675199508667,99.11181640625,74.98362731933594,1.07049948104523,4.266819635500276,-125.04330401302498,5.1442995,1.239656,28.873692,44.638927,-20.634718,-7.3107696,-24.379936,-9.452743,-38.66275,33.464058,-15.736121,-13.476892,-15.009635,0.75803053,1.9167706,-7.93021,18.16327,-42.66568,56.286793,1.9128462,11.145498,15.326418,7.5052214,-10.974805,39.891552,60.07032,-11.25519,13.243242,-7.8919196
224,2.7751078605651855,99.55220031738281,74.87738800048828,0.9863034532660021,4.120357888105352,-124.51561233229458,6.036218,0.98914164,29.116354,42.809906,-21.211021,-6.288142,-24.454758,-9.483131,-39.212486,33.574043,-15.727807,-13.922528,-15.236718,0.83359957,1.9739285,-8.302606,18.194502,-42.81883,56.363876,1.8238002,11.117819,15.320994,7.962551,-10.884874,39.702003,59.99946,-11.16271,13.243056,-8.063337
225,2.8241376876831055,100.00421142578125,74.77650451660156,0.8885473917389595,3.97444055353826,-123.99411449868009,6.901745,0.7459208,29.331778,40.77483,-21.642662,-5.2552276,-24.508087,-9.485911,-39.782536,33.611347,-15.669654,-14.369742,-15.490735,0.92700624,2.0343127,-8.646722,18.21738,-42.913177,56.429893,1.7912586,11.098973,15.278669,8.402513,-10.82333,39.56423,59.913807,-11.036487,13.213175,-8.146691
226,2.877117395401001,100.46072387695312,74.6751708984375,0.779812949241427,3.825514296499921,-123.47966634362248,7.7562985,0.5343865,29.578262,38.578148,-22.020979,-4.1686363,-24.541328,-9.46267,-40.364758,33.586708,-15.571348,-14.82222,-15.707357,1.0109367,2.098203,-8.999491,18.251228,-43.044018,56.497288,1.7723305,11.086394,15.2073555,8.834428,-10.732155,39.40075,59.84248,-10.90057,13.15646,-8.192952
227,2.9346015453338623,100.9266357421875,74.58489227294922,0.6989271352777574,3.6543772214225645,-122.93678516573927,8.610007,0.28790393,29.763723,36.31701,-22.437567,-3.1966364,-24.5354,-9.505329,-40.94481,33.56188,-15.463129,-15.000033,-15.953222,1.0448351,2.1685462,-9.33026,18.292795,-43.152985,56.560326,1.7636062,11.0722475,15.133847,9.246671,-10.624012,39.278564,59.784676,-10.7891245,13.095106,-8.212064
228,2.9921035766601562,101.40199279785156,74.50056457519531,0.6406144727765111,3.4768838581537564,-122.38367383081214,9.418669,0.020623244,29.835333,34.150932,-23.003073,-2.5176475,-24.505024,-9.572679,-41.511356,33.49272,-15.321465,-15.000033,-16.219807,1.0402485,2.2303338,-9.629613,18.326263,-43.210464,56.624626,1.7522177,11.047656,15.086265,9.662283,-10.546295,39.233074,59.69243,-10.746401,13.052156,-8.207581
229,3.0358238220214844,101.88851165771484,74.41938018798828,0.5754082878324126,3.298173073353426,-121.83079714894008,10.18937,-0.21746662,29.785158,32.09037,-23.810959,-2.2499046,-24.446278,-9.594017,-42.086113,33.31854,-15.126745,-15.000033,-16.47196,0.990222,2.2719285,-9.89301,18.392752,-43.25804,56.67499,1.7320989,11.016138,15.070863,10.048129,-10.403281,39.255833,59.6508,-10.823333,13.02673,-8.184529
230,3.080864429473877,102.38431549072266,74.34658813476562,0.49812028874767783,3.1197925363484127,-121.2790714752766,10.92974,-0.41255453,29.654829,30.064339,-24.766916,-2.278191,-24.362644,-9.568068,-42.6734,33.046463,-14.879009,-15.000033,-16.732355,0.9225474,2.3009393,-10.118057,18.474678,-43.266483,56.713654,1.7200115,10.978602,15.072377,10.416359,-10.245602,39.356133,59.62201,-10.976782,13.011226,-8.13668
231,3.1395766735076904,102.8929443359375,74.27719116210938,0.43709323044384996,2.956764201119383,-120.74374487780868,11.582729,-0.59277725,29.47316,28.13361,-25.710007,-2.421332,-24.289867,-9.528974,-43.236877,32.706734,-14.570814,-15.000033,-16.978893,0.81733626,2.3089406,-10.315833,18.572565,-43.24111,56.7391,1.690375,10.935498,15.086109,10.759098,-10.0742035,39.493423,59.60283,-11.14651,13.003319,-8.074833
232,3.196887731552124,103.41411590576172,74.21829986572266,0.4239826949367013,2.822781769719175,-120.2412875335136,12.089787,-0.79383403,29.262226,26.368969,-26.490171,-2.4954197,-24.266571,-9.516604,-43.73629,32.336796,-14.197796,-15.000033,-17.192793,0.6526731,2.2871773,-10.488819,18.683577,-43.17113,56.747192,1.6306528,10.886934,15.107099,11.063271,-9.893503,39.635292,59.594006,-11.267146,13.001415,-8.010438
233,3.2514994144439697,103.94060516357422,74.16886138916016,0.4832556256401087,2.7253818622753974,-119.75233554897066,12.407598,-1.0326083,28.980371,24.821135,-27.084553,-2.4474847,-24.292685,-9.572626,-44.20854,31.944513,-13.789124,-15.000033,-17.383781,0.40364233,2.2190204,-10.645884,18.806572,-43.066666,56.743195,1.5212301,10.828791,15.146762,11.344575,-9.70383,39.769524,59.578693,-11.312025,13.011003,-7.947602
234,3.3044397830963135,104.47305297851562,74.13397216796875,0.594481020411843,2.654012630207292,-119.2774075976152,12.575109,-1.2846488,28.630259,23.457119,-27.577242,-2.3676004,-24.354198,-9.6668825,-44.65662,31.515219,-13.337548,-15.000033,-17.553967,0.08787163,2.1137767,-10.786526,18.94146,-42.93247,56.73003,1.3726023,10.761985,15.203817,11.602902,-9.504859,39.913437,59.56239,-11.317041,13.030935,-7.8796816
235,3.3693742752075195,105.01890563964844,74.1082992553711,0.7246905284760692,2.595065800582082,-118.86426625814686,12.65496,-1.530107,28.296825,22.226805,-27.984673,-2.2816849,-24.466461,-9.735396,-44.987366,31.052027,-12.785381,-15.000033,-17.675533,-0.25407457,2.0019763,-10.897395,19.085533,-42.74719,56.701668,1.2165906,10.694452,15.254452,11.815966,-9.301882,40.072384,59.56253,-11.324006,13.050439,-7.801204
236,3.4555580615997314,105.56937408447266,74.08684539794922,0.8396728106541025,2.536196121087181,-118.5600801326564,12.708744,-1.7494226,28.064857,21.076504,-28.320574,-2.2202578,-24.64449,-9.714219,-45.10623,30.556664,-12.0714,-15.000033,-17.720821,-0.5793579,1.9148483,-10.965053,19.23432,-42.487514,56.652107,1.0855066,10.6342535,15.275217,11.964481,-9.104337,40.25243,59.592857,-11.373552,13.058747,-7.7061996
237,3.5510995388031006,106.11872863769531,74.07635498046875,0.9289398793166771,2.4732719355044432,-118.37044778000272,12.735648,-1.9244837,27.941324,20.024542,-28.597984,-2.189567,-24.875069,-9.590458,-45.02064,30.01539,-11.197912,-15.000033,-17.684437,-0.87534046,1.8633828,-10.982559,19.384117,-42.12419,56.569603,0.9957248,10.583373,15.24855,12.053015,-8.918836,40.448406,59.653004,-11.489405,13.053365,-7.596122
238,3.6413614749908447,106.6727523803711,74.07276916503906,1.0134256705460325,2.4139891284297543,-118.27386494044542,12.707201,-2.072307,27.887781,19.089752,-28.810259,-2.1706073,-25.157177,-9.399002,-44.764736,29.434559,-10.189218,-15.000033,-17.580725,-1.1641594,1.8299905,-10.955964,19.533947,-41.67368,56.46231,0.928285,10.537171,15.190945,12.100882,-8.747819,40.655727,59.7227,-11.652261,13.040358,-7.4722247
239,3.7369351387023926,107.23139190673828,74.08116149902344,1.1056990137311777,2.3644047405346176,-118.27653380496682,12.635965,-2.2188494,27.920645,18.238525,-28.941648,-2.153662,-25.518827,-9.148436,-44.286438,28.84024,-9.025882,-15.000033,-17.407173,-1.4554281,1.8073313,-10.897834,19.68301,-41.190018,56.355423,0.85713136,10.494003,15.130856,12.083049,-8.596697,40.90043,59.80897,-11.806855,13.02073,-7.328608
240,3.8295247554779053,107.80874633789062,74.104736328125,1.2189862429574436,2.330404048616905,-118.3841984508846,12.534624,-2.3884053,28.055075,17.438807,-28.979387,-2.1277165,-25.984653,-8.846188,-43.53481,28.254967,-7.6867433,-15.000033,-17.163132,-1.758545,1.7876846,-10.818779,19.83048,-40.724827,56.27362,0.75777686,10.451756,15.096129,11.985265,-8.471095,41.20147,59.907444,-11.908277,12.9959955,-7.1585283
