unveil-humanoid-operators/unveil-humanoid-operators.github.io/feature-analysis-animation/data/feature_matrix_instances/height_ankle_rom_jogging_A026_jog_sideway_135_start_001__A026.csv
Frame,root_translateX,root_translateY,root_translateZ,root_rotateX,root_rotateY,root_rotateZ,left_hip_pitch_joint_dof,left_hip_roll_joint_dof,left_hip_yaw_joint_dof,left_knee_joint_dof,left_ankle_pitch_joint_dof,left_ankle_roll_joint_dof,right_hip_pitch_joint_dof,right_hip_roll_joint_dof,right_hip_yaw_joint_dof,right_knee_joint_dof,right_ankle_pitch_joint_dof,right_ankle_roll_joint_dof,waist_yaw_joint_dof,waist_roll_joint_dof,waist_pitch_joint_dof,left_shoulder_pitch_joint_dof,left_shoulder_roll_joint_dof,left_shoulder_yaw_joint_dof,left_elbow_joint_dof,left_wrist_roll_joint_dof,left_wrist_pitch_joint_dof,left_wrist_yaw_joint_dof,right_shoulder_pitch_joint_dof,right_shoulder_roll_joint_dof,right_shoulder_yaw_joint_dof,right_elbow_joint_dof,right_wrist_roll_joint_dof,right_wrist_pitch_joint_dof,right_wrist_yaw_joint_dof
0,-1.5698356628417969,1.258324384689331,76.87166595458984,-0.6835686455442018,4.558467364991909,174.65921430929137,-9.230678,12.786163,9.48272,28.617155,-21.665842,-5.498798,-6.7972007,-2.215106,1.8255666,15.169789,-14.81693,8.59268,-0.4966631,1.5499612,0.21836644,0.17393094,18.343729,-34.04651,58.504803,-11.004305,8.707535,-0.35794804,-7.9667177,-19.382153,47.912266,60.993942,13.325788,6.6156588,4.638394
1,-1.6204019784927368,1.2594327926635742,76.85305786132812,-0.7952884933136316,4.573480116951085,174.65883963123596,-9.356322,12.932804,9.401259,28.932278,-21.876366,-5.4839716,-6.663521,-2.097898,1.7830117,14.958276,-14.789963,8.622049,-0.50331306,1.6851304,0.2319042,0.21107878,18.345474,-34.013645,58.44758,-10.982268,8.752365,-0.3145869,-7.9809246,-19.392342,47.882156,61.002064,13.359782,6.6005683,4.653496
2,-1.671366572380066,1.2577944993972778,76.8317642211914,-0.9033660518046042,4.587779026662555,174.659717044157,-9.474214,13.073416,9.320863,29.231825,-22.081387,-5.4695845,-6.5297136,-1.9843018,1.7401942,14.748588,-14.762631,8.651419,-0.51540023,1.8188819,0.25488326,0.24669118,18.34185,-33.956562,58.387268,-10.94272,8.799802,-0.27132335,-7.993526,-19.418423,47.843746,60.989872,13.388202,6.585821,4.6730647
3,-1.7230802774429321,1.2588069438934326,76.8065185546875,-1.0176379573329215,4.603234330959839,174.65800413072287,-9.606102,13.222905,9.238358,29.560299,-22.296331,-5.4543285,-6.395518,-1.8644733,1.6991895,14.535636,-14.735595,8.681805,-0.51875395,1.9581387,0.26629347,0.27828962,18.338017,-33.93117,58.339825,-10.923427,8.841566,-0.23035236,-8.014736,-19.42723,47.824482,61.00892,13.431203,6.5723095,4.6864724
4,-1.7783952951431274,1.248453974723816,76.7780990600586,-1.1487587018038603,4.62017437891764,174.6503021043856,-9.773427,13.3964405,9.149316,29.96308,-22.53701,-5.4368887,-6.258217,-1.7286955,1.6616256,14.310484,-14.706907,8.714391,-0.53106356,2.130275,0.2911189,0.31199762,18.319399,-33.88505,58.29157,-10.890186,8.871324,-0.20939328,-8.034333,-19.460451,47.800346,61.009815,13.438497,6.5735803,4.701488
5,-1.832655668258667,1.2321817874908447,76.74657440185547,-1.2967287815694664,4.640445685070482,174.63618375659826,-9.9789,13.593671,9.054407,30.44309,-22.80559,-5.4173145,-6.119791,-1.5763601,1.6294479,14.072692,-14.674261,8.746547,-0.53473604,2.3283327,0.30783808,0.338178,18.292963,-33.875748,58.260384,-10.882414,8.885117,-0.2084278,-8.044522,-19.501673,47.78767,61.014095,13.422063,6.585796,4.7084227
6,-1.8824573755264282,1.2221887111663818,76.709228515625,-1.4565863897294435,4.662867946042902,174.6172688817797,-10.211484,13.807495,8.955364,30.978212,-23.093822,-5.396298,-5.9809375,-1.412534,1.6014538,13.826616,-14.639306,8.778683,-0.5349321,2.542213,0.32250348,0.36461487,18.268105,-33.884186,58.231518,-10.887786,8.888574,-0.22337675,-8.059159,-19.53778,47.78332,61.032238,13.387693,6.605293,4.7109556
7,-1.9408410787582397,1.1943660974502563,76.6680908203125,-1.630950851840038,4.685269739668304,174.5930067967558,-10.472963,14.041611,8.849418,31.576557,-23.40229,-5.3735676,-5.836801,-1.2351807,1.5751328,13.569725,-14.605944,8.81617,-0.5314082,2.7763286,0.34214133,0.3921595,18.241892,-33.89952,58.201283,-10.893104,8.885358,-0.2444278,-8.085645,-19.574196,47.786797,61.06593,13.36435,6.6348457,4.7121463
8,-1.9986553192138672,1.1691584587097168,76.62242889404297,-1.8225402679355944,4.705263872433817,174.56275230068107,-10.762816,14.300022,8.734522,32.24078,-23.72893,-5.3488073,-5.681815,-1.0424192,1.5479193,13.297271,-14.576924,8.864634,-0.52276814,3.0409453,0.37177157,0.41717315,18.197464,-33.90952,58.176807,-10.879895,8.878348,-0.2604176,-8.104041,-19.632547,47.772552,61.0903,13.354646,6.6794233,4.715686
9,-2.0570614337921143,1.1427783966064453,76.56999206542969,-2.036197179914145,4.72123810663916,174.52741820098677,-11.077815,14.589507,8.608343,32.968765,-24.081305,-5.3213453,-5.5060263,-0.8278318,1.5160222,12.994259,-14.546647,8.921973,-0.5197896,3.3291302,0.41192937,0.4687978,18.168293,-33.90743,58.117447,-10.843996,8.875224,-0.26900426,-8.132008,-19.66711,47.731472,61.15259,13.3721895,6.7329335,4.715891
10,-2.1150882244110107,1.1063305139541626,76.51545715332031,-2.2685481647459724,4.734792613304696,174.48696430761774,-11.418629,14.904811,8.472606,33.758636,-24.457176,-5.2913775,-5.310583,-0.59537566,1.4823283,12.658101,-14.513104,8.986961,-0.50974774,3.6479642,0.4597541,0.51457006,18.121845,-33.91022,58.064434,-10.791901,8.869464,-0.27352965,-8.150456,-19.718266,47.666325,61.214005,13.40991,6.7986465,4.714665
11,-2.1729044914245605,1.0593496561050415,76.45553588867188,-2.509919130687065,4.74801835638849,174.43907396200584,-11.791294,15.232056,8.3308735,34.615105,-24.840694,-5.2609286,-5.1203527,-0.35731766,1.4544472,12.33286,-14.492599,9.065155,-0.49155945,3.9846702,0.5158473,0.55136985,18.062366,-33.911297,58.02636,-10.737517,8.853671,-0.28083184,-8.178536,-19.782242,47.611042,61.270565,13.443389,6.880903,4.720015
12,-2.2363102436065674,1.0198184251785278,76.38927459716797,-2.7494093526504617,4.763389989569502,174.38156795878172,-12.201818,15.556236,8.187254,35.543858,-25.216444,-5.2318826,-4.953933,-0.12759638,1.4398654,12.048852,-14.499558,9.162422,-0.47174758,4.3139906,0.58135885,0.6049958,18.024796,-33.890263,57.974464,-10.69063,8.824531,-0.30117452,-8.247898,-19.822155,47.595104,61.34426,13.434522,6.9812503,4.7395344
13,-2.294184923171997,0.966774582862854,76.3177719116211,-2.990941061185906,4.78144659291389,174.31326713578804,-12.642392,15.881408,8.05036,36.532246,-25.597147,-5.211177,-4.817278,0.09863917,1.4413159,11.815484,-14.540067,9.276024,-0.44716364,4.653401,0.6545964,0.6480297,17.973759,-33.860924,57.9441,-10.656564,8.7745695,-0.33558086,-8.335788,-19.876955,47.621937,61.40109,13.368357,7.118447,4.7848916
14,-2.352341413497925,0.905621349811554,76.24357604980469,-3.2381363675129133,4.801006344200966,174.23565001092942,-13.1131315,16.212637,7.915143,37.581894,-25.98544,-5.195784,-4.6991377,0.32584843,1.4541076,11.613456,-14.604883,9.404057,-0.41816515,5.0014253,0.7351693,0.6924028,17.923906,-33.82613,57.91639,-10.630536,8.709836,-0.3803666,-8.443831,-19.931196,47.67745,61.459488,13.264484,7.2834334,4.848483
15,-2.4187536239624023,0.8365024924278259,76.16442108154297,-3.482506060274168,4.820749012123921,174.150204651758,-13.632199,16.539598,7.764286,38.722206,-26.352348,-5.173441,-4.5935044,0.541989,1.4736912,11.433782,-14.686272,9.553586,-0.38862887,5.363071,0.82824785,0.72185975,17.841146,-33.751617,57.926987,-10.590506,8.63179,-0.42916688,-8.570888,-20.024052,47.772926,61.48038,13.156624,7.452231,4.9139276
16,-2.4716358184814453,0.751083493232727,76.0816421508789,-3.7152483421003586,4.839458910849843,174.05847315445487,-14.217352,16.850512,7.5811563,39.98054,-26.667688,-5.132778,-4.5041604,0.7347466,1.4953912,11.287407,-14.786131,9.731427,-0.34767017,5.7128363,0.9375625,0.744933,17.759947,-33.632217,57.958645,-10.536372,8.548597,-0.47883636,-8.727428,-20.121735,47.87634,61.478188,13.046776,7.5935283,4.9631324
17,-2.529157876968384,0.667502760887146,76.00151062011719,-3.9380532439796068,4.854863532062775,173.95752712338452,-14.873371,17.14973,7.369813,41.377483,-26.923954,-5.0811787,-4.430145,0.90675163,1.5198427,11.175635,-14.907617,9.939055,-0.2976888,6.05272,1.0663464,0.76324934,17.68477,-33.46281,58.004974,-10.431153,8.47012,-0.5452004,-8.926943,-20.219738,48.013474,61.47163,12.917605,7.697679,5.0005937
18,-2.5962531566619873,0.5829415917396545,75.91883087158203,-4.155528008586655,4.868233815604954,173.847677872274,-15.590661,17.440182,7.1363025,42.89376,-27.136763,-5.0234303,-4.375705,1.0638663,1.5478678,11.104398,-15.052906,10.172599,-0.2462218,6.394655,1.2135656,0.77685165,17.601486,-33.241722,58.06976,-10.285094,8.389594,-0.62509763,-9.163141,-20.336039,48.196556,61.44625,12.777932,7.7820354,5.033178
19,-2.654839038848877,0.47675198316574097,75.83531188964844,-4.3597380727817425,4.883691200491344,173.7354149392734,-16.360594,17.703537,6.8709607,44.489243,-27.30624,-4.944936,-4.3303127,1.1954597,1.5756826,11.046104,-15.208403,10.431789,-0.19041012,6.7230363,1.3745935,0.7933317,17.521654,-32.972412,58.14832,-10.173247,8.291381,-0.6869584,-9.429297,-20.455454,48.379196,61.3871,12.674243,7.854361,5.04459
20,-2.705897331237793,0.36057600378990173,75.75153350830078,-4.5425242675137225,4.90564159173009,173.62713078753592,-17.172812,17.919603,6.565747,46.12163,-27.430006,-4.831792,-4.2797494,1.2897848,1.5998281,10.96493,-15.35758,10.716838,-0.13992739,7.0290847,1.5479275,0.8215868,17.44125,-32.637493,58.24338,-10.159749,8.158156,-0.6995901,-9.724572,-20.586283,48.544376,61.265106,12.672021,7.9247212,5.01876
21,-2.7666921615600586,0.2333199828863144,75.67350006103516,-4.702957931888515,4.934970858225781,173.52629819923703,-18.054153,18.089298,6.225896,47.84109,-27.47429,-4.635124,-4.221353,1.3445158,1.6162951,10.85247,-15.499073,11.036391,-0.09348949,7.3098655,1.7380241,0.85952675,17.364077,-32.224663,58.361763,-10.280413,7.964657,-0.6474627,-10.057872,-20.723621,48.690105,61.080563,12.824405,7.9980903,4.9441757
22,-2.8359806537628174,0.10525345802307129,75.59494018554688,-4.8442233354804785,4.969508654670781,173.4289643103413,-18.99747,18.215935,5.858602,49.645176,-27.446604,-4.383395,-4.1580477,1.3643436,1.627555,10.718055,-15.638315,11.387788,-0.051297486,7.569644,1.9448726,0.9063215,17.289803,-31.741041,58.498642,-10.493067,7.726836,-0.55086017,-10.425328,-20.868246,48.824635,60.842995,13.080097,8.068229,4.8314795
23,-2.9024972915649414,-0.031656414270401,75.52326202392578,-4.966251902693281,5.00943156577336,173.3302148358225,-19.945713,18.287237,5.4551644,51.422142,-27.413158,-4.178077,-4.0961123,1.351581,1.6394116,10.579178,-15.775452,11.753376,-0.005019006,7.807694,2.158161,0.9698803,17.222185,-31.221964,58.628933,-10.752799,7.49117,-0.4321635,-10.816673,-21.016106,48.943237,60.556385,13.366395,8.126665,4.697834
24,-2.9775166511535645,-0.18205341696739197,75.45396423339844,-5.067218994637291,5.054981800695155,173.22521838298542,-20.843626,18.29018,5.005808,53.06476,-27.444824,-4.1166553,-4.0379596,1.3062798,1.6584401,10.44477,-15.910757,12.115889,0.052731432,8.020385,2.3668795,1.0602782,17.167961,-30.70311,58.72595,-11.016477,7.3045044,-0.31311682,-11.21172,-21.1593,49.02348,60.221397,13.590673,8.165458,4.5605373
25,-3.0657389163970947,-0.3314456343650818,75.3893814086914,-5.148114631959125,5.104390389188732,173.11631195123647,-21.680506,18.203875,4.482767,54.55544,-27.584509,-4.272553,-3.9814055,1.2280865,1.682047,10.318378,-16.052408,12.480523,0.119053796,8.208557,2.573667,1.1827998,17.13259,-30.186535,58.76438,-11.280272,7.1926193,-0.17475224,-11.620361,-21.293396,49.05875,59.850643,13.762538,8.180606,4.42236
26,-3.162109136581421,-0.5020549297332764,75.33356475830078,-5.208331204357582,5.158320087191848,173.00497255276736,-22.486261,18.03856,3.902706,55.95723,-27.793913,-4.577682,-3.9258044,1.1159472,1.7081722,10.194529,-16.198425,12.853143,0.19783461,8.367511,2.779256,1.3318173,17.118837,-29.665003,58.76325,-11.568982,7.126251,-0.012951923,-12.050367,-21.402971,49.050114,59.45684,13.913498,8.175221,4.274382
27,-3.249175548553467,-0.6861562728881836,75.27676391601562,-5.24657339765875,5.220557444177089,172.88503088683694,-23.264767,17.832926,3.318737,57.277374,-28.023537,-4.9131308,-3.8735862,0.97127676,1.744116,10.062818,-16.328928,13.217671,0.28613025,8.495532,2.9795506,1.5131462,17.12473,-29.129618,58.748802,-11.8734255,7.070494,0.1259204,-12.493271,-21.502062,49.031574,59.01992,14.012335,8.155201,4.1169496
28,-3.360910415649414,-0.8622822165489197,75.23368835449219,-5.26138334607697,5.295017431979392,172.7502145834092,-24.022501,17.627256,2.7798312,58.523838,-28.216127,-5.1585345,-3.826781,0.7957374,1.797809,9.913929,-16.424593,13.557908,0.4182053,8.582244,3.153905,1.7004963,17.145351,-28.626213,58.782333,-12.200631,6.9900374,0.20147693,-12.931914,-21.567986,48.99465,58.559074,14.014859,8.122665,3.949593
29,-3.487169027328491,-1.0395164489746094,75.20099639892578,-5.257521050731881,5.377725385167241,172.60047335398707,-24.761654,17.422916,2.269335,59.703384,-28.36125,-5.2943134,-3.7733283,0.59626895,1.8686758,9.72899,-16.468576,13.860158,0.5598866,8.63723,3.3264294,1.9295456,17.189098,-28.088726,58.827843,-12.528112,6.863456,0.18644236,-13.382481,-21.623713,48.98165,58.04275,13.887984,8.081237,3.766074
30,-3.61470365524292,-1.2354027032852173,75.17539978027344,-5.233858583128855,5.468126473657806,172.43860215870453,-25.47888,17.204165,1.7686466,60.80972,-28.48468,-5.3770127,-3.7143974,0.36949813,1.954113,9.514161,-16.472435,14.136427,0.7258161,8.657888,3.4914057,2.1860042,17.255957,-27.546013,58.88396,-12.870093,6.714489,0.1102935,-13.845151,-21.661215,48.967472,57.489124,13.663574,8.027718,3.5679882
31,-3.7540695667266846,-1.437091588973999,75.15620422363281,-5.181488031296711,5.575936363649568,172.26277391083144,-26.173859,16.98917,1.3197491,61.829533,-28.581388,-5.398952,-3.6734061,0.10261453,2.0592887,9.298102,-16.458101,14.40907,0.89731777,8.631703,3.6409347,2.498811,17.363335,-26.993011,58.91875,-13.228282,6.5810575,-0.0063447286,-14.314791,-21.680239,48.963207,56.88988,13.417644,7.9638114,3.3686895
32,-3.9041318893432617,-1.6537424325942993,75.1452865600586,-5.091345632153883,5.710512284760317,172.07110705962964,-26.845541,16.797554,0.9643566,62.747837,-28.646267,-5.351706,-3.6737502,-0.21803832,2.189582,9.107993,-16.446577,14.700597,1.0990554,8.548152,3.7455518,2.839952,17.497194,-26.489079,58.970634,-13.619347,6.4967723,-0.13173996,-14.765357,-21.669048,48.9371,56.26023,13.216129,7.8888807,3.1814158
33,-4.068220615386963,-1.8789926767349243,75.1426010131836,-4.961834925460877,5.879695343037268,171.8571883620685,-27.507797,16.652014,0.7274182,63.577145,-28.664831,-5.2031264,-3.704376,-0.59075207,2.3568215,8.899089,-16.41947,15.000033,1.3367645,8.410209,3.7949147,3.195793,17.642445,-26.039652,59.065567,-14.101726,6.479915,-0.28263026,-15.206415,-21.62587,48.902702,55.610214,13.091694,7.800739,2.9955432
34,-4.236879348754883,-2.10477876663208,75.14032745361328,-4.814996730853735,6.075538511716739,171.62044927641304,-28.162321,16.562943,0.5641214,64.32672,-28.64734,-4.9721956,-3.7361505,-0.94559395,2.6041086,8.629393,-16.347008,15.000033,1.6032779,8.234635,3.8027995,3.579045,17.80512,-25.619633,59.187286,-14.648502,6.5096726,-0.4654132,-15.647118,-21.547428,48.865128,54.94127,13.000393,7.6993217,2.8082564
35,-4.422878265380859,-2.3405046463012695,75.14334106445312,-4.650380524997703,6.285880789817841,171.3739079794495,-28.783188,16.493425,0.43674687,64.96659,-28.62109,-4.711815,-3.7874405,-1.3291229,2.8706548,8.369403,-16.262619,15.000033,1.8899254,8.024762,3.7802649,3.9867728,17.977114,-25.230846,59.33314,-15.140937,6.5566354,-0.631569,-16.0776,-21.437813,48.81393,54.253635,12.919972,7.588805,2.6456716
36,-4.623270034790039,-2.575666904449463,75.15174102783203,-4.491469396457841,6.4970065660667595,171.1241215753116,-29.351841,16.436218,0.28836256,65.47845,-28.619125,-4.488468,-3.854473,-1.7142354,3.1464705,8.147085,-16.169613,15.000033,2.1907842,7.802269,3.740333,4.424626,18.157671,-24.868223,59.4891,-15.458064,6.590849,-0.73499125,-16.491686,-21.300749,48.743896,53.54609,12.832197,7.473199,2.533932
37,-4.84395694732666,-2.8180654048919678,75.16416931152344,-4.344718615393097,6.703296917008577,170.8668521909951,-29.856726,16.40468,0.1114153,65.848236,-28.646744,-4.3221154,-3.9438922,-2.0911791,3.4360995,7.988175,-16.076717,15.000033,2.5093806,7.5718474,3.689411,4.8951344,18.347712,-24.537941,59.656864,-15.533004,6.599248,-0.7653581,-16.884586,-21.137228,48.6393,52.803318,12.7531,7.3445764,2.4836447
38,-5.096543788909912,-3.0754048824310303,75.18009948730469,-4.197714577311131,6.912961049217003,170.6004818492851,-30.311195,16.397963,-0.06733986,66.09049,-28.688559,-4.1768613,-4.0635414,-2.4739327,3.7434635,7.887755,-15.986726,15.000033,2.8473654,7.322618,3.6200979,5.395833,18.54765,-24.239824,59.841026,-15.442413,6.598954,-0.7467916,-17.259846,-20.948801,48.507603,52.029312,12.6854105,7.203602,2.4797971
39,-5.321256637573242,-3.338120460510254,75.19446563720703,-4.045640270648971,7.132868886897616,170.33493643615583,-30.732151,16.386053,-0.25121439,66.22541,-28.743114,-4.0360217,-4.226117,-2.8701558,4.058745,7.8634553,-15.916715,15.000033,3.1981704,7.053275,3.5245638,5.923285,18.753988,-23.961424,60.03236,-15.279585,6.604123,-0.6854938,-17.621267,-20.740366,48.378635,51.244236,12.596503,7.067982,2.5095098
40,-5.542289733886719,-3.5903968811035156,75.20784759521484,-3.883819861780374,7.369865283404788,170.08069156354682,-31.137106,16.338829,-0.44392145,66.27458,-28.810509,-3.8831527,-4.4062066,-3.2903473,4.369778,7.8518867,-15.840022,15.000033,3.5524573,6.7638693,3.3946404,6.4742517,18.960278,-23.688171,60.223312,-15.136834,6.6286893,-0.5875618,-17.965084,-20.519396,48.27578,50.465214,12.440864,6.955998,2.5599334
41,-5.794910430908203,-3.8707892894744873,75.21797180175781,-3.709558420868749,7.631364103812066,169.83476940507663,-31.53087,16.254375,-0.64619887,66.2331,-28.90669,-3.691799,-4.60471,-3.73911,4.679183,7.836577,-15.745604,15.000033,3.91478,6.454898,3.2166607,7.045417,19.162727,-23.442959,60.42905,-15.01093,6.676188,-0.43895108,-18.283144,-20.289875,48.207027,49.677364,12.17702,6.893312,2.645764
42,-6.0822978019714355,-4.166111946105957,75.22461700439453,-3.526471389645415,7.911859348081445,169.59376468587578,-31.904297,16.147167,-0.8563866,66.09404,-29.027048,-3.4782586,-4.81829,-4.210702,4.991596,7.8222184,-15.632823,15.000033,4.2875266,6.1289,2.9989595,7.635428,19.359962,-23.226725,60.65353,-14.861629,6.739002,-0.24115963,-18.57141,-20.053303,48.15526,48.869217,11.834371,6.863513,2.7677715
43,-6.378426551818848,-4.4655585289001465,75.228515625,-3.3379109925273176,8.198790165632447,169.3677446034944,-32.250244,16.010633,-1.0725281,65.87276,-29.138384,-3.2896833,-5.0287704,-4.7014136,5.2986603,7.804908,-15.510731,15.000033,4.6593556,5.787418,2.7655804,8.244198,19.548742,-22.98973,60.87155,-14.723637,6.8139706,-0.023408774,-18.849922,-19.816137,48.124306,48.071194,11.496038,6.82119,2.8924336
44,-6.6764092445373535,-4.774438381195068,75.23047637939453,-3.147328918428015,8.479555126370284,169.166870601146,-32.562565,15.83944,-1.2934897,65.586105,-29.208216,-3.1734796,-5.2225375,-5.206817,5.591994,7.7900214,-15.392647,15.000033,5.017448,5.43403,2.5414698,8.872843,19.724445,-22.681118,61.057453,-14.632916,6.8975153,0.18501209,-19.129417,-19.586452,48.11161,47.304657,11.235612,6.722308,2.9854324
45,-6.982285499572754,-5.1034255027771,75.2304458618164,-2.954406540203739,8.75340949651294,168.98036401569948,-32.829193,15.640958,-1.508294,65.20611,-29.226402,-3.1692944,-5.403597,-5.7251887,5.8862,7.7763124,-15.271482,15.000033,5.3717976,5.067119,2.331526,9.5283165,19.88192,-22.275417,61.20173,-14.599673,6.993637,0.39395106,-19.419348,-19.371582,48.127823,46.548954,11.0789995,6.5562387,3.0365603
46,-7.297915458679199,-5.43684720993042,75.22356414794922,-2.7576980668468636,9.026169063673079,168.80739697112546,-33.056114,15.416527,-1.721149,64.73453,-29.210945,-3.2426634,-5.5781245,-6.258899,6.1806026,7.764055,-15.144443,15.000033,5.724577,4.688883,2.1240525,10.20686,20.01884,-21.80282,61.320602,-14.603741,7.10194,0.6134462,-19.700344,-19.173552,48.165936,45.786797,10.97896,6.347664,3.064244
47,-7.635214805603027,-5.774889945983887,75.21275329589844,-2.5584363487006265,9.294822771121376,168.67220457498257,-33.264828,15.151498,-1.9528445,64.23166,-29.170849,-3.329407,-5.72973,-6.8107176,6.4426885,7.751161,-15.027252,15.000033,6.0533104,4.306473,1.918749,10.892925,20.136398,-21.295408,61.425163,-14.63185,7.2115607,0.8144231,-19.968266,-18.994724,48.219162,45.065258,10.927795,6.1044397,3.0782292
48,-7.972000598907471,-6.108770370483398,75.19578552246094,-2.357705699333381,9.556332885359318,168.59902338865845,-33.47536,14.830312,-2.2235825,63.75607,-29.113464,-3.3655014,-5.8428545,-7.383115,6.6398535,7.738792,-14.937163,15.000033,6.33462,3.9274304,1.7159902,11.568969,20.23852,-20.787737,61.52727,-14.6746645,7.312258,0.9675907,-20.206661,-18.83577,48.269135,44.422405,10.902859,5.8348265,3.0881913
49,-8.33248233795166,-6.465470790863037,75.17338562011719,-2.15167987622315,9.809320990770717,168.60007828540853,-33.687363,14.439028,-2.5469472,63.29965,-29.026688,-3.3520756,-5.9090037,-7.981819,6.7584524,7.7249427,-14.885551,15.000033,6.561746,3.5488052,1.5132533,12.23295,20.331028,-20.28501,61.631012,-14.740931,7.4073834,1.0501518,-20.419212,-18.698814,48.327873,43.85618,10.928248,5.5110807,3.1039515
50,-8.701842308044434,-6.8360185623168945,75.14107513427734,-1.9413201256301131,10.05541819190122,168.6602198852162,-33.89079,13.989831,-2.9091299,62.839146,-28.911264,-3.3173661,-5.9369097,-8.603776,6.817296,7.7098155,-14.860532,15.000033,6.7523656,3.1693366,1.3113035,12.887194,20.412289,-19.777092,61.732136,-14.834496,7.50043,1.0831158,-20.600777,-18.589415,48.389416,43.33861,10.998608,5.1395087,3.119059
51,-9.07636547088623,-7.218628883361816,75.10218811035156,-1.7337901928365018,10.294954024964204,168.76331712221915,-34.092274,13.506086,-3.2893362,62.41334,-28.79553,-3.2386403,-5.9368324,-9.238189,6.8320093,7.6982536,-14.845943,15.000033,6.912758,2.7935612,1.116151,13.539795,20.482637,-19.255001,61.810772,-14.928856,7.582267,1.1003816,-20.754438,-18.500664,48.435097,42.89311,11.075747,4.7771754,3.1173525
52,-9.454896926879883,-7.607000350952148,75.05440521240234,-1.5366788860767082,10.528383550692,168.89298480606874,-34.298706,13.01073,-3.6663496,62.06043,-28.707584,-3.093157,-5.9196806,-9.873759,6.817272,7.6959295,-14.825557,15.000033,7.0942063,2.4395807,0.9200291,14.129591,20.51503,-18.784487,61.919334,-15.016681,7.6374044,1.1477637,-20.848305,-18.45897,48.405045,42.53161,11.111963,4.483588,3.0850406
53,-9.841251373291016,-8.011799812316895,75.00011444091797,-1.3443870832977844,10.759204900821823,169.0516790177602,-34.516506,12.505134,-4.033254,61.778027,-28.665152,-2.8631144,-5.889774,-10.516074,6.7744155,7.701773,-14.805747,15.000033,7.2270055,2.0827188,0.7444271,14.757212,20.53883,-18.242926,61.958584,-15.0660095,7.668188,1.2248399,-20.940699,-18.424686,48.37305,42.26825,11.124667,4.263632,3.008136
54,-10.232864379882812,-8.427480697631836,74.94246673583984,-1.155723299291863,10.986053387594437,169.24545719281406,-34.740078,11.978322,-4.4009624,61.549774,-28.649378,-2.5648742,-5.840578,-11.167495,6.6950555,7.71348,-14.791093,15.000033,7.3509865,1.7294381,0.5683113,15.361692,20.544891,-17.710838,61.99573,-15.113743,7.6768417,1.3204358,-21.011189,-18.405148,48.311703,42.110973,11.126522,4.0887613,2.8978472
55,-10.636436462402344,-8.865914344787598,74.8790054321289,-0.9824808904764583,11.202118546432278,169.46404825823484,-34.96062,11.433392,-4.774654,61.39667,-28.63611,-2.2271252,-5.766302,-11.815021,6.5783505,7.734202,-14.763274,15.000033,7.4308605,1.3963207,0.41231436,15.983297,20.533894,-17.127205,61.97344,-15.123163,7.6743035,1.4057934,-21.053795,-18.392666,48.214092,42.037773,11.083576,3.9644542,2.7686765
56,-11.041886329650879,-9.324222564697266,74.80777740478516,-0.8365380554390518,11.400687505979544,169.6977154839512,-35.16869,10.873377,-5.15973,61.338505,-28.59999,-1.8783631,-5.6632147,-12.447652,6.422937,7.7668133,-14.702025,15.000033,7.497111,1.1075585,0.2682638,16.57818,20.500092,-16.556507,61.923508,-15.106318,7.6661673,1.4666315,-21.032578,-18.389383,48.024696,42.053314,10.960516,3.8951926,2.6341777
57,-11.454692840576172,-9.800765991210938,74.72892761230469,-0.7162366844644085,11.5818259980156,169.95265321025357,-35.364365,10.308947,-5.5507255,61.371696,-28.594137,-1.5312439,-5.529764,-13.074697,6.1995115,7.809997,-14.61643,15.000033,7.561897,0.8614202,0.1337525,17.135628,20.448334,-16.014936,61.852768,-15.047777,7.6461434,1.4945873,-20.92973,-18.39426,47.706207,42.156475,10.698946,3.9113355,2.5000815
58,-11.873411178588867,-10.288362503051758,74.64176940917969,-0.6143923797209533,11.747771458768472,170.23134954085958,-35.55044,9.732459,-5.945478,61.48911,-28.611835,-1.1685299,-5.3687453,-13.698557,5.915974,7.8622756,-14.51061,15.000033,7.60339,0.64576876,0.017162304,17.676123,20.373138,-15.457455,61.746418,-14.940317,7.613154,1.4998538,-20.774275,-18.407976,47.2948,42.34451,10.332858,4.0022645,2.3625185
59,-12.296008110046387,-10.795591354370117,74.55410766601562,-0.5369810047085958,11.895584129563156,170.51815024190773,-35.72218,9.122411,-6.3551216,61.70105,-28.535717,-0.7743715,-5.184803,-14.309896,5.627906,7.9315057,-14.361254,15.000033,7.6266885,0.47517073,-0.08421894,18.17957,20.26105,-14.9066105,61.62695,-14.826773,7.579722,1.4978853,-20.567146,-18.437855,46.822132,42.610966,9.956424,4.1100397,2.2132087
60,-12.718859672546387,-11.320903778076172,74.46025085449219,-0.48877764899951714,12.022449765314118,170.79684655469043,-35.873795,8.457147,-6.787774,62.017357,-28.247496,-0.33362025,-4.9747567,-14.894299,5.3876367,8.007458,-14.134886,15.000033,7.6485634,0.354025,-0.17819662,18.629498,20.124247,-14.406186,61.509766,-14.76594,7.5617867,1.5007437,-20.309534,-18.488342,46.318504,42.958393,9.674237,4.1744003,2.0402813
61,-13.157054901123047,-11.86966609954834,74.35978698730469,-0.4678924519855794,12.12966963517912,171.06897550935363,-36.060078,7.673636,-7.306872,62.5444,-27.543287,0.30642742,-4.7462234,-15.456938,5.1983504,8.101615,-13.8348465,15.000033,7.658624,0.28570428,-0.25472862,19.015804,19.945726,-13.949595,61.41016,-14.75971,7.5673137,1.5171478,-19.99646,-18.575745,45.779537,43.366005,9.460699,4.191941,1.8550586
62,-13.599799156188965,-12.439689636230469,74.25269317626953,-0.46979300422660564,12.21780314429658,171.34087240524656,-36.263542,6.802685,-7.8737683,63.23826,-26.534082,1.0801492,-5.0027323,-15.954964,5.172208,9.246818,-14.020175,15.000033,7.661614,0.25473073,-0.31473145,19.354706,19.751118,-13.534493,61.305016,-14.793484,7.5898705,1.5345585,-19.623024,-18.690582,45.1864,43.83689,9.282451,4.1892548,1.6568867
63,-14.062748908996582,-13.04162883758545,74.1397933959961,-0.49713992505124266,12.283010726740619,171.6042613328953,-36.370632,5.9611306,-8.358089,63.884483,-25.583479,1.6840776,-5.289149,-16.433924,5.204452,10.506903,-14.191754,15.000033,7.6614995,0.26751322,-0.3645492,19.660696,19.539228,-13.141733,61.172203,-14.847379,7.6135545,1.5441875,-19.18533,-18.835716,44.56167,44.362465,9.213875,4.1579227,1.4243869
64,-14.526171684265137,-13.655715942382812,74.02198028564453,-0.5547644505440552,12.322354661270337,171.85084480124624,-36.27139,5.2641497,-8.651127,64.27681,-25.071213,1.8266842,-5.580391,-16.89131,5.2992764,11.835527,-14.322041,15.000033,7.6630406,0.33248976,-0.41241902,19.947605,19.309809,-12.756038,60.990185,-14.904848,7.622785,1.5375371,-18.680716,-19.014029,43.92993,44.936348,9.331893,4.0884147,1.1354867
65,-14.99991226196289,-14.287321090698242,73.88177490234375,-0.6531642011248074,12.331549872605,172.0711317453145,-35.879112,4.7862144,-8.709964,64.279884,-25.141777,1.1962781,-5.8152614,-17.313139,5.4596205,13.127454,-14.403395,15.000033,7.6776214,0.45796826,-0.46023732,20.239954,19.062538,-12.357025,60.735847,-14.948645,7.6084204,1.488442,-18.101875,-19.227781,43.291035,45.562775,9.719492,3.9578767,0.7621835
66,-15.493348121643066,-14.948773384094238,73.72233581542969,-0.786937387942727,12.31369747509076,172.2722077431243,-35.275234,4.4557576,-8.601886,64.034454,-25.577658,0.031388726,-6.0288568,-17.703638,5.678471,14.447854,-14.456573,15.000033,7.697099,0.6376759,-0.5036037,20.524145,18.797308,-11.956278,60.426796,-14.991192,7.5805235,1.4095646,-17.450903,-19.478142,42.63663,46.239788,10.316698,3.7742932,0.3250529
67,-15.992814064025879,-15.634425163269043,73.55595397949219,-0.9311622456029108,12.276426996896815,172.47050927724632,-34.60011,4.1613283,-8.387091,63.751194,-26.224052,-1.1295264,-6.328979,-18.091286,5.943244,15.981358,-14.483282,15.000033,7.69897,0.8528916,-0.5406156,20.75641,18.514992,-11.587555,60.102383,-15.060399,7.5517173,1.3499773,-16.731325,-19.764385,41.97104,46.94708,10.980366,3.5763326,-0.12545565
68,-16.50912094116211,-16.34723663330078,73.38066864013672,-1.0541846980006786,12.227653850511933,172.68181041362087,-33.990234,3.7771099,-8.133195,63.637062,-26.939741,-1.7465674,-6.8124576,-18.510069,6.243829,17.887331,-14.470636,15.000033,7.660872,1.0765054,-0.56799346,20.89401,18.217707,-11.284008,59.801426,-15.184099,7.5343566,1.3585433,-15.951777,-20.084934,41.301044,47.669582,11.571174,3.4053986,-0.5404782
69,-17.03188133239746,-17.073347091674805,73.19721221923828,-1.144816942563591,12.162437618233382,172.91399265753566,-33.47639,3.2551966,-7.8443675,63.76831,-27.767021,-1.6030897,-7.400053,-18.976856,6.604497,20.039911,-14.418182,15.000033,7.5760336,1.3021606,-0.5910377,20.95405,17.902605,-11.048147,59.52083,-15.385072,7.531627,1.4411786,-15.099543,-20.43932,40.61367,48.409176,12.078114,3.2637296,-0.9160125
70,-17.55594825744629,-17.83069610595703,73.00395202636719,-1.2133728728812367,12.078575174124733,173.15670640558892,-32.98736,2.6509624,-7.492945,64.02469,-28.759422,-1.0112836,-8.053948,-19.477638,7.017498,22.36412,-14.307727,15.000033,7.457456,1.5358429,-0.60786855,20.951202,17.570112,-10.863514,59.244465,-15.643188,7.536099,1.5741806,-14.170339,-20.826801,39.90683,49.1697,12.56608,3.133394,-1.2753669
71,-18.08647918701172,-18.614704132080078,72.80349731445312,-1.2483025655845428,11.988920320999437,173.39715853110496,-32.50315,1.9801183,-7.0963483,64.31177,-29.7981,-0.2201899,-8.944299,-20.020798,7.45417,25.10287,-14.108877,15.000033,7.3131933,1.7550883,-0.60359496,20.842442,17.232124,-10.733241,58.988087,-15.922847,7.5452056,1.7609639,-13.193973,-21.24396,39.209934,49.944706,13.01725,3.0287933,-1.6118853
72,-18.631044387817383,-19.432199478149414,72.59721374511719,-1.2299832449693584,11.90664631974749,173.6235363692949,-32.003483,1.2569374,-6.66128,64.53212,-30.760578,0.52328396,-10.223109,-20.63962,7.8900123,28.449598,-13.751671,15.000033,7.15146,1.9266076,-0.5627536,20.587591,16.905922,-10.65886,58.762627,-16.188612,7.5572343,2.0032258,-12.199568,-21.684803,38.548824,50.728203,13.411448,2.96444,-1.9191186
73,-19.15049934387207,-20.24789047241211,72.38641357421875,-1.1879846179803448,11.833203982713812,173.81857054189385,-31.492891,0.5170321,-6.1927767,64.68401,-31.629528,1.1827601,-11.907576,-21.31676,8.321859,32.44445,-13.142314,15.000033,6.992937,2.0779932,-0.48995662,20.17402,16.591791,-10.646462,58.613976,-16.481707,7.5553994,2.3011782,-11.186677,-22.145918,37.910824,51.532825,13.724889,2.9435523,-2.2089956
74,-19.652345657348633,-21.065227508544922,72.17082977294922,-1.1077924290627466,11.761890724987618,173.99681040265946,-30.977077,-0.27502123,-5.6805196,64.8015,-32.458614,1.8848323,-13.910352,-22.077173,8.809959,36.92576,-12.314715,15.000033,6.824193,2.1990566,-0.38889757,19.629025,16.28803,-10.689013,58.5155,-16.805485,7.54578,2.6521077,-10.144645,-22.625694,37.28778,52.362167,13.976085,2.9595788,-2.4810228
75,-20.154294967651367,-21.891756057739258,71.9529800415039,-0.8972049892746597,11.690520891349882,174.19924157395994,-30.439238,-1.2158964,-5.10458,64.83961,-33.22813,2.6272404,-16.240685,-22.970673,9.51566,41.829983,-11.44116,15.000033,6.5986,2.1917868,-0.23860347,18.972172,16.014677,-10.770989,58.3658,-17.06992,7.5634394,3.051665,-9.079255,-23.115553,36.70233,53.187664,14.202305,3.012759,-2.71043
76,-20.647354125976562,-22.726825714111328,71.71987915039062,-0.46474599627981694,11.612802192484919,174.47283981138958,-29.863024,-2.4057143,-4.455927,64.75054,-33.913994,3.4069817,-18.885567,-23.987614,10.645592,47.08236,-10.690291,15.000033,6.2664666,1.9533257,-0.018422917,18.22767,15.802834,-10.87926,58.058285,-17.186914,7.64609,3.4929008,-7.9966516,-23.601435,36.173214,53.985233,14.438192,3.1020644,-2.8721466
77,-21.142379760742188,-23.566791534423828,71.47113037109375,0.333861915645172,11.522793564345088,174.85598339197622,-29.222004,-4.0182986,-3.6755812,64.42696,-34.463123,4.2504673,-22.060701,-25.18952,12.530618,53.049957,-10.002151,15.000033,5.79623,1.3394644,0.28942552,17.395563,15.664126,-11.024053,57.5776,-17.10218,7.830127,3.9835176,-6.911973,-24.071098,35.710968,54.785362,14.690358,3.2240295,-2.959019
78,-21.619945526123047,-24.421192169189453,71.19407653808594,1.424041535135882,11.412812057706141,175.33832787039015,-28.533062,-5.9854765,-2.8200707,63.88897,-34.872623,5.154051,-25.645823,-26.28477,15.260747,59.592113,-9.291029,15.000033,5.202008,0.4231874,0.6639122,16.473059,15.59696,-11.210732,56.967106,-16.878164,8.092735,4.5192614,-5.8242936,-24.518917,35.30251,55.603855,14.940202,3.3790798,-2.9849916
79,-22.070592880249023,-25.200695037841797,70.92337036132812,1.8178296490762813,11.338225192282913,175.67051207156126,-28.005081,-7.187191,-2.415819,63.720783,-35.489925,5.8605833,-29.215498,-26.55109,16.918242,65.9052,-8.639,11.555239,4.715002,0.096661255,0.95730764,15.47243,15.602359,-11.438767,56.217937,-16.60725,8.38318,5.0777326,-4.705526,-24.946215,34.922085,56.398724,15.1795635,3.5678349,-2.956884
80,-22.52959632873535,-25.899337768554688,70.65139770507812,1.9530189184005637,11.263394568462228,175.97807857011043,-27.5389,-8.087802,-2.182052,63.752865,-36.161446,6.5232854,-32.3285,-26.412676,18.105013,71.3901,-8.399235,8.184514,4.2173023,-0.023305716,1.2377524,14.40794,15.706605,-11.691791,55.307796,-16.375793,8.650092,5.630884,-3.5287998,-25.348574,34.54445,57.10246,15.409388,3.7986155,-2.8817515
81,-22.98870086669922,-26.562114715576172,70.36344146728516,2.1099967212353583,11.15544339746345,176.32964394590897,-27.090967,-8.981905,-1.9479084,63.902706,-36.798855,7.220365,-34.769485,-25.911242,19.38841,75.98207,-8.791349,6.594987,3.644987,-0.21322751,1.5600992,13.276216,15.93911,-11.976381,54.204956,-16.197514,8.892005,6.1815,-2.2848053,-25.717566,34.162937,57.68348,15.649296,4.088891,-2.74288
82,-23.44406509399414,-27.1997013092041,70.08350372314453,2.280449760149686,11.027647999312403,176.71315661180046,-26.663826,-9.870236,-1.7214644,64.134384,-37.40663,7.9376364,-36.786293,-25.078588,20.730852,80.11006,-9.665265,6.1306424,3.0190687,-0.47360122,1.910287,12.075712,16.301281,-12.313659,52.917225,-16.034746,9.136646,6.7337523,-0.9834502,-26.047539,33.7822,58.178154,15.893359,4.430017,-2.5427291
83,-23.899494171142578,-27.795616149902344,69.82404327392578,2.416884800923396,10.910314957757802,177.1306898810985,-26.233072,-10.722122,-1.5589241,64.34615,-37.970352,8.661462,-38.557827,-23.994356,21.920023,83.90184,-10.734254,6.1196623,2.3482852,-0.73364675,2.2407336,10.828074,16.776463,-12.705478,51.476524,-15.893368,9.375764,7.2625594,0.37802905,-26.337421,33.38806,58.620308,16.094847,4.79051,-2.3165193
84,-24.36721420288086,-28.3774471282959,69.59611511230469,2.4736005969156225,10.833312008902505,177.58658556754435,-25.769905,-11.5073595,-1.5186344,64.43647,-38.475353,9.380004,-40.27998,-22.756176,22.76082,87.444016,-11.689341,5.869383,1.6361134,-0.91726863,2.5093973,9.552552,17.339323,-13.148589,49.917053,-15.776392,9.598479,7.745335,1.7997808,-26.589588,32.973244,59.04236,16.212624,5.138847,-2.098871
85,-24.855262756347656,-28.935428619384766,69.40998077392578,2.4398685052728277,10.81127973961557,178.0996770272395,-25.292374,-12.221806,-1.6293497,64.424965,-38.94112,10.10202,-42.008156,-21.308084,23.266338,90.79524,-12.460572,5.236858,0.85899514,-1.0042393,2.7097392,8.225215,17.983517,-13.641646,48.247288,-15.699639,9.796151,8.193553,3.2947094,-26.803783,32.5273,59.433624,16.213232,5.4781265,-1.8836561
86,-25.358795166015625,-29.478776931762695,69.25138092041016,2.3420239490918204,10.826358398912612,178.6629581172777,-24.801336,-12.875964,-1.8561258,64.357025,-39.37433,10.828222,-43.647408,-19.641111,23.508114,93.89783,-13.197251,4.5843873,0.020955805,-1.0308474,2.8626466,6.839718,18.707516,-14.196326,46.45271,-15.654854,9.975285,8.615396,4.8550873,-26.979708,32.06358,59.788746,16.128498,5.8206873,-1.6564568
87,-25.89482879638672,-30.027271270751953,69.13833618164062,2.1890162921950327,10.85865951689665,179.2433122576245,-24.236893,-13.463187,-2.163144,64.16006,-39.731842,11.540163,-45.178253,-17.923609,23.4033,96.62227,-13.890858,3.9661071,-0.840467,-1.0009727,2.9714272,5.447366,19.487188,-14.815861,44.529305,-15.603935,10.14696,8.98698,6.450626,-27.124033,31.60867,60.1449,16.007439,6.1496787,-1.4401965
88,-26.482826232910156,-30.576068878173828,69.07351684570312,1.9916028921708948,10.88891092947329,179.80789743340964,-23.54103,-13.9794445,-2.5134966,63.760296,-39.97031,12.220516,-46.591137,-16.335611,22.884699,98.83753,-14.539561,3.4236932,-1.6920722,-0.913454,3.040575,4.0939946,20.288763,-15.497676,42.482655,-15.50793,10.320762,9.287798,8.045386,-27.250412,31.195177,60.54287,15.902721,6.4487553,-1.2592726
89,-27.095609664916992,-31.12160301208496,69.06666564941406,1.7385578240850386,10.902906528516358,-179.64584182615246,-22.682447,-14.400587,-2.904717,63.152096,-40.111485,12.866052,-47.9231,-14.973355,21.88056,100.53716,-15.155353,2.876948,-2.5330439,-0.7437097,3.0769951,2.769854,21.098856,-16.257734,40.320965,-15.3687,10.496031,9.541781,9.660745,-27.37272,30.849586,61.01101,15.862147,6.669577,-1.1234413
90,-27.741321563720703,-31.69161605834961,69.11534118652344,1.4307006784156795,10.914649467701603,-179.10039591647538,-21.69562,-14.734437,-3.3542252,62.372272,-40.168407,13.489636,-49.18494,-13.757445,20.46664,101.77503,-15.734431,2.3235793,-3.3821456,-0.49048433,3.082206,1.4499246,21.916403,-17.09276,38.04593,-15.19945,10.66679,9.753604,11.308762,-27.497295,30.551973,61.51439,15.8526535,6.8370943,-1.0193322
91,-28.420793533325195,-32.27118682861328,69.212158203125,1.0973693867395073,10.945704531371865,-178.559246378954,-20.623047,-15.022966,-3.8542862,61.41277,-40.082073,14.096953,-50.325428,-12.594784,18.79926,102.50731,-16.251194,1.919778,-4.2365894,-0.18708666,3.0518727,0.17527226,22.724197,-17.954296,35.63934,-14.966634,10.833546,9.875428,12.946873,-27.62645,30.252846,61.994255,15.791927,7.0453267,-0.93727607
92,-29.129413604736328,-32.867069244384766,69.36735534667969,0.7678019389202858,11.017576320432282,-178.02644381345803,-19.509407,-15.3063965,-4.3963637,60.268166,-39.796677,14.690778,-51.305695,-11.383052,17.0336,102.68925,-16.677128,1.820612,-5.095892,0.13717528,2.9791205,-1.0218824,23.50078,-18.791336,33.097485,-14.636161,10.994734,9.861521,14.529774,-27.760914,29.903622,62.3962,15.594077,7.38823,-0.8679859
93,-29.8586368560791,-33.464134216308594,69.57141876220703,0.4275161808539583,11.148040674202102,-177.48418120544483,-18.365154,-15.535449,-5.0132,58.923378,-39.346924,15.000033,-52.15729,-10.074113,15.14566,102.28052,-16.999115,2.0735362,-5.968242,0.5079901,2.8479965,-2.1595788,24.24076,-19.598385,30.385891,-14.162275,11.172234,9.690354,16.064829,-27.900597,29.493458,62.7313,15.178083,7.9334,-0.80010223
94,-30.606075286865234,-34.06838607788086,69.81986999511719,0.021365273691757367,11.333932633177811,-176.9374197411278,-17.198906,-15.62281,-5.701466,57.436703,-38.777454,15.000033,-52.908,-8.707183,13.025863,101.28584,-17.221296,2.5696747,-6.847906,0.9852825,2.6622667,-3.2525556,24.949696,-20.39742,27.527723,-13.572229,11.354002,9.3907,17.577997,-28.046192,29.040741,63.0147,14.605833,8.616595,-0.7376702
95,-31.362756729125977,-34.69892883300781,70.11741638183594,-0.3768787231430982,11.539308460801543,-176.4209373874144,-15.99275,-15.673625,-6.3662095,55.80973,-37.99183,15.000033,-53.511894,-7.349242,10.851581,99.75643,-17.363829,3.2781963,-7.7149315,1.4824221,2.4563205,-4.2492604,25.621769,-21.171484,24.594421,-12.932602,11.485737,8.994382,19.042013,-28.203123,28.553,63.208378,14.019862,9.333438,-0.6962191
96,-32.137752532958984,-35.35798645019531,70.45576477050781,-0.7561053022650158,11.742028259251743,-175.97398005127013,-14.763344,-15.675262,-6.918164,54.09107,-36.922375,15.000033,-53.92115,-6.0320206,8.711216,97.7339,-17.433949,4.132616,-8.547807,1.9749854,2.2563074,-5.118128,26.246826,-21.90575,21.679192,-12.31714,11.513045,8.53624,20.427387,-28.381773,28.03929,63.274166,13.564059,9.980451,-0.6972102
97,-32.95627212524414,-36.02394485473633,70.84046936035156,-1.1220943580330092,11.93413555314628,-175.60943818247813,-13.468988,-15.614274,-7.3562875,52.22188,-35.577282,15.000033,-54.102493,-4.7186537,6.6120615,95.15064,-17.44575,5.1961603,-9.339215,2.468928,2.0703435,-5.836186,26.810421,-22.562675,18.75651,-11.710584,11.421769,7.9749875,21.748863,-28.591722,27.519224,63.17354,13.268291,10.594689,-0.822685
98,-33.80934143066406,-36.70478057861328,71.26776123046875,-1.4736238092018596,12.126632921735318,-175.3062969894157,-12.117395,-15.519169,-7.7073607,50.202446,-33.994205,15.000033,-54.087086,-3.4018261,4.540787,91.996414,-17.397179,6.4655256,-10.103052,2.9746451,1.8851107,-6.4264975,27.313238,-23.151283,15.802639,-11.082021,11.234568,7.31337,23.024567,-28.836897,26.976934,62.923176,13.060554,11.212407,-1.0385337
99,-34.6871223449707,-37.40869140625,71.72634887695312,-1.7914020538085984,12.325128497355339,-175.05398159481405,-10.802491,-15.436124,-7.928576,48.179043,-32.144497,15.000033,-53.90874,-2.1427677,2.5418963,88.40054,-17.266178,7.7786365,-10.844203,3.4737892,1.6950072,-6.932656,27.771637,-23.733892,12.912448,-10.485195,10.956829,6.652613,24.22641,-29.119175,26.370914,62.5697,12.934944,11.726523,-1.1944362
100,-35.60808181762695,-38.155704498291016,72.21005249023438,-2.0602633874725202,12.535445805729001,-174.84246897662732,-9.616414,-15.403605,-7.989887,46.293118,-29.986582,15.000033,-53.595573,-0.9993135,0.6470061,84.49542,-17.02821,8.978676,-11.566532,3.9492855,1.4944977,-7.3764944,28.207329,-24.368307,10.1576605,-9.967298,10.599189,6.0923095,25.334213,-29.435583,25.64825,62.152103,12.869792,12.030092,-1.1387416
101,-36.538116455078125,-38.93061447143555,72.71014404296875,-2.289920632468526,12.76304240327973,-174.67740546002548,-8.57098,-15.401773,-7.86804,44.54484,-27.423616,15.000033,-53.133984,0.09306801,-1.09784,80.20919,-16.692867,10.08256,-12.279132,4.4140544,1.2825192,-7.7465577,28.632519,-25.056969,7.5284314,-9.564415,10.174924,5.6558266,26.3608,-29.790804,24.764116,61.64136,12.892831,12.0461645,-0.8095926
102,-37.49094772338867,-39.71427536010742,73.2125244140625,-2.484072529637879,13.002143674797747,-174.56125357337342,-7.616131,-15.432405,-7.589075,42.86756,-24.500504,15.000033,-52.493404,1.1406097,-2.7161167,75.485634,-16.262552,11.139362,-12.976791,4.8704953,1.0655957,-8.032756,29.04798,-25.77119,4.9826884,-9.251281,9.678752,5.2927737,27.324507,-30.184858,23.743515,61.01164,12.995884,11.849813,-0.2938686
103,-38.45370864868164,-40.50916290283203,73.70431518554688,-2.621849927731324,13.242919587402135,-174.47804422082493,-6.751614,-15.542977,-7.214994,41.29038,-21.365643,15.000033,-51.670536,2.0223963,-4.3080034,70.489265,-15.695064,12.06355,-13.639202,5.286217,0.84632355,-8.247783,29.456402,-26.52206,2.5359097,-8.972558,9.095697,4.990246,28.176432,-30.602276,22.675076,60.34639,13.131716,11.558417,0.3361256
104,-39.42576217651367,-41.29100036621094,74.1845474243164,-2.6825490942170256,13.475972766781764,-174.41076172793237,-5.9716573,-15.765118,-6.8105497,39.821777,-18.151318,15.000033,-50.660202,2.6455884,-5.9954815,65.38951,-14.943999,12.795799,-14.247851,5.625187,0.6234717,-8.411895,29.862442,-27.323439,0.21340233,-8.673712,8.410474,4.7350817,28.855833,-31.01519,21.64986,59.747116,13.244399,11.286498,1.0053463
105,-40.416542053222656,-42.09090042114258,74.63513946533203,-2.703247184654951,13.728476867010507,-174.3661046577786,-5.357158,-16.04478,-6.3316407,38.510044,-14.778136,15.000033,-49.405907,3.0452278,-7.924041,60.00633,-13.90349,13.319967,-14.795134,5.922088,0.37011328,-8.570249,30.282595,-28.219755,-1.9717268,-8.302994,7.5729427,4.545059,29.326532,-31.406506,20.67895,59.289734,13.373821,11.019363,1.7903063
106,-41.41862869262695,-42.906272888183594,75.05644226074219,-2.6769360213916555,13.99199443607839,-174.34225167665988,-4.858063,-16.364458,-5.764177,37.274036,-11.188123,15.000033,-47.888058,3.3217611,-10.029452,54.283947,-12.603273,13.709562,-15.297133,6.1692085,0.09472778,-8.706645,30.722197,-29.193363,-4.033777,-7.9038963,6.608707,4.421842,29.60576,-31.770254,19.725372,58.933006,13.523911,10.708421,2.694848
107,-42.42182922363281,-43.730281829833984,75.43657684326172,-2.5386523157477927,14.206422231110126,-174.3125373868452,-4.2764816,-16.77695,-5.205854,35.930923,-7.55526,15.000033,-46.16831,3.4912534,-12.14907,48.579956,-11.19062,14.04831,-15.760753,6.285149,-0.15118383,-8.770987,31.163208,-30.174744,-5.9672933,-7.563367,5.615264,4.3257713,29.675316,-32.10168,18.845882,58.642696,13.618155,10.411511,3.5310116
108,-43.422576904296875,-44.557861328125,75.77108764648438,-2.297574639609938,14.327236135665325,-174.25456456099104,-3.4666176,-17.256916,-4.880154,34.396713,-4.111356,14.374542,-44.311085,3.5980985,-14.186588,43.20323,-9.788479,14.381612,-16.199516,6.2620664,-0.3180629,-8.703075,31.576195,-31.083841,-7.7567277,-7.357883,4.6890025,4.2114296,29.533281,-32.39403,18.08261,58.372345,13.555878,10.184546,4.1101274
109,-44.43007278442383,-45.361328125,76.06280517578125,-2.129349582425594,14.369665589421228,-174.16733907858983,-2.5109274,-17.733965,-5.50078,32.858315,-1.0241727,10.929958,-42.094437,3.822131,-16.484974,37.66655,-8.193072,14.664299,-16.626104,6.2501907,-0.3746916,-8.502409,31.945435,-31.921621,-9.41163,-7.3268723,3.793933,4.067992,29.131308,-32.64476,17.476124,58.16843,13.260341,10.067152,4.371626
110,-45.448219299316406,-46.182899475097656,76.29158782958984,-1.8464055755330568,14.319787111577252,-174.04335066417087,-1.2966263,-18.438938,-6.6746264,31.076721,1.8356209,6.5073247,-39.59363,4.0218954,-18.877907,32.097748,-6.4599395,14.942572,-17.041458,6.085138,-0.36580822,-8.221412,32.27103,-32.73161,-10.902582,-7.413526,2.9011855,3.9100316,28.491531,-32.859886,16.989552,58.03842,12.796346,10.019206,4.417329
111,-46.469173431396484,-46.98210525512695,76.44136810302734,-1.5243669040037837,14.200247740373161,-173.89709893925794,0.060353678,-19.145416,-8.002287,29.34328,4.1763396,1.5739024,-37.04732,4.307546,-21.064045,26.870197,-4.7160544,15.000033,-17.41156,5.8505554,-0.30724928,-7.8704925,32.548836,-33.50259,-12.146375,-7.546855,2.1131842,3.73009,27.698626,-33.04146,16.574562,57.901684,12.291654,9.977204,4.2989206
112,-47.48237991333008,-47.77820587158203,76.51142120361328,-1.2146668081809706,14.042291046823253,-173.72396648525284,1.4008467,-19.662594,-9.019232,27.964222,5.8718514,-3.3531206,-34.774937,4.626112,-22.66566,22.571568,-3.1973488,15.000033,-17.71827,5.6190853,-0.22489579,-7.468908,32.770332,-34.226234,-13.050957,-7.661967,1.5311762,3.5242994,26.825243,-33.194695,16.185925,57.68938,11.875896,9.87636,4.0673194
113,-48.48166275024414,-48.57155990600586,76.49127197265625,-1.0032813771968117,13.86510727671755,-173.55783553335704,2.7357008,-19.892612,-9.639295,26.901545,7.0095735,-8.717086,-32.726517,4.989804,-23.773506,19.155943,-1.7384467,15.000033,-17.92451,5.46648,-0.12484413,-7.007262,32.923557,-34.91813,-13.589578,-7.7959666,1.1812078,3.279579,25.895525,-33.319866,15.811193,57.379036,11.549436,9.696583,3.6831336
114,-49.475067138671875,-49.337890625,76.38526916503906,-0.8616401895197945,13.676922362980033,-173.41665781507956,3.9715981,-19.93247,-9.912037,26.237831,7.6295614,-14.541987,-30.8627,5.3263283,-24.497126,16.530256,-0.36178803,15.000033,-18.028486,5.3610454,-0.02208039,-6.4817543,32.99151,-35.57615,-13.785919,-7.9547367,1.0102268,2.9957142,24.846725,-33.40821,15.484622,57.036026,11.246192,9.474234,3.1329856
115,-50.465213775634766,-50.21144104003906,76.21175384521484,-0.542476913596647,13.486385449118258,-173.38314278473584,4.935358,-19.845095,-8.105458,25.99733,8.007005,-15.000033,-29.957897,5.022878,-24.379028,16.28734,-0.10780856,15.000033,-17.940771,5.111657,0.03199082,-5.9113426,32.989857,-36.166615,-13.687176,-8.041205,0.9995015,2.7033398,23.62285,-33.47753,15.209526,56.70246,11.011916,9.226884,2.5166905
116,-51.45854949951172,-51.1161994934082,76.01483917236328,-0.24523203854819434,13.357126028162417,-173.35009783196512,5.0832014,-19.54647,-5.841152,27.227797,7.694076,-15.000033,-29.941177,4.3594775,-23.395166,17.96241,-1.0820422,15.000033,-17.713943,4.9416785,0.047918886,-5.383071,32.89592,-36.764553,-13.261474,-7.9616575,1.1164265,2.46435,22.375546,-33.575733,14.883347,56.25304,10.875103,8.985363,1.9524107
117,-52.41773223876953,-51.92279052734375,75.83356475830078,-0.3155169383467177,13.341335768274913,-173.54562437220332,4.0543947,-18.57451,-3.066189,30.677011,6.0631304,-15.000033,-30.75325,4.230352,-21.312313,20.90316,-2.9811738,11.23484,-17.21908,5.115594,0.054424103,-4.7901964,32.693893,-37.251995,-12.490567,-7.6702876,1.3863915,2.2234368,20.965181,-33.669037,14.617286,55.799614,10.895901,8.729574,1.4275334
118,-53.37377166748047,-52.712345123291016,75.59518432617188,-0.621742920351108,13.340410783799385,-173.81221919098778,2.4929857,-16.976889,-0.10380219,35.448437,3.5611289,-15.000033,-32.24019,4.519114,-18.256369,25.106619,-5.489685,5.479976,-16.591303,5.5116925,0.103845574,-4.155519,32.394512,-37.67275,-11.38166,-7.2330136,1.8133551,1.980689,19.443245,-33.753387,14.377609,55.30034,11.03073,8.452768,0.9000585
119,-54.322635650634766,-53.49658203125,75.28587341308594,-0.9420942787564227,13.266251584479274,-174.04258119672252,0.9042707,-15.067415,2.5990176,40.66997,0.8176184,-15.000033,-33.7965,5.032784,-15.218249,29.626696,-8.040649,-0.34153724,-15.918245,5.9035983,0.22306341,-3.5422487,32.017258,-38.03095,-10.003382,-6.6488347,2.3590047,1.7414888,17.84956,-33.8391,14.184015,54.731163,11.208369,8.181213,0.38289505
120,-55.28624725341797,-54.29267120361328,74.890869140625,-1.104918992101683,13.094262356344469,-174.18365772394566,-0.49454573,-13.1800585,4.8075,45.776268,-1.6589031,-15.000033,-34.853355,5.3295293,-13.168943,33.57493,-10.443481,-4.4472804,-15.25216,6.121388,0.3999584,-2.9800847,31.598763,-38.298004,-8.443061,-5.9189796,2.9829195,1.5114757,16.21005,-33.93444,14.064229,54.072506,11.339467,7.9429092,-0.111936
121,-56.21982192993164,-55.07910919189453,74.4411849975586,-1.062093866304234,12.820258914659876,-174.2130753055487,-1.7589141,-11.356726,6.633234,50.922527,-3.8409286,-15.000033,-35.303394,4.968075,-12.519303,36.975273,-13.136621,-6.2515774,-14.601277,6.1254582,0.6165197,-2.4565108,31.16911,-38.46369,-6.6924653,-4.9503655,3.7118278,1.1831805,14.5317955,-34.041817,14.039366,53.309,11.441995,7.7521157,-0.55184734
122,-57.13285827636719,-55.848140716552734,73.94439697265625,-0.9560000747792059,12.472309979108475,-174.20242802260762,-3.0045888,-9.438108,8.145061,56.34649,-6.005957,-15.000033,-35.446926,4.132364,-12.677093,40.27375,-16.240265,-6.7517443,-13.900635,6.048502,0.89790374,-1.9363216,30.740376,-38.53296,-4.7651176,-3.7773957,4.549306,0.78788185,12.70748,-34.16815,14.15845,52.52321,11.613185,7.5904818,-0.9533343
123,-58.00441360473633,-56.612281799316406,73.4087142944336,-0.8924188895864013,12.112726437775732,-174.23324569179087,-4.2853303,-7.4913936,9.180794,61.768402,-8.132597,-15.000033,-35.4367,3.150444,-13.084713,43.381752,-19.323786,-6.582683,-13.143654,5.993785,1.2480966,-1.3565612,30.322206,-38.447132,-2.7920794,-2.595108,5.426042,0.5413743,10.833321,-34.299873,14.313039,51.615147,11.697329,7.443613,-1.3702127
124,-58.84178161621094,-57.336544036865234,72.86640167236328,-0.9555301699701405,11.8051933029607,-174.3718563567645,-5.6828094,-5.609646,9.606336,66.92168,-10.191448,-15.000033,-35.42816,2.4392262,-13.171975,46.16797,-21.934582,-6.379819,-12.291773,6.0392413,1.6746304,-0.7035413,29.92637,-38.1925,-0.8948008,-1.6076841,6.283606,0.6714222,8.810148,-34.4361,14.537006,50.66685,11.688099,7.2936172,-1.8633933
125,-59.665740966796875,-58.064449310302734,72.34356689453125,-1.086874827739561,11.57895905989885,-174.5985331156068,-7.303865,-3.8556962,9.511824,71.869286,-12.164527,-14.477137,-35.555347,2.048213,-12.791729,48.766876,-24.002241,-6.1559715,-11.363217,6.133142,2.1715975,-0.0025237247,29.564953,-37.756645,1.0251662,-0.9122429,7.135891,1.262372,6.631351,-34.5872,14.874652,49.65266,11.561882,7.119917,-2.4836724
126,-60.49557876586914,-58.76808166503906,71.88346862792969,-1.2061128493571371,11.413762897853493,-174.8651564737664,-9.1365795,-2.2152774,9.121583,76.72258,-14.052349,-13.129953,-35.76291,1.6962188,-12.242669,51.28845,-25.775856,-5.613457,-10.380707,6.2158704,2.7180111,0.7578275,29.247217,-37.145947,2.9634693,-0.40263468,8.011541,2.1933374,4.2678027,-34.743877,15.346704,48.594456,11.388794,6.940493,-3.1860847
127,-61.25857162475586,-59.49631881713867,71.49236297607422,-1.333785347872683,11.301123537808119,-175.18028652092838,-11.110162,-0.7737124,8.354966,81.28133,-15.833822,-11.878032,-35.939007,1.3683101,-11.607868,53.551685,-27.31137,-4.915418,-9.377272,6.319354,3.2598965,1.6951305,28.975977,-36.334053,4.6475763,0.020317117,8.878524,3.381855,1.8874025,-34.844776,15.758061,47.38866,11.100612,6.7994437,-3.8862736
128,-61.97007751464844,-60.23367691040039,71.1537094116211,-1.3828986259705003,11.249635571416604,-175.5132328352676,-13.148915,0.41789567,7.3992777,85.30232,-17.442389,-10.793386,-36.040985,0.931513,-10.915074,55.481514,-28.715612,-4.1828694,-8.393485,6.370261,3.711066,2.8928096,28.752502,-35.332653,5.8266954,0.4603929,9.708525,4.7456594,-0.4039226,-34.824356,15.941104,46.017815,10.647371,6.7368503,-4.5075374
129,-62.63874053955078,-60.992820739746094,70.86875915527344,-1.3088710112676583,11.297383598813086,-175.89652938317306,-15.340857,1.2499619,6.2343974,88.781746,-18.85533,-9.934721,-36.116096,0.37420982,-10.144837,57.07173,-29.997408,-3.4126847,-7.414325,6.3126564,4.0564337,4.400509,28.579767,-34.09887,6.403258,1.1478145,10.612173,6.432475,-2.6912582,-34.630756,15.820531,44.553204,9.894221,6.815858,-5.1008897
130,-63.37645721435547,-61.75242233276367,70.63553619384766,-1.160994192084349,11.427300772984617,-176.33234941973402,-17.70518,1.7581884,4.816633,91.85459,-20.104809,-9.248812,-36.148342,-0.21018557,-9.314505,58.352528,-31.120136,-2.543442,-6.4248376,6.1652846,4.3274417,6.1716237,28.466566,-32.65414,6.532261,1.949583,11.582201,8.428389,-4.999555,-34.26192,15.502633,43.016716,8.869592,6.9972544,-5.6916304
131,-64.1523666381836,-62.53213119506836,70.43783569335938,-0.9939196950672267,11.564666784172024,-176.75298097584138,-20.075012,2.1533175,3.2919335,94.48765,-21.212107,-8.624727,-36.01123,-0.80093294,-8.49784,59.29784,-32.114304,-1.6125475,-5.434208,5.972322,4.532904,8.096387,28.42179,-31.129684,6.342901,2.426132,12.389806,10.418572,-7.395672,-33.761353,15.213513,41.54421,7.878978,7.1615863,-6.166976
132,-64.96444702148438,-63.297908782958984,70.27725219726562,-0.8631097363597561,11.634503522106442,-177.09129299558413,-22.294353,2.6662083,1.7862884,96.638885,-22.19903,-7.948044,-35.592194,-1.3927268,-7.762104,59.883488,-32.997517,-0.66075414,-4.4922376,5.7886925,4.661093,10.123662,28.436674,-29.613724,5.9423995,2.1639578,12.772646,12.094063,-9.568164,-33.18491,14.998152,39.92283,7.100522,7.1838193,-6.413637
133,-65.77983856201172,-64.05905151367188,70.18724822998047,-0.8011001984693978,11.597654029912215,-177.32458222469995,-24.359388,3.3502424,0.22646059,98.32243,-23.063835,-7.2259803,-34.83483,-1.9800384,-7.124425,60.08935,-33.783375,0.30971208,-3.5942435,5.664546,4.731668,12.306837,28.48656,-28.077358,5.194484,0.908266,12.501033,13.406141,-11.453503,-32.555943,14.767176,38.040733,6.6507998,7.0212584,-6.338793
134,-66.59291076660156,-64.85133361816406,70.18033599853516,-0.7746328455976976,11.499467978340988,-177.49134966262523,-26.363316,4.0946727,-1.4252826,99.555626,-23.793571,-6.4975348,-33.812622,-2.5787656,-6.55052,59.937115,-34.457317,1.3115239,-2.719323,5.572446,4.7422013,14.665805,28.547646,-26.487926,4.0812154,-1.0423014,11.73074,14.487032,-13.114902,-31.881218,14.475402,35.929024,6.40017,6.740088,-6.021373
135,-67.43348693847656,-65.67874145507812,70.24673461914062,-0.7409691307071915,11.39150658064016,-177.61643822064914,-28.30589,4.9026694,-2.9959102,100.29603,-24.396654,-5.6912665,-32.618835,-3.2219331,-6.0249743,59.46326,-34.98299,2.3301623,-1.8585117,5.4555554,4.6681166,17.0352,28.611187,-24.961224,2.9111102,-3.2760973,10.780894,15.312851,-14.620419,-31.208658,14.307125,33.761604,6.2491627,6.378608,-5.602515
136,-68.2817611694336,-66.52635192871094,70.37801361083984,-0.6577944893254518,11.326038570863984,-177.72486424460163,-30.182007,5.7870083,-4.300963,100.5044,-24.887386,-4.731478,-31.347305,-3.9411142,-5.529306,58.70323,-35.323044,3.3542187,-1.00694,5.2672505,4.4926567,19.249552,28.677408,-23.603407,1.9865348,-5.3978944,9.986246,15.890281,-16.03074,-30.600414,14.456749,31.696625,6.1085353,5.9780855,-5.2176356
137,-69.16627502441406,-67.39463806152344,70.57073974609375,-0.4913767953081336,11.318615001585343,-177.81621764780505,-32.028843,6.8688107,-5.2034855,100.16319,-25.273386,-3.5144134,-30.014353,-4.773486,-5.0349655,57.647408,-35.51225,4.399022,-0.14941767,4.986679,4.195885,21.242718,28.756874,-22.463963,1.3965292,-7.5212407,9.387531,16.158098,-17.340504,-30.1096,15.036398,29.710495,6.093601,5.501009,-4.864617
138,-70.05291748046875,-68.26365661621094,70.81066131591797,-0.2714430764283239,11.34072815400874,-177.88039375095912,-33.833336,8.1105995,-5.8055506,99.29868,-25.574326,-2.112403,-28.580053,-5.6972437,-4.5567675,56.283264,-35.54664,5.472024,0.7164792,4.659977,3.8046837,23.090443,28.837484,-21.487349,0.9786927,-9.798538,8.844615,16.135319,-18.48138,-29.735945,15.914719,27.684086,6.2300506,4.9480815,-4.471149
139,-70.95796966552734,-69.13570404052734,71.10987091064453,-0.050144329039494784,11.378884592988575,-177.92730510336855,-35.49991,9.291335,-6.274564,97.93836,-25.81825,-0.7162342,-27.050114,-6.6490293,-4.136867,54.64217,-35.33546,6.5482287,1.5738655,4.336134,3.368896,24.830471,28.888477,-20.62243,0.67725295,-11.886896,8.420675,15.982891,-19.437645,-29.447573,16.928152,25.658272,6.2841215,4.4137206,-4.073255
140,-71.87590789794922,-70.01900482177734,71.46363067626953,0.119234601362821,11.420368548031028,-177.96649628501586,-36.93408,10.19893,-6.7920294,96.11216,-26.014639,0.48677358,-25.423716,-7.5600533,-3.8132627,52.756798,-34.793625,7.5962815,2.4000523,4.0628705,2.9301288,26.487656,28.870737,-19.821125,0.45998687,-13.434403,8.165458,15.869215,-20.19905,-29.19744,17.91656,23.686869,6.005056,3.9873545,-3.7166655
141,-72.82859802246094,-70.93561553955078,71.87779998779297,0.21449978822679377,11.498734779517317,-178.00202585354242,-38.15171,10.854115,-7.3496842,93.77244,-26.168736,1.5014455,-23.662954,-8.401648,-3.6120758,50.482742,-33.909874,8.635439,3.1852956,3.8496575,2.4477801,28.06078,28.763844,-19.062265,0.3662995,-14.256311,8.177152,15.796675,-20.832968,-28.970655,18.942684,21.82212,5.2124357,3.7102435,-3.4164147
142,-73.79939270019531,-71.86457824707031,72.3328857421875,0.2689558783049579,11.609714072970835,-178.0270652895398,-39.16556,11.361335,-7.861539,90.92856,-26.281881,2.4111989,-21.776323,-9.208632,-3.4963214,47.860996,-32.73263,9.667287,3.9227912,3.6706405,1.9076817,29.522604,28.571442,-18.369274,0.43543878,-14.555269,8.40056,15.698931,-21.35926,-28.769892,20.087511,20.064404,4.059612,3.5226283,-3.154015
143,-74.78702545166016,-72.8008041381836,72.8224868774414,0.30717248902734984,11.683464031164442,-178.0358567813435,-39.88264,11.649355,-8.407631,87.69092,-26.339005,3.1600294,-19.82767,-9.997548,-3.4095955,45.189133,-31.268194,10.635811,4.6021476,3.5221093,1.3905271,30.853039,28.300987,-17.764915,0.6375127,-14.56051,8.646376,15.641638,-21.723701,-28.576859,21.220034,18.41794,2.8054304,3.361443,-2.9273868
144,-75.8114013671875,-73.75457763671875,73.34783935546875,0.35094583654132455,11.650108251821022,-178.02286324960932,-40.218853,11.649845,-9.071284,84.16779,-26.32267,3.6946702,-17.893236,-10.781465,-3.298381,42.77654,-29.52019,11.494239,5.2197394,3.4003599,0.9773664,32.035458,27.96961,-17.274971,0.9359923,-14.502135,8.725839,15.693625,-21.85661,-28.36426,22.192017,16.875591,1.7002991,3.1657844,-2.7346709
145,-76.85501861572266,-74.72374725341797,73.89099884033203,0.3993502690479044,11.473120842487951,-177.99275884830328,-40.070038,11.293177,-9.90358,80.26165,-26.226114,3.975943,-15.909502,-11.552705,-3.1478524,40.56875,-27.404795,12.258242,5.7788258,3.3073437,0.7031034,33.083954,27.597153,-16.925303,1.3289404,-14.304917,8.59031,15.935954,-21.721407,-28.110933,22.94858,15.399704,0.6801309,2.93797,-2.5636537
146,-77.92013549804688,-75.71731567382812,74.4360122680664,0.4382282219869046,11.195865393693742,-177.945720158612,-39.49756,10.677346,-10.87631,75.95345,-26.064445,4.067975,-13.87672,-12.29667,-2.9810061,38.45998,-24.949835,12.944986,6.2816486,3.241112,0.51968116,34.01358,27.199419,-16.688229,1.8197613,-13.896918,8.34242,16.315193,-21.367874,-27.816353,23.565945,14.0169325,-0.35577723,2.704349,-2.4192657
147,-78.98904418945312,-76.7245101928711,74.9705581665039,0.4709248990684964,10.866439553886819,-177.86952513657536,-38.674377,9.964314,-11.940008,71.460594,-25.832096,4.054819,-11.969302,-13.021052,-2.8030562,36.681534,-22.322073,13.512072,6.720908,3.188772,0.3857161,34.821423,26.786573,-16.504358,2.3679633,-13.512113,8.018806,16.698452,-20.871513,-27.490208,24.100563,12.829701,-1.2030451,2.4425802,-2.326063
148,-80.07345581054688,-77.7507095336914,75.48717498779297,0.5036211510220228,10.532693299394957,-177.75197764230467,-37.773098,9.284933,-13.0206,66.98201,-25.51871,3.9934175,-10.357629,-13.742374,-2.6216075,35.461533,-19.683975,13.918161,7.0904794,3.1354468,0.26150414,35.493378,26.365225,-16.318602,2.9410367,-13.387887,7.651741,16.94986,-20.302183,-27.148241,24.607859,11.933297,-1.6561254,2.1321054,-2.3067474
149,-81.15388488769531,-78.7831039428711,75.97916412353516,0.5491225127862445,10.186687636521208,-177.57770214513332,-36.736557,8.61055,-14.114639,62.34761,-25.154,3.8174574,-9.058387,-14.478257,-2.4158132,34.841805,-16.975279,14.078259,7.3905177,3.071501,0.1518257,36.022053,25.938576,-16.134398,3.5503364,-13.64691,7.166865,17.029863,-19.630476,-26.797274,25.096024,11.329277,-1.5302625,1.7060497,-2.4224458
150,-82.226806640625,-79.82352447509766,76.4408187866211,0.6026488185215493,9.807554264041963,-177.35724070921904,-35.492317,7.882164,-15.244131,57.486973,-24.713816,3.5012896,-7.992922,-15.227766,-2.194243,34.70523,-14.138607,14.031417,7.6248174,3.0037568,0.07654088,36.419266,25.507633,-15.973575,4.2011657,-14.144671,6.573871,17.007101,-18.836294,-26.43833,25.539871,10.971787,-0.97595,1.1957085,-2.6363647
151,-83.28697967529297,-80.85771179199219,76.8636474609375,0.6482747292817793,9.42459725875177,-177.11793914034251,-34.19974,7.156395,-16.353848,52.75695,-24.108515,3.1448066,-7.184411,-15.9884205,-2.002297,35.03469,-11.335747,13.923392,7.797124,2.9417424,0.019812794,36.692547,25.072617,-15.814399,4.855862,-14.719068,6.0291085,16.907797,-17.98591,-26.075691,25.935804,10.867298,-0.29259706,0.72938615,-2.8265872
152,-84.3419418334961,-81.90234375,77.24202728271484,0.6702595913817172,9.068151444046284,-176.88703686688473,-33.034676,6.481602,-17.38917,48.542797,-23.25284,2.8543727,-6.6486025,-16.746296,-1.8759822,35.798737,-8.719553,13.897835,7.9099665,2.8943691,-0.03536194,36.85042,24.632137,-15.632274,5.47684,-15.207094,5.6886177,16.762995,-17.157415,-25.714632,26.285793,11.029639,0.22981963,0.43938848,-2.8781831
153,-85.37755584716797,-82.95140075683594,77.56818389892578,0.6791786128677252,8.753036896180653,-176.6571770787799,-32.041542,5.8556323,-18.368383,44.832928,-22.070333,2.671586,-6.312041,-17.653019,-2.119078,36.9015,-6.2214565,14.187485,7.963037,2.8502934,-0.09988334,36.883865,24.176596,-15.408947,6.0694127,-15.631054,5.6517043,16.538816,-16.353598,-25.353544,26.572826,11.483445,0.5485042,0.38352996,-2.744264
154,-86.397216796875,-83.98748779296875,77.84855651855469,0.6830027572740484,8.461664371185028,-176.41854356782196,-31.133465,5.2315326,-19.298996,41.459896,-20.621296,2.5291257,-6.186891,-18.684134,-2.5933867,38.380844,-3.781073,14.613078,7.9542074,2.8072362,-0.16255587,36.786884,23.70385,-15.160345,6.6558685,-16.053083,5.817295,16.235435,-15.545971,-24.988897,26.809235,12.2154875,0.810346,0.4857992,-2.4945195
155,-87.41055297851562,-85.03130340576172,78.07968139648438,0.648955769445425,8.179893839389317,-176.19780318567902,-30.316175,4.6129875,-20.128555,38.611492,-19.046902,2.3848479,-6.409156,-19.545843,-2.6976388,40.362705,-1.5557615,14.732061,7.888196,2.7995095,-0.21383911,36.57785,23.228878,-14.912929,7.2174845,-16.370794,6.038263,15.937028,-14.761196,-24.625612,27.036558,13.180132,1.009098,0.67940634,-2.1927958
156,-88.41031646728516,-86.08052825927734,78.26256561279297,0.5860075547694603,7.8895070513559995,-176.0104448753269,-29.589392,3.9735856,-20.791037,36.467087,-17.476925,2.2171574,-7.1053405,-19.962208,-1.842784,42.95271,0.29465887,14.176014,7.7631474,2.8188138,-0.23284906,36.28058,22.777216,-14.693674,7.7259135,-16.48707,6.1659718,15.7262335,-14.0151005,-24.273903,27.286457,14.3219595,1.140453,0.8971211,-1.9024289
157,-89.40165710449219,-87.12478637695312,78.39266967773438,0.41444406291623365,7.601040343934497,-175.87451968703883,-29.083715,3.3508365,-21.33823,35.260838,-15.717967,2.1713018,-8.458122,-19.604832,0.31184858,46.397102,1.847027,12.514238,7.605261,2.9321203,-0.23718217,35.895706,22.359379,-14.517783,8.183349,-16.398542,6.107162,15.638629,-13.283511,-23.939093,27.528973,15.655838,1.1921235,1.147434,-1.5939522
158,-90.37403869628906,-88.16707611083984,78.45452117919922,0.16148513566455935,7.31791925036322,-175.7723275298415,-28.7773,2.7410934,-21.78464,34.852592,-13.7839365,2.2240648,-10.267565,-18.579018,3.2895644,50.503464,3.2510257,10.167511,7.4122653,3.113263,-0.22653869,35.415134,21.977558,-14.372304,8.592706,-16.156763,5.9582844,15.626531,-12.5499525,-23.622965,27.746944,17.183784,1.1727695,1.4571213,-1.2493271
159,-91.3309326171875,-89.204833984375,78.42152404785156,-0.115345422217561,7.023038008344616,-175.69575294971858,-28.487053,2.1771479,-22.08882,34.924786,-12.154929,2.0662742,-12.096793,-17.15072,6.441454,54.715446,4.4215584,8.019955,7.172647,3.3195133,-0.1798269,34.84915,21.648148,-14.246425,8.925672,-15.7505455,5.8543954,15.64752,-11.828041,-23.333187,27.982752,18.823671,1.1060324,1.7851974,-0.9485558
160,-92.27253723144531,-90.22579956054688,78.29014587402344,-0.34918337341786154,6.702111749716982,-175.63701120933464,-28.026157,1.679322,-22.216232,35.155483,-11.311117,1.3863248,-13.588426,-15.705196,9.228023,58.547203,5.1365385,6.8902445,6.8781414,3.496556,-0.077652775,34.208797,21.39487,-14.13118,9.149472,-15.171801,5.930827,15.657395,-11.130222,-23.081861,28.273972,20.493374,1.0192688,2.0906541,-0.771893
161,-93.1998291015625,-91.24691772460938,78.06474304199219,-0.5452669016791737,6.349607776866559,-175.60756442311722,-27.292841,1.324394,-22.119883,35.43191,-11.414711,-0.29006118,-14.638201,-14.231283,11.704587,61.92214,5.112787,7.2172136,6.5396776,3.6469069,0.090752475,33.491234,21.238348,-14.033887,9.263571,-14.2932825,6.2573147,15.640258,-10.460953,-22.880049,28.639416,22.197964,0.90007395,2.362736,-0.7619376
162,-94.11216735839844,-92.27015686035156,77.76898193359375,-0.7272586145207361,5.976315714775309,-175.6025077616785,-26.430603,1.0587977,-21.79169,35.965908,-12.233641,-2.6579862,-15.446875,-12.587658,14.105793,65.183525,4.4090085,8.479302,6.165051,3.785032,0.31173187,32.693386,21.181444,-13.966465,9.272964,-13.168382,6.7510786,15.613695,-9.787846,-22.730635,29.036034,23.949007,0.7439106,2.6233907,-0.8688075
163,-95.0229263305664,-93.28245544433594,77.3642349243164,-0.8480540633364977,5.596206538927414,-175.59410285708682,-25.621727,0.7052123,-21.262081,36.914566,-13.637946,-4.8629007,-16.216894,-11.073197,16.247507,68.48971,3.2938924,9.972926,5.743552,3.8636093,0.56310385,31.825117,21.2187,-13.926331,9.156636,-12.058248,7.318276,15.584696,-9.078767,-22.635832,29.413317,25.68484,0.5905382,2.881371,-1.0336607
164,-95.95577239990234,-94.30060577392578,76.87909698486328,-0.8680431643493939,5.220383754456736,-175.56156529996184,-25.015516,0.102186784,-20.627224,38.380177,-15.447594,-6.071334,-17.161676,-9.9564,17.988022,71.952255,2.1151268,11.007998,5.269603,3.8450506,0.8252933,30.896229,21.339561,-13.90941,8.893404,-11.22339,7.86563,15.568133,-8.299403,-22.594799,29.721197,27.341331,0.47661403,3.1428525,-1.1976714
165,-96.87239837646484,-95.32225036621094,76.32246398925781,-0.7539689494703481,4.820272831590676,-175.5267588661246,-24.61358,-0.8226873,-19.909191,40.494556,-17.831635,-5.902124,-18.363157,-9.466972,19.243565,75.65358,0.9432057,11.398226,4.7525153,3.7052186,1.106881,29.928951,21.538513,-13.9201,8.493314,-10.739686,8.345214,15.569943,-7.463079,-22.615559,29.983904,28.928083,0.3684786,3.4015481,-1.3304492
166,-97.75634765625,-96.35753631591797,75.7286148071289,-0.5350641614249471,4.400599353957769,-175.49972748721615,-24.334703,-2.0087492,-19.102516,43.122013,-20.766222,-4.8557606,-19.757027,-9.452458,20.16571,79.504265,-0.3728504,11.463207,4.1995344,3.4709177,1.4098918,28.908642,21.81527,-13.964154,7.9651628,-10.464458,8.814965,15.585432,-6.5783806,-22.702436,30.212595,30.46657,0.2628545,3.6559794,-1.4680364
167,-98.6209487915039,-97.39263153076172,75.08158111572266,-0.2709031141853268,4.018628283722499,-175.44216899538105,-24.180134,-3.380284,-18.303736,45.937485,-23.76693,-3.4410365,-21.317617,-9.570302,20.973928,83.33037,-1.7705278,11.296904,3.5996811,3.1836028,1.70536,27.79222,22.167671,-14.0347805,7.284117,-10.330646,9.341502,15.61917,-5.6083703,-22.84516,30.341478,31.911451,0.23720653,3.9254692,-1.6509793
168,-99.49578094482422,-98.44497680664062,74.39604949951172,-0.022029955749067603,3.730701210770761,-175.31406405078351,-24.154045,-4.8051167,-17.576807,48.64416,-26.392662,-2.1715035,-22.984358,-9.437633,21.852549,86.953445,-3.1882827,11.0345335,2.941829,2.8858285,1.9638565,26.537117,22.594982,-14.124233,6.424185,-10.271542,9.991357,15.675286,-4.520398,-23.023699,30.305954,33.225773,0.3686335,4.2274475,-1.9202534
169,-100.3358383178711,-99.46766662597656,73.6705322265625,0.23255650914772594,3.5420674025627945,-175.10274426002627,-24.33057,-6.2844524,-16.891607,51.355198,-28.61254,-1.098151,-24.747643,-8.902176,22.95732,90.45545,-4.64324,10.678123,2.203511,2.552505,2.1751192,25.136202,23.100985,-14.204505,5.323668,-10.348771,10.849811,15.773921,-3.3375647,-23.226528,30.083618,34.440784,0.71328086,4.5332136,-2.2803426
170,-101.16407775878906,-100.47563171386719,72.93441772460938,0.5127044716387019,3.423510420190409,-174.82864841454526,-24.67234,-7.826273,-16.243608,54.185364,-30.665619,0.03145069,-26.608047,-8.149108,24.13638,93.88736,-6.14859,10.196403,1.3985536,2.1728265,2.3497193,23.618153,23.687927,-14.28659,4.006095,-10.575089,11.8590355,15.912325,-2.0686438,-23.448841,29.706621,35.572716,1.2150773,4.8404613,-2.7131073
171,-101.95262145996094,-101.43809509277344,72.2380142211914,0.7600994722286459,3.381508950073312,-174.49861593370008,-25.021961,-9.295346,-15.69903,56.843777,-32.530518,1.1482568,-28.534288,-7.313001,25.093925,97.029396,-7.6326413,9.667555,0.56334203,1.8078557,2.4911044,21.993883,24.349817,-14.421293,2.5740962,-10.80894,12.870383,16.055609,-0.672795,-23.67841,29.202824,36.578934,1.7866552,5.2056084,-3.2259061
172,-102.74622344970703,-102.31924438476562,71.66349029541016,0.9196935074419286,3.424778182942748,-174.1202063760717,-25.232645,-10.594302,-15.301167,59.027756,-34.151115,2.1679816,-30.536177,-6.56996,25.557281,99.658226,-9.023303,9.141501,-0.26934364,1.5161265,2.6036747,20.26617,25.073647,-14.666435,1.1356176,-10.906177,13.735765,16.163424,0.8891765,-23.898731,28.602867,37.42243,2.3385768,5.685972,-3.8264215
173,-103.56900787353516,-103.17425537109375,71.19832611083984,0.9759759639420461,3.6357269160910537,-173.64855596591536,-25.391031,-11.744572,-15.069979,60.68747,-35.466232,3.0363092,-32.77581,-6.024952,25.43402,101.77139,-10.312857,8.628445,-1.1417538,1.3210778,2.6556673,18.37509,25.874052,-15.05029,-0.3278193,-10.888049,14.45249,16.315754,2.6442065,-24.092411,27.866938,38.107124,2.8199375,6.3160853,-4.570103
174,-104.4022445678711,-104.01803588867188,70.80316162109375,0.9661043003480404,3.9832402350348044,-173.09255882253996,-25.535568,-12.801877,-14.954574,61.97126,-36.503506,3.8038526,-35.216946,-5.616873,24.891409,103.46499,-11.531654,8.08657,-2.055869,1.1833911,2.6532965,16.33493,26.748116,-15.557647,-1.8696336,-10.8204,15.088621,16.505562,4.5627737,-24.255571,26.993216,38.67331,3.2892137,7.054381,-5.4365067
175,-105.26167297363281,-104.85575103759766,70.48516845703125,0.9129634457180151,4.3064060727639655,-172.54165153291095,-25.448988,-13.738544,-14.888787,62.859634,-37.32784,4.5422997,-37.581005,-5.278653,24.042103,104.65851,-12.664034,7.4684,-2.9361668,1.0708578,2.6649675,14.260397,27.632442,-16.159855,-3.4211948,-10.609293,15.600356,16.55361,6.5755825,-24.39421,26.098186,39.144745,3.825494,7.8463264,-6.3214006
176,-106.15709686279297,-105.67671203613281,70.27151489257812,0.8321082404745527,4.443998155966995,-172.0863337150843,-24.914764,-14.52605,-14.816172,63.336872,-38.00635,5.3267136,-39.588173,-4.920009,23.003458,105.27048,-13.69387,6.7403526,-3.7269857,0.9615119,2.759388,12.2686615,28.432354,-16.79632,-4.8858047,-10.132418,15.93919,16.272638,8.584542,-24.518656,25.329084,39.55723,4.504945,8.638947,-7.1248612
177,-107.08222198486328,-106.50946044921875,70.15774536132812,0.7150512696292758,4.296724555953323,-171.74381742037687,-23.772966,-15.133043,-14.741549,63.351696,-38.571346,6.1699834,-41.145863,-4.5431814,21.73527,105.2738,-14.625538,5.790859,-4.4272046,0.8693901,3.0180454,10.321753,29.078661,-17.427656,-6.1845317,-9.171895,16.030235,15.48809,10.580476,-24.631737,24.733793,39.915867,5.436317,9.523687,-7.9376006
178,-108.04556274414062,-107.35330200195312,70.17074584960938,0.5474278545078282,3.9682038618843416,-171.46659157863317,-22.17389,-15.587845,-14.691668,62.93273,-38.974957,7.052814,-42.381107,-4.1734533,20.191452,104.7055,-15.4769535,4.699134,-5.094329,0.8216613,3.3815148,8.373494,29.558187,-18.06035,-7.3344336,-7.811819,15.894128,14.332954,12.563351,-24.73868,24.27738,40.241302,6.5561533,10.488774,-8.790094
179,-109.01837158203125,-108.18597412109375,70.26948547363281,0.3383997929945663,3.6032149142736523,-171.25000831265913,-20.371378,-15.945974,-14.643921,62.191704,-39.17037,7.9951673,-43.36388,-3.7481651,18.485962,103.58266,-16.240013,3.7094808,-5.756452,0.81358093,3.7104309,6.50792,29.876724,-18.703531,-8.359496,-6.389326,15.634071,13.079901,14.449429,-24.860464,23.975885,40.58163,7.6721077,11.336628,-9.483193
180,-110.0086669921875,-109.01769256591797,70.44596099853516,0.10201428386594869,3.3467793782694693,-171.09051916796417,-18.613323,-16.249235,-14.579407,61.238407,-39.121307,8.998818,-44.177757,-3.2103224,16.7383,101.9185,-16.895248,3.059101,-6.439131,0.84413755,3.8682146,4.804659,30.051516,-19.3684,-9.287928,-5.2450624,15.380021,11.992335,16.167433,-25.024818,23.838474,40.96626,8.584282,11.882667,-9.8029785
181,-111.01124572753906,-109.85929870605469,70.67469024658203,-0.18084557425014952,3.2213137279291395,-170.99498025185392,-16.879387,-16.435831,-14.493149,60.02269,-38.901318,10.083674,-44.849224,-2.529906,14.913117,99.659225,-17.457138,2.7805867,-7.1333017,0.92595994,3.8243308,3.297734,30.085382,-20.063427,-10.139794,-4.4193864,15.179423,11.106507,17.729515,-25.251364,23.926798,41.40223,9.303251,12.050182,-9.62836
182,-112.03038787841797,-110.73006439208984,70.96366882324219,-0.509494081949259,3.1551355680122266,-170.96422375181487,-15.063385,-16.490063,-14.389784,58.52258,-38.522137,11.230832,-45.324837,-1.7313826,12.971251,96.79682,-17.922783,2.767543,-7.8271837,1.0656136,3.6584737,1.950078,29.97985,-20.781641,-10.902366,-3.7483175,14.968654,10.290534,19.179459,-25.548187,24.199274,41.84715,9.914488,11.962004,-9.082016
183,-113.06076049804688,-111.61875915527344,71.29534149169922,-0.8343333334700852,3.152352908265868,-170.9875619062961,-13.279848,-16.521267,-14.262556,56.882885,-37.859158,12.371765,-45.58826,-0.8555104,11.03988,93.41075,-18.238434,3.028007,-8.530583,1.2502868,3.3988683,0.7543137,29.757153,-21.514778,-11.583056,-3.2559738,14.731022,9.550734,20.530876,-25.918924,24.486025,42.2224,10.314608,11.736122,-8.308284
184,-114.10649871826172,-112.5263900756836,71.67011260986328,-1.1057276549702457,3.2175269233226618,-171.0538669572655,-11.644837,-16.63568,-14.1023245,55.240803,-36.782173,13.437209,-45.635994,0.046414748,9.254653,89.58115,-18.348886,3.5570126,-9.246669,1.4608094,3.0748804,-0.29523602,29.450476,-22.255533,-12.20406,-2.9733937,14.450492,8.897709,21.798155,-26.361862,24.61892,42.44572,10.404297,11.483708,-7.452616
185,-115.1769027709961,-113.45071411132812,72.08432006835938,-1.300692295737347,3.3793670498755852,-171.18690681248947,-10.16955,-16.875282,-13.914035,53.544407,-35.22708,14.484256,-45.49427,0.9631401,7.660294,85.24009,-18.24813,4.370296,-9.967604,1.6831301,2.6569827,-1.1484774,29.075382,-23.004784,-12.802748,-3.090756,14.131568,8.414868,22.987408,-26.884565,24.593283,42.471157,9.960819,11.176603,-6.421028
186,-116.26905059814453,-114.41043853759766,72.53516387939453,-1.4906056141619124,3.6425100616892157,-171.37767521345606,-8.8431635,-17.047256,-13.674155,51.78681,-33.314735,15.000033,-45.16832,1.9362345,6.149209,80.31886,-17.932478,5.419263,-10.694731,1.9708763,2.1402748,-1.8107467,28.635653,-23.76181,-13.37671,-3.5416932,13.788627,8.070948,24.117168,-27.487146,24.471642,42.3209,9.1088915,10.75873,-5.182926
187,-117.37028503417969,-115.39497375488281,73.02336883544922,-1.7262526530481874,3.961819121409634,-171.5694425503454,-7.6955156,-17.114647,-13.3812065,50.15572,-31.1452,15.000033,-44.613583,2.9698439,4.697643,74.90077,-17.371794,6.6181054,-11.439957,2.3650677,1.5971061,-2.3578377,28.149248,-24.514948,-13.903734,-3.968761,13.418696,7.708037,25.21024,-28.142565,24.194681,42.025837,8.263253,10.307998,-3.9758692
188,-118.49107360839844,-116.39694213867188,73.5259017944336,-1.9090627875660768,4.239473612825173,-171.72429665402208,-6.64092,-17.267883,-13.012607,48.687557,-28.712511,15.000033,-43.774002,3.982133,3.4598608,69.17239,-16.597168,7.927778,-12.190329,2.7463655,1.1200424,-2.8768485,27.642365,-25.262209,-14.355559,-4.024787,13.015277,7.17444,26.27777,-28.80504,23.702679,41.630135,7.829552,9.922604,-3.0285258
189,-119.62498474121094,-117.41216278076172,74.03144836425781,-2.0717045608861677,4.4890711404468355,-171.82173827592797,-5.7596793,-17.471472,-12.552083,47.46906,-25.918472,15.000033,-42.58793,5.0330515,2.4717739,62.88051,-15.610726,9.364174,-12.971922,3.1429532,0.7032341,-3.3773768,27.134205,-26.013834,-14.739155,-3.6273332,12.590465,6.4087715,27.302313,-29.439856,22.94159,41.166008,7.9917665,9.598993,-2.3978713
190,-120.76608276367188,-118.426513671875,74.53417205810547,-2.1935716054120715,4.729281391599884,-171.88426782806957,-5.0142627,-17.748293,-12.029328,46.39007,-22.748169,15.000033,-41.05615,6.0683894,1.7566025,55.957497,-14.384788,10.907444,-13.775419,3.5310555,0.31367022,-3.81992,26.632025,-26.776165,-15.068904,-2.9721339,12.135127,5.5080385,28.27276,-30.032545,21.95395,40.629745,8.4891,9.304038,-1.9596076
191,-121.90929412841797,-119.43447875976562,75.01622772216797,-2.185236278878129,4.907950249742534,-171.921208488722,-4.236579,-18.171204,-11.493293,45.265293,-19.34825,15.000033,-39.26792,6.9023285,1.2892627,48.88326,-12.892929,12.458075,-14.553058,3.7964282,-0.022699168,-4.212253,26.144855,-27.54271,-15.336754,-2.1267588,11.610552,4.561049,29.158527,-30.56841,20.85562,40.057095,9.078714,9.096445,-1.6692287
192,-123.05043029785156,-120.44180297851562,75.46253204345703,-1.9707980065601152,4.978721312121763,-171.9437334529639,-3.2570806,-18.777575,-10.976606,43.89037,-15.858627,15.000033,-37.354973,7.394288,0.9859909,42.214344,-11.131571,13.957677,-15.260908,3.835827,-0.2871592,-4.5597177,25.683468,-28.30112,-15.533147,-1.1598426,10.981492,3.6560805,29.942184,-31.03253,19.754526,39.471294,9.5017185,9.03169,-1.4860787
193,-124.2094497680664,-121.45561218261719,75.85260772705078,-1.5925792948749593,4.92970027271798,-171.95208958092357,-2.051628,-19.571104,-10.657669,42.21905,-12.23791,14.592372,-35.219357,7.623155,0.6589988,35.726677,-8.831333,15.000033,-15.910768,3.6689413,-0.46735188,-4.855595,25.263943,-29.067549,-15.666054,0.11079708,10.182718,2.7592356,30.604277,-31.41185,18.642355,38.903503,9.744079,9.169482,-1.4549098
194,-125.38214111328125,-122.42057037353516,76.19046783447266,-1.4178109431719828,4.850807124059852,-171.89366518386834,-0.90534645,-20.129908,-11.080132,40.76109,-8.826131,10.941109,-32.579075,8.006324,0.017291162,28.491814,-5.679503,15.000033,-16.576708,3.6429946,-0.5541337,-5.0859113,24.900177,-29.837742,-15.745091,1.6449721,9.240427,1.8552701,31.136532,-31.693312,17.500599,38.354893,9.918041,9.461227,-1.5853081
195,-126.54774475097656,-123.38336944580078,76.46434020996094,-1.0631962597619709,4.6962074754055765,-171.7615468752253,0.4485589,-20.81746,-11.699496,39.1067,-5.6718273,6.3459525,-29.841116,8.131422,-0.46282545,21.639313,-2.440621,15.000033,-17.229017,3.396849,-0.597432,-5.2685475,24.590265,-30.57693,-15.76341,3.0444932,8.277253,1.0508494,31.535917,-31.882095,16.401646,37.800045,9.960553,9.799658,-1.7799256
196,-127.69058990478516,-124.35425567626953,76.68106842041016,-0.6161892603180134,4.510725466096247,-171.5873260931026,1.9284456,-21.379171,-12.184913,37.43731,-3.0497203,1.0217985,-27.396841,8.022766,-0.8661579,15.990298,0.29934007,15.000033,-17.816776,3.0283854,-0.61454445,-5.4132676,24.322887,-31.240402,-15.710122,3.926074,7.4282837,0.4322277,31.810675,-31.991924,15.415155,37.206425,9.796021,10.07845,-1.9411949
197,-128.80206298828125,-125.3167495727539,76.8283920288086,-0.26270031122371146,4.353568922744262,-171.42280307030663,3.58651,-21.584372,-12.541615,35.58623,-0.89934736,-6.0328565,-25.405539,7.829074,-1.4766257,11.785905,2.4375396,15.000033,-18.295424,2.7376223,-0.5971993,-5.534351,24.090103,-31.829937,-15.566429,4.2081857,6.7014046,0.04423832,31.952631,-32.032017,14.533151,36.55574,9.277037,10.306671,-2.069014
198,-129.89193725585938,-126.26831817626953,76.90130615234375,-0.04322149893228819,4.241868963145222,-171.29062990002538,5.221486,-21.52819,-12.725783,33.84656,0.6676998,-14.56764,-23.753632,7.646265,-2.2893157,8.6729,4.228863,15.000033,-18.658993,2.5707376,-0.5486123,-5.620436,23.895111,-32.356068,-15.343051,4.100579,6.0450745,-0.18115872,31.931847,-32.0111,13.740359,35.890068,8.487095,10.52878,-2.2040303
199,-130.962890625,-127.35822296142578,76.88440704345703,0.41552999866595697,4.125558639822062,-171.36060495223126,6.4970584,-21.381401,-10.146666,32.536495,1.912128,-15.000033,-23.421465,7.088924,-2.7531123,8.762829,4.523925,15.000033,-18.735504,2.2207835,-0.52826,-5.662875,23.71619,-32.788094,-15.078801,3.6573274,5.509416,-0.32361084,31.704716,-31.978506,13.068818,35.274857,7.6990676,10.68923,-2.3029284
200,-132.01609802246094,-128.43751525878906,76.85706329345703,0.8353788266209761,4.119828279823158,-171.4038820441773,6.5973244,-21.04635,-7.0900273,33.27449,2.2572803,-15.000033,-23.63331,6.495957,-2.843171,10.03803,4.28177,15.000033,-18.677462,1.93154,-0.58688104,-5.7050047,23.487612,-33.163025,-14.704717,2.957784,5.1389813,-0.48424315,31.38998,-31.91655,12.499813,34.681744,7.1631246,10.736109,-2.333576
201,-133.05104064941406,-129.44110107421875,76.8045883178711,1.111810547749251,4.151565649779778,-171.44266958677684,5.4524636,-20.207438,-3.7554927,36.56282,1.3035244,-15.000033,-23.945665,6.0473638,-2.400524,11.823975,4.0063934,15.000033,-18.532965,1.7570865,-0.64012486,-5.660602,23.237116,-33.399918,-14.260658,1.8789855,4.962337,-0.67616373,30.889519,-31.860167,12.180889,34.175625,7.0111766,10.625562,-2.2876225
202,-134.07652282714844,-130.39390563964844,76.70004272460938,1.2156060087153484,4.172832529665427,-171.51432967841757,3.653135,-18.724516,-0.3211809,41.505867,-0.62467104,-15.000033,-24.318836,5.781432,-1.5770526,14.162617,3.655569,15.000033,-18.266335,1.7251234,-0.62074614,-5.556623,22.963093,-33.519714,-13.740344,0.4341626,4.9527426,-0.8565576,30.2547,-31.816666,12.040717,33.686974,7.0851793,10.398361,-2.180265
203,-135.0978546142578,-131.3551025390625,76.52008819580078,1.2028862100582212,4.172483416301064,-171.62904916542007,1.750899,-16.806658,2.7840397,47.00552,-2.9001508,-15.000033,-24.808971,5.6648555,-0.5344323,16.995472,2.9218957,15.000033,-17.875563,1.7943499,-0.5361872,-5.4137583,22.667406,-33.530174,-13.159736,-1.1055679,5.0754786,-1.0420305,29.505835,-31.79113,12.027896,33.217968,7.2856693,10.121492,-2.0482066
204,-136.08998107910156,-132.3011016845703,76.27991485595703,1.08572428195337,4.1600404300524305,-171.78716551626837,0.04906536,-14.673838,5.3709197,52.27942,-4.9623966,-15.000033,-25.450565,5.7181497,0.35989836,20.16793,1.5537542,14.045593,-17.3693,1.9625243,-0.40422994,-5.243401,22.358345,-33.43607,-12.536885,-2.468421,5.2963433,-1.2516619,28.658745,-31.784346,12.10047,32.77751,7.513276,9.861225,-1.9310958
205,-137.0702667236328,-133.2406768798828,75.97098541259766,0.8614814717872235,4.164822936546683,-171.9807287538186,-1.5054573,-12.27857,7.629961,57.38147,-6.633353,-15.000033,-26.444714,5.95865,1.0687841,24.002676,-0.81642115,10.957536,-16.744486,2.2452102,-0.25641537,-5.0334973,22.033932,-33.21618,-11.8536215,-3.691843,5.6116366,-1.5432901,27.720407,-31.793795,12.259475,32.36843,7.8109255,9.598067,-1.8023897
206,-138.03262329101562,-134.16412353515625,75.61347961425781,0.6075525528296919,4.163235769627964,-172.1909403477062,-2.9990723,-9.675927,9.561554,62.57672,-8.179084,-15.000033,-27.706036,6.3289146,1.9486893,28.479904,-3.953746,7.0229316,-16.01845,2.563708,-0.09525535,-4.7779164,21.692719,-32.87649,-11.114077,-4.8840723,6.04052,-1.8836297,26.68776,-31.817915,12.520738,31.977165,8.210288,9.31006,-1.651703
207,-139.00543212890625,-135.09585571289062,75.16162109375,0.3905542977762041,4.128321122370353,-172.38348177268,-4.413856,-7.1864624,10.895855,67.622154,-9.722787,-15.000033,-28.90961,6.750802,2.8476918,32.99015,-7.2902803,3.2713547,-15.25299,2.840063,0.08529396,-4.4867163,21.351871,-32.458508,-10.376941,-5.8805494,6.574004,-2.156223,25.557617,-31.85245,12.8663435,31.590706,8.587417,9.057592,-1.5457929
208,-139.97906494140625,-136.02932739257812,74.63909149169922,0.2479592021722057,4.050260035182927,-172.53155909384162,-5.801865,-5.1264076,11.419855,72.30582,-11.393146,-15.000033,-29.808727,7.053056,3.5272424,37.041176,-10.374635,0.71672904,-14.500472,3.0283654,0.29249817,-4.1642156,21.040411,-32.003128,-9.71411,-6.5214653,7.197139,-2.2451012,24.320995,-31.890627,13.275861,31.199677,8.816322,8.899584,-1.5523877
209,-140.93679809570312,-136.9529571533203,74.0527114868164,0.18862966677479082,3.9042002676887293,-172.59920186700936,-7.245584,-3.7108834,10.993722,76.732735,-13.321028,-15.000033,-30.44986,7.038032,3.7520895,40.824566,-13.370919,-0.2286936,-13.772944,3.1104763,0.5209046,-3.8480442,20.790625,-31.5252,-9.125268,-6.7869043,7.9546156,-2.1854963,23.00098,-31.927547,13.750256,30.767883,8.858363,8.873148,-1.6452575
210,-141.87020874023438,-137.85244750976562,73.43104553222656,0.173347103412331,3.727968357788423,-172.61268867575671,-8.79234,-2.7976332,9.868667,81.0146,-15.409429,-15.000033,-31.038874,6.6874094,3.6778748,44.650845,-16.515902,-0.18288513,-13.042428,3.134858,0.76559764,-3.4968567,20.613253,-30.996862,-8.622399,-6.7660317,8.8339815,-2.0167902,21.584066,-31.959085,14.295018,30.311657,8.779563,8.938524,-1.8033507
211,-142.77890014648438,-138.71414184570312,72.82410430908203,0.1650360929452907,3.606081013540707,-172.64174439985848,-10.457829,-2.1402953,8.417074,84.96555,-17.444979,-15.000033,-31.592607,6.1119614,3.5909688,48.234142,-19.495083,0.3206693,-12.3018055,3.158924,1.031911,-2.9967434,20.498367,-30.391987,-8.288309,-6.464145,9.734213,-1.6358409,20.024614,-31.973818,14.893155,29.884596,8.605303,9.038916,-2.1029031
212,-143.6692657470703,-139.529541015625,72.2955322265625,0.1326864722243472,3.6163367764450944,-172.75325277022077,-12.254582,-1.4547248,6.959071,88.37748,-19.208359,-15.000033,-32.063908,5.5613885,3.7621384,51.202663,-21.998154,0.7811672,-11.537371,3.231995,1.3245136,-2.2519712,20.42246,-29.696316,-8.18327,-5.8859167,10.558366,-0.9411147,18.251392,-31.958015,15.537622,29.57136,8.377519,9.117838,-2.6215303
213,-144.53932189941406,-140.34388732910156,71.87805938720703,0.0847331040135093,3.838246073408997,-173.00080499741588,-14.329724,-0.72010267,5.4863596,91.23071,-20.622969,-15.000033,-32.49775,5.206855,4.2515726,53.453735,-23.902678,1.1700276,-10.691934,3.3437629,1.6337264,-1.2715073,20.373823,-28.902794,-8.295981,-4.8182826,11.233049,0.15896325,16.123772,-31.919975,16.329107,29.510199,8.1351795,9.12581,-3.4619672
214,-145.33358764648438,-141.21783447265625,71.55458068847656,0.06552477684866853,4.213230960754062,-173.32585001339206,-16.64824,-0.102132104,3.8694625,93.628075,-21.792572,-15.000033,-32.89496,4.910054,4.8855205,55.210106,-25.40145,1.7424182,-9.811503,3.4454606,1.9480548,-0.09029702,20.354738,-28.007603,-8.58927,-3.3293128,11.852539,1.5730032,13.762074,-31.843563,17.219488,29.572515,7.838048,9.110792,-4.5571523
215,-146.10787963867188,-142.14089965820312,71.31092834472656,0.06026712307568144,4.602670018752822,-173.6445046893389,-18.961336,0.48617205,2.191019,95.5475,-22.772408,-15.000033,-33.0869,4.575414,5.5594506,56.51277,-26.647701,2.43062,-8.97739,3.548774,2.2838497,1.2999754,20.354662,-27.051296,-9.052131,-1.8500042,12.560775,3.138031,11.389584,-31.681742,18.000706,29.561611,7.4498134,9.160865,-5.7303824
216,-146.90956115722656,-143.09706115722656,71.13810729980469,0.03062879704316148,4.867442724060832,-173.87880252491163,-21.031202,1.2351745,0.63250875,96.976295,-23.626986,-14.614541,-32.903057,4.115471,6.1625853,57.377003,-27.780352,3.1603127,-8.248857,3.6892898,2.6518567,2.8787618,20.346748,-26.09851,-9.6446085,-0.817178,13.474713,4.7014,9.289963,-31.378086,18.433033,29.254843,6.8867364,9.362485,-6.802801
217,-147.73361206054688,-144.0638427734375,71.01869201660156,-0.036951989767360464,4.964115987986574,-174.02036467628926,-22.83276,2.1901681,-0.8455263,97.9081,-24.369028,-13.987577,-32.27119,3.5073924,6.6701694,57.782333,-28.848627,3.9283519,-7.647852,3.887967,3.0868928,4.7070017,20.284246,-25.142038,-10.429799,-0.28177473,14.744726,6.354408,7.5220714,-30.863594,18.305014,28.575314,5.88421,9.870419,-7.7722564
218,-148.5821990966797,-145.04580688476562,70.98344421386719,-0.13767492255293012,4.966126629959371,-174.11304046946623,-24.510668,3.2769835,-2.3331623,98.359665,-24.973896,-13.269462,-31.272251,2.8230636,7.109214,57.715164,-29.780443,4.749356,-7.089858,4.121036,3.5510733,6.6828566,20.150606,-24.221287,-11.299596,-0.04789805,16.25609,8.154112,5.908949,-30.13423,17.778105,27.735474,4.538071,10.601556,-8.708558
219,-149.4431915283203,-146.0585479736328,71.05218505859375,-0.24608015698726143,4.915195944040722,-174.14432338806242,-26.091965,4.42574,-3.7899117,98.336494,-25.44112,-12.417987,-29.990057,2.0663528,7.474701,57.224243,-30.534666,5.5854445,-6.522704,4.3315153,3.9396088,8.594564,19.975964,-23.424562,-12.011488,-0.16925544,17.69825,9.905716,4.4015694,-29.270231,17.193193,26.901512,3.2946968,11.273377,-9.553248
220,-150.3139190673828,-147.0790557861328,71.20121002197266,-0.3378874869866814,4.8529999500043095,-174.10189080796258,-27.593458,5.566056,-5.1695724,97.84801,-25.776531,-11.393008,-28.519045,1.2348303,7.7727575,56.361443,-31.05819,6.416086,-5.9161263,4.474446,4.1705394,10.287177,19.819895,-22.801321,-12.40081,-0.68101496,18.75561,11.408133,3.0038557,-28.404589,16.884842,26.15812,2.6160102,11.591804,-10.264369
221,-151.18896484375,-148.1051025390625,71.42951202392578,-0.42446371723981297,4.755290171317727,-173.9714845032095,-29.00885,6.765482,-6.422084,96.88041,-26.01637,-10.125902,-26.774376,0.31417155,7.994981,54.988483,-31.350792,7.281223,-5.2833686,4.575059,4.2744775,11.795331,19.72239,-22.369719,-12.497561,-1.875471,19.284193,12.79195,1.7932819,-27.62679,16.932951,25.379711,2.9096174,11.4489155,-10.94973
222,-152.0453643798828,-149.13943481445312,71.71245574951172,-0.5123635028289516,4.612225957784476,-173.76303092978455,-30.33464,8.02227,-7.55426,95.43715,-26.177965,-8.669947,-24.750896,-0.69504607,8.14003,53.12919,-31.425327,8.190658,-4.660602,4.6681333,4.305314,13.25898,19.67922,-22.055029,-12.479994,-3.636507,19.43908,14.10296,0.8017158,-26.94291,17.171429,24.457542,3.8692465,10.995551,-11.585545
223,-152.93106079101562,-150.19049072265625,72.04414367675781,-0.5711591450931187,4.48763709412645,-173.50105500597147,-31.57237,9.169072,-8.587048,93.5599,-26.237902,-7.149565,-22.662722,-1.772709,8.235832,51.073097,-31.24128,9.095083,-4.056777,4.7236257,4.220997,14.687259,19.68355,-21.76083,-12.411303,-5.3680882,19.39077,14.9978485,-0.021056548,-26.359,17.560516,23.491451,4.8825326,10.3359,-11.940476
224,-153.84805297851562,-151.25782775878906,72.42076110839844,-0.566215078892512,4.4449187925647715,-173.20891493774278,-32.70817,10.048695,-9.540825,91.28035,-26.153814,-5.6770887,-20.721066,-2.8996217,8.318436,49.111217,-30.759779,9.935533,-3.4919395,4.706812,3.9821017,16.09559,19.72489,-21.382584,-12.359782,-6.484339,19.347576,15.142872,-0.74602634,-25.879318,18.07239,22.597282,5.3473773,9.58881,-11.800156
225,-154.7616424560547,-152.35147094726562,72.81971740722656,-0.46098353893054167,4.531109679520591,-172.8591810027355,-33.773243,10.63004,-10.36275,88.563126,-25.878183,-4.2047095,-18.946833,-4.1232996,8.387341,47.200268,-29.980797,10.722724,-2.982879,4.5722337,3.5166788,17.467525,19.802643,-20.892832,-12.299033,-6.8089356,19.404255,14.22328,-1.3977016,-25.523685,18.778355,21.807817,5.1407866,8.675314,-10.978474
226,-155.71359252929688,-153.42552185058594,73.25086975097656,-0.277951880263466,4.7020652821697,-172.44855452644674,-34.724483,10.999987,-11.02817,85.40919,-25.463652,-2.7036974,-17.244844,-5.431083,8.432588,45.230793,-28.919867,11.484552,-2.523353,4.35104,2.8728979,18.809277,19.913076,-20.339289,-12.215748,-6.656855,19.452255,12.48617,-1.9442706,-25.295853,19.677853,21.05998,4.6023417,7.5643997,-9.646708
227,-156.65402221679688,-154.5555419921875,73.71119689941406,-0.07766855577876132,4.8847467419927995,-172.03736447988942,-35.443153,11.199909,-11.625587,81.8986,-24.99603,-1.3053067,-15.649863,-6.7127743,8.487854,43.39364,-27.57116,12.175928,-2.0910816,4.1237698,2.1877396,20.150307,20.038803,-19.742344,-12.174244,-6.187431,19.396393,10.453778,-2.3720973,-25.167452,20.62644,20.329845,3.8109787,6.4481463,-8.139286
228,-157.59921264648438,-155.69888305664062,74.18533325195312,0.07826477196427199,5.007271933285864,-171.68713511909718,-35.82623,11.276086,-12.263496,78.106445,-24.548094,-0.13588549,-14.197249,-7.863114,8.5947075,41.889072,-25.937456,12.74544,-1.6572905,3.9660504,1.5910001,21.50146,20.158146,-19.131243,-12.215714,-5.5623684,19.150734,8.65324,-2.6668518,-25.094013,21.472296,19.602802,2.8126757,5.5229897,-6.7827973
229,-158.5584716796875,-156.8586883544922,74.6675033569336,0.16687516305889546,5.065742553003689,-171.41105857858307,-35.80515,11.222778,-13.008323,73.87893,-24.144346,0.7672211,-12.884403,-8.848723,8.772044,40.738777,-23.932114,13.176448,-1.2059441,3.8931909,1.0732492,22.867308,20.261768,-18.489841,-12.332268,-4.653411,18.663723,7.0706277,-2.8246813,-25.053925,22.202911,18.873438,1.2952367,4.815019,-5.5648093
230,-159.53807067871094,-158.04197692871094,75.15369415283203,0.22124085913112918,5.094543833367564,-171.17684133034388,-35.4463,11.055593,-13.815177,69.23139,-23.735046,1.4886556,-11.701164,-9.728316,9.009404,39.85682,-21.590353,13.489035,-0.7528789,3.862041,0.5696766,24.222166,20.35334,-17.816769,-12.475937,-3.4400601,17.969362,5.490597,-2.8683043,-25.048035,22.889849,18.179996,-0.6803505,4.202346,-4.350962
231,-160.5100860595703,-159.2631378173828,75.63060760498047,0.2631558091093495,5.078962457277183,-170.9794041341266,-34.86336,10.843112,-14.6243305,64.48233,-23.269678,2.079829,-10.668173,-10.538908,9.3037815,39.28338,-19.098816,13.689094,-0.31395727,3.8587408,0.1262317,25.518597,20.434223,-17.164944,-12.617608,-2.24032,17.14422,4.1329226,-2.825928,-25.065153,23.506533,17.576937,-2.5250688,3.6926959,-3.2673204
232,-161.49403381347656,-160.4718780517578,76.08692932128906,0.3156320154641225,5.004067874491812,-170.81396800912742,-34.169605,10.629583,-15.3585005,59.938248,-22.693068,2.570903,-9.79879,-11.319666,9.647371,39.045704,-16.633915,13.787998,0.10061448,3.867472,-0.21097572,26.704031,20.507277,-16.592505,-12.725253,-1.3562765,16.288029,3.204606,-2.7196448,-25.0882,24.01837,17.117443,-3.6584451,3.3237424,-2.4283903
233,-162.44386291503906,-161.7209014892578,76.52081298828125,0.3862101254612309,4.861957121331475,-170.68330483887962,-33.32065,10.400649,-16.013052,55.454742,-21.958204,2.9137633,-9.057871,-12.09158,10.038836,39.054344,-14.086383,13.824589,0.4969792,3.8872397,-0.41583157,27.76665,20.577946,-16.130594,-12.789738,-0.8908531,15.370457,2.8461332,-2.5567439,-25.104368,24.413822,16.816738,-3.871946,3.1809695,-1.8937935
234,-163.42364501953125,-162.91162109375,76.90997314453125,0.4626699012489624,4.661448041386895,-170.58943874351064,-32.28186,10.131797,-16.618069,50.922825,-21.090933,3.0952551,-8.441102,-12.831836,10.479437,39.311447,-11.400129,13.795621,0.8904285,3.9242272,-0.5211375,28.708147,20.643547,-15.758313,-12.803011,-0.65260845,14.376067,2.9109313,-2.3236914,-25.112846,24.696802,16.657892,-3.5144134,3.2434235,-1.578077
235,-164.34146118164062,-164.19776916503906,77.27040100097656,0.5400448720264683,4.411961777701393,-170.52675649747724,-31.17849,9.832499,-17.135511,46.697796,-20.14547,3.1879973,-8.004619,-13.519284,10.961448,39.96784,-8.823204,13.643961,1.2360772,3.9619777,-0.5553375,29.593737,20.7272,-15.387221,-12.832656,-0.5186591,13.431738,3.1561987,-2.053447,-25.111801,24.92164,16.650219,-2.8126123,3.397649,-1.3904055
236,-165.2567138671875,-165.49984741210938,77.59033203125,0.6141423013374719,4.12303099005289,-170.4895622929429,-30.14284,9.511846,-17.529974,43.154175,-19.180426,3.2715516,-7.8046365,-14.140651,11.473608,41.163822,-6.5996666,13.298553,1.5483427,3.9949803,-0.56226766,30.370316,20.816036,-15.015776,-12.829193,-0.35325706,12.663785,3.3583665,-1.7292401,-25.100704,25.06262,16.795595,-2.021135,3.5272162,-1.2219614
237,-166.2689208984375,-166.78848266601562,77.87301635742188,0.685360898093245,3.7766811719033573,-170.5015927665995,-29.171938,9.146717,-17.864717,40.385094,-18.126095,3.341986,-7.8759656,-14.722263,11.98635,42.968513,-4.6992517,12.69668,1.8407657,4.033181,-0.53688794,31.053091,20.88771,-14.649667,-12.791255,-0.12531722,12.124806,3.5112376,-1.3279456,-25.080853,25.101166,17.11331,-0.9952173,3.6216764,-1.0558532
238,-167.21002197265625,-168.0655059814453,78.07427215576172,0.7583454689637922,3.3754617677706813,-170.55844272998561,-28.21482,8.73801,-18.140137,38.194263,-16.975626,3.37492,-8.176716,-15.2793255,12.507635,45.262074,-3.0030777,11.871121,2.0775125,4.054283,-0.4540113,31.734306,20.997175,-14.238521,-12.8171835,0.076202676,11.741551,3.7065976,-0.8948856,-25.03063,25.086111,17.611168,0.3366332,3.7341218,-0.9516448
239,-168.1366729736328,-169.33836364746094,78.20954895019531,0.8302842510267566,2.9592929207966288,-170.61203861085428,-27.339825,8.340461,-18.232841,36.535187,-15.888486,3.4290957,-8.648014,-15.769835,13.083259,47.91016,-1.6304903,10.888026,2.26513,4.0689254,-0.35291648,32.26604,21.121971,-13.8392,-12.77986,0.25841278,11.451011,3.893459,-0.4490959,-24.965445,25.019777,18.251757,1.5912145,3.8478038,-0.90081394
