unveil-humanoid-operators/unveil-humanoid-operators.github.io/feature-analysis-animation/data/feature_matrix_instances/height_ankle_rom_gesture_dancing_A100.csv
Frame,root_translateX,root_translateY,root_translateZ,root_rotateX,root_rotateY,root_rotateZ,left_hip_pitch_joint_dof,left_hip_roll_joint_dof,left_hip_yaw_joint_dof,left_knee_joint_dof,left_ankle_pitch_joint_dof,left_ankle_roll_joint_dof,right_hip_pitch_joint_dof,right_hip_roll_joint_dof,right_hip_yaw_joint_dof,right_knee_joint_dof,right_ankle_pitch_joint_dof,right_ankle_roll_joint_dof,waist_yaw_joint_dof,waist_roll_joint_dof,waist_pitch_joint_dof,left_shoulder_pitch_joint_dof,left_shoulder_roll_joint_dof,left_shoulder_yaw_joint_dof,left_elbow_joint_dof,left_wrist_roll_joint_dof,left_wrist_pitch_joint_dof,left_wrist_yaw_joint_dof,right_shoulder_pitch_joint_dof,right_shoulder_roll_joint_dof,right_shoulder_yaw_joint_dof,right_elbow_joint_dof,right_wrist_roll_joint_dof,right_wrist_pitch_joint_dof,right_wrist_yaw_joint_dof
0,0.17004422843456268,2.601480722427368,78.50777435302734,0.4989092352570802,2.0913827201210684,-88.82307977505688,-1.9087195,6.568876,8.156151,11.029311,-9.724898,-5.2996364,1.9811842,-8.718177,-24.32914,7.7530003,-9.849787,6.1352453,-4.008503,0.9042794,5.228011,0.55170435,17.939732,-35.692142,54.88044,-21.9148,6.467572,3.3903623,-9.580892,-13.393136,40.53371,60.743942,19.498156,11.713513,-17.09676
1,0.17034776508808136,2.65206241607666,78.50715637207031,0.487102370528042,2.1277798103822967,-88.81288324065363,-2.1097069,6.594712,8.137076,11.262587,-9.781165,-5.2815704,1.8282468,-8.741148,-24.325813,7.9109397,-9.8909855,6.1091924,-3.9981139,0.89250576,5.2831836,0.6294223,17.997108,-35.516968,54.716278,-21.844292,6.4193234,3.468578,-9.605159,-13.40971,40.468857,60.698875,19.406166,11.671755,-17.074183
2,0.17617757618427277,2.70324969291687,78.50572204589844,0.475396562824783,2.1630983690217613,-88.80223295333961,-2.306854,6.6198997,8.117853,11.491376,-9.835874,-5.2638416,1.6808779,-8.762322,-24.323467,8.060374,-9.928901,6.0833483,-3.9873822,0.8831332,5.339418,0.70517224,18.052729,-35.342842,54.545197,-21.759579,6.373863,3.5433426,-9.622861,-13.437889,40.407623,60.64158,19.313324,11.6304,-17.0434
3,0.17971594631671906,2.7568857669830322,78.50454711914062,0.46363107639564166,2.2004191445999424,-88.79264507894635,-2.5110235,6.6455135,8.099042,11.727804,-9.892643,-5.246582,1.5217966,-8.78729,-24.31892,8.228094,-9.97386,6.057228,-3.9741266,0.87514687,5.3964863,0.7770027,18.10226,-35.167805,54.394608,-21.701447,6.322119,3.6248546,-9.636775,-13.470522,40.34021,60.57704,19.227219,11.591148,-17.028126
4,0.18346640467643738,2.811117172241211,78.50274658203125,0.4523589108019542,2.242536763570968,-88.78589016222188,-2.7316837,6.672198,8.081274,11.98172,-9.954189,-5.230012,1.3341489,-8.821509,-24.30887,8.437986,-10.034025,6.0308046,-3.9692118,0.8652098,5.4700203,0.8810756,18.181004,-34.963737,54.225487,-21.706274,6.2609067,3.717107,-9.638689,-13.53027,40.269474,60.46294,19.160913,11.559852,-17.049355
5,0.19015976786613464,2.867133140563965,78.49988555908203,0.43853209107144425,2.290215695387222,-88.78016204610553,-2.9720185,6.7035213,8.062083,12.256539,-10.021938,-5.2158184,1.12255,-8.859026,-24.296913,8.679506,-10.104073,6.0038476,-3.9606502,0.8591125,5.549174,0.98588675,18.258974,-34.752705,54.08305,-21.799225,6.175884,3.8284783,-9.631074,-13.597347,40.175323,60.328148,19.132391,11.537707,-17.1379
6,0.19388706982135773,2.9262030124664307,78.49673461914062,0.4233130909008394,2.341716915356957,-88.77538625245052,-3.2259402,6.737442,8.0420885,12.545696,-10.093827,-5.2033167,0.8940305,-8.899339,-24.283155,8.94282,-10.180506,5.976797,-3.949558,0.85670537,5.626333,1.0790364,18.31872,-34.53811,53.986477,-21.9529,6.0714664,3.9547045,-9.626523,-13.654864,40.066246,60.201584,19.12993,11.520427,-17.274998
7,0.19663670659065247,2.991812229156494,78.49150848388672,0.41233579839511564,2.3967959464300255,-88.77541030815648,-3.4918776,6.767826,8.026324,12.848604,-10.169249,-5.1893396,0.6315504,-8.956369,-24.259504,9.264529,-10.281623,5.949722,-3.9415026,0.8476424,5.7169027,1.1957989,18.399094,-34.304375,53.890568,-22.139204,5.9698696,4.086072,-9.610781,-13.739168,39.95974,60.030624,19.11478,11.505383,-17.407017
8,0.20095351338386536,3.068711996078491,78.4859390258789,0.4116840392102836,2.4548805319149687,-88.78435710272502,-3.7664573,6.787395,8.020281,13.161685,-10.2462635,-5.170331,0.319598,-9.043677,-24.21736,9.6770935,-10.423418,5.9229493,-3.923747,0.8240389,5.8095403,1.3100827,18.473276,-34.072834,53.859566,-22.333263,5.8838153,4.221463,-9.592286,-13.8274765,39.853703,59.84722,19.037111,11.4831705,-17.48484
9,0.20788288116455078,3.140068769454956,78.47722625732422,0.42088996976316706,2.519946456507938,-88.80274210880617,-4.056794,6.796683,8.023394,13.490286,-10.327403,-5.1456685,-0.047145396,-9.161087,-24.15616,10.182273,-10.607829,5.8989563,-3.8974872,0.786719,5.899543,1.4226916,18.538239,-33.837875,53.905945,-22.534788,5.809379,4.3666115,-9.570771,-13.91944,39.745377,59.641003,18.850897,11.457468,-17.47495
10,0.21775628626346588,3.218120813369751,78.46599578857422,0.4380936046399159,2.590784039075824,-88.82857967298985,-4.3604636,6.7975984,8.033886,13.83114,-10.410943,-5.116727,-0.4586938,-9.302271,-24.079447,10.761512,-10.82495,5.8772893,-3.8650537,0.7390063,5.9883757,1.5329885,18.592949,-33.597816,54.019,-22.75441,5.7401524,4.521678,-9.546602,-14.015243,39.632706,59.417213,18.59033,11.429948,-17.411366
11,0.2245306521654129,3.296811819076538,78.4514389038086,0.46693459271152093,2.659324726905708,-88.86202949347525,-4.665742,6.786992,8.054499,14.179913,-10.495567,-5.0834923,-0.9097959,-9.471913,-23.984854,11.423123,-11.077331,5.854051,-3.8282602,0.6773588,6.085503,1.6394709,18.638819,-33.35797,54.183075,-22.981873,5.689155,4.673204,-9.525443,-14.115012,39.533527,59.199104,18.338121,11.390601,-17.344152
12,0.23077088594436646,3.3841047286987305,78.43452453613281,0.512077131632192,2.7175418172936188,-88.9032021757213,-4.958848,6.7607527,8.088356,14.527272,-10.576771,-5.0457973,-1.3934562,-9.674909,-23.8695,12.171185,-11.365348,5.825256,-3.7897034,0.59688026,6.2007723,1.7431375,18.679018,-33.121334,54.37975,-23.206095,5.6699295,4.807696,-9.513424,-14.218801,39.465225,59.010616,18.174831,11.330045,-17.323305
13,0.23399120569229126,3.471609592437744,78.41624450683594,0.5728945844041201,2.7642441112389142,-88.95432413465973,-5.2423234,6.720853,8.137522,14.882329,-10.656497,-5.001913,-1.9153767,-9.9121685,-23.729687,13.019904,-11.694042,5.78424,-3.7479074,0.4967364,6.3363347,1.8463576,18.715292,-32.87532,54.61235,-23.422405,5.692341,4.9193425,-9.513644,-14.326411,39.439083,58.854248,18.13757,11.235176,-17.366932
14,0.24279695749282837,3.5660550594329834,78.39436340332031,0.649132177137705,2.8034680057386256,-89.01464257968154,-5.5157394,6.666256,8.201131,15.233828,-10.732305,-4.9521804,-2.4775271,-10.182203,-23.566153,13.963815,-12.060787,5.735256,-3.703775,0.37722102,6.487335,1.9509658,18.748457,-32.619946,54.88433,-23.636898,5.747584,5.0160847,-9.5250845,-14.438017,39.446205,58.720924,18.178389,11.114459,-17.446646
15,0.24761177599430084,3.659348487854004,78.36711120605469,0.7432027575187076,2.835025853599262,-89.07967239682256,-5.7794485,6.59243,8.275351,15.5819,-10.805866,-4.8997188,-3.059812,-10.480596,-23.385258,14.957587,-12.449539,5.6899357,-3.661336,0.23786026,6.654208,2.0556812,18.781044,-32.38221,55.176548,-23.857275,5.8212132,5.1052027,-9.539406,-14.551746,39.4693,58.60722,18.250275,10.991889,-17.542715
16,0.25576430559158325,3.7570431232452393,78.33718872070312,0.8570120573643779,2.8587471145966776,-89.14513887322657,-6.0307183,6.494647,8.3567,15.919486,-10.876842,-4.847779,-3.65144,-10.806622,-23.19211,15.9784975,-12.8496685,5.6603036,-3.623857,0.07748295,6.8367853,2.159096,18.8168,-32.19016,55.470116,-24.091835,5.898641,5.194042,-9.552064,-14.666003,39.491783,58.51519,18.306913,10.89124,-17.63558
17,0.2666216790676117,3.8568999767303467,78.3026351928711,0.9945575914091874,2.8751466425016163,-89.2105757428825,-6.2650485,6.365834,8.446078,16.236065,-10.940122,-4.7977686,-4.2561436,-11.166227,-22.985151,17.033033,-13.263784,5.6548657,-3.5909607,-0.10792786,7.03519,2.2613225,18.857988,-32.04445,55.76101,-24.348406,5.9904857,5.2882476,-9.564201,-14.77961,39.51323,58.45277,18.337955,10.818748,-17.72367
18,0.27327221632003784,3.959918737411499,78.26105499267578,1.15404308819512,2.8841208241890985,-89.27798282018803,-6.485839,6.210857,8.544573,16.53991,-10.998397,-4.747636,-4.8776684,-11.556559,-22.762012,18.12965,-13.695086,5.666369,-3.5600483,-0.31747642,7.249745,2.3645391,18.905468,-31.933674,56.056038,-24.621374,6.0999246,5.3828545,-9.577822,-14.8919935,39.540432,58.417095,18.36768,10.761781,-17.816402
19,0.28361108899116516,4.0666399002075195,78.21707153320312,1.3271546773022551,2.8846463945642435,-89.3467767404764,-6.7004547,6.0419726,8.649488,16.848194,-11.061511,-4.6955557,-5.5011973,-11.961874,-22.527393,19.237888,-14.131257,5.683204,-3.530942,-0.5445188,7.4814634,2.4698832,18.961391,-31.867014,56.35203,-24.899908,6.20142,5.469085,-9.587282,-15.002698,39.56316,58.39185,18.397676,10.7155,-17.910004
20,0.2937912344932556,4.180625915527344,78.16704559326172,1.5063946100545842,2.8759718019070397,-89.41631513485122,-6.915118,5.871157,8.758356,17.17625,-11.13822,-4.6396494,-6.114898,-12.368257,-22.285591,20.335564,-14.562835,5.6934156,-3.5017295,-0.7823909,7.731301,2.5769417,19.028698,-31.857233,56.64583,-25.17481,6.26945,5.5377197,-9.584507,-15.110941,39.569744,58.357296,18.431026,10.6751995,-18.000803
21,0.30389055609703064,4.288203716278076,78.11447143554688,1.6976155581315018,2.8564218511948103,-89.48724121590176,-7.124011,5.690621,8.874834,17.515701,-11.226358,-4.575994,-6.719877,-12.784159,-22.033348,21.428095,-14.993052,5.696433,-3.4702895,-1.0379138,8.00033,2.6858287,19.111025,-31.91908,56.937256,-25.466722,6.282,5.5901756,-9.568551,-15.216192,39.55205,58.308563,18.466772,10.64998,-18.087551
22,0.3085961639881134,4.408702373504639,78.05748748779297,1.9024341711775699,2.827157165811381,-89.5596337721754,-7.327507,5.4974203,8.998783,17.864376,-11.322976,-4.506913,-7.32246,-13.212623,-21.76942,22.526604,-15.426109,5.698569,-3.4363647,-1.3129176,8.288242,2.7975857,19.209684,-32.0439,57.224243,-25.774063,6.258073,5.629287,-9.542924,-15.318594,39.516506,58.25518,18.504177,10.638799,-18.172255
23,0.3130641579627991,4.5294108390808105,77.99752807617188,2.106511790616632,2.790801563349976,-89.63238340104719,-7.5370407,5.3106923,9.122372,18.238138,-11.434419,-4.4401026,-7.9121385,-13.629932,-21.502588,23.603554,-15.848275,5.6976504,-3.4022636,-1.5926988,8.594591,2.9150581,19.322554,-32.205093,57.500595,-26.051674,6.2350073,5.6488237,-9.50656,-15.418436,39.473083,58.1994,18.543753,10.622164,-18.256
24,0.31444573402404785,4.655632495880127,77.93161010742188,2.295284707555234,2.7499005970886152,-89.7044010658875,-7.7711353,5.1506305,9.237179,18.668335,-11.571515,-4.383282,-8.48124,-14.014717,-21.241901,24.636978,-16.24877,5.6909294,-3.3708878,-1.8618582,8.918653,3.0399883,19.445383,-32.37554,57.762306,-26.253834,6.2496405,5.6425295,-9.45884,-15.515678,39.433544,58.143246,18.5876,10.580679,-18.33992
25,0.31850725412368774,4.780276775360107,77.86337280273438,2.4747542358327603,2.7050583560822155,-89.77772203218822,-8.02472,5.010504,9.347655,19.145168,-11.731709,-4.338703,-9.0399475,-14.375869,-20.980486,25.642775,-16.632063,5.676788,-3.3438938,-2.1258142,9.257694,3.1686037,19.575935,-32.556114,58.017944,-26.349554,6.3215394,5.5955887,-9.400705,-15.609896,39.399906,58.08889,18.632744,10.506225,-18.420828
26,0.31630316376686096,4.904125690460205,77.79216766357422,2.6491886223082726,2.6549407269650884,-89.85227624970949,-8.292956,4.8840265,9.455967,19.661608,-11.9123,-4.30229,-9.58991,-14.721142,-20.716757,26.628496,-17.002764,5.656348,-3.3201923,-2.3888717,9.612338,3.299925,19.713732,-32.757435,58.269726,-26.368536,6.4276495,5.515813,-9.33349,-15.700788,39.368114,58.036434,18.680079,10.410266,-18.499454
27,0.3009265661239624,5.037774085998535,77.7173843383789,2.801401672208734,2.5994432228880964,-89.92352586386761,-8.587701,4.791124,9.550738,20.239098,-12.119664,-4.27241,-10.108389,-15.026654,-20.468782,27.557018,-17.351597,5.6304955,-3.2994251,-2.6332276,9.986068,3.4394274,19.85645,-32.966625,58.50605,-26.356041,6.5404353,5.4315143,-9.256874,-15.788905,39.340183,57.98661,18.735586,10.301683,-18.582773
28,0.2852913737297058,5.177352428436279,77.6371078491211,2.913999836909266,2.538419878243577,-89.98697233721124,-8.919001,4.7515674,9.620764,20.895681,-12.358199,-4.2477574,-10.576533,-15.2704525,-20.25421,28.40078,-17.668951,5.5999084,-3.2824583,-2.840744,10.382132,3.5929158,20.000761,-33.169437,58.715908,-26.35712,6.6324325,5.3711834,-9.1713705,-15.87551,39.319653,57.940872,18.805326,10.189499,-18.67786
29,0.2706027030944824,5.310865879058838,77.55614471435547,2.9883341863004764,2.4714836808713256,-90.04203550696833,-9.288336,4.7636056,9.667705,21.636488,-12.629463,-4.228881,-10.989667,-15.454176,-20.07509,29.152514,-17.955807,5.566033,-3.2708569,-3.0128865,10.800565,3.7624412,20.145067,-33.36245,58.89327,-26.365982,6.704406,5.3401904,-9.075522,-15.961458,39.296806,57.898384,18.887941,10.072118,-18.7728
30,0.2658984661102295,5.450806617736816,77.47503662109375,3.0310109669069063,2.3985920392858766,-90.0908938904922,-9.692114,4.8193617,9.695409,22.455242,-12.932986,-4.217128,-11.36155,-15.589542,-19.923717,29.837109,-18.220724,5.527543,-3.2636516,-3.155782,11.239648,3.9427938,20.288841,-33.553253,59.047554,-26.36373,6.7681804,5.3242583,-8.96891,-16.046904,39.273663,57.857834,18.981924,9.946038,-18.868273
31,0.24775511026382446,5.59365177154541,77.39450073242188,3.0319529065811763,2.3205856263199993,-90.13321506798357,-10.124441,4.927474,9.696232,23.334114,-13.259497,-4.2124157,-11.688866,-15.664053,-19.805487,30.447353,-18.45509,5.4801292,-3.259034,-3.2580636,11.699708,4.1289244,20.429821,-33.74439,59.192696,-26.377592,6.8123198,5.3222194,-8.853219,-16.132475,39.270393,57.820312,19.090277,9.817576,-18.990322
32,0.22499074041843414,5.735572338104248,77.3152847290039,2.981032763550975,2.237682553196886,-90.16861656935824,-10.5834465,5.0973425,9.661814,24.264807,-13.605144,-4.2145505,-11.970497,-15.666274,-19.725988,30.982416,-18.65422,5.419778,-3.2563884,-3.30792,12.180701,4.3152285,20.564465,-33.937798,59.343185,-26.4345,6.825465,5.3332725,-8.732302,-16.21923,39.310238,57.78917,19.218636,9.6924925,-19.164915
33,0.19658997654914856,5.880166053771973,77.23736572265625,2.859251133857947,2.1441568294076228,-90.19611447284045,-11.069382,5.351289,9.580573,25.260532,-13.97542,-4.2278986,-12.181315,-15.567954,-19.698366,31.40668,-18.799994,5.3417463,-3.2579353,-3.286534,12.688621,4.501203,20.689991,-34.13652,59.50723,-26.54611,6.7913523,5.366134,-8.605991,-16.30688,39.408695,57.763126,19.37996,9.570265,-19.429277
34,0.18034876883029938,6.028987407684326,77.15888214111328,2.6763087101087093,2.041438144070221,-90.21604011009636,-11.580468,5.676722,9.458396,26.316656,-14.370237,-4.2520804,-12.330851,-15.383674,-19.716564,31.734413,-18.901846,5.2485776,-3.2651901,-3.20386,13.2206335,4.68764,20.805046,-34.338207,59.679848,-26.695839,6.719993,5.418342,-8.473983,-16.39537,39.552242,57.743652,19.567743,9.447531,-19.759481
35,0.1506918966770172,6.185450553894043,77.0803451538086,2.46567254328698,1.9418256245236376,-90.22992529078562,-12.112044,6.0311966,9.313216,27.395132,-14.76972,-4.279275,-12.468877,-15.166409,-19.756859,32.035374,-18.993492,5.147703,-3.2751737,-3.0907354,13.764637,4.8708467,20.908175,-34.53678,59.854927,-26.86777,6.6393223,5.47222,-8.333443,-16.485065,39.71551,57.7286,19.75598,9.327697,-20.089598
36,0.13364091515541077,6.335525989532471,76.99939727783203,2.261425240290891,1.8575425497580493,-90.23954160933401,-12.658932,6.37188,9.164091,28.456516,-15.157546,-4.301346,-12.645362,-14.969282,-19.795473,32.379578,-19.109919,5.0467634,-3.2842135,-2.97853,14.308685,5.046792,20.998014,-34.72735,60.02689,-27.046747,6.577374,5.510323,-8.182076,-16.577045,39.87414,57.716187,19.92025,9.214682,-20.354073
37,0.10864567011594772,6.495389461517334,76.91202545166016,2.058657721790487,1.792430169314939,-90.23767422490842,-13.231734,6.7021337,9.000969,29.507786,-15.533332,-4.3178205,-12.860964,-14.787799,-19.839499,32.76548,-19.24929,4.9419584,-3.296298,-2.8603468,14.84978,5.2171183,21.073322,-34.90009,60.196552,-27.233244,6.5354195,5.526551,-8.007832,-16.672392,40.006763,57.69867,20.045631,9.10335,-20.538986
38,0.09305473417043686,6.659392833709717,76.81754302978516,1.8439452724350751,1.739879939883906,-90.22605793182318,-13.828904,7.0390067,8.818339,30.562803,-15.904361,-4.3328223,-13.0931635,-14.600394,-19.897045,33.162247,-19.396805,4.8309793,-3.3112419,-2.7244105,15.394247,5.381322,21.133749,-35.0621,60.368385,-27.433773,6.5004916,5.530889,-7.8151975,-16.772226,40.13089,57.678486,20.149746,8.994292,-20.67826
39,0.08136159181594849,6.814929008483887,76.71858978271484,1.6392399340122341,1.696430029224745,-90.21982430448193,-14.430326,7.361423,8.6428,31.601019,-16.268755,-4.344625,-13.359421,-14.435351,-19.945333,33.602024,-19.570063,4.7242646,-3.319568,-2.5948148,15.9441,5.5329742,21.17959,-35.232395,60.541344,-27.643158,6.47922,5.5300517,-7.623516,-16.87738,40.27501,57.66715,20.24975,8.900461,-20.778124
40,0.07465160638093948,6.983283042907715,76.61083984375,1.4669101592343678,1.6588361091657726,-90.2341887631228,-15.015432,7.6493573,8.501791,32.60108,-16.624247,-4.351331,-13.675468,-14.320515,-19.962158,34.112297,-19.784225,4.6326084,-3.3112302,-2.4955466,16.500885,5.66676,21.211267,-35.42835,60.713383,-27.85398,6.478285,5.530625,-7.4505806,-16.988087,40.466038,57.675755,20.360233,8.834466,-20.844412
41,0.07013198733329773,7.1587958335876465,76.49333953857422,1.340754005709869,1.6258407122954766,-90.28015660982727,-15.572918,7.891465,8.414091,33.549767,-16.968836,-4.3498735,-14.059404,-14.26679,-19.91793,34.7149,-20.04479,4.5658984,-3.277189,-2.4419558,17.065952,5.7793,21.22827,-35.65655,60.89142,-28.076706,6.5100036,5.5350933,-7.3075633,-17.105316,40.722515,57.71163,20.486027,8.8116045,-20.866177
42,0.07218794524669647,7.337897300720215,76.36842346191406,1.2462990794406332,1.59940017036511,-90.34739772293855,-16.11756,8.101452,8.361783,34.464226,-17.30541,-4.3419676,-14.497977,-14.257152,-19.832232,35.38895,-20.34233,4.5165377,-3.2251158,-2.417312,17.637718,5.8745875,21.230259,-35.906395,61.073322,-28.310953,6.5679255,5.5402846,-7.181935,-17.229033,41.025967,57.76669,20.61782,8.821211,-20.844597
43,0.06792798638343811,7.5162811279296875,76.23487091064453,1.1639668132467251,1.5802704987364335,-90.41885606028805,-16.666656,8.297521,8.318538,35.369152,-17.640604,-4.3326607,-14.962179,-14.279548,-19.75583,36.105423,-20.674076,4.46904,-3.1690934,-2.398145,18.214128,5.9569755,21.218035,-36.171246,61.24755,-28.534231,6.6279016,5.542881,-7.061061,-17.357538,41.35393,57.83189,20.75701,8.837796,-20.804256
44,0.07211469113826752,7.693483829498291,76.0977554321289,1.0738822103016314,1.5691160702317946,-90.47744883280406,-17.235708,8.496861,8.257466,36.28365,-17.977484,-4.326831,-15.420828,-14.321836,-19.739838,36.830364,-21.034243,4.407185,-3.1233912,-2.3621674,18.791843,6.0319567,21.19392,-36.44413,61.397648,-28.7244,6.669257,5.541252,-6.936758,-17.48934,41.686733,57.904167,20.906813,8.8350525,-20.769234
45,0.08221074193716049,7.870710849761963,75.95610809326172,0.9668880547695914,1.5614515286480766,-90.51366575483301,-17.829248,8.706635,8.16462,37.221382,-18.320963,-4.3264236,-15.8514385,-14.385361,-19.81404,37.551765,-21.43893,4.3359222,-3.0982263,-2.2965264,19.374426,6.1043005,21.159254,-36.726624,61.509144,-28.86564,6.6960545,5.5337863,-6.802195,-17.623724,42.016853,57.9813,21.07152,8.80375,-20.754103
46,0.09065259993076324,8.047292709350586,75.81047058105469,0.8546193244865167,1.5584905080439182,-90.53829276838461,-18.438766,8.916427,8.056529,38.16868,-18.667603,-4.328313,-16.274656,-14.476102,-19.945316,38.288322,-21.885124,4.2604637,-3.0834234,-2.2163858,19.962143,6.17069,21.114517,-37.02193,61.5915,-28.974073,6.7171273,5.5219316,-6.6652284,-17.760677,42.356403,58.067055,21.249537,8.758356,-20.742926
47,0.08976894617080688,8.233668327331543,75.65359497070312,0.7498599177275848,1.569645047210716,-90.56479805558598,-19.062859,9.118315,7.9507275,39.110428,-19.012205,-4.329535,-16.726568,-14.589306,-20.08863,39.055965,-22.340696,4.164801,-3.0640318,-2.1413326,20.54823,6.225761,21.060879,-37.32477,61.663055,-29.074535,6.717499,5.5073924,-6.533422,-17.898056,42.707596,58.16064,21.4276,8.709101,-20.715088
48,0.09063050150871277,8.412504196166992,75.49931335449219,0.6649673482239324,1.6044559551129218,-90.6068403810802,-19.699524,9.304505,7.865356,40.03026,-19.348358,-4.3267527,-17.242147,-14.720148,-20.199186,39.868813,-22.772635,4.032437,-3.0250795,-2.0908473,21.125349,6.264089,21.00037,-37.631485,61.74225,-29.194197,6.682758,5.4922514,-6.4171953,-18.032429,43.075424,58.264473,21.595098,8.665877,-20.649612
49,0.09195081144571304,8.594419479370117,75.33595275878906,0.5998227337828603,1.6677041998282998,-90.6677986378472,-20.351624,9.476974,7.8020563,40.923107,-19.673674,-4.3192887,-17.83219,-14.870165,-20.277018,40.735657,-23.174982,3.8388674,-2.963998,-2.067312,21.69237,6.2864757,20.934973,-37.938263,61.832386,-29.340668,6.597616,5.4663177,-6.326127,-18.16127,43.467937,58.385513,21.75489,8.628616,-20.529533
50,0.09096480160951614,8.781438827514648,75.16629791259766,0.5491068266579986,1.7535270479614111,-90.74041344516269,-21.020166,9.639086,7.751672,41.80051,-19.99326,-4.307851,-18.47681,-15.04206,-20.341246,41.64788,-23.566141,3.5983167,-2.8894534,-2.0619886,22.252705,6.297755,20.86544,-38.24663,61.92093,-29.49995,6.474183,5.4319115,-6.2546067,-18.282785,43.879887,58.523785,21.908443,8.592951,-20.369797
51,0.09004021435976028,8.969812393188477,74.9896469116211,0.5179005475034599,1.8553805512271866,-90.82258224909397,-21.698914,9.786065,7.7178154,42.667007,-20.308998,-4.2912984,-19.16506,-15.230935,-20.373419,42.58912,-23.9455,3.3517396,-2.8018825,-2.0783029,22.805853,6.2984,20.791597,-38.559975,62.00563,-29.664265,6.3370824,5.408323,-6.1956487,-18.395521,44.303127,58.676422,22.051674,8.5615835,-20.197977
52,0.08562442660331726,9.162053108215332,74.80625915527344,0.5108267495540157,1.9667483136222286,-90.91194617450506,-22.38277,9.913305,7.703583,43.530655,-20.625347,-4.2684693,-19.887766,-15.4324875,-20.356024,43.54724,-24.314323,3.1412213,-2.7014592,-2.118903,23.350985,6.2889614,20.713142,-38.882835,62.079674,-29.82648,6.214501,5.4172673,-6.137978,-18.49764,44.72474,58.83778,22.175648,8.537474,-20.041761
53,0.0841045081615448,9.347556114196777,74.61772155761719,0.539299295404181,2.095775055207949,-91.01310654163524,-23.074667,10.01111,7.720724,44.3838,-20.9405,-4.2349896,-20.664618,-15.6513195,-20.266834,44.526752,-24.667788,2.9850225,-2.5801215,-2.1979969,23.878956,6.270418,20.628946,-39.215218,62.14637,-29.990673,6.1101007,5.478454,-6.0847254,-18.58812,45.162983,59.016975,22.258821,8.528465,-19.894035
54,0.07930852472782135,9.53403377532959,74.419677734375,0.597170585166809,2.2427336582601085,-91.12537108464758,-23.776371,10.086316,7.7641726,45.227463,-21.254066,-4.192031,-21.49445,-15.886317,-20.120281,45.53232,-25.0073,2.8577685,-2.4401991,-2.3092892,24.393042,6.2422934,20.538773,-39.55487,62.208138,-30.158302,6.010381,5.5760317,-6.039608,-18.665886,45.61628,59.21477,22.310574,8.5304785,-19.745178
55,0.077050119638443,9.718501091003418,74.2125473022461,0.6633468226002817,2.389157292423891,-91.23843341354174,-24.480646,10.156945,7.811714,46.08056,-21.571552,-4.146774,-22.335098,-16.124807,-19.955612,46.549805,-25.341814,2.7369788,-2.2957933,-2.4256904,24.91117,6.201317,20.443909,-39.904552,62.261707,-30.319004,5.9145484,5.676819,-5.9959717,-18.730368,46.047573,59.416153,22.37429,8.527604,-19.618198
56,0.0720096305012703,9.90121841430664,74.0036849975586,0.7171274619644173,2.5166156101379498,-91.3421872265197,-25.178677,10.240853,7.8412223,46.95913,-21.89683,-4.1066976,-23.143929,-16.355383,-19.812365,47.56426,-25.679983,2.6006463,-2.1600099,-2.5204363,25.450994,6.1432524,20.346762,-40.269123,62.30263,-30.46365,5.82238,5.747774,-5.9452896,-18.782394,46.416786,59.60563,22.491283,8.504327,-19.535978
57,0.07503213733434677,10.07896900177002,73.79083251953125,0.7539859049603146,2.6143151096656188,-91.43877285071738,-25.861177,10.344496,7.8515368,47.87,-22.232052,-4.0696774,-23.90054,-16.58141,-19.708618,48.57282,-26.02737,2.4395766,-2.0295355,-2.5839248,26.025293,6.0661755,20.248896,-40.65144,62.31971,-30.585976,5.741854,5.773059,-5.8768954,-18.82238,46.686028,59.77411,22.672226,8.461309,-19.525396
58,0.06668509542942047,10.263708114624023,73.56790161132812,0.7845685032537336,2.694157673037454,-91.53213641872823,-26.53421,10.457978,7.852855,48.802418,-22.574257,-4.0325656,-24.630247,-16.807568,-19.620823,49.582535,-26.377747,2.2667477,-1.8971738,-2.6306856,26.62228,5.971789,20.150675,-41.05098,62.315945,-30.693277,5.6710415,5.7729044,-5.794986,-18.851519,46.88188,59.929688,22.893532,8.405049,-19.566908
59,0.05057431012392044,10.44836711883545,73.33488464355469,0.8117235403915711,2.771285500558925,-91.61452789794167,-27.216219,10.572833,7.8387637,49.75198,-22.921995,-4.0018635,-25.360184,-17.02494,-19.526566,50.59726,-26.725317,2.0936775,-1.7724041,-2.6703365,27.223763,5.863057,20.052631,-41.46595,62.30759,-30.797028,5.594464,5.767334,-5.7119794,-18.871166,47.062977,60.07632,23.147985,8.328934,-19.613863
60,0.03798351436853409,10.619526863098145,73.09561920166016,0.8379480687643828,2.86105189880377,-91.6784134524853,-27.924614,10.680793,7.803542,50.711742,-23.272375,-3.984421,-26.11798,-17.22359,-19.403109,51.621532,-27.063755,1.9314433,-1.6654379,-2.7131982,27.811806,5.7449884,19.95519,-41.89045,62.309334,-30.905075,5.4968586,5.776614,-5.64175,-18.882374,47.29037,60.218906,23.429348,8.226799,-19.620295
61,0.02888229861855507,10.788469314575195,72.84986114501953,0.860146680908555,2.964665131090268,-91.71454097494038,-28.665264,10.778375,7.7370806,51.683933,-23.627728,-3.9858885,-26.905594,-17.396881,-19.24683,52.65583,-27.389818,1.7861998,-1.588133,-2.7593956,28.383009,5.6177654,19.85958,-42.33512,62.324783,-31.026047,5.368031,5.8080077,-5.584579,-18.885067,47.57459,60.35895,23.744902,8.082441,-19.570883
62,0.008412621915340424,10.961002349853516,72.59310150146484,0.8783528759958765,3.074891216564567,-91.72935658772431,-29.429466,10.869734,7.6455483,52.673195,-23.988085,-4.001607,-27.710838,-17.55097,-19.069504,53.70005,-27.706804,1.6508086,-1.5334854,-2.8059187,28.946938,5.481523,19.765911,-42.79586,62.343613,-31.151966,5.2182717,5.8497863,-5.536011,-18.87863,47.888542,60.494,24.097555,7.904243,-19.490808
63,-0.00940043106675148,11.134655952453613,72.32576751708984,0.8994481995161638,3.194243394193725,-91.73874411509675,-30.210205,10.957123,7.5478053,53.669434,-24.349771,-4.0237303,-28.538128,-17.694853,-18.871925,54.752888,-28.021719,1.5162921,-1.4846429,-2.8588235,29.503536,5.3397636,19.672943,-43.24676,62.36239,-31.269407,5.0625896,5.8939943,-5.502085,-18.863443,48.231976,60.62384,24.466837,7.723797,-19.393948
64,-0.0274148341268301,11.304248809814453,72.04901885986328,0.931634810091403,3.3799494746079626,-91.75773288282763,-31.065866,11.042125,7.46318,54.668167,-24.69803,-4.041888,-29.458977,-17.838997,-18.651892,55.81895,-28.33168,1.3697842,-1.4361483,-2.9211705,29.793802,5.302866,19.555246,-43.71376,62.4463,-31.378576,4.941343,5.903132,-5.3814726,-18.818254,48.668148,60.813107,24.846684,7.59319,-19.26077
65,-0.04869995638728142,11.468161582946777,71.76177215576172,0.9800702579662531,3.642782154761832,-91.7943274452142,-32.00809,11.125832,7.4017005,55.674065,-25.03358,-4.056314,-30.496527,-17.985054,-18.396875,56.90912,-28.636131,1.2026507,-1.3833607,-2.9979396,29.793802,5.3729825,19.39464,-44.18484,62.616768,-31.461678,4.8602805,5.8699117,-5.179534,-18.728224,49.214996,61.07423,25.234154,7.536168,-19.08178
66,-0.07713892310857773,11.634429931640625,71.4683837890625,1.0383263480997083,3.917191534035166,-91.83948613084915,-32.965565,11.208683,7.351073,56.689808,-25.368896,-4.073237,-31.569324,-18.125729,-18.1127,58.018806,-28.941795,1.0247518,-1.3279402,-3.0886226,29.793802,5.423055,19.204643,-44.614502,62.816475,-31.513163,4.780026,5.8337355,-5.021502,-18.606567,49.804977,61.355804,25.624073,7.5065613,-18.892128
67,-0.09987428784370422,11.801380157470703,71.16949462890625,1.0981210715801277,4.19133851988659,-91.88195820602063,-33.923786,11.289376,7.296822,57.70324,-25.698698,-4.0894246,-32.64211,-18.259895,-17.82474,59.12389,-29.249908,0.84839183,-1.2817577,-3.1843753,29.793802,5.4614162,18.99233,-45.01946,63.039623,-31.56288,4.6955395,5.8013215,-4.887964,-18.457787,50.41716,61.663612,26.017624,7.470993,-18.709476
68,-0.12481962144374847,11.962300300598145,70.86565399169922,1.1512588200377618,4.45292730934104,-91.91057872211607,-34.86743,11.366272,7.225181,58.701656,-26.017162,-4.1010733,-33.678757,-18.387392,-17.558363,60.199715,-29.56096,0.6863499,-1.2566836,-3.277448,29.793802,5.495022,18.761715,-45.415405,63.284164,-31.63981,4.601411,5.7796907,-4.762297,-18.28267,51.02767,62.011284,26.410765,7.394891,-18.551392
69,-0.15661589801311493,12.126989364624023,70.56349182128906,1.194298228171326,4.696155188454811,-91.92604751204104,-35.79158,11.444557,7.133101,59.688583,-26.32592,-4.1060486,-34.67006,-18.504335,-17.317259,61.243584,-29.879017,0.5441366,-1.2530355,-3.3672428,29.793802,5.5339503,18.5146,-45.78744,63.546677,-31.766775,4.4913754,5.7625065,-4.6401787,-18.080809,51.64482,62.40449,26.797407,7.2622366,-18.425947
70,-0.18608681857585907,12.288677215576172,70.2601089477539,1.2323192758023809,4.928467404766326,-91.9331218937428,-36.704105,11.522965,7.0280557,60.667603,-26.6266,-4.106358,-35.634872,-18.613146,-17.089258,62.267326,-30.202484,0.41419175,-1.2650625,-3.4585462,29.793802,5.575096,18.253311,-46.132977,63.823387,-31.923807,4.370738,5.74858,-4.5266995,-17.853378,52.274216,62.83075,27.180014,7.093785,-18.321865
71,-0.21712155640125275,12.4478120803833,69.95835876464844,1.269529168926923,5.157847544419446,-91.9271735870656,-37.611572,11.5899105,6.9115043,61.62964,-26.914597,-4.1041484,-36.581783,-18.724888,-16.874619,63.272205,-30.524227,0.2903028,-1.2938548,-3.550919,29.793802,5.604538,17.98103,-46.488075,64.11241,-32.07551,4.2509427,5.7524095,-4.4208817,-17.602434,52.890457,63.2784,27.573341,6.9098897,-18.227055
72,-0.2526261508464813,12.605524063110352,69.66131591796875,1.3098371102379036,5.392235932018845,-91.90342677218048,-38.519653,11.6343155,6.785302,62.564625,-27.185385,-4.101205,-37.518673,-18.849686,-16.673897,64.25703,-30.835936,0.16618316,-1.338353,-3.6433449,29.793802,5.6060553,17.70134,-46.894806,64.41229,-32.190907,4.1436615,5.7887645,-4.3211308,-17.331787,53.464188,63.736282,27.989017,6.7309837,-18.12942
73,-0.28785064816474915,12.76103687286377,69.36897277832031,1.356200257178498,5.623142784631938,-91.85547471518915,-39.416336,11.648185,6.648514,63.4647,-27.436836,-4.0986958,-38.433365,-18.993328,-16.489487,65.21939,-31.136242,0.037627522,-1.4032992,-3.738605,29.793802,5.5787654,17.415228,-47.384342,64.72519,-32.26088,4.0646396,5.8677673,-4.2202954,-17.042938,53.98512,64.20696,28.427526,6.5569987,-18.022493
74,-0.32486143708229065,12.91657829284668,69.07762908935547,1.4058590085415208,5.850066072045554,-91.7874432920616,-40.30305,11.638739,6.50072,64.33775,-27.672161,-4.094676,-39.32552,-19.1509,-16.321745,66.159515,-31.429035,-0.09070748,-1.4847212,-3.8362045,29.793802,5.532457,17.122332,-47.930714,65.04548,-32.303673,4.004024,5.9791183,-4.1181793,-16.73751,54.4647,64.691216,28.881443,6.3793387,-17.913515
75,-0.3504762351512909,13.066555976867676,68.78072357177734,1.4556036470417304,6.092809309253133,-91.71050699838788,-41.20633,11.619029,6.346879,65.19704,-27.893345,-4.0857205,-40.225945,-19.313202,-16.161995,67.08416,-31.714432,-0.21257348,-1.5694863,-3.929533,29.793802,5.468484,16.824673,-48.488182,65.35869,-32.327164,3.9351766,6.106597,-4.0221267,-16.42011,54.91239,65.17042,29.356873,6.206083,-17.811975
76,-0.3763713240623474,13.214151382446289,68.48780822753906,1.5015906002490733,6.371278960604611,-91.63561925156911,-42.15347,11.601327,6.1905913,66.05769,-28.103619,-4.068794,-41.163776,-19.471899,-16.00433,68.0002,-31.993042,-0.32139578,-1.6442128,-4.0111904,29.793802,5.3868527,16.526525,-49.011497,65.65127,-32.339,3.831564,6.234163,-3.9389913,-16.097933,55.337357,65.62534,29.859293,6.045255,-17.727543
77,-0.4061707854270935,13.357417106628418,68.18997955322266,1.5392021323519125,6.692648620795488,-91.55817137548397,-43.158573,11.583475,6.023546,66.923965,-28.300041,-4.0385704,-42.14124,-19.628128,-15.859283,68.90348,-32.263153,-0.40426245,-1.7110324,-4.0727496,29.793802,5.275217,16.23289,-49.521828,65.928635,-32.33443,3.6920466,6.35279,-3.873129,-15.776545,55.739304,66.05304,30.413687,5.8943634,-17.65941
78,-0.43441545963287354,13.505524635314941,67.88606262207031,1.5715413896564492,7.046153436513445,-91.47484642496609,-44.20479,11.55969,5.8471575,67.78705,-28.481953,-3.9973013,-43.144917,-19.784872,-15.726457,69.79319,-32.52478,-0.46712628,-1.7747815,-4.119855,29.793802,5.138801,15.945543,-50.033638,66.192444,-32.312557,3.5278885,6.471381,-3.8166091,-15.458463,56.112812,66.455,31.007832,5.751184,-17.603603
79,-0.4637984037399292,13.64564037322998,67.5748062133789,1.606477955736755,7.424398483591095,-91.39859425032658,-45.27434,11.537532,5.679,68.64589,-28.657557,-3.953417,-44.179398,-19.935703,-15.585179,70.6781,-32.781635,-0.5364251,-1.8261874,-4.164905,29.793802,5.0037975,15.664447,-50.48848,66.41761,-32.28305,3.3361964,6.6046343,-3.7607677,-15.1464615,56.467125,66.819405,31.599657,5.6234355,-17.56499
80,-0.4893130660057068,13.783548355102539,67.25961303710938,1.6514060944444837,7.819792927599754,-91.34226298369047,-46.348324,11.525372,5.5366316,69.49687,-28.834383,-3.9158032,-45.25007,-20.073135,-15.41374,71.567375,-33.03711,-0.63748616,-1.8590803,-4.221274,29.793802,4.896637,15.388841,-50.823967,66.582016,-32.25439,3.1127706,6.766746,-3.6984665,-14.842805,56.816963,67.133835,32.149902,5.5190797,-17.548798
81,-0.5007469058036804,13.91198444366455,66.94039916992188,1.7128657164715377,8.245315883299048,-91.30644947788994,-47.441387,11.519021,5.428127,70.34024,-29.011145,-3.8812244,-46.379734,-20.201998,-15.202868,72.46677,-33.29056,-0.778713,-1.8735695,-4.2932515,29.793802,4.815778,15.119277,-51.00535,66.6758,-32.21743,2.8383927,6.97915,-3.6352327,-14.550464,57.15153,67.39002,32.640583,5.461279,-17.572208
82,-0.5314661860466003,14.040909767150879,66.62002563476562,1.785006760528315,8.69996456936714,-91.28502177649591,-48.556534,11.516614,5.3430324,71.17671,-29.184929,-3.8466117,-47.55907,-20.32167,-14.965613,73.37087,-33.54148,-0.9460477,-1.8745178,-4.37296,29.793802,4.748538,14.85719,-51.070236,66.713554,-32.170025,2.5214381,7.229146,-3.572375,-14.270503,57.473347,67.59239,33.09904,5.438399,-17.62811
83,-0.5649999976158142,14.16908073425293,66.29521942138672,1.857254608489854,9.155368864776477,-91.28074776821123,-49.6601,11.530723,5.2700143,72.008484,-29.362295,-3.822038,-48.74273,-20.41827,-14.715365,74.26921,-33.791893,-1.1317662,-1.863083,-4.4570284,29.793802,4.7040815,14.6026945,-51.0639,66.7117,-32.13099,2.1985216,7.4796295,-3.4981644,-14.001534,57.80793,67.75522,33.542282,5.4055586,-17.684328
84,-0.59665846824646,14.290809631347656,65.9735107421875,1.9190681073827263,9.583376613707433,-91.29675951090412,-50.71851,11.574253,5.1974397,72.83734,-29.549446,-3.8176703,-49.885433,-20.47879,-14.465307,75.15118,-34.043877,-1.3280028,-1.8409342,-4.542362,29.793802,4.6910253,14.354989,-51.03321,66.68667,-32.122112,1.9061085,7.693308,-3.403141,-13.740328,58.185905,67.89447,33.993027,5.318397,-17.707928
85,-0.6341432929039001,14.402582168579102,65.65214538574219,1.9704704044832115,9.983298192229203,-91.34066170393294,-51.72697,11.655481,5.1289344,73.659325,-29.745869,-3.8410344,-50.98718,-20.49438,-14.209873,76.01301,-34.296963,-1.5362493,-1.798594,-4.6313767,29.793802,4.7090826,14.112951,-50.95385,66.64422,-32.16605,1.6546966,7.8729663,-3.285095,-13.4845085,58.61539,68.01108,34.47637,5.143911,-17.685617
86,-0.6711539030075073,14.511201858520508,65.33037567138672,2.0154454542763536,10.368073918870993,-91.40880879036624,-52.702526,11.766675,5.067178,74.47501,-29.94895,-3.8857555,-52.06736,-20.474266,-13.946672,76.860794,-34.550198,-1.7595185,-1.7394513,-4.7249374,29.793802,4.7531586,13.876307,-50.81212,66.57963,-32.245483,1.4225321,8.033303,-3.1492064,-13.232997,59.078102,68.101,34.970707,4.9131894,-17.635054
87,-0.7148963212966919,14.610942840576172,65.00904846191406,2.050885614406946,10.729045252269444,-91.48747894617198,-53.64496,11.89588,4.99908,75.292336,-30.160187,-3.9414475,-53.11122,-20.431879,-13.691152,77.700745,-34.807407,-1.9922802,-1.6817845,-4.816615,29.793802,4.824297,13.646128,-50.674683,66.48781,-32.324028,1.2025342,8.157464,-3.0003874,-12.984568,59.574245,68.17284,35.441875,4.677767,-17.570421
88,-0.7576777338981628,14.70521068572998,64.68962097167969,2.0732526719717996,11.057228463348542,-91.56253090718876,-54.553402,12.030146,4.910983,76.11843,-30.38405,-3.9980977,-54.103115,-20.384598,-13.461319,78.54032,-35.070465,-2.2281606,-1.6420841,-4.899638,29.793802,4.923537,13.423617,-50.61168,66.36583,-32.36732,0.98521405,8.226843,-2.8429453,-12.738495,60.101715,68.235344,35.854836,4.488641,-17.506445
89,-0.8142471313476562,14.797557830810547,64.3712158203125,2.0756051604892485,11.346209259925402,-91.63788458797896,-55.420067,12.176655,4.797432,76.953186,-30.620405,-4.056385,-55.03168,-20.322786,-13.262886,79.37335,-35.33517,-2.4742,-1.6203868,-4.969273,29.793802,5.0536404,13.209087,-50.6379,66.20475,-32.353916,0.78813595,8.221891,-2.6796646,-12.493274,60.683685,68.29247,36.15902,4.3889112,-17.456776
90,-0.8609692454338074,14.884187698364258,64.04867553710938,2.0619478852846234,11.602020381166808,-91.71862607316275,-56.248512,12.338174,4.6655455,77.79294,-30.86721,-4.1211996,-55.90662,-20.244572,-13.08658,80.19758,-35.60423,-2.7304642,-1.6081524,-5.0299172,29.793802,5.213044,13.00265,-50.72177,66.00849,-32.30969,0.60949343,8.157251,-2.508056,-12.24853,61.313347,68.33986,36.388424,4.3410263,-17.410734
91,-0.8964778184890747,14.95484447479248,63.71953582763672,2.0453954549572506,11.835482785521283,-91.79323101367011,-57.054756,12.496701,4.52354,78.64126,-31.124071,-4.188163,-56.75037,-20.17281,-12.919943,81.030426,-35.882565,-2.9817197,-1.6082839,-5.088299,29.793802,5.398485,12.805114,-50.856388,65.79026,-32.264,0.4121094,8.065951,-2.3186178,-12.006198,61.931816,68.37033,36.622215,4.2758036,-17.347965
92,-0.9414477348327637,15.028409957885742,63.38550567626953,2.0394374079540567,12.057537829989924,-91.84996336133655,-57.85597,12.634002,4.379566,79.50378,-31.385752,-4.252934,-57.584644,-20.129698,-12.75083,81.88732,-36.17842,-3.2127783,-1.621385,-5.149435,29.793802,5.6052394,12.617354,-51.039806,65.563095,-32.24767,0.15931977,7.980874,-2.100561,-11.769966,62.476086,68.37486,36.93875,4.1245666,-17.248003
93,-0.9903191328048706,15.095970153808594,63.04163360595703,2.0503944759485195,12.268831502230038,-91.88279608691963,-58.65305,12.741515,4.2368226,80.38249,-31.654469,-4.315146,-58.413883,-20.12467,-12.573813,82.776306,-36.496384,-3.4201546,-1.6482092,-5.2172704,29.793802,5.8306417,12.441979,-51.294712,65.32308,-32.27957,-0.16620433,7.8832116,-1.8491234,-11.543488,62.921665,68.35204,37.417023,3.847863,-17.084904
94,-1.0306453704833984,15.153546333312988,62.68989944458008,2.0701987762390757,12.464757470631021,-91.89879245647246,-59.438694,12.829898,4.091267,81.275215,-31.931398,-4.3777375,-59.228165,-20.144524,-12.395089,83.688095,-36.831177,-3.6112382,-1.6851556,-5.286835,29.793802,6.0783973,12.279637,-51.618694,65.06244,-32.341072,-0.54171073,7.7639003,-1.5703794,-11.328981,63.302345,68.30352,37.99711,3.4911933,-16.874598
95,-1.0711365938186646,15.208627700805664,62.332420349121094,2.0912409293795426,12.647707656844037,-91.90587515802625,-60.21495,12.909979,3.9407232,82.17771,-32.21272,-4.441855,-60.026882,-20.176928,-12.219555,84.60958,-37.17344,-3.7867868,-1.728373,-5.350932,29.793802,6.351634,12.126818,-51.972107,64.79324,-32.409073,-0.9445276,7.6707563,-1.2699708,-11.127857,63.643486,68.226776,38.54679,3.1123633,-16.660019
96,-1.1033146381378174,15.26032829284668,61.9680290222168,2.1055368699585384,12.820109824196221,-91.911777442409,-60.984352,12.992283,3.7817883,83.08705,-32.495346,-4.508524,-60.806583,-20.212652,-12.056075,85.5281,-37.517525,-3.9471242,-1.7747449,-5.4019876,29.793802,6.6509414,11.976947,-52.314655,64.53185,-32.459423,-1.3528203,7.651918,-0.95391196,-10.940825,63.971745,68.120026,38.933365,2.7673342,-16.486374
97,-1.1369892358779907,15.313251495361328,61.60542297363281,2.1083242665838364,12.98379019874185,-91.91793258687353,-61.75229,13.08119,3.6101918,84.00478,-32.778923,-4.581463,-61.57012,-20.245916,-11.907891,86.44223,-37.859753,-4.0933995,-1.8247736,-5.434157,29.793802,6.9761477,11.824899,-52.648544,64.293236,-32.50989,-1.8006569,7.7412114,-0.6206284,-10.76796,64.265854,67.98372,39.079033,2.4724045,-16.349272
98,-1.1652840375900269,15.364636421203613,61.235313415527344,2.104611186996639,13.136876966847376,-91.92039675224768,-62.51571,13.170067,3.4289296,84.93185,-33.065304,-4.65979,-62.31744,-20.283783,-11.770682,87.3584,-38.20382,-4.224649,-1.8800737,-5.4517097,29.793802,7.323033,11.668619,-52.99091,64.074,-32.56328,-2.287447,7.9059844,-0.26860964,-10.609452,64.52212,67.818565,39.069763,2.1957886,-16.232718
99,-1.197004795074463,15.408266067504883,60.859127044677734,2.1016128280722612,13.276578585180657,-91.91942728545423,-63.263954,13.253021,3.2468889,85.86402,-33.354527,-4.737028,-63.044987,-20.331104,-11.6359,88.27642,-38.552288,-4.338586,-1.9405138,-5.46365,29.793802,7.686446,11.505768,-53.32025,63.862976,-32.57022,-2.7394173,8.095961,0.09377548,-10.466969,64.79637,67.62601,39.0178,1.920299,-16.164572
100,-1.2315402030944824,15.445364952087402,60.482086181640625,2.1071976707687923,13.400156956618396,-91.91544433597312,-63.985775,13.324567,3.0738535,86.794685,-33.645683,-4.8062325,-63.75128,-20.39054,-11.491893,89.19602,-38.903507,-4.4334984,-2.0090544,-5.4806876,29.793802,8.063579,11.333959,-53.610226,63.64747,-32.48143,-3.0820842,8.261321,0.4586304,-10.342613,65.15149,67.404396,39.040077,1.6298121,-16.171843
101,-1.2563618421554565,15.475118637084961,60.106815338134766,2.1221274296836783,13.510823320644258,-91.90535365489342,-64.68353,13.3802805,2.9120016,87.723976,-33.9424,-4.858222,-64.437744,-20.467897,-11.339644,90.118034,-39.25941,-4.502575,-2.0958424,-5.5064445,29.793802,8.452926,11.150375,-53.840687,63.43727,-32.214157,-3.2852943,8.414855,0.8163395,-10.240225,65.62043,67.153435,39.198765,1.3202285,-16.272663
102,-1.2744537591934204,15.498299598693848,59.731937408447266,2.1427758775125874,13.608578816149015,-91.88995646478458,-65.361664,13.424559,2.7568936,88.654755,-34.242413,-4.8991103,-65.10488,-20.559408,-11.183197,91.04211,-39.620018,-4.548311,-2.1998332,-5.5364738,29.793802,8.854975,10.953621,-54.02579,63.237602,-31.817434,-3.3916636,8.574928,1.174062,-10.161355,66.170525,66.86845,39.422966,1.000115,-16.448315
103,-1.292798638343811,15.517285346984863,59.35590744018555,2.1700869959913045,13.68614465103987,-91.87545810956503,-66.00985,13.464269,2.6079438,89.58421,-34.540478,-4.9451957,-65.74774,-20.655222,-11.018406,91.965515,-39.98114,-4.5826464,-2.3047605,-5.5685496,29.793802,9.27178,10.744277,-54.19011,63.028477,-31.437473,-3.4369304,8.699522,1.547677,-10.103757,66.76215,66.54727,39.626873,0.6719945,-16.670471
104,-1.3179590702056885,15.533029556274414,58.98038864135742,2.2050384066594435,13.735855620184838,-91.86796275628978,-66.61919,13.506638,2.464457,90.51108,-34.829834,-5.0129585,-66.36183,-20.744963,-10.840693,92.88669,-40.343033,-4.6159744,-2.3937962,-5.600615,29.793802,9.70574,10.524789,-54.359306,62.78779,-31.220755,-3.457712,8.747011,1.9504827,-10.062713,67.35767,66.19182,39.728123,0.33882245,-16.911425
105,-1.3363152742385864,15.545985221862793,58.612518310546875,2.2480721477201597,13.75112657022419,-91.86362802635782,-67.17904,13.549348,2.327756,91.42936,-35.11503,-5.1080914,-66.937485,-20.829073,-10.650537,93.80457,-40.708347,-4.649306,-2.4617834,-5.628773,29.793802,10.154175,10.297722,-54.558167,62.507233,-31.262594,-3.4392102,8.70472,2.3898826,-10.034415,67.95371,65.80703,39.69875,0.006491624,-17.170815
106,-1.3642287254333496,15.561951637268066,58.238582611083984,2.298687125440958,13.737762938360845,-91.86103358843246,-67.697174,13.590074,2.1982543,92.34237,-35.39762,-5.2217455,-67.48044,-20.911615,-10.449499,94.720924,-41.075386,-4.677516,-2.5157313,-5.654244,29.793802,10.617311,10.06425,-54.7707,62.197052,-31.467386,-3.3698988,8.595427,2.8566995,-10.017559,68.56418,65.39589,39.583786,-0.328086,-17.461918
107,-1.390201210975647,15.574176788330078,57.86906051635742,2.355851603777258,13.706226551029522,-91.8697899298137,-68.190575,13.636069,2.0742338,93.25933,-35.666687,-5.348547,-68.00675,-20.988365,-10.237056,95.63427,-41.440186,-4.7011285,-2.5580628,-5.6841025,29.793802,11.104088,9.824901,-54.957794,61.86272,-31.694183,-3.2916675,8.431284,3.336578,-10.011798,69.17717,64.96232,39.405422,-0.6749132,-17.778887
108,-1.4054481983184814,15.583975791931152,57.503807067871094,2.4191480852649,13.667443370737292,-91.89944338306893,-68.67624,13.693033,1.9553552,94.18907,-35.910797,-5.481728,-68.53282,-21.055021,-10.012406,96.54308,-41.795628,-4.721543,-2.5915816,-5.7251534,29.793802,11.621421,9.579513,-55.082867,61.51014,-31.804668,-3.2471282,8.223726,3.8153405,-10.016675,69.78281,64.50747,39.18883,-1.0439718,-18.115553
109,-1.423230767250061,15.594744682312012,57.134090423583984,2.488041556327765,13.625424361415883,-91.95890042501811,-69.16004,13.76821,1.8443012,95.13841,-36.12372,-5.622615,-69.06506,-21.104855,-9.775579,97.44673,-42.1416,-4.7410116,-2.6128056,-5.7794304,29.793802,12.176249,9.327866,-55.116806,61.130386,-31.771961,-3.2566168,7.9342375,4.288502,-10.0323305,70.38451,64.01899,38.92597,-1.4557573,-18.474714
110,-1.4352937936782837,15.601998329162598,56.76505661010742,2.5632416186076665,13.57436779587437,-92.04091048215254,-69.632164,13.856332,1.740047,96.10071,-36.31286,-5.7755165,-69.59368,-21.141768,-9.5273,98.345505,-42.48028,-4.7578754,-2.6238856,-5.844587,29.793802,12.762993,9.069754,-55.08347,60.72283,-31.66665,-3.2951632,7.5707197,4.76265,-10.058349,70.987885,63.500805,38.60746,-1.897878,-18.859867
111,-1.4534776210784912,15.606884956359863,56.39265823364258,2.6453135533457326,13.509197077403204,-92.13080718086042,-70.0857,13.94388,1.6377285,97.06561,-36.48798,-5.93685,-70.111374,-21.176601,-9.269106,99.24237,-42.81258,-4.767649,-2.6337657,-5.9190965,29.793802,13.370793,8.804402,-55.025524,60.305733,-31.49356,-3.3385055,7.2137637,5.243069,-10.092363,71.583305,62.977543,38.255253,-2.331957,-19.26544
112,-1.4667519330978394,15.611769676208496,56.02558135986328,2.734384800784857,13.424881161547896,-92.21400448069811,-70.514114,14.017832,1.5326794,98.023,-36.658813,-6.1031084,-70.609535,-21.220007,-9.002551,100.138435,-43.142452,-4.763966,-2.6504543,-6.0009894,29.793802,13.98858,8.530562,-54.98733,59.899273,-31.25784,-3.3620028,6.9439197,5.735609,-10.13024,72.15813,62.475964,37.88938,-2.7199576,-19.684937
113,-1.4698996543884277,15.61862850189209,55.65492630004883,2.8344547614899787,13.319173391194713,-92.28462876392861,-70.91538,14.068611,1.4236373,98.973885,-36.824135,-6.278485,-71.08664,-21.279095,-8.7249155,101.03778,-43.470997,-4.742754,-2.6780074,-6.090857,29.793802,14.614333,8.246568,-54.971333,59.49751,-30.930098,-3.3496673,6.7736177,6.241445,-10.168488,72.713776,62.005997,37.51607,-3.0757587,-20.121471
114,-1.4828081130981445,15.622836112976074,55.28850555419922,2.944065175382108,13.195100818487346,-92.35118875775301,-71.29263,14.10445,1.3141974,99.92218,-36.98025,-6.464225,-71.5461,-21.346294,-8.437081,101.9383,-43.7958,-4.7074494,-2.7103393,-6.1887555,29.793802,15.252398,7.951596,-54.95978,59.095913,-30.518297,-3.3180897,6.6627126,6.75697,-10.204998,73.252716,61.557835,37.122208,-3.4113293,-20.576761
115,-1.5004206895828247,15.627317428588867,54.920536041259766,3.0552300771017795,13.05496826969866,-92.42064785164527,-71.64753,14.139488,1.2066501,100.862755,-37.13379,-6.6516514,-71.98784,-21.409962,-8.145667,102.83212,-44.114475,-4.663175,-2.7397306,-6.291468,29.793802,15.901155,7.646264,-54.9666,58.716553,-30.082777,-3.2903507,6.613196,7.280445,-10.237183,73.765594,61.127464,36.703648,-3.6860347,-21.041348
116,-1.5082873106002808,15.630587577819824,54.56011962890625,3.160209536288757,12.901368523787434,-92.49980093671223,-71.98221,14.188355,1.1024024,101.79105,-37.29095,-6.831712,-72.411705,-21.458384,-7.8578224,103.71217,-44.42544,-4.61601,-2.7566228,-6.3946676,29.793802,16.559502,7.332576,-55.007904,58.38162,-29.68451,-3.289266,6.6273236,7.8094287,-10.262817,74.24181,60.71369,36.256996,-3.8594887,-21.504457
117,-1.5160112380981445,15.634958267211914,54.20219421386719,3.256976870271625,12.72891344483192,-92.58923309613034,-72.296906,14.256691,0.9991625,102.71831,-37.444366,-7.0050673,-72.81197,-21.49406,-7.573081,104.585236,-44.731106,-4.5610685,-2.7541552,-6.495067,29.793802,17.22873,7.0134954,-55.106655,58.093735,-29.363958,-3.3459964,6.7042313,8.354043,-10.280104,74.69196,60.313244,35.67557,-3.905626,-22.001797
118,-1.5186904668807983,15.65072250366211,53.83595275878906,3.349745401372011,12.538475042452259,-92.6856694837797,-72.590706,14.335851,0.89730465,103.64461,-37.59394,-7.175961,-73.190155,-21.519022,-7.289552,105.4512,-45.03148,-4.497132,-2.7379432,-6.5954013,29.793802,17.910555,6.69082,-55.249607,57.840366,-29.081264,-3.4389617,6.843737,8.912476,-10.287505,75.115456,59.93023,34.99738,-3.848953,-22.523746
119,-1.5227806568145752,15.666970252990723,53.4761962890625,3.439825651903399,12.341411475183268,-92.79030016054254,-72.86336,14.4200325,0.80164427,104.54189,-37.755592,-7.338808,-73.55881,-21.530418,-7.0091276,106.296524,-45.31917,-4.4365315,-2.7173169,-6.7009344,29.793802,18.605156,6.363983,-55.397133,57.621037,-28.774582,-3.511672,7.0495963,9.46442,-10.283712,75.48559,59.575645,34.43625,-3.7293181,-22.991991
120,-1.53280770778656,15.69043254852295,53.1224250793457,3.5285501948699722,12.149031569117518,-92.90425956249892,-73.11536,14.504097,0.7158048,105.38641,-37.945038,-7.487351,-73.93036,-21.525267,-6.733779,107.10784,-45.587276,-4.3923335,-2.7023494,-6.8167863,29.793802,19.310808,6.0300136,-55.50941,57.436253,-28.383142,-3.5072198,7.324826,9.991145,-10.266473,75.77598,59.25647,34.20636,-3.5913053,-23.330217
121,-1.5455095767974854,15.722149848937988,52.76995849609375,3.6109273402981232,11.956365418484927,-93.03757131668873,-73.34066,14.596108,0.62970525,106.18129,-38.1813,-7.623558,-74.30309,-21.495852,-6.4666014,107.8878,-45.8339,-4.3617334,-2.697915,-6.9472136,29.793802,20.05164,5.6840367,-55.592953,57.282722,-27.792677,-3.410975,7.731852,10.4894495,-10.234396,75.98284,58.986904,34.493595,-3.4541132,-23.520466
122,-1.5495882034301758,15.76584243774414,52.431602478027344,3.6877168818112613,11.759830863098825,-93.18644817034179,-73.5414,14.69734,0.5438137,106.93758,-38.4511,-7.7481227,-74.673164,-21.447313,-6.2051373,108.64454,-46.061497,-4.340283,-2.698429,-7.088138,29.793802,20.81798,5.3237762,-55.663055,57.165585,-27.06896,-3.2493303,8.246652,10.969661,-10.185755,76.11864,58.75896,35.140324,-3.295417,-23.605247
123,-1.5465216636657715,15.818074226379395,52.10306167602539,3.7698804821066245,11.57340658758052,-93.33139461234673,-73.732056,14.793095,0.4763286,107.64229,-38.716995,-7.8508997,-75.04735,-21.38993,-5.9436646,109.36229,-46.270996,-4.3391457,-2.6964276,-7.2319508,29.793802,21.558186,4.950224,-55.694057,57.097996,-26.42132,-3.0304635,8.742226,11.427662,-10.11878,76.18415,58.557026,35.844498,-3.0974882,-23.598509
124,-1.5369889736175537,15.877218246459961,51.80253982543945,3.867943917888499,11.410687004019326,-93.4531014312893,-73.92575,14.86923,0.44494638,108.27778,-38.948578,-7.921754,-75.43563,-21.332275,-5.674416,110.033775,-46.458584,-4.3706408,-2.6856446,-7.372364,29.793802,22.221245,4.566618,-55.658054,57.089413,-26.057684,-2.7683716,9.093316,11.860151,-10.031104,76.17959,58.364353,36.301838,-2.842184,-23.512754
125,-1.5348930358886719,15.944231033325195,51.515377044677734,3.9880392100960815,11.271705811650492,-93.55137874098892,-74.116684,14.924934,0.45869014,108.843346,-39.142464,-7.953391,-75.84154,-21.27447,-5.386195,110.65739,-46.626976,-4.436091,-2.6658545,-7.5149946,29.793802,22.79722,4.173245,-55.518402,57.141518,-26.203402,-2.4271488,9.145352,12.275269,-9.919366,76.05507,58.184082,36.526455,-2.5619147,-23.213127
126,-1.5425273180007935,16.01644515991211,51.25050354003906,4.1231712539518135,11.150313536882793,-93.63509050534468,-74.30163,14.968374,0.5043162,109.348076,-39.31394,-7.951245,-76.26059,-21.212118,-5.0853705,111.23801,-46.775925,-4.531041,-2.6396008,-7.6611514,29.793802,23.311272,3.769095,-55.299145,57.247986,-26.689098,-2.0146294,9.009701,12.670951,-9.780745,75.82733,58.026012,36.646458,-2.2528422,-22.737812
127,-1.5482569932937622,16.096586227416992,51.00547790527344,4.264055363559186,11.050518167933504,-93.69815733127034,-74.49664,14.998437,0.56654954,109.79139,-39.45398,-7.9241905,-76.69016,-21.1506,-4.790445,111.77273,-46.90126,-4.6576943,-2.6053905,-7.7989693,29.793802,23.766626,3.358359,-55.06142,57.40526,-27.131254,-1.6148871,8.958014,13.024871,-9.615286,75.60027,57.883835,36.533127,-1.8464745,-22.354584
128,-1.5627926588058472,16.179332733154297,50.783302307128906,4.401090354751217,10.976741823371226,-93.73474352334252,-74.71851,15.013598,0.6305841,110.17421,-39.55247,-7.881668,-77.12702,-21.095171,-4.5205107,112.257,-47.001568,-4.8166447,-2.5631254,-7.9177036,29.793802,24.170578,2.9494169,-54.8653,57.604202,-27.150461,-1.3152249,9.255477,13.317009,-9.425787,75.479706,57.747818,36.061543,-1.2743007,-22.328213
129,-1.5823367834091187,16.27567481994629,50.57780075073242,4.531656652247195,10.935598131759406,-93.7439435068934,-74.97784,15.01041,0.68870693,110.489685,-39.59195,-7.82924,-77.57361,-21.041487,-4.282533,112.68199,-47.069725,-5.011267,-2.5070112,-8.015762,29.793802,24.520773,2.5499425,-54.745453,57.84128,-26.496958,-1.1136686,9.998749,13.530132,-9.213693,75.53088,57.57539,35.147247,-0.48386994,-22.68948
130,-1.6081424951553345,16.38179588317871,50.39710998535156,4.660839237836834,10.922970533827144,-93.72841552944217,-75.26339,14.989502,0.74976206,110.74108,-39.58338,-7.761883,-78.02848,-20.989264,-4.0699906,113.05039,-47.11449,-5.2419195,-2.4403324,-8.101192,29.793802,24.820375,2.1638079,-54.660915,58.11043,-25.424757,-0.955862,11.033849,13.679608,-8.980045,75.68968,57.382187,33.884678,0.48725638,-23.29422
131,-1.6299340724945068,16.504318237304688,50.22395706176758,4.790919950635489,10.92637098210682,-93.68794841538922,-75.55915,14.958622,0.82817686,110.938095,-39.556503,-7.668926,-78.49028,-20.947721,-3.8692925,113.38367,-47.139626,-5.5018506,-2.3754122,-8.176116,29.793802,25.08496,1.7939907,-54.55967,58.397144,-24.310238,-0.8560565,12.249982,13.7959385,-8.728423,75.86248,57.24334,32.41695,1.5793372,-24.143606
132,-1.65955650806427,16.64451026916504,50.07034683227539,4.924122897941895,10.933379562794643,-93.62207407912727,-75.84884,14.923729,0.93649954,111.091896,-39.5436,-7.541852,-78.95433,-20.927658,-3.672082,113.69721,-47.152756,-5.7862315,-2.3241131,-8.241657,29.793802,25.329811,1.4430728,-54.39162,58.687435,-23.5272,-0.84646946,13.539732,13.90904,-8.464315,75.955475,57.232544,30.887148,2.7336836,-25.24682
133,-1.6797361373901367,16.798473358154297,49.92435836791992,5.060763458591997,10.94684930219431,-93.52832528119725,-76.133415,14.882452,1.0785462,111.19832,-39.55371,-7.3810973,-79.42749,-20.930004,-3.477765,113.99313,-47.153515,-6.113013,-2.2926517,-8.294663,29.793802,25.577528,1.1143215,-54.172287,58.946865,-23.26273,-1.040411,14.886376,14.026598,-8.189178,75.981575,57.3781,29.037437,4.009262,-26.730751
134,-1.7008293867111206,16.944499969482422,49.783329010009766,5.199638733469332,10.971212816696687,-93.40749685598814,-76.419044,14.832257,1.2483624,111.25356,-39.570282,-7.191469,-79.90922,-20.951038,-3.2917757,114.263176,-47.139874,-6.479029,-2.2723505,-8.335208,29.793802,25.816113,0.8102478,-53.920895,59.187542,-23.279642,-1.398941,16.345732,14.133609,-7.902242,75.97655,57.633427,26.90931,5.454705,-28.52902
135,-1.7199952602386475,17.095705032348633,49.64893341064453,5.341036105203639,10.996681337952072,-93.264394138559,-76.69614,14.77883,1.4448136,111.270134,-39.589386,-6.970057,-80.38596,-20.989676,-3.1070652,114.51098,-47.113876,-6.8419795,-2.2530415,-8.367577,29.793802,26.007288,0.5307094,-53.593494,59.465504,-23.320242,-1.7331067,17.920113,14.225238,-7.607792,75.87912,57.956814,25.08574,6.9576893,-30.392496
136,-1.7472442388534546,17.244102478027344,49.51411056518555,5.485493151669622,11.013488634664792,-93.10370037283211,-76.95555,14.728493,1.6662091,111.26116,-39.608444,-6.7139354,-80.84216,-21.047073,-2.921662,114.74165,-47.07829,-7.1655245,-2.2241228,-8.393927,29.793802,26.110321,0.2723692,-53.14735,59.84048,-23.13661,-1.8407832,19.613884,14.2957945,-7.3157263,75.624954,58.30501,24.13355,8.354588,-32.108086
137,-1.777403473854065,17.405466079711914,49.39327621459961,5.638318880037212,11.02025655924582,-92.92451962987614,-77.18465,14.694864,1.9382782,111.217094,-39.643078,-6.4052277,-81.27724,-21.124254,-2.730952,114.95533,-47.03524,-7.433968,-2.1827176,-8.415979,29.793802,26.127874,0.028161755,-52.51579,60.310135,-22.52856,-1.6046066,21.56112,14.345379,-7.0369954,75.137146,58.65207,24.43497,9.591408,-33.811974
138,-1.7960883378982544,17.56999969482422,49.29197692871094,5.797768635270188,11.021463805857659,-92.72487851892224,-77.38991,14.669453,2.2548633,111.13524,-39.69161,-6.0523615,-81.69782,-21.22049,-2.538067,115.15128,-46.981823,-7.6708145,-2.1359127,-8.430075,29.793802,26.070518,-0.20605645,-51.73855,60.857445,-21.69038,-1.1317345,23.709785,14.375,-6.7794385,74.46787,59.015217,25.611755,10.695109,-35.606667
139,-1.8266946077346802,17.736711502075195,49.19379806518555,5.952851350118684,11.016385001217474,-92.50860835496935,-77.59059,14.626262,2.5657127,111.03821,-39.722603,-5.691037,-82.09836,-21.332071,-2.3550432,115.32748,-46.918465,-7.895433,-2.0880718,-8.430201,29.793802,25.912106,-0.4264442,-50.933594,61.51581,-20.966558,-0.56779635,25.790075,14.3819,-6.5492306,73.74794,59.405907,27.066772,11.624082,-37.227642
140,-1.8614970445632935,17.899728775024414,49.09766387939453,6.09218685490908,11.004658982243118,-92.27963399236643,-77.80941,14.540147,2.8192859,110.94568,-39.702805,-5.3553696,-82.472206,-21.45497,-2.1943896,115.48461,-46.846996,-8.128057,-2.04155,-8.410643,29.793802,25.632635,-0.62115127,-50.220898,62.310837,-20.686409,-0.08834542,27.542421,14.365362,-6.3500633,73.10749,59.837536,28.186008,12.383779,-38.38088
141,-1.8868465423583984,18.070077896118164,49.01077651977539,6.218443139854386,10.992312559670806,-92.02634721647816,-78.055176,14.397945,3.0144167,110.84821,-39.62019,-5.045546,-82.82361,-21.598658,-2.053274,115.61701,-46.76247,-8.36625,-1.9965591,-8.370973,29.793802,25.18623,-0.7771411,-49.65013,63.32507,-21.048277,0.2690523,28.910673,14.31195,-6.187095,72.55801,60.33022,28.820986,12.99024,-38.86805
142,-1.9226223230361938,18.24344253540039,48.93131637573242,6.335475735484189,10.978017117048152,-91.75088257829829,-78.31672,14.215015,3.1752126,110.74031,-39.492012,-4.7451105,-83.15414,-21.762634,-1.9273561,115.72688,-46.664993,-8.602755,-1.9500723,-8.314003,29.793802,24.609455,-0.8862944,-49.15699,64.5015,-21.834518,0.5680271,30.037565,14.23215,-6.0642185,72.03654,60.859394,29.2709,13.45884,-38.871098
143,-1.9543770551681519,18.431537628173828,48.879276275634766,6.433662746101555,10.950340525454173,-91.47787111467214,-78.58682,14.0123005,3.2867126,110.648796,-39.328495,-4.4624443,-83.45424,-21.924118,-1.8269113,115.82537,-46.56506,-8.847312,-1.898943,-8.239563,29.793802,24.006147,-0.94279027,-48.689716,65.654686,-22.73833,0.78143483,30.963161,14.155851,-5.9794073,71.565186,61.377865,29.59735,13.816383,-38.65553
144,-1.9838610887527466,18.602924346923828,48.807037353515625,6.503405189439091,10.89818770902284,-91.23205550591067,-78.859665,13.810372,3.331956,110.597694,-39.139732,-4.2060113,-83.71404,-22.058714,-1.7624488,115.926865,-46.474224,-9.110808,-1.8395871,-8.145239,29.793802,23.48497,-0.9370717,-48.20591,66.59017,-23.458431,0.8931497,31.725,14.120573,-5.9492955,71.16995,61.817238,29.871353,14.083946,-38.492653
145,-2.018754720687866,18.76966094970703,48.73288345336914,6.534920885374991,10.826410112708684,-91.01884810670796,-79.15458,13.606475,3.282738,110.59988,-38.906475,-3.9824777,-83.931,-22.156122,-1.7481769,116.02805,-46.394394,-9.410639,-1.7704004,-8.030655,29.793802,23.038935,-0.8797734,-47.640137,67.29027,-23.96886,0.901572,32.32445,14.1064205,-5.9250536,70.84712,62.224113,30.05275,14.223277,-38.37452
146,-2.0485198497772217,18.940935134887695,48.66106414794922,6.536018324106339,10.738695718099324,-90.82552990128445,-79.46946,13.392819,3.1547868,110.64015,-38.627335,-3.78478,-84.110085,-22.231476,-1.7745392,116.125015,-46.319565,-9.736619,-1.6945997,-7.8981495,29.793802,22.644142,-0.7480805,-47.05135,67.813,-24.420738,0.8224552,32.74591,14.108504,-5.9251914,70.601456,62.601303,30.135391,14.23563,-38.186462
147,-2.0876505374908447,19.116527557373047,48.576717376708984,6.522949941413629,10.62164924324981,-90.64961939637455,-79.765854,13.182163,2.9968414,110.704445,-38.34459,-3.6014075,-84.251465,-22.296186,-1.8173282,116.22654,-46.249733,-10.057296,-1.6199924,-7.765745,29.793802,22.312893,-0.5571197,-46.484123,68.19117,-24.71818,0.67551297,32.97585,14.141731,-5.9470806,70.42636,62.95194,30.190445,14.204053,-38.014053
148,-2.129450798034668,19.287609100341797,48.492000579833984,6.512770542332397,10.461314975901988,-90.48867042328955,-80.004395,12.987822,2.8576367,110.77954,-38.10028,-3.4213948,-84.35585,-22.364437,-1.8502393,116.34075,-46.180695,-10.341974,-1.5610358,-7.6574535,29.793802,22.058294,-0.32463452,-45.975544,68.45698,-24.766558,0.47934467,33.003567,14.216854,-5.9781094,70.327896,63.288586,30.294407,14.209878,-37.94494
149,-2.1631693840026855,19.461307525634766,48.40340042114258,6.502684176258362,10.241295621377581,-90.345182427271,-80.16266,12.815039,2.737795,110.86638,-37.910896,-3.2452648,-84.40261,-22.440866,-1.8760189,116.471985,-46.116756,-10.579937,-1.5228117,-7.572487,29.793802,21.877209,-0.06266285,-45.540253,68.64424,-24.40222,0.21760699,32.830967,14.337153,-6.0040083,70.35452,63.66189,30.39381,14.367659,-38.099777
150,-2.191138982772827,19.63440704345703,48.309783935546875,6.485882815364859,9.972745423074768,-90.21948793912948,-80.265465,12.656417,2.61356,110.97082,-37.75283,-3.0785298,-84.39738,-22.516712,-1.9051552,116.6145,-46.056984,-10.788214,-1.4987311,-7.501067,29.793802,21.753792,0.22451936,-45.151253,68.74814,-23.721634,-0.11618567,32.46606,14.49135,-6.0176525,70.48784,64.07084,30.472204,14.601036,-38.398907
151,-2.2218151092529297,19.81243324279785,48.20698928833008,6.4734252253441165,9.682473218220482,-90.10585608525275,-80.344505,12.507089,2.49713,111.08505,-37.603466,-2.9174345,-84.38104,-22.587587,-1.9223887,116.766556,-45.994812,-10.976903,-1.4825565,-7.450346,29.793802,21.6793,0.5267851,-44.78742,68.74781,-23.022663,-0.48994443,31.90644,14.668859,-6.0190463,70.62936,64.449295,30.659689,14.705816,-38.63021
152,-2.246217966079712,19.99284553527832,48.0961799621582,6.476095112351715,9.397643203488256,-89.99866923239583,-80.43157,12.361868,2.4012856,111.20405,-37.44118,-2.757796,-84.39537,-22.648987,-1.9125719,116.92405,-45.920364,-11.15635,-1.4661999,-7.424452,29.793802,21.641838,0.829406,-44.429974,68.627716,-22.603643,-0.8678024,31.145132,14.860605,-6.013586,70.677605,64.72583,31.08421,14.478757,-38.579197
153,-2.2680559158325195,20.170305252075195,47.98369598388672,6.501828020219618,9.116576210062828,-89.89418237022488,-80.525085,12.216546,2.3344526,111.32701,-37.261444,-2.602246,-84.44469,-22.705702,-1.8654597,117.094055,-45.83713,-11.3217,-1.4564989,-7.4290032,29.793802,21.623253,1.12577,-44.067753,68.38341,-22.551376,-1.2682469,29.978628,15.079614,-6.005583,70.58261,64.895134,31.910704,13.800101,-38.144497
154,-2.29095721244812,20.355648040771484,47.86417770385742,6.543016119055291,8.827502271020998,-89.79634555591552,-80.61169,12.075047,2.287856,111.456535,-37.07518,-2.451826,-84.50892,-22.757977,-1.7914407,117.27597,-45.74825,-11.469649,-1.4535668,-7.4566717,29.793802,21.62601,1.4118394,-43.714073,68.038055,-22.711617,-1.6963112,28.474566,15.328157,-5.994708,70.40254,64.986496,33.03206,12.81072,-37.44233
155,-2.3184707164764404,20.54054832458496,47.74061584472656,6.5868374044476505,8.542311722325996,-89.71121603555267,-80.70454,11.943994,2.2484422,111.58904,-36.883415,-2.3000636,-84.59186,-22.795397,-1.706931,117.45545,-45.64613,-11.612918,-1.4405671,-7.492523,29.793802,21.664913,1.6720029,-43.381577,67.62356,-23.012281,-2.0917182,27.030626,15.579589,-5.98085,70.20083,64.977936,34.171196,11.696642,-36.58945
156,-2.3342859745025635,20.727060317993164,47.62395477294922,6.62075451410356,8.272964870082625,-89.64463451965784,-80.81644,11.830148,2.203439,111.7204,-36.68724,-2.140537,-84.69768,-22.805798,-1.6273791,117.62219,-45.522686,-11.765335,-1.4012285,-7.520439,29.793802,21.748589,1.881994,-43.08292,67.18209,-23.373827,-2.4023836,26.046843,15.806947,-5.964758,70.03919,64.84954,35.04697,10.632272,-35.716682
157,-2.355801582336426,20.924333572387695,47.4968376159668,6.64075983381452,8.023348124895234,-89.60042160955604,-80.953735,11.737504,2.1478028,111.852165,-36.48434,-1.9707218,-84.83253,-22.788342,-1.5594381,117.773125,-45.37357,-11.93676,-1.3259041,-7.5359044,29.793802,21.870075,2.01448,-42.81438,66.72458,-23.796629,-2.575242,25.689487,16.011642,-5.9505496,69.905876,64.55328,35.633064,9.639257,-34.687748
158,-2.35599684715271,21.119434356689453,47.37958908081055,6.65335101427319,7.785755819739798,-89.57474665567742,-81.10757,11.661577,2.088374,111.984856,-36.27504,-1.7944244,-84.9903,-22.746695,-1.4947127,117.914696,-45.20428,-12.117414,-1.2256292,-7.5383077,29.793802,21.996016,2.0450346,-42.57242,66.28239,-24.308687,-2.6608882,25.729572,16.207539,-5.9436083,69.77106,64.111916,36.07064,8.630375,-33.49803
159,-2.358344078063965,21.321130752563477,47.25804138183594,6.663223636997047,7.555954860197687,-89.56168888261021,-81.26907,11.596894,2.0315661,112.11425,-36.0641,-1.6147252,-85.16157,-22.684721,-1.4258356,118.04563,-45.01988,-12.291484,-1.1200086,-7.538016,29.793802,22.144737,2.0204883,-42.356434,65.84388,-24.86638,-2.7584422,25.968458,16.378086,-5.9381924,69.68937,63.617622,36.322296,7.6000705,-32.48374
160,-2.353984832763672,21.529207229614258,47.134063720703125,6.674569335259908,7.3275794095170985,-89.55566087437002,-81.42637,11.538047,1.9835336,112.238754,-35.857605,-1.434511,-85.33275,-22.604584,-1.3458775,118.16435,-44.827084,-12.442428,-1.039214,-7.538451,29.793802,22.285957,1.9138134,-42.150246,65.48512,-25.42008,-2.9748194,26.21114,16.505442,-5.9270673,69.719185,63.173496,36.34036,6.538612,-31.98293
161,-2.3423514366149902,21.734189987182617,47.01256561279297,6.682821929807256,7.10592012924057,-89.55810628582609,-81.58751,11.485141,1.9413083,112.354164,-35.654877,-1.247965,-85.50488,-22.498503,-1.2579308,118.26176,-44.618862,-12.562481,-0.9727783,-7.529058,29.793802,22.448557,1.7481362,-41.992985,65.16694,-26.0747,-3.3659248,26.40096,16.584927,-5.9086947,69.88494,62.80309,36.03891,5.3140254,-32.23654
162,-2.3364336490631104,21.943130493164062,46.89640426635742,6.688068664444327,6.891830431887495,-89.57106055403312,-81.75427,11.440505,1.9035712,112.46245,-35.453674,-1.0558318,-85.68291,-22.368402,-1.1637092,118.341324,-44.395893,-12.660767,-0.9158593,-7.515931,29.793802,22.635777,1.5245415,-41.870968,64.87016,-26.812998,-3.8681412,26.63979,16.620333,-5.881938,70.15857,62.462082,35.44353,3.9760122,-33.025787
163,-2.3334805965423584,22.154197692871094,46.7817268371582,6.699740450117759,6.674639237859578,-89.58950746187865,-81.91069,11.402277,1.8761594,112.568954,-35.25524,-0.87153,-85.86305,-22.226461,-1.0575491,118.41844,-44.170654,-12.748236,-0.8654043,-7.501791,29.793802,22.823547,1.2630024,-41.763474,64.61864,-27.428621,-4.396528,26.970638,16.626385,-5.8433313,70.47001,62.130238,34.669678,2.7889736,-33.996204
164,-2.3220441341400146,22.36052703857422,46.66775894165039,6.727248449163374,6.4438855258598196,-89.60848422979574,-82.04088,11.368358,1.8649154,112.673775,-35.059338,-0.7087855,-86.041824,-22.086031,-0.9327883,118.51173,-43.955475,-12.836391,-0.81585705,-7.4905705,29.793802,22.995855,0.997225,-41.65188,64.420746,-27.716553,-4.8625154,27.440907,16.619106,-5.7872243,70.74893,61.787884,33.85538,2.0064888,-34.781956
165,-2.310927152633667,22.567665100097656,46.55038070678711,6.781079077322709,6.205206800974017,-89.6247931086204,-82.14598,11.336134,1.8795328,112.77284,-34.85743,-0.5797845,-86.235504,-21.942738,-0.77653295,118.62582,-43.756207,-12.934752,-0.76066065,-7.4934206,29.793802,23.191042,0.75600165,-41.51583,64.23093,-27.550152,-5.262938,28.097359,16.597464,-5.7034745,70.981636,61.389095,33.073174,1.7164072,-35.33349
166,-2.306705951690674,22.76629638671875,46.42339324951172,6.85388430176201,5.962514625397762,-89.6417735208998,-82.23413,11.307188,1.9141612,112.866196,-34.651684,-0.47484934,-86.441055,-21.791775,-0.59547514,118.752396,-43.564106,-13.035359,-0.69921464,-7.509446,29.793802,23.426277,0.55081284,-41.37668,64.01978,-27.06429,-5.6256294,28.9078,16.552797,-5.5863714,71.202774,60.965775,32.247692,1.7752489,-35.819653
167,-2.303169012069702,22.962617874145508,46.29679489135742,6.928115648936736,5.702315628749932,-89.66429444126281,-82.29845,11.285946,1.9515958,112.96447,-34.459423,-0.37447652,-86.625984,-21.64523,-0.4154597,118.88285,-43.374516,-13.121966,-0.63563716,-7.5238295,29.793802,23.654957,0.38842222,-41.278797,63.819557,-26.44886,-5.9086537,29.801807,16.49668,-5.439047,71.41336,60.606,31.305443,2.0784698,-36.195892
168,-2.3067588806152344,23.16558074951172,46.162803649902344,6.986020279465886,5.411646906861965,-89.69710130180867,-82.33226,11.276612,1.9743476,113.08114,-34.29871,-0.25899395,-86.75788,-21.515018,-0.26232013,119.00802,-43.181618,-13.178127,-0.57229614,-7.5190167,29.793802,23.827925,0.27179188,-41.270348,63.667694,-25.8974,-6.077325,30.70527,16.44107,-5.2722583,71.61178,60.393185,30.168879,2.5215874,-36.41924
169,-2.29677414894104,23.363597869873047,46.03752517700195,7.026334763563227,5.083020092931746,-89.745539900132,-82.32458,11.285471,1.9847822,113.21374,-34.17732,-0.124713086,-86.82633,-21.426228,-0.1491256,119.124504,-42.986546,-13.223292,-0.5066638,-7.4921265,29.793802,23.92413,0.20513512,-41.400658,63.594944,-25.416965,-6.0762124,31.719233,16.387415,-5.0939274,71.83992,60.34398,28.749556,3.0911078,-36.33536
170,-2.286573886871338,23.55767250061035,45.90983581542969,7.0577745846915025,4.725009116172835,-89.80556586608382,-82.28275,11.3083,1.9898641,113.35774,-34.08473,0.018417377,-86.84962,-21.365116,-0.05984058,119.238525,-42.791607,-13.258586,-0.4370845,-7.4516077,29.793802,23.977976,0.19170609,-41.636276,63.566284,-24.926697,-5.935683,32.839394,16.335155,-4.9075165,72.08431,60.402462,27.105762,3.8257792,-36.00054
171,-2.2820796966552734,23.755046844482422,45.78002166748047,7.076037303463989,4.348059981847847,-89.86776572208056,-82.225395,11.333797,1.9792415,113.519615,-34.01042,0.16948794,-86.83835,-21.286757,0.023190683,119.351494,-42.59411,-13.240157,-0.36821324,-7.395622,29.793802,24.0214,0.22850421,-41.89923,63.52492,-24.485462,-5.760459,33.833313,16.295773,-4.719545,72.2613,60.538612,25.382717,4.709888,-35.691307
172,-2.2701148986816406,23.94331932067871,45.652217864990234,7.079494888297017,3.962452573962487,-89.92264456569178,-82.17192,11.351058,1.9425633,113.7036,-33.94342,0.3275869,-86.801796,-21.144619,0.116520874,119.46371,-42.39154,-13.1234,-0.3044315,-7.32077,29.793802,24.081469,0.30823833,-42.1116,63.42059,-24.146515,-5.661362,34.47187,16.277914,-4.538461,72.284424,60.724174,23.731417,5.746504,-35.68834
173,-2.271625518798828,24.13088607788086,45.518253326416016,7.052799858528957,3.573029752790233,-89.97489818885806,-82.137825,11.363384,1.8630832,113.916664,-33.87808,0.51219994,-86.738815,-20.875996,0.22587878,119.563194,-42.165836,-12.844096,-0.23312995,-7.2041764,29.793802,24.153744,0.4272392,-42.170967,63.224537,-23.838526,-5.622062,34.62345,16.282646,-4.3720617,72.05054,60.968773,22.113598,7.1665955,-36.14036
174,-2.2566492557525635,24.307090759277344,45.38079071044922,7.0063712062220365,3.17328410343463,-90.02665407798915,-82.10822,11.374285,1.7511165,114.15392,-33.82108,0.7170024,-86.64386,-20.520239,0.34055746,119.65171,-41.926235,-12.442249,-0.15837495,-7.054331,29.793802,24.222883,0.5830442,-42.143566,62.97652,-23.558891,-5.6060233,34.43514,16.305592,-4.223293,71.633545,61.272415,20.489391,8.9142685,-36.855953
175,-2.255800724029541,24.468162536621094,45.22742462158203,6.955889027934936,2.7570153493993357,-90.06583913428383,-82.059975,11.373372,1.6361827,114.403595,-33.779057,0.90174395,-86.522575,-20.18621,0.4548374,119.75967,-41.711586,-12.031157,-0.10794208,-6.91454,29.793802,24.298626,0.7690254,-42.204994,62.731274,-23.46112,-5.694047,34.097446,16.345165,-4.094145,71.21349,61.597046,19.010105,10.562706,-37.632008
176,-2.2324249744415283,24.623998641967773,45.07182312011719,6.924778838084029,2.3183186918944165,-90.07993513139007,-81.96976,11.349557,1.5482366,114.65171,-33.758488,1.0266201,-86.38066,-19.982656,0.56279284,119.91341,-41.55711,-11.724242,-0.10888704,-6.8266816,29.793802,24.387854,0.97684973,-42.531136,62.54655,-23.700714,-5.9638715,33.799213,16.403284,-3.9867654,70.968254,61.902138,17.80966,11.671116,-38.290974
177,-2.2168097496032715,24.769920349121094,44.915164947509766,6.928304747664426,1.8613317061293155,-90.05335604412936,-81.83677,11.288577,1.5120547,114.89091,-33.760674,1.0794959,-86.239,-19.961588,0.67691725,120.13424,-41.47485,-11.575572,-0.17711367,-6.8089085,29.793802,24.45607,1.2067698,-43.229847,62.485073,-24.42288,-6.4819,33.4805,16.465097,-3.9069145,70.98012,62.22949,16.82235,12.153119,-38.76418
178,-2.2128171920776367,24.8940486907959,44.755680084228516,6.949923262373727,1.3874206391745274,-89.99706427689236,-81.67196,11.199554,1.5060409,115.12852,-33.782406,1.0821649,-86.08815,-20.057432,0.79501134,120.3994,-41.442394,-11.517014,-0.29351678,-6.83265,29.793802,24.504128,1.4616312,-44.18845,62.50795,-25.515625,-7.186175,33.066532,16.537025,-3.8599062,71.140236,62.575527,16.003656,12.227258,-39.17997
179,-2.2093610763549805,25.00969123840332,44.59120178222656,6.963863189406459,0.8865495900970769,-89.93837675322689,-81.4689,11.107254,1.4908255,115.37734,-33.82519,1.0457122,-85.8877,-20.207777,0.8917572,120.6841,-41.446346,-11.480521,-0.43444827,-6.870118,29.793802,24.589518,1.7332945,-45.24842,62.52493,-26.742168,-7.96714,32.728058,16.65465,-3.8442245,71.339165,62.83335,15.5061455,11.903301,-39.665894
180,-2.193868637084961,25.12116813659668,44.435516357421875,6.94193424457717,0.34852007117703926,-89.90420647328885,-81.22128,11.03656,1.4273661,115.64943,-33.890728,0.98088706,-85.59726,-20.348587,0.9411768,120.96109,-41.47235,-11.397362,-0.57884324,-6.895767,29.793802,24.770012,2.0058815,-46.247784,62.45129,-27.857399,-8.726472,32.646206,16.851086,-3.8537683,71.47081,62.903763,15.479834,11.188547,-40.341522
181,-2.170922040939331,25.224136352539062,44.28797912597656,6.873225906010208,-0.23614606009112316,-89.8939569402546,-80.92741,10.979256,1.3000811,115.95206,-33.985813,0.8960536,-85.197105,-20.48117,0.9248272,121.22542,-41.523273,-11.255999,-0.7362237,-6.915475,29.793802,25.055536,2.262219,-47.200012,62.323643,-28.865498,-9.532005,32.92917,17.143911,-3.8836539,71.605835,62.751163,15.973657,9.945251,-41.170902
182,-2.1694374084472656,25.320335388183594,44.133941650390625,6.775773481709779,-0.8610636833105735,-89.89507143899954,-80.5881,10.927142,1.1326052,116.27678,-34.10859,0.7833886,-84.709915,-20.634092,0.8590842,121.490456,-41.60527,-11.090712,-0.9177027,-6.938501,29.793802,25.406298,2.4962552,-48.1655,62.19156,-29.861656,-10.419893,33.461205,17.509687,-3.9331522,71.77286,62.44328,16.879404,8.199458,-42.086765
183,-2.1638331413269043,25.398836135864258,43.970760345458984,6.657278985992236,-1.5126150887529122,-89.91625147520591,-80.19832,10.905538,0.94586194,116.61567,-34.248024,0.62991387,-84.15687,-20.777908,0.76828736,121.75519,-41.708378,-10.902083,-1.1033101,-6.9452615,29.793802,25.811007,2.7099266,-49.05482,61.98385,-30.738203,-11.243747,34.10108,17.927347,-3.998977,71.79984,62.0292,18.105139,6.197018,-43.154903
184,-2.136324167251587,25.464200973510742,43.81174087524414,6.530435338139854,-2.176695436530267,-89.9664116220215,-79.753944,10.939553,0.7602046,116.95757,-34.39282,0.42234945,-83.561264,-20.887325,0.6772358,122.01659,-41.822468,-10.690252,-1.2708566,-6.916897,29.793802,26.260084,2.9087675,-49.779446,61.622627,-31.394697,-11.849045,34.71247,18.378649,-4.0736523,71.514435,61.55417,19.56516,4.177945,-44.453125
185,-2.1017208099365234,25.51798439025879,43.66887664794922,6.391345043032202,-2.8481126697575316,-90.0487145403228,-79.25843,11.041344,0.5776398,117.30341,-34.532627,0.1624261,-82.92562,-20.946527,0.5851929,122.2715,-41.949303,-10.453851,-1.4081088,-6.8458815,29.793802,26.766005,3.0926306,-50.298862,61.055435,-31.771456,-12.175371,35.331223,18.890661,-4.1484413,70.826096,60.981087,21.429321,2.076131,-46.061256
186,-2.0631909370422363,25.5609073638916,43.53349304199219,6.2371536169023285,-3.535609775844751,-90.1575216554929,-78.71114,11.196222,0.38959795,117.656235,-34.67653,-0.14479646,-82.2382,-20.971365,0.48049685,122.52084,-42.093174,-10.193544,-1.5271615,-6.745249,29.793802,27.331907,3.2590406,-50.667522,60.330093,-31.937563,-12.306517,36.013775,19.473629,-4.216726,69.84489,60.300583,23.645483,-0.2416908,-47.875034
187,-2.0261693000793457,25.583099365234375,43.39236831665039,6.077752553538649,-4.24492340862496,-90.28940137445551,-78.10192,11.3891325,0.20183252,118.01382,-34.843876,-0.5073534,-81.50207,-20.985817,0.3726184,122.77199,-42.24805,-9.913182,-1.6410695,-6.6288376,29.793802,27.935503,3.4130917,-50.938686,59.516796,-31.990337,-12.298831,36.65454,20.07479,-4.2765355,68.69807,59.609093,25.81806,-2.616148,-49.73771
188,-1.9789139032363892,25.589418411254883,43.25409698486328,5.925842231720491,-4.981637764597476,-90.44087809920931,-77.42068,11.604757,0.020976603,118.37422,-35.05394,-0.9330581,-80.72012,-21.009398,0.26898032,123.02975,-42.407623,-9.616547,-1.7618198,-6.508363,29.793802,28.556072,3.5657828,-51.16694,58.68035,-32.02631,-12.210056,37.146248,20.63432,-4.32924,67.50755,59.00193,27.57597,-4.852464,-51.53619
189,-1.9263923168182373,25.57894515991211,43.122222900390625,5.779226714633503,-5.744888981232939,-90.63001175661456,-76.64967,11.869128,-0.14684872,118.73099,-35.316376,-1.4767215,-79.88742,-21.037794,0.15569028,123.28922,-42.562233,-9.306664,-1.8850405,-6.381091,29.793802,29.21407,3.7279785,-51.31566,57.76908,-32.047726,-12.007352,37.417244,21.155603,-4.377265,66.177086,58.44648,28.92636,-6.983242,-53.314964
190,-1.8745487928390503,25.560178756713867,42.99758529663086,5.633045280723,-6.531797120515384,-90.85211169384581,-75.79839,12.18127,-0.30161956,119.085655,-35.621204,-2.1160343,-79.00449,-21.05926,0.030984024,123.54724,-42.717457,-8.981385,-2.0043614,-6.24348,29.793802,29.921005,3.9040549,-51.374332,56.75279,-32.01307,-11.672365,37.538242,21.664577,-4.420877,64.68217,57.901463,30.038265,-9.070741,-55.141895
191,-1.8083033561706543,25.52535629272461,42.86819076538086,5.498021101909616,-7.343568086547142,-91.07065051821063,-74.89765,12.485024,-0.44598344,119.45068,-35.958115,-2.7428727,-78.081985,-21.097095,-0.07796546,123.819565,-42.892944,-8.63479,-2.1293828,-6.1044745,29.793802,30.641935,4.0951786,-51.43465,55.730015,-31.94937,-11.285935,37.61554,22.127209,-4.4613194,63.24916,57.460377,30.810175,-10.932021,-56.97928
192,-1.7457356452941895,25.479259490966797,42.73389434814453,5.379193091099927,-8.182095125476751,-91.24872615996416,-73.97771,12.72304,-0.58488595,119.83898,-36.316067,-3.249915,-77.12891,-21.171795,-0.14656961,124.1173,-43.107433,-8.260907,-2.274002,-5.974445,29.793802,31.340065,4.3001466,-51.583794,54.80394,-31.883522,-10.930165,37.75527,22.508383,-4.501584,62.109215,57.21978,31.15428,-12.373393,-58.795227
193,-1.6852034330368042,25.424362182617188,42.59636306762695,5.286817741535795,-9.068523342733489,-91.36313950662134,-73.02231,12.858504,-0.71434176,120.25867,-36.69588,-3.5982761,-76.12189,-21.313396,-0.1636364,124.457375,-43.38117,-7.848018,-2.4564302,-5.86776,29.793802,32.00533,4.520072,-51.85231,54.027008,-31.82448,-10.625272,37.99543,22.760277,-4.5434036,61.35661,57.271427,30.990646,-13.200333,-60.65151
194,-1.6340030431747437,25.36175537109375,42.455814361572266,5.211086720402493,-9.994661672283877,-91.43837527055386,-72.02192,12.927191,-0.83207,120.69948,-37.101097,-3.8489714,-75.05814,-21.502256,-0.15222922,124.82777,-43.7015,-7.4022007,-2.6670134,-5.7750554,29.793802,32.65704,4.7562294,-52.1864,53.33669,-31.756775,-10.328293,38.275684,22.90918,-4.5894184,60.858814,57.54685,30.423443,-13.528693,-62.56498
195,-1.5853261947631836,25.277292251586914,42.31032943725586,5.13791447018124,-10.918476198995691,-91.51016096401563,-71.01794,12.979522,-0.9472125,121.1492,-37.524277,-4.044573,-73.98289,-21.685232,-0.13206902,125.197876,-44.036076,-6.940812,-2.8767292,-5.6694016,29.793802,33.29983,5.005382,-52.550583,52.66861,-31.67065,-10.026443,38.55541,23.028038,-4.6468325,60.50397,57.907837,29.638235,-13.633845,-64.42915
196,-1.5301616191864014,25.196617126464844,42.18132019042969,5.047202653451616,-11.798273496259117,-91.61334519377542,-70.05313,13.067814,-1.0699803,121.59172,-37.956913,-4.2278333,-72.94269,-21.808886,-0.12274544,125.53699,-44.35268,-6.4865174,-3.0587127,-5.524727,29.793802,33.938305,5.2605686,-52.908546,51.959484,-31.556438,-9.707097,38.79363,23.19357,-4.72732,60.182446,58.2083,28.80114,-13.803765,-66.141335
197,-1.448911428451538,25.1218318939209,42.06139373779297,4.923984171913333,-12.635677377448289,-91.75159868714306,-69.132866,13.1971,-1.2188946,122.03161,-38.40259,-4.3962374,-71.922035,-21.86545,-0.14247549,125.83576,-44.65718,-6.040897,-3.2083244,-5.3144693,29.793802,34.562546,5.5141544,-53.30155,51.24434,-31.422503,-9.402873,39.001575,23.420116,-4.8402896,59.975376,58.48082,27.970139,-14.134174,-67.7419
198,-1.368672251701355,25.04509162902832,41.940948486328125,4.780782579384054,-13.449095373960407,-91.90770633653482,-68.23629,13.342746,-1.3830878,122.47429,-38.863026,-4.5318274,-70.90709,-21.881662,-0.17236544,126.112305,-44.962383,-5.5918803,-3.3435414,-5.058517,29.793802,35.16957,5.763201,-53.730526,50.548817,-31.270052,-9.109545,39.193428,23.668896,-4.990871,59.905197,58.77047,27.053381,-14.459713,-69.26509
199,-1.2866328954696655,24.970294952392578,41.82109832763672,4.647021277014843,-14.222141129484248,-92.08542574493251,-67.36523,13.513615,-1.528798,122.90728,-39.327812,-4.653512,-69.95067,-21.854092,-0.18066591,126.374626,-45.24262,-5.1505647,-3.4688456,-4.799861,29.793802,35.7748,6.008023,-54.10162,49.792164,-31.07808,-8.758597,39.331493,23.943695,-5.185238,59.771595,58.943592,25.98115,-14.687664,-70.60156
200,-1.2013719081878662,24.896665573120117,41.705196380615234,4.552669168062344,-14.938088370455803,-92.28986053597868,-66.523506,13.71652,-1.6246132,123.31716,-39.788017,-4.7823462,-69.10255,-21.783821,-0.13502333,126.634895,-45.48082,-4.728816,-3.584831,-4.5790524,29.793802,36.395813,6.251392,-54.32511,48.88965,-30.826374,-8.280909,39.377403,24.255976,-5.4282045,59.37041,58.857136,24.688248,-14.726443,-71.636444
201,-1.1173330545425415,24.820947647094727,41.59452819824219,4.5030108993953695,-15.580143805427793,-92.53575764335307,-65.71572,13.965414,-1.6666389,123.69463,-40.24866,-4.916865,-68.38612,-21.647947,-0.021854151,126.88129,-45.657337,-4.320188,-3.6805873,-4.403857,29.793802,37.013878,6.492929,-54.413174,47.819263,-30.543125,-7.6446395,39.326305,24.627748,-5.7267957,58.5601,58.416454,23.06236,-14.513774,-72.222626
202,-1.0219801664352417,24.748729705810547,41.489662170410156,4.485241003449941,-16.16055179666231,-92.81754796096472,-64.94099,14.251654,-1.6718591,124.04832,-40.711372,-5.0487413,-67.77183,-21.458029,0.14322866,127.11666,-45.788013,-3.9227722,-3.7542017,-4.249906,29.793802,37.625843,6.7332325,-54.408443,46.62439,-30.227858,-6.891414,39.19497,25.061066,-6.0837674,57.46944,57.691204,21.174316,-14.1205,-72.44559
203,-0.9214307069778442,24.680049896240234,41.38850402832031,4.495552944071999,-16.705520870058262,-93.10978600300665,-64.19589,14.550798,-1.6365662,124.39462,-41.15943,-5.183574,-67.239334,-21.253292,0.356957,127.36115,-45.89297,-3.5426548,-3.8218653,-4.113862,29.793802,38.283566,6.978157,-54.262035,45.30651,-29.815935,-6.0612645,38.975285,25.533953,-6.4953456,56.304787,56.794746,19.235884,-13.653812,-72.54039
204,-0.8259665369987488,24.615877151489258,41.28291320800781,4.5350590879115895,-17.241157360481704,-93.38691988172067,-63.47618,14.837791,-1.5561472,124.7518,-41.57679,-5.3270516,-66.76719,-21.071186,0.6141641,127.63592,-45.99151,-3.1860168,-3.9045308,-3.9952135,29.793802,39.04102,7.2367525,-53.919563,43.85989,-29.241373,-5.194161,38.65663,26.0175,-6.951942,55.27885,55.85501,17.460825,-13.210272,-72.75123
205,-0.7197353839874268,24.547077178955078,41.16214370727539,4.612779379125771,-17.768355605328686,-93.65006179960729,-62.780125,15.111538,-1.4134115,125.115875,-41.950893,-5.4705763,-66.35731,-20.920387,0.9210165,127.94199,-46.080246,-2.8623226,-4.020179,-3.904489,29.793802,39.951706,7.519181,-53.281113,42.14342,-28.517086,-4.1765895,38.075565,26.471111,-7.452018,54.460815,54.926247,15.899153,-12.813272,-73.09083
206,-0.6195204257965088,24.48326301574707,41.029048919677734,4.72432619351695,-18.274277789475235,-93.91034833310061,-62.11209,15.382087,-1.2164986,125.47931,-42.29185,-5.614418,-66.017685,-20.780825,1.2782278,128.26848,-46.150562,-2.5633385,-4.159656,-3.8445134,29.793802,40.992558,7.8281307,-52.395966,40.176357,-27.65594,-3.032289,37.281532,26.917677,-7.996382,53.74173,53.94092,14.441297,-12.412843,-73.448364
207,-0.5220926403999329,24.42721939086914,40.88365173339844,4.855451924967035,-18.765159806106887,-94.16020434392325,-61.477272,15.639599,-1.0002187,125.85703,-42.621838,-5.7808,-65.73334,-20.649433,1.6694465,128.62663,-46.217243,-2.2722533,-4.2980494,-3.7989848,29.793802,42.10049,8.157821,-51.44111,38.202854,-26.607544,-2.005538,36.58357,27.419565,-8.571917,53.057938,52.85791,13.062115,-11.984105,-73.88798
208,-0.42144322395324707,24.36773109436035,40.72002029418945,4.989911700966148,-19.247654755067547,-94.39112145007707,-60.879845,15.876147,-0.7982777,126.261314,-42.962036,-5.990538,-65.48873,-20.52552,2.078914,129.02568,-46.294178,-1.9710343,-4.4064374,-3.7504306,29.793802,43.199238,8.495237,-50.59588,36.48877,-25.337385,-1.3332464,36.29746,28.036467,-9.1540165,52.340343,51.644108,11.737904,-11.500318,-74.47086
209,-0.32471638917922974,24.312129974365234,40.531375885009766,5.136086183533754,-19.72370700854823,-94.60469924397437,-60.32145,16.095688,-0.6016765,126.69653,-43.31424,-6.2534432,-65.2931,-20.407684,2.5167527,129.47565,-46.383312,-1.6624151,-4.4827223,-3.6965165,29.793802,44.294006,8.829452,-49.86541,35.134197,-23.708153,-1.0336797,36.506226,28.772205,-9.714491,51.5845,50.314804,10.480155,-10.969192,-75.33308
210,-0.24253150820732117,24.25323486328125,40.3214225769043,5.298431073392463,-20.19016467954588,-94.80445015509817,-59.79919,16.300972,-0.39780504,127.15753,-43.671223,-6.5574193,-65.1473,-20.296175,2.9855385,129.96838,-46.480473,-1.3516941,-4.53426,-3.6446939,29.793802,45.40298,9.15507,-49.172398,34.01326,-21.789774,-0.97694963,37.053535,29.584488,-10.238767,50.813423,48.91362,9.298228,-10.394707,-76.40084
211,-0.16350488364696503,24.188190460205078,40.08950424194336,5.45616277622902,-20.647043352827072,-94.98546753708769,-59.31021,16.482738,-0.21575046,127.63381,-44.038975,-6.889694,-65.023895,-20.187794,3.4578874,130.48862,-46.58553,-1.0261335,-4.5479283,-3.5908713,29.793802,46.462097,9.466033,-48.57123,33.06195,-19.860613,-1.1688473,37.907993,30.47092,-10.722344,50.001057,47.436066,8.167178,-9.748501,-77.41735
212,-0.09299677610397339,24.130651473999023,39.85608673095703,5.591275616212743,-21.094398172632935,-95.14224768080139,-58.851128,16.632902,-0.08446615,128.11758,-44.424366,-7.2376537,-64.89727,-20.082443,3.9067643,131.01665,-46.69912,-0.6730556,-4.510001,-3.5285897,29.793802,47.40327,9.758815,-48.120026,32.21995,-18.19375,-1.6242269,39.03984,31.433752,-11.170064,49.116703,45.87066,7.0557666,-9.010372,-78.12449
213,-0.023832501843571663,24.072521209716797,39.61306381225586,5.692471480023773,-21.51190326342045,-95.27639484516884,-58.449997,16.748762,-0.026025532,128.61205,-44.8309,-7.601185,-64.78673,-19.969822,4.3179917,131.55028,-46.81793,-0.28732792,-4.409172,-3.4381406,29.714132,48.205414,10.024924,-47.892544,31.564764,-16.88451,-2.450066,40.606693,32.54869,-11.57759,48.101837,44.183506,5.937805,-8.130173,-78.43113
214,0.035196125507354736,24.00262451171875,39.363800048828125,5.772197315121185,-21.84448063155751,-95.38166433491865,-58.179222,16.83536,-0.013708504,129.12056,-45.23796,-7.9784393,-64.784935,-19.85261,4.7145514,132.09933,-46.924755,0.11877265,-4.280807,-3.328951,29.30082,49.032394,10.252762,-47.859917,31.172709,-15.768512,-3.5747237,42.57346,33.891098,-11.929562,47.02849,42.48707,4.851401,-7.1326785,-78.448364
215,0.09214410930871964,23.935001373291016,39.10969924926758,5.844028730914065,-22.172939660504124,-95.45768767153247,-57.930206,16.899467,-0.01698978,129.63275,-45.65411,-8.369141,-64.78798,-19.748865,5.1106358,132.66428,-47.041805,0.5428646,-4.1324806,-3.239489,28.893112,49.798203,10.454241,-47.88003,30.85518,-14.689935,-4.800256,44.64821,35.237244,-12.2375,45.978703,40.781853,3.8096654,-6.142118,-78.29306
216,0.14518685638904572,23.86549186706543,38.85056686401367,5.920716742966207,-22.506980899792765,-95.49483801481259,-57.686745,16.945307,0.0012803174,130.13869,-46.065845,-8.764728,-64.79236,-19.676764,5.528707,133.24538,-47.16636,0.97625446,-3.9986498,-3.2093399,28.507065,50.590683,10.6429825,-47.83382,30.472078,-13.547946,-5.911432,46.512733,36.496822,-12.521693,45.0854,39.16319,2.856284,-5.2624846,-78.05008
217,0.19120948016643524,23.793306350708008,38.57774353027344,6.009349999641782,-22.84721232172294,-95.49128650371937,-57.44063,16.975594,0.054128923,130.63443,-46.475872,-9.166019,-64.79897,-19.636944,5.98068,133.84618,-47.296326,1.4260702,-3.8827672,-3.2562947,28.140554,51.42672,10.825985,-47.760868,29.999237,-12.338771,-6.8768063,48.164505,37.63563,-12.808288,44.415363,37.68034,2.0132935,-4.558753,-77.741486
218,0.22337818145751953,23.724756240844727,38.30280685424805,6.099605939690967,-23.189129353950126,-95.45160817106603,-57.203278,16.988693,0.11945889,131.12556,-46.8899,-9.575876,-64.807846,-19.620787,6.451414,134.46451,-47.43255,1.8944222,-3.7718172,-3.3573382,27.78903,52.26914,11.00598,-47.69865,29.492182,-11.113803,-7.8067026,49.744926,38.719913,-13.111243,43.890404,36.2468,1.252009,-3.9641328,-77.32889
219,0.25136426091194153,23.65910530090332,38.020912170410156,6.184534433164849,-23.53438193570189,-95.37775590658744,-56.988773,16.981108,0.18077533,131.61935,-47.29606,-9.9903965,-64.81225,-19.631872,6.9229555,135.09627,-47.588017,2.3649774,-3.6719906,-3.4902995,27.464422,53.130627,11.190796,-47.525467,28.926662,-9.878353,-8.706995,51.14595,39.808388,-13.430591,43.423435,34.761433,0.5409752,-3.3841941,-76.80831
220,0.27553296089172363,23.59844207763672,37.73737716674805,6.258528963811823,-23.884944700105194,-95.27171906174787,-56.810482,16.949266,0.22135489,132.12257,-47.684784,-10.405311,-64.80798,-19.67715,7.379674,135.73483,-47.767685,2.8215046,-3.588387,-3.6346424,27.178066,54.03135,11.390435,-47.11752,28.270802,-8.641425,-9.587639,52.257477,40.95432,-13.753699,42.93137,33.129868,-0.15139939,-2.7249715,-76.17297
221,0.2944677770137787,23.543169021606445,37.439186096191406,6.317805822826167,-24.24650140741786,-95.12159458579731,-56.671097,16.887243,0.23711261,132.63565,-48.048546,-10.8178835,-64.78863,-19.77064,7.824345,136.38516,-47.97432,3.2736719,-3.5255907,-3.796511,26.93969,55.03112,11.619112,-46.319836,27.412203,-7.4162583,-10.419491,52.845116,42.179447,-14.069127,42.355133,31.30025,-0.8456633,-1.9534786,-75.30169
222,0.30579879879951477,23.489238739013672,37.12773132324219,6.366818930900264,-24.616028081550684,-94.92944176370528,-56.56327,16.798416,0.23626,133.15685,-48.393696,-11.231498,-64.7592,-19.9056,8.263989,137.04807,-48.20312,3.7254105,-3.4736085,-3.9832253,26.741362,56.12109,11.88242,-45.239227,26.37458,-6.2116995,-11.227099,53.030277,43.450943,-14.373445,41.751163,29.338413,-1.5292002,-1.1277115,-74.237175
223,0.3051849603652954,23.442325592041016,36.80954360961914,6.408575536841948,-24.98270430296136,-94.72003000985181,-56.486774,16.696215,0.21900377,133.6843,-48.730408,-11.648813,-64.73146,-20.056248,8.690334,137.71472,-48.456882,4.1513066,-3.414444,-4.1761255,26.566675,57.196037,12.173233,-44.14442,25.352797,-5.021752,-12.093893,53.241707,44.732967,-14.663917,41.208004,27.3378,-2.1819227,-0.28749654,-73.21815
224,0.30407461524009705,23.40052032470703,36.480159759521484,6.450564021834549,-25.33525303872768,-94.51915480666105,-56.440693,16.592535,0.18656637,134.21887,-49.066906,-12.073915,-64.71701,-20.197172,9.095482,138.37955,-48.73956,4.52523,-3.3317046,-4.3564653,26.398314,58.138027,12.476281,-43.30413,24.559032,-3.8238065,-13.084551,53.91668,45.984867,-14.939462,40.813347,25.398775,-2.7768667,0.5332659,-72.48493
225,0.3008989095687866,23.354778289794922,36.139183044433594,6.490671896330782,-25.680824507686303,-94.32072662403174,-56.42189,16.485521,0.13573265,134.76674,-49.40906,-12.513423,-64.7085,-20.332237,9.485312,139.04924,-49.062786,4.840077,-3.218755,-4.517485,26.228003,58.85293,12.778144,-42.805622,24.24014,-2.5630226,-14.432462,55.32325,47.207794,-15.196859,40.63662,23.543926,-3.2883272,1.358371,-72.208
226,0.29183799028396606,23.312320709228516,35.78897476196289,6.526618768965516,-26.02174346374666,-94.11561659669246,-56.43053,16.370922,0.06763835,135.32706,-49.75254,-12.962642,-64.70436,-20.473246,9.863642,139.72612,-49.422123,5.1089826,-3.087166,-4.671154,26.064945,59.40562,13.074898,-42.49825,24.246574,-1.2229096,-16.007448,57.205837,48.40531,-15.4375725,40.617798,21.739876,-3.730481,2.20269,-72.226166
227,0.2815256416797638,23.272563934326172,35.44482421875,6.560506350123057,-26.339493751065746,-93.92025443477117,-56.499664,16.256895,-0.018031415,135.87157,-50.000305,-13.406052,-64.73163,-20.604021,10.221344,140.39043,-49.781467,5.3339405,-2.9502223,-4.825933,25.917711,59.918385,13.366865,-42.294853,24.1968,0.13612942,-17.330473,59.193947,49.5471,-15.671132,40.65119,19.994287,-4.1342735,3.0194294,-72.28363
228,0.2737278938293457,23.24319839477539,35.09999084472656,6.59425439521821,-26.614609991904302,-93.75264204922884,-56.68455,16.153294,-0.12628543,136.36066,-50.000305,-13.825183,-64.85639,-20.704487,10.560111,141.00963,-50.000305,5.5134673,-2.819055,-4.9871435,25.794947,60.521133,13.657893,-42.1116,23.701971,1.3932984,-17.945631,60.87494,50.611572,-15.91215,40.624516,18.303871,-4.5368605,3.7586908,-72.12276
229,0.2721559405326843,23.217304229736328,34.757362365722656,6.617208526047376,-26.844209231673293,-93.59867072251708,-56.93576,16.036993,-0.25552008,136.8405,-50.000305,-14.218765,-65.11417,-20.785608,10.883703,141.57442,-50.000305,5.6326942,-2.7272985,-5.158388,25.70264,61.246994,13.953475,-41.99104,22.543282,2.4678528,-17.503117,62.22574,51.600815,-16.17468,40.49847,16.64472,-4.960226,4.413068,-71.666794
230,0.2660119831562042,23.19776725769043,34.42196273803711,6.62631083197302,-27.007914524535952,-93.42993768902103,-57.292282,15.894545,-0.39950287,137.31769,-50.000305,-14.584941,-65.46471,-20.873632,11.187077,142.13016,-50.000305,5.6997576,-2.6830733,-5.340776,25.60102,62.03375,14.258148,-41.956676,20.955057,3.380688,-16.338797,63.386482,52.532043,-16.46411,40.332794,15.00871,-5.381234,5.0055118,-71.05525
231,0.26131075620651245,23.1950740814209,34.09560775756836,6.6653343366431095,-27.078297056283034,-93.32758377173839,-57.724274,15.808042,-0.51623243,137.77736,-50.000305,-14.936744,-65.954605,-20.891811,11.492164,142.6675,-50.000305,5.7309084,-2.5968854,-5.525014,25.453722,62.868958,14.573307,-41.895145,19.223904,4.163425,-15.04297,64.18945,53.410843,-16.7785,40.166653,13.413948,-5.771718,5.5295057,-70.35473
232,0.25079819560050964,23.196086883544922,33.795562744140625,6.723861534548626,-27.082100246096388,-93.233432042566,-58.203133,15.789339,-0.48763952,138.21396,-50.000305,-15.000033,-66.51758,-20.886898,11.82716,143.17459,-50.000305,5.7930427,-2.500827,-5.72058,25.263838,63.743374,14.896972,-41.685097,17.640348,4.8799295,-14.2109375,64.49139,54.237736,-17.108713,40.049404,11.887373,-6.102006,5.9798646,-69.63419
233,0.2423514574766159,23.194425582885742,33.50743103027344,6.813540534465249,-27.011573475980846,-93.14435504477903,-58.734516,15.803185,-0.38975322,138.62708,-50.000305,-15.000033,-67.16463,-20.854347,12.206312,143.65819,-50.000305,5.903086,-2.3927217,-5.948124,25.015137,64.6995,15.230166,-41.237583,16.264845,5.5513406,-14.118905,64.036766,55.003002,-17.449553,39.993908,10.444547,-6.3657336,6.3481436,-68.84332
234,0.22841158509254456,23.1923828125,33.23747634887695,6.924766993527759,-26.88187951588338,-93.06661976412458,-59.306747,15.834412,-0.26610056,139.02025,-50.000305,-15.000033,-67.878006,-20.794922,12.609399,144.11943,-50.000305,6.03453,-2.2775471,-6.2008166,24.733307,65.73147,15.570561,-40.628357,14.944535,6.1529884,-14.428456,62.989864,55.706,-17.799124,39.979355,9.077255,-6.5770464,6.640046,-67.97159
235,0.22044743597507477,23.182552337646484,32.98596954345703,7.04099805954998,-26.70403703799118,-93.01047437522367,-59.9035,15.888498,-0.13156377,139.38612,-50.000305,-15.000033,-68.629486,-20.71241,12.99548,144.54294,-50.000305,6.1530447,-2.1514692,-6.441871,24.437332,66.74197,15.9051895,-39.989594,13.667938,6.690754,-14.805472,61.84329,56.35354,-18.149708,40.000572,7.785827,-6.7363367,6.8731933,-67.14725
236,0.23663046956062317,23.174840927124023,32.752254486083984,7.14693075471471,-26.488247879185117,-92.98686069992002,-60.50906,15.970472,0.00075571024,139.72258,-50.000305,-15.000033,-69.39308,-20.612226,13.324359,144.91379,-50.000305,6.2240305,-2.0120258,-6.63521,24.144943,67.62661,16.21453,-39.457977,12.439383,7.1877875,-14.907227,61.08878,56.947086,-18.489794,40.05271,6.578292,-6.8448114,7.065538,-66.49822
237,0.2618377208709717,23.169841766357422,32.533226013183594,7.248479452594888,-26.217895382800247,-93.0033434337872,-61.1359,16.086784,0.1464928,140.01955,-50.000305,-15.000033,-70.19485,-20.493464,13.601845,145.22414,-50.000305,6.2401943,-1.8599609,-6.778437,23.849514,68.33625,16.479677,-39.074795,11.269821,7.6609344,-14.576868,60.913147,57.46024,-18.808687,40.16353,5.478512,-6.881648,7.2131505,-66.10174
238,0.2836192846298218,23.171566009521484,32.343257904052734,7.367056264977621,-25.891763797600845,-93.035212596463,-61.784912,16.21439,0.33515087,140.27843,-50.000305,-15.000033,-71.051315,-20.368336,13.885874,145.48665,-50.000305,6.2398744,-1.7144867,-6.913019,23.539883,68.91667,16.693531,-38.771145,10.184828,8.100723,-14.01249,61.033604,57.885754,-19.10309,40.327408,4.4975543,-6.85492,7.3110647,-65.87661
239,0.29674747586250305,23.17635154724121,32.18006896972656,7.475391649353048,-25.547832805810362,-93.07398228992928,-62.42729,16.345621,0.5183779,140.50699,-50.000305,-15.000033,-71.89406,-20.24091,14.137168,145.71161,-50.000305,6.2196026,-1.5751979,-7.027217,23.236462,69.40137,16.861088,-38.518482,9.211877,8.50171,-13.4021635,61.23745,58.24802,-19.374847,40.495132,3.6234477,-6.8081527,7.3752155,-65.71263
240,0.32028597593307495,23.19451332092285,32.042015075683594,7.574496523093581,-25.218861303677702,-93.08653408729415,-63.036312,16.445568,0.69444877,140.71204,-50.000305,-15.000033,-72.679695,-20.136864,14.379422,145.91399,-50.000305,6.205049,-1.4641393,-7.1407685,22.950113,69.83218,16.99582,-38.28864,8.365774,8.860329,-12.937156,61.315582,58.58214,-19.628048,40.615326,2.8348145,-6.784086,7.4211254,-65.499084
