unveil-humanoid-operators/unveil-humanoid-operators.github.io/feature-analysis-animation/data/feature_matrix_instances/height_root_translate_rom_jogging_turning_A071.csv
Frame,root_translateX,root_translateY,root_translateZ,root_rotateX,root_rotateY,root_rotateZ,left_hip_pitch_joint_dof,left_hip_roll_joint_dof,left_hip_yaw_joint_dof,left_knee_joint_dof,left_ankle_pitch_joint_dof,left_ankle_roll_joint_dof,right_hip_pitch_joint_dof,right_hip_roll_joint_dof,right_hip_yaw_joint_dof,right_knee_joint_dof,right_ankle_pitch_joint_dof,right_ankle_roll_joint_dof,waist_yaw_joint_dof,waist_roll_joint_dof,waist_pitch_joint_dof,left_shoulder_pitch_joint_dof,left_shoulder_roll_joint_dof,left_shoulder_yaw_joint_dof,left_elbow_joint_dof,left_wrist_roll_joint_dof,left_wrist_pitch_joint_dof,left_wrist_yaw_joint_dof,right_shoulder_pitch_joint_dof,right_shoulder_roll_joint_dof,right_shoulder_yaw_joint_dof,right_elbow_joint_dof,right_wrist_roll_joint_dof,right_wrist_pitch_joint_dof,right_wrist_yaw_joint_dof
0,2.602574110031128,0.9250907301902771,77.46237182617188,-1.3060231575146242,-12.039344795107224,-172.14287715529053,9.879459,3.828702,0.9154713,14.610689,-15.77224,-3.5924928,14.665921,-8.758203,-14.895838,15.141897,-14.438192,8.009954,-4.6160116,-2.0198941,20.772272,-9.399143,19.195753,-35.790966,60.700333,-6.0081267,7.9659605,6.1184077,-13.618303,-16.765432,44.978043,62.864136,6.7201557,4.407273,-3.346864
1,2.604769706726074,0.936566948890686,77.46328735351562,-1.293109133130487,-11.99850589585827,-172.21083306961282,9.845042,3.8477347,0.99444413,14.595867,-15.744886,-3.6244802,14.504273,-8.76865,-14.80928,15.321176,-14.508438,7.9539604,-4.6680737,-2.0536566,20.782795,-9.489885,19.212547,-35.919453,60.72362,-6.0000453,8.093709,5.981442,-13.689921,-16.775576,45.015686,62.77731,6.7323856,4.3856654,-3.3711684
2,2.606719493865967,0.9515191316604614,77.46287536621094,-1.2783151551679026,-11.95748537553267,-172.2751540697544,9.812061,3.8631124,1.0693206,14.580314,-15.717116,-3.654174,14.346228,-8.781714,-14.72527,15.498864,-14.579079,7.899349,-4.6865473,-2.086463,20.784437,-9.597618,19.232819,-36.10796,60.76703,-6.0199766,8.228861,5.845768,-13.732863,-16.791515,45.031464,62.68177,6.752853,4.36569,-3.3990705
3,2.6159191131591797,0.9711382985115051,77.46153259277344,-1.2669903845381993,-11.91554766439581,-172.34602452952865,9.775521,3.8856735,1.151666,14.567224,-15.690761,-3.688506,14.182284,-8.78862,-14.637011,15.676388,-14.647024,7.8421206,-4.7122855,-2.1163282,20.792511,-9.712072,19.249813,-36.29116,60.798733,-6.0341244,8.349599,5.716858,-13.787069,-16.808558,45.0407,62.58304,6.7607713,4.340442,-3.4224768
4,2.635270357131958,0.9879845976829529,77.45873260498047,-1.2633096701652404,-11.867353580462886,-172.43607756084398,9.7311735,3.9269223,1.2555821,14.55789,-15.666826,-3.7348173,14.001692,-8.780588,-14.53533,15.855059,-14.708142,7.778037,-4.708486,-2.1442807,20.807705,-9.868264,19.275337,-36.54647,60.810886,-6.0863657,8.43895,5.614466,-13.814248,-16.84042,45.004765,62.430214,6.7465057,4.304119,-3.4453185
5,2.6568970680236816,1.0070222616195679,77.45722198486328,-1.272906535191783,-11.81179689492003,-172.54213278551455,9.669459,3.9936054,1.3795067,14.563093,-15.651039,-3.8001258,13.804273,-8.751496,-14.426897,16.02839,-14.758205,7.704642,-4.756656,-2.1676261,20.832142,-10.020663,19.293577,-36.759132,60.781094,-6.1378627,8.482083,5.532723,-13.8940325,-16.861137,45.007584,62.28407,6.7187724,4.244403,-3.4572544
6,2.68642520904541,1.0356658697128296,77.45929718017578,-1.291732374917132,-11.75083152524971,-172.66030674197174,9.595803,4.078306,1.5183018,14.578253,-15.640916,-3.8788643,13.592979,-8.707856,-14.312789,16.20169,-14.802025,7.6247406,-4.8166723,-2.1885607,20.86165,-10.185656,19.312103,-36.98207,60.726807,-6.2063713,8.493343,5.4686365,-13.991217,-16.877796,45.01237,62.129147,6.678646,4.1679955,-3.4627159
7,2.707268714904785,1.061072587966919,77.46369934082031,-1.3109019588409245,-11.6883644824093,-172.79732398565375,9.527303,4.1707363,1.6762484,14.584044,-15.625674,-3.958868,13.370827,-8.65761,-14.181361,16.37786,-14.842207,7.542415,-4.8524623,-2.2110245,20.89724,-10.377675,19.34133,-37.25911,60.653942,-6.2874255,8.488507,5.4245872,-14.070614,-16.899109,44.97516,61.94814,6.6164947,4.093746,-3.474307
8,2.725055456161499,1.086559772491455,77.47069549560547,-1.3226741208810087,-11.631239136900351,-172.95902088512995,9.479036,4.2610216,1.856273,14.566476,-15.597624,-4.027882,13.13725,-8.609219,-14.021165,16.569424,-14.885249,7.4618087,-4.919383,-2.2375822,20.941822,-10.559788,19.364676,-37.48736,60.557766,-6.309264,8.479309,5.394142,-14.174611,-16.910751,44.945393,61.78379,6.5324187,4.0406847,-3.5016766
9,2.748046398162842,1.114466667175293,77.4774169921875,-1.3262368317492423,-11.578911186714933,-173.14499588198922,9.457503,4.348229,2.059428,14.515869,-15.55046,-4.082172,12.905017,-8.559712,-13.832699,16.751806,-14.921883,7.386045,-4.922535,-2.2690616,20.994062,-10.786,19.413464,-37.83073,60.441544,-6.320523,8.471315,5.395652,-14.23075,-16.926867,44.816017,61.592102,6.382649,4.024278,-3.5513937
10,2.77738094329834,1.1456857919692993,77.4823989868164,-1.3261602667586685,-11.529856167800352,-173.35273121742105,9.451764,4.437378,2.2836087,14.446247,-15.491927,-4.1284404,12.667578,-8.506109,-13.620573,16.934204,-14.95458,7.3123164,-4.971504,-2.3026242,21.053139,-10.997972,19.454292,-38.121212,60.297173,-6.271047,8.452842,5.4178343,-14.3213415,-16.933022,44.716145,61.42099,6.201381,4.0329256,-3.617061
11,2.8061060905456543,1.1840890645980835,77.48860931396484,-1.3189993573624732,-11.482193368971803,-173.58485227597566,9.460212,4.524986,2.5292578,14.359565,-15.425761,-4.1702533,12.41089,-8.455423,-13.3817425,17.14222,-14.995698,7.2359343,-4.976371,-2.345108,21.122929,-11.2350645,19.516926,-38.462105,60.13253,-6.2350774,8.430774,5.4445977,-14.386401,-16.935755,44.540134,61.22912,6.0174246,4.035839,-3.688346
12,2.831265449523926,1.219483733177185,77.49169158935547,-1.3036063059265675,-11.437109186616636,-173.8439185638768,9.476437,4.6089883,2.7963889,14.266725,-15.35951,-4.2112346,12.121139,-8.412583,-13.113044,17.40089,-15.057566,7.1522317,-5.014805,-2.39332,21.200891,-11.45066,19.568304,-38.71129,59.95698,-6.1915407,8.403169,5.450714,-14.476787,-16.934269,44.388268,61.042347,5.909136,4.006393,-3.7600906
13,2.8833870887756348,1.2466036081314087,77.49109649658203,-1.2812043316845385,-11.39199250896748,-174.1196307138795,9.490049,4.6862845,3.0717597,14.177315,-15.296522,-4.247948,11.800207,-8.379875,-12.824481,17.705154,-15.137308,7.0672927,-5.0195303,-2.453191,21.296722,-11.675866,19.654196,-38.967648,59.74655,-6.186037,8.373104,5.4252505,-14.544443,-16.93105,44.14443,60.825733,5.8803024,3.9205728,-3.8231125
14,2.9354653358459473,1.2767802476882935,77.4908447265625,-1.2531325437486118,-11.346319845441617,-174.41424791580553,9.505006,4.759866,3.3595393,14.088363,-15.23496,-4.279925,11.455279,-8.351883,-12.514343,18.041843,-15.228536,6.981254,-5.0782704,-2.512281,21.39678,-11.883074,19.712711,-39.12354,59.53534,-6.158628,8.33311,5.3809485,-14.644043,-16.92703,43.93528,60.619503,5.933017,3.8011806,-3.8880944
15,2.978860855102539,1.326259732246399,77.49163818359375,-1.2138351067343514,-11.306080742582987,-174.74895333317878,9.547311,4.831907,3.686688,13.970271,-15.163484,-4.3153915,11.076522,-8.327243,-12.161256,18.43386,-15.342921,6.8808923,-5.1008515,-2.583552,21.507734,-12.098301,19.782745,-39.28155,59.314625,-6.1463737,8.29324,5.3380685,-14.729478,-16.92131,43.69394,60.39466,5.989312,3.680241,-3.9577005
16,3.000558853149414,1.3829176425933838,77.4932632446289,-1.1586123947260967,-11.276086211377468,-175.14507620795277,9.641978,4.9050713,4.08006,13.797376,-15.073542,-4.3626637,10.655722,-8.302934,-11.743894,18.900997,-15.490293,6.752939,-5.086719,-2.6728532,21.627296,-12.302456,19.864727,-39.422756,59.083824,-6.1428328,8.258488,5.314392,-14.81057,-16.913391,43.476097,60.156574,6.009403,3.5923908,-4.0403976
17,3.0364394187927246,1.4404709339141846,77.49260711669922,-1.0847304559068882,-11.275837691957914,-175.63258761449273,9.8492985,4.9855714,4.5744343,13.521249,-14.951346,-4.430458,10.21674,-8.2681465,-11.23379,19.435722,-15.666371,6.5942974,-5.014346,-2.7783914,21.760609,-12.487734,19.941252,-39.522537,58.85534,-6.135443,8.229471,5.2974124,-14.87727,-16.901846,43.301346,59.90398,5.992219,3.5578265,-4.152101
18,3.0775716304779053,1.4898936748504639,77.49099731445312,-0.9951880424941261,-11.297822228244463,-176.19210934819233,10.140184,5.0677433,5.1465187,13.167522,-14.804641,-4.512634,9.75722,-8.225115,-10.650084,20.028881,-15.866306,6.412205,-4.8907304,-2.8995051,21.908861,-12.65961,20.026167,-39.596718,58.61547,-6.131351,8.204467,5.2828016,-14.929268,-16.884521,43.136684,59.635323,5.9548154,3.5543263,-4.2837677
19,3.116938829421997,1.5542720556259155,77.48954010009766,-0.8934845667242538,-11.299617927518504,-176.77080521298674,10.4038515,5.138939,5.7360263,12.820072,-14.654462,-4.595109,9.229195,-8.188706,-10.043116,20.696497,-16.099018,6.209356,-4.774562,-3.0371509,22.055908,-12.830731,20.132498,-39.669716,58.36115,-6.145948,8.1818075,5.302309,-15.002409,-16.860548,42.98622,59.368706,5.8938646,3.5535655,-4.40833
20,3.1634695529937744,1.6170358657836914,77.48283386230469,-0.785664248419482,-11.243090940331772,-177.3151935866975,10.526841,5.189844,6.2817483,12.568504,-14.525921,-4.6633177,8.582958,-8.172628,-9.462973,21.456388,-16.37231,5.988802,-4.7340927,-3.1800306,22.176811,-13.039751,20.217524,-39.75527,58.148827,-6.182608,8.154752,5.3904386,-15.128907,-16.841772,42.869793,59.12161,5.8125286,3.5286677,-4.500083
21,3.367544412612915,1.625562310218811,77.46013641357422,-0.6747670995876361,-11.096459270870199,-177.79686745590345,10.42864,5.2155576,6.7509274,12.478984,-14.439497,-4.705433,7.7605143,-8.175145,-8.883196,22.34546,-16.69257,5.700594,-4.786694,-3.3308697,22.263378,-13.2986965,20.294315,-39.875355,57.959827,-6.2672615,8.117944,5.6003957,-15.325487,-16.828552,42.775196,58.893787,5.6880937,3.466953,-4.540765
22,3.4820516109466553,1.6698907613754272,77.4452896118164,-0.5580022756566424,-10.888631459056713,-178.24845804073368,10.185482,5.223723,7.181421,12.492372,-14.37886,-4.7306137,6.8010817,-8.187297,-8.288987,23.348227,-17.050905,5.3623524,-4.889631,-3.4945474,22.329752,-13.592036,20.377655,-40.02633,57.777912,-6.393501,8.075634,5.8993692,-15.566168,-16.81932,42.68963,58.671997,5.5249267,3.3844981,-4.5474668
23,3.5661633014678955,1.7401920557022095,77.43560791015625,-0.43367643876792994,-10.66731264984263,-178.70687500644152,9.919822,5.2264137,7.616399,12.511572,-14.314289,-4.7563157,5.8234854,-8.211311,-7.7523103,24.357536,-17.427862,5.0776663,-5.0044403,-3.6711009,22.394915,-13.894904,20.479715,-40.199997,57.60436,-6.525057,8.0410795,6.1902704,-15.812569,-16.812248,42.601215,58.44451,5.354352,3.2967849,-4.545255
24,3.609424114227295,1.8173410892486572,77.42790222167969,-0.30035090208714094,-10.477244950062422,-179.20887306179884,9.752107,5.2350707,8.098955,12.440776,-14.216146,-4.801282,4.938259,-8.255033,-7.3455234,25.28298,-17.814148,4.9478116,-5.092704,-3.8674753,22.483017,-14.167193,20.644913,-40.389435,57.40711,-6.633413,8.030699,6.3742256,-16.028133,-16.802038,42.492947,58.195885,5.203198,3.2188575,-4.5579286
25,3.6893527507781982,1.8992401361465454,77.41329193115234,-0.1489678055502443,-10.326629886374151,-179.76813167541326,9.708521,5.2426963,8.643846,12.255126,-14.075409,-4.8702655,4.164826,-8.309639,-7.0338354,26.088152,-18.23231,5.040164,-5.164016,-4.0806093,22.584923,-14.42701,20.814749,-40.558422,57.25341,-6.688351,8.04731,6.405657,-16.228346,-16.786901,42.40969,57.95405,5.1101427,3.149659,-4.5842743
26,3.769887685775757,1.9914640188217163,77.40036010742188,0.014936568738480985,-10.19412010690326,179.63676796451205,9.726372,5.2474875,9.226347,12.006082,-13.907936,-4.954365,3.4414992,-8.378146,-6.798654,26.838785,-18.689383,5.285596,-5.2261066,-4.308165,22.6938,-14.689458,20.99436,-40.7333,57.13313,-6.718629,8.083803,6.3440657,-16.421925,-16.763865,42.333565,57.71808,5.045897,3.0822375,-4.613731
27,3.9470367431640625,2.0638699531555176,77.37410736083984,0.17044845405058454,-10.074861777337736,179.02129265539398,9.790817,5.2687044,9.830217,11.716068,-13.724646,-5.052236,2.7575183,-8.488591,-6.736285,27.594015,-19.15031,5.5792074,-5.29443,-4.5317097,22.809786,-14.943922,21.184633,-40.92119,57.035362,-6.730696,8.128168,6.252515,-16.601448,-16.732382,42.245365,57.481224,4.969771,3.0250466,-4.6627536
28,4.017397880554199,2.1557440757751465,77.37060546875,0.29797726267887886,-9.965992318592544,178.40024436051942,9.887498,5.325468,10.440124,11.406865,-13.536031,-5.162316,2.1022897,-8.670991,-6.9394054,28.412271,-19.577553,5.8162284,-5.383193,-4.7320924,22.933456,-15.183398,21.38399,-41.132797,56.952324,-6.734613,8.168232,6.194254,-16.756361,-16.692438,42.125782,57.231396,4.8432875,2.9870043,-4.7478747
29,4.09502649307251,2.2563042640686035,77.36876678466797,0.392634331840981,-9.86409687142029,177.77494732116912,10.0120535,5.423196,11.055729,11.071281,-13.338487,-5.288314,1.4739465,-8.933204,-7.4498425,29.286402,-19.953024,5.986939,-5.4949827,-4.9056115,23.062809,-15.414973,21.5914,-41.37258,56.894478,-6.734132,8.201512,6.1671634,-16.884851,-16.642464,41.961506,56.973534,4.61122,2.9848092,-4.888818
30,4.16624641418457,2.363471031188965,77.37215423583984,0.4656669657475256,-9.770699702317204,177.13753342895842,10.174172,5.5494366,11.685003,10.697581,-13.125568,-5.429951,0.87589675,-9.266632,-8.208565,30.201542,-20.299343,6.139199,-5.620599,-5.062545,23.197933,-15.64126,21.80657,-41.63714,56.86364,-6.724411,8.234088,6.143947,-16.991146,-16.581594,41.76362,56.71073,4.309312,3.0095565,-5.0715604
31,4.276574611663818,2.4832100868225098,77.37120819091797,0.5228546931994943,-9.695921408394312,176.4893756961674,10.375852,5.697177,12.324799,10.311746,-12.910262,-5.57947,0.3193989,-9.674844,-9.157499,31.175936,-20.63489,6.254447,-5.7585106,-5.2064667,23.340338,-15.848137,22.028034,-41.921223,56.84058,-6.6998634,8.266701,6.1505294,-17.076855,-16.514673,41.550213,56.43382,4.031298,3.0313435,-5.261782
32,4.349068641662598,2.5948519706726074,77.3758544921875,0.5705664995441537,-9.649832982538804,175.83136490905963,10.620644,5.858262,12.972668,9.93548,-12.702765,-5.7289443,-0.18411452,-10.161335,-10.238163,32.22814,-20.976784,6.3142996,-5.905536,-5.339876,23.492834,-16.021347,22.253456,-42.21884,56.80493,-6.6535416,8.30007,6.212561,-17.13768,-16.449553,41.33676,56.12428,3.8714893,3.0199144,-5.4254456
33,4.410632133483887,2.7214958667755127,77.38099670410156,0.6126287988036463,-9.648400137099152,175.1595154159689,10.94309,6.0252957,13.632188,9.547489,-12.494272,-5.872835,-0.59896964,-10.750477,-11.499384,33.358948,-21.333014,6.3086524,-6.058992,-5.465784,23.664713,-16.156,22.482248,-42.553604,56.757614,-6.5754957,8.336344,6.369809,-17.164982,-16.395163,41.139668,55.768635,3.8791435,2.9537425,-5.55856
34,4.439230918884277,2.842944383621216,77.38827514648438,0.6471793689767474,-9.68200029287006,174.4736808161335,11.332151,6.2012916,14.304859,9.141907,-12.281639,-6.016495,-0.93189365,-11.436412,-12.948912,34.559155,-21.692532,6.2458963,-6.218556,-5.5813622,23.853123,-16.261164,22.713854,-42.920036,56.706837,-6.470599,8.374806,6.5975494,-17.154205,-16.354944,40.9425,55.36518,3.9944553,2.8536046,-5.676592
35,4.481779098510742,2.975616455078125,77.3903579711914,0.6707842327087487,-9.720336413979405,173.78157882273797,11.726243,6.3949604,14.98356,8.756145,-12.080963,-6.1681437,-1.2365116,-12.175744,-14.468012,35.829548,-22.043163,6.1362658,-6.386971,-5.681251,24.042002,-16.346966,22.945992,-43.271976,56.647816,-6.358692,8.41106,6.825195,-17.115892,-16.328505,40.72075,54.923363,4.153862,2.7520442,-5.7753453
36,4.543123245239258,3.138098955154419,77.39325714111328,0.6790985760696634,-9.731786220361748,173.09187891870818,12.047923,6.620824,15.658566,8.46046,-11.92021,-6.3356814,-1.5718002,-12.924801,-15.938464,37.170135,-22.373034,5.9910054,-6.56894,-5.759632,24.214043,-16.421972,23.175755,-43.560486,56.576283,-6.257755,8.440581,6.9822307,-17.060968,-16.311552,40.448654,54.454365,4.291756,2.681831,-5.8513784
37,4.627359390258789,3.292154550552368,77.39148712158203,0.6647851030471083,-9.698227750732345,172.40999365821713,12.257513,6.8924313,16.324814,8.283294,-11.811013,-6.5233817,-1.9622059,-13.696244,-17.403408,38.61167,-22.680681,5.78047,-6.7748265,-5.8108153,24.357971,-16.489603,23.401909,-43.763573,56.495445,-6.1760793,8.458877,7.0465627,-16.994778,-16.298868,40.10496,53.961704,4.417724,2.653051,-5.884708
38,4.688928127288818,3.4480292797088623,77.39521026611328,0.6323213413279847,-9.639161240704418,171.7307642825665,12.399982,7.2008142,16.987265,8.19008,-11.738847,-6.7255692,-2.3687177,-14.508871,-18.900274,40.142857,-22.972824,5.507117,-7.000659,-5.8406954,24.483725,-16.544018,23.624512,-43.907288,56.408875,-6.100445,8.469302,7.057123,-16.9143,-16.28906,39.709785,53.445824,4.557618,2.6476612,-5.8839364
39,4.735907077789307,3.6126933097839355,77.40057373046875,0.5958323544246615,-9.582655904913585,171.04559696561222,12.545165,7.5200353,17.65565,8.116126,-11.676971,-6.935148,-2.7631953,-15.325301,-20.301981,41.69762,-23.246101,5.2340508,-7.229242,-5.861569,24.606766,-16.583654,23.842897,-44.021473,56.31534,-6.023621,8.477722,7.0347543,-16.816025,-16.283173,39.29803,52.91211,4.6687784,2.6564076,-5.8892865
40,4.778182029724121,3.7819645404815674,77.4001693725586,0.5689534657786179,-9.554505959363233,170.34602766202022,12.761783,7.8234777,18.339941,7.9971366,-11.598686,-7.1455636,-3.1246448,-16.102829,-21.482466,43.209354,-23.495142,5.027992,-7.443415,-5.8852644,24.742302,-16.60449,24.055422,-44.131298,56.2127,-5.9333973,8.490627,7.000328,-16.69879,-16.285105,38.907864,52.368156,4.7114644,2.6698985,-5.94061
41,4.8163933753967285,3.9633452892303467,77.39728546142578,0.5573089768275207,-9.569452870600356,169.6362080774096,13.074723,8.099229,19.03617,7.810633,-11.492913,-7.350125,-3.4510024,-16.822678,-22.391388,44.683872,-23.7144,4.9115753,-7.640422,-5.9165506,24.899885,-16.609234,24.260206,-44.24283,56.10391,-5.819707,8.507199,6.9444647,-16.553162,-16.298376,38.542362,51.8129,4.6467905,2.6971612,-6.0559263
42,4.864717483520508,4.143026351928711,77.38798522949219,0.552435249728402,-9.610186908605566,168.91829958869178,13.446785,8.362125,19.74223,7.5886693,-11.372818,-7.5544024,-3.7614288,-17.501587,-23.1036,46.14557,-23.905294,4.8533535,-7.827242,-5.9467754,25.070448,-16.599934,24.455862,-44.342464,55.990627,-5.689499,8.52459,6.8611507,-16.379469,-16.323711,38.182716,51.238087,4.5065155,2.7400317,-6.2111464
43,4.896998882293701,4.327764987945557,77.3745346069336,0.5443022150652324,-9.657461503861878,168.18308662979473,13.795409,8.651176,20.459679,7.475522,-11.314977,-7.7720084,-4.0691733,-18.14704,-23.684702,47.555035,-24.073109,4.839161,-8.005785,-5.9636054,25.23912,-16.575071,24.642275,-44.431297,55.871403,-5.5627027,8.545813,6.7763214,-16.189575,-16.361076,37.831985,50.64086,4.3516903,2.7780814,-6.383212
44,4.916585922241211,4.5333428382873535,77.35607147216797,0.5294506640559445,-9.695367163998759,167.41769190479928,14.120516,8.97049,21.204788,7.4397516,-11.303056,-8.014783,-4.3839493,-18.774475,-24.194138,48.872555,-24.222256,4.852512,-8.175052,-5.9616094,25.392042,-16.532288,24.820368,-44.509457,55.744118,-5.4591312,8.574428,6.7159433,-15.99552,-16.409847,37.492428,50.019207,4.2407427,2.7906759,-6.5491967
45,4.938238143920898,4.748411178588867,77.33645629882812,0.509766592524345,-9.724261660367192,166.60934857585218,14.468671,9.303472,21.99671,7.390821,-11.2917795,-8.287983,-4.71523,-19.369436,-24.592281,50.089417,-24.340933,4.918189,-8.330251,-5.94247,25.528847,-16.46662,24.991526,-44.571156,55.60606,-5.3904347,8.611012,6.68039,-15.802289,-16.469484,37.16981,49.372173,4.193957,2.7606049,-6.711111
46,4.964725017547607,4.963772773742676,77.31275939941406,0.48548832655351964,-9.752424054636354,165.76783893437943,14.844087,9.647403,22.82515,7.3325806,-11.281724,-8.584562,-5.060443,-19.928461,-24.865396,51.229202,-24.432514,5.0361876,-8.474495,-5.9077353,25.656284,-16.379698,25.15655,-44.617634,55.45799,-5.344959,8.654192,6.6579556,-15.603749,-16.540062,36.861973,48.70256,4.1774325,2.7025816,-6.8785324
47,4.9773783683776855,5.18461799621582,77.28614044189453,0.45655312712655993,-9.774323100539952,164.91099811048977,15.230458,10.001926,23.672447,7.273318,-11.272591,-8.896255,-5.4049296,-20.492422,-25.106678,52.296604,-24.523096,5.149809,-8.618504,-5.8562455,25.766228,-16.285547,25.291235,-44.653915,55.329643,-5.2981358,8.701936,6.657525,-15.406368,-16.607624,36.569614,48.033024,4.174845,2.6424334,-7.042397
48,4.98560094833374,5.417910575866699,77.2579574584961,0.42433636675874925,-9.783698077673236,164.0562867886145,15.614083,10.36332,24.521194,7.2141685,-11.260805,-9.214478,-5.732301,-21.10566,-25.408049,53.295204,-24.636898,5.200189,-8.750063,-5.7907443,25.873686,-16.17967,25.44589,-44.70912,55.163246,-5.247293,8.758244,6.6847224,-15.175133,-16.699715,36.256756,47.311203,4.164656,2.6090174,-7.1851854
49,4.991791248321533,5.665907859802246,77.22989654541016,0.3861542317270054,-9.777825281494893,163.20659238262198,15.991372,10.733764,25.371883,7.1566224,-11.248545,-9.540748,-6.0375347,-21.780771,-25.783026,54.22401,-24.788128,5.1718736,-8.885045,-5.7078395,25.96416,-16.067142,25.587688,-44.781384,54.99416,-5.1806893,8.825543,6.7665806,-14.929719,-16.799107,35.946625,46.57406,4.147748,2.6133156,-7.2959523
50,5.002353668212891,5.925967693328857,77.19816589355469,0.3430829410523949,-9.761243904877903,162.35316967232401,16.370289,11.112687,26.232641,7.0977635,-11.235246,-9.878222,-6.3275995,-22.496605,-26.18598,55.080482,-24.960295,5.0936003,-9.016516,-5.6077538,26.038273,-15.95357,25.71102,-44.87004,54.832726,-5.10996,8.901857,6.891537,-14.671727,-16.901485,35.63699,45.82344,4.1308894,2.6390736,-7.384738
51,5.007419109344482,6.197561264038086,77.16261291503906,0.29922617687957653,-9.735231226059923,161.4960642465335,16.753286,11.494762,27.097267,7.038341,-11.216993,-10.220518,-6.6067266,-23.24679,-26.620008,55.87485,-25.135475,4.9724894,-9.141589,-5.496584,26.106627,-15.833003,25.8263,-44.946945,54.66771,-5.029177,8.97766,7.010051,-14.3963375,-17.01476,35.320065,45.04228,4.1168904,2.6717815,-7.477339
52,5.019556999206543,6.474719047546387,77.12139129638672,0.2590910111987231,-9.702986780309443,160.63557455650002,17.139442,11.877364,27.958717,6.9860387,-11.193608,-10.561307,-6.8748245,-24.027685,-27.089455,56.61232,-25.298075,4.8166275,-9.268522,-5.3807397,26.173449,-15.700548,25.929752,-44.974545,54.50584,-4.9293265,9.041599,7.0728536,-14.116473,-17.129951,35.00407,44.23905,4.1119165,2.6959295,-7.602795
53,5.025036811828613,6.751743793487549,77.07601165771484,0.2234757434376464,-9.666584648772394,159.76703368874175,17.531607,12.258717,28.816393,6.9398913,-11.1629095,-10.892975,-7.1287055,-24.861408,-27.619524,57.302437,-25.447266,4.59639,-9.398975,-5.265262,26.242233,-15.5481205,26.024109,-44.928867,54.341957,-4.7862425,9.094478,7.054294,-13.842308,-17.244274,34.696743,43.417854,4.1412444,2.7078733,-7.7724047
54,5.028722763061523,7.0546112060546875,77.0303726196289,0.1904805398646832,-9.625070924861914,158.89178768443378,17.930107,12.639703,29.674297,6.895106,-11.124838,-11.220344,-7.3655076,-25.744358,-28.201971,57.93907,-25.592272,4.317707,-9.53824,-5.150037,26.301922,-15.378416,26.097996,-44.8245,54.191902,-4.6067343,9.139799,6.985285,-13.588019,-17.339209,34.406597,42.610462,4.193747,2.7137928,-7.9729896
55,5.037624835968018,7.3809356689453125,76.98109436035156,0.15857650090454722,-9.572633624285324,158.01901427220454,18.32969,13.022138,30.532328,6.85127,-11.079601,-11.555705,-7.5953903,-26.624092,-28.789288,58.50856,-25.727728,4.0419955,-9.6865425,-5.0302677,26.344318,-15.205623,26.149153,-44.701885,54.068577,-4.443279,9.172074,6.901087,-13.344819,-17.406593,34.12524,41.823353,4.2200885,2.7147613,-8.19328
56,5.062262058258057,7.751610279083252,76.92757415771484,0.1279545574981901,-9.507487429251572,157.15713511864288,18.729244,13.405145,31.391039,6.797618,-11.021236,-11.911315,-7.8306584,-27.449568,-29.332588,58.999043,-25.847616,3.8317816,-9.812654,-4.8891625,26.397682,-15.031668,26.236624,-44.612442,53.892265,-4.3495502,9.192125,6.831927,-13.022503,-17.525515,33.782684,40.92707,4.164334,2.7190354,-8.404554
57,5.080671787261963,8.11470890045166,76.8701400756836,0.08797444677662397,-9.433973794083332,156.32434140814107,19.128288,13.799923,32.23669,6.739363,-10.952614,-12.291227,-8.041055,-28.215628,-29.856735,59.38063,-25.945364,3.7171078,-9.971274,-4.7278733,26.427694,-14.858804,26.294094,-44.53317,53.75523,-4.351861,9.174312,6.779373,-12.702483,-17.60377,33.44133,40.06287,3.9837348,2.7215188,-8.629555
58,5.084229946136475,8.48752212524414,76.81195068359375,0.04184155215482642,-9.351818936239415,155.51056709775833,19.52642,14.203857,33.074192,6.6808734,-10.874997,-12.687869,-8.233012,-28.945154,-30.376066,59.66898,-26.024418,3.6618323,-10.117036,-4.5424128,26.463238,-14.693437,26.363697,-44.48421,53.599583,-4.42854,9.131615,6.726514,-12.322895,-17.704277,33.04361,39.128662,3.7090704,2.726001,-8.857301
59,5.093192100524902,8.869275093078613,76.74605560302734,0.00641416057862902,-9.249432530294662,154.68345145537995,19.922651,14.598215,33.931427,6.610918,-10.781259,-13.096712,-8.474107,-29.631107,-30.824915,59.92065,-26.093246,3.6295824,-10.246582,-4.356671,26.48236,-14.531063,26.431437,-44.447098,53.44842,-4.5203266,9.099669,6.693109,-11.931072,-17.803778,32.644947,38.177185,3.4335968,2.7288265,-9.08516
60,5.099376678466797,9.26653003692627,76.67407989501953,0.003681182159272629,-9.11378818868078,153.80975125031125,20.317,14.9558935,34.83699,6.5141845,-10.662519,-13.512771,-8.834635,-30.268118,-31.133364,60.186592,-26.158657,3.5832264,-10.373435,-4.2086415,26.445095,-14.363416,26.46129,-44.388214,53.358665,-4.561363,9.111775,6.7005167,-11.61968,-17.840967,32.33305,37.33005,3.25076,2.722792,-9.319176
61,5.095658302307129,9.693368911743164,76.59071350097656,0.030887469458757817,-8.9501651602047,152.87347021553413,20.635654,15.343451,35.789078,6.612212,-10.633684,-13.939404,-9.335475,-30.835585,-31.258219,60.46437,-26.219568,3.5173914,-10.400362,-4.085339,26.406511,-14.235557,26.510529,-44.400017,53.260887,-4.5523686,9.205732,6.7693615,-11.274887,-17.891916,31.9686,36.42598,3.1662545,2.7096443,-9.535316
62,5.092218399047852,10.138165473937988,76.49724578857422,0.07942316079414137,-8.762058009642244,151.89404804988206,20.9343,15.730528,36.783264,6.764115,-10.62074,-14.376836,-9.943842,-31.340761,-31.239927,60.72983,-26.272404,3.4506178,-10.41018,-3.9861166,26.339571,-14.098188,26.553272,-44.411533,53.17609,-4.513671,9.350839,6.8867373,-10.964821,-17.923237,31.657696,35.55001,3.1633937,2.6887827,-9.762597
63,5.187227725982666,10.595898628234863,76.38482666015625,0.16308900898725856,-8.531099439711848,150.89457640287253,21.20841,16.075544,37.78826,6.9053535,-10.593109,-14.818414,-10.647063,-31.829172,-31.133121,61.002068,-26.320278,3.382951,-10.368194,-3.9076474,26.237774,-13.97791,26.615469,-44.452675,53.08686,-4.4754567,9.500399,7.004815,-10.630937,-17.956684,31.315145,34.65542,3.173771,2.6663964,-9.959091
64,5.275445938110352,11.029587745666504,76.2505111694336,0.29903756086541483,-8.237333270518615,149.89960942973417,21.414003,16.32109,38.7371,7.0121546,-10.542863,-15.000033,-11.439107,-32.353188,-30.98788,61.30455,-26.365261,3.3156102,-10.330314,-3.8584633,26.060263,-13.852269,26.673162,-44.459812,53.022182,-4.445968,9.601492,7.079389,-10.313989,-17.975643,31.002333,33.80531,3.1686242,2.646735,-10.115987
65,5.35715913772583,11.478043556213379,76.11262512207031,0.5480182859101658,-7.832050341382481,148.95130872106154,21.517662,16.35807,39.584206,6.9654374,-10.412067,-15.000033,-12.38802,-33.02514,-30.78748,61.676556,-26.41625,3.27268,-10.323829,-3.8960054,25.74844,-13.732865,26.726254,-44.444374,52.99161,-4.4416656,9.631637,7.095295,-9.993455,-17.982382,30.685457,32.98891,3.140092,2.630467,-10.195095
66,5.418322563171387,11.959173202514648,75.96951293945312,0.8489649610078394,-7.360535539094506,148.00174660813317,21.566954,16.319143,40.41162,6.8901443,-10.262172,-15.000033,-13.448417,-33.72533,-30.510317,62.07176,-26.465357,3.235592,-10.312691,-3.9695716,25.359592,-13.617995,26.765606,-44.408512,52.99821,-4.4480796,9.619686,7.0785637,-9.681719,-17.97732,30.386557,32.20682,3.1151726,2.615073,-10.222079
67,5.478165149688721,12.436873435974121,75.80905151367188,1.1787290372114492,-6.840879395422331,147.05605056713924,21.56397,16.252382,41.218105,6.83437,-10.109349,-15.000033,-14.5764475,-34.413826,-30.196592,62.479397,-26.506533,3.1840045,-10.252021,-4.0601325,24.937073,-13.526142,26.834578,-44.40463,52.99169,-4.4539638,9.599233,7.0416064,-9.346453,-17.961967,30.044426,31.416834,3.0551193,2.6014855,-10.236962
68,5.51824426651001,12.940459251403809,75.64239501953125,1.519717836314559,-6.288547872047443,146.1210669116139,21.495268,16.210596,41.996197,6.8791327,-9.982229,-15.000033,-15.731122,-35.062622,-29.886496,62.895226,-26.535429,3.0993433,-10.230155,-4.153011,24.476055,-13.417303,26.874096,-44.34554,53.00816,-4.4068704,9.591994,7.0024204,-9.069138,-17.942364,29.808395,30.685648,2.988512,2.590597,-10.328903
69,5.550464630126953,13.450211524963379,75.46466827392578,1.878474489576695,-5.699641000492001,145.19136913828316,21.361925,16.182222,42.766994,7.0140224,-9.883935,-15.000033,-16.917776,-35.699577,-29.599966,63.335274,-26.566381,2.961844,-10.200207,-4.2526555,23.987335,-13.32465,26.90759,-44.27136,53.01384,-4.3059216,9.668712,6.9394665,-8.817423,-17.918259,29.61896,29.974133,2.882186,2.5912795,-10.51539
70,5.605327129364014,13.99354362487793,75.2807388305664,2.261196030183676,-5.069295204299242,144.2651783570349,21.168295,16.153131,43.52859,7.222576,-9.80795,-15.000033,-18.153294,-36.32749,-29.309149,63.795986,-26.59718,2.7858715,-10.161234,-4.370219,23.465347,-13.235145,26.950031,-44.177963,53.002144,-4.166746,9.795521,6.8513455,-8.590967,-17.879917,29.464376,29.28969,2.7426007,2.6000412,-10.75789
71,5.746496200561523,14.523321151733398,75.0775375366211,2.6506975564424136,-4.412077847668406,143.35467343607485,20.910276,16.169304,44.24163,7.5659027,-9.76445,-15.000033,-19.411356,-36.882954,-28.987461,64.244,-26.598017,2.6046321,-10.131432,-4.488729,22.915998,-13.139304,26.975582,-44.076668,53.03211,-4.0064664,9.842933,6.7861104,-8.380784,-17.846983,29.356688,28.640259,2.601624,2.6011403,-11.017967
72,5.861709117889404,15.106689453125,74.87410736083984,3.0307091085505444,-3.7431886526876506,142.47142268766598,20.585754,16.276281,44.867207,8.100232,-9.761062,-15.000033,-20.664152,-37.304665,-28.610617,64.64809,-26.539862,2.4524055,-10.106113,-4.600091,22.35564,-13.0248375,27.002089,-43.996056,53.121677,-3.8485758,9.687274,6.7885394,-8.177458,-17.808975,29.260317,28.038507,2.4654465,2.5774586,-11.241714
73,5.9638895988464355,15.688732147216797,74.65426635742188,3.409008519334327,-3.0248520945473083,141.62494762828217,20.130518,16.479954,45.388954,8.860041,-9.821819,-15.000033,-21.951376,-37.634216,-28.225708,65.032196,-26.474764,2.2790613,-10.088189,-4.7174664,21.74369,-12.87229,27.071846,-43.974022,53.286366,-3.6887746,9.165103,6.9063606,-8.000182,-17.7238,29.154589,27.51941,2.3223011,2.5149121,-11.406876
74,6.080502986907959,16.28351593017578,74.41574096679688,3.788926249291172,-2.26321841239095,140.80726182965745,19.56425,16.76804,45.831924,9.8246355,-9.943481,-15.000033,-23.269339,-37.884434,-27.832542,65.403824,-26.398792,2.0868657,-10.077807,-4.8352847,21.087566,-12.698255,27.1588,-43.99045,53.515057,-3.5198023,8.38561,7.10605,-7.83222,-17.627552,29.062395,27.043379,2.178342,2.427447,-11.546167
75,6.215600490570068,16.901260375976562,74.16548919677734,4.148656967930038,-1.5388520151471967,140.00280518743725,19.010605,17.156542,46.219814,10.957077,-10.087791,-15.000033,-24.519054,-37.950535,-27.345692,65.70575,-26.196724,1.9910425,-10.06742,-4.949248,20.471254,-12.494994,27.256912,-43.971012,53.715748,-3.361708,7.6418314,7.3052454,-7.682121,-17.522991,29.00456,26.620945,2.0359986,2.3291628,-11.681849
76,6.273339748382568,17.62842559814453,73.9371337890625,4.464437651751724,-0.9309288295834526,139.1961463970676,18.5966,17.65807,46.575287,12.201761,-10.208018,-15.000033,-25.597565,-37.724213,-26.688507,65.88206,-25.754211,2.108977,-10.052227,-5.0453095,19.97574,-12.258903,27.344719,-43.838814,53.80882,-3.234519,7.2244067,7.4211845,-7.548004,-17.423092,29.00746,26.250076,1.9016528,2.2351067,-11.838967
77,6.332545757293701,18.383949279785156,73.69590759277344,4.722835441134093,-0.48832821041100655,138.40259810615714,18.393248,18.271284,46.893646,13.491875,-10.27783,-15.000033,-26.4649,-37.096127,-25.75345,65.85533,-24.740725,2.5953977,-10.060001,-5.1181793,19.642752,-11.977504,27.421684,-43.54374,53.738453,-3.153291,7.318275,7.4029675,-7.439036,-17.318602,29.091587,25.947529,1.761378,2.145873,-12.038197
78,6.421865463256836,19.133405685424805,73.43675231933594,4.9333451088621745,-0.15718211847511987,137.62259198493288,18.325102,18.99157,47.171032,14.846383,-10.314126,-15.000033,-27.16087,-36.132683,-24.628778,65.67529,-23.329515,3.3646057,-10.079621,-5.1563845,19.420126,-11.673783,27.471268,-43.14193,53.58308,-3.1008625,7.730381,7.3037977,-7.3360324,-17.22491,29.234215,25.68861,1.6212173,2.0559075,-12.261125
79,6.526615619659424,19.901866912841797,73.16283416748047,5.106459271251678,0.13635783947102376,136.81941801239608,18.286018,19.842283,47.422974,16.377586,-10.345194,-15.000033,-27.704405,-35.00233,-23.539984,65.47915,-22.157257,4.1567726,-10.0769415,-5.159235,19.241098,-11.347495,27.503128,-42.685173,53.41145,-3.0575929,8.188741,7.194084,-7.2636814,-17.13498,29.429548,25.492691,1.5074599,1.9671409,-12.478275
80,6.641223430633545,20.69521713256836,72.86968231201172,5.249692766848331,0.46583649624867196,135.96026185252174,18.178925,20.841492,47.661137,18.17388,-10.390372,-15.000033,-28.12615,-33.896004,-22.721666,65.40898,-21.843136,4.6823483,-10.020011,-5.1274004,19.040703,-10.992443,27.533232,-42.22347,53.283005,-3.0039644,8.422152,7.144728,-7.245852,-17.039639,29.66991,25.377926,1.446037,1.8812308,-12.65956
81,6.770696640014648,21.51117515563965,72.57182312011719,5.377774653542473,0.8336219324060585,135.0365261602267,18.046719,21.937239,47.942905,20.13024,-10.434727,-15.000033,-28.385162,-32.87598,-22.26344,65.49159,-22.722977,4.8495264,-9.890456,-5.080563,18.812109,-10.609089,27.573868,-41.79191,53.197163,-2.940403,8.348874,7.1706743,-7.258629,-16.937687,29.94056,25.321165,1.4679174,1.813131,-12.798278
82,6.910823822021484,22.36743927001953,72.25631713867188,5.478305238375925,1.2057141785389105,134.0673657785212,17.935692,23.129171,48.243706,22.198326,-10.452506,-15.000033,-28.49564,-31.844643,-22.026342,65.65849,-24.400768,4.798449,-9.702696,-5.0104904,18.58969,-10.199923,27.623138,-41.36474,53.116592,-2.8793101,8.1178465,7.2358875,-7.289758,-16.835321,30.239082,25.312733,1.5491995,1.7568309,-12.907543
83,7.062147617340088,23.247177124023438,71.92912292480469,5.5108324308528935,1.6020679859866656,133.06411163596073,17.754993,24.51055,48.440247,24.526712,-10.435599,-15.000033,-28.573961,-30.754292,-21.908411,65.90675,-26.3862,4.5800467,-9.511905,-4.8819003,18.363054,-9.716261,27.69878,-40.855125,53.013626,-2.8148828,7.805235,7.33223,-7.428778,-16.70375,30.619268,25.44119,1.6342211,1.6807356,-12.993523
84,7.211019039154053,24.14556884765625,71.59550476074219,5.430335998637601,2.042870142963503,132.03827403704608,17.41423,26.165922,48.400784,27.228241,-10.355751,-15.000033,-28.72732,-29.555487,-21.821913,66.23272,-28.191456,4.247794,-9.287269,-4.6333423,18.135641,-9.213684,27.776659,-40.297073,52.92424,-2.7687662,7.4855394,7.4567018,-7.6509624,-16.577845,31.027706,25.677353,1.6635442,1.5565019,-13.044143
85,7.362497806549072,25.064584732055664,71.26091003417969,5.25707855944242,2.5784402975190277,131.02823052006138,16.860611,28.064873,48.164986,30.21878,-10.185476,-15.000033,-29.030489,-28.304077,-21.782124,66.678764,-29.792147,3.775345,-9.073108,-4.2679806,17.838774,-8.696251,27.848269,-39.698296,52.859512,-2.7682097,7.1471343,7.5928392,-7.9416857,-16.461891,31.471033,26.014921,1.6112038,1.3732468,-13.039376
86,7.528114318847656,25.982765197753906,70.92277526855469,4.997671891390292,3.180151598972342,130.0130302826584,16.149761,30.154242,47.746384,33.40719,-9.920222,-15.000033,-29.411083,-26.992828,-21.817764,67.22748,-31.41112,3.152232,-8.849731,-3.803979,17.49635,-8.161231,27.90943,-39.06523,52.8177,-2.798045,6.7597322,7.7481403,-8.291074,-16.356672,31.950855,26.440424,1.5142195,1.1480529,-12.988085
87,7.7082977294921875,26.889144897460938,70.58782958984375,4.580931969848816,3.749846339326252,128.91771611078076,15.327846,32.462093,46.9285,36.855503,-9.537661,-15.000033,-29.740723,-25.478672,-21.886011,67.775566,-32.928234,2.4541872,-8.551099,-3.2009778,17.23852,-7.596447,27.949352,-38.350555,52.78876,-2.7953386,6.370148,7.953013,-8.740724,-16.27251,32.476604,26.966158,1.4151562,0.89440095,-12.933569
88,7.887657642364502,27.82060432434082,70.259765625,3.9311865761524856,4.190745737976445,127.67199603920703,14.405737,34.984737,45.437828,40.58661,-8.991557,-15.000033,-29.887663,-23.619057,-21.954178,68.21481,-34.21982,1.7557582,-8.119527,-2.4092364,17.18988,-6.9911294,27.952898,-37.504654,52.76397,-2.695615,6.025391,8.238374,-9.333292,-16.226395,33.06216,27.601591,1.3607883,0.62633866,-12.918803
89,8.06842041015625,28.75031852722168,69.9327163696289,2.928504189635239,4.476953746317221,126.21529690496399,13.348055,37.939068,43.19017,44.722477,-8.105244,-15.000033,-29.804796,-21.235212,-22.05056,68.48218,-35.1804,1.033554,-7.4739766,-1.3149323,17.393946,-6.368523,27.90213,-36.501057,52.7702,-2.4429352,5.736608,8.637719,-10.05165,-16.232061,33.683537,28.346266,1.3798676,0.3287011,-12.926674
90,8.230547904968262,29.694440841674805,69.61775207519531,1.6195311946503321,4.660809386953263,124.612229611991,11.964689,41.122185,40.03242,49.067047,-6.862219,-15.000033,-29.563236,-18.430836,-22.201954,68.6076,-35.87501,0.25674918,-6.7519035,0.062405206,17.75395,-5.6749334,27.778646,-35.27796,52.788383,-2.0519412,5.4789343,9.123436,-10.926338,-16.289673,34.429485,29.211239,1.464618,0.0026965903,-12.956199
91,8.382598876953125,30.607315063476562,69.3148422241211,0.29895596053415163,4.811790449592444,123.02902975420939,10.0327215,43.855736,36.122715,53.235252,-5.487778,-13.33703,-29.302965,-15.6436205,-22.306873,68.66047,-36.426403,-0.48305294,-6.0336776,1.4815345,18.14565,-5.005361,27.595839,-34.057655,52.84041,-1.6634476,5.2487617,9.646193,-11.886943,-16.398367,35.204372,30.103691,1.5493832,-0.31763032,-13.0312195
92,8.566168785095215,31.494308471679688,69.05711364746094,-0.35138636621912994,5.120986562910832,121.76642424260021,7.2224984,45.127445,31.487314,56.993954,-4.3008766,-10.294552,-29.409355,-13.802632,-22.065367,69.0033,-37.098278,-1.0053616,-5.612809,2.302932,18.312536,-4.3785915,27.380592,-32.94175,52.90936,-1.3806313,5.0361066,10.152731,-12.920977,-16.547125,36.011116,30.959982,1.5864506,-0.5966293,-13.198502
93,8.702505111694336,32.364288330078125,68.79622650146484,-0.8866180923807188,5.343897715422139,120.55298473891631,3.8353038,45.144604,25.325518,60.522366,-3.2761185,-7.641004,-29.400705,-12.1433,-21.76066,69.33971,-37.858627,-1.437203,-5.2605276,3.0247068,18.56191,-3.7291982,27.139956,-31.867514,52.930607,-1.2086734,4.8441453,10.664475,-14.065781,-16.740625,36.899372,31.838505,1.5299597,-0.8294136,-13.482548
94,8.777169227600098,33.20791244506836,68.50782012939453,-1.3372993695377582,5.493335657843548,119.36585319603532,0.16661507,44.00752,18.15023,64.026825,-2.2528594,-5.219633,-29.30217,-10.608343,-21.382475,69.677795,-38.64002,-1.7983514,-4.952317,3.6779897,18.897547,-3.05613,26.875393,-30.795105,52.9121,-1.097595,4.6752505,11.19605,-15.315717,-16.978233,37.867287,32.739857,1.4180917,-1.0326707,-13.856433
95,8.815228462219238,34.04544448852539,68.21648406982422,-1.7016259158901683,5.587240859806597,118.21245034014592,-3.1776726,42.100986,11.236613,67.49191,-1.3467047,-3.3306057,-29.13249,-9.21563,-20.953455,70.03192,-39.428543,-2.1005383,-4.6734447,4.270191,19.296244,-2.4298482,26.604197,-29.861818,52.89818,-1.0851954,4.526717,11.684515,-16.620806,-17.250439,38.835423,33.561024,1.3256644,-1.2026007,-14.26658
96,8.837328910827637,34.84197998046875,67.9287338256836,-2.005007677100454,5.644397656736134,117.09439403085892,-5.8654146,40.05777,5.583118,70.84971,-0.7520538,-2.1826916,-28.903187,-7.9506497,-20.514791,70.39237,-40.192284,-2.3617692,-4.3950343,4.8323064,19.732254,-1.9230087,26.353046,-29.215979,52.935932,-1.2134234,4.395937,12.067771,-17.932665,-17.546711,39.71206,34.208633,1.32225,-1.3371239,-14.657199
97,8.862527847290039,35.624122619628906,67.6521987915039,-2.2656503980719513,5.651317250807368,116.01505083570191,-7.894679,38.062782,1.1961783,74.06015,-0.70024645,-2.0665622,-28.603157,-6.8103004,-20.09999,70.763664,-40.937748,-2.5732222,-4.1178217,5.386489,20.235893,-1.5738169,26.150377,-28.9359,53.040142,-1.5674295,4.300656,12.301726,-19.2703,-17.864098,40.48522,34.68657,1.4286911,-1.4264166,-15.048115
98,8.885566711425781,36.39791488647461,67.39803314208984,-2.4784217454517794,5.606378416769083,114.97177919229578,-9.472058,35.954384,-2.4607148,77.20826,-1.1455606,-2.737649,-28.228825,-5.784305,-19.692873,71.13731,-41.669647,-2.7348018,-3.8456388,5.9215727,20.813099,-1.3236487,26.004845,-28.9357,53.165375,-2.1081986,4.2368364,12.427224,-20.646948,-18.202904,41.192142,35.03347,1.6047382,-1.4764985,-15.454421
99,8.88887882232666,37.16898727416992,67.17121887207031,-2.6509889611698347,5.549005700346852,113.95359002350729,-10.842358,33.963356,-5.4363685,80.343285,-1.8478583,-3.5217447,-27.803059,-4.8316693,-19.269558,71.47193,-42.35403,-2.8804774,-3.5543914,6.434684,21.396769,-1.0999113,25.908947,-29.115234,53.27521,-2.6921184,4.168483,12.50986,-22.01083,-18.555805,41.81526,35.213196,1.8273655,-1.509304,-15.815435
100,8.871296882629395,37.95691680908203,66.98463439941406,-2.7892701656605836,5.519527630267354,112.9503600465199,-12.254787,32.2735,-7.784661,83.48085,-2.5108962,-3.7609136,-27.347668,-3.9163048,-18.803492,71.726364,-42.955734,-3.0431745,-3.2185225,6.921345,21.915012,-0.83977723,25.844622,-29.377605,53.34599,-3.1727202,4.0588293,12.616196,-23.316196,-18.912596,42.333134,35.20067,2.0734613,-1.546074,-16.072062
101,8.846602439880371,38.76300811767578,66.82681274414062,-2.9035405664862286,5.536941163747095,111.95860987641709,-13.854697,31.103949,-9.40808,86.67073,-2.990939,-3.1112356,-26.877321,-3.0207987,-18.291922,71.89055,-43.46704,-3.2432005,-2.8377633,7.400997,22.344868,-0.5478408,25.805279,-29.763836,53.3876,-3.5357056,3.8829517,12.766514,-24.572065,-19.267605,42.734497,35.004585,2.4291182,-1.5913466,-16.181868
102,8.802746772766113,39.597572326660156,66.69871520996094,-2.9991869369255633,5.580946704711337,110.98137526196462,-15.587773,30.3793,-10.413486,89.85895,-3.4563897,-1.918675,-26.378153,-2.156825,-17.75263,71.98005,-43.900066,-3.4618561,-2.4215455,7.8794255,22.718828,-0.25749314,25.791128,-30.303703,53.42465,-3.8483253,3.665033,12.925301,-25.80815,-19.61998,43.03393,34.65422,2.8744116,-1.633664,-16.187275
103,8.760525703430176,40.446956634521484,66.59522247314453,-3.0687823975039232,5.631998863007247,110.02090062502721,-17.361185,29.773113,-11.126412,92.90193,-4.053729,-0.6081167,-25.829962,-1.3429375,-17.185543,72.002556,-44.258827,-3.6710997,-1.963182,8.326218,23.048582,0.05057684,25.789742,-30.880594,53.45726,-4.0847054,3.4411633,13.075282,-27.00967,-19.965391,43.24703,34.157646,3.226303,-1.6706667,-16.157333
104,8.7003755569458,41.326168060302734,66.52005767822266,-3.0909723528204447,5.670793126443152,109.08445350147572,-19.043161,28.898573,-11.823875,95.64758,-4.9012346,0.35200563,-25.207193,-0.6097323,-16.588127,71.96368,-44.55262,-3.8422592,-1.4690596,8.698836,23.345337,0.40115842,25.783487,-31.368298,53.486687,-4.215405,3.24744,13.200467,-28.174145,-20.296743,43.40124,33.536457,3.3066456,-1.7013414,-16.162361
105,8.624558448791504,42.215091705322266,66.47289276123047,-3.052695791275628,5.708157891815107,108.1727857644979,-20.594908,27.593657,-12.548529,98.06377,-6.0944023,0.78287977,-24.52873,0.029665198,-15.948655,71.88366,-44.780327,-3.9727204,-0.9416318,8.9804735,23.597324,0.80385816,25.759583,-31.74501,53.510696,-4.1908717,3.0848749,13.328178,-29.325478,-20.608185,43.506443,32.80162,2.9818804,-1.7285265,-16.239569
106,8.539481163024902,43.12694549560547,66.46309661865234,-2.9649572493927647,5.7492519676723255,107.28335383812363,-22.081028,26.071095,-13.140771,100.227104,-7.537343,0.93764436,-23.796408,0.58904904,-15.273289,71.754395,-44.941166,-4.0763497,-0.38634568,9.1928835,23.802242,1.2419881,25.715284,-32.067795,53.544983,-4.0370593,2.9368088,13.458459,-30.47016,-20.896826,43.555424,31.964806,2.3775022,-1.7517196,-16.347652
107,8.454520225524902,44.070560455322266,66.48665618896484,-2.839827811564586,5.76666702652468,106.41876989126683,-23.522392,24.485897,-13.558969,102.15333,-9.046437,0.9789846,-22.961016,1.075329,-14.584768,71.53851,-45.044277,-4.147394,0.18680467,9.352822,23.987103,1.7026145,25.648956,-32.328846,53.613895,-3.8366845,2.8125818,13.534636,-31.567036,-21.158068,43.540752,31.038912,1.6925659,-1.766937,-16.438862
108,8.362610816955566,45.050689697265625,66.52974700927734,-2.689512566707228,5.733650385565685,105.58215566351464,-24.944418,22.99593,-13.76536,103.8561,-10.438053,1.0788287,-21.975803,1.4930905,-13.904677,71.20097,-45.09742,-4.180037,0.76403904,9.476674,24.179,2.1783545,25.560946,-32.515488,53.736156,-3.6723676,2.721085,13.498755,-32.584114,-21.385752,43.463665,30.040031,1.1333541,-1.770323,-16.46538
109,8.251273155212402,46.05734634399414,66.60018920898438,-2.518335398820059,5.638401261726528,104.76176439821619,-26.354086,21.623228,-13.771412,105.32877,-11.650184,1.2317324,-20.831442,1.8371744,-13.226903,70.75544,-45.111725,-4.152274,1.351325,9.575935,24.39112,2.679608,25.44498,-32.60233,53.923683,-3.5767004,2.6875856,13.263682,-33.5258,-21.573141,43.318672,28.958935,0.7418579,-1.7615418,-16.404655
110,8.142515182495117,47.085636138916016,66.700927734375,-2.318791555562917,5.49716197805766,103.95918746578415,-27.754444,20.305874,-13.602237,106.56165,-12.77972,1.3697168,-19.551104,2.10611,-12.544748,70.21109,-45.078773,-4.0748434,1.9493006,9.64245,24.607357,3.2089338,25.297857,-32.601067,54.165928,-3.5011992,2.6989522,12.883688,-34.415466,-21.717348,43.113117,27.809654,0.4128371,-1.7447947,-16.285658
111,8.048515319824219,48.144901275634766,66.83026885986328,-2.087651113479592,5.325830698802301,103.19820557387445,-29.16228,19.065296,-13.265215,107.55962,-13.877059,1.5470952,-18.139051,2.307291,-11.876678,69.52933,-44.98501,-3.9915657,2.538357,9.662706,24.812634,3.7477322,25.130196,-32.557674,54.442566,-3.4103222,2.706526,12.513414,-35.23858,-21.817257,42.858643,26.626587,0.12931117,-1.721011,-16.13841
112,7.962429523468018,49.2408332824707,66.97794342041016,-1.8187743247882706,5.140472231422534,102.50280130242841,-30.590336,17.919497,-12.766741,108.326866,-14.992192,1.815703,-16.599934,2.4486167,-11.240027,68.67316,-44.81543,-3.9463952,3.1004508,9.619452,24.99442,4.282901,24.962168,-32.51524,54.72309,-3.2688851,2.6623886,12.3070965,-35.97737,-21.873907,42.5628,25.440367,-0.1287045,-1.6921232,-15.992397
113,7.888894557952881,50.353939056396484,67.14707946777344,-1.511979585810638,4.939461612324679,101.86491600923996,-32.079617,16.981998,-12.046999,108.87293,-16.198698,2.2754197,-14.937693,2.528077,-10.626681,67.66358,-44.591465,-3.9588466,3.6414235,9.505663,25.16111,4.8333735,24.806744,-32.470184,54.996895,-3.0639863,2.5536344,12.308507,-36.631023,-21.885323,42.196438,24.225801,-0.35295472,-1.6567378,-15.827087
114,7.818448543548584,51.50754928588867,67.336669921875,-1.167570338424568,4.716157024935479,101.27529373399385,-33.60011,16.204144,-11.126029,109.18719,-17.451044,2.8588185,-13.149486,2.538289,-10.031265,66.51316,-44.314217,-4.0049014,4.1694345,9.325273,25.322205,5.4129167,24.66767,-32.400146,55.257748,-2.8178124,2.4080994,12.433384,-37.206917,-21.850727,41.760544,22.973928,-0.5393181,-1.6146462,-15.636278
115,7.751781463623047,52.720577239990234,67.55565643310547,-0.7845608717946362,4.478422119202478,100.75618875802631,-35.06577,15.368167,-10.123307,109.24435,-18.622679,3.3807938,-11.228962,2.4830678,-9.474985,65.17114,-43.9382,-4.0594983,4.668264,9.076379,25.46807,6.002923,24.554134,-32.316113,55.479,-2.5483408,2.2392664,12.643793,-37.701912,-21.777184,41.312885,21.736406,-0.71256214,-1.5687543,-15.4709425
116,7.703468322753906,53.97450256347656,67.79905700683594,-0.3652535415013278,4.23374009023807,100.33020776539162,-36.410244,14.261068,-9.169103,109.02004,-19.575508,3.6578717,-9.168008,2.370339,-8.982275,63.581852,-43.414566,-4.0977163,5.1222587,8.759901,25.589228,6.587054,24.477823,-32.2284,55.63069,-2.2733796,2.0604117,12.90117,-38.11125,-21.678314,40.911427,20.55828,-0.8944901,-1.5213197,-15.381254
117,7.667137145996094,55.257808685302734,68.06497955322266,0.10319355026058857,3.9718683784752336,100.00146392310994,-37.65275,12.831704,-8.290685,108.51324,-20.29697,3.670395,-6.945086,2.1759958,-8.5547695,61.741703,-42.80853,-4.1088867,5.537829,8.357916,25.697582,7.1712356,24.450365,-32.129,55.683353,-1.9732306,1.8634356,13.238507,-38.421024,-21.563694,40.556843,19.41727,-1.0856179,-1.4810319,-15.388022
118,7.650383472442627,56.58741760253906,68.36409759521484,0.6115106886456378,3.6907272003630487,99.7565259274659,-38.83338,11.208164,-7.438567,107.72857,-20.852617,3.5102725,-4.568879,1.9110956,-8.187468,59.6752,-42.119946,-4.108654,5.9231977,7.8772454,25.79972,7.7710695,24.476068,-32.01113,55.640774,-1.6458172,1.6476179,13.660498,-38.63233,-21.438042,40.220303,18.28189,-1.2723649,-1.4425031,-15.461198
119,7.632723331451416,57.987205505371094,68.69650268554688,1.1219962362969802,3.4090047998602135,99.59120650762472,-39.926235,9.459228,-6.6322107,106.65406,-21.22882,3.1788087,-2.0761833,1.6421208,-7.890765,57.36965,-41.206257,-4.111412,6.2697,7.36081,25.876814,8.374411,24.552557,-31.8963,55.530426,-1.3384732,1.4356472,14.086911,-38.73577,-21.306465,39.902077,17.163317,-1.4728439,-1.3861319,-15.575197
120,7.620072364807129,59.42894744873047,69.05747985839844,1.5953651666794317,3.1457413094664557,99.5026208687878,-40.899918,7.650333,-5.8914094,105.27814,-21.413794,2.677203,0.49753895,1.4355217,-7.670291,54.808735,-39.925488,-4.1304617,6.5668964,6.8510685,25.906906,8.965323,24.671701,-31.805935,55.388058,-1.0974286,1.2481993,14.437441,-38.729416,-21.175907,39.60679,16.07964,-1.698619,-1.2927064,-15.703413
121,7.6173930168151855,60.92046356201172,69.4397201538086,2.0356377293294576,2.866104054762512,99.50978848370552,-41.719223,5.6862245,-5.267376,103.593925,-21.369358,1.9250861,3.2598095,1.3019732,-7.5256925,51.869816,-38.291424,-4.17239,6.79779,6.3424644,25.909224,9.532966,24.830893,-31.762693,55.24532,-0.9642767,1.085102,14.679361,-38.593475,-21.050543,39.32866,15.019553,-1.9947851,-1.1376718,-15.86443
122,7.627281665802002,62.45281219482422,69.8340835571289,2.4540553789473947,2.5700046551231432,99.60849252471616,-42.410507,3.5838897,-4.7639737,101.606384,-21.134722,0.96020937,6.1929507,1.2199608,-7.4522967,48.605206,-36.367786,-4.2271366,6.9753823,5.824601,25.885437,10.077758,25.029533,-31.75504,55.086308,-0.90503836,0.9353857,14.859547,-38.325665,-20.933514,39.06382,13.968317,-2.3405614,-0.9366762,-16.062176
123,7.644941806793213,64.02515411376953,70.25569152832031,2.820241441694813,2.330238842488028,99.7634993927249,-43.025665,1.5674429,-4.318848,99.32487,-20.806934,-0.04004707,9.071226,1.2055423,-7.444035,45.258564,-34.087715,-4.281815,7.130899,5.330418,25.78593,10.596378,25.2586,-31.75448,54.88105,-0.85236233,0.8026429,15.0173025,-37.947956,-20.830595,38.820835,12.938538,-2.652692,-0.7314276,-16.249063
124,7.666325569152832,65.6356430053711,70.68816375732422,3.109089103498553,2.221614770806139,99.94170458032382,-43.608807,-0.15051799,-3.8529637,96.75642,-20.467318,-0.9064554,11.663691,1.268405,-7.4957047,42.0748,-31.379114,-4.3221974,7.292399,4.890796,25.560226,11.082413,25.502993,-31.732784,54.60555,-0.73726165,0.6908761,15.193275,-37.491886,-20.750124,38.612053,11.949345,-2.839889,-0.56477386,-16.378933
125,7.683992385864258,67.27880859375,71.12957000732422,3.318379893074106,2.2758452950847836,100.16987915357792,-44.185966,-1.5319414,-3.3224347,93.881805,-20.10746,-1.6150336,13.963044,1.4288816,-7.64414,38.98848,-28.129913,-4.4279294,7.455893,4.512835,25.169298,11.515413,25.754482,-31.712925,54.275253,-0.52089995,0.60844684,15.399879,-36.933823,-20.69829,38.43809,11.000503,-2.8200564,-0.44443792,-16.460672
126,7.713197708129883,68.92639923095703,71.57170104980469,3.459530980881143,2.447065925057953,100.4614314918943,-44.70643,-2.6982045,-2.7766235,90.70281,-19.689531,-2.2545815,16.066902,1.6819834,-7.8876667,35.93039,-24.421062,-4.5782456,7.6046486,4.187097,24.648573,11.889049,26.010195,-31.708082,53.913784,-0.24559712,0.5505519,15.616701,-36.260735,-20.677599,38.291462,10.075432,-2.6593084,-0.3492723,-16.512638
127,7.747021198272705,70.57122802734375,72.00664520263672,3.5310228640709385,2.6976541628027557,100.76195981128843,-45.100025,-3.6818743,-2.2640636,87.25479,-19.246578,-2.8238478,17.89845,1.9940383,-8.148826,33.135815,-20.456285,-4.613758,7.7482505,3.9133034,24.057322,12.219587,26.260267,-31.673594,53.51072,0.036660552,0.5008192,15.835488,-35.521336,-20.689924,38.17417,9.172269,-2.4927409,-0.2785349,-16.50326
128,7.771723747253418,72.21702575683594,72.43603515625,3.5361205905424273,2.9942592962724097,101.00789456753924,-45.30475,-4.5072136,-1.8289896,83.56468,-18.800714,-3.315316,19.385593,2.3266597,-8.324019,30.809162,-16.40391,-4.374093,7.9039807,3.6864035,23.451893,12.524495,26.49072,-31.561619,53.058098,0.27587464,0.44223365,16.047775,-34.761314,-20.733847,38.090427,8.289866,-2.4617858,-0.23086515,-16.401327
129,7.794605255126953,73.86975860595703,72.8531265258789,3.4640395472741305,3.3576268373187763,101.19960253951272,-45.310394,-5.163927,-1.4708169,79.55167,-18.350637,-3.728811,20.476786,2.7050877,-8.354824,28.94295,-12.069921,-3.8734183,8.078021,3.5114005,22.811846,12.805471,26.689793,-31.350294,52.553802,0.46115488,0.36486232,16.264374,-33.99085,-20.808508,38.045097,7.4432445,-2.6286497,-0.20228069,-16.174675
130,7.809783458709717,75.5259780883789,73.25350952148438,3.324515812891318,3.8011373635463666,101.3589213241058,-45.139423,-5.6494007,-1.1595483,75.21315,-17.878456,-4.065744,21.226727,3.138278,-8.267643,27.412743,-7.41381,-3.1639595,8.26412,3.3830044,22.113083,13.048405,26.853476,-31.068832,52.01724,0.6212547,0.27829236,16.486761,-33.189907,-20.912107,38.039997,6.6360536,-2.9120014,-0.19569042,-15.848343
131,7.82861328125,77.18370819091797,73.62100219726562,3.1405723263558563,4.285511161018086,101.45121514424777,-44.79892,-5.991889,-0.8957149,70.71299,-17.386024,-4.316869,21.727646,3.575885,-8.060977,26.233114,-2.8198152,-2.1380453,8.464262,3.2820094,21.400036,13.247946,26.981165,-30.74629,51.472378,0.7627601,0.19394839,16.69304,-32.372604,-21.04041,38.07425,5.8589573,-3.2241213,-0.22024238,-15.477003
132,7.829029083251953,78.82501983642578,73.95021057128906,2.9383377146098346,4.771044452929639,101.44067342103001,-44.300217,-6.222002,-0.6774426,66.21223,-16.879189,-4.475019,22.073391,3.973672,-7.7302446,25.423338,1.3198079,-0.69313335,8.681837,3.1884084,20.718592,13.401613,27.074875,-30.408684,50.938103,0.8932718,0.12384829,16.860956,-31.551409,-21.186804,38.14562,5.101739,-3.4796073,-0.28369316,-15.115715
133,7.818833827972412,80.46467590332031,74.22897338867188,2.726904586657871,5.28171453810213,101.29957092636072,-43.623066,-6.3478327,-0.48995826,61.55518,-16.376661,-4.5399704,22.281828,4.3325076,-7.2017145,24.8966,4.9680567,1.4469894,8.949005,3.085118,20.055502,13.517916,27.130516,-30.025066,50.41644,0.987433,0.06281411,16.96665,-30.740982,-21.351048,38.26307,4.3719006,-3.6818235,-0.40465358,-14.764828
134,7.807578086853027,82.08819580078125,74.44953155517578,2.487190997142905,5.826283849602963,101.04703412065895,-42.763367,-6.3579946,-0.3323984,56.699417,-15.858457,-4.5212603,22.300629,4.706632,-6.4495707,24.693481,8.286512,4.1830506,9.256954,2.9879336,19.393969,13.596399,27.145685,-29.591116,49.899536,1.051238,0.006730946,17.028057,-29.933422,-21.532717,38.425743,3.676528,-3.8701527,-0.5733858,-14.400153
135,7.787675380706787,83.70207977294922,74.61048126220703,2.1947803256862155,6.339772645198648,100.7234569480597,-41.768906,-6.2571836,-0.22567977,51.9977,-15.277587,-4.429037,22.112892,5.1208067,-5.5939574,25.039501,11.176139,7.032943,9.541105,2.929957,18.77499,13.623059,27.130684,-29.174244,49.389465,1.1351188,-0.030663995,17.085115,-29.121552,-21.724092,38.619713,3.0163355,-4.005744,-0.7541659,-14.03894
136,7.778684616088867,85.3104248046875,74.70902252197266,1.8302998696274388,6.758861864346534,100.3730412903796,-40.704453,-6.0525813,-0.18561092,47.83284,-14.600601,-4.2737412,21.709837,5.5821023,-4.8008933,26.13008,13.567973,9.49417,9.736426,2.940002,18.23813,13.588339,27.104195,-28.842869,48.880764,1.2877921,-0.034854252,17.177153,-28.29213,-21.912832,38.828022,2.3910804,-4.0571957,-0.91095126,-13.696983
137,7.763253211975098,86.9094009399414,74.75151062011719,1.355485041996249,7.061876996956372,99.99596456931512,-39.475815,-5.710291,-0.2413163,43.964397,-13.527726,-4.1553903,21.093004,6.1180162,-4.203232,28.041733,15.553185,11.463047,9.842872,3.0578291,17.79803,13.50301,27.078653,-28.613098,48.397903,1.581505,-0.005070669,17.32105,-27.435814,-22.088085,39.061134,1.7933756,-3.9648063,-1.029361,-13.388017
138,7.746380805969238,88.51632690429688,74.73162841796875,0.7879522626506843,7.280005061644289,99.57989682595282,-38.110325,-5.237905,-0.36973098,40.337822,-12.1918545,-4.0416203,20.26347,6.7296453,-3.744865,30.659286,17.146082,13.198496,9.883253,3.2604685,17.432579,13.379086,27.056799,-28.446123,47.91886,1.9667349,0.053924996,17.492016,-26.562164,-22.246044,39.320736,1.2328447,-3.7703705,-1.1295593,-13.099261
139,7.7284111976623535,90.13983917236328,74.6485595703125,0.21456727368202788,7.438279545284583,99.15436955074917,-36.886223,-4.7233305,-0.49509412,37.66367,-11.222037,-3.7439282,19.22172,7.356875,-3.3380086,33.858894,18.185083,14.724024,9.822937,3.4636307,17.122465,13.21309,27.045439,-28.323645,47.364407,2.3104274,0.14832805,17.665237,-25.709906,-22.388819,39.583027,0.7495737,-3.5774076,-1.2281722,-12.806086
140,7.724437236785889,91.76510620117188,74.49080657958984,-0.2810436509290234,7.565802629967266,98.74740793880596,-36.091774,-4.250748,-0.5584707,36.67751,-11.259305,-3.084135,17.986702,7.775678,-3.3375943,37.510044,18.525373,15.000033,9.630901,3.5769818,16.848776,12.998966,27.054836,-28.232052,46.6538,2.478417,0.28329483,17.8164,-24.906073,-22.522083,39.817886,0.37175423,-3.4917452,-1.3426298,-12.484057
141,7.727719783782959,93.2796859741211,74.30541229248047,-0.7127846225406262,7.696991865536243,98.36328623299106,-35.955246,-3.8053424,-0.61336774,38.02879,-12.670492,-1.7662262,16.51936,8.159763,-3.338438,41.698177,17.982784,15.000033,9.304889,3.6192684,16.566242,12.747753,27.097805,-28.196783,45.780357,2.395376,0.43181598,17.89909,-24.151669,-22.648651,40.027367,0.08992641,-3.5445979,-1.497743,-12.085708
142,7.678196430206299,94.74765014648438,74.08096313476562,-1.1235840293364239,7.801289463632528,97.97803353326115,-36.231083,-3.3465645,-0.72882444,41.105938,-15.032106,0.03264146,14.853431,8.594233,-3.28158,46.420685,16.698639,15.000033,8.873828,3.6371977,16.304132,12.469296,27.178907,-28.216219,44.763405,2.143481,0.60131025,17.93835,-23.425978,-22.769098,40.219566,-0.11619637,-3.677007,-1.6785959,-11.637654
143,7.619100570678711,96.37002563476562,73.71134185791016,-1.4716116615163866,7.8221732385579505,97.58218409763002,-36.51069,-2.9342878,-0.8532371,44.761772,-17.791542,1.792988,13.079558,8.94395,-3.222923,51.473404,14.977332,15.000033,8.351901,3.598392,16.140575,12.1517,27.293196,-28.23764,43.564068,1.8247331,0.8482977,18.017412,-22.723248,-22.887604,40.3728,-0.23655017,-3.8585567,-1.8431393,-11.2269745
144,7.569329261779785,98.01302337646484,73.24153137207031,-1.7512396836991144,7.7249103916235455,97.1582365248641,-36.488407,-2.5669472,-0.9007615,48.02471,-20.475986,2.9802632,11.2828,9.058166,-3.235458,56.62746,13.160245,15.000033,7.7630305,3.5017138,16.127783,11.778232,27.430813,-28.206654,42.14897,1.5431432,1.2285265,18.220522,-22.036983,-23.010735,40.462265,-0.26304424,-4.0584655,-1.948668,-10.94167
145,7.505440711975098,99.54499816894531,72.72857666015625,-1.9966178843071085,7.47164094643042,96.68256834865349,-36.181694,-2.187851,-0.83025426,51.006428,-23.171783,3.3516004,9.523761,8.910741,-3.331292,61.982857,11.272552,15.000033,7.0944815,3.3810902,16.275732,11.417654,27.57936,-28.10931,40.4181,1.3025752,1.8144788,18.580976,-21.410093,-23.15132,40.51312,-0.12620932,-4.2902203,-2.0225048,-10.770414
146,7.410965919494629,101.01641082763672,72.17610931396484,-2.1868280737313825,7.097026855968242,96.17236366743576,-35.73626,-1.779362,-0.66981405,54.13784,-26.070738,3.228863,7.7633224,8.558118,-3.4541416,67.61863,9.148413,15.000033,6.340547,3.2137105,16.552025,11.048536,27.737242,-27.973797,38.425426,1.0550175,2.5572224,19.053139,-20.822618,-23.314186,40.524277,0.13610126,-4.563659,-2.0736914,-10.67975
147,7.27599573135376,102.48040771484375,71.64482116699219,-2.2258941563508645,6.681610735674253,95.67785195933247,-35.071133,-1.4282184,-0.38419944,56.979332,-28.879408,2.9219809,5.9311523,7.945731,-3.5391243,73.27447,6.8553815,15.000033,5.533908,2.901278,16.937223,10.51082,27.915726,-27.819551,36.373936,0.8219797,3.3299873,19.599836,-20.181793,-23.489798,40.42788,0.3774949,-4.8388767,-2.0312965,-10.722652
148,7.087001800537109,103.8977279663086,71.19182586669922,-2.0160016826332816,6.305969282655606,95.24704203391813,-34.104725,-1.2777991,0.07081649,59.08009,-31.296682,2.7385397,3.9470487,7.0281553,-3.4875712,78.68645,4.4690647,15.000033,4.7125125,2.3383722,17.406698,9.642532,28.133854,-27.673912,34.465076,0.62559295,4.006268,20.180973,-19.393297,-23.65892,40.15314,0.45512447,-5.0797772,-1.8243232,-10.9500475
149,6.937541961669922,105.25682067871094,70.82809448242188,-1.3833082533403323,5.95364223074765,94.88907265018705,-32.72763,-1.5310918,0.87042356,60.205616,-33.209984,2.7714214,1.7766566,5.6983714,-3.0731478,83.96408,1.9359193,15.000033,3.890098,1.3428141,18.04045,8.287706,28.425451,-27.634007,32.796593,0.4441982,4.5425916,20.899918,-18.442347,-23.795748,39.63436,0.3861237,-5.344539,-1.3708088,-11.421389
150,6.849189281463623,106.61750030517578,70.52452850341797,-0.41833176972791153,5.601457796322071,94.57550826205244,-31.030884,-2.1318147,1.9552681,60.62436,-34.777218,2.8615677,-0.5251793,4.0391784,-2.3225486,89.180855,-0.7499588,15.000033,3.074526,-0.009562289,18.794481,6.5641503,28.795916,-27.689423,31.233105,0.2616885,5.0108995,21.73563,-17.374825,-23.891798,38.904057,0.2384913,-5.62967,-0.7286382,-12.087912
151,6.809642314910889,107.99559020996094,70.25003051757812,0.5898092009732931,5.315591203337182,94.30423189649129,-29.224127,-2.8455777,3.0216112,60.633404,-36.103916,2.9384072,-2.9321325,2.255143,-1.5078335,94.032455,-3.434157,15.000033,2.265372,-1.4277054,19.47188,4.724334,29.207022,-27.684685,29.635517,0.12167013,5.4586363,22.461603,-16.201994,-23.960358,38.063282,-0.046226718,-5.801065,-0.03863176,-12.843513
152,6.7770233154296875,109.40560150146484,70.01248931884766,1.1492998224889535,5.175646900974012,94.02630951683763,-27.572834,-3.1643763,3.67684,60.701157,-37.39883,2.872825,-5.4863434,0.61989397,-1.0313282,98.17923,-5.880737,15.000033,1.4803786,-2.4044933,19.871382,3.0174494,29.597408,-27.435438,27.889124,0.082349755,5.933042,22.855783,-14.9301405,-24.030275,37.232456,-0.5352139,-5.7284927,0.55463845,-13.589222
153,6.760266304016113,110.8637924194336,69.8434066772461,1.3776836180038494,5.21352117542138,93.82558812812738,-26.07471,-3.2268221,3.9394376,60.767956,-38.637253,2.6778388,-8.222153,-1.1124518,-0.9221606,101.66866,-8.196764,15.000033,0.6190244,-3.0273066,19.941784,1.4839752,29.92067,-26.805138,25.974638,0.2195049,6.455615,22.77242,-13.499511,-24.12468,36.431873,-1.3349459,-5.2022076,1.0340992,-14.401909
154,6.7403035163879395,112.37894439697266,69.7283935546875,1.40539224861013,5.379521504927073,93.68956605287964,-24.623545,-3.1277568,3.9579723,60.693462,-39.76191,2.381393,-11.135793,-3.5572684,-1.5035888,104.65531,-10.417947,13.508201,-0.3147818,-3.4317513,19.798243,-0.03127209,30.170977,-25.904743,24.01304,0.5088353,6.9914765,22.359484,-11.911289,-24.24857,35.62686,-2.397913,-4.3415284,1.4586563,-15.311505
155,6.726802825927734,113.92967987060547,69.671142578125,1.309548859199127,5.575490333382689,93.57649608102238,-23.098497,-2.9276652,3.8542213,60.412857,-40.70257,2.0465217,-14.089781,-6.0279074,-2.1780305,107.09738,-12.51169,11.713808,-1.2798253,-3.6750753,19.571716,-1.5756516,30.35393,-24.921701,22.106077,0.85691196,7.5036435,21.838902,-10.255657,-24.402899,34.843216,-3.564032,-3.5160966,1.8071322,-16.1455
156,6.719393253326416,115.49638366699219,69.66251373291016,1.1526514237118446,5.705982527859935,93.43945102089118,-21.383923,-2.668402,3.7356684,59.86698,-41.39121,1.7228975,-16.976463,-8.144258,-2.7106612,108.941086,-14.377348,9.915056,-2.2324982,-3.8217921,19.39084,-3.1825821,30.480984,-24.038094,20.334547,1.163596,7.960379,21.43391,-8.6340275,-24.583189,34.104588,-4.667976,-3.0988858,2.0741363,-16.7262
157,6.704455375671387,117.08464813232422,69.71331024169922,0.8929858430267984,5.767585040990432,93.27184586466045,-19.478264,-2.3066547,3.5787656,59.079918,-41.888577,1.41369,-19.873709,-9.887524,-3.1926315,110.184135,-15.9524355,7.959586,-3.173206,-3.8287709,19.261513,-4.8896646,30.553572,-23.284004,18.724663,1.404642,8.340687,21.205967,-7.050279,-24.786648,33.3979,-5.681324,-3.2851336,2.2470803,-16.973602
158,6.6859235763549805,118.68138122558594,69.82466888427734,0.5125943108737974,5.79855493662561,93.0991442179327,-17.431286,-1.8247406,3.3413138,58.076473,-42.207085,1.0924757,-22.798098,-11.371904,-3.7422545,110.8464,-17.30206,5.880302,-4.1131034,-3.6774974,19.137938,-6.6761894,30.568773,-22.573458,17.237843,1.6303675,8.66572,21.03931,-5.4473443,-25.01108,32.700974,-6.691609,-3.8494508,2.34011,-16.98697
159,6.673856735229492,120.31234741210938,70.01472473144531,0.0991645933097245,5.770365663419996,92.91801335136522,-15.208118,-1.3024129,3.0993924,56.800285,-42.215134,0.7610767,-25.5753,-12.505337,-4.2510886,110.901535,-18.461725,4.031961,-5.0283585,-3.4801922,19.06124,-8.46971,30.53623,-21.90534,15.831941,1.8481275,8.973627,20.889557,-3.8510978,-25.250261,32.031677,-7.6951666,-4.537206,2.3936722,-16.858608
160,6.676397323608398,121.97657775878906,70.27578735351562,-0.25726127868095766,5.657998124935967,92.72340124316365,-12.770433,-0.8277844,2.9274726,55.189816,-41.77854,0.42367607,-28.047945,-13.215016,-4.625598,110.327324,-19.438627,2.7284298,-5.8922462,-3.355394,19.064384,-10.194921,30.471077,-21.28236,14.45776,2.061777,9.302976,20.711401,-2.2935617,-25.494127,31.411716,-8.680181,-5.093103,2.4490383,-16.680248
161,6.705180644989014,123.66377258300781,70.59989929199219,-0.5317725921825163,5.444755419880064,92.51205235349678,-10.041392,-0.42821053,2.8351438,53.14811,-40.89925,0.08068157,-30.202442,-13.432795,-4.8283973,109.05117,-20.204113,2.1190958,-6.703391,-3.3487732,19.16316,-11.852454,30.37973,-20.6821,13.104651,2.3186688,9.715013,20.471308,-0.8174248,-25.736166,30.867666,-9.6096115,-5.483664,2.5382102,-16.406267
162,6.739563465118408,125.39979553222656,70.97350311279297,-0.7704742405840967,5.148595160612696,92.28630947731632,-7.060223,-0.061152287,2.78369,50.734234,-39.641827,-0.2680064,-32.101173,-13.24489,-4.944731,107.10281,-20.744629,1.9896953,-7.48143,-3.405945,19.332127,-13.455538,30.264048,-20.096378,11.777218,2.5998015,10.172499,20.19785,0.5815346,-25.972288,30.398226,-10.476902,-5.8349013,2.6301506,-16.011301
163,6.781416893005371,127.1849365234375,71.39616394042969,-0.9843697471465566,4.7979385598808095,92.04835140042964,-3.9605827,0.2807209,2.7715979,48.123333,-37.95581,-0.61646706,-33.707592,-12.809302,-5.0288534,104.616295,-21.090067,2.121682,-8.2267065,-3.4984293,19.537828,-14.94695,30.13436,-19.55424,10.4433155,2.8055687,10.56822,19.941444,1.942479,-26.195778,29.982552,-11.315409,-6.1328316,2.6752555,-15.617004
164,6.835569381713867,129.02230834960938,71.86463165283203,-1.189092135250594,4.421294969993729,91.79900911314176,-0.8748345,0.6053677,2.7965164,45.49038,-35.795357,-0.9598967,-34.990852,-12.270389,-5.1356053,101.721886,-21.270721,2.3069792,-8.93694,-3.5965538,19.749987,-16.263042,30.006287,-19.08596,9.061467,2.8312511,10.796893,19.754717,3.3061013,-26.400118,29.59556,-12.1607275,-6.363785,2.624762,-15.34369
165,6.900371074676514,130.8906707763672,72.3488540649414,-1.391533232712556,3.967602083792595,91.5267143224691,2.3330052,0.9200391,2.8631122,42.697422,-33.053802,-1.3357729,-35.850758,-11.6026945,-5.2855115,98.35105,-21.250063,2.5697355,-9.605456,-3.7116814,20.015419,-17.351736,29.88186,-18.655905,7.5893173,2.6767843,10.842284,19.624512,4.6635437,-26.585308,29.253712,-13.018575,-6.5083427,2.4260325,-15.215173
166,6.977173805236816,132.80113220214844,72.8470230102539,-1.5771432142104385,3.440585459065869,91.23064186158982,5.6796923,1.2033706,2.9656475,39.724247,-29.798477,-1.734412,-36.322197,-10.757592,-5.425757,94.46478,-21.040415,2.9941294,-10.235646,-3.8664985,20.331009,-18.24195,29.761608,-18.25367,6.0407295,2.3831701,10.758736,19.532164,5.9845657,-26.753057,28.97196,-13.860189,-6.5806923,2.1200464,-15.169308
167,7.076054573059082,134.74081420898438,73.34626770019531,-1.722087361999134,2.951486231159488,90.9276124596658,8.848931,1.4279397,3.0864096,36.92096,-26.226997,-2.0894651,-36.584354,-9.830942,-5.5186634,90.22835,-20.73451,3.459617,-10.83722,-4.0391793,20.597673,-18.987186,29.663345,-17.949776,4.447171,1.9025139,10.547656,19.522722,7.2905784,-26.894308,28.71143,-14.6859455,-6.6163306,1.7961373,-15.198069
168,7.177699565887451,136.6957550048828,73.83149719238281,-1.8098788447396654,2.6128523956093455,90.63598055373023,11.515148,1.5750225,3.2095358,34.6388,-22.523638,-2.34037,-36.820538,-8.921152,-5.5301404,85.80054,-20.420149,3.8496559,-11.417958,-4.204488,20.718945,-19.643337,29.613523,-17.822931,2.836399,1.1819984,10.209491,19.64107,8.609908,-26.992777,28.424591,-15.502648,-6.653398,1.5444399,-15.291254
169,7.28596830368042,138.6511688232422,74.28935241699219,-1.8283989717603826,2.463337987083213,90.3513203547008,13.575649,1.6229757,3.3262575,32.948196,-18.55103,-2.3279264,-37.080933,-8.037506,-5.436855,81.12024,-20.10604,4.060567,-11.973523,-4.3623223,20.652065,-20.23537,29.640318,-17.932943,1.2195598,0.0070119826,9.677976,19.971695,9.972884,-27.034388,28.103867,-16.318758,-6.7350354,1.4020448,-15.506485
170,7.389252662658691,140.6088409423828,74.7264633178711,-1.7880597034167658,2.44083227895674,90.06623330921829,15.198054,1.5999421,3.4633312,31.680256,-14.260001,-2.1482875,-37.257175,-7.1456437,-5.252259,76.12013,-19.748644,4.1683335,-12.50569,-4.5313883,20.45657,-20.718643,29.743826,-18.224625,-0.43936315,-1.531706,8.965864,20.452757,11.343225,-27.013132,27.777603,-17.119717,-6.8352003,1.3162214,-15.8265295
171,7.490649223327637,142.55003356933594,75.13639068603516,-1.7086947998432673,2.5107262035808215,89.80087153040276,16.46527,1.5577662,3.6305654,30.804243,-9.95282,-2.1124134,-37.306145,-6.280234,-5.01008,70.93704,-19.344696,4.3242693,-13.027376,-4.7020044,20.19075,-21.060163,29.913023,-18.619907,-2.1776495,-3.0371957,8.199591,20.923584,12.663315,-26.924318,27.437338,-17.886356,-6.8855686,1.240413,-16.125515
172,7.596942901611328,144.4866485595703,75.50276184082031,-1.6167535647825058,2.639468565371504,89.57409041942311,17.47675,1.5276031,3.7987952,30.263344,-5.9255853,-2.5191238,-37.19806,-5.4740934,-4.7428303,65.71184,-18.890831,4.6801867,-13.566074,-4.8545804,19.903921,-21.21874,30.112442,-19.015926,-4.018206,-4.1027145,7.5184517,21.230991,13.8514385,-26.767717,27.09921,-18.571625,-6.8196855,1.129453,-16.2845
173,7.698731899261475,146.4123077392578,75.82070922851562,-1.5072504915864036,2.870187841308112,89.41645738848302,18.21139,1.4967523,3.896636,29.968536,-2.142314,-3.556253,-36.91538,-4.715691,-4.416001,60.175644,-18.30301,5.3770404,-14.162583,-4.980621,19.568308,-21.207964,30.331284,-19.43095,-5.981658,-4.6456485,6.943016,21.417192,14.93453,-26.536242,26.734877,-19.181816,-6.5650496,0.9665059,-16.269005
174,7.796472549438477,148.34237670898438,76.08834075927734,-1.374337516341084,3.2043384388220018,89.3189342228983,18.636595,1.4327765,3.899511,29.960712,1.5415237,-5.0139413,-36.459255,-4.0205016,-4.0172706,54.282932,-17.576212,6.2831187,-14.799364,-5.081067,19.16656,-21.064888,30.570702,-19.90936,-8.021472,-4.8679304,6.41033,21.542141,15.932612,-26.228636,26.351141,-19.721382,-6.1775956,0.7786369,-16.143427
175,7.888253211975098,150.2611083984375,76.28995513916016,-1.2221624799220123,3.5457660290387025,89.24949833321475,18.83855,1.3277179,3.842105,30.356354,4.9994016,-6.5912137,-35.8522,-3.4570498,-3.623734,48.534554,-16.821524,7.156542,-15.41063,-5.1609435,18.766027,-20.788061,30.813854,-20.401794,-10.064237,-4.7985177,5.9418745,21.496199,16.775728,-25.861486,25.99493,-20.159142,-5.780198,0.5861987,-15.933995
176,7.965258598327637,152.17974853515625,76.42719268798828,-1.0638891044295373,3.800998338033316,89.17059317338688,18.905796,1.197053,3.7965612,31.26218,8.09585,-7.988144,-35.154217,-3.061144,-3.3303995,43.501408,-16.169605,7.777373,-15.929315,-5.2187104,18.433878,-20.374,31.034765,-20.851183,-12.030956,-4.4641457,5.5544906,21.16541,17.397217,-25.46608,25.712498,-20.46807,-5.4929056,0.40930754,-15.67083
177,8.045007705688477,154.11343383789062,76.49749755859375,-0.8899786172181464,3.9203883804377533,89.07413304174662,18.893692,1.0938674,3.9087322,32.74076,10.856231,-9.169919,-34.321445,-2.8551478,-3.2092729,39.235683,-15.715671,8.133605,-16.343546,-5.2546988,18.21381,-19.805964,31.217539,-21.244734,-13.963534,-3.694466,5.246272,20.43313,17.846132,-25.064318,25.479008,-20.7036,-5.3453064,0.2472745,-15.346739
178,8.109607696533203,156.0543212890625,76.49933624267578,-0.6984880059107003,3.9622858101203398,88.9732435439329,18.738604,1.0237907,4.1328135,34.74652,13.3296175,-10.256352,-33.379803,-2.785891,-3.206099,35.506542,-15.382495,8.350826,-16.677937,-5.263148,18.063894,-19.102512,31.35935,-21.614609,-15.869596,-2.5286026,4.9921217,19.388235,18.159563,-24.665642,25.269346,-20.885893,-5.2665124,0.0921621,-14.955777
179,8.166975975036621,157.97036743164062,76.42666625976562,-0.5238581797518531,4.002861773661436,88.8557834963876,18.351297,0.9397819,4.280004,37.207394,15.410818,-11.204914,-32.53813,-2.7542162,-3.235078,32.54823,-15.085694,8.420297,-16.915552,-5.2176156,17.91961,-18.310629,31.452774,-21.969252,-17.626446,-1.3086869,4.7822323,18.223156,18.259583,-24.286388,25.125443,-20.950142,-5.227346,-0.048028775,-14.530977
180,8.22608757019043,159.86314392089844,76.26953125,-0.4020155589550599,4.1209450321400976,88.70883649241318,17.64764,0.76579946,4.158432,40.034653,16.990404,-12.014058,-32.01437,-2.6670818,-3.2060344,30.62074,-14.751782,8.323548,-17.043316,-5.0847483,17.714462,-17.466043,31.487963,-22.308226,-19.121643,-0.37245208,4.626596,17.126446,18.063437,-23.947838,25.092503,-20.82407,-5.198574,-0.1645779,-14.106658
181,8.288552284240723,161.74850463867188,76.04022979736328,-0.34404759797415346,4.382017219592422,88.51140988782053,16.523525,0.3403048,3.587145,43.294334,18.06837,-12.711532,-31.940802,-2.522236,-3.0941336,29.854004,-14.201382,8.043794,-17.06394,-4.837844,17.391052,-16.52971,31.448904,-22.603006,-20.36828,0.23781535,4.5442348,16.065876,17.517323,-23.66861,25.1913,-20.505804,-5.1705914,-0.25443566,-13.660473
182,8.336051940917969,163.6425323486328,75.73095703125,-0.3364166815309931,4.733830056874771,88.26615756842894,15.062,-0.30904874,2.74191,46.992817,18.681335,-13.358364,-32.216568,-2.356351,-2.9468002,30.156376,-13.561293,7.5867662,-16.976864,-4.486973,16.995193,-15.495211,31.330202,-22.857204,-21.410889,0.6935313,4.5303407,14.962017,16.68826,-23.455343,25.391615,-20.045319,-5.1534276,-0.3222838,-13.190031
183,8.401220321655273,165.4834442138672,75.36772918701172,-0.38328074464127787,5.078563072610505,87.9997358225908,13.454997,-0.962969,1.9570867,50.961887,18.770632,-13.98795,-32.69745,-2.1440637,-2.779349,31.442186,-13.20884,6.9650006,-16.769108,-4.055407,16.615526,-14.431262,31.141516,-23.116468,-22.196661,0.98187697,4.576372,13.93412,15.673523,-23.304705,25.663248,-19.448812,-5.1471643,-0.37121323,-12.7589655
184,8.470932006835938,167.2266387939453,74.96321868896484,-0.4847245018363124,5.317342049946895,87.74384868976642,11.881055,-1.3289464,1.5568079,55.05349,18.281696,-14.567917,-33.22118,-1.8566262,-2.6059895,33.593044,-13.502874,6.19791,-16.430845,-3.5681734,16.341398,-13.41025,30.901949,-23.428782,-22.66826,1.0845865,4.676057,13.104498,14.564811,-23.206266,25.976858,-18.715046,-5.1540675,-0.40472588,-12.427929
185,8.54221248626709,168.99591064453125,74.46660614013672,-0.5835787074833618,5.430443239319439,87.48132174262223,10.424115,-1.2956765,1.7949817,59.299564,17.121012,-15.000033,-33.94667,-1.4957284,-2.3055193,37.123238,-14.615484,5.1485205,-15.931623,-3.0736363,16.15003,-12.429097,30.623476,-23.813972,-22.810472,0.8604598,4.8025346,12.51225,13.409001,-23.14555,26.314726,-17.81721,-5.1741467,-0.46434468,-12.171043
186,8.635607719421387,170.7664794921875,73.90669250488281,-0.676488042259765,5.4572598072219085,87.21871460065327,8.996097,-0.88817585,2.5516496,63.772156,15.3465185,-15.000033,-34.821472,-1.0772343,-1.9025538,41.797863,-16.265184,3.868735,-15.2969885,-2.5711567,16.009325,-11.4482565,30.307446,-24.247435,-22.662977,0.3603669,4.9765244,12.095411,12.145005,-23.117222,26.700039,-16.756754,-5.208752,-0.5354835,-11.966112
187,8.741029739379883,172.62059020996094,73.2835922241211,-0.8804197980796901,5.398549318244744,87.01153477272791,7.494083,-0.21574552,3.2268398,68.399704,13.108761,-15.000033,-35.418022,-0.5644469,-1.6406082,46.453617,-18.174849,2.6485045,-14.60023,-1.9762933,15.992761,-10.475275,29.958141,-24.698753,-22.26075,-0.14556949,5.2584944,11.825495,10.699439,-23.12243,27.172716,-15.571901,-5.260352,-0.53767455,-11.882757
188,8.87478256225586,174.48611450195312,72.62979888916016,-1.3281090839488043,5.264411126242808,86.90647200248443,5.805217,0.704079,3.4353044,73.08753,10.571535,-15.000033,-35.383434,0.055844612,-1.7593757,50.05301,-20.137592,1.7641202,-13.9107275,-1.1812365,16.170403,-9.518251,29.58031,-25.134735,-21.642761,-0.38874587,5.7054467,11.672968,8.998607,-23.16458,27.772062,-14.310696,-5.327661,-0.3904812,-11.9924755
189,9.03862190246582,176.3115997314453,72.02006530761719,-2.1967610089611056,5.020771071475843,86.92940022766442,3.9173417,2.0080285,2.990905,77.99555,7.530173,-15.000033,-34.607803,0.8906107,-2.466842,52.42368,-22.28566,1.3172556,-13.261604,-0.020982796,16.648294,-8.607325,29.172474,-25.558489,-20.717335,-0.4051087,6.403881,11.696404,6.945286,-23.23615,28.565334,-12.860723,-5.4068136,0.008850685,-12.410964
190,9.203200340270996,178.0497283935547,71.52247619628906,-3.37545809015824,4.684578413785405,87.05534027395326,1.9072021,3.7819328,2.309844,83.08044,3.9952822,-14.480303,-33.330235,1.898604,-3.5653768,54.144745,-24.7036,1.1508273,-12.629867,1.42768,17.348377,-7.7234945,28.733583,-25.975199,-19.50746,-0.30645928,7.29684,11.886435,4.6031213,-23.321127,29.518843,-11.256683,-5.488562,0.59180206,-13.07144
191,9.364432334899902,179.72088623046875,71.14847564697266,-4.5654241035709395,4.3433995090887825,87.24223744733371,-0.2601411,5.6228757,1.5504088,87.964615,0.43857512,-13.543962,-31.748142,2.8784282,-4.705547,55.351547,-27.11928,1.1338102,-11.983602,2.906397,18.066866,-6.8037267,28.271654,-26.358421,-18.231745,0.06399481,8.227488,12.107404,2.1344516,-23.417328,30.517584,-9.758482,-5.5691752,1.1782614,-13.770797
192,9.50597858428955,181.36996459960938,70.85881805419922,-5.474289294689386,4.079780993767538,87.4413335089805,-2.6435626,7.120069,0.83411163,92.29004,-2.6652007,-12.42157,-30.04458,3.6251428,-5.5637097,56.168518,-29.260002,1.1282965,-11.278989,4.1458044,18.609968,-5.774809,27.801985,-26.6749,-17.110365,0.86508656,9.039636,12.22223,-0.3005438,-23.541584,31.454908,-8.622358,-5.653572,1.5886362,-14.304826
193,9.583741188049316,183.08554077148438,70.64281463623047,-6.035927275023615,3.9486145218814412,87.63215535412937,-5.4133024,8.204486,0.16056347,96.07813,-5.151743,-10.947279,-28.263718,4.067642,-6.0766525,56.58414,-31.098919,1.1309612,-10.482679,5.088239,18.930428,-4.5647063,27.31513,-26.885416,-16.170963,2.3818307,9.777159,12.208077,-2.7577517,-23.738918,32.382835,-7.8925753,-5.7995095,1.7908959,-14.643286
194,9.607728958129883,184.8757781982422,70.49640655517578,-6.407000677302355,3.8941969491090944,87.83997279747825,-8.524586,9.043377,-0.573137,99.49922,-7.278597,-9.15702,-26.307283,4.330681,-6.4385543,56.54589,-32.765636,1.189466,-9.621068,5.874819,19.1419,-3.2207248,26.80749,-27.012873,-15.321839,4.4509807,10.493322,12.1179905,-5.269444,-24.023956,33.34176,-7.4886727,-5.9787045,1.8768562,-14.891697
195,9.653349876403809,186.691650390625,70.42520904541016,-6.628656684511674,3.8283920245213707,88.08076788694731,-11.713058,9.718026,-1.2668307,102.4226,-9.196979,-7.3312693,-24.129385,4.4886613,-6.7125983,56.11732,-34.22397,1.2474693,-8.728809,6.524093,19.298397,-1.8425497,26.318932,-27.118687,-14.609048,6.555243,11.039725,11.950417,-7.651779,-24.360271,34.20419,-7.4410815,-6.0847855,1.8504318,-15.042313
196,9.717924118041992,188.512939453125,70.41023254394531,-6.742848453032155,3.66212439514816,88.37184304327486,-14.704058,10.321147,-1.8395141,104.70793,-11.053449,-5.7812867,-21.67667,4.6046014,-6.944146,55.356277,-35.436054,1.2656187,-7.83878,7.0397844,19.454475,-0.51728505,25.922705,-27.262424,-14.096673,8.1635275,11.273468,11.73165,-9.743512,-24.685286,34.829403,-7.731433,-6.0213437,1.7126274,-15.078728
197,9.808517456054688,190.3447723388672,70.4483413696289,-6.720626100925586,3.357889086194196,88.71639001267388,-17.467371,10.95448,-2.1984615,106.3264,-12.932899,-4.5818543,-18.90607,4.646323,-7.106511,54.304165,-36.506172,1.243568,-6.941336,7.358403,19.621487,0.8124055,25.697554,-27.432285,-13.892713,9.230068,11.063928,11.433807,-11.537341,-24.948729,35.149216,-8.382917,-5.7007537,1.3824127,-14.942777
198,9.922123908996582,192.20361328125,70.54534912109375,-6.555981994824387,2.9615437935536995,89.10213952393617,-20.13051,11.563838,-2.3794298,107.348076,-14.736566,-3.5745609,-15.846021,4.575265,-7.177644,52.92023,-37.416424,1.2210858,-6.033818,7.4686947,19.792208,2.2477303,25.674442,-27.566574,-14.025794,9.974402,10.52217,11.085112,-13.168108,-25.141584,35.26418,-9.314477,-5.209193,0.88488984,-14.649968
199,10.040821075439453,194.10594177246094,70.70170593261719,-6.316280476595775,2.510036902963048,89.5235422883644,-22.651525,12.033422,-2.4646153,107.77732,-16.324066,-2.6904526,-12.54868,4.449209,-7.205535,51.141693,-37.945187,1.22671,-5.1616936,7.4607067,19.990479,3.7619033,25.842154,-27.647905,-14.430966,10.272451,9.8748045,10.79127,-14.681455,-25.265541,35.281857,-10.352315,-4.7150273,0.37724686,-14.299597
200,10.148935317993164,196.0544891357422,70.93795013427734,-6.071227538471313,2.0424303561038872,89.97669051169618,-24.986567,12.241322,-2.539051,107.62198,-17.559353,-1.8636708,-9.058242,4.343144,-7.2366977,48.897816,-37.87162,1.271147,-4.3603425,7.4309874,20.224337,5.281783,26.156858,-27.69076,-14.989423,10.014154,9.348837,10.648036,-16.102211,-25.332365,35.292774,-11.335784,-4.3893075,0.016243624,-13.992282
201,10.240747451782227,198.03424072265625,71.25279235839844,-5.830914389489881,1.5197419989980412,90.47988350075339,-27.099125,12.177456,-2.5892546,106.84028,-18.38711,-1.0564724,-5.2293196,4.2892723,-7.264228,46.02313,-37.193737,1.3490964,-3.6437683,7.4092383,20.52279,6.741823,26.595058,-27.748116,-15.668414,8.892953,9.002577,10.720948,-17.410355,-25.340715,35.265995,-12.2833,-4.307999,-0.10687096,-13.745891
202,10.305908203125,200.04782104492188,71.63216400146484,-5.563041742369832,0.9354494649075424,91.02748798937067,-28.99252,11.908856,-2.5525556,105.43832,-18.897257,-0.31666443,-1.0785264,4.245422,-7.265657,42.596085,-36.010483,1.4571122,-2.9862397,7.3498635,20.864094,8.161159,27.150084,-27.810616,-16.481375,7.072408,8.71184,10.929964,-18.60069,-25.288883,35.164658,-13.248161,-4.371299,-0.09307949,-13.5113945
203,10.356433868408203,202.09593200683594,72.06620025634766,-5.270729328783922,0.3791052269295102,91.58290598159039,-30.685148,11.438537,-2.4546552,103.49582,-19.167805,0.30117628,3.1038556,4.186406,-7.268788,38.93056,-34.25688,1.5933182,-2.3608887,7.241424,21.174067,9.571433,27.785204,-27.813826,-17.355278,5.1543508,8.432076,11.155367,-19.695091,-25.19804,35.060814,-14.14824,-4.4902024,-0.074685834,-13.291241
204,10.381686210632324,204.18150329589844,72.54502868652344,-4.960399511427338,-0.05937521085523468,92.11077027903669,-32.201237,10.771815,-2.3317688,101.090195,-19.271738,0.7441971,7.0218997,4.092786,-7.3070855,35.350677,-31.869312,1.749384,-1.7446083,7.0779533,21.37959,10.996375,28.440716,-27.691027,-18.19975,3.7460818,8.1252985,11.278471,-20.710041,-25.103699,35.030575,-14.913126,-4.5697103,-0.18215498,-13.091163
205,10.392956733703613,206.30133056640625,73.05992126464844,-4.625128562947991,-0.4017687517193476,92.62258367477386,-33.485664,9.860193,-2.1850784,98.19311,-19.207388,0.9935503,10.801646,3.9770644,-7.386318,31.662638,-28.648865,1.9511677,-1.144516,6.8665814,21.489544,12.4244175,29.067017,-27.438879,-18.953333,3.0009212,7.7813807,11.256499,-21.63951,-25.036072,35.08476,-15.545771,-4.57196,-0.48562285,-12.917198
206,10.385242462158203,208.44361877441406,73.58551025390625,-4.274402491908191,-0.6843597234890356,93.1373114099286,-34.52567,8.738731,-2.0180855,94.77509,-18.956318,1.0839825,14.534727,3.8627121,-7.4925113,27.810663,-24.705694,2.1832871,-0.56971973,6.6336894,21.532053,13.792102,29.642056,-27.11382,-19.603897,2.6115346,7.4222946,11.153517,-22.450449,-25.007372,35.179367,-16.106596,-4.5455,-0.90144104,-12.768415
207,10.353195190429688,210.59124755859375,74.10307312011719,-3.938937673913233,-0.839708165213762,93.63369500193811,-35.411457,7.535225,-1.8742232,90.900375,-18.55969,1.047279,17.860825,3.7475874,-7.639746,24.341742,-20.435064,2.3785305,0.0008302792,6.400612,21.46281,15.045559,30.147121,-26.74272,-20.138123,2.4915206,7.066037,11.015812,-23.121534,-25.026943,35.30613,-16.603895,-4.5203815,-1.3288354,-12.639613
208,10.319134712219238,212.7270050048828,74.60395812988281,-3.6412564689027973,-0.7976228564789373,94.08959875027574,-36.23969,6.3706985,-1.7814577,86.623856,-18.052208,0.9188705,20.404772,3.619951,-7.852065,21.808504,-16.22309,2.4740715,0.5844442,6.179667,21.236015,16.139984,30.567038,-26.344048,-20.549654,2.5558307,6.7298303,10.887399,-23.641382,-25.1005,35.464054,-17.04254,-4.5259233,-1.6671896,-12.526931
209,10.283866882324219,214.8387908935547,75.09632110595703,-3.372472519190563,-0.4602335008940707,94.50150462483485,-37.11159,5.2492285,-1.7313913,81.84783,-17.382275,0.7226001,21.891045,3.4614801,-8.159015,20.474958,-11.951292,2.2981925,1.20236,5.9668694,20.760817,17.028677,30.88804,-25.923943,-20.79186,2.9350266,6.4122186,10.730386,-24.013868,-25.239607,35.66897,-17.396757,-4.6259017,-1.907069,-12.4429455
210,10.231640815734863,216.956298828125,75.5788345336914,-3.118843592081362,0.11394225829061441,94.88140286662674,-37.933342,4.1183844,-1.7106894,76.5551,-16.55392,0.44086003,22.544842,3.2564363,-8.572192,20.065128,-7.5017824,1.933639,1.8402334,5.7506323,20.080856,17.722414,31.101887,-25.487162,-20.855389,3.628569,6.104165,10.539531,-24.242697,-25.452013,35.91682,-17.677263,-4.782012,-2.0959167,-12.386647
211,10.192167282104492,219.0813751220703,76.0473403930664,-2.871411993254079,0.7674898080940343,95.2077071590545,-38.516525,3.0187836,-1.7146857,70.87942,-15.653316,0.05525164,22.75739,2.9894307,-9.041132,20.247705,-3.202716,1.693843,2.4837172,5.511784,19.347073,18.272898,31.210566,-25.043505,-20.813675,4.3555036,5.8144116,10.4042425,-24.309933,-25.728409,36.17878,-17.939621,-4.880615,-2.2181857,-12.333137
212,10.138179779052734,221.168701171875,76.4745101928711,-2.6307470947696303,1.338644521630471,95.46326465014542,-38.688244,2.0040421,-1.766061,64.94985,-14.764327,-0.44333312,22.94615,2.68323,-9.46767,20.653532,0.62998325,1.8964939,3.1126812,5.2421703,18.715878,18.740746,31.223886,-24.598616,-20.747183,4.8338585,5.55495,10.412473,-24.201965,-26.046839,36.424435,-18.23202,-4.8103843,-2.2584445,-12.255703
213,10.07737922668457,223.2550811767578,76.8289566040039,-2.37878311922429,1.8469384795590515,95.61551698665532,-38.372383,1.0551758,-1.9179919,58.429028,-13.813263,-1.1650776,23.143347,2.3467429,-9.740707,21.169928,3.96259,2.7965457,3.7534509,4.9076223,18.178787,19.16941,31.144403,-24.117546,-20.675085,4.9990683,5.302268,10.614227,-23.928543,-26.393414,36.660736,-18.546364,-4.526188,-2.185482,-12.147103
214,10.00898265838623,225.36134338378906,77.11131286621094,-2.1348826850237055,2.358869972147848,95.66909399619405,-37.658604,0.22066483,-2.1881514,51.284954,-12.752429,-2.0296037,23.172241,2.003395,-9.868608,21.953997,6.984046,4.1703777,4.4110947,4.5331864,17.669985,19.530922,30.973772,-23.600517,-20.569683,4.9985566,5.060241,10.951579,-23.511988,-26.76331,36.906693,-18.841002,-4.0973005,-2.0157886,-12.020712
215,9.948987007141113,227.4884033203125,77.32787322998047,-1.962539808838789,2.775826423577356,95.67220114019929,-36.64372,-0.3779507,-2.531624,44.14578,-11.702221,-2.7818258,23.15003,1.7055005,-9.948,23.036095,9.708734,5.6245685,5.0252476,4.2072244,17.264599,19.779945,30.726793,-23.104841,-20.439648,4.8657007,4.8815656,11.350735,-22.965282,-27.144533,37.148746,-19.104107,-3.5791411,-1.8059456,-11.878337
216,9.894322395324707,229.62303161621094,77.46788787841797,-1.9095926360806048,3.0040824641965487,95.67634565676344,-35.46861,-0.67800426,-2.8590226,37.72452,-10.8118515,-3.2064795,23.192389,1.478359,-10.113552,24.443226,12.143612,6.7578177,5.5368266,4.0079484,17.02942,19.87903,30.428574,-22.687307,-20.302841,4.630955,4.8207746,11.740756,-22.302555,-27.521278,37.36956,-19.321795,-3.0248632,-1.6130992,-11.719934
217,9.841628074645996,231.78118896484375,77.54844665527344,-2.008453602756375,2.9594526546234974,95.69684604068071,-34.076828,-0.66518325,-3.153887,32.07545,-10.159645,-3.2459257,23.42926,1.3094333,-10.515226,26.157038,14.386522,7.470746,5.945319,3.9776318,17.040525,19.850258,30.09358,-22.346317,-20.18283,4.2226386,4.918866,12.157812,-21.483599,-27.881218,37.564137,-19.529848,-2.3327487,-1.4268706,-11.544198
218,9.786359786987305,233.9394073486328,77.56578826904297,-2.230106777088616,2.711556592487865,95.71019851041972,-32.47606,-0.40811867,-3.4278057,26.92475,-9.679729,-3.0496702,23.777025,1.1777639,-11.079603,28.15855,16.411963,7.9608583,6.2743993,4.0711427,17.238422,19.72095,29.726799,-22.049442,-20.082726,3.6426623,5.135168,12.627825,-20.526766,-28.219704,37.740955,-19.706545,-1.5125079,-1.2247703,-11.350536
219,9.727177619934082,236.07737731933594,77.51779174804688,-2.5057405212142094,2.4090072244975387,95.72021495481619,-30.961704,-0.030697776,-3.6122735,22.606455,-9.354966,-2.7315328,24.02087,1.0635827,-11.633728,30.47798,18.027395,8.274918,6.4937987,4.2077193,17.480606,19.463463,29.34286,-21.804386,-19.990261,3.031302,5.40176,13.064307,-19.506308,-28.530222,37.902355,-19.779314,-0.8015746,-1.046664,-11.137391
220,9.661857604980469,238.19322204589844,77.40499114990234,-2.7543019296251847,2.20510247456424,95.73622644042676,-29.836512,0.328378,-3.6517067,19.485634,-9.174948,-2.39409,23.930202,0.9412461,-12.006761,33.17527,19.02093,8.475266,6.569123,4.2902904,17.622622,19.048231,28.962528,-21.620579,-19.892536,2.5281768,5.654582,13.380107,-18.507566,-28.80516,38.04904,-19.664597,-0.4305325,-0.9344709,-10.899758
221,9.591901779174805,240.2914581298828,77.23272705078125,-2.9605385041452283,2.1201719401693278,95.78008561243311,-29.11241,0.66531366,-3.4603167,17.579432,-9.265597,-2.0404892,23.450771,0.8338039,-12.148531,36.352856,19.249414,8.510665,6.470712,4.2883863,17.652721,18.487602,28.59781,-21.487011,-19.822334,2.1556244,5.8955665,13.53241,-17.532751,-29.033928,38.186474,-19.339767,-0.52079993,-0.9456625,-10.618795
222,9.528204917907715,242.37339782714844,76.98858642578125,-3.131047634561219,2.0956666718084356,95.8653133831025,-28.711498,0.98173815,-3.0958421,16.806242,-9.634001,-1.6222409,22.676777,0.713983,-12.180573,39.993977,18.822628,8.388493,6.200183,4.2122183,17.629519,17.80389,28.25239,-21.394136,-19.788136,1.8386292,6.1545463,13.576424,-16.552656,-29.206717,38.31625,-18.838314,-0.9284277,-1.0468677,-10.302514
223,9.463353157043457,244.43223571777344,76.67078399658203,-3.2158711105240076,2.164956858559589,95.98311914156336,-28.786074,1.1698998,-2.7313938,17.365437,-10.084034,-1.1397936,21.605034,0.4959939,-12.176837,43.97859,17.907703,8.271179,5.775709,4.026496,17.513735,16.982414,27.935757,-21.355093,-19.742865,1.5724039,6.410945,13.571151,-15.594392,-29.319883,38.42992,-18.169846,-1.493689,-1.1436225,-9.983883
224,9.371275901794434,246.37429809570312,76.34896850585938,-3.1910123620823465,2.352618294522979,96.11286153553617,-29.460155,1.1535699,-2.535759,19.41706,-10.392753,-0.59182876,20.249002,0.11360968,-12.198901,48.173283,16.684052,8.313689,5.2311654,3.7202656,17.271193,16.00842,27.66069,-21.388048,-19.643938,1.3506125,6.643806,13.576281,-14.664526,-29.374336,38.507465,-17.3597,-2.0612686,-1.1392084,-9.693719
225,9.255659103393555,248.22068786621094,75.99954223632812,-3.1062913358236504,2.7984491231668307,96.2367170786543,-31.138107,0.92064,-2.6467102,23.547298,-10.079992,0.073452346,18.461277,-0.3895759,-12.305435,52.662666,15.069273,8.61131,4.5693197,3.3346498,16.737572,14.905212,27.432852,-21.50101,-19.52118,1.2411914,6.795943,13.588779,-13.789234,-29.372261,38.55595,-16.32207,-2.6192677,-1.040834,-9.333921
226,9.14377498626709,250.16641235351562,75.51530456542969,-3.0445113934936594,3.4047582268853787,96.33016781337886,-33.470375,0.5950769,-2.9277205,29.238003,-9.256598,0.76722753,16.342522,-0.9064091,-12.412491,57.454086,13.021801,9.0390005,3.8137026,2.962552,16.005499,13.692524,27.252024,-21.682842,-19.406088,1.2212948,6.895805,13.585561,-12.939484,-29.315641,38.575638,-15.089414,-3.2446985,-0.88993466,-8.919369
227,9.031811714172363,252.21214294433594,74.92047882080078,-2.963539044418322,3.866583588285929,96.38644657276609,-35.544304,0.23154652,-3.1376965,35.14079,-8.67957,1.3289497,14.246549,-1.461574,-12.387197,62.319523,10.7713175,9.44757,3.0122902,2.5910208,15.410231,12.334976,27.124855,-21.92778,-19.25509,1.1463664,7.053856,13.596684,-12.058518,-29.21117,38.529373,-13.853435,-3.9017048,-0.6366582,-8.64787
228,8.891227722167969,254.1765899658203,74.28327178955078,-2.75957951743833,3.909767467069995,96.42571412799963,-36.611248,-0.13688378,-3.0639067,40.20252,-9.273156,1.7046001,12.494546,-2.110859,-12.11001,67.034195,8.548326,9.722266,2.1958141,2.1318944,15.264393,10.7805605,27.063183,-22.23956,-19.012344,0.8681162,7.379163,13.654522,-11.077994,-29.068638,38.36878,-12.817327,-4.556467,-0.2270728,-8.717446
229,8.74659538269043,256.1658935546875,73.59909057617188,-2.336665993175908,3.285790264705295,96.45226487317956,-36.417088,-0.53707755,-2.5921504,44.59952,-11.818459,1.9240139,11.38726,-2.8734097,-11.445984,71.6186,6.3404174,9.918719,1.3603537,1.4748347,15.8200865,8.964149,27.081123,-22.660925,-18.650333,0.21654476,7.930924,13.816382,-9.976289,-28.896927,38.05657,-11.975485,-5.322806,0.42918167,-9.2465315
230,8.542278289794922,258.13775634765625,73.010009765625,-1.7440401005092823,2.2135718176431816,96.45705838933738,-35.44164,-0.9907445,-1.8787273,48.866547,-15.723528,2.0434597,10.686536,-3.6806145,-10.527921,76.1564,4.045038,10.115356,0.52252376,0.6295604,16.840696,6.9056797,27.176723,-23.20424,-18.202234,-0.7014237,8.637867,14.064825,-8.765849,-28.700983,37.594715,-11.273368,-6.167261,1.2888929,-10.099964
231,8.33877944946289,260.01275634765625,72.56844329833984,-1.0936262506781094,1.1276761590612594,96.4517010675252,-34.11317,-1.4411019,-1.1238623,52.62407,-19.90763,2.1012423,9.874876,-4.4914474,-9.608234,80.53195,1.766175,10.218604,-0.27770957,-0.30831218,17.902565,4.6844273,27.3305,-23.824253,-17.706076,-1.6122304,9.415009,14.312681,-7.435207,-28.483006,37.002514,-10.843385,-6.8368387,2.2031887,-11.104396
232,8.179317474365234,261.8014831542969,72.2580337524414,-0.5011836784454579,0.4637086681488694,96.45528443011611,-32.850994,-1.8338922,-0.50309896,55.463913,-23.28655,2.1342425,8.415654,-5.307941,-8.876047,84.61883,-0.370214,10.107641,-1.0324514,-1.2065109,18.586643,2.3904934,27.515802,-24.460863,-17.199368,-2.2303393,10.182195,14.457121,-5.98156,-28.24322,36.315536,-10.80515,-7.084346,3.0082626,-12.100509
233,8.081186294555664,263.5850524902344,72.02755737304688,0.05601815789398236,0.4190681565748049,96.51762946453285,-31.808832,-2.2032423,-0.02436396,57.169132,-25.61103,2.155817,5.9750433,-6.193356,-8.283931,88.52572,-2.2858853,9.674147,-1.773948,-2.0514295,18.74672,-0.12046188,27.739676,-25.189272,-16.589558,-2.531668,11.018617,14.475968,-4.3023195,-27.96681,35.478683,-11.313896,-6.739498,3.7307208,-13.208392
234,8.04404354095459,265.4076843261719,71.8589096069336,0.6266565348152011,0.7377886547336043,96.62204132884239,-30.769085,-2.5701098,0.40650973,58.012043,-27.449362,2.1485958,2.872822,-7.1462846,-7.6928124,92.279205,-4.040606,8.990304,-2.5097864,-2.8914127,18.61897,-2.8437967,27.996248,-26.02711,-15.900576,-2.6505923,11.934775,14.417526,-2.4301264,-27.648539,34.496296,-12.271566,-5.9637113,4.4122257,-14.473667
235,8.036908149719238,267.27032470703125,71.7835464477539,1.131883689824318,1.1753120311828225,96.69947672337997,-29.591284,-2.8634531,0.77499557,58.317184,-28.945107,2.104509,-0.45936328,-8.111025,-7.1435943,95.6232,-5.706391,8.185456,-3.2426968,-3.6641812,18.358677,-5.4444537,28.228992,-26.784767,-15.322936,-2.5109918,12.749782,14.258491,-0.5903651,-27.312462,33.532303,-13.388525,-5.0261188,4.916198,-15.624878
236,8.008393287658691,269.157470703125,71.78752136230469,1.4906571178786197,1.4861955323087779,96.67585780253091,-28.124514,-3.0114517,1.0659118,58.40156,-30.238771,2.0115378,-3.5885873,-9.051707,-6.704264,98.30612,-7.359723,7.3900766,-3.989339,-4.3020034,18.115063,-7.5944705,28.363808,-27.237242,-14.997669,-2.0166442,13.282231,13.958228,0.9715573,-27.000036,32.77671,-14.354202,-4.200815,5.1286235,-16.38665
237,7.9388275146484375,271.07745361328125,71.8652572631836,1.6435061557330308,1.6117331776766968,96.52052136978809,-26.27125,-2.9485726,1.2593102,58.2918,-31.450209,1.8639549,-6.4542828,-10.020013,-6.443035,100.2918,-9.071496,6.6088033,-4.774464,-4.742916,17.893208,-9.170345,28.334778,-27.234505,-14.919024,-0.8253201,13.422246,13.358473,2.1739907,-26.7586,32.333305,-15.115035,-3.4166698,4.9502683,-16.69227
238,7.842368125915527,273.01434326171875,72.01666259765625,1.646867872533451,1.6774826645634686,96.2763909147804,-24.124748,-2.7207854,1.3719974,57.837082,-32.47537,1.662539,-9.280242,-11.03007,-6.31646,101.706024,-10.777762,5.782819,-5.602183,-5.0133934,17.619514,-10.409348,28.133009,-26.905355,-14.922735,0.935702,13.2670355,12.511922,3.1581187,-26.604843,32.107433,-15.827704,-2.5712426,4.480762,-16.687645
239,7.752994537353516,274.9589538574219,72.2401123046875,1.5921517209660583,1.7142634169587287,95.97688669588561,-21.81389,-2.4268785,1.4436805,57.084858,-33.119267,1.4063277,-12.053656,-11.994793,-6.252319,102.539215,-12.356184,4.9524074,-6.433569,-5.18744,17.325125,-11.529334,27.791754,-26.460402,-14.924111,2.652924,12.96288,11.705254,4.027014,-26.525038,31.96579,-16.494802,-1.8994968,3.9145525,-16.41179
240,7.683094024658203,276.8940734863281,72.55128479003906,1.5710449821963886,1.7543678188460248,95.65593486476045,-19.467058,-2.1762388,1.5102797,56.086643,-33.190212,1.1030252,-14.759712,-12.827873,-6.1843414,102.78018,-13.680479,4.1530504,-7.2307734,-5.3494463,17.03982,-12.708342,27.374912,-26.099594,-14.883154,3.7144206,12.687727,11.214387,4.865256,-26.483204,31.779772,-17.104664,-1.6420455,3.442032,-15.909149
