unveil-humanoid-operators/unveil-humanoid-operators.github.io/feature-analysis-animation/data/feature_matrix_instances/height_ankle_rom_jogging_A314_jog_ff_start_180_R_003__A314.csv
Frame,root_translateX,root_translateY,root_translateZ,root_rotateX,root_rotateY,root_rotateZ,left_hip_pitch_joint_dof,left_hip_roll_joint_dof,left_hip_yaw_joint_dof,left_knee_joint_dof,left_ankle_pitch_joint_dof,left_ankle_roll_joint_dof,right_hip_pitch_joint_dof,right_hip_roll_joint_dof,right_hip_yaw_joint_dof,right_knee_joint_dof,right_ankle_pitch_joint_dof,right_ankle_roll_joint_dof,waist_yaw_joint_dof,waist_roll_joint_dof,waist_pitch_joint_dof,left_shoulder_pitch_joint_dof,left_shoulder_roll_joint_dof,left_shoulder_yaw_joint_dof,left_elbow_joint_dof,left_wrist_roll_joint_dof,left_wrist_pitch_joint_dof,left_wrist_yaw_joint_dof,right_shoulder_pitch_joint_dof,right_shoulder_roll_joint_dof,right_shoulder_yaw_joint_dof,right_elbow_joint_dof,right_wrist_roll_joint_dof,right_wrist_pitch_joint_dof,right_wrist_yaw_joint_dof
0,-0.47222277522087097,-1.967401385307312,78.36090850830078,-1.3452822733994572,2.2343194996131883,83.42665408932899,1.2347411,9.60211,12.525797,8.568915,-10.729486,-8.555806,-1.6843878,-3.219376,-2.915816,7.964656,-8.251521,6.480172,-1.8333851,1.1133844,3.034256,-0.43468785,16.862259,-46.20599,60.165882,-18.146317,2.1841547,20.567566,-6.4172797,-14.104893,45.611084,64.8822,12.671135,-0.64322,-2.9866204
1,-0.4800874590873718,-1.9619859457015991,78.35599517822266,-1.3623690045949426,2.2508059738405164,83.40762036448983,1.135994,9.642679,12.530356,8.770363,-10.84705,-8.559918,-1.6982108,-3.202403,-2.9015353,7.961068,-8.26173,6.4899845,-1.8136728,1.1339352,3.0391018,-0.4190303,16.884548,-46.217663,60.11739,-18.132215,2.2010612,20.60408,-6.407982,-14.105586,45.616196,64.836075,12.74688,-0.6329638,-3.050146
2,-0.48894667625427246,-1.9554033279418945,78.3504409790039,-1.3797857092426251,2.2680864401193817,83.38865515129166,1.0317501,9.684771,12.533746,8.98079,-10.968538,-8.565348,-1.7132243,-3.1846032,-2.8876803,7.95699,-8.270996,6.500022,-1.7931557,1.1551287,3.0414267,-0.410474,16.896755,-46.230865,60.08296,-18.117762,2.2150023,20.643826,-6.400103,-14.10341,45.621513,64.795975,12.824114,-0.6224352,-3.1183853
3,-0.49165430665016174,-1.9451813697814941,78.34636688232422,-1.3963077507284376,2.283680232978907,83.36958044800369,0.9355666,9.724002,12.538872,9.179323,-11.085394,-8.568779,-1.7248288,-3.1677902,-2.8731673,7.9517784,-8.280959,6.5095387,-1.77372,1.1776046,3.0443742,-0.40234193,16.903614,-46.24079,60.0532,-18.10051,2.232312,20.677385,-6.3935995,-14.100389,45.624886,64.758545,12.895826,-0.6132941,-3.177406
4,-0.4972587823867798,-1.9341739416122437,78.34112548828125,-1.4116066470766904,2.2950097186787795,83.3507091603477,0.8577864,9.757066,12.547661,9.352103,-11.19307,-8.566738,-1.7303431,-3.153985,-2.8568368,7.9467597,-8.293389,6.517916,-1.7559087,1.1996149,3.0489945,-0.39017203,16.908224,-46.246563,60.02416,-18.080448,2.2576067,20.694536,-6.390336,-14.096882,45.62563,64.72743,12.957006,-0.608085,-3.213841
5,-0.5057216882705688,-1.9220997095108032,78.33647155761719,-1.4259472659276127,2.3021984725101485,83.3358975407775,0.7954502,9.784827,12.556983,9.499996,-11.289484,-8.555507,-1.725739,-3.1422884,-2.8419263,7.9335527,-8.302573,6.522087,-1.7446792,1.2221181,3.0566432,-0.36953372,16.916239,-46.242046,59.986275,-18.054785,2.2951703,20.6892,-6.394908,-14.087544,45.61982,64.7091,13.002308,-0.6091645,-3.2164762
6,-0.5108391046524048,-1.904675006866455,78.33295440673828,-1.4408541507846317,2.306168612685944,83.3235896607606,0.7449547,9.808627,12.5667925,9.629249,-11.377807,-8.537678,-1.7120925,-3.1319067,-2.827861,7.911453,-8.308192,6.523377,-1.7402203,1.2463484,3.0678985,-0.34487566,16.921747,-46.22465,59.946793,-18.021488,2.3413873,20.667316,-6.406103,-14.076845,45.610764,64.6983,13.035856,-0.6144298,-3.1943178
7,-0.5329462885856628,-1.8964446783065796,78.32723236083984,-1.4527217247769395,2.306342280608378,83.30646523183569,0.7139301,9.826142,12.583943,9.735878,-11.461307,-8.519463,-1.6991929,-3.1256735,-2.808002,7.9035563,-8.325449,6.527602,-1.7328457,1.2690935,3.0795696,-0.31608978,16.924103,-46.206814,59.910885,-17.986908,2.3907263,20.638357,-6.417162,-14.067493,45.602806,64.68903,13.063157,-0.6203203,-3.1655996
8,-0.5412405729293823,-1.8740754127502441,78.32263946533203,-1.4588562305286428,2.302081850742317,83.27676076112915,0.707569,9.83577,12.615105,9.82236,-11.547059,-8.507179,-1.6934223,-3.125444,-2.7758362,7.9252415,-8.365304,6.5405297,-1.7125612,1.2851646,3.0897143,-0.28464398,16.924343,-46.199078,59.884487,-17.95608,2.4379895,20.61133,-6.420012,-14.061745,45.598915,64.672295,13.088856,-0.6224135,-3.1495407
9,-0.5570601224899292,-1.8446190357208252,78.31470489501953,-1.4582073619119027,2.2931065763272476,83.22867523801428,0.7360617,9.833502,12.667617,9.874862,-11.633653,-8.499835,-1.6977501,-3.134441,-2.726162,7.9840074,-8.435142,6.568398,-1.679201,1.2902088,3.094743,-0.24255718,16.922825,-46.193043,59.86624,-17.920776,2.4907403,20.583794,-6.4247475,-14.040234,45.602886,64.67103,13.1079035,-0.6225402,-3.1556773
10,-0.5685085654258728,-1.8132565021514893,78.30731964111328,-1.4516474956565892,2.2798019542208303,83.16712347324945,0.7946582,9.820804,12.73654,9.895931,-11.718426,-8.494951,-1.7085131,-3.1508172,-2.6634684,8.070605,-8.52752,6.6066175,-1.6300887,1.2874768,3.0961099,-0.19883192,16.91824,-46.2015,59.85926,-17.890535,2.5479684,20.553812,-6.4214206,-14.016991,45.611004,64.66853,13.125563,-0.62145644,-3.1740909
11,-0.5842843651771545,-1.7773844003677368,78.29960632324219,-1.4438640416923885,2.262669726137878,83.10241758095461,0.86342955,9.80649,12.808347,9.912963,-11.804462,-8.496874,-1.7232144,-3.168428,-2.5964985,8.178735,-8.633995,6.6443334,-1.5771868,1.2832148,3.0970967,-0.15319727,16.910507,-46.215714,59.860867,-17.864592,2.5945415,20.52758,-6.4186707,-13.990459,45.617714,64.66891,13.138511,-0.61730826,-3.1890645
12,-0.5981383919715881,-1.7434818744659424,78.29154968261719,-1.440670669150687,2.242236292786381,83.04457591685043,0.92575514,9.797684,12.870111,9.947814,-11.8932085,-8.5096855,-1.739965,-3.181546,-2.533815,8.305075,-8.748538,6.670534,-1.5308282,1.2833536,3.1004179,-0.10706162,16.899801,-46.232357,59.869522,-17.846182,2.6150496,20.51173,-6.422671,-13.958684,45.619698,64.67369,13.1475,-0.60813946,-3.185915
13,-0.6107327938079834,-1.7065953016281128,78.28128051757812,-1.4449381865809132,2.217514079129968,82.99380365347538,0.9772817,9.799237,12.917919,10.007959,-11.977614,-8.539204,-1.7635727,-3.1856918,-2.4736629,8.458356,-8.865584,6.6709437,-1.4908832,1.2901745,3.1061084,-0.058044206,16.885843,-46.24956,59.885803,-17.830103,2.5977862,20.516348,-6.434069,-13.91777,45.61001,64.68517,13.146925,-0.5939898,-3.1561844
14,-0.6297381520271301,-1.6664754152297974,78.27253723144531,-1.453950399580019,2.1886466182096993,82.94562227914665,1.0276059,9.805697,12.95888,10.080098,-12.059253,-8.581514,-1.7941452,-3.1851206,-2.4126637,8.639907,-8.991546,6.655148,-1.4535002,1.3013573,3.1164896,-0.0024468838,16.875362,-46.267334,59.898872,-17.816483,2.5541325,20.534538,-6.4425206,-13.885514,45.594738,64.68242,13.141506,-0.5742587,-3.1083746
15,-0.6492584943771362,-1.6243040561676025,78.26353454589844,-1.4618875945182481,2.1577418933640633,82.90262004477012,1.0773727,9.8117,12.996721,10.16109,-12.153779,-8.626497,-1.8198084,-3.187119,-2.3571138,8.824259,-9.130255,6.648293,-1.4212118,1.3128357,3.1294298,0.052074093,16.865116,-46.289474,59.915283,-17.816132,2.502165,20.54879,-6.456403,-13.8511715,45.58093,64.68193,13.136242,-0.5499589,-3.0552034
16,-0.6596852540969849,-1.5769633054733276,78.2511978149414,-1.4644093307032766,2.1270345961470984,82.86763645465219,1.122243,9.81284,13.034277,10.257759,-12.282596,-8.664076,-1.8271931,-3.1987681,-2.3136637,8.983873,-9.284867,6.6755605,-1.3990552,1.321114,3.1444824,0.10142212,16.854845,-46.31518,59.935295,-17.838203,2.4603586,20.541592,-6.47985,-13.813168,45.57945,64.68821,13.137957,-0.52108073,-3.0090115
17,-0.6724534034729004,-1.5267494916915894,78.23971557617188,-1.4609384601757602,2.0967703252441687,82.84110119708113,1.1683946,9.805232,13.074481,10.35643,-12.443818,-8.695029,-1.8171111,-3.2215846,-2.2793512,9.117287,-9.447932,6.738507,-1.3934479,1.3282151,3.1644402,0.14670251,16.846354,-46.33901,59.952255,-17.89749,2.4357207,20.498798,-6.510801,-13.778472,45.59076,64.693565,13.158686,-0.48581606,-2.974677
18,-0.6903200149536133,-1.4765015840530396,78.22667694091797,-1.4534096187512515,2.065902449344303,82.82181231517768,1.2143704,9.792347,13.1147785,10.461456,-12.630449,-8.723649,-1.7954067,-3.2519727,-2.2524636,9.237746,-9.62059,6.8254786,-1.4024439,1.3330328,3.1846232,0.18911624,16.834995,-46.362297,59.976284,-17.985233,2.4173632,20.433624,-6.559164,-13.725808,45.612713,64.72289,13.190351,-0.44655,-2.946324
19,-0.7116203904151917,-1.4246044158935547,78.2107162475586,-1.4437040181631637,2.034576494136653,82.80924922944946,1.2524638,9.779949,13.151478,10.589997,-12.845912,-8.745178,-1.7600617,-3.289739,-2.2412395,9.346741,-9.822564,6.941976,-1.4157263,1.3350947,3.2065961,0.22959557,16.825872,-46.390923,60.003147,-18.073143,2.398223,20.36666,-6.6142817,-13.672217,45.650986,64.75208,13.216785,-0.40389264,-2.91651
20,-0.7325488328933716,-1.3718832731246948,78.19219207763672,-1.4356529591591454,2.0028556908161277,82.80295794292977,1.2734904,9.773544,13.180492,10.762232,-13.095717,-8.754715,-1.708665,-3.3340704,-2.254111,9.4435625,-10.071725,7.0935726,-1.4215605,1.3331667,3.2296553,0.26627105,16.821356,-46.43553,60.03523,-18.135601,2.3706799,20.319185,-6.669728,-13.62467,45.7112,64.76905,13.222231,-0.35934985,-2.8784773
21,-0.7477269768714905,-1.3115367889404297,78.17394256591797,-1.426691913808608,1.9720287977571531,82.80525754362016,1.2752464,9.772447,13.202897,10.980755,-13.387908,-8.753468,-1.6326197,-3.3907087,-2.303346,9.51341,-10.384064,7.318006,-1.4170716,1.3224646,3.2518713,0.29866692,16.822107,-46.501194,60.07744,-18.160442,2.3272634,20.293852,-6.716679,-13.588068,45.794247,64.759834,13.191545,-0.30782595,-2.8282692
22,-0.7631595730781555,-1.2507976293563843,78.15648651123047,-1.4169700242572871,1.9416909858426268,82.81528802788775,1.2616786,9.774504,13.220077,11.23768,-13.718583,-8.743156,-1.5367965,-3.4578297,-2.3825026,9.563414,-10.746713,7.600443,-1.4135975,1.3019422,3.2693646,0.33321252,16.830246,-46.5796,60.127216,-18.165073,2.2739232,20.280964,-6.778014,-13.529033,45.904934,64.769135,13.138014,-0.25322598,-2.772187
23,-0.7838505506515503,-1.179010272026062,78.13694763183594,-1.4121540998684827,1.9093446126138478,82.82890860209243,1.2366381,9.783524,13.228923,11.5280695,-14.06941,-8.7199745,-1.440975,-3.5237098,-2.4711432,9.630448,-11.137254,7.867944,-1.4009005,1.2881517,3.2953622,0.35938504,16.839844,-46.669483,60.1741,-18.16175,2.222842,20.28094,-6.8349576,-13.492485,46.024883,64.7527,13.082224,-0.2009028,-2.711744
24,-0.8097609281539917,-1.1041457653045654,78.11622619628906,-1.4176913701606881,1.8724924447782874,82.84160489614437,1.20695,9.801544,13.226871,11.841491,-14.4192,-8.679817,-1.3646488,-3.5770285,-2.5470467,9.75122,-11.533864,8.04708,-1.388379,1.2870226,3.3292918,0.38727045,16.856937,-46.75957,60.20325,-18.16772,2.1866832,20.29567,-6.9173117,-13.442129,46.162727,64.76208,13.049264,-0.16406174,-2.6549444
25,-0.839093804359436,-1.0293704271316528,78.09506225585938,-1.436448766250265,1.8289880572325743,82.8548295226548,1.1700225,9.831198,13.206834,12.18168,-14.756365,-8.623033,-1.3148676,-3.6137607,-2.6057463,9.943376,-11.933762,8.107688,-1.3681087,1.3057706,3.3801868,0.40420875,16.870752,-46.849174,60.220585,-18.196518,2.1670668,20.33985,-7.0067463,-13.408204,46.30116,64.75994,13.042848,-0.14446293,-2.5997424
26,-0.8686494827270508,-0.9466588497161865,78.07408905029297,-1.4645363561095535,1.7805765130940825,82.87033929828227,1.1266901,9.869124,13.172669,12.54586,-15.090865,-8.551107,-1.2806511,-3.640275,-2.657116,10.184775,-12.347977,8.09213,-1.3429426,1.3379767,3.442607,0.41318214,16.882994,-46.94163,60.231045,-18.23747,2.1576684,20.408012,-7.105383,-13.382009,46.448063,64.75366,13.051716,-0.13711576,-2.5446568
27,-0.9009548425674438,-0.8621184825897217,78.05484771728516,-1.497778587426791,1.7306630426265774,82.88382507730844,1.0816728,9.911988,13.136157,12.927895,-15.441409,-8.462321,-1.2464463,-3.6596463,-2.7003314,10.437266,-12.769178,8.035584,-1.3213412,1.3768001,3.5054867,0.42920247,16.905104,-47.038906,60.226242,-18.264608,2.1588526,20.47097,-7.23078,-13.338532,46.62833,64.77888,13.076668,-0.1378156,-2.492597
28,-0.9287059307098389,-0.7707294821739197,78.0367202758789,-1.5318233585005476,1.6823115336286558,82.89158252207517,1.040073,9.956481,13.109225,13.322356,-15.82546,-8.354709,-1.2008375,-3.6759565,-2.7346559,10.67126,-13.194347,7.9737287,-1.2853042,1.420827,3.5686908,0.43523136,16.929888,-47.159595,60.219666,-18.246626,2.1704333,20.497145,-7.37,-13.297515,46.820984,64.8167,13.101198,-0.13777651,-2.4397964
29,-0.9517777562141418,-0.6697737574577332,78.01746368408203,-1.5650605275869691,1.634491349172715,82.8942696920404,1.0072154,10.002295,13.095394,13.725648,-16.262846,-8.216928,-1.1424203,-3.6897922,-2.759464,10.887675,-13.6230755,7.898618,-1.2357038,1.4700564,3.6297562,0.4282474,16.954155,-47.312336,60.213898,-18.153387,2.2114863,20.462543,-7.5158963,-13.264489,47.027645,64.86119,13.14423,-0.13989449,-2.387922
30,-0.9840502142906189,-0.5645211935043335,77.99566650390625,-1.5997451955953654,1.5861291285047923,82.89341198612203,0.978117,10.051098,13.087269,14.143429,-16.738745,-8.053467,-1.0772319,-3.6995747,-2.7747731,11.100795,-14.058044,7.7973723,-1.1764692,1.5255659,3.6915736,0.4128013,16.980295,-47.4879,60.20351,-18.007616,2.2756786,20.38863,-7.672543,-13.233991,47.250275,64.914406,13.204664,-0.14631984,-2.3371437
31,-1.0260260105133057,-0.4533154368400574,77.97457122802734,-1.6384736346223336,1.5404175969237937,82.88603766204112,0.95168406,10.102457,13.082515,14.563253,-17.217655,-7.886825,-1.0023185,-3.7048314,-2.7817574,11.294461,-14.496677,7.698188,-1.1040204,1.5900847,3.7548609,0.3909815,17.006962,-47.677116,60.19336,-17.863373,2.32355,20.314566,-7.8463235,-13.207777,47.491947,64.97758,13.246481,-0.14827076,-2.28473
32,-1.0683374404907227,-0.33616963028907776,77.94937896728516,-1.6834393790470266,1.5007384466863871,82.86916546521293,0.92797124,10.1557865,13.079232,14.969582,-17.662252,-7.7395782,-0.91663164,-3.7043734,-2.7818458,11.45649,-14.938396,7.6290274,-1.019545,1.665318,3.819556,0.373462,17.040295,-47.867264,60.17763,-17.775755,2.3165004,20.280415,-8.048428,-13.179984,47.764866,65.05863,13.2381,-0.13777006,-2.2292492
33,-1.1071821451187134,-0.21191295981407166,77.9216079711914,-1.7362430174253027,1.468642922870901,82.83921489058812,0.9029147,10.211912,13.075851,15.36495,-18.062794,-7.6167808,-0.82546884,-3.6963382,-2.7722788,11.594806,-15.403276,7.5925436,-0.9185093,1.7547488,3.8858647,0.357102,17.077576,-48.059387,60.163445,-17.786211,2.219765,20.303255,-8.281518,-13.155252,48.073456,65.15571,13.143066,-0.10743936,-2.1598947
34,-1.1425879001617432,-0.08775625377893448,77.89420318603516,-1.7954620714433853,1.442114060752029,82.79862441859973,0.87774354,10.27157,13.073859,15.755722,-18.43947,-7.5068445,-0.73088497,-3.6814823,-2.7535067,11.718997,-15.886862,7.5753903,-0.8070215,1.8560508,3.9538865,0.34567422,17.125126,-48.25451,60.14044,-17.85747,2.0626311,20.35932,-8.54432,-13.129468,48.42108,65.26897,12.993231,-0.063722104,-2.08173
35,-1.1917678117752075,0.049862347543239594,77.86962127685547,-1.8587998046157836,1.4191342385741943,82.75343063963453,0.8596741,10.332783,13.076764,16.13316,-18.79981,-7.4070897,-0.6172661,-3.664063,-2.7325282,11.799834,-16.346498,7.581876,-0.6865911,1.9634268,4.0263443,0.33796725,17.181953,-48.44606,60.102375,-17.918137,1.9019811,20.426807,-8.825968,-13.103936,48.78055,65.38898,12.837031,-0.017346274,-2.013044
36,-1.2501472234725952,0.17956425249576569,77.83735656738281,-1.923874640727723,1.397622772678065,82.70954011216044,0.8551826,10.394217,13.087856,16.49014,-19.151693,-7.315041,-0.4788157,-3.6477947,-2.7159626,11.829165,-16.746254,7.6158843,-0.5556032,2.0741177,4.104762,0.323709,17.235306,-48.634846,60.057926,-17.901066,1.7934831,20.484573,-9.112108,-13.0846405,49.125954,65.50313,12.726619,0.021393089,-1.972333
37,-1.3183772563934326,0.31717315316200256,77.80372619628906,-1.992836760858241,1.3715045372062673,82.67177772602601,0.8739768,10.458661,13.105604,16.82466,-19.49712,-7.2332287,-0.2939625,-3.6297617,-2.7090745,11.781733,-17.066656,7.6852617,-0.42043903,2.1871998,4.1905365,0.31101933,17.293335,-48.823624,59.996544,-17.76579,1.7639326,20.536251,-9.401626,-13.066098,49.468456,65.61646,12.69281,0.0526211,-1.9668615
38,-1.3665684461593628,0.4644041061401367,77.77257537841797,-2.065588986776627,1.343768560279802,82.63567960452225,0.9086213,10.525365,13.129268,17.143272,-19.831541,-7.1617765,-0.07376572,-3.6092033,-2.7074864,11.672043,-17.330725,7.785457,-0.27152637,2.3059943,4.2809777,0.28719434,17.342346,-49.021847,59.9397,-17.557867,1.778213,20.590662,-9.695111,-13.05287,49.805298,65.72876,12.698514,0.08120221,-1.9854279
39,-1.4263675212860107,0.6269254684448242,77.7410659790039,-2.13746697143555,1.325809438590335,82.59371583898911,0.94581574,10.585905,13.164293,17.440294,-20.154594,-7.09476,0.14189316,-3.5939753,-2.7032216,11.544567,-17.563503,7.9015474,-0.10483645,2.4284508,4.3757463,0.24736398,17.376055,-49.207607,59.891567,-17.32878,1.803175,20.63252,-9.999945,-13.046827,50.115894,65.83349,12.702623,0.1037278,-2.0203333
40,-1.4677752256393433,0.7840228080749512,77.71297454833984,-2.2036423536381102,1.3294340415729486,82.53860684389463,0.96207875,10.634463,13.213762,17.730127,-20.468548,-7.0260687,0.31302914,-3.5916743,-2.6884928,11.4423895,-17.789225,8.01855,0.054827776,2.5522785,4.470587,0.22667846,17.42239,-49.340252,59.808636,-17.138618,1.8070618,20.649113,-10.336257,-13.041901,50.431797,65.93493,12.687642,0.11530548,-2.069052
41,-1.5577272176742554,0.9050474762916565,77.67981719970703,-2.262708127903177,1.3573741473228247,82.46356092337119,0.9535978,10.6694565,13.285597,18.012173,-20.77309,-6.958893,0.4225095,-3.6052647,-2.6579907,11.384775,-18.012604,8.136993,0.22864364,2.6768892,4.575824,0.20897205,17.477571,-49.401478,59.69236,-16.960915,1.7830791,20.601511,-10.708698,-13.0441,50.727997,66.03034,12.621683,0.12094779,-2.138766
42,-1.6372921466827393,1.0454680919647217,77.64628601074219,-2.3172820419277502,1.4034291824727714,82.37437330968666,0.9334583,10.69402,13.376011,18.277079,-21.06658,-6.894936,0.49318835,-3.6303487,-2.6170254,11.347179,-18.222084,8.263026,0.43169466,2.805048,4.684749,0.16976719,17.513885,-49.434246,59.58548,-16.783749,1.745278,20.51037,-11.099871,-13.054783,50.987835,66.120735,12.52102,0.12093824,-2.2288458
43,-1.7156978845596313,1.2108886241912842,77.6145248413086,-2.3689834771345026,1.4653910300720854,82.28140611034375,0.8998176,10.709896,13.469473,18.536425,-21.353186,-6.8257613,0.5470039,-3.663268,-2.573722,11.306031,-18.416574,8.39004,0.6240015,2.9347274,4.7912683,0.13785422,17.5494,-49.44696,59.470276,-16.66045,1.6988766,20.442614,-11.503068,-13.07343,51.231255,66.18975,12.4173355,0.10630563,-2.3161883
44,-1.7938982248306274,1.3696712255477905,77.58466339111328,-2.4194612132718927,1.5409813533891834,82.19532413220618,0.85685945,10.717616,13.552196,18.788963,-21.633564,-6.743006,0.59966725,-3.7014308,-2.5356405,11.249781,-18.601353,8.511802,0.7917876,3.0613306,4.888611,0.12013272,17.593388,-49.477623,59.348255,-16.649035,1.6490296,20.465557,-11.898592,-13.104121,51.437187,66.217705,12.325096,0.06783982,-2.3761663
45,-1.8819091320037842,1.536757469177246,77.55136108398438,-2.470885383421458,1.6312946104400459,82.11584808444327,0.80016804,10.720209,13.62118,19.043686,-21.911257,-6.6393504,0.6556491,-3.7431273,-2.505644,11.171107,-18.792751,8.625729,0.95030516,3.185053,4.968146,0.0920972,17.623705,-49.566063,59.256313,-16.850445,1.5848725,20.642527,-12.284755,-13.130699,51.564518,66.221176,12.230224,-0.00593461,-2.3825788
46,-1.9650250673294067,1.7011159658432007,77.5181655883789,-2.5216501612797004,1.7371706008155823,82.03825008107671,0.7297273,10.716437,13.683754,19.296972,-22.18479,-6.5209365,0.70567375,-3.790254,-2.479346,11.079315,-18.984243,8.735718,1.0979766,3.30709,5.041914,0.07792802,17.678083,-49.68151,59.136696,-17.210928,1.509166,20.922058,-12.658497,-13.186242,51.64703,66.16651,12.140621,-0.105164304,-2.3557413
47,-2.0541515350341797,1.873321771621704,77.48570251464844,-2.567954217648379,1.8553260970858496,81.966598737409,0.6559364,10.699657,13.740569,19.530926,-22.446959,-6.3995385,0.7508395,-3.845427,-2.4536574,10.974421,-19.137379,8.845435,1.243432,3.421929,5.1100607,0.06449727,17.733156,-49.808426,59.021984,-17.5498,1.4390419,21.201391,-13.020472,-13.252909,51.68633,66.0793,12.051895,-0.21476667,-2.3373983
48,-2.1645073890686035,2.0475032329559326,77.45011138916016,-2.6064607187998816,1.9827297164256095,81.9051798108748,0.5891381,10.663884,13.792658,19.72695,-22.690348,-6.287115,0.7920984,-3.9107015,-2.4254143,10.858213,-19.215717,8.958199,1.3836912,3.5260046,5.1746793,0.057087366,17.785715,-49.92411,58.915398,-17.69225,1.3954247,21.379547,-13.3667555,-13.328306,51.70781,65.965614,11.972756,-0.31831887,-2.3711023
49,-2.26100492477417,2.2307493686676025,77.41842651367188,-2.637073883773858,2.118712106376976,81.85226004301548,0.5333672,10.607978,13.842966,19.877295,-22.911207,-6.18939,0.82842284,-3.983691,-2.3876102,10.726254,-19.181326,9.070121,1.5226718,3.6194255,5.23683,0.056559905,17.834902,-50.02391,58.819878,-17.536676,1.3941646,21.410883,-13.700138,-13.412552,51.724434,65.82616,11.897535,-0.4085108,-2.4770555
50,-2.365807056427002,2.4161105155944824,77.38760375976562,-2.6611505989793267,2.264929010813884,81.80661336694314,0.4831843,10.535033,13.890255,19.99167,-23.113573,-6.099253,0.85962474,-4.0642567,-2.3435705,10.579607,-19.063494,9.180905,1.6567724,3.7042892,5.2945786,0.06183908,17.880775,-50.116516,58.73419,-17.194435,1.420886,21.355764,-14.024055,-13.505912,51.72778,65.66171,11.827192,-0.49508283,-2.6293743
51,-2.477095603942871,2.6071736812591553,77.35153198242188,-2.6779822473226638,2.4216532558936503,81.77302240112266,0.4330759,10.444523,13.92906,20.082094,-23.303629,-6.009277,0.8888633,-4.157866,-2.3054357,10.425484,-18.924591,9.299213,1.7764485,3.7788212,5.347307,0.0745667,17.92409,-50.201443,58.65239,-16.810759,1.4537165,21.272047,-14.330528,-13.607771,51.698273,65.471214,11.772628,-0.5868392,-2.8018777
52,-2.582249879837036,2.8119893074035645,77.3156967163086,-2.687181256657706,2.5891403865158398,81.75622295088071,0.37744096,10.335552,13.954261,20.16046,-23.487524,-5.9118176,0.926826,-4.2696967,-2.2862492,10.255424,-18.818653,9.43356,1.8715127,3.8404195,5.394093,0.095965944,17.966337,-50.279144,58.568413,-16.531559,1.4713755,21.217531,-14.6151905,-13.718005,51.620148,65.25842,11.747498,-0.6930885,-2.9681964
53,-2.699091911315918,3.0260870456695557,77.28018951416016,-2.6872194985917353,2.765188065817965,81.76209236833411,0.31468186,10.207136,13.958333,20.23328,-23.663364,-5.799955,0.983463,-4.4018073,-2.2945392,10.060928,-18.757137,9.59305,1.9369891,3.887118,5.435805,0.12958363,18.009604,-50.34771,58.4771,-16.398193,1.4691442,21.213888,-14.880596,-13.836552,51.488777,65.02022,11.74633,-0.8103397,-3.1120036
54,-2.8184046745300293,3.244112730026245,77.24366760253906,-2.6796077430712377,2.9504103017842214,81.78670730382305,0.24701701,10.059791,13.946063,20.294983,-23.82992,-5.67931,1.0548613,-4.5514174,-2.3221986,9.839817,-18.709421,9.7710705,1.9792739,3.919786,5.472831,0.17509198,18.054886,-50.407356,58.380047,-16.331305,1.4583781,21.227938,-15.128887,-13.96382,51.31404,64.75741,11.766269,-0.93591124,-3.2501142
55,-2.9418280124664307,3.466850519180298,77.20746612548828,-2.66437240707526,3.149404500795031,81.81957847727449,0.1787958,9.894872,13.93113,20.330687,-23.99055,-5.5614448,1.1093425,-4.7162223,-2.355973,9.637689,-18.683565,9.9522505,2.0049503,3.9421237,5.5034547,0.22670002,18.10152,-50.46277,58.28309,-16.299625,1.4427904,21.236727,-15.349316,-14.100099,51.093952,64.47433,11.8169155,-1.080031,-3.4065166
56,-3.0682108402252197,3.683384895324707,77.17127227783203,-2.6423441050582896,3.3667667221633293,81.85040680322328,0.11296779,9.713461,13.926602,20.32817,-24.149906,-5.457737,1.1338912,-4.89387,-2.3837738,9.461615,-18.672325,10.121492,2.021431,3.9569457,5.525431,0.27941564,18.14729,-50.51643,58.192497,-16.267986,1.4260587,21.21705,-15.527495,-14.245354,50.820305,64.17241,11.90134,-1.2527632,-3.604902
57,-3.1988377571105957,3.9058837890625,77.12992095947266,-2.6181187758297044,3.6075785414711605,81.87458773426034,0.043955766,9.522664,13.938734,20.287903,-24.314018,-5.3803554,1.1173564,-5.0780954,-2.4018567,9.31801,-18.686049,10.278608,2.0331776,3.9700592,5.536434,0.33305448,18.19038,-50.558163,58.10163,-16.231102,1.4169822,21.152264,-15.6712055,-14.400628,50.494946,63.848804,12.013891,-1.4592359,-3.8570836
58,-3.3445115089416504,4.137421607971191,77.08599853515625,-2.5892101574037723,3.867967395180296,81.8985713781112,-0.027952293,9.319647,13.9592705,20.215143,-24.478771,-5.319928,1.073801,-5.271905,-2.4171572,9.191611,-18.719778,10.4304695,2.0354238,3.9784296,5.537731,0.3890144,18.23021,-50.589893,58.012352,-16.205872,1.4108301,21.058159,-15.78576,-14.567155,50.122555,63.505463,12.156192,-1.6937524,-4.1479487
59,-3.4863815307617188,4.381202697753906,77.04283905029297,-2.547126350911149,4.139346535863434,81.9278370401211,-0.09024703,9.091257,13.980663,20.103127,-24.632132,-5.2562046,1.002338,-5.486977,-2.4311514,9.111665,-18.771467,10.572251,2.0234444,3.973467,5.5341277,0.44133246,18.26587,-50.637215,57.945457,-16.193642,1.3906436,20.96071,-15.847925,-14.7426,49.695255,63.14367,12.34129,-1.9499133,-4.4613776
60,-3.634171962738037,4.638498306274414,77.00057983398438,-2.4834037535645144,4.413102389705585,81.96823614082201,-0.1284156,8.823618,13.995472,19.941423,-24.760567,-5.168961,0.9021923,-5.7348647,-2.4452076,9.106366,-18.838814,10.699142,1.9929746,3.9456468,5.529343,0.4826355,18.296038,-50.72827,57.924263,-16.198671,1.3392453,20.885904,-15.841771,-14.9239,49.210594,62.773853,12.588628,-2.2220504,-4.780972
61,-3.783421277999878,4.902883052825928,76.95905303955078,-2.3931146149195572,4.685734938137938,82.02036166848623,-0.122770466,8.507868,14.007691,19.701218,-24.856163,-5.0584316,0.7814984,-6.0210166,-2.4591243,9.166838,-18.914032,10.810011,1.9451479,3.8918748,5.525042,0.51372904,18.319609,-50.863007,57.954193,-16.204561,1.243265,20.825043,-15.766509,-15.108417,48.64733,62.393227,12.8967085,-2.5069427,-5.1005397
62,-3.9448089599609375,5.171815872192383,76.91839599609375,-2.28347053301569,4.9622814134000075,82.08185494777564,-0.084486924,8.152617,14.019251,19.393528,-24.92612,-4.9339514,0.6389859,-6.3381243,-2.4718275,9.279808,-18.998257,10.907308,1.8827093,3.8173792,5.5184593,0.53583497,18.335749,-51.031094,58.025665,-16.215818,1.1145961,20.769585,-15.629212,-15.294902,48.0089,62.00007,13.253969,-2.8090715,-5.4286184
63,-4.1087846755981445,5.441207408905029,76.87001037597656,-2.157111577303187,5.246796055835789,82.15388981061892,-0.04701538,7.7709465,14.019063,19.073332,-24.982225,-4.7892556,0.45594823,-6.678989,-2.4824638,9.476905,-19.109694,10.991233,1.8037617,3.7257545,5.5066175,0.54277563,18.343414,-51.242947,58.13972,-16.265244,0.9743861,20.745827,-15.430531,-15.48198,47.33925,61.607803,13.676585,-3.1349468,-5.770496
64,-4.272032737731934,5.7285356521606445,76.8145523071289,-2.020475531193607,5.543395837506458,82.23726386988969,-0.044589438,7.3754463,13.996695,18.796465,-25.036926,-4.6175976,0.21392089,-7.0370755,-2.4897418,9.787901,-19.264671,11.062286,1.7058464,3.6199214,5.486761,0.5283605,18.341082,-51.50907,58.29753,-16.38601,0.84371537,20.780046,-15.172731,-15.668081,46.684586,61.23148,14.182133,-3.4915314,-6.131387
65,-4.441102027893066,6.01856803894043,76.75283813476562,-1.8777227478026,5.858351390759995,82.32987973104703,-0.09527747,6.9734116,13.94857,18.584578,-25.085802,-4.4075046,-0.080603704,-7.4060187,-2.492378,10.177164,-19.442726,11.125074,1.5871032,3.503191,5.4526,0.4925686,18.327744,-51.862476,58.515095,-16.607668,0.7110145,20.941101,-14.853207,-15.850036,46.04085,60.86832,14.806161,-3.893416,-6.524814
66,-4.60838508605957,6.306752681732178,76.68281555175781,-1.7229958035482786,6.187821084068593,82.43194056784952,-0.1779357,6.555349,13.88152,18.407112,-25.126093,-4.165339,-0.41706675,-7.7922745,-2.4902685,10.631417,-19.639494,11.17796,1.4501766,3.3718123,5.4068513,0.43736553,18.302479,-52.2886,58.788795,-16.905231,0.56944025,21.193913,-14.473145,-16.02509,45.388935,60.513847,15.530522,-4.3349814,-6.9418015
67,-4.7788896560668945,6.602181434631348,76.61190795898438,-1.5465658295027997,6.5203231042292895,82.5487019633226,-0.2641276,6.107466,13.801268,18.234646,-25.168068,-3.9110725,-0.8193333,-8.209937,-2.4817138,11.237518,-19.900509,11.210683,1.2951609,3.217615,5.3595557,0.36323336,18.263826,-52.719757,59.088593,-17.228195,0.4486657,21.409204,-14.040521,-16.194412,44.747387,60.18412,16.280842,-4.791992,-7.355378
68,-4.957871437072754,6.907312393188477,76.53504943847656,-1.3365604037512497,6.844511680414734,82.68510851711785,-0.32552695,5.6150913,13.713126,18.038158,-25.222723,-3.6645405,-1.3095763,-8.674814,-2.4639027,12.0772085,-20.270601,11.212881,1.1205629,3.0321965,5.3211064,0.2719941,18.210297,-53.085,59.383076,-17.524824,0.37991813,21.458235,-13.560553,-16.360209,44.13694,59.89,16.984034,-5.2384877,-7.739963
69,-5.144951343536377,7.218482971191406,76.4473876953125,-1.0913533833050713,7.16075563009621,82.84752079105785,-0.36008444,5.0722914,13.612822,17.812384,-25.294065,-3.4186935,-1.881017,-9.193747,-2.4341364,13.132967,-20.755184,11.157818,0.92281824,2.816609,5.2900352,0.1651491,18.138912,-53.361206,59.669716,-17.74947,0.3831014,21.272621,-13.0320635,-16.52541,43.550858,59.636333,17.648905,-5.6927147,-8.096215
70,-5.322311878204346,7.533865451812744,76.34339904785156,-0.8109066095694444,7.47395936591494,83.03151630386691,-0.3771275,4.4814405,13.500439,17.566149,-25.373568,-3.1664453,-2.5278285,-9.764456,-2.3882096,14.369534,-21.33088,11.057937,0.70314014,2.5700958,5.261373,0.04152576,18.04882,-53.584064,59.965145,-17.938372,0.43894857,20.932682,-12.45068,-16.689425,42.982452,59.411278,18.305283,-6.159239,-8.435558
71,-5.500816345214844,7.857935905456543,76.22586822509766,-0.4888979692349603,7.779835140874917,83.22601162544485,-0.364446,3.8395317,13.387389,17.289558,-25.451084,-2.9275236,-3.260783,-10.390427,-2.3219132,15.815773,-21.982841,10.960853,0.4662051,2.2788186,5.2396016,-0.101783276,17.944105,-53.77314,60.266197,-18.166416,0.5210173,20.532816,-11.826652,-16.849915,42.459366,59.212376,18.918987,-6.5900745,-8.751127
72,-5.688075065612793,8.17566204071045,76.09376525878906,-0.11874911746719843,8.07395065326848,83.42022854867592,-0.31116316,3.1450138,13.284267,16.973022,-25.516335,-2.7214782,-4.084515,-11.074486,-2.232652,17.489191,-22.6955,10.9137,0.21426879,1.9296877,5.2299466,-0.26371393,17.832716,-53.94445,60.56418,-18.50816,0.60369074,20.167545,-11.170861,-17.002136,42.010975,59.03783,19.454872,-6.937005,-9.037533
73,-5.870849132537842,8.51600170135498,75.94330596923828,0.31596139375143084,8.36342453840042,83.61791550476484,-0.215662,2.375996,13.190711,16.590971,-25.554125,-2.5501451,-5.0073457,-11.841175,-2.1165955,19.38514,-23.497011,10.937733,-0.058500115,1.5040815,5.2197766,-0.4317757,17.720953,-54.106613,60.8616,-19.021196,0.7018165,19.84269,-10.483486,-17.142094,41.64018,58.90335,19.907509,-7.195228,-9.294106
74,-6.035035133361816,8.856911659240723,75.7773666381836,0.8063685044644986,8.647321824732169,83.82372081595942,-0.08208614,1.5409033,13.09916,16.153797,-25.572428,-2.404325,-6.0208898,-12.683349,-1.9706798,21.481195,-24.378426,11.000612,-0.3530285,1.0123482,5.209669,-0.60621536,17.611462,-54.24823,61.152668,-19.653954,0.8245342,19.515337,-9.762545,-17.26793,41.33366,58.80885,20.294691,-7.387141,-9.526284
75,-6.192383766174316,9.189457893371582,75.596435546875,1.3220064569115775,8.909626350320544,84.0277177394437,0.090186,0.6844517,13.009229,15.705739,-25.594715,-2.2866576,-7.1241803,-13.558271,-1.7903142,23.811754,-25.277607,11.067426,-0.6612043,0.48370522,5.22336,-0.80356187,17.507723,-54.351357,61.415295,-20.314846,0.9364699,19.205025,-9.020846,-17.379896,41.100708,58.736443,20.616318,-7.5055237,-9.738147
76,-6.350380897521973,9.532793998718262,75.40350341796875,1.8314831078460314,9.13486645053881,84.21911098013682,0.30070078,-0.15118542,12.921772,15.289098,-25.643263,-2.198994,-8.310228,-14.425864,-1.571847,26.403936,-26.130724,11.1030245,-0.9754343,-0.054879233,5.285335,-1.0407683,17.413824,-54.39832,61.625576,-20.913784,1.0009307,18.930267,-8.272114,-17.479454,40.95303,58.66759,20.873957,-7.543268,-9.933384
77,-6.5104169845581055,9.88622760772705,75.19912719726562,2.3289889181297605,9.320023716778437,84.38453481442347,0.5365953,-0.9617909,12.8456,14.930475,-25.734173,-2.148466,-9.580289,-15.28476,-1.3083911,29.279251,-26.936216,11.185338,-1.2859594,-0.6009639,5.403092,-1.3111498,17.332567,-54.391575,61.788376,-21.430567,0.98811126,18.66635,-7.5289335,-17.568132,40.918545,58.60448,21.059656,-7.4653854,-10.142573
78,-6.654871463775635,10.23698616027832,74.98966979980469,2.83134794923375,9.473351451384042,84.53293866847945,0.79970944,-1.7678022,12.775944,14.600493,-25.8504,-2.1311097,-10.936471,-16.156958,-0.9989828,32.41574,-27.724245,11.29661,-1.6010054,-1.1680214,5.5634503,-1.6083008,17.265661,-54.336224,61.90666,-21.91246,0.9239867,18.412136,-6.782566,-17.64623,40.986694,58.555447,21.176968,-7.286214,-10.35468
79,-6.792863368988037,10.59182357788086,74.77339172363281,3.339598185246048,9.596191500403744,84.68684601756037,1.1064451,-2.5680745,12.6947365,14.267223,-25.971487,-2.1307056,-12.370088,-17.034897,-0.64850396,35.779457,-28.473671,11.259575,-1.935025,-1.7624261,5.7584457,-1.9455274,17.22942,-54.225677,61.944347,-22.373375,0.8547684,18.220676,-6.023812,-17.69614,41.103474,58.53293,21.237541,-7.074522,-10.5104
80,-6.916028022766113,10.948091506958008,74.54804992675781,3.8548787262512687,9.689411998945989,84.86906709607389,1.4739784,-3.3620384,12.583339,13.897408,-26.075829,-2.1304593,-13.862791,-17.908003,-0.26470694,39.323174,-29.156986,10.901156,-2.3149877,-2.3770535,5.982228,-2.3463373,17.204258,-54.035275,61.89278,-22.81776,0.82274806,18.145401,-5.2202764,-17.748178,41.233166,58.495853,21.264818,-6.893034,-10.54968
81,-7.011213779449463,11.314953804016113,74.3236312866211,4.398283857237542,9.745392822947904,85.07459733416898,1.93307,-4.1788287,12.451881,13.440899,-26.141356,-2.1205907,-15.438156,-18.79425,0.17910443,43.159924,-29.752764,10.094629,-2.7339187,-3.0356739,6.237446,-2.7971387,17.198483,-53.73885,61.74737,-23.352478,0.8286808,18.195892,-4.371668,-17.797787,41.37816,58.454826,21.246881,-6.7474165,-10.448538
82,-7.111048698425293,11.710988998413086,74.09761810302734,4.959607435260983,9.765700297201969,85.2953248695002,2.46373,-5.010804,12.301982,12.926009,-26.183052,-2.1095188,-17.0788,-19.688457,0.67224807,47.24485,-30.268782,8.961736,-3.1937149,-3.7303848,6.523974,-3.2852285,17.220547,-53.34226,61.506863,-23.934412,0.85097885,18.345367,-3.4913783,-17.849731,41.56879,58.410297,21.183128,-6.605747,-10.2409525
83,-7.2115702629089355,12.103873252868652,73.86420440673828,5.505099864300752,9.763888871299693,85.54963716899873,3.0206778,-5.803856,12.103958,12.414454,-26.223455,-2.1080344,-18.710629,-20.54444,1.1488266,51.316105,-30.731438,7.7042756,-3.6760418,-4.4256945,6.825814,-3.8640969,17.263884,-52.952766,61.18214,-24.37089,0.8993329,18.595337,-2.5669446,-17.884586,41.73112,58.364162,21.082327,-6.48181,-9.95213
84,-7.286999225616455,12.51503849029541,73.64306640625,5.998315455623007,9.753922137379432,85.85476694491562,3.5578015,-6.503445,11.832222,11.973995,-26.288307,-2.127715,-20.272245,-21.322853,1.5480974,55.141556,-31.17984,6.522674,-4.223081,-5.079097,7.1342216,-4.535923,17.353588,-52.592285,60.72027,-24.44543,0.98910064,18.943802,-1.6043309,-17.925446,41.868683,58.287453,20.980074,-6.3851147,-9.608531
85,-7.347145080566406,12.933180809020996,73.4268798828125,6.446418963076922,9.733250149049997,86.21481028201784,4.0771804,-7.1147137,11.48259,11.616016,-26.381786,-2.1699944,-21.754196,-22.044117,1.8498265,58.75108,-31.649487,5.4017534,-4.804057,-5.7067666,7.4522166,-5.3400893,17.478497,-52.345596,60.156723,-24.087656,1.149303,19.419855,-0.5735503,-17.959913,41.929947,58.191883,20.872028,-6.325972,-9.157495
86,-7.381721019744873,13.375968933105469,73.22209167480469,6.8614911966501,9.69605860910989,86.61946268629377,4.597417,-7.660712,11.071943,11.311984,-26.494349,-2.2284493,-23.19251,-22.726469,2.0877066,62.266636,-32.12372,4.2563434,-5.4234138,-6.3226647,7.7802315,-6.248769,17.63772,-52.16025,59.4866,-23.414091,1.3710046,20.01261,0.5142938,-17.988495,41.947,58.083015,20.748539,-6.2960525,-8.604211
87,-7.406312942504883,13.813722610473633,73.02925872802734,7.222010888485933,9.651429634609714,87.06431680967404,5.099296,-8.114327,10.609785,11.071086,-26.632912,-2.3041856,-24.591703,-23.31948,2.2754192,65.59531,-32.570816,3.185812,-6.074111,-6.890563,8.10524,-7.243206,17.827742,-51.98886,58.681183,-22.527542,1.61007,20.663921,1.6406679,-18.019125,41.92343,57.93459,20.600313,-6.280489,-8.0587225
88,-7.416176795959473,14.264554977416992,72.84832763671875,7.504974779394693,9.608997916427448,87.54481309290802,5.561418,-8.44454,10.106223,10.908844,-26.807758,-2.3993452,-25.95652,-23.768358,2.420504,68.64391,-32.954185,2.2963517,-6.7438416,-7.3733416,8.4170265,-8.309409,18.043806,-51.78791,57.717308,-21.529848,1.8191433,21.317282,2.7964993,-18.06497,41.856255,57.70796,20.415422,-6.2634826,-7.6311054
89,-7.405925750732422,14.721354484558105,72.68032836914062,7.707578790123929,9.545009387438457,88.06187139213709,5.9985456,-8.641489,9.55619,10.858175,-27.039251,-2.521119,-27.251905,-24.053566,2.5106122,71.41426,-33.28936,1.6359991,-7.426252,-7.77654,8.753479,-9.492454,18.287544,-51.59677,56.624283,-20.422419,1.971131,22.008648,3.9944985,-18.134308,41.724453,57.38418,20.215937,-6.2285066,-7.29009
90,-7.3859639167785645,15.195547103881836,72.524658203125,7.84109284958027,9.46431502232917,88.61602357078112,6.415596,-8.721842,8.961178,10.905972,-27.31857,-2.667035,-28.487192,-24.199804,2.5336504,73.96118,-33.585457,1.1516547,-8.122621,-8.115643,9.108834,-10.785445,18.559746,-51.429462,55.40542,-19.159481,2.1030505,22.750572,5.249745,-18.230217,41.533066,56.969204,19.9999,-6.1863995,-6.9962626
91,-7.357189178466797,15.68712043762207,72.38388061523438,7.902824336238102,9.420644220795099,89.20247757475613,6.7747006,-8.697367,8.340996,11.000765,-27.61619,-2.8252268,-29.736986,-24.22413,2.4952986,76.266716,-33.792294,0.80383646,-8.831969,-8.3662615,9.411963,-12.100741,18.852688,-51.201572,54.00624,-17.768774,2.2574193,23.452087,6.554914,-18.36028,41.32075,56.46066,19.72453,-6.1619196,-6.8482523
92,-7.3307037353515625,16.183914184570312,72.2556381225586,7.896053851327483,9.467928521775335,89.81713829413377,7.037921,-8.577074,7.7138,11.089815,-27.902077,-2.9840517,-31.076307,-24.14309,2.4013321,78.30738,-33.858418,0.5490903,-9.557048,-8.501647,9.59248,-13.354108,19.154417,-50.82311,52.377728,-16.276087,2.4708817,24.020239,7.9006066,-18.535881,41.126858,55.853985,19.349108,-6.178862,-6.9454947
93,-7.297906875610352,16.69141387939453,72.14523315429688,7.830121638899282,9.619128541330202,90.48500095106867,7.1786966,-8.367368,7.0576468,11.184838,-28.194424,-3.143422,-32.54796,-23.960533,2.260164,80.10865,-33.74146,0.38446304,-10.314272,-8.522907,9.638641,-14.554258,19.455914,-50.23959,50.486053,-14.642624,2.7423112,24.42602,9.318373,-18.76425,40.960285,55.10458,18.823328,-6.267857,-7.40801
94,-7.255753040313721,17.225187301635742,72.04430389404297,7.703165369030104,9.847707057732032,91.19956089158504,7.2211127,-8.060673,6.370962,11.305214,-28.501532,-3.3101044,-34.106045,-23.669233,2.0591056,81.67015,-33.477398,0.3361126,-11.095455,-8.437658,9.590849,-15.747472,19.756418,-49.509785,48.38078,-12.867125,3.0499973,24.715633,10.818051,-19.047337,40.791855,54.20702,18.18331,-6.3998795,-8.153266
95,-7.205562114715576,17.782209396362305,71.96146392822266,7.49904935271203,10.148533385403452,91.90954899869226,7.2015676,-7.6481457,5.7014995,11.412863,-28.773296,-3.4820776,-35.70125,-23.27413,1.7784736,82.937706,-33.124454,0.40078464,-11.863877,-8.225623,9.463895,-16.910719,20.056507,-48.717968,46.132893,-11.037783,3.394928,24.907621,12.36167,-19.387047,40.595413,53.206944,17.52011,-6.5109825,-8.9766245
96,-7.147672653198242,18.357858657836914,71.90108489990234,7.198711579675304,10.516174671103405,92.56367554023029,7.157308,-7.1197815,5.0958834,11.471147,-28.961128,-3.6563997,-37.278942,-22.78232,1.397642,83.84573,-32.748333,0.5712698,-12.58421,-7.8655095,9.274109,-18.016039,20.356983,-47.94581,43.80569,-9.240778,3.7788665,25.021776,13.908098,-19.787405,40.342327,52.15412,16.925732,-6.5444083,-9.671975
97,-7.097155570983887,18.97541618347168,71.86485290527344,6.790801472202059,10.99371895551628,93.17210933469201,7.0429854,-6.459672,4.5447836,11.470754,-29.074963,-3.83102,-38.8968,-22.176016,0.9181259,84.37036,-32.331062,0.912339,-13.262729,-7.326384,8.980579,-19.050146,20.651232,-47.175423,41.342766,-7.452625,4.2132893,25.005684,15.493124,-20.254198,39.98357,51.02385,16.392757,-6.48273,-10.224968
98,-7.054849624633789,19.615755081176758,71.8630599975586,6.287842259719675,11.570616773549878,93.75222216304168,6.858083,-5.677413,4.0246463,11.431874,-29.133808,-4.007491,-40.560028,-21.46611,0.34898996,84.540405,-31.851425,1.404593,-13.905796,-6.6234584,8.602699,-20.039232,20.934196,-46.38135,38.733303,-5.6424026,4.6847143,24.865772,17.147041,-20.788626,39.51807,49.77119,15.88435,-6.35733,-10.730984
99,-7.003565311431885,20.30024528503418,71.89220428466797,5.70886071331636,12.160300166151435,94.26380099572104,6.711995,-4.8006325,3.5622168,11.351709,-29.096508,-4.1883397,-42.139965,-20.697699,-0.31606358,84.38028,-31.35904,1.9100226,-14.483956,-5.8076344,8.244008,-21.007338,21.21297,-45.631542,36.099483,-3.8861012,5.1644793,24.71237,18.814577,-21.386532,38.99322,48.427402,15.44318,-6.191455,-11.148333
100,-6.959865093231201,21.00690269470215,71.95610046386719,5.067986040452187,12.674871647452221,94.66697127797269,6.7070084,-3.85769,3.189412,11.24129,-28.924452,-4.376682,-43.508614,-19.916176,-1.0801436,83.9154,-30.900764,2.2896948,-14.972198,-4.935304,8.002349,-21.970787,21.503073,-44.992947,33.55343,-2.2613542,5.6323123,24.657799,20.424173,-22.039667,38.4713,47.044903,15.113029,-6.010635,-11.435701
101,-6.91067361831665,21.751140594482422,72.0498275756836,4.337015926103691,13.077933734780148,94.93824614015148,6.9085846,-2.8195465,2.9352024,11.058053,-28.61484,-4.5704217,-44.62605,-19.098125,-1.9595639,83.13135,-30.502174,2.4966023,-15.366998,-3.9935465,7.917504,-22.93086,21.816288,-44.478546,31.074804,-0.77545315,6.118214,24.750872,21.957556,-22.747288,37.950333,45.639572,14.910069,-5.8030696,-11.556501
102,-6.860353946685791,22.52841567993164,72.17298126220703,3.5180470893145213,13.417399926425288,95.10098020289213,7.244584,-1.6861511,2.7802687,10.8215885,-28.184643,-4.769206,-45.560253,-18.230165,-2.9418128,82.01586,-30.131498,2.6081874,-15.689639,-2.9711664,7.931157,-23.864555,22.155859,-44.048485,28.592978,0.60888946,6.6297045,24.926443,23.448277,-23.510225,37.39944,44.190247,14.80881,-5.5644093,-11.542363
103,-6.814189434051514,23.336362838745117,72.32559204101562,2.6698634440721474,13.732569424861222,95.1882465752562,7.6212955,-0.5242113,2.6826897,10.610779,-27.63879,-4.9796295,-46.34249,-17.35691,-3.9944036,80.60225,-29.749187,2.670134,-15.957147,-1.92106,7.989185,-24.753677,22.527632,-43.689713,26.147629,1.8735468,7.1144333,25.128466,24.893213,-24.31821,36.853306,42.708942,14.784251,-5.3320785,-11.454775
104,-6.760035514831543,24.153759002685547,72.49797821044922,1.852425134188189,14.06382498866009,95.23350728356095,7.953284,0.6001852,2.5960398,10.491784,-26.973001,-5.2075925,-47.000057,-16.522026,-5.087403,78.91788,-29.319107,2.7278004,-16.184362,-0.89403707,8.03636,-25.576658,22.93971,-43.386543,23.778782,3.0022562,7.5173945,25.302874,26.26845,-25.152023,36.365673,41.23219,14.817191,-5.1451154,-11.355497
105,-6.697251796722412,25.015518188476562,72.68955993652344,1.0514596980070343,14.416799076895312,95.22751882364706,8.247227,1.7001176,2.5195959,10.452437,-26.173498,-5.4603205,-47.531307,-15.737745,-6.2617426,76.93521,-28.851707,2.7490492,-16.360054,0.12309944,8.070293,-26.343119,23.401356,-43.140545,21.50545,3.9534495,7.815384,25.465536,27.543568,-26.004042,35.974804,39.79764,14.950785,-5.0142393,-11.243631
106,-6.624363899230957,25.9063777923584,72.89788055419922,0.24212616233041032,14.768603354306306,95.15688315279827,8.5427265,2.8015847,2.471103,10.471629,-25.252333,-5.7330084,-47.914272,-14.963348,-7.5219717,74.64333,-28.363216,2.7294364,-16.484476,1.1486304,8.113406,-27.04803,23.917921,-42.9503,19.287727,4.7480545,8.040702,25.64062,28.710213,-26.87344,35.66727,38.41267,15.179401,-4.9206004,-11.093772
107,-6.540896892547607,26.80902862548828,73.1142578125,-0.532507905105726,15.118609420843066,95.05229214878258,8.801312,3.8605661,2.4263878,10.599373,-24.234093,-6.0145655,-48.15442,-14.177654,-8.779188,72.102875,-27.807924,2.7522333,-16.58732,2.1403356,8.147013,-27.650808,24.490751,-42.79651,17.085966,5.4634004,8.217865,25.785713,29.773623,-27.749012,35.416862,37.079678,15.401432,-4.8609843,-10.930782
108,-6.4634480476379395,27.737993240356445,73.34117889404297,-1.2264116025101768,15.468455096843401,94.94504879148012,9.002646,4.830812,2.3631356,10.845605,-23.126253,-6.2952137,-48.262566,-13.367027,-9.936884,69.37293,-27.142944,2.8943167,-16.696928,3.0540419,8.151404,-28.112324,25.118923,-42.65914,14.866804,6.1776886,8.370442,25.85715,30.731768,-28.611237,35.20279,35.81015,15.516565,-4.833452,-10.779599
109,-6.366565227508545,28.69338607788086,73.57190704345703,-1.8354156065380498,15.834859742991934,94.83933795762302,9.138883,5.7093577,2.2731256,11.185829,-21.894215,-6.587793,-48.230495,-12.545152,-11.011067,66.38579,-26.333776,3.1628828,-16.806519,3.8898506,8.109221,-28.44431,25.80461,-42.547222,12.647864,6.91719,8.486728,25.832695,31.566042,-29.446686,35.042843,34.634907,15.47188,-4.858191,-10.638446
110,-6.249619483947754,29.682710647583008,73.79976654052734,-2.379710392351371,16.21220670679372,94.72376031475918,9.230602,6.516358,2.164609,11.607025,-20.538094,-6.8975363,-48.055725,-11.713843,-12.0311,63.12697,-25.408688,3.5145793,-16.904388,4.665578,8.03233,-28.660378,26.549929,-42.46426,10.439311,7.6391745,8.557556,25.740509,32.255997,-30.251684,34.95975,33.571724,15.326061,-4.9326744,-10.49776
111,-6.131905555725098,30.69053077697754,74.02420806884766,-2.858188403586809,16.56993838409257,94.60802576732942,9.288276,7.2467055,2.0410366,12.151944,-19.123,-7.2032137,-47.759438,-10.84724,-12.920269,59.73196,-24.413439,3.9471643,-17.011482,5.3691936,7.946912,-28.726646,27.352,-42.381424,8.201768,8.317128,8.610124,25.611269,32.796013,-31.02115,34.938473,32.61327,15.146864,-5.0216455,-10.371155
112,-6.003666400909424,31.721385955810547,74.24409484863281,-3.27163773268146,16.87797244024799,94.50217323555256,9.320866,7.8982186,1.9076846,12.860464,-17.71039,-7.481057,-47.361446,-9.922964,-13.60402,56.335186,-23.39341,4.4553194,-17.149296,5.991249,7.879771,-28.610022,28.204895,-42.26952,5.8999,8.925459,8.672612,25.474642,33.192486,-31.74922,34.955166,31.743313,14.996134,-5.088993,-10.272073
113,-5.869351387023926,32.77243423461914,74.44110107421875,-3.6159574010594118,17.13985160228706,94.41811030622901,9.343019,8.471828,1.746024,13.684336,-16.25164,-7.7512407,-46.851334,-8.910181,-14.027024,52.86398,-22.325436,5.0868497,-17.323187,6.531396,7.8196483,-28.322535,29.107567,-42.1289,3.5324755,9.522772,8.80742,25.260777,33.444363,-32.4333,35.02106,30.979288,14.83852,-5.125877,-10.211099
114,-5.738137722015381,33.84370040893555,74.6227798461914,-3.8902534655231022,17.368438956569335,94.35378076657993,9.34753,8.967197,1.5575428,14.611359,-14.7280245,-8.01838,-46.212337,-7.8461146,-14.229788,49.266247,-21.195095,5.814938,-17.524035,6.994835,7.759039,-27.877148,30.06083,-41.969154,1.119993,10.103427,8.979497,24.977991,33.54361,-33.072468,35.148495,30.327053,14.655019,-5.1516933,-10.17934
115,-5.603212356567383,34.93059158325195,74.78567504882812,-4.10187693501512,17.54821042099491,94.29775784953873,9.310871,9.383881,1.381814,15.727586,-13.239207,-8.230011,-45.459263,-6.806346,-14.291898,45.717335,-20.063875,6.52759,-17.751337,7.381723,7.730098,-27.241938,31.058043,-41.77322,-1.3362603,10.543391,9.0741205,24.77687,33.485325,-33.663704,35.312336,29.753231,14.534485,-5.1723576,-10.160218
116,-5.464831352233887,36.0280647277832,74.91291809082031,-4.263091707550894,17.66506281732071,94.23634633316796,9.208072,9.728602,1.2628912,17.119398,-11.885178,-8.328831,-44.621544,-5.8542733,-14.304249,42.415447,-18.992552,7.1216526,-17.999666,7.695025,7.764412,-26.387764,32.08609,-41.524734,-3.828042,10.717202,8.97914,24.810877,33.247417,-34.20491,35.49645,29.238453,14.581098,-5.1942077,-10.137046
117,-5.326135635375977,37.13418960571289,75.01701354980469,-4.354997991766512,17.709335406854592,94.1812752743268,9.050012,9.989322,1.1981723,18.789276,-10.696018,-8.245829,-43.67669,-4.992925,-14.260148,39.317154,-17.963224,7.6355867,-18.289362,7.913392,7.862454,-25.32187,33.13873,-41.240276,-6.337932,10.596281,8.672654,25.1736,32.871563,-34.695595,35.690014,28.753607,14.833391,-5.22529,-10.090741
118,-5.186344146728516,38.250205993652344,75.09469604492188,-4.374489838023505,17.69053866122916,94.13371891449482,8.855017,10.174463,1.1804225,20.672825,-9.605961,-8.013169,-42.624805,-4.194551,-14.123164,36.36496,-16.95788,8.106972,-18.605501,8.0382595,8.009288,-24.064417,34.210403,-40.925247,-8.862191,10.250135,8.209882,25.764547,32.289703,-35.13819,35.94298,28.36276,15.281957,-5.261181,-10.034676
119,-5.042669773101807,39.3741569519043,75.1393051147461,-4.365699758263451,17.626056277090395,94.05883035696834,8.594,10.331196,1.2455798,22.787285,-8.576478,-7.7210717,-41.543587,-3.4577112,-13.952447,33.753128,-16.043373,8.439951,-18.912455,8.1068125,8.205812,-22.575705,35.28713,-40.51898,-11.407174,9.707856,7.590766,26.442997,31.603037,-35.518143,36.157784,27.971907,15.7448845,-5.2826853,-10.001647
120,-4.895792007446289,40.49736404418945,75.15052795410156,-4.3753922142956405,17.53497872299306,93.91735883695792,8.236453,10.509314,1.428116,25.155895,-7.5779843,-7.4613366,-40.52175,-2.7726583,-13.810401,31.691336,-15.291608,8.540818,-19.151237,8.161363,8.455129,-20.835655,36.34443,-39.9796,-13.972095,8.993041,6.817952,27.070423,30.784214,-35.819458,36.309547,27.590382,16.136324,-5.27659,-10.023489
121,-4.738563060760498,41.632198333740234,75.12420654296875,-4.398144069819296,17.421366897759412,93.6972073608545,7.769577,10.715134,1.7604926,27.840767,-6.6630216,-7.234812,-39.576427,-2.1572223,-13.742649,30.241364,-14.658149,8.386851,-19.304073,8.189375,8.750265,-18.83314,37.358253,-39.306717,-16.550783,8.041457,5.768564,27.653381,29.858294,-36.023014,36.345913,27.224707,16.45437,-5.2402225,-10.0653105
122,-4.5863823890686035,42.7663459777832,75.05914306640625,-4.422982988057844,17.278430468042153,93.40850667489693,7.195553,10.954155,2.2172737,30.852816,-5.853167,-6.976507,-38.686535,-1.5951207,-13.713378,29.326662,-14.141731,8.032315,-19.374489,8.176251,9.085855,-16.610537,38.31016,-38.547085,-19.108963,6.873338,4.4744525,28.236162,28.818987,-36.119453,36.295074,26.892948,16.749187,-5.1832414,-10.124494
123,-4.427806854248047,43.88290023803711,74.97886657714844,-4.491472654960558,17.10975023670292,93.0460704510857,6.502776,11.27381,2.7413604,34.147507,-5.068475,-6.685042,-37.884167,-1.0237285,-13.664391,28.95312,-13.88149,7.497745,-19.343401,8.162642,9.46506,-14.223594,39.181934,-37.725914,-21.599163,5.6301365,3.1763158,28.744053,27.663658,-36.1084,36.20941,26.5696,16.959988,-5.1081276,-10.28303
124,-4.2583699226379395,44.98752975463867,74.87471771240234,-4.645032096001421,16.917107199543665,92.6081826472806,5.682154,11.712822,3.2743669,37.678406,-4.2200875,-6.3652363,-37.19383,-0.38428873,-13.533615,29.116411,-14.011663,6.8034377,-19.198559,8.191812,9.891703,-11.723748,39.95806,-36.864098,-23.981049,4.4439845,2.1203563,29.116938,26.392344,-35.99624,36.14266,26.22142,17.027824,-5.016562,-10.623033
125,-4.092655658721924,46.10509490966797,74.7137451171875,-4.879545264598216,16.69373423424598,92.09869091119862,4.7254415,12.326854,3.9082549,41.50526,-3.108625,-5.9922323,-36.65226,0.3042615,-13.274672,30.02663,-14.677208,5.858484,-18.929628,8.267715,10.364941,-9.109859,40.620743,-35.978786,-26.275787,3.2969265,1.3756074,29.341097,25.039164,-35.78112,36.0651,25.815762,16.897928,-4.8915687,-11.214906
126,-3.9292376041412354,47.224117279052734,74.5099868774414,-5.173986274783838,16.43383842327937,91.52334967414349,3.6508718,13.111608,4.6265793,45.63533,-1.8457474,-5.534284,-36.217426,1.0170369,-12.919155,31.594202,-15.765744,4.682713,-18.536133,8.369969,10.8795395,-6.4011793,41.154625,-35.09818,-28.464743,2.1285257,0.8139882,29.455132,23.617117,-35.45912,35.941383,25.370787,16.61732,-4.7346716,-11.998265
127,-3.7511706352233887,48.32301330566406,74.26390838623047,-5.541409940283662,16.143415567238385,90.88127359878692,2.4917734,13.975929,5.2130103,49.926605,-0.79851943,-5.0329905,-35.804207,1.8041154,-12.518662,33.377934,-17.028275,3.4634736,-18.03834,8.505473,11.426322,-3.6524665,41.555225,-34.235725,-30.450127,1.006392,0.38945955,29.48508,22.215492,-35.034767,35.753963,24.832928,16.192247,-4.573745,-12.859034
128,-3.588409662246704,49.413429260253906,73.98225402832031,-5.999121698576317,15.833476018517647,90.16584441224632,1.26463,14.779946,5.453849,54.251385,-0.33506936,-4.5910754,-35.347507,2.716281,-12.132171,34.967884,-18.226767,2.3897069,-17.406252,8.699633,12.008818,-0.9648904,41.82549,-33.443954,-32.14401,-0.0025875876,0.055470664,29.461937,20.4353,-34.540882,35.737255,24.506617,15.967589,-4.4471765,-13.684748
129,-3.431241512298584,50.48594665527344,73.6730728149414,-6.573353774832202,15.488587396213378,89.32935447044633,-0.025471212,15.435829,5.30168,58.719994,-0.6218196,-4.295409,-34.882545,3.809781,-11.752139,36.379738,-19.337275,1.4632666,-16.658213,8.965742,12.64008,1.7499644,41.965393,-32.647194,-33.632053,-0.9355919,-0.13306394,29.3365,18.575165,-33.98203,35.728386,24.108772,15.712232,-4.3248243,-14.476691
130,-3.279566764831543,51.54841995239258,73.34552764892578,-7.241701712154471,15.106319068825869,88.39214288567682,-1.3961375,15.954222,4.8717575,63.380653,-1.4524645,-4.145179,-34.43242,5.0308533,-11.342879,37.811802,-20.484106,0.6008246,-15.796742,9.297969,13.30578,4.4878187,41.972744,-31.87074,-34.92699,-1.81574,-0.16994335,29.11813,16.68001,-33.361153,35.68786,23.613066,15.39299,-4.199169,-15.2844
131,-3.1431570053100586,52.6224365234375,73.00203704833984,-7.943496332687517,14.722525484147772,87.44611742044764,-2.8729868,16.318268,4.204128,68.01141,-2.6307182,-4.1383367,-33.928055,6.2730927,-10.934878,39.140324,-21.650707,-0.13396765,-14.868491,9.678485,13.945815,7.1442857,41.853233,-31.195019,-35.854362,-2.5399725,-0.17723744,28.905674,14.633187,-32.68856,35.695267,23.208307,15.163458,-4.1370983,-16.072487
132,-3.0110929012298584,53.71907424926758,72.64945220947266,-8.627659315527293,14.376525624955633,86.58110193156341,-4.482331,16.53126,3.3373895,72.3813,-3.9496293,-4.256339,-33.305332,7.440783,-10.569727,40.236473,-22.812458,-0.6767124,-13.939576,10.083814,14.499511,9.644208,41.61773,-30.669874,-36.24347,-3.004645,-0.2793583,28.792429,12.452735,-31.97005,35.765602,22.977528,15.078501,-4.2035055,-16.80707
133,-2.8712472915649414,54.811073303222656,72.29739379882812,-9.34614457240013,14.07596312892454,85.79103348359654,-6.2292266,16.531693,2.1498868,76.49464,-5.5006833,-4.606251,-32.552914,8.594019,-10.304086,41.051308,-23.974964,-0.9799535,-13.0319,10.550443,14.964009,12.051703,41.27105,-30.27847,-36.098476,-3.0721729,-0.604908,28.782488,10.215242,-31.208645,35.891956,22.865074,15.215248,-4.4720798,-17.463028
134,-2.7600104808807373,55.91374588012695,71.9607162475586,-10.106888137177156,13.800956523667319,85.03688241935821,-8.081073,16.29679,0.71333194,80.467926,-7.3580728,-5.178273,-31.71245,9.764898,-10.110046,41.6601,-25.142576,-1.0894345,-12.119298,11.076211,15.3579035,14.39505,40.816593,-29.992636,-35.49962,-2.8335338,-1.0562218,28.834223,7.967784,-30.405703,36.01837,22.785278,15.472018,-4.892749,-18.062443
135,-2.659336805343628,57.02031326293945,71.65520477294922,-10.792589476960565,13.555190839840625,84.35661494224927,-10.025222,15.935645,-0.6804457,84.22252,-9.264238,-5.7529616,-30.800129,10.825565,-9.912111,42.111385,-26.284655,-1.0831527,-11.179271,11.5812,15.668626,16.537903,40.272728,-29.847713,-34.3971,-2.5247087,-1.418833,28.971113,5.553675,-29.566061,36.129986,22.879984,15.710057,-5.3428597,-18.644001
136,-2.5640361309051514,58.11186981201172,71.38724517822266,-11.290901657687137,13.3463763348637,83.78502651531203,-12.07778,15.58784,-1.786614,87.66723,-10.939533,-6.103304,-29.83417,11.648571,-9.638752,42.456917,-27.370487,-1.0396831,-10.239072,11.9656105,15.8670225,18.421946,39.65725,-29.822195,-32.75424,-2.384327,-1.4786048,29.213001,3.3107116,-28.685844,36.035492,22.911821,15.462066,-5.689239,-19.24767
137,-2.4699649810791016,59.21715545654297,71.1777572631836,-11.548964205369352,13.19849788373342,83.37754347155791,-14.322581,15.238689,-2.650609,90.79939,-12.236322,-6.1642776,-28.829748,12.1558485,-9.313134,42.72896,-28.424398,-0.9576942,-9.295476,12.191087,15.970462,19.939894,38.97773,-29.967897,-30.293434,-2.43128,-1.3164372,29.575104,0.9860169,-27.763275,35.809265,23.110777,14.722544,-5.890062,-19.918203
138,-2.3852384090423584,60.31975173950195,71.0158920288086,-11.638428454633722,13.10642842269724,83.09836388622273,-16.740282,14.855715,-3.3917902,93.654335,-13.301421,-6.040811,-27.772146,12.436528,-8.977088,42.885246,-29.450531,-0.8102661,-8.3607855,12.296623,15.983325,21.21365,38.23689,-30.232752,-27.14376,-2.5551245,-1.001692,30.046137,-1.2771523,-26.798367,35.43594,23.343962,13.552453,-6.004001,-20.622192
139,-2.3154919147491455,61.44464111328125,70.89684295654297,-11.632628389025875,13.036264450353402,82.85183117622836,-19.21026,14.569675,-3.914627,96.17418,-14.274577,-5.753478,-26.625372,12.605422,-8.585121,42.865673,-30.394327,-0.636064,-7.3937435,12.331719,15.912219,22.400875,37.470127,-30.528337,-23.881958,-2.804859,-0.30681652,30.61932,-3.4736018,-25.814741,34.934727,23.532774,12.182127,-6.0583234,-21.285583
140,-2.267656087875366,62.58845901489258,70.80764770507812,-11.60589497130303,12.953109095892488,82.54182436207036,-21.615347,14.520232,-4.1313095,98.29808,-15.301359,-5.3235674,-25.352213,12.772646,-8.083778,42.610638,-31.199705,-0.47215745,-6.363187,12.344496,15.770032,23.673634,36.732513,-30.7502,-21.108088,-3.2458963,0.9930225,31.302332,-5.570661,-24.850697,34.329975,23.556982,10.830234,-6.0855737,-21.834465
141,-2.2241392135620117,63.7547492980957,70.756591796875,-11.584379688618089,12.839156776367329,82.12930287951303,-23.962292,14.82495,-3.9991426,100.03829,-16.452766,-4.717637,-23.94706,12.969036,-7.441858,42.13661,-31.879349,-0.3268586,-5.2612906,12.362488,15.595928,25.110733,36.060436,-30.86094,-18.969776,-3.9581165,3.44948,32.32623,-7.4960732,-23.922745,33.55887,23.255741,9.37879,-6.0500107,-22.241934
142,-2.168043613433838,64.94068145751953,70.74041748046875,-11.527426713206655,12.71534464279282,81.66727595564885,-26.302074,15.403556,-3.5891027,101.414276,-17.64323,-3.9331937,-22.42502,13.129105,-6.6900163,41.470142,-32.457867,-0.18868239,-4.103575,12.347144,15.396414,26.634249,35.46816,-30.89445,-17.205467,-4.9642453,6.7633386,33.672596,-9.321083,-23.0351,32.662693,22.71428,7.8014493,-5.950605,-22.544426
143,-2.123610496520996,66.14986419677734,70.7667465209961,-11.408476643980043,12.60383317555173,81.19808077314704,-28.57999,16.0947,-2.9834733,102.3709,-18.78281,-3.0524993,-20.780302,13.209922,-5.8612733,40.56909,-32.8976,-0.058624465,-2.9225042,12.248733,15.1293955,28.232006,34.97436,-30.828033,-15.836458,-6.194448,9.888919,34.95353,-11.03233,-22.20705,31.77705,22.025528,6.334457,-5.8804736,-22.766884
144,-2.0624468326568604,67.39167785644531,70.8337631225586,-11.199608437099672,12.52758195522979,80.76461464233698,-30.742506,16.734678,-2.247264,102.852356,-19.777575,-2.1536293,-19.009607,13.163043,-4.9908338,39.389656,-33.159977,0.06965647,-1.756478,12.02305,14.756101,29.9301,34.604095,-30.62686,-14.923809,-7.4826274,11.805381,35.713295,-12.612225,-21.467087,31.044495,21.276373,5.2216487,-5.931657,-22.941425
145,-2.0146126747131348,68.66434478759766,70.94821166992188,-10.907387175721034,12.49876614787464,80.34750193046364,-32.803497,17.380726,-1.3239534,102.84591,-20.645172,-1.2155051,-17.106165,12.9825735,-4.0535693,37.87145,-33.26336,0.21069157,-0.5888889,11.672388,14.257492,31.83924,34.386833,-30.25329,-14.671187,-8.8778,12.144607,35.770134,-14.049358,-20.82971,30.481401,20.427444,4.597642,-6.1523323,-23.031939
146,-1.9757837057113647,69.98883056640625,71.10758209228516,-10.536778718626733,12.50420210849293,79.93313010624452,-34.753002,18.077158,-0.17285705,102.374435,-21.432068,-0.22974277,-15.081199,12.667299,-3.0442762,36.06187,-33.22405,0.3654033,0.590573,11.212422,13.674696,33.96479,34.332817,-29.725292,-15.057492,-10.398781,11.514529,35.322212,-15.332376,-20.29306,30.027456,19.41449,4.314874,-6.488179,-23.039879
147,-1.9276378154754639,71.34009552001953,71.31360626220703,-10.067159480149636,12.528977145338343,79.57484779637454,-36.513668,18.642988,1.1244514,101.43382,-22.077423,0.7143866,-12.962598,12.180074,-2.0383778,34.074398,-32.994446,0.5303728,1.7374288,10.62698,13.058341,36.168385,34.42724,-29.094309,-15.797889,-11.794866,10.381573,34.449368,-16.474081,-19.864948,29.715084,18.32002,4.2159657,-6.875828,-23.05455
148,-1.88752281665802,72.73332977294922,71.5712890625,-9.48083982855712,12.558228358977908,79.32663560970128,-38.022724,18.902016,2.4746354,100.01818,-22.51169,1.5312861,-10.775777,11.494176,-1.1167519,32.011227,-32.524715,0.7051888,2.8060038,9.909197,12.456704,38.289917,34.635098,-28.408438,-16.576958,-12.815224,9.1959715,33.266846,-17.479454,-19.559778,29.576996,17.220032,4.1431465,-7.250613,-23.165373
149,-1.8414814472198486,74.14847564697266,71.86225891113281,-8.736913631382517,12.571931759622696,79.20147817030627,-39.23649,18.81236,3.9205945,98.084854,-22.69166,2.224073,-8.423165,10.564415,-0.2670758,29.725746,-31.800257,0.88938534,3.8012102,9.027727,11.87009,40.297287,34.937435,-27.644484,-17.32683,-13.376471,7.8181806,31.582489,-18.329842,-19.393145,29.643696,16.106276,4.1155224,-7.5735226,-23.432207
150,-1.8024169206619263,75.59607696533203,72.18478393554688,-7.861086774457471,12.58339292566713,79.17312514743901,-40.191616,18.456606,5.4976625,95.64218,-22.66506,2.8178074,-5.9505243,9.418283,0.5093141,27.221676,-30.84738,1.1059434,4.7436967,8.009986,11.284111,42.254364,35.324894,-26.78851,-18.18163,-13.660214,6.0916963,29.415619,-18.999836,-19.367865,29.886997,14.918249,4.198474,-7.885184,-23.793394
151,-1.7739659547805786,77.07715606689453,72.53421783447266,-6.934498843531854,12.625219395210042,79.23847329592903,-40.965614,17.854906,7.081559,92.75775,-22.48846,3.271797,-3.5898364,8.161831,1.1253347,24.84007,-29.682556,1.3725667,5.6126285,6.94279,10.713956,44.125175,35.767895,-25.90706,-19.099813,-13.76103,4.417745,27.223997,-19.51174,-19.48141,30.255022,13.685084,4.31277,-8.241082,-24.156055
152,-1.7615997791290283,78.583251953125,72.90217590332031,-6.041854472930252,12.728520706247814,79.39529023554913,-41.642086,17.034357,8.5385475,89.49524,-22.212658,3.5499053,-1.5489067,6.9126673,1.5234994,22.921019,-28.32116,1.684653,6.3822827,5.9196286,10.166854,45.840237,36.224636,-25.084433,-20.006979,-13.716111,3.1988413,25.461357,-19.888596,-19.727842,30.69994,12.440862,4.373863,-8.695344,-24.427835
153,-1.7684129476547241,80.11239624023438,73.2794189453125,-5.150412127761588,12.91333958884285,79.67171078748918,-42.249493,15.935133,9.8582115,85.77571,-21.831848,3.6645768,0.1630171,5.644726,1.6774728,21.514677,-26.73646,2.0485575,7.022466,4.918955,9.623027,47.38081,36.670948,-24.326487,-20.878807,-13.4115305,2.5540576,24.235762,-20.150429,-20.113892,31.248482,11.228281,4.3764396,-9.298001,-24.615566
154,-1.7771575450897217,81.62772369384766,73.66407775878906,-4.237679988437618,13.150706514909999,80.06389498981679,-42.739388,14.567534,11.080017,81.575554,-21.318874,3.6341069,1.6658741,4.341663,1.6479273,20.454079,-24.935612,2.4501145,7.54502,3.9195223,9.0789795,48.769287,37.09858,-23.604012,-21.726978,-12.804899,2.2481282,23.311274,-20.28247,-20.643908,31.916643,10.021637,4.3600335,-10.007957,-24.758583
155,-1.7982144355773926,83.15618896484375,74.04778289794922,-3.3953249544141584,13.398698201635588,80.52050269363168,-43.08019,13.076374,12.146061,77.03078,-20.693266,3.4486241,2.9649196,3.1317532,1.5278238,19.747534,-22.975285,2.8489344,7.984558,3.0122488,8.559995,49.983856,37.48936,-22.95815,-22.520933,-12.014794,2.15933,22.618309,-20.277174,-21.304873,32.650146,8.775805,4.308357,-10.743073,-24.814377
156,-1.8358163833618164,84.67761993408203,74.42485809326172,-2.7160166832480988,13.620178156107919,80.98638999020264,-43.251247,11.609757,12.996727,72.28568,-19.96654,3.1031656,4.0572224,2.1368978,1.4080908,19.40697,-20.9141,3.2104225,8.349704,2.289309,8.096002,50.728886,37.842113,-22.459179,-23.002827,-11.3232355,2.17149,22.082237,-20.157757,-22.070084,33.42555,7.465516,4.2027483,-11.421158,-24.74087
157,-1.8874790668487549,86.21653747558594,74.79390716552734,-2.22912976744619,13.833946332926022,81.46469208425992,-43.257206,10.181429,13.594831,67.21737,-19.110754,2.591086,4.938924,1.3952969,1.2783737,19.386497,-18.596525,3.538137,8.653835,1.7816082,7.6603494,51.26547,38.127464,-22.10816,-23.370243,-10.586733,2.2990453,21.744553,-19.940645,-22.9349,34.247646,6.117579,3.987975,-12.058488,-24.513498
158,-1.9459096193313599,87.7575912475586,75.13868713378906,-1.8800988143291675,14.050967020416232,81.97157945957748,-43.089233,8.742231,13.964308,61.76962,-18.118864,1.9474136,5.6460404,0.84121954,1.1188182,19.64723,-16.022758,3.8826933,8.872358,1.4355109,7.246093,51.5349,38.340572,-21.885122,-23.575981,-9.768579,2.5954893,21.612352,-19.647821,-23.898155,35.150356,4.761942,3.6922817,-12.688507,-24.160986
159,-1.9961373805999756,89.30220031738281,75.46678924560547,-1.6284829550584323,14.227468569035105,82.47084375146521,-42.72006,7.347461,14.142774,56.194927,-17.038092,1.229212,6.227144,0.43946186,0.99743146,20.202246,-13.479262,4.265615,9.04735,1.1993729,6.888503,51.50852,38.48546,-21.775621,-23.611996,-8.888419,3.000773,21.589643,-19.229454,-24.93721,36.05946,3.3547637,3.403567,-13.2557,-23.717226
160,-2.034355401992798,90.86405944824219,75.771240234375,-1.4382344518611758,14.320393080600347,82.92844140326898,-42.14116,6.0465856,14.171702,50.76698,-15.920156,0.48561874,6.7118564,0.15182675,0.9774586,21.09332,-11.265284,4.6705403,9.223505,1.018041,6.618666,51.208935,38.57092,-21.75675,-23.512615,-7.9455476,3.4520662,21.58588,-18.639326,-26.018995,36.89173,1.8690912,3.204483,-13.70392,-23.213108
161,-2.0625498294830322,92.4318618774414,76.03605651855469,-1.3337804072669075,14.321290490075512,83.33003373524245,-41.309917,4.824316,13.999445,45.33773,-14.668543,-0.35396212,7.1076007,0.031048441,1.2038578,22.285402,-9.431505,5.057478,9.409364,0.905359,6.4317346,50.611958,38.60603,-21.830965,-23.265686,-6.915863,3.9862063,21.588112,-17.896755,-27.123072,37.65042,0.32384038,3.0579166,-13.998384,-22.615517
162,-2.0820980072021484,93.99198150634766,76.24994659423828,-1.3364675185557704,14.249998904703114,83.68541082216959,-40.224426,3.7022953,13.605572,39.795547,-13.275361,-1.2698613,7.4000783,0.08017554,1.604075,23.758612,-7.8128448,5.4199862,9.592496,0.8872435,6.311451,49.753227,38.591,-21.99496,-22.888512,-5.8053904,4.621243,21.638689,-17.039698,-28.242865,38.370117,-1.2389688,2.931018,-14.177051,-21.918621
163,-2.0897412300109863,95.53636169433594,76.4074478149414,-1.3994053328725558,14.10739508971419,84.0027083318236,-38.96153,2.7523394,13.1074915,34.500896,-11.936067,-2.1036348,7.568222,0.16837133,1.9098984,25.612022,-6.399346,5.7597103,9.770434,0.9208897,6.2715173,48.688953,38.52361,-22.217932,-22.407904,-4.6927156,5.2641935,21.732107,-16.050875,-29.363556,39.021126,-2.806817,2.9065495,-14.289645,-21.19351
164,-2.087552070617676,97.06822204589844,76.51119995117188,-1.463118944894126,13.899440541273538,84.29750592737662,-37.63657,2.0060484,12.65025,29.872562,-10.858181,-2.7193289,7.5811963,0.14779454,1.8494393,27.956718,-5.1891756,6.0738063,9.932928,0.9520505,6.321715,47.489887,38.401756,-22.467009,-21.861893,-3.6489298,5.821618,21.867847,-14.911115,-30.464731,39.570168,-4.3630357,3.0681088,-14.384578,-20.511507
165,-2.073451042175293,98.58800506591797,76.56564331054688,-1.530907083479477,13.627268244653116,84.56366284256552,-36.260563,1.4655097,12.268406,25.91743,-10.180859,-3.1364284,7.398102,-0.00486319,1.3734685,30.938856,-4.137495,6.3822155,10.08583,0.9763476,6.4638605,46.146492,38.220207,-22.733517,-21.241497,-2.6732829,6.2863555,22.031166,-13.613957,-31.52875,40.015343,-5.903474,3.4707012,-14.464535,-19.878017
166,-2.0530173778533936,100.09398651123047,76.5767822265625,-1.6226063346132578,13.294919889419788,84.8084203359276,-34.832863,1.0863001,11.910547,22.519033,-9.790328,-3.437837,7.0181355,-0.27696282,0.6126056,34.5206,-3.2892835,6.614544,10.211989,1.0160547,6.6825857,44.64208,37.974297,-23.025,-20.532907,-1.7381374,6.703782,22.230639,-12.190337,-32.545418,40.38448,-7.4030776,4.053824,-14.503209,-19.258562
167,-2.0282766819000244,101.60546112060547,76.55624389648438,-1.6716275341762197,12.928050182788802,85.08368074210127,-33.50038,0.77693754,11.6084175,19.979515,-9.544333,-3.5870829,6.4730077,-0.8030314,-0.44239628,38.52354,-2.784844,6.6501985,10.250948,1.0190713,6.9540052,43.046085,37.66436,-23.33018,-19.775587,-0.869881,7.0597587,22.505669,-10.675649,-33.504284,40.687412,-8.812849,4.729223,-14.506332,-18.666288
168,-2.0035910606384277,103.12584686279297,76.49079132080078,-1.5890528092729865,12.558173754053904,85.44496835345564,-32.415462,0.42805076,11.393944,18.608692,-9.305118,-3.5334225,5.80895,-1.721926,-1.7948459,42.750626,-2.7575033,6.4042134,10.13821,0.9092102,7.253003,41.415836,37.297337,-23.636421,-18.999247,-0.10310985,7.340338,22.895937,-9.095414,-34.393635,40.932037,-10.092872,5.4036427,-14.480886,-18.115065
169,-1.9920070171356201,104.6081314086914,76.38684844970703,-1.3203160564789638,12.193150453048265,85.92612871135275,-31.68643,0.013682777,11.320655,18.74625,-8.844984,-3.2577982,5.0603313,-3.1810923,-3.5958536,47.268257,-3.4032385,5.818731,9.834896,0.6280398,7.577212,39.765743,36.87685,-23.933907,-18.199453,0.59185636,7.5007033,23.43885,-7.4577737,-35.197826,41.139603,-11.234871,6.130322,-14.43126,-17.61388
170,-1.978784441947937,106.0694808959961,76.24295043945312,-0.8996810895413729,11.815078063765013,86.49413775703384,-31.216192,-0.42654744,11.374346,20.151857,-8.310518,-2.772967,4.262921,-5.1567,-5.7341075,52.140118,-4.632244,4.9380536,9.372056,0.19797434,7.9357967,38.0863,36.401783,-24.214613,-17.374601,1.2187972,7.564301,24.109144,-5.7630677,-35.903698,41.31962,-12.238962,6.92801,-14.352406,-17.153625
171,-1.9685510396957397,107.55424499511719,76.03715515136719,-0.3825860853840814,11.414211156023674,87.09841438832991,-30.85128,-0.8968794,11.476487,22.277784,-8.131379,-2.0813067,3.4579897,-7.461486,-7.832287,57.151516,-6.1253924,3.8751388,8.801408,-0.32797664,8.321684,36.405426,35.875645,-24.471775,-16.568577,1.7106558,7.617539,24.851452,-4.038851,-36.506504,41.45785,-13.064769,7.668019,-14.244816,-16.72139
172,-1.9284378290176392,109.05689239501953,75.73685455322266,0.18865679834046303,10.993360377557444,87.69890996895336,-30.452448,-1.4493021,11.540429,24.572971,-8.728735,-1.205838,2.6304038,-9.880607,-9.560289,62.09163,-7.544933,2.7628064,8.167423,-0.9117338,8.7221575,34.707024,35.30821,-24.70892,-15.790957,1.980212,7.743042,25.609325,-2.325753,-37.00896,41.536602,-13.665023,8.235898,-14.1107855,-16.304558
173,-1.8982417583465576,110.53955841064453,75.39347076416016,0.8134871066808392,10.541013264366056,88.29159898979391,-30.08677,-2.1224678,11.5199,27.24719,-10.457859,-0.00057884876,1.7821696,-12.436719,-10.986644,66.99946,-8.814956,1.6035407,7.477718,-1.5549098,9.131738,33.119976,34.69854,-24.905954,-15.1432495,1.9860759,7.9275618,26.393267,-0.59542125,-37.41363,41.557774,-14.063691,8.558577,-13.972242,-15.92672
174,-1.8955854177474976,112.00849914550781,75.02313995361328,1.489496157213235,10.049218364725895,88.88313062034997,-29.77293,-2.9300473,11.44319,30.415,-12.957897,1.4850982,0.9354903,-15.15666,-12.230653,71.94708,-10.103368,0.3593743,6.709001,-2.2606537,9.559329,31.458239,34.055126,-25.082087,-14.460302,1.6999472,8.129589,27.224403,1.1532084,-37.71912,41.546814,-14.277681,8.712104,-13.823831,-15.585866
175,-1.8997279405593872,113.47428894042969,74.61222076416016,2.2194420177795897,9.549811429263354,89.47214123187311,-29.361664,-3.910483,11.343698,33.465637,-15.627728,2.9341557,0.0055611697,-17.839252,-13.080932,76.80195,-11.411117,-0.86243063,5.8964853,-3.0301278,9.986173,29.81768,33.382977,-25.241917,-13.858363,1.353911,8.396168,28.072151,2.9202075,-37.9224,41.450787,-14.282199,8.796883,-13.626887,-15.228596
176,-1.917928695678711,114.91800689697266,74.17842102050781,3.0188089701406864,9.083469340913144,90.06679714874977,-28.72834,-5.039597,11.267609,35.859352,-17.936283,4.0332866,-1.140418,-20.277393,-13.331375,81.43418,-12.722174,-1.9266325,5.051838,-3.8807917,10.3905,28.082888,32.697277,-25.41145,-13.27349,1.0698445,8.775209,28.903816,4.7141733,-38.019165,41.22553,-14.064831,8.898295,-13.3422165,-14.803126
177,-1.934903860092163,116.3563232421875,73.7439956665039,3.982160090142611,8.655252164561187,90.71043539619846,-27.839108,-6.363705,11.247742,37.501926,-19.838242,4.673115,-2.5912154,-22.45834,-12.861292,85.90725,-14.048924,-2.7634032,4.1586885,-4.9019074,10.768962,26.226618,32.010185,-25.607647,-12.696103,0.7612991,9.293135,29.745735,6.5966797,-37.99636,40.799587,-13.582739,8.984534,-13.035032,-14.100755
178,-1.9303677082061768,117.79798126220703,73.31135559082031,5.078852880801203,8.25169450616925,91.3919035704185,-26.787334,-7.8300576,11.233032,38.736385,-21.635042,5.0302052,-4.329003,-24.39392,-11.815674,90.268974,-15.3595495,-3.3849814,3.2168808,-6.068903,11.1092825,24.287277,31.325401,-25.816992,-12.147975,0.37929422,9.91713,30.612057,8.552745,-37.845642,40.21093,-12.864018,9.02634,-12.702296,-13.211642
179,-1.910726547241211,119.24221801757812,72.900146484375,6.140371146237455,7.890725287975789,92.03931301499006,-25.629045,-9.233583,11.158723,39.68483,-23.339617,5.218708,-6.3354816,-25.923454,-10.403769,94.3596,-16.566954,-3.792365,2.265218,-7.222187,11.382832,22.30676,30.641829,-26.011684,-11.663305,0.13629727,10.6167555,31.445404,10.466897,-37.575115,39.579655,-11.9999485,9.118103,-12.195861,-12.535432
180,-1.892541766166687,120.69384002685547,72.5200424194336,6.9996035961652225,7.594209653360917,92.58491401204255,-24.430239,-10.391667,10.982113,40.453808,-24.952368,5.3589225,-8.589624,-26.930212,-8.843893,98.032684,-17.598837,-4.014253,1.3423388,-8.198723,11.5772505,20.354303,29.953995,-26.16446,-11.298306,0.2683458,11.3693285,32.179695,12.216684,-37.206413,39.025497,-11.077463,9.365205,-11.366666,-12.475865
181,-1.8829176425933838,122.12626647949219,72.18547821044922,7.637354625453473,7.391306228756545,92.9931929274994,-23.219551,-11.293004,10.744045,41.036488,-26.48041,5.472509,-11.2101145,-27.306698,-7.0185776,101.34001,-18.439116,-4.050987,0.48285002,-8.977692,11.704807,18.371387,29.24704,-26.29341,-11.014705,0.9433237,12.278815,32.838272,13.790077,-36.74756,38.54816,-10.00551,9.855668,-10.147598,-13.072415
182,-1.8508517742156982,123.52888488769531,71.89263916015625,8.131214629647719,7.269058627645823,93.3082687504354,-21.960735,-12.019041,10.470734,41.3877,-27.921728,5.5003076,-14.147306,-27.108927,-4.9315276,104.35202,-19.123856,-3.8834126,-0.34331727,-9.625623,11.776624,16.345985,28.514427,-26.407269,-10.795266,2.0146873,13.332218,33.422215,15.239424,-36.20087,38.09907,-8.774727,10.541144,-8.637579,-14.141555
183,-1.805490493774414,124.94975280761719,71.65228271484375,8.470859951014699,7.185860321476653,93.58225831011217,-20.622925,-12.557781,10.11596,41.534634,-29.253149,5.4503436,-17.14109,-26.536737,-2.9745963,106.94334,-19.660503,-3.558188,-1.1903594,-10.116713,11.792123,14.351369,27.774975,-26.481245,-10.67702,3.2243826,14.326502,33.832294,16.571775,-35.59374,37.711163,-7.6179843,11.323422,-6.9391704,-15.755445
184,-1.7417784929275513,126.38622283935547,71.46153259277344,8.648474378154567,7.098572716299329,93.868000397679,-19.170778,-12.90334,9.633399,41.49787,-30.44804,5.3327484,-19.97286,-25.850899,-1.4892024,108.97935,-20.0513,-3.1359828,-2.1129591,-10.432968,11.755921,12.472443,27.065344,-26.490265,-10.719082,4.311255,15.049397,33.985485,17.80535,-34.970917,37.412743,-6.7909813,12.117365,-5.151818,-17.990173
185,-1.6679909229278564,127.8228759765625,71.32632446289062,8.650767605267388,6.9800488220290235,94.1657687087045,-17.569754,-13.032407,9.012291,41.280594,-31.537926,5.135474,-22.663645,-25.11376,-0.50607085,110.43761,-20.248835,-2.6008203,-3.1091497,-10.569445,11.721921,10.729993,26.408293,-26.407413,-11.020423,5.2662,15.443465,33.825798,18.97647,-34.372204,37.247715,-6.4743176,12.832291,-3.1060011,-21.34898
186,-1.597083568572998,129.2589874267578,71.24610137939453,8.49222644157183,6.857583627274405,94.45519670084852,-15.842515,-12.962053,8.295747,40.867603,-32.52476,4.869478,-25.323065,-24.256418,0.14845285,111.38271,-20.258791,-1.9560839,-4.153788,-10.542104,11.694434,9.09513,25.810202,-26.26211,-11.5619755,6.2026467,15.610779,33.41859,20.108152,-33.8167,37.17091,-6.557141,13.650985,-0.8428011,-25.651499
187,-1.5097582340240479,130.7170867919922,71.22059631347656,8.211174601889736,6.768730265771248,94.75881154374834,-14.037925,-12.73754,7.5106397,40.251926,-33.34131,4.5739136,-27.8976,-23.363028,0.4760015,111.79846,-20.15511,-1.3022791,-5.2577195,-10.365288,11.606358,7.5698905,25.288773,-26.127157,-12.224126,7.033907,15.579556,32.87694,21.218718,-33.31646,37.058273,-6.8745747,14.807974,1.2144684,-29.949585
188,-1.4206653833389282,132.2096405029297,71.25106048583984,7.846777383070222,6.751789758245547,95.0988900302141,-12.209108,-12.396872,6.677642,39.43109,-33.915966,4.278684,-30.330013,-22.513435,0.48198888,111.671364,-20.014353,-0.7381717,-6.4259343,-10.049725,11.3925905,6.1616344,24.868736,-26.077679,-12.893926,7.669075,15.382015,32.31602,22.331614,-32.875496,36.776287,-7.2675247,16.411694,2.6541827,-33.291256
189,-1.3441332578659058,133.74363708496094,71.32908630371094,7.386145359186551,6.836413402881087,95.51545426273812,-10.375047,-11.925002,5.7517715,38.36807,-34.27442,3.977902,-32.643368,-21.756086,0.10938811,110.96977,-19.865007,-0.27328593,-7.69699,-9.565673,11.019387,4.881509,24.569967,-26.137764,-13.599176,8.004767,14.96932,31.7481,23.503975,-32.494312,36.243687,-7.8235254,18.703749,3.3915532,-35.510323
190,-1.2812708616256714,135.29185485839844,71.45179748535156,6.821333718162681,6.997850066496322,95.986192259871,-8.5144615,-11.295472,4.742342,37.083298,-34.442696,3.6540198,-34.847225,-21.069538,-0.61367744,109.69837,-19.66901,0.14088938,-9.043275,-8.913101,10.551557,3.732649,24.396673,-26.281654,-14.404302,8.094471,14.348111,31.129347,24.738546,-32.173363,35.525215,-8.624527,21.468185,3.6426635,-37.072765
191,-1.2176042795181274,136.8907012939453,71.63800048828125,6.187360508956428,7.192224252567988,96.43768994745525,-6.6214223,-10.533126,3.7479641,35.657726,-34.350628,3.310664,-36.86013,-20.418257,-1.5544941,107.897964,-19.40667,0.4965204,-10.374809,-8.149437,10.065546,2.7221863,24.347153,-26.498903,-15.257526,8.09396,13.637792,30.484715,25.949312,-31.910748,34.716618,-9.4793215,24.074427,3.5242496,-37.955086
192,-1.162710428237915,138.5005645751953,71.86686706542969,5.519914284300588,7.37398538590724,96.79623922631617,-4.686127,-9.669131,2.866221,34.167576,-33.924335,2.9506469,-38.60087,-19.751585,-2.5835376,105.6105,-19.056915,0.78627014,-11.603304,-7.33858,9.6285095,1.8495581,24.417051,-26.778555,-16.100023,8.164448,12.954614,29.839277,27.043215,-31.704193,33.91327,-10.182152,25.899975,3.17518,-38.13965
193,-1.1229385137557983,140.12974548339844,72.14452362060547,4.80801261350157,7.530864780397076,97.05710596484472,-2.653289,-8.6905775,2.0744805,32.532864,-33.138947,2.5733764,-40.03024,-19.055983,-3.7400415,102.80131,-18.651335,0.9834047,-12.736546,-6.471772,9.2466135,1.1150088,24.610447,-27.117579,-16.915369,8.317139,12.289304,29.177183,27.989521,-31.557526,33.094017,-10.645392,26.792753,2.534643,-37.347126
194,-1.0634050369262695,141.8047637939453,72.4791259765625,4.037724444948957,7.68809598264647,97.25060982053031,-0.5624899,-7.588206,1.3460155,30.758406,-32.040554,2.1709769,-41.172882,-18.33344,-5.0750175,99.45593,-18.20522,1.1189796,-13.813404,-5.526348,8.891577,0.5294711,24.931599,-27.512564,-17.746836,8.477405,11.592352,28.4919,28.831436,-31.471905,32.225594,-10.983519,27.101828,1.6091423,-35.67196
195,-1.0103683471679688,143.49667358398438,72.83491516113281,3.2462397476084193,7.853212702350693,97.35560221396338,1.4632288,-6.413852,0.7649225,29.052536,-30.665602,1.7401898,-42.052402,-17.545794,-6.4757595,95.643715,-17.66972,1.2671187,-14.794698,-4.551282,8.566409,0.102106854,25.373158,-27.948015,-18.611177,8.684003,10.916356,27.823412,29.57116,-31.441702,31.389427,-11.271267,26.94859,0.6111085,-33.678146
196,-0.946420431137085,145.2144012451172,73.219970703125,2.469638585954377,8.031660419464867,97.351735424581,3.3203697,-5.226506,0.40355387,27.608992,-29.043633,1.2817451,-42.69811,-16.65544,-7.82964,91.4223,-16.987392,1.4947206,-15.64722,-3.5944595,8.267002,-0.15789247,25.920734,-28.402483,-19.522556,8.982221,10.312808,27.209013,30.192837,-31.454641,30.679846,-11.562103,26.426243,-0.25314066,-31.930927
197,-0.8733539581298828,146.9521484375,73.62161254882812,1.6800802388214664,8.226199521991036,97.21937904710953,5.024936,-3.9952075,0.30768415,26.438848,-27.118465,0.779332,-43.088585,-15.648068,-9.202022,86.71118,-16.103958,1.7983268,-16.355045,-2.6274805,7.990556,-0.25642627,26.569172,-28.872253,-20.456732,9.439319,9.805852,26.678375,30.661615,-31.507763,30.131237,-11.831333,25.38373,-0.948576,-30.520893
198,-0.8095142245292664,148.69964599609375,74.01981353759766,0.8676578914222226,8.427324496154483,96.97100932269349,6.6318045,-2.7225058,0.41440448,25.46143,-24.899492,0.2400497,-43.201233,-14.498464,-10.627948,81.4828,-15.054312,2.1664855,-16.94201,-1.6382672,7.7310677,-0.19299471,27.320614,-29.353594,-21.412256,10.022056,9.361786,26.202362,30.975918,-31.602564,29.70322,-12.035055,23.81901,-1.6127548,-29.182087
199,-0.730351984500885,150.4596710205078,74.41402435302734,0.10063223919480986,8.622301910927922,96.63871446626517,8.115481,-1.5177184,0.6232398,24.70209,-22.50041,-0.3020748,-43.074974,-13.183393,-11.933274,75.85346,-13.910521,2.6312923,-17.434961,-0.700083,7.4757056,0.04321346,28.169462,-29.828562,-22.42003,10.62669,8.945841,25.729778,31.16113,-31.73078,29.37603,-12.188892,22.02701,-2.2769067,-27.933874
200,-0.637072741985321,152.22251892089844,74.79185485839844,-0.5487298790585444,8.800838589608052,96.25912666379214,9.442703,-0.48697644,0.8333748,24.192068,-20.029125,-0.81676584,-42.758793,-11.721003,-12.929128,69.935425,-12.741407,3.1978962,-17.863111,0.11326286,7.208964,0.45941487,29.105347,-30.279217,-23.507404,11.149956,8.5239725,25.207964,31.242592,-31.875965,29.131893,-12.307349,20.300564,-2.9571006,-26.790138
201,-0.5290862917900085,154.00384521484375,75.14806365966797,-1.0761663628993252,8.989017724416422,95.81669174647195,10.587868,0.36432546,1.0633342,23.90219,-17.367609,-1.3013384,-42.242687,-10.077609,-13.537093,63.513508,-11.479919,3.8572924,-18.207697,0.79923856,6.8949976,1.0452031,30.127245,-30.71442,-24.651457,11.566254,8.08043,24.602987,31.20203,-32.028877,28.986946,-12.356764,18.607624,-3.6811464,-25.755653
202,-0.4248063564300537,155.80368041992188,75.47515869140625,-1.5086120894254897,9.178816652132511,95.31147426163541,11.601239,1.0709989,1.331007,23.790915,-14.4841585,-1.7919276,-41.470177,-8.305137,-13.8321085,56.528557,-10.089431,4.5697064,-18.469185,1.3820274,6.5455403,1.796649,31.236937,-31.130983,-25.840277,11.932842,7.6358666,23.947731,31.020426,-32.186638,28.948233,-12.325456,16.822687,-4.4297237,-24.824701
203,-0.31787362694740295,157.6221160888672,75.75727081298828,-1.812187152164337,9.312341664865581,94.80595885332814,12.558448,1.5843173,1.5388602,23.858114,-11.612701,-2.304576,-40.44076,-6.579227,-13.8524475,49.35177,-8.69986,5.2877007,-18.704424,1.8212081,6.214258,2.7224572,32.42448,-31.498041,-27.101864,12.272296,7.211324,23.287897,30.729973,-32.3412,28.975597,-12.262058,15.094371,-5.134116,-23.98468
204,-0.20444715023040771,159.44825744628906,75.98333740234375,-1.9653798227002146,9.332940648545952,94.36649036573343,13.520572,1.8712007,1.5905355,24.103664,-8.977058,-2.8291464,-39.162228,-5.05929,-13.666913,42.344524,-7.4198294,5.975729,-18.9725,2.0865288,5.9564824,3.8188295,33.671913,-31.790754,-28.447966,12.609588,6.8277903,22.668354,30.382364,-32.480938,29.023886,-12.228434,13.563042,-5.7216477,-23.21572
205,-0.09737253189086914,161.28170776367188,76.15766906738281,-1.8853360098567706,9.20799490487593,94.01329050250588,14.572819,1.8376864,1.3802363,24.401014,-6.603086,-3.3250966,-37.52574,-3.7845085,-13.195533,35.24241,-6.236171,6.703133,-19.2912,2.0958383,5.7598896,5.085307,34.970715,-32.01761,-29.88005,12.967534,6.515013,22.058712,29.982954,-32.604187,29.090939,-12.213691,12.192656,-6.1671524,-22.50726
206,0.009690612554550171,163.1189727783203,76.2745590209961,-1.5532169267439666,8.95404777181308,93.74419136363505,15.688819,1.4909104,0.95411175,24.75173,-4.3458295,-3.7740252,-35.49058,-2.7862823,-12.42219,27.85579,-5.0484133,7.442724,-19.659853,1.829684,5.5998178,6.5120163,36.32039,-32.183563,-31.369333,13.334118,6.2537,21.443869,29.532234,-32.70841,29.193012,-12.211626,10.918168,-6.502068,-21.86148
207,0.09531867504119873,164.9605712890625,76.32823181152344,-1.0401931557807682,8.593443570473626,93.58175323034504,16.745827,0.9595965,0.45782402,25.37483,-2.1865768,-4.1785626,-33.259815,-2.1591966,-11.543166,20.813953,-3.895879,8.065521,-20.090174,1.354089,5.505859,8.059198,37.71079,-32.275753,-32.875496,13.680547,5.9927993,20.892412,29.00565,-32.7788,29.315897,-12.226847,9.878439,-6.7359996,-21.272398
208,0.16545674204826355,166.7810821533203,76.3292007446289,-0.48818356268248037,8.180682962494343,93.50412972216888,17.557066,0.44160542,0.0861834,26.558556,-0.14962845,-4.5531197,-31.158976,-1.8553793,-10.78961,14.911161,-2.8825216,8.475744,-20.54542,0.81151044,5.4966226,9.669859,39.12065,-32.29615,-34.340393,13.97798,5.682624,20.475126,28.412363,-32.789974,29.436232,-12.281447,9.189377,-6.8771896,-20.733662
209,0.21981438994407654,168.57350158691406,76.28734588623047,0.0015228180826515273,7.766336116461394,93.47232571598362,17.959387,0.04192302,-0.09963307,28.555315,1.7401106,-4.8642077,-29.231981,-1.7380987,-10.25158,10.092239,-2.0930002,8.72923,-20.976822,0.30946046,5.5526695,11.2634535,40.532566,-32.302677,-35.729553,14.195383,5.3116937,20.216547,27.729969,-32.720726,29.548223,-12.339349,8.794676,-6.90694,-20.236406
210,0.2865639626979828,170.33151245117188,76.20757293701172,0.4140861409240347,7.358906794076734,93.43562648787436,17.983032,-0.20594916,-0.119214274,31.29087,3.4236944,-5.08133,-27.871668,-1.7598947,-9.8326235,7.036475,-1.9752148,8.882335,-21.326164,-0.13621207,5.6529574,12.814926,41.929783,-32.330246,-37.011524,14.35767,4.9089713,20.078014,26.955786,-32.56021,29.648527,-12.368333,8.656287,-6.822087,-19.779753
211,0.35414910316467285,172.0609893798828,76.136962890625,0.6291647597236277,6.992992612470658,93.30821423414996,17.665876,-0.12690158,0.14480872,34.628616,4.783054,-5.2611113,-27.650024,-1.790074,-9.495844,6.9472117,-2.8213797,8.810631,-21.489592,-0.41177502,5.8142304,14.330151,43.27879,-32.361694,-38.113438,14.518202,4.484845,20.039267,26.11774,-32.299595,29.711643,-12.381286,8.922233,-6.6532555,-19.371126
212,0.44562122225761414,173.75408935546875,76.083251953125,0.5569094360553839,6.689822347808068,93.02638982436267,17.09579,0.4036768,0.7684955,38.372074,5.7332497,-5.493094,-27.19954,-1.4344062,-9.26434,6.913903,-2.753828,8.360516,-21.386137,-0.4284739,6.055596,15.819221,44.53724,-32.377037,-38.957607,14.732695,4.0491095,20.077642,25.257627,-31.934578,29.71171,-12.403487,9.733584,-6.4289637,-19.020119
213,0.5433792471885681,175.3988037109375,76.00825500488281,0.09278054720045849,6.46549644323137,92.57946638063787,16.274475,1.5616285,1.9025946,42.627563,6.261721,-5.910626,-26.443192,-0.58546305,-9.19567,6.926127,-1.1362202,7.3585978,-20.977034,-0.06749432,6.394915,17.214462,45.6704,-32.444206,-39.484745,15.065484,3.5334547,20.21221,24.40526,-31.455734,29.609182,-12.449839,11.245191,-6.096382,-18.709019
214,0.630458652973175,177.0323944091797,75.87506103515625,-0.6664378597413765,6.268738802265213,92.03221982982765,15.262832,3.2610693,3.373349,47.39703,6.4333405,-6.414669,-26.795664,0.34631532,-9.302817,10.02055,0.06142003,5.90521,-20.331799,0.5787478,6.8252974,18.453884,46.661385,-32.618416,-39.68035,15.479475,2.9599638,20.439756,23.54277,-30.861874,29.411337,-12.49391,13.337249,-5.6532245,-18.447763
215,0.6978908777236938,178.6743621826172,75.65211486816406,-1.4606753439691156,6.014831682122444,91.4494762032712,14.238241,5.109939,4.779521,52.31609,6.289979,-6.801753,-27.775454,1.1297114,-9.507459,14.981678,0.33350366,4.276073,-19.55505,1.2320861,7.318718,19.617723,47.50283,-32.823242,-39.57903,15.884603,2.4718812,20.7002,22.639864,-30.17394,29.173216,-12.509719,15.741362,-5.2072506,-18.2848
216,0.7400858998298645,180.32626342773438,75.31847381591797,-2.093494778560763,5.668940459547657,90.85285624970507,13.284394,6.712938,5.8049545,57.064312,5.845323,-6.927881,-28.501945,1.752678,-9.616859,19.648958,-0.3219701,2.7635248,-18.720171,1.6869471,7.841371,20.825918,48.19448,-32.94054,-39.237766,16.181015,2.2078714,20.931808,21.627777,-29.428404,28.965239,-12.454083,18.215454,-4.874067,-18.261805
217,0.8029198050498962,181.95858764648438,74.94915771484375,-2.5632046793574,5.216337583529612,90.19182249935041,12.404816,7.9332123,6.446082,61.678932,5.0017643,-6.780921,-29.167307,2.2776349,-9.503629,24.445286,-2.490767,1.348759,-17.799217,1.9387143,8.416902,22.181082,48.736584,-32.892048,-38.72039,16.373302,2.1913142,21.092276,20.534824,-28.648031,28.784822,-12.365342,20.998714,-4.76215,-18.30738
218,0.8893334269523621,183.5323486328125,74.5527572631836,-2.9312790466458645,4.682264238985858,89.4779337913475,11.548669,8.860993,6.878873,66.29149,3.7889593,-6.5042696,-29.870516,2.8040712,-9.222096,29.680077,-5.683023,-0.054112084,-16.790735,2.0714228,9.049736,23.650862,49.130714,-32.712418,-38.017136,16.496704,2.3485346,21.216429,19.368212,-27.841722,28.615263,-12.261629,24.141832,-4.7950196,-18.420664
219,0.9685306549072266,185.0884552001953,74.10618591308594,-3.260992720845339,4.156642540057104,88.75212181007454,10.609239,9.598505,7.1173716,70.801674,2.3708088,-6.2424726,-30.39638,3.4359782,-8.869422,34.607124,-9.127423,-1.2793549,-15.738439,2.183941,9.674077,25.155937,49.37226,-32.459396,-37.072704,16.502037,2.6709201,21.364504,18.093225,-27.027369,28.487898,-12.120634,27.081602,-4.825182,-18.749424
220,1.0580202341079712,186.6652374267578,73.65791320800781,-3.6432631619746365,3.732386099200754,88.04740076288428,9.478047,10.309774,7.1664953,75.11134,0.9025213,-6.1206884,-30.565258,4.2008524,-8.571348,38.565277,-12.12326,-2.1866207,-14.684848,2.391823,10.219513,26.61324,49.449467,-32.19441,-35.829006,16.3426,3.1491833,21.59659,16.687891,-26.226984,28.430756,-11.934119,29.25082,-4.7131476,-19.457375
221,1.1200542449951172,188.25100708007812,73.21287536621094,-4.170697700192552,3.437529028643862,87.28495214037838,8.154951,11.066011,7.0229926,79.240814,-0.6434679,-6.274868,-30.34812,5.1459565,-8.349946,41.43316,-14.623464,-2.702789,-13.5806055,2.7884662,10.677704,28.043158,49.33297,-31.926641,-34.187336,16.06753,3.737688,21.924553,15.116777,-25.46071,28.467363,-11.722599,30.511108,-4.4868345,-20.650133
222,1.154973030090332,189.8087615966797,72.78569793701172,-4.807723041308348,3.230617167827476,86.46100361690546,6.672094,11.778467,6.7124715,83.25072,-2.3440816,-6.6289577,-29.892878,6.2162323,-8.153232,43.660515,-17.02904,-2.9375207,-12.416151,3.3352349,11.064916,29.446785,49.00351,-31.650637,-32.182735,15.679655,4.451728,22.315235,13.42072,-24.734348,28.562557,-11.511496,31.17389,-4.203128,-22.22625
223,1.1964033842086792,191.3740997314453,72.40109252929688,-5.445275567822008,3.1002390925895105,85.7236331973654,4.9679685,12.41548,6.2515144,87.089294,-4.1080093,-6.95888,-29.26944,7.233146,-7.9964895,45.43611,-19.320597,-3.027375,-11.295749,3.9347534,11.357497,30.690773,48.47686,-31.405802,-29.944012,15.047296,5.3723187,22.769209,11.668978,-24.044355,28.659246,-11.281805,31.362772,-3.7534773,-24.044926
224,1.257401466369629,192.91656494140625,72.05291748046875,-5.972421048272293,3.0400274761736212,85.2220419895571,2.9672465,12.959138,5.629142,90.701294,-5.8255486,-7.03114,-28.539934,8.034468,-7.899301,46.917683,-21.461721,-3.1064715,-10.319412,4.4761395,11.54724,31.659212,47.795444,-31.222576,-27.615725,14.035781,6.5804048,23.304876,9.940857,-23.382683,28.70338,-11.018481,31.195,-3.0253208,-25.96065
225,1.3168308734893799,194.4353790283203,71.76258850097656,-6.36779674644832,3.1016543416263285,85.03003157683776,0.50842786,13.393011,4.696496,94.16686,-7.457265,-6.7154818,-27.740572,8.563729,-7.905344,48.086315,-23.455252,-3.1889644,-9.536158,4.930848,11.620006,32.265347,46.984867,-31.151672,-25.031757,12.3401985,8.281854,24.030983,8.192922,-22.733433,28.71629,-10.688368,30.464941,-1.837172,-28.107111
226,1.365617036819458,195.9444580078125,71.52811431884766,-6.691612602621079,3.2780537178542555,85.05743825939066,-2.337254,13.715933,3.4767873,97.47924,-9.038023,-6.15118,-26.825584,8.9054365,-7.9998474,48.86971,-25.316395,-3.2069683,-8.877781,5.336565,11.597546,32.598488,46.052994,-31.147686,-22.194286,10.082479,10.350965,24.970963,6.398741,-22.091272,28.709595,-10.307711,29.227661,-0.24265431,-30.472372
227,1.3983922004699707,197.461669921875,71.34508514404297,-6.961651585237444,3.47391134591417,85.19710683395867,-5.3173385,13.973827,2.2150617,100.47114,-10.574152,-5.495289,-25.75421,9.136963,-8.1176195,49.350185,-27.01563,-3.1770663,-8.265518,5.691767,11.537182,32.85786,45.032814,-31.070324,-19.545639,7.794352,12.38422,25.988884,4.6480513,-21.470428,28.637949,-9.926325,27.97674,1.4749055,-32.710983
228,1.4175128936767578,198.9980010986328,71.2159423828125,-7.192106552622939,3.592042047272789,85.34436908229146,-8.188308,14.250381,1.1606256,102.974236,-12.075821,-4.89115,-24.481215,9.33383,-8.190326,49.599216,-28.516062,-3.1182477,-7.6234384,6.000673,11.496581,33.269188,43.97897,-30.77273,-17.568909,6.040846,14.005714,26.885939,3.0240479,-20.901152,28.464808,-9.592235,27.172668,2.9790483,-34.516323
229,1.4245082139968872,200.5196075439453,71.12804412841797,-7.407496830792492,3.576200072665579,85.51962365922357,-10.9199,14.641691,0.30980313,104.99059,-13.598145,-4.377471,-22.924314,9.517447,-8.252426,49.58313,-29.830338,-3.0363884,-6.958107,6.2886925,11.552342,33.95187,42.93616,-30.143023,-16.52028,5.0494633,15.23936,27.65206,1.5445498,-20.402,28.15736,-9.353787,26.951626,4.2744,-35.888073
230,1.4296125173568726,202.0178985595703,71.08316802978516,-7.596277352851522,3.48736690116464,85.76251334763381,-13.652378,15.103435,-0.4560613,106.59441,-15.109401,-3.8616483,-21.124838,9.65514,-8.328723,49.266483,-30.967287,-2.9243455,-6.3010263,6.5478735,11.667493,34.839146,41.929188,-29.249758,-16.200483,4.502799,16.264881,28.342674,0.17144169,-19.976036,27.762302,-9.198855,27.04783,5.478551,-36.98821
231,1.4184232950210571,203.56094360351562,71.09614562988281,-7.720290532376126,3.401158251489312,85.99557410002926,-16.390574,15.536789,-1.0685213,107.72587,-16.498276,-3.310928,-19.234516,9.739317,-8.33664,48.751667,-31.887884,-2.7848978,-5.60654,6.7406883,11.728367,35.863987,40.981544,-28.232195,-16.409489,4.173715,16.963259,28.821201,-1.0909371,-19.637272,27.359184,-9.08602,27.281628,6.4050374,-37.7715
232,1.4072479009628296,205.08303833007812,71.14772033691406,-7.738618708091012,3.3921640825459023,86.14068386770289,-19.127558,15.848722,-1.4489712,108.32363,-17.653229,-2.6960406,-17.40152,9.753912,-8.191757,48.13537,-32.556423,-2.617772,-4.8230095,6.827584,11.624989,36.952816,40.112785,-27.230738,-16.94074,3.8371527,17.209381,28.958471,-2.215165,-19.404943,27.016596,-8.9986,27.471544,6.8732657,-38.1831
233,1.4044512510299683,206.60763549804688,71.24494171142578,-7.634178109116182,3.496580888192578,86.14570519365346,-21.917307,16.0711,-1.5079687,108.37858,-18.58029,-1.9514937,-15.684441,9.692301,-7.8374753,47.44131,-32.992737,-2.4222205,-3.88091,6.789033,11.307479,38.151123,39.338215,-26.233047,-17.923851,3.4585276,16.836227,28.642023,-3.161623,-19.29659,26.69699,-8.995911,27.748907,6.7491097,-38.153114
234,1.390499472618103,208.1824951171875,71.40638732910156,-7.429039563663422,3.665960654391676,86.06083279554451,-24.71729,16.250916,-1.2788436,107.91223,-19.33539,-1.1205785,-13.999054,9.549379,-7.329882,46.626987,-33.213425,-2.1950753,-2.8078008,6.63938,10.857026,39.484093,38.66205,-25.188154,-19.438475,3.1390295,15.962366,27.959774,-3.9265013,-19.317575,26.367537,-9.107463,28.151543,6.16107,-37.725456
235,1.3756023645401,209.77304077148438,71.62528228759766,-7.145814275663452,3.848689877655817,85.96199818734368,-27.364117,16.32478,-0.8568364,106.90744,-19.885618,-0.33042675,-12.28054,9.312151,-6.756429,45.693905,-33.172806,-1.9342744,-1.6994289,6.3916883,10.35676,40.831715,38.076786,-24.181784,-21.174044,2.8598454,14.887509,27.09027,-4.5336003,-19.466412,26.100811,-9.265181,28.3569,5.3231525,-37.012867
236,1.3414185047149658,211.40728759765625,71.90443420410156,-6.808120233778815,3.9937765807711174,85.92547217574437,-29.701029,16.224054,-0.35580897,105.34788,-20.193861,0.28215644,-10.461626,8.973016,-6.205959,44.63817,-32.827385,-1.6388639,-0.6538863,6.0707707,9.882682,42.04528,37.564117,-23.312256,-22.782988,2.6161315,13.906853,26.214247,-5.017387,-19.737518,25.969948,-9.381863,28.04114,4.439024,-36.137558
237,1.3033500909805298,213.05418395996094,72.23092651367188,-6.402720561354359,4.08151569342677,85.95019085438359,-31.677494,15.919803,0.25132388,103.18539,-20.23446,0.64601034,-8.50055,8.5195265,-5.65001,43.434563,-32.17163,-1.3056406,0.32186624,5.669395,9.44349,43.07636,37.11438,-22.618355,-24.197653,2.4363914,13.045199,25.324844,-5.390622,-20.137594,26.00477,-9.409043,27.099083,3.453722,-35.05611
238,1.2612577676773071,214.72727966308594,72.61064147949219,-5.922702483284092,4.142184034477067,86.0040893173788,-33.353138,15.455746,1.017274,100.43674,-20.04944,0.8337878,-6.4480658,7.954391,-5.064198,42.097977,-31.232725,-0.93580276,1.2707745,5.1861825,9.004241,43.98004,36.722862,-22.054615,-25.555174,2.3143227,12.161204,24.344984,-5.635416,-20.670399,26.160688,-9.395382,25.729107,2.2685633,-33.749863
239,1.2123609781265259,216.42642211914062,73.03953552246094,-5.402189914242898,4.199226112196215,86.11788076157113,-34.752087,14.8629465,1.8595138,97.1839,-19.698414,0.9319487,-4.376914,7.3035183,-4.544182,40.690666,-30.009329,-0.53849036,2.1639416,4.660936,8.567391,44.75967,36.376625,-21.592073,-26.81086,2.211297,11.301126,23.349115,-5.7414293,-21.31954,26.404644,-9.393918,24.038725,1.0191514,-32.380352
240,1.1444284915924072,218.1498565673828,73.49353790283203,-4.875063375056653,4.275291096510148,86.32221327060407,-35.90242,14.165928,2.6906085,93.50212,-19.237005,1.0229971,-2.354138,6.601372,-4.181874,39.27563,-28.500986,-0.12351157,2.9688437,4.131045,8.130612,45.419617,36.055843,-21.201473,-27.91437,2.096548,10.511739,22.410374,-5.7047477,-22.05426,26.706635,-9.444202,22.11464,-0.15027885,-31.0958
