unveil-humanoid-operators/unveil-humanoid-operators.github.io/feature-analysis-animation/data/feature_matrix_instances/height_root_translate_rom_walking_A055_walk_ff_stop_180_R_002__A055.csv
Frame,root_translateX,root_translateY,root_translateZ,root_rotateX,root_rotateY,root_rotateZ,left_hip_pitch_joint_dof,left_hip_roll_joint_dof,left_hip_yaw_joint_dof,left_knee_joint_dof,left_ankle_pitch_joint_dof,left_ankle_roll_joint_dof,right_hip_pitch_joint_dof,right_hip_roll_joint_dof,right_hip_yaw_joint_dof,right_knee_joint_dof,right_ankle_pitch_joint_dof,right_ankle_roll_joint_dof,waist_yaw_joint_dof,waist_roll_joint_dof,waist_pitch_joint_dof,left_shoulder_pitch_joint_dof,left_shoulder_roll_joint_dof,left_shoulder_yaw_joint_dof,left_elbow_joint_dof,left_wrist_roll_joint_dof,left_wrist_pitch_joint_dof,left_wrist_yaw_joint_dof,right_shoulder_pitch_joint_dof,right_shoulder_roll_joint_dof,right_shoulder_yaw_joint_dof,right_elbow_joint_dof,right_wrist_roll_joint_dof,right_wrist_pitch_joint_dof,right_wrist_yaw_joint_dof
0,-0.1887759119272232,2.0006680488586426,76.53177642822266,3.5914616244945075,4.387198536138796,-97.16583021672253,-16.38114,1.946263,22.064209,20.238691,-7.8461394,1.5525528,-10.815903,-23.469597,-13.233152,75.12791,-10.092015,-4.774008,-0.729034,-4.4978347,3.1921055,4.831678,13.95219,-37.174835,60.642124,1.1470295,11.248816,13.110831,-6.014722,-13.720507,40.955856,60.86883,-12.886946,6.6344905,-15.9335785
1,-0.1301238238811493,1.32136869430542,76.64742279052734,3.6681728921555043,4.396623337541377,-97.13248031488511,-15.366043,1.5039352,22.04185,19.191319,-7.831869,1.4869158,-12.1404085,-23.802387,-13.365802,75.98114,-10.823006,-5.2822223,-0.9817103,-4.4853354,3.1621425,4.3044767,14.039074,-37.30269,60.457615,1.3831438,11.329305,13.0946455,-5.454136,-13.650445,40.735264,60.92741,-12.503631,6.4879737,-16.548643
2,-0.06348954886198044,0.6800230741500854,76.7511215209961,3.744130065686161,4.4088253045572605,-97.0945812388614,-14.350843,1.0583736,22.00937,18.134436,-7.812267,1.4260287,-13.468062,-24.157679,-13.502631,76.89122,-11.590869,-5.8381042,-1.2229769,-4.484961,3.1254742,3.7810209,14.156454,-37.47086,60.263493,1.6010624,11.409181,13.069345,-4.8818016,-13.560427,40.498188,60.988518,-12.113323,6.322921,-17.175491
3,-0.0004073650052305311,0.03971704840660095,76.85850524902344,3.809624953635971,4.414628509314152,-97.06604224706192,-13.326433,0.6284726,21.973059,17.073545,-7.792552,1.3701198,-14.786399,-24.448137,-13.6124935,77.67842,-12.281669,-6.2940702,-1.4591299,-4.4838347,3.1059525,3.2739708,14.296595,-37.60342,60.02973,1.8347476,11.493899,13.052111,-4.3315477,-13.45585,40.25984,61.058643,-11.75359,6.1817694,-17.77844
4,0.050005409866571426,-0.6005371809005737,76.95740509033203,3.854972597493175,4.404659137429598,-97.0607653550714,-12.28153,0.23234329,21.939936,16.009974,-7.7758865,1.3185693,-16.083035,-24.586363,-13.666325,78.1618,-12.777139,-6.498679,-1.6900846,-4.4739423,3.1260073,2.7833004,14.456933,-37.641933,59.737953,2.1050146,11.587127,13.059596,-3.8035455,-13.340675,40.00111,61.116837,-11.493683,6.10996,-18.32208
5,0.0982000008225441,-1.2512588500976562,77.05948638916016,3.8798780321397164,4.363743747062042,-97.08652904889381,-11.199806,-0.12669091,21.91044,14.94878,-7.7616916,1.2839652,-17.33163,-24.585527,-13.696956,78.29265,-13.020022,-6.3908653,-1.9104984,-4.455421,3.2105594,2.3067799,14.636971,-37.56916,59.38108,2.4605327,11.695977,13.101725,-3.3120234,-13.217822,39.72078,61.163364,-11.350186,6.1463003,-18.832956
6,0.16035988926887512,-1.8772821426391602,77.13899230957031,3.888903011225463,4.30089436850648,-97.13420963854081,-10.087685,-0.45933622,21.881996,13.879609,-7.7470775,1.2602363,-18.543686,-24.48093,-13.714606,78.16601,-13.080919,-6.05914,-2.1275122,-4.4304748,3.3398557,1.8423884,14.835617,-37.41671,58.974884,2.871427,11.816253,13.167409,-2.8344715,-13.0887785,39.415752,61.191204,-11.304558,6.2609305,-19.31854
7,0.20117059350013733,-2.5123846530914307,77.20822143554688,3.8817566460565343,4.243159258197112,-97.19203854841022,-8.977769,-0.7667067,21.857708,12.805248,-7.736911,1.2187315,-19.760492,-24.22229,-13.660727,77.81309,-13.034698,-5.579512,-2.343953,-4.397475,3.478342,1.3954128,15.051347,-37.19357,58.524117,3.2622042,11.936209,13.242762,-2.3877084,-12.956012,39.11915,61.223915,-11.287038,6.3940425,-19.715107
8,0.2301339954137802,-3.1462385654449463,77.27186584472656,3.8580950274957244,4.217661821819535,-97.24845013567842,-7.9045706,-1.0491076,21.840826,11.731904,-7.736857,1.1319628,-21.022293,-23.76206,-13.475548,77.26625,-12.959081,-5.028788,-2.570774,-4.353716,3.5859327,0.9727115,15.282527,-36.90696,58.036346,3.551704,12.043646,13.31428,-1.9545043,-12.822215,38.8368,61.25973,-11.272768,6.486097,-19.958498
9,0.25718632340431213,-3.7815165519714355,77.31831359863281,3.812180961216478,4.232813129369438,-97.30879486601934,-6.872588,-1.3019575,21.842842,10.647874,-7.746228,0.9965999,-22.357372,-23.048782,-13.109181,76.526085,-12.883617,-4.436062,-2.8038774,-4.292101,3.6593628,0.5776166,15.52811,-36.5294,57.49633,3.7398083,12.147206,13.361115,-1.5715837,-12.690621,38.59085,61.323135,-11.214674,6.5193024,-19.994303
10,0.2773321270942688,-4.412674903869629,77.34516143798828,3.7462118455080726,4.272999450426849,-97.37531012704143,-5.8595953,-1.529453,21.859314,9.543518,-7.758594,0.8261794,-23.72551,-22.127506,-12.608448,75.574326,-12.770604,-3.7620173,-3.0491428,-4.2144904,3.7132876,0.21149975,15.78786,-36.06012,56.907486,3.8620436,12.249089,13.395862,-1.1899986,-12.561796,38.33579,61.37154,-11.193184,6.5276217,-19.868093
11,0.3056849241256714,-5.049326419830322,77.36529541015625,3.670595646358925,4.329482296718066,-97.43120666676586,-4.862111,-1.7439125,21.871256,8.431564,-7.7714896,0.6197283,-25.064888,-21.097685,-12.056425,74.41229,-12.597213,-2.982259,-3.3031592,-4.1317773,3.7546864,-0.14580369,16.062193,-35.570423,56.30489,3.8905947,12.327453,13.457562,-0.8215813,-12.435729,38.107853,61.419685,-11.178059,6.524859,-19.668161
12,0.33642953634262085,-5.683197975158691,77.37279510498047,3.59477258148423,4.393965869455344,-97.46005411221574,-3.8685439,-1.9592112,21.85848,7.3049912,-7.7748637,0.3764909,-26.319284,-20.055437,-11.532317,73.04016,-12.338741,-2.0694432,-3.5640306,-4.054651,3.7880335,-0.5119633,16.351192,-35.12948,55.723656,3.7989275,12.36023,13.584951,-0.47270846,-12.31261,37.938217,61.480953,-11.149165,6.524495,-19.482906
13,0.3468441367149353,-6.313745498657227,77.36661529541016,3.512646777615235,4.472427929399876,-97.45814057450025,-3.3206902,-1.9834017,21.833755,7.159575,-8.298666,0.05572715,-27.480185,-18.97536,-11.028479,71.41293,-11.978485,-0.90376383,-3.8356423,-3.9783373,3.8058746,-0.8945036,16.656416,-34.75711,55.16859,3.5299962,12.335798,13.819811,-0.13601218,-12.192152,37.82159,61.548203,-11.128065,6.536354,-19.297314
14,0.35401684045791626,-6.955661773681641,77.34760284423828,3.4224907155161257,4.566391740366974,-97.43257830049808,-2.8315592,-1.9781177,21.796522,7.106626,-8.877436,-0.32285222,-28.56818,-17.832151,-10.5047,69.53719,-11.54137,0.45757005,-4.1161203,-3.9005697,3.809025,-1.2782606,16.977066,-34.413757,54.617844,3.1212323,12.266326,14.130583,0.1876606,-12.074417,37.74521,61.620106,-11.113945,6.5507283,-19.07688
15,0.3658885061740875,-7.600054740905762,77.3178482055664,3.341379626279209,4.661639505104991,-97.3836724106738,-2.3463056,-1.9823289,21.73997,7.0548863,-9.448611,-0.69286126,-29.579239,-16.717573,-9.990786,67.49269,-11.056515,1.7762814,-4.40695,-3.8343294,3.8063452,-1.6649598,17.310148,-34.09502,54.088943,2.6557617,12.164863,14.445733,0.540884,-11.958938,37.678913,61.67164,-11.130864,6.5543723,-18.88055
16,0.3589683771133423,-8.24634075164795,77.28593444824219,3.2868311552802454,4.744295574235403,-97.31301051586189,-1.8505039,-2.0181103,21.658295,7.0045724,-9.996764,-0.9891986,-30.516262,-15.718246,-9.516645,65.36574,-10.544992,2.8192487,-4.6978455,-3.7930791,3.8129046,-2.060756,17.649866,-33.800236,53.59718,2.222754,12.046792,14.695358,0.9114569,-11.845454,37.637707,61.717987,-11.132224,6.532575,-18.768154
17,0.3588961660861969,-8.897417068481445,77.23844909667969,3.268474356641477,4.811323233693999,-97.21574283635586,-1.3408072,-2.099751,21.542894,6.9508133,-10.507664,-1.1794595,-31.398855,-14.826998,-9.050888,63.16877,-9.97109,3.516559,-4.9818206,-3.7852829,3.8385859,-2.4880643,17.993858,-33.54527,53.162586,1.804544,11.89512,14.869031,1.2262338,-11.736106,37.687466,61.82057,-10.981957,6.46727,-18.7759
18,0.34883594512939453,-9.55288028717041,77.18231201171875,3.2768191098889,4.869807326100913,-97.09373288276988,-0.82474774,-2.2139335,21.399595,6.895726,-10.99457,-1.3023932,-32.220753,-14.007681,-8.584043,60.86012,-9.329947,3.9970734,-5.2699213,-3.8029184,3.8690693,-2.931936,18.340899,-33.31787,52.773277,1.3721132,11.709265,15.000582,1.5407118,-11.630427,37.778072,61.933254,-10.778198,6.371689,-18.864674
19,0.33833709359169006,-10.212530136108398,77.10909271240234,3.297636759811914,4.9212789346047865,-96.96006837311414,-0.30040577,-2.341515,21.24227,6.8425593,-11.474578,-1.4025565,-32.95476,-13.292958,-8.185101,58.45348,-8.685268,4.331436,-5.54983,-3.831759,3.9039028,-3.3825226,18.686634,-33.10975,52.410988,0.98233163,11.5293455,15.090986,1.8501146,-11.5281,37.911366,62.052025,-10.596755,6.272847,-18.984741
20,0.33790338039398193,-10.877955436706543,77.02474975585938,3.315233917507932,4.967482410584612,-96.82682287372961,0.23258404,-2.461279,21.085703,6.7969127,-11.9697,-1.5229843,-33.57591,-12.70834,-7.929051,55.958668,-8.098938,4.5934887,-5.8233557,-3.8563902,3.93278,-3.8191445,19.024792,-32.901096,52.060028,0.69301486,11.395265,15.141269,2.2289367,-11.427106,38.018982,62.11522,-10.615797,6.2007017,-19.085901
21,0.3291175067424774,-11.537898063659668,76.93406677246094,3.341825265338676,5.00520201023779,-96.69563855834838,0.77649266,-2.5864277,20.932209,6.7576275,-12.479335,-1.6727105,-34.072464,-12.261985,-7.832827,53.347893,-7.569497,4.789649,-6.0636663,-3.8893456,3.9747136,-4.27218,19.35048,-32.708027,51.72716,0.52228236,11.31608,15.137444,2.5440304,-11.329641,38.23616,62.225227,-10.719667,6.159786,-19.173851
22,0.30954065918922424,-12.213789939880371,76.83289337158203,3.394413726495684,5.03301850059902,-96.56357437189904,1.3138427,-2.730007,20.780626,6.766577,-13.019445,-1.8277451,-34.46569,-11.930766,-7.8520207,50.62498,-7.0620995,4.8996863,-6.2897468,-3.9471068,4.018582,-4.7296224,19.662308,-32.51859,51.421085,0.44391292,11.270964,15.084175,2.8768096,-11.234133,38.48814,62.324577,-10.958124,6.138062,-19.268541
23,0.30050644278526306,-12.887043952941895,76.72102355957031,3.4558916444487418,5.060106211605512,-96.4280456317545,1.8585187,-2.8784246,20.629211,6.7763677,-13.569019,-1.9855188,-34.754368,-11.681536,-7.9932923,47.786453,-6.568191,4.9547086,-6.5248103,-4.0099216,4.039851,-5.1665773,19.959642,-32.32998,51.14024,0.4321388,11.2558,15.015203,3.328564,-11.139376,38.64358,62.33453,-11.38123,6.1316996,-19.345562
24,0.2797776758670807,-13.568327903747559,76.59730529785156,3.523980244161988,5.0936189729291526,-96.2895122034136,2.4075112,-3.0269356,20.482767,6.785564,-14.133073,-2.1409779,-34.94347,-11.495651,-8.245169,44.838596,-6.0825877,4.9871073,-6.7262106,-4.0706882,4.063436,-5.612876,20.240456,-32.18878,50.876083,0.46225095,11.265857,14.968372,3.582368,-11.051689,38.959156,62.48097,-11.483515,6.1240187,-19.387997
25,0.25108546018600464,-14.26699161529541,76.4610366821289,3.6015952620293437,5.1324366678830495,-96.15076036025846,2.9651601,-3.1788943,20.347513,6.793997,-14.719295,-2.2866356,-35.022568,-11.379082,-8.619925,41.75421,-5.613084,4.9815526,-6.9512253,-4.1320653,4.047341,-6.0066543,20.503494,-32.039524,50.625443,0.5503663,11.315434,14.947923,3.9728732,-10.966563,39.126205,62.523956,-11.695392,6.1172414,-19.385174
26,0.22606469690799713,-14.970366477966309,76.32540130615234,3.6889751002002886,5.172203188762567,-96.00924826429616,3.5335746,-3.3372564,20.21769,6.800364,-15.322264,-2.4256518,-34.984856,-11.317232,-9.128024,38.51999,-5.149273,4.9442663,-7.1613946,-4.1952753,4.0209413,-6.3967767,20.746975,-31.920277,50.40015,0.69449264,11.40145,14.938617,4.3226457,-10.886861,39.320198,62.593742,-11.819035,6.1111727,-19.351341
27,0.2017902433872223,-15.682047843933105,76.17725372314453,3.7800287315878127,5.213739872547819,-95.85579219399905,4.105621,-3.4955428,20.079105,6.8066425,-15.930454,-2.5698323,-34.83594,-11.270229,-9.75193,35.15609,-4.6554418,4.933707,-7.377024,-4.255795,3.9796586,-6.772675,20.973446,-31.816248,50.195282,0.88033605,11.494216,14.933793,4.7088575,-10.812232,39.46667,62.62057,-11.96044,6.121675,-19.28753
28,0.1793096959590912,-16.39005470275879,76.03296661376953,3.869929394336117,5.25678530144758,-95.6795819525545,4.677439,-3.6480274,19.916183,6.8114023,-16.530409,-2.7326193,-34.5817,-11.208761,-10.470383,31.682743,-4.0950184,5.00116,-7.5952187,-4.3103504,3.9354353,-7.152452,21.187885,-31.743189,50.010456,1.0816585,11.563992,14.928905,5.08725,-10.743988,39.602333,62.62071,-12.058503,6.1606727,-19.196312
29,0.1436120569705963,-17.109893798828125,75.88085174560547,3.957975768048382,5.299334267502334,-95.47387336177455,5.2489586,-3.7919035,19.723856,6.8161607,-17.123236,-2.933279,-34.181156,-11.164719,-11.390815,28.033848,-3.4235091,5.167151,-7.8252387,-4.3596272,3.8921173,-7.5330877,21.394495,-31.697506,49.842865,1.3187015,11.596947,14.922617,5.4716325,-10.6831875,39.70595,62.569004,-12.127454,6.2597427,-19.054358
30,0.09371773153543472,-17.840030670166016,75.70337677001953,4.057159627374006,5.331870426010417,-95.23324566639121,5.834132,-3.9416764,19.499123,6.818424,-17.714163,-3.1595345,-33.615543,-11.135981,-12.49421,24.171951,-2.6430416,5.41184,-8.07422,-4.416687,3.853987,-7.9041657,21.59405,-31.67311,49.684784,1.5989221,11.61149,14.916673,5.864341,-10.629359,39.781784,62.472095,-12.168946,6.4027023,-18.867954
31,0.0754680186510086,-18.56789779663086,75.51114654541016,4.187166625871684,5.340070514542384,-94.94566004324744,6.44739,-4.1199055,19.224905,6.8186865,-18.297756,-3.3773577,-32.924385,-11.07384,-13.561934,20.165821,-1.7916236,5.710242,-8.354266,-4.5018487,3.8262746,-8.271411,21.78898,-31.678026,49.537888,1.8655854,11.625503,14.910131,6.2648277,-10.5811615,39.847763,62.354534,-12.192391,6.532206,-18.683369
32,0.026902059093117714,-19.31025505065918,75.30728912353516,4.3693871764017,5.308712981805943,-94.59800524157666,7.102961,-4.3495774,18.881681,6.819945,-18.870253,-3.5521872,-32.15217,-10.9612465,-14.369889,16.1028,-0.9257529,6.0240927,-8.677675,-4.638392,3.8136773,-8.621863,21.9803,-31.70482,49.387985,2.0812483,11.658116,14.901455,6.6739283,-10.535915,39.920765,62.239986,-12.206652,6.590904,-18.5469
33,-0.0281468965113163,-20.063186645507812,75.08052062988281,4.6321263504668355,5.23046982077832,-94.17481395147075,7.810677,-4.6617317,18.451712,6.819922,-19.430775,-3.6500192,-31.266169,-10.835643,-14.845031,11.870569,-0.043178752,6.3351727,-9.057199,-4.8572345,3.8112235,-8.979184,22.165907,-31.776217,49.25496,2.2204213,11.727596,14.894835,7.0979695,-10.493016,40.009033,62.130287,-12.203345,6.5352273,-18.474165
34,-0.07993035763502121,-20.83196449279785,74.83744049072266,4.966813113441552,5.102249038879941,-93.6730210749028,8.572522,-5.0426273,17.9296,6.8187833,-19.980335,-3.6962903,-30.071249,-10.704841,-15.149639,7.098336,1.0691034,6.6474295,-9.4967985,-5.151806,3.8239415,-9.321439,22.347542,-31.872599,49.121185,2.3265502,11.82051,14.888235,7.5375085,-10.449849,40.102196,62.01256,-12.181321,6.4054093,-18.439468
35,-0.14556445181369781,-21.60268211364746,74.5905532836914,5.312486069713963,4.941912991722331,-93.13023449219244,9.368847,-5.4187403,17.348259,6.8219824,-20.519932,-3.7515323,-30.827848,-11.129259,-14.934912,6.740478,-0.0960651,6.9492292,-9.966711,-5.441961,3.8467383,-9.669819,22.480473,-31.980885,49.03344,2.4064722,11.901189,14.878957,7.978119,-10.418158,40.192116,61.9016,-12.157814,6.270177,-18.428566
36,-0.21485891938209534,-22.372697830200195,74.34255981445312,5.601975214356765,4.778729961361947,-92.59526016416662,10.17157,-5.7130256,16.757437,6.8283763,-21.048183,-3.8767707,-31.584675,-11.501716,-14.64407,6.6271143,-1.2261673,7.2133813,-10.427714,-5.6829457,3.8904145,-9.941116,22.67542,-32.08104,48.860218,2.4418588,11.945176,14.851528,8.391284,-10.371273,40.272343,61.804943,-12.153964,6.1945705,-18.42649
37,-0.2828589975833893,-23.16649627685547,74.09754180908203,5.81511942565752,4.622496409540525,-92.0708570727798,10.971761,-5.90877,16.157148,6.834558,-21.575968,-4.1162376,-32.29148,-11.753826,-14.172011,6.571572,-2.268153,7.403624,-10.874365,-5.811913,3.9346037,-10.200582,22.799086,-32.15319,48.730686,2.4721494,11.922285,14.801547,8.789368,-10.341741,40.340027,61.72907,-12.186347,6.2085047,-18.441095
38,-0.35542693734169006,-23.945966720581055,73.84966278076172,5.941274537666744,4.490755476250631,-91.57501404889844,11.746233,-5.9888964,15.575787,6.8545165,-22.105877,-4.439465,-32.938255,-11.855876,-13.531117,6.4923263,-3.2162733,7.513975,-11.284038,-5.8376384,3.9740381,-10.439335,22.908258,-32.226055,48.603394,2.4655824,11.856583,14.735359,9.173885,-10.31675,40.396687,61.665173,-12.242052,6.2707415,-18.475578
39,-0.42952826619148254,-24.732173919677734,73.61172485351562,6.024064063311665,4.387954003660814,-91.12500054788579,12.502396,-6.002813,15.04519,6.86823,-22.606419,-4.771554,-33.49399,-11.897952,-12.96303,6.4518456,-3.9661283,7.6161404,-11.647964,-5.818693,4.004379,-10.6014,23.041521,-32.27667,48.41253,2.4443438,11.785256,14.677171,9.527694,-10.287592,40.447533,61.619164,-12.286254,6.3501596,-18.511482
40,-0.49463844299316406,-25.517051696777344,73.38343811035156,6.068742150520257,4.3225867354400735,-90.7536649719273,13.233906,-5.9534955,14.613575,6.881586,-23.059916,-5.0452166,-33.88455,-11.912017,-12.733565,6.4214044,-4.372131,7.787123,-11.945012,-5.7501273,4.0120096,-10.723048,23.135353,-32.284023,48.239563,2.443554,11.730937,14.653876,9.838265,-10.268106,40.496265,61.60279,-12.285785,6.4160953,-18.527916
41,-0.5759595632553101,-26.301410675048828,73.16028594970703,6.120435319941076,4.281675640445265,-90.45121146145726,13.961448,-5.8948092,14.279907,6.8893223,-23.504421,-5.215117,-34.07167,-11.957146,-12.98861,6.402813,-4.384158,8.254424,-12.19241,-5.688066,4.0057235,-10.75185,23.230583,-32.230286,48.01552,2.46892,11.701413,14.677903,10.107242,-10.250589,40.545036,61.606773,-12.207633,6.4641957,-18.53453
42,-0.6578416228294373,-27.085041046142578,72.9576644897461,6.155999800977728,4.256683172924141,-90.20874865954187,14.691138,-5.807441,14.025818,6.8936915,-23.938955,-5.3262434,-34.08515,-11.982943,-13.566395,6.398162,-4.0832424,8.920568,-12.391287,-5.599316,3.9922197,-10.715817,23.303066,-32.129295,47.77427,2.511206,11.681513,14.735278,10.339056,-10.239623,40.588104,61.637234,-12.078944,6.509857,-18.5364
43,-0.7426565289497375,-27.87610626220703,72.78324127197266,6.105836250790935,4.297309546025219,-90.0518617931457,15.361891,-5.6202936,13.867468,6.8965955,-24.275162,-5.441052,-34.01368,-11.88851,-14.249142,6.402856,-3.5082989,9.380921,-12.531089,-5.4179473,3.9503124,-10.589529,23.39393,-31.96754,47.47032,2.5576854,11.679324,14.802673,10.504948,-10.231522,40.66165,61.70801,-11.94362,6.5512223,-18.512608
44,-0.8201805949211121,-28.671937942504883,72.64419555664062,5.892478308789143,4.447641673951803,-90.0115362530406,15.919645,-5.252021,13.829151,6.8985496,-24.423716,-5.6267853,-33.936245,-11.571912,-14.823164,6.417456,-2.7070148,9.226553,-12.529213,-5.0678306,3.8469596,-10.453465,23.449905,-31.81865,47.200634,2.5984793,11.696243,14.873798,10.6658325,-10.228456,40.701195,61.78378,-11.902189,6.5872793,-18.438292
45,-0.9220582246780396,-29.438152313232422,72.59762573242188,5.422997449437318,4.771543450427014,-90.15481353970803,16.303915,-4.6043043,13.991121,6.896112,-24.385855,-5.9202714,-33.862865,-10.940162,-15.311234,6.436821,-1.6016554,8.12792,-12.3427105,-4.44708,3.669795,-10.2680435,23.507452,-31.648502,46.87812,2.6449254,11.764517,14.940939,10.705017,-10.2297125,40.80304,61.93866,-11.886182,6.6069474,-18.28662
46,-1.020275592803955,-30.230606079101562,72.60574340820312,4.75568853736126,5.208058174315795,-90.45209287115325,16.586924,-3.7472918,14.322619,6.8919015,-24.206108,-6.284244,-33.748608,-10.07537,-15.814116,6.490395,-0.22128353,6.3629336,-11.981657,-3.6259794,3.4480126,-10.057019,23.548552,-31.48252,46.542877,2.6929069,11.869335,15.015331,10.645688,-10.234407,40.948208,62.16078,-11.857323,6.6140375,-18.076454
47,-1.1242198944091797,-31.05278968811035,72.62294006347656,4.039457175756764,5.658478587779231,-90.80807812123655,16.828152,-2.8393738,14.706449,6.9680357,-23.892714,-6.6760845,-33.59695,-9.119018,-16.220068,6.538872,1.2862511,4.426711,-11.571052,-2.764456,3.2094078,-9.779539,23.579565,-31.288897,46.212685,2.7213979,11.961065,15.093827,10.580438,-10.240718,41.089535,62.39192,-11.871954,6.6282597,-17.858482
48,-1.2508187294006348,-31.88786506652832,72.65081787109375,3.436201100390264,6.017680662941034,-91.09973811199112,17.131271,-2.0558147,14.9954405,7.109009,-23.401598,-7.044445,-33.42224,-8.250028,-16.409111,6.6021104,2.750847,2.8245935,-11.196938,-2.03181,3.0046666,-9.472472,23.593128,-31.12031,45.94788,2.6852713,11.988203,15.177293,10.541294,-10.244347,41.200603,62.616753,-11.883534,6.6650124,-17.679697
49,-1.3818583488464355,-32.72853088378906,72.69711303710938,2.973053173260218,6.293289921028936,-91.26697573050585,17.51958,-1.4087615,15.1413965,7.242842,-22.712286,-7.385599,-33.248215,-7.5062265,-16.281742,6.67024,4.2557187,1.6446083,-10.915048,-1.441161,2.8069825,-9.139066,23.591293,-30.998,45.765274,2.545946,11.9123745,15.271631,10.54901,-10.242351,41.294136,62.832367,-11.874937,6.749703,-17.59413
50,-1.5100752115249634,-33.570396423339844,72.75016021728516,2.58243707512405,6.521174009648187,-91.36770184075537,17.944769,-0.8181509,15.205307,7.3874407,-21.840712,-7.710865,-34.415443,-7.2434835,-15.746895,9.743965,4.2619367,0.62638944,-10.680095,-0.9237719,2.6091304,-8.770413,23.56815,-30.900198,45.642548,2.3375998,11.769223,15.375353,10.564209,-10.229334,41.386276,63.071125,-11.855698,6.8654656,-17.563839
51,-1.657979965209961,-34.43465042114258,72.8061752319336,2.278857378151815,6.668680425215711,-91.43950605553793,18.425987,-0.3187382,15.191621,7.5505304,-20.73663,-7.9919143,-35.441936,-7.0625496,-15.1622505,12.725101,4.179374,-0.25931606,-10.452558,-0.5156835,2.4656804,-8.381013,23.51557,-30.796938,45.577972,2.1253045,11.618381,15.473579,10.564011,-10.202115,41.44412,63.330795,-11.852307,6.968475,-17.498514
52,-1.8055329322814941,-35.277889251708984,72.8718032836914,2.0499900447818966,6.711226190408209,-91.52774621573549,18.973566,0.08075315,15.117551,7.740447,-19.349802,-8.209215,-36.126514,-6.9207287,-14.707026,15.300231,3.9575198,-1.0120543,-10.229522,-0.21180317,2.4222598,-7.945645,23.40637,-30.593637,45.560345,2.0004938,11.5188055,15.550235,10.489755,-10.151862,41.476616,63.652306,-11.883762,7.0143676,-17.312466
53,-1.9633179903030396,-36.14097213745117,72.96546936035156,1.8721642686772475,6.638724564230603,-91.64323495877876,18.383165,0.74294466,14.955356,10.642288,-19.049503,-8.320114,-36.4867,-6.7908006,-14.421049,17.554691,3.4641783,-1.6174968,-10.004916,0.011383951,2.5124712,-7.44492,23.26073,-30.258509,45.54889,1.9912271,11.490051,15.590562,10.344441,-10.097069,41.432396,64.02399,-11.977967,6.962487,-16.896643
54,-2.1067562103271484,-36.972774505615234,73.0761947631836,1.7086080149304972,6.488201658924841,-91.7526110292318,17.654097,1.4399945,14.692525,13.971818,-18.667692,-8.34785,-36.59757,-6.658927,-14.240152,19.549572,2.7945724,-2.0695276,-9.805086,0.20694943,2.6920469,-6.8733478,23.074476,-29.81427,45.54457,2.066129,11.499741,15.604985,10.14081,-10.041454,41.33937,64.43895,-12.108999,6.844805,-16.325823
55,-2.2474777698516846,-37.79292678833008,73.20269775390625,1.528058648665641,6.308984097390778,-91.84955800917692,16.852089,2.1667876,14.368465,17.427954,-18.115623,-8.394559,-36.471966,-6.5159698,-14.164165,21.185858,2.123976,-2.3605835,-9.631111,0.4090392,2.904952,-6.2804646,22.84855,-29.335651,45.591988,2.1410718,11.531766,15.617013,9.880375,-9.987879,41.281963,64.86973,-12.237157,6.726765,-15.781776
56,-2.3818070888519287,-38.61118698120117,73.34966278076172,1.3252463199466702,6.141950582232519,-91.93851718927361,15.9472885,2.9126704,14.025111,20.948761,-17.432335,-8.558052,-36.130207,-6.3564777,-14.171475,22.379368,1.6259234,-2.4793975,-9.471146,0.6209055,3.0995457,-5.705652,22.587675,-28.892078,45.72695,2.1395934,11.5699005,15.650075,9.558248,-9.936073,41.351578,65.29433,-12.314616,6.6751924,-15.44562
57,-2.511758804321289,-39.43021011352539,73.51235961914062,1.123773261775555,5.975214731734851,-92.05043698603157,14.939144,3.6298087,13.650121,24.579283,-16.582554,-8.830782,-35.52404,-6.1614738,-14.250146,23.039291,1.3868188,-2.3019254,-9.301352,0.8085227,3.2810647,-5.1097827,22.287958,-28.452198,45.93543,2.0583403,11.6195545,15.722452,9.164751,-9.880399,41.608994,65.739624,-12.316751,6.716697,-15.398227
58,-2.6354665756225586,-40.23297882080078,73.6877212524414,0.9388199263895499,5.792425972968538,-92.1937452434087,13.855613,4.3037105,13.241834,28.317305,-15.557837,-9.162774,-34.684685,-5.9199653,-14.387369,23.262512,1.2917751,-1.8636093,-9.11734,0.95916766,3.4691372,-4.4988275,21.950714,-28.00011,46.21684,1.92353,11.685328,15.818485,8.699496,-9.818349,42.003056,66.21492,-12.267725,6.8134212,-15.533091
59,-2.7606348991394043,-41.0233268737793,73.87059020996094,0.7655442520125266,5.62216441295153,-92.34010898572478,12.702876,4.9629545,12.853282,32.066616,-14.44714,-9.587501,-33.74948,-5.6507883,-14.551284,23.251305,1.2108953,-1.3950541,-8.928072,1.0871975,3.6353028,-3.9152799,21.58892,-27.588453,46.573563,1.7566192,11.752067,15.909755,8.190102,-9.7535305,42.43854,66.655655,-12.209319,6.935766,-15.747043
60,-2.8908088207244873,-41.81248092651367,74.05718231201172,0.5956074797040841,5.493308059360158,-92.45869238828888,11.485115,5.6417656,12.53242,35.738716,-13.346542,-10.140866,-32.851517,-5.382574,-14.712068,23.207191,1.02206,-1.1278214,-8.741542,1.209972,3.754922,-3.4059954,21.223064,-27.278563,47.00477,1.5695444,11.804858,15.967554,7.65699,-9.692811,42.823963,66.99599,-12.172576,7.0541644,-15.936422
61,-3.0246500968933105,-42.59876251220703,74.25100708007812,0.4287320586850799,5.415965786191051,-92.53997331054917,10.177977,6.3804865,12.342334,39.426098,-12.250525,-10.953334,-32.016266,-5.13402,-14.878333,23.166489,0.67899895,-1.1521688,-8.558197,1.3198417,3.8218803,-2.9754128,20.867886,-27.083345,47.519493,1.329972,11.835642,16.002565,7.0997267,-9.639749,43.156536,67.20969,-12.180437,7.1725187,-16.071705
62,-3.1707022190093994,-43.3828010559082,74.45415496826172,0.27643265675636475,5.37217579439429,-92.60511111183946,8.773355,7.146351,12.231656,43.192398,-11.145571,-11.958118,-31.180922,-4.8916306,-15.051011,23.03958,0.24990009,-1.3408084,-8.367795,1.3977966,3.8531144,-2.5851872,20.526464,-26.969147,48.092564,1.0434054,11.854821,16.022673,6.5170493,-9.594468,43.46921,67.32141,-12.219124,7.30283,-16.207525
63,-3.30080509185791,-44.14947509765625,74.66592407226562,0.14325294416155648,5.350139549511672,-92.66680522400522,7.303654,7.8629518,12.086916,46.884823,-10.105343,-12.912816,-30.34709,-4.642849,-15.191684,22.843132,-0.21231037,-1.5945792,-8.165824,1.4515495,3.8604996,-2.2331903,20.20313,-26.939276,48.683754,0.76234776,11.874331,15.994714,5.9158597,-9.559879,43.734158,67.34677,-12.250521,7.4273505,-16.365776
64,-3.4365546703338623,-44.90598678588867,74.87701416015625,0.0324037279289915,5.338501850451137,-92.73601975500678,5.8068585,8.444999,11.809947,50.322796,-9.191276,-13.593426,-29.513952,-4.3787074,-15.263328,22.590496,-0.6569412,-1.8081934,-7.9452376,1.4904087,3.8552463,-1.9210463,19.901829,-27.0021,49.255005,0.5382709,11.9066725,15.886276,5.302292,-9.542498,43.922195,67.302826,-12.235115,7.5275545,-16.568087
65,-3.564486265182495,-45.6580924987793,75.08928680419922,-0.054555685452336834,5.337290777961877,-92.80845292216381,4.274296,8.881133,11.401586,53.50815,-8.373747,-13.9280815,-28.67343,-4.098924,-15.245174,22.271254,-1.0890696,-1.9466952,-7.7102184,1.5116863,3.8322363,-1.6525389,19.626062,-27.161932,49.805683,0.36383432,11.967227,15.671214,4.68615,-9.547512,44.021843,67.164604,-12.184519,7.6082077,-16.815882
66,-3.696983575820923,-46.39500427246094,75.29605865478516,-0.11966046274307023,5.352491278662924,-92.87979320912623,2.6916153,9.199273,10.923713,56.515137,-7.628358,-14.065346,-27.828833,-3.8175142,-15.158373,21.887556,-1.5329058,-2.0618749,-7.463485,1.5112274,3.7879586,-1.4245251,19.377188,-27.414803,50.350845,0.21577552,12.046071,15.372212,4.070848,-9.577312,44.04184,66.92049,-12.12197,7.675864,-17.097965
67,-3.8077123165130615,-47.12619400024414,75.49431610107422,-0.16530675630553274,5.382378278257744,-92.96074116354376,1.088376,9.3672905,10.378487,59.263054,-7.023944,-14.1227255,-26.99452,-3.5468047,-15.029603,21.467705,-1.9661897,-2.1757934,-7.194074,1.4974207,3.7373793,-1.2230338,19.152775,-27.75121,50.869167,0.1310634,12.117159,15.029017,3.443534,-9.633454,43.996002,66.61112,-12.007338,7.7144337,-17.41724
68,-3.9374027252197266,-47.87232208251953,75.687255859375,-0.19401391895846296,5.425040484150177,-93.06221585768712,-0.5096329,9.354125,9.766267,61.680046,-6.6335535,-14.216136,-26.188276,-3.2962656,-14.886824,21.04482,-2.368834,-2.314421,-6.893408,1.4793693,3.6930456,-1.0304271,18.947704,-28.15737,51.340115,0.15010703,12.153325,14.681201,2.8067503,-9.716664,43.882065,66.26771,-11.822907,7.707904,-17.7763
69,-4.044849872589111,-48.5908317565918,75.86943054199219,-0.19971043924897625,5.490665853158805,-93.1922969978317,-2.1281626,9.06003,8.993343,63.744976,-6.553488,-14.348637,-25.43205,-3.0711725,-14.729586,20.632015,-2.7331898,-2.5022562,-6.5494347,1.453909,3.6447203,-0.86177236,18.761673,-28.668734,51.778522,0.30257025,12.1331835,14.317765,2.15284,-9.829381,43.688812,65.8922,-11.553711,7.6519256,-18.168911
70,-4.134463310241699,-49.30998611450195,76.05267333984375,-0.1850968199863522,5.57610052659474,-93.34381426890894,-3.769392,8.525566,8.104793,65.50838,-6.7232504,-14.477731,-24.711407,-2.8645232,-14.5472555,20.21346,-3.0724363,-2.7191563,-6.168354,1.4196177,3.5900865,-0.7245597,18.594133,-29.281975,52.193596,0.55979115,12.074217,13.924992,1.4853345,-9.973597,43.420666,65.46909,-11.213261,7.5534077,-18.59472
71,-4.2229323387146,-50.03125,76.22891235351562,-0.16558174771928147,5.659581768930354,-93.50468798250319,-5.376848,7.946363,7.2989445,67.00379,-6.9842854,-14.637028,-23.99034,-2.6667044,-14.353276,19.77996,-3.3986144,-2.9271908,-5.7719064,1.389213,3.552092,-0.58697927,18.436903,-29.92069,52.557426,0.8774014,12.008099,13.539448,0.82515335,-10.148272,43.100574,65.003136,-10.828984,7.413282,-19.065784
72,-4.3044962882995605,-50.74180221557617,76.39562225341797,-0.15690262973877608,5.7198487281538455,-93.6622742476371,-6.9018197,7.5320096,6.761631,68.264114,-7.1784697,-14.852616,-23.234774,-2.4682531,-14.161168,19.323702,-3.7237198,-3.088608,-5.3830657,1.3783972,3.5542285,-0.41733065,18.278353,-30.506403,52.843548,1.2140366,11.966534,13.197667,0.17262998,-10.350141,42.770042,64.516464,-10.406572,7.2321677,-19.594784
73,-4.377491474151611,-51.44581604003906,76.54894256591797,-0.1609194285100108,5.741818190530263,-93.80989661999543,-8.318573,7.3798347,6.6001287,69.273315,-7.2568307,-15.000033,-22.415503,-2.268723,-13.968097,18.821178,-4.0445695,-3.1826582,-5.016252,1.3992884,3.6082988,-0.20883878,18.110756,-31.031313,53.043957,1.6032183,11.96522,12.888263,-0.46026406,-10.578331,42.421062,64.00507,-9.92377,6.9759536,-20.2335
74,-4.436795234680176,-52.15238952636719,76.69673919677734,-0.16485458819447188,5.740912813040237,-93.95395471177711,-9.6617155,7.4011626,6.7185717,70.02119,-7.300343,-15.000033,-21.558853,-2.0796528,-13.766763,18.2835,-4.3556967,-3.2308507,-4.658873,1.4410462,3.6964657,0.016898988,17.932875,-31.532396,53.183796,2.054062,11.983193,12.599448,-1.0890325,-10.833211,42.051285,63.473564,-9.375828,6.652449,-20.956757
75,-4.500847339630127,-52.85695266723633,76.82841491699219,-0.13389598872176228,5.752073588306095,-94.08819384919673,-10.989023,7.488882,6.989004,70.53832,-7.3332567,-15.000033,-20.761297,-1.9566101,-13.558079,17.834333,-4.704904,-3.2518704,-4.313623,1.457167,3.781335,0.2604587,17.743298,-31.988968,53.282764,2.4934556,12.000141,12.36657,-1.7149433,-11.110799,41.676968,62.925995,-8.84155,6.3288207,-21.664223
76,-4.5599141120910645,-53.54490280151367,76.94497680664062,-0.13531228636121923,5.780783920349426,-94.24238121714657,-12.330997,7.64512,7.2715154,70.90096,-7.424048,-15.000033,-19.982927,-1.8017178,-13.376556,17.371803,-5.0307217,-3.2891247,-3.9487917,1.4990141,3.8645327,0.5240021,17.541725,-32.376766,53.357475,2.8497384,11.996471,12.224839,-2.3588696,-11.403888,41.329857,62.38422,-8.378494,6.0752,-22.25852
77,-4.625336647033691,-54.2340202331543,77.05305480957031,-0.17349835974993616,5.83606259810334,-94.42781016043182,-13.70498,7.888603,7.571015,71.12086,-7.592792,-15.000033,-19.248825,-1.6096984,-13.225476,16.920668,-5.33603,-3.365609,-3.552417,1.5671734,3.9363534,0.81141573,17.327745,-32.690952,53.40654,3.122846,11.959719,12.200544,-3.0189953,-11.7059145,41.008217,61.850468,-8.000268,5.922074,-22.744402
78,-4.6763482093811035,-54.923397064208984,77.15283966064453,-0.23679488591406625,5.905480831516981,-94.63661040777629,-15.083102,8.233438,7.933408,71.16823,-7.8103747,-15.000033,-18.53812,-1.3933841,-13.09152,16.467707,-5.622394,-3.458918,-3.1341364,1.6559212,4.006932,1.1226683,17.101337,-32.94154,53.422165,3.3478463,11.904077,12.269575,-3.7005472,-12.013539,40.70717,61.32998,-7.664555,5.830471,-23.166431
79,-4.728302001953125,-55.60631561279297,77.23697662353516,-0.29851533838997557,5.9825783835899955,-94.84490196489858,-16.4451,8.606891,8.321638,71.02256,-8.041112,-15.000033,-17.840004,-1.1899594,-12.960193,16.017118,-5.9053698,-3.52754,-2.7271707,1.7387574,4.0776772,1.4523838,16.864365,-33.12847,53.418137,3.4950569,11.849989,12.391518,-4.3976173,-12.3260975,40.426826,60.822094,-7.388567,5.7694516,-23.488659
80,-4.785295486450195,-56.28441619873047,77.31212615966797,-0.34865107400185796,6.056590273709166,-95.03338257790915,-17.768517,8.950525,8.69131,70.6699,-8.255795,-14.993289,-17.122639,-1.0110364,-12.824405,15.5378685,-6.1831446,-3.536691,-2.3571565,1.8057965,4.1585703,1.8014691,16.619017,-33.245422,53.399273,3.544306,11.817869,12.525218,-5.116428,-12.643453,40.176376,60.331646,-7.173856,5.708578,-23.674866
81,-4.826417446136475,-56.953365325927734,77.39380645751953,-0.4021513333894447,6.121660812466294,-95.2112499214082,-19.046917,9.340551,9.155383,70.119194,-8.468892,-14.547698,-16.352537,-0.83140457,-12.683665,14.965217,-6.426017,-3.4796333,-2.0200996,1.8755009,4.2624617,2.178851,16.36627,-33.271214,53.34648,3.4665594,11.83124,12.683675,-5.8593726,-12.966145,39.953457,59.852055,-7.0335817,5.650699,-23.684326
82,-4.873098373413086,-57.630531311035156,77.46255493164062,-0.46149489522254045,6.183894086681743,-95.38521717773638,-20.293762,9.746571,9.633145,69.37401,-8.692909,-14.014906,-15.551261,-0.6473085,-12.543635,14.328925,-6.6434584,-3.3817098,-1.7056352,1.9464811,4.383187,2.5821192,16.10677,-33.21594,53.260254,3.2797852,11.872726,12.880479,-6.629592,-13.293477,39.760307,59.386887,-6.955231,5.6100354,-23.54749
83,-4.918696403503418,-58.30915069580078,77.51836395263672,-0.5318378718987602,6.236662830146884,-95.54864143929575,-21.481804,10.144851,10.0920925,68.43128,-8.907202,-13.501098,-14.71335,-0.45490658,-12.410058,13.643007,-6.843135,-3.2583027,-1.4123127,2.0224178,4.5158367,2.9998617,15.842858,-33.115982,53.175304,3.0364528,11.900494,13.074645,-7.409821,-13.622981,39.593437,58.937687,-6.929173,5.5725756,-23.333225
84,-4.948503017425537,-59.00326919555664,77.56639862060547,-0.6183647619684812,6.273484257309216,-95.69479527020788,-22.58565,10.510878,10.500763,67.288345,-9.090052,-13.111436,-13.837736,-0.2518339,-12.287931,12.93297,-7.03367,-3.1226134,-1.1389688,2.1060529,4.6549406,3.4165382,15.5783205,-33.012722,53.129963,2.783331,11.873389,13.225388,-8.181934,-13.952228,39.447933,58.507656,-6.9482145,5.523958,-23.110622
85,-4.984489917755127,-59.69293212890625,77.60845947265625,-0.7251171330066025,6.2852725204842725,-95.82265488621961,-23.584793,10.840591,10.858071,65.92056,-9.259708,-12.892804,-12.904364,-0.03212142,-12.171471,12.183449,-7.2087255,-2.9630504,-0.8859065,2.1992571,4.809971,3.83955,15.313918,-32.896866,53.129112,2.5095117,11.758857,13.338151,-8.950468,-14.280248,39.327427,58.099335,-7.022173,5.443958,-22.86381
86,-5.015076160430908,-60.378623962402344,77.64332580566406,-0.8468464837862925,6.277898073948291,-95.93554899322606,-24.494228,11.14164,11.183828,64.33142,-9.417314,-12.782421,-11.921465,0.20074348,-12.059301,11.388964,-7.3677588,-2.7810206,-0.6526784,2.2977023,4.98098,4.271249,15.049998,-32.755867,53.153812,2.1948645,11.5858135,13.4282875,-9.727107,-14.606683,39.23351,57.71577,-7.148481,5.344832,-22.568182
87,-5.0547285079956055,-61.06840515136719,77.66253662109375,-0.9746749823145159,6.267510762674513,-96.03361131802733,-25.34007,11.408003,11.477833,62.556374,-9.513622,-12.719981,-10.923091,0.43551382,-11.963022,10.576801,-7.5245433,-2.6051707,-0.43593642,2.3951626,5.146721,4.699487,14.789844,-32.617104,53.197502,1.8834075,11.40844,13.470191,-10.487167,-14.928834,39.147175,57.34386,-7.3112016,5.2610526,-22.27872
88,-5.093817234039307,-61.760311126708984,77.67202758789062,-1.1005813721576536,6.269944101621648,-96.11649728830862,-26.149254,11.635643,11.737553,60.63289,-9.501387,-12.644927,-9.943909,0.6608321,-11.894664,9.775716,-7.691177,-2.459802,-0.22739503,2.4858449,5.2899437,5.103441,14.539669,-32.516956,53.256138,1.6122956,11.280518,13.4389305,-11.22429,-15.2409725,39.05481,56.98483,-7.4806433,5.2273145,-22.04986
89,-5.1385040283203125,-62.4774284362793,77.67141723632812,-1.2163157210898774,6.294554145690951,-96.18548781964586,-26.931702,11.808865,11.952949,58.54577,-9.364224,-12.564068,-8.989888,0.8647751,-11.862458,8.973194,-7.8618813,-2.3407524,-0.02382156,2.5576985,5.3971543,5.489106,14.304014,-32.44321,53.322323,1.3776588,11.225607,13.301174,-11.930901,-15.539502,38.962437,56.638874,-7.680018,5.274397,-21.895613
90,-5.18013858795166,-63.180030822753906,77.65629577636719,-1.3279825586726015,6.3310471309978045,-96.24071838786472,-27.668438,11.935132,12.130214,56.27871,-9.127673,-12.500356,-8.04293,1.0560192,-11.8578415,8.159938,-8.030918,-2.2329662,0.171361,2.6144588,5.4827347,5.8644357,14.084697,-32.38429,53.395687,1.1618016,11.213016,13.079239,-12.621897,-15.8231325,38.875656,56.3142,-7.9110456,5.376329,-21.78715
91,-5.217689037322998,-63.88261795043945,77.6320571899414,-1.4508795628216704,6.366125705438689,-96.2805568741485,-28.341585,12.047898,12.289897,53.86395,-8.80657,-12.417,-7.093286,1.2565974,-11.867965,7.3543615,-8.202474,-2.1422198,0.35319126,2.6747217,5.565238,6.2211385,13.883525,-32.37176,53.481037,0.9862583,11.215778,12.832678,-13.291298,-16.090044,38.76406,56.00001,-8.135458,5.4832263,-21.715048
92,-5.261803150177002,-64.58283233642578,77.59163665771484,-1.600508251809044,6.386599612456562,-96.3033274210407,-28.93519,12.1815195,12.451585,51.33502,-8.417897,-12.27721,-6.343245,1.4414492,-11.883998,7.033755,-8.622834,-2.072722,0.51596135,2.7568526,5.65914,6.5517187,13.702137,-32.43883,53.58689,0.87050754,11.206584,12.621112,-13.918136,-16.342213,38.59195,55.675663,-8.324014,5.5445065,-21.670572
93,-5.292994022369385,-65.3025894165039,77.5423583984375,-1.7860090902496368,6.384837919735082,-96.30089259293241,-29.456364,12.348322,12.58077,48.711334,-7.936821,-12.058243,-5.693091,1.6412274,-11.906466,7.00626,-9.187291,-2.043559,0.6564432,2.8710415,5.777694,6.845539,13.543882,-32.612106,53.719486,0.81979156,11.177113,12.46534,-14.508127,-16.580513,38.334393,55.334732,-8.4652195,5.536494,-21.642572
94,-5.333921909332275,-66.01923370361328,77.48217010498047,-1.9988004144086073,6.369499871257501,-96.27710170030431,-29.907915,12.533079,12.6803,45.96931,-7.364444,-11.781839,-5.0201902,1.8709161,-11.937068,6.983729,-9.744602,-2.0432026,0.78128535,3.0061147,5.909482,7.109575,13.410308,-32.87144,53.87228,0.82152593,11.142084,12.332069,-15.060451,-16.806635,38.008514,54.98197,-8.579799,5.4894795,-21.638615
95,-5.377349853515625,-66.74414825439453,77.40496063232422,-2.223093783251442,6.351217846876832,-96.2477740966441,-30.273272,12.727117,12.828526,43.090874,-6.7567873,-11.477712,-4.3384576,2.1117053,-11.966336,6.965399,-10.30518,-2.033677,0.9046404,3.1460917,6.0385075,7.3582153,13.298801,-33.180958,54.031242,0.871888,11.108147,12.199583,-15.568715,-17.021751,37.64819,54.62898,-8.670032,5.4350896,-21.67725
96,-5.423544883728027,-67.45845031738281,77.31510162353516,-2.434349631528263,6.340113670439924,-96.2286204548499,-30.537764,12.913844,13.108497,40.06188,-6.171995,-11.176538,-3.6659548,2.33742,-11.984268,6.9572587,-10.880825,-1.979508,1.0404595,3.2674654,6.1495914,7.6052566,13.203728,-33.503223,54.183933,0.9689215,11.081843,12.046598,-16.033688,-17.22597,37.29063,54.293766,-8.736614,5.405291,-21.777086
97,-5.458614826202393,-68.18873596191406,77.20755004882812,-2.6557171068313568,6.33832051506471,-96.22058136942194,-30.67874,13.121285,13.547735,36.816433,-5.603444,-10.858951,-3.012452,2.5707457,-12.003608,6.972246,-11.481139,-1.8669316,1.1913674,3.3951123,6.239572,7.843063,13.120719,-33.84271,54.33673,1.1301236,11.063564,11.852408,-16.456419,-17.416258,36.93681,53.977016,-8.776919,5.4170227,-21.96421
98,-5.48703670501709,-68.93012237548828,77.08673095703125,-2.8917273082087522,6.338669482169206,-96.22023204050555,-30.69523,13.346915,14.106666,33.359337,-5.0167875,-10.518348,-2.357342,2.8195932,-12.021436,6.986214,-12.088115,-1.7176027,1.350856,3.5333652,6.31587,8.068139,13.048484,-34.21131,54.497707,1.3516717,11.049308,11.633723,-16.839527,-17.592178,36.57546,53.675537,-8.790561,5.450403,-22.221972
99,-5.517469882965088,-69.66963195800781,76.95079040527344,-3.13232635132257,6.3346114606497865,-96.23855237184274,-30.596046,13.55974,14.740203,29.75231,-4.413764,-10.209802,-1.6943301,3.0748222,-12.014947,7.001091,-12.700483,-1.553761,1.5242558,3.672233,6.385673,8.295154,12.985087,-34.586533,54.65574,1.598629,11.039608,11.425991,-17.18957,-17.754292,36.217766,53.40073,-8.78132,5.482651,-22.504217
100,-5.53570556640625,-70.42864227294922,76.81715393066406,-3.369673588146281,6.3173220604282205,-96.28797665151525,-30.386322,13.731011,15.401944,26.046656,-3.7903557,-9.988536,-1.012039,3.3300214,-11.959315,7.0151944,-13.315934,-1.3970777,1.7154888,3.8049893,6.4576755,8.537641,12.928377,-34.945713,54.80131,1.8335121,11.035456,11.264282,-17.510529,-17.903141,35.877968,53.160454,-8.752022,5.490967,-22.764723
101,-5.547572612762451,-71.20043182373047,76.67266845703125,-3.6166546068783867,6.272773831586557,-96.38101832332279,-30.01783,13.864822,16.138584,22.1339,-3.1103363,-9.895297,-0.2969149,3.6023936,-11.827091,7.0295796,-13.942106,-1.2438631,1.9323424,3.9465408,6.5457435,8.803819,12.876062,-35.28718,54.92966,2.0704389,11.037801,11.157624,-17.802723,-18.039745,35.550728,52.957394,-8.702699,5.466344,-23.002525
102,-5.565202236175537,-71.97953033447266,76.5134048461914,-3.892468098801705,6.190777157781863,-96.5275580234974,-29.460108,13.993369,16.964222,17.967495,-2.3569977,-9.89628,0.4611507,3.9108381,-11.619309,7.0432563,-14.576769,-1.0888131,2.1882496,4.1164675,6.6561007,9.086012,12.826809,-35.621807,55.047016,2.3210185,11.046553,11.087569,-18.066074,-18.164711,35.23434,52.78837,-8.631461,5.4219346,-23.237347
103,-5.576948642730713,-72.76533508300781,76.34085083007812,-4.1990146529966665,6.067065490850705,-96.73577516402433,-28.746695,14.1285515,17.784702,13.690692,-1.5575919,-9.93739,1.2664425,4.2505293,-11.351518,7.0550632,-15.205064,-0.9510524,2.4885569,4.3123903,6.785216,9.38642,12.782382,-35.932644,55.15004,2.5502563,11.061486,11.04705,-18.312706,-18.270418,34.9589,52.664486,-8.537032,5.3676953,-23.45598
104,-5.5765790939331055,-73.55958557128906,76.16058349609375,-4.523269788401243,5.910019008675078,-97.0003207853482,-27.900965,14.250967,18.513308,9.38872,-0.70234,-9.963372,2.109751,4.5986443,-11.051183,7.065609,-15.813528,-0.8475972,2.804343,4.512347,6.9201355,9.727342,12.753049,-36.173832,55.217434,2.7329671,11.0824995,11.025302,-18.57636,-18.330809,34.779854,52.616657,-8.413293,5.3131657,-23.649202
105,-5.572106838226318,-74.3630142211914,75.9749755859375,-4.840402624013325,5.737638366307559,-97.31360345570486,-27.8315,14.597594,18.814903,6.9049845,-0.8231271,-9.929164,2.9708705,4.9216056,-10.72927,7.07641,-16.411926,-0.79560417,3.193014,4.697675,7.038387,10.050018,12.718622,-36.429733,55.30587,2.833189,11.111085,11.054042,-18.793509,-18.398098,34.6332,52.5918,-8.252154,5.2514696,-23.810371
106,-5.5680317878723145,-75.17554473876953,75.78652954101562,-5.138988810740899,5.559752689244096,-97.65865295176062,-28.776245,15.243064,18.692179,6.7168612,-2.1741734,-9.868922,3.8387523,5.206447,-10.386678,7.0906415,-17.005514,-0.77676696,3.635736,4.8715487,7.1431894,10.347511,12.664373,-36.69663,55.418774,2.879951,11.144952,11.128,-18.949059,-18.498083,34.50388,52.55676,-8.058963,5.183318,-23.942743
107,-5.554802894592285,-75.99787902832031,75.6048812866211,-5.4086208451551405,5.389138884156019,-97.9991899722415,-29.638794,15.830634,18.613914,6.5774436,-3.435864,-9.85394,4.701517,5.4435587,-10.05374,7.104201,-17.565592,-0.753473,4.03411,5.0062423,7.226567,10.670084,12.624853,-36.888134,55.50742,2.9035869,11.181209,11.192409,-19.10019,-18.563686,34.453056,52.56632,-7.861486,5.1217394,-24.051622
108,-5.540311813354492,-76.82403564453125,75.420166015625,-5.650036412522199,5.228044648226808,-98.30920719098683,-30.3292,16.362852,18.79893,6.4617887,-4.4610023,-9.973089,5.5564795,5.636662,-9.752518,7.1170387,-18.06557,-0.6898213,4.3981905,5.1116962,7.295,10.9787855,12.595605,-37.033184,55.593784,2.9117968,11.215537,11.207299,-19.219234,-18.603016,34.404964,52.59381,-7.73103,5.085566,-24.124838
109,-5.535244941711426,-77.64527130126953,75.23374938964844,-5.898491021649408,5.058943597212571,-98.6132507169701,-30.777815,16.887291,19.438818,6.3034825,-5.19247,-10.395164,6.4207006,5.8317175,-9.475425,7.129251,-18.51043,-0.58425915,4.7560835,5.220207,7.352103,11.274469,12.571378,-37.12801,55.68598,2.8953094,11.252312,11.14832,-19.294117,-18.631151,34.375565,52.633957,-7.661047,5.0802407,-24.153734
110,-5.524384498596191,-78.46480560302734,75.0577163696289,-6.116425658572319,4.913176999882897,-98.8855961539959,-31.155226,17.36076,20.349174,6.310185,-5.7954144,-11.028101,7.266029,5.981593,-9.247912,7.140665,-18.911867,-0.44716087,5.0798655,5.291497,7.3880477,11.551142,12.557838,-37.170784,55.776733,2.85291,11.290049,11.040554,-19.336027,-18.640066,34.35466,52.685234,-7.644996,5.0995026,-24.144642
111,-5.515501022338867,-79.28572082519531,74.88715362548828,-6.307357029470469,4.7841677819229655,-99.1212126567356,-31.373943,17.740635,21.265953,6.282429,-6.1632204,-11.590782,8.097742,6.0908756,-9.045877,7.1492653,-19.250069,-0.2898461,5.3640504,5.3340063,7.40857,11.7961445,12.5517845,-37.186905,55.882286,2.795348,11.319327,10.921132,-19.334385,-18.639818,34.341408,52.729126,-7.663128,5.1323457,-24.11302
112,-5.514187812805176,-80.08970642089844,74.73855590820312,-6.430995618231611,4.688462055410263,-99.27760080082788,-31.480408,17.958029,21.890501,6.2697153,-6.3453712,-11.782973,8.9014435,6.1075525,-8.884212,7.159034,-19.512423,-0.10946579,5.5736766,5.32539,7.3757033,12.049113,12.543988,-37.22217,55.986385,2.7440107,11.3400135,10.839423,-19.261564,-18.62894,34.31746,52.767887,-7.720356,5.16851,-24.0701
113,-5.491819381713867,-80.89604187011719,74.60645294189453,-6.521704143056168,4.627722678861998,-99.33819353005512,-31.47022,18.038853,22.078861,6.2922688,-6.400381,-11.558819,9.678971,6.077116,-8.763504,7.165832,-19.707008,0.08528877,5.6860213,5.289795,7.292859,12.275273,12.538935,-37.278,56.127396,2.6898115,11.333234,10.795531,-19.107166,-18.611763,34.280357,52.781773,-7.8396277,5.211086,-24.010094
114,-5.468710422515869,-81.69949340820312,74.48486328125,-6.579864778232706,4.592209539732765,-99.32396470115322,-31.313622,17.998188,22.01338,6.308587,-6.2892866,-11.055897,10.437622,6.004861,-8.683596,7.1718655,-19.838833,0.29662818,5.7710423,5.2225623,7.1636386,12.444954,12.534841,-37.40486,56.32782,2.6065314,11.308749,10.781201,-18.885014,-18.546919,34.160126,52.823574,-8.054557,5.263226,-23.928493
115,-5.438685894012451,-82.521240234375,74.38565063476562,-6.526474884902386,4.630851922037584,-99.20374796429144,-31.167627,17.757256,21.804512,6.4390297,-5.9982276,-10.244368,11.118439,5.7938366,-8.713197,7.2056947,-19.902842,0.54485416,5.7254944,5.0378356,6.9842553,12.592887,12.536388,-37.480106,56.53398,2.534753,11.285315,10.777727,-18.603481,-18.491844,34.08991,52.817986,-8.229754,5.3136,-23.855001
116,-5.414348602294922,-83.3750228881836,74.30329132080078,-6.3067787561677,4.764039260001376,-99.01294204740668,-31.036182,17.268766,21.63946,6.5476193,-5.3774915,-9.100907,11.698012,5.3785653,-8.851505,7.2586193,-19.865252,0.8396026,5.63818,4.6681623,6.73261,12.667305,12.544579,-37.5497,56.790867,2.454364,11.281644,10.791949,-18.295835,-18.400627,34.018253,52.838905,-8.329822,5.3450494,-23.816944
117,-5.376134872436523,-84.1865463256836,74.30194854736328,-5.856296233915716,5.023760553042164,-98.71706502764665,-30.927713,16.484936,21.622414,6.683755,-4.3687043,-7.38116,12.150033,4.690127,-9.154376,7.3294783,-19.746355,1.1968989,5.4361033,4.034345,6.384904,12.689569,12.564479,-37.5613,57.080822,2.3894844,11.315209,10.811953,-17.96214,-18.271275,34.028713,52.86162,-8.283127,5.3580832,-23.84165
118,-5.3448991775512695,-85.00468444824219,74.32301330566406,-5.197080296986584,5.376213148077882,-98.32017228065278,-30.778727,15.432347,21.686533,6.808364,-3.0283613,-5.1551986,12.506798,3.7596586,-9.599702,7.4296684,-19.55853,1.6108094,5.1247287,3.1788423,5.96952,12.669871,12.592496,-37.52709,57.3914,2.3379421,11.370984,10.8392105,-17.586082,-18.13466,34.101357,52.86129,-8.136726,5.3607993,-23.903976
119,-5.306999206542969,-85.85880279541016,74.3338394165039,-4.47248365895614,5.713486786015956,-97.94857040411253,-30.578554,14.313198,21.706898,6.9361234,-1.5359269,-2.892624,12.861919,2.7442734,-10.031298,7.560166,-19.242958,2.0442176,4.8259916,2.2590418,5.551601,12.641844,12.622915,-37.468575,57.71176,2.2680943,11.427009,10.894317,-17.16777,-17.988789,34.205193,52.867184,-7.951996,5.3519325,-23.968174
120,-5.263280391693115,-86.72470092773438,74.34668731689453,-3.8124922522873272,5.94544956952089,-97.7239753907193,-31.321466,13.689773,21.31092,9.27917,-1.2073568,-1.0862352,12.887091,1.7062832,-10.31386,8.590359,-19.20268,2.4652462,4.64876,1.4167476,5.188839,12.638106,12.644177,-37.397984,58.03479,2.150416,11.460296,10.996575,-16.7046,-17.84187,34.322887,52.89974,-7.784,5.3306866,-24.000196
121,-5.200625419616699,-87.59563446044922,74.35963439941406,-3.186328901015623,6.083095820907616,-97.70029127864275,-32.119587,13.14236,20.597853,11.776311,-0.8313334,0.13699761,12.230252,0.53973174,-10.348031,11.262066,-19.853832,2.9465046,4.636764,0.6004564,4.8583937,12.6774435,12.6522045,-37.29262,58.361797,1.9839135,11.467859,11.168029,-16.195913,-17.69279,34.48521,52.95797,-7.6050105,5.2932205,-23.987625
122,-5.131645202636719,-88.47007751464844,74.38106536865234,-2.516500955032799,6.180210905803946,-97.81274906652553,-32.67063,12.462713,19.771269,13.781322,-0.028750062,1.0380911,11.559134,-0.699837,-10.191243,14.031929,-20.399586,3.4848468,4.7323256,-0.2703274,4.533176,12.732763,12.646754,-37.155037,58.707302,1.7813158,11.459655,11.393172,-15.640949,-17.539354,34.693863,53.03083,-7.3976803,5.241787,-23.94977
123,-5.0509538650512695,-89.3445053100586,74.40083312988281,-1.8560923385720154,6.229256088110885,-97.98384453922031,-33.028706,11.76768,19.053186,15.544253,0.78632516,1.7253501,10.865016,-1.9520748,-9.979668,16.913973,-20.779142,3.9442039,4.8685136,-1.1077133,4.2483068,12.771395,12.62436,-37.027,59.083054,1.538231,11.431617,11.63496,-15.046491,-17.375021,34.88738,53.141582,-7.2355094,5.183202,-23.903666
124,-4.965521812438965,-90.21239471435547,74.41827392578125,-1.2704384062832843,6.2150723398003604,-98.13914185711172,-33.226166,11.193345,18.65432,17.27575,1.2123691,2.31582,10.164991,-3.1477568,-9.847564,19.885405,-20.907503,4.1833096,4.983471,-1.8100978,4.0377245,12.758779,12.579692,-36.951164,59.503532,1.2495204,11.379692,11.856643,-14.414301,-17.193703,35.00156,53.311146,-7.1918044,5.123568,-23.866915
125,-4.859131813049316,-91.08316802978516,74.45208740234375,-0.7949870252090264,6.127789433033333,-98.26493036544616,-33.30594,10.826992,18.635979,19.141647,1.0223473,2.8177967,9.486535,-4.2616835,-9.868436,22.931353,-20.749807,4.129237,5.06968,-2.3275588,3.9042122,12.686124,12.506412,-36.937405,59.98795,0.8756295,11.284771,12.049421,-13.719407,-16.992147,34.993076,53.546497,-7.3306932,5.056386,-23.853186
126,-4.739973068237305,-91.94059753417969,74.49845123291016,-0.3888152924962547,5.984563339413452,-98.38594933668031,-33.267956,10.613514,18.836369,21.052393,0.43421963,3.189221,8.8201475,-5.3368573,-9.98018,26.043524,-20.339176,3.8695624,5.1491,-2.7198842,3.8217492,12.565947,12.403493,-36.962772,60.53132,0.4355278,11.15412,12.233486,-12.971284,-16.770279,34.89516,53.84195,-7.601885,4.9808,-23.851576
127,-4.628037452697754,-92.78436279296875,74.55355834960938,-0.010862796320880715,5.803958156761688,-98.49053608487777,-33.068142,10.463649,19.139698,22.795757,-0.26726288,3.4589407,8.131804,-6.4018984,-10.110817,29.214462,-19.699026,3.5009844,5.201401,-3.0426476,3.7803943,12.393427,12.275768,-37.02445,61.114365,-0.00067438727,11.023659,12.4155655,-12.214472,-16.531805,34.769516,54.190945,-7.9029136,4.9101496,-23.844522
128,-4.515069961547852,-93.60885620117188,74.6209716796875,0.37748555073649004,5.60242944356833,-98.56935687309114,-32.6615,10.249549,19.446999,24.136356,-0.77739525,3.643101,7.3835535,-7.477614,-10.182006,32.446957,-18.853735,3.1214807,5.2082343,-3.3490376,3.7724602,12.165643,12.131567,-37.12118,61.714382,-0.3648163,10.929761,12.602419,-11.485547,-16.282726,34.677345,54.577698,-8.132004,4.857859,-23.81369
129,-4.395664691925049,-94.43014526367188,74.70285034179688,0.769071918363422,5.362964380190326,-98.61526606496307,-32.012104,9.907737,19.753458,24.97355,-0.9717872,3.689669,6.5584526,-8.538918,-10.14805,35.806374,-17.745747,2.7030528,5.1647143,-3.6246996,3.82388,11.874018,11.973756,-37.275875,62.34712,-0.68203974,10.856318,12.811894,-10.776216,-16.023859,34.605076,55.004414,-8.248637,4.8184357,-23.795002
130,-4.274033069610596,-95.24395751953125,74.7978744506836,1.143434630307387,5.083411210072295,-98.63107112962788,-31.164038,9.476387,20.103174,25.433508,-1.0103151,3.588448,5.6752195,-9.578614,-10.071775,39.275955,-16.382471,2.2160902,5.078294,-3.846352,3.9306254,11.524952,11.802449,-37.481976,63.01132,-0.97336954,10.792997,13.034816,-10.073306,-15.754197,34.529,55.47431,-8.307103,4.7880754,-23.784647
131,-4.150050640106201,-96.05902862548828,74.90023803710938,1.5172976963564113,4.801605573683955,-98.62414815867488,-30.189957,8.966251,20.478086,25.606249,-1.0068748,3.4168065,4.746446,-10.640837,-10.025123,42.746674,-14.895676,1.752739,4.9446406,-4.0518055,4.037871,11.1421585,11.623211,-37.691597,63.656574,-1.16712,10.785895,13.237356,-9.388968,-15.481987,34.490734,55.962017,-8.36742,4.78179,-23.70395
132,-4.031081676483154,-96.86766052246094,75.01111602783203,1.9073665440775158,4.555232667021244,-98.60176426909405,-29.166256,8.402894,20.85941,25.600756,-1.0871556,3.2576914,3.7795093,-11.77453,-10.070686,46.132347,-13.433511,1.3980576,4.764772,-4.276992,4.0998945,10.74157,11.445939,-37.86304,64.22812,-1.1964157,10.88118,13.385353,-8.778436,-15.2180605,34.557083,56.470055,-8.450336,4.814571,-23.47331
133,-3.9063704013824463,-97.67232513427734,75.12718963623047,2.3321505678975396,4.342794122104511,-98.5678365521316,-28.057861,7.766654,21.27399,25.367126,-1.2756524,3.1166203,2.7702155,-13.022227,-10.205384,49.502983,-12.046048,1.2171179,4.5213685,-4.540389,4.102349,10.350783,11.272876,-37.951263,64.69835,-0.9694418,11.148641,13.433778,-8.14806,-14.968941,34.69328,56.92129,-8.644346,4.905846,-23.05856
134,-3.7889678478240967,-98.47296142578125,75.24927520751953,2.7715192736643908,4.146808449909696,-98.51676021300075,-26.852396,7.047203,21.714643,24.875948,-1.5121596,2.9603224,1.7092713,-14.346904,-10.390212,52.91128,-10.673863,1.143686,4.246233,-4.8147526,4.0975404,9.9317045,11.10871,-38.007214,65.09233,-0.54256696,11.544504,13.412728,-7.7063456,-14.739768,35.023815,57.48667,-8.69958,5.039658,-22.5076
135,-3.669797897338867,-99.25618743896484,75.37881469726562,3.189574696364611,3.981096063045568,-98.44137962037561,-25.64012,6.289122,22.113,24.240456,-1.7738837,2.8106494,0.59669167,-15.685715,-10.628816,56.236702,-9.29076,1.0591458,3.9109397,-5.0622644,4.0473866,9.502404,10.955288,-38.060844,65.42345,-0.07685543,11.947502,13.386908,-7.22878,-14.528279,35.36878,57.985863,-8.864604,5.184391,-21.853249
136,-3.5398881435394287,-100.03843688964844,75.51052856445312,3.5563844041972517,3.860187629995331,-98.33508492760672,-24.509407,5.5430956,22.405989,23.586191,-2.0421693,2.6834166,-0.5780048,-16.991339,-10.926983,59.36848,-7.8721356,0.84024745,3.5363743,-5.2568207,3.9512932,9.037041,10.822059,-38.18228,65.712006,0.25955498,12.237267,13.431504,-6.7704616,-14.336771,35.728485,58.449574,-9.101085,5.30432,-21.132107
137,-3.422060966491699,-100.812255859375,75.63973236083984,3.865171331497157,3.8007262455702078,-98.1833595602601,-23.483973,4.8136888,22.564396,22.927202,-2.3281274,2.5773354,-1.8495543,-18.374264,-11.403959,62.345173,-6.1774983,0.38855863,3.1069126,-5.392468,3.7894652,8.535419,10.715234,-38.41056,65.95712,0.41233084,12.382368,13.586721,-6.3351912,-14.169428,36.10434,58.86651,-9.452551,5.3939557,-20.263277
138,-3.303560733795166,-101.58229064941406,75.77485656738281,4.135392490787031,3.788496915159319,-97.9905507158507,-22.504772,4.0811243,22.626133,22.197119,-2.6320975,2.4841492,-3.1987426,-19.859594,-12.024831,65.216194,-4.3030405,-0.24298474,2.6272404,-5.4860077,3.578291,8.006609,10.635879,-38.712696,66.140915,0.47082156,12.447747,13.806842,-5.922409,-14.027853,36.50901,59.240295,-9.891259,5.4662304,-19.25576
139,-3.188127279281616,-102.33634948730469,75.911376953125,4.367433345820646,3.7945871713812895,-97.77888382941516,-21.540922,3.3721786,22.624517,21.414509,-2.9254189,2.4028668,-4.5570445,-21.230658,-12.572249,67.85999,-2.720542,-0.9169713,2.1207159,-5.5361266,3.34885,7.4659157,10.583943,-39.020287,66.25164,0.49127895,12.457886,14.036741,-5.434283,-13.905931,36.85447,59.516846,-10.436942,5.5180964,-18.28088
140,-3.0770180225372314,-103.071044921875,76.04635620117188,4.555970211812362,3.794462614455077,-97.57278834508422,-20.58196,2.7239265,22.59252,20.624159,-3.1895738,2.3331501,-5.88219,-22.21603,-12.820441,70.16241,-1.8976858,-1.4466211,1.6595129,-5.5425606,3.1677856,6.886097,10.565398,-39.30176,66.28245,0.5286453,12.436778,14.227538,-5.1045423,-13.799908,37.321407,59.890846,-10.721139,5.5446544,-17.516188
141,-2.9931845664978027,-103.796875,76.1731948852539,4.685771389558138,3.794598435824926,-97.37244459130059,-19.64772,2.1617398,22.528519,19.854477,-3.434614,2.2868204,-7.1902585,-22.60513,-12.623385,72.0759,-2.1601446,-1.7314079,1.2081909,-5.488409,2.9975312,6.29615,10.581293,-39.534214,66.23207,0.5896799,12.3662615,14.361172,-4.6922336,-13.698014,37.724503,60.190186,-11.01895,5.545421,-16.99725
142,-2.9107730388641357,-104.5080795288086,76.3082046508789,4.762057527849003,3.8073757800427344,-97.17070296530957,-18.743822,1.6713116,22.424225,19.094524,-3.6751416,2.2576869,-8.5174,-22.541271,-12.138424,73.68361,-3.191604,-1.85798,0.76483345,-5.3819504,2.8286102,5.685486,10.634014,-39.75715,66.10715,0.6420458,12.241656,14.467019,-4.261727,-13.598319,38.11054,60.457314,-11.304975,5.524258,-16.636168
143,-2.8411178588867188,-105.22274017333984,76.44542694091797,4.806343976519685,3.818735646490666,-96.98683383365216,-17.833235,1.2310807,22.306479,18.316746,-3.8965604,2.2193518,-9.851991,-22.270597,-11.5871725,75.04744,-4.484304,-1.9086431,0.35001495,-5.249257,2.6906471,5.0679255,10.722979,-39.93012,65.88994,0.70478374,12.109338,14.554374,-3.8754864,-13.498379,38.510803,60.736885,-11.499753,5.498517,-16.415766
144,-2.7796123027801514,-105.9178695678711,76.57743835449219,4.836701184321706,3.815069700396394,-96.8404425414852,-16.880976,0.82254314,22.199284,17.496227,-4.0858617,2.146894,-11.1820345,-22.049444,-11.178914,76.21923,-5.526894,-1.9607327,-0.034992125,-5.112035,2.596106,4.471936,10.844806,-39.99674,65.56507,0.79768586,12.015838,14.630951,-3.4811409,-13.394498,38.86187,60.990833,-11.664126,5.487322,-16.317678
145,-2.720184803009033,-106.61227416992188,76.71015167236328,4.846205015969372,3.794906226270655,-96.73681769723845,-15.876476,0.45220792,22.103996,16.613544,-4.231701,2.0293055,-12.521895,-21.920555,-10.947119,77.20115,-6.2136908,-2.0467906,-0.38763666,-4.962348,2.5497797,3.8935273,10.998571,-39.94343,65.12403,0.941384,11.979982,14.689788,-3.0693,-13.284414,39.154026,61.21754,-11.8128195,5.4977336,-16.391197
146,-2.6678054332733154,-107.30073547363281,76.83567810058594,4.829983048972223,3.7647715533418533,-96.66529141966241,-14.837718,0.124470145,22.011621,15.685887,-4.3446026,1.8852845,-13.871005,-21.770733,-10.787087,77.966324,-6.80704,-2.1300502,-0.7128172,-4.7945943,2.5418124,3.324481,11.18537,-39.79517,64.57817,1.1247054,11.975129,14.729567,-2.6574366,-13.167482,39.41068,61.432064,-11.927558,5.520253,-16.628666
147,-2.6202902793884277,-108.00202941894531,76.9609375,4.805525684988799,3.723889230518111,-96.62204254079536,-13.776952,-0.17893633,21.928885,14.744203,-4.444225,1.7339483,-15.198631,-21.61723,-10.689138,78.51605,-7.3422403,-2.169879,-1.015755,-4.6302104,2.5640438,2.7734952,11.404801,-39.571976,63.950832,1.3000234,11.978902,14.76742,-2.2456844,-13.04332,39.625683,61.628036,-12.003792,5.548056,-16.926485
148,-2.5756189823150635,-108.682373046875,77.06973266601562,4.790164582923609,3.671512832938112,-96.60315016499686,-12.70579,-0.4764792,21.861145,13.818227,-4.548947,1.5919193,-16.473125,-21.475723,-10.644061,78.851204,-7.855005,-2.1253598,-1.296054,-4.4904737,2.61179,2.2451448,11.655423,-39.297134,63.265274,1.4209228,11.968866,14.821194,-1.8656797,-12.91265,39.82073,61.822178,-11.9971,5.573184,-17.181072
149,-2.5372891426086426,-109.36815643310547,77.17143249511719,4.793765824105365,3.592520274239392,-96.62135471470955,-11.602329,-0.7765386,21.817886,12.905275,-4.651754,1.4661227,-17.660267,-21.404064,-10.697956,78.96117,-8.347068,-1.9761791,-1.5543271,-4.387237,2.6893988,1.7558944,11.936361,-38.949883,62.51564,1.478516,11.9405775,14.897538,-1.4246219,-12.774012,39.906876,61.945312,-11.989506,5.6000338,-17.389914
150,-2.5016136169433594,-110.04473876953125,77.26322937011719,4.804948970799368,3.492380627075968,-96.67382066833574,-10.468385,-1.0691457,21.79298,11.991981,-4.745855,1.3460829,-18.782526,-21.377789,-10.841915,78.84578,-8.801102,-1.7491623,-1.7777082,-4.307255,2.8057683,1.2848616,12.248455,-38.54136,61.696487,1.4922706,11.905465,14.987306,-1.0092158,-12.628635,39.9642,62.064342,-11.884512,5.6283503,-17.600975
151,-2.4745333194732666,-110.72796630859375,77.34083557128906,4.810429967260841,3.401166181949518,-96.73333316016596,-9.350558,-1.3456322,21.768398,11.091626,-4.8496222,1.2205305,-19.89512,-21.290232,-10.983948,78.523674,-9.22584,-1.4744025,-1.9968286,-4.232588,2.9248726,0.8341109,12.589424,-38.084644,60.822796,1.4783839,11.86569,15.079216,-0.6213061,-12.478253,40.00531,62.18122,-11.749973,5.650602,-17.782682
152,-2.451526641845703,-111.41361999511719,77.40106201171875,4.796772924013376,3.3486323714845816,-96.7725715523805,-8.295952,-1.5967203,21.72765,10.217967,-4.9802566,1.0780814,-21.052465,-21.037642,-11.030615,78.0131,-9.631826,-1.183888,-2.247237,-4.1456466,3.0043912,0.41373968,12.954342,-37.585876,59.911,1.4575176,11.823657,15.162324,-0.20470336,-12.325127,39.98626,62.25672,-11.729067,5.6614766,-17.902342
153,-2.434387445449829,-112.0859375,77.44438934326172,4.753784099019825,3.347045267502717,-96.78584354851915,-7.3231926,-1.8107667,21.667744,9.374383,-5.1521153,0.91190106,-22.285057,-20.572647,-10.947424,77.31673,-10.062393,-0.9231182,-2.517625,-4.033982,3.0475872,0.008585266,13.340896,-37.045433,58.949863,1.4298686,11.7838955,15.237712,0.11133087,-12.17339,40.018887,62.378952,-11.694635,5.6627936,-17.934631
154,-2.41558575630188,-112.75813293457031,77.47872924804688,4.6925585209143,3.3783549039534853,-96.78619143902277,-6.4040265,-1.9970721,21.599072,8.55388,-5.349313,0.72788316,-23.552528,-19.965548,-10.786896,76.42235,-10.500637,-0.6673903,-2.8261185,-3.9098742,3.0508416,-0.35016868,13.747588,-36.42658,57.933826,1.397796,11.74411,15.307537,0.5251951,-12.020878,39.918545,62.40501,-11.864021,5.661911,-17.89964
155,-2.4066638946533203,-113.43871307373047,77.50537872314453,4.629932618801807,3.4269604614980063,-96.77423086933729,-5.504161,-2.1793232,21.522879,7.7277727,-5.5440717,0.53411305,-24.802946,-19.289398,-10.587028,75.325455,-10.866743,-0.34673265,-3.129636,-3.789105,3.0522969,-0.7167315,14.17281,-35.81789,56.91324,1.3379633,11.694094,15.373385,0.85184735,-11.8719635,39.879948,62.476494,-11.920002,5.6404357,-17.842985
156,-2.4080026149749756,-114.10907745361328,77.5133285522461,4.58215648167784,3.477773204804158,-96.75100912577105,-4.6809044,-2.3431854,21.442408,7.0754056,-5.8160515,0.33765495,-25.985672,-18.615017,-10.385122,74.02122,-11.081884,0.11118043,-3.43641,-3.6867843,3.0549185,-1.0947999,14.612713,-35.25321,55.930664,1.2424065,11.6234865,15.43252,1.1833029,-11.727287,39.84172,62.53442,-11.917915,5.5886545,-17.806353
157,-2.414767026901245,-114.7888412475586,77.51329040527344,4.553102574724021,3.533834157164124,-96.71423823871498,-4.131464,-2.4138832,21.365229,7.0387673,-6.3928685,0.13101563,-27.099436,-17.932703,-10.169581,72.48231,-11.1080265,0.7883335,-3.736568,-3.6059082,3.0613973,-1.5003842,15.06495,-34.750496,54.992702,1.0985968,11.525354,15.479556,1.4766382,-11.590713,39.839622,62.609665,-11.746169,5.4833317,-17.80353
158,-2.4102730751037598,-115.4679183959961,77.5100326538086,4.534610874543662,3.6006799357063817,-96.66345750880605,-3.5948615,-2.4938984,21.282005,7.0021763,-6.958495,-0.08288983,-28.160997,-17.220713,-9.923942,70.71421,-10.9978895,1.6199723,-4.042774,-3.5376158,3.0601032,-1.9149066,15.527852,-34.276085,54.079712,0.9179668,11.406215,15.517035,1.7839339,-11.462639,39.816895,62.65948,-11.520066,5.3389344,-17.809309
159,-2.4075915813446045,-116.14974975585938,77.49539947509766,4.524249856714323,3.6677425578409113,-96.60230199279442,-3.0558503,-2.5807986,21.191359,6.9630766,-7.518397,-0.29246163,-29.150747,-16.523094,-9.676874,68.761856,-10.80447,2.4673328,-4.3420134,-3.4790735,3.066324,-2.3432713,15.997943,-33.841373,53.20563,0.71724844,11.275401,15.558011,2.0501318,-11.342559,39.838524,62.7287,-11.247402,5.193309,-17.811405
160,-2.416404962539673,-116.83851623535156,77.47244262695312,4.520772085404844,3.7247196707317887,-96.5345979568393,-2.5002253,-2.6734757,21.092707,6.9185743,-8.076894,-0.48538342,-30.052893,-15.8812065,-9.457735,66.672554,-10.577118,3.194053,-4.642216,-3.4292374,3.079732,-2.7676837,16.469782,-33.433613,52.381546,0.52146983,11.14281,15.614669,2.343986,-11.225531,39.854168,62.77292,-11.102251,5.0881176,-17.796757
161,-2.427847385406494,-117.52944946289062,77.44296264648438,4.526054092600099,3.770313562337625,-96.45974802597644,-1.9250144,-2.7752514,20.98364,6.8646655,-8.632382,-0.6454011,-30.869524,-15.277898,-9.247659,64.43269,-10.307918,3.8086011,-4.938526,-3.3895025,3.1060479,-3.1999102,16.93972,-33.06478,51.620697,0.31369644,10.992051,15.702512,2.6285899,-11.109194,39.90271,62.825565,-11.068,5.0339093,-17.765326
162,-2.4471373558044434,-118.2231216430664,77.39864349365234,4.540025104935176,3.8095842573259326,-96.37594652072875,-1.3365815,-2.8860295,20.864603,6.801917,-9.184264,-0.78205144,-31.60521,-14.697796,-9.036972,62.02295,-9.975057,4.37099,-5.2337575,-3.359633,3.1395926,-3.6446388,17.406527,-32.732742,50.92032,0.089115284,10.823568,15.811525,2.9045172,-10.992495,39.97474,62.884388,-11.101117,5.009234,-17.72368
163,-2.457247018814087,-118.91958618164062,77.33819580078125,4.548696122194449,3.841949724211232,-96.28734864605843,-0.74001783,-2.9874585,20.738512,6.746961,-9.739608,-0.92126995,-32.258217,-14.171831,-8.877312,59.499706,-9.610616,4.826121,-5.524009,-3.3274949,3.175856,-4.088477,17.867212,-32.420506,50.268204,-0.1072609,10.672005,15.917282,3.1910133,-10.875005,40.040936,62.932907,-11.196251,5.0044746,-17.670483
164,-2.4744701385498047,-119.62123107910156,77.2685546875,4.557738189873188,3.868013981953391,-96.19662036954477,-0.12998499,-3.0845075,20.610624,6.69175,-10.2967615,-1.0922418,-32.817505,-13.740096,-8.81499,56.887886,-9.229941,5.12177,-5.797454,-3.2996264,3.2148178,-4.5381894,18.318483,-32.12841,49.660564,-0.24214591,10.572154,15.996968,3.4401157,-10.7593155,40.133976,63.0036,-11.260416,5.0079136,-17.605234
165,-2.498469114303589,-120.327880859375,77.18402099609375,4.587565518423305,3.8800016801722843,-96.11029582979303,0.47164962,-3.1876693,20.49084,6.703371,-10.888328,-1.3055706,-33.290676,-13.405399,-8.823486,54.193665,-8.819763,5.215822,-6.0622015,-3.2995925,3.2496948,-4.981197,18.759075,-31.837805,49.1001,-0.3080662,10.537497,16.045477,3.7585843,-10.643506,40.148598,63.021072,-11.444158,5.0227647,-17.52207
166,-2.5259878635406494,-121.0418930053711,77.08930969238281,4.6196498827308385,3.8823848510448573,-96.02264207980642,1.0892037,-3.2884235,20.368578,6.7134967,-11.477618,-1.5477545,-33.670322,-13.127378,-8.910788,51.381138,-8.367712,5.1515994,-6.301626,-3.3056102,3.2959166,-5.4431453,19.186895,-31.576561,48.591736,-0.32646188,10.548329,16.076725,4.0064583,-10.530095,40.221348,63.08737,-11.5693445,5.0488896,-17.424713
167,-2.565463066101074,-121.77763366699219,76.9896469116211,4.66116842102848,3.8864483634488796,-95.92942642665783,1.7116312,-3.395593,20.246193,6.722447,-12.074392,-1.8001308,-33.952194,-12.923259,-9.109277,48.452637,-7.9013324,5.0228558,-6.560391,-3.321477,3.3134177,-5.883166,19.601507,-31.313564,48.134106,-0.287048,10.589044,16.089563,4.416025,-10.417969,40.14066,63.028156,-11.924357,5.090785,-17.318384
168,-2.596440076828003,-122.5010757446289,76.87543487548828,4.719185561010726,3.903102211680723,-95.82595577894787,2.3284187,-3.5176578,20.125526,6.73004,-12.687609,-2.044659,-34.12819,-12.808386,-9.452269,45.398766,-7.4458585,4.9246125,-6.8065104,-3.3489456,3.3146136,-6.318194,19.998049,-31.07708,47.714977,-0.17523639,10.644443,16.087753,4.778318,-10.313523,40.11071,62.986526,-12.1917,5.1385617,-17.214237
169,-2.62762451171875,-123.23582458496094,76.75408172607422,4.797482566497531,3.9360680724476884,-95.71236739877517,2.9347296,-3.6565893,20.014235,6.7401953,-13.327925,-2.284308,-34.17618,-12.796367,-9.984761,42.16637,-6.981427,4.8884945,-7.019508,-3.38537,3.3159134,-6.779962,20.37238,-30.887777,47.342445,0.029352592,10.715531,16.067074,4.883083,-10.223812,40.349567,63.110516,-12.069621,5.199903,-17.124924
170,-2.663060188293457,-123.97299194335938,76.6172866821289,4.891789926280453,3.9773789627039373,-95.58861936573742,3.541067,-3.8092427,19.90689,6.7471743,-13.985635,-2.5267882,-34.09713,-12.851998,-10.687873,38.75214,-6.4900665,4.8792233,-7.2666206,-3.432091,3.2772539,-7.19582,20.725435,-30.673405,47.009968,0.33422762,10.808927,16.023754,5.163522,-10.144015,40.43684,63.090332,-12.170871,5.2860713,-17.036129
171,-2.7138075828552246,-124.72599792480469,76.47291564941406,4.999405375715129,4.020107108756798,-95.44945931309222,4.150414,-3.9731555,19.78582,6.7532477,-14.645933,-2.761869,-33.914173,-12.924306,-11.496592,35.21408,-5.994835,4.887218,-7.5107718,-3.4872074,3.230968,-7.621112,21.059036,-30.492094,46.727245,0.65979993,10.914411,15.972019,5.446499,-10.077647,40.521397,63.05051,-12.265495,5.361903,-16.93634
172,-2.7564218044281006,-125.48696899414062,76.31309509277344,5.1176160944941085,4.056341638327426,-95.28879996423692,4.768539,-4.146218,19.631834,6.760304,-15.294907,-2.9796681,-33.652565,-12.974887,-12.341551,31.61468,-5.521933,4.8959246,-7.75726,-3.5503294,3.1890337,-8.049405,21.376808,-30.342106,46.477615,0.9543691,11.023031,15.922395,5.731245,-10.025201,40.59861,62.98962,-12.3629675,5.398588,-16.811695
173,-2.806415319442749,-126.24897766113281,76.14137268066406,5.2560250530414345,4.080716897627829,-95.09505389950944,5.4004245,-4.3395343,19.428679,6.7678633,-15.928981,-3.1762369,-33.27822,-13.042852,-13.323456,27.90155,-5.0822544,4.883283,-8.017362,-3.632518,3.1541839,-8.480498,21.681335,-30.223476,46.256958,1.2205231,11.150112,15.873709,6.0233474,-9.987522,40.656807,62.89976,-12.480071,5.3758583,-16.64047
174,-2.8586816787719727,-127.00564575195312,75.95854187011719,5.420906248548563,4.0890242715149165,-94.86497916006627,6.0525618,-4.558889,19.178879,6.7745247,-16.555866,-3.3573701,-32.76378,-13.126433,-14.44949,24.016443,-4.636099,4.876147,-8.296247,-3.7403557,3.1272676,-8.907729,21.972878,-30.130161,46.063732,1.486986,11.295064,15.820618,6.322693,-9.964894,40.703365,62.781277,-12.606194,5.313239,-16.436174
175,-2.9171581268310547,-127.78388214111328,75.76100158691406,5.608650893630315,4.072364595275207,-94.60145056958842,6.7327437,-4.7973194,18.887934,6.781462,-17.175613,-3.5271046,-32.149975,-13.160184,-15.500857,20.030926,-4.1432447,4.91303,-8.592266,-3.8700242,3.119874,-9.338534,22.254297,-30.070036,45.90381,1.7188765,11.424598,15.767827,6.618374,-9.955967,40.759842,62.645527,-12.7112055,5.241877,-16.237118
176,-2.982161521911621,-128.57212829589844,75.5497055053711,5.816207018083441,4.020585364105933,-94.3050862639165,7.450793,-5.0493693,18.558857,6.785843,-17.785717,-3.688909,-31.477438,-13.107868,-16.253115,16.025816,-3.57272,5.016246,-8.905336,-4.020378,3.1440618,-9.762189,22.528275,-30.037392,45.767715,1.8976911,11.50638,15.720499,6.8994637,-9.958054,40.847282,62.5054,-12.765629,5.193249,-16.081612
177,-3.0486652851104736,-129.35586547851562,75.32270050048828,6.063219416975614,3.923436416276693,-93.9588703070527,8.215166,-5.3348446,18.172426,6.7884817,-18.38588,-3.8361204,-30.702736,-12.991249,-16.619009,11.856779,-2.8916721,5.189994,-9.248604,-4.2147794,3.2025445,-10.199632,22.802486,-30.054573,45.668518,1.997815,11.518198,15.676986,7.171941,-9.969264,40.97523,62.34978,-12.747537,5.182402,-15.989199
178,-3.1299777030944824,-130.15118408203125,75.08216857910156,6.355757737039493,3.775759524495673,-93.55396225751846,9.033957,-5.659183,17.714664,6.78866,-18.977655,-3.967905,-29.639639,-12.833347,-16.766718,7.18361,-1.9438852,5.4013314,-9.633143,-4.462329,3.2967064,-10.631787,23.07887,-30.105764,45.589046,2.046607,11.483016,15.6347065,7.4388986,-9.988343,41.131947,62.17737,-12.677977,5.1905756,-15.936239
179,-3.2138559818267822,-130.95655822753906,74.8326187133789,6.643277732007904,3.6012107152121895,-93.1308933947094,9.88238,-5.9610157,17.228754,6.792117,-19.563053,-4.1020985,-30.50597,-13.256307,-16.307133,6.8996825,-3.1991935,5.6142097,-10.030126,-4.7046714,3.418427,-11.046703,23.343184,-30.167147,45.53097,2.0574472,11.43299,15.6003,7.6783404,-10.013905,41.309986,62.02503,-12.590108,5.1984973,-15.897993
180,-3.2995517253875732,-131.7526092529297,74.59333038330078,6.866929585877611,3.436375888091266,-92.74357897574046,10.727816,-6.174897,16.775673,6.7964826,-20.14144,-4.257173,-31.319263,-13.588265,-15.79809,6.7844234,-4.3141084,5.7783732,-10.401994,-4.877607,3.5578568,-11.410969,23.607058,-30.206083,45.46254,2.0398407,11.401488,15.578291,7.8643804,-10.049332,41.506588,61.92379,-12.517021,5.1862493,-15.848219
181,-3.384854316711426,-132.5391845703125,74.36087036132812,7.018547188441079,3.3002243308600567,-92.40841719009974,11.552292,-6.296523,16.377573,6.797386,-20.728642,-4.438323,-32.0713,-13.772466,-15.1350765,6.7201366,-5.2408767,5.8613496,-10.7266655,-4.9620256,3.7095306,-11.750912,23.84986,-30.228458,45.405296,2.0038373,11.400726,15.571389,7.984262,-10.096001,41.72335,61.89076,-12.461091,5.135786,-15.778098
182,-3.477438449859619,-133.3375701904297,74.13434600830078,7.096001462362004,3.1974839747469352,-92.12633454914014,12.343132,-6.3196626,16.039927,6.8117347,-21.326906,-4.6429777,-32.762928,-13.794599,-14.307533,6.6600738,-6.0021925,5.8801184,-10.983701,-4.9495835,3.8558161,-12.112827,24.021637,-30.262571,45.42886,1.9510406,11.408411,15.584244,8.0512705,-10.142909,41.94739,61.928925,-12.408824,5.061404,-15.70468
183,-3.564659595489502,-134.13504028320312,73.91560363769531,7.098948522918892,3.1251153550332007,-91.90419101057375,13.115981,-6.244268,15.772071,6.8209023,-21.893475,-4.866688,-33.312557,-13.694684,-13.574876,6.608633,-6.522694,5.8914285,-11.169666,-4.848233,3.9856133,-12.453797,24.125612,-30.286526,45.516685,1.8849261,11.409546,15.616779,8.080529,-10.181221,42.155968,62.029808,-12.37296,4.9919953,-15.636946
184,-3.6512885093688965,-134.9217987060547,73.70372009277344,7.031287297793981,3.0811582781212867,-91.74455331338541,13.878031,-6.0750403,15.578893,6.8236194,-22.397076,-5.103125,-33.659084,-13.533042,-13.1898155,6.597825,-6.739341,5.9556446,-11.3273115,-4.6807113,4.091968,-12.670337,24.249092,-30.254557,45.568592,1.7697453,11.392711,15.664563,8.097118,-10.238016,42.393764,62.129776,-12.337254,4.9598603,-15.582567
185,-3.7451233863830566,-135.7122344970703,73.51012420654297,6.888744752714803,3.0445216144452933,-91.65537243459652,14.656812,-5.808561,15.475195,6.823002,-22.888523,-5.347753,-33.713696,-13.318956,-13.279752,6.5940394,-6.573482,6.286063,-11.436113,-4.435584,4.1911488,-12.763131,24.349648,-30.145021,45.610035,1.6238217,11.341452,15.724774,8.0977545,-10.296936,42.63612,62.263885,-12.322109,4.9705534,-15.554843
186,-3.8459534645080566,-136.50662231445312,73.32756042480469,6.677948793446559,3.0214280979239487,-91.63076292615027,15.443602,-5.459249,15.455689,6.8164406,-23.365522,-5.6028075,-33.54401,-13.03127,-13.681114,6.6053605,-6.08694,6.79211,-11.513046,-4.113795,4.2840223,-12.738484,24.43849,-29.961006,45.629593,1.444369,11.269387,15.797858,8.069772,-10.3656435,42.907383,62.431873,-12.315416,5.0101504,-15.546022
187,-3.949167490005493,-137.309326171875,73.16507720947266,6.3744530208146095,3.057994565464285,-91.67950166503158,16.179298,-5.003678,15.5268545,6.807213,-23.720518,-5.883249,-33.274803,-12.616148,-14.232255,6.6209826,-5.3706408,7.0653977,-11.512909,-3.7008307,4.3347206,-12.662801,24.497025,-29.763842,45.68073,1.2571045,11.195928,15.890199,8.015705,-10.428204,43.152653,62.622517,-12.32234,5.0700154,-15.531978
188,-4.0679168701171875,-138.1430206298828,73.05432891845703,5.956095974620853,3.1968916866031716,-91.80808946301323,16.809242,-4.4191523,15.692084,6.7987804,-23.846651,-6.2044916,-33.0286,-12.04016,-14.774155,6.644337,-4.519921,6.691676,-11.440368,-3.173125,4.3109035,-12.536827,24.539438,-29.568201,45.748238,1.0770375,11.147984,16.007816,7.921024,-10.4935465,43.373146,62.818607,-12.330108,5.14771,-15.4903965
189,-4.2095746994018555,-138.95286560058594,73.05237579345703,5.332422524579503,3.488040823041763,-92.08907370341859,17.291912,-3.608095,16.041584,6.792441,-23.756535,-6.594041,-32.79842,-11.227294,-15.4273405,6.676179,-3.533074,5.252089,-11.2628145,-2.4329076,4.196302,-12.308808,24.582947,-29.325565,45.787205,0.91034997,11.134023,16.167871,7.760726,-10.600763,43.62608,63.00266,-12.341618,5.255559,-15.385635
190,-4.342716217041016,-139.77749633789062,73.09236907958984,4.563485016403059,3.86697189227446,-92.51089778266224,17.65084,-2.6310887,16.557114,6.9022336,-23.560574,-7.0341334,-32.524067,-10.243349,-16.208075,6.7426295,-2.3980975,3.055605,-10.91799,-1.5657932,4.0184517,-12.068654,24.592962,-29.135324,45.88743,0.7288545,11.138361,16.370434,7.619956,-10.699374,43.77101,63.16159,-12.447323,5.389288,-15.238869
191,-4.481856346130371,-140.619384765625,73.1418228149414,3.7927893662081154,4.225805742235442,-92.94568523816527,17.986639,-1.6484504,17.075188,7.106953,-23.185791,-7.4792113,-32.217155,-9.224752,-16.855244,6.821185,-1.1590211,0.768237,-10.512269,-0.7188745,3.851443,-11.831586,24.571724,-28.995392,46.03439,0.552219,11.1509075,16.570179,7.4122257,-10.778549,43.896004,63.363373,-12.442828,5.5214286,-15.11095
192,-4.644084453582764,-141.46273803710938,73.2024917602539,3.19170468658382,4.478927860638894,-93.2403911669238,18.409428,-0.85178727,17.40706,7.2908177,-22.509798,-7.8757677,-31.974375,-8.37224,-17.082893,7.0634484,0.06684257,-0.9274369,-10.197612,-0.06332388,3.7307882,-11.604918,24.528955,-28.895372,46.22996,0.3907327,11.16153,16.719357,7.274371,-10.839717,43.86783,63.509903,-12.42549,5.6319838,-15.058103
193,-4.821155548095703,-142.30738830566406,73.2707290649414,2.8122685461661683,4.6339547460843935,-93.31924663430603,18.893457,-0.26104292,17.497063,7.4874587,-21.55294,-8.207614,-32.90271,-8.054189,-16.50417,9.786006,0.22377844,-1.7978549,-10.021055,0.35143912,3.6296391,-11.398814,24.46885,-28.867714,46.482056,0.24298549,11.171916,16.802763,7.2627225,-10.880554,43.597977,63.55559,-12.422363,5.7070765,-15.079426
194,-5.008064270019531,-143.1693572998047,73.34516906738281,2.5630553981685895,4.743912453547449,-93.252054116675,19.385288,0.23365195,17.422682,7.711225,-20.345266,-8.492984,-33.656273,-7.772912,-15.531509,12.100513,0.8017857,-2.2450764,-9.903268,0.6234759,3.5243018,-11.245647,24.376474,-28.944223,46.820236,0.086829714,11.185908,16.849768,7.3392105,-10.901463,43.124184,63.534847,-12.424109,5.760522,-15.148067
195,-5.200654029846191,-144.02044677734375,73.42538452148438,2.38408520789702,4.802647048188535,-93.13572843295815,19.049164,0.93227583,17.216862,9.802512,-19.81632,-8.737175,-34.243584,-7.5323243,-14.520133,14.191637,1.3936406,-2.4903991,-9.793995,0.8138728,3.4595387,-11.095645,24.246479,-29.036327,47.198536,-0.039949734,11.199233,16.874617,7.4159865,-10.892898,42.597523,63.532608,-12.379514,5.810324,-15.28435
196,-5.3874406814575195,-144.85362243652344,73.52030944824219,2.208813318989136,4.800211149709499,-93.06681008423696,17.990376,1.8257205,16.903046,13.518773,-19.79923,-8.943598,-34.599262,-7.325613,-13.845354,16.092022,1.6636754,-2.743271,-9.658351,0.9927408,3.488157,-10.887285,24.084532,-29.03965,47.55437,-0.10422036,11.2075,16.88772,7.394125,-10.862683,42.18058,63.62586,-12.23475,5.8750606,-15.508415
197,-5.580090522766113,-145.67953491210938,73.63752746582031,2.024865822082334,4.720312460264161,-93.06605502972775,16.868431,2.7035496,16.451056,17.432808,-19.458809,-9.092351,-34.719105,-7.163619,-13.61756,17.882889,1.4289992,-3.0320194,-9.479006,1.1809677,3.6453743,-10.603392,23.880623,-28.91337,47.868664,-0.06626699,11.201846,16.880806,7.2577124,-10.819796,41.88685,63.829865,-11.940931,5.9758263,-15.89337
198,-5.7694902420043945,-146.49169921875,73.76753234863281,1.8419763223703884,4.583874685163494,-93.08583161088681,15.670613,3.5720363,15.853345,21.528984,-18.83026,-9.184476,-34.655903,-7.04422,-13.630186,19.550642,0.88444364,-3.2460933,-9.289534,1.3721449,3.8882296,-10.264945,23.633196,-28.699259,48.167633,0.050262306,11.187,16.85015,7.057611,-10.769637,41.6439,64.09571,-11.545845,6.0956035,-16.406246
199,-5.94929313659668,-147.2931671142578,73.90901184082031,1.64882322158903,4.4256704584636575,-93.13282113128399,14.431532,4.4267373,15.21143,25.645317,-17.986458,-9.252568,-34.40931,-6.9357986,-13.769874,20.94985,0.2825525,-3.3695447,-9.087264,1.5696317,4.1623807,-9.898054,23.346653,-28.452505,48.475353,0.1815224,11.177795,16.817932,6.776815,-10.719812,41.48438,64.410706,-11.10367,6.1956525,-16.905516
200,-6.1219305992126465,-148.08700561523438,74.06082916259766,1.438748465963644,4.279532600946821,-93.21299466021098,13.168237,5.2663884,14.625762,29.671389,-17.021738,-9.333268,-33.979336,-6.7889404,-13.93154,21.930372,-0.11647428,-3.384117,-8.875909,1.7698358,4.4120383,-9.50671,23.029617,-28.209665,48.79968,0.27673414,11.190025,16.80472,6.421456,-10.677342,41.425236,64.74269,-10.695898,6.241019,-17.247898
201,-6.285981178283691,-148.87713623046875,74.2259521484375,1.2221603603225382,4.138430110356517,-93.35575809238715,11.868108,6.0656476,14.112449,33.70078,-15.961557,-9.38273,-33.327076,-6.568489,-14.11702,22.3985,-0.22152656,-3.223365,-8.637653,1.9589677,4.6466928,-9.072067,22.683695,-27.946873,49.130165,0.3154572,11.2343855,16.82377,5.967926,-10.647155,41.500175,65.12618,-10.28373,6.1938553,-17.395254
202,-6.442514896392822,-149.65005493164062,74.39905548095703,1.017300201351927,3.986056502022615,-93.56182606891166,10.526282,6.809558,13.63889,37.77956,-14.770308,-9.40453,-32.47939,-6.283719,-14.354979,22.461605,-0.17962503,-2.9051366,-8.365751,2.1230478,4.889761,-8.585375,22.308159,-27.644915,49.452663,0.33520263,11.300628,16.861029,5.430274,-10.629166,41.693462,65.55066,-9.846446,6.084783,-17.421087
203,-6.5915422439575195,-150.41098022460938,74.5824203491211,0.8278890052794708,3.842644579555292,-93.78990078030661,9.153486,7.524118,13.223304,41.769234,-13.473459,-9.505475,-31.53329,-5.952859,-14.588723,22.27023,-0.08545308,-2.542663,-8.081934,2.2601314,5.10826,-8.100256,21.917189,-27.380161,49.7961,0.33463383,11.371732,16.89699,4.8546944,-10.62387,41.952435,65.93383,-9.483613,5.9829154,-17.352053
204,-6.747677326202393,-151.16380310058594,74.77584075927734,0.6553395144801789,3.7287375155946334,-93.99777476476694,7.751617,8.241594,12.874461,45.548035,-12.104166,-9.785905,-30.58456,-5.607671,-14.763735,21.983728,-0.033217993,-2.2519488,-7.798709,2.3678336,5.2758746,-7.666363,21.531757,-27.232458,50.175377,0.31504562,11.431625,16.912287,4.2514944,-10.631261,42.25348,66.21468,-9.244672,5.9551735,-17.215658
205,-6.916196823120117,-151.9160614013672,74.97979736328125,0.5036115761579428,3.6432714940997655,-94.18650865574753,6.2967095,9.019858,12.661653,49.20927,-10.515161,-10.354559,-29.61743,-5.2526665,-14.854831,21.58036,-0.02095514,-2.0473611,-7.5171156,2.427937,5.384483,-7.2768865,21.168058,-27.217527,50.59696,0.25054815,11.47634,16.921312,3.6455765,-10.650699,42.578243,66.34017,-9.215048,6.043503,-16.951656
206,-7.085175037384033,-152.6663055419922,75.18717193603516,0.37347850356807083,3.576981550238316,-94.37675016598051,4.779439,9.829535,12.542544,52.827557,-8.762798,-11.1181345,-28.595858,-4.8791575,-14.890961,21.001629,-0.010667866,-1.8793845,-7.2228794,2.4388154,5.456357,-6.9057126,20.829937,-27.300432,51.0333,0.14287433,11.515521,16.926628,2.9990835,-10.680907,42.965324,66.36658,-9.309347,6.202393,-16.567324
207,-7.25261116027832,-153.41343688964844,75.39793395996094,0.2605696747258099,3.5392425493825677,-94.5550081396121,3.2259862,10.562595,12.370068,56.23685,-7.179914,-11.893391,-27.585308,-4.5073767,-14.894292,20.35895,-0.033863172,-1.7600152,-6.927555,2.4217427,5.49596,-6.5506845,20.519394,-27.461765,51.45026,0.04333981,11.553106,16.888884,2.3392632,-10.720345,43.35524,66.316414,-9.488682,6.3714867,-16.191303
208,-7.419070720672607,-154.14724731445312,75.61103820800781,0.16024125919393015,3.540253564972568,-94.70686827993764,1.667636,11.098953,12.018119,59.24596,-6.0952806,-12.52329,-26.655447,-4.160152,-14.887327,19.772106,-0.123437576,-1.6955597,-6.6366363,2.3981338,5.50765,-6.212748,20.234627,-27.686024,51.813892,0.0076902523,11.593238,16.769361,1.6797694,-10.768465,43.702442,66.224304,-9.689347,6.4904556,-15.95291
209,-7.582946300506592,-154.87139892578125,75.79978942871094,0.0685743636771214,3.5980659115882556,-94.81965030208418,0.1011808,11.38789,11.447066,61.809055,-5.708464,-12.995903,-25.84555,-3.8440175,-14.873366,19.284624,-0.30767822,-1.6981287,-6.3594947,2.3723655,5.4677362,-5.9042835,19.977098,-27.986807,52.129242,0.06725023,11.651407,16.53517,1.0357003,-10.824872,44.00017,66.0776,-9.963561,6.5492973,-15.857964
210,-7.739351749420166,-155.5850067138672,75.98664093017578,-0.010996409668038007,3.702675312920021,-94.90345626089751,-1.4872866,11.48426,10.750237,64.032585,-5.811324,-13.410302,-25.116297,-3.5554366,-14.840392,18.844225,-0.5678004,-1.7542167,-6.0883846,2.3309402,5.382272,-5.6196203,19.746906,-28.36595,52.408245,0.19096777,11.720402,16.214006,0.39053893,-10.889448,44.275085,65.869354,-10.313206,6.578094,-15.847202
211,-7.891818046569824,-156.2886962890625,76.1716079711914,-0.07135250836408923,3.8224579974273034,-94.97763804323269,-3.0843875,11.42636,10.00713,65.95068,-6.112427,-13.778905,-24.412766,-3.295966,-14.7879925,18.409712,-0.85642314,-1.829652,-5.812842,2.2717857,5.2942863,-5.3484097,19.539934,-28.802622,52.648182,0.31859428,11.769724,15.859541,-0.25169462,-10.963135,44.49371,65.617386,-10.655545,6.580651,-15.952946
212,-8.022043228149414,-156.9776611328125,76.35759735107422,-0.10514787554813929,3.925811296751844,-95.06092610037769,-4.677968,11.257757,9.289178,67.59204,-6.317194,-14.112857,-23.683495,-3.066882,-14.71759,17.945019,-1.1293464,-1.8946743,-5.519206,2.194885,5.247379,-5.083678,19.34926,-29.279018,52.84902,0.38998625,11.769598,15.5261755,-0.8952435,-11.048117,44.63164,65.346146,-10.893395,6.560514,-16.207354
213,-8.147872924804688,-157.67633056640625,76.54434204101562,-0.10388185966948763,4.007638795564423,-95.15332202299945,-6.294535,10.912435,8.525988,68.944115,-6.3669615,-14.398641,-22.917128,-2.8746016,-14.627662,17.436104,-1.3815024,-1.9607933,-5.2002845,2.0935495,5.2506776,-4.840947,19.172848,-29.817596,53.017017,0.3681532,11.699493,15.2161875,-1.5427176,-11.147988,44.67877,65.05951,-11.0164385,6.5106697,-16.655361
214,-8.276371955871582,-158.36631774902344,76.7257080078125,-0.07944243599239731,4.083164265923994,-95.24544034517646,-7.931455,10.405844,7.7088346,70.00575,-6.4124837,-14.634965,-22.138697,-2.7112896,-14.523957,16.900978,-1.6352203,-2.039485,-4.864406,1.9779614,5.2815833,-4.6260233,19.009832,-30.423843,53.159058,0.2885917,11.579771,14.90496,-2.18338,-11.265368,44.64338,64.740204,-11.078993,6.432176,-17.267485
215,-8.390944480895996,-159.0522918701172,76.8971176147461,-0.04941864420346803,4.151760758194717,-95.34556329164184,-9.528915,9.906798,6.9995584,70.80315,-6.464381,-14.845791,-21.35613,-2.5612504,-14.412653,16.3604,-1.8844014,-2.1043108,-4.5161867,1.8675364,5.3355765,-4.4077544,18.85216,-31.043564,53.26881,0.21383624,11.442596,14.607743,-2.8161452,-11.400471,44.54397,64.392624,-11.06248,6.3389897,-17.963726
216,-8.495064735412598,-159.72415161132812,77.06159973144531,-0.03338576174043401,4.213275160553233,-95.46037725900858,-11.037701,9.6014385,6.5678415,71.37068,-6.536727,-15.000033,-20.577095,-2.4076674,-14.301782,15.831051,-2.1234133,-2.128728,-4.165842,1.785782,5.4052887,-4.157866,18.689077,-31.623596,53.347282,0.20161606,11.318809,14.340389,-3.432596,-11.551461,44.39407,64.01788,-10.958796,6.244722,-18.66458
217,-8.591423034667969,-160.40492248535156,77.2121353149414,-0.029148157453601938,4.263972589461329,-95.59196397448157,-12.440677,9.576724,6.5198708,71.6935,-6.6150393,-15.000033,-19.796326,-2.2559443,-14.194154,15.308587,-2.3395867,-2.0908537,-3.8133845,1.7397785,5.4964733,-3.8734863,18.513075,-32.165375,53.395184,0.27601403,11.199619,14.102598,-4.0407634,-11.717911,44.196316,63.62986,-10.7195215,6.1394625,-19.41931
218,-8.678903579711914,-161.08155822753906,77.34992218017578,-0.024843468380467776,4.306931028403258,-95.73514532803713,-13.773689,9.712861,6.703527,71.75947,-6.6933217,-15.000033,-19.017921,-2.1160378,-14.085291,14.794968,-2.544842,-2.0124474,-3.4578075,1.7144812,5.604213,-3.5680003,18.322086,-32.68744,53.420216,0.40893614,11.073149,13.888536,-4.636215,-11.899564,43.942715,63.222126,-10.37049,6.016838,-20.24577
219,-8.767634391784668,-161.75762939453125,77.47572326660156,-0.018916014595272826,4.353048871966954,-95.88333407718028,-15.060754,9.941063,7.014341,71.60329,-6.793522,-15.000033,-18.26601,-1.9888946,-13.969182,14.32089,-2.770447,-1.9265879,-3.1057944,1.6982604,5.707643,-3.2430758,18.115158,-33.16983,53.435795,0.5747088,10.964583,13.707241,-5.2240205,-12.095765,43.656364,62.795166,-9.981829,5.897066,-21.018398
220,-8.8474702835083,-162.42733764648438,77.58525085449219,-0.05416912065513012,4.397729061649145,-96.0485569189357,-16.312513,10.230148,7.3197308,71.279396,-6.958386,-15.000033,-17.494627,-1.8055497,-13.848413,13.800938,-2.9893239,-1.8766204,-2.747498,1.7204646,5.8045034,-2.8898163,17.891611,-33.581127,53.444984,0.7588316,10.899618,13.566014,-5.8100905,-12.303171,43.36259,62.34681,-9.618642,5.804268,-21.612623
221,-8.922006607055664,-163.1001739501953,77.67935180664062,-0.13044832411922236,4.448783664388536,-96.23915382439125,-17.546217,10.589199,7.6182733,70.79433,-7.212441,-15.000033,-16.730083,-1.5661892,-13.709856,13.265507,-3.2248633,-1.8824389,-2.3796165,1.7800537,5.8865843,-2.4987347,17.650219,-33.903347,53.434444,0.9966099,10.90204,13.465142,-6.402781,-12.519553,43.055473,61.881054,-9.283936,5.7622037,-21.986305
222,-9.005027770996094,-163.78497314453125,77.76893615722656,-0.20364722818609662,4.514942882278934,-96.43566652687649,-18.753225,11.021646,8.011442,70.10869,-7.5177026,-14.931986,-16.021881,-1.3430773,-13.5503025,12.803274,-3.5068614,-1.9093943,-2.022272,1.8404044,5.945361,-2.0743802,17.390585,-34.153675,53.407444,1.2834729,10.952225,13.400809,-6.9906006,-12.744505,42.72116,61.394833,-8.957601,5.754951,-22.20981
223,-9.079632759094238,-164.453369140625,77.84281158447266,-0.28186933830300653,4.577056611315162,-96.62756979767737,-19.890362,11.553185,8.576317,69.230705,-7.844132,-14.426538,-15.310706,-1.125849,-13.388326,12.344979,-3.794866,-1.925543,-1.6744615,1.9110663,5.999621,-1.6301179,17.114548,-34.353508,53.387978,1.5498018,11.01215,13.374322,-7.5880604,-12.976793,42.40244,60.907463,-8.626636,5.7475395,-22.32829
224,-9.153875350952148,-165.1258087158203,77.91242980957031,-0.36203876121770023,4.622235836143654,-96.7988255279449,-20.936018,12.067161,9.14704,68.15695,-8.155053,-13.930256,-14.561071,-0.9172555,-13.242422,11.864021,-4.071876,-1.9021801,-1.3525914,1.9814619,6.0556865,-1.1747906,16.825422,-34.51955,53.401108,1.723176,11.043869,13.386426,-8.173545,-13.21551,42.114014,60.41298,-8.321703,5.7050242,-22.38713
225,-9.217870712280273,-165.81300354003906,77.97776794433594,-0.4396702801029433,4.641513527007689,-96.94468260773583,-21.873455,12.563179,9.736981,66.87123,-8.469222,-13.4361515,-13.758016,-0.7227844,-13.11211,11.353387,-4.3310165,-1.8173879,-1.0574176,2.0446727,6.122516,-0.7018334,16.52393,-34.6453,53.443577,1.7796935,11.033697,13.46396,-8.76522,-13.46152,41.874588,59.918686,-8.005847,5.6078506,-22.371422
226,-9.286745071411133,-166.49984741210938,78.03546142578125,-0.5177545629334837,4.643673593547823,-97.07461989820672,-22.71666,13.060072,10.370463,65.37849,-8.80021,-12.912297,-12.918943,-0.53724426,-12.9896755,10.821878,-4.580326,-1.6914504,-0.7845298,2.1060429,6.1938505,-0.20780402,16.210194,-34.724827,53.503933,1.7580184,11.003172,13.596986,-9.357017,-13.714784,41.663254,59.417553,-7.6890526,5.47936,-22.26624
227,-9.348799705505371,-167.1899871826172,78.0742416381836,-0.6011232131366164,4.642819776521973,-97.19162682965096,-23.48815,13.530453,11.011561,63.70696,-9.099106,-12.405266,-12.067818,-0.35613176,-12.882387,10.282409,-4.831375,-1.5566614,-0.5308209,2.1731973,6.2596927,0.29420117,15.887032,-34.777264,53.585087,1.6886256,10.967667,13.732787,-9.944743,-13.972372,41.475224,58.92154,-7.4100494,5.346988,-22.116808
228,-9.415802955627441,-167.88258361816406,78.10871887207031,-0.6950501156731179,4.653081303752244,-97.29910686495178,-24.211586,13.950673,11.623244,61.882603,-9.314481,-11.958342,-11.227499,-0.17331634,-12.7972355,9.745159,-5.094253,-1.4463028,-0.29358748,2.253613,6.3105354,0.7863112,15.559754,-34.82646,53.69316,1.5950431,10.942672,13.81874,-10.529879,-14.22953,41.309135,58.448376,-7.205064,5.237009,-21.968765
229,-9.477171897888184,-168.5748291015625,78.1326675415039,-0.7993285291101208,4.679693872583392,-97.39600669857879,-24.891582,14.323446,12.207726,59.89396,-9.460473,-11.572122,-10.40126,0.010600822,-12.745157,9.203631,-5.36947,-1.3766885,-0.07514385,2.344598,6.343087,1.2719429,15.231246,-34.87172,53.827194,1.4847763,10.937869,13.847606,-11.127429,-14.48258,41.17729,58.006874,-7.07846,5.154267,-21.805527
230,-9.53322982788086,-169.26930236816406,78.14897155761719,-0.9120483282821099,4.714668130500319,-97.48137047543729,-25.513426,14.656412,12.784145,57.727062,-9.552601,-11.227095,-9.578001,0.19510373,-12.718899,8.654912,-5.6525216,-1.3294408,0.1221164,2.4418304,6.362066,1.7596381,14.902441,-34.902687,53.982094,1.3419,10.943688,13.8443985,-11.729403,-14.73046,41.073128,57.58669,-7.0188346,5.084859,-21.613428
231,-9.588971138000488,-169.974609375,78.1511001586914,-1.0351816293429092,4.751924898391456,-97.55843836210967,-26.074123,14.939006,13.338346,55.407455,-9.542558,-10.932212,-8.757045,0.38602412,-12.699813,8.111182,-5.9434657,-1.2848635,0.30899417,2.5497828,6.374708,2.2458236,14.575866,-34.922768,54.148083,1.1688708,10.946423,13.807024,-12.331521,-14.970034,40.981834,57.19698,-7.009036,5.0265203,-21.44253
232,-9.638666152954102,-170.68020629882812,78.14793395996094,-1.1715633643645484,4.785399826673776,-97.63105204711752,-26.568045,15.164384,13.856727,52.95356,-9.379181,-10.693085,-7.9378524,0.5888083,-12.666542,7.5844355,-6.242258,-1.222084,0.49090594,2.6718493,6.382917,2.7306852,14.254889,-34.93362,54.31722,0.96484965,10.93294,13.732477,-12.899127,-15.199707,40.872585,56.82685,-7.0610485,4.976927,-21.343298
233,-9.689626693725586,-171.39076232910156,78.13194274902344,-1.3219882134007463,4.815884555867822,-97.6943372421848,-27.004297,15.324137,14.304993,50.36164,-9.029147,-10.513992,-7.1132846,0.802983,-12.618235,7.0586104,-6.5390415,-1.1259367,0.66910416,2.8098855,6.388875,3.2143168,13.942165,-34.915813,54.484825,0.69459593,10.897906,13.60342,-13.440686,-15.417756,40.745472,56.485878,-7.1893687,4.9324417,-21.343018
234,-9.726962089538574,-172.09490966796875,78.10710906982422,-1.485249713161955,4.845958391324915,-97.74949885380924,-27.378202,15.429829,14.701252,47.615993,-8.522526,-10.385148,-6.4835253,0.9797368,-12.565276,6.9633737,-7.0636706,-1.0067804,0.84096086,2.9604332,6.391334,3.7010138,13.638634,-34.872234,54.650227,0.37185282,10.849974,13.426575,-13.9709835,-15.623193,40.61366,56.179222,-7.3856335,4.8951373,-21.41053
235,-9.770432472229004,-172.81150817871094,78.07257843017578,-1.6603457379736273,4.871441346496358,-97.8078239034139,-27.670225,15.50607,15.105239,44.730274,-7.9052725,-10.291479,-5.8869815,1.158889,-12.503643,6.9569654,-7.63513,-0.8833297,1.010591,3.1203055,6.389374,4.1857953,13.346069,-34.84797,54.817646,0.060775995,10.796231,13.235034,-14.47156,-15.815334,40.46939,55.88896,-7.6131325,4.871616,-21.50803
236,-9.81091022491455,-173.53297424316406,78.02970123291016,-1.8460717387673695,4.888079099577316,-97.88058279910875,-27.860155,15.575694,15.577448,41.715233,-7.222514,-10.219115,-5.277507,1.3536783,-12.428898,6.949346,-8.207457,-0.77338535,1.1878952,3.2869604,6.385317,4.6600456,13.066787,-34.892807,54.990906,-0.17446055,10.742661,13.062711,-14.935659,-15.992149,40.306282,55.604504,-7.8249607,4.8681335,-21.597261
237,-9.85831356048584,-174.2593536376953,77.97531127929688,-2.0443072216258606,4.894547236927168,-97.97511009020283,-27.929354,15.671815,16.161503,38.547897,-6.4373884,-10.136309,-4.6552672,1.566974,-12.331023,6.9434958,-8.77639,-0.67750204,1.3813008,3.4597716,6.379463,5.123474,12.802967,-35.0207,55.179024,-0.35294652,10.673423,12.938079,-15.353253,-16.15324,40.111664,55.31467,-8.029868,4.8913994,-21.67458
238,-9.891169548034668,-174.98980712890625,77.90794372558594,-2.256179312744125,4.891989862330092,-98.08518339756674,-27.88636,15.772551,16.817905,35.217907,-5.5359645,-10.0595255,-4.0207243,1.7964252,-12.213295,6.9385605,-9.343326,-0.5861088,1.5879189,3.6408815,6.3722596,5.579265,12.55561,-35.207718,55.376007,-0.49839008,10.590856,12.836843,-15.731716,-16.298948,39.89022,55.02823,-8.244293,4.936437,-21.758099
239,-9.92300796508789,-175.73016357421875,77.83172607421875,-2.4826204575785926,4.87899414570217,-98.20331637480359,-27.749823,15.827033,17.478657,31.74974,-4.5954905,-10.045813,-3.3704355,2.0393026,-12.091191,6.934823,-9.913442,-0.50150967,1.7969909,3.8344095,6.364242,6.0298557,12.324813,-35.43992,55.562656,-0.5500551,10.528031,12.713879,-16.083414,-16.429516,39.6604,54.76166,-8.442302,4.9911833,-21.841219
240,-9.951308250427246,-176.47686767578125,77.74066162109375,-2.723395265336068,4.851840306525539,-98.32340472408454,-27.531683,15.790791,18.074451,28.155485,-3.686177,-10.146801,-2.699078,2.2929513,-11.977775,6.933339,-10.493098,-0.42671728,1.9960301,4.0426893,6.3545465,6.481158,12.109713,-35.700592,55.721024,-0.4461652,10.518064,12.524031,-16.410328,-16.547945,39.440807,54.523964,-8.603987,5.0432596,-21.918169
