unveil-humanoid-operators/unveil-humanoid-operators.github.io/feature-analysis-animation/data/feature_matrix_instances/height_root_translate_rom_walking_A055_walk_ff_loop_360_005__A055.csv
Frame,root_translateX,root_translateY,root_translateZ,root_rotateX,root_rotateY,root_rotateZ,left_hip_pitch_joint_dof,left_hip_roll_joint_dof,left_hip_yaw_joint_dof,left_knee_joint_dof,left_ankle_pitch_joint_dof,left_ankle_roll_joint_dof,right_hip_pitch_joint_dof,right_hip_roll_joint_dof,right_hip_yaw_joint_dof,right_knee_joint_dof,right_ankle_pitch_joint_dof,right_ankle_roll_joint_dof,waist_yaw_joint_dof,waist_roll_joint_dof,waist_pitch_joint_dof,left_shoulder_pitch_joint_dof,left_shoulder_roll_joint_dof,left_shoulder_yaw_joint_dof,left_elbow_joint_dof,left_wrist_roll_joint_dof,left_wrist_pitch_joint_dof,left_wrist_yaw_joint_dof,right_shoulder_pitch_joint_dof,right_shoulder_roll_joint_dof,right_shoulder_yaw_joint_dof,right_elbow_joint_dof,right_wrist_roll_joint_dof,right_wrist_pitch_joint_dof,right_wrist_yaw_joint_dof
0,0.11785374581813812,1.5755037069320679,77.99085235595703,-0.14499521713610217,3.502616965974213,-99.69217309972635,-1.3492872,1.9894983,13.074504,13.811322,-16.016954,-2.2688658,-24.11433,-12.140461,-19.472195,23.744562,-5.7859273,1.0316626,-2.8492684,-5.5324693,3.8147967,-1.652822,15.340573,-33.155754,56.14944,0.6653369,12.519647,14.194131,-0.65470964,-10.902257,46.597767,63.732773,-13.437965,7.801321,-15.303707
1,0.15349730849266052,1.9539793729782104,78.04398345947266,-0.011090820139467737,3.4526537799334776,-99.68234172924589,-1.3181161,1.7863593,13.151969,13.144982,-15.438113,-2.2962844,-24.350384,-12.712777,-18.70928,26.234642,-6.901539,0.77306426,-2.8859336,-5.676419,3.7570026,-1.3089768,15.342481,-33.26813,56.254948,0.77595454,12.57166,14.110212,-1.0160258,-10.914029,46.518658,63.593082,-13.358587,7.755653,-15.358045
2,0.19847998023033142,2.328113079071045,78.08411407470703,0.12591405082556223,3.394647476860343,-99.66693888786195,-1.26473,1.5787333,13.225868,12.442871,-14.842682,-2.3216336,-24.564034,-13.259428,-17.92797,28.665636,-8.004852,0.500609,-2.8781307,-5.821053,3.7171488,-1.0036182,15.338327,-33.447693,56.381413,0.8797606,12.633152,14.025938,-1.3284364,-10.97318,46.37893,63.384857,-13.3136635,7.720597,-15.40246
3,0.2422332763671875,2.69950270652771,78.10870361328125,0.2721378943383815,3.339011554908555,-99.64826274883879,-1.2282944,1.3667868,13.291743,11.774222,-14.262989,-2.3466372,-24.733025,-13.7906,-17.182901,31.0156,-9.029082,0.28230664,-2.8657482,-5.9633284,3.6788554,-0.7056924,15.323595,-33.626865,56.509045,0.9609944,12.674861,13.950568,-1.6142118,-11.084716,46.241356,63.12459,-13.221786,7.668304,-15.446196
4,0.2828003466129303,3.0608506202697754,78.12731170654297,0.4358800201765404,3.2960182749643754,-99.62848771901675,-1.249525,1.1478071,13.346337,11.213206,-13.730524,-2.3732622,-24.830715,-14.321214,-16.530554,33.255898,-9.909313,0.18562694,-2.8467317,-6.1139374,3.6233046,-0.40608972,15.302206,-33.79408,56.63382,0.9880805,12.669064,13.897949,-1.8759181,-11.226326,46.107635,62.837593,-13.028996,7.5687275,-15.499662
5,0.31719455122947693,3.4265875816345215,78.12950897216797,0.6299967251673347,3.273897937327838,-99.60712820147259,-1.3370808,0.903822,13.390062,10.7646475,-13.246445,-2.4058263,-24.863424,-14.879816,-16.001074,35.412346,-10.609883,0.26826727,-2.817172,-6.290529,3.5370154,-0.10749626,15.279652,-33.972046,56.75919,0.92264044,12.589137,13.879727,-2.127068,-11.386705,45.984196,62.53619,-12.647118,7.380878,-15.556892
6,0.34210360050201416,3.781071662902832,78.1346435546875,0.8447646952276138,3.2664592458923654,-99.58482179208315,-1.4670132,0.641924,13.425635,10.385249,-12.791125,-2.4428272,-24.844645,-15.458146,-15.563745,37.505836,-11.1842985,0.47871682,-2.7792592,-6.48527,3.428346,0.19424607,15.257891,-34.155415,56.88179,0.79463166,12.456812,13.885255,-2.361456,-11.561612,45.85918,62.21759,-12.142818,7.1306653,-15.615377
7,0.36332985758781433,4.131252288818359,78.12515258789062,1.0544346559619158,3.2623223910998798,-99.56628510390759,-1.6484789,0.4003052,13.45571,10.113603,-12.387266,-2.4786904,-24.766657,-16.016514,-15.1766405,39.512726,-11.702512,0.72123873,-2.7225099,-6.670332,3.3216596,0.49055302,15.23583,-34.323586,56.998196,0.6528141,12.317349,13.897354,-2.5865574,-11.744497,45.73291,61.90429,-11.639619,6.8871965,-15.691223
8,0.3845733106136322,4.484333515167236,78.12108612060547,1.2344678548979,3.2496721130786317,-99.55503730701767,-1.8838508,0.21437089,13.481792,9.975139,-12.050045,-2.5067434,-24.619621,-16.515018,-14.7998085,41.404552,-12.232392,0.9005385,-2.639404,-6.8184834,3.2389588,0.7728545,15.210397,-34.454834,57.10842,0.5447927,12.216046,13.899122,-2.7966893,-11.926217,45.593937,61.6092,-11.277702,6.720139,-15.803013
9,0.4006902575492859,4.837059020996094,78.1109848022461,1.382895366823511,3.228503522612727,-99.54580277686544,-2.1772099,0.08517325,13.498407,9.973976,-11.785502,-2.53357,-24.39598,-16.960629,-14.446105,43.18099,-12.781818,1.0084116,-2.5318167,-6.927893,3.1827621,1.035489,15.17916,-34.54429,57.218723,0.48275176,12.161081,13.878854,-3.0020363,-12.09942,45.439156,61.35142,-11.1024475,6.6531515,-15.9649725
10,0.4092423617839813,5.1764702796936035,78.10337829589844,1.51277225050802,3.2041689264957407,-99.53855285221111,-2.5269046,-0.005744951,13.50725,10.1010275,-11.586686,-2.5585809,-24.103556,-17.371975,-14.129086,44.859818,-13.319699,1.0893854,-2.4034789,-7.0133476,3.1406636,1.2799717,15.142084,-34.605946,57.33331,0.43751368,12.129495,13.848645,-3.206499,-12.259676,45.274956,61.128613,-11.036422,6.647416,-16.166494
11,0.4171103835105896,5.533449172973633,78.09307098388672,1.6216459205740263,3.1732269464221625,-99.54528303912274,-2.921812,-0.053440876,13.52042,10.351787,-11.444118,-2.5644546,-23.757727,-17.724756,-13.807884,46.436775,-13.851973,1.1273454,-2.2480178,-7.073336,3.1111002,1.5221422,15.098154,-34.632603,57.44074,0.41215566,12.119765,13.82734,-3.4016604,-12.405828,45.10841,60.933624,-11.031815,6.6784797,-16.390896
12,0.4218162000179291,5.891932010650635,78.0811767578125,1.7066200591708123,3.132493341143592,-99.57807078243962,-3.3571777,-0.05026664,13.549726,10.73477,-11.354135,-2.5342863,-23.376009,-17.996298,-13.440919,47.90933,-14.385834,1.1056007,-2.0594118,-7.105113,3.093631,1.7730379,15.046317,-34.62051,57.531834,0.4055106,12.130456,13.834061,-3.581713,-12.538241,44.950535,60.757576,-11.035429,6.722011,-16.620993
13,0.4188530743122101,6.248873233795166,78.07136535644531,1.761818051068111,3.078687419164969,-99.64039513600915,-3.8365896,0.013866079,13.597295,11.269578,-11.324158,-2.4488626,-22.95859,-18.176832,-13.012552,49.283485,-14.933225,0.9937487,-1.829683,-7.100964,3.091439,2.035883,14.98391,-34.56564,57.603962,0.426156,12.175506,13.878022,-3.735832,-12.6565485,44.78728,60.592148,-11.046314,6.78942,-16.86518
14,0.4078444540500641,6.583219051361084,78.06358337402344,1.7884360380417323,3.014756263573882,-99.72518686891115,-4.3634953,0.13577244,13.655338,11.950005,-11.35398,-2.3216295,-22.49936,-18.280554,-12.546243,50.561367,-15.487494,0.80777705,-1.5650105,-7.061596,3.1025097,2.3001897,14.910183,-34.474545,57.666744,0.46751425,12.250751,13.948069,-3.870502,-12.759941,44.618877,60.444542,-11.087574,6.888042,-17.128302
15,0.3966872990131378,6.920839786529541,78.05220794677734,1.7930882147441056,2.9466506361102547,-99.82819720972113,-4.9157796,0.30055076,13.719651,12.707969,-11.417947,-2.1852891,-22.00497,-18.32011,-12.060317,51.730762,-16.025967,0.59949744,-1.2799977,-6.9963555,3.1188402,2.5681725,14.8272915,-34.34912,57.719234,0.5187622,12.327693,14.031757,-4.0084405,-12.849614,44.478355,60.329815,-11.141584,6.9870834,-17.387993
16,0.3764145076274872,7.26108980178833,78.04327392578125,1.7835728661354249,2.8803319972292165,-99.94604597597373,-5.4701076,0.49126795,13.787617,13.472607,-11.489088,-2.0720603,-21.482674,-18.310278,-11.571466,52.780716,-16.527601,0.4210745,-0.9917528,-6.9185658,3.1319604,2.8452857,14.746139,-34.192257,57.755257,0.5638225,12.3781595,14.115737,-4.1674023,-12.922335,44.39535,60.261177,-11.1987,7.0551662,-17.622095
17,0.35595718026161194,7.6043853759765625,78.02899169921875,1.7531589840822683,2.812658247948096,-100.08246595390249,-6.0278687,0.7187685,13.8589945,14.255183,-11.573308,-1.9835948,-20.928509,-18.238186,-11.072076,53.709034,-16.981932,0.2818913,-0.6990743,-6.816534,3.1461997,3.13262,14.6559305,-33.98603,57.77773,0.61342245,12.393623,14.205198,-4.3499007,-12.9925,44.393856,60.237217,-11.274281,7.0909314,-17.83466
18,0.33074989914894104,7.952328205108643,78.0138931274414,1.699538584344096,2.7419593703330936,-100.2379266247782,-6.6007314,0.98897046,13.933561,15.086473,-11.681141,-1.9034948,-20.341858,-18.105324,-10.555232,54.52507,-17.40373,0.15418078,-0.39478064,-6.692687,3.1641343,3.4334478,14.571866,-33.740837,57.775192,0.6631766,12.390391,14.302599,-4.544062,-13.0484,44.44605,60.251793,-11.375159,7.1082134,-18.034801
19,0.2977283298969269,8.29806137084961,77.99244689941406,1.6400590064414797,2.6762319107621444,-100.40343763716466,-7.175394,1.2739317,14.008934,15.913319,-11.791229,-1.8364357,-19.73681,-17.950607,-10.038594,55.236664,-17.810982,0.034359034,-0.09509661,-6.558419,3.175025,3.740298,14.481342,-33.47187,57.76033,0.7054356,12.373773,14.395692,-4.7500806,-13.100328,44.53772,60.28937,-11.449663,7.101982,-18.204262
20,0.2551782727241516,8.644914627075195,77.96672058105469,1.5941086967286568,2.623736850628158,-100.57053942400651,-7.7453694,1.5443676,14.085071,16.69697,-11.8836565,-1.7874675,-19.128763,-17.812689,-9.537836,55.852306,-18.220991,-0.080001675,0.2028772,-6.441817,3.1706092,4.0466533,14.407406,-33.22789,57.727173,0.71099955,12.351569,14.470434,-4.945721,-13.137594,44.61027,60.325752,-11.474989,7.0649123,-18.325462
21,0.2156008929014206,9.001193046569824,77.9363021850586,1.5643014633243975,2.5890632242786342,-100.74479314622813,-8.308206,1.7977655,14.169297,17.425423,-11.956364,-1.7649665,-18.527596,-17.687592,-9.0412445,56.372284,-18.638288,-0.18907824,0.4981784,-6.343397,3.145539,4.355129,14.34529,-32.998226,57.672947,0.67504877,12.32532,14.5215225,-5.1312685,-13.166286,44.667526,60.358944,-11.430765,6.9820147,-18.37093
22,0.1718052476644516,9.355143547058105,77.9013671875,1.5421406732813736,2.566949100034554,-100.92823805699327,-8.872223,2.0473368,14.259365,18.129944,-12.023248,-1.7626783,-17.924337,-17.562239,-8.545325,56.79414,-19.054857,-0.29195234,0.7784111,-6.245368,3.1034274,4.6693263,14.270422,-32.746677,57.609295,0.62208086,12.289613,14.557096,-5.314499,-13.198507,44.745968,60.39304,-11.333255,6.8624887,-18.356825
23,0.12626947462558746,9.6940336227417,77.8589096069336,1.5322951510120657,2.5511731664626383,-101.10705565649674,-9.434026,2.2836754,14.34364,18.811354,-12.077103,-1.7645859,-17.307064,-17.45879,-8.075328,57.12215,-19.46639,-0.3877612,1.0639055,-6.165007,3.0562503,4.9745526,14.216491,-32.538143,57.534855,0.5373133,12.2449665,14.583831,-5.482737,-13.220409,44.80143,60.42256,-11.217259,6.732795,-18.332136
24,0.07633644342422485,10.038776397705078,77.81342315673828,1.5379834190717434,2.5353880016522243,-101.26708553220892,-9.996095,2.4994152,14.409013,19.482779,-12.117334,-1.7550675,-16.66271,-17.398455,-7.6596727,57.35855,-19.868765,-0.47625557,1.3291717,-6.1005807,3.009711,5.27424,14.1762705,-32.36562,57.45844,0.4423528,12.188173,14.607194,-5.6423664,-13.23523,44.851105,60.444,-11.097623,6.6222687,-18.34612
25,0.02571958489716053,10.390425682067871,77.76184844970703,1.5659052715202462,2.51858024404927,-101.40470186974055,-10.560513,2.6847372,14.452025,20.147533,-12.140913,-1.7255642,-15.989838,-17.396769,-7.3049483,57.509583,-20.26567,-0.56016713,1.5365458,-6.0478983,2.9603097,5.570042,14.123866,-32.198563,57.398415,0.3447878,12.106276,14.629763,-5.795079,-13.251575,44.92009,60.45098,-10.972544,6.538148,-18.42081
26,-0.030272971838712692,10.750601768493652,77.70230865478516,1.6130509416755654,2.5040108740133737,-101.5275496603791,-11.124803,2.8449807,14.480591,20.79809,-12.148788,-1.6853045,-15.296199,-17.43892,-6.996678,57.572968,-20.65764,-0.6383182,1.74,-6.01601,2.9109209,5.8491454,14.085966,-32.08776,57.342796,0.22053602,12.006491,14.649865,-5.9323764,-13.260954,44.963547,60.45016,-10.83605,6.4633827,-18.526733
27,-0.08915005624294281,11.099504470825195,77.63900756835938,1.666655329061946,2.4913653421353086,-101.63821913440101,-11.688221,2.9973636,14.498135,21.43805,-12.151133,-1.648243,-14.578463,-17.49895,-6.734934,57.53564,-21.03611,-0.70568466,1.942263,-5.994427,2.8596966,6.1147084,14.064358,-32.01592,57.287594,0.08167209,11.9093075,14.663042,-6.0459976,-13.265126,44.987938,60.433304,-10.713028,6.3967943,-18.636522
28,-0.14754346013069153,11.442819595336914,77.57630920410156,1.7136532607542767,2.4806209399141044,-101.73839122044075,-12.244616,3.157534,14.507598,22.057928,-12.149894,-1.6245208,-13.835174,-17.55276,-6.5174403,57.386154,-21.391615,-0.75603145,2.1053221,-5.9571443,2.7993774,6.3875923,14.032015,-31.911888,57.231895,-0.033102795,11.83198,14.663106,-6.164843,-13.270261,45.058582,60.419373,-10.602354,6.3380427,-18.722143
29,-0.2101467400789261,11.778884887695312,77.51325225830078,1.7610279534494957,2.4708935249961144,-101.82822614044404,-12.782775,3.3147254,14.515505,22.63817,-12.141742,-1.618357,-13.060994,-17.623394,-6.3612213,57.1302,-21.74656,-0.81383157,2.2767024,-5.920373,2.7338507,6.6429725,14.006609,-31.830053,57.179943,-0.15175985,11.7861395,14.642512,-6.2607946,-13.275555,45.127674,60.392105,-10.524465,6.288967,-18.770845
30,-0.2741735577583313,12.123795509338379,77.44686126708984,1.812119175616734,2.4625286952927343,-101.90676695728257,-13.307893,3.464611,14.518328,23.186419,-12.124731,-1.6235218,-12.259387,-17.711712,-6.2619834,56.772556,-22.097816,-0.87288374,2.4400918,-5.8848724,2.6641617,6.88864,13.986476,-31.76062,57.127594,-0.27226332,11.759271,14.605148,-6.3413267,-13.281794,45.20415,60.352226,-10.46477,6.249695,-18.798824
31,-0.3497583568096161,12.478111267089844,77.37381744384766,1.8497754570750455,2.4568470596738474,-101.97601910438118,-13.844269,3.6336527,14.505453,23.746061,-12.110538,-1.6400902,-11.439309,-17.762194,-6.185592,56.29804,-22.398388,-0.8831964,2.5884185,-5.836047,2.5890296,7.128312,13.969294,-31.701921,57.082245,-0.37987602,11.739511,14.572143,-6.4084353,-13.288751,45.282673,60.303825,-10.420514,6.214338,-18.823374
32,-0.43647849559783936,12.841055870056152,77.29869842529297,1.856380961774728,2.4551167910360863,-102.03833563269558,-14.40924,3.8467631,14.4659605,24.345072,-12.102258,-1.6679273,-10.610385,-17.71878,-6.0948453,55.691242,-22.600016,-0.79544675,2.7317832,-5.7620387,2.5122955,7.34267,13.959941,-31.680967,57.063457,-0.4770668,11.715255,14.564994,-6.465713,-13.292706,45.33957,60.253086,-10.38852,6.175861,-18.860306
33,-0.5239871144294739,13.198749542236328,77.22291564941406,1.8234266419495935,2.4626852113291244,-102.09409088210194,-15.019098,4.115958,14.393988,25.003376,-12.107968,-1.7080152,-9.766837,-17.574356,-6.0020304,54.9412,-22.699018,-0.57011914,2.8324804,-5.646202,2.415591,7.557014,13.946023,-31.673914,57.069977,-0.56090754,11.680501,14.597565,-6.520883,-13.298175,45.424595,60.203907,-10.359626,6.1393046,-18.924263
34,-0.6157866716384888,13.555315017700195,77.14916229248047,1.7614236167557045,2.476667934470947,-102.14237391632317,-15.656625,4.424232,14.29509,25.691807,-12.119898,-1.7607969,-8.905882,-17.356985,-5.9169664,54.058052,-22.718073,-0.24381757,2.93607,-5.510258,2.3169086,7.741429,13.941593,-31.702396,57.105312,-0.62774706,11.6431465,14.651474,-6.5541563,-13.299172,45.461758,60.14139,-10.371725,6.102735,-18.996632
35,-0.7138077616691589,13.916708946228027,77.07612609863281,1.680387631446889,2.4880870195810885,-102.18298870149295,-16.303,4.7569304,14.174179,26.389408,-12.12461,-1.8255656,-8.04241,-17.059202,-5.7999454,53.058617,-22.650139,0.116348185,3.0253327,-5.352815,2.216218,7.9154425,13.937517,-31.755505,57.15212,-0.691516,11.608857,14.718137,-6.5897617,-13.2991905,45.51944,60.09158,-10.362641,6.062371,-19.071045
36,-0.8243971467018127,14.286123275756836,77.0047378540039,1.591264020573826,2.4859737167739664,-102.21568619633834,-16.936192,5.0984535,14.037831,27.07294,-12.1129055,-1.8999846,-7.1900578,-16.678053,-5.6111264,51.96249,-22.491331,0.44258243,3.109099,-5.193743,2.144848,8.060303,13.935872,-31.78818,57.2067,-0.7169311,11.582198,14.767446,-6.617855,-13.2978525,45.5524,60.03514,-10.359987,6.0088396,-19.124454
37,-0.9427333474159241,14.65294361114502,76.9326171875,1.4823924904193022,2.4653563768690714,-102.23577857778177,-17.554344,5.460361,13.875485,27.746927,-12.082803,-1.9929299,-6.3628135,-16.162577,-5.2863984,50.793167,-22.17787,0.6778037,3.1797462,-5.0131326,2.090394,8.199514,13.935765,-31.82076,57.25845,-0.7128406,11.568175,14.806229,-6.6463985,-13.293426,45.607555,60.00377,-10.322536,5.9250164,-19.158155
38,-1.0596767663955688,15.031935691833496,76.85844421386719,1.3638788201153325,2.4335738007612497,-102.24699431557528,-18.16107,5.8319035,13.696292,28.403719,-12.031869,-2.099587,-5.555424,-15.54859,-4.8515,49.5459,-21.741089,0.8697558,3.2510698,-4.8366647,2.074661,8.288647,13.936595,-31.828508,57.335705,-0.65195245,11.5603895,14.830089,-6.6681595,-13.2914915,45.624313,59.957493,-10.297344,5.8177576,-19.169931
39,-1.1817108392715454,15.419511795043945,76.77611541748047,1.227434235153744,2.3946982118177083,-102.25165791321612,-18.770142,6.222855,13.493627,29.063221,-11.97649,-2.2138867,-4.7235656,-14.901884,-4.437102,48.15803,-21.299255,1.0962862,3.2884054,-4.6257653,2.0471084,8.418278,13.940607,-31.837296,57.375076,-0.60197014,11.558861,14.856913,-6.69199,-13.28427,45.672955,59.933395,-10.256547,5.7251396,-19.180761
40,-1.312618374824524,15.818655014038086,76.69564056396484,1.1344239941459655,2.362137910685189,-102.26574177943849,-19.350048,6.5643673,13.318308,29.641272,-11.8824625,-2.3165925,-3.869626,-14.36379,-4.1266427,46.613117,-20.990868,1.4525005,3.3319705,-4.468849,2.0359962,8.518398,13.945034,-31.821444,57.42128,-0.5553871,11.554643,14.882106,-6.7065196,-13.277237,45.677395,59.86692,-10.237555,5.6851864,-19.195084
41,-1.4462401866912842,16.215532302856445,76.61592102050781,1.0867174698056965,2.3292371129733973,-102.28754011066887,-19.901018,6.8553715,13.168415,30.158466,-11.764271,-2.4024389,-2.948596,-13.952421,-3.9725957,44.84164,-20.828674,1.9921333,3.3426845,-4.361584,2.0330558,8.65449,13.965565,-31.745502,57.41471,-0.50926256,11.552732,14.901288,-6.7198124,-13.249619,45.635746,59.774323,-10.268724,5.7167134,-19.203594
42,-1.581422209739685,16.61634063720703,76.52481842041016,1.0696305695535202,2.294145825504139,-102.3134324286026,-20.428328,7.112282,13.03452,30.626738,-11.623295,-2.4795315,-1.982034,-13.611133,-3.9140697,42.87537,-20.746048,2.6597137,3.3587797,-4.280028,2.033875,8.763119,13.973105,-31.68569,57.43016,-0.4890672,11.550789,14.926628,-6.6990676,-13.239088,45.55654,59.632473,-10.312823,5.800544,-19.211483
43,-1.7224215269088745,17.023279190063477,76.42864990234375,1.0622544607197173,2.2687658925514023,-102.34309664361679,-20.94473,7.3574443,12.907111,31.03685,-11.448835,-2.5593932,-1.0294931,-13.3006,-3.912844,40.800777,-20.739658,3.375631,3.383404,-4.223956,2.060851,8.839082,14.001939,-31.601948,57.431805,-0.46149665,11.547578,14.940952,-6.689851,-13.21024,45.41546,59.484646,-10.400122,5.898586,-19.218672
44,-1.864534616470337,17.438884735107422,76.34134674072266,1.0426525283850103,2.2669686114810332,-102.37593713922406,-21.466146,7.6136303,12.775491,31.381336,-11.230865,-2.6535609,-0.15236367,-12.981234,-3.9293098,38.70449,-20.806107,4.060321,3.408235,-4.1513047,2.0751548,8.891549,14.02967,-31.54325,57.435966,-0.47101372,11.538175,14.962167,-6.6974688,-13.188666,45.333996,59.357887,-10.444034,5.986586,-19.258764
45,-2.0060548782348633,17.85993194580078,76.25802612304688,1.0132834483888218,2.2949161062978227,-102.41000637414298,-22.001406,7.8765745,12.639083,31.664335,-10.9713,-2.7639592,0.6621791,-12.655163,-3.969807,36.51011,-20.957296,4.7581577,3.429703,-4.070883,2.0805855,8.917063,14.067132,-31.493017,57.42769,-0.5162047,11.524714,14.980395,-6.7154593,-13.168444,45.284332,59.24356,-10.494516,6.0698657,-19.339508
46,-2.1540160179138184,18.29364013671875,76.18292999267578,0.9840384396252525,2.3450530840691592,-102.44645675650791,-22.53933,8.135922,12.503125,31.884418,-10.6720915,-2.8852365,1.4452385,-12.335976,-4.056045,34.18386,-21.17688,5.495107,3.4471714,-3.9962585,2.084614,8.929181,14.125056,-31.442976,57.394,-0.5884902,11.50854,14.994641,-6.7474294,-13.147353,45.261246,59.132946,-10.538202,6.1600876,-19.449717
47,-2.305959701538086,18.72722816467285,76.11065673828125,0.9448217649830776,2.4084360135606655,-102.4896003019081,-23.06792,8.405575,12.367684,32.03398,-10.328532,-3.017572,2.1553898,-12.006765,-4.167168,31.89853,-21.433617,6.1655126,3.4627275,-3.9103258,2.094198,8.913254,14.181697,-31.397842,57.369385,-0.674291,11.485094,15.013646,-6.784981,-13.133742,45.255543,59.0255,-10.558193,6.23184,-19.566034
48,-2.464923858642578,19.180744171142578,76.04593658447266,0.8857923388808728,2.476294752268509,-102.54404904600825,-23.575695,8.700029,12.23154,32.105568,-9.936085,-3.161902,2.7476938,-11.649364,-4.278404,29.836494,-21.702106,6.662452,3.475398,-3.810261,2.1309586,8.863488,14.267493,-31.37203,57.344696,-0.78527784,11.4528,15.038481,-6.858581,-13.117965,45.281403,58.937748,-10.504004,6.2579284,-19.665384
49,-2.630596160888672,19.645973205566406,75.9897689819336,0.8072230586826646,2.547515456733736,-102.61674735306235,-24.06453,9.027962,12.099687,32.11094,-9.500321,-3.3293483,3.193166,-11.258635,-4.364284,28.07359,-22.024233,6.9662395,3.4995146,-3.680817,2.1842792,8.769316,14.330405,-31.3609,57.36426,-0.89006644,11.402984,15.081733,-6.9489465,-13.108929,45.319107,58.87165,-10.353545,6.213459,-19.750418
50,-2.7934367656707764,20.122283935546875,75.93880462646484,0.7138614725924245,2.6263192313943997,-102.70353782993622,-24.53812,9.379689,11.969699,32.047962,-9.020487,-3.5167687,3.5260286,-10.84106,-4.443849,26.496326,-22.396187,7.133992,3.5216303,-3.5336933,2.2539933,8.618332,14.39491,-31.378359,57.41936,-1.0314907,11.339524,15.136001,-7.0596986,-13.10195,45.378983,58.81973,-10.1318,6.118085,-19.830397
51,-2.964219093322754,20.616647720336914,75.90030670166016,0.6013387487437399,2.7118888553775684,-102.79219655528088,-24.990765,9.746225,11.829624,31.896448,-8.488062,-3.70356,3.7697704,-10.398579,-4.553846,25.059225,-22.74957,7.175669,3.5374315,-3.3822947,2.3446875,8.483042,14.502719,-31.378202,57.42449,-1.160534,11.277579,15.185943,-7.1920385,-13.089247,45.460606,58.778973,-9.904165,6.0137615,-19.892376
52,-3.1421985626220703,21.124385833740234,75.87653350830078,0.4631482537404813,2.8029465623935144,-102.87026980548707,-25.416317,10.120625,11.666075,31.636957,-7.8950357,-3.8693314,3.95507,-9.92837,-4.7331104,23.703955,-23.011053,7.101276,3.535865,-3.2047544,2.445966,8.289645,14.587805,-31.379503,57.485077,-1.2975365,11.220656,15.233292,-7.33867,-13.074918,45.558548,58.760586,-9.755709,5.9441056,-19.922796
53,-3.331756591796875,21.642396926879883,75.869384765625,0.28254176393782154,2.902276159015727,-102.94200014660612,-25.82609,10.530384,11.468026,31.282995,-7.2305217,-4.006858,4.069257,-9.411751,-5.0255995,22.449997,-23.176655,6.845801,3.5084682,-3.0033054,2.5622396,8.095651,14.698942,-31.346138,57.532032,-1.4360087,11.167275,15.267813,-7.507098,-13.045126,45.693745,58.768604,-9.712312,5.919989,-19.913103
54,-3.5311505794525146,22.17494010925293,75.87330627441406,0.0671293819721223,3.0093856449233773,-103.01133129553165,-26.219027,10.973293,11.241648,30.84118,-6.5033436,-4.1284785,4.105439,-8.8489,-5.4017315,21.318474,-23.286942,6.4291472,3.4680166,-2.778437,2.6878252,7.9254384,14.815206,-31.258745,57.555912,-1.5291024,11.1150465,15.296136,-7.695655,-12.999009,45.853992,58.811314,-9.733796,5.918349,-19.872343
55,-3.7216625213623047,22.7117977142334,75.88792419433594,-0.15085066271210895,3.1186220824707966,-103.06525798501403,-26.572012,11.397017,11.0018215,30.285675,-5.7369432,-4.2427006,4.0983253,-8.272482,-5.7884026,20.259102,-23.335112,5.9858494,3.4045072,-2.5519638,2.8245213,7.7274885,14.924887,-31.164799,57.594017,-1.6006382,11.077016,15.322625,-7.892919,-12.941519,46.0119,58.869423,-9.795193,5.9314027,-19.817238
56,-3.9215452671051025,23.257427215576172,75.90826416015625,-0.33713603110851836,3.224659568588425,-103.0909565814006,-26.85932,11.748071,10.766746,29.586609,-4.953447,-4.357071,4.0760136,-7.7229114,-6.1092896,19.22854,-23.311329,5.6474805,3.3075213,-2.3567123,2.9749424,7.495004,15.039729,-31.084906,57.634377,-1.6461959,11.069163,15.347588,-8.0862665,-12.869841,46.137463,58.92406,-9.87616,5.9504423,-19.765226
57,-4.1172871589660645,23.804698944091797,75.93447875976562,-0.4670372315084064,3.3196686918733063,-103.08208845378542,-27.056662,11.993322,10.532404,28.705381,-4.0719466,-4.4633765,4.060437,-7.233182,-6.345682,18.191404,-23.209032,5.4498363,3.18706,-2.2186055,3.1421044,7.2960324,15.146408,-30.957174,57.629364,-1.5474309,11.10756,15.376574,-8.239431,-12.790569,46.18499,58.95593,-10.011542,5.9659925,-19.720036
58,-4.310702800750732,24.362958908081055,75.96725463867188,-0.5627196744311092,3.4089484213089745,-103.04594498285152,-27.18177,12.173607,10.292152,27.670128,-3.1113417,-4.559234,4.0236835,-6.7815676,-6.536073,17.191069,-23.03843,5.3171873,3.0354638,-2.1188674,3.3269665,7.0772243,15.256593,-30.82335,57.62248,-1.3933723,11.179,15.406864,-8.377208,-12.697471,46.1906,58.98446,-10.199578,5.9846964,-19.67362
59,-4.512452125549316,24.931947708129883,75.99832153320312,-0.6608525751846642,3.506331184107381,-102.99095649266236,-27.273827,12.346318,10.0611725,26.5556,-2.244888,-4.658574,3.9246283,-6.3289657,-6.6883316,16.286999,-22.806795,5.2114367,2.86562,-2.0117095,3.509255,6.8617945,15.365371,-30.682913,57.58748,-1.212472,11.262055,15.426005,-8.515801,-12.59909,46.188015,59.009094,-10.383641,6.0230527,-19.619324
60,-4.704692840576172,25.484302520751953,76.0361099243164,-0.7993858944942364,3.6249670188861214,-102.92581663257245,-27.363823,12.565335,9.8575945,25.419874,-1.6411144,-4.7735624,3.725327,-5.8340416,-6.810906,15.533408,-22.52114,5.0942273,2.6771636,-1.8487313,3.6716046,6.6207333,15.472343,-30.575829,57.54228,-1.0976617,11.332713,15.422871,-8.664748,-12.507952,46.21303,59.02048,-10.520956,6.0980916,-19.550787
61,-4.883945941925049,26.04019546508789,76.07890319824219,-0.9972187357531851,3.7697562785579626,-102.85488585078262,-27.461987,12.860658,9.68994,24.278032,-1.3816365,-4.9238253,3.3881488,-5.276309,-6.875773,14.982624,-22.176931,4.976015,2.476,-1.611493,3.81217,6.388123,15.587437,-30.469004,57.436657,-1.0077978,11.405543,15.373407,-8.826582,-12.425471,46.274807,58.99862,-10.619109,6.2504077,-19.465206
62,-5.063178062438965,26.601991653442383,76.1199951171875,-1.235613966285081,3.9313058527344493,-102.7735570172634,-27.543514,13.203005,9.548991,23.088768,-1.3597487,-5.091324,2.9427397,-4.680568,-6.8897047,14.593588,-21.77273,4.868026,2.2608988,-1.3203354,3.94426,6.1621804,15.704808,-30.357283,57.280663,-0.9174278,11.485876,15.290621,-8.98762,-12.358977,46.35338,58.937325,-10.695139,6.459716,-19.364721
63,-5.244019031524658,27.166196823120117,76.17422485351562,-1.493804758962036,4.101930242748187,-102.6770335954237,-27.60296,13.556683,9.4246235,21.85424,-1.4696534,-5.232394,2.4404488,-4.0749664,-6.913304,14.305002,-21.33355,4.733216,2.025265,-0.9972647,4.0693316,5.9422717,15.821451,-30.2655,57.106068,-0.87225884,11.540442,15.214254,-9.139694,-12.308587,46.4355,58.86931,-10.722377,6.649796,-19.252983
64,-5.431527137756348,27.733171463012695,76.23583984375,-1.750027479006297,4.274535916539979,-102.56023012462087,-27.636337,13.884332,9.305728,20.576914,-1.6057817,-5.3051953,1.9316385,-3.4895725,-7.0071597,14.054002,-20.88303,4.536881,1.7622501,-0.66568106,4.183826,5.739135,15.931109,-30.209082,56.939262,-0.9063303,11.536682,15.183752,-9.256239,-12.272972,46.49311,58.816116,-10.6924715,6.744555,-19.133993
65,-5.607126235961914,28.29277801513672,76.30662536621094,-2.0229113499710856,4.468169502688411,-102.42342717480744,-27.672777,14.189061,9.147559,19.245901,-1.7782193,-5.293191,1.37852,-2.9085305,-7.197362,13.869183,-20.412737,4.239696,1.4644092,-0.29887712,4.277279,5.5544558,16.027605,-30.194937,56.78244,-1.0777774,11.437768,15.231095,-9.357342,-12.252839,46.523754,58.793575,-10.571189,6.706351,-19.002935
66,-5.763827323913574,28.839462280273438,76.37471008300781,-2.3186978202261184,4.679091895958089,-102.26980067172224,-27.707363,14.491316,8.9672785,17.869791,-2.0319538,-5.2182307,0.7669445,-2.324955,-7.451782,13.769425,-19.912983,3.873455,1.1341271,0.11483419,4.3526497,5.3477106,16.096567,-30.233961,56.666504,-1.3762399,11.2679615,15.331229,-9.441131,-12.250568,46.538292,58.78727,-10.38338,6.5822973,-18.859934
67,-5.915799140930176,29.362043380737305,76.45314025878906,-2.5958990560436472,4.867307208929126,-102.09770060607818,-27.676134,14.773374,8.85047,16.459253,-2.3020706,-5.1001787,0.19433269,-1.7788152,-7.7371335,13.658424,-19.398785,3.5023422,0.80249304,0.50932586,4.433959,5.1843514,16.164684,-30.27707,56.524635,-1.6326989,11.092856,15.429481,-9.480897,-12.260687,46.53954,58.786602,-10.16156,6.421971,-18.714502
68,-6.059412479400635,29.8713321685791,76.5313720703125,-2.8129975899495197,4.993335398503249,-101.90464148705304,-27.518589,15.013551,8.8833065,15.029064,-2.5264592,-4.9625015,-0.2410614,-1.3061234,-8.016642,13.443063,-18.888676,3.1871486,0.4702228,0.83670795,4.542899,4.958833,16.216042,-30.382265,56.46523,-1.830141,10.96982,15.482749,-9.469117,-12.272665,46.55825,58.805065,-9.9414015,6.276069,-18.57918
69,-6.2061967849731445,30.365503311157227,76.60663604736328,-2.9563836115782416,5.017776472765781,-101.67961746722246,-27.171297,15.177224,9.032478,13.500818,-2.7852578,-4.7286572,-0.45992294,-0.9138631,-8.284304,13.077336,-18.392391,2.9491467,0.15940319,1.0641601,4.69129,4.819861,16.264948,-30.457882,56.371964,-1.7914996,10.923744,15.47138,-9.367966,-12.2850685,46.585182,58.837536,-9.692094,6.126647,-18.448828
70,-6.351840496063232,30.84333610534668,76.67459106445312,-3.0491112861365126,4.972070848741119,-101.42655003288394,-26.684258,15.278943,9.270597,11.891087,-3.0783453,-4.4155607,-0.53072184,-0.5787741,-8.555109,12.617985,-17.899576,2.7515764,-0.15999638,1.2318492,4.864014,4.709016,16.288324,-30.523973,56.30056,-1.622583,10.916843,15.423504,-9.217496,-12.288982,46.631805,58.90716,-9.406007,5.957321,-18.320248
71,-6.4938435554504395,31.31431007385254,76.743408203125,-3.10478033732405,4.922385008969968,-101.16708589532303,-26.163177,15.362758,9.699849,10.351071,-3.2184603,-4.197516,-0.5738822,-0.29009292,-8.821711,12.126983,-17.401419,2.5664606,-0.47358266,1.3556055,5.025751,4.5792947,16.31771,-30.632816,56.23968,-1.4351338,10.934743,15.3542795,-9.032088,-12.291719,46.667587,58.98476,-9.164987,5.818997,-18.208088
72,-6.635317325592041,31.782955169677734,76.80635070800781,-3.1386548811859925,4.932242635569093,-100.9240249274413,-25.69582,15.469693,10.429969,9.000944,-3.0068672,-4.256902,-0.706702,-0.03609832,-9.077503,11.664116,-16.8881,2.3659651,-0.7380055,1.4543502,5.1459713,4.4309087,16.365997,-30.774817,56.141712,-1.23537,10.9649515,15.27514,-8.8253355,-12.2947235,46.616535,59.04951,-9.069269,5.759538,-18.11967
73,-6.764842510223389,32.25704574584961,76.87910461425781,-3.160478237911013,5.020079960932106,-100.70503212929518,-25.24535,15.6093445,11.630709,7.737133,-2.2252886,-4.8064694,-0.95819515,0.19268602,-9.31951,11.2347765,-16.350225,2.1337454,-0.9841602,1.5504732,5.21383,4.2286663,16.400173,-30.937222,56.048485,-1.0341718,11.00968,15.1772,-8.627619,-12.295273,46.508186,59.115265,-9.183885,5.8148246,-18.057262
74,-6.9006452560424805,32.726619720458984,76.9588623046875,-3.162132451633061,5.149764144392125,-100.49844642056469,-24.892082,15.7625675,13.161892,6.763693,-1.1447853,-5.6958456,-1.2615968,0.39073524,-9.55207,10.804805,-15.792748,1.8871677,-1.20126,1.6284617,5.2462554,3.9941146,16.429811,-31.131361,55.95458,-0.80799156,11.074931,15.058502,-8.410973,-12.294755,46.34311,59.179195,-9.449717,5.950602,-18.014866
75,-7.02516508102417,33.18634796142578,77.05043029785156,-3.1273552389144212,5.306410266699106,-100.29433321753508,-24.91508,15.954127,14.665348,6.691791,-0.32202068,-6.562832,-1.5995846,0.5377243,-9.782865,10.382922,-15.231196,1.6507406,-1.3919113,1.6772934,5.2522273,3.7367578,16.456562,-31.344166,55.857643,-0.57494676,11.141916,14.941885,-8.172244,-12.29392,46.134415,59.250957,-9.746031,6.112744,-17.993912
76,-7.140878677368164,33.6524543762207,77.14909362792969,-3.0401737295785187,5.475785137053475,-100.08180736790213,-24.890987,16.05669,15.989678,6.6540513,0.4532589,-7.0544605,-1.9669244,0.6109756,-10.017758,10.002608,-14.688803,1.4478568,-1.5748972,1.6888907,5.2404637,3.4760609,16.47723,-31.54276,55.750885,-0.34707427,11.191545,14.84986,-7.9144454,-12.292752,45.91314,59.342934,-9.947403,6.2480555,-17.997707
77,-7.251241683959961,34.11735153198242,77.25537872314453,-2.8798074953512454,5.670902797885049,-99.85137701408,-24.828012,16.041454,17.12061,6.6499076,1.1866055,-7.0266542,-2.3787267,0.5805109,-10.264585,9.667681,-14.16483,1.2956437,-1.7083097,1.6399772,5.1980615,3.1704535,16.499493,-31.798952,55.66149,-0.13699253,11.217716,14.790855,-7.6087203,-12.292283,45.60034,59.442375,-10.043236,6.351554,-18.032946
78,-7.3629984855651855,34.57018280029297,77.3618392944336,-2.661876580979253,5.8934751623118755,-99.6108562673194,-24.740034,15.940583,18.185114,6.6998725,1.9695253,-6.6858854,-2.839891,0.4641354,-10.514856,9.377614,-13.65603,1.177697,-1.8337985,1.5496969,5.127756,2.843105,16.51662,-32.06304,55.572464,0.07024565,11.230186,14.749169,-7.2872677,-12.292706,45.260773,59.559074,-10.072083,6.450069,-18.098362
79,-7.459820747375488,35.0139045715332,77.469482421875,-2.427868884746702,6.110378916587459,-99.37803801344319,-25.149033,15.987747,18.991743,7.9706297,2.074508,-6.2172294,-3.306532,0.318294,-10.751319,9.115048,-13.162892,1.0693806,-1.9575949,1.4564714,5.0551805,2.5389633,16.523373,-32.27161,55.45202,0.28060493,11.237236,14.72308,-6.9638224,-12.293715,44.948692,59.702686,-10.05408,6.5326233,-18.17783
80,-7.550472736358643,35.454959869384766,77.5678482055664,-2.216205732847624,6.29002477434079,-99.1698948297838,-25.466352,16.055777,19.654613,9.242833,2.034111,-5.7978187,-3.7383204,0.196349,-10.95944,8.8683815,-12.690211,0.94641817,-2.0433626,1.3901397,5.0053053,2.2531443,16.520477,-32.43259,55.3003,0.46590057,11.247506,14.714756,-6.635745,-12.296627,44.666428,59.873894,-10.018484,6.5863028,-18.25206
81,-7.63297176361084,35.88948059082031,77.66153717041016,-2.031474285392166,6.421197900149475,-98.99653774543121,-25.667477,16.15655,20.174402,10.504677,1.8105791,-5.471845,-4.112628,0.10923641,-11.13127,8.612733,-12.227933,0.8066597,-2.0889497,1.3602657,4.993989,1.9877853,16.50628,-32.5258,55.109116,0.61969954,11.259872,14.722008,-6.3121095,-12.302184,44.425747,60.092842,-9.950446,6.5973654,-18.352684
82,-7.710389614105225,36.32453536987305,77.74651336669922,-1.8599367772031983,6.51845892591608,-98.8506311680566,-25.820505,16.285725,20.55233,11.876405,1.4046636,-5.146207,-4.4480667,0.037126895,-11.274306,8.354252,-11.773795,0.66056937,-2.096607,1.3546933,5.007274,1.739935,16.476229,-32.561268,54.886284,0.7619414,11.27091,14.746268,-5.9841194,-12.311901,44.20592,60.348488,-9.847079,6.5758204,-18.476646
83,-7.788252830505371,36.75163269042969,77.8209228515625,-1.7082013942631042,6.591706571848796,-98.7222599415536,-25.966385,16.430702,20.76538,13.3831,0.8521194,-4.7901464,-4.7674084,-0.016530145,-11.399148,8.123715,-11.341533,0.50342155,-2.0948825,1.3714758,5.0267553,1.5117532,16.430515,-32.54698,54.64787,0.8909845,11.284867,14.789162,-5.663443,-12.32661,44.043713,60.618534,-9.72267,6.5461435,-18.557331
84,-7.867609024047852,37.16128921508789,77.8864974975586,-1.5821485842763725,6.6511033600272675,-98.60106860769247,-26.137978,16.576122,20.792984,15.031654,0.19456375,-4.3720207,-5.090836,-0.04719296,-11.516686,7.9461646,-10.942041,0.33040807,-2.1054037,1.4027344,5.0368557,1.3215848,16.384851,-32.487816,54.38522,1.0144261,11.307472,14.850841,-5.368221,-12.341466,43.97382,60.885082,-9.584102,6.532366,-18.528133
85,-7.944314002990723,37.565059661865234,77.94145202636719,-1.48148449784183,6.69966872463819,-98.48892513168707,-26.367842,16.731987,20.589716,16.883114,-0.61683327,-3.8167837,-5.428466,-0.05418329,-11.622444,7.8359795,-10.581753,0.12955359,-2.126035,1.4540669,5.0269504,1.166791,16.314522,-32.37048,54.11427,1.1491863,11.341431,14.942501,-5.089823,-12.367043,44.011604,61.141365,-9.412952,6.543055,-18.349413
86,-8.020742416381836,37.9661979675293,77.98212432861328,-1.4062043581964514,6.729728797459146,-98.3923810656704,-26.62115,16.901983,20.175776,18.894857,-1.5771285,-3.1634233,-5.762215,-0.03373103,-11.712572,7.7696333,-10.250039,-0.093890764,-2.1485975,1.5238696,5.0132747,1.0507511,16.24139,-32.196648,53.812756,1.2799481,11.384879,15.058107,-4.831599,-12.396438,44.14459,61.40255,-9.205109,6.5650134,-18.064732
87,-8.091900825500488,38.3651123046875,78.0130615234375,-1.358683231073112,6.737548441686122,-98.3047257361423,-26.842983,17.062046,19.631205,20.945484,-2.5735252,-2.5477118,-6.074754,0.015931414,-11.800588,7.721412,-9.935755,-0.3176877,-2.1745105,1.6110415,5.004353,0.95899093,16.169704,-31.996468,53.495426,1.3915821,11.431046,15.179881,-4.5818095,-12.428077,44.32224,61.65293,-9.029554,6.591274,-17.728836
88,-8.160298347473145,38.758094787597656,78.03976440429688,-1.3380567829718943,6.721766643179159,-98.21654156284521,-26.99391,17.188631,19.03541,22.945333,-3.5016918,-2.1081402,-6.3554635,0.090967655,-11.900824,7.6734643,-9.631137,-0.5187155,-2.2069645,1.7132337,5.007127,0.8725574,16.100792,-31.80152,53.181644,1.4681162,11.472629,15.290528,-4.3356905,-12.460246,44.501698,61.879818,-8.944067,6.613998,-17.396639
89,-8.22607707977295,39.148109436035156,78.05863952636719,-1.3493375684554154,6.683120831466368,-98.12253820179349,-27.09066,17.276014,18.35552,24.918913,-4.3549666,-1.8881227,-6.601423,0.19734739,-12.023091,7.6213193,-9.334484,-0.6906285,-2.2411072,1.8303459,5.021193,0.7945364,16.04203,-31.60527,52.852093,1.5122223,11.523107,15.384548,-4.087127,-12.489772,44.672817,62.07944,-8.988151,6.625132,-17.055801
90,-8.283963203430176,39.52827835083008,78.0636978149414,-1.3857529437382492,6.625917061848043,-98.02452876726377,-27.159521,17.335146,17.567486,26.92347,-5.1922135,-1.8106309,-6.8220634,0.32791486,-12.159763,7.574728,-9.049809,-0.8449464,-2.2885063,1.9619435,5.0398097,0.7301,15.982628,-31.388062,52.511364,1.5317086,11.580213,15.471665,-3.8419807,-12.522448,44.86817,62.257328,-9.11945,6.630235,-16.686003
91,-8.341084480285645,39.905860900878906,78.0634994506836,-1.4279592284352636,6.554911842348372,-97.92326566167183,-27.173336,17.367304,16.769949,28.9167,-6.0108323,-1.8316146,-7.037315,0.4566813,-12.300429,7.5594926,-8.789554,-0.9859058,-2.3444576,2.0877228,5.0581656,0.6719942,15.930988,-31.1972,52.18901,1.5117397,11.616476,15.557107,-3.5928855,-12.55235,45.053387,62.41174,-9.303108,6.638838,-16.330284
92,-8.396677017211914,40.274723052978516,78.06400299072266,-1.4573130055097416,6.474081512560441,-97.82069069617584,-27.10503,17.374489,16.060913,30.858353,-6.805336,-1.9081221,-7.257832,0.5604883,-12.433572,7.5834384,-8.556445,-1.1174496,-2.4092171,2.1893134,5.072761,0.60190076,15.8958,-31.084888,51.92382,1.4243343,11.603292,15.646424,-3.3327253,-12.572087,45.197796,62.540222,-9.505785,6.661156,-16.031647
93,-8.44845962524414,40.6419792175293,78.0601577758789,-1.4702284077117829,6.381899134510988,-97.71794244382278,-26.940388,17.344072,15.453899,32.734097,-7.577533,-2.0678852,-7.4871044,0.63260704,-12.556897,7.6548214,-8.356938,-1.2319432,-2.5066636,2.2695627,5.083946,0.53380966,15.861612,-31.025723,51.72436,1.2562547,11.512818,15.756042,-3.0729485,-12.589393,45.331566,62.641853,-9.74368,6.7116814,-15.792903
94,-8.499183654785156,41.006805419921875,78.05475616455078,-1.4754828324140918,6.277875094715772,-97.61300915921358,-26.700718,17.27979,14.902941,34.579525,-8.334901,-2.3216145,-7.7183185,0.68443525,-12.676429,7.762712,-8.184412,-1.3296186,-2.6244464,2.3356907,5.089664,0.4580334,15.823573,-31.017332,51.586086,1.0174019,11.365836,15.879581,-2.8018513,-12.605983,45.44583,62.71184,-10.036171,6.781098,-15.593474
95,-8.548423767089844,41.3693962097168,78.0474624633789,-1.474382196908582,6.1667035281730005,-97.50430823776941,-26.40341,17.205544,14.4178095,36.408478,-9.074121,-2.6018577,-7.9523053,0.720459,-12.792365,7.9019794,-8.031957,-1.4260341,-2.7468565,2.3859124,5.090627,0.37399346,15.797366,-31.06863,51.486763,0.76016706,11.207819,15.981284,-2.527455,-12.614564,45.528854,62.768814,-10.307635,6.845961,-15.442949
96,-8.599215507507324,41.72598648071289,78.04497528076172,-1.4687368488593135,6.05264298594776,-97.39049613934522,-26.062464,17.143429,14.007459,38.22726,-9.787544,-2.84121,-8.1918955,0.74486583,-12.905251,8.072155,-7.895011,-1.5370787,-2.880689,2.4281082,5.0806146,0.27813348,15.773208,-31.16895,51.4297,0.53899676,11.08187,16.027973,-2.2424567,-12.619787,45.584846,62.818974,-10.492823,6.8860354,-15.352834
97,-8.641975402832031,42.077903747558594,78.04461669921875,-1.4553276759894627,5.93639301770303,-97.27354933884673,-25.675528,17.087105,13.686121,40.040302,-10.469495,-3.0368288,-8.44481,0.7534117,-13.006392,8.289716,-7.781841,-1.6719927,-3.0144527,2.4601517,5.056703,0.15467374,15.746768,-31.341478,51.431515,0.34403208,10.998295,16.00632,-1.9470851,-12.623107,45.607693,62.86925,-10.553698,6.883687,-15.340845
98,-8.687843322753906,42.426483154296875,78.04462432861328,-1.4342194592983197,5.815404448057869,-97.15390355858814,-25.233408,17.024117,13.446713,41.83714,-11.122035,-3.2224772,-8.70662,0.7457271,-13.098012,8.548714,-7.691012,-1.8204577,-3.1616075,2.479207,5.0252123,0.023698362,15.726936,-31.563143,51.473103,0.1615626,10.935076,15.932811,-1.6458513,-12.622688,45.606667,62.91088,-10.534995,6.854771,-15.395917
99,-8.724268913269043,42.770423889160156,78.03839111328125,-1.4133537848730764,5.6890806503222935,-97.02812750565684,-24.742317,16.967072,13.264986,43.603348,-11.751413,-3.3806217,-8.9594,0.7331255,-13.1966715,8.811071,-7.602134,-1.9692768,-3.307285,2.493911,4.985904,-0.12595841,15.707433,-31.844341,51.55844,0.0060495096,10.886525,15.832116,-1.3314795,-12.6186495,45.565773,62.937805,-10.482991,6.8274693,-15.486294
100,-8.757556915283203,43.106746673583984,78.03136444091797,-1.4010044648776925,5.556464172346457,-96.89270620165739,-24.20679,16.93082,13.115867,45.322704,-12.362533,-3.495475,-9.179837,0.7287532,-13.318879,9.027328,-7.488431,-2.1055312,-3.4649959,2.5128305,4.946019,-0.2798439,15.69047,-32.151722,51.666,-0.09295122,10.847132,15.722113,-1.0113624,-12.610086,45.494774,62.94641,-10.442824,6.830417,-15.579601
101,-8.791833877563477,43.44334411621094,78.02509307861328,-1.3988892452389188,5.414681893296979,-96.74587856302055,-23.624405,16.919136,12.999738,47.00797,-12.9579735,-3.5495245,-9.359317,0.73495597,-13.476188,9.18741,-7.3439956,-2.2244675,-3.6307282,2.5378497,4.9060006,-0.4420493,15.67408,-32.50007,51.805424,-0.12712617,10.811549,15.603679,-0.67821586,-12.594065,45.37512,62.93332,-10.439043,6.8866024,-15.696699
102,-8.822793960571289,43.774658203125,78.01057434082031,-1.4033668138421804,5.264684722864026,-96.58977798160508,-22.991259,16.921787,12.92767,48.657833,-13.532164,-3.5563204,-9.509186,0.74602985,-13.657334,9.313591,-7.1812778,-2.3338575,-3.821535,2.5653744,4.8668203,-0.6005897,15.663098,-32.87069,51.967705,-0.10574599,10.783807,15.4649105,-0.34574252,-12.571901,45.237144,62.906933,-10.434055,6.9761033,-15.84518
103,-8.857950210571289,44.099815368652344,78.00419616699219,-1.4146786424395406,5.112155697452536,-96.4275445918294,-22.312588,16.93647,12.88919,50.237408,-14.078469,-3.545525,-9.648375,0.7606365,-13.84473,9.430695,-7.0154295,-2.4398987,-4.028697,2.5940874,4.8244605,-0.74962103,15.657217,-33.24521,52.13387,-0.035161596,10.772583,15.313628,-0.011287306,-12.546379,45.088676,62.86671,-10.410388,7.061934,-15.973329
104,-8.886261940002441,44.42710876464844,77.99564361572266,-1.4333974464332435,4.962696229203997,-96.26189461087517,-21.594278,16.961538,12.873591,51.712574,-14.59038,-3.5462232,-9.79688,0.7771395,-14.021184,9.564802,-6.8616433,-2.548964,-4.2278943,2.622218,4.7750506,-0.90290636,15.653751,-33.629932,52.299713,0.06689737,10.7865305,15.159887,0.3191538,-12.515372,44.933594,62.82275,-10.337392,7.106112,-16.029274
105,-8.90990161895752,44.75298309326172,77.98049926757812,-1.4618074778569226,4.816325107566554,-96.08884514163609,-20.838345,17.00508,12.884244,53.098873,-15.0697565,-3.550028,-9.954454,0.79680276,-14.181963,9.718853,-6.724504,-2.6615326,-4.431746,2.6517432,4.717513,-1.0535719,15.652105,-34.014565,52.462036,0.22080044,10.83474,14.990364,0.6474185,-12.479662,44.76722,62.770844,-10.186382,7.091066,-15.978176
106,-8.940375328063965,45.06745147705078,77.96752166748047,-1.499266702772863,4.670558918328342,-95.90839958374147,-20.041683,17.06551,12.924476,54.407112,-15.518679,-3.5456839,-10.111355,0.8205965,-14.336416,9.878161,-6.5946674,-2.7749865,-4.663542,2.686715,4.6576056,-1.1856173,15.65319,-34.3761,52.613674,0.43570325,10.909377,14.802591,0.96420205,-12.448215,44.61786,62.707294,-9.964949,7.0407057,-15.854015
107,-8.959449768066406,45.38325119018555,77.95186614990234,-1.5405238782887003,4.527227119851519,-95.72951792628241,-19.203447,17.127106,12.983687,55.597538,-15.932177,-3.5608666,-10.275877,0.844019,-14.487836,10.049673,-6.470837,-2.8908296,-4.8716993,2.7173889,4.5898194,-1.3267407,15.655761,-34.760315,52.771236,0.66139644,10.995394,14.628605,1.2877586,-12.409508,44.452576,62.638615,-9.75392,6.977403,-15.709681
108,-8.977036476135254,45.71050262451172,77.92619323730469,-1.580514695843363,4.388212800749205,-95.56104845494724,-18.325468,17.174358,13.052098,56.634834,-16.30623,-3.6196513,-10.45519,0.8629849,-14.639937,10.2378235,-6.3507624,-3.0105429,-5.078802,2.74386,4.5173693,-1.4491765,15.659929,-35.111046,52.910576,0.8798722,11.076873,14.490598,1.5985955,-12.369423,44.33542,62.579433,-9.601368,6.9255013,-15.599075
109,-8.996743202209473,46.027156829833984,77.90193176269531,-1.620214067987837,4.253625201890948,-95.40007130148469,-17.406183,17.208363,13.125597,57.514835,-16.638016,-3.7360766,-10.6472435,0.87928694,-14.796675,10.439636,-6.2332973,-3.1397512,-5.2768846,2.7636015,4.436094,-1.5585614,15.666382,-35.444904,53.038063,1.1021833,11.159738,14.401304,1.898293,-12.325304,44.26338,62.532276,-9.524659,6.8816867,-15.534954
110,-9.011743545532227,46.34819412231445,77.87567138671875,-1.6617120841853126,4.122658282414541,-95.24361196064697,-16.44826,17.235388,13.210419,58.259243,-16.930826,-3.8932152,-10.849602,0.89406884,-14.955436,10.654226,-6.1204343,-3.2764807,-5.475972,2.7797034,4.3465085,-1.6533085,15.6753025,-35.759003,53.154972,1.3388863,11.24895,14.344197,2.1944246,-12.278988,44.22325,62.486855,-9.49955,6.836744,-15.48956
111,-9.021842956542969,46.666263580322266,77.84956359863281,-1.7002216391522065,3.995613029194362,-95.10036791420066,-15.452501,17.24456,13.312443,58.855225,-17.188898,-4.0756645,-11.067559,0.9021958,-15.108533,10.886561,-6.0115013,-3.4100506,-5.6636715,2.7915633,4.2562046,-1.7365856,15.685488,-36.04565,53.254807,1.550525,11.328888,14.306981,2.4785032,-12.232239,44.21264,62.44925,-9.502756,6.8033,-15.455117
112,-9.038045883178711,46.9847526550293,77.82049560546875,-1.73173349907569,3.8728358963319764,-94.97908637867793,-14.420431,17.224731,13.437863,59.2895,-17.416296,-4.2641907,-11.307412,0.8985898,-15.248803,11.143519,-5.9070635,-3.5299003,-5.8151884,2.7934544,4.1657977,-1.8195472,15.698824,-36.318714,53.341305,1.6891818,11.384602,14.279648,2.7565973,-12.166154,44.19701,62.433067,-9.537389,6.79285,-15.426048
113,-9.043646812438965,47.30766296386719,77.78631591796875,-1.75509914919467,3.7536107572145334,-94.8872824273265,-13.347792,17.168596,13.582583,59.56456,-17.599268,-4.4657674,-11.571829,0.8826961,-15.3742,11.428298,-5.8053646,-3.6303308,-5.942726,2.7898862,4.0841517,-1.893706,15.711958,-36.545452,53.404724,1.7414291,11.404805,14.260639,3.0163848,-12.094537,44.21777,62.439556,-9.598223,6.8143673,-15.423645
114,-9.04338550567627,47.6326789855957,77.75196075439453,-1.7723775275240847,3.6379914033454748,-94.81848090954472,-12.237398,17.08165,13.744431,59.68663,-17.740889,-4.6855645,-11.85712,0.8573197,-15.488672,11.737112,-5.706899,-3.7179756,-6.0457473,2.7793798,4.004865,-1.9631512,15.725917,-36.742733,53.45297,1.7283983,11.400363,14.256366,3.263561,-12.010116,44.262688,62.467678,-9.694156,6.8591776,-15.444168
115,-9.042680740356445,47.956459045410156,77.7173080444336,-1.7841339753508236,3.5274960396183697,-94.76095350803362,-11.099634,16.970905,13.932904,59.646168,-17.869043,-4.9037247,-12.157523,0.82150906,-15.592776,12.0585575,-5.6102567,-3.7996523,-6.146373,2.7686718,3.9259174,-2.0147486,15.73593,-36.896454,53.479034,1.6917146,11.38626,14.259671,3.509423,-11.944308,44.316673,62.480244,-9.800106,6.917508,-15.43768
116,-9.034913063049316,48.2832145690918,77.68004608154297,-1.7903562942593836,3.4235996634019505,-94.70294864486365,-9.9458685,16.84458,14.157005,59.437607,-18.013771,-5.1002803,-12.467455,0.7743281,-15.687071,12.381926,-5.5150213,-3.8818755,-6.252892,2.7538006,3.8381395,-2.0508654,15.744309,-37.021767,53.49158,1.6559918,11.3783045,14.265791,3.7499688,-11.884596,44.349277,62.483967,-9.896681,6.976837,-15.358921
117,-9.02288818359375,48.60557556152344,77.64189147949219,-1.7920194605081898,3.325763492939398,-94.64744620572387,-8.767582,16.705805,14.423985,59.051857,-18.184734,-5.275523,-12.785274,0.7185278,-15.765613,12.70601,-5.4240007,-3.9663556,-6.356392,2.7244732,3.729337,-2.0649478,15.756603,-37.123737,53.492855,1.6190593,11.380258,14.278392,3.973058,-11.786642,44.335884,62.520687,-9.999237,7.037825,-15.173789
118,-9.004213333129883,48.93028259277344,77.60163116455078,-1.7896077796114835,3.233488957156409,-94.59849151548946,-7.5647798,16.550327,14.725204,58.49855,-18.367468,-5.4371805,-13.112199,0.65474445,-15.830463,13.031716,-5.3339214,-4.048804,-6.4661627,2.6925771,3.613297,-2.053468,15.767419,-37.17773,53.47132,1.5764151,11.383234,14.296258,4.186147,-11.694561,44.311115,62.554012,-10.104905,7.106809,-14.911219
119,-8.980903625488281,49.25540542602539,77.55867004394531,-1.7807375408865713,3.1484546777518156,-94.54607657242366,-6.359527,16.372261,15.046594,57.790043,-18.548609,-5.5765305,-13.454688,0.5760245,-15.89326,13.368235,-5.2437577,-4.127373,-6.5854726,2.664648,3.4986112,-2.0339544,15.772924,-37.205776,53.435806,1.5337293,11.386436,14.314507,4.4138646,-11.641899,44.2834,62.539913,-10.197973,7.175196,-14.629544
120,-8.952827453613281,49.590972900390625,77.51337432861328,-1.7630290514279954,3.0721606010781355,-94.48016332108102,-5.174319,16.167147,15.373481,56.941254,-18.716524,-5.6852565,-13.817146,0.47570217,-15.965667,13.720321,-5.149628,-4.20092,-6.70622,2.6307545,3.3852088,-2.0305064,15.77799,-37.246548,53.407948,1.4926881,11.390142,14.329618,4.6337996,-11.587192,44.2598,62.52536,-10.255169,7.2302065,-14.395014
121,-8.924227714538574,49.9256477355957,77.47049713134766,-1.735936671172117,3.0031081939679503,-94.39987225082447,-4.0012736,15.941343,15.718246,55.94086,-18.89055,-5.737324,-14.195903,0.35276875,-16.052486,14.086551,-5.047859,-4.264807,-6.826835,2.5835366,3.2639818,-2.046184,15.785543,-37.315727,53.399303,1.4495773,11.399421,14.341236,4.834614,-11.49206,44.247765,62.548485,-10.252544,7.2615304,-14.242063
122,-8.884306907653809,50.265647888183594,77.42526245117188,-1.7005393491770138,2.9412272603195713,-94.31020900830654,-2.8330553,15.694089,16.081388,54.78607,-19.071762,-5.7447934,-14.585219,0.21142736,-16.14628,14.454133,-4.938113,-4.3216305,-6.959467,2.5341756,3.1412153,-2.0663245,15.791137,-37.381195,53.392036,1.4058487,11.41186,14.349697,5.0343285,-11.407686,44.250805,62.558784,-10.205449,7.2796407,-14.128001
123,-8.83846378326416,50.61532211303711,77.37863159179688,-1.656077060394047,2.8896988128253405,-94.2091705766951,-1.694409,15.411334,16.430563,53.506996,-19.215775,-5.756253,-15.002486,0.047919065,-16.240408,14.847908,-4.833983,-4.3812923,-7.0969505,2.4797199,3.0233872,-2.0931108,15.794392,-37.434593,53.38171,1.3702676,11.418794,14.3570795,5.233845,-11.3336,44.239403,62.55112,-10.169393,7.2990103,-14.013127
124,-8.79817008972168,50.96538543701172,77.33161163330078,-1.6021926146826035,2.851831234708042,-94.09493180467467,-0.60786474,15.079619,16.733742,52.127712,-19.280334,-5.8200817,-15.461461,-0.14042673,-16.327686,15.283478,-4.7458467,-4.453866,-7.243978,2.4209254,2.9195793,-2.131015,15.79544,-37.461727,53.363914,1.3437393,11.410966,14.364256,5.438822,-11.287918,44.193733,62.50557,-10.201474,7.3349347,-13.856504
125,-8.747830390930176,51.330684661865234,77.27980041503906,-1.5316906968171946,2.8289516268156016,-93.9647694996283,0.4256319,14.689513,16.987082,50.63691,-19.189714,-5.963494,-15.973901,-0.36356375,-16.401304,15.781527,-4.686936,-4.5488644,-7.404733,2.3467524,2.824921,-2.1731136,15.79521,-37.452248,53.342495,1.3231955,11.372272,14.372363,5.6495047,-11.254912,44.093475,62.43552,-10.352091,7.3939953,-13.6330385
126,-8.693124771118164,51.70606994628906,77.22517395019531,-1.4460545368303928,2.818655260244589,-93.82051956143498,1.4190762,14.2502,17.20438,49.023502,-18.98775,-6.155297,-16.52745,-0.61731607,-16.465351,16.323334,-4.646295,-4.6599464,-7.5363083,2.2463105,2.7332315,-2.254341,15.792255,-37.462227,53.34631,1.2998585,11.313194,14.381744,5.8440714,-11.170429,43.900158,62.402126,-10.598172,7.461446,-13.371542
127,-8.634952545166016,52.09227752685547,77.16324615478516,-1.3584220254819541,2.8198351032447224,-93.66642953595645,2.3666556,13.781211,17.379387,47.317883,-18.81235,-6.355749,-17.108158,-0.8837113,-16.53078,16.880728,-4.606406,-4.7740593,-7.6939764,2.1498091,2.6500142,-2.3337252,15.789595,-37.440315,53.334835,1.2934457,11.261909,14.390965,6.036453,-11.1119375,43.72857,62.34015,-10.839645,7.5334735,-13.111928
128,-8.578071594238281,52.48072052001953,77.09818267822266,-1.2815114818550501,2.8307121265495185,-93.50676258139286,3.2650254,13.302044,17.5079,45.547127,-18.799442,-6.5248528,-17.696949,-1.1440395,-16.608501,17.417519,-4.5450497,-4.8774443,-7.8412957,2.062097,2.57383,-2.4301305,15.786661,-37.430614,53.313538,1.3171065,11.249422,14.402006,6.2159796,-11.047598,43.56989,62.28008,-11.017433,7.597494,-12.897681
129,-8.51490306854248,52.87880325317383,77.02654266357422,-1.2225188137075642,2.8505659641159387,-93.34083280905884,4.121888,12.806271,17.56514,43.69002,-19.035185,-6.6344585,-18.28791,-1.3895134,-16.70605,17.927174,-4.4601107,-4.96832,-7.9919653,1.9929985,2.5059018,-2.5365884,15.785285,-37.424797,53.27328,1.3869388,11.297226,14.411491,6.379735,-10.993673,43.458805,62.20832,-11.095446,7.657528,-12.739001
130,-8.447465896606445,53.279380798339844,76.94934844970703,-1.1740066121464596,2.8804231807427727,-93.1669427786661,4.9391255,12.291778,17.560726,41.739044,-19.42927,-6.708458,-18.892326,-1.6307753,-16.816572,18.430275,-4.3632193,-5.054495,-8.146143,1.934697,2.4458416,-2.6477804,15.78525,-37.41303,53.21398,1.4971296,11.385133,14.419712,6.5397444,-10.9489975,43.364964,62.116844,-11.125378,7.717512,-12.613084
131,-8.37785816192627,53.695308685302734,76.86737823486328,-1.1279289911691495,2.921604947452193,-92.98783206747348,5.704773,11.782389,17.544325,39.737026,-19.849863,-6.789156,-19.512922,-1.8764153,-16.93075,18.922762,-4.25041,-5.1361823,-8.296388,1.8802637,2.3959064,-2.777989,15.786954,-37.404877,53.148678,1.6061776,11.478682,14.432054,6.684486,-10.904247,43.27497,62.031544,-11.125066,7.7693167,-12.514112
132,-8.302931785583496,54.122535705566406,76.77864074707031,-1.0760495820222933,2.975524413208368,-92.80589645352075,6.407893,11.296854,17.568619,37.72036,-20.161802,-6.9251084,-20.15559,-2.1359262,-17.038883,19.405807,-4.118507,-5.2126904,-8.442292,1.8238621,2.3589256,-2.932536,15.79099,-37.399075,53.082882,1.6782447,11.543694,14.454696,6.812276,-10.862429,43.181686,61.960487,-11.113119,7.806028,-12.435676
133,-8.228938102722168,54.564903259277344,76.67976379394531,-1.0177093190642954,3.047326613187712,-92.62064821033515,7.0518355,10.832034,17.653393,35.637367,-20.287481,-7.176832,-20.83391,-2.4117138,-17.137674,19.892794,-3.9722753,-5.2818627,-8.587019,1.7666669,2.3337998,-3.106774,15.796654,-37.384594,53.010033,1.7052072,11.570758,14.488598,6.9292207,-10.830056,43.08166,61.89582,-11.092453,7.821493,-12.374636
134,-8.144171714782715,55.010074615478516,76.57788848876953,-0.9578451900812711,3.1350031146793214,-92.43054462128356,7.645657,10.373041,17.773071,33.472816,-20.303438,-7.512056,-21.540394,-2.6976807,-17.233427,20.378153,-3.811107,-5.3445315,-8.726119,1.7115946,2.320682,-3.3059194,15.804502,-37.372787,52.932507,1.701514,11.578101,14.531178,7.0256925,-10.801117,42.980366,61.844902,-11.046343,7.820351,-12.3348055
135,-8.053519248962402,55.47100830078125,76.47466278076172,-0.8959240400992986,3.2289736958584196,-92.23667859795485,8.185206,9.920617,17.914164,31.321053,-20.307756,-7.8426466,-22.251247,-2.9909732,-17.32957,20.835125,-3.6229281,-5.403802,-8.859251,1.6577224,2.3206422,-3.525659,15.814681,-37.369576,52.85554,1.6844902,11.57334,14.580889,7.1136117,-10.772765,42.869045,61.801243,-10.999532,7.8129516,-12.31929
136,-7.965660095214844,55.9425163269043,76.36857604980469,-0.8314008017021719,3.3197713126054427,-92.03917549161677,8.66033,9.480057,18.060297,29.290865,-20.406713,-8.0777855,-22.943422,-3.2898781,-17.43041,21.24037,-3.3977945,-5.462396,-8.982882,1.6013654,2.3350458,-3.7629247,15.828871,-37.386795,52.784092,1.6697603,11.563851,14.63877,7.1981106,-10.739469,42.74246,61.76295,-10.965639,7.8122735,-12.33228
137,-7.866574764251709,56.42197036743164,76.26337432861328,-0.7708030027338115,3.407474522859797,-91.83695853620293,9.075881,9.06107,18.216265,27.378225,-20.635601,-8.196518,-23.622269,-3.5918918,-17.54242,21.605345,-3.134201,-5.5303164,-9.1121,1.5563279,2.366879,-4.0141406,15.842437,-37.412407,52.714436,1.6589477,11.547029,14.712603,7.276922,-10.712175,42.617832,61.72386,-10.932531,7.820835,-12.398496
138,-7.760726451873779,56.912803649902344,76.16134643554688,-0.714019579387329,3.496673836280238,-91.62945928004508,9.434034,8.656123,18.389296,25.535189,-20.934105,-8.251476,-24.295849,-3.8982427,-17.663078,21.936304,-2.83701,-5.602094,-9.24389,1.5215241,2.4139392,-4.2817216,15.855086,-37.445766,52.64606,1.6445875,11.520544,14.799513,7.354281,-10.690545,42.485607,61.682453,-10.904619,7.832652,-12.507604
139,-7.659432411193848,57.421104431152344,76.05233001708984,-0.6475713214075044,3.584096193425363,-91.41949219763072,9.722093,8.249693,18.567142,23.8071,-21.273241,-8.2555065,-24.944296,-4.2118673,-17.780106,22.197947,-2.501736,-5.656525,-9.354813,1.4746586,2.4718146,-4.5737715,15.86952,-37.507195,52.592564,1.627365,11.490991,14.884269,7.429676,-10.668427,42.336277,61.64548,-10.88946,7.846134,-12.610977
140,-7.553616046905518,57.939456939697266,75.9490966796875,-0.5588899893496236,3.666747916786211,-91.20936849426353,9.916836,7.83497,18.733587,22.263906,-21.632284,-8.214679,-25.550303,-4.536199,-17.881765,22.359785,-2.126561,-5.672693,-9.470714,1.4042287,2.5325294,-4.8755436,15.880117,-37.567055,52.56581,1.6135042,11.463075,14.9507675,7.4920716,-10.654743,42.223244,61.619923,-10.874749,7.8636427,-12.663017
141,-7.446179389953613,58.460514068603516,75.8515625,-0.44732732369011396,3.7414672790064962,-90.9987177039753,9.997973,7.427935,18.888033,20.962608,-22.046535,-8.106674,-26.113363,-4.8724227,-17.968054,22.425518,-1.7099342,-5.65894,-9.555895,1.3002961,2.599988,-5.2155495,15.893757,-37.676605,52.580513,1.5865096,11.433402,14.995382,7.5608373,-10.639945,42.08474,61.596,-10.885672,7.8855624,-12.625542
142,-7.336647987365723,58.992027282714844,75.75908660888672,-0.3180417121078552,3.809836559836482,-90.7872893557229,9.973564,7.034133,19.035042,19.875217,-22.525057,-7.92803,-26.642471,-5.219126,-18.04207,22.410429,-1.254135,-5.620914,-9.628812,1.1725761,2.6752894,-5.5788455,15.908425,-37.809666,52.62347,1.5546234,11.400363,15.025939,7.628927,-10.626687,41.944088,61.57603,-10.909927,7.912137,-12.533101
143,-7.225370407104492,59.539329528808594,75.67630767822266,-0.16510591987642875,3.875137963180448,-90.57839160521547,9.867368,6.6307254,19.1659,18.937794,-23.004768,-7.7107263,-27.132061,-5.574171,-18.0949,22.29492,-0.7597804,-5.5332856,-9.692405,1.0200016,2.7520483,-5.9442525,15.921114,-37.94156,52.676643,1.5329329,11.375084,15.046872,7.6867194,-10.61527,41.82935,61.570415,-10.942709,7.9381394,-12.441651
144,-7.115550994873047,60.09843444824219,75.59818267822266,0.015773537477554996,3.940726922336143,-90.37479096231456,9.706281,6.1942244,19.27329,18.079231,-23.41896,-7.488964,-27.575695,-5.9345474,-18.118893,22.059599,-0.22820584,-5.370684,-9.752746,0.84323204,2.8227372,-6.2928843,15.928305,-38.04815,52.726868,1.5333432,11.368194,15.062542,7.728922,-10.605127,41.76778,61.586918,-10.98334,7.9588666,-12.4076605
145,-6.99859094619751,60.66716384887695,75.52589416503906,0.21978139947467012,4.014217623935328,-90.1630497194816,9.480625,5.7288566,19.362997,17.28856,-23.7731,-7.2728944,-27.971182,-6.303135,-18.119493,21.683504,0.3820801,-5.10376,-9.824804,0.6523176,2.8803983,-6.6215634,15.928509,-38.117374,52.77499,1.5626502,11.382846,15.0704565,7.7550554,-10.597834,41.7848,61.637024,-11.028759,7.9728374,-12.47691
146,-6.874255657196045,61.234676361083984,75.46269989013672,0.4479523229920235,4.0901954247834285,-89.94703322462402,9.178432,5.2456636,19.436705,16.609415,-24.09939,-7.041505,-28.321775,-6.680668,-18.093956,21.183643,1.0564228,-4.7521715,-9.887676,0.4388049,2.9279351,-6.953942,15.920296,-38.187855,52.842087,1.6016479,11.413292,15.0731735,7.7694507,-10.585439,41.853165,61.718815,-11.076158,7.982531,-12.610723
147,-6.752750396728516,61.80696487426758,75.3982162475586,0.7125622774479689,4.152858994978569,-89.75485544879965,8.829972,4.7290397,19.482594,16.0404,-24.3637,-6.785647,-28.62678,-7.0615673,-18.024683,20.59137,1.7144749,-4.3650074,-9.937323,0.18782221,2.982011,-7.2645144,15.906803,-38.22636,52.90159,1.6673185,11.456292,15.070521,7.7660947,-10.573735,41.944485,61.80894,-11.140701,7.9897475,-12.734287
148,-6.627971649169922,62.3906135559082,75.34271240234375,1.025472382003334,4.187200307227706,-89.61478432709724,8.465724,4.162199,19.489569,15.579997,-24.53236,-6.4980016,-28.887707,-7.4438567,-17.895414,19.943785,2.2709427,-3.991644,-9.96152,-0.1187461,3.0482953,-7.53981,15.878065,-38.22067,52.952896,1.7673972,11.508584,15.069331,7.7477,-10.556766,42.02606,61.89235,-11.239112,7.9966717,-12.776807
149,-6.516949653625488,62.9749641418457,75.29671478271484,1.400240472105529,4.180598639545254,-89.53632332907638,8.099026,3.5227363,19.428795,15.237835,-24.59424,-6.168984,-29.106539,-7.8490787,-17.686476,19.27619,2.7020905,-3.6586227,-9.942448,-0.49598408,3.1512074,-7.7812123,15.842035,-38.163536,52.96988,1.9238138,11.582184,15.061166,7.716368,-10.542767,42.06703,61.944855,-11.389034,8.001136,-12.700883
150,-6.391116142272949,63.55738067626953,75.27355194091797,1.8287302074640113,4.144822839920809,-89.50481137073577,7.7129984,2.8228002,19.318521,15.013236,-24.568972,-5.8063383,-29.28146,-8.278499,-17.410255,18.5646,3.0472045,-3.33751,-9.885555,-0.93497634,3.280334,-7.9886937,15.808165,-38.06882,52.952133,2.1243706,11.675356,15.046823,7.681371,-10.535585,42.084034,61.968945,-11.583095,8.002535,-12.549943
151,-6.258563041687012,64.1419906616211,75.26363372802734,2.290221744563926,4.101099638237347,-89.51207139089047,7.2924013,2.0962508,19.218496,14.893438,-24.473072,-5.4290414,-29.404694,-8.700957,-17.099827,17.7543,3.3228943,-2.9964223,-9.812174,-1.4040499,3.4024198,-8.171684,15.749788,-37.945103,52.95216,2.331515,11.761914,15.038882,7.63513,-10.533269,42.111275,61.99321,-11.792396,8.004579,-12.36824
152,-6.120840549468994,64.7235107421875,75.261962890625,2.765122537352117,4.069751605925942,-89.54875675629717,6.8328576,1.3719866,19.187796,14.843359,-24.312128,-5.055309,-29.476362,-9.093415,-16.790682,16.813385,3.5269933,-2.6068087,-9.706104,-1.8896785,3.5003314,-8.328047,15.712047,-37.866573,52.95065,2.4690661,11.822448,15.050605,7.584561,-10.5399885,42.150723,62.01067,-11.982413,8.009487,-12.195603
153,-5.985297679901123,65.29400634765625,75.267822265625,3.277919609711088,4.071121553748952,-89.61560680198285,6.2841864,0.62791234,19.24411,14.918724,-24.07485,-4.677612,-29.51161,-9.475373,-16.45245,15.708331,3.6593113,-2.1769795,-9.581916,-2.410274,3.5506115,-8.466591,15.672275,-37.80879,52.969543,2.5335214,11.849017,15.090416,7.513057,-10.556847,42.233562,62.029747,-12.1468115,8.023986,-12.000988
154,-5.850637435913086,65.86865997314453,75.2774887084961,3.8327105851949126,4.088359336830626,-89.71494225273068,5.6820736,-0.15013765,19.357422,15.093151,-23.752352,-4.285445,-29.50881,-9.873458,-16.08186,14.491836,3.6976311,-1.730783,-9.445442,-2.9650352,3.5695734,-8.592961,15.611035,-37.75313,53.02016,2.5514913,11.851883,15.1515465,7.4390173,-10.600149,42.348488,62.02917,-12.305782,8.046126,-11.775933
155,-5.728628158569336,66.43177032470703,75.28707122802734,4.379159563556221,4.08520741557404,-89.83960993544761,5.101175,-0.9039111,19.511505,15.31149,-23.41066,-3.8937125,-29.396307,-10.252072,-15.751795,13.147291,3.6781583,-1.2541764,-9.290009,-3.5083938,3.5972755,-8.677573,15.545595,-37.710384,53.077324,2.5538435,11.838126,15.219184,7.3800235,-10.663118,42.45753,62.014267,-12.4560995,8.0643,-11.596784
156,-5.605759620666504,66.97451782226562,75.30733489990234,4.86790595235541,4.024539341420587,-89.98142180691518,4.628412,-1.5818019,19.68631,15.482425,-23.09356,-3.5218654,-29.1183,-10.574426,-15.538022,11.684836,3.627632,-0.72816306,-9.133918,-3.9912963,3.6657054,-8.694621,15.479706,-37.670124,53.138794,2.5702968,11.812619,15.2779455,7.3467474,-10.73345,42.545387,62.005917,-12.596941,8.068474,-11.543378
157,-5.498231410980225,67.50292205810547,75.3214340209961,5.278839292868088,3.8761667123122994,-90.14653173691218,4.292435,-2.1545453,19.88329,15.617259,-22.823626,-3.1792989,-28.575632,-10.776493,-15.44021,9.946684,3.5704226,-0.12375378,-8.975546,-4.392964,3.7979846,-8.63007,15.406493,-37.633507,53.218918,2.597076,11.757625,15.34411,7.351507,-10.805165,42.61052,62.02681,-12.723143,8.04624,-11.708856
158,-5.388797760009766,68.02462005615234,75.33623504638672,5.650804468024298,3.662034186282941,-90.33204393582345,4.054577,-2.6693885,20.103762,15.732129,-22.562124,-2.8537812,-27.800297,-10.904286,-15.435233,7.9259987,3.5120294,0.53089875,-8.813933,-4.753225,3.9712224,-8.499638,15.3230505,-37.600834,53.319767,2.6266325,11.677035,15.419186,7.384551,-10.875744,42.660088,62.068226,-12.840735,8.007109,-12.028001
159,-5.276523590087891,68.53323364257812,75.35074615478516,6.01555269146666,3.426100243728846,-90.51957617853637,3.8887393,-3.181098,20.330341,15.756428,-22.267113,-2.5369515,-27.240614,-11.143096,-15.506141,6.507855,3.113055,1.1909074,-8.663659,-5.1039276,4.1457095,-8.332105,15.23224,-37.56767,53.43107,2.6750948,11.606813,15.466531,7.4286647,-10.947887,42.688545,62.099674,-12.968062,7.973777,-12.3430395
160,-5.174736022949219,69.01570892333984,75.36871337890625,6.395444158152729,3.2156495727327608,-90.69407491452833,3.7636244,-3.7317116,20.548346,15.627841,-21.900942,-2.2230513,-27.28919,-11.642043,-15.641421,6.4534755,2.1049187,1.8292642,-8.530551,-5.4670787,4.287541,-8.148694,15.139033,-37.523354,53.527027,2.7696977,11.584144,15.449131,7.427248,-11.027508,42.72762,62.11237,-13.069259,7.9673595,-12.495344
161,-5.081211566925049,69.49748992919922,75.37781524658203,6.833718807532206,3.0232819223677905,-90.83003005302075,3.7228303,-4.3905973,20.73554,15.257858,-21.423376,-1.9096832,-27.32316,-12.27963,-16.007452,6.4078994,1.1427314,2.5564232,-8.447462,-5.886813,4.3778586,-7.926055,15.047748,-37.44809,53.592464,2.9503076,11.6334095,15.330453,7.4418793,-11.119573,42.720867,62.04652,-13.232932,8.014465,-12.396618
162,-5.006135940551758,69.98748779296875,75.38634490966797,7.288425702665173,2.8390998620506847,-90.94850326769524,3.7414887,-5.0878787,20.909237,14.740114,-20.882624,-1.6075685,-27.352432,-12.987288,-16.56728,6.412528,0.17550944,3.3660681,-8.389054,-6.3192663,4.441471,-7.661585,14.961354,-37.356167,53.628807,3.1912289,11.729696,15.138681,7.4250317,-11.222919,42.719875,61.958084,-13.378629,8.0941725,-12.14632
163,-4.917445659637451,70.46590423583984,75.40572357177734,7.675459472416757,2.6900846251689625,-91.09508679548114,3.733841,-5.699207,21.107166,14.208727,-20.33391,-1.3185109,-27.361725,-13.645331,-17.255,6.428319,-0.5855017,4.06379,-8.312974,-6.686774,4.495692,-7.381596,14.8894415,-37.26257,53.64257,3.4263172,11.837036,14.931566,7.3510695,-11.324519,42.73922,61.88308,-13.479002,8.1623745,-11.867396
164,-4.818724632263184,70.94305419921875,75.44033813476562,7.91889171326942,2.606835916104803,-91.31444006943805,3.6044943,-6.1063967,21.370998,13.812753,-19.841892,-1.0465578,-27.352652,-14.142128,-17.990358,6.4387774,-0.9467299,4.4481363,-8.198478,-6.9017253,4.5402145,-7.1157293,14.804016,-37.15794,53.672348,3.596287,11.916678,14.768538,7.3451567,-11.470322,42.681988,61.7165,-13.665933,8.182804,-11.675741
165,-4.716388702392578,71.42570495605469,75.5069580078125,7.974895943736181,2.620770437213696,-91.629154787377,3.2865627,-6.242243,21.726597,13.624445,-19.437292,-0.78863966,-27.354946,-14.43444,-18.843065,6.4399443,-0.7343646,4.4039254,-7.9667253,-6.91936,4.6117406,-6.913654,14.7243,-37.09813,53.68962,3.6617973,11.968394,14.666733,7.0413427,-11.635616,42.872257,61.71648,-13.463063,8.124001,-11.607824
166,-4.623066425323486,71.92618560791016,75.61521911621094,7.879738663899507,2.7198893511362545,-92.01959244942586,2.8164341,-6.1568203,22.15698,13.591557,-19.099937,-0.54706275,-27.391823,-14.573205,-19.820135,6.4876175,-0.12911002,4.035659,-7.6955857,-6.7827797,4.6522675,-6.707435,14.652435,-37.01913,53.693127,3.6724038,12.008831,14.591616,6.7946553,-11.818672,42.980278,61.632195,-13.358263,8.0229025,-11.595881
167,-4.54390287399292,72.42822265625,75.73544311523438,7.7144169897865655,2.8531840366674652,-92.45279169749665,2.2927568,-5.961773,22.62603,13.625626,-18.794697,-0.324621,-27.407495,-14.625509,-20.740997,6.575865,0.5723179,3.48125,-7.388508,-6.573824,4.687977,-6.500201,14.585621,-36.959694,53.69507,3.6502194,12.031805,14.534913,6.4552712,-12.017001,43.15395,61.605606,-13.147243,7.8972836,-11.622329
168,-4.465106010437012,72.91666412353516,75.84542846679688,7.5571484412156815,2.9617934185980785,-92.89325995888127,1.8337826,-5.7748904,23.09481,13.606134,-18.467863,-0.12242932,-27.332678,-14.655203,-21.423908,6.682256,1.0912324,2.9038339,-7.0997586,-6.37867,4.719651,-6.26013,14.523519,-36.91389,53.715675,3.6231842,12.030375,14.485099,6.135547,-12.220761,43.298805,61.5988,-12.984127,7.773977,-11.668485
169,-4.385972023010254,73.383056640625,75.94954681396484,7.422590354942615,3.029740199823149,-93.34299461104315,1.4732033,-5.6187644,23.565342,13.503263,-18.10502,0.05449504,-27.449507,-14.798459,-21.73437,7.474983,0.9984353,2.3365088,-6.8270555,-6.214613,4.758199,-5.9828196,14.46565,-36.89155,53.761795,3.581748,11.989797,14.448233,5.8030515,-12.42244,43.44735,61.662376,-12.837111,7.6380296,-11.732749
170,-4.313398838043213,73.84449768066406,76.05036926269531,7.286022182454866,3.075207672655946,-93.80686447980126,1.1725433,-5.459235,24.043333,13.349937,-17.718822,0.2117766,-28.202675,-15.218378,-21.651953,9.886805,-0.043638803,1.7113638,-6.563905,-6.0571647,4.801765,-5.679367,14.412815,-36.886337,53.827736,3.5191982,11.918258,14.426629,5.4555135,-12.619361,43.59432,61.778786,-12.7025,7.48355,-11.824907
171,-4.244182109832764,74.29817199707031,76.1569595336914,7.157300066570826,3.0979519949500975,-94.25807032737224,0.922677,-5.3126793,24.50316,13.151066,-17.315645,0.36051893,-28.906588,-15.64703,-21.392776,12.368791,-1.1449032,1.0451642,-6.323185,-5.914031,4.8492384,-5.3656015,14.36534,-36.899117,53.91176,3.4585145,11.843212,14.40571,5.1040497,-12.808734,43.71918,61.907043,-12.577652,7.3459687,-11.943847
172,-4.177500247955322,74.73851776123047,76.26518249511719,7.040448562237297,3.1017120981978437,-94.6732098615706,0.703952,-5.1847224,24.922525,12.926156,-16.9085,0.5105747,-29.575974,-16.082672,-20.99746,14.916287,-2.229021,0.35850242,-6.1125317,-5.787527,4.8982263,-5.057784,14.322564,-36.931213,54.01209,3.4247005,11.792664,14.371713,4.747875,-12.989783,43.810368,62.0181,-12.447494,7.2601953,-12.089008
173,-4.11948823928833,75.1755599975586,76.36463928222656,6.924314619425892,3.08895628687287,-95.05385294521525,0.51451796,-5.062953,25.299032,12.671423,-16.498127,0.65998757,-30.24202,-16.512209,-20.434658,17.587328,-3.2895951,-0.38694882,-5.936663,-5.6675878,4.945653,-4.758636,14.284199,-36.988632,54.136444,3.4303799,11.776505,14.317714,4.395481,-13.161778,43.857174,62.10503,-12.328155,7.2381516,-12.276292
174,-4.06119441986084,75.6029052734375,76.45816802978516,6.8118329385399905,3.054023515119016,-95.40743726151138,0.36622855,-4.9502816,25.640984,12.379962,-16.078611,0.8047662,-30.891144,-16.930431,-19.693699,20.36592,-4.361191,-1.1830475,-5.7904925,-5.5575933,4.9975553,-4.4651003,14.250538,-37.074326,54.286613,3.4559946,11.779143,14.252592,4.032711,-13.324458,43.87767,62.19395,-12.206633,7.2597404,-12.501061
175,-4.006650924682617,76.02086639404297,76.54371643066406,6.71752655951693,2.9962989275508582,-95.72612503506632,0.24906604,-4.8606687,25.94915,12.076133,-15.657899,0.94985664,-31.468315,-17.333536,-18.853718,23.123665,-5.415527,-1.9420449,-5.670114,-5.4705005,5.0513854,-4.1671977,14.220328,-37.165764,54.445206,3.4921327,11.789552,14.185267,3.6934917,-13.4778385,43.839787,62.25376,-12.11193,7.3141375,-12.731807
176,-3.961416244506836,76.44072723388672,76.62088012695312,6.6536582645820985,2.9180550966856464,-96.00409785420618,0.1504424,-4.8042536,26.226032,11.783277,-15.241245,1.0997229,-31.926836,-17.720074,-17.995049,25.751047,-6.435138,-2.5758312,-5.565949,-5.4150486,5.105392,-3.8661847,14.191768,-37.25197,54.601257,3.5176678,11.796547,14.12544,3.3896177,-13.623103,43.732666,62.26956,-12.043955,7.3899646,-12.937006
177,-3.915517807006836,76.84163665771484,76.69049072265625,6.621244927484493,2.8168797248036324,-96.24146181625723,0.07522171,-4.781001,26.474377,11.501782,-14.836326,1.2630808,-32.277126,-18.074448,-17.09053,28.283436,-7.4616337,-3.0942047,-5.4810567,-5.390235,5.1571045,-3.5559385,14.163598,-37.334644,54.756287,3.5271037,11.791785,14.072768,3.139458,-13.760241,43.515377,62.22396,-12.034045,7.506988,-13.109855
178,-3.8781256675720215,77.23605346679688,76.74986267089844,6.608299535403265,2.6987067669320566,-96.44588246989565,0.01440187,-4.7737684,26.697477,11.238553,-14.443432,1.4334781,-32.549465,-18.384167,-16.11795,30.778767,-8.496322,-3.5262275,-5.4094415,-5.3845706,5.2059116,-3.241631,14.134763,-37.42201,54.916405,3.5308065,11.782919,14.023557,2.9174156,-13.889762,43.21826,62.139904,-12.052511,7.6633873,-13.266517
179,-3.844576358795166,77.62290954589844,76.79945373535156,6.604411284599782,2.5789882725328743,-96.62338277905462,-0.056656983,-4.7700863,26.897066,11.003622,-14.059523,1.5932342,-32.73194,-18.661486,-15.166221,33.18259,-9.468715,-3.8159735,-5.33976,-5.3901033,5.244219,-2.9324691,14.103998,-37.50111,55.077713,3.5342095,11.78288,13.982318,2.7289147,-14.014681,42.882904,62.019794,-12.086796,7.8176265,-13.409067
180,-3.8134634494781494,77.9955062866211,76.84484100341797,6.599559582608137,2.4730936529374725,-96.77994623062612,-0.1620097,-4.757508,27.074713,10.807744,-13.6814995,1.7246212,-32.81125,-18.928164,-14.325286,35.440407,-10.31602,-3.9107199,-5.2554255,-5.3974667,5.2704735,-2.640707,14.069838,-37.561615,55.23294,3.544392,11.804799,13.9531765,2.5364614,-14.139318,42.593937,61.893913,-12.066135,7.926758,-13.539684
181,-3.7840678691864014,78.37227630615234,76.88014221191406,6.59131114698951,2.3843206161468364,-96.90761307414662,-0.3080758,-4.737177,27.220984,10.650067,-13.300469,1.8193004,-32.763172,-19.196157,-13.64312,37.52716,-11.006884,-3.7177064,-5.1640787,-5.4050393,5.279757,-2.3720043,14.030911,-37.600136,55.384487,3.5637965,11.863264,13.933577,2.3536558,-14.268184,42.34877,61.741756,-12.003881,7.9871597,-13.660773
182,-3.755685806274414,78.74211883544922,76.92011260986328,6.582593162913739,2.3069439623976624,-97.00827198721159,-0.48666012,-4.7094164,27.33958,10.531917,-12.923115,1.8873272,-32.607895,-19.454445,-13.071509,39.499157,-11.597825,-3.2903674,-5.0674696,-5.413231,5.275731,-2.1186113,13.986238,-37.62,55.53208,3.5921538,11.94754,13.922275,2.1748097,-14.402785,42.131638,61.565414,-11.900091,8.018727,-13.770035
183,-3.7338039875030518,79.11751556396484,76.95655822753906,6.572186058486098,2.2415685432686416,-97.10144052844284,-0.6921849,-4.667597,27.450733,10.451561,-12.563599,1.939217,-32.39568,-19.695469,-12.55322,41.413662,-12.150965,-2.7982516,-4.956548,-5.4198465,5.2592454,-1.8731818,13.936914,-37.61951,55.675247,3.6184032,12.03218,13.925969,2.0100904,-14.542249,41.93463,61.37719,-11.769546,8.015845,-13.863775
184,-3.716881275177002,79.48865509033203,76.98646545410156,6.558885604104733,2.188021796997046,-97.20603953633339,-0.9210099,-4.6049447,27.574198,10.412033,-12.238119,1.985764,-32.174995,-19.910013,-12.028045,43.319897,-12.720058,-2.411626,-4.8201313,-5.422411,5.2348413,-1.6247946,13.884891,-37.59355,55.806576,3.6380906,12.092017,13.950812,1.8487316,-14.682899,41.768593,61.20367,-11.600876,7.972416,-13.938187
185,-3.70451021194458,79.85457611083984,77.01567077636719,6.545819832090342,2.1487791352637235,-97.32295074276915,-1.1697474,-4.5252995,27.71362,10.403201,-11.943812,2.0309403,-31.954622,-20.104866,-11.486858,45.233463,-13.310845,-2.1574829,-4.658217,-5.4261837,5.199911,-1.3711016,13.832395,-37.538784,55.925518,3.6572902,12.121604,14.001855,1.6914792,-14.822314,41.62711,61.04577,-11.364473,7.857118,-13.980451
186,-3.697983503341675,80.21421813964844,77.03792572021484,6.531957842238255,2.122750381034831,-97.44325925178855,-1.4438078,-4.4304266,27.85861,10.432416,-11.677414,2.0691006,-31.70768,-20.281029,-10.960117,47.125683,-13.895045,-1.9513533,-4.476121,-5.4313426,5.153781,-1.1133177,13.779867,-37.455513,56.030476,3.6796477,12.134286,14.0744,1.5404216,-14.960038,41.508274,60.89482,-11.074859,7.6829123,-13.996203
187,-3.6973483562469482,80.5718765258789,77.06102752685547,6.512493539901472,2.104086714727348,-97.57044314898582,-1.7377276,-4.313628,28.006657,10.501142,-11.439213,2.097135,-31.427946,-20.425983,-10.442226,48.971935,-14.469202,-1.7969714,-4.273953,-5.43106,5.1025586,-0.8561702,13.727888,-37.35364,56.12372,3.6818614,12.132452,14.160204,1.3887641,-15.093969,41.427593,60.761795,-10.791739,7.5106764,-14.010106
188,-3.7017855644226074,80.92159271240234,77.07923126220703,6.482065840856092,2.086928741199542,-97.7080031275076,-2.0473733,-4.1685557,28.154959,10.613148,-11.23116,2.1118395,-31.110168,-20.52624,-9.927351,50.74927,-15.030368,-1.6995945,-4.050872,-5.417747,5.052417,-0.59551954,13.675981,-37.233997,56.20092,3.6528542,12.119041,14.2510195,1.2267162,-15.220569,41.40271,60.662083,-10.571681,7.4007144,-14.0481415
189,-3.710167407989502,81.2702407836914,77.09606170654297,6.43527706365722,2.0726550750761414,-97.85738982289433,-2.3787224,-3.9861345,28.300722,10.776763,-11.060874,2.1070998,-30.76088,-20.581558,-9.409702,52.47277,-15.58244,-1.6945077,-3.8037975,-5.386921,5.0011106,-0.33383563,13.624051,-37.093876,56.26468,3.5704334,12.086302,14.35713,1.0624005,-15.337826,41.440178,60.595016,-10.441971,7.3764877,-14.133161
190,-3.718337059020996,81.62228393554688,77.11141967773438,6.375965139023709,2.063172693011756,-98.01642720946744,-2.7300727,-3.7729886,28.445072,10.984605,-10.923528,2.086792,-30.380098,-20.59962,-8.891989,54.147934,-16.123632,-1.7698401,-3.5329714,-5.3434496,4.9477286,-0.06784635,13.571702,-36.929176,56.31183,3.4542947,12.035626,14.478525,0.88485,-15.444143,41.539036,60.56454,-10.355768,7.4029746,-14.246798
191,-3.735079526901245,81.96273803710938,77.12212371826172,6.313506158869385,2.0534090430796015,-98.1827476249776,-3.090273,-3.5417707,28.59161,11.226432,-10.806119,2.0624437,-29.954824,-20.587248,-8.378763,55.73914,-16.644297,-1.8605462,-3.2524378,-5.2968006,4.89207,0.19859163,13.520082,-36.754913,56.350197,3.325965,11.982482,14.592142,0.70161927,-15.538232,41.668007,60.561802,-10.316929,7.453978,-14.354279
192,-3.752746105194092,82.30207824707031,77.13128662109375,6.256889940177505,2.0385018492701863,-98.35448136919662,-3.444562,-3.3071136,28.744398,11.484815,-10.692398,2.0454347,-29.473463,-20.55461,-7.8741813,57.21346,-17.13602,-1.9015536,-2.9724033,-5.256665,4.8354745,0.4672416,13.470226,-36.58216,56.381317,3.2164338,11.942824,14.674663,0.5130807,-15.619603,41.79955,60.58355,-10.320913,7.502765,-14.4203415
193,-3.7729296684265137,82.63613891601562,77.13602447509766,6.208030357164776,2.0140291186181174,-98.54105310967584,-3.7843976,-3.0672753,28.913893,11.760968,-10.584357,2.0354283,-28.929241,-20.4979,-7.365739,58.56792,-17.593334,-1.8675742,-2.6831384,-5.2239223,4.783245,0.74031746,13.42382,-36.41243,56.40073,3.1343536,11.923021,14.714552,0.31265068,-15.684764,41.93406,60.641914,-10.372625,7.550458,-14.429731
194,-3.8019511699676514,82.97393035888672,77.1453857421875,6.162371532247586,1.983585056850157,-98.7400344373061,-4.1167026,-2.8180223,29.094542,12.057137,-10.486161,2.0277426,-28.332355,-20.418894,-6.8535867,59.823814,-18.023401,-1.7983625,-2.3643267,-5.2019925,4.7337766,1.0121583,13.393945,-36.2658,56.40524,3.054429,11.915566,14.726704,0.11016044,-15.719322,42.055134,60.74,-10.485769,7.607011,-14.403909
195,-3.8335533142089844,83.30905151367188,77.1473388671875,6.118957017289921,1.9545675095609893,-98.93207763351764,-4.46014,-2.56059,29.266632,12.37964,-10.395201,2.0266507,-27.689383,-20.334776,-6.364522,60.972004,-18.441204,-1.726493,-2.0676386,-5.1809397,4.678817,1.2881782,13.363147,-36.103874,56.401558,2.9815457,11.91124,14.725062,-0.107094996,-15.748615,42.207233,60.85524,-10.6145525,7.663328,-14.360262
196,-3.869175434112549,83.64131164550781,77.1499252319336,6.076829858125444,1.9343657079351786,-99.0975891653748,-4.8302546,-2.2990234,29.4105,12.727323,-10.304793,2.0361965,-27.00867,-20.262873,-5.9242663,62.005825,-18.862192,-1.6842251,-1.8062618,-5.162039,4.610906,1.558061,13.330073,-35.93984,56.40111,2.9035969,11.903174,14.72609,-0.32912242,-15.773646,42.376915,60.966175,-10.739222,7.7081285,-14.317132
197,-3.9123330116271973,83.97722625732422,77.15240478515625,6.034693908858106,1.9286871573603281,-99.23377760380603,-5.2362633,-2.0320864,29.518717,13.100803,-10.215325,2.058088,-26.29713,-20.201035,-5.5320196,62.928154,-19.299223,-1.6904063,-1.5593641,-5.1473985,4.530047,1.8058189,13.302801,-35.804867,56.408,2.8007317,11.890492,14.735856,-0.54881096,-15.788771,42.535233,61.07699,-10.866431,7.731128,-14.277174
198,-3.9508469104766846,84.30811309814453,77.15380859375,5.9931741185772065,1.9323999561536807,-99.35015230941774,-5.6695685,-1.7576898,29.60223,13.503921,-10.129643,2.089802,-25.550385,-20.14427,-5.1752973,63.74251,-19.741175,-1.7258478,-1.3319731,-5.135196,4.438813,2.0454779,13.278784,-35.676517,56.413467,2.6881695,11.876674,14.744745,-0.7714089,-15.794892,42.699844,61.193718,-11.004308,7.740923,-14.231653
199,-4.003450870513916,84.63629150390625,77.15147399902344,5.953637422322215,1.9364023324192254,-99.44569369028116,-6.112051,-1.4821719,29.667915,13.920634,-10.042651,2.1291425,-24.757126,-20.099222,-4.8656282,64.43822,-20.16475,-1.7665011,-1.1213601,-5.130625,4.341233,2.2778993,13.260815,-35.564415,56.420517,2.5754642,11.86285,14.749253,-0.994382,-15.791292,42.866196,61.30556,-11.145881,7.751647,-14.180901
200,-4.054539203643799,84.97813415527344,77.14723205566406,5.917921470786759,1.9315874065620455,-99.51956320777116,-6.5453024,-1.211937,29.72295,14.335058,-9.948734,2.1740057,-23.905993,-20.072252,-4.6145887,65.00444,-20.546692,-1.7881441,-0.9392022,-5.1372046,4.238245,2.5090518,13.249472,-35.46476,56.43238,2.4723268,11.849827,14.744938,-1.2092847,-15.778061,43.036102,61.395664,-11.293367,7.7780566,-14.125826
201,-4.1136088371276855,85.30006408691406,77.14212036132812,5.887104646676792,1.9132421534709394,-99.56867406353146,-6.9634485,-0.94763887,29.77087,14.748809,-9.848749,2.230499,-22.987814,-20.067265,-4.4281297,65.4469,-20.876688,-1.789312,-0.7920482,-5.158764,4.1307397,2.7514179,13.246614,-35.367596,56.439354,2.3924627,11.840837,14.726827,-1.4299982,-15.751276,43.235016,61.476227,-11.455159,7.828199,-14.0510645
202,-4.17880916595459,85.62635803222656,77.13018035888672,5.860425321878761,1.8869429857193816,-99.59436155158369,-7.376761,-0.6869605,29.807142,15.168696,-9.742641,2.2973673,-22.011454,-20.080462,-4.2985826,65.769325,-21.16842,-1.7816802,-0.66189754,-5.1926703,4.0196877,2.9929938,13.25413,-35.291607,56.444126,2.3227134,11.834826,14.698998,-1.635368,-15.718792,43.429462,61.531803,-11.642448,7.8926296,-13.95989
203,-4.247906684875488,85.95967102050781,77.11701965332031,5.8359210911785855,1.8589513034229177,-99.60221773049182,-7.7930346,-0.42821333,29.828192,15.591491,-9.635242,2.360553,-20.99382,-20.104628,-4.2189918,65.95842,-21.435064,-1.7617319,-0.54333466,-5.23229,3.9063127,3.219155,13.267976,-35.240726,56.458725,2.2508256,11.825723,14.669578,-1.8224785,-15.686533,43.59695,61.551933,-11.810908,7.9600754,-13.883329
204,-4.321697235107422,86.28514862060547,77.10131072998047,5.811882381203931,1.835543776836471,-99.59840873354659,-8.210983,-0.17545858,29.830034,15.993401,-9.519821,2.406195,-19.95016,-20.12968,-4.182823,65.99904,-21.689219,-1.7257029,-0.4442138,-5.2751665,3.7873893,3.4463587,13.291324,-35.188057,56.47077,2.1867557,11.80855,14.644816,-2.0014954,-15.642178,43.732315,61.545498,-11.913316,8.019315,-13.855513
205,-4.4023356437683105,86.60781860351562,77.07976531982422,5.792259292637363,1.8137793113486407,-99.57828346336423,-8.626653,0.06334004,29.806356,16.367361,-9.396978,2.4247222,-18.870995,-20.159382,-4.194203,65.89018,-21.935629,-1.6586896,-0.34694698,-5.322536,3.6695223,3.6461508,13.316649,-35.170887,56.504784,2.1131356,11.776423,14.630753,-2.1531067,-15.599775,43.803963,61.488174,-11.937068,8.069769,-13.895398
206,-4.482607364654541,86.93252563476562,77.06000518798828,5.776815912127676,1.7918147923946155,-99.5409988862546,-9.03914,0.2903304,29.761059,16.719826,-9.266083,2.425101,-17.753239,-20.19666,-4.2543883,65.63965,-22.166937,-1.5669266,-0.26229146,-5.3786697,3.5493312,3.8346477,13.3501425,-35.173977,56.547783,2.0393674,11.734248,14.62165,-2.2893155,-15.549077,43.83733,61.3984,-11.903878,8.116508,-13.983609
207,-4.563815593719482,87.2684097290039,77.03460693359375,5.757383814882625,1.7775809152853215,-99.49762616791926,-9.463537,0.52289385,29.70599,17.073097,-9.131961,2.4216554,-16.622509,-20.226082,-4.353753,65.24566,-22.377111,-1.4795407,-0.1804336,-5.430611,3.4217215,4.012582,13.386886,-35.185467,56.595474,1.9716536,11.692753,14.612743,-2.4047637,-15.496224,43.824757,61.275043,-11.844697,8.157357,-14.0869875
208,-4.653153419494629,87.6014633178711,77.00958251953125,5.726089723154391,1.7790076295801975,-99.45919323615253,-9.913954,0.7779028,29.652695,17.447475,-8.998214,2.429089,-15.50508,-20.233416,-4.481091,64.70712,-22.560318,-1.4248558,-0.08910664,-5.4806767,3.280398,4.1923156,13.4520645,-35.2007,56.62308,1.908724,11.6648,14.597172,-2.5144148,-15.405305,43.753506,61.15801,-11.796197,8.1874895,-14.176317
209,-4.739031791687012,87.93655395507812,76.98284912109375,5.683991489682462,1.8030486136327668,-99.42550098228489,-10.397965,1.053675,29.604204,17.844152,-8.86168,2.455315,-14.400185,-20.227755,-4.6513023,64.020096,-22.736572,-1.4109739,0.007818541,-5.515582,3.112352,4.3620367,13.512643,-35.217476,56.658592,1.8552186,11.649518,14.57382,-2.5817227,-15.320573,43.606277,60.992424,-11.7905445,8.210179,-14.225965
210,-4.835994720458984,88.26799011230469,76.95817565917969,5.633886635730004,1.8440059115029495,-99.39188633145001,-10.907134,1.3439937,29.553848,18.25516,-8.722917,2.4915044,-13.296812,-20.210255,-4.8642545,63.187294,-22.902367,-1.4212973,0.110025294,-5.5384936,2.9258966,4.514766,13.568886,-35.245678,56.70641,1.8058274,11.641642,14.54662,-2.6187115,-15.241779,43.396915,60.78491,-11.793776,8.22617,-14.257282
211,-4.932041645050049,88.6027603149414,76.93226623535156,5.566986436725138,1.8908671588827035,-99.36231455630946,-11.43275,1.6600046,29.497307,18.683617,-8.588209,2.5279357,-12.206103,-20.152208,-5.08621,62.2181,-23.01727,-1.4464767,0.20819192,-5.5310674,2.7413495,4.658406,13.603809,-35.246227,56.759212,1.784743,11.64027,14.519988,-2.630299,-15.190213,43.166576,60.534523,-11.7609825,8.235542,-14.300965
212,-5.02940034866333,88.93770599365234,76.90480041503906,5.476068227758976,1.9325116203301813,-99.34122743998711,-11.964286,2.0111392,29.43052,19.130028,-8.463041,2.5548868,-11.138565,-20.025116,-5.281985,61.120007,-23.040115,-1.477093,0.33426988,-5.5027275,2.5847287,4.7787375,13.65106,-35.24791,56.80341,1.7763436,11.648265,14.498102,-2.6453693,-15.120911,42.909904,60.300083,-11.656469,8.232875,-14.391452
213,-5.127908229827881,89.28128814697266,76.87872314453125,5.342360979018545,1.9656929810425428,-99.33066865467148,-12.509476,2.4234731,29.348427,19.620367,-8.363673,2.5662344,-10.09743,-19.819841,-5.470212,59.90324,-22.917072,-1.5837967,0.45275715,-5.415973,2.4570565,4.8867006,13.67937,-35.199776,56.84506,1.818563,11.669906,14.477145,-2.6670246,-15.074999,42.68583,60.05073,-11.420777,8.221112,-14.553066
214,-5.226264953613281,89.62928771972656,76.85095977783203,5.174691591656783,1.9963572777364034,-99.32813564353393,-13.070245,2.8834314,29.2529,20.142748,-8.280811,2.5692098,-9.076647,-19.54969,-5.6593623,58.56223,-22.688044,-1.7455962,0.58302766,-5.2892814,2.3481276,4.9794755,13.702268,-35.13156,56.884388,1.8979944,11.704162,14.456549,-2.6833303,-15.033013,42.447495,59.78945,-11.10013,8.198408,-14.763002
215,-5.328324794769287,89.99513244628906,76.82176971435547,5.0046434649794875,2.0276365842059043,-99.33077952391156,-13.632186,3.345311,29.150492,20.650896,-8.186425,2.5740857,-8.07467,-19.220547,-5.7978134,57.08297,-22.447483,-1.8167194,0.7127579,-5.1528783,2.2537255,5.064177,13.718898,-35.03744,56.913708,1.9738266,11.736624,14.444531,-2.6964133,-14.996819,42.207253,59.528114,-10.753766,8.165638,-14.981026
216,-5.43916654586792,90.36193084716797,76.78854370117188,4.865306532252726,2.0626049207649984,-99.3356623100511,-14.179483,3.7621205,29.049818,21.099077,-8.052964,2.5907059,-7.086048,-18.840199,-5.833672,55.441303,-22.287197,-1.6532518,0.8417247,-5.0432534,2.1727352,5.1464715,13.73529,-34.917118,56.921906,2.0105295,11.753635,14.447729,-2.7103713,-14.955358,41.955914,59.288704,-10.450122,8.122529,-15.165795
217,-5.549808502197266,90.7312240600586,76.7530288696289,4.770030929042268,2.103556398349766,-99.34548138009244,-14.711407,4.1187477,28.95236,21.48344,-7.876944,2.6257465,-6.1006117,-18.38902,-5.704433,53.593964,-22.222889,-1.1664433,0.95626307,-4.968092,2.0983758,5.2347107,13.745901,-34.757477,56.904827,1.9786543,11.748439,14.475022,-2.7221053,-14.92107,41.710518,59.065765,-10.178655,8.060055,-15.319229
218,-5.660017967224121,91.10514831542969,76.71400451660156,4.701380913473585,2.1481075339400335,-99.36055253801848,-15.234381,4.439291,28.855816,21.826262,-7.672858,2.6728222,-5.1178718,-17.879314,-5.452154,51.557804,-22.205786,-0.45529512,1.0687675,-4.914901,2.0381837,5.3203,13.755529,-34.562824,56.866756,1.9100056,11.72971,14.517939,-2.7310522,-14.882689,41.447468,58.856148,-9.926804,7.9799075,-15.456944
219,-5.773775577545166,91.48983001708984,76.66667938232422,4.644761850195898,2.193101199329701,-99.37393253124704,-15.743227,4.7360196,28.762766,22.117199,-7.436129,2.7211761,-4.1516547,-17.364902,-5.18238,49.40168,-22.229061,0.34332344,1.1720695,-4.8719406,1.995858,5.38666,13.767537,-34.359344,56.82549,1.8180537,11.704306,14.56617,-2.7566135,-14.832325,41.198647,58.676186,-9.702728,7.9057703,-15.566999
220,-5.880007266998291,91.88050842285156,76.61856842041016,4.585516485330367,2.235650263629474,-99.37886132385921,-16.23311,5.022051,28.675117,22.346535,-7.16293,2.7595143,-3.2185173,-16.895346,-5.0011344,47.194466,-22.282969,1.1008077,1.2592336,-4.8213797,1.9713289,5.441323,13.778315,-34.15689,56.782494,1.739713,11.679944,14.610211,-2.7964764,-14.783805,40.99625,58.515217,-9.515361,7.862864,-15.637253
221,-5.997121810913086,92.27616119384766,76.57312774658203,4.531704478735379,2.269507678170142,-99.38014374345445,-16.68827,5.2917547,28.607439,22.506723,-6.8519654,2.7771418,-2.306527,-16.479551,-4.9201016,44.877724,-22.355206,1.8213328,1.336105,-4.7677593,1.9685189,5.4603186,13.785415,-33.98357,56.758648,1.645993,11.658429,14.651561,-2.8341353,-14.753325,40.842102,58.35328,-9.367241,7.8626437,-15.64306
222,-6.118372917175293,92.6805648803711,76.5289306640625,4.488012110875863,2.297387803135738,-99.37927302707784,-17.113773,5.540658,28.554668,22.601868,-6.5038543,2.781506,-1.4083472,-16.089828,-4.892511,42.430023,-22.446852,2.5664895,1.3986102,-4.7321258,1.9985982,5.4729986,13.804422,-33.76858,56.715816,1.5830626,11.637011,14.683695,-2.9123945,-14.68925,40.704014,58.241367,-9.272673,7.886533,-15.594286
223,-6.2471184730529785,93.0963134765625,76.4910659790039,4.4316678492577095,2.3322153887186152,-99.3636721641962,-17.546286,5.791341,28.486395,22.660065,-6.1277003,2.7885032,-0.5529018,-15.704685,-4.940761,39.980488,-22.568678,3.29736,1.442649,-4.6745615,2.0351684,5.456229,13.82312,-33.585808,56.686085,1.4941862,11.611394,14.71839,-2.9948125,-14.633293,40.60857,58.140488,-9.206048,7.9270477,-15.542811
224,-6.365414142608643,93.52798461914062,76.45421600341797,4.3410864858822675,2.3858001890241427,-99.32133374730428,-18.019976,6.0644217,28.3733,22.705244,-5.7300253,2.8140213,0.23193365,-15.303599,-5.0859165,37.65677,-22.729666,3.9760787,1.4460422,-4.579853,2.0734951,5.408202,13.851602,-33.42184,56.667416,1.3887271,11.577859,14.748956,-3.1041384,-14.557624,40.55189,58.076153,-9.186131,7.9697914,-15.533373
225,-6.48824405670166,93.96437072753906,76.4195556640625,4.216330948178173,2.4643679055047603,-99.25229408445125,-18.548687,6.3652263,28.20992,22.752504,-5.3111653,2.8685875,0.9503543,-14.886554,-5.340237,35.453228,-22.94981,4.650129,1.4184226,-4.442323,2.1098926,5.3101273,13.883913,-33.300117,56.676067,1.237097,11.527498,14.776393,-3.2360425,-14.479601,40.541954,58.041702,-9.220214,8.017558,-15.584851
226,-6.621604919433594,94.41690063476562,76.38673400878906,4.067798082522916,2.5610267156302786,-99.16235178458722,-19.112564,6.6823797,28.010818,22.785034,-4.867086,2.940882,1.6203786,-14.454825,-5.6960106,33.296932,-23.204739,5.3304677,1.3820639,-4.2638345,2.151671,5.1805515,13.902545,-33.20532,56.69802,1.078951,11.464821,14.802433,-3.3506467,-14.436881,40.54979,57.98766,-9.3105755,8.076933,-15.665472
227,-6.7450432777404785,94.89164733886719,76.35111236572266,3.8912133708765677,2.668573942461002,-99.048171432092,-19.695107,7.0088573,27.77635,22.77931,-4.399039,3.0142267,2.2301762,-13.993615,-6.1387553,31.224543,-23.445818,5.919773,1.2906525,-4.0634947,2.2032862,5.0336957,13.942089,-33.10548,56.716568,0.92778605,11.406347,14.824351,-3.5185723,-14.349133,40.609104,57.99251,-9.413442,8.136656,-15.759139
228,-6.873940467834473,95.3714599609375,76.31234741210938,3.679384368394941,2.7799269906138235,-98.90573904999245,-20.28061,7.340335,27.50517,22.711866,-3.907733,3.0718243,2.7616596,-13.489196,-6.648298,29.285707,-23.634018,6.3141546,1.1847832,-3.8250535,2.27447,4.84783,13.9784155,-33.04379,56.751118,0.8170585,11.367099,14.8522625,-3.6706707,-14.275651,40.651577,57.96806,-9.504644,8.191215,-15.8342495
229,-7.0100321769714355,95.8656234741211,76.28626251220703,3.419504082112636,2.8953048660597513,-98.7274439455669,-20.887108,7.6957974,27.177694,22.609777,-3.3690748,3.1209571,3.197798,-12.932551,-7.243853,27.516298,-23.784672,6.444489,1.0541632,-3.5275228,2.373462,4.5965166,13.997857,-33.030365,56.82514,0.74765104,11.352951,14.883246,-3.7964058,-14.2435665,40.67809,57.877632,-9.59306,8.250102,-15.881325
230,-7.137898921966553,96.3716049194336,76.2640380859375,3.119296294049347,3.018366223450739,-98.51764154304853,-21.514704,8.071632,26.798546,22.474297,-2.7907956,3.165639,3.545972,-12.333097,-7.9217715,25.893486,-23.921352,6.3758116,0.8794776,-3.1917694,2.495267,4.290462,14.029777,-33.05177,56.923332,0.68680847,11.355461,14.91244,-3.948743,-14.197124,40.722645,57.79768,-9.686571,8.311061,-15.920123
231,-7.277349948883057,96.88904571533203,76.24909210205078,2.8010987900462534,3.1474824166153366,-98.29038591211277,-22.127024,8.435984,26.40161,22.258673,-2.2289844,3.185189,3.8287687,-11.706807,-8.627792,24.368225,-24.023172,6.200019,0.68965095,-2.8489912,2.6266863,4.0005975,14.0896,-33.078995,56.983284,0.6665253,11.369322,14.948758,-4.1162,-14.114023,40.76693,57.756615,-9.757111,8.353051,-15.956678
232,-7.408422470092773,97.413818359375,76.24017333984375,2.4865737880248093,3.280113114437058,-98.05911085783903,-22.685532,8.758794,26.021606,21.913849,-1.7393479,3.1605186,4.0751023,-11.06942,-9.309958,22.879307,-24.060493,6.009043,0.49932683,-2.496176,2.7743006,3.6635942,14.130051,-33.13258,57.069473,0.64002424,11.377626,15.004087,-4.2662296,-14.065256,40.81826,57.69535,-9.755583,8.365239,-15.987691
233,-7.5388922691345215,97.95076751708984,76.23068237304688,2.190868081550129,3.414812747263293,-97.8232370024401,-23.17097,9.025774,25.67225,21.416597,-1.3278708,3.093134,4.3079076,-10.4400425,-10.004411,21.392553,-24.040022,5.787839,0.3068389,-2.1763437,2.9300647,3.3421948,14.208083,-33.204376,57.118507,0.6168043,11.382453,15.0917225,-4.428486,-13.972489,40.872986,57.68502,-9.647212,8.325943,-16.027145
234,-7.678454399108887,98.4842529296875,76.2267837524414,1.8986075012755923,3.5529451824532563,-97.57697944041205,-23.606518,9.262653,25.33343,20.802786,-0.97260374,2.9947865,4.503013,-9.808447,-10.720328,19.94939,-23.975555,5.496201,0.10130499,-1.8403141,3.1029692,2.966659,14.256498,-33.30747,57.208656,0.5882752,11.383186,15.206553,-4.57139,-13.921431,40.939423,57.648003,-9.455851,8.253213,-16.062218
235,-7.813576698303223,99.0425796508789,76.22270202636719,1.5945680516972502,3.696065353581423,-97.32810204909991,-24.006247,9.488296,24.997355,20.09424,-0.67804515,2.8631601,4.613831,-9.157922,-11.363435,18.621357,-23.856607,5.189435,-0.10234003,-1.4919238,3.2875676,2.5763242,14.306374,-33.41763,57.28665,0.5813061,11.387806,15.314596,-4.713974,-13.87304,41.00699,57.62243,-9.260831,8.170882,-16.087154
236,-7.95058536529541,99.59527587890625,76.22154235839844,1.2629461629828422,3.845381392513597,-97.08393589785072,-24.37899,9.718639,24.656729,19.301037,-0.44688085,2.6961637,4.6002088,-8.471518,-11.841912,17.47294,-23.66779,4.9232535,-0.30115288,-1.1369566,3.4826255,2.1879392,14.401139,-33.52604,57.311493,0.5875309,11.403524,15.379868,-4.880994,-13.784447,41.07531,57.645763,-9.141915,8.1029215,-16.096645
237,-8.084742546081543,100.1580810546875,76.22840118408203,0.9000708440177636,3.9961471820097727,-96.84263357781036,-24.725061,9.960299,24.29959,18.429457,-0.28224936,2.49947,4.4519043,-7.741014,-12.08579,16.528366,-23.397194,4.7324953,-0.49964154,-0.7566987,3.7006493,1.8045905,14.500433,-33.581852,57.28708,0.68462896,11.43884,15.375705,-5.0544524,-13.696751,41.135986,57.675705,-9.137981,8.066885,-16.075924
238,-8.228484153747559,100.72949981689453,76.23474884033203,0.5126485736415853,4.1479830880563515,-96.60181827121893,-25.034668,10.211272,23.933249,17.473145,-0.1846221,2.278337,4.1914563,-6.9795837,-12.160996,15.764749,-23.062162,4.5770445,-0.7006264,-0.35699683,3.9405446,1.3945448,14.609311,-33.632603,57.245644,0.8148226,11.487291,15.326822,-5.233748,-13.6069,41.19339,57.71629,-9.202209,8.04597,-16.033718
239,-8.377425193786621,101.31725311279297,76.23673248291016,0.09826470898652098,4.308098586581402,-96.36904976115005,-25.309784,10.478974,23.577152,16.438766,-0.15496863,2.0283072,3.8289876,-6.199809,-12.183315,15.175973,-22.691128,4.402196,-0.8997348,0.06903836,4.181498,0.99806017,14.725872,-33.674847,57.16925,0.9431664,11.530256,15.276548,-5.4233747,-13.514663,41.27651,57.7879,-9.272173,8.019027,-15.987518
240,-8.524127960205078,101.9056167602539,76.24353790283203,-0.34731004454689024,4.483282990059869,-96.15235050361908,-25.553122,10.769327,23.2504,15.33048,-0.19157952,1.7421738,3.3756025,-5.4106665,-12.26751,14.7472725,-22.308916,4.152692,-1.1004179,0.53263,4.403644,0.619507,14.846759,-33.732418,57.07121,0.99180156,11.547903,15.268959,-5.6261015,-13.422491,41.41918,57.90757,-9.290087,7.9653873,-15.955051
