unveil-humanoid-operators/unveil-humanoid-operators.github.io/feature-analysis-animation/data/feature_matrix_instances/height_root_translate_rom_walking_A041_walk_sideway_090_loop_001__A041.csv
Frame,root_translateX,root_translateY,root_translateZ,root_rotateX,root_rotateY,root_rotateZ,left_hip_pitch_joint_dof,left_hip_roll_joint_dof,left_hip_yaw_joint_dof,left_knee_joint_dof,left_ankle_pitch_joint_dof,left_ankle_roll_joint_dof,right_hip_pitch_joint_dof,right_hip_roll_joint_dof,right_hip_yaw_joint_dof,right_knee_joint_dof,right_ankle_pitch_joint_dof,right_ankle_roll_joint_dof,waist_yaw_joint_dof,waist_roll_joint_dof,waist_pitch_joint_dof,left_shoulder_pitch_joint_dof,left_shoulder_roll_joint_dof,left_shoulder_yaw_joint_dof,left_elbow_joint_dof,left_wrist_roll_joint_dof,left_wrist_pitch_joint_dof,left_wrist_yaw_joint_dof,right_shoulder_pitch_joint_dof,right_shoulder_roll_joint_dof,right_shoulder_yaw_joint_dof,right_elbow_joint_dof,right_wrist_roll_joint_dof,right_wrist_pitch_joint_dof,right_wrist_yaw_joint_dof
0,1.7083598375320435,-0.10055111348628998,79.85065460205078,-0.601491782017934,0.9691430694127804,178.96661738561045,-0.7108871,5.1240907,5.468269,10.517954,-10.096206,-6.3620734,-1.3890545,-4.4058185,-14.401492,9.488556,-9.997209,3.2047691,-0.68965554,-0.47765005,6.5533376,3.2091594,16.844595,-26.910273,56.295944,-0.26423505,1.8340861,4.0075407,-6.3371053,-14.5460415,28.472216,63.295803,-8.713474,4.399638,-0.07885858
1,1.7050706148147583,-0.08957157284021378,79.8492431640625,-0.5879156712989917,1.0014831730659903,178.98234127014882,-0.7326168,5.109508,5.4444685,10.477084,-10.072312,-6.361383,-1.4697882,-4.4293056,-14.420146,9.595882,-10.053975,3.212834,-0.6983495,-0.4926717,6.5503025,3.1946886,16.851292,-26.903042,56.32155,-0.23672874,1.8280175,4.0797734,-6.338181,-14.546696,28.460226,63.280785,-8.711628,4.397286,-0.080423124
2,1.7093353271484375,-0.0821489691734314,79.84859466552734,-0.5740676932512959,1.0338741096620012,178.99755169124973,-0.753035,5.0941863,5.4211187,10.433303,-10.047096,-6.3601465,-1.5496219,-4.4534125,-14.439268,9.700465,-10.109463,3.2240589,-0.7049309,-0.50933534,6.5484715,3.1766937,16.855324,-26.892956,56.3514,-0.20294242,1.8240381,4.1538024,-6.337303,-14.546378,28.44355,63.262184,-8.7134695,4.3949776,-0.08129723
3,1.7057830095291138,-0.07011520862579346,79.8480453491211,-0.561771407578702,1.0649859119083225,179.01383665655592,-0.7747592,5.0814204,5.3967,10.394639,-10.024137,-6.3602996,-1.627585,-4.4747148,-14.45781,9.804808,-10.164475,3.2285721,-0.7148885,-0.52052534,6.543647,3.1634817,16.856873,-26.888412,56.377678,-0.1777275,1.8164473,4.225027,-6.3393474,-14.54594,28.434246,63.251953,-8.711136,4.39325,-0.0840947
4,1.7022147178649902,-0.058088045567274094,79.8458480834961,-0.5473459320531292,1.0955522016136463,179.03142839272536,-0.7951684,5.0677147,5.3726716,10.35432,-9.999246,-6.362612,-1.7191749,-4.499805,-14.471175,9.940527,-10.234439,3.2176054,-0.7285157,-0.5295335,6.543687,3.1467109,16.858603,-26.888964,56.395477,-0.16957876,1.7981762,4.2845607,-6.343443,-14.545095,28.423803,63.24102,-8.709036,4.392764,-0.087170474
5,1.7010111808776855,-0.04394000023603439,79.84337615966797,-0.5292408527357703,1.123915568668143,179.04557004350514,-0.8054466,5.0523725,5.355185,10.301364,-9.96787,-6.3680058,-1.8291403,-4.529943,-14.470693,10.120226,-10.324462,3.1835248,-0.7379361,-0.53729874,6.5470214,3.1235273,16.864214,-26.913942,56.405785,-0.19734344,1.7525243,4.3296213,-6.3502326,-14.542566,28.405891,63.235363,-8.708356,4.3940406,-0.090779945
6,1.7015453577041626,-0.025854188948869705,79.8416519165039,-0.5118915152907886,1.1498340663876006,179.0584596099672,-0.8121474,5.0399704,5.3399925,10.248768,-9.936586,-6.3763266,-1.9419776,-4.5575495,-14.463195,10.312055,-10.419124,3.132319,-0.7156751,-0.54635906,6.544966,3.092395,16.890814,-27.008087,56.407013,-0.27364212,1.6908566,4.3690333,-6.336861,-14.532282,28.358301,63.228985,-8.707585,4.3958526,-0.097456254
7,1.7026329040527344,-0.011032798327505589,79.83946990966797,-0.49410612690463723,1.1766484149635907,179.07850168506482,-0.82782423,5.0271444,5.317781,10.206452,-9.90802,-6.385472,-2.0603213,-4.5873075,-14.461224,10.51485,-10.519758,3.0768564,-0.7023425,-0.55870765,6.548394,3.0713956,16.929953,-27.09282,56.383553,-0.3504011,1.643045,4.400946,-6.3292785,-14.518919,28.317198,63.22306,-8.703489,4.3975415,-0.105490625
8,1.7002124786376953,0.008269276469945908,79.83778381347656,-0.4766678912492159,1.2073872467789322,179.1147529814281,-0.866329,5.0126433,5.2778153,10.18779,-9.886459,-6.393704,-2.1809676,-4.620169,-14.478942,10.716416,-10.622225,3.0296001,-0.70720434,-0.57217234,6.559921,3.0499167,16.967607,-27.144379,56.349358,-0.40004572,1.6392366,4.4311748,-6.331205,-14.50589,28.285286,63.215958,-8.699033,4.397586,-0.11465088
9,1.6928160190582275,0.02810172736644745,79.83441162109375,-0.4603943569828011,1.2451711022051661,179.17763433363245,-0.94066375,4.994441,5.208185,10.20095,-9.872541,-6.400971,-2.308321,-4.659216,-14.527951,10.918092,-10.726312,2.9949489,-0.7335371,-0.5850163,6.581832,3.0170991,16.996521,-27.155405,56.306736,-0.41477334,1.7056925,4.4635134,-6.344453,-14.494538,28.255726,63.206013,-8.693208,4.395278,-0.12593804
10,1.7022311687469482,0.05007128790020943,79.83052825927734,-0.4448150448029004,1.2878227146168701,179.25967889947535,-1.0417235,4.9738855,5.1174583,10.239869,-9.865524,-6.4080515,-2.4418736,-4.7028213,-14.598301,11.124256,-10.833903,2.965861,-0.7770155,-0.5907807,6.6066813,2.9693708,17.00708,-27.145058,56.27108,-0.4117233,1.8189229,4.4981346,-6.3635697,-14.489641,28.235613,63.195255,-8.681292,4.3923535,-0.1400821
11,1.7335460186004639,0.06113063544034958,79.8246841430664,-0.4287405309728197,1.3294368510037928,179.34302525879957,-1.1463844,4.95504,5.026139,10.289601,-9.863653,-6.4145207,-2.572651,-4.7456603,-14.671203,11.32934,-10.943516,2.9375448,-0.81629616,-0.6018322,6.637587,2.9182673,17.022873,-27.127722,56.236023,-0.39314762,1.9367752,4.526427,-6.382144,-14.481127,28.208948,63.18339,-8.677387,4.388177,-0.15263177
12,1.7454149723052979,0.07994489371776581,79.82022857666016,-0.4108709701890897,1.3643662262433411,179.40959133903544,-1.2336918,4.9418483,4.954892,10.340247,-9.868198,-6.419904,-2.692933,-4.7826385,-14.727405,11.530962,-11.055597,2.905367,-0.8420222,-0.61310583,6.6650367,2.8762941,17.039179,-27.123562,56.212868,-0.3665718,2.018204,4.548762,-6.390866,-14.471847,28.194893,63.171967,-8.675935,4.384589,-0.16314512
13,1.7300115823745728,0.11508311331272125,79.8160400390625,-0.38752916469645093,1.3894460522540966,179.44546083009203,-1.2831032,4.9333024,4.918427,10.370607,-9.873163,-6.42183,-2.799823,-4.814256,-14.753088,11.731517,-11.17425,2.8691113,-0.8378512,-0.6394878,6.6861286,2.8576553,17.081646,-27.153097,56.19127,-0.3337425,2.0458817,4.5644712,-6.385437,-14.447919,28.187632,63.16676,-8.682212,4.380308,-0.172466
14,1.7136348485946655,0.15897604823112488,79.80975341796875,-0.3608350125993444,1.4084256587460484,179.46350585618586,-1.3123121,4.92833,4.902308,10.3954525,-9.882003,-6.421278,-2.8961914,-4.8417735,-14.761758,11.92733,-11.295654,2.8309286,-0.8189676,-0.6672255,6.7008634,2.8425727,17.120218,-27.197706,56.192924,-0.28627685,2.041279,4.577362,-6.366735,-14.426718,28.195683,63.160244,-8.687633,4.3767395,-0.18057467
15,1.7084274291992188,0.18908917903900146,79.8061752319336,-0.3372276794070321,1.4259785445119537,179.4853182152719,-1.3529364,4.9300857,4.8843036,10.446033,-9.902086,-6.42302,-2.9883463,-4.8639197,-14.774457,12.119907,-11.416203,2.7896369,-0.7990096,-0.6909578,6.7182856,2.8248851,17.156666,-27.239014,56.198006,-0.24063814,2.0289507,4.5815897,-6.34344,-14.40705,28.205084,63.14933,-8.69476,4.3735447,-0.18668333
16,1.7142114639282227,0.21816575527191162,79.79925537109375,-0.3228375973279034,1.447268246836549,179.53261710367428,-1.434006,4.9415727,4.8423367,10.549053,-9.938852,-6.4318824,-3.0815806,-4.879311,-14.812743,12.3076,-11.529904,2.7439284,-0.7921667,-0.70952415,6.745799,2.8044577,17.201954,-27.258785,56.180737,-0.21474956,2.0331664,4.5706816,-6.327001,-14.382638,28.207033,63.135773,-8.70227,4.3704476,-0.19143666
17,1.7280380725860596,0.24594324827194214,79.79200744628906,-0.32200266975284186,1.474330339180834,179.6179359285898,-1.573257,4.9657526,4.7669897,10.72292,-9.996686,-6.452102,-3.1785617,-4.885944,-14.887424,12.490254,-11.633514,2.6897154,-0.81307834,-0.7227901,6.791474,2.787146,17.262693,-27.231586,56.12187,-0.21279916,2.0610049,4.5299315,-6.327871,-14.348625,28.201464,63.119953,-8.709482,4.367536,-0.19800287
18,1.7301270961761475,0.2858738899230957,79.78350830078125,-0.3303269683937851,1.504393549518223,179.72744586004848,-1.7523732,5.0002937,4.671022,10.95126,-10.072928,-6.4802394,-3.2781353,-4.8858223,-14.985214,12.67329,-11.733266,2.628902,-0.85301965,-0.72790134,6.8478804,2.7669325,17.323355,-27.17203,56.04762,-0.22400485,2.0986226,4.4681745,-6.3381343,-14.313001,28.196354,63.10188,-8.715837,4.365196,-0.20510232
19,1.7296887636184692,0.3306620419025421,79.7758560180664,-0.342156555751823,1.5343708771843567,179.84334789312828,-1.9465557,5.0397487,4.565892,11.206792,-10.160446,-6.5095983,-3.3717213,-4.880776,-15.091958,12.84665,-11.829088,2.5691133,-0.88979584,-0.7186683,6.9019527,2.7276924,17.359291,-27.117756,55.997448,-0.2383442,2.1389563,4.4135747,-6.3387437,-14.2917385,28.191084,63.076794,-8.721879,4.363737,-0.20539631
20,1.7504463195800781,0.38112035393714905,79.7653579711914,-0.3507528257147166,1.5615332103772146,179.94781896896941,-2.1333902,5.078532,4.463026,11.466756,-10.25419,-6.5336595,-3.4563608,-4.8748603,-15.19291,13.013255,-11.927988,2.5179977,-0.92182726,-0.715516,6.948811,2.7088058,17.410816,-27.076376,55.935047,-0.24966116,2.1795325,4.3829746,-6.3415084,-14.262516,28.20487,63.062466,-8.72611,4.361588,-0.19478008
21,1.7591750621795654,0.41993260383605957,79.75540161132812,-0.3518515791230243,1.584870361703643,-179.96925966064336,-2.2943115,5.1126275,4.3696895,11.703916,-10.344526,-6.551131,-3.5274227,-4.8689766,-15.281054,13.165277,-12.028941,2.4802222,-0.93169326,-0.7153983,6.9791756,2.6999002,17.459755,-27.069069,55.881683,-0.25469226,2.2204692,4.3913836,-6.330151,-14.235817,28.230923,63.053463,-8.72939,4.357837,-0.16494097
22,1.7325254678726196,0.4650016725063324,79.74832916259766,-0.3503999215661171,1.6060263178580578,-179.89664232738764,-2.4465287,5.146388,4.2782726,11.940137,-10.438262,-6.565531,-3.5885956,-4.8607917,-15.365473,13.306014,-12.1300335,2.450881,-0.9264013,-0.70774025,6.998465,2.67758,17.48733,-27.085577,55.858494,-0.2570513,2.261415,4.4264317,-6.301604,-14.221908,28.262403,63.036476,-8.7329645,4.3559356,-0.11894535
23,1.7455065250396729,0.5134706497192383,79.73558807373047,-0.3522818775706354,1.62572244019086,-179.81976640848205,-2.6162488,5.184853,4.1783624,12.214552,-10.549205,-6.5775275,-3.6437042,-4.848659,-15.45567,13.4412565,-12.230346,2.4233854,-0.92124766,-0.69471115,7.0177526,2.660817,17.521624,-27.112474,55.82943,-0.26254103,2.3022046,4.4709773,-6.2758427,-14.206943,28.301134,63.0268,-8.735713,4.353522,-0.07336942
24,1.7374718189239502,0.5643249154090881,79.72472381591797,-0.3650000045803832,1.6447866057778138,-179.72413317207946,-2.8320248,5.2344623,4.059012,12.572696,-10.694664,-6.587915,-3.6985776,-4.8308296,-15.561014,13.580362,-12.330384,2.3911612,-0.92501086,-0.6651745,7.046329,2.6260827,17.554483,-27.143188,55.815647,-0.27104905,2.3359978,4.5102196,-6.251894,-14.195203,28.334156,63.01567,-8.746118,4.351394,-0.039631944
25,1.7508059740066528,0.61375892162323,79.71094512939453,-0.3921638338576279,1.6594294780182526,-179.6066595262431,-3.0956235,5.2993107,3.918424,13.026641,-10.885582,-6.5956664,-3.7455,-4.802749,-15.683901,13.716127,-12.42475,2.3489013,-0.93944335,-0.6202349,7.091558,2.5719175,17.602398,-27.19323,55.81084,-0.2822109,2.37776,4.546743,-6.2315674,-14.182307,28.359919,63.002113,-8.763471,4.3502707,-0.024310842
26,1.7590343952178955,0.6662530899047852,79.69361877441406,-0.4297524552413386,1.6706919661893413,-179.4747746265018,-3.3945208,5.3748827,3.761779,13.554124,-11.111705,-6.60098,-3.7852929,-4.766524,-15.819125,13.848402,-12.516041,2.3013654,-0.9616748,-0.55480146,7.1447525,2.4923146,17.636433,-27.255247,55.83639,-0.28701487,2.4228418,4.588658,-6.2132416,-14.177088,28.384909,62.989906,-8.786039,4.3502183,-0.01888219
27,1.7517199516296387,0.7179185748100281,79.67557525634766,-0.4726027030555615,1.686263142416286,-179.32986602696883,-3.73316,5.4539614,3.5889087,14.141679,-11.352943,-6.6069703,-3.8317637,-4.729218,-15.966077,13.987707,-12.609887,2.2565913,-0.9825264,-0.47994792,7.1982865,2.4066155,17.67033,-27.314552,55.86421,-0.306488,2.4440403,4.622076,-6.1918693,-14.176357,28.403984,62.97571,-8.8122,4.348641,-0.016183315
28,1.7468465566635132,0.7622373104095459,79.66024017333984,-0.5151038163277737,1.713501073117552,-179.17332400858157,-4.1087227,5.5279517,3.4007633,14.762171,-11.587762,-6.6172543,-3.8937879,-4.6972995,-16.124126,14.133946,-12.711265,2.222645,-0.99787617,-0.40418392,7.2460446,2.3340309,17.709328,-27.343681,55.869865,-0.35312968,2.413104,4.6320605,-6.166229,-14.181748,28.417788,62.957394,-8.83915,4.343014,-0.008299763
29,1.7549248933792114,0.8066216707229614,79.64203643798828,-0.5549173127492787,1.7548798566027854,-179.0052429843854,-4.520669,5.5930066,3.1978235,15.407852,-11.811078,-6.6367598,-3.977135,-4.6732492,-16.293596,14.294175,-12.823967,2.2050548,-1.0102419,-0.32397094,7.277153,2.2571259,17.723024,-27.335905,55.897964,-0.44663915,2.312407,4.624165,-6.1467676,-14.185894,28.429285,62.95999,-8.872457,4.3292785,0.005754715
30,1.777300238609314,0.8465742468833923,79.62151336669922,-0.5955454058159851,1.8060104747902905,-178.82466840948157,-4.9697886,5.6536717,2.9793873,16.093159,-12.03506,-6.6636357,-4.075052,-4.653319,-16.474915,14.46556,-12.945289,2.1981382,-1.0362378,-0.24759443,7.320149,2.2189338,17.769773,-27.278816,55.863453,-0.5800547,2.164612,4.589689,-6.117559,-14.209746,28.456396,62.9234,-8.897719,4.31251,0.026894698
31,1.7929404973983765,0.8917962908744812,79.59544372558594,-0.6394343162139774,1.8652875694860773,-178.63278470775253,-5.463187,5.712231,2.7457497,16.838482,-12.263569,-6.6909547,-4.1858835,-4.6365795,-16.666014,14.648103,-13.071917,2.1933177,-1.0435379,-0.15762451,7.3408036,2.148749,17.784286,-27.228838,55.872536,-0.705152,1.9839199,4.543227,-6.096586,-14.22135,28.46341,62.929745,-8.930485,4.2939277,0.042681176
32,1.8012202978134155,0.9334307909011841,79.5682144165039,-0.6898403349829642,1.9302542368440057,-178.42950581854674,-6.009515,5.7715626,2.4955149,17.668287,-12.502697,-6.712509,-4.3065367,-4.6215515,-16.86597,14.841722,-13.200747,2.182056,-1.0801898,-0.050456747,7.3797884,2.1411984,17.827774,-27.105564,55.766132,-0.75708413,1.7975857,4.4586043,-6.0726027,-14.271905,28.495712,62.889874,-8.950711,4.284773,0.061902113
33,1.8178000450134277,0.9667726159095764,79.5384292602539,-0.7494865385959769,2.006131647870741,-178.21984128548863,-6.61668,5.832878,2.2362964,18.592823,-12.773086,-6.7112546,-4.453309,-4.606834,-17.070248,15.0643635,-13.337847,2.1612408,-1.0953822,0.08044176,7.403451,2.130477,17.867329,-26.973623,55.63351,-0.73420113,1.5777665,4.325772,-6.0422206,-14.333332,28.506828,62.859062,-8.967058,4.283518,0.074017815
34,1.8419322967529297,0.9854702353477478,79.5099105834961,-0.8165959951132055,2.092236536779818,-178.0018860019697,-7.277088,5.8928,1.9660538,19.596382,-13.064095,-6.697981,-4.6213775,-4.5929937,-17.281065,15.309952,-13.482714,2.1354892,-1.1045667,0.23078664,7.419832,2.1307678,17.906296,-26.813154,55.464046,-0.65811396,1.3239819,4.152532,-6.0100126,-14.408605,28.511312,62.828373,-8.9792185,4.288056,0.08280689
35,1.8619511127471924,1.0031147003173828,79.47847747802734,-0.8865832922691549,2.1780975833881904,-177.76695045340222,-7.973787,5.946457,1.6714692,20.657549,-13.331727,-6.7090006,-4.7792816,-4.5821123,-17.506279,15.542764,-13.622329,2.108038,-1.1194986,0.39070806,7.442114,2.1318433,17.944326,-26.647076,55.272633,-0.5594689,1.0885626,3.9872546,-5.974076,-14.498161,28.515177,62.785645,-8.99071,4.294643,0.092681475
36,1.8832849264144897,1.0255231857299805,79.44161224365234,-0.954771131326886,2.253363866660404,-177.50637439396684,-8.690464,5.9880652,1.339725,21.757524,-13.5343895,-6.7820225,-4.8960767,-4.576308,-17.75313,15.728308,-13.744821,2.082377,-1.149829,0.55010694,7.4815464,2.1172135,17.977133,-26.503323,55.0829,-0.46963403,0.9237487,3.8794038,-5.9354734,-14.59863,28.5222,62.72652,-9.006278,4.299234,0.10712965
37,1.9276012182235718,1.0328474044799805,79.40850830078125,-1.0208600629011466,2.316819910051577,-177.2159371383334,-9.442348,6.0126653,0.96276015,22.927437,-13.669059,-6.904823,-4.965622,-4.574361,-18.02481,15.857177,-13.846414,2.0557244,-1.1985304,0.71083987,7.5439973,2.0858793,18.003128,-26.38626,54.892113,-0.37897384,0.84903735,3.84933,-5.888919,-14.7194395,28.534964,62.63679,-9.031234,4.301657,0.12970592
38,1.943727731704712,1.0477992296218872,79.38919830322266,-1.086747223668407,2.3733247526184518,-176.90090180670666,-10.229533,6.0189767,0.55091137,24.162636,-13.75565,-7.0719886,-5.003652,-4.5758834,-18.31684,15.947558,-13.933569,2.0278294,-1.2582504,0.87739426,7.6210203,2.0378258,18.019625,-26.287445,54.700584,-0.27808616,0.83433753,3.8695035,-5.836034,-14.85606,28.548494,62.527264,-9.062476,4.3035436,0.15693113
39,1.9511682987213135,1.0606743097305298,79.3755111694336,-1.150189078235044,2.4220421473502363,-176.56680776860557,-11.0111265,6.0079203,0.11951954,25.387505,-13.788277,-7.329959,-5.0107336,-4.583827,-18.625547,16.004515,-14.008216,2.0058985,-1.3264598,1.0442696,7.708868,1.9783602,18.028502,-26.198793,54.509327,-0.18936189,0.85912335,3.913261,-5.776967,-15.008291,28.558546,62.40379,-9.090638,4.304903,0.18635327
40,1.9606000185012817,1.0638600587844849,79.35597229003906,-1.2081877859693297,2.4615740029360356,-176.21907071935547,-11.749916,5.9820642,-0.3171283,26.532438,-13.766858,-7.7214932,-4.989373,-4.6030607,-18.947094,16.036829,-14.074303,1.9973726,-1.4002705,1.2050321,7.8040924,1.912453,18.033363,-26.113995,54.317898,-0.1367295,0.9026183,3.9537864,-5.7098384,-15.17409,28.558899,62.26997,-9.107708,4.3057513,0.21536775
41,1.9889411926269531,1.0429719686508179,79.34168243408203,-1.2604457568912044,2.4961058781172203,-175.85184708720203,-12.451992,5.922108,-0.7870275,27.600878,-13.660355,-8.321352,-4.9422817,-4.6353254,-19.2872,16.041172,-14.129511,2.005077,-1.4837897,1.3586266,7.905146,1.8366909,18.037697,-26.033031,54.120853,-0.14350866,0.9779821,3.9827297,-5.637795,-15.35396,28.552597,62.123264,-9.105621,4.305499,0.24504761
42,1.9983973503112793,1.0294137001037598,79.32759857177734,-1.306616846620348,2.524598751813634,-175.46456634511117,-13.134189,5.829277,-1.2867607,28.630035,-13.492582,-9.088386,-4.8704205,-4.6804132,-19.645159,16.021992,-14.175154,2.0253668,-1.577531,1.5052418,8.0148735,1.751618,18.042528,-25.958809,53.91651,-0.19302255,1.0902503,4.01429,-5.559268,-15.547872,28.539572,61.960808,-9.092902,4.3043056,0.27636227
43,1.9952993392944336,1.0130764245986938,79.31491088867188,-1.3450970409891259,2.5391040816814163,-175.07046044611587,-13.781502,5.744691,-1.757678,29.611671,-13.338041,-9.883504,-4.7648635,-4.736359,-20.00837,15.976831,-14.212664,2.055566,-1.6720876,1.6401906,8.135117,1.671465,18.04734,-25.886864,53.70933,-0.24496827,1.2064643,4.0554867,-5.47337,-15.752608,28.517115,61.79466,-9.077022,4.302976,0.3058119
44,2.0131497383117676,0.9807169437408447,79.30721282958984,-1.3756825178187064,2.5316030005652714,-174.68289079180332,-14.378427,5.71524,-2.142566,30.53327,-13.259745,-10.561429,-4.6230345,-4.801285,-20.363949,15.918745,-14.247117,2.09275,-1.7591739,1.7602572,8.266935,1.6061746,18.051424,-25.816095,53.50899,-0.26423112,1.293666,4.1137557,-5.3799925,-15.962869,28.481892,61.639442,-9.068377,4.3022866,0.3294777
45,2.003657102584839,0.951233983039856,79.295654296875,-1.4042102684974849,2.4899633360922326,-174.29534309264142,-14.911672,5.7382665,-2.4727743,31.399178,-13.269763,-11.118259,-4.4216256,-4.8676653,-20.720617,15.832012,-14.276189,2.1360254,-1.844085,1.8686205,8.421265,1.5596943,18.053831,-25.742231,53.31056,-0.22576687,1.3559576,4.2097144,-5.2816625,-16.175932,28.433178,61.501507,-9.06825,4.3006606,0.34891313
46,1.9861890077590942,0.9102721810340881,79.29293823242188,-1.4304859080383967,2.4218246607849676,-173.90404864448286,-15.393774,5.8006096,-2.7655945,32.21317,-13.329249,-11.612348,-4.1731615,-4.9381413,-21.081505,15.724331,-14.299359,2.1871834,-1.9297973,1.9662172,8.592792,1.5253028,18.054731,-25.667341,53.114025,-0.15461819,1.4067891,4.3334785,-5.1805434,-16.391182,28.373726,61.377293,-9.07212,4.2981935,0.36449805
47,1.9892476797103882,0.8684304356575012,79.28997039794922,-1.4457191099978857,2.348507990501589,-173.52635522216138,-15.844718,5.9383483,-2.9448235,32.951996,-13.412963,-11.987053,-3.9143236,-5.0218353,-21.426249,15.610507,-14.317469,2.246904,-2.0037117,2.0461035,8.758094,1.5025197,18.054882,-25.595654,52.931305,-0.08402317,1.426892,4.4463453,-5.0788784,-16.606487,28.306072,61.27081,-9.080612,4.297803,0.3705709
48,1.9684573411941528,0.8141966462135315,79.29377746582031,-1.4417468335700454,2.2913019838002833,-173.17989503928789,-16.28622,6.189614,-2.9359071,33.594875,-13.495685,-12.185134,-3.6828985,-5.1278777,-21.734343,15.508593,-14.331169,2.3154626,-2.0531018,2.1017108,8.893558,1.4926662,18.055162,-25.529758,52.77258,-0.045226827,1.3970801,4.5096006,-4.9789166,-16.818346,28.232878,61.18615,-9.093806,4.3024926,0.36131543
49,1.9369913339614868,0.753018856048584,79.3078842163086,-1.4116488449543154,2.2548727520243586,-172.86399045760336,-16.726242,6.590138,-2.6652792,34.14824,-13.5867195,-12.153177,-3.4838333,-5.263772,-22.00342,15.417646,-14.337704,2.394672,-2.0769424,2.1261835,8.9926605,1.4982529,18.05716,-25.468864,52.648144,-0.045557074,1.2822423,4.5004883,-4.883762,-17.024818,28.156351,61.13252,-9.112771,4.3133907,0.3319106
50,1.9078426361083984,0.6821643710136414,79.3199691772461,-1.3622347298016508,2.227697773988991,-172.57104508562455,-17.15192,7.1180887,-2.1944313,34.6195,-13.69259,-11.929409,-3.2987006,-5.422093,-22.243835,15.3296585,-14.337507,2.4835167,-2.0818024,2.1248953,9.0677,1.5185561,18.061543,-25.411827,52.549274,-0.069502324,1.1027446,4.443717,-4.793707,-17.225204,28.075792,61.108437,-9.136729,4.3287134,0.28606102
51,1.8770160675048828,0.6076493859291077,79.3298568725586,-1.3042605252696187,2.208006109806137,-172.3079455957324,-17.552135,7.7224803,-1.65018,34.98398,-13.78164,-11.595586,-3.1300628,-5.591177,-22.454096,15.252039,-14.336598,2.5778317,-2.0663571,2.1088798,9.122512,1.551466,18.067032,-25.360224,52.457924,-0.11273113,0.92215574,4.371564,-4.7079315,-17.417898,27.98976,61.10367,-9.163442,4.347018,0.23060185
52,1.8388487100601196,0.5284547805786133,79.34151458740234,-1.2482755995938146,2.1937865576118565,-172.0816298685934,-17.918219,8.349914,-1.1586304,35.217644,-13.820735,-11.235202,-2.9843936,-5.7609787,-22.632292,15.199817,-14.344764,2.6735156,-2.0290704,2.0894969,9.160711,1.5931506,18.071335,-25.316181,52.358524,-0.17106615,0.8042146,4.3166966,-4.6249666,-17.600689,27.894941,61.108505,-9.192874,4.36688,0.17213693
53,1.794163465499878,0.4382094740867615,79.35092163085938,-1.1910310317455692,2.1848933112495144,-171.89920857139236,-18.24583,8.996578,-0.7239344,35.30447,-13.812337,-10.843538,-2.862865,-5.9339895,-22.772034,15.173746,-14.362437,2.7700844,-1.962869,2.0636768,9.1798935,1.6372727,18.071987,-25.290916,52.251152,-0.26131415,0.7731622,4.2888474,-4.545597,-17.771421,27.789934,61.13043,-9.227142,4.3888483,0.107460774
54,1.7439563274383545,0.3419420123100281,79.35758972167969,-1.1282706141774215,2.182302585282464,-171.7551504792521,-18.540577,9.684785,-0.28630233,35.261765,-13.773087,-10.386941,-2.7649562,-6.11581,-22.875927,15.172284,-14.387952,2.8695264,-1.870715,2.0269265,9.177894,1.6847167,18.068834,-25.281113,52.14761,-0.3799065,0.7926836,4.271115,-4.472923,-17.930567,27.677227,61.176548,-9.266016,4.4134207,0.03408291
55,1.6901813745498657,0.23819534480571747,79.36068725585938,-1.0695423757581017,2.186401082488395,-171.63721454416074,-18.813267,10.399388,0.12425325,35.11854,-13.688394,-9.905285,-2.684901,-6.296628,-22.956064,15.187692,-14.418672,2.9709756,-1.7660029,1.9893376,9.160063,1.7451729,18.062998,-25.26565,52.045704,-0.4911904,0.8346703,4.2555733,-4.4054265,-18.078459,27.558878,61.23012,-9.304392,4.4388547,-0.039782804
56,1.6327781677246094,0.12709049880504608,79.36087036132812,-1.0244522388774127,2.197146435106181,-171.5332113059716,-19.074627,11.12563,0.4773086,34.901173,-13.541616,-9.437763,-2.618954,-6.467508,-23.024754,15.216691,-14.454414,3.073718,-1.6637846,1.9606191,9.131695,1.8285846,18.056932,-25.223154,51.942196,-0.5600927,0.8713242,4.2340097,-4.344875,-18.21597,27.441252,61.27657,-9.333311,4.4633203,-0.10596644
57,1.571822166442871,0.012660179287195206,79.35647583007812,-0.9941235158221746,2.2173378719429655,-171.44325400066177,-19.327066,11.874429,0.7860535,34.594986,-13.311166,-8.995996,-2.5698748,-6.625916,-23.081232,15.258269,-14.4937935,3.1762779,-1.5636137,1.9403467,9.090119,1.943737,18.053154,-25.150747,51.829998,-0.5748911,0.8941154,4.212737,-4.2932267,-18.343996,27.323895,61.317944,-9.349364,4.4882884,-0.16525017
58,1.50615394115448,-0.10749294608831406,79.35243225097656,-0.9736027429620492,2.246120349257678,-171.37254750823146,-19.568335,12.646187,1.0614784,34.194485,-13.012845,-8.559091,-2.5398657,-6.777615,-23.120295,15.317333,-14.539015,3.279449,-1.4603345,1.9238014,9.034726,2.0858798,18.052158,-25.057877,51.708607,-0.5556469,0.9182851,4.192568,-4.248279,-18.461588,27.205181,61.357258,-9.35646,4.513973,-0.22063854
59,1.4440325498580933,-0.24366748332977295,79.34310150146484,-0.9632258714849163,2.2788404414736907,-171.3169404560298,-19.803244,13.411271,1.2684704,33.742405,-12.68539,-8.117085,-2.5195904,-6.9238534,-23.147203,15.388093,-14.589663,3.3858404,-1.3609847,1.9103583,8.970478,2.2448297,18.05317,-24.939915,51.589886,-0.51352227,0.95216596,4.1579785,-4.2160726,-18.562672,27.092133,61.39892,-9.360601,4.5366774,-0.26984897
60,1.3769556283950806,-0.3843783736228943,79.32778930664062,-0.9635900316560743,2.310573960371626,-171.27224049605925,-20.037172,14.140945,1.3708458,33.27991,-12.366749,-7.6596646,-2.5004528,-7.066026,-23.167446,15.466704,-14.646204,3.4980805,-1.2717406,1.9047347,8.907123,2.4132326,18.054337,-24.790077,51.476856,-0.45803186,1.003853,4.091932,-4.1879654,-18.659468,26.989014,61.422337,-9.365027,4.553112,-0.30668688
61,1.308701992034912,-0.5452573299407959,79.3074951171875,-0.9759932831544256,2.3414217381356397,-171.2382959701632,-20.279613,14.828857,1.3425947,32.80907,-12.076771,-7.1631393,-2.480554,-7.2013702,-23.183252,15.549555,-14.708494,3.6146233,-1.1919956,1.9081584,8.84454,2.5896058,18.053091,-24.56965,51.375576,-0.3693034,1.0810233,3.919335,-4.1610675,-18.752352,26.892262,61.422543,-9.373226,4.56281,-0.32740653
62,1.2357343435287476,-0.7099350690841675,79.28741455078125,-0.9993613289171325,2.37375105476563,-171.21687163365814,-20.53079,15.488536,1.2072004,32.31535,-11.794178,-6.6399517,-2.4675999,-7.3319206,-23.191046,15.646728,-14.780407,3.734934,-1.1103095,1.9128343,8.769978,2.7651422,18.049623,-24.312416,51.302105,-0.2556485,1.17709,3.6770782,-4.149034,-18.812557,26.794031,61.437153,-9.38738,4.5664268,-0.3410851
63,1.1562514305114746,-0.8835393190383911,79.26203918457031,-1.0319465786872273,2.4057286483983287,-171.20668685343264,-20.775917,16.122152,1.0031137,31.805231,-11.489597,-6.1336737,-2.4559312,-7.4596233,-23.189793,15.749174,-14.854371,3.8626215,-1.0627816,1.9340608,8.708814,2.9776778,18.044146,-24.034496,51.195435,-0.13839099,1.2787055,3.4972792,-4.138617,-18.906069,26.73393,61.40186,-9.384894,4.566648,-0.34002602
64,1.0762771368026733,-1.0603495836257935,79.2306900024414,-1.0703369932737694,2.4354605064136803,-171.20671995884067,-20.999884,16.730839,0.7699065,31.286463,-11.134479,-5.6878815,-2.4440858,-7.5900583,-23.17717,15.857123,-14.927601,4.0013924,-1.0105562,1.9527066,8.63481,3.1765773,18.039795,-23.887037,51.11496,-0.08494189,1.3742802,3.541216,-4.1511645,-18.961239,26.683577,61.403614,-9.376023,4.5600157,-0.34667027
65,0.9978996515274048,-1.2596397399902344,79.20037841796875,-1.1183953393976478,2.4631995407100993,-171.21673515634976,-21.196507,17.325869,0.52216935,30.739935,-10.732518,-5.316795,-2.430883,-7.7184043,-23.153427,15.967807,-14.9986315,4.149194,-0.9874056,1.9895161,8.570196,3.4036036,18.03573,-23.854235,51.000656,-0.08136173,1.4598632,3.8910472,-4.168482,-19.045439,26.676153,61.36976,-9.3391695,4.546328,-0.3450048
66,0.9154372215270996,-1.469162106513977,79.16715240478516,-1.175708073313265,2.489780283562384,-171.23738620529767,-21.377699,17.901272,0.23706478,30.171518,-10.294434,-4.996358,-2.4175806,-7.844214,-23.119379,16.081945,-15.069197,4.3050823,-0.962634,2.0384967,8.503022,3.6287746,18.03166,-23.935251,50.889294,-0.12286888,1.5421251,4.458711,-4.1789265,-19.136646,26.676971,61.314255,-9.2873125,4.5255694,-0.33761448
67,0.8270614147186279,-1.6770693063735962,79.12581634521484,-1.2355472829265592,2.513724123583291,-171.26873882408464,-21.548113,18.435081,-0.10100192,29.613653,-9.800974,-4.712177,-2.405856,-7.977376,-23.07385,16.2054,-15.141502,4.474351,-0.9470191,2.0813293,8.432961,3.8520992,18.02905,-24.049913,50.793716,-0.20597501,1.6236677,5.101881,-4.219162,-19.195532,26.694887,61.28815,-9.237287,4.5024,-0.33650193
68,0.7373340129852295,-1.9060707092285156,79.08283996582031,-1.291484927349124,2.5338461190363804,-171.31076199810607,-21.718645,18.907368,-0.51021177,29.111818,-9.233252,-4.448768,-2.3993773,-8.128191,-23.015627,16.348125,-15.220381,4.6625,-0.9298623,2.1194985,8.371178,4.0600705,18.025547,-24.146544,50.717964,-0.33780798,1.7068695,5.677642,-4.2553616,-19.25162,26.707531,61.246037,-9.201279,4.483721,-0.33944842
69,0.6490428447723389,-2.1508495807647705,79.0400161743164,-1.3406926537489887,2.5497186566024728,-171.36532430535465,-21.900618,19.326424,-0.9806243,28.688404,-8.554194,-4.1587076,-2.401378,-8.300445,-22.942041,16.51842,-15.309337,4.8716297,-0.91189426,2.1520848,8.321332,4.2503853,18.018526,-24.230635,50.65885,-0.5574433,1.8045448,6.2027736,-4.285208,-19.318161,26.722055,61.17485,-9.18053,4.472566,-0.3411617
70,0.5624769926071167,-2.400874376296997,78.99935150146484,-1.386850065761431,2.561808147526268,-171.43167819976952,-22.087072,19.698553,-1.5074503,28.319374,-7.784922,-3.8624556,-2.4052155,-8.486613,-22.855463,16.699759,-15.403441,5.098628,-0.9014881,2.1809394,8.278988,4.43176,18.008379,-24.318123,50.61326,-0.84787315,1.9095556,6.7346077,-4.3229923,-19.382002,26.748442,61.093094,-9.169062,4.465133,-0.3432612
71,0.47125858068466187,-2.6671528816223145,78.95155334472656,-1.4338569162807495,2.5708696816183445,-171.50646681425326,-22.257551,20.003199,-2.1176536,27.976942,-6.9930415,-3.6473596,-2.4094348,-8.683392,-22.759773,16.887896,-15.496496,5.34108,-0.89722574,2.2024095,8.239445,4.611793,18.001204,-24.369568,50.585674,-1.1235197,1.9969269,7.191152,-4.382211,-19.41558,26.77397,61.036526,-9.166005,4.456682,-0.35820445
72,0.37275463342666626,-2.941188097000122,78.90336608886719,-1.4867382049097912,2.5776105914107923,-171.58632472244585,-22.385897,20.221601,-2.8400753,27.62611,-6.241463,-3.602498,-2.4065084,-8.883894,-22.659975,17.063787,-15.577115,5.5964794,-0.8891345,2.241851,8.204246,4.7858334,17.98535,-24.371248,50.58129,-1.3145343,2.0423121,7.4925957,-4.4089236,-19.476261,26.787958,60.94143,-9.143941,4.4475846,-0.38557413
73,0.28287312388420105,-3.231900215148926,78.85337829589844,-1.547579900545153,2.5831454813997854,-171.67433003464427,-22.454899,20.357029,-3.6918678,27.246565,-5.5703273,-3.7586195,-2.3993642,-9.086439,-22.554462,17.229103,-15.648133,5.865158,-0.88250613,2.2877812,8.173491,4.961129,17.968252,-24.329842,50.60765,-1.4118385,2.0398095,7.711198,-4.4413724,-19.52603,26.791948,60.852528,-9.112514,4.434633,-0.43613806
74,0.19133146107196808,-3.5370264053344727,78.7990493774414,-1.61381531743854,2.5864256380215878,-171.7713270128204,-22.473146,20.420431,-4.656367,26.85462,-4.935423,-4.067775,-2.3905613,-9.2943,-22.441174,17.39201,-15.713992,6.1482096,-0.87961394,2.3413455,8.148629,5.1368647,17.946081,-24.253002,50.658092,-1.4519132,2.0032876,7.858939,-4.4710455,-19.577032,26.79364,60.752693,-9.072318,4.420584,-0.5028641
75,0.09446069598197937,-3.8574085235595703,78.74319458007812,-1.6812814352685888,2.583676448456567,-171.87057359073623,-22.444756,20.403816,-5.710195,26.462532,-4.2691092,-4.5023055,-2.367481,-9.509746,-22.324362,17.538822,-15.766384,6.4445505,-0.8856516,2.408945,8.135367,5.310674,17.909075,-24.070074,50.713417,-1.398348,1.9402231,7.755692,-4.4793506,-19.652365,26.787127,60.624866,-9.025145,4.406072,-0.5722372
76,-0.004726790823042393,-4.1929779052734375,78.68904113769531,-1.7447023034228792,2.57151510162842,-171.9654498992174,-22.376259,20.298,-6.830727,26.08877,-3.508807,-5.035837,-2.3261132,-9.739112,-22.206444,17.67383,-15.801315,6.7530303,-0.88853043,2.4774594,8.129998,5.4775352,17.871365,-23.73568,50.756615,-1.2270174,1.8587328,7.224722,-4.466711,-19.729557,26.751953,60.49787,-8.980297,4.388514,-0.63836193
77,-0.10370272397994995,-4.534501552581787,78.6343765258789,-1.7989498197473668,2.5471357617394763,-172.0502186364663,-22.282272,20.05356,-8.124249,25.76717,-2.546331,-5.6377845,-2.2626715,-9.988903,-22.090134,17.800314,-15.820211,7.07217,-0.879622,2.534657,8.132262,5.6430473,17.848576,-23.190157,50.77182,-0.8881729,1.7655257,6.0828624,-4.4328356,-19.787659,26.670792,60.383343,-8.942401,4.3652067,-0.70402455
78,-0.2067510038614273,-4.885760307312012,78.57514190673828,-1.846936671373551,2.512697893395151,-172.12980126162304,-22.141106,19.691372,-9.567689,25.473804,-1.4528704,-6.3409567,-2.1815748,-10.256074,-21.972532,17.918621,-15.8249655,7.403206,-0.8609429,2.5837455,8.140235,5.8079166,17.837893,-22.485437,50.77087,-0.41836378,1.6449817,4.4720225,-4.3802166,-19.832336,26.553776,60.27643,-8.907842,4.3375654,-0.77329993
79,-0.3042891025543213,-5.265676498413086,78.52298736572266,-1.8957482381488435,2.47180280446683,-172.21377122869114,-21.91352,19.309128,-10.945343,25.145237,-0.43557596,-7.207387,-2.0849276,-10.530008,-21.849005,18.016922,-15.811832,7.748892,-0.87994504,2.6323855,8.1670885,6.008877,17.834686,-21.666042,50.72319,0.102017544,1.4754809,2.6874082,-4.340536,-19.88104,26.460169,60.17282,-8.869512,4.310026,-0.83895814
80,-0.4079647958278656,-5.648618698120117,78.4701919555664,-1.954130559477393,2.4284756910681877,-172.31151052537186,-21.568163,19.009804,-12.038131,24.712036,0.3028409,-8.285239,-1.9742277,-10.798041,-21.715734,18.079834,-15.774845,8.111577,-0.9130911,2.6865053,8.201417,6.211175,17.83569,-20.893393,50.66947,0.5531762,1.2460188,1.0432965,-4.2995667,-19.930355,26.37662,60.074776,-8.834439,4.285861,-0.8999665
81,-0.5165430307388306,-6.051916122436523,78.40364837646484,-2.033098842324768,2.3783249000311177,-172.42745169298877,-21.06112,18.836262,-12.788486,24.095669,0.7191751,-9.72889,-1.8372371,-11.043358,-21.572811,18.091497,-15.712665,8.493935,-0.91981083,2.7568638,8.236329,6.378463,17.83597,-20.19216,50.667503,0.9247971,0.90104884,-0.5165696,-4.23314,-19.971558,26.260303,59.984283,-8.82426,4.264037,-0.95622736
82,-0.6230676770210266,-6.46744966506958,78.3399429321289,-2.127766740682756,2.3213474044807096,-172.55572837166912,-20.43027,18.736696,-13.30257,23.35197,0.91724545,-11.453016,-1.676343,-11.273886,-21.423225,18.060518,-15.626383,8.89328,-0.91457593,2.841196,8.275785,6.5244064,17.834185,-19.497885,50.694042,1.2630287,0.4652121,-2.1101997,-4.147736,-20.006025,26.11965,59.89898,-8.831716,4.243319,-1.0087575
83,-0.7253798842430115,-6.8992533683776855,78.28021240234375,-2.2228840776499026,2.268526100699743,-172.6902531381529,-19.783651,18.666866,-13.607449,22.63378,0.91870296,-13.14062,-1.5170677,-11.51327,-21.26559,18.011576,-15.5161705,9.303862,-0.8917085,2.9236465,8.303838,6.6196933,17.829866,-18.931744,50.739723,1.521662,0.06010466,-3.49941,-4.0457025,-20.027082,25.94782,59.83378,-8.841195,4.225084,-1.063509
84,-0.8278108835220337,-7.346134662628174,78.21282958984375,-2.3010348408486876,2.230832108109454,-172.82497167486835,-19.229507,18.575253,-13.739888,22.10045,0.7480307,-14.479731,-1.3852289,-11.78764,-21.098295,17.970037,-15.38233,9.72049,-0.9057444,2.9866357,8.329817,6.699996,17.823677,-18.511866,50.72753,1.6972958,-0.18967333,-4.466526,-3.9615943,-20.04514,25.791275,59.786507,-8.830519,4.211492,-1.1191047
85,-0.9313915967941284,-7.8168721199035645,78.14665222167969,-2.3148293033227896,2.2087036441975614,-172.94733277653805,-18.768461,18.383266,-13.603828,21.766178,0.4101285,-15.000033,-1.3128648,-12.174812,-20.909073,18.015282,-15.261643,10.154869,-0.9496359,2.988721,8.33915,6.742051,17.816328,-18.310595,50.672943,1.7441825,-0.22124138,-4.932553,-3.8827856,-20.055035,25.644138,59.76687,-8.782466,4.2050524,-1.1853313
86,-1.0235785245895386,-8.306090354919434,78.09015655517578,-2.246686533976278,2.195353965440249,-173.05551382412366,-18.33159,18.084734,-13.198401,21.52085,-0.076918274,-15.000033,-1.3028859,-12.700535,-20.693264,18.172813,-15.172653,10.617683,-1.0290874,2.9103305,8.358693,6.757161,17.805452,-18.239937,50.57149,1.7191752,-0.10673376,-5.036102,-3.803272,-20.063385,25.478247,59.745403,-8.732439,4.2034655,-1.2499889
87,-1.1202411651611328,-8.798028945922852,78.03921508789062,-2.198253738492537,2.196460389374458,-173.17602668084436,-17.973162,17.80729,-12.702698,21.421814,-0.7208074,-15.000033,-1.2908973,-13.199416,-20.475122,18.262844,-15.025922,11.08204,-1.0724584,2.8534603,8.364912,6.693626,17.786428,-18.353167,50.493446,1.6461841,0.07851957,-4.8240213,-3.6881073,-20.076283,25.255394,59.715828,-8.692898,4.2035985,-1.3082141
88,-1.2085275650024414,-9.305020332336426,77.98249053955078,-2.1577691710393156,2.2126706151984203,-173.31163139454787,-17.692194,17.537045,-12.137976,21.45622,-1.4861163,-15.000033,-1.2828892,-13.688239,-20.255352,18.289095,-14.820846,11.558366,-1.1234587,2.8047984,8.3608885,6.6115026,17.76834,-18.57272,50.402855,1.5797306,0.25923267,-4.365923,-3.5910256,-20.088419,25.042273,59.71186,-8.652576,4.2010117,-1.3550252
89,-1.284993290901184,-9.828744888305664,77.92536163330078,-2.131045045354816,2.2453361449176032,-173.46139908542366,-17.505419,17.286686,-11.467182,21.656874,-2.4146442,-15.000033,-1.2703471,-14.159877,-20.044022,18.238201,-14.557994,12.049546,-1.1434752,2.775259,8.346795,6.4666586,17.745947,-18.983343,50.324947,1.5447586,0.42173022,-3.5648189,-3.4660347,-20.110199,24.777966,59.69962,-8.633849,4.1937113,-1.3797846
90,-1.354917287826538,-10.366109848022461,77.87531280517578,-2.120143838344293,2.292676656704156,-173.62552909942855,-17.406507,17.061691,-10.685149,22.01917,-3.5092738,-15.000033,-1.2541362,-14.611212,-19.835175,18.118746,-14.241544,12.550005,-1.1911416,2.7571595,8.330819,6.3243184,17.728838,-19.50419,50.201393,1.5207198,0.6040038,-2.4358957,-3.3676307,-20.131853,24.540705,59.71011,-8.609577,4.1846347,-1.3914851
91,-1.4302877187728882,-10.911638259887695,77.82353210449219,-2.110638666522369,2.3490843809105546,-173.80915592186923,-17.357422,16.839844,-9.862434,22.46924,-4.672638,-15.000033,-1.2496318,-15.061241,-19.606018,17.960108,-13.872271,13.05804,-1.2189096,2.7402987,8.316223,6.1391497,17.710316,-20.099472,50.083534,1.4543085,0.8063743,-1.1777915,-3.2615077,-20.159687,24.274145,59.71638,-8.595494,4.1760283,-1.3954916
92,-1.5034475326538086,-11.46733570098877,77.76409149169922,-2.0875965998334105,2.4102298384855647,-174.01626982221129,-17.322126,16.595808,-9.073365,22.93249,-5.8067765,-15.000033,-1.2733413,-15.529368,-19.33405,17.791636,-13.45193,13.572239,-1.2418299,2.7091734,8.311319,5.928598,17.687819,-20.6528,49.97422,1.3111904,1.0275178,0.0007026726,-3.170987,-20.194067,24.002762,59.72453,-8.586169,4.170928,-1.4003503
93,-1.5645418167114258,-12.039396286010742,77.71209716796875,-1.9946508376029743,2.473830532342328,-174.23171849064735,-17.261572,16.246145,-8.264857,23.354048,-6.910916,-14.688989,-1.3471977,-16.103468,-19.005558,17.681723,-13.022232,14.121146,-1.2749239,2.609684,8.319676,5.680651,17.658037,-21.17257,49.87843,1.032509,1.2997818,1.142097,-3.0972843,-20.235914,23.735003,59.7358,-8.587215,4.17273,-1.4057474
94,-1.629522442817688,-12.629596710205078,77.66007995605469,-1.836443679693931,2.5437839627165792,-174.4530045366555,-17.197128,15.785585,-7.408023,23.767881,-8.01736,-13.97144,-1.4625688,-16.776114,-18.629545,17.609648,-12.579325,14.704785,-1.310271,2.4521375,8.335547,5.388026,17.61722,-21.709301,49.797485,0.65223265,1.607576,2.3276227,-3.024639,-20.289165,23.455069,59.74144,-8.598731,4.17922,-1.4070349
95,-1.6642342805862427,-13.233489036560059,77.62631225585938,-1.6929837856136576,2.6341205895171793,-174.7116259067085,-17.185194,15.330118,-6.600645,24.220291,-9.0699215,-13.277349,-1.6205436,-17.390291,-18.194544,17.48318,-12.052846,15.000033,-1.3343871,2.3090289,8.343587,5.0862947,17.571009,-22.195564,49.72076,0.27938938,1.8818322,3.4040935,-2.9727156,-20.34947,23.16958,59.75565,-8.605334,4.184475,-1.4103721
96,-1.705570101737976,-13.843210220336914,77.60396575927734,-1.6095724676712297,2.761548702555085,-175.0316482750385,-17.268278,14.936829,-5.890691,24.741879,-10.002617,-12.741934,-1.8352869,-17.87825,-17.700129,17.260813,-11.394465,15.000033,-1.314373,2.2299151,8.324509,4.784411,17.520226,-22.594242,49.658737,0.021610046,2.0588863,4.220288,-2.9346294,-20.42226,22.854784,59.772793,-8.596417,4.1823483,-1.4193554
97,-1.755629539489746,-14.455175399780273,77.58715057373047,-1.5035808829460795,2.908580631093579,-175.3816025191977,-17.390978,14.4951,-5.287118,25.269894,-10.744643,-12.419241,-2.1139207,-18.401073,-17.160929,17.053127,-10.663978,15.000033,-1.297592,2.1270163,8.294851,4.50917,17.472893,-22.838692,49.595364,-0.07466166,2.1063678,4.6763554,-2.9333034,-20.499826,22.536386,59.808575,-8.559685,4.170122,-1.4256748
98,-1.786608099937439,-15.078072547912598,77.57142639160156,-1.3779527626407262,3.0727449922720678,-175.75810420510115,-17.548895,14.013951,-4.758545,25.813465,-11.351221,-12.229205,-2.443654,-18.955692,-16.579058,16.849043,-9.868921,15.000033,-1.2689594,2.0089293,8.259847,4.2289376,17.421356,-22.988037,49.544613,-0.07258319,2.0675378,4.874106,-2.93917,-20.596603,22.193142,59.838295,-8.508118,4.1515145,-1.4271628
99,-1.8064424991607666,-15.714425086975098,77.5597152709961,-1.2557520225195686,3.2485965618555537,-176.1554347546842,-17.749407,13.529994,-4.2490625,26.395878,-11.884771,-12.057566,-2.8319716,-19.51222,-15.96032,16.674515,-9.011616,15.000033,-1.2477897,1.9026902,8.226131,3.9518116,17.374691,-23.098658,49.49234,-0.0138223795,1.9960352,4.950828,-2.9652839,-20.698885,21.836065,59.876644,-8.44665,4.130001,-1.4486364
100,-1.809241771697998,-16.365215301513672,77.55802154541016,-1.1600808635524675,3.4297114976153797,-176.568051575857,-17.998564,13.079262,-3.7047572,27.03587,-12.407791,-11.790776,-3.2832263,-20.041113,-15.311364,16.550108,-8.092685,15.000033,-1.23313,1.8377786,8.199672,3.6659455,17.339119,-23.253504,49.439495,0.053401683,1.9451082,5.0467606,-3.0025675,-20.798609,21.446136,59.9228,-8.389986,4.108696,-1.5127223
101,-1.7899870872497559,-17.026161193847656,77.5601806640625,-1.103241426064445,3.6290285365261936,-176.9807396518958,-18.35878,12.664708,-3.1401572,27.807234,-12.935507,-11.382908,-3.805072,-20.528816,-14.630841,16.463776,-7.0790854,15.000033,-1.2334203,1.8270401,8.1713,3.3559995,17.321411,-23.488924,49.395653,0.13951549,1.9148214,5.1732025,-3.0592515,-20.891521,21.010025,59.99562,-8.335021,4.083891,-1.6487194
102,-1.785330891609192,-17.67313003540039,77.56774139404297,-1.0716720593113962,3.8447036499795657,-177.40188821391314,-18.80052,12.273184,-2.5723546,28.66926,-13.433886,-10.898718,-4.3891344,-20.98862,-13.916586,16.400291,-5.9759965,15.000033,-1.2390896,1.849988,8.140849,3.0304012,17.322744,-23.765232,49.356213,0.25827867,1.8821142,5.264159,-3.1325264,-20.976648,20.530106,60.088608,-8.281574,4.0548997,-1.836905
103,-1.7883585691452026,-18.319408416748047,77.58206939697266,-1.0484689688727642,4.048656018601086,-177.8620844724672,-19.20746,11.912874,-1.9558144,29.492792,-13.894186,-10.391118,-5.0304065,-21.439547,-13.166772,16.402357,-4.8522606,15.000033,-1.2259717,1.8849984,8.126954,2.7173512,17.339386,-24.04347,49.299126,0.3699897,1.8653576,5.3434033,-3.2139225,-21.052473,20.029568,60.176224,-8.235227,4.029501,-2.0278413
104,-1.7863826751708984,-18.977685928344727,77.60011291503906,-1.0154343340506802,4.213452465898734,-178.3920046737131,-19.469284,11.587399,-1.2459669,30.157076,-14.310802,-9.91432,-5.7440686,-21.900291,-12.370638,16.545734,-3.7915342,15.000033,-1.1720455,1.9102457,8.147306,2.4428046,17.365469,-24.284235,49.206573,0.4351618,1.8824965,5.4353228,-3.294847,-21.11703,19.530577,60.23344,-8.204758,4.015662,-2.172327
105,-1.7879277467727661,-19.6298828125,77.625,-0.9749653665506113,4.32721250840681,-179.00560830888958,-19.53621,11.307194,-0.4191203,30.60041,-14.658306,-9.501061,-6.5177946,-22.34978,-11.456351,16.780014,-2.7074034,15.000033,-1.066376,1.9315445,8.214632,2.2041488,17.39552,-24.485956,49.07554,0.43222582,1.9670291,5.5505776,-3.3742678,-21.165861,19.019396,60.26003,-8.203973,4.0224943,-2.2681372
106,-1.7840497493743896,-20.276613235473633,77.66250610351562,-0.9325499476686161,4.4068713543090325,-179.68574832733455,-19.477383,11.061406,0.49819905,30.899261,-14.947569,-9.11731,-7.3592014,-22.782364,-10.442345,17.098461,-1.592086,15.000033,-0.9239891,1.9559419,8.313952,1.9881693,17.429516,-24.665426,48.922176,0.38719514,2.099319,5.6759048,-3.4629364,-21.198406,18.493092,60.274654,-8.226391,4.043608,-2.3392375
107,-1.7776581048965454,-20.921878814697266,77.69943237304688,-0.8720554690686043,4.4680440077211045,179.5842744602262,-19.346807,10.818569,1.4798522,31.11023,-15.211598,-8.716711,-8.267365,-23.228971,-9.465616,17.544724,-0.59466374,15.000033,-0.80828446,1.9634757,8.415763,1.8369555,17.456345,-24.754948,48.7503,0.347673,2.2162879,5.797677,-3.6281357,-21.211355,18.066572,60.329952,-8.2238035,4.064785,-2.383004
108,-1.7730809450149536,-21.550949096679688,77.73799896240234,-0.7757945500249235,4.525625362413279,178.82192397661677,-19.195736,10.546184,2.4996312,31.288744,-15.484151,-8.252384,-9.245473,-23.727167,-8.659714,18.168665,0.131873,15.000033,-0.65231353,1.9303832,8.509604,1.6991581,17.496038,-24.836596,48.585716,0.32471362,2.2580678,5.9079247,-3.7738168,-21.224174,17.654406,60.336475,-8.200644,4.069303,-2.375622
109,-1.756999135017395,-22.19831657409668,77.76869201660156,-0.6156941391719852,4.581761318339567,178.01222166767315,-19.015717,10.215782,3.5854213,31.431149,-15.783919,-7.686671,-10.357596,-24.344198,-8.061229,19.031946,0.56588095,15.000033,-0.44801942,1.8255928,8.603216,1.6133546,17.580769,-24.885658,48.377354,0.3326374,2.17595,5.9917784,-3.8927069,-21.250107,17.254639,60.266205,-8.13711,4.0533323,-2.2821636
110,-1.758730173110962,-22.826852798461914,77.78736877441406,-0.403980317103172,4.626970961059654,177.1554832312461,-18.77917,9.840716,4.7380524,31.50523,-16.08745,-7.052458,-11.576103,-25.046648,-7.5856514,20.0752,0.789863,15.000033,-0.29047006,1.6742009,8.686777,1.6116005,17.649395,-24.80758,48.15362,0.38449302,2.0096154,6.0594006,-4.1019936,-21.268326,16.997334,60.236958,-8.016031,4.027638,-2.1366167
111,-1.7583078145980835,-23.440616607666016,77.80245208740234,-0.18443616298144097,4.657436679275966,176.29267568243625,-18.511086,9.456378,5.8897676,31.531427,-16.37043,-6.408776,-12.763547,-25.716473,-7.199912,21.169315,0.8044655,15.000033,-0.14358707,1.5107266,8.774465,1.6300901,17.728592,-24.711075,47.927013,0.42794415,1.842357,6.124447,-4.320454,-21.28542,16.798412,60.187134,-7.8825893,3.9931602,-1.9820595
112,-1.7510042190551758,-24.034521102905273,77.8200454711914,-0.059644086229647224,4.683697579954543,175.4391842150195,-18.278238,9.182517,6.958753,31.586802,-16.63543,-5.8317466,-13.784585,-26.153343,-6.9422784,22.162455,0.6277968,14.753828,-0.0015732722,1.4134382,8.87636,1.6896522,17.889927,-24.635376,47.618984,0.41276783,1.760161,6.1861014,-4.5150485,-21.305492,16.645632,60.07348,-7.7590733,3.9504387,-1.8620049
113,-1.7545961141586304,-24.60211181640625,77.84983825683594,-0.09959488473909825,4.719847268158613,174.56120011092085,-18.124239,9.122265,7.9310617,31.735739,-16.903557,-5.360595,-14.636537,-26.20507,-6.7695513,23.00668,0.19601473,13.9282,0.15148012,1.4577403,8.950472,1.7416219,18.073977,-24.602762,47.31033,0.31455198,1.79572,6.2593203,-4.727326,-21.313366,16.591011,59.963066,-7.6276417,3.8921387,-1.8023818
114,-1.7587108612060547,-25.15207862854004,77.88785552978516,-0.15956852059064525,4.737195986223623,173.69495112181173,-17.94921,9.085488,8.87234,31.857025,-17.137085,-4.9245396,-15.388576,-26.131582,-6.5920215,23.86904,-0.5277959,13.174667,0.28188592,1.5101238,9.028207,1.8035865,18.286985,-24.588316,46.987488,0.16128334,1.901025,6.3360753,-4.9502378,-21.312101,16.613922,59.840828,-7.485452,3.8200247,-1.7727678
115,-1.7537752389907837,-25.6840763092041,77.92141723632812,-0.2326814253480468,4.734680858866279,172.86958123178977,-17.758223,9.05234,9.762174,31.949192,-17.342617,-4.5001435,-16.011328,-26.040037,-6.6590476,24.78175,-1.4027413,12.471558,0.3734465,1.5622166,9.117656,1.8891145,18.523842,-24.56104,46.661358,0.012316218,2.0290132,6.4189973,-5.165626,-21.29599,16.673347,59.69445,-7.371026,3.7504122,-1.7670522
116,-1.7507460117340088,-26.197511672973633,77.95999145507812,-0.31077601031431823,4.711739576359973,172.11435079195647,-17.558435,9.001215,10.580066,32.010998,-17.526253,-4.0636034,-16.47521,-26.044996,-7.221076,25.77774,-2.2868707,11.794064,0.41098458,1.6033224,9.224037,2.0083234,18.7728,-24.489344,46.3522,-0.06853692,2.132455,6.5120597,-5.361625,-21.257437,16.731726,59.521442,-7.3216953,3.699789,-1.781522
117,-1.7424052953720093,-26.69824981689453,78.00232696533203,-0.3955499639333624,4.663119040621162,171.44421655928076,-17.351068,8.92845,11.310691,32.042522,-17.689426,-3.5986173,-16.732716,-26.188137,-8.425627,26.839405,-3.1754699,11.165515,0.3810458,1.6336805,9.35159,2.1629753,19.027771,-24.362043,46.0638,-0.047495484,2.2114906,6.62384,-5.5394487,-21.190546,16.789967,59.326023,-7.378734,3.6741135,-1.8295414
118,-1.7456696033477783,-27.19174575805664,78.05242919921875,-0.4895842431933444,4.591193023880257,170.84102325499688,-17.134441,8.845449,11.969006,32.045433,-17.829626,-3.1211157,-16.801897,-26.417448,-10.110798,27.9663,-4.143869,10.587537,0.29455492,1.657188,9.493267,2.3433316,19.2895,-24.196472,45.79638,0.038514115,2.2868145,6.7511883,-5.7107086,-21.09621,16.86793,59.118206,-7.5108643,3.6641815,-1.9108237
119,-1.7528815269470215,-27.6671142578125,78.1068115234375,-0.5860690618043652,4.505704941884868,170.28474652027185,-16.90911,8.751776,12.579512,32.016247,-17.943695,-2.655594,-16.735811,-26.700281,-12.074137,29.187784,-5.1612067,9.999614,0.17324416,1.6704746,9.638497,2.537547,19.55412,-24.006588,45.569344,0.14395581,2.3420944,6.8802414,-5.868426,-20.976553,16.94631,58.895237,-7.6564164,3.6636577,-1.9996011
120,-1.7500314712524414,-28.134807586669922,78.15321350097656,-0.6777191384932175,4.416756481395299,169.75547910556392,-16.672987,8.645354,13.167409,31.947512,-18.025904,-2.2263513,-16.592485,-27.005463,-14.111422,30.529053,-6.193808,9.340475,0.040967997,1.6713197,9.776666,2.7287812,19.815182,-23.809902,45.406784,0.22285172,2.3604336,6.997895,-6.0046535,-20.835182,17.005766,58.65387,-7.7506337,3.6659553,-2.070035
121,-1.755226969718933,-28.589826583862305,78.20008087158203,-0.7646245014819547,4.315607094648086,169.26666386038093,-16.414654,8.520468,13.724092,31.831034,-18.068222,-1.8509464,-16.344023,-27.377834,-16.323948,32.026943,-7.2681847,8.548132,-0.11022763,1.6617197,9.915894,2.9038854,20.065813,-23.599312,45.33584,0.29265305,2.3280973,7.104771,-6.110162,-20.674355,17.035727,58.38739,-7.768019,3.6737306,-2.1202328
122,-1.7468092441558838,-29.04120445251465,78.25003051757812,-0.849667030923698,4.200288373896988,168.82315288304525,-16.137424,8.378666,14.241378,31.669687,-18.072908,-1.5125835,-15.948945,-27.811815,-18.77363,33.649704,-8.392604,7.666402,-0.28657323,1.6444172,10.057841,3.067631,20.303946,-23.372814,45.345745,0.36861274,2.256578,7.2076464,-6.187984,-20.495028,17.045815,58.09695,-7.7464013,3.6891818,-2.1617146
123,-1.7488723993301392,-29.49115562438965,78.29114532470703,-0.9297023694969687,4.09197600411924,168.39155719593722,-15.869326,8.231537,14.744868,31.488636,-18.059896,-1.1840806,-15.470739,-28.204735,-21.190447,35.325653,-9.5097475,6.7928963,-0.46080372,1.61785,10.182007,3.2326517,20.531849,-23.155304,45.400536,0.40265143,2.1669738,7.3024487,-6.2506957,-20.300438,17.049717,57.79331,-7.71318,3.7045326,-2.1887832
124,-1.7501628398895264,-29.914592742919922,78.3370361328125,-1.0014015901780848,4.011969486453706,167.938136999584,-15.637283,8.090438,15.260315,31.310009,-18.047468,-0.83842516,-14.999006,-28.452187,-23.29932,36.98613,-10.551966,6.0264063,-0.6053278,1.5803921,10.2681055,3.4122736,20.754353,-22.972132,45.46177,0.34549317,2.0803823,7.384608,-6.3078785,-20.095406,17.057554,57.483566,-7.698881,3.712284,-2.1951244
125,-1.7403857707977295,-30.334774017333984,78.38152313232422,-1.063670998037849,3.9680930891602846,167.4613723336669,-15.453695,7.9543653,15.789108,31.140398,-18.039988,-0.45762905,-14.574484,-28.539726,-25.050783,38.645584,-11.508707,5.378535,-0.7209781,1.5323029,10.312084,3.6131601,20.977533,-22.834795,45.523846,0.15596461,1.984415,7.4526625,-6.3490357,-19.876867,17.04474,57.154434,-7.710833,3.7086456,-2.1728399
126,-1.7312638759613037,-30.74454116821289,78.42874145507812,-1.1183978159196808,3.9487534731132863,166.97652318334363,-15.302363,7.817922,16.320562,30.967035,-18.027985,-0.059272565,-14.16729,-28.513046,-26.5799,40.329414,-12.4028015,4.801931,-0.81767386,1.4729432,10.325242,3.8289766,21.202747,-22.729336,45.600426,-0.13165052,1.8739761,7.5082073,-6.371261,-19.643677,17.012348,56.80412,-7.733256,3.6980934,-2.1268308
127,-1.7228851318359375,-31.145048141479492,78.46885681152344,-1.1677855898007226,3.9464270089788105,166.47478751777064,-15.168929,7.6870284,16.861523,30.78627,-18.011084,0.329346,-13.784798,-28.363403,-27.883299,41.99907,-13.217689,4.309679,-0.88312954,1.4023716,10.310239,4.0530996,21.425665,-22.643175,45.68168,-0.45453152,1.7807925,7.5512033,-6.3926253,-19.406075,17.01003,56.453312,-7.7614493,3.6856582,-2.0689957
128,-1.7071787118911743,-31.54464340209961,78.50828552246094,-1.213797718391939,3.9534244228179505,165.94756858466707,-15.038582,7.567295,17.41921,30.59241,-17.98725,0.6812755,-13.431329,-28.083166,-28.958895,43.614296,-13.935966,3.9152594,-0.9055043,1.3234957,10.270528,4.280474,21.636738,-22.560934,45.758343,-0.74734855,1.7364175,7.5818014,-6.4300733,-19.180387,17.091158,56.11948,-7.785944,3.6764631,-2.009917
129,-1.6896473169326782,-31.938108444213867,78.54315185546875,-1.254856262341464,3.9713966364651667,165.3869880552279,-14.906426,7.459349,17.999092,30.378569,-17.955719,0.99130607,-13.141453,-27.63893,-29.730408,45.18099,-14.535343,3.6478553,-0.8783103,1.2396609,10.195351,4.502741,21.828312,-22.49488,45.840176,-1.0185144,1.7523019,7.600484,-6.4802713,-18.980509,17.285355,55.80127,-7.798994,3.671381,-1.9510438
130,-1.664672613143921,-32.324798583984375,78.57596588134766,-1.2912820701881516,4.003400006491806,164.79909724714193,-14.780668,7.360558,18.596687,30.148258,-17.915876,1.273271,-12.91718,-27.04402,-30.227215,46.71729,-15.026168,3.4979343,-0.8101648,1.1558552,10.087529,4.7240977,21.996166,-22.445349,45.93084,-1.2903621,1.8100954,7.6073976,-6.530105,-18.8075,17.560972,55.48146,-7.8032746,3.6683114,-1.8842032
131,-1.6395349502563477,-32.69361114501953,78.60602569580078,-1.327744283940792,4.044095193279317,164.1970782686942,-14.668923,7.27243,19.201597,29.917326,-17.868095,1.52879,-12.708668,-26.35963,-30.605413,48.201923,-15.443711,3.4182434,-0.71287596,1.0765617,9.969677,4.9495597,22.136744,-22.386833,46.02036,-1.5258,1.896467,7.60307,-6.5844183,-18.657207,17.879171,55.15823,-7.808218,3.667848,-1.8066874
132,-1.6125168800354004,-33.05105972290039,78.62503814697266,-1.3688691044929613,4.087610587068669,163.5939867197244,-14.578564,7.197227,19.804363,29.703833,-17.81434,1.7604109,-12.461638,-25.650599,-31.017458,49.613316,-15.824471,3.3569784,-0.5971361,1.0074297,9.864187,5.183414,22.243431,-22.293783,46.10049,-1.6855444,1.9979619,7.588314,-6.645231,-18.526546,18.198904,54.82794,-7.823731,3.6706617,-1.7156308
133,-1.5746548175811768,-33.401153564453125,78.63285064697266,-1.4160043872401928,4.134282655746264,162.9868210158007,-14.511694,7.138257,20.406586,29.509472,-17.7476,1.9445398,-12.17782,-24.920181,-31.471546,50.973232,-16.159594,3.313367,-0.4650858,0.94223434,9.770415,5.4414396,22.322493,-22.144648,46.151917,-1.7463123,2.143423,7.5540776,-6.723895,-18.401089,18.527353,54.501183,-7.858006,3.6786854,-1.6058474
134,-1.5308136940002441,-33.75148391723633,78.6484146118164,-1.4664936337518406,4.186493812216895,162.37060338913764,-14.464873,7.094036,21.012308,29.327284,-17.66945,2.0887206,-11.879923,-24.141655,-31.896254,52.28526,-16.436205,3.3093228,-0.3049999,0.88376355,9.677746,5.7048697,22.366745,-21.967253,46.196526,-1.7327374,2.3285885,7.504559,-6.8075104,-18.291588,18.872723,54.170177,-7.9046135,3.6910017,-1.4792659
135,-1.4783350229263306,-34.104461669921875,78.66719055175781,-1.516409723582812,4.241043541844326,161.7563959392701,-14.436252,7.056048,21.614876,29.158865,-17.592493,2.240474,-11.542939,-23.33899,-32.320545,53.500263,-16.685913,3.3241909,-0.1396652,0.8247994,9.5913515,5.978003,22.382843,-21.765108,46.2451,-1.6749238,2.4928553,7.4541316,-6.915856,-18.186325,19.234352,53.85837,-7.956266,3.7032268,-1.3557485
136,-1.430439829826355,-34.46282196044922,78.68671417236328,-1.56061944297002,4.294977701678833,161.15507133887448,-14.421762,7.0137606,22.20847,29.001575,-17.528116,2.4472382,-11.142126,-22.534466,-32.772236,54.565804,-16.938066,3.3377998,0.03162266,0.76315117,9.519231,6.2405014,22.374208,-21.570068,46.321472,-1.6073816,2.5754495,7.4199038,-7.0337834,-18.094238,19.581196,53.554436,-8.007762,3.7112732,-1.2486465
137,-1.3734437227249146,-34.81368637084961,78.70510864257812,-1.596626971286523,4.347987076856146,160.5670941978279,-14.423028,6.9662833,22.798038,28.862978,-17.488657,2.7413375,-10.662014,-21.730095,-33.26754,55.46724,-17.203705,3.3464468,0.1888674,0.68731844,9.46845,6.5139275,22.343975,-21.34929,46.42463,-1.5039389,2.538688,7.4143186,-7.1881523,-17.994045,19.932556,53.279892,-8.064547,3.712021,-1.1694692
138,-1.304048776626587,-35.15774154663086,78.72013854980469,-1.6271659962284377,4.401629468752856,159.98748733595835,-14.440782,6.9181848,23.385149,28.741674,-17.466116,3.0909433,-10.119296,-20.914103,-33.785816,56.23118,-17.463192,3.3599482,0.35326374,0.6018611,9.4345045,6.7890034,22.294827,-21.117449,46.54749,-1.3622301,2.4225912,7.426939,-7.358678,-17.894955,20.27545,53.01665,-8.131519,3.7080746,-1.1055566
139,-1.2324330806732178,-35.492374420166016,78.7314682006836,-1.6544005643948534,4.455835930433572,159.41939829551777,-14.47106,6.8668604,23.95855,28.624886,-17.443974,3.447012,-9.537416,-20.087387,-34.301243,56.86172,-17.702253,3.3787603,0.51961774,0.5152895,9.400184,7.0593967,22.227716,-20.89754,46.67932,-1.2379664,2.282802,7.435356,-7.551975,-17.799364,20.619322,52.784008,-8.191054,3.7041173,-1.0516677
140,-1.156905174255371,-35.823638916015625,78.74139404296875,-1.6805172705318168,4.510712511550546,158.8656279549628,-14.511764,6.810215,24.50676,28.503056,-17.4059,3.7606866,-8.943212,-19.253393,-34.78792,57.371742,-17.906752,3.404004,0.71009094,0.4361107,9.355283,7.303326,22.16023,-20.74336,46.802937,-1.1989486,2.1759434,7.4155326,-7.737076,-17.73181,20.93764,52.559914,-8.229007,3.7045074,-0.99433726
141,-1.0751725435256958,-36.15047836303711,78.75082397460938,-1.705501111416311,4.564496369484682,158.3301972674382,-14.560021,6.742799,25.0191,28.368275,-17.345749,4.022985,-8.312892,-18.424541,-35.285038,57.76383,-18.075829,3.4288921,0.8622849,0.36755294,9.281533,7.5478153,22.048922,-20.594755,46.937435,-1.2539953,2.104309,7.35785,-8.001575,-17.65534,21.312399,52.443565,-8.225412,3.714137,-0.94521
142,-0.9918608665466309,-36.49119186401367,78.74991607666016,-1.7284063745474008,4.617783808356628,157.81033666835,-14.619934,6.6681304,25.504135,28.231585,-17.274511,4.2588553,-7.643739,-17.59384,-35.79067,58.031483,-18.215137,3.4554083,1.032158,0.30700892,9.198225,7.7639174,21.920418,-20.499664,47.082355,-1.3862096,2.0434349,7.275892,-8.271475,-17.599483,21.669035,52.350983,-8.199784,3.7286546,-0.8945293
143,-0.9081370234489441,-36.82460021972656,78.74639892578125,-1.7500911125710603,4.674402071988538,157.29923517605152,-14.691304,6.594481,25.979275,28.093224,-17.190483,4.470957,-6.989854,-16.736319,-36.21938,58.16694,-18.317022,3.49843,1.2095987,0.25320232,9.106755,7.962711,21.775532,-20.437775,47.228745,-1.543426,2.0012877,7.1855044,-8.551293,-17.558905,22.022963,52.278606,-8.167713,3.742604,-0.85254604
144,-0.8212661147117615,-37.14589309692383,78.74090576171875,-1.771721040178131,4.738112225052436,156.79014603417832,-14.778812,6.5339313,26.462759,27.965952,-17.09944,4.6610327,-6.403222,-15.832105,-36.489223,58.167683,-18.37861,3.5718174,1.394425,0.20248419,9.007341,8.147446,21.618187,-20.400248,47.373196,-1.6750008,1.9857485,7.10394,-8.840345,-17.52585,22.377111,52.222744,-8.149173,3.7497048,-0.82945806
145,-0.72724848985672,-37.462005615234375,78.73385620117188,-1.7941834295598542,4.810352344579423,156.28824205276393,-14.879657,6.48755,26.95666,27.843346,-16.993484,4.8161783,-5.8753324,-14.874714,-36.594524,58.02666,-18.403027,3.670512,1.5815289,0.1532288,8.895329,8.3165655,21.452206,-20.399376,47.51798,-1.7826637,2.0129695,7.0376253,-9.142713,-17.494322,22.736408,52.19826,-8.154674,3.7461045,-0.8363496
146,-0.6252349615097046,-37.77946090698242,78.7258529663086,-1.8164081437457633,4.889238336032017,155.79479267477333,-14.991552,6.4485445,27.451876,27.71823,-16.869944,4.9405537,-5.381124,-13.879598,-36.57565,57.748077,-18.39023,3.7896717,1.7712601,0.10406202,8.771747,8.471537,21.278711,-20.43356,47.662273,-1.8893698,2.0742054,6.9767466,-9.4623165,-17.462208,23.099712,52.208145,-8.172272,3.735685,-0.86637735
147,-0.518177330493927,-38.090179443359375,78.71231079101562,-1.8367554514179132,4.9726918756623135,155.2966252743066,-15.121143,6.419045,27.950838,27.60746,-16.745474,5.060892,-4.944674,-12.862174,-36.422813,57.348164,-18.3349,3.942339,1.9723049,0.05088136,8.644946,8.622212,21.09776,-20.472122,47.795647,-1.9749064,2.1403608,6.91386,-9.79854,-17.429533,23.45949,52.23259,-8.190667,3.7233443,-0.90246797
148,-0.403118371963501,-38.4105224609375,78.69636535644531,-1.8530164818975354,5.058917360385937,154.78043669374352,-15.274658,6.400495,28.45569,27.526983,-16.636747,5.2040944,-4.5893955,-11.837605,-36.126816,56.84281,-18.231548,4.1418796,2.192382,-0.010024991,8.523608,8.779879,20.908625,-20.483242,47.906586,-2.0182076,2.182198,6.8411403,-10.151316,-17.397442,23.809708,52.251095,-8.196289,3.714386,-0.92738444
149,-0.28077101707458496,-38.72500228881836,78.68144989013672,-1.8656080070941616,5.1516110698449875,154.2372385666581,-15.454078,6.395486,28.972881,27.477196,-16.548145,5.3793035,-4.3374977,-10.788208,-35.63557,56.24031,-18.074503,4.4034767,2.439912,-0.07966192,8.404512,8.949316,20.71094,-20.461365,47.99369,-1.9903321,2.191047,6.7447,-10.520851,-17.365637,24.151716,52.263336,-8.179869,3.7107904,-0.9370112
150,-0.1612788438796997,-39.03528594970703,78.66226196289062,-1.8751666501704691,5.25027520064146,153.67571602759745,-15.655212,6.4021444,29.499327,27.450262,-16.471018,5.571801,-4.1608768,-9.715528,-34.974934,55.532654,-17.871202,4.714433,2.707314,-0.15664914,8.285159,9.125077,20.504955,-20.420961,48.061604,-1.9097519,2.1825287,6.6323004,-10.909188,-17.333668,24.490423,52.279957,-8.148512,3.7095447,-0.9405772
151,-0.0153721384704113,-39.3554573059082,78.63294219970703,-1.880859345837305,5.346933895160966,153.1101500715876,-15.874389,6.4156337,30.023369,27.449852,-16.402742,5.772709,-4.0102367,-8.662169,-34.251278,54.70918,-17.63395,5.0459533,2.979023,-0.23939121,8.175249,9.303729,20.29042,-20.361061,48.108086,-1.8268826,2.164251,6.52907,-11.311815,-17.302418,24.819393,52.29098,-8.121108,3.7085402,-0.94028455
152,0.13158006966114044,-39.670387268066406,78.60187530517578,-1.8817913792285832,5.433788645417847,152.5548956444425,-16.108036,6.430311,30.53289,27.480728,-16.341614,5.9735103,-3.8411775,-7.670687,-33.568565,53.756897,-17.373999,5.3688903,3.2393525,-0.32629952,8.084492,9.480459,20.067265,-20.28153,48.13196,-1.7934296,2.143746,6.460042,-11.729088,-17.275146,25.137274,52.290478,-8.111042,3.705137,-0.9386737
153,0.28141140937805176,-39.98744201660156,78.56875610351562,-1.878829071746709,5.508026059201644,152.00490091544128,-16.358189,6.451886,31.024776,27.553205,-16.289402,6.162428,-3.649409,-6.7409825,-32.92802,52.673267,-17.073654,5.6875143,3.490905,-0.4193507,8.0195265,9.660251,19.83575,-20.175566,48.124336,-1.8409398,2.1206331,6.441464,-12.158932,-17.252003,25.442427,52.267616,-8.131225,3.699587,-0.9351995
154,0.44129177927970886,-40.30467224121094,78.52297973632812,-1.871701724027034,5.574145244242923,151.45553120446152,-16.625404,6.480796,31.505428,27.663853,-16.248552,6.348297,-3.4532163,-5.855921,-32.280575,51.46167,-16.735926,6.0100484,3.7401257,-0.5182232,7.9742866,9.842493,19.596127,-20.046843,48.08922,-1.9370599,2.0915585,6.4567337,-12.602639,-17.232727,25.73784,52.228485,-8.168842,3.6927438,-0.928741
155,0.5983960628509521,-40.636653900146484,78.47467041015625,-1.8579279993446778,5.634818847041263,150.92186964846215,-16.901415,6.501997,31.977188,27.78681,-16.212,6.553282,-3.2482963,-5.0345674,-31.65397,50.123234,-16.39933,6.312963,3.976658,-0.61642385,7.9391103,10.019392,19.346682,-19.906261,48.039555,-2.032115,2.0604773,6.481067,-13.055249,-17.220713,26.019396,52.183502,-8.210169,3.6842291,-0.9201844
156,0.7731252312660217,-40.9647102355957,78.42908477783203,-1.8351917582480959,5.692917118623784,150.41860322401462,-17.177998,6.500764,32.442333,27.895374,-16.172049,6.798321,-3.0298986,-4.294315,-31.076628,48.654533,-16.102705,6.5730295,4.192114,-0.70585465,7.905228,10.180056,19.084387,-19.767467,47.990067,-2.0773623,2.0310776,6.4900045,-13.511248,-17.221098,26.284674,52.139896,-8.234964,3.673545,-0.9098265
157,0.9470180869102478,-41.3115348815918,78.38174438476562,-1.79754462230332,5.751795616025591,149.9449813212078,-17.45137,6.4675426,32.90761,27.974838,-16.128307,7.100411,-2.7998528,-3.6357856,-30.54513,46.981083,-15.809031,6.8645253,4.3871126,-0.7880669,7.865765,10.325964,18.803885,-19.624598,47.942295,-2.0403955,2.0036435,6.476164,-13.965384,-17.23914,26.527992,52.092144,-8.241554,3.6601095,-0.8981486
158,1.1072379350662231,-41.66365432739258,78.32171630859375,-1.7475879192816035,5.80929895849975,149.49496545833713,-17.726116,6.411856,33.369884,28.040651,-16.083876,7.443856,-2.557235,-3.0548108,-30.04569,45.12561,-15.513397,7.168122,4.5663605,-0.8630484,7.8275766,10.458173,18.503548,-19.474846,47.892384,-1.9524603,1.9758902,6.453417,-14.417625,-17.276182,26.751396,52.032516,-8.23801,3.6447036,-0.8837987
159,1.28865647315979,-42.011783599853516,78.26171875,-1.696292656447648,5.8593690288971105,149.0751873564795,-18.008852,6.349456,33.81691,28.113089,-16.036428,7.800192,-2.2981565,-2.556798,-29.595167,43.231995,-15.297646,7.3257704,4.725975,-0.9220361,7.801188,10.563327,18.189056,-19.336605,47.84891,-1.8629955,1.9484717,6.429142,-14.874462,-17.332766,26.96508,51.97116,-8.2243,3.6285877,-0.86512977
160,1.4770344495773315,-42.36357498168945,78.19984436035156,-1.6553200380551378,5.896208769035853,148.69214386678192,-18.30676,6.2981105,34.236183,28.214136,-15.984481,8.141152,-2.0250478,-2.139555,-29.214128,41.447777,-15.241817,7.1868124,4.8636923,-0.9571132,7.7975245,10.632269,17.869854,-19.227283,47.814976,-1.8208357,1.922379,6.4099455,-15.341556,-17.408714,27.178003,51.917423,-8.198779,3.612743,-0.840212
161,1.680090308189392,-42.72560501098633,78.13291931152344,-1.6327897800301938,5.918035744421067,148.3486694162981,-18.62144,6.2683377,34.62482,28.347593,-15.922022,8.448131,-1.7458616,-1.8098739,-28.938864,39.785793,-15.353854,6.62407,4.9780493,-0.9626879,7.822426,10.663416,17.55026,-19.14991,47.78636,-1.8555608,1.9027907,6.396513,-15.817566,-17.503551,27.385952,51.86112,-8.158448,3.5980935,-0.80508345
162,1.892861008644104,-43.09148025512695,78.0541763305664,-1.6227419506896508,5.928407827841692,148.04053415520087,-18.951738,6.253286,34.98829,28.506224,-15.852489,8.73942,-1.4686044,-1.5502137,-28.752048,38.181583,-15.601559,5.7610736,5.07255,-0.9439481,7.869429,10.663732,17.230667,-19.096058,47.757713,-1.9372697,1.8880384,6.38474,-16.300018,-17.617231,27.586111,51.79953,-8.10271,3.5837266,-0.76160175
163,2.1110007762908936,-43.45977783203125,77.9676742553711,-1.6163246834671894,5.929230551109031,147.76358664666523,-19.29928,6.2436724,35.32543,28.69443,-15.787473,9.04254,-1.1954831,-1.3194196,-28.592474,36.66077,-15.998247,4.825144,5.151983,-0.9093739,7.93096,10.638697,16.91566,-19.065819,47.728664,-2.026077,1.8689096,6.373919,-16.785261,-17.748358,27.780947,51.74689,-8.046494,3.5682492,-0.71591854
164,2.32273268699646,-43.83905792236328,77.86943817138672,-1.6025293201150959,5.922466089358123,147.51347586773704,-19.664965,6.2273116,35.636505,28.914562,-15.738337,9.385211,-0.9223547,-1.0853244,-28.396242,35.24225,-16.547459,4.037833,5.2217336,-0.87088776,8.000247,10.594076,16.612823,-19.060541,47.69752,-2.0837727,1.8364098,6.3630233,-17.27164,-17.894691,27.974724,51.71814,-8.001336,3.5502007,-0.674326
165,2.5393788814544678,-44.21751022338867,77.76551818847656,-1.561347417983611,5.907552226892747,147.28842931330868,-20.04755,6.1810803,35.934937,29.16852,-15.725241,9.810595,-0.6558977,-0.86538863,-28.105637,33.97708,-17.320042,3.4475884,5.2824636,-0.85065293,8.076095,10.5378685,16.326859,-19.081173,47.66127,-2.107515,1.7851793,6.3505435,-17.761318,-18.054605,28.16807,51.711952,-7.9791503,3.5303288,-0.63631934
166,2.7793521881103516,-44.59907531738281,77.6598129272461,-1.5032843000218925,5.884014987912978,147.09062036671457,-20.447618,6.1180778,36.21688,29.454985,-15.736589,10.291642,-0.39510036,-0.66795784,-27.765226,32.832844,-18.286201,2.9448068,5.332592,-0.8395014,8.162573,10.468227,16.058357,-19.127068,47.616856,-2.1169877,1.7214332,6.3365083,-18.25229,-18.226585,28.355246,51.720467,-7.973821,3.5089576,-0.59924763
167,3.0220253467559814,-44.972110748291016,77.5503158569336,-1.4614575444181743,5.853524922347915,146.92243293592338,-20.864515,6.075036,36.458637,29.763609,-15.731809,10.751732,-0.12064671,-0.45507205,-27.465887,31.70313,-19.292467,2.5069149,5.3727436,-0.8049026,8.260469,10.37711,15.809294,-19.195057,47.561874,-2.1065388,1.6536211,6.322387,-18.746233,-18.410328,28.53988,51.75621,-7.96027,3.4833927,-0.5666522
168,3.2807066440582275,-45.34446334838867,77.44660186767578,-1.4688883384428264,5.817882536901653,146.78623948825015,-21.295351,6.0850577,36.63625,30.0776,-15.66686,11.115148,0.18962027,-0.18779169,-27.299055,30.477644,-20.183197,2.1082919,5.4036894,-0.7143875,8.37113,10.256407,15.582101,-19.282425,47.49291,-2.0713766,1.5901966,6.3093996,-19.240963,-18.605219,28.721266,51.828724,-7.916667,3.451325,-0.54190755
169,3.540146827697754,-45.71299362182617,77.34929656982422,-1.547358773586027,5.777344830182547,146.67388316320302,-21.745821,6.1807494,36.74348,30.408886,-15.554789,11.35263,0.56052196,0.16811298,-27.306469,29.092756,-20.934816,1.7511083,5.4293246,-0.54922116,8.496015,10.100551,15.379352,-19.39206,47.40821,-2.02463,1.530423,6.2888823,-19.75144,-18.81208,28.912388,51.94201,-7.8294907,3.4087138,-0.5210282
170,3.815805196762085,-46.09998321533203,77.250732421875,-1.6718371512276753,5.731158321187269,146.58710581687396,-22.209715,6.327916,36.792805,30.744856,-15.401493,11.509694,0.9803957,0.58397186,-27.43317,27.60339,-21.614988,1.4448313,5.4481797,-0.33460888,8.634705,9.916203,15.201512,-19.52399,47.30787,-1.9653164,1.4709296,6.2627196,-20.275255,-19.031246,29.11005,52.09085,-7.710632,3.358006,-0.5040087
171,4.109106063842773,-46.48580551147461,77.16663360595703,-1.804832768533381,5.6783071544228,146.54150960405596,-22.684866,6.477383,36.796246,31.087683,-15.184623,11.615941,1.4050419,0.9992629,-27.628021,26.108047,-22.22396,1.1750633,5.4533553,-0.10373968,8.785237,9.714857,15.04687,-19.670458,47.191074,-1.8646458,1.4162548,6.2483106,-20.780302,-19.260956,29.284113,52.269913,-7.584589,3.3062131,-0.49991342
172,4.382290840148926,-46.85696029663086,77.08248138427734,-1.9108800825500012,5.618056498349515,146.55322247231143,-23.166737,6.5817995,36.763645,31.432945,-14.876721,11.701227,1.7910522,1.3556893,-27.842108,24.704172,-22.76182,0.9283566,5.437661,0.11188763,8.945171,9.507637,14.912886,-19.823692,47.05838,-1.694333,1.3709519,6.2632995,-21.235962,-19.49906,29.405613,52.47607,-7.47559,3.2603848,-0.5181447
173,4.650716304779053,-47.2233772277832,76.99593353271484,-1.9877901617807894,5.547017220153883,146.6345991594592,-23.660345,6.639977,36.677265,31.803429,-14.496949,11.773364,2.1445658,1.6534072,-28.086277,23.389692,-23.232283,0.70264566,5.3913274,0.30794746,9.114766,9.2992325,14.801217,-19.983492,46.90681,-1.4269656,1.3364193,6.3183126,-21.643099,-19.743084,29.472996,52.71656,-7.379021,3.222975,-0.5652782
174,4.932149410247803,-47.597591400146484,76.92028045654297,-2.051587685844102,5.46709666556526,146.7743665786333,-24.163958,6.6666327,36.53794,32.18276,-14.044163,11.8160305,2.484472,1.9214038,-28.381908,22.115776,-23.630838,0.5068144,5.320998,0.49836814,9.294947,9.08356,14.712674,-20.153292,46.73664,-1.0842626,1.3106916,6.401884,-22.01181,-19.991842,29.49405,52.98978,-7.2922597,3.189998,-0.6351627
175,5.2237725257873535,-47.98269271850586,76.85750579833984,-2.097656597011019,5.385135175331431,146.95295908684997,-24.674345,6.6663494,36.388405,32.555134,-13.488577,11.815825,2.7702186,2.134522,-28.700016,20.95196,-23.967297,0.34436244,5.2410226,0.6823992,9.482537,8.8540535,14.642665,-20.331905,46.557465,-0.712738,1.2928437,6.4999247,-22.344742,-20.251316,29.478327,53.29669,-7.217771,3.1579125,-0.7189025
176,5.50626277923584,-48.384796142578125,76.8054428100586,-2.124224550952315,5.307552925549163,147.15127553200634,-25.187506,6.6405363,36.26841,32.899323,-12.7975,11.7594385,2.959391,2.2670045,-29.011538,19.975216,-24.253666,0.21453881,5.1674824,0.86555964,9.675738,8.600722,14.582465,-20.518353,46.38032,-0.35668427,1.2816039,6.5984006,-22.62949,-20.529318,29.420584,53.62326,-7.1731896,3.1241837,-0.8063765
177,5.791171073913574,-48.7902946472168,76.76766967773438,-2.129808343451013,5.235251827435478,147.36759465599224,-25.710337,6.601966,36.225697,33.23683,-11.9647045,11.697249,3.0398817,2.3072076,-29.307217,19.201826,-24.496748,0.11306309,5.104986,1.054849,9.871915,8.304217,14.52328,-20.716063,46.216866,-0.04079738,1.2871107,6.688366,-22.868958,-20.834581,29.31795,53.975006,-7.1775203,3.0882,-0.90206015
178,6.079619884490967,-49.211727142333984,76.74610137939453,-2.1206688843531687,5.1643026962317125,147.61169893586708,-26.244194,6.549646,36.221935,33.57096,-11.006745,11.6148615,3.0295272,2.269371,-29.605429,18.607239,-24.695013,0.03600815,5.0456634,1.2558484,10.072982,7.9682136,14.463288,-20.925665,46.06646,0.26549697,1.3060824,6.780301,-23.062155,-21.171383,29.174612,54.348667,-7.213995,3.0520225,-1.0080299
179,6.366205215454102,-49.626224517822266,76.7403335571289,-2.1055963904467494,5.094364690193005,147.88229236754802,-26.780594,6.4712257,36.16312,33.864517,-9.931968,11.398609,2.9401162,2.1682458,-29.917225,18.184515,-24.845139,-0.019082485,4.985337,1.4702241,10.283285,7.616297,14.406789,-21.143904,45.922592,0.59761494,1.316802,6.88941,-23.192678,-21.539387,28.995255,54.72008,-7.2481375,3.016673,-1.1107793
180,6.654831886291504,-50.05554962158203,76.74751281738281,-2.092705760190042,5.024843359512353,148.17825379690058,-27.312357,6.347623,35.951576,34.078735,-8.750212,10.931419,2.7827418,2.0179121,-30.253014,17.927689,-24.944382,-0.054526232,4.9204144,1.6966428,10.507773,7.27614,14.361095,-21.367275,45.773327,0.9905942,1.2980592,7.0300994,-23.240221,-21.933437,28.776846,55.062347,-7.2523284,2.982942,-1.1967446
181,6.946332931518555,-50.49610137939453,76.76515197753906,-2.0812636737667365,4.958439882855946,148.50729336303723,-27.842731,6.192244,35.64032,34.228058,-7.4267383,10.234399,2.5266166,1.7962289,-30.624962,17.904623,-24.997458,-0.07095163,4.846527,1.9339744,10.752515,6.945295,14.332364,-21.597322,45.61365,1.4768193,1.231081,7.2093496,-23.204948,-22.350136,28.50584,55.37108,-7.209061,2.9482458,-1.2675208
182,7.2312912940979,-50.90907669067383,76.80243682861328,-2.0687031961963296,4.894320435654756,148.86766101652853,-28.375072,5.9997764,35.241592,34.317955,-5.9757752,9.338876,2.176778,1.5005395,-31.022387,18.099878,-25.006193,-0.07174963,4.766654,2.1806521,11.013986,6.6160135,14.321574,-21.835667,45.44418,2.0276034,1.1328332,7.4180512,-23.094204,-22.789078,28.182611,55.658993,-7.1401777,2.9127092,-1.3285756
183,7.511658191680908,-51.34580612182617,76.86017608642578,-2.061034079222163,4.82775124634179,149.24476115494593,-28.90276,5.720624,34.5926,34.301834,-4.4922123,8.138587,1.795417,1.17267,-31.423601,18.391052,-24.968481,-0.061797973,4.6864133,2.4336526,11.282075,6.310883,14.327327,-22.077297,45.259407,2.5886662,1.0362235,7.6463475,-22.908705,-23.248714,27.838398,55.932964,-7.058367,2.8807979,-1.3729466
184,7.790804862976074,-51.79331970214844,76.92754364013672,-2.063833696659006,4.75382636389273,149.62398375099986,-29.411661,5.30241,33.53056,34.13219,-3.0814674,6.5254855,1.4455098,0.856922,-31.808159,18.65123,-24.879644,-0.04458161,4.608562,2.6897361,11.545455,6.053152,14.346938,-22.314983,45.05594,3.1057234,0.9735743,7.883847,-22.658155,-23.7279,27.514381,56.208923,-6.9724874,2.856815,-1.3943313
185,8.052518844604492,-52.23866271972656,76.99842834472656,-2.085664958877126,4.665857715039995,150.00116398730003,-29.876858,4.6766906,31.918762,33.72302,-1.7443478,4.2767296,1.1232435,0.55644286,-32.162308,18.902983,-24.736954,-0.01910339,4.530801,2.9642727,11.809347,5.847422,14.378632,-22.560843,44.829212,3.6098413,0.9576765,8.158543,-22.342527,-24.226269,27.214457,56.489174,-6.8845997,2.8424728,-1.3952093
186,8.307849884033203,-52.658729553222656,77.06624603271484,-2.121226444722759,4.567499602894525,150.384157028349,-30.282534,3.873166,29.870619,33.12301,-0.50865066,1.5038812,0.8034756,0.25015262,-32.499226,19.194319,-24.543068,0.015560359,4.4510865,3.2535768,12.077024,5.6822457,14.421956,-22.812466,44.58375,4.1160316,0.97051585,8.465421,-21.966875,-24.744133,26.929298,56.77448,-6.7793016,2.83492,-1.3783056
187,8.555974006652832,-53.073699951171875,77.1365737915039,-2.1554325014654454,4.469358664658636,150.77632421043248,-30.632595,3.0004768,27.613829,32.500763,0.4937965,-1.3870916,0.51336277,-0.0544746,-32.8407,19.443256,-24.304184,0.058196824,4.369929,3.529175,12.334671,5.5557513,14.474966,-23.041862,44.331947,4.543587,0.99541795,8.743935,-21.515099,-25.27378,26.634089,57.051987,-6.692557,2.833646,-1.3360585
188,8.79360294342041,-53.476898193359375,77.21540069580078,-2.173011618318102,4.382652370903969,151.18085522958984,-30.95046,2.167629,25.380442,32.017242,1.1932104,-3.9868073,0.27906263,-0.34884986,-33.207775,19.567581,-24.026802,0.10606268,4.286451,3.7612376,12.566792,5.468456,14.535747,-23.21811,44.085396,4.814049,1.0141193,8.934079,-20.989326,-25.804272,26.32623,57.326984,-6.6387396,2.8370824,-1.2625154
189,9.021592140197754,-53.874839782714844,77.29859161376953,-2.175216223258648,4.302648806351716,151.6148863304998,-31.263437,1.3089905,23.041134,31.663916,1.607657,-6.304205,0.13041423,-0.62137717,-33.62986,19.523142,-23.702402,0.16249312,4.188698,3.9459443,12.772079,5.4278708,14.605898,-23.32649,43.840378,4.880799,1.0208782,9.010969,-20.380573,-26.32579,26.007097,57.609173,-6.636757,2.842845,-1.1424711
190,9.243188858032227,-54.26162338256836,77.39323425292969,-2.1682816757720986,4.225271515058498,152.07013882410055,-31.540506,0.4037774,20.556532,31.380568,1.7600406,-8.502524,0.04618378,-0.8786381,-34.08538,19.361166,-23.331942,0.2262735,4.077612,4.0947876,12.956391,5.434847,14.68716,-23.38071,43.592632,4.794672,1.0242107,9.009889,-19.709646,-26.835714,25.69452,57.91449,-6.6627417,2.8515203,-0.9859386
191,9.458006858825684,-54.64536666870117,77.48934173583984,-2.143870921000538,4.164130921475484,152.51358238341072,-31.758478,-0.3702326,18.287586,31.244572,1.6704924,-10.402274,-0.027076514,-1.145019,-34.527287,19.149008,-22.934006,0.29705757,3.9697886,4.2055283,13.113619,5.4780955,14.774853,-23.391825,43.354214,4.6226144,1.0272617,8.960553,-18.985111,-27.327133,25.362343,58.22585,-6.7169037,2.867629,-0.8226485
192,9.66065788269043,-55.02635192871094,77.5970687866211,-2.0937020902200003,4.133889144786667,152.91358697685394,-31.92068,-0.83062506,16.583582,31.326654,1.4055617,-11.830172,-0.14402887,-1.4452358,-34.90906,18.95417,-22.52786,0.3735967,3.8818173,4.2755017,13.234789,5.542597,14.862059,-23.372957,43.143475,4.43133,1.0327941,8.894132,-18.23731,-27.796038,25.009832,58.546227,-6.7751603,2.8950894,-0.6834997
193,9.854836463928223,-55.39710998535156,77.71310424804688,-2.0135881577391808,4.140876824544514,153.26601404543146,-32.0658,-0.95717895,15.468458,31.655582,1.0256714,-12.750863,-0.3075973,-1.7786653,-35.22175,18.76346,-22.102665,0.4563901,3.8199325,4.302727,13.310973,5.6282864,14.943062,-23.319923,42.96834,4.2192883,1.0464001,8.812133,-17.456633,-28.237452,24.635323,58.88409,-6.8489466,2.9361353,-0.5762506
194,10.02686595916748,-55.77330017089844,77.8231201171875,-1.9099286765364514,4.176744995375167,153.58662026990882,-32.205616,-0.8319372,14.765133,32.17702,0.55120176,-13.256017,-0.4927433,-2.132111,-35.488495,18.54896,-21.65241,0.5454627,3.7725608,4.291744,13.345109,5.7380075,15.017169,-23.227842,42.82774,3.9575825,1.0650505,8.701676,-16.641848,-28.649794,24.24638,59.247726,-6.9448214,2.988074,-0.48549324
195,10.203229904174805,-56.14643859863281,77.94377899169922,-1.7914752006411405,4.234955448382682,153.87338561721407,-32.313316,-0.43309495,14.514185,32.829803,0.0049861134,-13.368336,-0.7121094,-2.5092087,-35.710968,18.354406,-21.202394,0.6381239,3.7315972,4.252651,13.348161,5.8652067,15.083765,-23.106825,42.719067,3.6767023,1.0787292,8.571039,-15.820443,-29.033527,23.842583,59.623756,-7.0399675,3.0480933,-0.40650383
196,10.370256423950195,-56.53365707397461,78.06047821044922,-1.666538837319579,4.308897985645577,154.124191904157,-32.358368,0.26289117,14.75808,33.556755,-0.60322523,-13.108779,-0.9773036,-2.91366,-35.8904,18.221542,-20.776766,0.73171026,3.6885242,4.1961627,13.331061,6.0016217,15.142107,-22.968523,42.641815,3.4048293,1.0771426,8.4284725,-15.002225,-29.38871,23.400501,59.98451,-7.1350136,3.1138985,-0.33349857
197,10.52743911743164,-56.91450881958008,78.17826843261719,-1.5325617343259619,4.403617102017763,154.3331737845647,-32.324814,1.3597994,15.680111,34.40964,-1.312094,-12.357588,-1.302255,-3.3508258,-36.01579,18.159649,-20.376404,0.8229225,3.6496913,4.118413,13.291723,6.1493387,15.190666,-22.806128,42.594517,3.117175,1.0513904,8.257377,-14.188334,-29.716223,22.909147,60.33024,-7.227407,3.1897166,-0.26466113
198,10.676466941833496,-57.29975891113281,78.28340148925781,-1.3895915087355237,4.51862540103644,154.50129961122227,-32.205902,2.8259242,17.188179,35.392235,-2.1394508,-11.151077,-1.6710869,-3.8089116,-36.087723,18.133698,-19.983616,0.91310084,3.6197507,4.020252,13.227554,6.3104386,15.228543,-22.618032,42.579082,2.8095894,1.0093912,8.059355,-13.364119,-30.014687,22.371721,60.664707,-7.3272395,3.2754471,-0.20221113
199,10.829127311706543,-57.68048095703125,78.3908920288086,-1.2460552871639594,4.6391636240604655,154.63742642543212,-31.985807,4.478957,18.919685,36.373985,-3.0406427,-9.745972,-2.0616975,-4.277086,-36.125385,18.144243,-19.6077,1.0077169,3.5889394,3.9122643,13.147855,6.473793,15.258867,-22.426443,42.602184,2.5404274,0.9656347,7.8711224,-12.548306,-30.287575,21.82496,60.99333,-7.4173927,3.361404,-0.14839111
200,10.966313362121582,-58.057456970214844,78.483642578125,-1.1091578073529873,4.752573300516878,154.75194374548545,-31.675852,6.1279707,20.519897,37.22681,-3.9419324,-8.396618,-2.4480186,-4.743881,-36.14996,18.179138,-19.250795,1.1123246,3.5454338,3.803454,13.061133,6.631251,15.285899,-22.251848,42.66641,2.3689237,0.93360454,7.728997,-11.748415,-30.539307,21.292692,61.310505,-7.492753,3.4380722,-0.10485178
201,11.092059135437012,-58.44416046142578,78.56693267822266,-0.9727339728492836,4.85990944890322,154.84038882883408,-31.27733,7.789079,22.033958,37.9537,-4.856201,-7.0716157,-2.8361466,-5.220128,-36.16285,18.25099,-18.91746,1.2328366,3.489775,3.6891224,12.9667,6.781303,15.312401,-22.10032,42.772232,2.344452,0.9219952,7.642732,-10.960893,-30.772217,20.769737,61.611507,-7.5541997,3.5038962,-0.07371853
202,11.203999519348145,-58.83513259887695,78.64089965820312,-0.8348299423909449,4.96711519974204,154.90045323213252,-30.782442,9.533694,23.61303,38.613224,-5.824433,-5.677729,-3.2327073,-5.7053976,-36.1543,18.351961,-18.600372,1.3648045,3.4278786,3.565557,12.862165,6.92933,15.338476,-21.962019,42.914085,2.4234948,0.92138636,7.5925307,-10.183176,-30.98678,20.2486,61.89786,-7.5994987,3.563702,-0.053053226
203,11.312904357910156,-59.22528076171875,78.71033477783203,-0.7061630384393188,5.0692039798869075,154.9457013931051,-30.226496,11.24701,25.066528,39.162354,-6.7722607,-4.366105,-3.6302109,-6.1881037,-36.12895,18.481598,-18.305344,1.4994401,3.3531072,3.4420276,12.751357,7.0791497,15.36395,-21.83106,43.086285,2.5266616,0.9180479,7.570303,-9.409522,-31.183039,19.73007,62.15943,-7.6407647,3.6178243,-0.037996005
204,11.416065216064453,-59.61368179321289,78.76764678955078,-0.5974593675351708,5.1615763024948915,154.99016397743452,-29.657263,12.81984,26.201986,39.557873,-7.606393,-3.2797017,-4.0194097,-6.655022,-36.092323,18.635689,-18.036701,1.6281546,3.2591853,3.3279378,12.637551,7.234519,15.388398,-21.701807,43.2826,2.5750387,0.8986083,7.567972,-8.639545,-31.361212,19.223032,62.39007,-7.6811857,3.6675122,-0.02387537
205,11.496682167053223,-59.99967956542969,78.816162109375,-0.5085153021651877,5.243564346345714,155.03322398142518,-29.094719,14.237434,26.972364,39.787502,-8.293132,-2.434401,-4.402762,-7.1084228,-36.038834,18.824972,-17.804674,1.7479513,3.1452243,3.2214258,12.521271,7.398458,15.411524,-21.576027,43.506866,2.5517943,0.8488498,7.5986037,-7.8743973,-31.520184,18.721416,62.59209,-7.722574,3.7096374,-0.008910316
206,11.577681541442871,-60.38452911376953,78.85591125488281,-0.4330687824720276,5.3183146790376234,155.06929307146982,-28.531265,15.5556555,27.483105,39.877457,-8.8645115,-1.7529484,-4.78397,-7.5547924,-35.96841,19.046091,-17.602917,1.8640561,3.0143025,3.1171331,12.399912,7.5675316,15.433851,-21.45621,43.7611,2.4974973,0.7795852,7.661614,-7.1168675,-31.660374,18.22812,62.76859,-7.759363,3.7461758,0.0039728093
207,11.647768020629883,-60.768348693847656,78.88719177246094,-0.3749669745559685,5.387216641966101,155.1050679313738,-27.98327,16.779184,27.763428,39.85169,-9.320742,-1.2327281,-5.1590095,-7.9901676,-35.895565,19.286644,-17.417929,1.9806688,2.8636904,3.021574,12.272524,7.738522,15.455292,-21.334433,44.034782,2.4211314,0.7145598,7.7277694,-6.3690715,-31.784895,17.759045,62.923393,-7.7922826,3.7775354,0.011614684
208,11.709159851074219,-61.14797592163086,78.91402435302734,-0.3381030108076871,5.451283299934412,155.1477152795155,-27.464354,17.91257,27.840992,39.736034,-9.665546,-0.87172216,-5.5239134,-8.410971,-35.835278,19.534689,-17.23674,2.1017327,2.691604,2.9418824,12.139377,7.906776,15.475716,-21.203615,44.31746,2.3311656,0.6774576,7.7680993,-5.642764,-31.899355,17.343584,63.067383,-7.8082166,3.804182,0.010596759
209,11.75678825378418,-61.542449951171875,78.92781829833984,-0.32904213629952395,5.511153944379296,155.1948645697796,-26.985651,18.938599,27.656181,39.511776,-9.866755,-0.7169477,-5.876895,-8.807387,-35.78908,19.783358,-17.052597,2.2263625,2.4928808,2.8835447,11.998534,8.073223,15.493937,-21.057798,44.611683,2.2172134,0.6847165,7.7700152,-4.9477425,-32.005676,17.002535,63.209045,-7.7937865,3.8214662,-0.009939153
210,11.800305366516113,-61.93560791015625,78.93291473388672,-0.3438643040398864,5.566365366195454,155.24414626531131,-26.54034,19.864746,27.213022,39.176388,-9.929244,-0.74590886,-6.22053,-9.1854105,-35.75092,20.041645,-16.87444,2.3533149,2.2729635,2.8456023,11.853762,8.238699,15.510513,-20.904501,44.917118,2.0783017,0.7202633,7.749542,-4.2627006,-32.11358,16.707796,63.32406,-7.7577534,3.8311439,-0.041409645
211,11.83539867401123,-62.33451461791992,78.93057250976562,-0.36978228810153135,5.616551234088234,155.30276915919407,-26.111532,20.729055,26.635107,38.77573,-9.913778,-0.8554871,-6.557742,-9.564391,-35.72166,20.320993,-16.71164,2.48591,2.0324972,2.8156965,11.705881,8.403673,15.523383,-20.744032,45.229034,1.9411422,0.75908613,7.7232122,-3.5983377,-32.216385,16.452192,63.42602,-7.717018,3.8411014,-0.06767385
212,11.867694854736328,-62.730987548828125,78.92173767089844,-0.3943841374138882,5.661431339534938,155.3778997824221,-25.682726,21.56878,26.047827,38.353775,-9.879665,-0.94500816,-6.8901887,-9.9626875,-35.702526,20.630493,-16.5725,2.627456,1.7745771,2.7837822,11.556738,8.567653,15.531704,-20.579311,45.54085,1.8307544,0.7762512,7.706682,-2.940473,-32.310146,16.203833,63.500885,-7.7035923,3.8632905,-0.06947068
213,11.883983612060547,-63.13050842285156,78.90326690673828,-0.41616350768963445,5.702492465934208,155.47139522342002,-25.259209,22.376385,25.431614,37.908516,-9.822975,-1.0133878,-7.2162824,-10.380446,-35.69968,20.965666,-16.462755,2.7803,1.4936438,2.7420783,11.399801,8.734928,15.534409,-20.407171,45.865578,1.7581854,0.7598312,7.709259,-2.3039327,-32.381294,15.971591,63.565468,-7.7241,3.901289,-0.03928973
214,11.888906478881836,-63.55511474609375,78.8770751953125,-0.4406989750179019,5.739648176614326,155.57974749593782,-24.846127,23.137688,24.73559,37.421825,-9.719882,-1.1046773,-7.5343504,-10.809509,-35.711014,21.321516,-16.375378,2.9422967,1.1907692,2.6963825,11.234639,8.903194,15.533717,-20.230202,46.203773,1.7061893,0.72507674,7.721751,-1.6885026,-32.432484,15.763986,63.620853,-7.765868,3.9490256,0.010827641
215,11.90225887298584,-63.96564865112305,78.84893798828125,-0.465644535198105,5.769312557022487,155.70124623367147,-24.431044,23.880247,24.040274,36.917686,-9.600725,-1.1881837,-7.8526235,-11.260351,-35.722744,21.720875,-16.307913,3.1102643,0.8853326,2.6562083,11.079651,9.059877,15.5318,-20.0543,46.525234,1.6685644,0.68729395,7.7296505,-1.0584989,-32.48972,15.548215,63.627464,-7.8220773,4.0016046,0.07183794
216,11.910882949829102,-64.38111114501953,78.81830596923828,-0.48846456800806265,5.788426852919241,155.83469766991362,-24.002823,24.630657,23.427021,36.420063,-9.494725,-1.2343514,-8.178744,-11.743244,-35.721226,22.18373,-16.25614,3.2809174,0.57171494,2.6148398,10.924624,9.209613,15.529693,-19.879848,46.819904,1.6294311,0.66236323,7.7294965,-0.4695227,-32.52854,15.372714,63.657352,-7.874914,4.0520434,0.115401946
217,11.90320873260498,-64.81433868408203,78.77814483642578,-0.5125598246073471,5.792173254726083,155.97813197583685,-23.55084,25.397324,22.90568,35.923107,-9.402331,-1.2438331,-8.515316,-12.258021,-35.699436,22.726192,-16.220999,3.4532135,0.2607177,2.5830364,10.7962675,9.347914,15.527717,-19.694939,47.062733,1.6004862,0.6576494,7.7043147,0.14639124,-32.576565,15.177354,63.62317,-7.949987,4.1052494,0.15136352
218,11.880528450012207,-65.25939178466797,78.73258972167969,-0.5376850387978929,5.783815963742424,156.13305188093608,-23.086807,26.165197,22.436508,35.421314,-9.311493,-1.2310951,-8.856829,-12.79893,-35.665382,23.329948,-16.201895,3.6290069,-0.054229412,2.5588405,10.678177,9.478728,15.525366,-19.51173,47.274494,1.5747968,0.6635712,7.666203,0.7560118,-32.629063,14.996054,63.566757,-8.031777,4.160686,0.18500254
219,11.865763664245605,-65.69966888427734,78.67961883544922,-0.5564446781869022,5.770745861815581,156.30266624897894,-22.630648,26.924463,22.028059,34.93311,-9.230305,-1.1886528,-9.1996975,-13.36872,-35.628185,23.96779,-16.195236,3.8092918,-0.375609,2.5308847,10.560369,9.599662,15.523465,-19.330256,47.46375,1.5537579,0.670548,7.6282983,1.3468482,-32.670063,14.831521,63.505962,-8.109642,4.212692,0.20999807
220,11.83855152130127,-66.14490509033203,78.62336730957031,-0.5612135034136692,5.760660441620399,156.48999403133806,-22.200756,27.66492,21.689814,34.474308,-9.165485,-1.1088142,-9.538892,-13.9690485,-35.59688,24.607979,-16.194975,3.995241,-0.7013437,2.4904,10.42197,9.703976,15.52347,-19.173046,47.650883,1.5242866,0.6688971,7.6103816,1.8880255,-32.684307,14.709996,63.488052,-8.154691,4.254657,0.21811591
221,11.799511909484863,-66.60391235351562,78.5584716796875,-0.550738555366903,5.7526017571080565,156.69841782816653,-21.788366,28.39383,21.440763,34.037315,-9.14691,-0.98306996,-9.870305,-14.599837,-35.57427,25.246304,-16.204971,4.185786,-1.023978,2.4391067,10.305706,9.784497,15.528673,-18.996553,47.802734,1.521728,0.6555616,7.5942316,2.4709892,-32.700523,14.529403,63.38289,-8.20185,4.2864156,0.22322488
222,11.758744239807129,-67.0718765258789,78.49337768554688,-0.52878719160396,5.74395111306139,156.92562009508495,-21.388857,29.111109,21.270687,33.61645,-9.1615715,-0.8199049,-10.196035,-15.259425,-35.5557,25.894327,-16.224697,4.3807726,-1.3345742,2.3828673,10.19249,9.839891,15.543366,-18.843916,47.934456,1.5173683,0.63661224,7.5862565,3.0740519,-32.715073,14.324912,63.237534,-8.236499,4.308588,0.22175673
223,11.719218254089355,-67.5458755493164,78.42745208740234,-0.495205783107081,5.737746403986071,157.16641531753157,-21.02711,29.796436,21.143236,33.2348,-9.153371,-0.63528234,-10.521522,-15.948539,-35.538345,26.548798,-16.244944,4.5827484,-1.6500943,2.322122,10.0610485,9.883522,15.557606,-18.71213,48.053623,1.5052259,0.61238253,7.5899835,3.625001,-32.71569,14.169116,63.135574,-8.242037,4.3245697,0.21153179
224,11.673242568969727,-68.04004669189453,78.35292053222656,-0.44965936585128946,5.736465657062971,157.41498704758843,-20.719995,30.42859,21.025444,32.90513,-9.064473,-0.4426425,-10.853358,-16.668892,-35.517784,27.210583,-16.253704,4.7941833,-1.937125,2.2556965,9.948197,9.896512,15.585012,-18.592924,48.127113,1.5098196,0.5842974,7.585601,4.210552,-32.706337,13.964812,62.974464,-8.260785,4.3402534,0.20661402
225,11.625639915466309,-68.53911590576172,78.27458953857422,-0.3888503293226808,5.744335462102093,157.6723246196634,-20.474953,31.027355,20.953363,32.65277,-8.92518,-0.20409921,-11.200421,-17.42944,-35.494537,27.890324,-16.256107,5.016264,-2.192529,2.1786747,9.828942,9.885327,15.635883,-18.517488,48.163532,1.5022869,0.5442711,7.5885386,4.8057327,-32.678684,13.738056,62.80093,-8.2813425,4.353783,0.20185366
226,11.559348106384277,-69.06101989746094,78.18344116210938,-0.3140054076022832,5.758489169001588,157.94050428938067,-20.279844,31.59562,20.929707,32.463543,-8.752918,0.075615324,-11.557301,-18.226303,-35.468925,28.585041,-16.25536,5.2474475,-2.4512506,2.0954788,9.697865,9.864742,15.68633,-18.452593,48.17266,1.4938701,0.4936703,7.6000896,5.362228,-32.640488,13.547077,62.649128,-8.286499,4.364013,0.192904
227,11.501667976379395,-69.57913970947266,78.10227966308594,-0.23154418198025456,5.772427159552883,158.21700848349826,-20.127356,32.08789,20.868698,32.296173,-8.465546,0.32218245,-11.906774,-19.041245,-35.440037,29.266417,-16.23712,5.4859595,-2.6773655,2.0028012,9.579509,9.812034,15.763777,-18.416386,48.14634,1.4928629,0.4510995,7.6005564,5.920181,-32.573616,13.331034,62.486767,-8.286086,4.370867,0.18354085
228,11.430466651916504,-70.1083755493164,78.01818084716797,-0.1484196619030071,5.779728953487079,158.49915277382033,-20.01507,32.460995,20.680544,32.116943,-7.9828506,0.46186543,-12.234409,-19.856928,-35.40656,29.91202,-16.190044,5.7300086,-2.8852694,1.9097931,9.479833,9.728066,15.858259,-18.390722,48.09127,1.5121697,0.43308404,7.575732,6.445799,-32.480568,13.120667,62.34405,-8.26683,4.374037,0.17668352
229,11.366031646728516,-70.63798522949219,77.93258666992188,-0.06618597359070039,5.779892918645832,158.787407092168,-19.938725,32.73336,20.375908,31.914843,-7.244232,0.49911475,-12.539984,-20.67063,-35.3696,30.522612,-16.110712,5.9838295,-3.0721,1.8181472,9.401404,9.605739,15.969463,-18.370434,48.00724,1.5586275,0.4508884,7.4961247,6.9424334,-32.361633,12.904909,62.2171,-8.217927,4.371685,0.17376082
230,11.294351577758789,-71.18661499023438,77.84004974365234,0.01899260805529679,5.775961759219425,159.08296480850183,-19.901396,32.917946,19.987316,31.712381,-6.3061924,0.46632692,-12.831767,-21.49189,-35.328876,31.110891,-16.006807,6.246644,-3.2394671,1.7262154,9.338723,9.447828,16.095366,-18.361588,47.895134,1.6241177,0.49281648,7.3784666,7.4149246,-32.21991,12.68655,62.100376,-8.144653,4.3646812,0.17358905
231,11.21703052520752,-71.74422454833984,77.75064086914062,0.10845278080330421,5.767573785729349,159.3841936695738,-19.897972,32.958813,19.463406,31.507822,-5.254307,0.32863528,-13.105256,-22.321487,-35.28278,31.665373,-15.879255,6.509046,-3.3874357,1.6306252,9.292089,9.264106,16.233704,-18.372646,47.756943,1.705672,0.5421483,7.276633,7.8595095,-32.056683,12.479228,61.999924,-8.069628,4.356335,0.17385793
232,11.135842323303223,-72.3129653930664,77.6541976928711,0.2044772093137851,5.754249137799013,159.68997573091693,-19.919401,32.79948,18.75374,31.296946,-4.174797,0.04699264,-13.356587,-23.161427,-35.228756,32.17748,-15.730198,6.7623386,-3.522849,1.535619,9.2616825,9.060539,16.368977,-18.408154,47.602154,1.8012457,0.5812814,7.2455335,8.262706,-31.887323,12.311795,61.92801,-8.004048,4.349138,0.1744858
233,11.050532341003418,-72.8955307006836,77.5564956665039,0.3197501211516373,5.7375704077522585,160.0062861271547,-20.049622,32.36169,17.649801,31.16178,-2.959139,-0.2501512,-13.593562,-24.031702,-35.162838,32.662426,-15.566427,7.0085545,-3.6381001,1.4156493,9.246229,8.837493,16.522581,-18.48517,47.416996,1.9233118,0.60873646,7.3200808,8.629344,-31.684166,12.170867,61.891346,-7.953931,4.3462777,0.17189486
234,10.954059600830078,-73.49150085449219,77.45967864990234,0.4517475931353038,5.717456670447586,160.3328443375457,-20.243654,31.683788,16.251059,31.061657,-1.6039284,-0.61155576,-13.815882,-24.92802,-35.08678,33.119144,-15.384184,7.251852,-3.7419116,1.2825375,9.24512,8.591633,16.680233,-18.589325,47.20709,2.0720093,0.6323417,7.4649277,8.953378,-31.466301,12.064546,61.88839,-7.9014177,4.34498,0.16971515
235,10.85425090789795,-74.10659790039062,77.3642807006836,0.5782536474056101,5.690330813436703,160.65743819630652,-20.307682,30.89441,14.959659,30.81246,-0.36707437,-1.3260021,-14.009227,-25.816456,-35.006046,33.518833,-15.173105,7.486666,-3.8272314,1.1574202,9.260757,8.325414,16.837608,-18.70764,46.988422,2.2125688,0.65254015,7.6271086,9.246523,-31.236372,11.983748,61.89615,-7.8720374,4.345683,0.16424754
236,10.748394966125488,-74.73808288574219,77.2669448852539,0.6737207943933122,5.65256409748272,160.96643454179468,-20.068634,30.139086,14.162485,30.240395,0.47967616,-2.6517391,-14.154947,-26.65636,-34.92909,33.827198,-14.920604,7.7066684,-3.8850605,1.0659668,9.297341,8.040045,16.98815,-18.827244,46.778564,2.311849,0.6692221,7.7541385,9.504598,-31.00179,11.934689,61.9098,-7.877474,4.3450685,0.15063374
237,10.626684188842773,-75.39447784423828,77.16141510009766,0.7133930726912218,5.591764415665444,161.25244726703747,-19.376362,29.460312,14.045167,29.136469,0.86010355,-5.003139,-14.23755,-27.427681,-34.862537,34.055466,-14.627669,7.923032,-3.9086764,1.0387945,9.3644085,7.7393312,17.127111,-18.948362,46.570908,2.3542247,0.68094283,7.832845,9.734149,-30.76929,11.920681,61.929657,-7.935147,4.34837,0.1341412
238,10.498948097229004,-76.06485748291016,77.04547119140625,0.7072201262191486,5.512683424987561,161.521474777561,-18.372509,28.797258,14.395759,27.633976,0.9150352,-8.092015,-14.262989,-28.141697,-34.80667,34.20891,-14.298265,8.133583,-3.9026535,1.0673121,9.459284,7.418957,17.25287,-19.077087,46.36332,2.3605976,0.6878938,7.891557,9.934003,-30.54223,11.940295,61.95893,-8.029666,4.3547797,0.11625047
239,10.364197731018066,-76.75420379638672,76.93841552734375,0.6810626416030258,5.437878558798953,161.78016741948485,-17.341312,28.149035,14.9893055,26.101673,0.7040276,-11.117068,-14.248101,-28.806677,-34.759117,34.25297,-13.929326,8.311306,-3.8808594,1.1208906,9.565931,7.0740066,17.361753,-19.203285,46.176476,2.353546,0.6920177,7.939237,10.105494,-30.31618,11.9792385,61.97426,-8.139177,4.356444,0.08881758
