unveil-humanoid-operators/unveil-humanoid-operators.github.io/feature-analysis-animation/data/feature_matrix_instances/height_ankle_rom_walking_A146_crouch_ff_loop_180_R_003__A146.csv
Frame,root_translateX,root_translateY,root_translateZ,root_rotateX,root_rotateY,root_rotateZ,left_hip_pitch_joint_dof,left_hip_roll_joint_dof,left_hip_yaw_joint_dof,left_knee_joint_dof,left_ankle_pitch_joint_dof,left_ankle_roll_joint_dof,right_hip_pitch_joint_dof,right_hip_roll_joint_dof,right_hip_yaw_joint_dof,right_knee_joint_dof,right_ankle_pitch_joint_dof,right_ankle_roll_joint_dof,waist_yaw_joint_dof,waist_roll_joint_dof,waist_pitch_joint_dof,left_shoulder_pitch_joint_dof,left_shoulder_roll_joint_dof,left_shoulder_yaw_joint_dof,left_elbow_joint_dof,left_wrist_roll_joint_dof,left_wrist_pitch_joint_dof,left_wrist_yaw_joint_dof,right_shoulder_pitch_joint_dof,right_shoulder_roll_joint_dof,right_shoulder_yaw_joint_dof,right_elbow_joint_dof,right_wrist_roll_joint_dof,right_wrist_pitch_joint_dof,right_wrist_yaw_joint_dof
0,0.35867127776145935,0.12947948276996613,55.19951629638672,-8.028568339319126,30.01976859847084,95.38884870342486,-97.8609,6.87504,-11.671148,93.127716,-26.460695,-8.798388,-87.91291,-12.412932,7.4338665,119.42872,-17.218805,15.000033,8.249529,4.150796,29.793802,-82.03199,24.559053,-76.47138,37.354584,13.423622,-2.5201938,-1.6470047,-84.65785,-38.093536,90.50167,47.96145,-10.497913,-8.5612,-8.315673
1,0.2958512008190155,0.6116557121276855,55.23115539550781,-7.4759246349248265,30.063241695696824,96.03260595351603,-97.33196,6.568321,-11.203384,93.319046,-27.052887,-8.89049,-90.07701,-13.360009,8.503364,117.544846,-17.38569,15.000033,7.6223874,3.8715863,29.793802,-81.8123,24.404924,-76.87892,38.046257,13.606264,-2.7089725,-1.973678,-84.627556,-37.91002,90.68906,47.394016,-10.5145,-8.4325075,-8.788281
2,0.24740156531333923,1.090980052947998,55.24069595336914,-6.958681486693567,30.088760642403773,96.6718689129401,-96.793,6.2488823,-10.778023,93.51456,-27.649385,-8.991835,-92.23969,-14.330165,9.481866,115.72046,-17.631073,15.000033,6.9828286,3.603714,29.793802,-81.57213,24.331139,-77.29648,38.678528,13.804151,-2.9118505,-2.330715,-84.59641,-37.708534,90.879135,46.818474,-10.550525,-8.283432,-9.286874
3,0.23165538907051086,1.6025161743164062,55.24119567871094,-6.476110392223883,30.112996340751828,97.30495636853215,-96.2822,5.9220634,-10.397891,93.7337,-28.25202,-9.095792,-94.33628,-15.339156,10.349563,113.76322,-17.832724,15.000033,6.3433976,3.3722172,29.793802,-81.32533,24.320103,-77.69671,39.23437,13.9561,-3.0781174,-2.6300118,-84.57589,-37.49553,91.05577,46.265972,-10.546924,-8.177528,-9.735547
4,0.21755553781986237,2.1025631427764893,55.216712951660156,-6.026390451372623,30.154999865044264,97.92810319499459,-95.84104,5.5968347,-10.065783,93.99699,-28.862967,-9.196486,-96.29553,-16.401857,11.07484,111.47488,-17.8727,15.000033,5.722704,3.2022645,29.793802,-81.08749,24.353205,-78.05392,39.694828,14.002658,-3.1559455,-2.7834413,-84.580475,-37.286358,91.20471,45.760975,-10.445148,-8.178652,-10.058215
5,0.18345071375370026,2.576700210571289,55.161102294921875,-5.6066807132346135,30.225106292383572,98.53831828781622,-95.49035,5.2770634,-9.772154,94.31263,-29.482773,-9.282392,-98.126915,-17.56691,11.640281,108.7757,-17.723186,15.000033,5.135746,3.1165268,29.793802,-80.86566,24.410868,-78.36235,40.055897,13.878941,-3.0827944,-2.7049272,-84.62621,-37.1008,91.34286,45.300728,-10.115277,-8.327729,-10.2267275
6,0.17284923791885376,3.0624916553497314,55.08905029296875,-5.2262076122210726,30.315772616344166,99.1322279024962,-95.209435,4.9648542,-9.5246525,94.668625,-30.110094,-9.361974,-99.84402,-18.811045,12.033486,105.76854,-17.454437,15.000033,4.5937295,3.115685,29.793802,-80.661934,24.476551,-78.636604,40.338852,13.633024,-2.9046047,-2.46129,-84.69685,-36.95285,91.47284,44.86912,-9.627189,-8.581905,-10.281907
7,0.18048447370529175,3.563433885574341,55.005455017089844,-4.892264414685652,30.42128685392836,99.70640506697497,-94.97771,4.6688247,-9.34347,95.05353,-30.74408,-9.457834,-101.376884,-20.032146,12.244406,102.523026,-17.089651,15.000033,4.1055646,3.182253,29.793802,-80.481735,24.539562,-78.87964,40.56162,13.377954,-2.7294242,-2.1948445,-84.757484,-36.848907,91.55515,44.467155,-9.223941,-8.878578,-10.2527895
8,0.21116481721401215,4.065907955169678,54.91249084472656,-4.805915652040998,30.57534677322208,100.11359777288301,-94.8716,4.491597,-9.448423,95.4952,-31.38896,-9.642537,-102.635735,-21.189627,11.948416,99.03721,-16.604795,14.7643175,3.872758,3.4802468,29.793802,-80.40225,24.557278,-79.06837,40.69811,13.240405,-2.6668162,-2.0597138,-84.811844,-36.832424,91.56503,44.165653,-9.145943,-9.155269,-10.172347
9,0.2750959098339081,4.569172382354736,54.813934326171875,-4.716265526865551,30.743401890350214,100.52657635245045,-94.77065,4.3218813,-9.587498,95.92378,-32.033966,-9.881693,-103.67556,-22.361586,11.357202,95.33574,-16.013506,13.770418,3.6475043,3.743953,29.793802,-80.35798,24.574419,-79.261314,40.822144,13.209261,-2.7883055,-2.14317,-84.812775,-36.83977,91.45643,43.890697,-9.5735,-9.437447,-10.00327
10,0.3562971353530884,5.083420276641846,54.70802688598633,-4.597985809977068,30.922765891988444,100.96037301775117,-94.67805,4.147915,-9.7184,96.354485,-32.685814,-10.141776,-104.46229,-23.335667,10.800774,91.40158,-15.314159,13.007228,3.4218237,3.9844637,29.793802,-80.33033,24.589808,-79.41939,40.92351,13.251635,-3.0252228,-2.3612869,-84.77204,-36.885628,91.24217,43.6246,-10.353342,-9.747373,-9.739936
11,0.44608274102211,5.606168746948242,54.584537506103516,-4.4397742529380135,31.097958125500785,101.41945689737008,-94.58936,3.9820778,-9.822531,96.8041,-33.339375,-10.383963,-105.01685,-24.160244,10.308116,87.361404,-14.532841,12.508464,3.1777527,4.1836014,29.793802,-80.297485,24.601446,-79.567116,41.01864,13.347826,-3.2562368,-2.5330465,-84.69439,-36.985027,90.96373,43.31819,-11.201623,-10.0145445,-9.486276
12,0.5545971393585205,6.131763935089111,54.440887451171875,-4.230124839570204,31.25292921969678,101.9082329707316,-94.49924,3.837265,-9.879767,97.28855,-33.987217,-10.568931,-105.36564,-24.874441,9.874116,83.33783,-13.688567,12.274723,2.8884199,4.311755,29.793802,-80.23658,24.60631,-79.73154,41.136627,13.479638,-3.359704,-2.4785345,-84.58697,-37.112614,90.659966,42.95342,-11.836954,-10.167363,-9.340702
13,0.6934561133384705,6.657774925231934,54.27840805053711,-3.9475264715594918,31.38837510693164,102.43537992758186,-94.40563,3.6822658,-9.894396,97.804146,-34.62475,-10.68107,-105.47631,-25.434359,9.538382,79.205795,-12.696952,12.418109,2.51168,4.318244,29.793802,-80.13058,24.611097,-79.93768,41.31427,13.709583,-3.2533405,-2.0395281,-84.45144,-37.22547,90.300575,42.520157,-12.199693,-10.145886,-9.317708
14,0.8582608699798584,7.201668739318848,54.095375061035156,-3.5965404615285474,31.50620624865967,103.00143118283252,-94.30672,3.5175452,-9.867252,98.34423,-35.256477,-10.742559,-105.35714,-25.853685,9.311161,74.92828,-11.552488,12.871928,2.048918,4.2220345,29.793802,-79.98247,24.621178,-80.1516,41.538895,14.029312,-3.0169387,-1.3512098,-84.2928,-37.2834,89.897316,42.078705,-12.424159,-10.002134,-9.36919
15,1.023112416267395,7.752748489379883,53.89472198486328,-3.2065487862072075,31.594635451654465,103.59520698258977,-94.1989,3.4061847,-9.780868,98.92311,-35.890694,-10.774971,-105.10075,-26.243961,9.117673,70.78104,-10.404515,13.373031,1.556292,4.060255,29.793802,-79.82257,24.643696,-80.37877,41.76622,14.290049,-2.7687883,-0.6655028,-84.08813,-37.320007,89.45883,41.647404,-12.563964,-9.8294935,-9.484881
16,1.207228422164917,8.303854942321777,53.68026351928711,-2.8070286723899787,31.64344247799672,104.20229384653909,-94.07936,3.4144368,-9.617649,99.55399,-36.534153,-10.800571,-104.80734,-26.692322,8.868846,67.0587,-9.41286,13.670445,1.0830406,3.910896,29.793802,-79.664215,24.672327,-80.56113,41.94616,14.371773,-2.6378362,-0.24002247,-83.85037,-37.332756,89.08002,41.296223,-12.633275,-9.718534,-9.666587
17,1.4067115783691406,8.861431121826172,53.44695281982422,-2.396818595924619,31.647672352063584,104.82039720427782,-93.93314,3.5361514,-9.385674,100.23352,-37.201786,-10.833186,-104.43191,-27.233149,8.493482,63.66035,-8.664021,13.736631,0.63772595,3.7771142,29.793802,-79.51893,24.69906,-80.69179,42.073536,14.171603,-2.678064,-0.17818612,-83.560104,-37.32952,88.75742,41.028248,-12.600533,-9.693023,-9.981955
18,1.6281297206878662,9.425838470458984,53.192867279052734,-1.9660868639174773,31.613306759483443,105.45445697624588,-93.7654,3.7452037,-9.092251,100.95481,-37.884537,-10.858789,-103.95416,-27.801125,8.049137,60.495113,-8.059366,13.701331,0.19850658,3.621449,29.793802,-79.37839,24.729149,-80.80313,42.170902,13.774937,-2.8145664,-0.3308429,-83.218925,-37.311607,88.44623,40.807095,-12.471687,-9.706392,-10.406202
19,1.869990348815918,10.004613876342773,52.91659164428711,-1.528210388196421,31.54971374862594,106.09787615371414,-93.60418,4.0817986,-8.715539,101.73248,-38.558918,-10.856435,-103.53558,-28.333216,7.647165,57.913586,-7.493552,13.547451,-0.22572184,3.4681227,29.793802,-79.22626,24.76081,-80.883484,42.23804,13.355645,-2.986527,-0.5755383,-82.8699,-37.279556,88.184166,40.640045,-12.317987,-9.7404,-10.80699
20,2.1409261226654053,10.582402229309082,52.6222038269043,-1.096601329267893,31.468489862654422,106.74116496899623,-93.476814,4.5898314,-8.233889,102.57799,-39.20124,-10.805025,-103.35932,-28.778605,7.4162574,56.29211,-6.871558,13.2479,-0.6241334,3.3322043,29.793802,-79.05463,24.799318,-80.935425,42.27477,13.079579,-3.1339746,-0.7868606,-82.553665,-37.228134,87.99574,40.53879,-12.215869,-9.776616,-11.049607
21,2.4211056232452393,11.176029205322266,52.31053161621094,-0.6737587244987633,31.3902724880687,107.36237873054229,-93.401276,5.3313694,-7.5973787,103.495544,-39.810818,-10.686989,-103.49706,-29.167068,7.312092,55.85387,-6.186002,12.60396,-0.97018576,3.231681,29.793802,-78.859055,24.81621,-80.918625,42.30118,13.0059595,-3.269205,-0.9528211,-82.30132,-37.20305,87.904976,40.486794,-12.156881,-9.804953,-11.077107
22,2.718240261077881,11.764660835266113,51.969451904296875,-0.25262051116853323,31.304926418746003,107.97006862492725,-93.347885,6.272118,-6.832924,104.475464,-40.402576,-10.515553,-103.87334,-29.526566,7.3097553,56.382225,-5.497701,11.672586,-1.2802078,3.130819,29.793802,-78.64964,24.833027,-80.86556,42.312737,13.034282,-3.4135349,-1.1315516,-82.072845,-37.177685,87.85607,40.48527,-12.127756,-9.838908,-10.962077
23,3.0206878185272217,12.3446626663208,51.60565185546875,0.1617259013789081,31.178108594119262,108.60091528438478,-93.28335,7.308329,-6.0421243,105.51861,-40.976387,-10.314534,-104.44488,-29.801916,7.561807,57.592213,-4.8053064,10.80526,-1.5676233,3.0678217,29.793802,-78.440994,24.848328,-80.81915,42.270664,13.119136,-3.530533,-1.3058422,-81.835526,-37.15209,87.879105,40.539272,-12.138257,-9.882677,-10.785403
24,3.3481054306030273,12.915569305419922,51.221412658691406,0.5598239286561709,30.97628505246246,109.28937962225724,-93.18312,8.334626,-5.32696,106.62495,-41.526054,-10.108566,-105.16287,-29.91717,8.221982,59.19926,-4.0988326,10.37154,-1.8355733,3.0770414,29.793802,-78.25341,24.852968,-80.83391,42.13921,13.213421,-3.5813515,-1.4566957,-81.54585,-37.136745,87.98003,40.65036,-12.206781,-9.944139,-10.62379
25,3.718452215194702,13.536049842834473,50.809852600097656,0.9386916537371196,30.675300270454184,110.0578639140278,-93.04271,9.350952,-4.681666,107.82327,-42.044533,-9.870577,-106.067795,-29.716963,9.528101,61.32299,-3.2178926,10.633653,-2.0753756,3.1948388,29.793802,-78.087685,24.84158,-80.92765,41.873486,13.30222,-3.5250652,-1.5739913,-81.173096,-37.12648,88.18696,40.85821,-12.38504,-10.020624,-10.500217
26,4.101156234741211,14.152045249938965,50.393211364746094,1.2941858068286638,30.296147912246827,110.88067775625674,-92.87501,10.404377,-4.069639,109.10592,-42.537487,-9.596252,-107.12104,-29.240107,11.311019,64.03445,-2.2142189,11.377744,-2.2740529,3.410822,29.793802,-77.94282,24.77824,-81.07653,41.528324,13.408692,-3.3936255,-1.6659608,-80.73849,-37.134407,88.49246,41.15554,-12.641103,-10.109891,-10.377099
27,4.482741355895996,14.749677658081055,49.958534240722656,1.612284640667297,29.875309797598614,111.71671225912304,-92.69182,11.462759,-3.5430138,110.41146,-43.02112,-9.346301,-108.17346,-28.707413,13.121613,66.98647,-1.3969618,12.252581,-2.4385505,3.6809385,29.793802,-77.83295,24.640812,-81.2602,41.202568,13.543213,-3.2596438,-1.7467185,-80.28642,-37.185215,88.84874,41.466026,-12.8741665,-10.215423,-10.235345
28,4.868757724761963,15.336682319641113,49.51029968261719,1.891414232777421,29.450230850366758,112.52885590359584,-92.50466,12.492529,-3.1403527,111.67428,-43.511543,-9.182374,-109.13896,-28.398176,14.546895,69.840965,-1.0634403,12.852152,-2.6065784,3.9491963,29.793802,-77.75502,24.466068,-81.44761,40.9565,13.712723,-3.1930532,-1.8249102,-79.89602,-37.27149,89.26675,41.719017,-12.953229,-10.336733,-10.068026
29,5.262249946594238,15.941726684570312,49.05077362060547,2.133222085749497,29.016046966658518,113.3267476073397,-92.33299,13.4961605,-2.8667593,112.914406,-43.9964,-9.110342,-110.0865,-28.526213,15.448876,72.61916,-1.4538302,12.958209,-2.7948694,4.215608,29.793802,-77.695206,24.266792,-81.63716,40.796467,13.972839,-3.2431557,-1.9237816,-79.5931,-37.385643,89.80968,41.895714,-12.7272215,-10.478818,-9.862571
30,5.6703691482543945,16.55506706237793,48.584781646728516,2.339524084469179,28.558724362211183,114.1264692511326,-92.1692,14.4855,-2.6932027,114.1522,-44.47051,-9.099151,-111.06525,-28.940443,16.090137,75.46038,-2.3536196,12.79076,-2.9931507,4.497059,29.793802,-77.6522,24.048674,-81.83969,40.677635,14.299705,-3.3617225,-2.0308018,-79.341896,-37.523388,90.46314,42.032536,-12.298967,-10.638176,-9.626696
31,6.0716986656188965,17.1658992767334,48.1221809387207,2.5255798760178556,28.102464767340145,114.90374467077086,-91.98297,15.441925,-2.6060827,115.32616,-44.95918,-9.161854,-111.98962,-29.388319,16.670193,78.2232,-3.3765178,12.5851145,-3.193758,4.7638493,29.793802,-77.64047,23.819298,-82.03626,40.597076,14.589138,-3.4731302,-2.103057,-79.13253,-37.67972,91.12436,42.143723,-11.923349,-10.802336,-9.383065
32,6.455296516418457,17.77886199951172,47.67802810668945,2.706015323045278,27.671933055648047,115.63251640124662,-91.74312,16.34754,-2.5905843,116.376976,-45.48649,-9.31246,-112.758545,-29.59722,17.356369,80.7703,-4.130746,12.587953,-3.3908565,4.985052,29.793802,-77.68093,23.588182,-82.2129,40.54942,14.73129,-3.500596,-2.0990262,-78.95481,-37.848495,91.68759,42.243496,-11.85539,-10.9612255,-9.156007
33,6.817213535308838,18.406505584716797,47.26063537597656,2.853620579861315,27.265690640631664,116.2969473530601,-91.44628,17.222748,-2.669721,117.29643,-46.09284,-9.555913,-113.26598,-29.412664,18.18026,83.046196,-4.421755,12.945174,-3.5763044,5.1774435,29.793802,-77.80394,23.362894,-82.39519,40.50519,14.666506,-3.3868227,-2.0015829,-78.810715,-38.023106,92.140175,42.345226,-12.265938,-11.140891,-8.932436
34,7.180525302886963,19.034976959228516,46.8691520690918,2.972240372176749,26.875908986438002,116.91260592578476,-91.11346,18.072287,-2.8395593,118.113785,-46.75248,-9.886975,-113.57351,-28.989319,19.033009,85.139496,-4.494407,13.522526,-3.7591448,5.344053,29.793802,-77.98661,23.14836,-82.58199,40.46636,14.463277,-3.1844554,-1.8350608,-78.708755,-38.19783,92.53352,42.440636,-12.985273,-11.340501,-8.708271
35,7.543186664581299,19.652996063232422,46.49355697631836,3.1242137611651066,26.515927166628323,117.50071064826393,-90.75453,18.852423,-3.044565,118.82672,-47.38338,-10.304569,-113.83558,-28.510487,19.861378,87.13442,-4.6103277,14.1361885,-3.9619365,5.431091,29.793802,-78.17642,22.952082,-82.720474,40.478996,14.200702,-2.9819515,-1.62022,-78.64883,-38.36745,92.85812,42.509888,-13.760488,-11.50886,-8.520741
36,7.913674354553223,20.2741756439209,46.146732330322266,3.38008237574746,26.196656795651535,118.08547531105975,-90.37174,19.515991,-3.2243993,119.43304,-47.90832,-10.805703,-114.223946,-28.17782,20.628881,89.11163,-5.023012,14.582593,-4.211561,5.378239,29.793802,-78.31956,22.785812,-82.75316,40.595074,13.962884,-2.8671052,-1.3788239,-78.63666,-38.526505,93.108665,42.529755,-14.337577,-11.592392,-8.403748
37,8.279160499572754,20.901046752929688,45.82475280761719,3.7798962721619622,25.94211730485043,118.67048332521273,-89.96915,20.04111,-3.3472528,119.91602,-48.313763,-11.408007,-114.84442,-28.06464,21.34902,91.09076,-5.8368998,14.808736,-4.5238595,5.129309,29.793802,-78.39036,22.665482,-82.61353,40.856922,13.736684,-2.8791127,-1.075785,-78.67548,-38.6679,93.236244,42.492264,-14.743225,-11.54128,-8.384771
38,8.633649826049805,21.49751853942871,45.51667404174805,4.287131640336893,25.73534692883183,119.24575406929377,-89.54001,20.453342,-3.4443316,120.28024,-48.640255,-12.106029,-115.60032,-28.059542,22.072714,93.03275,-6.90272,14.930562,-4.8952847,4.717286,29.793802,-78.41757,22.604305,-82.34986,41.21618,13.491771,-2.9655163,-0.7140929,-78.765724,-38.779747,93.25562,42.41417,-15.08197,-11.394267,-8.437589
39,8.992165565490723,22.109376907348633,45.22386169433594,4.844567784280813,25.526219592961063,119.81202829023606,-89.069046,20.774206,-3.549009,120.56719,-48.892162,-12.861163,-116.36949,-28.102036,22.78964,94.92684,-8.088363,14.951545,-5.3195004,4.219437,29.793802,-78.43716,22.59939,-82.08011,41.598667,13.28005,-3.075491,-0.3729853,-78.91233,-38.856987,93.26564,42.307663,-15.213093,-11.230087,-8.516104
40,9.347390174865723,22.734424591064453,44.94636535644531,5.392979176638077,25.266300123000274,120.36963132888613,-88.54271,21.02642,-3.697206,120.81585,-49.07019,-13.635731,-117.021065,-28.132517,23.500586,96.76197,-9.263283,14.900042,-5.782552,3.7168202,29.793802,-78.48678,22.634087,-81.91751,41.946766,13.155055,-3.1580899,-0.13003977,-79.112434,-38.899963,93.360275,42.185093,-14.999407,-11.128748,-8.575542
41,9.70123291015625,23.34153938293457,44.68662643432617,5.927366926460776,24.933867311958142,120.92741849647668,-87.95938,21.189247,-3.918228,121.042145,-49.16149,-14.445279,-117.53494,-28.13069,24.217796,98.557724,-10.414014,14.745044,-6.3029437,3.207153,29.793802,-78.5755,22.721739,-81.8958,42.248814,13.166221,-3.210632,-0.024055926,-79.39922,-38.92196,93.620895,42.009346,-14.188641,-11.125123,-8.612471
42,10.044450759887695,23.927051544189453,44.45817947387695,6.567850939164818,24.569037633736215,121.5479009537878,-87.30891,21.225655,-3.9924686,121.19506,-49.14896,-15.000033,-118.05126,-28.123201,25.067972,100.30359,-11.579132,14.515634,-6.9786577,2.5617743,29.793802,-78.69411,22.89247,-81.94872,42.565422,13.273259,-3.2540913,-0.004851474,-79.80538,-38.90259,93.98321,41.754875,-12.926553,-11.172446,-8.647082
43,10.361539840698242,24.49437141418457,44.26907730102539,7.350756254033536,24.20429790868029,122.24687837218418,-86.58676,21.169392,-3.747806,121.24296,-49.04849,-15.000033,-118.600296,-28.114094,26.087957,101.95254,-12.725859,14.307837,-7.8159413,1.7812734,29.793802,-78.84256,23.137482,-82.020386,42.902016,13.401284,-3.276108,-0.022658668,-80.29789,-38.83155,94.34437,41.468693,-11.6647215,-11.226161,-8.672814
44,10.666969299316406,25.063180923461914,44.117958068847656,8.115052877066622,23.85020651206988,122.89589176343623,-85.81532,21.114058,-3.4855812,121.210144,-48.921856,-15.000033,-119.04624,-28.121914,27.032835,103.47773,-13.875744,14.156023,-8.625951,1.0458981,29.793802,-78.990005,23.441298,-82.06502,43.1698,13.473358,-3.265169,-0.031406313,-80.76505,-38.721836,94.60069,41.253845,-10.848869,-11.241713,-8.687657
45,10.951098442077637,25.632253646850586,44.00336837768555,8.854736701415735,23.507171246458025,123.49360456196763,-84.99705,21.052822,-3.2219522,121.09381,-48.76544,-15.000033,-119.37874,-28.166262,27.89069,104.8656,-15.036992,14.092847,-9.386916,0.38788626,29.793802,-79.14279,23.78368,-82.08471,43.361004,13.438777,-3.2051632,-0.041103277,-81.18415,-38.59201,94.72515,41.123352,-10.710886,-11.200798,-8.658531
46,11.224169731140137,26.192459106445312,43.92866516113281,9.578367532799964,23.163278806497228,124.05123220554688,-84.132195,20.963915,-2.9668024,120.900665,-48.56505,-15.000033,-119.61217,-28.24239,28.68753,106.14209,-16.213717,14.073864,-10.116022,-0.2154358,29.793802,-79.307785,24.151066,-82.10259,43.499363,13.348099,-3.1078432,-0.0693577,-81.578285,-38.454914,94.76802,41.042595,-10.973866,-11.128861,-8.597815
47,11.48630428314209,26.754802703857422,43.89284133911133,10.289933740738551,22.83221885869602,124.5635449117024,-83.22456,20.874395,-2.698125,120.63587,-48.34159,-15.000033,-119.76407,-28.328117,29.424255,107.31753,-17.387806,14.052462,-10.810381,-0.7786083,29.793802,-79.478836,24.536465,-82.09834,43.60274,13.274054,-3.002856,-0.07919741,-81.95647,-38.317944,94.74962,40.996967,-11.327319,-11.04395,-8.570906
48,11.731925964355469,27.33416175842285,43.89126968383789,10.992485464562332,22.527632849639343,125.02510765682833,-82.276764,20.810461,-2.3932433,120.2995,-48.11223,-15.000033,-119.85226,-28.3988,30.10185,108.40602,-18.539236,13.98307,-11.469928,-1.3185736,29.793802,-79.64957,24.939032,-82.0526,43.68712,13.2885,-2.9197273,-0.034309257,-82.33086,-38.1838,94.69096,40.97344,-11.456566,-10.963409,-8.644333
49,11.987102508544922,27.908405303955078,43.918758392333984,11.68871325559875,22.25659296698792,125.44224283633092,-81.28893,20.780922,-2.036605,119.88365,-47.890312,-15.000033,-119.87781,-28.444216,30.721401,109.41256,-19.663736,13.829474,-12.104612,-1.8369769,29.793802,-79.82509,25.360044,-81.96454,43.756542,13.43881,-2.866601,0.09051656,-82.70512,-38.054337,94.58168,40.98,-11.257695,-10.869691,-8.884658
50,12.211509704589844,28.477481842041016,43.97570037841797,12.376751000758876,22.012679956899557,125.81536174197248,-80.26217,20.769588,-1.6480746,119.38835,-47.658195,-15.000033,-119.83212,-28.482243,31.278706,110.32923,-20.771652,13.623364,-12.707473,-2.3208234,29.793802,-80.00547,25.797176,-81.84232,43.800606,13.678073,-2.8272316,0.27014986,-83.072464,-37.93324,94.41782,41.018047,-10.903658,-10.762482,-9.240567
51,12.424477577209473,29.053363800048828,44.0673828125,13.050030881335017,21.789988172642133,126.13057268489344,-79.19824,20.761574,-1.2543693,118.83453,-47.40171,-15.000033,-119.71179,-28.517817,31.761972,111.15361,-21.86531,13.423997,-13.255275,-2.7659702,29.793802,-80.17854,26.245306,-81.68254,43.812374,13.933453,-2.795099,0.4651058,-83.426285,-37.823517,94.22631,41.066223,-10.500036,-10.683876,-9.602004
52,12.634764671325684,29.629150390625,44.19742965698242,13.705037009538374,21.58272389649965,126.37460136283968,-78.09927,20.744555,-0.88139933,118.23988,-47.102886,-15.000033,-119.51673,-28.562717,32.16139,111.8823,-22.947115,13.288948,-13.725352,-3.1698833,29.793802,-80.33067,26.69746,-81.48033,43.787796,14.133724,-2.7644253,0.63614225,-83.76132,-37.727562,94.036575,41.102757,-10.151429,-10.673423,-9.8580265
53,12.841147422790527,30.211132049560547,44.34587478637695,14.337122702524015,21.39339727630872,126.54584460271543,-76.95454,20.72579,-0.52861905,117.58731,-46.799244,-15.000033,-119.25273,-28.631426,32.462452,112.50854,-24.018085,13.240927,-14.116981,-3.530971,29.793802,-80.466064,27.14866,-81.24108,43.732067,14.278314,-2.7511406,0.78319025,-84.09801,-37.647533,93.86717,41.125084,-9.825943,-10.772663,-9.979278
54,13.028650283813477,30.797470092773438,44.529998779296875,14.950864826247109,21.225985874050412,126.65127375383719,-75.76626,20.709297,-0.18360086,116.87321,-46.482613,-15.000033,-118.92038,-28.71717,32.672024,113.03646,-25.076588,13.243469,-14.438792,-3.8496246,29.793802,-80.58834,27.595572,-80.963936,43.65059,14.399077,-2.7530856,0.92421335,-84.42978,-37.585705,93.70062,41.142303,-9.485988,-10.948966,-10.023776
55,13.213475227355957,31.385719299316406,44.742618560791016,15.552630262378464,21.077746322302684,126.68988422733898,-74.55715,20.675701,0.14552936,116.139656,-46.083553,-15.000033,-118.51466,-28.796232,32.816372,113.47816,-26.119144,13.268728,-14.682375,-4.128914,29.793802,-80.68259,28.032703,-80.633156,43.54158,14.47513,-2.7380266,1.0468659,-84.7125,-37.543816,93.51129,41.148815,-9.235057,-11.128911,-10.011987
56,13.382513999938965,31.987079620361328,44.981117248535156,16.14752995615705,20.94619463474907,126.65983588663009,-73.35085,20.608925,0.4505277,115.42705,-45.527283,-15.000033,-118.03063,-28.845396,32.921223,113.84541,-27.142876,13.288321,-14.837671,-4.371329,29.793802,-80.73393,28.452581,-80.23438,43.403534,14.485056,-2.6739361,1.1387959,-84.9021,-37.522827,93.274185,41.137375,-9.177513,-11.239188,-9.965866
57,13.534439086914062,32.58493423461914,45.25257873535156,16.74046084247792,20.84023814133328,126.56093338745421,-72.122955,20.484219,0.74207914,114.70652,-44.866486,-15.000033,-117.46729,-28.856377,32.986816,114.13101,-28.146976,13.290629,-14.889233,-4.559901,29.793802,-80.747345,28.84673,-79.77137,43.216232,14.375138,-2.5291405,1.1870526,-84.96416,-37.527664,92.94072,41.103153,-9.412868,-11.240557,-9.8485155
58,13.672402381896973,33.206844329833984,45.54991912841797,17.327248978205038,20.75980681212922,126.39399945295484,-70.870514,20.321669,1.019912,113.968094,-44.113865,-15.000033,-116.828415,-28.842522,32.99989,114.33373,-29.134361,13.289136,-14.843216,-4.7010255,29.793802,-80.72812,29.209719,-79.251045,42.99629,14.172309,-2.3291135,1.2027489,-84.92868,-37.56058,92.537315,41.040947,-9.863316,-11.17948,-9.662509
59,13.808308601379395,33.81977462768555,45.87302017211914,17.900776159083414,20.68844935344921,126.16045607087936,-69.65194,20.163435,1.2633984,113.28773,-43.15165,-15.000033,-116.11256,-28.80596,32.967243,114.47227,-30.103289,13.297772,-14.725197,-4.83055,29.793802,-80.65967,29.54046,-78.65956,42.795933,13.976897,-2.1271365,1.2089741,-84.84247,-37.61426,92.14867,40.95161,-10.363124,-11.11049,-9.489556
60,13.935502052307129,34.47380828857422,46.21628952026367,18.456085530258182,20.61061822579454,125.86225784691881,-68.526855,20.053802,1.4534564,112.74046,-41.85629,-15.000033,-115.32165,-28.753704,32.896942,114.56624,-31.053791,13.329745,-14.563658,-4.9832325,29.793802,-80.52443,29.842024,-77.98112,42.66399,13.889536,-1.9763697,1.2279946,-84.7549,-37.67431,91.865974,40.84844,-10.744323,-11.086311,-9.412407
61,14.057710647583008,35.141937255859375,46.574928283691406,19.019740487005098,20.507238688063495,125.49218789428063,-67.42065,19.991837,1.631299,112.3094,-40.225258,-15.000033,-114.44988,-28.670992,32.828583,114.6196,-31.983578,13.411231,-14.386365,-5.2042384,29.793802,-80.2984,30.121878,-77.187416,42.64345,13.907266,-1.9104117,1.2437849,-84.678635,-37.72352,91.71947,40.728607,-10.94631,-11.124737,-9.4658375
62,14.177206039428711,35.805213928222656,46.94765090942383,19.58591873200613,20.39367262617292,125.05094556193333,-66.3333,19.954758,1.7905006,111.96886,-38.314182,-15.000033,-113.49869,-28.559383,32.7444,114.61962,-32.893513,13.524345,-14.180645,-5.4661894,29.793802,-79.99084,30.384798,-76.29229,42.69368,13.987066,-1.8940759,1.2524161,-84.586365,-37.7519,91.662506,40.607685,-11.063227,-11.196087,-9.602346
63,14.3049898147583,36.470550537109375,47.325965881347656,20.094292194217896,20.307327081183963,124.55135403164383,-65.44159,19.953184,1.8340987,111.78141,-36.08808,-15.000033,-112.47686,-28.441833,32.56209,114.57009,-33.788765,13.617123,-13.91044,-5.692718,29.793802,-79.63383,30.628035,-75.34371,42.739998,14.170431,-1.8774599,1.2927366,-84.47457,-37.758617,91.6757,40.527576,-11.159638,-11.281267,-9.780854
64,14.423425674438477,37.14344024658203,47.72379684448242,20.482394688239996,20.284740631356517,124.00624877767838,-64.925415,19.995634,1.6576226,111.813705,-33.507256,-15.000033,-111.39171,-28.33871,32.195984,114.47163,-34.673485,13.63761,-13.533791,-5.803629,29.793802,-79.26381,30.841335,-74.391396,42.71273,14.496953,-1.8106664,1.4021227,-84.33854,-37.751316,91.73734,40.523453,-11.301082,-11.36077,-9.960361
65,14.549551963806152,37.821109771728516,48.13095474243164,20.775476478730162,20.336571098603134,123.44890592227641,-64.813354,20.131897,1.3286843,112.09029,-30.457956,-15.000033,-110.26964,-28.255236,31.680622,114.308586,-35.546684,13.585726,-13.063099,-5.7974253,29.793802,-78.89958,31.01503,-73.418144,42.618248,15.000504,-1.6848058,1.6068072,-84.195656,-37.740067,91.84941,40.601414,-11.514504,-11.447327,-10.151638
66,14.685678482055664,38.50077819824219,48.534454345703125,20.98114584258637,20.443252410566238,122.85548568241842,-65.029045,20.319246,0.8318587,112.580475,-27.001617,-15.000033,-109.08735,-28.16808,31.025558,114.08357,-36.407207,13.480822,-12.497641,-5.699022,29.793802,-78.51906,31.142065,-72.40945,42.49,15.651242,-1.5233176,1.8792441,-84.03681,-37.729828,92.01727,40.738388,-11.7643585,-11.544568,-10.370028
67,14.830864906311035,39.18095397949219,48.941959381103516,21.006594315898653,20.595459542621356,122.15629898809229,-65.60228,20.378424,-0.07076942,113.26446,-23.344349,-15.000033,-107.77812,-28.048643,30.11087,113.82889,-37.25853,13.30237,-11.773396,-5.467642,29.793802,-78.109665,31.205706,-71.42976,42.31263,16.388288,-1.3247539,2.1756964,-83.819145,-37.72438,92.219666,40.92492,-12.019479,-11.620323,-10.57998
68,14.994428634643555,39.86088943481445,49.330936431884766,20.760449299813946,20.783814320635493,121.29319464283294,-66.56778,20.064165,-1.6189868,114.126656,-19.651382,-15.000033,-106.28294,-27.866444,28.824148,113.56963,-38.10052,13.030734,-10.837069,-5.050325,29.793802,-77.662025,31.203001,-70.53608,42.056595,17.152739,-1.0889885,2.4514601,-83.50468,-37.726494,92.43844,41.158566,-12.2495,-11.642625,-10.745581
69,15.150821685791016,40.53107833862305,49.728477478027344,20.522356246193695,20.976859836797516,120.45638781202678,-68.16494,19.826996,-3.0409348,115.24982,-15.141113,-12.627309,-104.83099,-27.65984,27.587664,113.280815,-38.859463,12.743689,-9.944795,-4.693912,29.793802,-77.24727,31.1536,-69.71237,41.810627,17.968721,-0.80199796,2.6862438,-83.20495,-37.7292,92.709305,41.373535,-12.433417,-11.574445,-10.851476
70,15.271158218383789,41.161766052246094,50.151329040527344,20.718013065509048,21.142874689021383,119.89901351381297,-70.39432,20.904448,-3.0006466,116.45972,-9.901971,-5.909369,-103.75329,-27.49756,27.021511,112.935684,-39.45871,12.581742,-9.447728,-4.7581944,29.793802,-76.92932,31.100698,-68.882164,41.698715,18.881765,-0.46671554,2.9144917,-83.07558,-37.705746,93.06031,41.486164,-12.586427,-11.434545,-10.917371
71,15.392901420593262,41.806644439697266,50.553749084472656,20.787636788759364,21.333634036569993,119.25548632498035,-72.8232,22.58403,-2.830432,117.593254,-5.5634313,1.314657,-102.62221,-27.276125,26.314764,112.583275,-40.01521,12.400654,-8.845505,-4.7596707,29.793802,-76.594284,31.045279,-68.12837,41.52146,19.807806,-0.108186886,3.1602373,-82.89831,-37.658344,93.391975,41.63163,-12.735747,-11.289274,-10.959674
72,15.494023323059082,42.429412841796875,50.93233108520508,20.848929450793438,21.549469117556946,118.64175012738818,-74.86855,23.87685,-2.5247638,118.29476,-3.3801105,6.880857,-101.56045,-27.051252,25.64547,112.22158,-40.50767,12.267827,-8.252719,-4.746943,29.793802,-76.282555,30.976334,-67.43068,41.31514,20.717268,0.24642542,3.4588535,-82.72936,-37.589676,93.67252,41.810112,-12.895092,-11.191767,-10.997816
73,15.585846900939941,43.01624298095703,51.321434020996094,21.06592775731544,21.794972612306555,118.2193987356749,-76.24697,23.653227,-2.1310804,118.45781,-3.9739861,9.404785,-100.728676,-26.921938,25.233755,111.83632,-40.891235,12.240728,-7.8336205,-4.840967,29.793802,-76.05516,30.909729,-66.80096,41.108646,21.680433,0.6313804,3.8514662,-82.63565,-37.513702,93.86861,41.987698,-13.083274,-11.14786,-11.031843
74,15.675284385681152,43.58856201171875,51.713706970214844,21.398025813532918,22.066999754415185,117.94692575125019,-77.25945,22.21135,-1.7027391,118.25825,-6.3969574,9.871371,-100.07486,-26.87624,25.0127,111.427666,-41.18262,12.290292,-7.5554976,-5.021386,29.793802,-75.891624,30.853762,-66.22749,40.88648,22.692528,1.0506889,4.3063073,-82.60744,-37.43272,94.019325,42.157726,-13.282019,-11.130657,-11.054002
75,15.747712135314941,44.150814056396484,52.08631896972656,21.73310342331505,22.358394606678168,117.71102542264596,-78.17508,20.440468,-1.1650932,117.775375,-9.361416,9.482657,-99.47912,-26.846653,24.832077,111.0218,-41.439823,12.3752165,-7.306999,-5.207308,29.793802,-75.759026,30.808697,-65.708,40.638317,23.589128,1.4363352,4.76207,-82.597374,-37.35159,94.14397,42.320126,-13.476236,-11.141834,-11.066843
76,15.801629066467285,44.72407150268555,52.43785858154297,21.9930185706279,22.664433014759375,117.43409776985226,-79.23486,19.173859,-0.3529971,117.093666,-11.579861,9.425884,-98.85874,-26.77912,24.594143,110.64071,-41.715614,12.464188,-7.0087414,-5.3513613,29.793802,-75.65083,30.778519,-65.264496,40.367386,24.19522,1.7195312,5.16678,-82.57311,-37.29698,94.2479,42.4475,-13.652769,-11.182456,-11.071468
77,15.845998764038086,45.293460845947266,52.751220703125,22.181078427377386,22.977725903327165,117.11752442182636,-80.48545,18.561724,0.8536725,116.26539,-12.744327,9.864505,-98.21521,-26.674911,24.317806,110.29206,-42.010715,12.573488,-6.678328,-5.4108095,29.793802,-75.54458,30.73083,-64.8127,40.090614,24.459974,1.8554252,5.4890084,-82.561806,-37.209667,94.41473,42.61145,-13.763754,-11.268965,-11.09096
78,15.890015602111816,45.859100341796875,53.0543327331543,22.33501412588357,23.30438832465565,116.80061353670798,-81.78932,18.209959,2.358903,115.233345,-13.542332,10.231398,-97.58952,-26.558945,24.044128,109.96353,-42.30189,12.711194,-6.334386,-5.4532733,29.793802,-75.48167,30.683859,-64.443504,39.810696,24.445843,1.8934984,5.7783914,-82.54581,-37.134804,94.55162,42.757797,-13.857179,-11.39663,-11.113413
79,15.914355278015137,46.40433120727539,53.331695556640625,22.46566635462428,23.650182385607916,116.48981548949168,-83.05556,18.01261,4.074171,113.91291,-14.16595,10.537143,-96.98753,-26.435507,23.77007,109.64412,-42.592567,12.848097,-5.994973,-5.4847865,29.793802,-75.44774,30.630388,-64.11511,39.53755,24.31125,1.8637673,6.0556626,-82.5539,-37.057194,94.68578,42.89691,-13.940233,-11.530471,-11.1064825
80,15.938241958618164,46.955810546875,53.60816192626953,22.58074086391358,24.022047708913536,116.19003558141793,-84.20428,17.852629,5.89767,112.21977,-14.802438,10.783811,-96.411125,-26.305311,23.48645,109.3288,-42.889214,12.954221,-5.6715875,-5.5318303,29.793802,-75.44295,30.575739,-63.82942,39.283043,24.193266,1.8021686,6.3484526,-82.60024,-36.975002,94.80487,43.016907,-14.038279,-11.636886,-11.034884
81,15.927657127380371,47.499717712402344,53.848045349121094,22.662732566261163,24.421491349427125,115.88830835629987,-85.21163,17.810513,7.8864794,110.14342,-15.562551,11.046878,-95.84253,-26.157845,23.170584,109.002335,-43.188477,13.008427,-5.3498244,-5.5846605,29.793802,-75.46066,30.53569,-63.60502,39.02424,24.102577,1.6799452,6.6551437,-82.68414,-36.906944,94.90726,43.09891,-14.170606,-11.713984,-10.868836
82,15.947501182556152,48.04951095581055,54.09113311767578,22.714764354804366,24.8435600332692,115.5867920255355,-86.09841,17.88357,10.075502,107.7155,-16.329021,11.27766,-95.28634,-25.994392,22.835941,108.67557,-43.488964,13.031402,-5.0363436,-5.631827,29.793802,-75.500275,30.49445,-63.422565,38.77356,23.98192,1.4882013,6.962573,-82.80319,-36.81816,95.00939,43.182148,-14.317199,-11.778605,-10.634909
83,15.961462020874023,48.61716842651367,54.318111419677734,22.76982143456247,25.290251676737462,115.31108883425189,-86.88959,17.851849,12.306307,104.91885,-16.93638,11.309331,-94.77936,-25.839787,22.518549,108.36732,-43.798203,13.053009,-4.753773,-5.7125144,29.793802,-75.56959,30.471033,-63.271557,38.528355,23.840422,1.3037314,7.2831917,-82.95586,-36.746387,95.08213,43.220272,-14.453687,-11.820943,-10.378785
84,15.96044921875,49.19633865356445,54.53428649902344,22.85446430413237,25.762046873969506,115.08200480551923,-87.62716,17.525295,14.402997,101.7272,-17.220232,10.999858,-94.35284,-25.716425,22.250494,108.09932,-44.121956,13.103439,-4.5347457,-5.8498554,29.793802,-75.66556,30.459757,-63.10306,38.30846,23.705564,1.1981059,7.625922,-83.15096,-36.657726,95.132484,43.2392,-14.541221,-11.83286,-10.148446
85,15.924254417419434,49.75822830200195,54.69426345825195,22.98771481593497,26.274044235029358,114.91962542039431,-88.38299,16.857553,16.318588,98.08924,-17.133785,10.372396,-94.04092,-25.635868,22.046715,107.87241,-44.463062,13.198826,-4.3976536,-6.0722113,29.793802,-75.80267,30.47566,-62.91064,38.105503,23.588282,1.2303635,7.978025,-83.407295,-36.54212,95.15016,43.23845,-14.585982,-11.790423,-9.944557
86,15.8890380859375,50.33369064331055,54.841285705566406,23.14362707249286,26.821563989381538,114.80076493321815,-89.13288,15.985097,18.117472,94.016785,-16.769535,9.514704,-93.811104,-25.579506,21.878845,107.67866,-44.818016,13.319743,-4.3187475,-6.3581195,29.793802,-75.969284,30.528618,-62.713734,37.900887,23.472204,1.349101,8.338895,-83.713394,-36.412865,95.13577,43.209488,-14.603118,-11.705016,-9.745329
87,15.873481750488281,50.91529083251953,54.967533111572266,23.2885531518727,27.37519262310702,114.68139064488173,-89.78317,14.991889,19.784298,89.56538,-16.162199,8.391712,-93.595795,-25.529398,21.71735,107.51843,-45.18836,13.443467,-4.269938,-6.678712,29.793802,-76.13414,30.616741,-62.529026,37.706017,23.33198,1.4627258,8.738333,-84.034904,-36.27151,95.09835,43.1507,-14.572551,-11.622131,-9.564657
88,15.843099594116211,51.50773620605469,55.08600616455078,23.388021146557474,27.904439918108725,114.51638132206787,-90.232666,13.946565,21.313745,84.780136,-15.336795,6.9611015,-93.32814,-25.463493,21.53557,107.394936,-45.571827,13.547818,-4.2255006,-7.0077744,29.793802,-76.26359,30.73432,-62.37068,37.5381,23.146997,1.4790121,9.206869,-84.331535,-36.113014,95.039795,43.066956,-14.478167,-11.587348,-9.416285
89,15.796621322631836,52.110355377197266,55.196998596191406,23.43663416830679,28.401860846246255,114.29216978699077,-90.40926,12.7426815,22.665743,79.4477,-14.337194,5.0318537,-92.99113,-25.378117,21.321533,107.302765,-45.973827,13.609643,-4.1802263,-7.353137,29.793802,-76.35416,30.876623,-62.25192,37.425076,22.864378,1.3376614,9.810228,-84.59229,-35.93015,94.95149,42.96642,-14.275096,-11.622399,-9.310778
90,15.723836898803711,52.72399139404297,55.266929626464844,23.442767160351128,28.881016551552896,114.01898976612726,-90.355896,11.384983,23.83105,73.54345,-13.114275,2.713193,-92.61175,-25.274614,21.087677,107.24236,-46.392212,13.645701,-4.138486,-7.7246027,29.793802,-76.41837,31.041948,-62.16281,37.356495,22.513754,1.0972831,10.512201,-84.83117,-35.71832,94.8326,42.85142,-13.987308,-11.7001915,-9.238202
91,15.650458335876465,53.35536193847656,55.318241119384766,23.395765070182392,29.34303576773259,113.69029363277875,-90.14761,10.060318,24.868092,67.404976,-11.536185,0.37411356,-92.19184,-25.140228,20.845587,107.22654,-46.821327,13.6939945,-4.0916815,-8.100615,29.793802,-76.44935,31.227596,-62.082817,37.29943,22.197584,0.84351265,11.191651,-85.057365,-35.479023,94.70878,42.713253,-13.689959,-11.793329,-9.181531
92,15.562750816345215,54.00004959106445,55.34428787231445,23.289561531200373,29.7896419047639,113.3051481444479,-89.87582,8.922067,25.854013,61.401928,-9.468944,-1.653125,-91.73835,-24.968716,20.611427,107.270584,-47.257183,13.794251,-4.0334835,-8.457307,29.793802,-76.44474,31.429483,-61.992493,37.218964,22.013323,0.6660988,11.729004,-85.281746,-35.219433,94.60574,42.540565,-13.461653,-11.874216,-9.123995
93,15.437640190124512,54.66154098510742,55.35090637207031,23.13392733461867,30.23586192974857,112.88386939878905,-89.53668,7.9662385,26.894434,55.45184,-6.6021705,-3.4663622,-91.268745,-24.766596,20.38733,107.3659,-47.709328,13.958725,-3.9758406,-8.7919445,29.793802,-76.41514,31.644863,-61.8734,37.117077,22.019955,0.6057088,12.102101,-85.523895,-34.94904,94.52033,42.310627,-13.307699,-11.930979,-9.037656
94,15.308126449584961,55.322265625,55.31222915649414,22.907962072649678,30.671305970363463,112.39447371326634,-89.08062,7.0623603,27.898579,49.366467,-3.048183,-5.2223697,-90.76369,-24.514727,20.154375,107.51457,-48.177265,14.161603,-3.8934906,-9.104229,29.793802,-76.349655,31.869528,-61.74119,37.00611,22.149357,0.611294,12.372206,-85.75871,-34.671623,94.44273,42.02988,-13.193038,-11.979652,-8.939283
95,15.159092903137207,55.97777557373047,55.2445068359375,22.57052814825546,31.058521517307327,111.77079008263019,-88.54739,6.201229,28.679068,43.44132,0.6506693,-6.6871076,-90.1713,-24.185991,19.904623,107.734726,-48.64418,14.391519,-3.7363703,-9.382887,29.793802,-76.20854,32.094723,-61.61907,36.87063,22.3198,0.6362299,12.546007,-85.94174,-34.385307,94.39522,41.728535,-13.130162,-12.034766,-8.87984
96,14.982400894165039,56.650291442871094,55.125511169433594,22.091048858110636,31.36029469351163,110.96630971250725,-87.98638,5.445235,29.09377,38.05533,3.898273,-7.600428,-89.45405,-23.762785,19.639606,108.04887,-49.094036,14.638505,-3.4704294,-9.618322,29.793802,-75.96506,32.30921,-61.533623,36.70188,22.44613,0.6331739,12.630341,-86.03251,-34.084682,94.39741,41.44215,-13.132115,-12.110737,-8.910487
97,14.784073829650879,57.345706939697266,54.97919845581055,21.425191473046706,31.550857832343095,109.93089057678249,-87.30347,4.831368,29.119953,33.088978,6.532285,-7.8440456,-88.55684,-23.220236,19.319332,108.457596,-49.547462,14.889963,-3.0526664,-9.784396,29.793802,-75.579895,32.4977,-61.48038,36.483826,22.471561,0.60032755,12.572196,-85.989204,-33.762943,94.46488,41.178604,-13.262321,-12.216832,-9.113486
98,14.571990013122559,58.036155700683594,54.80209732055664,20.57828954625899,31.655115490767386,108.69342916561276,-86.53836,4.419041,28.859634,28.540304,8.803976,-7.5576024,-87.51336,-22.55267,18.90082,108.944725,-49.999012,15.000033,-2.489907,-9.8664465,29.793802,-75.08943,32.648598,-61.45371,36.235477,22.452475,0.5583781,12.386407,-85.84189,-33.421562,94.58652,40.939796,-13.490206,-12.344652,-9.440106
99,14.320048332214355,58.7303581237793,54.60623550415039,19.66230260438932,31.800049350941407,107.36305095273188,-86.04708,4.334414,28.424284,25.034748,10.700861,-6.8551745,-86.60237,-21.76056,18.494638,109.40788,-50.000305,15.000033,-1.8397064,-9.912278,29.793802,-74.67037,32.769714,-61.47564,36.011288,22.479012,0.49768716,12.1823845,-85.73133,-33.081127,94.72051,40.753216,-13.709221,-12.477382,-9.744538
100,14.070131301879883,59.42021179199219,54.37505340576172,18.90977296872702,31.958717142139918,106.25806950657959,-86.11083,4.462416,27.955744,23.218496,12.197756,-5.847726,-85.87804,-21.125877,18.25808,109.9828,-50.000305,15.000033,-1.388298,-10.00713,29.793802,-74.40858,32.883427,-61.561474,35.85855,22.641415,0.40509927,12.070436,-85.73868,-32.760414,94.833305,40.599457,-13.806623,-12.600688,-9.878351
101,13.825881958007812,60.101654052734375,54.12881851196289,18.428059977129788,32.195976113813224,105.56353750704103,-86.97869,4.7290835,27.387276,23.493,13.229429,-4.339334,-85.45376,-20.793657,18.194578,110.68875,-50.000305,15.000033,-1.2759312,-10.163606,29.793802,-74.39609,33.01689,-61.720394,35.77206,22.981043,0.25532293,12.099589,-85.9522,-32.4852,94.901215,40.485058,-13.708168,-12.721439,-9.762587
102,13.572380065917969,60.76204299926758,53.86034393310547,18.11845183524727,32.48231199453372,105.15041473567602,-88.4615,5.135232,26.707985,25.456545,13.819878,-2.3266501,-85.22105,-20.681166,18.22834,111.51187,-50.000305,15.000033,-1.3958213,-10.339369,29.793802,-74.54514,33.180466,-61.939648,35.69794,23.441168,0.06390386,12.203667,-86.303856,-32.2688,94.94843,40.382847,-13.486226,-12.841393,-9.487317
103,13.292750358581543,61.39407730102539,53.57330322265625,17.843784549230456,32.71427142924783,104.79779054283367,-90.19297,5.735894,26.087358,28.475918,14.114976,-0.21251372,-84.97557,-20.627686,18.335081,112.41313,-50.000305,15.000033,-1.5867363,-10.511072,29.793802,-74.70419,33.366425,-62.20604,35.61061,23.962252,-0.120191276,12.319171,-86.65642,-32.102318,95.00669,40.25209,-13.257675,-12.940726,-9.15884
104,12.984782218933105,62.057525634765625,53.253578186035156,17.50652187717155,32.793093917916515,104.32525805279884,-91.819,6.577732,25.688868,31.938486,14.240259,1.6008977,-84.543526,-20.506294,18.518332,113.35653,-50.000305,15.000033,-1.7255375,-10.677311,29.793802,-74.747284,33.557903,-62.507217,35.508144,24.48723,-0.24852578,12.383363,-86.88955,-31.95984,95.10283,40.06613,-13.141061,-13.001413,-8.885408
105,12.68751049041748,62.760562896728516,52.92635726928711,17.07193344927662,32.6653943494688,103.67171160622654,-93.307304,7.842232,25.588474,36.065132,14.239099,3.0346737,-83.85387,-20.269691,18.781622,114.36967,-50.000305,15.000033,-1.7843363,-10.840464,29.793802,-74.629814,33.739967,-62.868507,35.41182,25.024836,-0.3041577,12.373856,-86.9512,-31.812359,95.251526,39.823,-13.202898,-12.982822,-8.689555
106,12.351893424987793,63.41606521606445,52.54835510253906,16.55199079399158,32.37744296889523,102.8717682203973,-94.7438,9.55077,25.628244,40.96169,14.0629835,4.3594885,-82.9581,-19.945435,19.07932,115.46041,-50.000305,15.000033,-1.7718062,-10.988897,29.793802,-74.40078,33.90381,-63.28979,35.3355,25.598087,-0.31686756,12.326918,-86.881424,-31.644964,95.43612,39.56333,-13.371772,-12.910318,-8.516647
107,11.99612045288086,64.06376647949219,52.153343200683594,15.984859518170117,32.001945565968995,101.98378819392761,-96.03765,11.431183,25.638294,45.943405,13.667489,5.6356163,-81.9263,-19.576103,19.386337,116.562935,-50.000305,15.000033,-1.6995212,-11.124657,29.793802,-74.12392,34.045677,-63.72002,35.278465,26.174671,-0.30717865,12.267758,-86.75365,-31.456896,95.64333,39.3272,-13.542262,-12.863909,-8.360321
108,11.650404930114746,64.72694396972656,51.75593566894531,15.4629536445761,31.61664341169003,101.13693810141814,-97.14199,13.074113,25.497442,50.3576,13.02028,6.8368044,-80.864555,-19.26368,19.71712,117.61558,-50.000305,15.000033,-1.6444932,-11.27054,29.793802,-73.88017,34.169533,-64.10455,35.23819,26.723534,-0.29383397,12.221464,-86.659836,-31.259506,95.854774,39.14293,-13.6160755,-12.921457,-8.214179
109,11.305652618408203,65.41566467285156,51.36793899536133,15.045973426734854,31.23136255299552,100.38286202352484,-98.10951,14.273974,25.156364,54.15263,12.071349,7.8969603,-79.82453,-19.067188,20.138695,118.6284,-50.000305,15.000033,-1.6608732,-11.465999,29.793802,-73.69672,34.28532,-64.4375,35.220337,27.312105,-0.26937976,12.19036,-86.64175,-31.063204,96.07993,38.999012,-13.546103,-13.13569,-8.065309
110,10.958150863647461,66.1014175415039,50.98563003540039,14.705709476922705,30.818318410261615,99.6904726165181,-98.981285,15.180171,24.712744,57.674942,10.85415,8.783386,-78.759834,-18.960855,20.639515,119.62373,-50.000305,15.000033,-1.7342433,-11.698874,29.793802,-73.54423,34.398663,-64.74249,35.217796,27.931702,-0.22673601,12.161337,-86.66447,-30.871439,96.32239,38.877132,-13.392217,-13.452598,-7.9200435
111,10.61380386352539,66.78538513183594,50.630558013916016,14.400637967695207,30.405838435876927,99.07141591806962,-99.75574,15.878748,24.232857,60.946835,9.479175,9.434902,-77.648964,-18.920563,21.131584,120.56197,-50.000305,15.000033,-1.8438573,-11.912586,29.793802,-73.4226,34.506985,-65.00816,35.206932,28.438314,-0.18462092,12.136989,-86.70779,-30.691338,96.55467,38.792374,-13.211348,-13.789452,-7.800936
112,10.281246185302734,67.47750091552734,50.297950744628906,14.08715397921264,30.018595638633226,98.53425786819041,-100.4101,16.507668,23.801546,63.991634,8.016905,9.843793,-76.46515,-18.916098,21.53057,121.40147,-50.000305,15.000033,-1.9647416,-12.049016,29.793802,-73.33189,34.600323,-65.224304,35.168613,28.687931,-0.16176611,12.120439,-86.7513,-30.53343,96.75259,38.75812,-13.059203,-14.063865,-7.7316823
113,9.947807312011719,68.18544006347656,49.99332046508789,13.778162171834573,29.66416483040198,98.11480234589825,-100.922165,17.104795,23.475824,66.81818,6.3873315,9.931723,-75.20765,-18.968742,21.844767,122.143135,-50.000305,15.000033,-2.1118689,-12.093607,29.793802,-73.2819,34.666897,-65.37637,35.093563,28.550344,-0.17015822,12.119051,-86.79715,-30.41177,96.91564,38.772614,-12.920612,-14.262496,-7.7302976
114,9.623668670654297,68.8968505859375,49.715335845947266,13.48795094709042,29.331429486866675,97.80547549860992,-101.31495,17.617338,23.217665,69.450096,4.5580306,9.74446,-73.89163,-19.091003,22.115995,122.801384,-50.000305,15.000033,-2.2795787,-12.061389,29.793802,-73.27811,34.68388,-65.47611,35.00137,28.134855,-0.19909844,12.1277,-86.84694,-30.372702,97.05306,38.79582,-12.780111,-14.424703,-7.7782507
115,9.30601978302002,69.61322021484375,49.45296096801758,13.190082427946011,29.01071306660272,97.55003809851118,-101.62383,18.052015,22.961748,71.92148,2.674611,9.464757,-72.51479,-19.2306,22.32425,123.36536,-50.000305,15.000033,-2.452203,-11.974957,29.793802,-73.295425,34.682198,-65.54895,34.905643,27.654577,-0.22935659,12.135255,-86.89103,-30.359087,97.1601,38.856667,-12.685123,-14.551219,-7.8503585
116,8.992854118347168,70.32488250732422,49.236568450927734,12.853224964512636,28.69148016100723,97.29253224733718,-101.885635,18.408073,22.635672,74.25643,0.88927716,9.266725,-71.07652,-19.33722,22.453203,123.82145,-50.000305,15.000033,-2.5981596,-11.842598,29.793802,-73.31553,34.66516,-65.62373,34.8289,27.32396,-0.24226965,12.130999,-86.91697,-30.358929,97.239174,38.95443,-12.677257,-14.639894,-7.9227877
117,8.684708595275879,71.03812408447266,49.04060363769531,12.451071715561827,28.37164559374565,97.01675202435125,-102.12449,18.66866,22.194622,76.462204,-0.77051395,9.1883135,-69.56343,-19.375328,22.501715,124.15556,-50.000305,15.000033,-2.6878889,-11.6362295,29.793802,-73.34971,34.583134,-65.69991,34.817898,27.224047,-0.22049204,12.12457,-86.90864,-30.386574,97.278145,39.09512,-12.838116,-14.66653,-7.9989595
118,8.374908447265625,71.74356079101562,48.88675308227539,12.01066813587893,28.053599847491483,96.75899363616676,-102.314415,18.831797,21.697102,78.53065,-2.3828342,9.137188,-67.98445,-19.378386,22.496746,124.377945,-50.000305,15.000033,-2.7496333,-11.359272,29.793802,-73.3964,34.443626,-65.748856,34.846954,27.243788,-0.18132602,12.111144,-86.87722,-30.450867,97.27958,39.2717,-13.12401,-14.640576,-8.083156
119,8.070500373840332,72.44246673583984,48.759830474853516,11.584715685067927,27.737168079894264,96.53960833883184,-102.42479,18.915386,21.215012,80.46045,-3.952051,9.086647,-66.37641,-19.395039,22.459473,124.519585,-50.000305,15.000033,-2.8070073,-11.06837,29.793802,-73.46981,34.26507,-65.82451,34.902866,27.279337,-0.15260385,12.081037,-86.82522,-30.543594,97.24651,39.474476,-13.39579,-14.609005,-8.162315
120,7.777098655700684,73.14602661132812,48.66414260864258,11.22140412974034,27.423739236805755,96.37634595260079,-102.425125,18.93906,20.819464,82.249504,-5.4829717,9.012355,-64.774506,-19.472198,22.40563,124.611015,-50.000305,15.000033,-2.8800452,-10.816958,29.793802,-73.58424,34.06015,-65.97457,34.974537,27.231014,-0.16365285,12.021567,-86.749664,-30.657862,97.173164,39.696842,-13.522242,-14.621289,-8.220287
121,7.493164539337158,73.84880065917969,48.58768081665039,10.956257114827121,27.11032167266265,96.28093148347297,-102.286835,18.902447,20.55918,83.88681,-6.981161,8.912873,-63.186794,-19.631525,22.375708,124.6552,-50.000305,15.000033,-2.991772,-10.6429,29.793802,-73.74781,33.844704,-66.22593,35.05629,27.048042,-0.21723443,11.916885,-86.6651,-30.785349,97.06049,39.944817,-13.42169,-14.722237,-8.231273
122,7.2056474685668945,74.55096435546875,48.55306625366211,10.760089632808999,26.79968966136322,96.24079766608081,-102.0304,18.804956,20.396145,85.38048,-8.446347,8.802386,-61.600838,-19.844381,22.356697,124.63839,-50.000305,15.000033,-3.1368225,-10.525513,29.793802,-73.9476,33.628906,-66.54515,35.14691,26.790733,-0.2988901,11.77772,-86.57286,-30.919083,96.90633,40.220203,-13.183225,-14.874973,-8.210399
123,6.91826057434082,75.26342010498047,48.5468635559082,10.58802237496734,26.503852543044847,96.23582049063377,-101.701744,18.66434,20.26677,86.75375,-9.871547,8.679636,-60.024647,-20.084068,22.282629,124.56815,-50.000305,15.000033,-3.2894158,-10.429912,29.793802,-74.16549,33.417145,-66.88841,35.23685,26.5272,-0.4091669,11.628887,-86.46526,-31.054634,96.71523,40.512062,-12.915754,-15.009594,-8.20502
124,6.647708415985107,75.97960662841797,48.56446838378906,10.375300664616677,26.285418587982903,96.19875129161574,-101.389656,18.544687,20.089397,88.02237,-11.248273,8.54213,-58.552143,-20.26267,22.111158,124.45862,-50.000305,15.000033,-3.371309,-10.31309,29.793802,-74.425,33.21074,-67.21097,35.319447,26.32812,-0.54784817,11.496631,-86.367676,-31.19618,96.48996,40.82065,-12.730183,-15.055777,-8.26475
125,6.39962911605835,76.68510437011719,48.636661529541016,10.117640764157791,26.185906432685172,96.09626634011576,-101.109406,18.48124,19.869246,89.15864,-12.564745,8.398251,-57.362083,-20.374578,21.87145,124.21383,-49.557446,15.000033,-3.3530538,-10.1833935,29.793802,-74.764534,33.01331,-67.513916,35.40592,26.217186,-0.73845583,11.3928585,-86.30453,-31.350182,96.225,41.14892,-12.672304,-14.968355,-8.414749
126,6.158623695373535,77.3768081665039,48.741554260253906,9.856941372665707,26.130316079391893,96.0002518860186,-100.788864,18.402771,19.650932,90.167915,-13.828561,8.247398,-56.326294,-20.496202,21.565228,123.83542,-48.69332,15.000033,-3.3127892,-10.058177,29.793802,-75.13337,32.82563,-67.81709,35.49107,26.153143,-0.974948,11.301115,-86.2367,-31.512756,95.92492,41.483448,-12.672729,-14.793814,-8.624007
127,5.947057723999023,78.06262969970703,48.8646354675293,9.549416587721874,26.113641330354113,95.9017969372189,-100.46551,18.313272,19.384136,91.08621,-15.053523,8.0787115,-55.365078,-20.53872,21.18635,123.42116,-47.666744,15.000033,-3.22996,-9.891161,29.793802,-75.49932,32.644157,-68.09935,35.542736,26.11535,-1.2088168,11.207448,-86.14756,-31.685663,95.59117,41.827896,-12.690202,-14.598402,-8.861637
128,5.721758842468262,78.75617218017578,49.02062225341797,9.150086420843948,26.13412962316218,95.78899295151014,-100.1748,18.21792,19.017458,91.9375,-16.247366,7.8800597,-54.483303,-20.412642,20.7496,123.00726,-46.4008,15.000033,-3.081162,-9.634957,29.793802,-75.83287,32.461506,-68.3418,35.532005,26.08228,-1.3917186,11.097533,-86.02644,-31.875761,95.23174,42.18137,-12.680139,-14.448448,-9.097507
129,5.5179243087768555,79.45533752441406,49.202796936035156,8.671406510286674,26.198668629259103,95.65914239724067,-99.906494,18.12561,18.573887,92.71641,-17.413692,7.646858,-53.692154,-20.123035,20.279676,122.58893,-44.88529,15.000033,-2.865585,-9.309713,29.793802,-76.13313,32.273155,-68.52844,35.464153,26.12407,-1.4919875,10.965388,-85.87667,-32.08836,94.83154,42.54015,-12.625034,-14.368326,-9.311607
130,5.334486961364746,80.14186096191406,49.40243148803711,8.126955837468289,26.30534951829118,95.5166476639615,-99.64878,18.035872,18.066702,93.41593,-18.54892,7.3858266,-52.992886,-19.713854,19.765896,122.149925,-43.15637,15.000033,-2.5892758,-8.928286,29.793802,-76.41777,32.077038,-68.67536,35.35635,26.226961,-1.5422902,10.819698,-85.706154,-32.32594,94.39512,42.89997,-12.548231,-14.320453,-9.524661
131,5.161572456359863,80.83194732666016,49.6318359375,7.475155599309268,26.43795532277319,95.36230298358798,-99.4321,17.93649,17.431826,94.05836,-19.6511,7.1024528,-52.379005,-19.150759,19.167952,121.713196,-41.201183,15.000033,-2.239052,-8.427565,29.793802,-76.68301,31.865904,-68.806725,35.19765,26.24698,-1.5902362,10.669498,-85.493095,-32.594322,93.9422,43.26196,-12.479611,-14.277499,-9.767786
132,4.9979987144470215,81.51870727539062,49.87961196899414,6.6721639747609744,26.579690410510374,95.19660325051373,-99.28579,17.80869,16.605148,94.66591,-20.718058,6.801272,-51.846493,-18.403233,18.446789,121.29724,-39.004066,15.000033,-1.7999694,-7.7438316,29.793802,-76.9281,31.627497,-68.94753,34.980904,26.040058,-1.6826584,10.523495,-85.22436,-32.9032,93.500336,43.6237,-12.4423895,-14.212166,-10.0722885
133,4.846837520599365,82.2066879272461,50.145084381103516,5.691103380986979,26.733940199686288,95.01465542748004,-99.21849,17.644615,15.555338,95.23368,-21.755135,6.484914,-51.389343,-17.429298,17.580217,120.88049,-36.520256,15.000033,-1.2551545,-6.8492346,29.793802,-77.16132,31.348827,-69.08374,34.703007,25.447897,-1.8541148,10.39811,-84.89226,-33.26467,93.08177,43.98276,-12.428464,-14.120301,-10.4807825
134,4.716391086578369,82.89562225341797,50.43321990966797,4.561525858190873,26.901422711889182,94.81811188915886,-99.20529,17.454659,14.3216715,95.75417,-22.763742,6.148777,-51.01746,-16.276829,16.593739,120.45504,-33.78138,15.000033,-0.610753,-5.778579,29.793802,-77.39298,31.022297,-69.21082,34.38298,24.587982,-2.071232,10.2821,-84.511,-33.68718,92.66889,44.330105,-12.428032,-14.014452,-10.965762
135,4.606601715087891,83.57923889160156,50.72795104980469,3.3184531314645254,27.062048620458693,94.61361108557129,-99.227615,17.246212,12.945064,96.24593,-23.734755,5.786535,-50.781246,-15.066727,15.513256,120.05987,-30.81742,15.000033,0.116291605,-4.557432,29.793802,-77.62827,30.644053,-69.36638,34.043648,23.729053,-2.2780344,10.143927,-84.08675,-34.17422,92.22838,44.659943,-12.47447,-13.891865,-11.453232
136,4.508477210998535,84.23196411132812,51.02587890625,1.9984123334862305,27.19781566133996,94.4071512467433,-99.26823,17.032427,11.465216,96.72667,-24.65891,5.392148,-50.710945,-13.904373,14.362036,119.73803,-27.680426,15.000033,0.9100028,-3.2110908,29.793802,-77.87468,30.213177,-69.59043,33.705402,23.137964,-2.4190485,9.956096,-83.62806,-34.725807,91.72875,44.970722,-12.599253,-13.749751,-11.8688
137,4.4123215675354,84.89627838134766,51.33588790893555,0.5266552643104017,27.306774381740247,94.16868787100205,-99.36232,16.820375,9.795741,97.21035,-25.526815,4.9448743,-50.770752,-12.752762,13.045895,119.45944,-24.274626,15.000033,1.8266311,-1.6620301,29.793802,-78.12815,29.720142,-69.8706,33.33386,22.900002,-2.4771848,9.712353,-83.123825,-35.3502,91.1519,45.296368,-12.872872,-13.570194,-12.193473
138,4.310703754425049,85.54874420166016,51.651771545410156,-1.081802322760129,27.391876930239157,93.9038426340139,-99.49143,16.602169,7.954985,97.68139,-26.348482,4.4525776,-50.964935,-11.6126995,11.581149,119.208435,-20.5855,15.000033,2.8570743,0.06882218,29.793802,-78.40577,29.160343,-70.1955,32.942894,22.869104,-2.4840517,9.430216,-82.59132,-36.05516,90.51835,45.619072,-13.251734,-13.358662,-12.466411
139,4.216099739074707,86.2012710571289,51.96352005004883,-2.662876379609568,27.449840427533292,93.67131751522025,-99.5715,16.368786,6.132651,98.118484,-27.142227,3.9542503,-51.36408,-10.610124,10.148878,119.05521,-16.803843,15.000033,3.8893657,1.8196468,29.793802,-78.733986,28.54979,-70.5987,32.60765,22.968645,-2.4592323,9.119485,-82.04642,-36.831894,89.825134,45.872444,-13.624407,-13.147831,-12.701788
140,4.12759256362915,86.83488464355469,52.26218795776367,-4.056830481580162,27.48458865571017,93.53127948443016,-99.53085,16.111567,4.5111375,98.50278,-27.923826,3.4909852,-52.03194,-9.838767,8.925721,119.070885,-13.121818,15.000033,4.8068395,3.430915,29.793802,-79.12151,27.921438,-71.111496,32.38592,23.12222,-2.4191518,8.787962,-81.50588,-37.65592,89.08215,45.99743,-13.870104,-12.972207,-12.913883
141,4.039000511169434,87.46321868896484,52.54423522949219,-5.265765243051068,27.486929149738927,93.5182573741702,-99.38575,15.810526,3.0714278,98.85078,-28.678576,3.0700634,-53.058346,-9.267155,7.9266005,119.37148,-8.998449,15.000033,5.5719323,4.920277,29.793802,-79.559006,27.306383,-71.762115,32.242,23.39842,-2.3429346,8.401475,-80.94814,-38.503494,88.25952,45.99752,-13.938906,-12.841879,-13.087007
142,3.9361138343811035,88.06914520263672,52.8221321105957,-6.361623747690028,27.46326368933202,93.59759857099857,-99.159065,15.474971,1.7382739,99.16878,-29.410997,2.673707,-54.364277,-8.814664,7.075227,119.87772,-4.526576,15.000033,6.2309694,6.3468814,29.793802,-80.026024,26.72142,-72.52237,32.129456,23.808413,-2.231002,7.966801,-80.36644,-39.36045,87.35761,45.914536,-13.904637,-12.740574,-13.220601
143,3.843122720718384,88.69526672363281,53.082008361816406,-7.297647261672287,27.44485408779955,93.74175397292481,-98.841484,15.133499,0.5847994,99.42952,-30.129995,2.3033178,-55.755836,-8.452003,6.3871317,120.428566,-0.9242085,15.000033,6.781954,7.6303906,29.793802,-80.510414,26.178452,-73.345245,32.08417,24.180304,-2.1311545,7.5529604,-79.79913,-40.211334,86.45094,45.755375,-13.818937,-12.665325,-13.35097
144,3.765317440032959,89.32815551757812,53.32605743408203,-8.034563558600372,27.4658710701879,93.91293230010783,-98.434364,14.819541,-0.32198346,99.60375,-30.842028,1.9589746,-57.039223,-8.176534,5.8685412,120.87239,0.5819228,15.000033,7.232143,8.692483,29.793802,-80.99663,25.686165,-74.18229,32.143837,24.341948,-2.087909,7.2288284,-79.285,-41.03837,85.619514,45.5295,-13.732063,-12.613151,-13.514331
145,3.674314260482788,89.94308471679688,53.58232879638672,-8.525171571682051,27.544527212972234,94.11991762075527,-97.92382,14.534608,-0.9201613,99.65654,-31.542809,1.6497835,-58.063618,-8.010814,5.5537353,121.19772,-0.9723413,15.000033,7.554057,9.477961,29.793802,-81.48131,25.25711,-75.0561,32.3211,24.153708,-2.1308203,7.0241513,-78.81902,-41.819954,84.85332,45.24644,-13.631856,-12.589853,-13.73752
146,3.569147825241089,90.53561401367188,53.83265686035156,-8.808863487692381,27.666634553413775,94.36899435429015,-97.33246,14.263324,-1.2675108,99.61094,-32.225925,1.3733535,-58.985256,-7.980741,5.425504,121.48063,-4.704661,15.000033,7.74845,10.035982,29.793802,-81.95467,24.900164,-75.98075,32.58136,23.737322,-2.2273924,6.8963723,-78.385284,-42.538807,84.13361,44.9204,-13.49475,-12.596999,-13.994425
147,3.4464128017425537,91.08026885986328,54.07554626464844,-8.973120500678311,27.81553927861119,94.61735539955977,-96.71469,14.016758,-1.4805156,99.52538,-32.896824,1.110298,-60.064804,-8.093479,5.4070683,121.69496,-9.06706,15.000033,7.8734274,10.453345,29.793802,-82.39771,24.611221,-76.894226,32.895153,23.312174,-2.3289912,6.8067956,-77.99432,-43.18741,83.511765,44.571762,-13.3741,-12.624098,-14.242028
148,3.3412270545959473,91.62857818603516,54.29819107055664,-9.10761899830865,27.969690173957932,94.82842438956159,-96.11843,13.809118,-1.6770655,99.4599,-33.56255,0.84015,-61.52355,-8.291802,5.4252343,121.8259,-12.567262,15.000033,7.987416,10.824778,29.793802,-82.79367,24.375679,-77.73225,33.239346,23.100183,-2.3879933,6.7185917,-77.65823,-43.76806,83.04143,44.21677,-13.320442,-12.657818,-14.4374895
149,3.251485586166382,92.18852233886719,54.49991989135742,-9.25246399267384,28.118326434660915,94.98655679591367,-95.55983,13.642748,-1.9121553,99.43077,-34.23168,0.5542224,-63.415176,-8.5002985,5.4269238,121.89756,-14.945045,15.000033,8.126081,11.209324,29.793802,-83.14643,24.17632,-78.51137,33.627453,23.196577,-2.3865561,6.670116,-77.37515,-44.2885,82.74234,43.871723,-13.359249,-12.705248,-14.578886
150,3.1821184158325195,92.73097229003906,54.6771125793457,-9.35602746898848,28.270085413468244,95.11796811362844,-95.010345,13.508422,-2.117303,99.40638,-34.897755,0.2634579,-65.60543,-8.743834,5.461407,121.90592,-16.969326,15.000033,8.2556095,11.555149,29.793802,-83.462776,24.00429,-79.25471,34.078846,23.472687,-2.3535001,6.665486,-77.14051,-44.75156,82.59013,43.52906,-13.457529,-12.768918,-14.6861315
151,3.1190593242645264,93.2620849609375,54.83835220336914,-9.365514432662609,28.43215705675582,95.25295209523237,-94.449524,13.389032,-2.2237556,99.37881,-35.547276,-0.02213693,-68.01556,-9.087441,5.6121697,121.795395,-18.726143,15.000033,8.330332,11.795809,29.793802,-83.73052,23.85684,-79.90952,34.576946,23.813578,-2.3112571,6.617202,-76.955795,-45.15347,82.566765,43.172867,-13.5845,-12.83055,-14.749381
152,3.046506881713867,93.7843017578125,54.98163604736328,-9.22973621701806,28.61040542128556,95.42150206763111,-93.85856,13.268355,-2.1693857,99.34145,-36.16807,-0.29318368,-70.57364,-9.607112,5.9546566,121.51113,-20.292437,15.000033,8.303256,11.868042,29.793802,-83.931694,23.736628,-80.4193,35.10081,24.108494,-2.2831428,6.4375825,-76.823265,-45.48454,82.65487,42.791756,-13.709589,-12.872448,-14.758937
153,2.961601734161377,94.2958755493164,55.11463165283203,-8.919399906795803,28.809031064347202,95.62885161804749,-93.22456,13.147265,-1.9072024,99.283844,-36.762276,-0.53376764,-73.326485,-10.329644,6.540277,121.0769,-21.737185,15.000033,8.15114,11.735458,29.793802,-84.06397,23.65022,-80.77093,35.65466,24.352844,-2.2750754,6.0105286,-76.75138,-45.73252,82.87666,42.37797,-13.809733,-12.913303,-14.680451
154,2.892061233520508,94.8260726928711,55.21617126464844,-8.473154753666284,29.015566427870684,95.8661045157179,-92.55842,13.021368,-1.4967301,99.216774,-37.338158,-0.75671595,-76.27826,-11.19881,7.297835,120.50991,-23.03384,15.000033,7.897336,11.449156,29.793802,-84.1248,23.601837,-80.99365,36.240143,24.600492,-2.2758389,5.4131665,-76.7366,-45.884148,83.23603,41.958107,-13.907014,-12.95649,-14.53083
155,2.822061061859131,95.34332275390625,55.30110549926758,-7.954251423370508,29.21113843478344,96.13767905427724,-91.88191,12.864154,-1.0373275,99.16739,-37.88548,-0.9941563,-79.31428,-12.192771,8.106698,119.73184,-24.076685,15.000033,7.566118,11.07028,29.793802,-84.11181,23.586626,-81.11227,36.843906,24.813454,-2.2822351,4.8485246,-76.75641,-45.934753,83.675125,41.560604,-14.041167,-12.960979,-14.37516
156,2.7750658988952637,95.85649108886719,55.361778259277344,-7.4293349428827975,29.37952196167584,96.44366101723546,-91.22082,12.656281,-0.63207483,99.164474,-38.397495,-1.2784591,-82.3022,-13.282466,8.832223,118.66933,-24.782982,15.000033,7.1999745,10.701017,29.793802,-84.0231,23.585396,-81.12089,37.434082,24.962685,-2.2894974,4.519921,-76.80608,-45.923435,84.181465,41.2054,-14.228332,-12.881782,-14.284023
157,2.7324628829956055,96.3851318359375,55.41041946411133,-6.890930385465587,29.50739346374568,96.78304555882467,-90.55749,12.386831,-0.28684863,99.20852,-38.882324,-1.6278856,-85.2655,-14.560659,9.427237,117.32592,-25.11264,15.000033,6.8041697,10.325402,29.793802,-83.84737,23.590254,-81.04045,38.02327,25.07878,-2.296625,4.5314145,-76.86881,-45.830383,84.77045,40.898075,-14.556952,-12.675772,-14.321769
158,2.708244800567627,96.92047882080078,55.450260162353516,-6.33440015086112,29.599957878156847,97.1528952453667,-89.89013,12.070043,0.019731924,99.29405,-39.346066,-2.0261729,-88.22479,-16.00858,9.90047,115.732765,-25.159046,15.000033,6.3782563,9.932964,29.793802,-83.597595,23.591246,-80.87026,38.626637,25.1627,-2.3038538,4.759232,-76.94267,-45.665657,85.4331,40.623505,-14.991438,-12.375983,-14.434321
159,2.6988372802734375,97.4706039428711,55.478477478027344,-5.820764416978237,29.68047419292199,97.5398913501839,-89.269936,11.738244,0.24595296,99.433304,-39.776127,-2.451756,-91.05744,-17.438343,10.223099,113.84344,-25.010363,15.000033,5.9382234,9.57791,29.793802,-83.30556,23.582436,-80.5849,39.239265,25.143677,-2.3094182,5.060897,-77.04069,-45.441624,86.08519,40.404877,-15.384026,-12.0594015,-14.511455
160,2.670102119445801,97.99691772460938,55.46434020996094,-5.396454116186674,29.78091088012611,97.925600470481,-88.74926,11.431599,0.3695904,99.63448,-40.156925,-2.880698,-93.65633,-18.66194,10.397269,111.61144,-24.726393,15.000033,5.5006714,9.289576,29.793802,-83.00989,23.561733,-80.16708,39.86259,24.946682,-2.3117423,5.294795,-77.17567,-45.176018,86.63221,40.25021,-15.594435,-11.801805,-14.442622
161,2.6801724433898926,98.5147705078125,55.44102096557617,-5.339617608057513,29.97204053679386,98.08722720015298,-88.522964,11.339212,0.123145305,99.9779,-40.475353,-3.3850117,-96.04665,-19.732292,9.945389,108.907036,-24.208368,14.44011,5.3189263,9.251489,29.793802,-82.83073,23.522991,-79.6084,40.45793,24.492662,-2.306211,5.419885,-77.41697,-44.911617,87.037674,40.195576,-15.561783,-11.632593,-14.181278
162,2.733431339263916,99.03944396972656,55.433837890625,-5.28666701027261,30.197415196691647,98.25811098807885,-88.373276,11.2649145,-0.13407427,100.360245,-40.728424,-3.901552,-98.31121,-20.869566,9.18419,105.86093,-23.505686,13.002947,5.1016407,9.18269,29.793802,-82.63832,23.46691,-78.9141,41.090267,23.8426,-2.2985928,5.516462,-77.70029,-44.653954,87.37402,40.114075,-15.3667555,-11.503547,-13.78584
163,2.8029346466064453,99.60563659667969,55.42818832397461,-5.2470892809476775,30.4354635328276,98.45927465866947,-88.25952,11.193599,-0.41799092,100.76052,-40.95193,-4.410558,-100.27473,-21.82818,8.4037695,102.51485,-22.684175,11.817351,4.882321,9.143958,29.793802,-82.42694,23.388529,-78.11095,41.728794,23.12868,-2.2933416,5.615143,-77.99036,-44.40497,87.62382,40.06877,-15.096657,-11.380033,-13.327767
164,2.9093356132507324,100.18690490722656,55.42353820800781,-5.26859115062601,30.67050408626314,98.68854283951708,-88.162476,11.134006,-0.79368275,101.15222,-41.17495,-4.914031,-101.823944,-22.647383,7.5250196,98.89473,-21.775896,10.912864,4.7179565,9.21804,29.793802,-82.19728,23.271755,-77.22749,42.34159,22.482473,-2.2945602,5.744917,-78.2559,-44.17523,87.76877,40.12871,-14.840672,-11.229396,-12.878499
165,3.0236945152282715,100.7796859741211,55.41450881958008,-5.406577495380598,30.887123220712976,98.93882241902269,-88.083626,11.10471,-1.3286567,101.538826,-41.3922,-5.419189,-102.87613,-23.29412,6.5128093,94.93248,-20.725948,10.358431,4.670434,9.502652,29.793802,-81.95178,23.090225,-76.2615,42.87466,22.07171,-2.3062134,5.904097,-78.48055,-43.985096,87.827034,40.345654,-14.699809,-11.047776,-12.476048
166,3.151221990585327,101.3818359375,55.408660888671875,-5.620957352971419,31.09582465673335,99.2171893419483,-88.0264,11.091482,-1.9689513,101.93054,-41.59321,-5.9225345,-103.51852,-23.77948,5.440609,90.62426,-19.506424,10.098078,4.7006917,9.939624,29.793802,-81.69122,22.826757,-75.20234,43.370655,21.782051,-2.3262715,6.079335,-78.68315,-43.848846,87.80465,40.66596,-14.601265,-10.850545,-12.076143
167,3.28869891166687,102.00689697265625,55.40251922607422,-5.803575563446085,31.31871508880052,99.54575352424848,-87.9766,11.0555935,-2.6008835,102.31293,-41.793423,-6.4095955,-103.88723,-24.21079,4.398828,86.08518,-18.201134,9.999843,4.7147303,10.380062,29.793802,-81.417336,22.48359,-74.06787,43.939587,21.317484,-2.3508418,6.2820053,-78.87575,-43.763485,87.65322,41.002533,-14.376255,-10.63291,-11.627902
168,3.4365367889404297,102.61030578613281,55.377532958984375,-5.8513908871465885,31.57798951255973,99.94524876133389,-87.92225,10.959339,-3.110474,102.674904,-42.003757,-6.864851,-104.117714,-24.67793,3.4326987,81.42544,-16.891296,9.911097,4.6131997,10.663975,29.793802,-81.12743,22.08178,-72.873985,44.68726,20.386124,-2.37719,6.5243587,-79.06913,-43.70833,87.32205,41.268528,-13.85653,-10.387989,-11.080965
169,3.5726287364959717,103.1936264038086,55.30479049682617,-5.702809061466219,31.895061856341563,100.43432030626767,-87.87252,10.778026,-3.4320319,103.009895,-42.222446,-7.2873497,-104.24238,-25.174923,2.5920582,76.50308,-15.580002,9.823224,4.322209,10.689384,29.793802,-80.80982,21.649109,-71.550606,45.69174,18.907549,-2.4409485,6.8001976,-79.280685,-43.650917,86.7861,41.417194,-13.002532,-10.049893,-10.419343
170,3.716994047164917,103.79964447021484,55.219661712646484,-5.418994256962163,32.24844190138044,101.00338619807292,-87.82555,10.534968,-3.6377335,103.32624,-42.44502,-7.6861653,-104.18704,-25.660763,1.8314929,71.287445,-14.209553,9.792049,3.8871312,10.539181,29.793802,-80.46076,21.200813,-70.1154,46.868465,17.04365,-2.535934,7.106071,-79.49785,-43.570415,86.075005,41.51774,-11.905277,-9.636617,-9.677042
171,3.9128940105438232,104.42364501953125,55.12868118286133,-5.065639101957436,32.59685991606245,101.63651908617521,-87.76286,10.258988,-3.8103523,103.63883,-42.68427,-8.051729,-103.92939,-26.162848,1.0455328,66.039986,-12.767668,9.779384,3.386574,10.329301,29.793802,-80.0986,20.742044,-68.72257,48.086056,14.85112,-2.6004589,7.4617805,-79.686806,-43.464226,85.219666,41.6553,-10.5869875,-9.264117,-8.87567
172,4.118208408355713,105.06816101074219,55.03755187988281,-4.715274369730908,32.90131788652184,102.31162714980346,-87.666084,9.983202,-4.036122,103.967964,-42.957558,-8.377694,-103.46021,-26.695587,0.12643504,61.049114,-11.255981,9.752889,2.9122672,10.181877,29.793802,-79.738754,20.268187,-67.527374,49.216454,12.381697,-2.5756245,7.8900957,-79.82418,-43.3465,84.25945,41.902073,-9.066752,-9.04791,-8.029563
173,4.347881317138672,105.7261734008789,54.931610107421875,-4.3903620828645815,33.1561511377085,103.02204672611188,-87.52494,9.707604,-4.3407645,104.3074,-43.288784,-8.658973,-102.70481,-27.246527,-0.9754598,56.16483,-9.566849,9.72799,2.5110507,10.155112,29.793802,-79.36805,19.763922,-66.53559,50.234886,9.092325,-2.4309747,8.524753,-79.89654,-43.238804,83.14266,42.30488,-7.2265406,-9.027183,-7.056597
174,4.588906764984131,106.40369415283203,54.79711151123047,-4.050832215214838,33.37509990875141,103.78717588348924,-87.34807,9.411697,-4.682882,104.65403,-43.662807,-8.900888,-101.679726,-27.794436,-2.212121,51.28228,-7.7216887,9.723071,2.1367002,10.190435,29.793802,-78.97958,19.220171,-65.68339,51.215782,5.1302767,-2.238433,9.326164,-79.91447,-43.15157,81.86823,42.800877,-5.0926647,-9.118066,-5.9700866
175,4.850479602813721,107.0792465209961,54.654693603515625,-3.6829648712035845,33.55425397297376,104.6129637433806,-87.15075,9.103255,-5.0432205,105.02835,-44.03328,-9.112348,-100.556206,-28.336279,-3.524692,46.82636,-5.935886,9.70534,1.7449567,10.230875,29.793802,-78.594826,18.645584,-65.00973,52.1699,1.5998427,-2.0507076,10.045778,-79.891335,-43.08315,80.55061,43.300087,-2.8956578,-9.267572,-4.9234347
176,5.13490629196167,107.76406860351562,54.499961853027344,-3.2688255009015728,33.69630451572433,105.49424961757128,-86.95052,8.7991495,-5.3943186,105.451614,-44.356743,-9.301853,-99.54474,-28.879076,-4.827211,43.27794,-4.448923,9.637951,1.2870109,10.203967,29.793802,-78.248276,18.06676,-64.547226,53.097057,-0.39291286,-1.8624728,10.421027,-79.851776,-43.02098,79.310844,43.71535,-0.8647621,-9.441325,-4.0709867
177,5.4499993324279785,108.4578628540039,54.32045364379883,-2.787982654589516,33.803994499032925,106.4327736911155,-86.75337,8.495424,-5.712272,105.93661,-44.629463,-9.432409,-98.57638,-29.53071,-6.386423,40.742424,-3.624254,9.528774,0.7002897,10.029269,29.793802,-77.93924,17.519644,-64.33601,54.036297,-0.15805472,-1.5897002,10.343854,-79.79925,-42.93828,78.13471,43.994965,1.0752691,-9.701044,-3.4376307
178,5.7963433265686035,109.15383911132812,54.10919952392578,-2.2522866574264726,33.884085950483325,107.411796237347,-86.554344,8.199296,-6.0013957,106.46743,-44.87222,-9.511461,-97.635826,-30.241484,-8.116297,39.044605,-3.269556,9.391722,0.013169191,9.724868,29.793802,-77.64681,17.030153,-64.33795,54.967922,1.5845708,-1.2450192,9.949223,-79.7319,-42.81732,76.96939,44.198994,3.0093558,-10.057,-2.9367874
179,6.1526899337768555,109.87272644042969,53.89277267456055,-1.701223396745696,33.95348650194071,108.38739237845618,-86.361595,7.9530573,-6.272406,107.014206,-45.076874,-9.612954,-97.072044,-30.827719,-9.364837,38.294155,-2.818121,9.160995,-0.68062073,9.3676605,29.793802,-77.38875,16.611263,-64.46418,55.796135,3.817562,-0.9490388,9.343552,-79.67752,-42.664223,75.882454,44.403305,4.7079306,-10.410674,-2.564156
180,6.522416114807129,110.59754180908203,53.65996551513672,-1.1714971469226643,34.02836822230701,109.32176222080186,-86.184586,7.7958665,-6.5422735,107.546,-45.233925,-9.811186,-97.24166,-31.13578,-9.478434,38.58287,-1.6909904,8.754398,-1.2788413,9.061234,29.793802,-77.19288,16.258732,-64.62619,56.40863,5.521947,-0.80083627,8.650571,-79.6705,-42.507,74.95687,44.67766,5.9414363,-10.662928,-2.3254323
181,6.89603328704834,111.28754425048828,53.449398040771484,-0.6526211698745122,34.141048174888,110.20994093734838,-86.047874,7.713112,-6.8155694,108.0501,-45.33179,-10.142127,-98.48979,-30.922352,-7.7934647,40.190365,0.8040815,8.06617,-1.7385895,8.830103,29.793802,-77.101906,15.965362,-64.84349,56.7579,6.564743,-0.8357129,7.8037014,-79.73984,-42.378952,74.17243,45.035664,6.4717746,-10.760738,-2.2934604
182,7.2733306884765625,111.99027252197266,53.23642349243164,-0.1382622703652027,34.26385517319187,111.0860509320204,-85.93569,7.678793,-7.100431,108.54954,-45.380013,-10.564924,-100.45229,-30.254953,-4.898137,42.869064,4.2873716,7.2876287,-2.1075642,8.66074,29.793802,-77.08222,15.722876,-65.15251,56.882736,7.438383,-1.0013081,6.775463,-79.846725,-42.29758,73.50013,45.425583,6.476832,-10.772348,-2.4481752
183,7.667366981506348,112.74003601074219,53.00440216064453,0.3279412348950883,34.32903174735281,111.96512577574323,-85.798805,7.719965,-7.413364,109.06646,-45.40362,-11.036764,-102.47763,-29.502945,-1.9648852,45.967903,7.6567307,6.695604,-2.4171705,8.600289,29.793802,-77.06811,15.511258,-65.49606,56.80795,8.051439,-1.2306421,5.756046,-79.93468,-42.27061,73.02109,45.81802,6.354179,-10.776736,-2.6582613
184,8.061992645263672,113.45297241210938,52.75871658325195,0.7123665118006851,34.28086784287401,112.84811081686217,-85.58866,7.874597,-7.7432704,109.620834,-45.43033,-11.508163,-104.092545,-29.208002,-0.025964992,48.990807,9.68083,6.33557,-2.7052305,8.664001,29.793802,-77.0008,15.306289,-65.80185,56.581802,8.327618,-1.4507132,4.9342504,-79.9616,-42.295795,72.823654,46.179966,6.5067477,-10.854865,-2.791662
185,8.451322555541992,114.18299865722656,52.50790023803711,1.0329947389109353,34.06615641802372,113.77858554922798,-85.26753,8.121928,-8.083373,110.24739,-45.46381,-11.985961,-105.33554,-29.814983,0.64722323,52.138084,9.592676,6.136707,-3.0082583,8.864855,29.793802,-76.84008,15.082823,-66.04465,56.173973,8.060602,-1.6532211,4.322811,-79.88075,-42.36992,72.96353,46.508713,7.120702,-11.054609,-2.8245552
186,8.849369049072266,114.90031433105469,52.25643539428711,1.2972877571801809,33.72852439072593,114.74179032572125,-84.867966,8.448663,-8.431408,110.92454,-45.490074,-12.4854555,-106.461685,-31.059904,0.6886094,55.597855,8.151518,5.9871807,-3.2954895,9.193046,29.793802,-76.63312,14.825563,-66.258446,55.600048,7.356898,-1.8618823,3.8299878,-79.72553,-42.495705,73.38957,46.83022,7.9611306,-11.324286,-2.8190858
187,9.243622779846191,115.61515045166016,52.02729797363281,1.4691540517963237,33.366817755739355,115.64111790903189,-84.44468,8.917866,-8.769255,111.58053,-45.512707,-12.969798,-107.43276,-32.493587,0.48449266,58.972767,6.3585095,5.7669277,-3.505175,9.608402,29.793802,-76.46585,14.534461,-66.46067,54.98532,6.6070952,-2.055883,3.490872,-79.57317,-42.67513,74.01354,47.145973,8.785285,-11.595303,-2.7742503
188,9.621187210083008,116.33146667480469,51.82777786254883,1.5203338939355797,33.08307379893429,116.37952524425033,-84.05438,9.596024,-9.075768,112.14118,-45.533623,-13.401694,-108.204094,-33.580147,0.37249666,61.87557,5.2202153,5.3794675,-3.5804384,10.061512,29.793802,-76.423874,14.223898,-66.66944,54.450867,6.202742,-2.2203104,3.3447084,-79.511734,-42.9084,74.75368,47.44954,9.353516,-11.7989025,-2.6939173
189,9.964310646057129,117.03974151611328,51.672847747802734,1.3821569272853655,32.90501913101805,116.8908044352799,-83.735245,10.595329,-9.35633,112.625404,-45.56361,-13.750126,-108.70671,-34.09507,0.35294247,64.17399,5.1585417,4.743691,-3.4450338,10.606624,29.793802,-76.54847,13.90478,-66.905525,53.9749,6.304751,-2.348623,3.4908345,-79.59657,-43.204132,75.71788,47.786224,9.536511,-11.91632,-2.5712636
190,10.302947044372559,117.7403564453125,51.555206298828125,1.0921517222743407,32.78341414941148,117.23667281167003,-83.45821,11.855976,-9.623701,113.05749,-45.59576,-14.04383,-108.976425,-34.322433,0.24019207,66.100296,5.5867515,3.951122,-3.1448925,11.245066,29.793802,-76.79127,13.579467,-67.150795,53.50287,6.6892457,-2.449714,3.8813896,-79.77597,-43.565678,76.908844,48.12842,9.484572,-11.984623,-2.4088378
191,10.643242835998535,118.4535140991211,51.47684860229492,0.7876413225857354,32.70394606697465,117.51307622514237,-83.1773,13.184693,-9.859505,113.374794,-45.60316,-14.333172,-109.13705,-34.435513,0.0730964,67.823975,6.004675,3.1645644,-2.817984,11.836571,29.793802,-77.10539,13.259395,-67.37268,53.10865,7.1591334,-2.5327659,4.336839,-79.97079,-43.975426,78.07349,48.361588,9.369006,-12.018691,-2.2285192
192,10.994124412536621,119.1741943359375,51.42845916748047,0.6130086705812522,32.65263595462727,117.817761556382,-82.84084,14.385045,-10.0376835,113.51548,-45.559006,-14.667675,-109.31394,-34.610188,-0.08676493,69.51556,5.903362,2.5452352,-2.613976,12.227729,29.793802,-77.43149,12.967082,-67.54049,52.86471,7.51952,-2.6113114,4.675955,-80.1053,-44.39887,78.951645,48.384182,9.353318,-12.032401,-2.0519164
193,11.330863952636719,119.90193176269531,51.4055061340332,0.6001732986831527,32.64987940145346,118.15668593677623,-82.45275,15.462373,-10.108045,113.45816,-45.462524,-15.000033,-109.54995,-34.867706,-0.2307159,71.21636,5.0606546,2.180081,-2.6000013,12.3129635,29.793802,-77.760765,12.737105,-67.63578,52.822803,7.7562976,-2.6982253,4.864899,-80.16002,-44.792824,79.448746,48.147232,9.464813,-12.014325,-1.835657
194,11.657952308654785,120.62872314453125,51.41337585449219,0.7830574112564106,32.70962795471919,118.54169500895036,-82.019684,16.469122,-9.906478,113.21484,-45.305153,-15.000033,-109.877464,-35.1201,-0.24660194,72.84021,3.7966352,1.9921924,-2.7954054,12.07432,29.793802,-78.10669,12.603314,-67.67536,52.95578,7.961485,-2.7827046,4.9974647,-80.20337,-45.12107,79.71182,47.70293,9.616462,-11.960675,-1.5839019
195,11.988903999328613,121.34828186035156,51.46268081665039,1.088702854474631,32.780666271152015,118.95998079892851,-81.51097,17.339632,-9.626646,112.82122,-45.09484,-15.000033,-110.21449,-35.3645,-0.17665704,74.38004,2.3539865,1.8610518,-3.1157992,11.67853,29.793802,-78.429924,12.570422,-67.69658,53.13978,8.0928755,-2.8460817,5.076217,-80.24957,-45.371147,79.83426,47.185314,9.808103,-11.901048,-1.3923588
196,12.2982177734375,122.05477905273438,51.54961395263672,1.5033239849502227,32.817248901232055,119.43034068866915,-80.894516,17.998138,-9.322467,112.29855,-44.827415,-15.000033,-110.526436,-35.599804,0.010505795,75.82043,0.99623287,1.6775367,-3.5083377,11.254314,29.793802,-78.70903,12.620507,-67.73395,53.287308,8.105891,-2.8707607,5.1064954,-80.315544,-45.552597,79.90622,46.697144,10.0354805,-11.863197,-1.3555714
197,12.595863342285156,122.75735473632812,51.66445541381836,2.0653851089425923,32.806262989493355,119.9884844335934,-80.150986,18.3901,-8.9761915,111.62718,-44.515114,-15.000033,-110.84558,-35.835457,0.37479094,77.167694,-0.24422444,1.3924721,-3.9980698,10.7988615,29.793802,-78.94736,12.737283,-67.77692,53.41114,7.9210196,-2.8233523,5.063937,-80.41222,-45.67671,79.94012,46.223495,10.329351,-11.851898,-1.5478975
198,12.893769264221191,123.44335174560547,51.7880973815918,2.757087143156323,32.76527423241312,120.60642343752505,-79.30145,18.567131,-8.589846,110.80788,-44.15914,-15.000033,-111.166435,-36.061535,0.868527,78.42935,-1.496771,1.071291,-4.581235,10.277022,29.793802,-79.16263,12.91462,-67.812614,53.550674,7.5859494,-2.7235873,4.954902,-80.51956,-45.74653,79.88414,45.728943,10.674605,-11.854973,-1.9024712
199,13.17304801940918,124.13969421386719,51.95030975341797,3.4921110463012814,32.69805224723974,121.21584740407974,-78.37294,18.605516,-8.226462,109.89026,-43.738758,-15.000033,-111.41643,-36.251225,1.3884647,79.59132,-2.7398515,0.7794895,-5.178329,9.74626,29.793802,-79.35374,13.1434145,-67.86825,53.674114,7.249996,-2.6340277,4.8310094,-80.62891,-45.768803,79.76024,45.26986,11.027005,-11.874514,-2.3013766
200,13.447364807128906,124.82522583007812,52.14372253417969,4.1819056131692856,32.612951851609544,121.74925975073961,-77.39539,18.58686,-7.9459763,108.92402,-43.228718,-15.000033,-111.522606,-36.383858,1.829107,80.64002,-3.9545424,0.5807946,-5.7067666,9.26896,29.793802,-79.51906,13.410626,-67.96847,53.748165,7.063346,-2.6185982,4.742758,-80.721115,-45.753532,79.57903,44.902157,11.32876,-11.910212,-2.6270802
201,13.705060005187988,125.51561737060547,52.35161590576172,4.821161433725642,32.49724225011276,122.19946331724448,-76.3406,18.495579,-7.773898,107.892044,-42.64152,-15.000033,-111.460556,-36.460915,2.18792,81.5776,-5.141754,0.5095734,-6.1366806,8.874388,29.793802,-79.65698,13.700815,-68.1465,53.762424,7.105796,-2.7189736,4.705986,-80.79312,-45.71501,79.333496,44.651264,11.603336,-11.974652,-2.839958
202,13.951253890991211,126.1964340209961,52.593971252441406,5.447761594649321,32.351981636968254,122.59478764949851,-75.204666,18.30475,-7.6834517,106.77955,-41.98863,-15.000033,-111.26855,-36.496925,2.5090482,82.4131,-6.31309,0.5239321,-6.499851,8.533641,29.793802,-79.77288,14.003121,-68.37729,53.744083,7.285827,-2.8939977,4.6941013,-80.84343,-45.66365,79.0155,44.47519,11.8620825,-12.062228,-3.0054576
203,14.19115924835205,126.8827896118164,52.87617874145508,6.045992044133132,32.2084863726691,122.92501740192324,-74.05301,18.080624,-7.6466193,105.639786,-41.2388,-15.000033,-110.97011,-36.49655,2.7604337,83.14159,-7.4638247,0.5729682,-6.81416,8.21536,29.793802,-79.876564,14.314405,-68.60106,53.720676,7.494547,-3.083514,4.692743,-80.879814,-45.60173,78.66247,44.328705,12.057324,-12.1438055,-3.1636264
204,14.405674934387207,127.57945251464844,53.18450164794922,6.602465031636034,32.099599658406376,123.18321131133928,-72.95554,17.89276,-7.628819,104.52938,-40.3519,-15.000033,-110.58914,-36.4619,2.9087148,83.757195,-8.588828,0.605829,-7.1022825,7.890669,29.793802,-79.976006,14.6379385,-68.75751,53.712643,7.6239786,-3.2273865,4.6856804,-80.90198,-45.523724,78.29995,44.17515,12.129958,-12.192114,-3.3545265
205,14.621417045593262,128.273193359375,53.51240539550781,7.115705847976619,32.04339973040929,123.36341190660417,-71.893074,17.755407,-7.6052947,103.39673,-39.37082,-15.000033,-110.125,-36.387222,2.9336598,84.23708,-9.684549,0.6137686,-7.381848,7.5494146,29.793802,-80.08343,14.981275,-68.83714,53.74393,7.628025,-3.3178437,4.65437,-80.91973,-45.420845,77.917076,43.99494,11.989602,-12.173944,-3.6124475
206,14.829995155334473,128.96908569335938,53.85729217529297,7.5924545456806625,32.02150074031242,123.47179086436495,-70.84308,17.639883,-7.593171,102.23514,-38.291874,-15.000033,-109.570404,-36.27459,2.8585284,84.593376,-10.755315,0.62113327,-7.643038,7.2040324,29.793802,-80.1855,15.347229,-68.87126,53.79412,7.569347,-3.3841777,4.6111383,-80.93457,-45.289207,77.512184,43.81659,11.699271,-12.111733,-3.9074976
207,15.034421920776367,129.66554260253906,54.21446990966797,8.038496179604971,32.011296745206,123.52364354838282,-69.86549,17.535625,-7.6189322,101.1553,-37.026707,-15.000033,-108.936485,-36.131702,2.7146468,84.866684,-11.804401,0.6287897,-7.868408,6.863753,29.793802,-80.25587,15.731578,-68.858185,53.816658,7.504169,-3.4216785,4.585871,-80.92273,-45.129677,77.107445,43.67439,11.410308,-12.060076,-4.184771
208,15.214720726013184,130.3717803955078,54.592620849609375,8.455870355219602,31.990433522354227,123.53367993443823,-69.02349,17.43847,-7.7066555,100.27198,-35.483017,-15.000033,-108.23529,-35.966972,2.5337052,85.09896,-12.835571,0.63733673,-8.038924,6.539817,29.793802,-80.27328,16.124674,-68.79414,53.76983,7.4904075,-3.4260638,4.6088057,-80.871445,-44.948204,76.73821,43.602524,11.285645,-12.076328,-4.390189
209,15.397638320922852,131.0812530517578,54.97941970825195,8.84327411673416,31.950630382760284,123.49299347880778,-68.2732,17.326006,-7.8737545,99.58644,-33.695072,-15.000033,-107.451,-35.77236,2.3169765,85.28936,-13.851083,0.64829206,-8.138678,6.23802,29.793802,-80.22251,16.515913,-68.6683,53.644115,7.5660133,-3.3866172,4.702757,-80.770004,-44.750675,76.40692,43.611732,11.424871,-12.201923,-4.4881487
210,15.592443466186523,131.7880096435547,55.36637878417969,9.198005628420418,31.906594159252606,123.39911193608613,-67.60749,17.213797,-8.101019,99.045006,-31.683535,-15.000033,-106.58438,-35.545788,2.047617,85.41835,-14.848933,0.65822005,-8.176128,5.9591146,29.793802,-80.124504,16.899525,-68.483406,53.467724,7.6925206,-3.3088825,4.847252,-80.62526,-44.540577,76.09587,43.681923,11.717398,-12.398459,-4.5139565
211,15.784421920776367,132.50926208496094,55.76585006713867,9.524210883796135,31.869578313017914,123.27729289199276,-67.14103,17.12663,-8.366281,98.6971,-29.365314,-15.000033,-105.67142,-35.304104,1.7333765,85.49837,-15.823508,0.6646567,-8.169707,5.704835,29.793802,-80.013535,17.273859,-68.25702,53.25843,7.8144336,-3.213418,5.0074735,-80.46169,-44.32348,75.82402,43.794964,12.028297,-12.601427,-4.52168
212,15.976570129394531,133.2313232421875,56.172359466552734,9.818653296129403,31.85045065041748,123.15019218621224,-66.990585,17.09155,-8.650094,98.58999,-26.647804,-15.000033,-104.743904,-35.061317,1.3775836,85.54012,-16.768911,0.6652546,-8.136613,5.4796824,29.793802,-79.92518,17.63995,-68.00974,53.02975,7.872668,-3.1212454,5.1485214,-80.297295,-44.10612,75.60317,43.932175,12.213857,-12.746205,-4.566898
213,16.165306091308594,133.9552001953125,56.5751953125,10.110542742042083,31.85722622162286,123.03915453670297,-67.193855,17.110212,-8.919039,98.76394,-23.428473,-15.000033,-103.8233,-34.82423,1.0095202,85.528694,-17.674343,0.6775029,-8.095535,5.272448,29.793802,-79.87641,18.002558,-67.74359,52.78587,7.839938,-3.0263133,5.270386,-80.13649,-43.894684,75.43256,44.079395,12.228418,-12.807351,-4.6782722
214,16.37668228149414,134.64361572265625,56.96141815185547,10.381713129588567,31.882175614913812,122.92166142641607,-67.69582,17.16534,-9.213791,99.18499,-19.772936,-15.000033,-102.877815,-34.57941,0.60475814,85.46044,-18.5466,0.69420815,-8.024576,5.0934443,29.793802,-79.84388,18.361658,-67.451935,52.51156,7.7498693,-2.9214094,5.3881803,-79.963974,-43.693707,75.304245,44.245255,12.146852,-12.8212805,-4.821971
215,16.566551208496094,135.3218994140625,57.34513854980469,10.566398719984388,31.912181038434916,122.75619915827575,-68.46701,17.210585,-9.640195,99.80695,-15.870413,-15.000033,-101.86797,-34.31026,0.097358145,85.3705,-19.406883,0.6818585,-7.8801913,4.977214,29.793802,-79.79913,18.708254,-67.137985,52.196415,7.6397657,-2.8259673,5.4901423,-79.771,-43.508297,75.22432,44.444435,12.018237,-12.816741,-4.96072
216,16.78499412536621,136.01495361328125,57.71738815307617,10.606245573403681,31.93387974934435,122.50463923330291,-69.46837,17.167906,-10.303211,100.577965,-11.894041,-15.000033,-100.758194,-33.996143,-0.57006156,85.289505,-20.273666,0.6079238,-7.6217375,4.953258,29.793802,-79.71738,19.0263,-66.80412,51.838314,7.5472775,-2.7595637,5.5647,-79.55278,-43.34413,75.200195,44.689983,11.890221,-12.822511,-5.057197
217,17.017728805541992,136.6957550048828,58.06855392456055,10.425380953624567,31.946188669701016,122.11561361063613,-70.81617,17.040417,-11.350432,101.62229,-7.3647337,-15.000033,-99.487755,-33.597378,-1.4862643,85.20847,-21.151651,0.44788733,-7.1876307,5.0737004,29.793802,-79.58583,19.294512,-66.432465,51.427185,7.482132,-2.7216637,5.5963497,-79.28024,-43.209793,75.216225,44.99376,11.744047,-12.8387985,-5.100878
218,17.260530471801758,137.38516235351562,58.38932418823242,10.070333839074882,31.95086308566277,121.62094746331111,-72.47378,16.685478,-12.758521,102.92134,-2.3163157,-15.000033,-98.09204,-33.11479,-2.5935245,85.10939,-22.024755,0.2239118,-6.604131,5.318717,29.793802,-79.42953,19.499626,-66.029945,50.984833,7.423376,-2.7046468,5.5959806,-78.96145,-43.11396,75.27193,45.343433,11.564561,-12.8528,-5.111957
219,17.496904373168945,138.07659912109375,58.69144821166992,9.68976929761651,31.945797292074605,121.13049999345263,-74.164085,15.887632,-14.287897,104.201805,2.3056893,-15.000033,-96.70257,-32.618134,-3.7043157,85.00765,-22.88437,-0.022208411,-5.985906,5.5968647,29.793802,-79.28453,19.643766,-65.62915,50.558563,7.3685956,-2.7173233,5.592778,-78.64061,-43.059338,75.380196,45.711994,11.393814,-12.874189,-5.1002502
220,17.677913665771484,138.7295684814453,58.98337936401367,10.003937805126906,31.94372370486767,121.04596895508728,-75.991905,16.10473,-13.984898,105.02006,5.622598,-12.242027,-95.943855,-32.356457,-3.9138825,84.973045,-23.637074,-0.14426911,-5.86224,5.313449,29.793802,-79.23568,19.798227,-65.22477,50.3647,7.333111,-2.7705104,5.634233,-78.46739,-43.00166,75.572205,45.913643,11.26975,-12.901033,-5.072547
221,17.84755516052246,139.3748779296875,59.26008224487305,10.424895117014202,31.945230001181784,121.04787558084584,-77.5694,16.067966,-13.459641,105.56778,6.893464,-9.25244,-95.30925,-32.17465,-3.9791617,84.9681,-24.377714,-0.2462676,-5.8195143,4.957497,29.793802,-79.22431,19.978247,-64.871185,50.178757,7.2905545,-2.8744807,5.692434,-78.36057,-42.93202,75.85762,46.147537,11.25164,-12.964705,-5.020825
222,18.02318000793457,140.0032958984375,59.53447341918945,10.926194028828975,31.948113264533593,121.11620636998656,-78.94827,15.518775,-12.932112,105.96419,6.7661786,-6.5634456,-94.76716,-32.054825,-3.939364,84.99067,-25.10866,-0.34226215,-5.8444104,4.5368237,29.793802,-79.23743,20.184486,-64.548676,49.99422,7.243715,-3.0202584,5.757963,-78.308754,-42.850433,76.22664,46.408653,11.304895,-13.054394,-4.944279
223,18.18425941467285,140.63314819335938,59.793697357177734,11.439707430523825,31.929661257457944,121.22354902314615,-80.17455,14.676083,-12.340129,106.160934,5.943339,-4.5075684,-94.23889,-31.980938,-3.8678916,85.05127,-25.846422,-0.4307942,-5.903024,4.118961,29.793802,-79.22424,20.409277,-64.242874,49.78254,7.193365,-3.1801045,5.8491797,-78.26565,-42.756363,76.6335,46.69209,11.313803,-13.137743,-4.868927
224,18.335899353027344,141.249267578125,60.028194427490234,11.883481441819843,31.86720062178208,121.33392318981042,-81.30802,13.872024,-11.610792,106.10002,5.1073294,-3.3285086,-93.63272,-31.929981,-3.8570964,85.16122,-26.609562,-0.5137955,-5.9472284,3.7823365,29.793802,-79.13179,20.634756,-63.940483,49.521423,7.1414275,-3.3266914,5.984656,-78.19448,-42.65293,77.05177,46.996536,11.1823635,-13.183934,-4.819996
225,18.483463287353516,141.87461853027344,60.24162292480469,12.237247803333453,31.746913759775907,121.44561596527292,-82.30911,13.088419,-10.765072,105.73346,4.3099203,-3.4535606,-92.92011,-31.901148,-3.919274,85.32907,-27.400108,-0.59175473,-5.96278,3.560315,29.793802,-78.934845,20.839731,-63.626884,49.211857,7.0806394,-3.456308,6.1864285,-78.07553,-42.544918,77.48667,47.331676,10.818474,-13.166067,-4.828977
226,18.627349853515625,142.51119995117188,60.43757629394531,12.533462268721498,31.583008463001924,121.56965915613284,-83.184456,12.222484,-9.845032,105.09615,3.2297068,-4.596226,-92.14263,-31.902008,-4.0203853,85.54832,-28.210745,-0.66478354,-5.960583,3.4198148,29.793802,-78.67119,21.012194,-63.3129,48.880825,7.014375,-3.5836322,6.439396,-77.92694,-42.437267,77.94824,47.69762,10.29754,-13.106823,-4.8731623
227,18.767345428466797,143.15704345703125,60.60772705078125,12.776301983624,31.396317534656355,121.69433348985079,-84.042595,11.505829,-8.782385,104.24843,1.987494,-5.911524,-91.31464,-31.923223,-4.180193,85.80003,-29.048151,-0.7351803,-5.933013,3.3394675,29.793802,-78.38647,21.14878,-63.026344,48.543777,6.9548583,-3.7084851,6.7066555,-77.754005,-42.33445,78.39768,48.07533,9.760486,-13.049545,-4.8971868
228,18.914213180541992,143.79937744140625,60.76479721069336,12.981155769649597,31.20833573386658,121.81482186458867,-84.961586,11.121563,-7.501223,103.25202,0.712579,-6.604942,-90.46439,-31.958996,-4.4016585,86.06941,-29.911665,-0.8025062,-5.8841643,3.2839448,29.793802,-78.126854,21.254858,-62.795555,48.216675,6.9146852,-3.8303173,6.951618,-77.57591,-42.240658,78.810165,48.440193,9.361289,-13.038018,-4.846704
229,19.059539794921875,144.42320251464844,60.894954681396484,13.144218094803808,31.01834745557429,121.93481188417758,-85.946106,11.140709,-5.9416404,102.14416,-0.6740249,-6.4367423,-89.57746,-32.01365,-4.708067,86.34708,-30.80506,-0.87156254,-5.8185754,3.2549338,29.793802,-77.8927,21.334631,-62.638138,47.898697,6.895787,-3.9377122,7.2016015,-77.38241,-42.157166,79.16798,48.787727,9.128164,-13.094145,-4.680767
230,19.22279167175293,145.0706787109375,61.00773239135742,13.271214460178152,30.81734792895342,122.06123588607755,-86.91778,11.414608,-4.143244,100.8822,-2.2097359,-5.8845305,-88.65689,-32.089966,-5.07419,86.64573,-31.722593,-0.9384818,-5.7416644,3.255249,29.793802,-77.664955,21.388979,-62.536705,47.584282,6.891617,-4.0343366,7.464172,-77.17246,-42.08493,79.49004,49.122253,8.986908,-13.19097,-4.437377
231,19.35956573486328,145.74560546875,61.09147644042969,13.401371949835172,30.61506206022965,122.19835654616246,-87.81747,11.770265,-2.1857684,99.41386,-3.7052374,-5.26166,-87.754105,-32.18358,-5.4335318,86.97772,-32.658363,-0.9905809,-5.6529565,3.2522197,29.793802,-77.46372,21.41334,-62.47334,47.279858,6.8997626,-4.1418724,7.6744223,-76.95533,-42.043266,79.77189,49.419197,8.911106,-13.298563,-4.1802006
232,19.488420486450195,146.3604278564453,61.15410232543945,13.568629984185275,30.42079185817794,122.34715260803708,-88.60704,12.062136,-0.14692122,97.68494,-4.9610095,-4.8530993,-86.922104,-32.290344,-5.7219124,87.36154,-33.603245,-1.016732,-5.568944,3.2217407,29.793802,-77.289856,21.42994,-62.40183,46.97009,6.9259157,-4.2825465,7.763214,-76.769615,-42.01285,80.05603,49.68625,8.892095,-13.387992,-3.9764688
233,19.603778839111328,146.98643493652344,61.193634033203125,13.782415972872306,30.236461015530676,122.52250821582935,-89.294716,12.316302,2.029685,95.6662,-5.9420877,-4.6835704,-86.17003,-32.421425,-5.9367404,87.80058,-34.557896,-1.014457,-5.487818,3.1567042,29.793802,-77.1596,21.439701,-62.349052,46.661194,6.965112,-4.4852877,7.67589,-76.594666,-42.00225,80.293205,49.913036,8.976386,-13.464476,-3.8386755
234,19.719608306884766,147.62088012695312,61.20074462890625,14.02481022556867,30.056768579658335,122.71821909570407,-89.88402,12.582919,4.37235,93.38545,-6.74702,-4.6191635,-85.47046,-32.576412,-6.109648,88.28657,-35.526066,-0.9911245,-5.4168196,3.0823178,29.793802,-77.051186,21.451082,-62.297886,46.337288,7.0227313,-4.7318273,7.457727,-76.45669,-42.00384,80.543846,50.114864,9.185386,-13.538698,-3.7360997
235,19.833280563354492,148.26148986816406,61.181270599365234,14.281023338152186,29.881391084610723,122.9005624862477,-90.35921,12.774451,6.745444,90.866165,-7.362351,-4.6850963,-84.81205,-32.72978,-6.242284,88.813805,-36.502815,-0.95207316,-5.339484,2.9812238,29.793802,-76.9488,21.467318,-62.234165,45.98956,7.092668,-4.9685397,7.201152,-76.32815,-42.01843,80.78174,50.277473,9.34494,-13.589263,-3.6589258
236,19.945423126220703,148.91859436035156,61.141754150390625,14.535173062783866,29.70956406682019,123.03445668453693,-90.71561,12.813313,9.021042,88.12948,-7.7746778,-4.880424,-84.18279,-32.856102,-6.3361864,89.37844,-37.483315,-0.90310174,-5.243078,2.829829,29.793802,-76.8398,21.490492,-62.146828,45.619484,7.1691813,-5.1417475,6.9982204,-76.226814,-42.043446,81.04555,50.390034,9.340281,-13.596898,-3.5967321
237,20.031965255737305,149.56890869140625,61.06934356689453,14.7899941223309,29.538944074780456,123.1158904671411,-90.96907,12.650054,11.147148,85.140366,-7.9444375,-5.244827,-83.583954,-32.954346,-6.3864393,89.98166,-38.470142,-0.840337,-5.1279006,2.6154103,29.793802,-76.721924,21.518183,-62.03116,45.223278,7.264687,-5.2128263,6.8541346,-76.14334,-42.069023,81.32746,50.453014,9.04885,-13.5580435,-3.5715566
238,20.094324111938477,150.2252960205078,60.979740142822266,15.048414061050435,29.371111876730097,123.1577826663678,-91.131485,12.341596,13.19243,81.885216,-7.882657,-5.745954,-83.01794,-33.033806,-6.3966208,90.62399,-39.46434,-0.7634855,-5.0059805,2.3684785,29.793802,-76.58153,21.574978,-61.864723,44.76829,7.385978,-5.2190905,6.720116,-76.10427,-42.1048,81.672295,50.4698,8.596284,-13.482429,-3.583279
239,20.161014556884766,150.87179565429688,60.8719596862793,15.293583838556103,29.209095499288942,123.15054990956611,-91.193695,11.974077,15.169608,78.41629,-7.652074,-6.3101606,-82.47037,-33.084126,-6.3843327,91.30138,-40.462006,-0.6836526,-4.858298,2.0809793,29.793802,-76.44278,21.63981,-61.702633,44.311832,7.493004,-5.2175117,6.6266775,-76.099106,-42.134804,82.03629,50.454506,8.154608,-13.37316,-3.5787616
240,20.220643997192383,151.51124572753906,60.746150970458984,15.508383661555891,29.058633529512523,123.085851812571,-91.14302,11.620693,17.100302,74.786964,-7.308505,-6.871269,-81.92989,-33.09427,-6.365435,92.006714,-41.457264,-0.6115501,-4.676198,1.805106,29.793802,-76.28634,21.730425,-61.51904,43.82645,7.566238,-5.26782,6.59078,-76.11062,-42.164593,82.40142,50.423176,7.858608,-13.229556,-3.5151973
241,20.258249282836914,152.1685791015625,60.59916687011719,15.694380877945296,28.92360326480739,122.95704339587873,-90.96192,11.258959,18.982433,70.93871,-6.8435836,-7.4684906,-81.40342,-33.053272,-6.3364077,92.73947,-42.45277,-0.55649245,-4.4580417,1.5101122,29.793802,-76.12871,21.847546,-61.348045,43.34024,7.559021,-5.39763,6.6288853,-76.2046,-42.19594,82.849495,50.36673,7.915201,-13.108163,-3.3586059
