unveil-humanoid-operators/unveil-humanoid-operators.github.io/feature-analysis-animation/data/feature_matrix_instances/height_root_translate_rom_walking_A443_walk_ff_stop_180_R_normal_pace_001__A443.csv
Frame,root_translateX,root_translateY,root_translateZ,root_rotateX,root_rotateY,root_rotateZ,left_hip_pitch_joint_dof,left_hip_roll_joint_dof,left_hip_yaw_joint_dof,left_knee_joint_dof,left_ankle_pitch_joint_dof,left_ankle_roll_joint_dof,right_hip_pitch_joint_dof,right_hip_roll_joint_dof,right_hip_yaw_joint_dof,right_knee_joint_dof,right_ankle_pitch_joint_dof,right_ankle_roll_joint_dof,waist_yaw_joint_dof,waist_roll_joint_dof,waist_pitch_joint_dof,left_shoulder_pitch_joint_dof,left_shoulder_roll_joint_dof,left_shoulder_yaw_joint_dof,left_elbow_joint_dof,left_wrist_roll_joint_dof,left_wrist_pitch_joint_dof,left_wrist_yaw_joint_dof,right_shoulder_pitch_joint_dof,right_shoulder_roll_joint_dof,right_shoulder_yaw_joint_dof,right_elbow_joint_dof,right_wrist_roll_joint_dof,right_wrist_pitch_joint_dof,right_wrist_yaw_joint_dof
0,0.23974773287773132,2.5974698066711426,74.36515808105469,-4.801702567768303,-4.673608040520172,-82.43188440287328,26.326094,8.6020975,-4.1089253,29.080854,-10.220219,-6.8123503,-20.99978,-3.3995335,-25.330908,24.405565,-2.0362368,-6.061472,-9.442344,1.9902319,12.9780245,-13.179759,21.759743,-19.695847,46.305843,14.03384,2.1304634,2.5270348,22.739983,-5.401885,16.594254,62.404312,4.903982,5.3063235,0.07397215
1,0.10868927091360092,1.551377773284912,74.44475555419922,-5.3912610399946805,-4.749045255310274,-82.70927171446233,25.462088,9.23686,-4.201663,31.957132,-8.346515,-7.4027705,-20.095125,-2.3149986,-25.393078,24.4087,-2.8468077,-6.1967697,-9.267973,2.5119689,13.062935,-12.110902,21.658495,-19.332693,46.264202,13.948018,2.1454892,2.4376168,22.271515,-5.4506984,16.50702,62.498344,4.9305415,5.364481,0.0588385
2,-0.016055047512054443,0.5203402638435364,74.5363540649414,-5.971693686642171,-4.830638943787449,-83.01349306486418,24.649992,9.8481,-4.3093815,34.799397,-6.5118995,-7.961491,-19.2102,-1.2346464,-25.40514,24.463657,-3.6765306,-6.332291,-9.083369,3.0734642,13.121601,-11.084981,21.447746,-18.943113,46.299026,13.897124,2.1550078,2.3625493,21.843086,-5.5569715,16.417383,62.581955,4.967747,5.43385,0.055579234
3,-0.13807442784309387,-0.5000406503677368,74.64412689208984,-6.539509391122242,-4.922532354641463,-83.28480455342991,23.76476,10.430436,-4.469943,37.672516,-4.57817,-8.5560055,-18.273691,-0.16715378,-25.411728,24.422876,-4.470976,-6.4581523,-8.904433,3.646098,13.195869,-10.131069,21.173243,-18.610985,46.4172,13.845936,2.1636562,2.2953534,21.423107,-5.696869,16.310541,62.601883,5.0086565,5.491988,0.04046236
4,-0.27096158266067505,-1.4989248514175415,74.76903533935547,-7.089873146433092,-5.029054095433325,-83.46367815124425,22.67809,10.982543,-4.730744,40.643837,-2.406811,-9.235015,-17.207005,0.88387364,-25.455526,24.123402,-5.168375,-6.5636306,-8.759417,4.2078104,13.329196,-9.279081,20.86428,-18.39764,46.64055,13.773021,2.1736507,2.230101,20.977581,-5.859633,16.181515,62.50598,5.0501027,5.517184,-0.01183171
5,-0.4010709524154663,-2.471632242202759,74.8992919921875,-7.635755219137028,-5.161320420101835,-83.52935047327361,21.31397,11.55429,-5.076326,43.827194,0.32773983,-10.02232,-15.952502,1.9432286,-25.55331,23.46892,-5.741975,-6.659953,-8.664983,4.750919,13.553007,-8.519918,20.54194,-18.298822,46.966423,13.664403,2.1833134,2.177483,20.494694,-6.031684,16.028904,62.28033,5.1068597,5.4996023,-0.11556387
6,-0.530720055103302,-3.4274394512176514,75.03665924072266,-8.171975725009665,-5.311596770713207,-83.51348337382802,19.732487,12.138533,-5.5065665,47.178123,3.4622371,-10.836797,-14.551807,3.0120788,-25.67665,22.536512,-6.2152233,-6.7460823,-8.605222,5.2736583,13.841292,-7.8269825,20.218977,-18.288507,47.365185,13.527377,2.1933937,2.132977,19.982355,-6.206281,15.85928,61.965637,5.172401,5.4508348,-0.2570192
7,-0.6461687088012695,-4.352316379547119,75.1677474975586,-8.679419063638568,-5.455192243468548,-83.43557419494613,18.017174,12.6414795,-6.0781913,50.52427,6.393033,-11.590135,-13.0788965,4.0512686,-25.80241,21.426064,-6.6015115,-6.79435,-8.560293,5.7667994,14.150517,-7.2038727,19.90446,-18.392027,47.823418,13.374948,2.209312,2.0689673,19.445276,-6.3883815,15.681408,61.58267,5.2140245,5.3824296,-0.41672987
8,-0.7412121295928955,-5.249057292938232,75.2911148071289,-9.133326829932196,-5.568187139551993,-83.31627296411092,16.268223,12.952851,-6.829724,53.688156,8.503319,-12.248353,-11.618821,5.0139675,-25.912893,20.261812,-6.925826,-6.7795715,-8.508943,6.2223125,14.436596,-6.65723,19.603453,-18.636576,48.329884,13.219763,2.2364001,1.958432,18.890915,-6.588396,15.503175,61.14769,5.199609,5.306697,-0.57390016
9,-0.8307021260261536,-6.132286071777344,75.41240692138672,-9.541319993812092,-5.631041487195878,-83.13233928575552,14.493502,13.039744,-7.7810307,56.687744,9.614645,-12.923781,-10.196745,5.8908386,-26.039597,19.053007,-7.1883297,-6.69695,-8.47015,6.6492047,14.689531,-6.2006297,19.319662,-19.03964,48.897335,13.039915,2.2679887,1.7877063,18.32305,-6.811617,15.324757,60.638634,5.1132665,5.225297,-0.7213324
10,-0.9153382182121277,-7.023497104644775,75.54080963134766,-9.905882485959363,-5.659731236440434,-82.88363958380653,12.656362,12.941965,-8.87619,59.613274,10.046408,-13.62622,-8.772586,6.7030888,-26.186026,17.749481,-7.3812704,-6.5618463,-8.447648,7.0436625,14.932391,-5.8219404,19.05489,-19.581278,49.52263,12.835098,2.3043833,1.5726594,17.739653,-7.0563235,15.14565,60.05149,4.9755015,5.133291,-0.8685902
11,-0.9933662414550781,-7.872325897216797,75.66670227050781,-10.204134924628834,-5.684887189962624,-82.62459410988409,10.808875,12.647908,-10.032386,62.375305,9.931702,-14.204773,-7.3387117,7.4426055,-26.297726,16.397238,-7.523067,-6.381285,-8.399046,7.3797107,15.169795,-5.488968,18.80775,-20.228735,50.17132,12.652135,2.361111,1.330613,17.139841,-7.3232565,14.974376,59.428272,4.8101482,5.0332594,-1.020404
12,-1.059154987335205,-8.726326942443848,75.79796600341797,-10.413797392872084,-5.737853021422112,-82.40923810973108,9.003995,12.149899,-11.1735,64.8762,9.41055,-14.510411,-5.8882675,8.099621,-26.322304,15.047966,-7.6357517,-6.1627,-8.283817,7.636493,15.406476,-5.168552,18.574537,-20.947433,50.80788,12.53928,2.4531631,1.0788709,16.523037,-7.614622,14.82063,58.810207,4.641528,4.9275537,-1.181045
13,-1.1194171905517578,-9.571383476257324,75.9221420288086,-10.539001272669404,-5.835747643212373,-82.24363792848528,7.2785215,11.334848,-12.40076,67.1035,8.306285,-14.449049,-4.4014754,8.6761,-26.24921,13.69937,-7.715519,-5.887969,-8.091603,7.820022,15.653903,-4.871965,18.355358,-21.778439,51.44188,12.509548,2.5900865,0.81395763,15.891973,-7.9384484,14.692592,58.187416,4.476307,4.810455,-1.3607358
14,-1.1596739292144775,-10.412483215332031,76.0517807006836,-10.591543278252223,-5.959999415423742,-82.1024118766376,5.619181,10.228395,-13.70238,69.10118,6.623251,-14.140713,-2.8889048,9.17454,-26.113731,12.3357115,-7.7587233,-5.5641017,-7.8452983,7.9442687,15.907033,-4.6105356,18.14925,-22.720682,52.08629,12.537801,2.7615438,0.5289614,15.248281,-8.294879,14.586399,57.541267,4.302623,4.683551,-1.5524006
15,-1.1993160247802734,-11.244608879089355,76.1762466430664,-10.569996789761595,-6.08755789943631,-81.99073343882384,3.987343,9.053812,-14.84756,70.84561,4.7774854,-13.747683,-1.388534,9.588954,-25.932007,10.98539,-7.7862797,-5.2358756,-7.552265,8.0028925,16.144863,-4.353797,17.950466,-23.67816,52.71414,12.615936,2.9521728,0.23630452,14.584481,-8.675083,14.49272,56.906185,4.1167874,4.5593824,-1.7366662
16,-1.237618327140808,-12.06590747833252,76.30238342285156,-10.474548864706794,-6.194980564333762,-81.91477616243995,2.3249474,8.059346,-15.611938,72.304276,3.1821706,-13.4237385,0.05101389,9.911206,-25.722292,9.6954,-7.821483,-4.9458146,-7.221891,7.9901958,16.34714,-4.06925,17.752525,-24.552345,53.298252,12.737721,3.1465297,-0.051608406,13.889812,-9.067376,14.404197,56.321033,3.914931,4.4499745,-1.8957471
17,-1.274741291999817,-12.882593154907227,76.4298095703125,-10.293471751005363,-6.277659032791859,-81.87411515741164,0.6061923,7.302119,-15.946932,73.44118,1.9504112,-13.286049,1.4203868,10.127822,-25.486551,8.476463,-7.87228,-4.7055507,-6.850339,7.890778,16.508595,-3.7645853,17.553717,-25.348488,53.84561,12.940469,3.3570554,-0.35182586,13.152817,-9.468432,14.330436,55.803555,3.690515,4.3506904,-2.0270007
18,-1.3158957958221436,-13.688447952270508,76.55201721191406,-10.037065184990784,-6.348171898735043,-81.86543456874296,-1.1463183,6.684474,-15.976752,74.271255,0.865324,-13.220495,2.7451391,10.252028,-25.223005,7.3025875,-7.9255967,-4.4915094,-6.436685,7.717864,16.64279,-3.4541326,17.355175,-26.10897,54.370697,13.214653,3.585473,-0.66437024,12.378361,-9.879454,14.2742405,55.3369,3.4471307,4.257184,-2.1410217
19,-1.3511511087417603,-14.488996505737305,76.6705551147461,-9.739082653198416,-6.407978275424372,-81.88845198995914,-2.9222655,6.2285557,-15.741849,74.83398,-0.16259444,-13.03571,3.5672207,10.090769,-25.020586,7.2346497,-8.531904,-4.2811313,-5.99306,7.5055346,16.757113,-3.111723,17.154518,-26.786467,54.85449,13.491114,3.8013756,-0.9502991,11.57674,-10.298892,14.214905,54.91148,3.194837,4.1811504,-2.240617
20,-1.3863130807876587,-15.280583381652832,76.78018188476562,-9.430433324572489,-6.458922132687415,-81.94349219127241,-4.7066417,5.9445906,-15.28804,75.16997,-1.2273818,-12.549204,4.3680267,9.913988,-24.806324,7.1639833,-9.108992,-4.0815883,-5.5336933,7.286219,16.857399,-2.7136278,16.949354,-27.335115,55.28097,13.696581,3.975056,-1.1694851,10.756853,-10.724876,14.134664,54.519566,2.944539,4.1342363,-2.3292258
21,-1.4164947271347046,-16.084680557250977,76.884521484375,-9.11120029433169,-6.502237866625803,-82.02918601006044,-6.507341,5.8469677,-14.595832,75.289215,-2.3975086,-11.646497,5.1523843,9.721645,-24.582863,7.091934,-9.653839,-3.8964508,-5.06446,7.058431,16.94398,-2.2418919,16.736492,-27.729635,55.6404,13.826302,4.09551,-1.3117973,9.913384,-11.157699,14.032709,54.167828,2.6893668,4.1277857,-2.4107573
22,-1.4470949172973633,-16.881649017333984,76.98025512695312,-8.768789115691897,-6.539053758519986,-82.14561669078068,-8.305405,5.916621,-13.665044,75.16662,-3.628101,-10.47458,5.925303,9.505486,-24.343893,7.0160847,-10.16927,-3.7339194,-4.5795693,6.8104315,17.017735,-1.7130432,16.515137,-27.99831,55.94407,13.9140415,4.1800704,-1.3974863,9.041559,-11.599194,13.920721,53.860916,2.4272351,4.152525,-2.482406
23,-1.4713945388793945,-17.671735763549805,77.06342315673828,-8.417768943864894,-6.569214636964312,-82.29419880824886,-10.046656,6.108757,-12.568936,74.78884,-4.840704,-9.241336,6.6861897,9.280557,-24.08501,6.9360604,-10.664341,-3.592352,-4.073866,6.5569286,17.083942,-1.1524923,16.28713,-28.173637,56.204376,13.948419,4.2422976,-1.4324669,8.15164,-12.0489025,13.798691,53.586815,2.1755414,4.1893454,-2.537434
24,-1.4915879964828491,-18.473583221435547,77.13648986816406,-8.070527438611059,-6.5920135327801015,-82.47713034464059,-11.68566,6.385887,-11.371949,74.14284,-5.9452124,-8.141621,7.427919,9.058098,-23.803286,6.856401,-11.149532,-3.465534,-3.5413232,6.310985,17.146461,-0.5871756,16.056252,-28.290195,56.43384,13.915809,4.295399,-1.4227247,7.2541046,-12.505162,13.663842,53.33324,1.9503194,4.2190576,-2.569393
25,-1.5126217603683472,-19.26253318786621,77.19463348388672,-7.718974491231739,-6.602042272338498,-82.70386119718036,-13.226128,6.795454,-10.005999,73.21103,-6.9410887,-7.1856585,8.135056,8.827166,-23.493584,6.781591,-11.621017,-3.3486016,-2.9642317,6.064322,17.201715,-0.017591707,15.822624,-28.338217,56.622257,13.795755,4.349715,-1.3481793,6.3483553,-12.966384,13.506453,53.10108,1.7459307,4.2355156,-2.5678382
26,-1.5250080823898315,-20.052845001220703,77.23633575439453,-7.354219299199477,-6.6023143216596205,-82.97027833924862,-14.668407,7.3241982,-8.452406,72.00897,-7.8768263,-6.2974095,8.814256,8.577877,-23.159431,6.7137356,-12.08004,-3.242154,-2.35014,5.806797,17.251308,0.5683539,15.585192,-28.30876,56.76569,13.599135,4.395427,-1.2129493,5.428507,-13.432529,13.330323,52.897182,1.5563371,4.2487793,-2.5393894
27,-1.5571398735046387,-20.84103775024414,77.26759338378906,-6.99299621854824,-6.60336225837093,-83.25711296279326,-15.976611,7.8592615,-6.8491497,70.56292,-8.7150345,-5.5244064,9.490643,8.327967,-22.812204,6.651444,-12.537699,-3.1446733,-1.7302155,5.5532384,17.305088,1.1670244,15.347093,-28.231352,56.882507,13.366281,4.4163814,-1.0601866,4.4980664,-13.903674,13.15232,52.716778,1.3971224,4.263874,-2.5032008
28,-1.5757309198379517,-21.62929916381836,77.28765869140625,-6.645333144458568,-6.6138986981759516,-83.54706540375064,-17.132229,8.291144,-5.333228,68.89547,-9.409181,-4.8986287,10.201228,8.0958,-22.459583,6.55548,-12.989151,-3.0539093,-1.1330042,5.3143826,17.369766,1.7766838,15.113966,-28.135891,56.988346,13.137303,4.3966784,-0.9338978,3.5617006,-14.378063,12.98909,52.55298,1.2847475,4.2860384,-2.4778404
29,-1.592533826828003,-22.424394607543945,77.29466247558594,-6.330281610218013,-6.650007645737351,-83.83629791082019,-18.132128,8.64324,-3.920764,67.00099,-9.947993,-4.4263015,10.9041815,7.8768263,-22.109041,6.5589247,-13.5118265,-2.9731274,-0.5656925,5.1080313,17.461891,2.4044833,14.890118,-28.017778,57.077618,12.896836,4.3099256,-0.841799,2.6117165,-14.855845,12.841187,52.410404,1.2408941,4.3192434,-2.4665258
30,-1.6092332601547241,-23.222204208374023,77.28380584716797,-6.0266704153161825,-6.698895461190719,-84.13578067787164,-18.996395,8.951172,-2.5343208,64.86002,-10.339773,-4.078255,11.610969,7.661627,-21.750418,6.5857587,-14.054973,-2.8965893,-0.011340673,4.9151726,17.568943,3.0543382,14.676188,-27.8655,57.137383,12.6317625,4.1720204,-0.7638633,1.6485447,-15.335524,12.702916,52.289223,1.2518212,4.3599944,-2.4597058
31,-1.6193665266036987,-24.023475646972656,77.26019287109375,-5.7465178111288,-6.738369447095739,-84.43484732401988,-19.758587,9.178738,-1.2305427,62.510853,-10.588787,-3.836117,12.309101,7.461263,-21.400352,6.6151605,-14.601565,-2.8149362,0.52321476,4.7426167,17.668564,3.7150571,14.470634,-27.69986,57.17607,12.3849125,4.0314965,-0.7009895,0.6845566,-15.814336,12.577665,52.18074,1.2774464,4.401586,-2.4575489
32,-1.6272286176681519,-24.825454711914062,77.2257080078125,-5.500834556818892,-6.747891309622323,-84.72224886977388,-20.454308,9.2973995,-0.07243883,59.988743,-10.69942,-3.6781263,12.980365,7.2883544,-21.076765,6.641262,-15.14209,-2.720785,1.0318265,4.5999503,17.738863,4.3734474,14.269768,-27.542255,57.204094,12.200188,3.9370198,-0.65286344,-0.26699364,-16.288406,12.466955,52.076447,1.2777921,4.4371862,-2.4602983
33,-1.6327000856399536,-25.636795043945312,77.17719268798828,-5.290838369744928,-6.720080983298708,-84.99370558677062,-21.106287,9.318564,0.9209485,57.29043,-10.668554,-3.571715,13.617547,7.146104,-20.791779,6.6635833,-15.676344,-2.608398,1.5131317,4.4891505,17.77243,5.023422,14.071958,-27.40147,57.2175,12.105083,3.911434,-0.6160465,-1.20979,-16.755646,12.370277,51.982803,1.2371294,4.468186,-2.4710336
34,-1.6232973337173462,-26.45917320251465,77.10803985595703,-5.113046750045303,-6.666399782962594,-85.2568233654465,-21.699871,9.2665615,1.7759004,54.3937,-10.492944,-3.5196733,14.228791,7.0269985,-20.532925,6.683763,-16.205832,-2.481389,1.973144,4.4039054,17.778173,5.6698356,13.877199,-27.266594,57.218006,12.071324,3.9257884,-0.5905048,-2.1495519,-17.21671,12.2856045,51.903797,1.1774265,4.4970493,-2.4894297
35,-1.6313443183898926,-27.271493911743164,77.02801513671875,-4.962119097909646,-6.594898186082195,-85.51924019101301,-22.217741,9.136898,2.4939694,51.310543,-10.175349,-3.5499113,14.827257,6.9291515,-20.279861,6.7026377,-16.73381,-2.3469105,2.417242,4.3421755,17.75898,6.314403,13.683494,-27.12928,57.225307,12.058056,3.9510841,-0.58133227,-3.0725057,-17.66957,12.209966,51.823647,1.1147512,4.5184455,-2.5100677
36,-1.623807430267334,-28.081336975097656,76.9365234375,-4.833270853216657,-6.513949289015128,-85.78903893392295,-22.63789,8.926565,3.0759718,48.041424,-9.717716,-3.6900032,15.421614,6.8493075,-20.01199,6.7228312,-17.260225,-2.2129374,2.8515043,4.3018456,17.717464,6.9591208,13.48741,-26.979511,57.260242,12.0270195,3.9582715,-0.5932697,-3.9668636,-18.112543,12.139971,51.72928,1.0647771,4.526961,-2.5281844
37,-1.6148759126663208,-28.918766021728516,76.82984161376953,-4.727847120572891,-6.415663501293326,-86.06122164862728,-22.965302,8.635976,3.4887438,44.538063,-9.079264,-3.9165626,16.006598,6.791229,-19.723423,6.741142,-17.785852,-2.0789747,3.2708774,4.2846737,17.642237,7.6024194,13.287384,-26.81181,57.334667,11.954166,3.930366,-0.63727176,-4.831628,-18.546272,12.072471,51.622425,1.0375776,4.513852,-2.5475605
38,-1.6011295318603516,-29.753164291381836,76.71241760253906,-4.65233167337075,-6.300234389643595,-86.33628189886211,-23.200886,8.292621,3.7290983,40.79562,-8.268227,-4.2064176,16.5791,6.7558208,-19.422009,6.763249,-18.3138,-1.9414598,3.6767974,4.2933416,17.535215,8.243539,13.082925,-26.631636,57.436916,11.865854,3.8860445,-0.70722586,-5.6733685,-18.9714,12.0091305,51.509083,1.0226283,4.4844007,-2.5693605
39,-1.5793079137802124,-30.596599578857422,76.58042907714844,-4.602702467169213,-6.188190250692137,-86.6316854222692,-23.317852,7.9334855,3.844779,36.876625,-7.357105,-4.5880237,17.160875,6.7397304,-19.10793,6.782117,-18.834179,-1.8038365,4.0858226,4.3275075,17.419363,8.881576,12.872517,-26.447817,57.556286,11.7954235,3.8496845,-0.7817714,-6.49041,-19.385155,11.953397,51.38193,1.004776,4.454672,-2.5855658
40,-1.5424232482910156,-31.455814361572266,76.42977142333984,-4.579356943296126,-6.100807268453955,-86.96507245301332,-23.287577,7.59572,3.8859556,32.837246,-6.4151983,-5.0912,17.773779,6.7414675,-18.779696,6.7975173,-19.343737,-1.671735,4.5153294,4.387992,17.317692,9.515902,12.653941,-26.268795,57.68291,11.777351,3.8455274,-0.8391797,-7.2825575,-19.783764,11.908341,51.235847,0.9679991,4.440413,-2.5885508
41,-1.509364366531372,-32.312957763671875,76.27153778076172,-4.596905234233096,-6.042075769430455,-87.36290944755747,-23.061478,7.293297,3.8165903,28.527706,-5.4080205,-5.8005695,18.416885,6.7818565,-18.413761,6.8136506,-19.853,-1.561209,4.988652,4.4921236,17.230387,10.152501,12.4249,-26.098537,57.807533,11.846987,3.888555,-0.867306,-8.055122,-20.164375,11.8712845,51.07142,0.9073184,4.451534,-2.5695841
42,-1.4657028913497925,-33.18480682373047,76.09390258789062,-4.665402039220159,-6.009539923680932,-87.82310806784318,-22.626629,7.0632424,3.620194,23.899487,-4.2906737,-6.653155,19.089832,6.871385,-17.999216,6.825956,-20.357399,-1.4701991,5.5041275,4.6510425,17.148855,10.791448,12.184931,-25.931751,57.93869,11.977856,3.963304,-0.87895197,-8.808753,-20.52878,11.841371,50.894474,0.8301622,4.477675,-2.5353992
43,-1.4220542907714844,-34.069969177246094,75.89872741699219,-4.780282146189925,-6.0156131260790335,-88.32330162228482,-22.013073,6.959051,3.3911479,19.16676,-3.1179533,-7.4748483,19.81116,6.993742,-17.553333,6.834069,-20.838783,-1.376742,6.0436316,4.8622913,17.084286,11.422521,11.934839,-25.763403,58.090816,12.110309,4.047796,-0.8902617,-9.530122,-20.87783,11.821965,50.70071,0.7402341,4.5047975,-2.5003402
44,-1.4082305431365967,-34.94053268432617,75.6911392211914,-4.929669228778921,-6.068611413060426,-88.8349640656664,-21.292778,6.9957633,3.231555,14.620986,-1.9627608,-8.111863,20.596682,7.1278505,-17.099798,6.8330526,-21.275766,-1.2591522,6.5826106,5.1163263,17.046143,12.034528,11.676863,-25.589008,58.279057,12.183288,4.1201863,-0.91696733,-10.207481,-21.212639,11.817408,50.487186,0.6415346,4.5187426,-2.4795804
45,-1.3611199855804443,-35.82524108886719,75.46393585205078,-5.120506517493966,-6.169747533404709,-89.34683775796384,-20.470675,7.136168,3.113251,10.223339,-0.7953976,-8.525705,21.450487,7.280708,-16.667963,6.8208127,-21.677757,-1.1143734,7.111434,5.4196806,17.03705,12.630972,11.411973,-25.394638,58.50209,12.180614,4.1741695,-0.97298664,-10.840891,-21.535217,11.826127,50.248703,0.5327728,4.5169587,-2.4750195
46,-1.3098393678665161,-36.72954559326172,75.23405456542969,-5.347170310762873,-6.3110090586170084,-89.86965496236955,-19.930439,7.379079,2.9660091,6.7167964,-0.036031127,-8.806489,22.361452,7.453674,-16.243475,6.7996593,-22.051785,-0.9526441,7.6382537,5.769046,17.049192,13.216187,11.140279,-25.186325,58.75122,12.134413,4.221521,-1.0467249,-11.434252,-21.844864,11.845422,49.985237,0.41421607,4.5067644,-2.4792624
47,-1.2533605098724365,-37.641117095947266,75.01374816894531,-5.5550210397887625,-6.472845230770661,-90.3811493589972,-20.79511,7.7210393,2.7595837,6.5425186,-0.9413851,-9.005641,23.302584,7.580977,-15.821311,6.778339,-22.37621,-0.7633093,8.141553,6.102882,17.073185,13.774466,10.864338,-24.986462,59.034702,12.058682,4.2666163,-1.1160322,-11.97901,-22.13582,11.8719425,49.699127,0.2883557,4.488009,-2.4952543
48,-1.1865298748016357,-38.56692886352539,74.80979919433594,-5.698738822414477,-6.63559535432222,-90.86139451474739,-21.471027,8.045031,2.810513,6.425051,-1.7452602,-9.201111,24.246422,7.6093955,-15.39529,6.7618895,-22.625183,-0.538064,8.601488,6.3677454,17.099773,14.290068,10.588337,-24.820038,59.360577,11.964766,4.3141174,-1.1587987,-12.465085,-22.398533,11.900596,49.39201,0.15752201,4.4606986,-2.5262072
49,-1.1184030771255493,-39.496944427490234,74.6142578125,-5.790450793441451,-6.811397665099019,-91.31872192493543,-21.933023,8.369953,3.2029614,6.3420715,-2.4860692,-9.494729,25.20662,7.548559,-14.945261,6.7527575,-22.80507,-0.27500027,9.02055,6.573075,17.146313,14.768401,10.315641,-24.689425,59.727093,11.829715,4.3576107,-1.1407788,-12.903936,-22.628424,11.93096,49.0629,0.022973653,4.4253106,-2.5731714
50,-1.0436604022979736,-40.4420051574707,74.42879486083984,-5.812100379405121,-6.984962130702491,-91.72201426330003,-22.247835,8.628271,3.8493898,6.35084,-3.1883485,-9.833355,26.18135,7.3850775,-14.534569,6.7453156,-22.933014,0.037597463,9.371711,6.693823,17.210447,15.201895,10.049438,-24.57922,60.137722,11.6555395,4.3965325,-1.0838518,-13.297337,-22.822762,11.958215,48.709797,-0.11949697,4.380548,-2.6384792
51,-0.9644005298614502,-41.39221954345703,74.26395416259766,-5.755947116574984,-7.128735573368694,-92.06836852887137,-22.39482,8.789417,4.6443744,6.3766427,-3.6981912,-10.081186,27.131538,7.123808,-14.181359,6.7402167,-22.988125,0.38616955,9.661834,6.7221155,17.25141,15.592549,9.79213,-24.491974,60.58501,11.491578,4.4464517,-1.049407,-13.619006,-22.980051,11.979179,48.34203,-0.27403086,4.3259616,-2.7213778
52,-0.8906645774841309,-42.35100555419922,74.12078094482422,-5.597418386925903,-7.206289696817399,-92.33359250154942,-22.379082,8.791607,5.4691515,6.3862514,-3.8887193,-10.084951,28.02054,6.7505174,-13.929506,6.7347965,-22.955809,0.7675879,9.878556,6.6308374,17.228607,15.932559,9.546604,-24.429214,61.0677,11.387074,4.5228,-1.0988636,-13.842893,-23.09895,11.987495,47.966587,-0.44632322,4.2604785,-2.8224442
53,-0.807831346988678,-43.32746505737305,74.0031967163086,-5.330755621501709,-7.219541015946424,-92.50812694102646,-22.126286,8.631306,6.3929815,6.372419,-3.7867057,-9.800905,28.846,6.25228,-13.786775,6.7329574,-22.848326,1.1801095,10.013709,6.407847,17.143703,16.224188,9.323129,-24.3972,61.586945,11.359684,4.6340985,-1.2710462,-13.965183,-23.174973,11.987276,47.590088,-0.63884205,4.172839,-2.9611325
54,-0.7315672636032104,-44.32115936279297,73.90157318115234,-4.981456822457176,-7.185069413466235,-92.60711319196065,-21.668179,8.342254,7.4322915,6.3719053,-3.45576,-9.303829,29.62629,5.65401,-13.728737,6.731163,-22.664328,1.621019,10.076149,6.0804,17.013727,16.473816,9.118899,-24.391586,62.140926,11.382266,4.768646,-1.5259881,-13.996874,-23.211336,11.978182,47.20526,-0.8487295,4.0676875,-3.1300547
55,-0.6366126537322998,-45.31322479248047,73.83707427978516,-4.535879070031387,-7.0985379571647975,-92.63139064800207,-21.13851,7.8714366,8.407636,6.37309,-2.8055246,-8.605412,30.360332,4.9500246,-13.774673,6.728516,-22.373884,2.0974734,10.067602,5.6416,16.837101,16.668306,8.911633,-24.39878,62.73042,11.435556,4.918681,-1.8062359,-13.939022,-23.212698,11.948315,46.80573,-1.0741733,3.9673028,-3.2926435
56,-0.4963274598121643,-46.31214141845703,73.82044982910156,-3.9950991653714296,-6.965300177024269,-92.53902620567456,-20.69593,7.1576533,9.106658,6.424412,-1.7690774,-7.72091,30.964945,4.1263857,-13.988121,6.9649196,-22.0906,2.6259265,9.956607,5.081273,16.634945,16.815552,8.721768,-24.407183,63.31241,11.495639,5.0734897,-2.0642583,-13.780757,-23.175642,11.870922,46.36503,-1.3139237,3.892207,-3.4124436
57,-0.37145137786865234,-47.342533111572266,73.80249786376953,-3.318600801358247,-6.749210519687845,-92.36610778782169,-20.362314,6.1687775,9.526536,6.4519634,-0.07868859,-6.5260477,31.543024,3.1765065,-14.332492,7.115505,-21.647556,3.199823,9.773646,4.36105,16.364014,16.927967,8.544662,-24.427727,63.8791,11.585401,5.245193,-2.28826,-13.522425,-23.10125,11.749354,45.877773,-1.5889187,3.8598678,-3.4681537
58,-0.2647784948348999,-48.39363479614258,73.79903411865234,-2.517449123646046,-6.471472608108835,-92.1207862713824,-20.067926,4.9559093,9.786933,6.481092,2.1480153,-5.060763,32.090992,2.1057794,-14.789461,7.233012,-21.081839,3.8128986,9.524985,3.5002167,16.03497,17.004757,8.379066,-24.46304,64.443375,11.70782,5.433971,-2.5050879,-13.166815,-22.989697,11.594547,45.355106,-1.8921254,3.8549645,-3.481843
59,-0.12833769619464874,-49.451148986816406,73.82109832763672,-1.692255381241507,-6.200115465401844,-91.85282272284388,-20.062424,3.739002,9.934125,7.154409,4.1601343,-3.613757,32.64718,1.0170673,-15.28041,7.353423,-20.352764,4.4434133,9.268237,2.6115637,15.69297,17.049303,8.23014,-24.495052,64.99955,11.806893,5.6150684,-2.718219,-12.712544,-22.84431,11.40437,44.81254,-2.1806169,3.8511546,-3.476117
60,0.009522367268800735,-50.50389862060547,73.84184265136719,-0.9355488473782855,-5.987877764786928,-91.60459616502999,-20.946413,2.7842352,9.985668,9.870528,4.7933674,-2.4678013,33.251396,0.010322853,-15.736454,7.4784346,-19.407299,5.072797,9.055923,1.7970902,15.377706,17.062286,8.107146,-24.50506,65.54036,11.826523,5.763921,-2.9318657,-12.155034,-22.667809,11.173005,44.25965,-2.408508,3.822192,-3.4739947
61,0.14329200983047485,-51.57013702392578,73.86376190185547,-0.2376940877734957,-5.821943440807976,-91.38883779234803,-21.520927,1.8599895,9.976272,12.014225,5.445729,-1.7127914,33.56102,-1.0230963,-16.143892,8.352304,-18.648708,5.725822,8.906262,1.0455863,15.074397,17.044142,8.018375,-24.489496,66.0702,11.730346,5.865713,-3.1616232,-11.475552,-22.458857,10.888973,43.6738,-2.5700328,3.7590191,-3.475521
62,0.271828830242157,-52.66397476196289,73.88558959960938,0.4511438615870801,-5.668697905855004,-91.18360223959668,-21.953266,0.91232115,9.882224,13.896591,6.132611,-1.1927,33.46211,-2.1711683,-16.513712,10.158273,-18.192938,6.4033203,8.79273,0.29836434,14.761488,16.99449,7.965819,-24.459875,66.584656,11.552066,5.936621,-3.4019067,-10.6808815,-22.213861,10.558004,43.053402,-2.685705,3.676016,-3.469641
63,0.3863968551158905,-53.76607894897461,73.91102600097656,1.128978128579449,-5.5458102156430025,-90.9667290931559,-22.228445,-0.042568006,9.779956,15.57065,6.6444473,-0.7957957,33.305847,-3.3268504,-16.857346,12.121567,-17.593168,7.0580726,8.687845,-0.44309145,14.472112,16.910828,7.9479823,-24.413523,67.06324,11.347104,5.9985847,-3.6258352,-9.804421,-21.93168,10.197854,42.438786,-2.7514794,3.5821972,-3.4640017
64,0.4982549548149109,-54.868751525878906,73.93852233886719,1.795962937338563,-5.469775099311221,-90.72325335070734,-22.315346,-0.9829616,9.752533,17.050476,6.7867026,-0.40876797,33.034378,-4.5054636,-17.178223,14.36674,-16.879793,7.647771,8.569732,-1.1770277,14.237236,16.789618,7.961135,-24.3487,67.48875,11.168973,6.072678,-3.8057501,-8.881672,-21.613787,9.827939,41.87215,-2.7629364,3.4867857,-3.4666395
65,0.597931981086731,-55.96333694458008,73.97513580322266,2.4604687500763673,-5.436182607051694,-90.43116498149311,-22.230814,-1.9101976,9.813699,18.393959,6.3998213,-0.026930798,32.669468,-5.7130136,-17.507551,16.865177,-16.007307,8.218578,8.429619,-1.9170954,14.047742,16.627817,8.004351,-24.25912,67.88268,11.030509,6.168609,-3.9447687,-7.884921,-21.256334,9.424102,41.34005,-2.7035635,3.383662,-3.4813292
66,0.7113421559333801,-57.04257583618164,74.02970886230469,3.12576530996941,-5.436727693659055,-90.09698829023239,-22.000486,-2.8411252,9.897632,19.608501,5.6039534,0.29698858,32.25969,-6.9287243,-17.838953,19.500948,-14.944132,8.78012,8.272146,-2.6664214,13.889145,16.423021,8.0782175,-24.149502,68.250374,10.901881,6.2730722,-4.0536265,-6.8104305,-20.8568,8.987773,40.829144,-2.5814264,3.2705235,-3.5036585
67,0.8247072100639343,-58.120323181152344,74.09575653076172,3.776572566893417,-5.481361483281546,-89.75504933619874,-21.602333,-3.7720857,9.975683,20.618832,4.6339555,0.59024435,31.765717,-8.143925,-18.111767,22.309929,-13.750358,9.230426,8.102976,-3.4056208,13.784508,16.17712,8.178614,-24.025114,68.54996,10.782745,6.3712363,-4.116139,-5.7283874,-20.425066,8.576793,40.381027,-2.428581,3.1629536,-3.5291605
68,0.9327378869056702,-59.18696975708008,74.17265319824219,4.404042895215182,-5.578626039674133,-89.44402576814916,-21.004765,-4.699998,10.0262985,21.330318,3.7340894,0.8811118,31.144222,-9.357511,-18.264944,25.32777,-12.483038,9.457424,7.93027,-4.1129336,13.75742,15.891206,8.297692,-23.894108,68.73705,10.668495,6.4524636,-4.116137,-4.708738,-19.978788,8.252119,40.037746,-2.2747183,3.0766559,-3.5529487
69,1.0522937774658203,-60.23398208618164,74.26139068603516,5.004560585680599,-5.758237380809375,-89.14324161007659,-20.138245,-5.6535573,10.020121,21.668589,2.9272456,1.1740746,30.41615,-10.588448,-18.308992,28.608744,-11.147242,9.4031515,7.7381496,-4.778851,13.840583,15.5598955,8.427703,-23.762003,68.8054,10.56553,6.528302,-4.031004,-3.743757,-19.529613,8.012234,39.799637,-2.1099157,3.0154552,-3.5820687
70,1.1604324579238892,-61.254310607910156,74.36824798583984,5.579569504300904,-6.009295756999297,-88.83927370588968,-19.029491,-6.623055,9.957109,21.693392,2.100332,1.4504442,29.606096,-11.832172,-18.279657,32.08785,-9.702896,9.1141205,7.524593,-5.40439,14.014777,15.180065,8.565157,-23.62637,68.78279,10.472894,6.600056,-3.8749642,-2.8009903,-19.07996,7.8331823,39.64386,-1.9200847,2.9715424,-3.6152062
71,1.268945574760437,-62.27555847167969,74.49163818359375,6.115600538815887,-6.277678902384934,-88.58329737728141,-17.791286,-7.5478864,9.871189,21.505903,1.2966546,1.7061207,28.658205,-13.070936,-18.149675,35.660114,-8.1471615,8.625962,7.32148,-5.9857173,14.228165,14.759607,8.707934,-23.473536,68.67788,10.383124,6.6368027,-3.686945,-1.9129226,-18.635876,7.7404394,39.578854,-1.7294554,2.9435346,-3.635041
72,1.3800081014633179,-63.27349090576172,74.62791442871094,6.610194996325419,-6.508327585247623,-88.4262776665099,-16.539722,-8.370275,9.805374,21.207552,0.5592525,1.9393836,27.512438,-14.281176,-17.891802,39.223667,-6.4828806,7.975462,7.1573367,-6.519966,14.429193,14.308031,8.854125,-23.287045,68.49886,10.289479,6.6076984,-3.506114,-1.1152829,-18.20652,7.762659,39.615986,-1.5616066,2.9301562,-3.624715
73,1.4857596158981323,-64.24588775634766,74.76927185058594,7.058596540785827,-6.689303795649959,-88.39464884432903,-15.284287,-9.080772,9.782124,20.790854,-0.10388182,2.1657605,26.07009,-15.488824,-17.451155,42.902176,-4.468445,7.0395117,7.0511665,-6.9983134,14.611659,13.828778,8.999663,-23.056978,68.23322,10.185457,6.480773,-3.3434348,-0.4194209,-17.801281,7.9194965,39.769688,-1.4085296,2.931895,-3.5832589
74,1.5939604043960571,-65.20909881591797,74.92031860351562,7.470846209207001,-6.847730116442778,-88.45664685866956,-13.962777,-9.71605,9.780878,20.194578,-0.70462,2.3809218,24.375818,-16.728392,-16.88265,46.71553,-2.1971905,5.787327,6.9801917,-7.424281,14.80272,13.316166,9.142487,-22.790283,67.88806,10.077492,6.277226,-3.177505,0.19329365,-17.424244,8.19427,40.032303,-1.2599124,2.9497128,-3.5186296
75,1.683574914932251,-66.13375854492188,75.06602478027344,7.847081763604303,-6.9885807804911915,-88.57261615260671,-12.595906,-10.286177,9.782912,19.462898,-1.2416745,2.5551689,22.58823,-17.968975,-16.303337,50.419563,-0.1787486,4.426996,6.9099865,-7.8072104,15.0013895,12.772063,9.28521,-22.49748,67.482765,9.980389,6.0554104,-3.001078,0.7359908,-17.07048,8.55824,40.37785,-1.1342224,2.983364,-3.426873
76,1.769539475440979,-67.02861022949219,75.20305633544922,8.178449420178556,-7.1180564120976255,-88.70064500789651,-11.208196,-10.794705,9.767138,18.647919,-1.7171991,2.6609666,20.859833,-19.142174,-15.793018,53.80258,1.0605545,3.2263527,6.8048706,-8.1518345,15.205405,12.197701,9.4335165,-22.189634,67.03784,9.908393,5.872118,-2.8065677,1.2218703,-16.729223,8.981194,40.78026,-1.0523008,3.0321226,-3.304381
77,1.8409582376480103,-67.91390228271484,75.3440170288086,8.469229724413356,-7.231114127051009,-88.85385362527617,-9.801955,-11.235626,9.759372,17.739853,-2.1250818,2.6802626,19.215115,-20.221012,-15.344427,56.8839,1.2573246,2.3732688,6.6717086,-8.467233,15.415388,11.595184,9.59212,-21.851048,66.53563,9.883167,5.753434,-2.6023412,1.6335827,-16.393908,9.477431,41.252956,-1.0445741,3.105071,-3.132426
78,1.9039645195007324,-68.7858657836914,75.48481750488281,8.713459547807402,-7.326983265447751,-89.04429210818536,-8.373838,-11.6018505,9.764745,16.731058,-2.4719422,2.6353183,17.562506,-21.209566,-14.890937,59.801308,0.70794463,1.736882,6.522906,-8.743856,15.630527,10.965835,9.762849,-21.482046,65.970345,9.890427,5.6660004,-2.389167,1.9690626,-16.064312,10.053497,41.80699,-1.0943712,3.198921,-2.9200592
79,1.9522826671600342,-69.65347290039062,75.6325454711914,8.88856919853636,-7.41758720526923,-89.23086536090055,-6.9468813,-11.893607,9.734716,15.691208,-2.7856066,2.558214,15.881693,-22.055206,-14.410186,62.522278,-0.26429808,1.149511,6.336447,-8.958887,15.8457985,10.307981,9.94834,-21.120808,65.380104,9.891239,5.5774875,-2.1487682,2.267357,-15.7403,10.663754,42.40996,-1.1539822,3.2947617,-2.704938
80,1.9986014366149902,-70.4983139038086,75.77755737304688,8.982438697228766,-7.515452897228836,-89.37333119229645,-5.5395036,-12.111469,9.62059,14.683621,-3.0903118,2.478056,14.160422,-22.707966,-13.891991,64.991974,-1.3260785,0.4362688,6.094481,-9.092973,16.05786,9.616037,10.15204,-20.813417,64.80509,9.842255,5.454985,-1.8630213,2.5721586,-15.420875,11.258691,43.02598,-1.1755863,3.3739572,-2.5238543
81,2.0388431549072266,-71.3316879272461,75.92105102539062,8.98665248897305,-7.62744826065617,-89.46302201180433,-4.158926,-12.24374,9.404814,13.732854,-3.3953142,2.3811612,12.384335,-23.10114,-13.302686,67.20497,-2.5004106,-0.4548043,5.789482,-9.142261,16.27225,8.890186,10.378484,-20.576008,64.23819,9.703721,5.281598,-1.503461,2.8889978,-15.104262,11.842416,43.6554,-1.1488705,3.4277143,-2.388079
82,2.076662063598633,-72.1485595703125,76.06409454345703,8.91178366934587,-7.7448196668255,-89.52419690286334,-2.7977605,-12.290556,9.1257105,12.809928,-3.691927,2.2568266,10.569841,-23.248262,-12.662952,69.18124,-3.912237,-1.3970718,5.439871,-9.1199665,16.48989,8.132854,10.628364,-20.389645,63.660366,9.50692,5.0775657,-1.0897555,3.2010884,-14.78938,12.430308,44.310932,-1.0991701,3.4673672,-2.276743
83,2.105520009994507,-72.97186279296875,76.21221160888672,8.77929539016601,-7.85792980047774,-89.56189663371417,-1.4605343,-12.268198,8.815111,11.9042845,-3.976764,2.1376908,8.742638,-23.238176,-12.051712,70.91675,-5.386519,-2.3116138,5.0624266,-9.040323,16.702877,7.3384733,10.897123,-20.246002,63.100994,9.316702,4.8623285,-0.6748254,3.518239,-14.476953,12.989643,44.975056,-1.0327185,3.504429,-2.1789098
84,2.1292355060577393,-73.78169250488281,76.35588073730469,8.605149869683865,-7.957011993476065,-89.5803848803463,-0.15529706,-12.199339,8.504517,11.013119,-4.246982,2.05718,6.9300876,-23.176432,-11.550289,72.40302,-6.7513533,-3.129792,4.6752,-8.914236,16.902521,6.499329,11.178463,-20.14213,62.58717,9.194283,4.6621003,-0.31032777,3.8519182,-14.169767,13.485343,45.62956,-0.9564053,3.5504162,-2.0832107
85,2.1608803272247314,-74.58650970458984,76.49568939208984,8.388470437785362,-8.042019075752952,-89.5851162673632,1.1227692,-12.0841255,8.202118,10.127221,-4.4986725,2.0395162,5.1278996,-23.069803,-11.166529,73.63281,-7.9861617,-3.837069,4.2827635,-8.733074,17.089579,5.600223,11.467303,-20.097569,62.144547,9.152947,4.471946,0.0011159654,4.2060747,-13.869959,13.90455,46.27372,-0.8813063,3.6120377,-1.9818215
86,2.190079927444458,-75.38058471679688,76.63461303710938,8.126826886452482,-8.118038985801443,-89.5744115618462,2.3752222,-11.916264,7.895642,9.2504835,-4.733593,2.0604713,3.3305938,-22.879604,-10.86967,74.610214,-9.169272,-4.4670362,3.8786004,-8.495868,17.270016,4.6442137,11.762763,-20.113657,61.75774,9.15876,4.2848573,0.284863,4.5774,-13.577771,14.264971,46.91431,-0.8007021,3.682069,-1.8819821
87,2.225141763687134,-76.15965270996094,76.76659393310547,7.83494734630496,-8.182644573076066,-89.54038010405655,3.5932312,-11.710675,7.5823145,8.393079,-4.9599853,2.0840387,1.5645516,-22.65083,-10.6862755,75.338615,-10.282404,-5.031153,3.4623642,-8.224003,17.442678,3.6537168,12.064533,-20.149433,61.40033,9.210791,4.1148496,0.5324895,4.9657173,-13.292809,14.579135,47.54272,-0.69409823,3.7514236,-1.7951097
88,2.255460739135742,-76.94183349609375,76.89163970947266,7.530627918193568,-8.233557540573068,-89.47537193181257,4.76193,-11.478259,7.2598076,7.579837,-5.1875854,2.0768876,-0.14683571,-22.429535,-10.6398115,75.82381,-11.309755,-5.540684,3.032096,-7.940489,17.605513,2.6517317,12.373212,-20.161715,61.044872,9.30807,3.9762013,0.7353075,5.368767,-13.014424,14.86135,48.152496,-0.5408499,3.810968,-1.7329237
89,2.2890102863311768,-77.7189712524414,77.00501251220703,7.203872735205548,-8.269513516830672,-89.37722014837044,5.8198805,-11.205996,6.938431,6.9402747,-5.48548,2.0355167,-1.799401,-22.22731,-10.759393,76.05587,-12.24208,-5.997047,2.5835862,-7.6367664,17.756584,1.6352811,12.689452,-20.151487,60.69592,9.474039,3.8735256,0.8899447,5.790156,-12.742181,15.109793,48.741364,-0.33443874,3.8575208,-1.7083337
90,2.3139894008636475,-78.49392700195312,77.11237335205078,6.85457673908882,-8.29233212631703,-89.25119055940992,6.5652914,-10.867115,6.65911,6.9053936,-6.0824094,1.9785752,-3.4010022,-22.024693,-11.029978,76.031746,-13.089205,-6.393051,2.1187804,-7.3078394,17.89865,0.59550583,13.013379,-20.137894,60.36486,9.700936,3.7989082,1.0011528,6.228948,-12.475831,15.320901,49.314423,-0.08607937,3.8960075,-1.712141
91,2.3290936946868896,-79.26971435546875,77.21036529541016,6.49941372061081,-8.302781159269237,-89.09940307778798,7.2875543,-10.519253,6.367243,6.873001,-6.662255,1.9121476,-4.9444656,-21.82059,-11.406023,75.763756,-13.86072,-6.72171,1.6435385,-6.9764633,18.035294,-0.45279744,13.344709,-20.105585,60.03253,9.939935,3.748217,1.0719075,6.6741686,-12.214286,15.508275,49.875217,0.20042066,3.9294066,-1.7222682
92,2.345229387283325,-80.03533935546875,77.28958892822266,6.158311141391609,-8.301598039961139,-88.92321627647678,7.985922,-10.179173,6.064803,6.8458447,-7.228178,1.8357491,-6.424416,-21.609749,-11.841598,75.2641,-14.565126,-6.9771423,1.1611557,-6.6655054,18.168581,-1.4949521,13.684114,-20.036997,59.680557,10.141462,3.7168167,1.105359,7.113034,-11.956413,15.687494,50.42921,0.5207853,3.9611433,-1.7170452
93,2.3598086833953857,-80.80219268798828,77.36039733886719,5.825283366084051,-8.286302044699136,-88.71392428768075,8.654943,-9.838253,5.7428474,6.8249784,-7.774935,1.7386355,-7.840921,-21.39513,-12.358583,74.52292,-15.211297,-7.1748085,0.6648635,-6.372333,18.296844,-2.5319562,14.032623,-19.91621,59.303505,10.298515,3.720465,1.0820234,7.5434055,-11.7001915,15.862147,50.977116,0.90016127,3.9893732,-1.6875129
94,2.358032464981079,-81.56873321533203,77.41546630859375,5.485606531585658,-8.257212905168904,-88.47253109741479,9.296696,-9.487305,5.4023232,6.809204,-8.30527,1.6233523,-9.193413,-21.171873,-12.97661,73.53675,-15.7928705,-7.3094983,0.15275055,-6.0826807,18.418978,-3.569622,14.390875,-19.755213,58.9115,10.436238,3.7554388,1.006451,7.969552,-11.445079,16.02646,51.518627,1.3321875,4.0133557,-1.6464634
95,2.364112377166748,-82.32984924316406,77.44770812988281,5.155656280346178,-8.219415657649487,-88.21621931968271,9.920425,-9.13821,5.0602307,6.801958,-8.8303,1.5079935,-10.479334,-20.932602,-13.641947,72.33051,-16.2964,-7.3516693,-0.36243162,-5.804846,18.537868,-4.6002774,14.758602,-19.578465,58.50789,10.553189,3.789091,0.9178458,8.388406,-11.193064,16.1806,52.056545,1.7658945,4.0379333,-1.6048294
96,2.3627817630767822,-83.09777069091797,77.46741485595703,4.851249609801629,-8.177051780335713,-87.96235901232194,10.539628,-8.814261,4.734103,6.7945094,-9.358392,1.4118419,-11.697896,-20.675354,-14.297502,70.92176,-16.703154,-7.275541,-0.86776394,-5.5514364,18.655416,-5.6152277,15.134383,-19.409922,58.094322,10.647305,3.7887492,0.85562104,8.798776,-10.946923,16.324865,52.591106,2.1510253,4.0679245,-1.573355
97,2.362367630004883,-83.87138366699219,77.47032928466797,4.587700898110263,-8.13035555260211,-87.71030472071368,11.139077,-8.528615,4.429567,6.81624,-9.906992,1.3358275,-12.855651,-20.421888,-14.931233,69.3018,-17.018396,-7.0584407,-1.363223,-5.336019,18.7739,-6.619236,15.517676,-19.248579,57.67108,10.710058,3.7441766,0.8230542,9.198407,-10.709213,16.460884,53.12165,2.4752262,4.105717,-1.5547895
98,2.3662383556365967,-84.6341323852539,77.45672607421875,4.352064909612313,-8.075747757929268,-87.45131682332647,11.724087,-8.269269,4.13471,6.845074,-10.457948,1.2716625,-13.951754,-20.170734,-15.571326,67.456726,-17.243732,-6.724534,-1.8555626,-5.147861,18.889187,-7.6148305,15.907402,-19.083912,57.23646,10.745203,3.673438,0.80174273,9.590981,-10.479667,16.587645,53.64488,2.7655911,4.1484838,-1.5427352
99,2.370654582977295,-85.40153503417969,77.4321060180664,4.14309400926877,-8.017219807358444,-87.19802387090392,12.308239,-8.033914,3.8508787,6.8735776,-11.0085335,1.2273034,-14.977416,-19.904613,-16.199926,65.407,-17.361166,-6.3156943,-2.3346713,-4.981494,18.99924,-8.593181,16.301886,-18.926973,56.792072,10.768398,3.5862432,0.79904723,9.981046,-10.258217,16.698822,54.15967,3.0297594,4.193012,-1.5349741
100,2.376035690307617,-86.18294525146484,77.39710235595703,3.9575371531214714,-7.9595487864009185,-86.9629387353621,12.901602,-7.821196,3.5806692,6.9023137,-11.560782,1.2099234,-15.923805,-19.606495,-16.79661,63.171898,-17.353148,-5.873616,-2.78906,-4.832364,19.103065,-9.5411,16.69722,-18.782825,56.335495,10.802624,3.492642,0.82215035,10.374626,-10.043642,16.787287,54.663666,3.2748413,4.2360477,-1.5287956
101,2.381175994873047,-86.96497344970703,77.3447036743164,3.79695930126956,-7.907309252629804,-86.75296613579319,13.508688,-7.634279,3.3292463,6.931457,-12.114146,1.2366037,-16.786146,-19.29295,-17.356033,60.74122,-17.225546,-5.395504,-3.2127407,-4.699916,19.205032,-10.459571,17.091057,-18.648085,55.86586,10.848048,3.3875782,0.88389045,10.771519,-9.837105,16.848072,55.16063,3.4841392,4.2746487,-1.5279241
102,2.3839094638824463,-87.75418853759766,77.28092193603516,3.6628867928997515,-7.857433277382328,-86.55970821722117,14.12302,-7.47185,3.0929058,6.961249,-12.667529,1.2975127,-17.569489,-18.968843,-17.8831,58.107723,-16.986877,-4.869124,-3.6130176,-4.5838847,19.30377,-11.354923,17.482607,-18.519894,55.385166,10.896122,3.2683241,0.97756594,11.171022,-9.638503,16.884914,55.648315,3.6599405,4.3113294,-1.5320926
103,2.386615514755249,-88.54795837402344,77.2033920288086,3.5475192370350306,-7.802204984788707,-86.37344353626234,14.738407,-7.325831,2.861317,6.9894195,-13.22076,1.3579751,-18.282085,-18.605139,-18.369656,55.295937,-16.629446,-4.3236823,-3.9968445,-4.481734,19.388823,-12.228048,17.87219,-18.409794,54.90157,10.951649,3.1483507,1.0821314,11.57475,-9.445788,16.902538,56.12009,3.8372593,4.350505,-1.5337541
104,2.3851981163024902,-89.35600280761719,77.11083221435547,3.4446780441296374,-7.733687764295141,-86.18420882174058,15.346029,-7.187953,2.624634,7.0179195,-13.7759,1.382664,-18.934671,-18.178358,-18.80444,52.33428,-16.144096,-3.790287,-4.371095,-4.3914714,19.449747,-13.079681,18.260798,-18.331154,54.423016,11.017669,3.0411496,1.1766124,11.984949,-9.2548685,16.905329,56.56957,4.050453,4.3965364,-1.52555
105,2.3856546878814697,-90.15799713134766,77.00474548339844,3.3564315299644063,-7.652099052588665,-85.98847396953752,15.953183,-7.062484,2.369009,7.0313425,-14.331034,1.3555154,-19.52809,-17.725222,-19.189949,49.209866,-15.500968,-3.3270342,-4.7380524,-4.315162,19.484404,-13.910516,18.650272,-18.287905,53.945183,11.105627,2.9517365,1.2523587,12.402781,-9.063578,16.890602,56.999046,4.312414,4.452996,-1.5079997
106,2.373131275177002,-90.98394775390625,76.89022827148438,3.286851744245651,-7.560275927899851,-85.79114312771314,16.542603,-6.9491653,2.1056533,7.0684075,-14.904034,1.293978,-20.058271,-17.258247,-19.519089,45.917133,-14.7208605,-2.9100983,-5.093743,-4.2538414,19.497448,-14.7201185,19.041273,-18.274315,53.464905,11.208466,2.8725293,1.3217859,12.825564,-8.871444,16.856775,57.4121,4.6030445,4.5164814,-1.4847877
107,2.356417179107666,-91.81407165527344,76.76763916015625,3.2269421943712127,-7.45489546132195,-85.59439199859631,17.127836,-6.8355427,1.8544827,7.092884,-15.46271,1.2149404,-20.521984,-16.726696,-19.765009,42.47961,-13.872089,-2.4549456,-5.436337,-4.204637,19.488766,-15.502672,19.430779,-18.279999,52.9876,11.310831,2.798187,1.3946016,13.248319,-8.67677,16.80977,57.805725,4.905847,4.5810547,-1.4531432
108,2.3422181606292725,-92.64329528808594,76.63307189941406,3.1733122850273396,-7.333593171379607,-85.39950820332166,17.701506,-6.710719,1.63663,7.1153035,-16.001558,1.1383197,-20.911762,-16.090405,-19.89954,38.910305,-13.021582,-1.8844829,-5.7648582,-4.164458,19.458637,-16.256199,19.81524,-18.298244,52.523663,11.393817,2.7231777,1.4814515,13.666744,-8.477123,16.755144,58.177097,5.2042165,4.640822,-1.4103773
109,2.319204092025757,-93.49146270751953,76.49430847167969,3.12640716326048,-7.187578478702907,-85.20224546339645,18.254425,-6.5775943,1.4550185,7.1367793,-16.52973,1.0748564,-21.215008,-15.34407,-19.90241,35.109455,-12.1837635,-1.1934472,-6.0838923,-4.1344304,19.396877,-16.982914,20.193233,-18.326494,52.08086,11.460797,2.6453822,1.5932744,14.082112,-8.271306,16.689562,58.528805,5.5066686,4.694794,-1.3517836
110,2.288390636444092,-94.3456802368164,76.34562683105469,3.091405042023105,-7.023759498533918,-84.99853023134627,18.794025,-6.4461904,1.2945157,7.1570816,-17.049053,1.0158166,-21.414644,-14.557408,-19.780016,31.070194,-11.324417,-0.45355618,-6.396546,-4.1181955,19.307993,-17.687065,20.566399,-18.372076,51.656666,11.515251,2.5677366,1.7225287,14.49723,-8.058883,16.611515,58.86118,5.817614,4.745993,-1.2804859
111,2.2549233436584473,-95.20693969726562,76.19012451171875,3.07263113866101,-6.864032029711617,-84.78814923343587,19.344128,-6.320045,1.1452928,7.174952,-17.537058,0.95177275,-21.49368,-13.791684,-19.551388,26.938015,-10.430206,0.30550408,-6.700408,-4.12259,19.215433,-18.356215,20.931038,-18.42324,51.234142,11.561588,2.4935224,1.8507191,14.905579,-7.840846,16.528702,59.172855,6.113261,4.794413,-1.2063308
112,2.21793532371521,-96.06102752685547,76.0342025756836,3.075186192913717,-6.730566615187314,-84.56966758483709,19.930653,-6.203736,0.9963777,7.1879125,-17.971266,0.8738458,-21.43392,-13.081747,-19.245262,22.84791,-9.4784,1.0767843,-6.9947724,-4.1563463,19.142797,-18.974686,21.279861,-18.46126,50.795452,11.610949,2.4259863,1.9593201,15.302515,-7.6190696,16.449425,59.46019,6.3704314,4.8403444,-1.139032
113,2.183579921722412,-96.92696380615234,75.86865234375,3.1286095459755225,-6.627553188792715,-84.3329036332071,20.559608,-6.134888,0.84875697,7.195264,-18.352877,0.78977615,-21.22959,-12.404189,-18.803051,18.73071,-8.432451,1.9092783,-7.2855062,-4.248079,19.090973,-19.545645,21.60751,-18.474798,50.334827,11.670024,2.3672264,2.0394127,15.695762,-7.3945885,16.366219,59.714222,6.5839458,4.884842,-1.0774748
114,2.145341396331787,-97.81352233886719,75.6889877319336,3.2467188151245265,-6.555134538211664,-84.05824233645222,21.229706,-6.1291685,0.67681587,7.196134,-18.68845,0.7075439,-20.851719,-11.802187,-18.238243,14.5030365,-7.2989483,2.7909157,-7.5925303,-4.4137225,19.051579,-20.075937,21.914177,-18.472404,49.8668,11.736882,2.3151765,2.1017947,16.093721,-7.1668367,16.278543,59.933792,6.766584,4.9278135,-1.017933
115,2.081923007965088,-98.7203369140625,75.51153564453125,3.4079407420869305,-6.526179069380767,-83.73923478631,21.950346,-6.154387,0.4389575,7.1909933,-18.965528,0.6168597,-20.282135,-11.352171,-17.699924,10.312104,-6.1115017,3.6636736,-7.926973,-4.6380343,19.03105,-20.562376,22.204626,-18.475235,49.40916,11.799287,2.2665064,2.158601,16.491005,-6.9373055,16.202969,60.129288,6.9210677,4.9670024,-0.96674687
116,2.021892786026001,-99.6380615234375,75.32957458496094,3.5650585824184544,-6.541349053723771,-83.3924593787341,22.719645,-6.1479325,0.12471007,7.183828,-19.17727,0.5008013,-19.862144,-11.145033,-17.279743,7.032055,-5.2706623,4.494018,-8.281663,-4.8764896,19.034294,-20.987253,22.481062,-18.486708,48.965115,11.857865,2.2179906,2.2215183,16.874292,-6.706748,16.159948,60.3137,7.0517983,5.0001693,-0.9292834
117,1.9565273523330688,-100.55731201171875,75.15447998046875,3.688949922564831,-6.5983048421070745,-83.03234067171124,23.534204,-6.0700054,-0.25073296,7.175248,-19.32913,0.3455253,-20.617285,-11.380575,-16.788576,6.816118,-5.8852468,5.396237,-8.639478,-5.100089,19.078667,-21.355433,22.74358,-18.49617,48.522884,11.919368,2.1720839,2.2949595,17.231142,-6.4740634,16.15434,60.485603,7.157978,5.025583,-0.9151567
118,1.8813954591751099,-101.49203491210938,74.98870849609375,3.7844200471969156,-6.681284840761684,-82.67031381719109,24.381973,-5.9370537,-0.65548295,7.164441,-19.426723,0.15601926,-21.19626,-11.558528,-16.43514,6.6013756,-6.3559794,6.3796043,-8.985999,-5.307868,19.147898,-21.68264,22.998688,-18.521076,48.090675,11.959807,2.128898,2.3746493,17.566774,-6.241028,16.17297,60.642704,7.2379136,5.0443125,-0.9187841
119,1.794905185699463,-102.4505386352539,74.83649444580078,3.7781411875806072,-6.747702759281107,-82.3833564950176,25.234465,-5.6713305,-0.9872991,7.158424,-19.483898,-0.08502175,-21.673386,-11.581874,-16.266941,6.57733,-6.788508,7.2568135,-9.268192,-5.4105854,19.210943,-21.911192,23.23126,-18.51556,47.64556,12.020801,2.083028,2.4588273,17.855572,-6.0151234,16.213175,60.8164,7.2938747,5.0575,-0.919588
120,1.7052031755447388,-103.41644287109375,74.69932556152344,3.7087836772580665,-6.791150908320302,-82.15851662136834,26.077457,-5.3346214,-1.264487,7.1512256,-19.473202,-0.3536522,-21.921076,-11.515537,-16.366188,6.5655923,-7.0876613,7.8649573,-9.508615,-5.4445343,19.224987,-22.019197,23.433567,-18.48635,47.20944,12.105171,2.0286007,2.5410624,18.125225,-5.807346,16.272072,61.00637,7.3299527,5.0681815,-0.89964014
121,1.6178581714630127,-104.39910888671875,74.56982421875,3.6075289038594893,-6.823612293290324,-81.9939218473277,26.923876,-4.965454,-1.5042791,7.1431518,-19.40489,-0.6455521,-21.854145,-11.426491,-16.882341,6.560795,-7.3732743,8.248476,-9.712344,-5.432238,19.185877,-22.001743,23.591295,-18.425472,46.792847,12.228977,1.9580514,2.6199756,18.393776,-5.6317368,16.360035,61.208347,7.349521,5.0729547,-0.84830683
122,1.5363094806671143,-105.387451171875,74.44502258300781,3.4677617954164113,-6.848671139267298,-81.88223013656105,27.774853,-4.5531964,-1.7079113,7.135942,-19.280582,-0.9649793,-21.51475,-11.288756,-17.732872,6.5601068,-7.5977125,8.473208,-9.879361,-5.370779,19.111404,-21.874575,23.705671,-18.333141,46.390186,12.387453,1.8762602,2.6982148,18.657251,-5.486192,16.473629,61.41094,7.351235,5.0725727,-0.7763947
123,1.4503610134124756,-106.39958190917969,74.33606719970703,3.2298107416789743,-6.834457764192647,-81.83981621079313,28.593763,-4.0293765,-1.8214363,7.1270914,-19.07244,-1.3205949,-21.055079,-10.977504,-18.628218,6.555185,-7.5199285,8.380969,-9.989085,-5.1745086,18.994862,-21.67337,23.766144,-18.246012,46.02057,12.532803,1.7947333,2.7856405,18.920856,-5.39341,16.574162,61.579124,7.3362827,5.079651,-0.68824136
124,1.3697996139526367,-107.43819427490234,74.24174499511719,2.832537571921136,-6.751328032319165,-81.88119494785573,29.34942,-3.3278356,-1.7908621,7.119988,-18.7588,-1.7221379,-20.631577,-10.374364,-19.279026,6.5471797,-6.909738,7.812144,-10.036206,-4.817419,18.83345,-21.362013,23.819366,-18.14095,45.634914,12.661952,1.7283301,2.8764906,19.124063,-5.29516,16.659966,61.756805,7.2978954,5.098529,-0.60873586
125,1.2467625141143799,-108.4755630493164,74.21344757080078,2.1685282232709744,-6.578063552982379,-82.05755194705725,30.043116,-2.3305058,-1.5186512,7.1183457,-18.379818,-2.2103348,-20.296272,-9.328263,-19.608204,6.627991,-5.6006365,6.499411,-9.963248,-4.1612005,18.63689,-20.958832,23.842611,-18.042643,45.23767,12.743461,1.6851327,2.9898474,19.282757,-5.226162,16.7082,61.908257,7.2119923,5.14639,-0.52081585
126,1.1471655368804932,-109.54130554199219,74.19225311279297,1.3013003588510332,-6.351881761164794,-82.33009254333359,30.712381,-1.1151842,-1.0716289,7.1232066,-17.932928,-2.7702327,-19.93099,-7.9582996,-19.805786,6.7171702,-3.7209997,4.6021066,-9.820809,-3.3019133,18.40699,-20.436768,23.856215,-17.921679,44.821995,12.807786,1.6574937,3.1104002,19.366568,-5.1425385,16.752531,62.098568,7.0835414,5.2072153,-0.43919665
127,1.025370717048645,-110.63275146484375,74.18456268310547,0.36220438545384204,-6.111549749299416,-82.61267418156976,31.304125,0.16936405,-0.5892618,7.2907057,-17.436981,-3.3509479,-19.554283,-6.496056,-19.97157,6.803306,-1.6276531,2.586533,-9.666322,-2.3747776,18.14772,-19.850801,23.855234,-17.827589,44.44159,12.854279,1.6307746,3.2213526,19.431555,-5.05697,16.76665,62.275406,6.9615097,5.2632527,-0.36552024
128,0.8994231224060059,-111.72907257080078,74.16988372802734,-0.5279880823414321,-5.871504826814358,-82.81838610257043,31.2542,1.3925688,-0.22890134,8.787338,-17.442778,-3.9001458,-19.81293,-5.38498,-20.12362,8.256896,-0.4126269,0.9183334,-9.581835,-1.4990985,17.853363,-19.20195,23.836685,-17.75754,44.097927,12.907811,1.5912321,3.300998,19.526686,-5.0106463,16.745481,62.378227,6.9035716,5.2976146,-0.29301834
129,0.7503780722618103,-112.84050750732422,74.1602554321289,-1.378448912020943,-5.607246787762781,-82.94248235552014,31.100523,2.592671,-0.017419992,10.41352,-17.334602,-4.4203343,-20.421444,-4.4958863,-20.290665,10.36057,0.33014995,-0.33732802,-9.5764475,-0.669444,17.496286,-18.482168,23.810135,-17.71245,43.783672,12.984428,1.5293071,3.338984,19.636652,-4.9780965,16.69325,62.4333,6.9323106,5.2971487,-0.23224446
130,0.6165353059768677,-113.96066284179688,74.15271759033203,-2.250156109234821,-5.302643010850774,-83.02201732490629,30.848145,3.8315732,0.102163486,12.142768,-17.121851,-4.9376206,-20.875822,-3.550785,-20.5015,12.026525,1.3274364,-1.4204998,-9.606282,0.18407848,17.073355,-17.710358,23.745178,-17.690762,43.521095,13.088484,1.4535718,3.3488824,19.72894,-4.936538,16.590555,62.482765,7.0034246,5.271193,-0.18826589
131,0.4996926486492157,-115.09329223632812,74.15167999267578,-3.0918301179367442,-4.981016250273464,-83.07264795371711,30.489819,5.026885,0.1353966,13.998915,-16.752533,-5.436898,-21.23487,-2.6472578,-20.770252,13.499611,2.252987,-2.3292127,-9.662401,1.0079353,16.616446,-16.892513,23.659342,-17.687527,43.318623,13.179297,1.3792596,3.343046,19.812355,-4.9166265,16.463902,62.500427,7.0996013,5.236727,-0.1533916
132,0.38687676191329956,-116.23121643066406,74.15567779541016,-3.843900369084317,-4.670866692190073,-83.11092497394722,30.021053,6.087165,0.0895633,16.003372,-16.173243,-5.8976398,-21.546864,-1.8888072,-21.097445,15.014462,2.7910266,-3.0578077,-9.740879,1.7496758,16.1578,-16.041763,23.528978,-17.662544,43.20662,13.255768,1.3189074,3.329872,19.849693,-4.921294,16.318361,62.519756,7.183751,5.205125,-0.1377257
133,0.2678617238998413,-117.36920166015625,74.17176818847656,-4.472877580419822,-4.35771719905307,-83.14871466173015,29.434582,6.971568,-0.0467171,18.135511,-15.35534,-6.2849836,-21.887302,-1.3485736,-21.472624,16.735722,2.8213344,-3.5242987,-9.8466835,2.381027,15.666918,-15.127676,23.354015,-17.601717,43.17445,13.320321,1.2711443,3.308532,19.840574,-4.959631,16.155224,62.55132,7.256224,5.1743135,-0.14746659
134,0.16070115566253662,-118.50564575195312,74.20331573486328,-5.012576086808076,-4.0397986448220236,-83.19529876853169,28.747137,7.727738,-0.25532457,20.36725,-14.317537,-6.608721,-22.228632,-0.9618023,-21.853283,18.571436,2.491198,-3.7614357,-9.964064,2.9351876,15.145637,-14.149672,23.136938,-17.518038,43.20845,13.379185,1.2298265,3.2748883,19.794966,-5.0308027,15.971722,62.581005,7.3326817,5.1397247,-0.17657147
135,0.07378078252077103,-119.6358642578125,74.24362182617188,-5.495958075242215,-3.769099375526826,-83.2598755477538,27.986692,8.3899975,-0.48860076,22.727396,-13.08747,-6.9073243,-22.452242,-0.62310094,-22.189459,20.336294,1.9021858,-3.9218574,-10.059616,3.4340096,14.676538,-13.161631,22.877527,-17.422031,43.32626,13.423669,1.2018164,3.2329361,19.702381,-5.1288424,15.774321,62.589363,7.4057937,5.1101646,-0.21325213
136,-0.02263224683701992,-120.73340606689453,74.29840850830078,-5.951910769400973,-3.59841577306114,-83.3466649736375,27.180878,8.989716,-0.7058977,25.25263,-11.692047,-7.215829,-22.43135,-0.21504763,-22.434875,21.811779,1.1710699,-4.14643,-10.105222,3.8911629,14.342495,-12.209829,22.577549,-17.316813,43.538967,13.451889,1.1940144,3.1861067,19.551214,-5.2430387,15.570709,62.558872,7.467765,5.0940876,-0.24599157
137,-0.10772444307804108,-121.82019805908203,74.36952209472656,-6.370483837273647,-3.559827509315539,-83.48305823350256,26.344965,9.510785,-0.8906246,28.019363,-10.147043,-7.50755,-22.111523,0.31563795,-22.53522,22.925283,0.24071077,-4.4440703,-10.079493,4.2870417,14.179148,-11.283975,22.235182,-17.176422,43.851875,13.465956,1.2057632,3.1453352,19.323784,-5.364818,15.355584,62.503227,7.5180545,5.0985336,-0.27070937
138,-0.1948416829109192,-122.88970947265625,74.45849609375,-6.735345560583224,-3.624166442108768,-83.66044663371746,25.445225,9.954488,-1.066478,31.03288,-8.456034,-7.7441936,-21.567097,0.9189685,-22.517262,23.78523,-0.9115032,-4.7358565,-9.997043,4.6143317,14.138514,-10.36853,21.851732,-17.010508,44.260967,13.468108,1.2345136,3.106313,19.026112,-5.4950967,15.124975,62.434093,7.558806,5.1164913,-0.29626805
139,-0.28333890438079834,-123.93194580078125,74.55867767333984,-7.071091340432757,-3.7523026407773203,-83.82565253461762,24.442522,10.372331,-1.257573,34.209766,-6.6221776,-7.9496813,-20.860376,1.5582871,-22.459826,24.431812,-2.1123488,-5.029929,-9.890372,4.905595,14.17883,-9.501208,21.439304,-16.877218,44.76193,13.447081,1.2845656,3.0495985,18.685482,-5.6348724,14.891755,62.327248,7.5864162,5.1363034,-0.32964143
140,-0.39094042778015137,-124.9689712524414,74.6692886352539,-7.4045116762069085,-3.9027490737362407,-83.92487949395287,23.298443,10.805749,-1.4905047,37.46176,-4.638844,-8.162084,-20.049116,2.18974,-22.443174,24.900368,-3.1898284,-5.333651,-9.792589,5.192048,14.258159,-8.719098,21.017248,-16.837072,45.348408,13.387568,1.3604807,2.9551787,18.329237,-5.7840385,14.668489,62.157253,7.596664,5.1460404,-0.37749785
141,-0.49972593784332275,-125.9984130859375,74.78956604003906,-7.737270466593461,-4.088800275033938,-83.94782779924002,21.96424,11.2496,-1.7847806,40.886497,-2.269952,-8.363078,-19.109287,2.8092773,-22.475216,25.18126,-4.1176047,-5.6722813,-9.712499,5.463473,14.393395,-8.014963,20.597778,-16.888088,46.025932,13.26898,1.4677773,2.8216143,17.954979,-5.9366083,14.465409,61.924015,7.591649,5.1473527,-0.43907064
142,-0.5952045917510986,-127.00314331054688,74.91578674316406,-8.058280071654144,-4.322980434979083,-83.92035850993678,20.46764,11.690833,-2.1218493,44.49599,0.40818596,-8.525711,-18.015404,3.4378662,-22.513418,25.249496,-4.9775925,-6.0320783,-9.6345215,5.704738,14.598753,-7.364106,20.184034,-17.001696,46.784164,13.101118,1.6033539,2.6569831,17.548243,-6.0895495,14.277071,61.6416,7.571448,5.1449385,-0.51134384
143,-0.6819887161254883,-127.97974395751953,75.03689575195312,-8.373767146254002,-4.5618928081302785,-83.84273579145888,18.888927,12.146225,-2.4740195,48.072216,2.926562,-8.700612,-16.833302,4.0625057,-22.566996,25.140942,-5.765861,-6.3601685,-9.555605,5.9397864,14.828259,-6.7755456,19.780888,-17.195698,47.59135,12.916654,1.7589959,2.4549253,17.118135,-6.2489963,14.094208,61.30507,7.531637,5.13153,-0.59721583
144,-0.7675654292106628,-128.9280242919922,75.15473937988281,-8.69043003888634,-4.762121285664864,-83.7161581725809,17.305218,12.624614,-2.8180766,51.41403,4.8024406,-8.95767,-15.633853,4.6706767,-22.64931,24.897108,-6.478292,-6.606326,-9.471275,6.1914797,15.03574,-6.2578998,19.392134,-17.48733,48.414577,12.750241,1.9263344,2.2086515,16.675049,-6.426386,13.905296,60.90674,7.468194,5.100233,-0.6982693
145,-0.8524192571640015,-129.8625946044922,75.262939453125,-9.02314302667975,-4.905172890727436,-83.51903905066825,15.733072,13.173257,-3.1156857,54.51628,5.941408,-9.479685,-14.428813,5.272243,-22.79481,24.500162,-7.10763,-6.7631693,-9.400035,6.4813514,15.212171,-5.829111,19.02094,-17.899473,49.263252,12.594969,2.1089368,1.9003578,16.224157,-6.6259046,13.710409,60.422447,7.382362,5.0521436,-0.81508446
146,-0.9148451685905457,-130.77101135253906,75.37321472167969,-9.364605751822715,-5.0148893689092935,-83.25845963234586,14.122777,13.768769,-3.3932478,57.503494,6.5741186,-10.188062,-13.184602,5.873924,-22.988937,23.93401,-7.652995,-6.8571157,-9.338114,6.790324,15.380445,-5.4779477,18.667109,-18.416288,50.14767,12.436184,2.3098874,1.5382862,15.761588,-6.846133,13.515718,59.85981,7.2765017,4.990805,-0.9449116
147,-0.9721524715423584,-131.68849182128906,75.49696350097656,-9.679426509020784,-5.112139842139289,-82.97742715574586,12.46003,14.299465,-3.7168565,60.355583,6.707217,-10.785012,-11.908349,6.4537306,-23.175665,23.250767,-8.127824,-6.8899736,-9.253286,7.081733,15.542187,-5.1677046,18.326324,-18.992865,51.03416,12.297044,2.5189044,1.1540606,15.287711,-7.088503,13.32285,59.253548,7.1485257,4.9137535,-1.0831708
148,-1.0269174575805664,-132.599609375,75.62322998046875,-9.932882560285554,-5.218292388149863,-82.71886358274591,10.745,14.642097,-4.1463532,63.02606,6.352249,-10.987423,-10.610256,6.9857345,-23.30068,22.513002,-8.546529,-6.8629475,-9.115014,7.322849,15.699416,-4.8612275,17.992302,-19.583584,51.889465,12.200334,2.7250307,0.7791583,14.803915,-7.356726,13.13458,58.637234,6.9965043,4.818741,-1.2252867
149,-1.0646612644195557,-133.4915313720703,75.7497787475586,-10.126568214301962,-5.339012014555857,-82.48285060197837,8.967308,14.686303,-4.774452,65.533104,5.2888737,-10.629916,-9.287227,7.461453,-23.359892,21.730654,-8.908011,-6.7475963,-8.920523,7.517212,15.856354,-4.56676,17.660404,-20.201174,52.71688,12.155915,2.9342966,0.3921368,14.310814,-7.6594934,12.956616,58.00398,6.814092,4.697936,-1.3707372
150,-1.0947837829589844,-134.37545776367188,75.87769317626953,-10.27066802430329,-5.462881911070076,-82.24934256761104,7.145969,14.476421,-5.537386,67.8816,3.594673,-9.934634,-7.9393167,7.888075,-23.3844,20.881098,-9.209584,-6.553063,-8.687924,7.680085,16.009861,-4.2995234,17.328629,-20.857159,53.531902,12.153052,3.1487553,-0.014143039,13.810347,-7.9983296,12.788685,57.33725,6.605942,4.5557413,-1.52062
151,-1.1242151260375977,-135.23562622070312,76.00813293457031,-10.357537838775256,-5.58522416256767,-82.02992883793601,5.3226,14.136764,-6.259306,69.99615,1.7328554,-9.190045,-6.5772624,8.262627,-23.374725,19.973782,-9.463114,-6.33657,-8.417833,7.7962756,16.151346,-4.0371323,16.99729,-21.51105,54.322956,12.177992,3.3516428,-0.38608563,13.302477,-8.365577,12.62322,56.659267,6.3854046,4.4077463,-1.6740621
152,-1.1428449153900146,-136.0980224609375,76.1452407836914,-10.377651934925279,-5.700926993336423,-81.83574830514216,3.5307412,13.833174,-6.75827,71.79404,0.16128086,-8.6627655,-5.217892,8.581099,-23.331905,19.02962,-9.687334,-6.155191,-8.111261,7.8492794,16.272394,-3.7526855,16.669073,-22.118988,55.07502,12.219866,3.5258815,-0.6705689,12.783753,-8.749052,12.453894,55.99637,6.1662593,4.2688694,-1.8311508
153,-1.1630808115005493,-136.948974609375,76.28692626953125,-10.32148123623943,-5.808741612388099,-81.66980481779521,1.7688059,13.625272,-6.975343,73.238304,-0.9919183,-8.486781,-3.8628829,8.837345,-23.255316,18.044678,-9.883183,-6.033674,-7.7592616,7.8252177,16.369186,-3.445723,16.348375,-22.68364,55.79325,12.293893,3.6595318,-0.84594584,12.251144,-9.141009,12.283155,55.349777,5.952986,4.134035,-1.9992963
154,-1.1815980672836304,-137.79185485839844,76.42832946777344,-10.196951093913619,-5.911710050208752,-81.52547107788826,0.020879705,13.446415,-7.003781,74.3712,-1.9688933,-8.487697,-2.5037644,9.034977,-23.148712,17.01187,-10.043549,-5.9382396,-7.3634157,7.733461,16.448399,-3.1269102,16.037294,-23.224255,56.48122,12.399615,3.7642143,-0.9434973,11.70256,-9.542379,12.112981,54.713852,5.7366276,3.9974499,-2.17793
155,-1.2153379917144775,-138.6234130859375,76.56874084472656,-10.026154019155898,-6.01238537467607,-81.40271635424463,-1.7074438,13.29026,-6.88876,75.230865,-2.8758507,-8.462252,-1.1423867,9.188379,-23.017107,15.941804,-10.16827,-5.840929,-6.9402943,7.595374,16.518137,-2.7860782,15.735073,-23.723104,57.121765,12.499641,3.8586345,-0.9892151,11.137861,-9.952354,11.937899,54.10324,5.509793,3.8733225,-2.354961
156,-1.238744854927063,-139.44970703125,76.70076751708984,-9.828472563937702,-6.112607312955097,-81.30146519184386,-3.4100146,13.140564,-6.680198,75.856064,-3.821358,-8.2145405,0.21607342,9.310755,-22.865429,14.852545,-10.261232,-5.7159095,-6.506983,7.4316926,16.585342,-2.4132118,15.439874,-24.163015,57.698765,12.556081,3.9613993,-1.0088465,10.55519,-10.370314,11.754299,53.53452,5.266134,3.7757163,-2.5184798
157,-1.256975769996643,-140.27537536621094,76.82756042480469,-9.606647623794505,-6.213136632861456,-81.21602592629402,-5.101178,12.984507,-6.3880367,76.26132,-4.8514357,-7.6498218,1.5815251,9.406161,-22.695263,13.730233,-10.313671,-5.565642,-6.069755,7.240344,16.651186,-2.0041838,15.149868,-24.543434,58.213932,12.548701,4.0877385,-0.9810496,9.951227,-10.795836,11.559612,53.014698,4.9887805,3.710874,-2.6718817
158,-1.275305986404419,-141.08921813964844,76.9506607055664,-9.349333950290053,-6.313204475184741,-81.14859924240976,-6.77098,12.825717,-5.9887567,76.41755,-5.903998,-6.9000626,2.9531143,9.467225,-22.505026,12.5759,-10.3320465,-5.406422,-5.61955,7.013532,16.713572,-1.5651039,14.865083,-24.873861,58.675476,12.499426,4.224103,-0.9007826,9.326207,-11.228826,11.358635,52.536514,4.6864324,3.6705828,-2.8190467
159,-1.2850916385650635,-141.89366149902344,77.066162109375,-9.06069278862479,-6.4120174171844715,-81.11083985880326,-8.377376,12.668286,-5.4824505,76.30038,-6.9302487,-6.110209,4.3100214,9.487186,-22.297424,11.430315,-10.338454,-5.2315197,-5.149102,6.7603316,16.77358,-1.0981113,14.586483,-25.143972,59.07465,12.442413,4.345748,-0.8181377,8.682118,-11.672385,11.157254,52.096737,4.390016,3.646464,-2.949673
160,-1.2913498878479004,-142.7013397216797,77.17615509033203,-8.7468728162895,-6.508285390858023,-81.11441793028996,-9.877948,12.520726,-4.8659463,75.88402,-7.8773346,-5.42187,5.631583,9.460646,-22.074785,10.332266,-10.355602,-5.032523,-4.653237,6.4908285,16.833076,-0.6044623,14.315474,-25.343313,59.40026,12.410622,4.428145,-0.7838706,8.022129,-12.130392,10.962786,51.68967,4.1304846,3.6303594,-3.0525985
161,-1.2894773483276367,-143.49606323242188,77.27313995361328,-8.399537809558874,-6.604165590473974,-81.1625076721555,-11.261099,12.385981,-4.1108284,75.146034,-8.754245,-4.8684454,6.918199,9.376921,-21.840446,9.285221,-10.387262,-4.795519,-4.1276555,6.19921,16.897942,-0.078349784,14.052357,-25.456108,59.636093,12.432635,4.4573135,-0.82748353,7.3416476,-12.605487,10.769531,51.320236,3.9195368,3.6272624,-3.1184819
162,-1.2846132516860962,-144.27874755859375,77.35684967041016,-8.02015979505928,-6.699349916253835,-81.24856250468407,-12.53859,12.2548065,-3.2211359,74.09897,-9.581546,-4.3867164,8.177881,9.241446,-21.595047,8.277813,-10.426168,-4.5295024,-3.578814,5.8847494,16.968227,0.48200637,13.796473,-25.490368,59.787872,12.484023,4.448649,-0.9171517,6.6397,-13.097579,10.580706,50.989315,3.740593,3.638874,-3.1542735
163,-1.2688279151916504,-145.08038330078125,77.43653869628906,-7.625240388763604,-6.788475639835516,-81.3701594942731,-13.707811,12.122704,-2.2421749,72.77147,-10.322304,-3.9669898,9.411227,9.076858,-21.334915,7.299235,-10.467801,-4.2590313,-3.0164561,5.564134,17.036352,1.0673866,13.547986,-25.47401,59.879406,12.517526,4.421782,-1.0122532,5.923818,-13.607121,10.416279,50.68553,3.5833006,3.6520832,-3.1741736
164,-1.2479453086853027,-145.88064575195312,77.5084228515625,-7.235024637630435,-6.866068069337623,-81.52401906048124,-14.771451,11.98909,-1.2228087,71.19581,-10.940372,-3.5945413,10.2236,8.745464,-21.113834,7.2278852,-10.973243,-3.998796,-2.4505794,5.2546096,17.094107,1.6694324,13.307101,-25.434364,59.933235,12.486478,4.396753,-1.0722957,5.203435,-14.133826,10.2957735,50.394882,3.4379177,3.653865,-3.1921542
165,-1.220342755317688,-146.6802978515625,77.56706237792969,-6.845130938094972,-6.937783831858416,-81.72018744351074,-15.716107,11.85301,-0.15087584,69.34837,-11.432494,-3.2763934,11.02347,8.4109955,-20.855019,7.152476,-11.460494,-3.764603,-1.8723296,4.954011,17.144516,2.2895865,13.0736475,-25.386421,59.946594,12.3787155,4.376951,-1.0826727,4.4803963,-14.680506,10.225865,50.115944,3.3085957,3.633429,-3.2119217
166,-1.1943089962005615,-147.47796630859375,77.60852813720703,-6.449482581352706,-7.003616393524911,-81.9555611489488,-16.542635,11.711995,0.99140906,67.22018,-11.814868,-3.019956,11.81129,8.066163,-20.565052,7.0745997,-11.931605,-3.543821,-1.28134,4.657976,17.191551,2.9315822,12.846423,-25.314093,59.908543,12.219114,4.352147,-1.0668231,3.7516747,-15.245765,10.196465,49.852047,3.1991572,3.6001003,-3.225318
167,-1.1658371686935425,-148.27037048339844,77.63726043701172,-6.066940719373727,-7.049890259811132,-82.2074506425831,-17.277899,11.566892,2.1602015,64.862206,-12.080792,-2.806028,12.578597,7.7304864,-20.271345,6.991448,-12.391737,-3.3330688,-0.6987684,4.377626,17.226303,3.5872378,12.625283,-25.199984,59.835037,12.015615,4.322,-1.0406778,3.0154145,-15.823934,10.200295,49.602005,3.097729,3.5710297,-3.2299678
168,-1.1295883655548096,-149.0716552734375,77.64891052246094,-5.710539384488377,-7.062879820268389,-82.45430993482232,-17.95205,11.417069,3.3136373,62.32791,-12.224495,-2.6124732,13.314697,7.4189324,-20.000393,6.9047465,-12.850574,-3.1289456,-0.14490965,4.1199975,17.238949,4.2476597,12.41102,-25.02788,59.74168,11.774067,4.2861114,-1.0203713,2.270913,-16.4049,10.229461,49.36449,2.9918296,3.5632908,-3.223889
169,-1.0914360284805298,-149.87496948242188,77.6335678100586,-5.36947718881622,-7.038739831333162,-82.68807800590139,-18.577246,11.26931,4.466866,59.617527,-12.251716,-2.4115129,14.013418,7.120069,-19.763063,6.8179126,-13.302796,-2.9289043,0.37495092,3.868984,17.22392,4.9154253,12.205245,-24.781218,59.62597,11.4491415,4.245507,-1.0123569,1.5124168,-16.984255,10.28611,49.146973,2.8807304,3.5865142,-3.203603
170,-1.0606950521469116,-150.68057250976562,77.60269927978516,-5.04188615064731,-6.985167588144441,-82.92107654572855,-19.13719,11.115325,5.6350093,56.705814,-12.162716,-2.222564,14.684446,6.8307047,-19.543943,6.7249026,-13.744501,-2.7367344,0.87144625,3.6218805,17.186474,5.5950093,12.008705,-24.473257,59.48078,11.0524235,4.199997,-1.007627,0.73979217,-17.561989,10.373669,48.950764,2.7684495,3.6294026,-3.1726038
171,-1.0304001569747925,-151.48663330078125,77.55644226074219,-4.76665038393148,-6.911581272888559,-83.15573439101411,-19.625116,10.955115,6.753416,53.61476,-11.950977,-2.0919359,15.289695,6.581517,-19.341124,6.738968,-14.249012,-2.5581398,1.345745,3.4234223,17.137186,6.2808857,11.81895,-24.129948,59.314945,10.68044,4.1481805,-0.9984387,-0.039931417,-18.135588,10.4823265,48.7658,2.6488514,3.6770172,-3.1393442
172,-0.99956876039505,-152.28907775878906,77.48800659179688,-4.538738380183534,-6.81797889726589,-83.40987810535468,-20.036905,10.75818,7.7956486,50.355736,-11.599796,-2.0492785,15.872665,6.383271,-19.130875,6.755972,-14.767915,-2.390072,1.8156526,3.2713327,17.074348,6.963966,11.63381,-23.78065,59.143505,10.427875,4.088324,-0.9760039,-0.8190314,-18.701674,10.600587,48.583275,2.5139234,3.7146263,-3.1132576
173,-0.9608743786811829,-153.0970458984375,77.40251159667969,-4.36311336189338,-6.694266349357535,-83.68483979841425,-20.38097,10.563114,8.770083,46.891693,-11.089632,-2.0599625,16.416752,6.2396574,-18.919777,6.7729516,-15.305603,-2.2237742,2.2886124,3.1682897,16.987524,7.6430187,11.452997,-23.419533,58.959213,10.348176,4.015418,-0.9313359,-1.5954603,-19.260174,10.72283,48.40015,2.35235,3.7362657,-3.0960007
174,-0.9261692762374878,-153.9071502685547,77.30335235595703,-4.230099107891445,-6.541241415957391,-83.97728132988198,-20.65597,10.371526,9.687561,43.213326,-10.426698,-2.109686,16.921947,6.1388965,-18.711079,6.7910895,-15.855002,-2.0544236,2.7606063,3.1047246,16.875479,8.3206005,11.276554,-23.0389,58.760925,10.379745,3.9320407,-0.87067103,-2.3716917,-19.811321,10.852981,48.220287,2.1701887,3.7504263,-3.0831578
175,-0.8803820013999939,-154.71340942382812,77.18677520751953,-4.138003389172767,-6.381611024688235,-84.29313424656314,-20.849627,10.133046,10.498165,39.38043,-9.641116,-2.251233,17.418348,6.0756407,-18.484682,6.808806,-16.402182,-1.8878678,3.2292383,3.0794704,16.755886,8.991997,11.101636,-22.659563,58.571636,10.450694,3.8483777,-0.8075194,-3.148151,-20.351748,10.993065,48.046417,1.9866385,3.764131,-3.0751913
176,-0.8359956741333008,-155.53578186035156,77.05392456054688,-4.08311750773486,-6.2390212890845875,-84.63928483390399,-20.948452,9.813963,11.144967,35.44738,-8.763236,-2.5287352,17.936552,6.0465603,-18.219013,6.8265886,-16.934744,-1.7330868,3.6936188,3.0947905,16.646805,9.649133,10.924445,-22.306011,58.419395,10.486392,3.7742496,-0.755013,-3.9248075,-20.876364,11.14333,47.882507,1.8188558,3.784275,-3.0728135
177,-0.7864314913749695,-156.35906982421875,76.90143585205078,-4.0744616362209465,-6.114287288240421,-85.03170286454979,-20.931664,9.429857,11.600589,31.318516,-7.7660236,-2.9441967,18.476704,6.0649047,-17.89545,6.8468833,-17.461205,-1.6024873,4.167735,3.161734,16.540813,10.293501,10.743561,-21.985374,58.31075,10.472708,3.7120702,-0.71340007,-4.707426,-21.385204,11.31173,47.734146,1.6689262,3.8153942,-3.0809839
178,-0.7264247536659241,-157.18528747558594,76.7328109741211,-4.116995707659606,-6.0007632149034364,-85.47021475565113,-20.792316,9.048512,11.880131,26.962383,-6.6373568,-3.4447243,19.029287,6.133835,-17.519646,6.867521,-17.982353,-1.48801,4.65545,3.285415,16.432014,10.927566,10.558691,-21.6852,58.233273,10.447679,3.656752,-0.67594236,-5.4942913,-21.878984,11.494619,47.598602,1.527828,3.8529997,-3.097861
179,-0.674566924571991,-158.01412963867188,76.54815673828125,-4.20834914703657,-5.91242268787221,-85.93866667973579,-20.53382,8.713521,11.997844,22.5248,-5.425068,-3.9954453,19.611715,6.2399297,-17.104027,6.885321,-18.47921,-1.373601,5.143541,3.4621353,16.340685,11.542589,10.368258,-21.39987,58.18866,10.41618,3.6070914,-0.64480436,-6.2755785,-22.353495,11.673988,47.469013,1.3947247,3.8905528,-3.114072
180,-0.6132842302322388,-158.8582000732422,76.34761047363281,-4.3479725069095085,-5.8643642070985695,-86.42324396713948,-20.164122,8.451995,11.9782295,18.163734,-4.178686,-4.578308,20.243786,6.375137,-16.658175,6.896707,-18.934357,-1.246938,5.62127,3.69212,16.287504,12.128999,10.17047,-21.12514,58.180347,10.382313,3.5617783,-0.6215507,-7.041532,-22.801773,11.830784,47.3404,1.2689884,3.9212468,-3.120738
181,-0.5441960096359253,-159.6910400390625,76.13289642333984,-4.570960554758582,-5.865986075722707,-86.9438965185886,-19.659266,8.277429,11.802176,13.801,-2.8353577,-5.2808447,20.933115,6.585921,-16.160698,6.901999,-19.352097,-1.121689,6.1043534,4.014968,16.277481,12.69363,9.964725,-20.849823,58.195885,10.341514,3.5104253,-0.60365295,-7.8042917,-23.22328,11.962005,47.221542,1.1430697,3.94287,-3.1118274
182,-0.47428929805755615,-160.54324340820312,75.89630126953125,-4.8936731898764,-5.919884945046367,-87.52281210352933,-18.963387,8.229812,11.479137,9.298311,-1.3570595,-6.0820675,21.67989,6.8924537,-15.58263,6.9003415,-19.736721,-1.0088909,6.6131845,4.4496803,16.299465,13.244486,9.7513895,-20.579002,58.23576,10.29401,3.4575872,-0.5901501,-8.567376,-23.621674,12.078613,47.117664,1.018326,3.9593666,-3.09305
183,-0.39392852783203125,-161.4054718017578,75.64805603027344,-5.24875995892951,-6.0170396572834095,-88.12533868686737,-18.981806,8.462997,10.956973,6.704063,-0.8456356,-6.8211937,22.475533,7.209638,-14.955917,6.898401,-20.07912,-0.88464534,7.122529,4.9291053,16.348131,13.76745,9.530391,-20.333393,58.326317,10.250578,3.423946,-0.5853219,-9.303633,-23.990976,12.1763525,47.01349,0.90728855,3.9727414,-3.0741582
184,-0.29927852749824524,-162.26792907714844,75.41014862060547,-5.546500841968446,-6.133554520285956,-88.68811629484632,-19.92741,8.880027,10.274592,6.5294366,-1.5731635,-7.342611,23.29926,7.424066,-14.350826,6.9004836,-20.37092,-0.7169395,7.580217,5.3505306,16.416222,14.239184,9.304326,-20.132309,58.5014,10.221722,3.4298599,-0.5927786,-9.987958,-24.319527,12.247926,46.896053,0.81981057,3.984502,-3.0678167
185,-0.19160322844982147,-163.1306915283203,75.1865005493164,-5.764997048461652,-6.2631520677736,-89.19358360625186,-20.715357,9.180804,9.5048275,6.3858805,-2.336226,-7.601199,24.146112,7.508606,-13.793605,6.9009275,-20.614738,-0.48677015,7.961933,5.6903734,16.514217,14.659641,9.073553,-19.964622,58.762703,10.210559,3.4857795,-0.606148,-10.63809,-24.600115,12.288038,46.773315,0.7595045,3.9955997,-3.0806773
186,-0.06788105517625809,-164.0240478515625,74.98432159423828,-5.866674681427563,-6.3867430377869425,-89.60333379135679,-21.443396,9.265923,8.640492,6.408445,-3.1778522,-7.681178,25.015339,7.433846,-13.346864,6.898792,-20.833487,-0.18288067,8.229483,5.897506,16.64527,15.0120535,8.842477,-19.818413,59.1124,10.211568,3.5778253,-0.626585,-11.266042,-24.825987,12.294841,46.65129,0.7186789,4.00302,-3.1126761
187,0.04200493544340134,-164.9168243408203,74.78688049316406,-5.8972118326055645,-6.502168659424733,-89.95507541310232,-21.979929,9.232922,7.923859,6.4314632,-3.8683367,-7.681069,25.888577,7.278228,-12.960806,6.8945312,-20.99732,0.1486692,8.433141,6.0199623,16.77187,15.309786,8.619092,-19.718828,59.54358,10.221732,3.6939163,-0.6662408,-11.83328,-24.998024,12.275082,46.5232,0.68658024,4.0055437,-3.155036
188,0.14079245924949646,-165.81985473632812,74.60685729980469,-5.852426086224441,-6.588833192125453,-90.23586955487147,-22.281824,9.122243,7.566671,6.444606,-4.2645345,-7.6764297,26.743248,7.0511923,-12.648277,6.8914356,-21.089306,0.48598948,8.578672,6.0475016,16.860542,15.5448065,8.41473,-19.690231,60.05869,10.237895,3.8208268,-0.7394076,-12.293693,-25.114557,12.225254,46.368862,0.6540753,4.000979,-3.2017171
189,0.24499045312404633,-166.7341766357422,74.44354248046875,-5.766164986696718,-6.66344252341353,-90.45172187457534,-22.264534,9.019133,7.7193317,6.4491973,-4.4372478,-7.8069186,27.596346,6.779595,-12.376866,6.8911114,-21.118559,0.8148308,8.6747875,6.0061183,16.919909,15.729133,8.250017,-19.74908,60.65822,10.247301,3.9513407,-0.8445004,-12.643857,-25.168444,12.136732,46.18733,0.626314,3.9892423,-3.252295
190,0.35497263073921204,-167.6648406982422,74.28678131103516,-5.634722065592243,-6.727379673692911,-90.60062019242221,-21.977062,8.889718,8.226178,6.4480557,-4.42292,-7.9930515,28.449226,6.4477797,-12.157512,6.8915744,-21.087387,1.1490926,8.712304,5.8962126,16.963062,15.865498,8.11913,-19.879318,61.33238,10.254331,4.0937,-0.97805583,-12.897963,-25.167519,12.007695,45.978603,0.6079153,3.9716437,-3.308214
191,0.45898738503456116,-168.62152099609375,74.14529418945312,-5.413364759197665,-6.751771819260371,-90.64118033050558,-21.567303,8.606097,8.813515,6.4362907,-4.032312,-7.974808,29.224373,6.0074162,-12.079525,6.9999986,-21.02861,1.5065569,8.654442,5.669108,16.982376,15.958255,8.02869,-20.051094,62.028053,10.277872,4.257794,-1.16231,-13.040994,-25.126108,11.848461,45.721188,0.59293675,3.9466283,-3.3663263
192,0.6004478335380554,-169.567138671875,74.07047271728516,-5.028420281602163,-6.6956586985265965,-90.56692791194992,-21.191534,8.0325575,9.251989,6.409453,-3.0857685,-7.492065,29.938503,5.4051023,-12.197615,7.097089,-20.855976,1.9073812,8.521563,5.259772,16.934381,15.934384,7.9220686,-20.265724,62.808804,10.335875,4.456172,-1.3836962,-13.055926,-25.02333,11.631003,45.43012,0.53111243,3.9115403,-3.4311614
193,0.7356531023979187,-170.5229949951172,74.03519439697266,-4.403547926825357,-6.52680512626315,-90.34511866889817,-20.875198,7.060894,9.544323,6.3591743,-1.3049774,-6.3125424,30.567625,4.56906,-12.570201,7.1756096,-20.584267,2.3705578,8.252915,4.5770597,16.815634,15.840143,7.8420863,-20.49807,63.61045,10.442723,4.691659,-1.687883,-12.95465,-24.874342,11.396997,45.081997,0.44674706,3.8661268,-3.5025811
194,0.8682062029838562,-171.5072479248047,74.00772857666016,-3.56357020961337,-6.282962261555686,-89.9833050232217,-20.576115,5.757724,9.831984,6.369943,1.094585,-4.6159716,31.148645,3.511844,-13.170834,7.2620068,-20.241495,2.8924742,7.866534,3.6458673,16.648228,15.668207,7.7896953,-20.76763,64.452736,10.5851555,4.960065,-2.0585604,-12.732001,-24.671265,11.127494,44.678642,0.34192115,3.8109183,-3.5809083
195,1.0016154050827026,-172.49810791015625,73.98881530761719,-2.6572411833215677,-6.030614761457962,-89.58207881341012,-20.273354,4.3550625,10.084105,6.4085073,3.6480103,-2.7975361,31.724848,2.3924944,-13.85668,7.367717,-19.769789,3.4264443,7.4641438,2.6392667,16.453583,15.463036,7.765732,-21.048021,65.27319,10.747118,5.247962,-2.4636064,-12.393491,-24.427095,10.8361635,44.23669,0.23336563,3.7485805,-3.6545775
196,1.160697102546692,-173.49818420410156,73.9922866821289,-1.8186299081227548,-5.818853215821984,-89.22820923251075,-20.718187,3.1857846,10.185033,8.101636,5.00488,-1.2574947,32.3309,1.3487688,-14.504034,7.485089,-19.106436,3.9311323,7.1351876,1.7069321,16.252623,15.25458,7.7672753,-21.314491,66.02157,10.910477,5.5428944,-2.8692937,-11.943999,-24.151386,10.532045,43.771526,0.13556884,3.6811354,-3.7141695
197,1.327487587928772,-174.5102996826172,73.99591064453125,-1.050341025542403,-5.63211947137856,-88.93858904783123,-21.540955,2.154698,10.089158,10.580578,5.627749,-0.07045759,32.573776,0.27178162,-15.091664,8.455622,-18.713684,4.411138,6.8927727,0.8518914,16.030937,15.042585,7.790288,-21.576052,66.697266,11.102034,5.8607383,-3.2962763,-11.377078,-23.849201,10.222033,43.262123,0.051488142,3.6111498,-3.7549884
198,1.4835208654403687,-175.5452423095703,74.00658416748047,-0.2888989513879747,-5.443181563780925,-88.67818737382477,-22.227724,1.0747149,9.888865,12.7378645,6.3267317,0.95039177,32.466686,-0.90722346,-15.649118,10.199829,-18.566273,4.876415,6.7009215,0.005759977,15.776154,14.808792,7.8321295,-21.842909,67.3273,11.32132,6.2006907,-3.752735,-10.692244,-23.518475,9.904267,42.706093,-0.023580091,3.5372095,-3.7812903
199,1.6284565925598145,-176.59408569335938,74.01113891601562,0.4652260874399297,-5.270872815897213,-88.43107273167419,-22.735384,-0.008709486,9.714332,14.6004305,6.9198184,1.8120708,32.306,-2.1029193,-16.19059,12.073696,-18.269701,5.306148,6.5497985,-0.8271947,15.515116,14.550643,7.894285,-22.08438,67.907326,11.51317,6.524463,-4.186875,-9.906117,-23.156818,9.573764,42.145805,-0.08597732,3.455008,-3.79867
200,1.7693463563919067,-177.6637725830078,74.03218841552734,1.208713714712119,-5.1328887561542995,-88.18340043218437,-23.004284,-1.0431908,9.695278,16.163725,7.2330537,2.5366366,32.052128,-3.3254614,-16.735294,14.173301,-17.825855,5.684173,6.4311476,-1.6465036,15.273482,14.267955,7.9807153,-22.272572,68.425545,11.6182,6.7990146,-4.54729,-9.035279,-22.759846,9.225808,41.62395,-0.1310358,3.3602715,-3.8133771
201,1.904207468032837,-178.7423858642578,74.06446075439453,1.9589424556132315,-5.023516798068116,-87.92798090232957,-23.040478,-2.0108836,9.880555,17.486448,7.139545,3.1032653,31.732801,-4.584855,-17.321547,16.468155,-17.200857,6.033043,6.3521504,-2.4784324,15.037214,13.963455,8.098989,-22.391378,68.90053,11.610289,7.021029,-4.841411,-8.044282,-22.318462,8.8404,41.12243,-0.1686736,3.2450564,-3.8249283
202,2.0346715450286865,-179.8025360107422,74.1070785522461,2.725118881341802,-4.931232015715118,-87.66250633542136,-22.896385,-2.9536123,10.165647,18.60536,6.7229657,3.519185,31.374376,-5.881333,-17.937613,18.887297,-16.38787,6.3519716,6.302298,-3.3322048,14.796009,13.637074,8.251391,-22.460226,69.3288,11.52128,7.2078786,-5.0898786,-6.940651,-21.827032,8.429789,40.631306,-0.19901837,3.1132276,-3.8318648
203,2.171940803527832,-180.8601531982422,74.1678466796875,3.4821326065775535,-4.8649044892237026,-87.38601665818773,-22.571064,-3.8980067,10.454634,19.465988,6.134102,3.8530478,30.929642,-7.2036676,-18.522573,21.472103,-15.421243,6.590642,6.2531013,-4.1804314,14.579845,13.287322,8.430885,-22.495493,69.67087,11.387114,7.3545465,-5.2587233,-5.8092737,-21.295702,8.038297,40.208122,-0.20404056,2.978643,-3.839154
204,2.3128271102905273,-181.91555786132812,74.24422454833984,4.203754887401844,-4.833508481883876,-87.10090978382213,-22.055586,-4.8694057,10.656793,20.000746,5.5308704,4.1717496,30.352617,-8.541576,-19.013262,24.258595,-14.331488,6.699696,6.1794157,-4.9871945,14.419568,12.910091,8.622693,-22.514185,69.89036,11.243564,7.4551315,-5.3136697,-4.7298317,-20.741785,7.7093167,39.90535,-0.16177589,2.8558867,-3.8505125
205,2.456831455230713,-182.94395446777344,74.33047485351562,4.8837003587519705,-4.85532097784988,-86.77596772583848,-21.294638,-5.903571,10.722265,20.145681,4.8872495,4.484498,29.668657,-9.895115,-19.43167,27.262232,-13.103586,6.68582,6.0579796,-5.7398424,14.3304825,12.497974,8.815356,-22.53091,69.99124,11.081501,7.5057507,-5.2066913,-3.690853,-20.178576,7.4394655,39.719856,-0.051819447,2.7553463,-3.8643475
206,2.6002707481384277,-183.9649200439453,74.43983459472656,5.5277372114520045,-4.924133964560603,-86.41559776111873,-20.302338,-6.969439,10.682302,19.957096,4.13871,4.753197,28.910076,-11.246518,-19.806787,30.420664,-11.709925,6.572008,5.902512,-6.4392767,14.294535,12.048018,9.005552,-22.536104,69.99889,10.887554,7.509458,-4.967271,-2.655415,-19.609018,7.2120047,39.624146,0.11343231,2.6678731,-3.8777509
207,2.7456440925598145,-184.9687957763672,74.57159423828125,6.118133530083677,-5.0104428871331725,-86.07897713749367,-19.16771,-7.995447,10.578992,19.528553,3.397615,4.9750175,28.02495,-12.570795,-20.082998,33.675224,-10.166839,6.323249,5.7463813,-7.0723023,14.294197,11.562621,9.190926,-22.504755,69.91039,10.694308,7.470695,-4.6771336,-1.6698946,-19.038836,7.051422,39.638866,0.30578682,2.5787306,-3.893821
208,2.8897645473480225,-185.95016479492188,74.72647094726562,6.647911103013576,-5.083269189191493,-85.82587343829843,-17.98374,-8.912568,10.466322,18.954287,2.7754714,5.149893,26.954811,-13.858141,-20.20547,36.9782,-8.498438,5.888858,5.620924,-7.630482,14.312945,11.046373,9.368959,-22.407728,69.72125,10.536072,7.3951597,-4.417987,-0.7842312,-18.475897,6.9840336,39.787632,0.49706832,2.4731386,-3.9161153
209,3.0386714935302734,-186.91036987304688,74.89447784423828,7.114040813059822,-5.134234760163686,-85.66705407257297,-16.7459,-9.716765,10.352828,18.198406,2.3093123,5.287724,25.616045,-15.17274,-20.179531,40.461117,-6.496677,5.124264,5.5357213,-8.104518,14.352166,10.491806,9.535145,-22.22899,69.42531,10.4342165,7.270717,-4.2211037,-0.0040615126,-17.926146,7.0104923,40.08876,0.6814201,2.3340838,-3.9527702
210,3.1800999641418457,-187.840576171875,75.07511138916016,7.518149311087807,-5.179731508100634,-85.5704754279109,-15.401482,-10.4394455,10.211422,17.212,1.9468576,5.3819556,24.057116,-16.529013,-20.053116,44.104343,-4.226928,4.040504,5.4695873,-8.497113,14.420678,9.899307,9.687992,-21.983763,69.03005,10.367052,7.0992804,-4.0390925,0.694541,-17.392527,7.120396,40.526863,0.8750283,2.1742375,-3.999735
211,3.3101983070373535,-188.75619506835938,75.25757598876953,7.864507696173133,-5.225325313649897,-85.53273387892288,-13.987372,-11.070862,10.056492,16.089466,1.6567391,5.415119,22.399263,-17.838339,-19.817873,47.673275,-2.1460147,2.843187,5.4090333,-8.819308,14.514689,9.285819,9.831331,-21.689474,68.54819,10.305321,6.906967,-3.8365538,1.309198,-16.87738,7.3205905,41.072945,1.0837609,2.0232234,-4.0421386
212,3.4302783012390137,-189.63180541992188,75.43384552001953,8.15209559388872,-5.277320056923522,-85.5488423156862,-12.550019,-11.596244,9.903488,14.937222,1.4011811,5.376301,20.753496,-18.96901,-19.434134,50.95603,-0.71576846,1.8020465,5.338778,-9.080095,14.6302185,8.667991,9.972544,-21.367426,67.99121,10.21595,6.7196293,-3.5790207,1.8360388,-16.383718,7.6175175,41.69907,1.3131645,1.9104928,-4.065569
213,3.540703296661377,-190.48562622070312,75.60663604736328,8.3773569283132,-5.328232051123262,-85.64599666579755,-11.103507,-11.996834,9.786138,13.763806,1.1733894,5.2561274,19.102566,-19.852633,-18.830513,53.975574,-0.08659012,1.0663321,5.275909,-9.276108,14.769461,8.056198,10.11375,-20.997372,67.326866,10.092081,6.552041,-3.2556088,2.261153,-15.911483,8.023546,42.420822,1.5823823,1.8425342,-4.073057
214,3.6484427452087402,-191.33839416503906,75.78063201904297,8.53562119177733,-5.377539469463088,-85.8153254439496,-9.6355915,-12.28408,9.696807,12.533799,0.982438,5.0758047,17.38152,-20.531048,-18.028862,56.864983,-0.023121493,0.5115712,5.2186136,-9.3997135,14.933584,7.441426,10.254822,-20.575996,66.56036,9.950703,6.385023,-2.8867157,2.5931203,-15.460829,8.529203,43.245102,1.8837485,1.8042369,-4.070837
215,3.7465054988861084,-192.17318725585938,75.94672393798828,8.627750729763076,-5.440232825941917,-85.99965568031871,-8.161487,-12.4847,9.592556,11.30072,0.81030333,4.870016,15.626442,-21.003088,-17.114119,59.580482,-0.39869338,0.044588845,5.1282716,-9.4541025,15.116238,6.8145423,10.401296,-20.154018,65.74512,9.795605,6.201022,-2.4869053,2.8672268,-15.034275,9.103066,44.12572,2.1819434,1.7924985,-4.048111
216,3.834848403930664,-193.0020751953125,76.11288452148438,8.654123275346734,-5.531682208780244,-86.14251341278867,-6.697352,-12.626628,9.429718,10.124532,0.63689363,4.6662426,13.880164,-21.276138,-16.176077,62.065216,-1.0779965,-0.4298211,4.970843,-9.445557,15.312633,6.1644783,10.561862,-19.78842,64.93552,9.627288,5.980533,-2.0714214,3.1203096,-14.635365,9.710335,45.013756,2.4420848,1.8045766,-3.99286
217,3.92495059967041,-193.81410217285156,76.27529907226562,8.613587474778651,-5.661862324563545,-86.24157374239962,-5.228641,-12.705085,9.199267,8.999653,0.46768335,4.4497166,12.142859,-21.267183,-15.155009,64.30891,-2.228184,-0.9256466,4.7439384,-9.374661,15.534685,5.4961767,10.741547,-19.489075,64.11695,9.422799,5.706935,-1.6342779,3.3474104,-14.265275,10.366473,45.91905,2.6484435,1.8478713,-3.8855743
218,4.005412578582764,-194.60963439941406,76.430419921875,8.511393141349044,-5.820681516161866,-86.32455592240153,-3.7580934,-12.711915,8.933663,7.912229,0.3049064,4.212462,10.398261,-20.982523,-14.035191,66.35543,-3.8488314,-1.3673915,4.468409,-9.247317,15.783246,4.813859,10.940194,-19.23412,63.264576,9.186916,5.394758,-1.1737117,3.537054,-13.922404,11.077312,46.857006,2.822574,1.921614,-3.7373252
219,4.087691783905029,-195.3975067138672,76.57959747314453,8.364636404410302,-5.993014963351305,-86.38184888693407,-2.3019195,-12.669593,8.642824,6.8602433,0.14588822,3.9850335,8.67098,-20.573479,-12.97701,68.20132,-5.547815,-1.7323549,4.148512,-9.076458,16.037743,4.1069407,11.156015,-19.02991,62.41891,8.9676285,5.0677214,-0.7111392,3.718116,-13.6032915,11.792039,47.78425,2.9855342,2.0105581,-3.5810497
220,4.161716461181641,-196.18020629882812,76.7231674194336,8.188966447936346,-6.1631808248590225,-86.40239396716413,-1.2642938,-12.537376,8.415818,6.650048,-0.43567163,3.7906656,6.98148,-20.215181,-12.135383,69.83798,-6.937033,-2.0031862,3.7906818,-8.873031,16.277569,3.3626385,11.387336,-18.889042,61.61862,8.809537,4.75487,-0.26681203,3.9224975,-13.303313,12.455946,48.655098,3.156845,2.0993876,-3.4489977
221,4.235289096832275,-196.9590606689453,76.86578369140625,7.9755985161009795,-6.335218538877738,-86.38300235058675,-0.32347488,-12.365963,8.179836,6.61621,-1.0874442,3.644985,5.337486,-19.94476,-11.550119,71.24845,-7.9021406,-2.1284697,3.3953474,-8.628446,16.504036,2.5734444,11.631927,-18.838148,60.871925,8.7132015,4.455586,0.17671664,4.1502814,-13.021496,13.070306,49.47296,3.327961,2.1911614,-3.347376
222,4.318732261657715,-197.7130126953125,76.9925765991211,7.723760143910391,-6.515115795713116,-86.33104785748122,0.61251473,-12.162648,7.916456,6.5814815,-1.7148005,3.5279896,3.7292566,-19.694355,-11.140009,72.43782,-8.653071,-2.1396878,2.9643896,-8.343859,16.728582,1.7422867,11.888654,-18.87127,60.164017,8.654806,4.1585503,0.62411743,4.387878,-12.758142,13.654708,50.257317,3.4910758,2.291259,-3.2598631
223,4.405359268188477,-198.46566772460938,77.10829162597656,7.450453336521621,-6.69006148912504,-86.25040675526903,1.5229979,-11.93659,7.6355534,6.5593004,-2.3258705,3.4224825,2.1476228,-19.479807,-10.87372,73.42558,-9.290386,-2.1441443,2.5052948,-8.039388,16.945251,0.87934464,12.156873,-18.941511,59.49311,8.652678,3.8763502,1.0361936,4.6463413,-12.508343,14.182495,50.985664,3.66809,2.3880465,-3.1846168
224,4.478553295135498,-199.2135467529297,77.21469116210938,7.178976318737234,-6.845846163039692,-86.1466538779753,2.3980706,-11.703943,7.3474793,6.5386515,-2.9179559,3.3147774,0.5784241,-19.310425,-10.716973,74.22816,-9.909978,-2.2480965,2.0279377,-7.738955,17.145819,-0.009253308,12.438305,-19.005432,58.861515,8.721116,3.622067,1.3744549,4.9345884,-12.266066,14.626363,51.638676,3.8789167,2.4693642,-3.1202755
225,4.554139614105225,-199.94993591308594,77.30184936523438,6.899805224154517,-6.980427488326038,-86.01920113666664,3.2307837,-11.45858,7.056791,6.529068,-3.487562,3.2060046,-0.9894677,-19.193996,-10.683725,74.85756,-10.513764,-2.498499,1.5300171,-7.4350505,17.327902,-0.93000704,12.736423,-19.076744,58.275833,8.880104,3.3879433,1.6377404,5.2546844,-12.027047,14.9784775,52.215965,4.125172,2.5266294,-3.0747085
226,4.627382755279541,-200.68605041503906,77.38337707519531,6.613680127530013,-7.100074066101917,-85.867741154986,4.033477,-11.202396,6.7588906,6.522912,-4.0337,3.1047196,-2.5455506,-19.128819,-10.780729,75.29014,-11.050492,-2.8299956,1.0109928,-7.127097,17.49625,-1.8830444,13.051555,-19.173323,57.732643,9.115317,3.1715899,1.8441459,5.600033,-11.790472,15.253026,52.72914,4.395552,2.567489,-3.0462778
227,4.695896625518799,-201.4207763671875,77.4566421508789,6.339224899978497,-7.206644679702038,-85.69794757769841,4.7978106,-10.957066,6.4564447,6.550908,-4.5858593,3.0107806,-4.073156,-19.10363,-10.959882,75.514496,-11.556977,-3.1792326,0.48274818,-6.8398113,17.656366,-2.8535848,13.380577,-19.25499,57.220055,9.390106,2.993112,1.9836379,5.966117,-11.55456,15.458683,53.174942,4.692793,2.604533,-3.0196254
228,4.756816387176514,-202.15048217773438,77.51728057861328,6.0757400224082705,-7.297176249135719,-85.50966442527792,5.538587,-10.7202835,6.1375413,6.5791497,-5.13639,2.9175782,-5.5536447,-19.086847,-11.191339,75.51017,-12.06457,-3.4886656,-0.05128677,-6.5776725,17.805908,-3.8280497,13.719081,-19.280468,56.72897,9.666676,2.8720803,2.0466616,6.346018,-11.319695,15.605618,53.5535,5.018781,2.6503015,-2.980076
229,4.81391716003418,-202.87034606933594,77.56566619873047,5.821168808695556,-7.366843410056508,-85.29996935565961,6.247666,-10.488706,5.795692,6.607737,-5.687704,2.8185885,-6.994723,-19.072552,-11.477801,75.27198,-12.594422,-3.7587345,-0.59804255,-6.336644,17.939816,-4.810483,14.064637,-19.230532,56.2628,9.967838,2.8358984,2.0000136,6.7388215,-11.08489,15.683425,53.858738,5.400511,2.7119532,-2.9194455
230,4.866899013519287,-203.5875244140625,77.6042251586914,5.5697439370618,-7.416847062596621,-85.06852786406303,6.9250064,-10.255397,5.43454,6.636543,-6.233176,2.7142103,-8.39906,-19.068483,-11.838053,74.80432,-13.123764,-4.012018,-1.1591244,-6.110429,18.057505,-5.8079753,14.417846,-19.128181,55.82881,10.305609,2.8653104,1.8590158,7.1458397,-10.851011,15.693316,54.09573,5.8282514,2.7815347,-2.8475854
231,4.913712024688721,-204.3143310546875,77.63439178466797,5.330158555362187,-7.456437742114666,-84.82173093932795,7.584701,-10.029621,5.065655,6.665208,-6.771988,2.6097326,-9.74316,-19.072922,-12.257282,74.11088,-13.620568,-4.2203927,-1.7224066,-5.9040318,18.167477,-6.8124475,14.779383,-18.996063,55.422688,10.6207,2.9106808,1.686961,7.5681615,-10.618539,15.664924,54.274155,6.2504106,2.849649,-2.7755396
232,4.960391998291016,-205.0351104736328,77.65727996826172,5.11183470413374,-7.495197505369893,-84.56561671761717,8.241326,-9.81913,4.7002606,6.6931415,-7.3025126,2.5117934,-11.005166,-19.08747,-12.720393,73.19757,-14.054104,-4.3592067,-2.2764227,-5.725488,18.278517,-7.8114967,15.149275,-18.851286,55.03608,10.858683,2.9233809,1.5474349,8.003735,-10.389762,15.628761,54.40672,6.6156077,2.9063456,-2.714798
233,5.001441955566406,-205.75442504882812,77.66722106933594,4.9125643902279705,-7.536738983596004,-84.29497538533084,8.899002,-9.624764,4.3360023,6.7195177,-7.8244543,2.4178705,-12.177198,-19.117834,-13.237546,72.05075,-14.433269,-4.415328,-2.8268921,-5.574904,18.393887,-8.801105,15.529008,-18.68119,54.655804,10.99556,2.8920732,1.4419465,8.455793,-10.165332,15.578713,54.483307,6.930732,2.9497201,-2.6660194
234,5.032835006713867,-206.47825622558594,77.66883087158203,4.728309850198847,-7.575299933997259,-84.0084423184369,9.548932,-9.440712,3.9685411,6.747321,-8.33981,2.3254251,-13.270765,-19.159851,-13.813851,70.67189,-14.768828,-4.401752,-3.3783288,-5.448485,18.508297,-9.785817,15.918777,-18.478632,54.286465,11.06536,2.8425632,1.3415179,8.924557,-9.944216,15.505186,54.500328,7.216616,2.984658,-2.6230273
235,5.0634446144104,-207.20748901367188,77.6617431640625,4.562662581234709,-7.6069173191527675,-83.71875379134522,10.190712,-9.2694645,3.6059768,6.7740006,-8.847863,2.2425377,-14.291658,-19.19915,-14.425777,69.08586,-15.030952,-4.3323913,-3.9173656,-5.3466406,18.61707,-10.77038,16.31659,-18.27461,53.951702,11.09472,2.782316,1.2654716,9.402528,-9.727665,15.433209,54.48093,7.4439583,3.0116594,-2.5875201
236,5.098181247711182,-207.92050170898438,77.64295196533203,4.419413579769152,-7.627957183874529,-83.4388386098458,10.823666,-9.113753,3.2559674,6.799491,-9.349932,2.177324,-15.246641,-19.222874,-15.048306,67.319,-15.191769,-4.222809,-4.430239,-5.2693467,18.715479,-11.75863,16.7185,-18.098104,53.6748,11.113906,2.71876,1.2332734,9.882176,-9.518364,15.386327,54.44745,7.5831823,3.0312824,-2.5606723
237,5.129298686981201,-208.6181182861328,77.61261749267578,4.303549994289146,-7.637834855572269,-83.16692393719019,11.445224,-8.9791,2.9161515,6.8247795,-9.841517,2.1394503,-16.143166,-19.244549,-15.6762905,65.36794,-15.244336,-4.0741,-4.918217,-5.2185526,18.802044,-12.765322,17.123438,-17.958666,53.483597,11.115137,2.6418757,1.2602892,10.366324,-9.318478,15.36155,54.395428,7.607407,3.041858,-2.5458412
238,5.161126136779785,-209.3455047607422,77.57231140136719,4.210148731134968,-7.638310840441656,-82.89773119231214,12.057058,-8.862332,2.5830498,6.85019,-10.32446,2.1217997,-16.976181,-19.265297,-16.32101,63.222435,-15.204825,-3.879323,-5.3866873,-5.1913056,18.87839,-13.786217,17.531,-17.841963,53.360485,11.087482,2.5515003,1.3333,10.857904,-9.127751,15.348646,54.315235,7.539036,3.0437899,-2.5409992
239,5.174649715423584,-210.0894012451172,77.52499389648438,4.132691946295704,-7.6295874144323355,-82.63906971316432,12.661039,-8.753871,2.2635853,6.875349,-10.806521,2.108074,-17.735262,-19.255526,-16.980854,60.8947,-15.077391,-3.6448343,-5.8290195,-5.181106,18.944744,-14.7957945,17.936548,-17.737478,53.2611,11.059017,2.4700494,1.4287729,11.349797,-8.946034,15.360375,54.22217,7.421852,3.040742,-2.540283
240,5.186679363250732,-210.8319091796875,77.47068786621094,4.06511153611052,-7.611622567242652,-82.39816707855407,13.26057,-8.6436615,1.9645954,6.8994327,-11.29668,2.0820003,-18.409952,-19.1871,-17.653538,58.395245,-14.86651,-3.3778691,-6.2389536,-5.1794696,19.001034,-15.773121,18.334913,-17.639507,53.145916,11.051838,2.4198933,1.5242509,11.834716,-8.774105,15.409775,54.131897,7.300706,3.036481,-2.5385354
241,5.204653739929199,-211.57272338867188,77.40240478515625,4.003677361526847,-7.586215862342932,-82.17720579837308,13.856269,-8.530924,1.6833626,6.923557,-11.801174,2.0383604,-18.988245,-19.091324,-18.362902,55.703484,-14.5583935,-3.0981743,-6.6128345,-5.1853333,19.05208,-16.719309,18.72245,-17.54063,53.005882,11.085305,2.4198263,1.6250657,12.312215,-8.614486,15.502026,54.036747,7.182532,3.0308626,-2.5339956
