unveil-humanoid-operators/unveil-humanoid-operators.github.io/feature-analysis-animation/data/feature_matrix_instances/height_root_translate_rom_jogging_A023.csv
Frame,root_translateX,root_translateY,root_translateZ,root_rotateX,root_rotateY,root_rotateZ,left_hip_pitch_joint_dof,left_hip_roll_joint_dof,left_hip_yaw_joint_dof,left_knee_joint_dof,left_ankle_pitch_joint_dof,left_ankle_roll_joint_dof,right_hip_pitch_joint_dof,right_hip_roll_joint_dof,right_hip_yaw_joint_dof,right_knee_joint_dof,right_ankle_pitch_joint_dof,right_ankle_roll_joint_dof,waist_yaw_joint_dof,waist_roll_joint_dof,waist_pitch_joint_dof,left_shoulder_pitch_joint_dof,left_shoulder_roll_joint_dof,left_shoulder_yaw_joint_dof,left_elbow_joint_dof,left_wrist_roll_joint_dof,left_wrist_pitch_joint_dof,left_wrist_yaw_joint_dof,right_shoulder_pitch_joint_dof,right_shoulder_roll_joint_dof,right_shoulder_yaw_joint_dof,right_elbow_joint_dof,right_wrist_roll_joint_dof,right_wrist_pitch_joint_dof,right_wrist_yaw_joint_dof
0,-0.019193656742572784,2.1680855751037598,76.91030883789062,0.020105249137937542,-0.8411559972095998,-89.42090681847812,-4.7601767,2.5352755,0.78731984,22.866274,-19.019867,-4.4459934,-2.181273,-3.721011,-6.0786576,20.764503,-19.53769,4.5688,-2.6212995,3.4443858,5.3916235,0.16577603,17.536545,-44.36228,52.849903,0.0520005,1.7503235,5.301236,-4.606721,-15.797545,36.447823,57.486347,5.007602,13.892225,-4.6007752
1,-0.0194438174366951,2.168705940246582,76.9100570678711,0.023185241214778246,-0.8459603810466364,-89.42250960344572,-4.744202,2.5290325,0.79141504,22.864632,-19.03064,-4.44387,-2.1593502,-3.7254739,-6.0736094,20.745916,-19.526655,4.6093373,-2.623755,3.4376428,5.400761,0.20513456,17.545631,-44.358967,52.807972,-0.0021893603,1.7395092,5.2725945,-4.6153107,-15.800175,36.434563,57.52999,5.053531,13.89297,-4.595122
2,-0.012233884073793888,2.1577436923980713,76.90880584716797,0.025290599811144957,-0.8505960073903888,-89.42402809828538,-4.727813,2.5224311,0.79571754,22.861155,-19.04042,-4.441942,-2.1370373,-3.7300608,-6.0683374,20.725588,-19.5142,4.651455,-2.6263611,3.430471,5.408438,0.23861806,17.548134,-44.356236,52.776447,-0.06260741,1.7259349,5.242175,-4.620992,-15.8017235,36.422215,57.571606,5.1043787,13.893346,-4.590296
3,-0.008350975811481476,2.1422696113586426,76.90729522705078,0.027357606969821834,-0.855545855584504,-89.42576381905279,-4.712062,2.5166092,0.7996043,22.860525,-19.051552,-4.439631,-2.1151233,-3.7341137,-6.063578,20.707737,-19.503883,4.6903706,-2.6245985,3.4247472,5.4183497,0.2720534,17.552486,-44.356544,52.741844,-0.11084169,1.7155106,5.2147,-4.6292605,-15.806385,36.403057,57.61532,5.144615,13.894287,-4.5826483
4,-0.0023171876091510057,2.127894639968872,76.9045639038086,0.028166246227874014,-0.8613012949184613,-89.42843234177805,-4.6992517,2.5134032,0.8027428,22.870304,-19.067879,-4.4363675,-2.0955749,-3.7366414,-6.0596304,20.698586,-19.499968,4.7210503,-2.6226978,3.4208763,5.427961,0.30403864,17.554995,-44.3658,52.710205,-0.1386941,1.7140894,5.1972995,-4.634867,-15.812329,36.39207,57.6576,5.168907,13.898146,-4.577129
5,0.0017944577848538756,2.114230155944824,76.90235137939453,0.02594117430312826,-0.8682332483571817,-89.43147905629245,-4.6898303,2.5127945,0.8036652,22.892447,-19.089571,-4.4314637,-2.0772645,-3.7376707,-6.0580096,20.697847,-19.502762,4.741485,-2.6249776,3.4175615,5.437415,0.33676863,17.55523,-44.377308,52.683643,-0.13170607,1.7254608,5.1944084,-4.6466465,-15.816325,36.39266,57.710964,5.167439,13.905556,-4.573119
6,0.00442327419295907,2.1020452976226807,76.900390625,0.023570970254011846,-0.8759755132802013,-89.43492540858462,-4.682336,2.5142589,0.8031217,22.922657,-19.114687,-4.4254065,-2.0602164,-3.7374256,-6.057932,20.704197,-19.510946,4.7544894,-2.625828,3.4165454,5.447291,0.370092,17.554686,-44.39654,52.656723,-0.10218552,1.7464949,5.203245,-4.6652265,-15.820713,36.402008,57.772926,5.153826,13.915733,-4.569287
7,0.010838131420314312,2.0886523723602295,76.89674377441406,0.017925118891379495,-0.8835492513662554,-89.43953432391707,-4.676619,2.5176346,0.8034587,22.95736,-19.14284,-4.419385,-2.044955,-3.7359357,-6.0571613,20.714106,-19.5224,4.7627835,-2.6219635,3.4225054,5.450654,0.40347433,17.549978,-44.44089,52.632603,-0.07834267,1.769112,5.2189746,-4.681732,-15.8395405,36.43053,57.83293,5.1558,13.925869,-4.568978
8,0.014650021679699421,2.0767054557800293,76.89350128173828,0.013209538380509651,-0.8902368387230579,-89.44627001226819,-4.6693015,2.5221522,0.80730724,22.988049,-19.170742,-4.4145,-2.0308752,-3.733078,-6.0534163,20.722908,-19.533876,4.76904,-2.6186492,3.4287145,5.4573584,0.43326753,17.54269,-44.475586,52.611603,-0.052516375,1.7852738,5.221496,-4.689816,-15.8589115,36.446545,57.87911,5.149558,13.933422,-4.5678167
9,0.016833726316690445,2.063321828842163,76.8912124633789,0.007429551463843521,-0.895698436497525,-89.45634384078404,-4.6617637,2.528855,0.8167628,23.016373,-19.200579,-4.411751,-2.0209002,-3.7286172,-6.044733,20.73484,-19.548204,4.772908,-2.6099932,3.4370058,5.4627495,0.45852855,17.533386,-44.51704,52.59392,-0.038842205,1.7920796,5.2096157,-4.69528,-15.878871,36.460587,57.92121,5.1526294,13.9367895,-4.569095
10,0.023837683722376823,2.0535809993743896,76.88874816894531,0.0015497879592223697,-0.900515949388838,-89.46893751738683,-4.6520667,2.5374293,0.8300576,23.040192,-19.230299,-4.4103446,-2.0138009,-3.7227066,-6.032811,20.749723,-19.565346,4.773382,-2.59873,3.4466846,5.467452,0.48332614,17.524097,-44.562855,52.57587,-0.02804839,1.7942775,5.189391,-4.700787,-15.89604,36.47447,57.963947,5.157545,13.937165,-4.5723147
11,0.027815887704491615,2.040660858154297,76.88601684570312,-0.004401547531830793,-0.904945280398941,-89.48187313826107,-4.643146,2.546412,0.8436609,23.065228,-19.260954,-4.4086256,-2.006348,-3.7160475,-6.0205646,20.762962,-19.58188,4.7719183,-2.5846138,3.4577525,5.4704614,0.5034657,17.511522,-44.615757,52.564568,-0.018601185,1.7951277,5.168171,-4.7031603,-15.917053,36.484493,58.00186,5.163462,13.935992,-4.574736
12,0.030129019170999527,2.0255064964294434,76.883544921875,-0.011362537197718126,-0.9096230921218578,-89.49290691031732,-4.63366,2.5542576,0.854031,23.08895,-19.289015,-4.4051056,-1.9962162,-3.710089,-6.010822,20.773018,-19.595882,4.7702475,-2.5749319,3.467608,5.474174,0.52468914,17.500172,-44.66343,52.554287,-0.0020535237,1.7984824,5.1505737,-4.7119446,-15.934522,36.49142,58.042774,5.1674504,13.933502,-4.573085
13,0.030914809554815292,2.010652542114258,76.88215637207031,-0.01663711249991105,-0.9152640281545572,-89.50111829306903,-4.623359,2.5602665,0.8594345,23.111881,-19.314365,-4.3990965,-1.9813126,-3.7046115,-6.004442,20.777014,-19.604736,4.768472,-2.56859,3.476809,5.4768047,0.5429938,17.484684,-44.710793,52.55482,0.022103196,1.8050176,5.1399307,-4.7016077,-15.955734,36.47157,58.062725,5.144567,13.930873,-4.563406
14,0.034356310963630676,1.9951190948486328,76.88054656982422,-0.021890379542782074,-0.9214210536270162,-89.50768702545672,-4.611971,2.5651722,0.8618819,23.133272,-19.337828,-4.3915286,-1.9633894,-3.6997216,-5.9999733,20.777422,-19.610975,4.765917,-2.5687923,3.4845126,5.4804993,0.565375,17.47261,-44.750996,52.55333,0.05446291,1.8137304,5.1312585,-4.702232,-15.970998,36.44758,58.091213,5.1162076,13.926018,-4.5482655
15,0.03960352763533592,1.9821988344192505,76.87841033935547,-0.027263690546348578,-0.9266869702305398,-89.51412890609576,-4.601669,2.5704525,0.86407626,23.154905,-19.360563,-4.383158,-1.9455053,-3.6943295,-5.9964056,20.776371,-19.6165,4.7625837,-2.5590577,3.4933333,5.481697,0.57525635,17.453558,-44.804657,52.56547,0.083411045,1.8219179,5.1247506,-4.68629,-15.993203,36.412224,58.10163,5.088241,13.921331,-4.534495
16,0.04438174143433571,1.9701052904129028,76.8758773803711,-0.033288165445040624,-0.9299900450113796,-89.52164752562167,-4.594551,2.5769835,0.86855674,23.178625,-19.383633,-4.3747168,-1.9303328,-3.6885056,-5.992787,20.776327,-19.624323,4.758533,-2.5595863,3.500486,5.4803915,0.596547,17.444218,-44.843834,52.563263,0.10986323,1.8295617,5.1154394,-4.690114,-16.004002,36.41144,58.13102,5.086857,13.914984,-4.5321174
17,0.048219311982393265,1.9565088748931885,76.87364196777344,-0.04011779289053559,-0.9302605435854107,-89.53080255347905,-4.592718,2.5853002,0.8763921,23.20647,-19.407461,-4.364795,-1.9214113,-3.6822648,-5.9893785,20.78257,-19.63799,4.7510986,-2.552393,3.5081992,5.473332,0.6129379,17.434978,-44.89297,52.561924,0.12461153,1.8358439,5.104825,-4.6982226,-16.01567,36.440426,58.165497,5.1246367,13.907296,-4.5458183
18,0.05072745680809021,1.94243586063385,76.87083435058594,-0.04696888153935333,-0.9282306027001807,-89.54086154782547,-4.595015,2.5948632,0.886109,23.237537,-19.431547,-4.353539,-1.9153751,-3.6754873,-5.986531,20.789865,-19.653913,4.7411633,-2.543764,3.5191495,5.459758,0.6255106,17.420315,-44.949715,52.56677,0.1289292,1.84051,5.0954275,-4.70886,-16.035448,36.503914,58.198776,5.2020745,13.899007,-4.572097
19,0.055274613201618195,1.9269710779190063,76.86905670166016,-0.05557935168122327,-0.9256192834585757,-89.55118219978499,-4.597647,2.6053252,0.89623016,23.26822,-19.456034,-4.3440185,-1.908625,-3.6679387,-5.983458,20.794016,-19.667986,4.7340546,-2.5395813,3.5297236,5.447913,0.64099336,17.409632,-44.99588,52.565647,0.1367814,1.8450408,5.084918,-4.724006,-16.05089,36.566486,58.233658,5.275255,13.890992,-4.598196
20,0.05586623400449753,1.9122411012649536,76.86762237548828,-0.06399636202098342,-0.9239122999242115,-89.56104055920012,-4.5976496,2.6163588,0.90532476,23.296175,-19.48156,-4.339129,-1.8984482,-3.6589615,-5.9793315,20.791445,-19.67651,4.7351236,-2.5406358,3.5413861,5.438472,0.65816134,17.400618,-45.03546,52.561993,0.14776188,1.8494849,5.0768065,-4.7363787,-16.063873,36.609516,58.26328,5.32339,13.885166,-4.615951
21,0.056303445249795914,1.898927927017212,76.86444091796875,-0.07391298753006031,-0.92314105938641,-89.57036487798308,-4.595955,2.6294076,0.91336477,23.323172,-19.510609,-4.341944,-1.8826673,-3.6469502,-5.973406,20.77626,-19.67441,4.750621,-2.5464,3.5559595,5.4313397,0.6762998,17.392881,-45.069847,52.555958,0.16206205,1.8538505,5.072469,-4.7461524,-16.074202,36.62329,58.28925,5.340251,13.881967,-4.622205
22,0.05955247953534126,1.8840280771255493,76.86351776123047,-0.08444785485749297,-0.9223413678056672,-89.57954425619256,-4.5925055,2.643834,0.92120636,23.347092,-19.540672,-4.350048,-1.8635777,-3.6327102,-5.9662337,20.752258,-19.66521,4.7760925,-2.553501,3.571717,5.4239364,0.69241446,17.384792,-45.10403,52.552048,0.17613064,1.857484,5.0707726,-4.7369223,-16.083254,36.60482,58.297882,5.323081,13.881562,-4.622798
23,0.06364111602306366,1.870234727859497,76.86088562011719,-0.09411924890607115,-0.922571693392148,-89.58836278094114,-4.5878296,2.6572793,0.9279805,23.370932,-19.5708,-4.3585563,-1.8433777,-3.6194136,-5.959147,20.728497,-19.656567,4.800854,-2.5580332,3.5859532,5.4192543,0.7046348,17.378885,-45.138046,52.548744,0.19182424,1.861318,5.069871,-4.7358747,-16.089102,36.581707,58.311474,5.3018384,13.88141,-4.6185017
24,0.06647784262895584,1.8575636148452759,76.85902404785156,-0.10263076990220814,-0.924261573569855,-89.5969187992654,-4.5814114,2.6676774,0.9331998,23.394413,-19.597982,-4.3625836,-1.8245575,-3.6094582,-5.953244,20.714144,-19.656288,4.8141255,-2.5491185,3.5980146,5.4148517,0.70429224,17.370377,-45.18902,52.555923,0.20146884,1.8656595,5.07095,-4.729481,-16.096527,36.55426,58.318264,5.281452,13.881125,-4.61186
25,0.06866896152496338,1.8432739973068237,76.8576889038086,-0.10719067352129,-0.9286678710537037,-89.6045186134473,-4.572269,2.672825,0.935051,23.418045,-19.620457,-4.3601246,-1.8070478,-3.60521,-5.9496083,20.713573,-19.66909,4.809373,-2.5519655,3.6057668,5.4116664,0.71127576,17.364716,-45.22664,52.561134,0.21312408,1.8705286,5.0711465,-4.717805,-16.100618,36.538754,58.31614,5.2485924,13.88074,-4.605082
26,0.07357706874608994,1.824886679649353,76.85692596435547,-0.11064705915539155,-0.9348515943984848,-89.61203834929326,-4.5611687,2.6749706,0.9349072,23.441563,-19.640194,-4.354103,-1.7902538,-3.6041877,-5.9467974,20.72145,-19.689798,4.793417,-2.5438538,3.609465,5.4081893,0.705866,17.357994,-45.2796,52.57855,0.2171806,1.8753449,5.073809,-4.7055326,-16.104929,36.524857,58.31194,5.219906,13.880076,-4.5966845
27,0.07666473090648651,1.8104729652404785,76.85552215576172,-0.11309727560156413,-0.9412490363326795,-89.61909244970444,-4.5485253,2.6757343,0.9350171,23.462103,-19.65856,-4.3466053,-1.7735548,-3.6044357,-5.9444647,20.73023,-19.711134,4.776173,-2.5404632,3.613947,5.406975,0.70427334,17.352364,-45.32266,52.59151,0.2263076,1.8801484,5.075528,-4.702422,-16.107819,36.520718,58.31028,5.195738,13.880227,-4.585408
28,0.07905077934265137,1.7989126443862915,76.85411834716797,-0.11611841441601334,-0.9461685351485457,-89.62677096653154,-4.534934,2.678123,0.9388485,23.476059,-19.676783,-4.3400292,-1.7562256,-3.6030786,-5.9410257,20.731176,-19.724771,4.7673516,-2.542875,3.6194937,5.4049683,0.7057274,17.3482,-45.351894,52.603714,0.24030976,1.8832854,5.0744476,-4.694927,-16.109243,36.514553,58.301304,5.1644087,13.882682,-4.5718565
29,0.08270134031772614,1.784952163696289,76.8530044555664,-0.12095193082409073,-0.9486749228340509,-89.63504535275138,-4.5195084,2.6829486,0.94826597,23.480124,-19.695272,-4.334202,-1.7375005,-3.5990953,-5.936334,20.719572,-19.726274,4.7715297,-2.544915,3.6254778,5.4065013,0.7059016,17.347012,-45.364864,52.613914,0.2688501,1.8836634,5.068118,-4.7012424,-16.109581,36.516117,58.294636,5.145575,13.889672,-4.552868
30,0.08671487122774124,1.7743985652923584,76.85199737548828,-0.1267152499599502,-0.9502315890332075,-89.64353506512708,-4.5023866,2.6894517,0.96100193,23.47792,-19.713964,-4.328339,-1.7174878,-3.593304,-5.931222,20.70092,-19.721134,4.7826786,-2.5403473,3.6349514,5.402733,0.7026787,17.343044,-45.39197,52.630722,0.29194778,1.8820715,5.0653386,-4.699918,-16.109974,36.514977,58.283314,5.128056,13.900072,-4.531486
31,0.09206214547157288,1.7634848356246948,76.8518295288086,-0.13236454297548617,-0.9512342497859163,-89.65238846164321,-4.4844995,2.694976,0.9747358,23.471605,-19.730608,-4.3230085,-1.6984674,-3.5883622,-5.9253597,20.681284,-19.714512,4.7952247,-2.538791,3.6426888,5.4016385,0.6974958,17.340305,-45.40609,52.64786,0.31719574,1.8805407,5.0584927,-4.7011185,-16.109985,36.51403,58.26821,5.1118894,13.908829,-4.5093174
32,0.09750097244977951,1.7495357990264893,76.85136413574219,-0.13560207532422971,-0.9528550607771517,-89.6610533749166,-4.4665446,2.6972728,0.98632705,23.464396,-19.743769,-4.3188753,-1.6821451,-3.586517,-5.9190555,20.667656,-19.71243,4.8034163,-2.5380862,3.648945,5.402441,0.69001913,17.33752,-45.41825,52.663467,0.33304623,1.8820314,5.0501876,-4.7039185,-16.109728,36.51371,58.251724,5.1039405,13.911727,-4.4906554
33,0.10206732898950577,1.7382184267044067,76.84959411621094,-0.13491015077942184,-0.9562603906995016,-89.6697777521116,-4.4475536,2.6947868,0.99480635,23.456245,-19.752443,-4.3166184,-1.6689259,-3.588763,-5.9120994,20.66394,-19.71831,4.8044357,-2.5409298,3.6527133,5.4064093,0.6802345,17.336119,-45.427322,52.678596,0.33292496,1.8876094,5.0387554,-4.7095995,-16.109442,36.51358,58.235584,5.105224,13.903868,-4.474625
34,0.10709705203771591,1.732599139213562,76.84957122802734,-0.1326011395580671,-0.9609966057047172,-89.67846588017534,-4.42709,2.6888947,1.0017177,23.446154,-19.757832,-4.315709,-1.6571847,-3.594222,-5.904519,20.665287,-19.72818,4.801884,-2.538895,3.6546748,5.41178,0.6594852,17.33116,-45.448627,52.7015,0.31465447,1.8959407,5.0272417,-4.711686,-16.10793,36.507214,58.216084,5.113752,13.888723,-4.4609485
35,0.11133634299039841,1.723914384841919,76.84943389892578,-0.12897531737994122,-0.9636828667530021,-89.68685371006686,-4.4092755,2.6829522,1.0079936,23.435452,-19.761383,-4.3151436,-1.648348,-3.5996964,-5.8970866,20.666674,-19.737503,4.7991104,-2.5425823,3.6578858,5.4159245,0.648093,17.329767,-45.454224,52.71297,0.3033221,1.904887,5.014542,-4.7161856,-16.107267,36.505558,58.19508,5.1232495,13.874567,-4.4505186
36,0.11456727236509323,1.7102446556091309,76.84915161132812,-0.12694715307968343,-0.9638408147085185,-89.69532284522958,-4.3934517,2.6779447,1.0159835,23.423292,-19.764025,-4.3134418,-1.6419154,-3.6045434,-5.8892646,20.66646,-19.744154,4.799881,-2.5369065,3.6573253,5.4196424,0.62261564,17.32664,-45.46534,52.73341,0.29534116,1.9108694,5.003596,-4.7188845,-16.105556,36.50498,58.169098,5.139077,13.867589,-4.447324
37,0.11693371832370758,1.6990227699279785,76.849609375,-0.12663257811146203,-0.957276442884564,-89.70400734602386,-4.3853126,2.6769311,1.0261286,23.411873,-19.766844,-4.3108582,-1.6406002,-3.6062248,-5.8815227,20.659357,-19.743917,4.8066983,-2.522506,3.657929,5.4173594,0.59801334,17.325453,-45.470016,52.748505,0.3062875,1.9133081,4.9943495,-4.7233233,-16.10477,36.5115,58.139545,5.165956,13.873977,-4.4557657
38,0.12116163223981857,1.6951324939727783,76.84999084472656,-0.12477135218214835,-0.9465324845252487,-89.71298454470117,-4.3816614,2.677529,1.0377026,23.400259,-19.76889,-4.307854,-1.6435207,-3.6067379,-5.873512,20.650192,-19.74067,4.8171897,-2.5054598,3.656306,5.411989,0.5651935,17.322557,-45.47411,52.76963,0.32062587,1.9136834,4.9871306,-4.7275195,-16.103016,36.53257,58.104813,5.207326,13.888841,-4.478061
39,0.12484127283096313,1.68740713596344,76.85197448730469,-0.12605839211805797,-0.9354128503947964,-89.72087352252751,-4.378756,2.6781108,1.048446,23.388248,-19.769901,-4.3040504,-1.6471703,-3.6070397,-5.8660827,20.641806,-19.737417,4.827001,-2.4962294,3.6561933,5.403854,0.5389842,17.318613,-45.469917,52.78664,0.33626145,1.912195,4.982205,-4.737599,-16.10027,36.56598,58.07667,5.251733,13.903259,-4.499047
40,0.12574581801891327,1.67774498462677,76.85066223144531,-0.12383033977241967,-0.9282999069909771,-89.72663738795522,-4.3727584,2.6769423,1.0564796,23.377518,-19.771059,-4.299186,-1.6483271,-3.6081753,-5.8597245,20.638573,-19.73789,4.831818,-2.4947605,3.655176,5.3990755,0.5163181,17.315248,-45.461617,52.79848,0.3465029,1.9090222,4.9785013,-4.741774,-16.096766,36.58868,58.047283,5.2729435,13.909226,-4.5055428
41,0.1264142394065857,1.6674015522003174,76.84973907470703,-0.12231364857996102,-0.9263064051353834,-89.7289122273661,-4.3630486,2.672929,1.0603287,23.368593,-19.771595,-4.291834,-1.6468055,-3.610693,-5.8546658,20.64421,-19.744556,4.8282557,-2.4984534,3.6527452,5.3987603,0.4947611,17.313799,-45.45727,52.806004,0.34337866,1.9023265,4.9771914,-4.7491913,-16.094006,36.602448,58.027004,5.279483,13.900582,-4.4896007
42,0.12920670211315155,1.6561588048934937,76.84931182861328,-0.11915671074883619,-0.927465295766123,-89.7290137964292,-4.3504767,2.6671014,1.0618896,23.359112,-19.770926,-4.2825313,-1.6434494,-3.6137316,-5.850233,20.65407,-19.754244,4.819314,-2.5068805,3.6492286,5.4003096,0.47434258,17.313263,-45.454273,52.80991,0.33099014,1.8935418,4.978417,-4.7509665,-16.091562,36.610138,58.00443,5.2724857,13.883974,-4.460487
43,0.12828077375888824,1.6498231887817383,76.84830474853516,-0.11632138026540019,-0.9299987833652471,-89.7284835281233,-4.337187,2.6612842,1.0621282,23.351057,-19.77095,-4.2741127,-1.6390088,-3.6170435,-5.8470354,20.665508,-19.764856,4.8104253,-2.518497,3.645326,5.402629,0.45407996,17.313072,-45.450703,52.811775,0.317199,1.884184,4.9808774,-4.749164,-16.086172,36.613983,57.98143,5.252685,13.866582,-4.429396
44,0.13148941099643707,1.6428688764572144,76.84962463378906,-0.11295222068597895,-0.9327753241791925,-89.72858536660917,-4.323492,2.655989,1.062183,23.343,-19.772125,-4.269168,-1.631731,-3.6212947,-5.845811,20.67158,-19.772778,4.8072333,-2.5260935,3.640766,5.407501,0.42653522,17.31366,-45.44912,52.816772,0.31042325,1.8747613,4.981957,-4.7550445,-16.078709,36.617847,57.964603,5.2331386,13.854837,-4.4055276
45,0.13543060421943665,1.6357015371322632,76.8504638671875,-0.11138008250462987,-0.9356710209192075,-89.72985105771863,-4.309462,2.6518302,1.0615491,23.335112,-19.775099,-4.269538,-1.6200974,-3.6261673,-5.8478518,20.669285,-19.776037,4.8124433,-2.53061,3.6381023,5.4129796,0.3965683,17.315182,-45.44951,52.819283,0.3150998,1.8670398,4.98227,-4.7623973,-16.069729,36.61783,57.94963,5.204241,13.851807,-4.3909945
46,0.1366683691740036,1.6291100978851318,76.84980010986328,-0.10889987392016733,-0.9392631389001707,-89.73139889334873,-4.294316,2.6485465,1.0597632,23.327084,-19.779167,-4.27356,-1.6048913,-3.6317492,-5.852489,20.661789,-19.77649,4.8227677,-2.5342512,3.635835,5.4198,0.364536,17.317884,-45.450684,52.820038,0.32656705,1.8597349,4.9821944,-4.764999,-16.058638,36.610806,57.930443,5.1620975,13.854069,-4.3808417
47,0.13529439270496368,1.6215983629226685,76.85101318359375,-0.10734458727585992,-0.9429200710213398,-89.73309860955858,-4.279618,2.6457384,1.0584425,23.319483,-19.783747,-4.2782755,-1.5892155,-3.6368701,-5.8573723,20.652555,-19.776182,4.8341413,-2.5360792,3.633644,5.427469,0.33051977,17.321701,-45.45471,52.81911,0.33622074,1.852877,4.983734,-4.7704625,-16.047514,36.606586,57.913586,5.12332,13.859209,-4.375472
48,0.13729189336299896,1.6160166263580322,76.85054016113281,-0.10658731028574478,-0.945901114488053,-89.7351498695488,-4.2686014,2.6437404,1.0592811,23.317251,-19.790756,-4.280857,-1.5788181,-3.641326,-5.8596025,20.650497,-19.779863,4.842676,-2.5366993,3.6328678,5.4365273,0.29163015,17.325119,-45.462643,52.81971,0.3335389,1.8448918,4.986809,-4.777669,-16.039297,36.607777,57.897804,5.095046,13.863244,-4.373151
49,0.1397174447774887,1.6096748113632202,76.85011291503906,-0.10570804828561672,-0.9484140644780293,-89.73753588091438,-4.2600927,2.6420777,1.0636735,23.318213,-19.799444,-4.280272,-1.5728594,-3.6446745,-5.858018,20.65332,-19.786661,4.8474784,-2.5327919,3.6290941,5.4454494,0.24564205,17.332155,-45.48559,52.822937,0.30688736,1.8356127,4.9946976,-4.7948456,-16.025179,36.620186,57.89645,5.0857763,13.867229,-4.379722
50,0.13976500928401947,1.6050726175308228,76.84730529785156,-0.10374193878595057,-0.9506444234438791,-89.74012924073864,-4.2535033,2.6411374,1.0703228,23.321745,-19.809856,-4.278119,-1.5706307,-3.6473994,-5.854239,20.661062,-19.796755,4.850543,-2.5313504,3.6261647,5.453578,0.20128213,17.341549,-45.511868,52.822243,0.2668519,1.8257966,5.005631,-4.8112864,-16.009361,36.63805,57.897503,5.0796266,13.872368,-4.3929434
51,0.1427876502275467,1.6023821830749512,76.84590911865234,-0.10261257209463755,-0.9518527080092062,-89.74282773195817,-4.2499275,2.6410441,1.0769928,23.328331,-19.820816,-4.27557,-1.5706449,-3.6490612,-5.8502016,20.67015,-19.806965,4.8523192,-2.5292523,3.6199722,5.4606385,0.16009733,17.358858,-45.53866,52.815247,0.22396256,1.8177044,5.017885,-4.8419676,-15.984445,36.6682,57.914696,5.0904346,13.876076,-4.4093895
52,0.14335563778877258,1.59664785861969,76.84487915039062,-0.10466762214398194,-0.9512321880657181,-89.7455690929063,-4.2505994,2.642675,1.0813076,23.33932,-19.83198,-4.2738624,-1.571926,-3.648928,-5.8477874,20.678595,-19.81559,4.8531537,-2.5271008,3.617327,5.4687386,0.11590661,17.367447,-45.552315,52.814888,0.19694693,1.8118877,5.0279894,-4.8522196,-15.97384,36.687534,57.903023,5.0945334,13.879823,-4.42056
53,0.1443103551864624,1.592660665512085,76.8434829711914,-0.107021408579469,-0.947346108941574,-89.74789572452521,-4.2583156,2.6460638,1.0818139,23.356459,-19.84283,-4.27281,-1.5769769,-3.646821,-5.84837,20.68815,-19.822765,4.8526874,-2.5245984,3.614676,5.4697766,0.083106436,17.382248,-45.561687,52.803467,0.17579131,1.813102,5.040591,-4.878464,-15.956477,36.72621,57.912918,5.1267924,13.87683,-4.4327173
54,0.1440570056438446,1.588680624961853,76.84284210205078,-0.11231071342425895,-0.9412816360345716,-89.75009908551257,-4.2718835,2.651736,1.079909,23.379827,-19.85423,-4.272134,-1.5850022,-3.642508,-5.8506308,20.699112,-19.829363,4.85079,-2.523792,3.6112838,5.4701734,0.053650822,17.398878,-45.558594,52.789062,0.16519277,1.8179773,5.0523133,-4.9028864,-15.938034,36.76952,57.917625,5.1664867,13.872202,-4.444151
55,0.1449909806251526,1.582129716873169,76.84292602539062,-0.11673754892364126,-0.935006278038458,-89.75278358142464,-4.285188,2.6573472,1.0782206,23.40229,-19.865284,-4.2720923,-1.5927594,-3.6379578,-5.852447,20.708715,-19.834862,4.8485775,-2.5193021,3.6094687,5.471025,0.01882842,17.408976,-45.556072,52.78286,0.15987617,1.8225268,5.0633163,-4.9179287,-15.927469,36.800903,57.91088,5.20096,13.867505,-4.451462
56,0.14518453180789948,1.5795327425003052,76.84130096435547,-0.11941880700640801,-0.9306893763555137,-89.75633553538015,-4.29161,2.6610386,1.0792774,23.415125,-19.87373,-4.273124,-1.5986288,-3.6353552,-5.851672,20.71812,-19.840508,4.847148,-2.5229242,3.6059206,5.4724817,-0.008443651,17.42375,-45.54862,52.772522,0.1567708,1.8241156,5.0721455,-4.9361224,-15.912105,36.825325,57.910656,5.220896,13.863226,-4.4545493
57,0.14583061635494232,1.5754762887954712,76.84113311767578,-0.12089080743718858,-0.9288667672527248,-89.760962174231,-4.289662,2.6621606,1.0839918,23.417223,-19.880043,-4.276214,-1.6016487,-3.635472,-5.8476996,20.72634,-19.846474,4.8469305,-2.52517,3.6029954,5.477384,-0.044121888,17.432285,-45.547382,52.775208,0.15794133,1.8191822,5.07787,-4.9502764,-15.903486,36.826897,57.904312,5.2236114,13.86158,-4.447831
58,0.1458681970834732,1.5726642608642578,76.83928680419922,-0.11951250116385911,-0.9285189394454724,-89.76625273715815,-4.2821145,2.661532,1.0908684,23.410973,-19.884054,-4.2808146,-1.6031768,-3.6374328,-5.841721,20.73447,-19.852718,4.847368,-2.5301735,3.5981379,5.483235,-0.076771885,17.445309,-45.54604,52.77589,0.16273718,1.8113232,5.0809917,-4.9598103,-15.889631,36.807003,57.898514,5.204273,13.859932,-4.434865
59,0.14729730784893036,1.5679372549057007,76.83733367919922,-0.1169860357324209,-0.9290663637317215,-89.77254662131311,-4.2715282,2.6601343,1.0992715,23.401106,-19.887018,-4.285151,-1.6049261,-3.6399229,-5.833829,20.7442,-19.85946,4.847742,-2.529264,3.589855,5.48976,-0.10854969,17.464348,-45.550476,52.77211,0.16515625,1.8049414,5.0839157,-4.9722652,-15.869587,36.777344,57.90031,5.1782646,13.856686,-4.4202194
60,0.1490967869758606,1.5621956586837769,76.83641815185547,-0.11520353047817647,-0.9295529389299219,-89.7796169867833,-4.260454,2.6593442,1.10793,23.391163,-19.889513,-4.2875032,-1.605612,-3.640889,-5.8249416,20.750895,-19.86374,4.8474765,-2.5283892,3.5801787,5.4948745,-0.13596068,17.483095,-45.552303,52.7672,0.16144253,1.801499,5.0888977,-4.981027,-15.850442,36.75889,57.89885,5.1562696,13.852808,-4.410998
61,0.15035101771354675,1.5570321083068848,76.83466339111328,-0.11409482326513418,-0.9298789427940708,-89.78814066580686,-4.249578,2.660144,1.1168478,23.38261,-19.891603,-4.286711,-1.6080902,-3.6386764,-5.8136435,20.759129,-19.867239,4.845495,-2.5243237,3.5711222,5.4991517,-0.16185208,17.497541,-45.55227,52.762444,0.14671265,1.8030864,5.097478,-4.992778,-15.836611,36.76279,57.897945,5.1473436,13.846139,-4.4079623
62,0.15238098800182343,1.5524420738220215,76.83493041992188,-0.1127946073751632,-0.9304386950785293,-89.79798904836413,-4.2383423,2.6617534,1.1265278,23.37478,-19.894028,-4.2839527,-1.6106819,-3.6344712,-5.8001013,20.766548,-19.86917,4.842419,-2.516296,3.5612767,5.5034666,-0.18989395,17.507893,-45.552116,52.76201,0.125356,1.8070172,5.1077065,-5.005961,-15.827638,36.77934,57.895767,5.1470966,13.83808,-4.4078994
63,0.15289044380187988,1.5472511053085327,76.83570098876953,-0.11128803343419776,-0.9314098132641345,-89.80777592533792,-4.2248445,2.6620646,1.1366765,23.36384,-19.895159,-4.2808366,-1.6124877,-3.6318116,-5.7870507,20.774132,-19.871338,4.8401027,-2.5187194,3.550323,5.506792,-0.20059259,17.52678,-45.542175,52.74559,0.105712384,1.8133075,5.118468,-5.026248,-15.811706,36.80649,57.904373,5.1494465,13.829851,-4.411358
64,0.1520615518093109,1.5427764654159546,76.83650207519531,-0.10835743376440146,-0.9332706349064062,-89.81660759343585,-4.2084856,2.6598756,1.1472901,23.348228,-19.894907,-4.279112,-1.6112516,-3.6335182,-5.7768583,20.780172,-19.874598,4.8403783,-2.5168314,3.537617,5.511654,-0.22095929,17.537453,-45.53729,52.745716,0.09869122,1.8160896,5.1272893,-5.0353537,-15.803112,36.82046,57.897995,5.1568847,13.827746,-4.414342
65,0.15070894360542297,1.5365983247756958,76.83807373046875,-0.10251231518357012,-0.9366300217516484,-89.82407561946063,-4.187147,2.654849,1.1587363,23.324503,-19.892935,-4.280889,-1.6062101,-3.6410325,-5.7710514,20.784903,-19.87931,4.8441386,-2.516418,3.5273912,5.5165935,-0.23909439,17.542152,-45.534706,52.750805,0.11388218,1.8165755,5.1356235,-5.041021,-15.7992735,36.82684,57.887836,5.1750526,13.832197,-4.416827
66,0.15296898782253265,1.5317811965942383,76.83889770507812,-0.09313913887257363,-0.9415636712616529,-89.83082302201566,-4.160352,2.6463032,1.1714135,23.293037,-19.888693,-4.284513,-1.598443,-3.6539927,-5.767584,20.790512,-19.886114,4.850406,-2.5301948,3.507623,5.525249,-0.24365707,17.56357,-45.51886,52.742374,0.14148444,1.8162374,5.140945,-5.0678396,-15.781233,36.851746,57.89707,5.2128053,13.839857,-4.424957
67,0.153777614235878,1.5268012285232544,76.83804321289062,-0.0855442097553823,-0.9445715700659938,-89.83649059817844,-4.138637,2.639319,1.1821843,23.266825,-19.885912,-4.287041,-1.5900136,-3.6653965,-5.766356,20.790943,-19.890877,4.8572793,-2.5344257,3.4991126,5.5265365,-0.2542292,17.564926,-45.51747,52.749615,0.16479608,1.8155267,5.1478567,-5.0705886,-15.780084,36.852528,57.88774,5.237177,13.848712,-4.428334
68,0.15361817181110382,1.5212652683258057,76.83837127685547,-0.07410038600237556,-0.9494872733848947,-89.84234854742888,-4.1113296,2.626631,1.1934572,23.23349,-19.876429,-4.283499,-1.5815272,-3.6812592,-5.762625,20.795082,-19.898863,4.864878,-2.543925,3.4742634,5.5380774,-0.26549733,17.580141,-45.501328,52.75196,0.17720221,1.8140459,5.1514587,-5.081996,-15.765723,36.85329,57.87958,5.258603,13.857962,-4.435861
69,0.1549345999956131,1.515127182006836,76.83861541748047,-0.06326477993323537,-0.951202776087694,-89.84700640866978,-4.092697,2.6147184,1.20133,23.210012,-19.865555,-4.2705417,-1.5749956,-3.6944752,-5.7593403,20.795471,-19.906006,4.872346,-2.5551338,3.4549544,5.542162,-0.2671426,17.592102,-45.485523,52.747955,0.15610246,1.8142164,5.155756,-5.0844913,-15.75324,36.836266,57.872246,5.2533445,13.863692,-4.438402
70,0.15411145985126495,1.5119165182113647,76.83834075927734,-0.051892501555366746,-0.9521595112698695,-89.85090146375325,-4.0764604,2.6008205,1.20777,23.189291,-19.852198,-4.2508607,-1.5684295,-3.708631,-5.756189,20.793854,-19.913567,4.880596,-2.565906,3.4336324,5.5458193,-0.26508796,17.605629,-45.46832,52.739487,0.11646927,1.8153383,5.159484,-5.0888443,-15.737737,36.807594,57.870193,5.236603,13.86809,-4.438585
71,0.15400922298431396,1.5023831129074097,76.84021759033203,-0.03958259140181415,-0.9519206703901923,-89.85422050440752,-4.0617733,2.5876515,1.2127076,23.168764,-19.838789,-4.232512,-1.5629221,-3.721387,-5.752876,20.791353,-19.920345,4.888101,-2.5771964,3.4141285,5.547841,-0.26185673,17.615282,-45.45173,52.73391,0.07822711,1.8166978,5.162389,-5.087406,-15.72556,36.777023,57.862984,5.217644,13.870826,-4.4409213
72,0.1533416509628296,1.498292088508606,76.8404312133789,-0.030530177946113186,-0.9503281033651303,-89.85708781102073,-4.04858,2.5772057,1.2161951,23.1487,-19.829296,-4.2234735,-1.5601604,-3.7308388,-5.7489996,20.790852,-19.926126,4.893242,-2.5842943,3.394314,5.5501685,-0.25943983,17.628466,-45.439774,52.728237,0.06231745,1.8188443,5.162443,-5.094134,-15.708625,36.755497,57.863125,5.2144628,13.869769,-4.449373
73,0.15314802527427673,1.492695689201355,76.84090423583984,-0.025149685099883783,-0.9476113745839355,-89.8591519246017,-4.0354433,2.5709553,1.2169373,23.126308,-19.824793,-4.2294188,-1.5608149,-3.7350278,-5.7439165,20.793282,-19.93028,4.8946824,-2.5937204,3.3774116,5.5503707,-0.25366214,17.641525,-45.428185,52.724728,0.080046915,1.822374,5.1605406,-5.098263,-15.692113,36.74723,57.85901,5.222909,13.863632,-4.4661794
74,0.1520100086927414,1.4861164093017578,76.84172821044922,-0.02342582917688865,-0.9436812836439713,-89.8605000651318,-4.0238957,2.5677361,1.2153502,23.104614,-19.82406,-4.2449164,-1.5630758,-3.7350976,-5.7380533,20.794958,-19.93199,4.8936024,-2.602043,3.3652744,5.54902,-0.25058162,17.64757,-45.4204,52.730156,0.11729485,1.8259178,5.1577725,-5.0905137,-15.684309,36.7442,57.83912,5.2390804,13.854841,-4.488512
75,0.15255619585514069,1.4803045988082886,76.84192657470703,-0.022420832063950027,-0.9382635832099732,-89.861842493857,-4.014515,2.5651455,1.2139276,23.083961,-19.824165,-4.2613397,-1.567641,-3.734873,-5.7325306,20.79815,-19.934055,4.8922696,-2.6078644,3.3545396,5.547893,-0.24750102,17.651636,-45.414406,52.734554,0.16122617,1.8296708,5.1522026,-5.0898323,-15.679166,36.746414,57.825825,5.2643595,13.844723,-4.513496
76,0.15415462851524353,1.4766216278076172,76.84255981445312,-0.018945555412649945,-0.9307191456029298,-89.86391529024769,-4.009841,2.5615888,1.2150015,23.068169,-19.823761,-4.270137,-1.5750076,-3.7374358,-5.7285905,20.803373,-19.938604,4.892852,-2.6165073,3.3434265,5.5447216,-0.24078675,17.655615,-45.407738,52.73563,0.19263479,1.8314732,5.14381,-5.089068,-15.674054,36.751144,57.817474,5.2886105,13.837182,-4.542135
77,0.15447331964969635,1.4737809896469116,76.84222412109375,-0.014415341393546513,-0.9194251840051617,-89.86708817190141,-4.0128603,2.556603,1.2197286,23.058931,-19.82187,-4.267023,-1.586286,-3.7441888,-5.727367,20.8093,-19.945496,4.896386,-2.6216483,3.3321047,5.5394573,-0.23770855,17.657295,-45.40704,52.737553,0.2066984,1.8300439,5.1304703,-5.088302,-15.671832,36.754536,57.811703,5.317999,13.833323,-4.57383
78,0.15542319416999817,1.4684432744979858,76.84182739257812,-0.007968806419110774,-0.9046599370479924,-89.8710966972861,-4.021767,2.5501585,1.2271464,23.05387,-19.819218,-4.2571044,-1.6024992,-3.7542236,-5.7274804,20.818445,-19.955032,4.901595,-2.6296506,3.316815,5.5286,-0.22967812,17.66309,-45.40796,52.736412,0.21108106,1.8266157,5.112729,-5.0854263,-15.663861,36.765278,57.810963,5.3522506,13.831259,-4.614368
79,0.15458174049854279,1.4622496366500854,76.84053802490234,-0.003691992064572754,-0.8919458266383132,-89.8752170047449,-4.029019,2.5460784,1.2345225,23.050375,-19.817698,-4.2466793,-1.6139055,-3.7619407,-5.728375,20.822508,-19.962372,4.906914,-2.634676,3.3061662,5.5238304,-0.22468485,17.663795,-45.409294,52.734745,0.21235028,1.823467,5.0971212,-5.0854316,-15.662813,36.767376,57.812065,5.3768272,13.829617,-4.64687
80,0.15559929609298706,1.4557621479034424,76.84076690673828,-0.0002322720757870839,-0.8817023249076128,-89.87959088178704,-4.032354,2.5433757,1.2413028,23.045315,-19.818209,-4.2411776,-1.6208693,-3.7671373,-5.727378,20.822695,-19.967087,4.9112983,-2.6391053,3.2977214,5.520425,-0.21827431,17.664457,-45.41103,52.732647,0.20913501,1.8206915,5.0856314,-5.0823274,-15.661675,36.77,57.813763,5.3931217,13.828855,-4.6806126
81,0.1557817906141281,1.4504584074020386,76.84111785888672,0.0008759134614486575,-0.876446360492555,-89.88441473628437,-4.0278125,2.5438082,1.2471211,23.036993,-19.821676,-4.2435017,-1.6180334,-3.7672687,-5.7238917,20.813055,-19.965693,4.914387,-2.6453974,3.2918746,5.5156927,-0.20116723,17.668701,-45.414974,52.72347,0.19516428,1.8205792,5.0833077,-5.082468,-15.653589,36.783375,57.830162,5.399969,13.827195,-4.716484
82,0.15622125566005707,1.4456833600997925,76.84046173095703,-0.002903301267969235,-0.8757646924757108,-89.88933641915993,-4.018288,2.5480914,1.2518684,23.029604,-19.828447,-4.2504377,-1.6061345,-3.7623684,-5.719733,20.794949,-19.959793,4.9165864,-2.6541698,3.288945,5.518953,-0.18407786,17.672327,-45.411602,52.712463,0.178789,1.821737,5.0856338,-5.0823097,-15.645118,36.786404,57.847828,5.3806005,13.8255005,-4.7428355
83,0.1567072868347168,1.438854694366455,76.83990478515625,-0.007614020881663246,-0.876961904271328,-89.89444408236784,-4.005906,2.553261,1.2563502,23.02148,-19.83576,-4.258166,-1.5909159,-3.7562432,-5.71507,20.774427,-19.952639,4.918244,-2.6625383,3.2878094,5.5245156,-0.16490349,17.674875,-45.40638,52.69991,0.16373965,1.8226548,5.090324,-5.0823464,-15.636881,36.786343,57.867355,5.356676,13.825483,-4.767226
84,0.15969082713127136,1.4304780960083008,76.83989715576172,-0.010197258331084572,-0.8783627503283903,-89.89976112641753,-3.9926274,2.557593,1.2610176,23.01224,-19.841288,-4.263084,-1.5763202,-3.7514122,-5.710435,20.7563,-19.947216,4.919514,-2.6690526,3.2852516,5.5300126,-0.14704779,17.676447,-45.402306,52.691246,0.15442209,1.8215381,5.095418,-5.0857353,-15.628778,36.788586,57.888386,5.3452654,13.829599,-4.7923493
85,0.16135267913341522,1.4222750663757324,76.84212493896484,-0.012667232969489932,-0.8810134328821755,-89.9052044067654,-3.976384,2.5608408,1.2658377,23.000586,-19.844244,-4.264337,-1.5614371,-3.7481382,-5.706011,20.742264,-19.944788,4.9206214,-2.674919,3.281479,5.535812,-0.12907162,17.676899,-45.398968,52.68588,0.15389317,1.8161588,5.10088,-5.082649,-15.620966,36.78987,57.901096,5.3436317,13.840758,-4.8215237
86,0.16122597455978394,1.4151692390441895,76.84296417236328,-0.01501908721742278,-0.8852629164895804,-89.91075935045279,-3.9571104,2.5639255,1.2705442,22.986898,-19.84563,-4.2638903,-1.545084,-3.7454088,-5.7015767,20.729738,-19.943756,4.92149,-2.6799612,3.2788255,5.5437613,-0.11249115,17.67662,-45.397446,52.68226,0.15661064,1.8076018,5.1073766,-5.073864,-15.618939,36.788483,57.906075,5.3457603,13.856452,-4.851686
87,0.16422517597675323,1.4089490175247192,76.84406280517578,-0.01730263391935444,-0.888337300685833,-89.91662394593045,-3.9395218,2.5663404,1.2755178,22.974112,-19.847044,-4.2619886,-1.5305595,-3.742928,-5.6967163,20.717875,-19.942896,4.921582,-2.6827981,3.2753408,5.549934,-0.094943345,17.675825,-45.395702,52.680202,0.1612995,1.8005853,5.1146855,-5.0674825,-15.616367,36.787064,57.913033,5.353208,13.872731,-4.8779917
88,0.16679656505584717,1.4028958082199097,76.84300231933594,-0.017772353371487953,-0.8878685767730455,-89.922990908738,-3.9267664,2.567942,1.2810259,22.962458,-19.848316,-4.2591476,-1.5214175,-3.7406576,-5.6910415,20.706823,-19.941679,4.9203463,-2.6858554,3.2725213,5.553009,-0.07386913,17.674665,-45.392563,52.677307,0.16284062,1.7988402,5.1242814,-5.063966,-15.614183,36.784424,57.923367,5.3584857,13.88636,-4.897406
89,0.17000097036361694,1.397748589515686,76.84293365478516,-0.01840850702081075,-0.8814496020178715,-89.93055053343019,-3.923073,2.5684109,1.2874948,22.954983,-19.850922,-4.2546067,-1.5204974,-3.7385304,-5.683864,20.69604,-19.9394,4.915999,-2.693835,3.271061,5.5490284,-0.0472528,17.668045,-45.37838,52.67822,0.16112484,1.8043803,5.135271,-5.0594816,-15.60483,36.77008,57.939972,5.343387,13.894495,-4.903739
90,0.17351819574832916,1.390387773513794,76.84406280517578,-0.018098008219250093,-0.8710803131483991,-89.93894882486315,-3.9245846,2.567883,1.294765,22.94885,-19.853384,-4.248514,-1.5258886,-3.736709,-5.6754966,20.687128,-19.937445,4.9093194,-2.6977925,3.2695775,5.543124,-0.024068769,17.661232,-45.368122,52.682262,0.15164094,1.8142463,5.148507,-5.0624847,-15.598183,36.757996,57.96179,5.336679,13.899282,-4.902053
91,0.1757616549730301,1.3845648765563965,76.84291076660156,-0.01775394783976651,-0.8597000686000933,-89.94681617780489,-3.928839,2.5666628,1.3017235,22.945082,-19.856674,-4.242118,-1.5334134,-3.7354639,-5.6674185,20.67971,-19.935783,4.903909,-2.7025867,3.2678072,5.535842,-0.0029374592,17.64864,-45.35391,52.694443,0.14848335,1.826138,5.1607246,-5.066722,-15.588893,36.74062,57.986282,5.324136,13.902799,-4.895847
92,0.1762358546257019,1.3776792287826538,76.84349822998047,-0.01729386911743819,-0.8497325164520769,-89.95279564087862,-3.9324133,2.5650575,1.3073877,22.942703,-19.86054,-4.2367053,-1.5388132,-3.7351322,-5.661082,20.673077,-19.934734,4.903319,-2.7087572,3.2657146,5.5285892,0.016039368,17.628357,-45.33988,52.714012,0.15610273,1.8381622,5.1708245,-5.0689754,-15.577429,36.7235,58.00805,5.312907,13.907467,-4.891324
93,0.17747196555137634,1.3718547821044922,76.84223937988281,-0.015574712077273997,-0.8417597673200071,-89.95650429772923,-3.9353678,2.5629392,1.3118706,22.942244,-19.865421,-4.232431,-1.5428244,-3.7364697,-5.6565785,20.669796,-19.93558,4.91074,-2.7167382,3.2630346,5.5250697,0.040217657,17.611887,-45.32288,52.725163,0.18010421,1.8512236,5.1771936,-5.066602,-15.570173,36.70547,58.017365,5.304309,13.915264,-4.8886123
94,0.18091566860675812,1.3637149333953857,76.84300231933594,-0.013673918925158866,-0.8344035329114451,-89.95872154598511,-3.939979,2.5600748,1.3155435,22.94563,-19.872086,-4.2286663,-1.5461596,-3.738987,-5.653303,20.667486,-19.936758,4.9235106,-2.7260444,3.2601361,5.5223694,0.06110807,17.587961,-45.30169,52.745438,0.21806748,1.864472,5.180654,-5.0664463,-15.561832,36.68554,58.027073,5.2959805,13.923954,-4.8846297
95,0.18205799162387848,1.3601614236831665,76.8420181274414,-0.011908153991967547,-0.8277924136985985,-89.95958998419637,-3.9438365,2.5570784,1.3179176,22.949022,-19.878536,-4.2256002,-1.5490644,-3.7417986,-5.6513057,20.66708,-19.93908,4.936466,-2.7363822,3.2570114,5.5194683,0.08285673,17.561977,-45.282288,52.765892,0.25786293,1.8789239,5.183265,-5.063851,-15.554771,36.6698,58.031765,5.2911,13.931489,-4.880351
96,0.18312065303325653,1.355177402496338,76.84095001220703,-0.010425484073820183,-0.8221759748046418,-89.95923415500715,-3.946615,2.5542483,1.3184224,22.952358,-19.884813,-4.2234406,-1.5520011,-3.7448936,-5.650517,20.670652,-19.943968,4.9446,-2.7483351,3.2536077,5.515918,0.10575329,17.536383,-45.268955,52.783268,0.28875473,1.8947424,5.1863093,-5.0539007,-15.549333,36.660583,58.02748,5.287583,13.93578,-4.8757987
97,0.18562425673007965,1.3494806289672852,76.84095001220703,-0.010493181675232107,-0.8173168295859327,-89.9570703760839,-3.9484131,2.551941,1.3154432,22.956121,-19.890593,-4.222381,-1.5551518,-3.7474449,-5.6513495,20.678696,-19.951801,4.9453015,-2.759615,3.2501404,5.508831,0.11793934,17.49663,-45.26518,52.820854,0.3119925,1.9121509,5.191271,-5.055095,-15.544081,36.677624,58.033,5.3070927,13.934004,-4.8713546
98,0.18730461597442627,1.3426433801651,76.84022521972656,-0.010834517777898803,-0.8134271744359711,-89.953233463385,-3.949611,2.5497038,1.3097769,22.960232,-19.89581,-4.2222958,-1.5589013,-3.7502275,-5.65358,20.691612,-19.962336,4.941785,-2.7726796,3.2455552,5.5013747,0.13329959,17.460766,-45.266685,52.852528,0.32975635,1.9329885,5.196745,-5.050794,-15.542093,36.70434,58.029392,5.330856,13.929094,-4.866966
99,0.18990196287631989,1.3352044820785522,76.84143829345703,-0.011416814839503617,-0.8104112700322192,-89.94900357116546,-3.949261,2.5476675,1.304354,22.963413,-19.901108,-4.222871,-1.5614069,-3.7533274,-5.656738,20.705086,-19.973886,4.937303,-2.7875388,3.2420604,5.4941635,0.14845149,17.422064,-45.270603,52.88337,0.34114963,1.9508718,5.2005486,-5.037976,-15.541333,36.728973,58.016483,5.351287,13.922691,-4.8611207
100,0.190606951713562,1.3291304111480713,76.84098815917969,-0.010993696376329017,-0.8086309645022561,-89.94566452216661,-3.9458714,2.5453594,1.3022997,22.963291,-19.906551,-4.223683,-1.5612974,-3.757266,-5.660184,20.71563,-19.984238,4.935161,-2.8010137,3.2387168,5.4895735,0.16373377,17.385366,-45.27791,52.90572,0.3431446,1.9606392,5.200265,-5.025438,-15.541288,36.746143,58.00327,5.3718033,13.916321,-4.852651
101,0.1915547251701355,1.3227282762527466,76.84004974365234,-0.009661604528862775,-0.8080419885344757,-89.94447618351604,-3.9388742,2.5431304,1.3064669,22.958908,-19.912474,-4.225214,-1.5589912,-3.7623715,-5.663414,20.724377,-19.994394,4.9362082,-2.8119576,3.237872,5.48643,0.17295054,17.340405,-45.289864,52.93052,0.3318931,1.9586676,5.195122,-5.0136375,-15.540893,36.75163,57.991726,5.3936005,13.908438,-4.8382974
102,0.1948986053466797,1.3147937059402466,76.83916473388672,-0.0072818140767730456,-0.8085998151974061,-89.94441082061532,-3.928718,2.540919,1.3146093,22.950726,-19.91825,-4.2273946,-1.5556358,-3.768664,-5.6667933,20.733585,-20.005434,4.9386744,-2.8235338,3.2347808,5.4886403,0.19307432,17.315342,-45.302967,52.92514,0.3076682,1.9503213,5.1844034,-4.9996862,-15.539828,36.74879,57.97308,5.4140215,13.898909,-4.8192854
103,0.19583292305469513,1.3088423013687134,76.8381576538086,-0.0058946578825433225,-0.8102301421861184,-89.94346422146789,-3.9166753,2.5381885,1.3217705,22.94104,-19.923449,-4.2294064,-1.5491686,-3.7750967,-5.6713014,20.739315,-20.014948,4.942009,-2.8362598,3.2320716,5.490683,0.2126477,17.286736,-45.31798,52.91986,0.28141013,1.9383008,5.172488,-4.9796267,-15.537672,36.74157,57.951515,5.4272676,13.891041,-4.802439
104,0.19501391053199768,1.3057770729064941,76.83528900146484,-0.0035435309001930503,-0.8129443590085704,-89.93962657666026,-3.9050152,2.534638,1.3229306,22.933687,-19.92782,-4.230469,-1.5384365,-3.7809339,-5.67783,20.73958,-20.022161,4.9456725,-2.844423,3.2285259,5.4905124,0.22099964,17.246819,-45.34325,52.93117,0.2593673,1.9256104,5.1628613,-4.9573865,-15.533421,36.736732,57.934673,5.439262,13.887563,-4.794339
105,0.1937660425901413,1.2983912229537964,76.83326721191406,-3.8151078005204565e-05,-0.8185099663960391,-89.93034440479339,-3.890505,2.5289326,1.3142474,22.925922,-19.929506,-4.2296185,-1.5200657,-3.7870708,-5.688793,20.733053,-20.02703,4.9507527,-2.8586688,3.2216883,5.493532,0.2382145,17.216644,-45.365112,52.928417,0.2466907,1.9121423,5.1507335,-4.9347825,-15.529008,36.74638,57.916626,5.4550138,13.890456,-4.8006496
106,0.19471466541290283,1.2890225648880005,76.83483123779297,0.0024826185931712793,-0.8261717827921885,-89.9173558939165,-3.8735225,2.5215783,1.2992136,22.917671,-19.929686,-4.2275157,-1.4948505,-3.7934246,-5.703017,20.719585,-20.02934,4.9571357,-2.8756666,3.2143645,5.493762,0.24853939,17.172104,-45.390327,52.943012,0.23809804,1.894835,5.1380887,-4.9085884,-15.520728,36.76057,57.903793,5.46695,13.897485,-4.817687
107,0.19358085095882416,1.2828786373138428,76.83434295654297,0.005397614679778223,-0.8329285821231446,-89.9051915998667,-3.8589487,2.514745,1.2841163,22.911829,-19.930279,-4.2256775,-1.4721382,-3.7987337,-5.7157593,20.707191,-20.031437,4.962455,-2.892234,3.2055793,5.5015855,0.273512,17.152033,-45.411293,52.917713,0.23307782,1.8834928,5.127153,-4.8886104,-15.516263,36.779617,57.885223,5.4791956,13.907663,-4.8327346
108,0.19340389966964722,1.2782801389694214,76.83391571044922,0.006003891049845118,-0.835007201839019,-89.89813975836702,-3.8517485,2.5114775,1.274856,22.909817,-19.932272,-4.2256303,-1.4599569,-3.8004446,-5.7226415,20.700258,-20.033646,4.964202,-2.9050183,3.2007217,5.497969,0.28477472,17.116484,-45.43915,52.919308,0.22400941,1.8763558,5.1279254,-4.8684244,-15.506545,36.79599,57.878082,5.4772315,13.917,-4.838844
109,0.19370518624782562,1.273486614227295,76.8333511352539,0.0038811945224850875,-0.8308408680649217,-89.8981290091446,-3.8544872,2.5124996,1.2736824,22.913467,-19.936752,-4.228762,-1.4629437,-3.7977405,-5.720984,20.70206,-20.036682,4.959982,-2.9132428,3.2002587,5.4939313,0.2990124,17.087769,-45.46681,52.89926,0.22006823,1.8859338,5.14389,-4.850247,-15.498062,36.80141,57.866867,5.444595,13.93061,-4.8263307
110,0.19468441605567932,1.2687127590179443,76.83464050292969,0.000736520992238494,-0.8223824847833672,-89.90252547278962,-3.864835,2.5165412,1.2770579,22.92219,-19.94322,-4.2339664,-1.4760273,-3.791475,-5.7137237,20.709225,-20.039824,4.951667,-2.913958,3.2037246,5.4839396,0.30105788,17.046406,-45.504005,52.892212,0.21780601,1.9043618,5.1724057,-4.832163,-15.4851465,36.798286,57.86123,5.391576,13.947275,-4.803373
111,0.1955397129058838,1.262291431427002,76.8344497680664,-0.003303626112100034,-0.8127323042836426,-89.90929716962188,-3.8763068,2.521508,1.2832544,22.930584,-19.949314,-4.238744,-1.4922441,-3.7844615,-5.7042675,20.718277,-20.042938,4.943325,-2.913723,3.207607,5.4762483,0.30925503,17.01431,-45.53465,52.870968,0.21351473,1.9229919,5.200942,-4.8148065,-15.474623,36.795444,57.852695,5.341829,13.961167,-4.779373
112,0.19649483263492584,1.266436219215393,76.831298828125,-0.005025065439616721,-0.8048935375794745,-89.91647207838378,-3.8840666,2.5254347,1.2904432,22.936213,-19.954292,-4.2406096,-1.5040818,-3.7796876,-5.695959,20.723951,-20.04479,4.939201,-2.9109423,3.2098255,5.4712577,0.31963322,16.983889,-45.55675,52.85104,0.20144708,1.9304075,5.219841,-4.798312,-15.464213,36.793938,57.846783,5.31675,13.965524,-4.7650485
113,0.1952831745147705,1.2579739093780518,76.83068084716797,-0.004480326359557527,-0.7996349950786596,-89.92410237928631,-3.8863573,2.5275836,1.2994931,22.937782,-19.957773,-4.2374835,-1.5105772,-3.7780323,-5.6893234,20.726788,-20.045317,4.9407854,-2.9096365,3.2097282,5.470694,0.34103835,16.960869,-45.559937,52.823227,0.1757684,1.9205391,5.2229652,-4.768878,-15.455506,36.78336,57.828854,5.313665,13.956165,-4.7644496
114,0.19546154141426086,1.249470591545105,76.83013916015625,-0.0027435408959558777,-0.7953739700624483,-89.93309803252366,-3.8865657,2.5291514,1.3108929,22.93811,-19.960873,-4.2311954,-1.5157514,-3.7779255,-5.6825943,20.729767,-20.045582,4.945774,-2.9031641,3.210366,5.466612,0.34772635,16.910765,-45.55756,52.832584,0.1424229,1.8979515,5.219673,-4.7492986,-15.436005,36.77332,57.832527,5.3357553,13.935877,-4.772968
115,0.19549429416656494,1.2528882026672363,76.83035278320312,-0.001992694774029603,-0.791683948328359,-89.94254072977638,-3.8856833,2.5308502,1.3223503,22.937521,-19.963573,-4.2249594,-1.5191377,-3.778149,-5.6760874,20.730352,-20.04498,4.952287,-2.8984225,3.210958,5.463689,0.35824135,16.865513,-45.548992,52.837276,0.111515865,1.8742397,5.21444,-4.7248106,-15.417594,36.765476,57.833355,5.3579836,13.913944,-4.784472
116,0.19569231569766998,1.2541632652282715,76.82984161376953,-0.001262632095552461,-0.7883208411858378,-89.95153888777622,-3.8843904,2.5331082,1.3316545,22.936045,-19.965826,-4.2219973,-1.5202849,-3.7771957,-5.6700354,20.726494,-20.04341,4.9584866,-2.893341,3.211423,5.4641094,0.37543276,16.839746,-45.54446,52.820946,0.092666306,1.8597292,5.2138624,-4.6926904,-15.406042,36.76419,57.824467,5.367426,13.898494,-4.7929187
117,0.1937735676765442,1.2506071329116821,76.82799530029297,-0.002589242774946725,-0.7858626596481104,-89.96003024847357,-3.881367,2.5372837,1.3375758,22.933302,-19.968252,-4.22549,-1.5169415,-3.7741597,-5.6651554,20.715736,-20.040487,4.9658175,-2.8862567,3.2139912,5.4617147,0.3823355,16.805603,-45.549854,52.82034,0.09659755,1.8563036,5.2234383,-4.673915,-15.39007,36.786686,57.83976,5.3729057,13.890158,-4.7994237
118,0.1936134248971939,1.2471321821212769,76.8302230834961,-0.004881553609077962,-0.7842216901027864,-89.96841359991583,-3.8780656,2.542497,1.3414783,22.93201,-19.971975,-4.2328925,-1.5099124,-3.7698536,-5.661144,20.699583,-20.03649,4.974585,-2.8792033,3.2180605,5.4570622,0.38299397,16.765139,-45.558746,52.831932,0.11483223,1.8585029,5.238565,-4.6618176,-15.370396,36.82556,57.87085,5.376604,13.88495,-4.806344
119,0.19298045337200165,1.2452139854431152,76.83134460449219,-0.005332468206670522,-0.7820105495097487,-89.97657778771912,-3.874399,2.5467756,1.3451188,22.927546,-19.973051,-4.2390213,-1.5044243,-3.7660973,-5.656587,20.684195,-20.032513,4.981396,-2.8712761,3.2215643,5.4526052,0.3813695,16.725964,-45.56741,52.844837,0.13570051,1.8631189,5.254355,-4.650367,-15.350119,36.86681,57.902756,5.3791976,13.882262,-4.8128457
120,0.1925951987504959,1.244580626487732,76.83055114746094,-0.004949098663504919,-0.7775418360535286,-89.98431791715203,-3.8736067,2.5480363,1.3501492,22.921406,-19.970621,-4.2386746,-1.5064027,-3.7648,-5.6500235,20.677074,-20.030449,4.9828925,-2.8621898,3.2218835,5.451733,0.3845993,16.702963,-45.5725,52.84043,0.14544097,1.867163,5.2653217,-4.6241164,-15.336745,36.889626,57.909912,5.3720765,13.881843,-4.81728
121,0.18973055481910706,1.2445441484451294,76.83204650878906,-9.501747586971653e-06,-0.7695859121244873,-89.99156230764305,-3.8769586,2.5446167,1.3569942,22.91294,-19.961906,-4.226292,-1.5197746,-3.7669144,-5.639739,20.68253,-20.03109,4.9753227,-2.8534298,3.2189894,5.450264,0.38195786,16.67584,-45.571564,52.84435,0.14051548,1.8682933,5.2714224,-4.6018934,-15.31862,36.90272,57.91609,5.370573,13.882713,-4.8233194
122,0.18841302394866943,1.2435460090637207,76.83271026611328,0.007734692363392881,-0.7594007331681426,-89.99840430414976,-3.8834562,2.5377483,1.3648099,22.903,-19.948656,-4.2060227,-1.5408912,-3.7714386,-5.626896,20.696257,-20.033648,4.9615,-2.8434927,3.213303,5.4494057,0.37676445,16.652216,-45.568123,52.84731,0.12698558,1.8693036,5.2745523,-4.575471,-15.300347,36.90402,57.914272,5.36525,13.885885,-4.8295875
123,0.1878812462091446,1.241304874420166,76.83432006835938,0.01626559688586254,-0.7486061014971369,-90.00500848433505,-3.8886838,2.530802,1.3732138,22.889238,-19.934645,-4.187297,-1.563009,-3.776437,-5.6146674,20.711067,-20.036404,4.9475756,-2.832518,3.2070198,5.4500947,0.37363768,16.635952,-45.564095,52.843246,0.11246854,1.8712177,5.2765,-4.541564,-15.285629,36.902195,57.90033,5.354824,13.891134,-4.832838
124,0.18724983930587769,1.2407981157302856,76.8349609375,0.021811607671990734,-0.7391681072188494,-90.01143753704386,-3.888248,2.5265014,1.381993,22.868357,-19.922825,-4.179454,-1.5787104,-3.7804577,-5.606215,20.718096,-20.037058,4.939902,-2.8187466,3.2007437,5.4488053,0.36448354,16.617773,-45.564316,52.851177,0.1042123,1.8716003,5.278711,-4.521326,-15.267518,36.916286,57.904163,5.3515267,13.894894,-4.8292475
125,0.18531261384487152,1.2390117645263672,76.833984375,0.02425900480655065,-0.7317100280577706,-90.01813614401595,-3.880526,2.5271783,1.3918703,22.84069,-19.91707,-4.188451,-1.585433,-3.7823877,-5.6035767,20.715424,-20.03563,4.941525,-2.806379,3.1971197,5.4454975,0.3574998,16.600786,-45.565277,52.86141,0.10579438,1.8725421,5.2819076,-4.492652,-15.248823,36.942123,57.903873,5.335996,13.898914,-4.8203306
126,0.1832781881093979,1.2361470460891724,76.8346176147461,0.024605623749991857,-0.7252194034529355,-90.02488897553913,-3.8675542,2.5307248,1.4027944,22.80603,-19.913664,-4.208103,-1.5870582,-3.7833645,-5.6046677,20.706736,-20.03242,4.948638,-2.7920806,3.1943634,5.4417048,0.34877563,16.585155,-45.56821,52.87534,0.113082804,1.8733821,5.28507,-4.4746294,-15.230346,36.987213,57.913574,5.329839,13.902731,-4.8069396
127,0.18330347537994385,1.235701084136963,76.83580780029297,0.024865386395409465,-0.7187437432440126,-90.03096988250793,-3.8526866,2.533959,1.4128774,22.76776,-19.909119,-4.2298303,-1.5871354,-3.7844322,-5.606507,20.6958,-20.028797,4.957013,-2.7823946,3.19038,5.4356728,0.33845305,16.566042,-45.5672,52.8984,0.12324231,1.8736098,5.2888002,-4.465173,-15.2054205,37.038815,57.93502,5.324049,13.907284,-4.788396
128,0.181193009018898,1.2344733476638794,76.83871459960938,0.027919837038007562,-0.7113289124036638,-90.03570107549851,-3.8394759,2.5337896,1.420167,22.729237,-19.89958,-4.244883,-1.5890034,-3.7864654,-5.6060233,20.684847,-20.024538,4.96233,-2.7646646,3.1858997,5.439341,0.32825923,16.563206,-45.569363,52.90059,0.13322596,1.8747678,5.290788,-4.4335184,-15.200603,37.051723,57.917133,5.3006907,13.916507,-4.756046
129,0.17812858521938324,1.2321871519088745,76.84159088134766,0.03420796789241727,-0.7020000759514825,-90.0391229692781,-3.8282628,2.5287066,1.4236655,22.689661,-19.882486,-4.251338,-1.5947665,-3.7898493,-5.6009345,20.67593,-20.020464,4.963172,-2.7551413,3.173627,5.433096,0.3145306,16.549911,-45.568768,52.925804,0.13962981,1.8736975,5.295693,-4.410119,-15.174174,37.061153,57.921837,5.27281,13.929452,-4.714418
130,0.1763637214899063,1.228150486946106,76.84425354003906,0.042201888096803926,-0.6918916396845737,-90.04150097509991,-3.8182428,2.5210006,1.42439,22.65036,-19.861862,-4.253731,-1.601498,-3.7934015,-5.5935073,20.665981,-20.015533,4.961891,-2.7410815,3.1600766,5.4327874,0.29854763,16.542622,-45.56765,52.943233,0.14926013,1.8729142,5.300227,-4.379112,-15.154811,37.04518,57.909645,5.2308474,13.947803,-4.657906
131,0.17622089385986328,1.22633957862854,76.8459701538086,0.05146692634714071,-0.6814526707630025,-90.04253265032162,-3.8078816,2.51131,1.4242266,22.60843,-19.838081,-4.2530117,-1.6082095,-3.7986948,-5.5868454,20.655672,-20.010576,4.9600425,-2.7242603,3.1417482,5.428223,0.2742233,16.532404,-45.573322,52.977657,0.15594941,1.8716449,5.305028,-4.3548074,-15.119994,37.015274,57.91565,5.1852236,13.962051,-4.602436
132,0.17126411199569702,1.2239631414413452,76.8485336303711,0.061617151788909454,-0.6713106580392562,-90.04170852172669,-3.798285,2.5008714,1.4245136,22.56598,-19.81422,-4.2502103,-1.6138934,-3.8063617,-5.58443,20.645834,-20.006632,4.9589486,-2.716372,3.121753,5.4199843,0.25468463,16.52285,-45.5763,53.016254,0.16028766,1.8737005,5.3116965,-4.3416395,-15.076732,37.00355,57.932945,5.164183,13.970411,-4.5654106
133,0.16903114318847656,1.2246980667114258,76.8515396118164,0.0715908360485845,-0.661138687510207,-90.03840872597198,-3.790111,2.4895203,1.42606,22.52341,-19.79017,-4.2434826,-1.6181873,-3.817554,-5.588418,20.636383,-20.004541,4.958528,-2.7200944,3.104924,5.411633,0.24576233,16.519466,-45.571995,53.046326,0.16140467,1.8801674,5.3197618,-4.325544,-15.052505,37.01589,57.93038,5.1825867,13.971818,-4.5488863
134,0.16790558397769928,1.2247815132141113,76.85346984863281,0.08138725279262572,-0.6508942844234773,-90.03312107785405,-3.7832048,2.4768236,1.4279367,22.480892,-19.765312,-4.2329497,-1.6205963,-3.8315694,-5.5965967,20.624872,-20.002413,4.958245,-2.7266252,3.0888958,5.403937,0.23814006,16.51891,-45.56821,53.075428,0.15959974,1.8900484,5.329126,-4.3045344,-15.039686,37.03417,57.91169,5.2238574,13.969333,-4.544545
135,0.1657346487045288,1.2221183776855469,76.85640716552734,0.0913300048910623,-0.6409179292607131,-90.02684261712044,-3.7765343,2.463697,1.4291285,22.438375,-19.74096,-4.2226906,-1.6231867,-3.846143,-5.605764,20.614132,-20.000443,4.9588647,-2.738862,3.0739305,5.395917,0.23253939,16.519167,-45.562344,53.10635,0.15824631,1.8994552,5.3373966,-4.286651,-15.028827,37.057755,57.894867,5.269266,13.964332,-4.5473094
136,0.16488617658615112,1.2177845239639282,76.85779571533203,0.10127075337865812,-0.6315899581191059,-90.02078999128791,-3.7692795,2.4518018,1.4284576,22.397238,-19.719275,-4.2169228,-1.6269969,-3.858745,-5.6128335,20.605934,-19.998274,4.961107,-2.76153,3.0591369,5.389363,0.2330105,16.521465,-45.547493,53.13481,0.1629909,1.9069501,5.342565,-4.2831535,-15.003427,37.08991,57.8967,5.301413,13.960787,-4.5538335
137,0.1598260998725891,1.2135802507400513,76.85887908935547,0.10848738151641707,-0.6232834505512352,-90.01538360165642,-3.7625616,2.4416077,1.4257293,22.361185,-19.703484,-4.2166915,-1.6317503,-3.8683202,-5.6163635,20.599003,-19.994123,4.9666305,-2.7752757,3.045311,5.39119,0.22438338,16.52652,-45.541023,53.163586,0.17251721,1.9114392,5.343524,-4.278583,-14.974364,37.099625,57.89598,5.3056874,13.9604845,-4.559979
138,0.1581607460975647,1.2117846012115479,76.8616943359375,0.11561614600505964,-0.6157136897063816,-90.00987501692696,-3.7556078,2.4328551,1.4212904,22.326857,-19.690825,-4.219913,-1.6365188,-3.8759725,-5.6183443,20.591974,-19.988316,4.974538,-2.782453,3.0370598,5.400874,0.20723464,16.529633,-45.542183,53.193356,0.18474662,1.9140383,5.342144,-4.2644844,-14.962484,37.09902,57.873035,5.302294,13.963164,-4.567726
139,0.15793931484222412,1.2180877923965454,76.86351776123047,0.12181403849830783,-0.6084408385448347,-90.00433189049923,-3.7482564,2.4235637,1.4160972,22.29248,-19.678183,-4.2254577,-1.6421417,-3.8837159,-5.620029,20.587036,-19.983353,4.9819417,-2.7869027,3.025299,5.4094725,0.18950202,16.538294,-45.550335,53.22269,0.19800623,1.9166167,5.338395,-4.260576,-14.9362755,37.095844,57.868298,5.292591,13.964603,-4.577473
140,0.1603962630033493,1.21925687789917,76.86568450927734,0.12947975755789704,-0.6010894417227306,-89.99869416773193,-3.7397082,2.4132237,1.4106992,22.254871,-19.662079,-4.232389,-1.6485227,-3.892446,-5.622824,20.584686,-19.981268,4.985867,-2.7918549,3.0136807,5.4161773,0.17139441,16.54602,-45.56117,53.252514,0.21452904,1.9199251,5.332655,-4.2574368,-14.918823,37.10545,57.8603,5.2916985,13.967117,-4.5858283
141,0.15914349257946014,1.2184971570968628,76.86869049072266,0.13762788366352333,-0.5931099751098402,-89.99191739124552,-3.7291794,2.4001992,1.4037864,22.21027,-19.639135,-4.2420664,-1.6551633,-3.903672,-5.6284523,20.583641,-19.982412,4.9844594,-2.797485,2.9997551,5.41725,0.15464112,16.554613,-45.577938,53.28361,0.24081287,1.925439,5.323932,-4.2574677,-14.902678,37.132736,57.85592,5.303133,13.969692,-4.593752
142,0.15761393308639526,1.2169990539550781,76.8721694946289,0.1482433041631895,-0.5850009097422886,-89.9843501761789,-3.7179534,2.385486,1.3954353,22.163048,-19.613096,-4.254489,-1.6630582,-3.9161544,-5.6357584,20.586092,-19.986858,4.979551,-2.8059838,2.9841106,5.415022,0.1407502,16.565533,-45.596867,53.313778,0.27510214,1.9323503,5.312446,-4.2674074,-14.88658,37.17762,57.861862,5.3244123,13.972026,-4.6025076
143,0.15590374171733856,1.2127976417541504,76.87469482421875,0.15790438249927286,-0.5773801452843904,-89.97810550897691,-3.7057672,2.3712473,1.3888091,22.115665,-19.586905,-4.2664824,-1.6708133,-3.9281578,-5.6416793,20.588501,-19.99093,4.9741354,-2.81408,2.9696267,5.4139442,0.12620173,16.576477,-45.616386,53.342007,0.3024274,1.9380255,5.29996,-4.2751555,-14.873682,37.221638,57.86436,5.3421845,13.9749565,-4.609583
144,0.15446875989437103,1.2157024145126343,76.87555694580078,0.16692148596512674,-0.5710732447147995,-89.97525840694958,-3.6937246,2.3595042,1.3869394,22.073555,-19.564985,-4.274871,-1.6785811,-3.9378467,-5.643222,20.591043,-19.9928,4.971111,-2.8178718,2.959448,5.418647,0.10644672,16.583185,-45.63466,53.36868,0.3094131,1.940021,5.2880077,-4.2771564,-14.867306,37.24795,57.859795,5.344747,13.978644,-4.611845
145,0.1556805670261383,1.2149399518966675,76.87596893310547,0.1747574255482119,-0.5670797610081302,-89.97622350823353,-3.6803594,2.3511088,1.3913265,22.036661,-19.548498,-4.278624,-1.6846542,-3.9440084,-5.639504,20.592136,-19.99053,4.971203,-2.8212476,2.9530792,5.4272943,0.08749691,16.592085,-45.658844,53.387035,0.27422577,1.9377849,5.2787185,-4.2840304,-14.859842,37.267212,57.865173,5.340104,13.981546,-4.6096015
146,0.15557098388671875,1.2160619497299194,76.87713623046875,0.18086445431767786,-0.5647511414869222,-89.97995929354221,-3.6659873,2.3452337,1.4000262,22.003443,-19.535376,-4.2795,-1.6890235,-3.9477122,-5.6321855,20.591526,-19.985334,4.972875,-2.8260624,2.9511526,5.4423466,0.06688881,16.596848,-45.67474,53.40242,0.22166745,1.9321618,5.267508,-4.289776,-14.856342,37.273396,57.86736,5.3189654,13.98538,-4.600532
147,0.1539328247308731,1.2152680158615112,76.87751770019531,0.18643796247320804,-0.5620703818545657,-89.9862658912719,-3.652215,2.339573,1.4114006,21.971376,-19.523071,-4.2784643,-1.6952785,-3.9512906,-5.622039,20.591965,-19.979946,4.975566,-2.8170097,2.94515,5.453452,0.043279186,16.611256,-45.71277,53.412743,0.15094355,1.9257207,5.261914,-4.2927313,-14.846317,37.271515,57.87673,5.299289,13.987627,-4.5965176
148,0.15349364280700684,1.214935541152954,76.87806701660156,0.1941428066008918,-0.5564608365956364,-89.99513259948513,-3.642789,2.332799,1.4236957,21.941853,-19.51093,-4.2765555,-1.7070792,-3.9565904,-5.60964,20.596262,-19.9773,4.9789376,-2.8018737,2.9382071,5.46245,0.024922593,16.627275,-45.736767,53.414963,0.107575096,1.9205661,5.258254,-4.2996154,-14.83641,37.271793,57.887707,5.285423,13.988607,-4.598065
149,0.1545657366514206,1.2160037755966187,76.8783950805664,0.20383974210555664,-0.5459496099225071,-90.00737539311551,-3.6399958,2.323482,1.4372338,21.914833,-19.498072,-4.272306,-1.728164,-3.9652967,-5.5941243,20.60679,-19.979,4.9839015,-2.7821004,2.9296923,5.4649935,0.009237829,16.63826,-45.743233,53.419685,0.09808387,1.9143995,5.2586417,-4.3059855,-14.830897,37.282433,57.895645,5.279056,13.989231,-4.6121206
150,0.15484745800495148,1.216586947441101,76.88009643554688,0.2157726682354149,-0.532302149022636,-90.0228327130726,-3.6412973,2.3127518,1.4528078,21.889029,-19.484627,-4.265769,-1.7553169,-3.9760714,-5.575406,20.620964,-19.98311,4.9904046,-2.7569296,2.920507,5.463616,-0.002061254,16.648947,-45.740845,53.418945,0.10522703,1.907929,5.2629514,-4.3185787,-14.826892,37.304176,57.90808,5.285036,13.98862,-4.6350703
151,0.15417896211147308,1.2162115573883057,76.88172149658203,0.22473481409180854,-0.5188498690731032,-90.03939461421889,-3.6431787,2.303062,1.4686289,21.865519,-19.472412,-4.260144,-1.7823025,-3.9859223,-5.556053,20.634983,-19.98714,4.9961696,-2.7374458,2.913343,5.461554,-0.0042503118,16.661491,-45.725967,53.409004,0.12216121,1.9029342,5.2689447,-4.333666,-14.823617,37.33126,57.923916,5.292847,13.9872055,-4.6581116
152,0.15551775693893433,1.2173519134521484,76.8819351196289,0.2326510276616631,-0.509072730295202,-90.05489471569376,-3.641928,2.2968335,1.4830691,21.8444,-19.462626,-4.258842,-1.8033327,-3.9924004,-5.5385613,20.6464,-19.989738,4.998992,-2.724712,2.9093268,5.465006,-0.0015104177,16.677067,-45.70484,53.389683,0.13979056,1.900859,5.2736673,-4.353687,-14.820844,37.35762,57.94323,5.3048553,13.985187,-4.6713095
153,0.15625470876693726,1.2191094160079956,76.88240814208984,0.2362290277345045,-0.5051930091526379,-90.07014523949573,-3.6343546,2.2957222,1.4963257,21.824984,-19.455645,-4.265071,-1.8158256,-3.9934838,-5.522543,20.65503,-19.990559,4.9974556,-2.708599,2.9091446,5.474266,-0.00807368,16.6884,-45.69289,53.377758,0.15698856,1.9022582,5.278677,-4.3710027,-14.81958,37.365932,57.965885,5.3190055,13.980877,-4.6698112
154,0.15399006009101868,1.218072533607483,76.88248443603516,0.23669973935903607,-0.5050418612456632,-90.08552969939632,-3.6231253,2.298039,1.5088935,21.80716,-19.450611,-4.2762904,-1.823613,-3.9913895,-5.50717,20.662928,-19.9909,4.993074,-2.6889172,2.9131303,5.4849753,-0.018747926,16.69221,-45.687634,53.370907,0.17740767,1.9070531,5.2861543,-4.387749,-14.819491,37.365906,57.994175,5.3402205,13.974845,-4.6602726
155,0.15374396741390228,1.217508316040039,76.88322448730469,0.23713856208721337,-0.5049688258312849,-90.09979367469617,-3.6131365,2.301734,1.5204287,21.79221,-19.44719,-4.287087,-1.8292086,-3.9879258,-5.493415,20.667582,-19.989809,4.987807,-2.6716528,2.917378,5.4953775,-0.02877008,16.696838,-45.67834,53.36334,0.19313285,1.9112371,5.2928605,-4.400186,-14.819577,37.36142,58.017433,5.3521776,13.97009,-4.647786
156,0.15449944138526917,1.2175730466842651,76.88334655761719,0.2381126426219903,-0.5017813644679042,-90.11150826330466,-3.6081564,2.3042738,1.530643,21.780724,-19.444527,-4.2918034,-1.8364911,-3.9856744,-5.482039,20.670792,-19.988705,4.9837017,-2.6549308,2.9203598,5.505855,-0.034578655,16.706232,-45.659008,53.345833,0.20210274,1.9136823,5.295115,-4.418897,-14.820278,37.35736,58.037815,5.350204,13.9686165,-4.6340203
157,0.15559548139572144,1.2174091339111328,76.88259887695312,0.23945541868915898,-0.4936911861646687,-90.1212629247827,-3.6100135,2.3055277,1.5407526,21.772108,-19.442602,-4.28707,-1.8476415,-3.9849796,-5.472235,20.672243,-19.987501,4.980604,-2.6360984,2.9198728,5.5055685,-0.038288973,16.714907,-45.63726,53.332233,0.18984,1.9108689,5.293992,-4.424079,-14.82166,37.35672,58.04142,5.324986,13.974156,-4.622368
158,0.15520158410072327,1.2164113521575928,76.88304138183594,0.2412304815573789,-0.4831790087871814,-90.12923194042789,-3.6154947,2.3060439,1.5503957,21.766138,-19.44159,-4.2763314,-1.8595407,-3.9850178,-5.464085,20.671392,-19.985641,4.977744,-2.6222594,2.9193904,5.5041313,-0.032491114,16.726791,-45.601383,53.305645,0.1704276,1.9075736,5.289522,-4.438551,-14.8254385,37.368195,58.04438,5.291721,13.984662,-4.6087217
159,0.15300533175468445,1.2122347354888916,76.88359069824219,0.24101800493483053,-0.47111473003137927,-90.13407397444755,-3.625328,2.3069563,1.5568557,21.764545,-19.441778,-4.264962,-1.8712455,-3.9847295,-5.459461,20.668549,-19.983564,4.9758854,-2.6068323,2.9186945,5.496905,-0.031573605,16.733791,-45.573055,53.290577,0.1436831,1.9022889,5.2871294,-4.4433355,-14.828518,37.37229,58.04179,5.252517,13.9948635,-4.5987535
160,0.15353697538375854,1.2088637351989746,76.88488006591797,0.24070173931910488,-0.45873453792505414,-90.13360227865535,-3.6391592,2.3083498,1.5568638,21.768887,-19.443089,-4.258066,-1.8794264,-3.9836597,-5.4610367,20.66101,-19.98003,4.9759603,-2.6051407,2.9198225,5.4934382,-0.022890205,16.74434,-45.536144,53.26748,0.12860332,1.898414,5.287382,-4.4538007,-14.834288,37.377663,58.041348,5.222933,14.0010195,-4.5949626
161,0.15120543539524078,1.2049545049667358,76.88529205322266,0.23736086794059158,-0.4453703918170071,-90.12697341028465,-3.6597257,2.3115673,1.5487887,21.781849,-19.445387,-4.257915,-1.883701,-3.9805145,-5.4702477,20.646559,-19.973375,4.979299,-2.6052926,2.9229465,5.4867883,-0.018627755,16.751144,-45.51373,53.253807,0.11729259,1.8962207,5.2981796,-4.463983,-14.838585,37.373524,58.04875,5.2061234,14.000421,-4.6005583
162,0.15042069554328918,1.2006242275238037,76.88600158691406,0.2330701743919571,-0.43102440967544425,-90.1150222295542,-3.6859605,2.3157353,1.5342783,21.80251,-19.449352,-4.261425,-1.8850138,-3.9761593,-5.4858503,20.627012,-19.964651,4.98512,-2.6150024,2.9286625,5.483787,-0.0072143045,16.759928,-45.48406,53.22968,0.11618646,1.8964596,5.3132105,-4.476858,-14.844572,37.365273,58.05416,5.1917934,13.997497,-4.6108074
163,0.14961424469947815,1.1970181465148926,76.88689422607422,0.22792135788282847,-0.41673770059623494,-90.09977526087573,-3.7122166,2.3185747,1.5165406,21.82275,-19.453035,-4.265822,-1.8851639,-3.9730854,-5.5046206,20.607557,-19.957424,4.9909678,-2.6223931,2.9321465,5.473976,-0.0039663403,16.76354,-45.472878,53.2247,0.10769261,1.8949691,5.3302937,-4.4891477,-14.847425,37.358013,58.06825,5.19303,13.991719,-4.6289997
164,0.1482001543045044,1.194002389907837,76.88706970214844,0.22471875079994116,-0.4048680340160195,-90.08214564710688,-3.7326622,2.3187919,1.4974078,21.836878,-19.456203,-4.268541,-1.8831725,-3.9724872,-5.524899,20.592066,-19.954731,4.9941626,-2.638259,2.9364479,5.473439,0.0055523487,16.770159,-45.450302,53.208427,0.11115772,1.8935283,5.336604,-4.497464,-14.852794,37.337143,58.07028,5.1820345,13.987449,-4.646552
165,0.15036097168922424,1.1873500347137451,76.8865966796875,0.2242181309345607,-0.3952385972787559,-90.06228938764535,-3.7449903,2.3138192,1.4773523,21.839615,-19.456882,-4.268515,-1.8801068,-3.9765868,-5.54596,20.58216,-19.95834,4.993183,-2.6545196,2.9369457,5.470498,0.010444779,16.77557,-45.441177,53.205505,0.108096875,1.8884206,5.333519,-4.505319,-14.857349,37.318382,58.074615,5.189778,13.983005,-4.6714835
166,0.14990203082561493,1.1829522848129272,76.88594818115234,0.22528438299345313,-0.3874063378705769,-90.03953454795645,-3.7530017,2.305693,1.4550848,21.83757,-19.45725,-4.267305,-1.8754798,-3.983855,-5.5690784,20.575983,-19.966738,4.989614,-2.6719866,2.9352443,5.4700675,0.013983665,16.781729,-45.437874,53.204647,0.106796116,1.8821816,5.3231316,-4.5103755,-14.862904,37.290478,58.07506,5.201409,13.978564,-4.700794
167,0.15115658938884735,1.175972580909729,76.88556671142578,0.2272179243759608,-0.38064543023497527,-90.01491064429509,-3.7588387,2.2964694,1.4318432,21.833838,-19.457718,-4.2657356,-1.8690225,-3.9922235,-5.593643,20.570534,-19.97597,4.986139,-2.6909344,2.9333844,5.4693265,0.016329432,16.786112,-45.440742,53.20858,0.10558364,1.8764488,5.3119707,-4.5157037,-14.8671665,37.26736,58.07612,5.2209306,13.974173,-4.7327657
168,0.14961890876293182,1.1708159446716309,76.88491821289062,0.22840619240972876,-0.37506519808264754,-89.98964409160679,-3.763878,2.288103,1.408977,21.83139,-19.459011,-4.2644925,-1.8608851,-3.9999518,-5.6188774,20.56507,-19.984203,4.9853315,-2.7000227,2.9314213,5.4719405,0.013346773,16.794031,-45.45744,53.210182,0.10472902,1.8744593,5.3045774,-4.5186815,-14.876237,37.243427,58.07102,5.243677,13.970478,-4.761514
169,0.1493620127439499,1.1643633842468262,76.88394165039062,0.2270004281989354,-0.37045458472868475,-89.96206721752014,-3.7690635,2.2815793,1.3859719,21.831675,-19.46173,-4.2638736,-1.8497022,-4.006284,-5.64674,20.557783,-19.989864,4.988288,-2.7211049,2.9316204,5.4731336,0.014469295,16.796886,-45.467876,53.21678,0.11077019,1.8767565,5.3028903,-4.526744,-14.880256,37.240356,58.07215,5.271269,13.967132,-4.7936482
170,0.1497514247894287,1.157662034034729,76.88311767578125,0.2256560797702615,-0.3671616614791275,-89.93240681464471,-3.7731392,2.2757099,1.362594,21.832785,-19.465555,-4.2633867,-1.8361503,-4.012256,-5.676729,20.550673,-19.99505,4.9934683,-2.7377522,2.932827,5.477044,0.011674097,16.800388,-45.491085,53.22282,0.11609324,1.8829746,5.305313,-4.5375657,-14.886458,37.24465,58.07254,5.3123126,13.964062,-4.8279715
171,0.1498870551586151,1.150719404220581,76.8829116821289,0.22531163536199908,-0.3646176433090427,-89.90390543861888,-3.7766423,2.2695305,1.339848,21.83523,-19.470074,-4.2629366,-1.8216066,-4.0183277,-5.705171,20.542616,-19.999075,4.9996557,-2.7530797,2.9335988,5.4805675,0.008297307,16.80315,-45.517693,53.23053,0.12074076,1.8898853,5.30833,-4.5457964,-14.892764,37.253574,58.07064,5.3489537,13.961874,-4.8575163
172,0.14880593121051788,1.143502116203308,76.88166046142578,0.2269727181367264,-0.3624543349548611,-89.87986415220186,-3.7780004,2.2617574,1.3189037,21.835787,-19.472895,-4.2623253,-1.8097119,-4.02539,-5.728208,20.538189,-20.004625,5.0056453,-2.7656672,2.9316173,5.4850163,0.0075559462,16.804106,-45.53221,53.236473,0.13305406,1.8939089,5.305565,-4.555776,-14.895706,37.260437,58.07047,5.3647237,13.960876,-4.869887
173,0.1499452292919159,1.1357313394546509,76.88159942626953,0.23040813684356465,-0.3604947980465214,-89.86075509070832,-3.779068,2.2511978,1.2981548,21.837013,-19.47438,-4.2616153,-1.8003131,-4.0337615,-5.744508,20.535011,-20.009499,5.011644,-2.7699473,2.928679,5.486352,0.006355496,16.805449,-45.561005,53.241947,0.13495101,1.8936769,5.301819,-4.566767,-14.902133,37.27602,58.07387,5.3664355,13.961575,-4.86072
174,0.14934025704860687,1.128259539604187,76.88162231445312,0.2366187863724156,-0.3585570410548767,-89.84535417970059,-3.7798738,2.2389407,1.2779906,21.839226,-19.475357,-4.2608676,-1.793181,-4.0428905,-5.755848,20.533955,-20.014257,5.0181026,-2.7664165,2.9249952,5.48677,0.004814388,16.806726,-45.595173,53.245758,0.1348801,1.8913658,5.295773,-4.5711904,-14.916402,37.29545,58.067184,5.3577952,13.964729,-4.834664
175,0.14942169189453125,1.1218445301055908,76.88158416748047,0.24201745158430987,-0.357795094972138,-89.83266730529074,-3.7780983,2.2268653,1.2608086,21.840467,-19.476326,-4.259967,-1.7859368,-4.0523953,-5.764783,20.534756,-20.020824,5.0243025,-2.7651534,2.9195597,5.4917474,0.0056333053,16.806675,-45.60975,53.247116,0.14607769,1.8885428,5.2852125,-4.5814896,-14.922295,37.307205,58.06728,5.332111,13.966875,-4.8031955
176,0.1503273993730545,1.1151299476623535,76.88081359863281,0.24649468431562188,-0.3585798663669202,-89.82199480617976,-3.7733305,2.217275,1.2491244,21.84099,-19.479456,-4.2587595,-1.7771386,-4.0612745,-5.7736816,20.53725,-20.030373,5.0294824,-2.7627077,2.9165452,5.4953766,0.010289584,16.806074,-45.622654,53.244114,0.15106544,1.887334,5.278672,-4.588668,-14.928043,37.318615,58.06885,5.3165507,13.965212,-4.7845974
177,0.1515137404203415,1.1077616214752197,76.87895965576172,0.2501023256603268,-0.36253589087086135,-89.81358200831217,-3.7614028,2.2098215,1.2454145,21.837156,-19.483795,-4.2571115,-1.7647445,-4.0712113,-5.783312,20.5428,-20.046143,5.0336456,-2.7592974,2.915123,5.501157,0.018637244,16.805122,-45.62878,53.236084,0.15258332,1.8883584,5.275442,-4.592452,-14.932454,37.323597,58.071022,5.310898,13.956345,-4.7821116
178,0.15418849885463715,1.0987796783447266,76.87732696533203,0.253781789162305,-0.36875176911015595,-89.80768613593652,-3.7449298,2.2036304,1.2477123,21.831875,-19.48968,-4.2550554,-1.7503463,-4.081982,-5.792304,20.551363,-20.066511,5.0371323,-2.751926,2.917368,5.5089784,0.028818477,16.801533,-45.633186,53.223465,0.1503644,1.8905895,5.2748322,-4.5985913,-14.94382,37.329147,58.075867,5.3180566,13.941877,-4.786702
179,0.1542717069387436,1.0898363590240479,76.87545013427734,0.2555178899324492,-0.37421132663736734,-89.80355996183391,-3.730415,2.2001483,1.2519715,21.829657,-19.497913,-4.253047,-1.7371724,-4.090135,-5.8001003,20.559635,-20.085814,5.0396557,-2.7438037,2.9205184,5.516047,0.040360715,16.797382,-45.63141,53.2084,0.14861538,1.8935267,5.275342,-4.5962343,-14.953617,37.329983,58.072456,5.3200936,13.930639,-4.7965045
180,0.15597893297672272,1.0834050178527832,76.87380981445312,0.2536210910001879,-0.37579034571674835,-89.80048557103497,-3.7244601,2.2004704,1.2542112,21.835495,-19.509531,-4.2513437,-1.728215,-4.092728,-5.805916,20.564034,-20.098433,5.0410166,-2.7321897,2.9289553,5.521418,0.047865264,16.788984,-45.629368,53.19381,0.14774431,1.8961364,5.277378,-4.59679,-14.9708,37.34546,58.06323,5.3361773,13.929066,-4.8064017
181,0.1580873429775238,1.076770305633545,76.87147521972656,0.24849969472757022,-0.3717045666424541,-89.7994263929256,-3.7303605,2.2060318,1.2544163,21.85181,-19.525587,-4.2498364,-1.7265851,-4.087151,-5.8078766,20.564463,-20.101051,5.040823,-2.713527,2.9413915,5.5215077,0.052835174,16.780294,-45.630356,53.176514,0.14530368,1.8998108,5.282643,-4.6090665,-14.987267,37.389755,58.060383,5.37793,13.939756,-4.8217535
182,0.15978065133094788,1.0689990520477295,76.86965942382812,0.2397973118391788,-0.36395432784659104,-89.8002513768559,-3.745069,2.2160428,1.2541624,21.877369,-19.54614,-4.2484493,-1.7296184,-4.0754538,-5.8071647,20.562078,-20.097082,5.0392504,-2.6942647,2.9576125,5.5177155,0.059924386,16.770506,-45.62702,53.15557,0.14268893,1.9040456,5.2906346,-4.6245365,-15.005206,37.456005,58.055794,5.436262,13.959644,-4.843644
183,0.16208021342754364,1.061915397644043,76.86763000488281,0.2301192515840363,-0.3548045754168737,-89.80100889938576,-3.7626524,2.2272937,1.2526244,21.905804,-19.567976,-4.2474747,-1.7330238,-4.062239,-5.806786,20.557074,-20.091627,5.0371823,-2.6840675,2.979064,5.5134516,0.071018726,16.755444,-45.613476,53.13285,0.14178908,1.9073309,5.2988434,-4.641368,-15.030875,37.526493,58.048054,5.492684,13.982381,-4.8614435
184,0.16289600729942322,1.0540552139282227,76.86572265625,0.22119135290518213,-0.3464548187810336,-89.7996756855291,-3.7779508,2.2365873,1.2488768,21.932158,-19.588243,-4.2474275,-1.7323695,-4.051898,-5.81002,20.549467,-20.089132,5.0354247,-2.6749241,2.99747,5.510281,0.081998214,16.74481,-45.605015,53.107937,0.1386759,1.9093547,5.3049755,-4.65042,-15.046641,37.545563,58.046146,5.503977,13.999817,-4.864421
185,0.16559068858623505,1.044479489326477,76.86602783203125,0.2129578088341006,-0.33954379692913567,-89.79573078469609,-3.7913196,2.2431684,1.2424259,21.958242,-19.607946,-4.249416,-1.72674,-4.0458646,-5.818216,20.539824,-20.092123,5.0330553,-2.6835277,3.0134602,5.504611,0.10409648,16.739437,-45.593315,53.076416,0.12815443,1.9096214,5.309765,-4.6534996,-15.052279,37.519974,58.055977,5.4624724,14.01263,-4.84884
186,0.1686149686574936,1.0350323915481567,76.86559295654297,0.20465109998108666,-0.3333898085635076,-89.79069649124048,-3.803409,2.249976,1.2339265,21.984282,-19.627354,-4.253067,-1.7173258,-4.040401,-5.8293767,20.526861,-20.097075,5.0298114,-2.6767373,3.0320249,5.5094104,0.107208245,16.724497,-45.585815,53.05324,0.13216501,1.9093962,5.3080716,-4.6408954,-15.064058,37.41184,58.051624,5.355333,14.0259,-4.8052473
187,0.16891561448574066,1.0297977924346924,76.86376953125,0.19673069880551775,-0.32667478077870366,-89.78388106783189,-3.8162177,2.2553763,1.2236111,22.010624,-19.64624,-4.2558208,-1.7061065,-4.0363064,-5.8422914,20.511042,-20.102045,5.0281653,-2.6748173,3.0490932,5.5085073,0.11385294,16.711262,-45.586655,53.03279,0.12503994,1.9067798,5.309944,-4.6260333,-15.069804,37.30509,58.053085,5.2549686,14.033777,-4.7666097
188,0.16928450763225555,1.019014835357666,76.86275482177734,0.18830108234219475,-0.31906506388802885,-89.7749144634556,-3.830769,2.25932,1.2115169,22.037918,-19.664782,-4.2552314,-1.6951444,-4.032809,-5.855724,20.494574,-20.105562,5.0303807,-2.6799734,3.0647135,5.50407,0.12850028,16.70209,-45.58566,53.01085,0.11418835,1.9015529,5.3156147,-4.623633,-15.071975,37.23733,58.062035,5.2009664,14.0337515,-4.7464566
189,0.1700722873210907,1.008659839630127,76.86203002929688,0.18253583366498985,-0.30986461826851075,-89.76442751046378,-3.8480105,2.262158,1.1978507,22.067335,-19.683207,-4.249641,-1.6832874,-4.028779,-5.8688755,20.473103,-20.10493,5.0384717,-2.677798,3.0767705,5.4967175,0.13406388,16.69106,-45.59338,53.005543,0.09571948,1.8888749,5.32477,-4.6158614,-15.074515,37.192886,58.059322,5.196398,14.020959,-4.7488217
190,0.17363189160823822,0.9986827373504639,76.86067199707031,0.17525380247636618,-0.2992888072068048,-89.75193591753487,-3.8676302,2.2636542,1.1820488,22.098274,-19.701267,-4.240682,-1.6704031,-4.0250416,-5.883009,20.447617,-20.101866,5.050859,-2.6851354,3.0894372,5.485969,0.14916888,16.68216,-45.596333,52.996925,0.071655765,1.8721443,5.3376894,-4.616746,-15.077191,37.181396,58.060143,5.2338448,13.998285,-4.7671075
191,0.17685143649578094,0.9864843487739563,76.85858917236328,0.17214414685397672,-0.28993498498608195,-89.73933725082374,-3.8828504,2.2617595,1.1676173,22.123184,-19.71677,-4.2306333,-1.6590787,-4.024945,-5.8955727,20.428604,-20.101952,5.0642653,-2.6934295,3.093588,5.47866,0.16019434,16.681059,-45.596714,52.99165,0.053119484,1.8572843,5.347145,-4.6207232,-15.077563,37.180496,58.055794,5.278479,13.978549,-4.7875934
192,0.18136002123355865,0.9741324782371521,76.85567474365234,0.16490387993508945,-0.281055708369036,-89.72157154710784,-3.8993936,2.262492,1.1482499,22.150873,-19.734438,-4.2231674,-1.6435546,-4.022187,-5.9139986,20.405273,-20.100407,5.0741463,-2.7105606,3.1094656,5.4691973,0.18160489,16.67091,-45.599575,52.984993,0.046604063,1.846103,5.361484,-4.6285896,-15.081173,37.183643,58.061256,5.3140726,13.965415,-4.809717
193,0.18430759012699127,0.9595563411712646,76.85346984863281,0.16128197823721563,-0.27552711177338646,-89.70198011718557,-3.9061692,2.260266,1.1297854,22.166636,-19.74828,-4.2181387,-1.6270828,-4.023666,-5.933023,20.389933,-20.103615,5.0807176,-2.7303884,3.1187136,5.4656305,0.19804819,16.663668,-45.599934,52.982597,0.06308016,1.8453918,5.3719397,-4.628081,-15.082971,37.17599,58.05374,5.3106275,13.973603,-4.8256855
194,0.18661826848983765,0.9474989771842957,76.85247802734375,0.1573072638316703,-0.27170331485941734,-89.67951688322286,-3.908772,2.256962,1.1099296,22.177444,-19.760721,-4.2144265,-1.6083623,-4.026694,-5.9542675,20.37634,-20.108114,5.0854335,-2.7504807,3.1255252,5.4658747,0.21254872,16.659378,-45.602962,52.981194,0.09445316,1.8509611,5.382182,-4.6357055,-15.083856,37.171993,58.05076,5.3006682,13.992829,-4.841873
195,0.18803876638412476,0.9369823336601257,76.85272979736328,0.15582359808062446,-0.2687643409649086,-89.65742310338138,-3.907226,2.251022,1.0916289,22.181847,-19.770407,-4.2110815,-1.5915163,-4.032474,-5.9741116,20.36853,-20.115332,5.0889583,-2.7699368,3.1323085,5.465887,0.2238471,16.64887,-45.609577,52.988438,0.12874927,1.8586483,5.3897586,-4.6348276,-15.085044,37.158573,58.04166,5.2764544,14.012785,-4.8530574
196,0.19098611176013947,0.925531268119812,76.8530044555664,0.15964198828944515,-0.26600539910088744,-89.63933613124135,-3.9019845,2.240718,1.0782176,22.179111,-19.77652,-4.2071853,-1.5828238,-4.0426793,-5.9882884,20.374336,-20.128145,5.0919003,-2.7838514,3.1335027,5.4663877,0.22602853,16.636654,-45.62135,53.007812,0.15271077,1.8633574,5.38919,-4.6380367,-15.085717,37.14624,58.036156,5.26278,14.021329,-4.8547254
197,0.19393573701381683,0.9160082936286926,76.85210418701172,0.16682502690850903,-0.2630200898083471,-89.62667044747643,-3.8936307,2.2265012,1.070577,22.169403,-19.778728,-4.203094,-1.5825487,-4.0564866,-5.9949856,20.391945,-20.14469,5.094622,-2.80348,3.1289513,5.469077,0.23467755,16.635368,-45.62371,53.0189,0.16564687,1.8657442,5.3752956,-4.6437945,-15.085713,37.14381,58.030266,5.2610664,14.013623,-4.8463936
198,0.1956760585308075,0.9057964086532593,76.85154724121094,0.18237643005057264,-0.2610461939538989,-89.61502949353745,-3.8779533,2.2017305,1.0662671,22.146046,-19.773596,-4.197714,-1.5925881,-4.081118,-5.9973474,20.431778,-20.171604,5.098188,-2.8137233,3.1176717,5.4706483,0.23373018,16.623487,-45.63997,53.047867,0.17515115,1.865626,5.3535914,-4.655045,-15.084642,37.126015,58.03552,5.258975,13.994416,-4.820484
199,0.20023693144321442,0.8937603831291199,76.84913635253906,0.19760375802386873,-0.2590986570471206,-89.60678746173099,-3.8605857,2.178184,1.0656158,22.12014,-19.767986,-4.19262,-1.6040909,-4.1047616,-5.9966984,20.472578,-20.198875,5.099435,-2.820256,3.106461,5.4719877,0.22411418,16.606916,-45.66094,53.08713,0.17590185,1.8664229,5.3315535,-4.6652308,-15.082411,37.11236,58.039127,5.2598157,13.973809,-4.795635
200,0.20745590329170227,0.8830214142799377,76.84795379638672,0.21188906771098848,-0.25711410202083035,-89.60078369164174,-3.8410058,2.1566105,1.067864,22.090876,-19.761786,-4.1873255,-1.614269,-4.1272063,-5.9956837,20.511045,-20.226414,5.0973344,-2.8314211,3.097686,5.4748135,0.22123514,16.596117,-45.677853,53.112846,0.16965164,1.8709637,5.3158526,-4.672018,-15.080393,37.105507,58.033054,5.252465,13.95996,-4.776495
201,0.21401959657669067,0.8722712397575378,76.84596252441406,0.22505593872396534,-0.25548455277475723,-89.59654047594752,-3.8179026,2.1382482,1.0736012,22.057377,-19.755249,-4.181682,-1.6218222,-4.1476355,-5.99531,20.54632,-20.25511,5.088437,-2.841211,3.0912085,5.4803367,0.21668886,16.588577,-45.70139,53.132805,0.1489713,1.8812041,5.310859,-4.686161,-15.078905,37.109406,58.02691,5.24432,13.954212,-4.7632685
202,0.21813353896141052,0.8599465489387512,76.84485626220703,0.23514171497735273,-0.2542246653693623,-89.59428551994212,-3.7915394,2.1207879,1.082837,22.018806,-19.747536,-4.1756473,-1.6296135,-4.167759,-5.9942245,20.583014,-20.286276,5.0745907,-2.8500643,3.0867195,5.484323,0.21024075,16.579842,-45.734516,53.15372,0.1128567,1.8954033,5.3137693,-4.6909676,-15.076723,37.1123,58.010998,5.224516,13.952934,-4.7537227
203,0.2204188108444214,0.8489215970039368,76.84491729736328,0.2483486343914374,-0.25230009995851843,-89.59510745824238,-3.7642844,2.1035547,1.0943795,21.978493,-19.73918,-4.1697063,-1.638386,-4.188271,-5.9908648,20.619305,-20.316687,5.0622487,-2.8534305,3.0817478,5.488034,0.20048976,16.571444,-45.76893,53.174435,0.07650444,1.908762,5.3169107,-4.6951146,-15.074589,37.116024,57.99281,5.2064447,13.953888,-4.747043
204,0.22427186369895935,0.838394820690155,76.84402465820312,0.2600159784115297,-0.24925197133089105,-89.59967092962574,-3.7400079,2.08533,1.1068366,21.942387,-19.732079,-4.164256,-1.6489497,-4.209725,-5.9840107,20.653858,-20.343588,5.0577273,-2.8507304,3.076942,5.49211,0.19254391,16.564367,-45.793087,53.186935,0.05690399,1.9184111,5.3149047,-4.703852,-15.073113,37.123405,57.975914,5.20047,13.956606,-4.74331
205,0.22739188373088837,0.8218583464622498,76.8421859741211,0.27510800229532645,-0.24350364190370016,-89.60915614029639,-3.719223,2.0641263,1.1196167,21.907818,-19.724377,-4.1593547,-1.6647022,-4.2343626,-5.9723096,20.68979,-20.36693,5.0646734,-2.8410935,3.0711348,5.492601,0.1854301,16.556034,-45.806625,53.196674,0.056567416,1.922156,5.304886,-4.7053847,-15.0719385,37.12904,57.951057,5.2000127,13.961536,-4.745158
206,0.23627963662147522,0.8177704811096191,76.84164428710938,0.2914318130446122,-0.2360287433545501,-89.62272878570496,-3.7008395,2.0412436,1.1334563,21.875008,-19.716778,-4.154828,-1.6843089,-4.2611227,-5.9568057,20.727196,-20.388248,5.078987,-2.827172,3.0652056,5.492177,0.17899078,16.54739,-45.809235,53.202282,0.07066203,1.9226131,5.2896113,-4.704596,-15.071544,37.135338,57.92052,5.203386,13.969173,-4.7508936
207,0.2446453720331192,0.8149446845054626,76.84219360351562,0.30711497702584645,-0.22899382778992547,-89.63867059371671,-3.682815,2.0201924,1.1492178,21.845337,-19.710907,-4.150628,-1.7011186,-4.285717,-5.9396067,20.758486,-20.406166,5.095758,-2.8093493,3.060164,5.4934587,0.17322454,16.542816,-45.808044,53.20072,0.089704715,1.9204422,5.2736406,-4.7067056,-15.07165,37.14314,57.892372,5.2127438,13.9773245,-4.7572746
208,0.25012925267219543,0.7996271252632141,76.84164428710938,0.3173691975622498,-0.22420766290790387,-89.6555334927442,-3.662906,2.0049312,1.1678712,21.819761,-19.708323,-4.146789,-1.7081095,-4.303874,-5.922631,20.775452,-20.41926,5.110007,-2.7972393,3.0592186,5.4946666,0.16879587,16.534134,-45.80239,53.19989,0.105242215,1.9165713,5.2626624,-4.708855,-15.072321,37.15639,57.871582,5.2195277,13.984506,-4.7635264
209,0.2536221444606781,0.7836308479309082,76.84281158447266,0.3250252680651086,-0.22325907436187487,-89.67307760693957,-3.6398304,1.9974035,1.1904272,21.799278,-19.709808,-4.143342,-1.7009748,-4.313397,-5.90633,20.773098,-20.426434,5.1207976,-2.7835479,3.0610807,5.4983773,0.16336235,16.528982,-45.799515,53.195393,0.114389986,1.9094828,5.2560782,-4.713213,-15.072699,37.16951,57.86162,5.2248845,13.989976,-4.767959
210,0.259547621011734,0.7726508378982544,76.84234619140625,0.3271838729368556,-0.22462202820130941,-89.69211960657631,-3.6153615,1.9950708,1.2161525,21.78391,-19.71466,-4.140279,-1.6844358,-4.317084,-5.8896728,20.756454,-20.428497,5.1307383,-2.7760737,3.067124,5.50134,0.16037224,16.520473,-45.7906,53.19067,0.12077232,1.8988864,5.252905,-4.716075,-15.072628,37.19066,57.85749,5.228986,13.995053,-4.774043
211,0.26696115732192993,0.7608401775360107,76.84172821044922,0.32864918542093735,-0.22635237019138885,-89.71206932773548,-3.5904517,1.9957455,1.2430017,21.770027,-19.72135,-4.137451,-1.6647305,-4.317517,-5.8727374,20.734205,-20.42794,5.1398053,-2.7628453,3.0736995,5.505987,0.15566146,16.516344,-45.785336,53.18149,0.12701829,1.8881546,5.2529035,-4.719865,-15.072278,37.203125,57.857456,5.2326245,13.99892,-4.7776055
212,0.2727329730987549,0.7485505938529968,76.84000396728516,0.3281558114233644,-0.22603714634719582,-89.73213011515828,-3.5669303,1.997185,1.2686305,21.755228,-19.728209,-4.134818,-1.6483325,-4.3173213,-5.8557644,20.714384,-20.426561,5.1482263,-2.7507277,3.0819178,5.5095434,0.15237914,16.513334,-45.778675,53.171516,0.13516212,1.8784914,5.257303,-4.7221146,-15.071692,37.20951,57.856438,5.237008,14.00137,-4.7782426
213,0.2775205373764038,0.7338468432426453,76.8415298461914,0.3276706326749161,-0.22339140573361335,-89.7532177863861,-3.5437443,1.999866,1.294031,21.737068,-19.735191,-4.131521,-1.6367804,-4.315981,-5.8380523,20.698591,-20.423742,5.155754,-2.7452674,3.0938761,5.513372,0.1516459,16.50778,-45.759872,53.162724,0.15277945,1.8699093,5.268144,-4.722273,-15.069541,37.20599,57.854424,5.2340493,14.001496,-4.772308
214,0.2833065986633301,0.7198238968849182,76.84186553955078,0.32540513768704904,-0.21920328839438133,-89.77550029141456,-3.5217009,2.0044727,1.3199784,21.719501,-19.743763,-4.1278787,-1.6265697,-4.3127146,-5.819608,20.682028,-20.41865,5.162446,-2.7354913,3.1077087,5.517657,0.14828008,16.502773,-45.742382,53.154015,0.17392142,1.8620853,5.2848477,-4.7216363,-15.066464,37.19008,57.85396,5.2292323,13.999449,-4.7607136
215,0.2871623635292053,0.7054940462112427,76.84149932861328,0.3220738108532849,-0.21421956865760816,-89.79641674525143,-3.501094,2.0095854,1.3433517,21.703003,-19.752726,-4.1254716,-1.6167583,-4.3087554,-5.8025184,20.665018,-20.413315,5.1685886,-2.727744,3.1220965,5.518784,0.14683631,16.500753,-45.731674,53.14498,0.18621473,1.8539534,5.303301,-4.7175164,-15.064633,37.176968,57.852158,5.2311006,13.997463,-4.7525687
216,0.2946641445159912,0.6905650496482849,76.84142303466797,0.3194717208680244,-0.2091132867421096,-89.81341272736836,-3.482841,2.0136912,1.361072,21.68934,-19.76109,-4.12593,-1.6052005,-4.30565,-5.78892,20.64681,-20.410036,5.17457,-2.723581,3.1341808,5.521178,0.14280103,16.498407,-45.718433,53.142223,0.19459216,1.8439467,5.3134093,-4.71654,-15.061831,37.161644,57.85106,5.2334504,13.997575,-4.7502027
217,0.29744186997413635,0.6749014854431152,76.84207916259766,0.316349292782898,-0.2046558580239967,-89.82494257402,-3.4673235,2.017091,1.3697104,21.680687,-19.768803,-4.1318955,-1.5881844,-4.3026567,-5.780827,20.622644,-20.408003,5.180299,-2.7280111,3.144161,5.522228,0.13855936,16.496624,-45.705097,53.14647,0.1892988,1.8283839,5.314311,-4.7138886,-15.058546,37.150677,57.848072,5.2355137,14.0016165,-4.7571635
218,0.30225080251693726,0.6604275107383728,76.84207916259766,0.3130703092276939,-0.2002326575093027,-89.83263768982691,-3.4547558,2.0200927,1.3719213,21.677017,-19.77718,-4.1416326,-1.5696568,-4.299909,-5.7763968,20.598267,-20.408707,5.185678,-2.7370334,3.1526902,5.521697,0.13455132,16.495485,-45.693245,53.15525,0.17328247,1.8091633,5.310444,-4.717037,-15.054578,37.14926,57.84997,5.250242,14.008023,-4.771127
219,0.3073931038379669,0.6462840437889099,76.84111785888672,0.3107523503545442,-0.19451405271810096,-89.83892092951086,-3.4436069,2.0220175,1.3732997,21.672285,-19.784657,-4.1506047,-1.5526803,-4.2980328,-5.7726665,20.574284,-20.40911,5.190913,-2.7539635,3.161379,5.518307,0.13417214,16.495216,-45.68216,53.165466,0.15408921,1.7929587,5.3042693,-4.714329,-15.050541,37.150665,57.84719,5.263061,14.01351,-4.7900386
220,0.31012579798698425,0.629980742931366,76.84100341796875,0.3093969863852359,-0.18682224850483323,-89.8458623043389,-3.4333267,2.022271,1.3791317,21.664068,-19.792135,-4.154185,-1.5426466,-4.2977533,-5.7668524,20.557997,-20.409847,5.1960917,-2.7739155,3.1690319,5.515633,0.1327782,16.495611,-45.672882,53.17831,0.14319523,1.7847292,5.2960725,-4.7260227,-15.044814,37.167202,57.85342,5.2944484,14.014615,-4.810797
221,0.31398770213127136,0.6166885495185852,76.84158325195312,0.309320245802663,-0.17525356943239837,-89.8547948987527,-3.4247324,2.019954,1.3927054,21.650211,-19.799757,-4.148943,-1.5438068,-4.2995124,-5.7565928,20.552774,-20.411074,5.2004185,-2.7898164,3.1758091,5.511208,0.12763852,16.496252,-45.674313,53.194427,0.13950875,1.7898352,5.2865396,-4.733353,-15.0413065,37.186855,57.851448,5.337159,14.010283,-4.835821
222,0.3217754065990448,0.6017285585403442,76.84095764160156,0.3104480040624871,-0.16063468571951406,-89.86366300659944,-3.4173,2.0155447,1.4099827,21.631262,-19.806288,-4.1380677,-1.5521655,-4.30328,-5.7445135,20.553951,-20.41224,5.2041864,-2.8151011,3.1829803,5.5012584,0.12821719,16.497322,-45.67952,53.21244,0.1341248,1.8029754,5.276913,-4.75193,-15.036326,37.233837,57.861015,5.4065466,14.000911,-4.8697896
223,0.3319253921508789,0.5876767039299011,76.84071350097656,0.31242902365717445,-0.14604358769246756,-89.87264789947879,-3.4113674,2.0104005,1.4281381,21.614677,-19.814026,-4.126838,-1.5626804,-4.307844,-5.7323155,20.559189,-20.414549,5.208988,-2.8375123,3.1893601,5.495749,0.123318486,16.498152,-45.688423,53.232693,0.13715918,1.8198235,5.2652397,-4.7644086,-15.03375,37.265915,57.85924,5.463384,13.99094,-4.8981395
224,0.33822101354599,0.5734288692474365,76.83821868896484,0.31327639135716034,-0.13330602285641824,-89.88073771905964,-3.4056573,2.0053003,1.4433789,21.602173,-19.821947,-4.1203547,-1.5699593,-4.313107,-5.7227426,20.563395,-20.41747,5.2165956,-2.8694363,3.197,5.49049,0.1226471,16.499292,-45.700413,53.251637,0.13834888,1.8347204,5.25771,-4.780691,-15.030826,37.30048,57.860737,5.5137587,13.981334,-4.919531
225,0.3399767279624939,0.5603510141372681,76.8379135131836,0.3156081515111855,-0.12414220415742247,-89.88653981066443,-3.399132,2.0002897,1.4536103,21.594748,-19.82999,-4.1217637,-1.5708699,-4.3192253,-5.71771,20.564787,-20.420671,5.2278666,-2.9066958,3.2037768,5.4937496,0.119654834,16.499865,-45.707893,53.271362,0.15381838,1.8487693,5.249502,-4.7910137,-15.029855,37.3083,57.848324,5.5307593,13.974552,-4.925081
226,0.34739476442337036,0.5471503138542175,76.83618927001953,0.31673512363334716,-0.11681734074866412,-89.89071780150817,-3.392815,1.9946245,1.4609799,21.590403,-19.837969,-4.1276855,-1.5687888,-4.326265,-5.7156386,20.565718,-20.424217,5.241716,-2.9530463,3.2106109,5.498336,0.11770227,16.50116,-45.722565,53.29312,0.16812818,1.8636395,5.2445507,-4.798671,-15.027449,37.314228,57.83117,5.5365844,13.968282,-4.9250393
227,0.35621824860572815,0.533987283706665,76.83484649658203,0.3190193252387706,-0.10988582692402346,-89.89665101317811,-3.3875456,1.9895685,1.4692992,21.589602,-19.847052,-4.1338487,-1.5675713,-4.33367,-5.7126474,20.568306,-20.428797,5.2570925,-2.9936488,3.2169554,5.503225,0.11204166,16.503202,-45.747555,53.314873,0.17903554,1.8764846,5.2422976,-4.8082595,-15.023686,37.314262,57.818893,5.5399747,13.9609165,-4.9200177
228,0.3616688549518585,0.5209288001060486,76.83297729492188,0.3197365356227282,-0.10190637651899796,-89.90759767956764,-3.3847167,1.9861722,1.4821272,21.593922,-19.859396,-4.135861,-1.5707371,-4.3404574,-5.705061,20.575167,-20.43542,5.272817,-3.031453,3.224843,5.5092826,0.107211515,16.50468,-45.766144,53.330704,0.19122185,1.8839554,5.2404675,-4.814877,-15.021167,37.311035,57.806873,5.5341496,13.953151,-4.911547
229,0.36851194500923157,0.5074201822280884,76.83136749267578,0.3212610237187238,-0.09316088026080531,-89.92518358938278,-3.3834963,1.9841607,1.500966,21.603134,-19.874542,-4.131932,-1.5795178,-4.347737,-5.6915193,20.588373,-20.445261,5.290737,-3.0438166,3.2311776,5.513106,0.09102899,16.509516,-45.818108,53.345974,0.18474802,1.883007,5.2464633,-4.826148,-15.013136,37.300556,57.81242,5.5382366,13.941889,-4.899936
230,0.3751540184020996,0.4961826801300049,76.8294448852539,0.3240414839028249,-0.08428120992372226,-89.94714067949255,-3.3837948,1.9832356,1.5233337,21.6173,-19.892326,-4.1245675,-1.5911549,-4.355314,-5.674467,20.605206,-20.45698,5.310722,-3.063562,3.2400079,5.5205626,0.080838494,16.51342,-45.85492,53.352924,0.18292604,1.8752313,5.2532973,-4.8404164,-15.007327,37.295002,57.819466,5.534198,13.930328,-4.882302
231,0.3789960741996765,0.4846569299697876,76.82616424560547,0.3251940385947296,-0.0741216066406856,-89.9718793652484,-3.3866806,1.9841466,1.5482917,21.634382,-19.911766,-4.116066,-1.6060266,-4.361087,-5.654709,20.623568,-20.469076,5.328788,-3.075505,3.2490976,5.526015,0.0665895,16.517912,-45.896908,53.35856,0.1770732,1.8676012,5.260288,-4.854771,-15.001312,37.29049,57.830116,5.5332265,13.918288,-4.865583
232,0.38563987612724304,0.47355586290359497,76.82451629638672,0.32314743462590156,-0.06152270018725267,-89.99728533784634,-3.393078,1.9880491,1.574135,21.653055,-19.932632,-4.10882,-1.62382,-4.36268,-5.6336007,20.641531,-20.480017,5.340898,-3.0924335,3.2608786,5.5305686,0.054931626,16.519625,-45.915695,53.359818,0.18249533,1.8662578,5.2602553,-4.864216,-14.999361,37.29136,57.831646,5.526929,13.909221,-4.852948
233,0.39064082503318787,0.4616610109806061,76.82129669189453,0.3191019050770114,-0.04501446732596185,-90.02243369913505,-3.406505,1.9968815,1.6004472,21.675245,-19.956015,-4.103358,-1.6459106,-4.3573685,-5.612134,20.657183,-20.487812,5.3431773,-3.0974228,3.273747,5.5285645,0.03471478,16.523186,-45.945885,53.362423,0.1836844,1.8755604,5.254528,-4.8699803,-14.99568,37.294895,57.83259,5.5304117,13.9007435,-4.8494554
234,0.3967103958129883,0.4494333267211914,76.81925964355469,0.31206937726384104,-0.02528676744192649,-90.04908057027409,-3.426218,2.0097451,1.6285529,21.703089,-19.983187,-4.098478,-1.6728323,-4.3472056,-5.588818,20.67364,-20.494785,5.338713,-3.1005697,3.289203,5.5244217,0.013129404,16.52541,-45.96333,53.362026,0.19095878,1.8912227,5.2417383,-4.8721113,-14.9936695,37.300632,57.828613,5.5332117,13.892694,-4.849677
235,0.4034841060638428,0.437398761510849,76.815673828125,0.3051423019831603,-0.0060064325845532,-90.0766631803026,-3.44333,2.0221448,1.657264,21.72719,-20.008247,-4.0937448,-1.6993753,-4.3367896,-5.563963,20.69001,-20.501822,5.333938,-3.1022177,3.3036332,5.5194106,-0.006386005,16.527466,-45.975555,53.357693,0.20110951,1.906933,5.231082,-4.871832,-14.992044,37.306805,57.824043,5.530497,13.888663,-4.851339
236,0.4043501317501068,0.42747458815574646,76.81526947021484,0.30195923194845603,0.010837895179393141,-90.10621497281532,-3.453946,2.0303211,1.6867876,21.745953,-20.029993,-4.0888386,-1.7223233,-4.330457,-5.5363955,20.705563,-20.510115,5.3351254,-3.0983915,3.313442,5.5141997,-0.027651023,16.530693,-45.991226,53.351868,0.2032557,1.9176186,5.2297664,-4.870104,-14.989617,37.31547,57.821754,5.528008,13.891147,-4.855392
237,0.4089186489582062,0.41340208053588867,76.81391143798828,0.3028223368591631,0.02397731551906401,-90.13872746572363,-3.4541075,2.0322874,1.7171006,21.754396,-20.04508,-4.0843267,-1.7412429,-4.329801,-5.5046587,20.721722,-20.520998,5.3456645,-3.0932643,3.3172605,5.5102563,-0.040731397,16.534872,-45.99556,53.337124,0.21189557,1.9209663,5.2408805,-4.8644686,-14.986587,37.31951,57.816723,5.4998484,13.907914,-4.8551373
238,0.4132245182991028,0.4002353549003601,76.81181335449219,0.3068401173952513,0.035296542740776995,-90.17381304535107,-3.448345,2.0302548,1.7485884,21.757248,-20.056383,-4.0801125,-1.7582221,-4.332602,-5.469297,20.73814,-20.533417,5.3616138,-3.086313,3.3168063,5.5085077,-0.048784617,16.540478,-45.986927,53.313023,0.22710572,1.920952,5.258913,-4.8641963,-14.983189,37.325043,57.815834,5.460058,13.934733,-4.8530617
