unveil-humanoid-operators/unveil-humanoid-operators.github.io/feature-analysis-animation/data/feature_matrix_instances/height_root_translate_peak_vel_walking_A040_arc_walk_left_loop_003__A040.csv
Frame,root_translateX,root_translateY,root_translateZ,root_rotateX,root_rotateY,root_rotateZ,left_hip_pitch_joint_dof,left_hip_roll_joint_dof,left_hip_yaw_joint_dof,left_knee_joint_dof,left_ankle_pitch_joint_dof,left_ankle_roll_joint_dof,right_hip_pitch_joint_dof,right_hip_roll_joint_dof,right_hip_yaw_joint_dof,right_knee_joint_dof,right_ankle_pitch_joint_dof,right_ankle_roll_joint_dof,waist_yaw_joint_dof,waist_roll_joint_dof,waist_pitch_joint_dof,left_shoulder_pitch_joint_dof,left_shoulder_roll_joint_dof,left_shoulder_yaw_joint_dof,left_elbow_joint_dof,left_wrist_roll_joint_dof,left_wrist_pitch_joint_dof,left_wrist_yaw_joint_dof,right_shoulder_pitch_joint_dof,right_shoulder_roll_joint_dof,right_shoulder_yaw_joint_dof,right_elbow_joint_dof,right_wrist_roll_joint_dof,right_wrist_pitch_joint_dof,right_wrist_yaw_joint_dof
0,-2.7896459102630615,0.13808445632457733,78.15872955322266,-2.3690469245234644,-2.7113027687143347,6.9657310057526605,-0.0070992457,7.1358614,5.4341373,19.004541,-17.170664,-3.8718064,5.966941,-2.6660125,-18.796335,14.286677,-14.244943,3.7194817,0.15952288,3.8374016,9.231285,-9.212104,14.816308,-46.834404,61.68313,1.6237164,0.78516155,1.3678008,-9.446604,-13.844916,51.034164,61.538063,0.6573731,2.1066835,-5.755014
1,-2.786452054977417,0.1275508999824524,78.15692138671875,-2.2960533829214644,-2.672795467556838,6.886994478934151,0.053191,7.0681205,5.5272756,18.829475,-17.106855,-3.866089,5.75024,-2.7865498,-18.702324,14.634815,-14.402222,3.712916,0.2036384,3.7701647,9.213243,-9.190994,14.846474,-46.80144,61.668762,1.6405679,0.785301,1.3799314,-9.485906,-13.830952,51.06626,61.582237,0.6293166,2.097269,-5.717625
2,-2.7866568565368652,0.1192755401134491,78.15381622314453,-2.2208647348680843,-2.632538739770009,6.806171271590306,0.11527718,6.997083,5.622965,18.647467,-17.03998,-3.8589742,5.5288076,-2.909805,-18.604822,14.987391,-14.561506,3.7068644,0.26303294,3.7025745,9.190427,-9.187447,14.858418,-46.779377,61.67959,1.6546887,0.78430164,1.3943222,-9.513943,-13.827238,51.088326,61.61615,0.6005972,2.0871205,-5.677191
3,-2.782400608062744,0.10872762650251389,78.15119171142578,-2.1493440172116425,-2.595061560355687,6.729347840286003,0.17535992,6.9306054,5.7141557,18.476341,-16.977577,-3.854877,5.3183064,-3.0263345,-18.512905,15.326157,-14.713893,3.7008438,0.28843617,3.6402328,9.176756,-9.15586,14.889354,-46.72611,61.659435,1.6809226,0.78341264,1.4049364,-9.557698,-13.820396,51.138615,61.654106,0.57789874,2.0802736,-5.642377
4,-2.7746734619140625,0.09684335440397263,78.15008544921875,-2.08916580004839,-2.5649081344345515,6.66133819588178,0.22871877,6.8787827,5.794537,18.33531,-16.927862,-3.8583887,5.1360297,-3.1236775,-18.435478,15.627316,-14.847649,3.6942344,0.325831,3.5876067,9.167487,-9.150085,14.89977,-46.715546,61.680805,1.7080891,0.7764538,1.4127673,-9.587296,-13.81937,51.15685,61.67892,0.5531552,2.0799882,-5.617904
5,-2.765187978744507,0.08640260249376297,78.14720153808594,-2.0400373078160956,-2.543826059642139,6.60167100919335,0.2759596,6.84204,5.865323,18.2281,-16.892458,-3.8720121,4.9783225,-3.204832,-18.374065,15.902985,-14.96597,3.6876945,0.33988243,3.5455036,9.172462,-9.132715,14.916321,-46.705437,61.699684,1.7595994,0.7607199,1.414555,-9.625089,-13.818794,51.18222,61.69946,0.5325878,2.0911856,-5.603813
6,-2.757716178894043,0.07151944190263748,78.14430236816406,-1.999528635152067,-2.5295989019496568,6.548247241778607,0.3188463,6.816848,5.928849,18.145342,-16.867462,-3.892957,4.8401833,-3.2728453,-18.32441,16.156582,-15.071281,3.680994,0.3479667,3.5126038,9.185742,-9.118494,14.926613,-46.709003,61.73083,1.8256828,0.7388661,1.4130114,-9.664876,-13.819113,51.19942,61.7179,0.51196134,2.1100938,-5.5960474
7,-2.742673635482788,0.05208777263760567,78.13912200927734,-1.9687691179299494,-2.519552131073412,6.504266447862065,0.3539936,6.8043466,5.980105,18.08783,-16.853188,-3.9172952,4.730237,-3.3223343,-18.287148,16.367178,-15.15922,3.6732495,0.3431703,3.4869304,9.20328,-9.10262,14.94098,-46.720592,61.764675,1.8822739,0.7192181,1.4079981,-9.702001,-13.819839,51.216537,61.72857,0.5010932,2.1298566,-5.602469
8,-2.7320759296417236,0.035147879272699356,78.13136291503906,-1.9490294601568146,-2.511144613810773,6.473209357920003,0.37815306,6.805903,6.0140514,18.055996,-16.849857,-3.9411666,4.6585755,-3.3467786,-18.262953,16.511242,-15.22388,3.6630828,0.32776445,3.469622,9.220543,-9.085994,14.958611,-46.742306,61.796406,1.90719,0.71179724,1.3998578,-9.731198,-13.820801,51.229546,61.728714,0.50801325,2.1430464,-5.6286116
9,-2.717790365219116,0.014467936009168625,78.1234130859375,-1.9430071736905687,-2.5051302093114405,6.4613002737407355,0.38450143,6.823944,6.0223308,18.062426,-16.861967,-3.9619756,4.632584,-3.3421981,-18.256496,16.577251,-15.261338,3.6512246,0.29754367,3.4612021,9.238993,-9.076458,14.981461,-46.783695,61.832123,1.8798714,0.7215937,1.3862749,-9.752929,-13.821794,51.24081,61.716877,0.5459193,2.148212,-5.6901827
10,-2.6983888149261475,-0.013401680625975132,78.11858367919922,-1.949208378583651,-2.5023572436787354,6.46487108331559,0.3773929,6.8571105,6.010161,18.101377,-16.887358,-3.982288,4.645887,-3.3122234,-18.265966,16.577868,-15.274515,3.637663,0.25371423,3.4630609,9.259444,-9.071501,15.00339,-46.840614,61.873917,1.8183448,0.7438344,1.3686138,-9.76786,-13.822291,51.24862,61.69532,0.6048036,2.1493766,-5.779566
11,-2.6719284057617188,-0.040860891342163086,78.1166763305664,-1.9633485316365495,-2.500984854931261,6.472607684027945,0.36783636,6.9019465,5.9919715,18.151882,-16.9193,-4.006127,4.6845975,-3.2644038,-18.281942,16.53436,-15.272662,3.620477,0.2096788,3.469678,9.278304,-9.061803,15.030678,-46.90291,61.91165,1.751181,0.76898384,1.3503951,-9.774552,-13.822432,51.242676,61.667015,0.6592385,2.146177,-5.866764
12,-2.645528554916382,-0.06999008357524872,78.11656188964844,-1.9812260224600269,-2.4992127852758705,6.472927413557474,0.36986813,6.954544,5.9829617,18.187319,-16.94865,-4.0373836,4.7369757,-3.2048502,-18.294832,16.462252,-15.261883,3.597756,0.16557947,3.483122,9.292622,-9.042717,15.048596,-46.94227,61.95165,1.7122493,0.787945,1.3354789,-9.777001,-13.822414,51.225353,61.639156,0.68381256,2.1398747,-5.9216814
13,-2.6154465675354004,-0.09888270497322083,78.11602020263672,-2.004473556860458,-2.5013418208724945,6.465733357765402,0.39037585,7.0178237,5.9838767,18.205626,-16.976278,-4.078619,4.814412,-3.1293576,-18.308475,16.350094,-15.239243,3.568049,0.13632207,3.4985375,9.304131,-9.00602,15.078577,-46.977726,61.974346,1.7025914,0.80062014,1.3233572,-9.765429,-13.82271,51.169144,61.604607,0.6595187,2.127064,-5.927412
14,-2.582777500152588,-0.12687645852565765,78.11546325683594,-2.034331612813953,-2.50674001156416,6.4559696926002275,0.42122325,7.092431,5.988044,18.21936,-17.006062,-4.1272116,4.9197254,-3.0364356,-18.325378,16.191801,-15.201342,3.5328946,0.10895585,3.5203123,9.315362,-8.956743,15.110807,-47.00077,61.988186,1.713827,0.81165,1.311759,-9.74118,-13.823932,51.083458,61.55989,0.5972445,2.1095095,-5.9023027
15,-2.5427582263946533,-0.15906420350074768,78.11589050292969,-2.065798988624754,-2.5062318752853576,6.440633665133776,0.45229936,7.1712303,5.998229,18.22422,-17.033222,-4.1793227,5.0236616,-2.9367359,-18.335527,16.020887,-15.158998,3.4941614,0.07708376,3.5470386,9.318267,-8.904199,15.132264,-47.00545,62.009953,1.7361155,0.81775177,1.3044688,-9.722161,-13.825251,51.015682,61.522583,0.5427171,2.0916154,-5.871794
16,-2.4985852241516113,-0.19297724962234497,78.11683654785156,-2.093530026768429,-2.4906914069063952,6.415974428864663,0.47335956,7.247451,6.0180283,18.218212,-17.054518,-4.231323,5.096863,-2.841683,-18.328169,15.872892,-15.123869,3.4536645,0.05741653,3.5745244,9.310872,-8.859646,15.148767,-47.00903,62.030907,1.7543316,0.8222742,1.3033254,-9.708501,-13.826886,50.967426,61.49014,0.5143939,2.0790431,-5.858982
17,-2.469378709793091,-0.2253226935863495,78.11550903320312,-2.1207545677570767,-2.4578927049010266,6.383043934247518,0.48001996,7.3244724,6.045856,18.203876,-17.070868,-4.2838225,5.1408424,-2.7455366,-18.301332,15.736968,-15.088751,3.411752,0.056938868,3.6021125,9.29505,-8.821125,15.176598,-47.017555,62.03393,1.7613229,0.82300764,1.3069348,-9.692755,-13.831086,50.927128,61.45,0.5156949,2.073301,-5.8741865
18,-2.4374754428863525,-0.25603777170181274,78.1148452758789,-2.1487299243205586,-2.412444926455552,6.342878655477195,0.4784129,7.404246,6.0810533,18.181395,-17.08385,-4.338204,5.167645,-2.6456063,-18.260197,15.602501,-15.051746,3.3677645,0.057831302,3.6369262,9.2649,-8.791235,15.184811,-47.016815,62.055584,1.7656622,0.8185521,1.3182418,-9.688833,-13.832753,50.924335,61.424816,0.5552429,2.071688,-5.9070373
19,-2.3914992809295654,-0.28985416889190674,78.11722564697266,-2.169730650793145,-2.356025456153143,6.293006063672651,0.4728603,7.477844,6.1263466,18.145182,-17.089334,-4.3920474,5.166383,-2.5552702,-18.206387,15.497546,-15.028468,3.3209798,0.06311816,3.6654017,9.228773,-8.754534,15.2036295,-47.006138,62.059715,1.7759904,0.8135567,1.3322836,-9.684656,-13.837615,50.92981,61.3979,0.59333235,2.07154,-5.9372926
20,-2.3465306758880615,-0.32850226759910583,78.11849975585938,-2.1743760234791254,-2.290342506953421,6.230594088054522,0.47021228,7.534036,6.185724,18.08488,-17.081152,-4.442439,5.122265,-2.4915655,-18.14084,15.458986,-15.039254,3.2711887,0.069698244,3.6820984,9.191023,-8.712638,15.226026,-46.98379,62.04937,1.8000056,0.8154311,1.3511883,-9.690106,-13.844139,50.94334,61.38063,0.61441076,2.0724401,-5.9491568
21,-2.302495241165161,-0.36540454626083374,78.12020874023438,-2.1622311386398656,-2.2130358187839883,6.151916700129838,0.4692278,7.572235,6.261944,17.998966,-17.058226,-4.4889607,5.0307865,-2.4548264,-18.059744,15.489728,-15.087225,3.2163043,0.0947034,3.6848574,9.142627,-8.679095,15.237567,-46.960762,62.050934,1.8498143,0.8228832,1.3806279,-9.700234,-13.847884,50.951458,61.385086,0.6042481,2.0712972,-5.9291286
22,-2.265084743499756,-0.4020410180091858,78.12039947509766,-2.1377121733725977,-2.1244666014497047,6.059725208649437,0.46861452,7.597453,6.3522735,17.89032,-17.0227,-4.5330377,4.901144,-2.4372184,-17.964367,15.570626,-15.161283,3.1571789,0.112445876,3.6786757,9.092745,-8.628387,15.264592,-46.904343,62.02275,1.9265275,0.8355525,1.4156091,-9.719716,-13.856813,50.97544,61.394764,0.57247937,2.0713992,-5.888459
23,-2.2345852851867676,-0.4392431080341339,78.11842346191406,-2.099402908808846,-2.0287960459085954,5.959981717716808,0.46852982,7.6080303,6.4525685,17.765617,-16.977722,-4.5749545,4.7331734,-2.4430437,-17.861252,15.714427,-15.265542,3.0973365,0.14184666,3.6590269,9.040444,-8.590333,15.284366,-46.859127,62.005047,1.9943502,0.8474218,1.4476185,-9.7402115,-13.863088,50.992485,61.40808,0.5392335,2.0713828,-5.847773
24,-2.203484296798706,-0.4856802523136139,78.11634826660156,-2.046345307201909,-1.9307931036010477,5.858990297723096,0.4694802,7.60232,6.5581822,17.631683,-16.926983,-4.6149917,4.529395,-2.4759657,-17.757856,15.929236,-15.401816,3.0404844,0.16810477,3.623197,8.996609,-8.565084,15.302085,-46.824055,61.993027,2.029474,0.8545345,1.4640045,-9.772441,-13.868468,51.014587,61.41944,0.5309186,2.07191,-5.8267035
25,-2.1762051582336426,-0.5264302492141724,78.10977935791016,-1.9741215890635297,-1.8292962685686867,5.756888116537177,0.47215253,7.574135,6.6711025,17.484154,-16.868334,-4.651175,4.278121,-2.5455124,-17.654934,16.238382,-15.581306,2.9889326,0.1978097,3.5687,8.957464,-8.55789,15.308987,-46.809635,61.992527,2.010217,0.8582148,1.4598764,-9.804176,-13.870423,51.025204,61.42421,0.54134804,2.0749278,-5.8336554
26,-2.1473326683044434,-0.5742250084877014,78.09980773925781,-1.8840524809646542,-1.7225137656892864,5.650530764494433,0.4782752,7.5248017,6.793409,17.317528,-16.798851,-4.6839123,3.9836597,-2.6468678,-17.548294,16.626493,-15.796973,2.940568,0.20897621,3.4957492,8.929688,-8.541024,15.332689,-46.771416,61.965446,1.9673156,0.8599532,1.4378978,-9.850958,-13.875461,51.05725,61.421444,0.5712279,2.0800848,-5.856787
27,-2.1157314777374268,-0.6231513023376465,78.09048461914062,-1.7853094343643365,-1.6139780907168935,5.542652026391906,0.4823055,7.467535,6.918552,17.150549,-16.727839,-4.71763,3.6658926,-2.7619805,-17.438578,17.058998,-16.03185,2.8921812,0.22264186,3.411702,8.9079685,-8.53671,15.356187,-46.749935,61.94725,1.9177209,0.85677123,1.4109501,-9.898553,-13.878804,51.077805,61.412514,0.6016725,2.0840993,-5.8864517
28,-2.07938814163208,-0.6753600835800171,78.08100891113281,-1.6862981278930718,-1.5075369405215935,5.435452180467533,0.47987294,7.4145846,7.040769,16.999628,-16.663313,-4.7564893,3.3454225,-2.8739913,-17.32628,17.499489,-16.268665,2.8405385,0.2367254,3.3235464,8.895431,-8.553739,15.373342,-46.747536,61.95773,1.8914857,0.8434845,1.3877423,-9.947323,-13.880015,51.08478,61.395187,0.62526274,2.0838983,-5.9122553
29,-2.058169364929199,-0.7305042147636414,78.06953430175781,-1.5918609172524263,-1.4047286264588763,5.329242838331576,0.46478495,7.3729334,7.156838,16.87923,-16.612143,-4.8027687,3.0233762,-2.9767616,-17.21041,17.945305,-16.50088,2.7851014,0.23794137,3.2424035,8.888911,-8.575976,15.378689,-46.75531,61.988834,1.9106933,0.823748,1.3687463,-9.99714,-13.880174,51.08545,61.373405,0.6363696,2.0794325,-5.9346313
30,-2.0354599952697754,-0.7936519384384155,78.05504608154297,-1.473696810911641,-1.2973247336156357,5.215298522789979,0.45751044,7.306037,7.285337,16.731585,-16.544382,-4.8489976,2.6565235,-3.1133387,-17.07866,18.469442,-16.768873,2.7316062,0.25941256,3.121128,8.909539,-8.629089,15.424167,-46.802765,62.009426,1.9339285,0.79644305,1.3460956,-10.060725,-13.877376,51.051662,61.331722,0.64121217,2.0695944,-5.957078
31,-2.007309913635254,-0.859813392162323,78.04114532470703,-1.367478613077565,-1.1947823026137911,5.108127842464265,0.43714938,7.258234,7.4025254,16.621346,-16.495306,-4.9008293,2.3113408,-3.2277954,-16.956059,18.962748,-17.02314,2.6728923,0.2665408,3.011546,8.931768,-8.675432,15.467736,-46.846428,62.035614,1.9661857,0.76182926,1.3269465,-10.114305,-13.872026,51.015068,61.28117,0.63581693,2.059265,-5.9776516
32,-1.9726412296295166,-0.9327298998832703,78.02545166015625,-1.2752181678512875,-1.0977092944599838,5.010927410238545,0.4071046,7.231302,7.506556,16.546202,-16.465576,-4.9567137,2.0027997,-3.3147407,-16.849539,19.402052,-17.261175,2.6072571,0.26673454,2.9130445,8.957566,-8.729382,15.502797,-46.88682,62.081123,1.9825333,0.7160731,1.3166993,-10.1650915,-13.8665285,50.98798,61.22392,0.6407081,2.050076,-5.99401
33,-1.9446426630020142,-1.0067311525344849,78.00779724121094,-1.1974306386049172,-1.0079079278971927,4.927325317886708,0.36525267,7.226094,7.593429,16.512566,-16.459076,-5.01443,1.7325656,-3.37524,-16.764929,19.7915,-17.487787,2.5319664,0.25298923,2.8252962,8.990222,-8.786653,15.53651,-46.92374,62.139816,1.9762247,0.65117127,1.3188909,-10.206978,-13.859931,50.96321,61.15062,0.6425207,2.043549,-6.004565
34,-1.9120763540267944,-1.0856934785842896,77.98828125,-1.1283771573709505,-0.9238627328017933,4.853020627165284,0.3147103,7.2357416,7.668427,16.509993,-16.469767,-5.074408,1.4873438,-3.4185581,-16.694813,20.15071,-17.70813,2.4492602,0.24227822,2.7385952,9.03335,-8.842886,15.588599,-46.97841,62.183372,1.9501743,0.5754664,1.3297869,-10.244431,-13.848895,50.925354,61.065407,0.64150673,2.03682,-6.0105653
35,-1.86517333984375,-1.1732094287872314,77.96839141845703,-1.0718218140184192,-0.8425805104548382,4.7829538904070406,0.2540906,7.265896,7.735964,16.538809,-16.496264,-5.1415625,1.2697338,-3.4366937,-16.632544,20.46413,-17.912174,2.362825,0.22267383,2.6624422,9.077848,-8.900337,15.640755,-47.020786,62.235184,1.9186388,0.50035286,1.3425753,-10.2771635,-13.836895,50.89804,60.97369,0.6478445,2.0304916,-6.015493
36,-1.825472116470337,-1.2576203346252441,77.94593811035156,-1.0297673012302793,-0.761708395699336,4.711286913634731,0.1834957,7.3202744,7.8017454,16.597548,-16.536942,-5.220566,1.0804291,-3.424321,-16.570446,20.720661,-18.092018,2.2766612,0.20722951,2.6002882,9.119413,-8.944162,15.709902,-47.054337,62.258694,1.880358,0.45012918,1.3516809,-10.303056,-13.819989,50.87554,60.88428,0.66449755,2.023039,-6.0228224
37,-1.7858376502990723,-1.3475065231323242,77.9244384765625,-1.0004256847695594,-0.6839133880414852,4.635014311901443,0.11366311,7.397441,7.870499,16.67202,-16.588093,-5.3165593,0.9202372,-3.3824918,-16.504742,20.92389,-18.248686,2.191409,0.19175923,2.5545878,9.156598,-8.995528,15.765015,-47.083176,62.29411,1.8358649,0.4282265,1.3542572,-10.318086,-13.805544,50.87178,60.79103,0.699517,2.0151098,-6.037984
38,-1.7311370372772217,-1.4469988346099854,77.90689849853516,-0.9823721734982,-0.6094178754341628,4.557462726046082,0.042988844,7.4949694,7.9389095,16.763689,-16.649744,-5.4257736,0.78775406,-3.3149872,-16.439932,21.079826,-18.386612,2.1050138,0.17436458,2.510248,9.200516,-9.008276,15.888125,-47.111153,62.2445,1.7754486,0.43370637,1.3502585,-10.3369055,-13.771424,50.87501,60.705883,0.74231726,2.004789,-6.0587416
39,-1.6773442029953003,-1.5450955629348755,77.89027404785156,-0.9818845586591304,-0.5320644068716929,4.482852113763484,-0.055219088,7.61957,7.997928,16.911386,-16.734539,-5.5396476,0.681943,-3.2159379,-16.381393,21.176926,-18.500809,2.017203,0.15317668,2.4873288,9.236427,-9.020565,15.993767,-47.10516,62.21194,1.7200654,0.44449314,1.349111,-10.341351,-13.739922,50.879086,60.614285,0.78509456,1.9954715,-6.0735455
40,-1.6214019060134888,-1.6480141878128052,77.87128448486328,-1.0042657024383437,-0.446047144075555,4.41521239065567,-0.20505378,7.776293,8.039374,17.148752,-16.852669,-5.649468,0.6004538,-3.081665,-16.333752,21.20769,-18.588135,1.9277962,0.13037933,2.4862273,9.262949,-9.011599,16.110569,-47.045017,62.163242,1.6725844,0.45169917,1.3545244,-10.343771,-13.70382,50.882103,60.527405,0.83295995,1.986722,-6.0723677
41,-1.5651589632034302,-1.7475483417510986,77.85198974609375,-1.0431917992828206,-0.3569007180958243,4.347933963361561,-0.3841401,7.958559,8.075326,17.449137,-16.998158,-5.7540073,0.5505621,-2.9178805,-16.2895,21.17087,-18.651213,1.8360871,0.110810064,2.503985,9.279989,-8.987587,16.22112,-46.927383,62.114372,1.636161,0.4560966,1.3673669,-10.326754,-13.66811,50.871555,60.434727,0.8760861,1.9794382,-6.054245
42,-1.4945675134658813,-1.8559293746948242,77.83297729492188,-1.0982381830949874,-0.2656171438576264,4.281336908303614,-0.58782613,8.165997,8.105079,17.80376,-17.167116,-5.8572435,0.53090733,-2.7246487,-16.248816,21.07111,-18.691317,1.7425789,0.09719104,2.5412264,9.2885065,-8.957557,16.31802,-46.76797,62.07447,1.607626,0.4620159,1.3861607,-10.2971115,-13.635795,50.85843,60.338497,0.9287598,1.9730512,-6.023919
43,-1.4277664422988892,-1.9611414670944214,77.81298065185547,-1.1831493668751272,-0.15877185108716213,4.22948158573427,-0.87225306,8.413809,8.100708,18.281736,-17.376284,-5.9582343,0.52827233,-2.4891348,-16.22824,20.90285,-18.698648,1.6487541,0.07409525,2.609621,9.28418,-8.913763,16.41943,-46.562904,62.030437,1.58095,0.46244967,1.4118073,-10.260873,-13.601888,50.83586,60.24119,0.96636575,1.9681135,-5.9795732
44,-1.3648552894592285,-2.069448947906494,77.7882080078125,-1.3115148674272346,-0.023276161606248773,4.206342230935792,-1.2919153,8.716652,8.033473,18.948776,-17.640856,-6.0556498,0.53035384,-2.1976902,-16.244196,20.659174,-18.663475,1.5561775,0.038020324,2.7251394,9.25955,-8.86805,16.516012,-46.32136,62.001095,1.5505362,0.4486844,1.4477186,-10.221564,-13.571161,50.795742,60.14221,0.97531444,1.9654763,-5.9185667
45,-1.2915765047073364,-2.181098222732544,77.76588439941406,-1.4851481224884595,0.15543359405049006,4.207968055851405,-1.8563008,9.075449,7.8910275,19.787987,-17.978104,-6.1507983,0.5197732,-1.8466411,-16.29334,20.337952,-18.579077,1.4655827,0.0074925213,2.8939345,9.191755,-8.846595,16.572062,-46.06658,62.03338,1.5080253,0.41042316,1.5040697,-10.16248,-13.554338,50.719627,60.033836,0.9421471,1.9670273,-5.8309355
46,-1.2218925952911377,-2.2931408882141113,77.74095153808594,-1.695308306311967,0.36667954246370255,4.228716928895801,-2.5348172,9.479247,7.6884165,20.76638,-18.371103,-6.242272,0.5089289,-1.4448298,-16.368765,19.941282,-18.451342,1.3765639,-0.056295395,3.099275,9.103886,-8.7899065,16.654045,-45.732998,62.03596,1.4750427,0.35756958,1.5691692,-10.112935,-13.53292,50.648388,59.93005,0.8785163,1.9714004,-5.721259
47,-1.1728218793869019,-2.3986215591430664,77.71231842041016,-1.9415009406957418,0.5856111497353115,4.279773879483698,-3.3306744,9.927292,7.435599,21.940777,-18.79063,-6.324276,0.5298359,-0.995284,-16.480505,19.467203,-18.288189,1.2888398,-0.10835397,3.347037,9.011979,-8.761787,16.707188,-45.40605,62.08516,1.428057,0.30151898,1.6400869,-10.044704,-13.521254,50.540855,59.814682,0.8045111,1.9758931,-5.608626
48,-1.118619680404663,-2.512070655822754,77.67426300048828,-2.2228140452343155,0.7871600523202069,4.372309808108314,-4.243535,10.41816,7.1424828,23.362959,-19.205381,-6.390971,0.6137279,-0.5018049,-16.638054,18.91499,-18.0977,1.2019496,-0.21284011,3.6331794,8.97005,-8.701162,16.80026,-44.996597,62.081627,1.4000409,0.25894135,1.6934501,-10.006362,-13.510686,50.456333,59.69632,0.74663496,1.9783691,-5.510283
49,-1.066291093826294,-2.623521566390991,77.63166046142578,-2.5578708448526353,0.9791250489171125,4.508443110380179,-5.3083076,10.973644,6.7869573,25.086674,-19.650923,-6.4411316,0.7617432,0.06111801,-16.848667,18.259546,-17.867414,1.1130437,-0.3205013,3.9773798,8.960163,-8.658836,16.887575,-44.566113,62.094734,1.3754165,0.23351441,1.7290015,-9.959572,-13.512805,50.3345,59.554474,0.6935829,1.9802239,-5.4311266
50,-1.020630955696106,-2.7258925437927246,77.58047485351562,-2.937589741352964,1.1708437571932826,4.681470623408465,-6.510383,11.579794,6.3679323,27.05823,-20.123388,-6.4749293,0.9611841,0.68551046,-17.102165,17.503096,-17.594547,1.0239308,-0.4379688,4.373076,8.971569,-8.634913,16.961203,-44.10428,62.1316,1.3541622,0.21634462,1.7540287,-9.904795,-13.528817,50.182796,59.39069,0.63498414,1.9827675,-5.360844
51,-0.9631958603858948,-2.8263401985168457,77.52660369873047,-3.3214117930551583,1.3411418466308338,4.89029945665033,-7.7774053,12.184361,5.928316,29.176832,-20.538134,-6.4892635,1.2178661,1.3184303,-17.382872,16.691977,-17.304586,0.9407486,-0.56708866,4.7813315,9.02068,-8.62109,17.028814,-43.639465,62.17516,1.3246901,0.20254213,1.7812932,-9.85065,-13.561899,50.033344,59.213276,0.59616303,1.9822487,-5.2976403
52,-0.9016174077987671,-2.930659294128418,77.47215270996094,-3.671186855943744,1.4686379048850988,5.134597829840951,-9.041061,12.741118,5.51268,31.354343,-20.810556,-6.4821706,1.5372237,1.909022,-17.676693,15.874443,-17.024582,0.86926746,-0.7006842,5.165922,9.119794,-8.626724,17.089287,-43.224297,62.228382,1.2597226,0.18620232,1.8253146,-9.798407,-13.613369,49.904366,59.032215,0.595152,1.9745164,-5.239609
53,-0.8412220478057861,-3.029409646987915,77.41926574707031,-3.992436946310678,1.542145743386798,5.4272641700814725,-10.300328,13.2585335,5.1125793,33.626114,-20.89161,-6.508912,1.9360033,2.4631917,-17.99211,15.045103,-16.753267,0.8099934,-0.8482123,5.53421,9.282505,-8.656048,17.140432,-42.868763,62.29264,1.1484333,0.16680382,1.8948001,-9.742983,-13.680299,49.782677,58.83853,0.63283795,1.9596624,-5.188792
54,-0.7758679389953613,-3.1232359409332275,77.3687973022461,-4.299956348615786,1.5763112710716751,5.7645312921857705,-11.585523,13.75393,4.7130885,36.021004,-20.834698,-6.551521,2.4040017,3.0023084,-18.331333,14.186566,-16.479126,0.7602728,-1.0124625,5.8988214,9.502316,-8.699133,17.192635,-42.544304,62.35444,1.0040994,0.14731197,1.9794086,-9.681918,-13.776415,49.668438,58.61573,0.7037639,1.9404488,-5.1445637
55,-0.699410617351532,-3.2072250843048096,77.322265625,-4.572239149062215,1.5871217121077008,6.121304396260938,-12.871147,14.2007885,4.353035,38.440968,-20.713326,-6.5008883,2.9143057,3.503201,-18.67285,13.313081,-16.209465,0.7206212,-1.1636615,6.233288,9.749783,-8.751463,17.240278,-42.252174,62.423336,0.8467949,0.1266032,2.0678444,-9.619867,-13.893928,49.57774,58.39465,0.8003893,1.9146968,-5.1024065
56,-0.6204555034637451,-3.2865755558013916,77.27708435058594,-4.7902106541528875,1.5899406745961642,6.472539563771422,-14.128251,14.576862,4.072996,40.78183,-20.597063,-6.2491016,3.4306884,3.941367,-18.996992,12.462798,-15.956977,0.6915987,-1.2799175,6.515435,9.997723,-8.80256,17.282824,-41.983486,62.499924,0.69730455,0.10362971,2.1478176,-9.560546,-14.029547,49.532204,58.199512,0.9134833,1.8809376,-5.0576468
57,-0.5305523872375488,-3.3668417930603027,77.23705291748047,-4.950224466617612,1.5740668974014296,6.829814643931937,-15.371018,14.895061,3.8896017,43.12455,-20.491724,-5.679621,3.9730184,4.314712,-19.314917,11.620515,-15.720151,0.6739638,-1.3671275,6.741277,10.257392,-8.860126,17.320435,-41.74185,62.593605,0.561034,0.07466497,2.2129042,-9.507728,-14.1814785,49.534866,58.030636,1.0596092,1.8294367,-5.005495
58,-0.42834168672561646,-3.438852310180664,77.20439910888672,-5.065109180681556,1.5358080251849375,7.200489182735376,-16.60314,15.170459,3.7853584,45.483738,-20.360813,-4.8795424,4.550033,4.6378484,-19.633186,10.777441,-15.494055,0.66721344,-1.4345045,6.925387,10.535931,-8.924392,17.353441,-41.527916,62.700504,0.42667156,0.041334238,2.2706852,-9.459823,-14.34893,49.57704,57.880283,1.236807,1.7639018,-4.9495807
59,-0.3137870132923126,-3.507838726043701,77.18058013916016,-5.140184488077784,1.4996299371867507,7.553883926575287,-17.783298,15.38254,3.7497208,47.66216,-20.212355,-4.0504427,5.1209373,4.914008,-19.927845,9.956586,-15.278729,0.66997474,-1.4642673,7.074181,10.7990055,-8.972849,17.380987,-41.328247,62.800613,0.292503,0.010989033,2.330126,-9.415261,-14.528683,49.66331,57.764717,1.409249,1.7028818,-4.8984823
60,-0.18850383162498474,-3.569190502166748,77.15986633300781,-5.180446147085568,1.4899335727111955,7.859589484484397,-18.875326,15.506207,3.7688184,49.473305,-20.058672,-3.3988414,5.639231,5.1427755,-20.174908,9.194093,-15.081218,0.6796359,-1.4397253,7.1946197,11.012661,-8.983028,17.401627,-41.12846,62.87486,0.15678228,-0.009264303,2.400178,-9.376135,-14.715068,49.80285,57.70282,1.5464501,1.6646721,-4.861187
61,-0.04006322845816612,-3.624037981033325,77.14395904541016,-5.181997753443524,1.5106136466919182,8.109250961337166,-19.87191,15.531564,3.8469155,50.896557,-19.92863,-2.9690766,6.0973,5.3181195,-20.366108,8.496131,-14.902351,0.69527966,-1.3531712,7.2849207,11.163668,-8.95139,17.4139,-40.9358,62.923573,0.0073131276,-0.01697839,2.4883065,-9.348053,-14.904429,50.018974,57.71185,1.657687,1.6494497,-4.844904
62,0.11245912313461304,-3.677367687225342,77.1299057006836,-5.145746172061899,1.5483595823443006,8.31989345497914,-20.796112,15.474129,3.9878767,52.030853,-19.80977,-2.6620278,6.518617,5.4421616,-20.517199,7.8468103,-14.740087,0.71767616,-1.2165562,7.345215,11.271295,-8.887304,17.417208,-40.749783,62.955605,-0.147614,-0.016197298,2.5880997,-9.330597,-15.094103,50.29996,57.78237,1.7514046,1.6488346,-4.843803
63,0.2741563022136688,-3.724046468734741,77.12203979492188,-5.0832307026161265,1.6015403902217042,8.499565762534015,-21.660488,15.346276,4.1738214,52.87676,-19.657537,-2.4693153,6.7479095,5.464877,-20.654467,7.597873,-14.781748,0.7495808,-1.0431737,7.384187,11.34937,-8.794125,17.413021,-40.556873,62.970005,-0.29247737,-0.010023303,2.6885295,-9.322396,-15.280222,50.606552,57.903095,1.7997421,1.6672438,-4.847576
64,0.4468752145767212,-3.756131887435913,77.11688232421875,-5.006087196287666,1.668663739241367,8.656334444135798,-22.476355,15.161431,4.3866825,53.431217,-19.426353,-2.380225,6.8659277,5.42909,-20.782568,7.5694737,-14.930069,0.78902006,-0.8469777,7.4104834,11.411986,-8.675189,17.404652,-40.344433,62.96364,-0.413183,-5.907536e-05,2.7782922,-9.321712,-15.458284,50.899216,58.062935,1.7749559,1.7092988,-4.8460007
65,0.6298705339431763,-3.7843544483184814,77.11736297607422,-4.909720992865701,1.7540591397041592,8.77716052730609,-23.235046,14.9092455,4.634666,53.65823,-19.13161,-2.4284415,6.9588256,5.3655915,-20.882204,7.5506005,-15.073256,0.8350319,-0.61469525,7.4199867,11.453616,-8.5208645,17.39279,-40.0943,62.93174,-0.5189765,0.011548398,2.868009,-9.333931,-15.624601,51.197548,58.2839,1.6410861,1.7799373,-4.838432
66,0.8249602317810059,-3.8100571632385254,77.11825561523438,-4.791492541057266,1.8564168591410233,8.86325790680852,-23.93524,14.591884,4.9190245,53.568455,-18.789915,-2.6058688,7.03287,5.273478,-20.95133,7.533104,-15.207597,0.8868299,-0.34692177,7.410258,11.470418,-8.329198,17.377726,-39.81524,62.872932,-0.6120123,0.027550273,2.9587643,-9.358114,-15.776959,51.511024,58.568153,1.4180229,1.8751786,-4.8296056
67,1.024782419204712,-3.8324356079101562,77.11488342285156,-4.666185901131591,1.9654175223467063,8.943198068721113,-24.59931,14.240402,5.2122583,53.234543,-18.359324,-2.8379369,7.102285,5.1698213,-21.0156,7.5206227,-15.3403225,0.9418603,-0.07426334,7.391415,11.479631,-8.119828,17.363195,-39.540207,62.796844,-0.67080575,0.047019184,3.025404,-9.388394,-15.913822,51.791756,58.874474,1.1738924,1.985896,-4.81688
68,1.2254109382629395,-3.8488059043884277,77.11063385009766,-4.547520575635055,2.0710337407839314,9.04557383913421,-25.247055,13.882623,5.4890733,52.728924,-17.795965,-3.0506654,7.185257,5.072322,-21.09999,7.507531,-15.473738,0.9976762,0.17453301,7.3725133,11.497809,-7.912538,17.354715,-39.30457,62.713795,-0.67475843,0.06790754,3.0424004,-9.410956,-16.034845,51.980156,59.156776,0.9647489,2.1033156,-4.7976747
69,1.4368191957473755,-3.8665339946746826,77.10343933105469,-4.436560690195854,2.172803400134892,9.174514001284798,-25.87525,13.511249,5.7523456,52.027855,-17.063484,-3.2532394,7.2813883,4.9822783,-21.206537,7.4948163,-15.604944,1.053487,0.4015286,7.3534164,11.527539,-7.7073746,17.35668,-39.100563,62.608654,-0.5964772,0.095372185,2.9886467,-9.420668,-16.135035,52.048817,59.41509,0.7884143,2.237896,-4.771054
70,1.647584319114685,-3.878490686416626,77.09392547607422,-4.326733908337093,2.2750921856662085,9.31569985459469,-26.47129,13.114743,6.0126777,51.102604,-16.191614,-3.474636,7.3836546,4.891487,-21.323332,7.483026,-15.732999,1.1102754,0.62668055,7.326909,11.555434,-7.500618,17.364964,-38.928078,62.490852,-0.4594765,0.12771818,2.883418,-9.427367,-16.192507,52.020702,59.692905,0.6118399,2.3882923,-4.739524
71,1.8778586387634277,-3.888415813446045,77.0797348022461,-4.221356422986573,2.3750102213272495,9.470112586693807,-27.040894,12.713942,6.2587605,50.01724,-15.233802,-3.6711805,7.49854,4.8042545,-21.453918,7.472085,-15.8673,1.168391,0.821872,7.3012834,11.592193,-7.2815804,17.385435,-38.78968,62.36131,-0.30345884,0.15962134,2.7578526,-9.434864,-16.2504,51.952114,59.939613,0.47180447,2.5332863,-4.702265
72,2.1118288040161133,-3.8972902297973633,77.06169891357422,-4.123825184767481,2.469934776405374,9.638592850796504,-27.588129,12.328371,6.481702,48.834923,-14.242286,-3.7992485,7.6340065,4.725634,-21.602098,7.4587636,-16.015535,1.2282606,0.9984119,7.277503,11.635886,-7.0622716,17.426615,-38.746597,62.238586,-0.18817152,0.18754455,2.645974,-9.437907,-16.319307,51.85626,60.12958,0.39641652,2.6484513,-4.660052
73,2.3520967960357666,-3.8910655975341797,77.03799438476562,-4.032600912357221,2.5585916327213503,9.83177318216065,-28.116163,11.950956,6.6891336,47.55403,-13.208805,-3.8216567,7.7930236,4.654229,-21.77988,7.4433103,-16.181452,1.2857021,1.1382384,7.2557473,11.680896,-6.8586483,17.46811,-38.823643,62.160038,-0.13263887,0.20870268,2.5562313,-9.444707,-16.365402,51.71554,60.299377,0.40138164,2.7271855,-4.6123734
74,2.61202335357666,-3.8879785537719727,77.00916290283203,-3.9466133392576217,2.6426486425864195,10.045290843740402,-28.617178,11.569458,6.889745,46.142647,-12.111114,-3.7703645,7.971701,4.5888033,-21.98144,7.42633,-16.36021,1.342004,1.2711822,7.231574,11.734212,-6.6640234,17.538664,-39.019764,62.08087,-0.116395675,0.22831689,2.4688098,-9.429454,-16.423208,51.495773,60.40492,0.4650778,2.7837338,-4.556449
75,2.881032943725586,-3.882600784301758,76.97466278076172,-3.86932359026691,2.7236305219565016,10.257878158706577,-29.083097,11.19494,7.074731,44.624825,-10.983593,-3.7052271,8.164232,4.532367,-22.18375,7.408453,-16.547062,1.406088,1.3910308,7.210965,11.785721,-6.4655766,17.611305,-39.259132,62.02007,-0.10437394,0.24458578,2.385471,-9.427812,-16.473627,51.286427,60.490612,0.55954397,2.8188987,-4.501966
76,3.1574957370758057,-3.87432861328125,76.93050384521484,-3.8043017648655937,2.803347208537146,10.447884997413055,-29.505548,10.839817,7.232018,43.022385,-9.858901,-3.686424,8.365957,4.48836,-22.363647,7.3896036,-16.738022,1.4867783,1.5338769,7.1938906,11.830544,-6.257033,17.69523,-39.51786,61.963856,-0.08047108,0.25928625,2.305562,-9.436684,-16.532784,51.11962,60.543484,0.64196724,2.8343923,-4.4544
77,3.4432146549224854,-3.8525805473327637,76.88172149658203,-3.750468961039887,2.8796361253858596,10.616147007210214,-29.873552,10.500258,7.360792,41.310165,-8.721937,-3.7384522,8.57974,4.45576,-22.524157,7.369316,-16.934649,1.5891998,1.6843654,7.1839943,11.867894,-6.0402627,17.772282,-39.784523,61.93096,-0.038538016,0.26686797,2.2287118,-9.468776,-16.593477,51.02827,60.57661,0.71941096,2.823669,-4.4152336
78,3.746847152709961,-3.825343132019043,76.82869720458984,-3.7076870096211842,2.95224451187744,10.770834806828294,-30.190016,10.166279,7.4672627,39.478645,-7.5586295,-3.8284237,8.806951,4.434188,-22.673637,7.3481245,-17.138567,1.707711,1.826166,7.183452,11.897081,-5.8247623,17.826485,-40.06731,61.942825,0.015489719,0.26677,2.1568582,-9.531256,-16.641453,50.99767,60.61055,0.8118309,2.787599,-4.382174
79,4.0569915771484375,-3.78652024269104,76.76634216308594,-3.6787766154701007,3.0253359167307585,10.902621190528228,-30.470186,9.843474,7.547529,37.57492,-6.4035344,-3.929516,9.040095,4.426734,-22.79793,7.3263583,-17.343832,1.8348974,2.006504,7.1872106,11.920593,-5.60254,17.900639,-40.3822,61.947662,0.07640785,0.2713291,2.0903933,-9.578918,-16.72094,50.966213,60.57973,0.88941467,2.7417424,-4.3533115
80,4.379374980926514,-3.7472453117370605,76.6985092163086,-3.6676996304763656,3.103012116803809,11.001783728107327,-30.730639,9.541532,7.5960526,35.64919,-5.2930655,-4.0141263,9.270942,4.436501,-22.88266,7.3066525,-17.545591,1.963304,2.1683729,7.203741,11.929307,-5.353371,17.937988,-40.609604,61.98664,0.19441207,0.28312546,2.0344803,-9.681189,-16.77247,51.012066,60.5879,0.9554903,2.6975293,-4.335088
81,4.711453437805176,-3.7059221267700195,76.62586975097656,-3.6779713841511112,3.1895146748987337,11.067382272279932,-30.97864,9.264301,7.600389,33.690113,-4.181226,-4.0854454,9.493845,4.4675765,-22.925278,7.289718,-17.74532,2.0911465,2.3618746,7.234267,11.921155,-5.082895,17.982195,-40.818317,62.02101,0.35713768,0.31143177,1.988381,-9.780083,-16.858858,51.089058,60.544262,0.98869556,2.659406,-4.325766
82,5.052121162414551,-3.6534454822540283,76.54576110839844,-3.707631898776411,3.280639284378185,11.102782677114325,-31.201283,9.007519,7.5665855,31.674328,-3.0647054,-4.1551614,9.71574,4.5181365,-22.931627,7.274186,-17.945219,2.2221045,2.5533314,7.278553,11.896676,-4.793268,18.001785,-40.97783,62.085903,0.57422435,0.34810638,1.9511361,-9.920642,-16.926523,51.23306,60.52051,1.0049548,2.6178062,-4.325943
83,5.399903774261475,-3.598750114440918,76.46324920654297,-3.752967723705776,3.367931504507198,11.105550861634669,-31.387173,8.773863,7.516042,29.634577,-2.0451102,-4.2074413,9.945764,4.5825047,-22.900618,7.2599406,-18.140497,2.3565958,2.7541647,7.330335,11.870572,-4.4847054,18.008896,-41.094704,62.16008,0.8030992,0.38630396,1.922876,-10.071196,-17.002186,51.393143,60.474766,1.0109074,2.5764565,-4.332573
84,5.75885009765625,-3.5383145809173584,76.3729476928711,-3.8102699096482184,3.4430064708414454,11.073261842971633,-31.526997,8.568471,7.4691563,27.607624,-1.2256972,-4.226248,10.192372,4.654539,-22.831247,7.2491746,-18.327925,2.4950967,2.964752,7.382713,11.856021,-4.1580925,18.001434,-41.154655,62.238354,1.0149717,0.41803923,1.9031562,-10.233718,-17.079288,51.538574,60.416565,1.023146,2.536248,-4.342389
85,6.134393215179443,-3.4749786853790283,76.27952575683594,-3.879908989629648,3.5041933717840954,11.001051078413989,-31.624178,8.39712,7.4228296,25.60075,-0.6773869,-4.1711154,10.458053,4.7355895,-22.716776,7.240707,-18.512482,2.637014,3.1892986,7.43564,11.854753,-3.8108292,17.975216,-41.151062,62.32551,1.2047938,0.43854457,1.8985106,-10.400217,-17.168127,51.66883,60.32973,1.0369173,2.4974642,-4.3596053
86,6.509718418121338,-3.397082567214966,76.18400573730469,-3.9643200940331003,3.554029841895252,10.88926592187689,-31.678917,8.262874,7.368611,23.591965,-0.32963476,-4.06204,10.73878,4.827711,-22.557604,7.235623,-18.694405,2.7821422,3.431502,7.492188,11.859423,-3.4478126,17.929201,-41.09786,62.42893,1.3857533,0.453009,1.9071714,-10.577576,-17.257792,51.79436,60.22939,1.0454944,2.4586158,-4.384176
87,6.903900146484375,-3.315368175506592,76.08597564697266,-4.065728493109237,3.5904294933341165,10.745444213982417,-31.68293,8.170299,7.315379,21.584337,-0.07694077,-3.9739316,11.039405,4.9319363,-22.363514,7.231114,-18.861816,2.9306502,3.697857,7.5474057,11.8699,-3.0704913,17.892372,-41.02414,62.52119,1.5468957,0.47023258,1.9151658,-10.772856,-17.305593,51.8762,60.159737,1.0423139,2.4181614,-4.407662
88,7.3119425773620605,-3.2305915355682373,75.98796844482422,-4.186964194115847,3.610984159679877,10.575981661902953,-31.622944,8.122615,7.2739615,19.570715,0.1886027,-3.9821956,11.362484,5.049419,-22.143322,7.2271166,-19.003338,3.082858,3.9279332,7.62794,11.900897,-2.6774542,17.812922,-40.86091,62.617676,1.7212934,0.49245283,1.912452,-10.981515,-17.384699,51.970543,60.065228,1.0608828,2.3855605,-4.41885
89,7.727126121520996,-3.1377370357513428,75.88030242919922,-4.3360757461359585,3.60884316571229,10.380373066113544,-31.47116,8.126169,7.238163,17.492851,0.47630632,-4.1474476,11.717836,5.19095,-21.89837,7.2202773,-19.11927,3.2352703,4.187486,7.722389,11.947717,-2.2723618,17.748842,-40.67626,62.685555,1.875232,0.52735734,1.8944069,-11.196045,-17.43346,51.983223,59.995415,1.0706849,2.3548014,-4.408314
90,8.159795761108398,-3.0401670932769775,75.77185821533203,-4.5137112075864385,3.583089434692598,10.15099030993962,-31.234167,8.186012,7.2083044,15.36209,0.7413428,-4.416806,12.104269,5.356487,-21.618114,7.213055,-19.215162,3.3879545,4.4395514,7.840895,12.018143,-1.8439789,17.66335,-40.407722,62.74469,2.0367079,0.56810045,1.8675128,-11.423371,-17.485245,51.975456,59.918365,1.0817,2.3292027,-4.3827157
91,8.57951831817627,-2.934230327606201,75.66088104248047,-4.7076505365124275,3.5425206224941914,9.887190129987827,-30.96014,8.297271,7.204099,13.291328,1.0066261,-4.69528,12.509291,5.5283327,-21.297832,7.2080407,-19.285934,3.5466845,4.679706,7.9797907,12.0995,-1.4293702,17.525928,-40.107212,62.838726,2.1962016,0.606035,1.8354721,-11.659632,-17.554317,51.967926,59.83089,1.1023065,2.3082209,-4.3583684
92,9.018592834472656,-2.816035032272339,75.5496826171875,-4.899593143342166,3.501161599561029,9.594954593431833,-30.706808,8.44528,7.241611,11.401263,1.2913061,-4.885789,12.91549,5.682803,-20.940796,7.208706,-19.327618,3.7183638,4.9332914,8.117524,12.168579,-1.064023,17.351303,-39.880947,62.981663,2.3181791,0.6370724,1.8009257,-11.886839,-17.628183,51.932545,59.743893,1.1222905,2.2883573,-4.354114
93,9.463583946228027,-2.6937506198883057,75.45381927490234,-5.076675984386431,3.4692099733981396,9.278053545836313,-30.496435,8.61488,7.295387,9.690037,1.6484318,-4.939526,13.311549,5.806066,-20.550566,7.2143764,-19.338772,3.9088914,5.1956067,8.218219,12.229897,-0.6969047,17.229837,-39.73248,63.077717,2.357721,0.66045266,1.7615336,-12.122354,-17.669407,51.857143,59.67894,1.1323974,2.2658038,-4.377189
94,9.931581497192383,-2.565548896789551,75.35511779785156,-5.243633357612944,3.444034669105806,8.942193727985572,-30.298904,8.804514,7.364827,8.09301,2.0576274,-4.9119663,13.701279,5.905605,-20.135944,7.225117,-19.322779,4.115627,5.4442887,8.312695,12.279763,-0.3712448,17.053946,-39.61183,63.232243,2.3544445,0.6733459,1.7243544,-12.366204,-17.716118,51.77157,59.62265,1.1497964,2.2452102,-4.416348
95,10.40521240234375,-2.4357824325561523,75.24986267089844,-5.402893031715088,3.425170255387092,8.601566284723475,-30.124895,9.013668,7.4970603,6.6983495,2.399712,-4.861789,14.089915,5.9853125,-19.713625,7.238065,-19.279613,4.3331313,5.676771,8.384897,12.320287,-0.052515775,16.89619,-39.526833,63.367077,2.367662,0.69288206,1.6695275,-12.605814,-17.74636,51.65625,59.565434,1.1559017,2.2255275,-4.4668384
96,10.896821022033691,-2.306959867477417,75.15190124511719,-5.559412853137202,3.4106426526233946,8.268513963531618,-30.492193,9.311036,7.6564374,6.6689253,1.9853265,-4.8485837,14.482493,6.051374,-19.298302,7.2533674,-19.210672,4.5557733,5.8751245,8.438175,12.353612,0.26729262,16.768553,-39.46654,63.464542,2.467834,0.7290319,1.5822245,-12.842827,-17.76233,51.529346,59.499638,1.1551503,2.2076962,-4.522837
97,11.392311096191406,-2.1628687381744385,75.04879760742188,-5.730100933730407,3.3903133829334875,7.933430885203905,-30.753714,9.647182,8.005971,6.667098,1.4166304,-4.9405937,14.892123,6.122722,-18.88569,7.2693,-19.124275,4.782496,6.0478516,8.4987,12.376762,0.5715942,16.629263,-39.4278,63.568398,2.71251,0.79385686,1.4433626,-13.06497,-17.770336,51.38346,59.424343,1.1242392,2.1978817,-4.579236
98,11.901398658752441,-2.0132088661193848,74.95181274414062,-5.904959421617309,3.371050417008909,7.59737226928973,-30.927406,10.008443,8.501817,6.6871476,0.76520663,-5.0881805,15.310609,6.1894474,-18.474665,7.2858367,-19.017788,5.0173764,6.1906853,8.549032,12.394093,0.883429,16.515059,-39.407993,63.636288,3.0494359,0.87880015,1.2624779,-13.285746,-17.768425,51.228107,59.34047,1.0808289,2.1935575,-4.641025
99,12.42574691772461,-1.8645391464233398,74.85636138916016,-6.050650624369957,3.3753542194022508,7.2869643080117,-31.030916,10.326074,9.0317,6.7232823,0.21999368,-5.1755137,15.709493,6.2163815,-18.08451,7.305108,-18.873108,5.262116,6.296613,8.565501,12.384177,1.1363739,16.365204,-39.433735,63.752632,3.4026258,0.95871913,1.0886693,-13.494776,-17.754517,51.041866,59.255215,1.0401001,2.1845498,-4.7138143
100,12.953330993652344,-1.7079919576644897,74.77699279785156,-6.13390588904661,3.4258120144984012,7.028239101355417,-31.084373,10.529954,9.481132,6.772752,-0.03182329,-5.086306,16.062334,6.1686034,-17.733717,7.329933,-18.673653,5.518213,6.31404,8.492972,12.36494,1.408179,16.297342,-39.467278,63.759785,3.692249,1.0212557,0.94979227,-13.70981,-17.742216,50.87005,59.12554,1.055179,2.1617959,-4.806905
101,13.48422622680664,-1.5433059930801392,74.72344970703125,-6.141188506151378,3.5376934456007576,6.8352683603159035,-31.085491,10.5937805,9.84166,6.844223,0.07062074,-4.745215,16.351189,6.033978,-17.432642,7.3622265,-18.420166,5.787331,6.2984033,8.338125,12.297805,1.5550134,16.17545,-39.616188,63.857967,3.864087,1.0477178,0.8963722,-13.907845,-17.707733,50.616093,58.997257,1.1112018,2.1191678,-4.927918
102,14.018623352050781,-1.3778117895126343,74.6775894165039,-6.0971337197373865,3.6907255067398936,6.683982034563795,-31.877598,10.713794,10.010477,8.750586,-0.53608173,-4.230532,16.598915,5.838037,-17.161264,7.4034557,-18.122274,6.067628,6.1867933,8.110057,12.227435,1.7197629,16.11319,-39.761776,63.86338,3.9846091,1.0571431,0.88239527,-14.119176,-17.680798,50.3911,58.824543,1.2280343,2.0657666,-5.0742526
103,14.5691499710083,-1.2071990966796875,74.64102172851562,-6.027515174699257,3.850715458548283,6.540440702363044,-32.769066,10.819242,10.099052,11.01048,-1.1399809,-3.6554217,16.843264,5.60419,-16.892752,7.4490824,-17.770802,6.3573184,6.084307,7.84843,12.137521,1.8283955,16.0477,-39.969696,63.895256,4.099635,1.06325,0.86799395,-14.2960205,-17.641363,50.108826,58.64142,1.33502,2.0016656,-5.2199717
104,15.138752937316895,-1.0268628597259521,74.60883331298828,-5.953235783538275,3.9883529282137054,6.3764851031885685,-33.544773,10.905621,10.130978,13.139405,-1.5593678,-3.1314926,17.117476,5.3505106,-16.60546,7.4957914,-17.35783,6.6547155,5.959306,7.5764356,12.05499,1.9564378,16.00892,-40.12931,63.884975,4.296565,1.0838509,0.7959583,-14.449265,-17.611282,49.858433,58.42786,1.4252172,1.9332646,-5.3452773
105,15.736640930175781,-0.83730548620224,74.56819152832031,-5.870608603688168,4.104563455954359,6.180892875248547,-34.26061,10.974186,10.053953,15.260114,-1.7841187,-2.66389,17.421982,5.065848,-16.29562,7.5448065,-16.896614,6.9770703,5.866343,7.292059,11.957964,2.067494,15.973298,-40.29658,63.879032,4.6321497,1.1233134,0.6305677,-14.549045,-17.57761,49.55994,58.1877,1.4497257,1.8602841,-5.429457
106,16.356246948242188,-0.6376562118530273,74.53723907470703,-5.773928182524825,4.20596680739403,5.9607653149506,-34.953075,11.025474,9.890213,17.476006,-1.8624631,-2.2038443,17.748486,4.747299,-15.964612,7.596801,-16.389202,7.319798,5.785994,6.9881153,11.853074,2.162563,15.941702,-40.470093,63.8683,5.0578785,1.1728728,0.40695673,-14.616658,-17.54168,49.240173,57.9261,1.447495,1.7811354,-5.489048
107,16.966075897216797,-0.42593154311180115,74.51822662353516,-5.670370306227937,4.28383976553846,5.731957209876887,-35.55028,11.064034,9.736164,19.612549,-1.87053,-1.7745495,18.100729,4.4119806,-15.616928,7.6553736,-15.805004,7.6510496,5.6713743,6.672803,11.768819,2.25793,15.928288,-40.60075,63.837936,5.465326,1.2208,0.18578058,-14.665001,-17.520071,48.96951,57.638138,1.4568168,1.6965588,-5.5555167
108,17.58928871154785,-0.20286813378334045,74.51582336425781,-5.558122257946326,4.335752975050404,5.515288241318309,-35.994408,11.091148,9.6861925,21.515562,-1.8967853,-1.3923801,17.913042,3.9084482,-15.300979,8.95592,-15.76334,7.9457636,5.5900793,6.340685,11.701333,2.2709553,15.922482,-40.789043,63.870995,5.7098207,1.2581161,0.036683723,-14.666256,-17.498766,48.66964,57.356087,1.4746007,1.6010609,-5.6535296
109,18.234909057617188,0.016278663650155067,74.5166244506836,-5.41633662281607,4.366572283155219,5.307685805559214,-36.280952,11.116994,9.801934,23.18584,-1.9699107,-1.0660346,17.679367,3.357261,-14.972509,10.406796,-15.706208,8.209553,5.503015,5.9664416,11.657721,2.2299242,15.92853,-40.99337,63.94655,5.7442183,1.2772163,-0.014363892,-14.63693,-17.483551,48.396843,57.065845,1.53095,1.4881692,-5.8023763
110,18.8905029296875,0.2410992532968521,74.52635192871094,-5.23801022625272,4.383964768289796,5.104867416011746,-36.44906,11.134092,10.024402,24.71191,-2.0569384,-0.7733946,17.435299,2.758769,-14.629627,11.91296,-15.590352,8.454346,5.3911567,5.545669,11.630235,2.15485,15.943467,-41.18414,64.044785,5.6495214,1.2847272,-0.0063171256,-14.588028,-17.47645,48.167732,56.763485,1.619797,1.3619672,-5.984489
111,19.551130294799805,0.4770123362541199,74.5517349243164,-5.037823906578283,4.3924515385514455,4.927559330735606,-36.514675,11.110191,10.268007,26.084957,-2.1552346,-0.48650634,17.136766,2.1297212,-14.294411,13.545068,-15.405527,8.653627,5.2920156,5.100436,11.605015,2.0114756,15.972458,-41.409546,64.182465,5.485805,1.2941525,0.028502544,-14.490674,-17.47518,47.914303,56.461304,1.7002188,1.2368888,-6.174173
112,20.226781845092773,0.7217161655426025,74.58889770507812,-4.830405702840906,4.3965637235643875,4.7949497592760295,-36.48907,11.005107,10.451685,27.280043,-2.2565937,-0.18404554,16.74823,1.4891877,-13.987311,15.357517,-15.132568,8.78198,5.1766734,4.6565723,11.578723,1.8067982,16.015774,-41.63519,64.34823,5.33319,1.3169569,0.055011336,-14.353952,-17.483322,47.658607,56.17665,1.7585175,1.1299291,-6.3498387
113,20.90286636352539,0.962903618812561,74.63948059082031,-4.602474940487705,4.392976296951425,4.725823806250999,-36.359097,10.766392,10.544582,28.26197,-2.329616,0.10500377,16.288548,0.8301467,-13.716933,17.337563,-14.768459,8.848677,5.0337315,4.2000275,11.554506,1.5352224,16.073725,-41.86288,64.5533,5.1838818,1.358275,0.068556294,-14.159719,-17.500862,47.383213,55.897232,1.7846513,1.0433539,-6.517985
114,21.573335647583008,1.2003798484802246,74.69580078125,-4.341587682645597,4.384895079966255,4.703899665747452,-36.127674,10.414754,10.603006,29.052195,-2.3870904,0.37651157,15.7665205,0.13463852,-13.468925,19.455616,-14.315904,8.864625,4.867482,3.7140992,11.528641,1.2001102,16.139793,-42.091022,64.80062,5.008795,1.41037,0.08630726,-13.920882,-17.524723,47.103306,55.625828,1.7937297,0.9694831,-6.687251
115,22.2574462890625,1.4419281482696533,74.7530746459961,-4.064545835793224,4.385933257959212,4.693655504208364,-35.834347,10.018491,10.678298,29.714413,-2.4861991,0.68621117,15.135385,-0.59255517,-13.227858,21.735052,-13.760298,8.808983,4.703853,3.2211225,11.486779,0.8124456,16.211712,-42.308056,65.06458,4.8558035,1.4677451,0.10586586,-13.664684,-17.555494,46.844646,55.378708,1.7963117,0.9105064,-6.837321
116,22.94564437866211,1.6945898532867432,74.82322692871094,-3.7896207428233444,4.409508714358886,4.659213010145084,-35.517944,9.647154,10.821168,30.310564,-2.684288,1.0904576,14.351675,-1.3433923,-12.978043,24.192484,-13.082482,8.662564,4.5616956,2.7448857,11.416185,0.38760486,16.285425,-42.490005,65.32074,4.7779264,1.5228482,0.12460064,-13.422612,-17.595171,46.64284,55.175205,1.8050044,0.86880803,-6.948588
117,23.619678497314453,1.9450554847717285,74.9043960571289,-3.5280733978699104,4.465326448678298,4.586214398862883,-35.20364,9.320867,11.042936,30.874062,-3.011438,1.6735526,13.384596,-2.106861,-12.708609,26.856146,-12.236565,8.3744,4.4276466,2.3042917,11.295912,-0.07470498,16.333462,-42.625748,65.59941,4.8123093,1.5733695,0.13192114,-13.2159395,-17.626982,46.536575,55.056973,1.8327038,0.84729326,-7.0187736
118,24.295053482055664,2.1995019912719727,74.99652862548828,-3.2695432964506748,4.544646915056672,4.495988034883923,-34.869427,8.9977455,11.313981,31.36669,-3.4312687,2.3807895,12.278181,-2.8833442,-12.431368,29.674534,-11.222319,7.976431,4.3289824,1.8812411,11.140551,-0.59256303,16.385069,-42.76857,65.89345,4.9111257,1.6246935,0.13137035,-12.993705,-17.6708,46.45154,54.972946,1.8574436,0.84415287,-7.0546637
119,24.96815299987793,2.4619550704956055,75.10124969482422,-3.0033147680115726,4.632319174209795,4.408673181572576,-34.479202,8.657629,11.618847,31.73851,-3.89947,3.0602715,11.106403,-3.6763859,-12.164539,32.53885,-10.094671,7.5691085,4.2479367,1.4605801,10.985238,-1.148268,16.457834,-42.876354,66.15543,5.034637,1.6789769,0.14557569,-12.759948,-17.74974,46.387394,54.880764,1.8740416,0.8546078,-7.058104
120,25.63139533996582,2.724907875061035,75.2123031616211,-2.7212619395451068,4.7119362723174465,4.345744014135416,-33.99842,8.283134,11.938955,31.945278,-4.375414,3.5598366,9.931641,-4.492314,-11.923319,35.370575,-8.926205,7.244218,4.1421323,1.0319664,10.853643,-1.7291778,16.53176,-42.880573,66.37937,5.1535673,1.7357228,0.20120996,-12.560002,-17.837543,46.380245,54.807384,1.8854345,0.8709023,-7.0354934
121,26.278976440429688,2.981527805328369,75.32921600341797,-2.417429645889306,4.784010280261343,4.305073332499012,-33.40024,7.8688855,12.289659,31.940704,-4.8688912,3.8099496,8.736902,-5.3525558,-11.697305,38.204395,-7.7180586,7.0487742,4.0206747,0.58760256,10.748827,-2.3369784,16.61268,-42.781124,66.563515,5.2836494,1.8046309,0.31276357,-12.391255,-17.933641,46.41896,54.75297,1.8826137,0.89703697,-6.975458
122,26.926860809326172,3.2347254753112793,75.45072174072266,-2.103892750049474,4.853849290485091,4.281124417730406,-32.711945,7.4262524,12.664548,31.76421,-5.3966146,3.900556,7.4930553,-6.244793,-11.478755,41.082737,-6.449416,6.914559,3.8874664,0.14201063,10.65769,-2.974046,16.703457,-42.599308,66.7155,5.434516,1.8824931,0.46387744,-12.247583,-18.038208,46.505802,54.724045,1.8719008,0.93428785,-6.8803105
123,27.560556411743164,3.48093318939209,75.5699234008789,-1.7980365474047135,4.912769800907326,4.289350426578584,-31.974924,6.9646964,13.015367,31.491034,-5.9243402,3.9191108,6.2357802,-7.133819,-11.288151,43.961014,-5.1709437,6.753163,3.7353568,-0.28741416,10.583015,-3.6382687,16.807507,-42.34981,66.82496,5.5540137,1.952462,0.632948,-12.117794,-18.15064,46.625668,54.707085,1.8487656,0.97160417,-6.771986
124,28.19528579711914,3.7249937057495117,75.68748474121094,-1.5160070100161693,4.951918752606371,4.344805970183621,-31.233192,6.494205,13.295151,31.202738,-6.4213367,3.9539664,5.0022793,-7.9906454,-11.151959,46.793983,-3.9333,6.4741955,3.5581388,-0.684364,10.527868,-4.32968,16.92909,-42.051502,66.88183,5.5857105,1.9971015,0.7985092,-11.987398,-18.269064,46.75965,54.685486,1.8048645,0.9983859,-6.6724353
125,28.830066680908203,3.9652678966522217,75.80448150634766,-1.2560581029537756,4.967038472657627,4.458810382345362,-30.486992,6.007029,13.496258,30.904669,-6.885979,4.0209274,3.7922637,-8.841948,-11.098795,49.633057,-2.7145023,6.0440254,3.3513055,-1.0514126,10.494705,-5.047349,17.072744,-41.687103,66.87197,5.518905,2.0159962,0.96064234,-11.857201,-18.393955,46.919937,54.65984,1.729679,1.0128112,-6.5811048
126,29.443424224853516,4.189765930175781,75.91442108154297,-1.0122059751175736,4.962050300984322,4.621334218720154,-29.716366,5.5021,13.641365,30.559238,-7.332322,4.0775924,2.586822,-9.712013,-11.114794,52.497334,-1.5091826,5.4913974,3.1186926,-1.394608,10.481834,-5.7890334,17.241188,-41.256283,66.799576,5.38052,2.0166519,1.1281166,-11.731155,-18.525114,47.10867,54.635155,1.6280705,1.0202608,-6.48829
127,30.059057235717773,4.409400939941406,76.02469635009766,-0.7929439758491899,4.941890775849729,4.81510003005356,-28.936993,4.999425,13.7312,30.188997,-7.7575364,4.1255784,1.3934611,-10.568122,-11.168113,55.297375,-0.3964829,4.8269773,2.8684735,-1.7060461,10.486258,-6.551378,17.43411,-40.797726,66.681564,5.1786003,1.9942297,1.2926445,-11.60869,-18.660046,47.298553,54.61032,1.5229044,1.0199766,-6.402427
128,30.675945281982422,4.622590065002441,76.13845825195312,-0.6064656320953856,4.911938258518936,5.022512703036192,-28.162285,4.5198145,13.767268,29.814516,-8.1575365,4.1649017,0.21889909,-11.365702,-11.224971,57.94112,0.54744244,4.07572,2.6106477,-1.9776347,10.50405,-7.3340263,17.648458,-40.355236,66.53951,4.917021,1.9433693,1.4464992,-11.481111,-18.794643,47.451218,54.581867,1.4258983,1.0114299,-6.3316817
129,31.27960205078125,4.831813335418701,76.25031280517578,-0.45702733408654045,4.873705614772082,5.238675142373762,-27.401789,4.069376,13.745323,29.447979,-8.530718,4.1961527,-0.96436536,-12.145733,-11.337518,60.49593,1.386768,3.1301286,2.3509746,-2.2045367,10.536605,-8.14478,17.88176,-39.931046,66.376564,4.566227,1.8583654,1.5871171,-11.355428,-18.927492,47.56428,54.553963,1.3355832,0.9871329,-6.26983
130,31.881799697875977,5.03594970703125,76.3602294921875,-0.33956839321346116,4.8241514158161465,5.4741272603330655,-26.642952,3.6382186,13.666262,29.07432,-8.878605,4.21866,-2.1466372,-12.921995,-11.510211,62.982742,2.1287699,2.0100317,2.0842896,-2.3915465,10.585042,-8.983889,18.133034,-39.508945,66.18725,4.132691,1.7430481,1.7185231,-11.232231,-19.058153,47.65286,54.52902,1.2461492,0.94980747,-6.215283
131,32.46843719482422,5.232898712158203,76.46691131591797,-0.24470465879221948,4.762960323586079,5.732507513393359,-25.882162,3.224418,13.542504,28.695316,-9.209337,4.2306256,-3.2903163,-13.585607,-11.624014,65.27636,2.6037428,0.96647394,1.8062848,-2.550103,10.64408,-9.839781,18.39994,-39.10289,65.98118,3.6771367,1.6061149,1.8432568,-11.101881,-19.184456,47.7125,54.50922,1.1706481,0.9135901,-6.1833453
132,33.053977966308594,5.430174827575684,76.57218170166016,-0.1675734082352473,4.690451737140025,6.0106146150248145,-25.106026,2.8308082,13.388962,28.300701,-9.52991,4.22928,-4.357044,-13.99334,-11.549072,67.23692,2.6566317,0.2791766,1.5214862,-2.6872947,10.707699,-10.699927,18.677938,-38.722115,65.76706,3.2671633,1.4569745,1.964387,-10.953199,-19.302755,47.737278,54.495163,1.1235367,0.8926709,-6.189288
133,33.64319610595703,5.6130595207214355,76.68060302734375,-0.11830796381963384,4.606821992331667,6.3028363268040755,-24.321419,2.4735425,13.207948,27.90817,-9.85161,4.215728,-5.3353567,-14.02211,-11.204715,68.821365,2.0978153,0.10256513,1.2342598,-2.7929008,10.771945,-11.571704,18.96499,-38.379894,65.554276,2.8963935,1.2824332,2.0850554,-10.787365,-19.410128,47.72962,54.491695,1.1185532,0.8911241,-6.251202
134,34.234375,5.799655914306641,76.78732299804688,-0.09803869227593254,4.5125726245521935,6.61033371041965,-23.531878,2.1494336,12.994142,27.519686,-10.170652,4.192231,-6.2501874,-13.74804,-10.683426,70.11802,1.0569017,0.2843757,0.944169,-2.8649395,10.840033,-12.457483,19.259264,-38.062553,65.33779,2.5432053,1.0829481,2.203013,-10.610013,-19.505257,47.69171,54.501312,1.14504,0.9009621,-6.3564434
135,34.82794952392578,5.981411933898926,76.89163208007812,-0.08916511475946422,4.407876038279519,6.941217105280382,-22.725754,1.83393,12.750365,27.109844,-10.474854,4.158702,-7.12283,-13.325838,-10.114195,71.18509,-0.14086483,0.64610267,0.6445947,-2.9223971,10.914697,-13.35082,19.556892,-37.76364,65.11782,2.2239559,0.8873658,2.3146386,-10.419261,-19.58719,47.619003,54.52484,1.1800812,0.9183683,-6.4741297
136,35.42097091674805,6.155595779418945,76.99262237548828,-0.07522863678856215,4.293851899796334,7.303015716350785,-21.896593,1.5057846,12.477713,26.662619,-10.75638,4.11383,-7.97688,-12.909197,-9.61405,72.07373,-1.1643368,1.0134861,0.3302973,-2.982749,10.997698,-14.243742,19.85184,-37.470818,64.89387,1.9627918,0.72484833,2.4167352,-10.211636,-19.655237,47.50533,54.561382,1.2001156,0.93983024,-6.5733147
137,36.012752532958984,6.327348709106445,77.09310150146484,-0.05565495387484288,4.165338162331359,7.700317012518724,-21.025938,1.1611851,12.171132,26.153236,-11.005695,4.0484834,-8.816241,-12.484999,-9.165889,72.7743,-1.941902,1.3763894,-0.0029826502,-3.0467458,11.090153,-15.143739,20.140476,-37.189682,64.678055,1.7714291,0.607354,2.5120218,-9.982753,-19.708284,47.339756,54.614777,1.1978738,0.9663697,-6.644344
138,36.59376907348633,6.497097015380859,77.18427276611328,-0.03728911084033948,4.023318328422735,8.12847988772061,-20.123425,0.81153697,11.831884,25.602005,-11.231237,3.9674585,-9.627424,-11.99954,-8.724741,73.2648,-2.6461856,1.8094212,-0.35094872,-3.1066198,11.190141,-16.055517,20.420914,-36.923958,64.47214,1.6368108,0.51807326,2.6021357,-9.732809,-19.74522,47.12631,54.6836,1.184612,0.99947506,-6.704077
139,37.18162155151367,6.665635108947754,77.27010345458984,-0.016044102929330336,3.8785578768350666,8.5803021527785,-19.21537,0.45818523,11.468723,25.034649,-11.442722,3.8883026,-10.412801,-11.534522,-8.349026,73.57319,-3.3019626,2.280006,-0.7053826,-3.1664357,11.29321,-16.969301,20.689377,-36.66041,64.26566,1.5425957,0.44261605,2.6824925,-9.473682,-19.767653,46.890152,54.767685,1.1711061,1.0352551,-6.7616897
140,37.78611755371094,6.828104496002197,77.35809326171875,0.011313323304366482,3.7418751355035305,9.048494525401628,-18.33195,0.10429369,11.089794,24.486464,-11.649596,3.8268242,-11.175816,-11.169073,-8.093969,73.72485,-3.9302495,2.759623,-1.0590383,-3.2287366,11.394474,-17.877804,20.941963,-36.390244,64.049,1.4669214,0.36760998,2.748665,-9.220613,-19.779285,46.661266,54.868332,1.1732404,1.0699179,-6.8264046
141,38.36600112915039,6.9853515625,77.4337158203125,0.0430301809951273,3.616279166123117,9.54468412180096,-17.487072,-0.2500493,10.684898,23.972816,-11.853103,3.7830248,-11.908563,-10.9288435,-7.9964275,73.704124,-4.4771433,3.2954879,-1.421505,-3.2901382,11.493763,-18.79113,21.176167,-36.115482,63.83607,1.4334538,0.28629655,2.7986887,-8.972816,-19.782234,46.432533,54.985554,1.2032738,1.1045712,-6.908128
142,38.9352912902832,7.145018100738525,77.50035095214844,0.07754919099325532,3.4961836066051286,10.068222070351064,-16.66261,-0.6043803,10.252669,23.473215,-12.047567,3.747785,-12.612219,-10.773688,-8.015928,73.500084,-4.9467516,3.8840363,-1.7921509,-3.3488657,11.592931,-19.712954,21.390856,-35.8417,63.629627,1.4424919,0.2080309,2.8356473,-8.72325,-19.776785,46.194534,55.11603,1.253386,1.1407454,-6.999463
143,39.50031280517578,7.308130741119385,77.55924224853516,0.11962203273396578,3.379770822764523,10.59348356193232,-15.841372,-0.95587736,9.815652,22.971071,-12.234564,3.722575,-13.307967,-10.682931,-8.092677,73.15215,-5.4475617,4.418944,-2.1503758,-3.4112887,11.689839,-20.623331,21.583708,-35.555107,63.410873,1.4456601,0.13551734,2.8625522,-8.473602,-19.76511,45.968327,55.253956,1.2992734,1.1752863,-7.08354
144,40.079429626464844,7.471610069274902,77.61283874511719,0.17386105417020337,3.2650026153837914,11.094590187712287,-15.007608,-1.301916,9.396235,22.450706,-12.415989,3.7092853,-14.014985,-10.634178,-8.167632,72.69883,-6.0876656,4.794378,-2.4765337,-3.482501,11.783158,-21.501091,21.752504,-35.238304,63.16013,1.396187,0.07169308,2.882199,-8.226415,-19.749647,45.777973,55.391922,1.3199219,1.2054254,-7.143513
145,40.65293502807617,7.632118225097656,77.65707397460938,0.24135962736195485,3.1512353911420377,11.568272627094776,-14.154944,-1.6431111,8.99398,21.903639,-12.587574,3.7102466,-14.733381,-10.62107,-8.237023,72.136795,-6.9588275,4.9627614,-2.7659173,-3.5640495,11.871852,-22.352972,21.896399,-34.8917,62.883896,1.2590082,0.022747464,2.893202,-7.979352,-19.732538,45.625946,55.52954,1.3095982,1.2300156,-7.1721387
146,41.228302001953125,7.788871765136719,77.69931030273438,0.3190348125677127,3.039430607765553,12.027101606705076,-13.293737,-1.9786248,8.598044,21.341362,-12.750282,3.7224422,-15.452862,-10.648767,-8.3274145,71.44685,-7.9796743,4.9912567,-3.0289245,-3.651465,11.95687,-23.18665,22.015486,-34.519978,62.59026,1.0683948,-0.01457642,2.8949606,-7.729337,-19.714699,45.499313,55.666943,1.2780627,1.2510271,-7.179188
147,41.809471130371094,7.941915035247803,77.73677825927734,0.40537889665814564,2.930312992425254,12.46884394044365,-12.428903,-2.3067434,8.215488,20.771662,-12.9120245,3.7404113,-16.176334,-10.708469,-8.423258,70.641594,-8.998014,4.9513664,-3.2689087,-3.7412484,12.039475,-23.990711,22.111355,-34.12992,62.268345,0.8629697,-0.052827276,2.8921099,-7.4883227,-19.697485,45.40986,55.80611,1.2392696,1.2698058,-7.173788
148,42.376953125,8.097990989685059,77.7634048461914,0.4990244568421622,2.824590585499912,12.891414996298957,-11.565906,-2.6260421,7.853849,20.203228,-13.080938,3.7594376,-16.907837,-10.794359,-8.510814,69.73501,-9.862633,4.9116096,-3.4909384,-3.8307874,12.121132,-24.75115,22.186861,-33.72461,61.904037,0.68371254,-0.10406325,2.8888588,-7.2705994,-19.682583,45.372066,55.950176,1.2089775,1.2877576,-7.165293
149,42.94963073730469,8.251269340515137,77.78422546386719,0.6010586256937086,2.7219915498642866,13.295092464737705,-10.70776,-2.937163,7.5180197,19.64283,-13.260135,3.7807395,-17.64666,-10.918091,-8.607517,68.720894,-10.554699,4.8889003,-3.696792,-3.9203367,12.204848,-25.459942,22.242897,-33.28254,61.484608,0.5694343,-0.1712094,2.885633,-7.0790815,-19.671242,45.395554,56.095863,1.1930144,1.3052372,-7.1554527
150,43.51498794555664,8.408923149108887,77.79815673828125,0.7113815072711871,2.6223311477968987,13.680575799250672,-9.851917,-3.240503,7.2029676,19.085487,-13.445686,3.8059268,-18.389484,-11.069964,-8.716577,67.592125,-11.147967,4.852913,-3.8854716,-4.0113215,12.290209,-26.118008,22.279272,-32.796215,61.011257,0.49996293,-0.2459772,2.879736,-6.911115,-19.664406,45.475872,56.243782,1.1871918,1.3214422,-7.139552
151,44.069175720214844,8.561224937438965,77.80414581298828,0.8266401358063507,2.526354483379447,14.046484265760629,-8.993773,-3.5351536,6.901702,18.518612,-13.632784,3.8312244,-19.134459,-11.21531,-8.804149,66.358795,-11.628849,4.7972965,-4.053224,-4.100276,12.372454,-26.74609,22.301237,-32.330532,60.511906,0.38833126,-0.3307539,2.872699,-6.756115,-19.661804,45.5893,56.39376,1.1758612,1.3365625,-7.1167936
152,44.64654541015625,8.711663246154785,77.80070495605469,0.944486634701293,2.434737004561022,14.391529530547349,-8.12835,-3.8206744,6.6072307,17.929,-13.816115,3.8529453,-19.879595,-11.323506,-8.834784,65.032425,-11.98489,4.712621,-4.1928296,-4.1900663,12.451862,-27.335642,22.307234,-31.89512,59.986446,0.20989703,-0.42385307,2.8632627,-6.603266,-19.661066,45.707443,56.538498,1.1444715,1.3502086,-7.085401
153,45.20956039428711,8.86580753326416,77.78994750976562,1.0657149147212315,2.3471253116538127,14.71501042982576,-7.2478414,-4.098042,6.3140078,17.299372,-13.996424,3.8705938,-20.629114,-11.395896,-8.8077345,63.61512,-12.2023735,4.5681458,-4.298431,-4.279911,12.52611,-27.91787,22.306377,-31.552607,59.45665,-0.13399772,-0.5310548,2.8464327,-6.4556446,-19.661966,45.841686,56.687237,1.0878991,1.3613814,-7.043637
154,45.76893997192383,9.021815299987793,77.76949310302734,1.1907615161699818,2.263226809002792,15.017745156463285,-6.3565207,-4.3669815,6.0268674,16.639267,-14.175292,3.886386,-21.380459,-11.442456,-8.740992,62.09921,-12.293005,4.377807,-4.425556,-4.360506,12.596818,-28.411179,22.296213,-31.145763,58.863995,-0.51645243,-0.64921045,2.8171256,-6.35572,-19.665361,46.060192,56.86021,1.027128,1.3718095,-6.996075
155,46.34424591064453,9.167399406433105,77.74275207519531,1.318242422825645,2.184600640180494,15.301028796558793,-5.468873,-4.6258216,5.7550707,15.981262,-14.350756,3.8996723,-22.12394,-11.450709,-8.624778,60.485085,-12.282331,4.195274,-4.504073,-4.448523,12.667805,-28.885185,22.279844,-30.81315,58.247467,-0.93675965,-0.77015436,2.7959745,-6.2397504,-19.66761,46.24074,57.013504,0.95106983,1.380729,-6.9407296
156,46.91324996948242,9.31566047668457,77.71086120605469,1.4458893759345333,2.112742521429751,15.566217659368535,-4.604434,-4.871873,5.508147,15.367817,-14.523746,3.908589,-22.849314,-11.410337,-8.4480295,58.770626,-12.193654,4.0728188,-4.5958223,-4.526673,12.731617,-29.275627,22.249567,-30.441643,57.5839,-1.2711858,-0.88862616,2.7931254,-6.151227,-19.668795,46.43424,57.177822,0.89593965,1.3907707,-6.88673
157,47.46601867675781,9.474743843078613,77.6748275756836,1.5779314972042124,2.047896366375906,15.813486360549309,-3.757946,-5.108077,5.299153,14.788932,-14.679212,3.905896,-23.562052,-11.325158,-8.192493,56.955524,-12.044143,4.0155907,-4.655607,-4.6095614,12.794913,-29.63718,22.221245,-30.140558,56.88692,-1.583486,-1.0066878,2.8242314,-6.0565233,-19.667725,46.57529,57.32937,0.84478366,1.3974253,-6.8208184
158,48.03101348876953,9.623536109924316,77.63275146484375,1.7138881282705953,1.9891119137123439,16.042511838313025,-2.9237154,-5.334849,5.1198483,14.232078,-14.822787,3.8926198,-24.261557,-11.202122,-7.867732,55.037674,-11.816072,3.994477,-4.713829,-4.6868367,12.8530245,-29.945118,22.189674,-29.856941,56.150467,-1.8829908,-1.1281942,2.8769383,-5.9822583,-19.664862,46.71986,57.49045,0.8027318,1.4020925,-6.747604
159,48.596107482910156,9.77221965789795,77.58522033691406,1.8465560157866252,1.9362570327578712,16.25403770547515,-2.10968,-5.548486,4.9475565,13.713839,-14.977913,3.8793402,-24.92734,-11.039933,-7.503292,53.010853,-11.481612,4.0097485,-4.7681265,-4.7585225,12.905662,-30.176615,22.145744,-29.556074,55.37431,-2.112312,-1.2443285,2.9319358,-5.916828,-19.657269,46.859295,57.64942,0.76817816,1.4115067,-6.685689
160,49.1630859375,9.923980712890625,77.53401947021484,1.96824432792124,1.8887839418966454,16.448828204554985,-1.324776,-5.744688,4.7599382,13.252824,-15.169212,3.8760037,-25.540836,-10.837555,-7.128253,50.871857,-11.01006,4.062385,-4.785,-4.8225007,12.94906,-30.387636,22.116991,-29.36903,54.603344,-2.3638105,-1.3519517,2.9773536,-5.8219213,-19.648321,46.950485,57.780834,0.7343002,1.432179,-6.652026
161,49.73991394042969,10.075055122375488,77.47435760498047,2.079689198573823,1.8461918717123453,16.619283774256704,-0.5669823,-5.924951,4.5519924,12.847105,-15.402472,3.8904157,-26.094492,-10.590152,-6.7369156,48.600544,-10.404754,4.152434,-4.7987676,-4.875298,12.979621,-30.508442,22.079529,-29.16881,53.797386,-2.5399466,-1.4500241,3.0021136,-5.7301636,-19.632507,47.05111,57.910034,0.71382195,1.4722652,-6.665208
162,50.335514068603516,10.221186637878418,77.41182708740234,2.1847560134080273,1.8084011093529937,16.767911139271277,0.17083925,-6.0914307,4.33539,12.481736,-15.6630945,3.914834,-26.594555,-10.305148,-6.315585,46.199825,-9.675974,4.2772007,-4.8001237,-4.91436,12.993644,-30.586546,22.037453,-29.027657,52.99012,-2.712713,-1.5449045,3.0204198,-5.6396294,-19.605562,47.150696,58.04764,0.7059751,1.5258309,-6.712411
163,50.91444396972656,10.369318962097168,77.33583068847656,2.2826933283075226,1.776511293406054,16.91060005281973,0.8765349,-6.242187,4.114423,12.178962,-15.95093,3.9400716,-27.042355,-10.000495,-5.880414,43.696617,-8.805421,4.434788,-4.797169,-4.9493847,13.001967,-30.602934,21.978224,-28.890451,52.17727,-2.8105948,-1.6263943,3.0338473,-5.5520554,-19.56014,47.220566,58.18775,0.6986767,1.5789678,-6.7676806
164,51.48762893676758,10.521086692810059,77.25524139404297,2.3716147166303965,1.7514859257698012,17.062801723058804,1.5447737,-6.3755097,3.8927684,11.94704,-16.263697,3.9574118,-27.43935,-9.6929035,-5.4478188,41.11569,-7.7735496,4.623819,-4.7915635,-4.9732475,13.007608,-30.60068,21.923138,-28.822922,51.396835,-2.897007,-1.6924262,3.048846,-5.456494,-19.508781,47.23223,58.3162,0.68773574,1.6192935,-6.8055053
165,52.075172424316406,10.662434577941895,77.17700958251953,2.4553176450087117,1.7317631707792662,17.223461997698063,2.1789792,-6.497836,3.6762197,11.783528,-16.602818,3.9657977,-27.777653,-9.385775,-5.006313,38.417126,-6.557893,4.8641925,-4.7889705,-4.9881024,13.0129595,-30.573357,21.880611,-28.822693,50.63314,-2.97096,-1.7370896,3.0646636,-5.351126,-19.456526,47.179955,58.428364,0.67222685,1.641696,-6.8212056
166,52.656288146972656,10.819293975830078,77.09703826904297,2.534951148430075,1.716311895276438,17.38709355853972,2.782221,-6.6096196,3.4607368,11.684169,-16.968643,3.9698842,-28.05356,-9.077237,-4.5473094,35.59246,-5.170289,5.149288,-4.7866564,-4.9976754,13.016557,-30.509392,21.843794,-28.872051,49.876575,-3.0162375,-1.7637136,3.0789075,-5.242017,-19.397003,47.0787,58.532784,0.65616417,1.653324,-6.827494
167,53.266014099121094,10.970561027526855,77.01872253417969,2.6053212880271204,1.707288589015633,17.562631487251394,3.349494,-6.7021093,3.2358778,11.649434,-17.352934,3.9707184,-28.277672,-8.776104,-4.092714,32.7168,-3.6452756,5.438979,-4.7975063,-5.0013227,13.023554,-30.380486,21.798725,-28.907944,49.12381,-2.9829214,-1.778972,3.0892344,-5.136504,-19.330994,46.947662,58.61987,0.63765424,1.6616545,-6.8251147
168,53.85939025878906,11.120448112487793,76.93440246582031,2.6609168262360803,1.706862767285489,17.75806032974672,3.873464,-6.7671223,2.9925292,11.685831,-17.75141,3.9701784,-28.46641,-8.489327,-3.6655772,29.873566,-2.0204132,5.6937723,-4.829762,-4.993194,13.0354,-30.175518,21.729412,-28.894182,48.389473,-2.8463416,-1.7919741,3.0954297,-5.0388355,-19.262112,46.80732,58.681286,0.6205814,1.6744851,-6.8153386
169,54.45577621459961,11.261475563049316,76.85624694824219,2.6895066758288038,1.7263851337472862,17.9763406419169,4.326751,-6.7936654,2.7279527,11.817354,-18.17648,3.9768965,-28.655426,-8.202124,-3.2563152,27.070057,-0.17336416,5.8413887,-4.860711,-4.9427223,13.032045,-30.01244,21.666151,-28.99841,47.75846,-2.7710187,-1.8159581,3.1082554,-4.9315896,-19.193666,46.623756,58.722725,0.6069397,1.6954732,-6.7955604
170,55.052162170410156,11.407981872558594,76.76929473876953,2.6987648113137648,1.7599659342425131,18.213693794781545,4.7247295,-6.793771,2.447108,12.029972,-18.624382,3.9889245,-28.829947,-7.924205,-2.8577502,24.273232,1.8700615,5.9245105,-4.8985147,-4.8691926,13.026236,-29.834114,21.606945,-29.15044,47.172127,-2.682079,-1.8397336,3.1220267,-4.818287,-19.126139,46.39841,58.735874,0.5917142,1.7199974,-6.7650795
171,55.6668701171875,11.557880401611328,76.67609405517578,2.7133816051017137,1.7832133099224194,18.470807100811346,5.125546,-6.7937074,2.1506853,12.270764,-19.064304,3.992604,-28.920622,-7.693114,-2.4990969,21.489738,3.853082,6.0775075,-4.9581122,-4.808482,13.036979,-29.564407,21.524843,-29.252178,46.59984,-2.4908373,-1.8560383,3.1285672,-4.7063427,-19.058447,46.179874,58.72351,0.5745174,1.7440101,-6.731943
172,56.30192565917969,11.720124244689941,76.56938171386719,2.7608650554759833,1.768634616343621,18.751376686835584,5.5919704,-6.823095,1.8353797,12.483551,-19.464245,3.9748957,-28.85022,-7.5441546,-2.2070765,18.714087,5.529774,6.4358907,-5.02354,-4.777577,13.061534,-29.290804,21.432932,-29.433977,46.14477,-2.3418386,-1.8725588,3.1316488,-4.576752,-18.992092,45.990578,58.707985,0.5542491,1.7633914,-6.7074695
173,56.94101333618164,11.876019477844238,76.45448303222656,2.85568335415795,1.6966729586258393,19.06106865756575,6.1724243,-6.8990507,1.4986646,12.619959,-19.804203,3.9310665,-28.537476,-7.4861894,-1.9815059,15.7918625,6.9711423,7.096607,-5.098679,-4.796866,13.115943,-29.001572,21.33565,-29.699091,45.79558,-2.2400336,-1.8919982,3.1335218,-4.418016,-18.926552,45.82531,58.674957,0.5198764,1.779095,-6.6952453
174,57.585060119628906,12.032862663269043,76.33425903320312,2.9989003513649033,1.574305917708677,19.40939090494562,6.8534703,-7.026282,1.1273673,12.6829,-20.088179,3.872566,-28.013466,-7.5182195,-1.8109273,12.732014,8.286904,7.973815,-5.2029853,-4.8738947,13.204709,-28.64699,21.219519,-29.970806,45.501686,-2.096847,-1.9087646,3.1302075,-4.243228,-18.859913,45.680088,58.618496,0.47905406,1.792732,-6.68889
175,58.2547492980957,12.187532424926758,76.20668029785156,3.1914286839836574,1.4183737413319977,19.801202811899707,7.580354,-7.204973,0.7090942,12.736006,-20.331928,3.8082068,-27.372295,-7.6494913,-1.7133007,9.768309,9.292787,8.925531,-5.33453,-5.000252,13.304528,-28.286201,21.091616,-30.295305,45.32057,-1.9612849,-1.9192147,3.1174095,-4.0593147,-18.792627,45.55995,58.565155,0.4430129,1.8016794,-6.6839204
176,58.941131591796875,12.35090160369873,76.07111358642578,3.4148227760479855,1.2584947035051315,20.226956962645705,8.27229,-7.411666,0.2479386,12.86929,-20.567663,3.7416987,-26.696007,-7.863156,-1.7190068,7.082577,9.832104,9.80302,-5.486378,-5.1529713,13.391243,-27.932087,20.955782,-30.663227,45.26534,-1.8272424,-1.9155657,3.0885258,-3.8773415,-18.72481,45.470314,58.53174,0.41710764,1.8033007,-6.67479
177,59.61122512817383,12.515618324279785,75.91480255126953,3.6895016422227824,1.097876019572211,20.698452127414093,8.921679,-7.6710467,-0.26576513,13.085414,-20.800383,3.679319,-26.707285,-8.216741,-1.800528,6.207884,8.786951,10.700326,-5.6788087,-5.3570547,13.464082,-27.530912,20.796713,-31.003283,45.296013,-1.6114761,-1.8841223,3.031522,-3.7056844,-18.656683,45.426075,58.51866,0.40928215,1.7901745,-6.664996
178,60.29727554321289,12.685589790344238,75.75420379638672,3.9988714028010572,0.9331446948183728,21.201914362919695,9.539197,-7.963757,-0.8153435,13.377257,-21.032413,3.6117296,-26.994024,-8.672344,-1.9953811,6.2319336,6.775486,11.648197,-5.8911657,-5.58937,13.520373,-27.127977,20.621447,-31.381456,45.44912,-1.3872027,-1.8363258,2.9562025,-3.5351012,-18.589746,45.416798,58.52429,0.41454613,1.7659066,-6.656718
179,60.995269775390625,12.83890151977539,75.6041259765625,4.251163313285443,0.7985105240125029,21.676149284531363,10.050727,-8.178579,-1.336944,13.832111,-21.298325,3.5139067,-27.189924,-9.064042,-2.250821,6.2881036,4.86121,12.388854,-6.0707293,-5.7598076,13.5501995,-26.68722,20.425081,-31.7561,45.69117,-1.1246954,-1.7867888,2.8782325,-3.3798273,-18.523626,45.436333,58.547523,0.4227649,1.7429246,-6.6396217
180,61.68399429321289,12.996848106384277,75.47496795654297,4.353463467692189,0.7304221726687589,22.06058786073306,10.387531,-8.205688,-1.7650843,14.521948,-21.62564,3.3609967,-27.327978,-9.225436,-2.4316196,6.3550353,3.653386,12.659504,-6.1594276,-5.7691183,13.537046,-26.228489,20.213041,-32.14906,46.03511,-0.8655562,-1.7543703,2.8163536,-3.2511747,-18.457792,45.47719,58.59509,0.4270096,1.7338399,-6.6042566
181,62.3784294128418,13.15113639831543,75.375244140625,4.251134362672757,0.7578543124557494,22.310600549261416,10.505054,-7.984679,-2.0566769,15.483338,-22.045403,3.1333015,-27.416874,-9.067474,-2.504274,6.433044,3.3091679,12.237881,-6.1190886,-5.559985,13.474361,-25.737106,19.98412,-32.537083,46.468006,-0.5846911,-1.7525411,2.774293,-3.1658735,-18.393166,45.545433,58.672264,0.42583624,1.7449225,-6.536405
182,63.08720779418945,13.304035186767578,75.29180145263672,3.9964903223789796,0.8570519618844562,22.469603545135644,10.460773,-7.5804424,-2.257078,16.647453,-22.524664,2.845646,-27.443926,-8.679758,-2.5278187,6.5418906,3.4994588,11.31527,-5.9873586,-5.1856565,13.367505,-25.227465,19.741236,-32.940376,47.00403,-0.2970775,-1.7691818,2.7429152,-3.1110077,-18.330944,45.641518,58.775967,0.4232517,1.7686288,-6.444887
183,63.7862434387207,13.462371826171875,75.21366119384766,3.6659525608940777,0.9802855008259003,22.61511825973554,10.346583,-7.081128,-2.4410486,17.922955,-22.991468,2.5266953,-27.819178,-8.192092,-2.442023,7.566151,3.6329834,10.24697,-5.8348765,-4.7335134,13.231423,-24.68685,19.484144,-33.360676,47.63436,-0.008438729,-1.7788516,2.717212,-3.0552065,-18.268188,45.749294,58.890003,0.41326135,1.7966267,-6.353103
184,64.52134704589844,13.6185884475708,75.13871002197266,3.333877382580255,1.083615175888341,22.82004092170185,10.244668,-6.5724535,-2.6756728,19.22814,-23.378529,2.2048275,-28.918842,-7.728643,-2.2079768,10.319116,3.1556082,9.386628,-5.7254972,-4.2858853,13.07769,-24.123013,19.216438,-33.822983,48.367336,0.2495303,-1.7578169,2.6939664,-2.9684596,-18.200678,45.848804,59.006123,0.38645303,1.82025,-6.285333
185,65.26769256591797,13.775738716125488,75.05742645263672,2.9996570017548723,1.1643660861883915,23.102827403955686,10.179483,-6.0481176,-2.9753401,20.533386,-23.697933,1.8659106,-29.765532,-7.23171,-1.8795884,12.790639,3.323696,8.808765,-5.671808,-3.8416421,12.895947,-23.543056,18.944613,-34.364964,49.219196,0.4370907,-1.6993724,2.6747723,-2.836167,-18.12332,45.946075,59.12645,0.34112725,1.8360922,-6.258234
186,66.04112243652344,13.945184707641602,74.98780822753906,2.6445789755153646,1.2312964340766168,23.43694057517423,10.133459,-5.489062,-3.3212826,21.855703,-23.960747,1.5035951,-30.51633,-6.683616,-1.4715096,15.314667,3.9523036,8.342767,-5.6521406,-3.38292,12.693867,-22.932722,18.668999,-34.958866,50.175537,0.58782685,-1.6150948,2.6590817,-2.6760764,-18.033293,46.04574,59.25759,0.2788178,1.8490386,-6.255377
187,66.83462524414062,14.096890449523926,74.921142578125,2.29516278013896,1.2750521403513506,23.812041017570053,10.086821,-4.938549,-3.709051,23.224863,-24.119104,1.1543049,-31.136208,-6.17438,-1.1655345,17.746954,4.6816835,7.9662795,-5.660135,-2.936328,12.497211,-22.300316,18.389788,-35.56959,51.220127,0.73448086,-1.511801,2.643307,-2.510013,-17.93086,46.13001,59.400757,0.20379691,1.862426,-6.2519593
188,67.63426971435547,14.246267318725586,74.87081909179688,1.9663212267859158,1.2957185704325562,24.20906614689697,10.002541,-4.4259343,-4.1256986,24.685274,-24.13248,0.85218024,-31.604275,-5.7932644,-1.1345912,19.95425,5.1433396,7.6350923,-5.6811943,-2.514841,12.325142,-21.656004,18.106466,-36.16386,52.336285,0.907639,-1.396519,2.6243246,-2.3582244,-17.818777,46.179207,59.55382,0.11906298,1.8795354,-6.2229114
189,68.4438247680664,14.409499168395996,74.83572387695312,1.6475506659115884,1.3024270022839683,24.637441238518903,9.88582,-3.937306,-4.6019006,26.211123,-24.01449,0.5859723,-31.927597,-5.598118,-1.4727558,21.94152,5.2591696,7.404776,-5.7205777,-2.1050563,12.169977,-20.993767,17.817123,-36.741524,53.527428,1.1037968,-1.2712115,2.6095908,-2.2071626,-17.699411,46.16827,59.70413,0.0053250613,1.9014966,-6.15841
190,69.2538833618164,14.578755378723145,74.81877899169922,1.324463802242991,1.3018264743215668,25.094324285950464,9.735673,-3.4503698,-5.1267266,27.802017,-23.783579,0.3423474,-32.140057,-5.543567,-2.055775,23.815758,5.187882,7.2476525,-5.774154,-1.6917014,12.019017,-20.312948,17.521399,-37.320034,54.800365,1.3088607,-1.1319411,2.5982163,-2.048624,-17.573912,46.109463,59.853004,-0.13639033,1.9264956,-6.072526
191,70.05895233154297,14.745969772338867,74.8122329711914,1.0027713283074942,1.2912547857400476,25.540198743989684,9.508186,-2.9788358,-5.626008,29.530869,-23.402557,0.1477341,-32.26571,-5.552966,-2.7300253,25.598356,4.916314,7.0024433,-5.814134,-1.2823426,11.882351,-19.622501,17.2203,-37.88222,56.135532,1.5472944,-0.9770097,2.57423,-1.9204555,-17.445366,46.050488,60.024746,-0.2617242,1.9528865,-5.9768023
192,70.83161926269531,14.912679672241211,74.8116683959961,0.6902637597320724,1.2659636521912878,25.93755002488569,9.159267,-2.5389082,-6.026941,31.477526,-22.83119,0.031198874,-32.316914,-5.531366,-3.3469937,27.280401,4.441571,6.526637,-5.8182917,-0.88768023,11.771611,-18.923723,16.916454,-38.400322,57.507675,1.8510377,-0.8046394,2.5210533,-1.8583772,-17.317862,46.03563,60.241283,-0.3331454,1.9796643,-5.882791
193,71.56261444091797,15.079095840454102,74.82371520996094,0.3954658395080136,1.2240201149437504,26.254106985333312,8.676705,-2.145891,-6.289845,33.687527,-22.057343,0.04448196,-32.338604,-5.4305634,-3.8571439,28.928455,3.6870687,5.6860466,-5.773701,-0.5134391,11.695258,-18.206896,16.612097,-38.859325,58.937656,2.2138395,-0.6318986,2.4351952,-1.8820175,-17.193993,46.08657,60.522175,-0.31607503,1.9992247,-5.7972355
194,72.31523895263672,15.268759727478027,74.86311340332031,0.11055794545517941,1.168309614024932,26.51654791041455,8.084213,-1.7811117,-6.4616594,36.10521,-21.096653,0.16209653,-32.30956,-5.28171,-4.3371363,30.512236,2.6877103,4.607396,-5.6982336,-0.15130888,11.644623,-17.463078,16.307966,-39.26249,60.41888,2.6341906,-0.45417425,2.3239791,-1.9719882,-17.075117,46.182323,60.85167,-0.23588067,2.0148876,-5.712805
195,73.09249877929688,15.443235397338867,74.9179458618164,-0.1809800492001985,1.1012949129194165,26.775220387376415,7.393974,-1.4117247,-6.6007085,38.65536,-19.95354,0.29441094,-32.145817,-5.1014204,-4.833108,31.878061,1.6075605,3.5426197,-5.614168,0.21252045,11.605119,-16.71788,16.009829,-39.645348,61.901897,3.1090558,-0.23922674,2.1881251,-2.09353,-16.961365,46.292854,61.185726,-0.15468763,2.042736,-5.619951
196,73.90271759033203,15.631095886230469,75.00248718261719,-0.4952653644703578,1.0266103201221337,27.079778541966924,6.6178102,-1.011842,-6.766858,41.266914,-18.634678,0.3460119,-31.768482,-4.918997,-5.394656,32.887783,0.5970461,2.7388926,-5.5416293,0.589141,11.562737,-15.998589,15.726623,-40.047546,63.338253,3.631453,0.044072956,2.027813,-2.2209752,-16.854403,46.394646,61.488678,-0.12695819,2.0978603,-5.5092115
197,74.69219207763672,15.81737232208252,75.09014892578125,-0.8375952876964622,0.933562576258336,27.4379864116877,5.7378554,-0.58350587,-6.9642572,43.992966,-17.046467,0.3478092,-31.118893,-4.7409935,-6.0452003,33.48288,-0.35346326,2.2900293,-5.48768,0.9767459,11.525286,-15.292697,15.463166,-40.465305,64.73843,4.234919,0.4224159,1.8432819,-2.342644,-16.752726,46.490173,61.747864,-0.18931536,2.201141,-5.359153
198,75.43942260742188,15.994182586669922,75.19001770019531,-1.2010405522988166,0.8264548090992936,27.82410657611676,4.752487,-0.1457871,-7.1696963,46.850994,-15.217857,0.32223842,-30.258837,-4.547491,-6.755414,33.75829,-1.3145893,2.0575905,-5.4394436,1.3713123,11.49731,-14.588453,15.2209835,-40.881275,66.11311,4.9114776,0.87215215,1.6311096,-2.47733,-16.656286,46.59205,61.98449,-0.30244005,2.3382158,-5.1808386
199,76.180908203125,16.165210723876953,75.30938720703125,-1.5816153619753528,0.7318356458943573,28.235307499262873,3.6990929,0.29811007,-7.4036837,49.720287,-13.340924,0.16346756,-29.285961,-4.3347974,-7.498473,33.798424,-2.2251284,1.9382112,-5.3883085,1.7797145,11.462031,-13.911868,15.004893,-41.30848,67.411415,5.596239,1.3496064,1.3868223,-2.631197,-16.569326,46.674484,62.196873,-0.4255827,2.4727266,-5.01287
200,76.93873596191406,16.334680557250977,75.4431381225586,-1.9765863357734812,0.6760739734930219,28.669746936863408,2.6027205,0.7462234,-7.6936545,52.510937,-11.626164,-0.22511531,-28.30019,-4.097412,-8.250685,33.689224,-3.0262747,1.8239943,-5.3239574,2.2103531,11.40396,-13.289366,14.821405,-41.765648,68.57435,6.2203474,1.8160089,1.1074328,-2.808153,-16.499535,46.710674,62.37732,-0.51530373,2.5689034,-4.893744
201,77.66868591308594,16.500585556030273,75.57948303222656,-2.405148452124601,0.6788109238317094,29.14732912968239,1.4268572,1.2004708,-8.117693,55.28111,-10.043271,-0.98520595,-27.31238,-3.819838,-9.043204,33.402992,-3.694379,1.6989505,-5.2579684,2.681288,11.31215,-12.736049,14.674831,-42.27226,69.607574,6.7820125,2.2898908,0.7835746,-3.0007534,-16.45169,46.677525,62.50325,-0.57418704,2.6206474,-4.830862
202,78.37252044677734,16.658231735229492,75.70980072021484,-2.8575272162385947,0.7228770741666884,29.660821306538654,0.16381684,1.6396503,-8.650859,58.083878,-8.52752,-2.0257058,-26.279236,-3.5053115,-9.875775,32.91036,-4.2615795,1.6131473,-5.1884623,3.178023,11.200045,-12.234351,14.566165,-42.81582,70.5282,7.3110547,2.7827008,0.41967097,-3.2055387,-16.428131,46.59163,62.57403,-0.6209506,2.6466253,-4.804073
203,79.05696105957031,16.827211380004883,75.84554290771484,-3.290659722118763,0.7774939038064942,30.168449112089235,-1.1224368,2.0538235,-9.154195,60.822598,-7.238484,-3.0755448,-25.220009,-3.178017,-10.679991,32.29855,-4.7558265,1.5546826,-5.1252337,3.660959,11.095541,-11.728884,14.522199,-43.30922,71.25944,7.804332,3.242459,0.033104625,-3.4554143,-16.432388,46.525654,62.62167,-0.6325654,2.6491494,-4.8112373
204,79.71233367919922,17.00269317626953,75.97699737548828,-3.66637120003833,0.81119260190811,30.629068284739425,-2.375693,2.4639943,-9.476929,63.399574,-6.324693,-3.8483355,-24.152348,-2.8629866,-11.390993,31.655573,-5.2055917,1.5123419,-4.954576,4.098345,11.003401,-11.266716,14.4928875,-43.82927,71.83582,8.214961,3.618413,-0.34993044,-3.6993148,-16.467318,46.405388,62.645153,-0.62083244,2.6282027,-4.848461
205,80.34935760498047,17.18952178955078,76.11955261230469,-3.987170942368588,0.8111167677979466,31.045965344287293,-3.586016,2.908299,-9.595517,65.833046,-5.8546066,-4.2767353,-23.057913,-2.5615504,-12.0096245,30.97326,-5.602701,1.4890898,-4.7365875,4.500969,10.944422,-10.811077,14.497173,-44.298687,72.191536,8.57913,3.9193544,-0.76439816,-3.9720771,-16.55365,46.301292,62.63966,-0.5540692,2.5811872,-4.925935
206,80.99113464355469,17.389427185058594,76.26807403564453,-4.273716827677908,0.7949010499615567,31.4367773827222,-4.7921267,3.40413,-9.576324,68.16907,-5.736691,-4.4856596,-21.934029,-2.260229,-12.569072,30.212992,-5.9358597,1.4855297,-4.4929223,4.8840265,10.906604,-10.362794,14.543305,-44.722706,72.341225,8.901408,4.165717,-1.2076004,-4.274077,-16.687065,46.211353,62.598454,-0.44216266,2.5088065,-5.041687
207,81.63738250732422,17.596187591552734,76.42066192626953,-4.5179579356122375,0.7755360756991199,31.78369308169726,-6.005095,3.954911,-9.399724,70.33403,-5.8715854,-4.4752965,-20.815123,-1.962827,-13.055039,29.4105,-6.2259474,1.4898632,-4.202384,5.2317886,10.875375,-9.918612,14.630753,-45.09361,72.32518,9.146939,4.324064,-1.6037941,-4.593206,-16.864483,46.130726,62.529243,-0.31053823,2.4215133,-5.1720395
208,82.26241302490234,17.796398162841797,76.56681823730469,-4.711053373106418,0.7660015269178678,32.06847303033813,-7.2314067,4.5546365,-9.04583,72.2502,-6.1596775,-4.2554865,-19.735405,-1.675191,-13.452463,28.603363,-6.494205,1.4927677,-3.8558846,5.527477,10.835995,-9.469077,14.758901,-45.390102,72.18337,9.282791,4.3613276,-1.8766934,-4.9262567,-17.078579,46.065567,62.4505,-0.18667872,2.3299243,-5.2942576
209,82.88306427001953,18.01178741455078,76.71634674072266,-4.835823273260002,0.7739340334684286,32.277215023615184,-8.484334,5.214862,-8.4660425,73.905754,-6.6955905,-3.7288241,-18.714354,-1.410967,-13.739299,27.80463,-6.743988,1.4996108,-3.4360125,5.753193,10.77403,-9.013319,14.930106,-45.60561,71.904816,9.308987,4.237776,-2.00746,-5.274298,-17.323792,46.017944,62.36669,-0.066600986,2.222549,-5.413117
210,83.49514770507812,18.212247848510742,76.85684204101562,-4.902185866567575,0.7893208890919223,32.421926058251834,-9.743779,5.934336,-7.689903,75.33685,-7.5007854,-2.93883,-17.728128,-1.1684046,-13.929582,26.995878,-6.96566,1.5159714,-2.9532547,5.921376,10.701259,-8.553265,15.145023,-45.75164,71.47278,9.239239,3.9827104,-2.036289,-5.64258,-17.597588,45.98628,62.275475,0.059442233,2.0981026,-5.5377116
211,84.08550262451172,18.4277400970459,76.99164581298828,-4.941015685235991,0.7982546488050699,32.52247845854697,-10.967031,6.681691,-6.806742,76.53492,-8.359111,-2.1065054,-16.749191,-0.9307558,-14.060636,26.170036,-7.162129,1.5337273,-2.4401822,6.060711,10.64153,-8.084156,15.398263,-45.83123,70.92124,9.063364,3.6666045,-1.9757651,-6.0366406,-17.89601,45.972286,62.18925,0.17425178,1.982153,-5.652062
212,84.67079162597656,18.640600204467773,77.127197265625,-4.983485199916581,0.7877655522148947,32.59983002429663,-12.116363,7.430973,-5.897393,77.487404,-9.043263,-1.4420239,-15.746582,-0.6787618,-14.170462,25.313879,-7.3341465,1.5433023,-1.9299617,6.201037,10.617163,-7.6030774,15.679818,-45.845215,70.28962,8.774063,3.3589582,-1.8381001,-6.461328,-18.213362,45.977978,62.121243,0.26246715,1.9004637,-5.740348
213,85.2520523071289,18.867891311645508,77.26046752929688,-5.025479543662137,0.7494753091361263,32.638775989035906,-13.170638,8.201079,-4.9153423,78.16585,-9.450919,-0.9998478,-14.716206,-0.41288966,-14.245692,24.431656,-7.480744,1.5380834,-1.4076325,6.3407464,10.63129,-7.1110864,15.982452,-45.785397,69.57683,8.335478,3.0495224,-1.6063489,-6.924966,-18.546768,46.018066,62.08986,0.31585088,1.8617276,-5.7948613
214,85.83000946044922,19.093236923217773,77.3819351196289,-5.054514905627155,0.6915741928974076,32.63478862445658,-14.146116,8.997231,-3.8276057,78.58374,-9.71048,-0.6696051,-13.667946,-0.14214939,-14.272841,23.51932,-7.6003566,1.5248964,-0.8625872,6.469199,10.6708765,-6.611151,16.303274,-45.655636,68.77541,7.7646704,2.7080011,-1.2826126,-7.4240985,-18.893751,46.088165,62.089012,0.34518608,1.8516123,-5.825739
215,86.40237426757812,19.334312438964844,77.4963150024414,-5.08886235771739,0.6264939878815685,32.62580422389358,-15.07474,9.768831,-2.736846,78.7975,-9.942208,-0.41527796,-12.60763,0.13718292,-14.291042,22.58274,-7.701792,1.5123367,-0.33390754,6.6014028,10.731518,-6.10724,16.637384,-45.47666,67.92247,7.131761,2.3721235,-0.9048479,-7.9483247,-19.249815,46.15861,62.101818,0.3594175,1.8606464,-5.844464
216,86.97459411621094,19.547178268432617,77.59657287597656,-5.145804802020924,0.5671439884364139,32.65050549627117,-15.995137,10.462225,-1.7487782,78.86184,-10.264954,-0.20201808,-11.539804,0.42937866,-14.339596,21.62331,-7.7929425,1.5086871,0.14057285,6.7509685,10.807715,-5.604642,16.978273,-45.26984,67.05372,6.505756,2.0844262,-0.50936514,-8.483526,-19.608858,46.195168,62.110672,0.36477658,1.8794696,-5.8625445
217,87.5411605834961,19.775876998901367,77.68358612060547,-5.228141933806431,0.5168636562513725,32.708039058838494,-16.917984,11.066662,-0.87274325,78.77632,-10.738378,-0.02861106,-10.469591,0.7370979,-14.419812,20.64012,-7.871092,1.5130863,0.561104,6.920958,10.898564,-5.107558,17.321392,-45.036022,66.16717,5.886644,1.8536494,-0.066864274,-9.041521,-19.967016,46.207264,62.13573,0.35972393,1.9099203,-5.88559
218,88.09746551513672,20.005773544311523,77.75419616699219,-5.325603931193871,0.4693696771434833,32.78187125711487,-17.827658,11.603179,-0.055632118,78.51315,-11.285038,0.08408971,-9.393862,1.0564536,-14.512968,19.633327,-7.933996,1.521396,0.94487596,7.1025567,11.003956,-4.6157117,17.664434,-44.766884,65.256035,5.2426343,1.6563795,0.43036,-9.620183,-20.32227,46.198467,62.181835,0.33181217,1.9555228,-5.9067645
219,88.64120483398438,20.238840103149414,77.81344604492188,-5.435703146289755,0.42311637921116574,32.88710124845165,-18.727106,12.064781,0.6894777,78.08338,-11.817354,0.13978375,-8.301069,1.3843787,-14.62837,18.596073,-7.985026,1.5369259,1.2837062,7.28951,11.121015,-4.1338468,18.003796,-44.47386,64.35466,4.592827,1.4873639,0.9161,-10.2077675,-20.673096,46.15409,62.22535,0.3068685,2.0079856,-5.9191785
220,89.19180297851562,20.472034454345703,77.86092376708984,-5.5564002238011545,0.37681996118145494,33.0389146109753,-19.618645,12.4451685,1.3496262,77.498055,-12.24925,0.14341617,-7.183569,1.7174342,-14.775596,17.529154,-8.031523,1.5631157,1.5698891,7.4757895,11.246221,-3.6675236,18.334436,-44.168476,63.499294,3.9569986,1.3432,1.3244748,-10.780429,-21.018328,46.04282,62.234295,0.29379076,2.0595984,-5.916089
221,89.74359130859375,20.71057891845703,77.90289306640625,-5.691304999118489,0.3303297962216192,33.246273757400516,-20.51014,12.737565,1.912281,76.75717,-12.579869,0.07896773,-6.031157,2.0591037,-14.958972,16.416576,-8.066131,1.6056815,1.7951788,7.6654553,11.37958,-3.2160985,18.652773,-43.850742,62.687725,3.3153389,1.232441,1.653374,-11.341099,-21.358095,45.858963,62.211605,0.29353216,2.117659,-5.8838005
222,90.26571655273438,20.9427490234375,77.92323303222656,-5.838340517011692,0.2851112235027822,33.49881936922137,-21.400158,12.945725,2.3906016,75.85246,-12.846144,-0.047645092,-4.8524804,2.409569,-15.171509,15.265052,-8.088378,1.6600025,1.9670103,7.8575506,11.521618,-2.7803695,18.956932,-43.515053,61.911476,2.6667016,1.1551028,1.9344956,-11.891657,-21.692825,45.606853,62.16821,0.2901854,2.1834257,-5.829956
223,90.82437896728516,21.18890380859375,77.92994689941406,-5.986084018739275,0.24224005612830452,33.783406222265086,-22.27588,13.078616,2.8104696,74.78286,-13.019993,-0.19823419,-3.6575084,2.7633116,-15.405802,14.08538,-8.106114,1.716164,2.1050155,8.039421,11.671203,-2.3786302,19.244328,-43.180664,61.203117,2.0457757,1.0960457,2.1528182,-12.428544,-22.02244,45.300194,62.09776,0.30701038,2.2391558,-5.7794976
224,91.39054107666016,21.437915802001953,77.92894744873047,-6.124314335204688,0.20256332668577084,34.08634111256817,-23.12393,13.145189,3.1967993,73.54795,-13.073707,-0.33598632,-2.4651873,3.1128557,-15.6545725,12.909452,-8.1336,1.7663909,2.2306964,8.199911,11.826878,-2.0290499,19.51112,-42.8656,60.595596,1.4910012,1.0408736,2.2933333,-12.951598,-22.346651,44.957237,61.996113,0.37426773,2.2669613,-5.7577643
225,91.9453353881836,21.682010650634766,77.91429138183594,-6.25193413484565,0.16186774400882992,34.410985007654986,-23.943605,13.133353,3.5399742,72.14253,-12.972365,-0.45489883,-1.2604747,3.458989,-15.923823,11.720002,-8.167283,1.8111037,2.3440557,8.33616,11.993596,-1.740966,19.754705,-42.562454,60.102432,0.99578124,0.98884207,2.3270655,-13.46159,-22.666527,44.567562,61.86254,0.51715934,2.2551796,-5.773617
226,92.48719024658203,21.92517852783203,77.88372039794922,-6.372568485131429,0.12214362868703119,34.76115061767874,-24.739294,13.043306,3.8329499,70.56561,-12.74093,-0.5718326,-0.040272396,3.8050315,-16.213863,10.508895,-8.200954,1.8575913,2.435919,8.453518,12.168901,-1.5026959,19.973145,-42.26189,59.70793,0.5500876,0.948694,2.2712371,-13.943561,-22.98203,44.107784,61.690636,0.69464564,2.2159424,-5.812728
227,93.03231811523438,22.17620849609375,77.8458251953125,-6.483144384357222,0.09308513645343379,35.12453132883955,-25.504284,12.901254,4.105815,68.82296,-12.4419565,-0.68526524,1.1729573,4.148217,-16.509747,9.290706,-8.232694,1.9096576,2.5149703,8.551447,12.340531,-1.3166399,20.164648,-41.99981,59.413578,0.16625248,0.91916806,2.1806724,-14.403898,-23.292484,43.615612,61.49172,0.8794726,2.1660457,-5.8658566
228,93.57530975341797,22.43408966064453,77.7940902709961,-6.58214803952348,0.08435888885136113,35.489154388935646,-26.232088,12.733901,4.3875794,66.920204,-12.137368,-0.7950237,2.347891,4.484454,-16.797724,8.100783,-8.268449,1.9699742,2.5892503,8.631263,12.495767,-1.1805334,20.326336,-41.805508,59.218338,-0.1357546,0.89812213,2.1103199,-14.855473,-23.596918,43.134254,61.283466,1.0474303,2.12211,-5.924011
229,94.12374114990234,22.694625854492188,77.73210144042969,-6.672249035605192,0.1046044449195429,35.85730851479766,-26.936815,12.537286,4.6759315,64.84808,-11.842259,-0.9017422,3.3604758,4.780451,-17.091557,7.1880794,-8.438088,2.0466669,2.6580737,8.696031,12.627635,-1.1103783,20.456223,-41.702175,59.14124,-0.36167067,0.88281345,2.0631404,-15.319128,-23.894075,42.685,61.07584,1.2058965,2.0897477,-5.9785814
230,94.66695404052734,22.960289001464844,77.65931701660156,-6.754926985652655,0.14658983378234797,36.2328183160903,-27.613195,12.302999,4.9573383,62.601746,-11.523049,-1.0056437,3.9542093,4.946426,-17.42079,7.1466665,-9.059293,2.1427763,2.7103858,8.746822,12.740046,-1.0961844,20.552061,-41.661476,59.17944,-0.51593786,0.8747849,2.013768,-15.728174,-24.18058,42.17146,60.82315,1.2801018,2.0612845,-6.0365996
231,95.21650695800781,23.230541229248047,77.58047485351562,-6.8273601449821735,0.19594966961594243,36.606580287620744,-28.226313,12.047801,5.2446847,60.19277,-11.168685,-1.1080261,4.540842,5.1035566,-17.743803,7.1103253,-9.676034,2.2412388,2.766178,8.782137,12.847348,-1.1268578,20.613071,-41.665432,59.306313,-0.5838437,0.87732047,1.9772059,-16.151167,-24.459366,41.69902,60.589115,1.4056695,2.027397,-6.113022
232,95.73979949951172,23.48555564880371,77.48554229736328,-6.8874044185621095,0.23782086840874334,36.97019897821262,-28.741096,11.785602,5.5515304,57.63023,-10.767022,-1.2119662,5.140342,5.249662,-18.047298,7.0767546,-10.287275,2.3295188,2.8195188,8.802411,12.958399,-1.1668757,20.637074,-41.66969,59.487495,-0.5465417,0.8936361,1.9661281,-16.524412,-24.72652,41.208496,60.341324,1.5191228,1.9830209,-6.222333
233,96.27482604980469,23.760486602783203,77.38787078857422,-6.933820569288025,0.26488561836392416,37.32591071030536,-29.136868,11.520691,5.909375,54.88501,-10.320594,-1.3131227,5.762704,5.3831153,-18.330564,7.04491,-10.8958235,2.3966246,2.8663602,8.805536,13.080064,-1.2195826,20.622183,-41.684544,59.73931,-0.36760032,0.9274914,1.9871036,-16.836954,-24.98101,40.689495,60.07315,1.6199409,1.9205409,-6.3796134
234,96.82543182373047,24.056970596313477,77.29093933105469,-6.971157319369728,0.28535099200343284,37.677571200601996,-29.432755,11.238702,6.301279,51.954914,-9.829033,-1.4173458,6.397088,5.5085034,-18.600084,7.015182,-11.50164,2.4506917,2.9307961,8.795393,13.216303,-1.3202367,20.569891,-41.74249,60.075474,-0.06668597,0.976319,2.033981,-17.28359,-25.229044,40.355145,59.92193,1.9466343,1.8408939,-6.573803
235,97.38258361816406,24.367136001586914,77.1833724975586,-7.005066842518395,0.3070118514830937,38.01809887597477,-29.652773,10.927087,6.66845,48.883057,-9.278569,-1.5407305,7.032747,5.6320915,-18.85408,6.986122,-12.098132,2.5081642,2.9775116,8.781471,13.341671,-1.4133478,20.478611,-41.774483,60.446926,0.28946432,1.0337268,2.0941443,-17.61334,-25.458336,39.922215,59.704853,2.1424778,1.7624998,-6.778973
236,97.9359359741211,24.69013214111328,77.0677719116211,-7.039956312100448,0.3376078465233506,38.34030908798324,-29.825426,10.579336,6.9488287,45.71964,-8.658196,-1.6944989,7.6570807,5.757856,-19.091177,6.9604597,-12.680189,2.5855157,3.0340567,8.768707,13.448863,-1.501315,20.352917,-41.77271,60.818638,0.6259368,1.0935345,2.1602192,-17.908752,-25.668722,39.48303,59.489204,2.3032477,1.6958764,-6.9698586
237,98.49874114990234,25.02941131591797,76.93846893310547,-7.0820079401296265,0.37442894219528505,38.6534118706717,-29.93611,10.19261,7.1317616,42.415115,-7.932186,-1.8916872,8.275805,5.8946457,-19.318893,6.93531,-13.251025,2.6844153,3.0913591,8.762193,13.53985,-1.579735,20.19454,-41.7319,61.201557,0.94076884,1.15004,2.239158,-18.168066,-25.855446,39.032703,59.2782,2.4216764,1.6430227,-7.1522737
238,99.05127716064453,25.343536376953125,76.79512786865234,-7.130369271696426,0.41286918076892026,38.95569416325029,-29.967976,9.778811,7.243664,38.94436,-7.1081233,-2.1187925,8.8953,6.040486,-19.533274,6.9096613,-13.808465,2.796974,3.149245,8.760114,13.62062,-1.6540049,20.004526,-41.665455,61.60514,1.2656875,1.209591,2.3320944,-18.400751,-26.016167,38.579468,59.077232,2.513298,1.5975488,-7.335894
239,99.60791778564453,25.67378807067871,76.6476821899414,-7.17856851887456,0.458180449748766,39.222180030192504,-29.941612,9.360343,7.2795606,35.387413,-6.238788,-2.3436701,9.50509,6.1834235,-19.71414,6.8868666,-14.347381,2.9239137,3.2229767,8.756852,13.687033,-1.7144561,19.786304,-41.558372,61.985493,1.5882996,1.2782801,2.4212854,-18.621367,-26.151573,38.14495,58.887653,2.586938,1.5600201,-7.501642
240,100.16597747802734,26.03486442565918,76.50091552734375,-7.222060708621584,0.5147837918612874,39.428570887325336,-29.880703,8.961973,7.2343345,31.831203,-5.3799276,-2.5345497,10.092567,6.313677,-19.842129,6.874362,-14.86413,3.0634313,3.32581,8.749323,13.735623,-1.7484021,19.546553,-41.396423,62.28807,1.8935735,1.3684413,2.4888604,-18.844164,-26.264187,37.75205,58.70981,2.6522193,1.5311483,-7.630276
241,100.72859191894531,26.400602340698242,76.34871673583984,-7.267179305990813,0.5843612283670009,39.56866918228992,-29.774305,8.571342,7.0446177,28.186207,-4.4706264,-2.7308993,10.650276,6.4413323,-19.914444,6.8759584,-15.368422,3.20695,3.4607332,8.743376,13.767785,-1.7474091,19.287724,-41.15951,62.501247,2.2032566,1.498639,2.5407193,-19.069452,-26.354494,37.389282,58.537197,2.7041152,1.5147778,-7.7147446
