unveil-humanoid-operators/unveil-humanoid-operators.github.io/feature-analysis-animation/data/feature_matrix_instances/height_root_translate_peak_vel_dancing_A323.csv
Frame,root_translateX,root_translateY,root_translateZ,root_rotateX,root_rotateY,root_rotateZ,left_hip_pitch_joint_dof,left_hip_roll_joint_dof,left_hip_yaw_joint_dof,left_knee_joint_dof,left_ankle_pitch_joint_dof,left_ankle_roll_joint_dof,right_hip_pitch_joint_dof,right_hip_roll_joint_dof,right_hip_yaw_joint_dof,right_knee_joint_dof,right_ankle_pitch_joint_dof,right_ankle_roll_joint_dof,waist_yaw_joint_dof,waist_roll_joint_dof,waist_pitch_joint_dof,left_shoulder_pitch_joint_dof,left_shoulder_roll_joint_dof,left_shoulder_yaw_joint_dof,left_elbow_joint_dof,left_wrist_roll_joint_dof,left_wrist_pitch_joint_dof,left_wrist_yaw_joint_dof,right_shoulder_pitch_joint_dof,right_shoulder_roll_joint_dof,right_shoulder_yaw_joint_dof,right_elbow_joint_dof,right_wrist_roll_joint_dof,right_wrist_pitch_joint_dof,right_wrist_yaw_joint_dof
0,2.0578455924987793,-0.25335341691970825,77.87830352783203,-1.543802357982461,0.3110502611473785,178.11232489513586,4.3453217,8.332435,16.218582,11.705959,-13.768191,-6.23594,1.9544506,-2.1047673,-6.234259,10.472744,-13.123745,4.3765907,-1.7271405,1.01959,4.3874116,-1.7050223,14.104867,-46.652092,60.247353,12.577516,0.6003958,9.7336645,-2.0458658,-11.309874,37.271378,61.664425,-9.409393,-2.5407107,-1.9388603
1,2.060105800628662,-0.25486230850219727,77.87846374511719,-1.5475534103782291,0.31458357058920533,178.11023415965215,4.355556,8.331655,16.225094,11.673607,-13.761617,-6.285489,1.9495809,-2.1020684,-6.2369475,10.468412,-13.112162,4.379193,-1.7392386,1.0287641,4.3904457,-1.7187916,14.118458,-46.71783,60.253216,12.52265,0.6123245,9.758346,-2.0607438,-11.315342,37.312866,61.684868,-9.400591,-2.5765965,-1.9579037
2,2.060293674468994,-0.2520475387573242,77.8828353881836,-1.5516530119443717,0.31878137834149,178.10827270984333,4.3663616,8.331046,16.231688,11.638079,-13.753963,-6.339258,1.9442604,-2.0989513,-6.2402096,10.463103,-13.099529,4.3818946,-1.7416453,1.0368302,4.3869085,-1.7314417,14.139116,-46.818005,60.25441,12.444211,0.626476,9.78883,-2.0634496,-11.321718,37.35909,61.699875,-9.380202,-2.6136374,-1.9825948
3,2.0630857944488525,-0.25690406560897827,77.8800277709961,-1.5549003500050853,0.32237708996393816,178.1060251704728,4.3754745,8.330058,16.238142,11.6082115,-13.747683,-6.3846583,1.9385417,-2.0969825,-6.242171,10.4606695,-13.089479,4.3844295,-1.7398738,1.0427123,4.3858347,-1.742744,14.163236,-46.909344,60.250782,12.37551,0.64059085,9.815756,-2.065685,-11.327745,37.393963,61.71146,-9.366811,-2.6469545,-2.0033858
4,2.065152645111084,-0.26221925020217896,77.8799057006836,-1.5558487545945234,0.324313404605764,178.10332640618782,4.380861,8.327873,16.243778,11.591078,-13.743958,-6.4091277,1.932984,-2.0975056,-6.241001,10.462743,-13.08453,4.38651,-1.7376583,1.0458385,4.3864584,-1.7468114,14.186025,-46.97364,60.242565,12.328645,0.6541175,9.836483,-2.0681686,-11.332513,37.420444,61.71768,-9.361017,-2.670141,-2.0166426
5,2.0654187202453613,-0.26453539729118347,77.88208770751953,-1.5529449869560072,0.3237143518168236,178.09974240238736,4.3801284,8.323779,16.248573,11.594198,-13.743931,-6.4008074,1.9262556,-2.1026142,-6.2344847,10.474534,-13.088711,4.388352,-1.7360005,1.0456405,4.3891907,-1.7490078,14.19413,-46.99352,60.245632,12.317781,0.66406256,9.847446,-2.0745425,-11.334031,37.434444,61.721268,-9.371049,-2.679412,-2.0189006
6,2.0667219161987305,-0.26838088035583496,77.88351440429688,-1.5473337819474537,0.32186469502243925,178.09545351494202,4.3746676,8.31823,16.252863,11.611493,-13.746529,-6.369289,1.9189819,-2.1107795,-6.2241545,10.491731,-13.098482,4.389926,-1.7304015,1.0407888,4.389189,-1.7367423,14.211303,-47.00552,60.23219,12.312766,0.6752898,9.855497,-2.0742826,-11.337016,37.450687,61.714664,-9.378527,-2.677212,-2.018397
7,2.068244457244873,-0.26945045590400696,77.88395690917969,-1.5416625612579433,0.3193420608207794,178.0913095189175,4.3691573,8.312906,16.256521,11.6309805,-13.750018,-6.334,1.9120147,-2.1189668,-6.213768,10.509955,-13.10966,4.390947,-1.7250261,1.0359529,4.3909307,-1.7278548,14.222754,-47.000656,60.22691,12.322431,0.6851282,9.860298,-2.0760527,-11.338954,37.45799,61.70772,-9.389459,-2.6722333,-2.0118988
8,2.0677919387817383,-0.27091699838638306,77.88346862792969,-1.538969190820788,0.3174840436037314,178.08829957933858,4.3678575,8.308913,16.259073,11.638868,-13.751413,-6.3144574,1.90854,-2.1237602,-6.2073145,10.519582,-13.115469,4.3910747,-1.7230036,1.035427,4.3923306,-1.7181089,14.230259,-46.996407,60.219357,12.331841,0.69820654,9.867932,-2.079835,-11.340346,37.466427,61.703434,-9.388733,-2.670314,-2.0040107
9,2.0674757957458496,-0.2720235586166382,77.88275146484375,-1.5411944466522982,0.3167544848996901,178.08687327620842,4.371,8.308407,16.259844,11.634309,-13.752763,-6.316382,1.90862,-2.1230717,-6.2067866,10.519245,-13.114867,4.3890376,-1.728171,1.0394343,4.3942413,-1.7032821,14.247074,-46.99219,60.20146,12.336805,0.7139065,9.87996,-2.0858727,-11.343806,37.483204,61.69952,-9.363793,-2.6737785,-1.9928647
10,2.0670204162597656,-0.2750622034072876,77.88095092773438,-1.5462955191339254,0.31672344325494933,178.08649112015664,4.3768864,8.309785,16.259325,11.6214485,-13.753135,-6.329177,1.9116063,-2.118862,-6.2098308,10.511672,-13.110249,4.3854375,-1.7274514,1.046371,4.394143,-1.700868,14.251462,-46.99322,60.20261,12.343088,0.72961515,9.894295,-2.0888817,-11.344936,37.487038,61.69711,-9.3324995,-2.6790454,-1.9778167
11,2.067213773727417,-0.2770715653896332,77.8792953491211,-1.5515825686310298,0.3161176701186816,178.0862115402148,4.3855724,8.310646,16.258854,11.603842,-13.751767,-6.348004,1.9161531,-2.1146216,-6.2134056,10.501911,-13.103985,4.3825536,-1.7278167,1.0542873,4.394006,-1.6952319,14.256398,-46.99541,60.19746,12.350248,0.7493479,9.909542,-2.0946753,-11.346576,37.493004,61.697575,-9.2970915,-2.6843512,-1.9631062
12,2.0691232681274414,-0.28079038858413696,77.87998962402344,-1.554478507816548,0.31563472409603904,178.08526603953993,4.3946695,8.309059,16.259722,11.585164,-13.74753,-6.3679624,1.9173478,-2.1133423,-6.214611,10.499007,-13.1009245,4.3825784,-1.7287169,1.060365,4.392709,-1.6908411,14.259982,-46.997723,60.19235,12.360843,0.76842713,9.91962,-2.099622,-11.347968,37.49852,61.698166,-9.27812,-2.6874514,-1.9551094
13,2.0687336921691895,-0.28225040435791016,77.88131713867188,-1.5537101736885324,0.3147905457823843,178.08286530663943,4.407659,8.303019,16.263086,11.558914,-13.737508,-6.39748,1.9153892,-2.1163034,-6.2115254,10.502559,-13.100276,4.386984,-1.7303442,1.0632925,4.3904777,-1.6866819,14.267002,-47.000195,60.18445,12.376423,0.7878701,9.922689,-2.104437,-11.350887,37.504288,61.698906,-9.283257,-2.6866343,-1.9542702
14,2.0718109607696533,-0.2864249646663666,77.88191223144531,-1.5518737495014707,0.31433029555435704,178.08026423787362,4.420907,8.295895,16.266874,11.531151,-13.725805,-6.4361205,1.9121346,-2.120346,-6.2069435,10.507838,-13.099715,4.3940988,-1.732139,1.0651362,4.3869762,-1.6862369,14.269661,-47.001606,60.181328,12.397555,0.8067966,9.920895,-2.1089633,-11.352151,37.505287,61.70053,-9.3057575,-2.6829994,-1.9576542
15,2.071207046508789,-0.28832483291625977,77.8834228515625,-1.5476726618680972,0.31283031794177013,178.07703764345032,4.436182,8.285807,16.272287,11.5015135,-13.710939,-6.4648533,1.9072007,-2.1276803,-6.201468,10.519187,-13.1025095,4.40225,-1.7325757,1.0658046,4.384508,-1.684622,14.272739,-47.00404,60.171974,12.420656,0.8290436,9.917978,-2.113771,-11.353671,37.505783,61.703556,-9.3308525,-2.6802442,-1.965504
16,2.071424722671509,-0.2903177738189697,77.88397979736328,-1.5451871162808701,0.3114134466803772,178.07571016929603,4.439225,8.280778,16.274576,11.498378,-13.706327,-6.4656687,1.9056795,-2.1330757,-6.19982,10.524815,-13.103283,4.4086847,-1.7336719,1.0661006,4.3810005,-1.6864876,14.273824,-47.00613,60.17078,12.440853,0.84674615,9.91708,-2.1176665,-11.354285,37.506786,61.708256,-9.343778,-2.6807718,-1.9757092
17,2.0687856674194336,-0.29209622740745544,77.88441467285156,-1.5424832791300485,0.30959664793304437,178.07643687815712,4.426198,8.279547,16.274092,11.530962,-13.713192,-6.416802,1.904597,-2.139638,-6.2027903,10.532583,-13.106396,4.413737,-1.7324817,1.0662194,4.3783317,-1.6877891,14.281012,-47.018074,60.161213,12.454022,0.86656773,9.9192295,-2.1183372,-11.358401,37.514458,61.713604,-9.333191,-2.6906967,-1.9993749
18,2.071021318435669,-0.2937885820865631,77.88394927978516,-1.5405562740706904,0.3075392052387715,178.07882869141403,4.4003663,8.282291,16.271194,11.591675,-13.729208,-6.3339415,1.9058383,-2.1458626,-6.209259,10.537151,-13.108323,4.4181027,-1.7324812,1.0654298,4.375316,-1.6913062,14.284994,-47.027706,60.156567,12.466427,0.88316834,9.9222,-2.1172624,-11.360951,37.522583,61.719547,-9.312845,-2.704106,-2.0301394
19,2.0711445808410645,-0.2959258556365967,77.88251495361328,-1.539199337808564,0.3056567676350323,178.0815319042243,4.3743877,8.286057,16.267828,11.652708,-13.746815,-6.2535377,1.907494,-2.1510806,-6.216139,10.540937,-13.110392,4.4212556,-1.732725,1.0653056,4.370858,-1.6954888,14.28846,-47.03936,60.15281,12.476845,0.90079635,9.926444,-2.1164372,-11.363456,37.533134,61.726246,-9.289528,-2.716468,-2.0567749
20,2.070502281188965,-0.2993478775024414,77.88257598876953,-1.5378805454391693,0.30349983632747696,178.08270479176326,4.363956,8.285944,16.267138,11.681284,-13.755558,-6.2119255,1.9101441,-2.155464,-6.219793,10.542549,-13.111655,4.422883,-1.7322958,1.0654619,4.366245,-1.6997348,14.291787,-47.048862,60.149506,12.490505,0.9220801,9.931436,-2.1176844,-11.366222,37.54132,61.73103,-9.277036,-2.7209413,-2.0653577
21,2.0703489780426025,-0.3031170666217804,77.88214874267578,-1.5371530824769943,0.30172230524319804,178.08215910341553,4.375046,8.281568,16.269512,11.662909,-13.752749,-6.231763,1.9124703,-2.157891,-6.2192154,10.542195,-13.112148,4.421319,-1.7314143,1.0664217,4.3604803,-1.703866,14.293729,-47.053387,60.14747,12.507662,0.94723606,9.935295,-2.1229758,-11.368298,37.544506,61.73458,-9.283035,-2.7136629,-2.0458853
22,2.0698890686035156,-0.30386149883270264,77.88238525390625,-1.535512444835757,0.29896707094430114,178.0799901280152,4.404841,8.27177,16.275072,11.607653,-13.739309,-6.2890387,1.9154246,-2.1606367,-6.2152467,10.541463,-13.11276,4.41762,-1.7294061,1.0671734,4.3558507,-1.7074928,14.295761,-47.057285,60.141758,12.525596,0.97884095,9.939447,-2.1330225,-11.371054,37.545372,61.737125,-9.297998,-2.6984186,-2.0051224
23,2.06880521774292,-0.3060983121395111,77.8822250366211,-1.5345149155229634,0.2962399314355098,178.07750911544528,4.434852,8.262741,16.28076,11.551478,-13.72612,-6.3511724,1.9186547,-2.1624103,-6.21073,10.540126,-13.112991,4.4143615,-1.7252942,1.0694944,4.3531713,-1.7120817,14.300697,-47.060787,60.13329,12.548134,1.0103315,9.944801,-2.1413658,-11.379664,37.541367,61.735386,-9.315736,-2.6827204,-1.9611534
24,2.068721055984497,-0.30679452419281006,77.8836898803711,-1.5347705236987348,0.2938217717842661,178.07547658529023,4.4519367,8.258035,16.284445,11.5230055,-13.721175,-6.3853307,1.9215374,-2.1635044,-6.2077746,10.539441,-13.112543,4.4144526,-1.7230904,1.0718423,4.349309,-1.7190405,14.301711,-47.063072,60.130333,12.577436,1.041892,9.955024,-2.1474977,-11.381779,37.541237,61.7377,-9.325554,-2.6705697,-1.9346368
25,2.0684330463409424,-0.30725523829460144,77.88581848144531,-1.5346356211899117,0.2904204396968139,178.0731661514801,4.456186,8.255723,16.287344,11.524327,-13.7225275,-6.3790703,1.9246435,-2.1661198,-6.2062097,10.540925,-13.110988,4.42241,-1.7182657,1.0744308,4.3485904,-1.7280346,14.304456,-47.07338,60.122776,12.612268,1.0768734,9.974113,-2.1525886,-11.388668,37.54214,61.741074,-9.318193,-2.6632292,-1.9290524
26,2.0661733150482178,-0.3073507249355316,77.88894653320312,-1.5350794844635909,0.28734264038690566,178.07114413537872,4.4499435,8.2564,16.288698,11.5475025,-13.730167,-6.3512363,1.9282229,-2.1685781,-6.206001,10.540753,-13.106811,4.4353876,-1.7153007,1.0780151,4.3470917,-1.738063,14.306402,-47.082714,60.117725,12.655363,1.1111066,9.9979,-2.1567252,-11.394287,37.544933,61.747726,-9.304041,-2.658865,-1.9361786
27,2.066410541534424,-0.3147459030151367,77.8863754272461,-1.5358913339335276,0.2835108051125275,178.06877201456965,4.4426184,8.257999,16.290245,11.574881,-13.738476,-6.3151855,1.9313375,-2.1705534,-6.2050314,10.54336,-13.105338,4.4458013,-1.7134116,1.0812085,4.344953,-1.7478331,14.307048,-47.087822,60.115013,12.697278,1.1426653,10.020412,-2.1598084,-11.39608,37.547348,61.75673,-9.292466,-2.6565826,-1.9457899
28,2.0680625438690186,-0.31791260838508606,77.88235473632812,-1.5390896645345655,0.27902012077520355,178.06690099304237,4.435161,8.26313,16.290648,11.604232,-13.749845,-6.2847433,1.9345393,-2.1688411,-6.202979,10.547159,-13.108035,4.4458213,-1.7050836,1.0863729,4.345968,-1.7609608,14.308244,-47.100533,60.10882,12.736654,1.1795645,10.0435,-2.164793,-11.400183,37.55413,61.768005,-9.277361,-2.661119,-1.9536905
29,2.067744731903076,-0.3203134834766388,77.88264465332031,-1.5442623944377367,0.2723946570461706,178.06548516551226,4.4308205,8.271238,16.290548,11.63195,-13.76191,-6.254675,1.9376684,-2.1633265,-6.198163,10.555409,-13.119577,4.427406,-1.6950059,1.0935633,4.3476806,-1.7740215,14.309357,-47.10944,60.10457,12.767999,1.2119607,10.059479,-2.1682336,-11.404448,37.561245,61.78233,-9.27376,-2.6752102,-1.9537601
30,2.067161798477173,-0.32325151562690735,77.8817138671875,-1.55171472785274,0.26415011108033193,178.06451565479446,4.426049,8.28319,16.28945,11.6640415,-13.776247,-6.2208066,1.9404685,-2.154293,-6.1916924,10.567429,-13.137627,4.3965855,-1.6840706,1.10362,4.3517632,-1.7877306,14.31121,-47.116413,60.098484,12.796128,1.2440946,10.072589,-2.172471,-11.412669,37.573097,61.799324,-9.27219,-2.698125,-1.9517403
31,2.066040515899658,-0.3214566111564636,77.88328552246094,-1.5575125370278302,0.2570117482424445,178.06326972328046,4.426778,8.29127,16.289425,11.682214,-13.785698,-6.197024,1.9417951,-2.1471636,-6.1851645,10.580408,-13.155277,4.3676763,-1.6734936,1.1109093,4.3525434,-1.7986228,14.311584,-47.117325,60.096107,12.82465,1.2701602,10.081963,-2.174663,-11.414202,37.57689,61.813824,-9.280081,-2.714881,-1.9453806
32,2.0669472217559814,-0.32360392808914185,77.88168334960938,-1.562112905950999,0.25187524145818907,178.05959836187654,4.4326925,8.295672,16.29225,11.684923,-13.791721,-6.198428,1.9436088,-2.142099,-6.1790223,10.586024,-13.162444,4.354128,-1.6672384,1.1204983,4.354581,-1.8085552,14.313677,-47.116707,60.08632,12.851343,1.3001024,10.089823,-2.1815264,-11.425561,37.592117,61.82479,-9.276267,-2.7292972,-1.9361207
33,2.066972017288208,-0.32857394218444824,77.88174438476562,-1.5620198429617178,0.252298150549571,178.05369850603304,4.452334,8.28835,16.299067,11.646269,-13.784255,-6.243933,1.9438609,-2.1436894,-6.1747775,10.581706,-13.154376,4.3646617,-1.6614556,1.1256461,4.3477736,-1.8126864,14.315032,-47.115417,60.077785,12.875977,1.3243735,10.095275,-2.1836617,-11.433728,37.595783,61.82241,-9.275891,-2.7218943,-1.9182867
34,2.0665345191955566,-0.33202454447746277,77.88380432128906,-1.5593904242397083,0.25599134148297276,178.0458927271351,4.4822736,8.273672,16.308968,11.578279,-13.76744,-6.3208485,1.9431834,-2.148958,-6.17124,10.571183,-13.136772,4.390109,-1.6550872,1.130884,4.3368883,-1.8150396,14.316588,-47.114998,60.068527,12.897239,1.3454119,10.097814,-2.1847432,-11.446087,37.59387,61.813107,-9.275719,-2.7054992,-1.8928301
35,2.0658695697784424,-0.33612877130508423,77.88275909423828,-1.5563336565719368,0.2600050706695241,178.0381424306174,4.5101624,8.258994,16.318815,11.513669,-13.7516365,-6.394869,1.9425691,-2.1548371,-6.168305,10.559637,-13.117342,4.4187064,-1.6483355,1.1337358,4.325894,-1.8183653,14.317583,-47.11645,60.061005,12.91595,1.3653297,10.098791,-2.1839864,-11.453562,37.590023,61.801514,-9.277957,-2.6855118,-1.8702587
36,2.065676689147949,-0.3367418944835663,77.88264465332031,-1.5543283272736768,0.2612410279642691,178.0321980714653,4.5265927,8.249628,16.326159,11.4793625,-13.744448,-6.431362,1.9428105,-2.1596823,-6.1654925,10.553177,-13.104513,4.438905,-1.6417564,1.1373543,4.319339,-1.8256508,14.318621,-47.12117,60.056435,12.930424,1.3824053,10.097608,-2.1842518,-11.460488,37.587048,61.795273,-9.282965,-2.674099,-1.8564869
37,2.0660061836242676,-0.3384813666343689,77.88166809082031,-1.5550068564647168,0.258636737544942,178.02961863661187,4.5208683,8.251144,16.328476,11.499163,-13.75401,-6.4089813,1.9450612,-2.1612027,-6.163986,10.552711,-13.100256,4.446586,-1.6339573,1.1452509,4.3201046,-1.839296,14.321829,-47.136246,60.051792,12.932954,1.3945955,10.092761,-2.1797292,-11.4779215,37.586052,61.78753,-9.288564,-2.6749902,-1.8551785
38,2.0674571990966797,-0.34290438890457153,77.87886810302734,-1.5571563422965677,0.2538039273192499,178.02889228049102,4.5023847,8.2586155,16.328257,11.55113,-13.773659,-6.350129,1.9487562,-2.16125,-6.1633496,10.5553875,-13.100316,4.448283,-1.6317999,1.1522272,4.3234177,-1.8544878,14.323985,-47.148216,60.05162,12.931888,1.4034556,10.084515,-2.1827667,-11.486171,37.591045,61.794796,-9.297475,-2.6812532,-1.8644007
39,2.0672757625579834,-0.3458999693393707,77.87982177734375,-1.5585841044337074,0.24880790705680453,178.0284304945551,4.482698,8.265644,16.32756,11.605648,-13.792915,-6.2863483,1.951758,-2.1621237,-6.1621346,10.5597,-13.102704,4.4481373,-1.6292061,1.1588719,4.326674,-1.8694129,14.327436,-47.16425,60.051983,12.928557,1.412268,10.077704,-2.1850495,-11.496391,37.598637,61.801296,-9.304011,-2.6901557,-1.8762621
40,2.0676302909851074,-0.34795472025871277,77.88069915771484,-1.557739571647717,0.24529119927506132,178.0264721465725,4.473326,8.266036,16.328558,11.634943,-13.802794,-6.249127,1.9522192,-2.16604,-6.158799,10.565772,-13.10697,4.4501863,-1.6269944,1.1625713,4.327836,-1.8813826,14.329521,-47.17267,60.05518,12.938348,1.4248216,10.074996,-2.189469,-11.5015135,37.604248,61.806698,-9.311939,-2.6973052,-1.8840549
41,2.068148136138916,-0.35226649045944214,77.87945556640625,-1.5533177443038055,0.2445741066078216,178.02246973218618,4.4782557,8.256522,16.331236,11.626813,-13.797673,-6.25159,1.9498388,-2.1742103,-6.1520333,10.570158,-13.111735,4.455838,-1.62311,1.1632485,4.3241897,-1.8886586,14.330672,-47.17721,60.060425,12.964682,1.4418515,10.0789385,-2.194402,-11.504187,37.6086,61.80865,-9.316159,-2.701815,-1.8854053
42,2.067321538925171,-0.35691148042678833,77.87980651855469,-1.5449211744203832,0.24506082251341763,178.016348467598,4.4948277,8.238216,16.336264,11.591577,-13.780763,-6.27504,1.9425482,-2.187596,-6.1416106,10.581485,-13.121747,4.4631557,-1.6167693,1.1602327,4.320293,-1.895055,14.333794,-47.183098,60.06533,12.999742,1.4639904,10.08802,-2.1997232,-11.512107,37.618202,61.805847,-9.311053,-2.7076373,-1.88507
43,2.0658936500549316,-0.35936957597732544,77.88079071044922,-1.5369899094412112,0.24568622802989343,178.0105927157257,4.5127716,8.220103,16.341553,11.553469,-13.764048,-6.3042965,1.9360638,-2.2002425,-6.132036,10.591129,-13.130684,4.470114,-1.6134857,1.1578977,4.315796,-1.8969548,14.337391,-47.184643,60.068676,13.033229,1.4866042,10.098884,-2.2017546,-11.521466,37.628582,61.794895,-9.309081,-2.711456,-1.8839278
44,2.068325996398926,-0.3633502423763275,77.88096618652344,-1.5320227168998617,0.24480546785791682,178.00629774481283,4.5274673,8.207847,16.347382,11.525922,-13.753894,-6.3238325,1.9336426,-2.2092707,-6.1259527,10.5969515,-13.135494,4.475042,-1.6127913,1.1591107,4.3126087,-1.8996893,14.340357,-47.184925,60.07476,13.053042,1.5064665,10.107986,-2.2048545,-11.529017,37.635506,61.784336,-9.318164,-2.7168384,-1.8831239
45,2.0696494579315186,-0.3657204210758209,77.88221740722656,-1.5318373744358944,0.2416404152799299,178.00432369853291,4.537898,8.20435,16.354597,11.514079,-13.754914,-6.331078,1.9370812,-2.2125628,-6.1257367,10.597626,-13.133848,4.4767284,-1.6158004,1.1644258,4.310661,-1.9025924,14.342888,-47.186127,60.0844,13.048099,1.5241784,10.117154,-2.2076874,-11.535065,37.63992,61.77205,-9.345287,-2.724056,-1.8848126
46,2.068678379058838,-0.3678203225135803,77.88216400146484,-1.5344000054143985,0.23705114473249306,178.0036772759149,4.546611,8.206063,16.363184,11.510039,-13.762551,-6.333784,1.943518,-2.2125697,-6.1291237,10.596485,-13.128985,4.476373,-1.6207732,1.1725379,4.309183,-1.9059576,14.345405,-47.18832,60.09745,13.026634,1.540402,10.1269865,-2.2107267,-11.540754,37.642326,61.758163,-9.384357,-2.733157,-1.8873183
47,2.067347526550293,-0.3705298900604248,77.88037872314453,-1.5369690332893957,0.2329942009446891,178.00332752227155,4.553255,8.208069,16.37103,11.509266,-13.770988,-6.3317366,1.949125,-2.2125313,-6.1325436,10.596117,-13.124602,4.4758987,-1.6245133,1.1805862,4.305767,-1.9083349,14.346556,-47.189762,60.111965,13.007811,1.5548404,10.134087,-2.2152817,-11.543087,37.6433,61.74839,-9.417699,-2.7400184,-1.8896682
48,2.066276788711548,-0.3756308853626251,77.87997436523438,-1.5378111935727452,0.22913331125269953,178.0020131145715,4.5595484,8.206855,16.376404,11.508251,-13.775073,-6.325121,1.9550786,-2.2141044,-6.132268,10.593076,-13.121162,4.4770603,-1.6292248,1.1871318,4.304338,-1.9132537,14.348611,-47.19395,60.12564,12.99347,1.5698472,10.139932,-2.2202864,-11.547083,37.64479,61.739967,-9.438516,-2.744064,-1.8907254
49,2.0652015209198,-0.38048338890075684,77.87904357910156,-1.5345956828059906,0.22788177149658073,177.99941528445473,4.560693,8.19934,16.377113,11.510535,-13.773293,-6.3079276,1.9546909,-2.2202342,-6.1259513,10.595057,-13.124076,4.4813557,-1.630016,1.1908852,4.300848,-1.9194425,14.352486,-47.203705,60.136433,12.995135,1.5842631,10.140739,-2.226613,-11.553802,37.649044,61.735603,-9.423785,-2.7402554,-1.8891156
50,2.064939498901367,-0.3838082253932953,77.8795394897461,-1.529491240600429,0.22809246664496372,177.99614231850424,4.5586257,8.188664,16.374966,11.515703,-13.768301,-6.2822866,1.9516994,-2.228636,-6.1160054,10.597635,-13.1293745,4.4874196,-1.6298677,1.1936904,4.296046,-1.9252417,14.358612,-47.217907,60.144184,13.002652,1.5975502,10.138437,-2.234503,-11.562964,37.65605,61.735016,-9.386881,-2.7325888,-1.8852279
51,2.0651633739471436,-0.3871244490146637,77.88024139404297,-1.5245648678953732,0.228267423077667,177.99285690328705,4.55705,8.178094,16.372526,11.520062,-13.762814,-6.2595167,1.9486035,-2.2367058,-6.1060596,10.600806,-13.135318,4.49325,-1.6297779,1.1955748,4.2907896,-1.9291177,14.36099,-47.22319,60.15335,13.0219345,1.6099567,10.133443,-2.2413306,-11.566016,37.65897,61.735905,-9.35407,-2.7224455,-1.882899
52,2.064044237136841,-0.39071837067604065,77.8814697265625,-1.5213666995275086,0.2271505717276054,177.99010510195785,4.5605545,8.169784,16.373055,11.516737,-13.758014,-6.2508106,1.9479046,-2.2428088,-6.0996757,10.602749,-13.138774,4.4970255,-1.6270703,1.1988142,4.2852416,-1.9286841,14.364399,-47.221687,60.160057,13.046596,1.6185057,10.1258545,-2.2454054,-11.5702915,37.658504,61.732994,-9.335355,-2.7154882,-1.8825452
53,2.0645275115966797,-0.39226213097572327,77.88121032714844,-1.5212878726630186,0.22395557007090547,177.98835792187907,4.5721507,8.1654215,16.37769,11.501591,-13.75451,-6.2670517,1.9512765,-2.2456062,-6.098758,10.603536,-13.139549,4.497394,-1.6227889,1.2044531,4.2824254,-1.9168713,14.368909,-47.189133,60.159325,13.0982685,1.6211499,10.109247,-2.2395704,-11.576683,37.642685,61.715332,-9.351955,-2.712445,-1.8830953
54,2.066434860229492,-0.3936960697174072,77.87989044189453,-1.5230967299179208,0.2193801290346102,177.9872684874926,4.589444,8.163124,16.384802,11.478072,-13.751119,-6.2995644,1.9568999,-2.246359,-6.101195,10.603975,-13.138735,4.4956694,-1.6215786,1.2126464,4.2849402,-1.8957251,14.373234,-47.123215,60.149853,13.178243,1.6189464,10.083553,-2.2308578,-11.584172,37.617092,61.686905,-9.391772,-2.7110884,-1.8821825
55,2.067176103591919,-0.39749765396118164,77.87976837158203,-1.5257654600714115,0.21452530825679392,177.98637433939467,4.6053576,8.162637,16.391996,11.45791,-13.749971,-6.3307023,1.9635185,-2.2460554,-6.104549,10.602973,-13.136643,4.493688,-1.6228144,1.2216775,4.286091,-1.8756851,14.376426,-47.063316,60.14307,13.249352,1.6152593,10.061887,-2.2240283,-11.590689,37.596645,61.6628,-9.433576,-2.7107098,-1.8839266
56,2.063244342803955,-0.40215206146240234,77.87913513183594,-1.5284700985470951,0.21068538579381324,177.9852995778626,4.6135006,8.163478,16.397055,11.452131,-13.752936,-6.342718,1.9686211,-2.2455676,-6.106591,10.602345,-13.13473,4.493225,-1.6237226,1.2301576,4.282623,-1.86963,14.377569,-47.04886,60.147743,13.276073,1.6137037,10.056241,-2.224167,-11.592885,37.591816,61.65483,-9.457979,-2.7103622,-1.8913647
57,2.0611813068389893,-0.40575098991394043,77.87960052490234,-1.5314575583626377,0.20696904610253392,177.98419548916428,4.6103964,8.167014,16.399055,11.46972,-13.762756,-6.323717,1.9750575,-2.244134,-6.1074805,10.597371,-13.130163,4.494969,-1.6393764,1.2410345,4.2856817,-1.874581,14.380202,-47.055603,60.15208,13.270865,1.6137325,10.0661745,-2.2391353,-11.596346,37.599777,61.658287,-9.481599,-2.7122936,-1.9007233
58,2.0633678436279297,-0.4107569456100464,77.87983703613281,-1.535162492718947,0.2037998686743507,177.9832221462304,4.598947,8.173306,16.399029,11.503885,-13.778245,-6.285574,1.980634,-2.241651,-6.1082816,10.592486,-13.125058,4.4978924,-1.6505156,1.2530148,4.282742,-1.889204,14.389244,-47.126488,60.157413,13.207649,1.6174726,10.096254,-2.2502923,-11.604287,37.628487,61.663975,-9.482945,-2.7145553,-1.9196811
59,2.0624215602874756,-0.412911981344223,77.88001251220703,-1.5384535496196279,0.20133762471712782,177.9818835992013,4.5869255,8.178806,16.398758,11.537438,-13.793059,-6.246167,1.9860562,-2.239522,-6.107741,10.5858,-13.119598,4.50123,-1.6631557,1.2639406,4.282322,-1.9083345,14.395124,-47.18876,60.166424,13.147168,1.619034,10.124777,-2.2676425,-11.608093,37.65196,61.676258,-9.486343,-2.715508,-1.9341364
60,2.0614147186279297,-0.41359230875968933,77.88106536865234,-1.539813628434812,0.20071719030913646,177.97976154231424,4.580194,8.180062,16.400019,11.554993,-13.801739,-6.2233586,1.9875493,-2.239713,-6.104696,10.582205,-13.116865,4.5043335,-1.6577847,1.2700227,4.274321,-1.9233842,14.404889,-47.26052,60.172333,13.08619,1.6190931,10.146861,-2.2699432,-11.613622,37.667557,61.680225,-9.473388,-2.7102797,-1.9429691
61,2.0629630088806152,-0.41685765981674194,77.88114166259766,-1.5382285758946743,0.20253959765609808,177.97609555092956,4.5814395,8.175439,16.403555,11.5496025,-13.80157,-6.2252684,1.9837837,-2.2432928,-6.0969934,10.583119,-13.118867,4.506639,-1.6514505,1.2728848,4.268289,-1.9299166,14.409981,-47.278122,60.17537,13.065104,1.6132747,10.150767,-2.275709,-11.616472,37.67133,61.682724,-9.453202,-2.69474,-1.9336034
62,2.0635576248168945,-0.4190482795238495,77.88087463378906,-1.535645637451654,0.20595490439551353,177.97207550619882,4.58562,8.168116,16.407515,11.533109,-13.797169,-6.241376,1.9781189,-2.2480242,-6.086897,10.582764,-13.121605,4.508495,-1.6414795,1.2740829,4.2603393,-1.9320128,14.411203,-47.27878,60.176975,13.055256,1.6063293,10.14856,-2.2780383,-11.617168,37.671986,61.684734,-9.423662,-2.6739447,-1.9177595
63,2.064054012298584,-0.42211875319480896,77.8797836303711,-1.5319331762537618,0.21022139850209848,177.96716675924387,4.592477,8.158783,16.4126,11.509643,-13.789947,-6.261255,1.9705844,-2.2538128,-6.0758967,10.584624,-13.125503,4.5109835,-1.6295257,1.2733834,4.2510495,-1.9334576,14.416498,-47.27322,60.178787,13.047944,1.5949568,10.140048,-2.2817657,-11.620351,37.673878,61.68637,-9.3870735,-2.651284,-1.8973368
64,2.063772678375244,-0.4241402745246887,77.878662109375,-1.5288637767386164,0.21165670035476503,177.96392625360343,4.601077,8.150196,16.416246,11.488309,-13.783568,-6.2746897,1.9671725,-2.2593777,-6.068973,10.58562,-13.127721,4.515102,-1.6328347,1.2748158,4.2502265,-1.9238784,14.429216,-47.252167,60.16118,13.048239,1.5823861,10.125824,-2.2867472,-11.627599,37.685776,61.680397,-9.363466,-2.6400404,-1.8830446
65,2.0610926151275635,-0.4228931963443756,77.88251495361328,-1.5294426822514224,0.21010440604349434,177.96418771902293,4.6051726,8.147451,16.415596,11.483393,-13.7863865,-6.2804813,1.9742215,-2.260725,-6.0699263,10.574662,-13.121933,4.5218964,-1.634453,1.2795129,4.2491264,-1.9244783,14.43428,-47.2488,60.158875,13.043383,1.5683941,10.110666,-2.2870395,-11.630246,37.688374,61.68318,-9.364887,-2.6489801,-1.8823301
66,2.0616345405578613,-0.4252457022666931,77.8802261352539,-1.5313270891106048,0.20655302654047775,177.96639369928016,4.6091437,8.146679,16.41275,11.482821,-13.792009,-6.283436,1.9870633,-2.2605457,-6.0753446,10.558285,-13.112506,4.5307155,-1.6381408,1.2860874,4.2505236,-1.9257438,14.43803,-47.247894,60.15603,13.039013,1.5528628,10.091524,-2.2842216,-11.6320305,37.68895,61.68528,-9.378662,-2.6694872,-1.8879575
67,2.062689781188965,-0.4298325777053833,77.87882995605469,-1.5335004270719734,0.20303427773679747,177.9687440728879,4.6116037,8.146615,16.409433,11.485364,-13.798056,-6.283448,1.998794,-2.2601655,-6.0814404,10.543963,-13.103643,4.538778,-1.6413653,1.2921101,4.2521834,-1.9283593,14.444184,-47.248974,60.15395,13.033691,1.5364345,10.070915,-2.2802794,-11.634746,37.688538,61.68743,-9.395751,-2.6930778,-1.8960619
68,2.064183235168457,-0.4334505796432495,77.8783950805664,-1.5346928619610398,0.2014365414617042,177.96972860793574,4.6110334,8.146151,16.406654,11.489482,-13.801216,-6.2804527,2.0058055,-2.2605174,-6.084842,10.533191,-13.096694,4.543314,-1.6419574,1.2969015,4.2533937,-1.9317414,14.452189,-47.252293,60.14995,13.025322,1.5217304,10.051576,-2.2761161,-11.638106,37.68958,61.68741,-9.40563,-2.710888,-1.9038645
69,2.0645580291748047,-0.43490952253341675,77.87989044189453,-1.533630714151236,0.20291607640640533,177.96792155811195,4.6059766,8.143814,16.404993,11.49554,-13.799241,-6.271985,2.0025609,-2.2637696,-6.0838394,10.53409,-13.095046,4.5446095,-1.6403672,1.2997267,4.251676,-1.9368681,14.455806,-47.254547,60.15127,13.018618,1.5111779,10.036995,-2.2757533,-11.639541,37.692745,61.689827,-9.407737,-2.7186134,-1.9097278
70,2.0643773078918457,-0.43640202283859253,77.88011932373047,-1.5314168477339334,0.20636715611541281,177.96482427099795,4.597432,8.14095,16.403345,11.504078,-13.793952,-6.2589674,1.9942544,-2.2681878,-6.0808587,10.539384,-13.094909,4.5437636,-1.6374806,1.3014905,4.2485595,-1.9445252,14.457329,-47.2572,60.155666,13.009794,1.5007967,10.022173,-2.2767344,-11.640139,37.697334,61.69424,-9.405075,-2.7239294,-1.9168793
71,2.0672614574432373,-0.44008302688598633,77.88064575195312,-1.5293432000823126,0.2109372368104785,177.961802939624,4.5867195,8.138466,16.402073,11.514429,-13.789987,-6.2458925,1.9814651,-2.272612,-6.076988,10.550766,-13.099017,4.539553,-1.6351,1.3028969,4.244416,-1.9575125,14.460473,-47.26324,60.165268,12.993535,1.4876404,10.004971,-2.2779222,-11.641288,37.709053,61.69896,-9.394718,-2.7285488,-1.9264838
72,2.0677683353424072,-0.44214773178100586,77.88005828857422,-1.5292586076827557,0.2127237862015187,177.96082059116986,4.581598,8.137969,16.40152,11.51977,-13.788592,-6.2376575,1.9748933,-2.2738838,-6.074019,10.55757,-13.104749,4.5305605,-1.6421177,1.3043673,4.2418923,-1.9536856,14.479527,-47.26742,60.152084,12.969865,1.4758294,9.989952,-2.2757707,-11.647635,37.7388,61.6957,-9.372888,-2.7312238,-1.9375165
73,2.0665197372436523,-0.4435855746269226,77.87979888916016,-1.53259600726275,0.21023966050393647,177.9630890534085,4.5828667,8.14099,16.401901,11.522241,-13.793732,-6.2347693,1.974927,-2.2709665,-6.0717683,10.563188,-13.117466,4.511828,-1.6480547,1.3082236,4.2476225,-1.9471842,14.500941,-47.259903,60.13113,12.956044,1.4617413,9.970063,-2.2709043,-11.653393,37.746643,61.687473,-9.364154,-2.7351391,-1.9402229
74,2.067739248275757,-0.444987416267395,77.87896728515625,-1.5378001567957063,0.20570761285105302,177.96743263344106,4.5876627,8.146164,16.403051,11.52207,-13.802418,-6.234826,1.9780047,-2.265154,-6.069564,10.5681505,-13.134913,4.4856095,-1.6502551,1.3150585,4.251165,-1.9500821,14.502945,-47.25819,60.13204,12.941688,1.4479008,9.953935,-2.266315,-11.653716,37.746304,61.686775,-9.355977,-2.7386324,-1.9402581
75,2.0665998458862305,-0.4424973726272583,77.88302612304688,-1.5436141361171134,0.20009809150521313,177.97181440514325,4.59431,8.151833,16.404324,11.520772,-13.811579,-6.238584,1.983284,-2.2586844,-6.0681643,10.571259,-13.150159,4.4614882,-1.6523308,1.3218815,4.2565255,-1.9557635,14.505972,-47.25394,60.13428,12.924803,1.429985,9.93321,-2.258914,-11.654048,37.74515,61.684216,-9.350016,-2.7426567,-1.9442316
76,2.0695674419403076,-0.4464377760887146,77.87962341308594,-1.5477454071373034,0.19780157714348537,177.97428036687165,4.598635,8.154823,16.405334,11.515519,-13.815052,-6.2463355,1.9852153,-2.2545438,-6.0682673,10.572251,-13.155884,4.449292,-1.6524991,1.3269231,4.2601824,-1.9604897,14.510106,-47.24972,60.133453,12.909525,1.4145691,9.916814,-2.253822,-11.654296,37.74455,61.6849,-9.350433,-2.7463944,-1.956324
77,2.071280002593994,-0.44948551058769226,77.88004302978516,-1.5501495105273673,0.19851404795317434,177.97376213156232,4.603782,8.154066,16.40607,11.500966,-13.809321,-6.2636395,1.9851068,-2.2532277,-6.0709276,10.569059,-13.146295,4.454047,-1.6505018,1.3321656,4.265022,-1.9684991,14.514575,-47.244606,60.129246,12.893088,1.3977911,9.897004,-2.2484684,-11.654391,37.746777,61.687416,-9.3631115,-2.75307,-1.9896214
78,2.0726425647735596,-0.4523535668849945,77.87958526611328,-1.5518867683667785,0.20187693922728914,177.9716230101169,4.6076584,8.151899,16.406393,11.481929,-13.798652,-6.2885036,1.9827374,-2.2528515,-6.0756826,10.562815,-13.12632,4.4697056,-1.6463789,1.3378758,4.266942,-1.9756236,14.517397,-47.24233,60.123844,12.875499,1.3832446,9.880483,-2.2466807,-11.654339,37.750828,61.69794,-9.381219,-2.7611716,-2.0341177
79,2.072577714920044,-0.454886257648468,77.88050842285156,-1.552071181551202,0.2058925691621206,177.96883883775766,4.610812,8.1477785,16.407095,11.462938,-13.786986,-6.3098903,1.9799526,-2.2545915,-6.0800114,10.556064,-13.105465,4.4894905,-1.6443026,1.3411616,4.2690854,-1.9810358,14.523985,-47.236977,60.11549,12.856628,1.3677735,9.866128,-2.2452753,-11.653705,37.759476,61.70657,-9.396622,-2.7667322,-2.0766718
80,2.072965383529663,-0.4542806148529053,77.88273620605469,-1.5501012220792258,0.2093699598810961,177.96708125208454,4.6105666,8.1422825,16.40775,11.452232,-13.77974,-6.3168683,1.9772724,-2.2588618,-6.0822062,10.550334,-13.091808,4.506593,-1.6494395,1.3412393,4.2717385,-1.9742177,14.537872,-47.222073,60.09381,12.840695,1.3521962,9.856642,-2.2473636,-11.651553,37.76871,61.71193,-9.404588,-2.7650168,-2.0988731
81,2.0753731727600098,-0.4567534625530243,77.8802490234375,-1.5450000169624891,0.21186176126566586,177.96675478141748,4.606652,8.134618,16.408794,11.452887,-13.779303,-6.3024898,1.9774171,-2.2669306,-6.0812545,10.543267,-13.088158,4.5209975,-1.649936,1.3382741,4.2708774,-1.9728006,14.540198,-47.214783,60.087986,12.820402,1.3339295,9.85774,-2.2416759,-11.650987,37.7648,61.705605,-9.402108,-2.7521322,-2.0887454
82,2.0755951404571533,-0.4582636058330536,77.88016510009766,-1.5373275016193333,0.213873011767603,177.96711431416304,4.5998907,8.124659,16.409912,11.461092,-13.783013,-6.2738853,1.9789573,-2.2781215,-6.0784516,10.534763,-13.089662,4.535779,-1.6528379,1.330893,4.2708387,-1.9689716,14.543632,-47.19863,60.08174,12.803868,1.3128828,9.863363,-2.2339706,-11.649996,37.752243,61.69031,-9.397833,-2.7310975,-2.0563612
83,2.07523512840271,-0.4592808783054352,77.87999725341797,-1.529441773444944,0.21639796929451088,177.9671891353007,4.5916266,8.114746,16.411514,11.47135,-13.786905,-6.241408,1.9787881,-2.289607,-6.074559,10.528728,-13.093822,4.5485296,-1.6542826,1.3231479,4.271332,-1.965597,14.546672,-47.183212,60.074974,12.788804,1.2933762,9.870392,-2.2286153,-11.649012,37.73924,61.67761,-9.390656,-2.7105055,-2.023046
84,2.0772526264190674,-0.4623755216598511,77.87853240966797,-1.5237593205295943,0.22020260776626177,177.9663776278448,4.5815487,8.107827,16.412947,11.482022,-13.789434,-6.21536,1.9745634,-2.2980688,-6.0708795,10.526433,-13.096502,4.5568542,-1.6526625,1.3177063,4.2738986,-1.9656969,14.549643,-47.171333,60.06751,12.7807045,1.2778807,9.873761,-2.2259796,-11.648006,37.73047,61.669235,-9.387901,-2.6955636,-2.0060148
85,2.078240156173706,-0.46394336223602295,77.87907409667969,-1.5207243950708769,0.22688178938357761,177.96395944717122,4.5658436,8.10506,16.414083,11.497075,-13.790055,-6.1948857,1.9607402,-2.3029659,-6.0668206,10.534951,-13.100048,4.5590596,-1.6481626,1.3146775,4.2811284,-1.9700207,14.554425,-47.158375,60.0553,12.786448,1.2671818,9.870504,-2.230455,-11.646394,37.729984,61.667698,-9.39103,-2.6886058,-2.014055
86,2.078896999359131,-0.46581384539604187,77.88084411621094,-1.519031249503299,0.2346187376177935,177.9603024683147,4.5481477,8.104501,16.415699,11.513578,-13.788718,-6.1756887,1.9432467,-2.3055766,-6.061946,10.546764,-13.103089,4.5567718,-1.6377028,1.3134803,4.2859974,-1.9781239,14.556382,-47.15812,60.04711,12.791992,1.2613865,9.867803,-2.2351735,-11.645716,37.738186,61.673553,-9.389835,-2.6876104,-2.0387383
87,2.080576181411743,-0.4652208685874939,77.87995147705078,-1.5187715209133907,0.24331205768660039,177.95652399807508,4.5303974,8.105287,16.417437,11.527909,-13.787634,-6.162954,1.924074,-2.3066134,-6.057614,10.559752,-13.105704,4.5525284,-1.6351341,1.3131919,4.2898793,-1.9831707,14.562657,-47.157993,60.035522,12.7907505,1.2570171,9.864582,-2.247011,-11.642976,37.76706,61.6859,-9.377387,-2.6878083,-2.0712702
88,2.084014415740967,-0.46748387813568115,77.88153076171875,-1.5196700128146456,0.2495592160510684,177.954472676557,4.5209126,8.10568,16.419094,11.53101,-13.786805,-6.1617537,1.911474,-2.3065386,-6.0559707,10.567098,-13.106582,4.549017,-1.633602,1.3155736,4.294423,-1.9847978,14.56553,-47.157032,60.023106,12.786074,1.2524598,9.861331,-2.2533848,-11.641466,37.77956,61.690853,-9.372908,-2.6858535,-2.0920067
89,2.0850789546966553,-0.46926984190940857,77.88198852539062,-1.52311550306361,0.25244729603583027,177.95454993173388,4.524328,8.106136,16.421581,11.515183,-13.787236,-6.1828403,1.9088043,-2.3036666,-6.058102,10.56339,-13.10279,4.5459743,-1.640331,1.3205874,4.2994394,-1.9818801,14.568909,-47.15334,60.01017,12.770614,1.2462435,9.857447,-2.25866,-11.63934,37.78808,61.69067,-9.369213,-2.680401,-2.0994172
90,2.085084915161133,-0.4698433578014374,77.88291931152344,-1.528783258883453,0.2533784283368589,177.95588337580136,4.536329,8.107188,16.424706,11.486303,-13.78823,-6.220311,1.9119301,-2.2985137,-6.0627747,10.554147,-13.096886,4.5423484,-1.6477854,1.3275706,4.3060155,-1.9794517,14.571728,-47.15032,59.99873,12.750401,1.2394356,9.8520155,-2.2598977,-11.637184,37.786877,61.68366,-9.370374,-2.6736197,-2.0990531
91,2.085615634918213,-0.47192931175231934,77.88236999511719,-1.534190071469414,0.25410271627827574,177.95751878737244,4.547623,8.108158,16.42696,11.459139,-13.788952,-6.25466,1.9152462,-2.2938035,-6.067766,10.544987,-13.090754,4.539336,-1.6554055,1.3345088,4.3126955,-1.9759752,14.573714,-47.147533,59.986637,12.728944,1.2331036,9.846878,-2.2601678,-11.635337,37.77974,61.67492,-9.373782,-2.6667101,-2.096104
92,2.0874972343444824,-0.4737544357776642,77.88085174560547,-1.53673421827529,0.25642307992289926,177.95801776568342,4.54862,8.108361,16.427172,11.449923,-13.789106,-6.2662725,1.9137256,-2.2923195,-6.070407,10.541548,-13.086924,4.5381575,-1.6608357,1.338127,4.3180137,-1.9723362,14.574665,-47.144703,59.97549,12.711055,1.2274718,9.843517,-2.258661,-11.633922,37.77301,61.664913,-9.37311,-2.661726,-2.0959535
93,2.0880351066589355,-0.47557610273361206,77.8805923461914,-1.5348405110408239,0.2605772253665357,177.95721414288727,4.533815,8.107353,16.423552,11.469251,-13.787643,-6.239634,1.906831,-2.295772,-6.0701566,10.544038,-13.08485,4.540008,-1.6644963,1.3377341,4.3248487,-1.9669379,14.575715,-47.13635,59.959282,12.700692,1.2232481,9.840721,-2.2553613,-11.63176,37.754307,61.65008,-9.381059,-2.6540236,-2.0975084
94,2.089710235595703,-0.4783172011375427,77.88058471679688,-1.5302360364561014,0.26584206652007214,177.95563218717345,4.5080447,8.10589,16.41706,11.508544,-13.786231,-6.1886077,1.8949934,-2.302604,-6.068074,10.553327,-13.085525,4.543935,-1.6666192,1.3335267,4.331748,-1.9617329,14.576463,-47.124855,59.94346,12.695325,1.2192402,9.838499,-2.2510712,-11.628771,37.728848,61.633713,-9.389383,-2.647548,-2.0994422
95,2.0885157585144043,-0.4785836637020111,77.88220977783203,-1.5253144995595223,0.2720109800626127,177.95368364700016,4.481688,8.1041355,16.411123,11.547404,-13.784514,-6.137764,1.8820288,-2.3095136,-6.065289,10.562792,-13.086361,4.5479536,-1.6683571,1.3293096,4.337649,-1.9556286,14.5764475,-47.114685,59.927456,12.6903925,1.2158202,9.837339,-2.2461452,-11.626732,37.707985,61.616882,-9.39597,-2.6427126,-2.1023698
96,2.0900278091430664,-0.47960057854652405,77.88407135009766,-1.5226601198504157,0.27911816959150765,177.95230587509892,4.4639907,8.102473,16.408066,11.565883,-13.782323,-6.1116548,1.87019,-2.3138778,-6.0632935,10.568459,-13.086216,4.550172,-1.6670492,1.3266685,4.3435326,-1.9509337,14.575929,-47.104427,59.91206,12.687201,1.2124685,9.836076,-2.2435188,-11.624035,37.68655,61.604267,-9.403374,-2.6417346,-2.1046774
97,2.091362953186035,-0.48110032081604004,77.8841781616211,-1.5236487635479428,0.28736678931923426,177.9513731494044,4.4598036,8.101115,16.410112,11.553527,-13.779799,-6.122474,1.8603133,-2.3140044,-6.0621424,10.567572,-13.083915,4.5493693,-1.6637636,1.3276325,4.3483143,-1.9468573,14.575052,-47.09963,59.897243,12.682778,1.209669,9.835863,-2.2428215,-11.622014,37.67669,61.59492,-9.407856,-2.6460125,-2.1067042
98,2.091447114944458,-0.4823417067527771,77.88372039794922,-1.526487249449653,0.29690869154439836,177.95066238073457,4.4632235,8.099612,16.415247,11.52244,-13.776647,-6.1552095,1.8502423,-2.3118002,-6.0612583,10.564549,-13.081243,4.546796,-1.659521,1.3300619,4.35165,-1.942891,14.572704,-47.096363,59.88332,12.678809,1.2076216,9.836724,-2.2451735,-11.618694,37.672173,61.591106,-9.411826,-2.6540728,-2.1087728
99,2.0904533863067627,-0.4841117262840271,77.88253021240234,-1.5295369953040208,0.30654253539704074,177.95007719024963,4.468869,8.09777,16.420893,11.486799,-13.773326,-6.1936755,1.8407243,-2.309343,-6.0604835,10.560724,-13.078793,4.5442123,-1.6552742,1.3329251,4.353653,-1.9376371,14.570874,-47.09465,59.869335,12.672245,1.2053728,9.838575,-2.2471743,-11.617015,37.673676,61.58812,-9.410001,-2.6633656,-2.11308
100,2.0909576416015625,-0.4851887822151184,77.8833236694336,-1.531775391762955,0.3148026424755687,177.94983942918662,4.470511,8.096343,16.424286,11.463381,-13.77152,-6.2217855,1.8328975,-2.3077674,-6.060186,10.556696,-13.076639,4.5433125,-1.651185,1.3349509,4.3560247,-1.9323252,14.568747,-47.092407,59.85535,12.661867,1.2017053,9.840361,-2.2450814,-11.6155205,37.67406,61.58032,-9.403205,-2.6707368,-2.1197925
101,2.0901191234588623,-0.4867761731147766,77.8823471069336,-1.5300817047575692,0.3220730859850581,177.9481013974271,4.471324,8.091004,16.427637,11.445218,-13.764991,-6.2348156,1.8245556,-2.3106418,-6.057831,10.5563,-13.077189,4.545629,-1.6474254,1.335084,4.3571014,-1.922582,14.565476,-47.084793,59.838142,12.650312,1.1985786,9.8443,-2.2414904,-11.613687,37.67306,61.574226,-9.388607,-2.6783342,-2.134944
102,2.090338706970215,-0.48720356822013855,77.88124084472656,-1.5269095630580207,0.32798161541656684,177.9464042735369,4.4712353,8.084605,16.429796,11.432836,-13.758339,-6.2416577,1.8169912,-2.3151736,-6.0553455,10.558018,-13.079828,4.54984,-1.6459591,1.3347064,4.358965,-1.9119818,14.559931,-47.06951,59.822735,12.641846,1.193806,9.8480015,-2.2377262,-11.610993,37.670265,61.568504,-9.37138,-2.686577,-2.1527138
103,2.089449167251587,-0.4880789518356323,77.88227081298828,-1.5242584263359376,0.33379286113061174,177.9452891829339,4.4691725,8.079432,16.430792,11.424896,-13.7528305,-6.2457523,1.8100495,-2.3189359,-6.053728,10.559142,-13.081748,4.5537567,-1.6435496,1.334573,4.360999,-1.9019246,14.553133,-47.05384,59.80739,12.631845,1.1884931,9.850289,-2.2326372,-11.608067,37.665928,61.561214,-9.35516,-2.6922138,-2.1695142
104,2.088531017303467,-0.48976442217826843,77.88338470458984,-1.5240598697901955,0.3402472814146399,177.94574504614621,4.464536,8.077855,16.429953,11.420301,-13.750417,-6.2505107,1.803867,-2.3197947,-6.054465,10.557804,-13.081138,4.5553904,-1.6413301,1.3358784,4.3623934,-1.8922547,14.546509,-47.0393,59.793175,12.621083,1.1824521,9.84898,-2.2281942,-11.60545,37.659695,61.555286,-9.34865,-2.6924736,-2.179904
105,2.0895166397094727,-0.49011680483818054,77.88318634033203,-1.5276259570462107,0.3477687308183333,177.94887122999643,4.456186,8.081404,16.42617,11.419267,-13.751765,-6.2596316,1.7979192,-2.3161583,-6.058871,10.554058,-13.076551,4.553057,-1.6394517,1.3398758,4.363336,-1.8832406,14.539858,-47.02347,59.779957,12.612074,1.1747806,9.841658,-2.225272,-11.60286,37.65211,61.549343,-9.354678,-2.682003,-2.1807091
106,2.0885820388793945,-0.4911162555217743,77.88311004638672,-1.5337470415615049,0.35596368449664545,177.95385200251533,4.445678,8.088533,16.420301,11.42074,-13.755442,-6.2704163,1.7928149,-2.309257,-6.0660224,10.547998,-13.069198,4.548204,-1.6373898,1.3456427,4.3635736,-1.8740956,14.532796,-47.008747,59.765846,12.600527,1.1665413,9.830778,-2.2221777,-11.600119,37.64422,61.542686,-9.367547,-2.6635437,-2.1762645
107,2.0877890586853027,-0.4893457889556885,77.88324737548828,-1.5397814968151269,0.36403586575364183,177.95867952388795,4.4333596,8.096331,16.41433,11.426211,-13.760885,-6.276421,1.787977,-2.3022034,-6.0731606,10.541566,-13.061762,4.543529,-1.6367624,1.3513131,4.364214,-1.864314,14.526203,-46.989857,59.753197,12.593096,1.1584811,9.818416,-2.2196832,-11.597487,37.631798,61.53881,-9.388582,-2.6471362,-2.1689138
108,2.0856528282165527,-0.488629013299942,77.88399505615234,-1.5432617545465228,0.37136930667312384,177.96136377266313,4.420495,8.1018505,16.41041,11.436478,-13.767443,-6.271126,1.783198,-2.2982614,-6.0777245,10.536849,-13.057399,4.5418243,-1.6371243,1.3555021,4.3670735,-1.8532146,14.5163355,-46.96628,59.740055,12.590508,1.1517407,9.807009,-2.2153237,-11.593136,37.610146,61.536552,-9.416568,-2.6428485,-2.1612074
109,2.084392547607422,-0.4881153702735901,77.88394927978516,-1.5427673898682002,0.3769442091533948,177.96061401647606,4.4055796,8.104254,16.409187,11.457619,-13.777607,-6.243498,1.7803115,-2.2990584,-6.078476,10.532341,-13.056724,4.545208,-1.6335905,1.3568488,4.371483,-1.8513438,14.492938,-46.93974,59.744843,12.593938,1.1469755,9.798214,-2.2103546,-11.581652,37.56415,61.545593,-9.460555,-2.6565115,-2.1519077
110,2.083613634109497,-0.48800456523895264,77.88207244873047,-1.5397045475624553,0.38172164100171363,177.9578342136583,4.3885756,8.1048565,16.409584,11.486176,-13.789786,-6.2001047,1.7774833,-2.302716,-6.0771585,10.529289,-13.05882,4.5517917,-1.6318876,1.3559232,4.375602,-1.8377836,14.480485,-46.918873,59.73205,12.589656,1.1457373,9.79205,-2.1963842,-11.574726,37.51884,61.547318,-9.503579,-2.6800935,-2.143113
111,2.0808613300323486,-0.48832976818084717,77.88116455078125,-1.5364267111452552,0.38692361528130276,177.954695740817,4.372861,8.104892,16.410856,11.511709,-13.8007145,-6.160888,1.7745559,-2.306495,-6.074931,10.526115,-13.061272,4.5580544,-1.6275021,1.354573,4.3811955,-1.8265705,14.468777,-46.89987,59.72058,12.589704,1.1451313,9.785834,-2.1810489,-11.567324,37.466118,61.549107,-9.551859,-2.7071185,-2.1357331
112,2.0790176391601562,-0.4889032244682312,77.88104248046875,-1.5350038495751286,0.39380545747099455,177.95263736056992,4.362752,8.105024,16.412601,11.520532,-13.804737,-6.145836,1.7687433,-2.3077052,-6.0728893,10.524559,-13.062941,4.5605526,-1.6148523,1.3535174,4.3849754,-1.8272542,14.450433,-46.89083,59.7249,12.597069,1.1429324,9.778829,-2.1692655,-11.554884,37.409103,61.559174,-9.60212,-2.7310169,-2.1335928
113,2.0763907432556152,-0.4872934818267822,77.88198852539062,-1.536724419753619,0.4037220386671333,177.95246396887015,4.3620777,8.105135,16.415398,11.50083,-13.79738,-6.1721654,1.7597803,-2.3047388,-6.07105,10.522496,-13.062167,4.5567455,-1.605824,1.3554748,4.3830056,-1.8263227,14.431193,-46.890415,59.73228,12.606249,1.1411812,9.772991,-2.1622207,-11.541304,37.374626,61.57726,-9.639265,-2.7482336,-2.145723
114,2.07387638092041,-0.48706886172294617,77.88204956054688,-1.5403510892427712,0.4157010889520719,177.95311338749002,4.3665557,8.105392,16.419119,11.464844,-13.7837715,-6.225284,1.7481092,-2.2992826,-6.06877,10.52081,-13.060349,4.549025,-1.5996639,1.3594446,4.378751,-1.8247942,14.412909,-46.892548,59.7413,12.619674,1.1388985,9.766813,-2.1576014,-11.527423,37.352856,61.598877,-9.67034,-2.7636352,-2.166375
115,2.0742602348327637,-0.48562344908714294,77.8824691772461,-1.5440727433902828,0.4278436246718871,177.95420388330623,4.3710675,8.105837,16.422445,11.428496,-13.769129,-6.277342,1.7365258,-2.2935302,-6.0670767,10.519106,-13.058076,4.5412536,-1.5944673,1.3624828,4.3737965,-1.8236307,14.395312,-46.89556,59.75248,12.635743,1.1365169,9.762428,-2.1549292,-11.5133705,37.33719,61.621197,-9.698141,-2.7767339,-2.1868482
116,2.0709078311920166,-0.48376694321632385,77.88192749023438,-1.5459035187900205,0.43826240184720267,177.95533749375275,4.367762,8.107314,16.42352,11.413118,-13.761484,-6.3005857,1.7273071,-2.289835,-6.0669646,10.517176,-13.055898,4.5374203,-1.5910648,1.3631169,4.371513,-1.8172413,14.384602,-46.895016,59.75422,12.652516,1.1354035,9.761545,-2.1483934,-11.504508,37.326912,61.629196,-9.7214775,-2.7860298,-2.1978946
117,2.067706346511841,-0.48154768347740173,77.88380432128906,-1.5452710337964173,0.44598861267907614,177.95684906890853,4.3503327,8.110959,16.421095,11.434664,-13.766393,-6.275001,1.7232555,-2.2890549,-6.069587,10.512091,-13.052526,4.5403137,-1.5877144,1.3596014,4.371888,-1.8095155,14.378878,-46.892517,59.753292,12.6717205,1.1352522,9.765901,-2.1387303,-11.499676,37.3189,61.622604,-9.741319,-2.788304,-2.1934783
118,2.067146062850952,-0.4797508120536804,77.88267517089844,-1.5429577792833444,0.45217220470713837,177.95887044917015,4.324096,8.116047,16.41621,11.478438,-13.778236,-6.219591,1.7209203,-2.290218,-6.074123,10.507808,-13.049474,4.5472727,-1.5814109,1.3527231,4.3720903,-1.8084507,14.365193,-46.889393,59.76508,12.697335,1.1349853,9.773833,-2.1302955,-11.48831,37.306015,61.615555,-9.763516,-2.7858467,-2.179275
119,2.063504457473755,-0.47795748710632324,77.88286590576172,-1.5404847210188954,0.4578860873022405,177.96038585351508,4.299591,8.120927,16.411263,11.520662,-13.789765,-6.165097,1.719795,-2.291385,-6.078467,10.50243,-13.046064,4.553897,-1.5770782,1.3460617,4.374157,-1.8015851,14.3610935,-46.887478,59.76513,12.716878,1.136186,9.784097,-2.1197183,-11.484974,37.302544,61.600433,-9.778876,-2.7843492,-2.1654754
120,2.0611565113067627,-0.4748747646808624,77.88262176513672,-1.5399896899550178,0.4646617678793495,177.96075347997402,4.2848654,8.124936,16.407738,11.539549,-13.794255,-6.142359,1.7164655,-2.2899451,-6.080864,10.498465,-13.043583,4.5555587,-1.5717754,1.3416876,4.3741713,-1.7957448,14.3551235,-46.88468,59.76907,12.731369,1.1374358,9.794013,-2.1083016,-11.480161,37.299408,61.59176,-9.796311,-2.791394,-2.1610398
121,2.0594429969787598,-0.4725607931613922,77.88124084472656,-1.5418106267812755,0.4730183479525636,177.95882751563417,4.286013,8.126672,16.406372,11.522266,-13.787884,-6.1698604,1.7087364,-2.2855425,-6.0796866,10.498634,-13.043025,4.549348,-1.5650697,1.341327,4.373642,-1.7906442,14.350682,-46.88381,59.77213,12.733932,1.1399382,9.805645,-2.099294,-11.476543,37.301056,61.596317,-9.814482,-2.8151276,-2.1749952
122,2.055964231491089,-0.47129201889038086,77.88041687011719,-1.5448021122196878,0.48228614884022825,177.95524151972128,4.2970943,8.126714,16.406357,11.482007,-13.774322,-6.227729,1.6982371,-2.2796056,-6.0761924,10.501459,-13.043812,4.5382986,-1.5586953,1.3426645,4.369447,-1.7859119,14.342549,-46.88336,59.78131,12.729225,1.142807,9.819974,-2.091426,-11.46969,37.310184,61.612656,-9.831871,-2.850031,-2.2014003
123,2.051713228225708,-0.46872055530548096,77.88253784179688,-1.5482961991140562,0.49086312634977153,177.95186826619485,4.311506,8.126774,16.407124,11.436956,-13.759731,-6.2890925,1.6896019,-2.2727697,-6.0727067,10.502677,-13.0445175,4.5268745,-1.5569365,1.3444617,4.362067,-1.7831231,14.327966,-46.879276,59.802517,12.722905,1.1452613,9.8336735,-2.0920773,-11.457198,37.325966,61.640827,-9.843599,-2.881888,-2.2262979
124,2.047818422317505,-0.466688334941864,77.8836898803711,-1.5513294897442076,0.4973232037421671,177.95016729148807,4.3208857,8.128665,16.408134,11.408775,-13.75214,-6.327027,1.6862174,-2.2663722,-6.0712337,10.500403,-13.045311,4.51965,-1.5523604,1.3451642,4.3596454,-1.7771804,14.323269,-46.87631,59.810917,12.719979,1.1483477,9.840433,-2.0847633,-11.453123,37.329617,61.642166,-9.852295,-2.8956957,-2.231702
125,2.0442252159118652,-0.4636293351650238,77.88240051269531,-1.553774906740573,0.5003578609669733,177.9513638239473,4.324586,8.132868,16.410093,11.401809,-13.753255,-6.3308954,1.6921641,-2.2606757,-6.073467,10.490051,-13.043917,4.520706,-1.5535202,1.3436044,4.356201,-1.7698138,14.316403,-46.866104,59.827152,12.726161,1.1519991,9.8389635,-2.0792513,-11.447323,37.329895,61.62981,-9.853987,-2.8830285,-2.2108798
126,2.038564443588257,-0.45932531356811523,77.88054656982422,-1.5562272194576845,0.5010363833925666,177.95439697069952,4.3257113,8.138695,16.412811,11.407327,-13.760522,-6.3161864,1.7038944,-2.254797,-6.0779486,10.475045,-13.041628,4.5266457,-1.5560224,1.3414334,4.35383,-1.7614027,14.311597,-46.853287,59.84438,12.736465,1.156151,9.831468,-2.0734556,-11.443427,37.325024,61.604275,-9.850462,-2.8535256,-2.172035
127,2.0319457054138184,-0.4579503536224365,77.88020324707031,-1.5579571666115304,0.5012498385463939,177.95719254465877,4.3257856,8.144469,16.415483,11.416632,-13.768603,-6.295178,1.7153937,-2.2496839,-6.0816226,10.462281,-13.041689,4.530912,-1.5581564,1.3391125,4.3518987,-1.7529355,14.307092,-46.84007,59.85961,12.745828,1.1593697,9.822639,-2.0692897,-11.439949,37.3183,61.58005,-9.843283,-2.8203788,-2.1306188
128,2.0283329486846924,-0.4527342617511749,77.87992858886719,-1.5593718687202671,0.5029469982546703,177.95834158453903,4.3251534,8.149822,16.416462,11.423888,-13.773651,-6.2802486,1.7207831,-2.2448509,-6.0820923,10.457506,-13.046563,4.5268197,-1.5576805,1.336526,4.34942,-1.7469211,14.30376,-46.829487,59.873955,12.751075,1.1577133,9.816777,-2.0635154,-11.437501,37.31255,61.562424,-9.834328,-2.793927,-2.0997717
129,2.023442029953003,-0.4487971365451813,77.8792724609375,-1.5591868849107726,0.5066195871488377,177.9563726089413,4.323627,8.153519,16.415245,11.428289,-13.773821,-6.27167,1.7149885,-2.2414193,-6.076085,10.468298,-13.06147,4.507418,-1.5531907,1.3336904,4.3455777,-1.7436185,14.299294,-46.82165,59.887165,12.749558,1.1504393,9.815041,-2.0611079,-11.434431,37.3093,61.565,-9.82212,-2.7792506,-2.0849738
130,2.0165040493011475,-0.4456236958503723,77.87889099121094,-1.558042724567376,0.5112652694693487,177.95252947793966,4.320635,8.156514,16.412445,11.433854,-13.771961,-6.2638702,1.7026942,-2.2389174,-6.0659394,10.489115,-13.083496,4.477988,-1.5461663,1.3311805,4.3402553,-1.7421299,14.293905,-46.818714,59.90051,12.741349,1.1389273,9.816116,-2.060298,-11.430711,37.309235,61.57896,-9.803798,-2.7694843,-2.0786178
131,2.010363817214966,-0.4393351674079895,77.88249206542969,-1.5567774491458546,0.5163753017959742,177.94850413860394,4.3185115,8.159139,16.409777,11.436352,-13.768949,-6.260225,1.6901668,-2.2365832,-6.0563784,10.509326,-13.103902,4.450316,-1.5380917,1.32866,4.333653,-1.7417251,14.289974,-46.81873,59.912735,12.730041,1.1264232,9.8189945,-2.0591037,-11.427931,37.309723,61.595993,-9.782788,-2.7624662,-2.0772357
132,2.00667405128479,-0.43990543484687805,77.88079071044922,-1.5566331873740704,0.521253820582343,177.9459875291748,4.319001,8.162171,16.409006,11.433861,-13.767201,-6.2641487,1.6840878,-2.2333496,-6.052373,10.518656,-13.113944,4.4361897,-1.5314101,1.3266557,4.3261003,-1.743045,14.283344,-46.81769,59.927006,12.721909,1.1162558,9.823134,-2.0575166,-11.423119,37.307316,61.611164,-9.7642975,-2.7560802,-2.0777624
133,2.0043108463287354,-0.4375772476196289,77.88054656982422,-1.5586064835885196,0.5259592762089418,177.94591241054985,4.325824,8.165644,16.41107,11.418601,-13.765774,-6.2843804,1.6886585,-2.228163,-6.0575724,10.508937,-13.106537,4.442596,-1.5276344,1.3266885,4.3196645,-1.7417494,14.280679,-46.813774,59.932434,12.717294,1.1099052,9.828856,-2.0520868,-11.421135,37.302456,61.61637,-9.744615,-2.7490604,-2.082035
134,1.9976513385772705,-0.43307799100875854,77.88008880615234,-1.5618824721505855,0.530822475269623,177.9471553308473,4.336312,8.169289,16.41487,11.395694,-13.76493,-6.3164783,1.6991025,-2.221946,-6.0684676,10.489063,-13.088972,4.4619284,-1.5254377,1.3276894,4.3129144,-1.7407589,14.278926,-46.808064,59.935944,12.715092,1.1044073,9.835873,-2.0453463,-11.4197855,37.295578,61.61934,-9.724739,-2.7431698,-2.0904636
135,1.9901388883590698,-0.42801186442375183,77.87887573242188,-1.5645394669912522,0.5357398710940827,177.94855456160056,4.344814,8.172788,16.418829,11.376861,-13.765619,-6.3440394,1.7088661,-2.2166348,-6.079517,10.470437,-13.071672,4.484278,-1.524526,1.3282743,4.306288,-1.7399489,14.277962,-46.80332,59.93671,12.712575,1.1012129,9.843136,-2.039841,-11.418984,37.290085,61.62015,-9.708355,-2.7392902,-2.0975597
136,1.9838286638259888,-0.424667626619339,77.87803649902344,-1.5658175413552313,0.5395021497800117,177.94907413907302,4.349362,8.176507,16.421984,11.369444,-13.766432,-6.3510256,1.7199311,-2.2119834,-6.0857973,10.451035,-13.058675,4.499383,-1.5209363,1.3248839,4.301765,-1.743512,14.273293,-46.786423,59.9444,12.7257595,1.097383,9.8455,-2.0354202,-11.4152,37.269054,61.618946,-9.713669,-2.7374277,-2.0957851
137,1.9774682521820068,-0.42028582096099854,77.87709045410156,-1.5632259696990591,0.5438621444941342,177.94777834558806,4.3423405,8.179128,16.423656,11.385973,-13.770542,-6.3230467,1.7219001,-2.2115214,-6.0837345,10.447657,-13.060634,4.5054274,-1.5194732,1.3172914,4.292791,-1.7446041,14.271689,-46.78158,59.950157,12.729129,1.097389,9.848254,-2.037088,-11.413955,37.263435,61.617832,-9.725958,-2.7402885,-2.0819917
138,1.9716229438781738,-0.414910227060318,77.87540435791016,-1.5587033189494746,0.5485989453556265,177.94572296179774,4.3267965,8.182013,16.424288,11.419629,-13.777654,-6.2722106,1.7208889,-2.2127934,-6.0772343,10.448701,-13.068861,4.5073714,-1.5189655,1.3063477,4.282204,-1.7464573,14.2700815,-46.774986,59.958237,12.736771,1.0983967,9.849036,-2.0407066,-11.41274,37.256435,61.612865,-9.75353,-2.7471535,-2.0565789
139,1.965707778930664,-0.41079238057136536,77.87535858154297,-1.5544319903509713,0.5526767811199176,177.9438196235403,4.311029,8.185737,16.424355,11.455606,-13.785392,-6.2212343,1.719912,-2.2135282,-6.070215,10.450985,-13.078608,4.506102,-1.5185401,1.2953717,4.2733684,-1.7507089,14.268548,-46.766857,59.96645,12.74595,1.1003786,9.849001,-2.0464823,-11.411618,37.24799,61.611095,-9.781809,-2.7534745,-2.0358741
140,1.9596600532531738,-0.40784767270088196,77.8747787475586,-1.552768733420728,0.5551104125728955,177.9431569344071,4.303081,8.190951,16.424252,11.478496,-13.791241,-6.1928763,1.722459,-2.2110507,-6.0666904,10.450665,-13.085078,4.5024376,-1.5174825,1.2876707,4.2682805,-1.7585609,14.266613,-46.760494,59.97343,12.751851,1.1024498,9.849905,-2.0531,-11.41013,37.24094,61.61797,-9.793118,-2.7550814,-2.0354855
141,1.9525164365768433,-0.40335607528686523,77.87618255615234,-1.5545001614128828,0.5559925677139551,177.94396316634442,4.306606,8.197603,16.42421,11.4805,-13.792551,-6.197132,1.7282878,-2.2049332,-6.0679636,10.448421,-13.087207,4.4947963,-1.5162289,1.2839873,4.2643957,-1.765669,14.266182,-46.760063,59.97582,12.752494,1.1074098,9.854951,-2.0553012,-11.409728,37.240128,61.633396,-9.776918,-2.7471323,-2.0648763
142,1.9475536346435547,-0.40017393231391907,77.87744903564453,-1.559365444949257,0.5545727968476621,177.94570072234126,4.3165464,8.207157,16.423832,11.473826,-13.7929,-6.2208686,1.7389044,-2.1948452,-6.0720224,10.441023,-13.084913,4.48305,-1.5113033,1.2843578,4.267588,-1.782153,14.265213,-46.763973,59.978615,12.750799,1.1143644,9.860685,-2.0612736,-11.408359,37.242336,61.66005,-9.738446,-2.7339752,-2.1222186
143,1.9406925439834595,-0.3955608606338501,77.87629699707031,-1.564548672117676,0.5523827880039562,177.94797864506052,4.329961,8.216453,16.423443,11.461954,-13.792641,-6.2511454,1.7509309,-2.1843212,-6.0770016,10.433801,-13.082998,4.471261,-1.5074576,1.2843454,4.269283,-1.7993162,14.264159,-46.772156,59.983536,12.740435,1.1190006,9.867284,-2.0675514,-11.406303,37.24714,61.690887,-9.697228,-2.721511,-2.1812525
144,1.9340194463729858,-0.38889753818511963,77.87380981445312,-1.5685238113228246,0.5496330632807263,177.95042192037067,4.343739,8.224633,16.42314,11.450859,-13.793114,-6.275371,1.7632583,-2.1748326,-6.081243,10.42793,-13.083755,4.4631,-1.5052997,1.2832531,4.2693753,-1.8145347,14.26341,-46.77925,59.988026,12.722961,1.1177309,9.871702,-2.0726538,-11.404209,37.250072,61.71719,-9.66961,-2.7155502,-2.2258139
145,1.9293084144592285,-0.38387975096702576,77.87357330322266,-1.5706337100573957,0.545523868000533,177.95327975488237,4.357383,8.231459,16.422861,11.443892,-13.796508,-6.2906985,1.7782551,-2.1669385,-6.084314,10.420898,-13.08726,4.461532,-1.5050205,1.28023,4.2687964,-1.8302921,14.262939,-46.785248,59.994793,12.689767,1.1055828,9.871456,-2.0783522,-11.402023,37.24977,61.740295,-9.657724,-2.7189958,-2.2502475
146,1.9205973148345947,-0.3764491677284241,77.87268829345703,-1.5720363898611986,0.5405020445960124,177.95665766836555,4.37253,8.237564,16.422754,11.436165,-13.800641,-6.3037133,1.7956028,-2.159581,-6.087164,10.41254,-13.09217,4.463882,-1.5067252,1.2767723,4.2678437,-1.844481,14.262884,-46.78899,60.000053,12.64721,1.0866715,9.868099,-2.082915,-11.40053,37.24724,61.760563,-9.655682,-2.7274854,-2.2641022
147,1.9125694036483765,-0.368833065032959,77.87073516845703,-1.573465092584372,0.5350666509888573,177.95987435820717,4.388586,8.243426,16.422401,11.427506,-13.804739,-6.3159676,1.8122414,-2.1521614,-6.090105,10.405886,-13.097761,4.4655123,-1.5074384,1.2730696,4.268389,-1.862128,14.263075,-46.794014,60.007336,12.605973,1.0667822,9.864998,-2.0888565,-11.398223,37.24165,61.778496,-9.66138,-2.73993,-2.2728758
148,1.9078214168548584,-0.3644065260887146,77.86961364746094,-1.5759848064142725,0.5315198490105303,177.962371787069,4.401533,8.250107,16.421007,11.420383,-13.808313,-6.329009,1.8252853,-2.144135,-6.093607,10.401456,-13.102373,4.4616966,-1.5090593,1.2702329,4.2675176,-1.8767622,14.263494,-46.79644,60.01157,12.583091,1.0546533,9.866375,-2.0947125,-11.39665,37.236996,61.791473,-9.673943,-2.7522895,-2.2819705
149,1.902056336402893,-0.35999852418899536,77.86817932128906,-1.5803352404558548,0.5295890584648629,177.96374670573263,4.413218,8.257731,16.418516,11.4118,-13.810542,-6.3444266,1.8344265,-2.134768,-6.0982637,10.399188,-13.104698,4.449147,-1.512004,1.2693926,4.2655177,-1.8891242,14.263662,-46.79656,60.015053,12.584288,1.0509343,9.8734,-2.1002731,-11.396328,37.234577,61.798183,-9.695317,-2.7674565,-2.2910225
150,1.8945988416671753,-0.3564464747905731,77.86934661865234,-1.5863940015192173,0.5269775229151844,177.96471625660655,4.425941,8.266489,16.414783,11.402192,-13.812149,-6.361243,1.844218,-2.1238146,-6.1040883,10.395694,-13.104503,4.4309225,-1.5153894,1.2695501,4.270725,-1.9087741,14.264107,-46.79466,60.021835,12.600573,1.0503806,9.885207,-2.1097739,-11.395569,37.226814,61.80271,-9.731969,-2.7911627,-2.3004901
151,1.8889578580856323,-0.35203227400779724,77.86873626708984,-1.5919682934930985,0.5254876884358926,177.96515288779304,4.4364896,8.274927,16.411312,11.394434,-13.813531,-6.3764133,1.8521118,-2.113414,-6.1092935,10.393099,-13.104415,4.412274,-1.5172981,1.269008,4.2747264,-1.9283162,14.264371,-46.791996,60.02751,12.623157,1.052869,9.896541,-2.120688,-11.395326,37.219788,61.804035,-9.768189,-2.8114316,-2.3073611
152,1.8819758892059326,-0.3465641140937805,77.86774444580078,-1.5958043787248806,0.5256459170918858,177.96536571062995,4.443262,8.282399,16.40903,11.390674,-13.815048,-6.3872128,1.8569305,-2.1052399,-6.112548,10.393445,-13.107128,4.3983517,-1.5176344,1.2670076,4.277635,-1.9495255,14.264704,-46.78974,60.031322,12.638765,1.0562487,9.904505,-2.1355517,-11.395351,37.21449,61.803757,-9.793802,-2.821868,-2.3128934
153,1.8773976564407349,-0.3415531814098358,77.86700439453125,-1.5969059082579253,0.5271019655883287,177.96492850274151,4.446624,8.288139,16.40872,11.390969,-13.816003,-6.3929524,1.860416,-2.0995917,-6.1125855,10.393123,-13.111018,4.391586,-1.514871,1.2624961,4.2785053,-1.9731156,14.264912,-46.791145,60.03465,12.640467,1.0609745,9.909361,-2.1567216,-11.395884,37.219555,61.804733,-9.79888,-2.8208463,-2.3198457
154,1.8704947233200073,-0.3387845456600189,77.86771392822266,-1.5961652297893543,0.5301147448075355,177.9641657349385,4.447092,8.292374,16.409323,11.393569,-13.816168,-6.395,1.8613592,-2.0962908,-6.1109304,10.394718,-13.116943,4.388981,-1.5094553,1.2566367,4.2715,-1.9893192,14.26498,-46.79327,60.03408,12.640168,1.0679243,9.912305,-2.1733012,-11.396325,37.22622,61.802746,-9.797916,-2.8122795,-2.3259308
155,1.8643701076507568,-0.335075706243515,77.86644744873047,-1.5953488827011646,0.5337883445848272,177.96308367647308,4.445135,8.297149,16.410627,11.4001465,-13.817689,-6.3940606,1.8614062,-2.0929275,-6.1083508,10.395719,-13.122491,4.3870583,-1.5096742,1.2502675,4.2715583,-2.0183406,14.264973,-46.800137,60.038418,12.627443,1.0749314,9.915662,-2.2082098,-11.398027,37.25247,61.806236,-9.776989,-2.7973166,-2.3334584
156,1.8582545518875122,-0.3308386206626892,77.86640167236328,-1.5955239514355897,0.5375163344510283,177.9634398869177,4.440802,8.303268,16.410486,11.410771,-13.82115,-6.3905373,1.8634969,-2.0882146,-6.107656,10.393134,-13.126024,4.3826427,-1.5287085,1.247734,4.264844,-2.0313923,14.264323,-46.79697,60.03749,12.618399,1.0780965,9.918929,-2.23936,-11.4039135,37.299164,61.807343,-9.751134,-2.7799327,-2.3369708
157,1.852521538734436,-0.32612162828445435,77.86727142333984,-1.5968841482963994,0.5414247212769026,177.96559520337274,4.4335594,8.310919,16.40922,11.426546,-13.827095,-6.380207,1.8675191,-2.0816643,-6.1089406,10.386326,-13.127099,4.373727,-1.5401405,1.2435147,4.2603574,-2.049953,14.26442,-46.798656,60.039223,12.626786,1.0761001,9.9159975,-2.2607105,-11.405341,37.30396,61.801926,-9.761088,-2.7627447,-2.3280263
158,1.8467028141021729,-0.31982526183128357,77.86785125732422,-1.5997139762169352,0.5455627108966544,177.96928392615774,4.4221225,8.320872,16.406727,11.45,-13.836343,-6.364384,1.8740516,-2.0730808,-6.1118155,10.3737335,-13.125181,4.362274,-1.5566565,1.2406603,4.2594132,-2.0740862,14.264757,-46.80377,60.043766,12.635576,1.0700854,9.910856,-2.287169,-11.406939,37.3066,61.79586,-9.774663,-2.7429428,-2.3128936
159,1.8407400846481323,-0.3151206970214844,77.86627960205078,-1.60218822682486,0.5495516181933675,177.97264422906116,4.4125614,8.330017,16.40428,11.470051,-13.844318,-6.3515077,1.8801277,-2.065169,-6.1147237,10.362646,-13.123363,4.351446,-1.5719,1.2372866,4.2558208,-2.0937371,14.265311,-46.808064,60.044785,12.645725,1.0634944,9.904513,-2.308678,-11.408531,37.30441,61.78882,-9.785345,-2.7205465,-2.2954915
160,1.8366509675979614,-0.3094112277030945,77.86542510986328,-1.6049033323397337,0.5524915642144024,177.97460905453238,4.408002,8.338534,16.401505,11.48206,-13.849564,-6.350417,1.8876975,-2.0572548,-6.1175404,10.350705,-13.119742,4.3440013,-1.5803394,1.2351441,4.2553086,-2.113454,14.265859,-46.809444,60.039387,12.649898,1.0574777,9.897987,-2.3274946,-11.409803,37.29693,61.778915,-9.77831,-2.695441,-2.2781515
161,1.830316185951233,-0.3047443926334381,77.86495971679688,-1.6069598395062505,0.5538485455038575,177.97422615156174,4.412593,8.34497,16.39811,11.479204,-13.848936,-6.36832,1.896022,-2.0507863,-6.119689,10.341689,-13.115505,4.34237,-1.5797995,1.2326866,4.2577085,-2.1308663,14.266358,-46.800877,60.024387,12.650478,1.0527426,9.889081,-2.3430471,-11.411309,37.28232,61.768177,-9.745319,-2.6625588,-2.2596478
162,1.8240723609924316,-0.30081039667129517,77.86534881591797,-1.608466162560152,0.5549499069005812,177.97248771919013,4.422179,8.349668,16.394108,11.466174,-13.844115,-6.398856,1.903323,-2.0455997,-6.1217422,10.334993,-13.110416,4.344558,-1.5767235,1.2302092,4.2558436,-2.139928,14.2665205,-46.787067,60.001923,12.644976,1.0487815,9.880532,-2.3521135,-11.412531,37.270267,61.75794,-9.68984,-2.6245098,-2.2421734
163,1.81937837600708,-0.298888623714447,77.8659439086914,-1.6104181003978986,0.5543612615247051,177.970054108885,4.43576,8.354436,16.391592,11.449399,-13.838436,-6.430492,1.913059,-2.0397131,-6.1233964,10.326809,-13.104734,4.346645,-1.5763541,1.2297587,4.2634525,-2.150235,14.266473,-46.755146,59.97461,12.651564,1.0436997,9.868134,-2.3673005,-11.414183,37.24993,61.74401,-9.640613,-2.5886438,-2.2211146
164,1.813186526298523,-0.29416877031326294,77.86647033691406,-1.6132095942581122,0.5539114590827109,177.96823047448385,4.446259,8.360997,16.391487,11.439273,-13.836179,-6.4514585,1.9220809,-2.0326903,-6.1248918,10.319326,-13.100975,4.344928,-1.5836643,1.2314137,4.270328,-2.157273,14.266182,-46.7225,59.95011,12.661507,1.0377287,9.859306,-2.3850667,-11.415986,37.233547,61.73249,-9.610265,-2.5684505,-2.2052348
165,1.808531403541565,-0.28991052508354187,77.86575317382812,-1.6178623511218326,0.5531228353531281,177.96756565423473,4.4523807,8.3713665,16.395697,11.440518,-13.840561,-6.456939,1.9311209,-2.0228786,-6.126581,10.3122425,-13.100375,4.336502,-1.5949376,1.2351624,4.2707043,-2.1638489,14.265968,-46.71324,59.935753,12.655942,1.03159,9.861409,-2.400023,-11.41661,37.22331,61.72236,-9.594244,-2.5659807,-2.195972
166,1.802227258682251,-0.28573790192604065,77.86656951904297,-1.623509165375786,0.5519234346015889,177.96735919356183,4.458015,8.383407,16.403158,11.444316,-13.846908,-6.453695,1.9396471,-2.0116432,-6.1282353,10.306602,-13.102037,4.3240724,-1.6103575,1.2407215,4.270574,-2.1699052,14.265794,-46.708817,59.9252,12.647621,1.0245206,9.867908,-2.4138658,-11.416863,37.213043,61.71,-9.590975,-2.575791,-2.18883
167,1.795562505722046,-0.28233692049980164,77.86580657958984,-1.6293279181569387,0.5503511445993056,177.96654837128,4.4619503,8.3963,16.410776,11.453108,-13.855418,-6.447788,1.9485605,-2.000021,-6.1290975,10.3005,-13.103568,4.311843,-1.6203521,1.2477224,4.2752733,-2.179543,14.265289,-46.702484,59.913933,12.647914,1.0174762,9.872094,-2.43186,-11.4172125,37.190872,61.700893,-9.602818,-2.5952258,-2.1856706
168,1.7899235486984253,-0.2761877775192261,77.86332702636719,-1.6330048759026565,0.5504088073253615,177.96351990550022,4.4657097,8.405816,16.416733,11.458587,-13.860468,-6.4448986,1.9557993,-1.9908718,-6.1277366,10.293004,-13.102428,4.3042545,-1.6192179,1.2516818,4.278196,-2.1893735,14.2641,-46.692123,59.901226,12.663499,1.0128026,9.868043,-2.4433706,-11.417382,37.16669,61.690475,-9.620302,-2.618086,-2.1955335
169,1.7847286462783813,-0.27163296937942505,77.86177062988281,-1.633546041534407,0.5525642570950003,177.95761221511427,4.4689927,8.410528,16.419346,11.460321,-13.860456,-6.445502,1.9590247,-1.9853622,-6.123262,10.287803,-13.099935,4.3035836,-1.6062679,1.2517118,4.2746735,-2.1922693,14.263008,-46.672985,59.88219,12.702514,1.0123289,9.851044,-2.4476907,-11.417224,37.15579,61.682808,-9.634888,-2.6473036,-2.2309434
170,1.7780905961990356,-0.26913347840309143,77.8621597290039,-1.6322767373108606,0.5558639837271603,177.9496455678548,4.4710097,8.412726,16.420097,11.462363,-13.858539,-6.446907,1.9610335,-1.9820759,-6.116541,10.281413,-13.095055,4.307108,-1.5946066,1.2509118,4.2753925,-2.1899495,14.260034,-46.618362,59.856262,12.776941,1.0128739,9.820059,-2.4580028,-11.4163885,37.1473,61.68,-9.663,-2.6849515,-2.2803748
171,1.7727513313293457,-0.2641967833042145,77.8624038696289,-1.6305852335253936,0.5597379518226985,177.94080091452994,4.4731417,8.414102,16.421436,11.463108,-13.856336,-6.4500265,1.962075,-1.9790866,-6.1090403,10.275334,-13.09022,4.3117166,-1.5761311,1.2490352,4.269413,-2.1897085,14.258658,-46.59411,59.835186,12.828674,1.0149033,9.79707,-2.4613876,-11.415855,37.14667,61.6764,-9.683322,-2.720928,-2.3319933
172,1.7676713466644287,-0.25954049825668335,77.86357116699219,-1.6305466332462835,0.5627414896858722,177.9319161745817,4.476842,8.417652,16.42577,11.462936,-13.856503,-6.4559474,1.9648226,-1.9744042,-6.101973,10.268139,-13.086366,4.3141465,-1.5972869,1.2532341,4.272892,-2.1826887,14.253142,-46.529427,59.815056,12.879031,1.0122505,9.782281,-2.4881961,-11.412114,37.167816,61.68075,-9.708773,-2.748439,-2.361443
173,1.7618768215179443,-0.2563961148262024,77.86275482177734,-1.632625554674168,0.5658139225824649,177.92304188056966,4.4825635,8.423544,16.434801,11.458559,-13.858774,-6.466411,1.968774,-1.9670393,-6.0958443,10.258369,-13.08281,4.31369,-1.6113027,1.2585052,4.272505,-2.192565,14.252457,-46.5365,59.80902,12.85927,1.0080585,9.79717,-2.501612,-11.411108,37.176918,61.67069,-9.7318325,-2.7630382,-2.365245
174,1.7565945386886597,-0.2493457794189453,77.86180877685547,-1.636083656167687,0.5689886119561207,177.91383543638966,4.488524,8.43111,16.446512,11.454024,-13.863445,-6.480425,1.9740276,-1.9579846,-6.090009,10.246054,-13.079114,4.3119817,-1.6273797,1.2651173,4.2672434,-2.2128758,14.251393,-46.593502,59.81736,12.785766,1.0032724,9.835008,-2.5168288,-11.406674,37.198917,61.665432,-9.7424135,-2.7700942,-2.3581183
175,1.7514656782150269,-0.24814771115779877,77.8619384765625,-1.6397425571384607,0.5715432087450806,177.90457028360643,4.4959373,8.438947,16.459192,11.448198,-13.868526,-6.4946938,1.9794208,-1.9488689,-6.0839553,10.235024,-13.076772,4.309432,-1.6289796,1.2696524,4.2597404,-2.2396472,14.251203,-46.675297,59.832527,12.700882,0.9997418,9.875305,-2.5205214,-11.399486,37.203068,61.654564,-9.754807,-2.7726111,-2.3436651
176,1.745103359222412,-0.24554459750652313,77.8611831665039,-1.642482256556942,0.5723329547591451,177.89538795467422,4.5052156,8.44587,16.471035,11.443695,-13.874147,-6.5058126,1.9851259,-1.9412189,-6.0771394,10.2279215,-13.076791,4.3065057,-1.6233962,1.2722718,4.2560244,-2.261025,14.251409,-46.73388,59.84392,12.646089,0.9982408,9.899726,-2.520778,-11.391862,37.197845,61.64126,-9.7658615,-2.7737195,-2.3289185
177,1.738632321357727,-0.2418321818113327,77.86045837402344,-1.6438999867855215,0.5701523782878644,177.88651671535484,4.5178823,8.451741,16.481688,11.4400215,-13.880515,-6.513077,1.9917831,-1.9353952,-6.069529,10.226462,-13.080436,4.302926,-1.6223055,1.2753962,4.258903,-2.265796,14.251329,-46.742332,59.844032,12.640306,0.9993976,9.902429,-2.5232496,-11.389646,37.197994,61.62546,-9.767973,-2.772401,-2.3128357
178,1.7329463958740234,-0.239935964345932,77.86017608642578,-1.6445977780275751,0.5656157991174219,177.87756885521773,4.5342975,8.456909,16.4925,11.435275,-13.887318,-6.518215,1.9993578,-1.9307727,-6.0611076,10.228778,-13.08647,4.298616,-1.6119691,1.2754391,4.26176,-2.2688382,14.250493,-46.74826,59.84806,12.647024,1.0032333,9.896822,-2.5219839,-11.384066,37.196716,61.61111,-9.758423,-2.7672722,-2.2960393
179,1.726320743560791,-0.2376868575811386,77.85794067382812,-1.6453245648280987,0.5618264581946103,177.86955934862607,4.547775,8.462323,16.501486,11.434181,-13.894521,-6.521595,2.0061731,-1.9263188,-6.0533442,10.231625,-13.093203,4.294181,-1.6034342,1.2777945,4.264264,-2.2663505,14.249683,-46.743847,59.84755,12.661244,1.0076925,9.885598,-2.5193624,-11.380778,37.19588,61.59624,-9.749199,-2.7618775,-2.2795858
180,1.7199995517730713,-0.2347404658794403,77.85833740234375,-1.646371083373649,0.5594424940271854,177.86185853154117,4.559201,8.467413,16.50926,11.432878,-13.898818,-6.523709,2.0124214,-1.9212973,-6.046001,10.232347,-13.098831,4.2903285,-1.5966147,1.2804501,4.2647533,-2.2623081,14.248857,-46.736996,59.84508,12.675214,1.0126961,9.87167,-2.5143924,-11.3778925,37.195152,61.578716,-9.746753,-2.754847,-2.2655063
181,1.7141597270965576,-0.2320982813835144,77.85659790039062,-1.6480864759282292,0.5602097135685902,177.8545023646496,4.5631223,8.473223,16.514164,11.437446,-13.900519,-6.5221257,2.0171402,-1.9153692,-6.0392847,10.228371,-13.101692,4.2875495,-1.5933783,1.2835542,4.2597814,-2.2545323,14.247595,-46.72371,59.83776,12.689274,1.0205201,9.850314,-2.5036986,-11.373105,37.19348,61.556133,-9.759251,-2.745344,-2.2554197
182,1.7100340127944946,-0.22736312448978424,77.85453796386719,-1.650012009401728,0.5633365717836463,177.8481117258212,4.5616174,8.478805,16.516417,11.445982,-13.9002075,-6.5172887,2.0195804,-1.9095666,-6.0336084,10.223771,-13.104382,4.285509,-1.5899079,1.2884333,4.252536,-2.246142,14.246595,-46.712246,59.8276,12.698672,1.0287789,9.824873,-2.4933114,-11.368931,37.191174,61.535748,-9.775594,-2.737712,-2.2485008
183,1.7039203643798828,-0.22341935336589813,77.85392761230469,-1.652693168619128,0.5671148762309355,177.8429009645616,4.55907,8.4854,16.517515,11.454529,-13.900314,-6.514569,2.0227258,-1.9026124,-6.0289574,10.216705,-13.105587,4.283047,-1.5937382,1.292572,4.242029,-2.2314396,14.24414,-46.686954,59.818344,12.717811,1.0368117,9.799376,-2.4838562,-11.354886,37.18994,61.52208,-9.8005085,-2.7263849,-2.2444167
184,1.6977289915084839,-0.22048425674438477,77.85478210449219,-1.6550740747881467,0.5689422552667183,177.83917222330115,4.56246,8.490834,16.519707,11.4556055,-13.901446,-6.5187693,2.026961,-1.896073,-6.0251284,10.212821,-13.108357,4.279629,-1.5931584,1.2987119,4.2368674,-2.2234414,14.243492,-46.68424,59.814682,12.718802,1.0384876,9.790761,-2.4741724,-11.350635,37.1907,61.507618,-9.809096,-2.717111,-2.2418447
185,1.691960334777832,-0.2172149419784546,77.85551452636719,-1.6583068221934913,0.5685304585807496,177.83759392292177,4.5734544,8.496396,16.52364,11.446563,-13.905378,-6.534912,2.0339384,-1.8885756,-6.022289,10.209085,-13.110734,4.274005,-1.5970012,1.3031058,4.231374,-2.2140324,14.242666,-46.687313,59.82199,12.714922,1.0331324,9.802873,-2.4606538,-11.343977,37.196865,61.496105,-9.811534,-2.702136,-2.246126
186,1.6849359273910522,-0.21569737792015076,77.85651397705078,-1.6617126078902176,0.5669782381679113,177.8378767778268,4.589613,8.501304,16.528448,11.429144,-13.90996,-6.559,2.0423994,-1.8805975,-6.0204287,10.206283,-13.113555,4.2669415,-1.6029725,1.3052145,4.222861,-2.206309,14.240536,-46.70519,59.842686,12.697317,1.0220383,9.832173,-2.4538522,-11.32658,37.212555,61.50353,-9.801672,-2.6864338,-2.258291
187,1.6784651279449463,-0.21208135783672333,77.85466766357422,-1.6648964605751506,0.564567952916862,177.83863045734137,4.6061645,8.506206,16.53264,11.412713,-13.915106,-6.583228,2.051055,-1.8731856,-6.019314,10.205205,-13.117328,4.2603707,-1.6094899,1.3101946,4.220454,-2.1987479,14.239558,-46.717823,59.858448,12.684488,1.0093346,9.861172,-2.4450107,-11.318327,37.22142,61.503174,-9.794394,-2.6720407,-2.2651248
188,1.6718266010284424,-0.20734278857707977,77.85318756103516,-1.6666088863986772,0.5627515543890425,177.83842506174256,4.6206846,8.509713,16.535614,11.399431,-13.917134,-6.5996666,2.0587554,-1.8676876,-6.018491,10.2048645,-13.121549,4.256123,-1.6138,1.3113561,4.208008,-2.1876845,14.236468,-46.736633,59.878353,12.669286,1.0011903,9.883092,-2.438978,-11.294597,37.23029,61.521976,-9.787453,-2.6599565,-2.2696917
189,1.6663594245910645,-0.20405642688274384,77.8519515991211,-1.6662788029425308,0.5609164729377811,177.83622357120032,4.631054,8.512098,16.536736,11.395421,-13.916514,-6.604534,2.0663698,-1.8648616,-6.017798,10.203911,-13.124981,4.257047,-1.619825,1.315384,4.2008767,-2.1691778,14.235109,-46.735237,59.880116,12.670983,0.9977258,9.88772,-2.4233727,-11.284594,37.228043,61.518208,-9.795088,-2.6509273,-2.2593098
190,1.6598142385482788,-0.20021651685237885,77.84988403320312,-1.6643032842445082,0.5590030492855242,177.8329953308495,4.639589,8.513212,16.536749,11.3955,-13.913497,-6.6025734,2.0734453,-1.8642111,-6.0173635,10.204512,-13.129273,4.261387,-1.6265013,1.3209388,4.194258,-2.1483731,14.234517,-46.73054,59.876488,12.674796,0.9960271,9.884608,-2.4067008,-11.280811,37.223675,61.51216,-9.805938,-2.6455147,-2.2417188
191,1.6520744562149048,-0.19666217267513275,77.8492660522461,-1.662641292792433,0.5572045983990521,177.83051442769312,4.647054,8.514552,16.535673,11.396758,-13.910443,-6.5988193,2.080366,-1.8635105,-6.0178823,10.205587,-13.134517,4.264079,-1.6330845,1.326326,4.1861267,-2.1245186,14.233904,-46.723087,59.87087,12.684092,0.99638647,9.878279,-2.3861504,-11.276869,37.217567,61.50505,-9.813308,-2.6391213,-2.2213283
192,1.6468160152435303,-0.19436417520046234,77.8489761352539,-1.6628646638213918,0.5559719041757953,177.83065835083522,4.654249,8.517493,16.533546,11.396061,-13.909491,-6.5983205,2.0859594,-1.8607388,-6.019963,10.209186,-13.142643,4.2600975,-1.6432835,1.3287294,4.1745305,-2.0999231,14.231323,-46.705536,59.872753,12.705271,0.9974572,9.871426,-2.3770082,-11.253137,37.21097,61.52343,-9.812615,-2.6305244,-2.2035882
193,1.640667200088501,-0.19028252363204956,77.84827423095703,-1.6667656073733959,0.5556555843270388,177.83445849635018,4.659324,8.524155,16.529789,11.395655,-13.91301,-6.602151,2.089776,-1.8542379,-6.0242844,10.216105,-13.155322,4.244636,-1.6475626,1.3364438,4.1731277,-2.0917394,14.230995,-46.70563,59.877213,12.718569,1.0006031,9.869204,-2.3652232,-11.249667,37.21207,61.52858,-9.770196,-2.6166835,-2.188553
194,1.633763074874878,-0.18841546773910522,77.8480224609375,-1.6729147752885805,0.5560896791186988,177.84097692635444,4.663306,8.532745,16.524446,11.394659,-13.918629,-6.60778,2.0924168,-1.8455449,-6.030537,10.225197,-13.171321,4.22154,-1.6546869,1.3397057,4.1548615,-2.0736537,14.229112,-46.7095,59.89176,12.738476,1.0078449,9.867775,-2.3561263,-11.227568,37.23178,61.55899,-9.691686,-2.593625,-2.176045
195,1.625835657119751,-0.18717849254608154,77.848388671875,-1.679196666859113,0.5561478530541509,177.8483679958767,4.6678376,8.541306,16.51879,11.392354,-13.92442,-6.6146646,2.0959253,-1.8366709,-6.0374193,10.233597,-13.186863,4.1986713,-1.6606388,1.3438582,4.1438813,-2.0632784,14.227914,-46.714012,59.905693,12.753147,1.0130082,9.866462,-2.3475404,-11.209997,37.24626,61.58422,-9.625082,-2.5756638,-2.1654077
196,1.6216613054275513,-0.18238258361816406,77.84959411621094,-1.6834463807123672,0.5551337416394204,177.8552395833378,4.6744785,8.547463,16.513826,11.388622,-13.928838,-6.62239,2.103072,-1.830087,-6.0439916,10.236266,-13.197267,4.183976,-1.6682096,1.34573,4.1315684,-2.0518022,14.226971,-46.717896,59.919273,12.755456,1.0124149,9.86516,-2.3421535,-11.188857,37.257404,61.615932,-9.596088,-2.5700202,-2.1583374
197,1.6165659427642822,-0.1787666529417038,77.84858703613281,-1.685077340425832,0.5519893566576247,177.8616718180777,4.685424,8.550846,16.509539,11.380806,-13.930622,-6.6333613,2.117703,-1.8259757,-6.050819,10.228095,-13.198823,4.1816707,-1.6753,1.3470238,4.1230493,-2.0397682,14.226936,-46.71987,59.92602,12.741561,1.0025575,9.861858,-2.3220634,-11.179714,37.25847,61.62236,-9.625565,-2.5794146,-2.1540813
198,1.611238956451416,-0.17738159000873566,77.84779357910156,-1.6850859176632442,0.5476004726903015,177.8682688150071,4.699289,8.551841,16.50566,11.36966,-13.930926,-6.646822,2.1363695,-1.8235328,-6.0580144,10.214388,-13.195567,4.1868463,-1.6840456,1.3477751,4.1144276,-2.0273023,14.227095,-46.721714,59.931595,12.714128,0.9859907,9.857412,-2.3014824,-11.175085,37.256935,61.62879,-9.690992,-2.6012392,-2.1529717
199,1.6061866283416748,-0.17518313229084015,77.84544372558594,-1.6843719734904403,0.5436620331574414,177.87409459784132,4.711303,8.552606,16.50211,11.36134,-13.931775,-6.6581388,2.1530282,-1.8220271,-6.0642004,10.202816,-13.192788,4.193606,-1.690232,1.3476021,4.1083784,-2.017955,14.227583,-46.72354,59.93539,12.687135,0.9709892,9.855038,-2.2830613,-11.169758,37.25487,61.63196,-9.758919,-2.623548,-2.1522315
200,1.5997586250305176,-0.16952452063560486,77.84380340576172,-1.6837373771914734,0.5405438938304313,177.8791349839106,4.7211223,8.5535345,16.49862,11.355308,-13.931799,-6.6625476,2.16689,-1.8203623,-6.0689683,10.194138,-13.192727,4.196016,-1.6940485,1.3453991,4.094299,-2.0059502,14.22863,-46.72955,59.945118,12.666031,0.96065205,9.857959,-2.2555447,-11.162387,37.25078,61.6377,-9.819013,-2.6436148,-2.1510208
201,1.5950273275375366,-0.16820579767227173,77.84224700927734,-1.6836819848377123,0.540636443480795,177.88183746307146,4.7219205,8.556339,16.495508,11.360647,-13.934232,-6.6551886,2.1694129,-1.818637,-6.070115,10.199315,-13.201463,4.1903515,-1.6946228,1.3460183,4.0878396,-2.0031986,14.229171,-46.731945,59.952877,12.663011,0.9613747,9.868433,-2.2438357,-11.159632,37.25194,61.64438,-9.838979,-2.651823,-2.1409345
202,1.5911295413970947,-0.16716577112674713,77.84323120117188,-1.6831860163008387,0.5435820440057173,177.88328376964176,4.7151237,8.559999,16.492065,11.37503,-13.938688,-6.63974,2.1633956,-1.8175403,-6.069142,10.214359,-13.2159,4.1804595,-1.6946903,1.3414046,4.0704145,-1.9969833,14.231041,-46.739494,59.967297,12.664185,0.967907,9.887494,-2.2258313,-11.15134,37.260166,61.65396,-9.846217,-2.6566355,-2.128731
203,1.5870351791381836,-0.16435648500919342,77.84420776367188,-1.6826795919019948,0.5452651999705017,177.8842359383401,4.7110653,8.563002,16.489662,11.386653,-13.94207,-6.6244097,2.159206,-1.8165919,-6.067742,10.227856,-13.229623,4.171914,-1.693707,1.3391843,4.0591474,-1.9942702,14.232918,-46.743145,59.97864,12.668153,0.9764518,9.905016,-2.2150152,-11.144343,37.269505,61.666298,-9.844585,-2.6611986,-2.1201394
204,1.5817182064056396,-0.16045993566513062,77.8447036743164,-1.6817489250766704,0.5436875772095732,177.88597689872338,4.7144814,8.564204,16.4881,11.391038,-13.944894,-6.6172533,2.1627111,-1.8163594,-6.067906,10.233859,-13.238821,4.170309,-1.690593,1.3397887,4.051759,-1.9921949,14.233659,-46.74493,59.987587,12.666176,0.98263097,9.915264,-2.2058787,-11.141923,37.275726,61.68325,-9.844729,-2.6712413,-2.1229997
205,1.5753220319747925,-0.15684941411018372,77.84220886230469,-1.680036296479997,0.5379234846580346,177.88863496449983,4.729,8.562496,16.48854,11.38288,-13.946313,-6.624184,2.1775656,-1.8168682,-6.070317,10.227231,-13.239938,4.180734,-1.6867064,1.34032,4.0414953,-1.985338,14.235451,-46.749462,59.995647,12.649554,0.9862243,9.915995,-2.1929438,-11.136151,37.292282,61.712326,-9.842907,-2.6926296,-2.1498413
206,1.5701448917388916,-0.15509386360645294,77.83961486816406,-1.6778883069674106,0.5295575823761103,177.8918066589585,4.7493877,8.559339,16.49011,11.369228,-13.948055,-6.639628,2.1994627,-1.8179574,-6.0740337,10.212169,-13.2356205,4.199001,-1.6783565,1.3418152,4.0367856,-1.9823186,14.236947,-46.752037,60.002472,12.629774,0.988755,9.909566,-2.1817465,-11.13169,37.3042,61.743027,-9.84277,-2.7173874,-2.1881046
207,1.5668607950210571,-0.15475966036319733,77.83901977539062,-1.6755976178002459,0.5188478405964697,177.8950726331852,4.774277,8.555402,16.49192,11.351521,-13.947939,-6.654601,2.225267,-1.8192118,-6.077985,10.194539,-13.230641,4.216788,-1.6701483,1.3454351,4.0327764,-1.9778126,14.237612,-46.754517,60.00784,12.607733,0.9906162,9.901947,-2.1721592,-11.12975,37.3145,61.779625,-9.838864,-2.7453823,-2.2299728
208,1.5631579160690308,-0.15136319398880005,77.83544921875,-1.6741754274705236,0.5081611389490699,177.89749606553417,4.794442,8.554087,16.492752,11.34402,-13.950342,-6.6602697,2.2470036,-1.8195015,-6.0806627,10.18543,-13.232195,4.225593,-1.6680351,1.3476154,4.0266805,-1.9691709,14.23903,-46.756992,60.012547,12.58963,0.9925543,9.901281,-2.1631851,-11.125589,37.33106,61.809547,-9.828132,-2.7631037,-2.2610738
209,1.5581713914871216,-0.1480567306280136,77.83356475830078,-1.6733231021325292,0.4968017039407345,177.8993610723672,4.806245,8.5564375,16.490892,11.354974,-13.957399,-6.6494646,2.262612,-1.8193747,-6.081847,10.190644,-13.245413,4.2196684,-1.6686488,1.3496323,4.025771,-1.9631487,14.239824,-46.756386,60.01687,12.581883,0.99423623,9.909744,-2.1580358,-11.123468,37.335876,61.83045,-9.816152,-2.7698233,-2.2761266
210,1.5535612106323242,-0.1471252292394638,77.83350372314453,-1.673215476691333,0.48402742123018405,177.90069677694075,4.8150926,8.561182,16.487823,11.375891,-13.966805,-6.628659,2.2770684,-1.8185393,-6.0820866,10.202137,-13.264864,4.2045937,-1.672855,1.3509933,4.025463,-1.9540712,14.241255,-46.75371,60.019867,12.579501,0.99577963,9.924048,-2.1543403,-11.119939,37.339188,61.849014,-9.800668,-2.7697568,-2.2845721
211,1.5502501726150513,-0.14593303203582764,77.83354187011719,-1.673474183790153,0.4720590799959581,177.9017326803411,4.8231807,8.566206,16.484842,11.39591,-13.975939,-6.6088066,2.28942,-1.8172926,-6.082176,10.214822,-13.28376,4.189359,-1.6771047,1.3530837,4.0258727,-1.9462851,14.242218,-46.75038,60.02162,12.579715,0.9964222,9.937056,-2.1516895,-11.117774,37.33733,61.860863,-9.785351,-2.765964,-2.2838602
212,1.5458390712738037,-0.145159050822258,77.83501434326172,-1.6740267770998376,0.4630333867104812,177.90255688476117,4.8325796,8.570005,16.483662,11.405533,-13.982856,-6.6011353,2.3004346,-1.8153948,-6.082828,10.221725,-13.295182,4.1828475,-1.6803206,1.3551861,4.02264,-1.9376242,14.242903,-46.745728,60.021282,12.582038,0.99563426,9.942448,-2.1493673,-11.116437,37.33274,61.867462,-9.773438,-2.760968,-2.2738655
213,1.5426186323165894,-0.1425231695175171,77.8343734741211,-1.6749220000279579,0.45880502439835746,177.9027974715609,4.8430486,8.572298,16.485312,11.400823,-13.986938,-6.6114097,2.3087044,-1.8125747,-6.084156,10.220837,-13.295321,4.190197,-1.684406,1.3576646,4.0133753,-1.9266117,14.243603,-46.737225,60.01768,12.586614,0.9921041,9.935315,-2.145231,-11.11527,37.32312,61.860985,-9.7719,-2.753942,-2.2454152
214,1.5406630039215088,-0.14203257858753204,77.83375549316406,-1.6762301639690322,0.4576121625864767,177.90253995773364,4.854413,8.573715,16.488981,11.386219,-13.988681,-6.6327715,2.3141615,-1.8090022,-6.0858994,10.215969,-13.288434,4.205774,-1.6886181,1.3597994,4.000851,-1.9128716,14.244926,-46.72044,60.010017,12.599598,0.986423,9.918462,-2.1411936,-11.113905,37.30306,61.845222,-9.782214,-2.743922,-2.2000864
215,1.537684440612793,-0.13880403339862823,77.8317642211914,-1.6776147248510738,0.4564301744573709,177.9023667760351,4.866838,8.574623,16.492533,11.368757,-13.9896555,-6.657298,2.3204277,-1.8054768,-6.0877094,10.209479,-13.280437,4.222258,-1.689869,1.3617567,3.995123,-1.9019536,14.249239,-46.695484,59.99633,12.621523,0.9799019,9.897716,-2.1399512,-11.1118555,37.270126,61.827442,-9.79591,-2.7345037,-2.154273
216,1.535179615020752,-0.13624456524848938,77.82855224609375,-1.6788210233082035,0.4530653562158445,177.90296905846418,4.879505,8.575451,16.493973,11.3552685,-13.991418,-6.677076,2.3295438,-1.8025626,-6.0897803,10.203383,-13.276741,4.232284,-1.6903454,1.3646696,3.9889967,-1.8971308,14.249679,-46.693043,59.991474,12.621987,0.9771123,9.890982,-2.1392388,-11.111761,37.26687,61.82353,-9.772731,-2.7272441,-2.1378536
217,1.532565951347351,-0.13465993106365204,77.82733154296875,-1.6796659234536284,0.4424644572779092,177.9041646067138,4.8997684,8.575735,16.493534,11.342852,-13.993507,-6.6920443,2.35035,-1.8004862,-6.0915933,10.192069,-13.277399,4.23282,-1.6847619,1.3693391,3.9910212,-1.8892548,14.251315,-46.692135,59.980137,12.624971,0.97813094,9.894063,-2.139997,-11.112046,37.26769,61.83553,-9.712667,-2.718172,-2.1456473
218,1.5308146476745605,-0.1348804384469986,77.82696533203125,-1.680682061244389,0.42952657134546135,177.90611571910526,4.921666,8.576012,16.49126,11.331932,-13.99632,-6.70567,2.3751903,-1.798603,-6.0937786,10.179123,-13.281073,4.2280173,-1.6778755,1.3747312,3.9980752,-1.8866371,14.253057,-46.70102,59.97026,12.618227,0.98161817,9.906928,-2.144282,-11.112906,37.28368,61.860016,-9.622566,-2.7103908,-2.177429
219,1.5277997255325317,-0.13243047893047333,77.82606506347656,-1.6814083311609995,0.41699990927446856,177.90822676006545,4.9411254,8.576267,16.488264,11.324725,-13.999398,-6.7157063,2.3978531,-1.7974739,-6.095851,10.169513,-13.286688,4.221861,-1.6745472,1.3803021,4.0020847,-1.8807538,14.25545,-46.71467,59.959934,12.6036215,0.98606646,9.922397,-2.1487021,-11.114799,37.316673,61.88634,-9.525279,-2.7051046,-2.2178743
220,1.522813081741333,-0.133438840508461,77.82594299316406,-1.6816952511036927,0.4081212691861184,177.9099506308312,4.953738,8.577033,16.485455,11.323297,-14.002274,-6.720002,2.4125416,-1.7965934,-6.0973506,10.166452,-13.291941,4.2180634,-1.6682824,1.383626,4.005616,-1.879773,14.256196,-46.719875,59.955055,12.600018,0.9877724,9.927292,-2.1540847,-11.115819,37.331123,61.904816,-9.470596,-2.707222,-2.2467866
221,1.5213654041290283,-0.13380125164985657,77.82659149169922,-1.6812893695059068,0.4046317370839719,177.9108826018273,4.9557548,8.578305,16.482656,11.331304,-14.004919,-6.7151113,2.414483,-1.7965904,-6.097856,10.17488,-13.297639,4.217901,-1.6647903,1.3845572,4.001954,-1.8776529,14.256834,-46.722237,59.954884,12.59683,0.98657763,9.921276,-2.1618903,-11.117234,37.34747,61.91564,-9.458848,-2.7200303,-2.267268
222,1.519690752029419,-0.1327637881040573,77.82633209228516,-1.6803364119570094,0.40435014137147,177.91133227472054,4.9515343,8.579566,16.480003,11.344695,-14.006481,-6.703134,2.4082162,-1.7974169,-6.0976396,10.190934,-13.303957,4.219309,-1.662393,1.383895,3.9952002,-1.8756001,14.257287,-46.72014,59.957863,12.596766,0.98335016,9.907809,-2.1703455,-11.118829,37.3639,61.92004,-9.475513,-2.7407324,-2.2847543
223,1.5190105438232422,-0.13243627548217773,77.8268051147461,-1.6794996483150946,0.4053333163071747,177.91212122342316,4.9447756,8.581312,16.4771,11.359924,-14.00861,-6.6901946,2.4005365,-1.7980429,-6.097777,10.207026,-13.309807,4.2210374,-1.6706343,1.3845994,3.9870214,-1.8671461,14.258134,-46.706833,59.957302,12.599716,0.9801292,9.893306,-2.1830046,-11.123211,37.391216,61.924294,-9.497279,-2.7614062,-2.297374
224,1.5162503719329834,-0.1307353675365448,77.8265151977539,-1.6789666605274112,0.4050781960713016,177.91365128607973,4.9424286,8.582406,16.474873,11.368278,-14.010315,-6.6823306,2.3990574,-1.7982056,-6.0988884,10.214144,-13.313536,4.2220154,-1.6712064,1.3850678,3.9817307,-1.8644902,14.258332,-46.702026,59.95752,12.603616,0.9788219,9.882787,-2.1887856,-11.125071,37.39705,61.924454,-9.518466,-2.7749834,-2.3001783
225,1.5148663520812988,-0.1285741627216339,77.82490539550781,-1.6794676063324732,0.4035329185674326,177.91699160492743,4.944373,8.583276,16.473001,11.369483,-14.012808,-6.68079,2.4064968,-1.7974877,-6.102347,10.208239,-13.314275,4.223181,-1.6772346,1.3897247,3.9772096,-1.8563403,14.258483,-46.695465,59.949665,12.609705,0.9810056,9.879147,-2.1947825,-11.127915,37.396133,61.92875,-9.526263,-2.7776713,-2.28817
226,1.5116770267486572,-0.1276313066482544,77.82234191894531,-1.6799187594923786,0.4019467322833637,177.92068320239423,4.9484572,8.583505,16.472218,11.365695,-14.015319,-6.6824374,2.4174201,-1.7967243,-6.1063404,10.195842,-13.313471,4.2247796,-1.6836199,1.3932042,3.972742,-1.8523107,14.258461,-46.69411,59.945213,12.612291,0.98406404,9.879455,-2.1961517,-11.128556,37.39192,61.92937,-9.527699,-2.7730138,-2.2691252
227,1.5108890533447266,-0.1266411989927292,77.82112884521484,-1.6813180282076576,0.39938708771780923,177.9254263915881,4.9547434,8.58424,16.470531,11.359341,-14.017234,-6.6869164,2.4319878,-1.7949404,-6.1114526,10.178852,-13.31128,4.224345,-1.6888806,1.3994502,3.968903,-1.8435854,14.258321,-46.69205,59.93434,12.619303,0.9894381,9.880887,-2.1982422,-11.130022,37.37775,61.93194,-9.535741,-2.7680464,-2.2432413
228,1.5092475414276123,-0.12689775228500366,77.82279968261719,-1.6824829207170602,0.3978153704891125,177.92894007910274,4.9598584,8.584802,16.46889,11.352914,-14.017482,-6.6935244,2.439547,-1.7934062,-6.1147976,10.17248,-13.313848,4.2196293,-1.6813184,1.4054035,3.969587,-1.8431894,14.257811,-46.694706,59.92443,12.629709,0.993464,9.8796215,-2.197346,-11.134069,37.348667,61.930702,-9.558287,-2.7727995,-2.22772
229,1.5085397958755493,-0.125959575176239,77.82525634765625,-1.683792995553618,0.39769036614731373,177.93094153632669,4.9641995,8.58597,16.46689,11.345482,-14.015076,-6.706539,2.4374108,-1.7917966,-6.115904,10.181431,-13.324058,4.206188,-1.6706432,1.4095668,3.9694188,-1.8469814,14.257123,-46.70065,59.91945,12.636859,0.9968523,9.876931,-2.1986024,-11.1371355,37.33678,61.93701,-9.583139,-2.7912679,-2.2340345
230,1.5071572065353394,-0.1270844042301178,77.82705688476562,-1.6856732886419648,0.39831953160871825,177.93222522509333,4.969516,8.587259,16.464697,11.33427,-14.009891,-6.7247624,2.430314,-1.7896473,-6.1158085,10.197701,-13.338297,4.1865077,-1.6595384,1.4142514,3.969376,-1.8510464,14.256092,-46.705647,59.914585,12.644381,1.0003759,9.873868,-2.2014756,-11.139889,37.333317,61.948025,-9.611357,-2.8180084,-2.252816
231,1.5068200826644897,-0.12698404490947723,77.82522583007812,-1.6868658145858209,0.3993002139379813,177.93324627491356,4.9727993,8.588148,16.462296,11.326673,-14.005883,-6.7396746,2.42176,-1.7883773,-6.1152625,10.216132,-13.352657,4.1687455,-1.6500816,1.4170861,3.9687533,-1.8539284,14.255282,-46.70795,59.910175,12.65138,1.0029299,9.871443,-2.2054214,-11.14144,37.334644,61.956806,-9.638202,-2.843826,-2.2722807
232,1.505184531211853,-0.12527520954608917,77.82499694824219,-1.6866625258053853,0.39993047994345327,177.93475954983606,4.9738216,8.587761,16.45944,11.323956,-14.003519,-6.742715,2.4170554,-1.788697,-6.1154256,10.22667,-13.360356,4.161002,-1.6443483,1.419082,3.9674287,-1.8543764,14.254053,-46.709145,59.905163,12.653697,1.0034384,9.871408,-2.2088046,-11.143199,37.337013,61.953247,-9.657867,-2.859709,-2.2801797
233,1.5045453310012817,-0.12431136518716812,77.82310485839844,-1.6821532702554072,0.40025871621189846,177.9361382540455,4.970008,8.583131,16.456587,11.331972,-14.005246,-6.7246203,2.4191332,-1.7943202,-6.116663,10.223273,-13.354705,4.1782713,-1.6406083,1.4161983,3.964014,-1.8524388,14.253164,-46.70934,59.90043,12.650859,1.0007629,9.873435,-2.212352,-11.144362,37.33892,61.935715,-9.6662035,-2.8618844,-2.2717466
234,1.5056065320968628,-0.12481047213077545,77.82276916503906,-1.6748923110615206,0.40069846467593445,177.93753147221386,4.9628468,8.575561,16.453491,11.346037,-14.008662,-6.692281,2.425215,-1.8034234,-6.1186366,10.210889,-13.3402195,4.2119503,-1.6385075,1.4109817,3.9601378,-1.8488334,14.252697,-46.70916,59.89435,12.64395,0.99583405,9.877691,-2.215005,-11.144929,37.341003,61.904903,-9.668295,-2.85583,-2.2531035
235,1.5035442113876343,-0.1253042072057724,77.8234634399414,-1.669950774939722,0.4009741722110411,177.94002605886274,4.9548798,8.570892,16.449358,11.36163,-14.013152,-6.6613393,2.4295816,-1.8096812,-6.120496,10.202723,-13.330598,4.234824,-1.6403148,1.4061679,3.9557636,-1.8429967,14.251754,-46.707626,59.889473,12.6348505,0.99092495,9.884456,-2.216178,-11.146289,37.34426,61.86897,-9.670911,-2.845195,-2.2304726
236,1.5020744800567627,-0.1254587173461914,77.8232192993164,-1.6728321838554876,0.4007719283842769,177.94447230400448,4.9468465,8.576107,16.443478,11.377512,-14.019477,-6.6477365,2.4279828,-1.8059875,-6.12109,10.208287,-13.337703,4.219552,-1.6467842,1.4085621,3.9528642,-1.8366263,14.249886,-46.70301,59.886276,12.626671,0.98834836,9.892457,-2.2136097,-11.149235,37.34507,61.83458,-9.683573,-2.83735,-2.213257
237,1.5025522708892822,-0.12400303035974503,77.82340240478516,-1.6898687178144207,0.3993548171655035,177.95105511116685,4.940872,8.598541,16.436089,11.391273,-14.027853,-6.6614017,2.4118726,-1.784767,-6.1169386,10.247619,-13.380678,4.131839,-1.6571224,1.424772,3.9542892,-1.8316509,14.247773,-46.69393,59.88415,12.619379,0.9884296,9.89952,-2.2098813,-11.152041,37.337303,61.809746,-9.7125845,-2.8405638,-2.2026064
238,1.5061007738113403,-0.12434589117765427,77.82483673095703,-1.7164215287264826,0.39688072536197433,177.9593477844751,4.9360743,8.632604,16.427502,11.404274,-14.038055,-6.6919765,2.3866065,-1.7513324,-6.1097984,10.308466,-13.44721,3.9952297,-1.6704018,1.4486419,3.9581547,-1.8276935,14.2467785,-46.68559,59.8836,12.609987,0.99023116,9.907579,-2.2061338,-11.152948,37.32529,61.79026,-9.752243,-2.8481522,-2.1946166
239,1.5022213459014893,-0.1244816929101944,77.82554626464844,-1.740647443109924,0.3948866934271351,177.96779571078503,4.932335,8.663343,16.419174,11.413569,-14.046065,-6.7246113,2.3623147,-1.7211403,-6.104175,10.366338,-13.509088,3.8694146,-1.6775026,1.4715286,3.9670086,-1.8285363,14.243856,-46.669434,59.882114,12.614421,0.992294,9.911154,-2.200361,-11.154605,37.28903,61.77007,-9.808989,-2.8571053,-2.186111
