unveil-humanoid-operators/unveil-humanoid-operators.github.io/feature-analysis-animation/data/feature_matrix_instances/height_ankle_rom_jogging_A047_jog_ff_start_180_R_002__A047.csv
Frame,root_translateX,root_translateY,root_translateZ,root_rotateX,root_rotateY,root_rotateZ,left_hip_pitch_joint_dof,left_hip_roll_joint_dof,left_hip_yaw_joint_dof,left_knee_joint_dof,left_ankle_pitch_joint_dof,left_ankle_roll_joint_dof,right_hip_pitch_joint_dof,right_hip_roll_joint_dof,right_hip_yaw_joint_dof,right_knee_joint_dof,right_ankle_pitch_joint_dof,right_ankle_roll_joint_dof,waist_yaw_joint_dof,waist_roll_joint_dof,waist_pitch_joint_dof,left_shoulder_pitch_joint_dof,left_shoulder_roll_joint_dof,left_shoulder_yaw_joint_dof,left_elbow_joint_dof,left_wrist_roll_joint_dof,left_wrist_pitch_joint_dof,left_wrist_yaw_joint_dof,right_shoulder_pitch_joint_dof,right_shoulder_roll_joint_dof,right_shoulder_yaw_joint_dof,right_elbow_joint_dof,right_wrist_roll_joint_dof,right_wrist_pitch_joint_dof,right_wrist_yaw_joint_dof
0,0.2560133635997772,1.6509045362472534,77.22459411621094,-0.6601216392197361,0.7338783786174238,-91.36814733386844,0.56323373,8.7158985,4.91977,12.551008,-13.176789,-8.395393,2.1394641,-8.195802,-16.446745,6.801829,-8.291617,9.907502,-4.7379127,2.6931472,6.4744706,-1.3429227,17.97916,-37.082726,54.851,-1.1334039,0.30485478,-4.1167455,-11.551461,-11.991751,41.37253,63.48279,-0.34797925,5.2543054,-5.547172
1,0.27772843837738037,1.6568628549575806,77.22087860107422,-0.6662435537452767,0.7724400288923314,-91.32293309893501,0.37250933,8.703948,4.8461347,12.834515,-13.33166,-8.316875,2.1130714,-8.208851,-16.476286,6.8029213,-8.339949,9.928744,-4.7305937,2.6967678,6.490619,-1.3575642,17.988886,-37.042892,54.80593,-1.1499861,0.29014635,-4.108831,-11.579325,-11.989366,41.34702,63.47783,-0.23701742,5.268836,-5.5218763
2,0.3009677827358246,1.6541649103164673,77.2151870727539,-0.6720840850032808,0.8095945485185985,-91.28185216321306,0.18994503,8.691055,4.7769265,13.106374,-13.481631,-8.239087,2.0872395,-8.22173,-16.501616,6.8033924,-8.388376,9.94969,-4.726942,2.6984925,6.513326,-1.3664848,18.001308,-36.98463,54.75278,-1.1592889,0.2748689,-4.1041894,-11.612825,-11.988472,41.31959,63.469734,-0.13537931,5.2833176,-5.4960713
3,0.3188478648662567,1.6506658792495728,77.20738983154297,-0.6823029143184896,0.8491861656455633,-91.23221032724047,-0.006479261,8.681233,4.6982346,13.396536,-13.638703,-8.159899,2.061657,-8.232063,-16.536234,6.8033924,-8.435876,9.970946,-4.72465,2.7079065,6.5313315,-1.381569,18.007792,-36.94005,54.706497,-1.1696764,0.2607612,-4.097719,-11.641815,-11.989528,41.29489,63.464127,-0.02267574,5.298371,-5.467554
4,0.33674532175064087,1.6477640867233276,77.19806671142578,-0.7013624004237479,0.894169733675766,-91.16133364183162,-0.23687246,8.677389,4.59627,13.733299,-13.813676,-8.077112,2.0373724,-8.237987,-16.593777,6.803391,-8.482014,9.993393,-4.7375855,2.7280848,6.5568957,-1.3972442,18.014494,-36.88641,54.645763,-1.1546019,0.25019705,-4.0997686,-11.679417,-11.993407,41.26687,63.464947,0.09952641,5.314019,-5.4240713
5,0.3589610457420349,1.6441881656646729,77.18963623046875,-0.731501678029094,0.9515853454877137,-91.06078864224281,-0.52407664,8.680086,4.4611692,14.1398115,-14.016845,-7.987205,2.0078895,-8.238496,-16.68205,6.8027725,-8.527938,10.018031,-4.766144,2.763625,6.5778418,-1.4205614,18.019026,-36.844242,54.578255,-1.1081643,0.24346976,-4.1105256,-11.721488,-11.998954,41.235317,63.47967,0.25287345,5.333252,-5.3619003
6,0.3856859803199768,1.6402397155761719,77.1788330078125,-0.7647365575705125,1.01775302161904,-90.93963908503238,-0.8555804,8.682659,4.303056,14.605378,-14.245091,-7.8925548,1.9751062,-8.239657,-16.79128,6.801315,-8.573435,10.044592,-4.8055935,2.8050923,6.597055,-1.4495497,18.02203,-36.80716,54.5048,-1.037572,0.23898159,-4.128827,-11.765795,-12.005517,41.19808,63.50129,0.4252657,5.3547373,-5.285613
7,0.42009809613227844,1.6296710968017578,77.16767883300781,-0.8029077110850967,1.0799623081314749,-90.80982338993431,-1.192729,8.688012,4.136066,15.091285,-14.479111,-7.800225,1.9513711,-8.23827,-16.911127,6.799892,-8.615216,10.070819,-4.8453703,2.8515768,6.627187,-1.4803591,18.025436,-36.769695,54.425163,-0.97246873,0.23803133,-4.145852,-11.811009,-12.017734,41.159496,63.519936,0.58928204,5.3737454,-5.205467
8,0.45288875699043274,1.6316028833389282,77.15380859375,-0.8429239220401477,1.1263578724972823,-90.68358199568843,-1.4940003,8.694986,3.9761863,15.551959,-14.700221,-7.7173605,1.9496436,-8.235234,-17.03037,6.7980995,-8.650098,10.094374,-4.8746643,2.8973155,6.6649833,-1.509699,18.026573,-36.74868,54.354385,-0.9617757,0.24073006,-4.145782,-11.853822,-12.026795,41.141796,63.544086,0.73322374,5.383855,-5.1401305
9,0.4864068329334259,1.6176702976226807,77.13929748535156,-0.8878136304488103,1.1527768081940095,-90.56123219069049,-1.7635658,8.708025,3.822168,16.006521,-14.9127,-7.6433153,1.9720603,-8.229028,-17.150124,6.8016686,-8.676269,10.1133995,-4.8951735,2.9455822,6.7221913,-1.5363133,18.026571,-36.729298,54.287395,-1.0190214,0.25010076,-4.123989,-11.896324,-12.04113,41.140858,63.56483,0.8477055,5.379284,-5.0856266
10,0.5127764344215393,1.595422625541687,77.12733459472656,-0.9384584766432572,1.165940051390645,-90.43688220232185,-2.0186791,8.726827,3.6670012,16.468945,-15.124268,-7.5758276,2.0098708,-8.219737,-17.274984,6.815006,-8.699643,10.129289,-4.917586,3.0005984,6.7942643,-1.5569422,18.024122,-36.70916,54.21748,-1.1221268,0.26511562,-4.0866814,-11.931718,-12.068112,41.163048,63.569714,0.94935143,5.3669686,-5.0377893
11,0.5459924936294556,1.572502613067627,77.11380004882812,-0.9879070235608578,1.170002903463069,-90.31456296551544,-2.2431395,8.74192,3.5182621,16.89953,-15.322475,-7.517995,2.0651126,-8.211932,-17.39883,6.8203516,-8.718021,10.145298,-4.9308176,3.055114,6.873612,-1.5771592,18.018112,-36.695274,54.148823,-1.2349215,0.27898696,-4.0480213,-11.960668,-12.106052,41.19856,63.56451,1.0355163,5.3542943,-4.9986043
12,0.5951634049415588,1.541813611984253,77.0989990234375,-1.0307856232774164,1.1685290639383104,-90.19793029760284,-2.423644,8.746128,3.3820536,17.265167,-15.498812,-7.4733596,2.1318183,-8.210912,-17.515285,6.8201256,-8.740744,10.164476,-4.930496,3.1000588,6.9548683,-1.5949291,18.011467,-36.68681,54.077602,-1.3180492,0.28614038,-4.022573,-11.988405,-12.140104,41.23729,63.560555,1.0967779,5.3500466,-4.971177
13,0.6396629214286804,1.5068018436431885,77.08750915527344,-1.068185554318255,1.1532577231601562,-90.08892175603464,-2.5457575,8.742464,3.2612371,17.556501,-15.650647,-7.450776,2.2193463,-8.213768,-17.621283,6.8121467,-8.76741,10.180908,-4.913857,3.1335018,7.044184,-1.6083386,18.007027,-36.682457,54.00069,-1.3574114,0.28243542,-4.0211577,-12.020334,-12.162551,41.281506,63.564556,1.114166,5.3577,-4.957985
14,0.6777087450027466,1.4704704284667969,77.07759094238281,-1.1020379971519472,1.1254875681749352,-89.98506069492261,-2.620429,8.733462,3.1519256,17.791344,-15.782975,-7.4453,2.3276086,-8.21911,-17.721064,6.7955647,-8.794082,10.195298,-4.894217,3.1616461,7.144342,-1.6100851,18.001982,-36.66955,53.913338,-1.3707216,0.2718937,-4.0334444,-12.045565,-12.191985,41.34921,63.549953,1.1035229,5.376311,-4.958283
15,0.7173696756362915,1.4293702840805054,77.06668090820312,-1.1293118172301522,1.1019515675868523,-89.88342716558496,-2.6770985,8.713747,3.0495064,17.989605,-15.904469,-7.4407067,2.4271219,-8.237088,-17.81725,6.7962785,-8.834942,10.221267,-4.864564,3.183097,7.239795,-1.6096913,17.99792,-36.662384,53.82259,-1.3772863,0.26114705,-4.0447507,-12.073072,-12.2190895,41.415817,63.54329,1.0929009,5.394439,-4.965714
16,0.7615094780921936,1.3697527647018433,77.05447387695312,-1.1439350171196334,1.1004410977511254,-89.78163175390051,-2.7405655,8.673637,2.9512918,18.158535,-16.015856,-7.4192233,2.5060587,-8.274883,-17.914143,6.795812,-8.879741,10.27226,-4.8303256,3.1965034,7.315617,-1.6070056,17.993435,-36.659813,53.729206,-1.3914928,0.25668898,-4.039397,-12.101751,-12.251884,41.48136,63.54296,1.1240476,5.406846,-4.976309
17,0.8149300813674927,1.3138372898101807,77.04176330566406,-1.1434888464556732,1.1231731954877004,-89.6773485605123,-2.8049605,8.609234,2.8567722,18.28148,-16.114151,-7.3779416,2.5639906,-8.336011,-18.015133,6.7955284,-8.931368,10.3552685,-4.7871575,3.198684,7.368236,-1.6092448,17.988781,-36.678333,53.63949,-1.4257709,0.26241568,-4.0055456,-12.128341,-12.287329,41.536053,63.55607,1.2195174,5.408989,-4.995011
18,0.8669486045837402,1.2607977390289307,77.03141784667969,-1.1306060693387805,1.1615429072295795,-89.5726016194957,-2.8631432,8.525963,2.767101,18.364481,-16.200188,-7.3252845,2.6096606,-8.415833,-18.117338,6.7943335,-8.988134,10.46169,-4.734137,3.1871204,7.403826,-1.6135151,17.986471,-36.71176,53.552418,-1.4681243,0.27448094,-3.954153,-12.164287,-12.305641,41.58,63.599342,1.3499162,5.403809,-5.0229096
19,0.9200533032417297,1.1996606588363647,77.02303314208984,-1.1083598197688485,1.2169939097562619,-89.4710418969383,-2.9257429,8.427523,2.684114,18.423853,-16.276115,-7.261335,2.6375253,-8.510387,-18.21521,6.793135,-9.048057,10.5818405,-4.6723933,3.1691394,7.4233437,-1.6134056,17.983665,-36.743477,53.4612,-1.5066522,0.2869318,-3.9021053,-12.202299,-12.32511,41.621796,63.644436,1.4813845,5.398637,-5.0485244
20,0.9815739393234253,1.1386215686798096,77.01567077636719,-1.0783263781790766,1.2908835530808787,-89.37645782735989,-3.004872,8.31672,2.6096938,18.47863,-16.345715,-7.1862226,2.6425765,-8.616305,-18.303005,6.791947,-9.108427,10.705792,-4.5986624,3.149373,7.429899,-1.6062216,17.976913,-36.75463,53.36076,-1.5233406,0.29415646,-3.8676193,-12.237443,-12.359435,41.65539,63.666546,1.5697393,5.4002995,-5.058366
21,1.0450440645217896,1.0790053606033325,77.01110076904297,-1.0418356673598062,1.3867620756327232,-89.29011347321894,-3.100658,8.194113,2.546003,18.520262,-16.402441,-7.0970497,2.6195152,-8.732492,-18.38014,6.7911015,-9.166495,10.831158,-4.5118055,3.126957,7.419328,-1.5921509,17.967533,-36.739117,53.25094,-1.5047026,0.29892266,-3.8600073,-12.280519,-12.392539,41.673397,63.682236,1.58714,5.410692,-5.035415
22,1.1141431331634521,1.0152432918548584,77.0058364868164,-0.997618109771747,1.50284599912035,-89.20977500402434,-3.20763,8.0581255,2.491584,18.543156,-16.446953,-6.994781,2.5721095,-8.8611145,-18.449265,6.790276,-9.223724,10.963056,-4.4136424,3.0984237,7.390277,-1.5717685,17.95787,-36.708862,53.1346,-1.4643348,0.30295983,-3.8675091,-12.335314,-12.417381,41.682907,63.706047,1.564177,5.425652,-4.9920907
23,1.1960192918777466,0.9468226432800293,76.9986572265625,-0.948905322140026,1.632012117099771,-89.1338026677715,-3.3221283,7.9131675,2.442307,18.556425,-16.486395,-6.8850513,2.5098639,-8.9972725,-18.511202,6.7895713,-9.286474,11.103078,-4.311162,3.071071,7.355444,-1.5445508,17.940771,-36.654327,53.013313,-1.4138274,0.2986224,-3.881282,-12.388644,-12.452474,41.686188,63.712826,1.5274562,5.4424767,-4.956544
24,1.2731796503067017,0.8797731399536133,76.99215698242188,-0.8979343902853497,1.7671875321409456,-89.06049664260622,-3.441914,7.7628665,2.3940582,18.571863,-16.528921,-6.7734447,2.4421155,-9.137253,-18.566902,6.787982,-9.359441,11.252637,-4.1985755,3.0385292,7.3192353,-1.5104246,17.927498,-36.591595,52.886234,-1.378417,0.28010264,-3.8898313,-12.448023,-12.4747305,41.670017,63.728115,1.498157,5.4545493,-4.960678
25,1.3537907600402832,0.8104715347290039,76.9838638305664,-0.8436556474987895,1.9108217139405066,-88.9938210742521,-3.5671215,7.6066575,2.3495927,18.585485,-16.5711,-6.660867,2.3635926,-9.281292,-18.610882,6.7871857,-9.441667,11.416355,-4.0827703,3.0079527,7.282401,-1.4662455,17.905325,-36.49762,52.761963,-1.3500706,0.2324644,-3.8963563,-12.5026455,-12.507277,41.646294,63.730328,1.4778527,5.4668555,-5.022333
26,1.440105676651001,0.7380632758140564,76.9778823852539,-0.7845246846450904,2.0653616642534396,-88.93302470207759,-3.698784,7.442091,2.3101745,18.594358,-16.611286,-6.5444756,2.2724195,-9.431498,-18.644678,6.785656,-9.530379,11.592104,-3.9516053,2.9695187,7.236883,-1.4132314,17.889877,-36.3977,52.63357,-1.3336861,0.16490144,-3.9022627,-12.56079,-12.525514,41.60294,63.743114,1.4532601,5.4780383,-5.1242905
27,1.5316625833511353,0.6565284729003906,76.97216033935547,-0.7245302270825381,2.223005550797571,-88.87018201770287,-3.834847,7.2725854,2.2686179,18.6084,-16.657858,-6.424517,2.180394,-9.585563,-18.679674,6.784299,-9.63185,11.771434,-3.823231,2.9307358,7.199368,-1.3539083,17.872744,-36.276867,52.489326,-1.3195852,0.10151263,-3.904769,-12.627028,-12.5426855,41.549007,63.745598,1.436988,5.4828224,-5.234025
28,1.6156253814697266,0.5919285416603088,76.96559143066406,-0.6668361584867455,2.3764270284516504,-88.79730827971417,-3.972778,7.1007733,2.2181206,18.635777,-16.719933,-6.3010893,2.0994432,-9.74181,-18.727177,6.7841296,-9.753188,11.946259,-3.697457,2.8912542,7.178065,-1.2954512,17.859598,-36.158203,52.317677,-1.3179674,0.06793231,-3.8959029,-12.704239,-12.554049,41.4791,63.734547,1.4428579,5.473434,-5.322582
29,1.7160634994506836,0.5237191319465637,76.95526885986328,-0.6109654025324118,2.5234279501377204,-88.7159469524631,-4.1092257,6.9268036,2.1608753,18.674257,-16.7948,-6.1771126,2.0326362,-9.900496,-18.786829,6.78307,-9.897805,12.124728,-3.5777261,2.8512912,7.1857247,-1.2387717,17.844248,-36.01601,52.10902,-1.3153093,0.07805974,-3.8744476,-12.795175,-12.566847,41.381985,63.69685,1.4623866,5.446794,-5.369606
30,1.8101234436035156,0.45084092020988464,76.94339752197266,-0.5555742732812247,2.668067100099132,-88.62910155921647,-4.2459273,6.7491274,2.0992196,18.719471,-16.87962,-6.0514793,1.9723837,-10.063138,-18.853848,6.7843804,-10.063049,12.307809,-3.4573646,2.8112047,7.2125273,-1.1857864,17.824392,-35.85882,51.877327,-1.3153763,0.11568181,-3.8427668,-12.892341,-12.584332,41.260796,63.63398,1.4938545,5.40775,-5.3950076
31,1.9180350303649902,0.36922940611839294,76.93115234375,-0.5056028860013371,2.812383505275205,-88.53084202975823,-4.3931994,6.572203,2.0248117,18.786123,-16.97916,-5.9183955,1.9200631,-10.223849,-18.9346,6.785191,-10.240474,12.476367,-3.3415084,2.776596,7.243085,-1.1298813,17.812012,-35.718445,51.629055,-1.3360037,0.16156758,-3.8053324,-12.996844,-12.594786,41.139137,63.566048,1.552713,5.3600664,-5.4269876
32,2.023883581161499,0.2920449674129486,76.91777801513672,-0.4657172482120021,2.9577223072204704,-88.41497333612561,-4.5600214,6.399851,1.9293535,18.888298,-17.099041,-5.771861,1.8749267,-10.37795,-19.035065,6.7877626,-10.423775,12.611295,-3.252558,2.761037,7.278799,-1.0693463,17.796913,-35.572884,51.37776,-1.3588612,0.19405612,-3.7775161,-13.1101885,-12.609102,41.034508,63.485123,1.635168,5.310956,-5.4840827
33,2.1408145427703857,0.20705217123031616,76.90480041503906,-0.44263888784361727,3.1090772247464913,-88.28288337614907,-4.763762,6.2410035,1.8112897,19.048363,-17.248775,-5.606599,1.8154927,-10.522136,-19.152147,6.8237863,-10.6295395,12.700596,-3.20024,2.777516,7.308855,-0.9962237,17.782984,-35.437126,51.116627,-1.4116236,0.20903085,-3.7552838,-13.241763,-12.622485,40.97029,63.411842,1.7749928,5.257254,-5.582747
34,2.25783109664917,0.11958444118499756,76.88868713378906,-0.4291266029807554,3.2646643293571698,-88.13767105603664,-4.9920053,6.087207,1.6767043,19.24658,-17.419874,-5.4262147,1.7552326,-10.659976,-19.2841,6.866101,-10.846061,12.7568655,-3.1714811,2.8131683,7.3376136,-0.9154053,17.772083,-35.310493,50.842636,-1.4887668,0.21719293,-3.7349384,-13.387168,-12.632246,40.92578,63.339836,1.9568342,5.1970177,-5.7078133
35,2.375412940979004,0.028728464618325233,76.87096405029297,-0.4217771305282559,3.4136706491657387,-87.97195134025142,-5.2235336,5.93224,1.5195476,19.469023,-17.608578,-5.2421274,1.7158773,-10.795021,-19.438354,6.909174,-11.0711355,12.796584,-3.155472,2.8532288,7.375119,-0.8332442,17.76076,-35.18602,50.572178,-1.5552552,0.22045128,-3.7197382,-13.5323,-12.642779,40.89117,63.24709,2.1416125,5.136298,-5.841274
36,2.491626501083374,-0.05977385491132736,76.85189819335938,-0.4174704416691715,3.544793674283996,-87.77851977581508,-5.438008,5.770469,1.3334107,19.703678,-17.812134,-5.065997,1.7200595,-10.9306,-19.6225,6.945873,-11.301827,12.836048,-3.1308904,2.8830469,7.4272437,-0.7634375,17.747452,-35.080215,50.32665,-1.5878553,0.22116666,-3.7090225,-13.655643,-12.657673,40.847607,63.111294,2.289829,5.0812583,-5.967456
37,2.6153714656829834,-0.17926348745822906,76.83019256591797,-0.41693900484376983,3.646305779586938,-87.55014424982642,-5.6221414,5.6002173,1.1104578,19.951246,-18.03316,-4.8999157,1.785823,-11.066814,-19.843937,6.9766803,-11.543974,12.879579,-3.0676887,2.8919237,7.498201,-0.7262444,17.732931,-35.02767,50.12782,-1.5835392,0.21749014,-3.7002995,-13.734673,-12.678992,40.768555,62.91203,2.38442,5.0413027,-6.0669475
38,2.748674154281616,-0.28981271386146545,76.8028335571289,-0.421654400940456,3.727153700509992,-87.29233512917136,-5.7892513,5.4250464,0.85576534,20.217165,-18.271927,-4.738032,1.8981447,-11.201392,-20.097286,7.0028424,-11.794337,12.918685,-2.9656966,2.8930821,7.5841722,-0.72878915,17.710085,-35.033287,49.974117,-1.5579579,0.20868449,-3.6924717,-13.764764,-12.724587,40.646397,62.641075,2.4417634,5.011762,-6.1506777
39,2.8828718662261963,-0.40167057514190674,76.77461242675781,-0.4279799343572074,3.8074531060346266,-87.01748855131866,-5.959249,5.244227,0.5836623,20.495853,-18.522215,-4.5801635,2.0237012,-11.33778,-20.369516,7.0302424,-12.048229,12.950819,-2.8666694,2.89558,7.6710987,-0.7372773,17.688555,-35.058224,49.830517,-1.5249478,0.19984905,-3.685954,-13.783756,-12.774681,40.52454,62.34608,2.4892766,4.974255,-6.256218
40,3.02714467048645,-0.5298091769218445,76.74510955810547,-0.43399566376575144,3.9071129742245003,-86.73769315904636,-6.151442,5.0596876,0.30772945,20.781544,-18.777761,-4.426512,2.129439,-11.47735,-20.647898,7.063963,-12.294936,12.972994,-2.792639,2.915214,7.747305,-0.7442296,17.662476,-35.083942,49.684544,-1.498342,0.19490932,-3.6798701,-13.804192,-12.842763,40.4192,62.040314,2.544838,4.9119987,-6.416275
41,3.169241428375244,-0.647819459438324,76.71441650390625,-0.4451151505865873,4.0380533216547505,-86.45417025684374,-6.386168,4.8790483,0.027491499,21.083342,-19.040958,-4.283309,2.1989493,-11.612716,-20.933914,7.1038575,-12.539013,12.987037,-2.7689004,2.961248,7.807827,-0.7343194,17.638123,-35.08966,49.51739,-1.4732817,0.19637716,-3.674006,-13.851693,-12.911757,40.35506,61.748077,2.6176953,4.8159475,-6.656908
42,3.3160560131073,-0.779084324836731,76.67981719970703,-0.4605546884741119,4.1873015056047205,-86.16122734699796,-6.6491156,4.6994157,-0.2630201,21.403257,-19.314728,-4.148661,2.2526436,-11.744989,-21.232737,7.1471987,-12.782441,12.993478,-2.7787957,3.0232723,7.8596196,-0.7148087,17.616213,-35.088284,49.34047,-1.4443611,0.20171928,-3.6692808,-13.914738,-12.979582,40.316704,61.45929,2.6945662,4.6961083,-6.9547377
43,3.463045835494995,-0.9214730262756348,76.64022827148438,-0.46716693790981223,4.337851861543676,-85.8600662341995,-6.9033165,4.503349,-0.557232,21.715603,-19.589619,-4.009755,2.3116984,-11.89139,-21.536766,7.1985197,-13.015246,12.988104,-2.8050768,3.0799723,7.9065804,-0.6848071,17.597317,-35.085484,49.16426,-1.4215937,0.20803842,-3.668249,-13.983144,-13.039171,40.290524,61.17869,2.7698753,4.5620914,-7.2736073
44,3.6118276119232178,-1.0644148588180542,76.59648895263672,-0.4516928382961469,4.4725626678160335,-85.55185649708343,-7.1139736,4.273801,-0.84890544,21.999935,-19.858728,-3.8535478,2.3954556,-12.070426,-21.83815,7.265633,-13.228587,12.966853,-2.8255887,3.1146421,7.9550014,-0.6493089,17.57335,-35.089455,49.004135,-1.4117756,0.21194571,-3.673366,-14.027829,-13.107954,40.25668,60.881283,2.8365452,4.4256854,-7.575375
45,3.7521016597747803,-1.2034825086593628,76.5508804321289,-0.407377807377442,4.578361666779743,-85.23207259040916,-7.254294,4.002283,-1.1340556,22.23737,-20.11284,-3.6779768,2.5280948,-12.290867,-22.14067,7.337609,-13.42008,12.949582,-2.8359659,3.121014,8.009223,-0.61161435,17.539633,-35.109406,48.86965,-1.4208709,0.21395278,-3.6861095,-14.040119,-13.189581,40.215107,60.56396,2.8974438,4.2920747,-7.849439
46,3.948007106781006,-1.406291127204895,76.50851440429688,-0.3410070878441444,4.666767501235258,-84.90178779672911,-7.3485856,3.6980193,-1.416581,22.44505,-20.359589,-3.4891334,2.6874633,-12.5456085,-22.44568,7.426863,-13.600672,12.931764,-2.8452466,3.1088603,8.064582,-0.5714417,17.496449,-35.14038,48.7551,-1.4425278,0.21510248,-3.7045925,-14.031379,-13.279123,40.171307,60.233917,2.9530063,4.1546926,-8.115823
47,4.1311869621276855,-1.5996499061584473,76.46031188964844,-0.25782982136931537,4.757863265776138,-84.57065323364284,-7.432658,3.3691542,-1.700504,22.643692,-20.610271,-3.2861166,2.8424191,-12.823468,-22.745708,7.5347896,-13.760081,12.872218,-2.8510141,3.0808363,8.111715,-0.5343178,17.44571,-35.17308,48.659565,-1.4709953,0.21268511,-3.7253027,-14.011343,-13.374739,40.12098,59.89333,3.0005033,4.0070844,-8.383235
48,4.291900157928467,-1.7729040384292603,76.40543365478516,-0.160624468788572,4.872163805218146,-84.24956164381612,-7.543618,3.0217137,-1.9882802,22.85437,-20.876228,-3.0679984,2.5284855,-13.296014,-22.930563,8.630549,-14.398712,12.731408,-2.8511314,3.036634,8.14047,-0.5020649,17.392138,-35.196777,48.57818,-1.4998624,0.20437065,-3.7451167,-13.992188,-13.471689,40.05937,59.548176,3.0362527,3.8424654,-8.660521
49,4.456781387329102,-1.9511550664901733,76.34320831298828,-0.046230796993513346,5.021016392163744,-83.93002489000165,-7.695146,2.6477597,-2.2911685,23.078962,-21.158373,-2.8342452,2.0019255,-13.863278,-23.060364,10.119693,-15.210103,12.492048,-2.8528674,2.9724388,8.138126,-0.46780726,17.339703,-35.20637,48.509434,-1.5242579,0.1833618,-3.7636838,-13.97666,-13.565794,39.98668,59.204063,3.0654073,3.6582968,-8.933383
50,4.628039836883545,-2.1347904205322266,76.27399444580078,0.09730440179156742,5.192653783260344,-83.61181695062133,-7.861841,2.234609,-2.5981674,23.297144,-21.445988,-2.583281,1.3519708,-14.509705,-23.145918,11.831143,-16.105288,12.177588,-2.853922,2.876362,8.110853,-0.42926115,17.290401,-35.206806,48.451294,-1.5494429,0.15322828,-3.7832441,-13.961546,-13.654773,39.90609,58.860874,3.0881352,3.458421,-9.203177
51,4.799142837524414,-2.323789596557617,76.19379425048828,0.2836480123427583,5.373925665041626,-83.31716984016796,-8.021199,1.7753386,-2.8769624,23.495062,-21.732357,-2.310983,0.5855028,-15.241086,-23.161037,13.747149,-17.061348,11.807486,-2.8373344,2.731032,8.076345,-0.3940503,17.246763,-35.201954,48.396183,-1.5835149,0.12743819,-3.8044703,-13.949749,-13.735635,39.81623,58.51594,3.0912285,3.245327,-9.5020895
52,4.962605953216553,-2.528141975402832,76.10624694824219,0.5225717781794313,5.551142313357443,-83.06785063717646,-8.153105,1.2672046,-3.0975962,23.664625,-22.014112,-2.0139112,-0.30181387,-16.063171,-23.076681,15.87405,-18.059875,11.399405,-2.7865696,2.5229177,8.053583,-0.36896038,17.211388,-35.19469,48.335323,-1.6332321,0.11949843,-3.8281548,-13.945682,-13.805042,39.717216,58.167778,3.0631895,3.021686,-9.862718
53,5.122898578643799,-2.7267298698425293,76.0088119506836,0.8351406322248573,5.729156820763161,-82.86989608582027,-8.253417,0.69073355,-3.2413924,23.786177,-22.28076,-1.6820121,-1.3184208,-17.000015,-22.874556,18.198437,-19.09654,10.999157,-2.708021,2.221941,8.033469,-0.33536634,17.199842,-35.171673,48.247547,-1.7149619,0.14078943,-3.8606412,-13.981909,-13.8272505,39.644905,57.869663,2.9977434,2.7792308,-10.314066
54,5.2855753898620605,-2.9202358722686768,75.90203094482422,1.21035191735349,5.911928427380068,-82.71029103839889,-8.331072,0.053295903,-3.3296175,23.870165,-22.53882,-1.3203084,-2.4572399,-18.034721,-22.562965,20.698683,-20.170357,10.578797,-2.58355,1.85021,8.018672,-0.3261532,17.18843,-35.153778,48.165924,-1.8154595,0.18055277,-3.9001198,-14.011745,-13.85575,39.552452,57.55436,2.8917627,2.5232234,-10.824745
55,5.430859565734863,-3.093930244445801,75.7864990234375,1.609607164984232,6.084831127400867,-82.5826531568397,-8.380896,-0.60634863,-3.3933117,23.944124,-22.805336,-0.9484239,-3.68357,-19.105217,-22.15816,23.338087,-21.257315,10.045622,-2.4498975,1.4487177,8.0221195,-0.31459185,17.18484,-35.127666,48.08075,-1.9147224,0.22273031,-3.9328141,-14.051148,-13.871089,39.44636,57.230698,2.7748191,2.265117,-11.3644495
56,5.591055870056152,-3.3008739948272705,75.66360473632812,1.9957662351481187,6.2331844695268295,-82.48164306047283,-8.400142,-1.2514096,-3.4615617,24.040085,-23.099697,-0.58585715,-4.967083,-20.153755,-21.677967,26.09686,-22.34182,9.310037,-2.3083553,1.0541158,8.066255,-0.3122075,17.189745,-35.10264,48.005116,-1.9856862,0.25101835,-3.9494257,-14.08112,-13.879971,39.272484,56.85953,2.652113,2.0191002,-11.892107
57,5.759872913360596,-3.528096914291382,75.53388214111328,2.3685893396640534,6.346516672226327,-82.40713993410073,-8.377611,-1.8883244,-3.5505648,24.164423,-23.431196,-0.23273276,-6.3129687,-21.197266,-21.12833,29.054125,-23.46808,8.243083,-2.15694,0.66628903,8.157442,-0.3068882,17.2087,-35.077667,47.91897,-2.0033402,0.26114252,-3.948667,-14.099471,-13.878951,39.00645,56.4355,2.5110257,1.8132108,-12.379675
58,5.899811267852783,-3.7431373596191406,75.40465545654297,2.7441743258410316,6.434867388691353,-82.36164273745544,-8.3173895,-2.5299814,-3.6447897,24.301926,-23.789698,0.11953486,-7.732736,-22.245325,-20.487751,32.178318,-24.624416,6.922518,-1.9904037,0.26613262,8.286277,-0.29892436,17.246916,-35.053585,47.819324,-1.9893262,0.26224083,-3.9361854,-14.113424,-13.863982,38.671738,55.975563,2.3505824,1.6322006,-12.853883
59,6.021823883056641,-3.9580636024475098,75.27436065673828,3.1069850755097552,6.515348789677446,-82.34256636582957,-8.241706,-3.146245,-3.7260315,24.45021,-24.16182,0.46360648,-9.198956,-23.22319,-19.751423,35.282303,-25.712917,5.5746064,-1.8233466,-0.12676288,8.443439,-0.29525468,17.302912,-35.0345,47.72917,-1.9914589,0.25825435,-3.9082396,-14.137484,-13.83304,38.314518,55.502148,2.2062032,1.4209403,-13.3597975
60,6.148818016052246,-4.184869766235352,75.14481353759766,3.439247644005775,6.605104785561359,-82.34743301331292,-8.175592,-3.7048588,-3.775348,24.609156,-24.534615,0.7919719,-10.692921,-24.056843,-18.925243,38.210365,-26.644852,4.430195,-1.6580516,-0.49540854,8.620673,-0.30669907,17.386467,-35.040127,47.66718,-2.0640776,0.2539755,-3.860559,-14.184144,-13.777762,37.964893,55.03979,2.109432,1.1229694,-13.941442
61,6.273292541503906,-4.415801048278809,75.0169906616211,3.7356036904796515,6.697689231220498,-82.38668991688722,-8.133103,-4.199408,-3.7781057,24.812483,-24.919935,1.1111062,-12.2207155,-24.756535,-18.023434,41.023663,-27.421244,3.5460293,-1.4959016,-0.8292386,8.829181,-0.3409596,17.4853,-35.064034,47.636574,-2.2283034,0.24742375,-3.7767735,-14.264228,-13.703525,37.64015,54.580425,2.1036987,0.7381454,-14.606406
62,6.369906425476074,-4.643198013305664,74.88880157470703,4.001343555086253,6.788132180039499,-82.45837647620398,-8.101719,-4.6421094,-3.74811,25.051085,-25.322386,1.4219702,-13.80026,-25.347475,-17.050049,43.809753,-28.09549,2.8049214,-1.3307129,-1.1359285,9.068516,-0.3943926,17.599985,-35.10577,47.63026,-2.4549067,0.2367607,-3.663855,-14.368055,-13.610038,37.315407,54.118015,2.1564827,0.28973004,-15.331579
63,6.479956150054932,-4.8956451416015625,74.76811981201172,4.234587374223668,6.895662297457764,-82.54146769247532,-8.071798,-5.0295944,-3.70766,25.268633,-25.714598,1.7092665,-15.428529,-25.785023,-16.005259,46.46118,-28.65572,2.182656,-1.1830503,-1.4129354,9.309029,-0.4542792,17.726912,-35.1568,47.668068,-2.7064483,0.2246265,-3.5531762,-14.484124,-13.496632,36.997776,53.677612,2.1937766,-0.2408914,-16.118639
64,6.5642571449279785,-5.143012046813965,74.65966033935547,4.43307259227306,7.039245049393682,-82.61504583272081,-8.031399,-5.359349,-3.6788323,25.403816,-26.071423,1.9580971,-17.09947,-26.019098,-14.89316,48.868454,-29.086596,1.6580315,-1.075223,-1.6579828,9.520233,-0.50876063,17.859596,-35.206337,47.772934,-2.9438317,0.2137426,-3.476282,-14.603075,-13.361953,36.696728,53.287052,2.1413522,-0.8704817,-16.970993
65,6.643178462982178,-5.407808780670166,74.56401062011719,4.591654645808939,7.233862229266683,-82.67612154987965,-7.998926,-5.6271625,-3.6664739,25.454958,-26.391901,2.1726615,-18.835308,-25.995642,-13.67696,51.036747,-29.3892,1.229291,-1.0184194,-1.8624988,9.688439,-0.55921024,17.993767,-35.24965,47.95948,-3.1993618,0.19751507,-3.4430752,-14.729015,-13.202387,36.41717,52.959854,1.9871495,-1.6260681,-17.8658
66,6.7243428230285645,-5.695536136627197,74.48167419433594,4.7119959036634835,7.465982088752955,-82.73527016694901,-7.975736,-5.835689,-3.657403,25.45172,-26.687725,2.358858,-20.621178,-25.74829,-12.391692,53.026665,-29.568823,0.9205489,-1.0004703,-2.0295627,9.829581,-0.6127529,18.128016,-35.29148,48.21919,-3.477701,0.17678203,-3.4357734,-14.86748,-13.016123,36.153866,52.685047,1.7619216,-2.4885497,-18.81246
67,6.796380996704102,-5.9982805252075195,74.4075927734375,4.80370845341312,7.711398485665939,-82.79171851273503,-7.9190035,-5.9935417,-3.6473591,25.368458,-26.945261,2.5034037,-22.392735,-25.361393,-11.148909,54.80065,-29.61406,0.7471644,-1.008043,-2.17435,9.95807,-0.66979283,18.259565,-35.338703,48.542736,-3.7018723,0.1656544,-3.44393,-15.010179,-12.805784,35.90174,52.451393,1.4563681,-3.4037068,-19.865192
68,6.858295440673828,-6.328543186187744,74.34513854980469,4.8765771462512335,7.946264006101385,-82.84417378535913,-7.785644,-6.1090517,-3.632503,25.180199,-27.151691,2.5927167,-24.092247,-24.932453,-10.048216,56.321056,-29.51603,0.7179398,-1.0261972,-2.3106449,10.0895195,-0.73214245,18.384523,-35.399002,48.920967,-3.7941387,0.1780673,-3.457011,-15.145561,-12.576203,35.65582,52.239967,1.0639791,-4.316233,-21.077877
69,6.917320251464844,-6.657496929168701,74.29167938232422,4.928381258831723,8.174201865982113,-82.89531249906251,-7.569123,-6.175969,-3.6065485,24.868141,-27.30312,2.6240098,-25.717,-24.455927,-9.085246,57.55486,-29.230318,0.88126826,-1.051471,-2.4368076,10.219827,-0.79915625,18.497776,-35.475254,49.3786,-3.7121718,0.2226963,-3.4707248,-15.267294,-12.33187,35.430874,52.06515,0.51548076,-5.2779937,-22.524614
70,6.964145660400391,-7.010743618011475,74.24639129638672,4.955130298096472,8.40451720464107,-82.94479142008333,-7.290631,-6.19204,-3.5728707,24.449776,-27.406652,2.6049423,-27.292086,-23.903358,-8.21609,58.53226,-28.780579,1.2170432,-1.0901015,-2.544848,10.343601,-0.8754615,18.59717,-35.56575,49.91787,-3.504309,0.28986663,-3.4911985,-15.37847,-12.073843,35.223263,51.923973,-0.17393604,-6.285268,-24.164108
71,7.016818046569824,-7.405564308166504,74.2072525024414,4.9654264703542,8.621139827138865,-82.98689400609548,-6.949184,-6.172783,-3.5423322,23.954882,-27.464907,2.5370257,-28.801598,-23.336044,-7.475021,59.293777,-28.261559,1.6225129,-1.1420841,-2.6414971,10.473908,-0.9667693,18.684868,-35.668133,50.492332,-3.2265143,0.36671448,-3.5228922,-15.484659,-11.803707,35.00104,51.776905,-0.8758914,-7.204405,-25.871635
72,7.065838813781738,-7.800408363342285,74.17257690429688,4.9673489562847175,8.80840847857449,-83.01569234883058,-6.539751,-6.133376,-3.5260274,23.404882,-27.481281,2.4214194,-30.23312,-22.821373,-6.893059,59.88049,-27.766014,1.9922116,-1.2070348,-2.7345908,10.6238365,-1.0773321,18.766169,-35.781086,51.052906,-2.9361372,0.4401827,-3.570368,-15.5899725,-11.524187,34.731457,51.582554,-1.4501162,-7.912661,-27.513655
73,7.110570430755615,-8.217657089233398,74.13787841796875,4.959549020490725,8.950942525919933,-83.03725858624406,-6.0314713,-6.067734,-3.5158129,22.774122,-27.434696,2.241651,-31.565264,-22.369911,-6.485754,60.275745,-27.304045,2.310952,-1.2740345,-2.8270125,10.810603,-1.2030647,18.845406,-35.907917,51.59595,-2.5844011,0.5153847,-3.6324732,-15.685045,-11.234601,34.387066,51.324467,-1.8747656,-8.365887,-29.103367
74,7.143954277038574,-8.645488739013672,74.10568237304688,4.93893128602631,9.060810040441789,-83.05175084224528,-5.4358606,-5.971157,-3.509182,22.05929,-27.330511,2.002793,-32.81475,-21.9592,-6.226293,60.46357,-26.829578,2.6245437,-1.3454632,-2.915526,11.023666,-1.3406098,18.923738,-36.049496,52.138344,-2.1629407,0.5963807,-3.7083793,-15.768027,-10.93485,33.98898,51.020947,-2.2060316,-8.640489,-30.687946
75,7.161088943481445,-9.078998565673828,74.0708999633789,4.912481824242006,9.163236277606993,-83.04460192342718,-4.815043,-5.861867,-3.5250769,21.32336,-27.210447,1.7382959,-34.02763,-21.605213,-6.0822396,60.486935,-26.349049,2.9174213,-1.4429053,-2.999389,11.234812,-1.4960165,19.002453,-36.19961,52.66142,-1.7912823,0.6691199,-3.8023648,-15.85606,-10.632226,33.57996,50.68307,-2.4152524,-8.804178,-32.181442
76,7.183769226074219,-9.554738998413086,74.03634643554688,4.887018220154074,9.283363762946683,-83.00142602775689,-4.231706,-5.758423,-3.5829732,20.631025,-27.116697,1.4819949,-35.24828,-21.319246,-6.0231676,60.387432,-25.867441,3.1740983,-1.5879449,-3.0773475,11.417339,-1.6745951,19.082815,-36.35097,53.1439,-1.587644,0.7198876,-3.918518,-15.961059,-10.338658,33.201366,50.313942,-2.4765053,-8.9257765,-33.498188
77,7.20585823059082,-10.008849143981934,73.98333740234375,4.864925723992256,9.434665730328033,-82.91725854128813,-3.7050965,-5.6654167,-3.6899629,19.985134,-27.047392,1.2363139,-36.49177,-21.118267,-6.0707827,60.154396,-25.389025,3.3945887,-1.7849832,-3.1496685,11.561576,-1.8746591,19.165007,-36.509983,53.58185,-1.6207613,0.7423787,-4.049277,-16.073132,-10.061562,32.865124,49.89218,-2.3332639,-8.999432,-34.638645
78,7.218169212341309,-10.490630149841309,73.92949676513672,4.842552994169086,9.601314208870365,-82.79987229152735,-3.2004824,-5.5723395,-3.8357525,19.355772,-26.984596,0.98609847,-37.732574,-20.994165,-6.229364,59.769062,-24.90771,3.5829155,-2.0232098,-3.2158253,11.684923,-2.0943196,19.249062,-36.67741,53.982452,-1.8152678,0.7455445,-4.1954966,-16.183477,-9.804079,32.549446,49.411377,-2.0093005,-9.005459,-35.63853
79,7.238487720489502,-10.99573040008545,73.86614990234375,4.819408043207109,9.764498444337665,-82.65398757939377,-2.7026026,-5.475247,-4.01234,18.764975,-26.950008,0.73852205,-38.955227,-20.92269,-6.4416075,59.267063,-24.416746,3.731353,-2.2995157,-3.2731745,11.802887,-2.3387606,19.335878,-36.838078,54.340923,-2.0725944,0.738503,-4.373512,-16.301266,-9.571857,32.24462,48.88986,-1.6016048,-8.988653,-36.465725
80,7.2562150955200195,-11.496116638183594,73.78612518310547,4.794293335197651,9.905675225387672,-82.48454033531168,-2.195369,-5.3706274,-4.211613,18.232378,-26.96341,0.5007185,-40.14535,-20.879808,-6.64995,58.685146,-23.909592,3.8328316,-2.6113026,-3.319049,11.931112,-2.6118255,19.427034,-36.976307,54.650314,-2.2948134,0.7301746,-4.599947,-16.435148,-9.371766,31.941778,48.344498,-1.2085133,-8.989615,-37.087795
81,7.261551856994629,-12.01884651184082,73.70097351074219,4.765234276869759,10.021595189350313,-82.29926121881759,-1.6664159,-5.2589226,-4.4262238,17.746939,-27.029362,0.28095862,-41.296753,-20.863256,-6.864318,58.011368,-23.377647,3.8644764,-2.9643042,-3.3498561,12.073182,-2.8928273,19.520803,-37.09691,54.904556,-2.5258257,0.73530513,-4.875604,-16.576157,-9.205223,31.647469,47.772488,-0.8014356,-8.996729,-37.442703
82,7.275672912597656,-12.561776161193848,73.60276794433594,4.733563703720887,10.121592884135595,-82.09354824105485,-1.1260346,-5.141879,-4.6615734,17.302181,-27.136887,0.073604405,-42.41722,-20.883242,-7.1072736,57.232098,-22.826027,3.8370554,-3.3570273,-3.3680377,12.222084,-3.188419,19.61658,-37.206512,55.109024,-2.7953422,0.7456768,-5.1927514,-16.719385,-9.07276,31.36295,47.161682,-0.34606835,-8.992272,-37.565056
83,7.288890838623047,-13.102700233459473,73.49541473388672,4.704738842955398,10.205924953611746,-81.85386204808958,-0.5958512,-5.0193634,-4.9281406,16.932451,-27.286459,-0.13491079,-43.512478,-20.931952,-7.3400745,56.38073,-22.269127,3.7939022,-3.775687,-3.3816795,12.377755,-3.538815,19.719608,-37.288982,55.269115,-2.9808397,0.7349038,-5.555741,-16.88207,-8.9837055,31.074139,46.51607,0.07050751,-9.005978,-37.56627
84,7.299212455749512,-13.663585662841797,73.37628173828125,4.684088066673149,10.274612430641202,-81.56679990525276,-0.09588467,-4.8909607,-5.236763,16.668911,-27.47714,-0.3585269,-44.589794,-21.005863,-7.521696,55.491997,-21.721401,3.7785714,-4.2056503,-3.3984547,12.541872,-3.9841218,19.83974,-37.33087,55.385685,-2.9631674,0.6750526,-5.969478,-17.07609,-8.953114,30.766916,45.83032,0.3622808,-9.069035,-37.556164
85,7.2993011474609375,-14.244585037231445,73.24424743652344,4.673891792854338,10.332087662756646,-81.23363702725888,0.38019666,-4.7616134,-5.5859966,16.493504,-27.70196,-0.6068408,-45.65681,-21.083494,-7.6268306,54.542595,-21.179483,3.7949584,-4.6379,-3.420835,12.709456,-4.516496,19.984295,-37.358833,55.479805,-2.6078777,0.5387418,-6.471524,-17.266394,-8.989513,30.468782,45.08281,0.5156389,-9.2081785,-37.574104
86,7.286655902862549,-14.825494766235352,73.1002426147461,4.671223400389308,10.376716211532173,-80.85978965647325,0.8400667,-4.6307106,-5.970971,16.397951,-27.963808,-0.870508,-46.707085,-21.172152,-7.681475,53.522594,-20.636757,3.8226168,-5.0794096,-3.4446144,12.885347,-5.1164503,20.155495,-37.372265,55.531513,-2.0158129,0.34294817,-7.0468273,-17.447624,-9.096068,30.177092,44.26494,0.5753325,-9.398931,-37.55603
87,7.266885757446289,-15.414375305175781,72.95098876953125,4.672438239226481,10.399047595184143,-80.43885490532648,1.2671885,-4.490376,-6.3967853,16.427858,-28.278097,-1.1354839,-47.728283,-21.300385,-7.721736,52.48836,-20.103373,3.8676171,-5.538042,-3.4676197,13.085829,-5.8044286,20.356571,-37.31495,55.47785,-1.417148,0.12899211,-7.6217813,-17.670212,-9.281536,29.831306,43.384384,0.5422196,-9.596881,-37.457138
88,7.2436676025390625,-16.036447525024414,72.7924575805664,4.673573651626053,10.390348975256439,-79.9642431632526,1.6452197,-4.333214,-6.868342,16.628101,-28.659172,-1.3886125,-48.709187,-21.500952,-7.783097,51.49752,-19.589699,3.936097,-6.021281,-3.4868073,13.327149,-6.601366,20.592339,-37.133274,55.256023,-1.0417507,-0.055991605,-8.126026,-17.982134,-9.55871,29.372154,42.44551,0.4177439,-9.757565,-37.231907
89,7.210507392883301,-16.665355682373047,72.62295532226562,4.686318851033309,10.350908346277008,-79.4408999971623,1.9709233,-4.1788383,-7.38332,17.014828,-29.105247,-1.6203772,-49.655743,-21.77614,-7.8558135,50.53436,-19.08631,4.045939,-6.519546,-3.5177405,13.616046,-7.504891,20.86427,-36.805164,54.88949,-1.0012773,-0.20957328,-8.585765,-18.373108,-9.932197,28.765865,41.449913,0.086581275,-9.901273,-36.82631
90,7.163666725158691,-17.28664207458496,72.43882751464844,4.705525830399218,10.284657012231918,-78.87036379066109,2.256785,-4.0252256,-7.939778,17.557287,-29.60821,-1.8428786,-50.573315,-22.107584,-7.9279404,49.58076,-18.589243,4.188188,-7.0306726,-3.5549815,13.941734,-8.505093,21.175097,-36.366325,54.397854,-1.1559601,-0.3487405,-9.026217,-18.813984,-10.4060335,28.053675,40.386528,-0.41212878,-10.043118,-36.27798
91,7.107065677642822,-17.92412567138672,72.245849609375,4.7018334475442805,10.18864458211818,-78.24133179231718,2.5075047,-3.8317802,-8.541567,18.23567,-30.17611,-2.0708876,-51.44776,-22.49159,-8.033542,48.684868,-18.123108,4.3277836,-7.571825,-3.5637476,14.29505,-9.612054,21.534174,-35.85531,53.71006,-1.3593183,-0.45354027,-9.376556,-19.31784,-10.99576,27.289165,39.229305,-0.8463275,-10.127197,-35.6759
92,7.036044597625732,-18.54963493347168,72.03825378417969,4.644944757080374,10.060958892554092,-77.54242944147646,2.7297232,-3.5566053,-9.192681,19.024622,-30.814507,-2.3195271,-52.266632,-22.926397,-8.206331,47.89909,-17.713228,4.4294724,-8.158329,-3.5088196,14.669619,-10.833342,21.95492,-35.312527,52.74476,-1.4625862,-0.50558376,-9.566687,-19.892942,-11.72251,26.525501,37.93687,-0.98404837,-10.090817,-35.106583
93,6.978267669677734,-19.19148063659668,71.82495880126953,4.525595019659591,9.891598544103942,-76.7552353611987,2.8920853,-3.1986706,-9.913544,20.014236,-31.554092,-2.5958073,-53.019062,-23.4298,-8.475595,47.241627,-17.384832,4.487365,-8.789781,-3.382007,15.089494,-12.172363,22.446676,-34.74143,51.45616,-1.4444957,-0.50723433,-9.563902,-20.51705,-12.592245,25.704216,36.443882,-0.6595226,-9.91203,-34.5813
94,6.913973331451416,-19.84725570678711,71.60203552246094,4.354016178021566,9.687847362599767,-75.89073436541297,3.0087643,-2.775368,-10.693858,21.174095,-32.378178,-2.8943245,-53.714104,-23.998987,-8.8206415,46.68665,-17.119858,4.5181885,-9.45379,-3.2005396,15.550706,-13.623497,23.012688,-34.14115,49.8839,-1.3818555,-0.46346655,-9.413975,-21.178787,-13.606129,24.820835,34.7669,-0.030235311,-9.616896,-34.056156
95,6.821946620941162,-20.52097511291504,71.37728118896484,4.131838889626939,9.474077904724972,-74.98167050662802,3.149375,-2.2716875,-11.4922285,22.306913,-33.224358,-3.2078545,-54.372414,-24.595861,-9.198288,46.2246,-16.882483,4.519547,-10.151018,-2.9707284,16.004332,-15.178353,23.657022,-33.544827,48.072376,-1.2705626,-0.36059168,-9.164054,-21.915216,-14.784521,24.024632,32.993416,0.65750015,-9.212941,-33.53382
96,6.704152584075928,-21.197301864624023,71.14604949951172,3.8652947425320794,9.273704875547047,-74.06150212693116,3.375875,-1.6722533,-12.267513,23.227942,-34.035053,-3.5254054,-55.017593,-25.185852,-9.560318,45.84776,-16.637278,4.489355,-10.882871,-2.6970968,16.404398,-16.827738,24.383963,-32.985004,46.0593,-1.1071862,-0.18514597,-8.86226,-22.759264,-16.156874,23.475855,31.196354,1.1625772,-8.712024,-33.012688
97,6.607011795043945,-21.88192367553711,70.90251922607422,3.552909295192919,9.059141661505766,-73.11929721756663,3.6833572,-0.9732959,-13.033105,23.996187,-34.85065,-3.8395987,-55.647778,-25.78227,-9.898439,45.600872,-16.38875,4.4112444,-11.659204,-2.3823736,16.784832,-18.602213,25.199022,-32.478096,43.79698,-0.94261986,0.082042076,-8.450221,-23.736109,-17.741982,23.17748,29.31882,1.4646481,-8.077891,-32.50567
98,6.5012946128845215,-22.588937759399414,70.66376495361328,3.1920109515067625,8.83135182289309,-72.14385348520698,4.043867,-0.17916815,-13.801044,24.67576,-35.685795,-4.154837,-56.255264,-26.40053,-10.234907,45.476875,-16.153591,4.290912,-12.471644,-2.021812,17.156982,-20.500877,26.102276,-32.033306,41.275433,-0.77079767,0.43178782,-7.9302745,-24.820679,-19.536385,23.086407,27.32366,1.6910424,-7.3172383,-32.003933
99,6.400928497314453,-23.322227478027344,70.42863464355469,2.7924485945301987,8.655077776709133,-71.16826096030482,4.4744635,0.7139901,-14.529726,25.105515,-36.443504,-4.474042,-56.853184,-27.001158,-10.5655155,45.38318,-15.910465,4.1598024,-13.295021,-1.608206,17.443068,-22.45108,27.083818,-31.651594,38.574223,-0.48456833,0.8348973,-7.4410043,-25.971704,-21.529339,23.297234,25.310768,1.8146797,-6.5108237,-31.467913
100,6.305649757385254,-24.099430084228516,70.20274353027344,2.369298398736188,8.593650366713774,-70.22697897040842,4.9882665,1.7109736,-15.178071,25.125708,-37.02969,-4.7998953,-57.454857,-27.54609,-10.883694,45.225536,-15.637121,4.050319,-14.108729,-1.1303825,17.5668,-24.381817,28.129622,-31.320206,35.777702,0.026016073,1.2600139,-7.1201973,-27.163378,-23.703901,23.909142,23.390554,1.8104545,-5.7415113,-30.859404
101,6.206265449523926,-24.917810440063477,69.9892578125,1.9193298713022564,8.655671275374985,-69.32137110857451,5.608005,2.8364606,-15.7415085,24.655207,-37.474243,-5.121313,-58.081223,-28.020271,-11.149058,45.007957,-15.309679,3.9718628,-14.923075,-0.57790095,17.497831,-26.318417,29.23548,-31.04487,32.88415,0.88745296,1.7170113,-7.0393286,-28.485956,-26.06648,25.046,21.624434,1.644489,-5.008009,-30.192652
102,6.124248504638672,-25.773609161376953,69.78823852539062,1.4439836487270308,8.809827036381794,-68.43745338709314,6.308671,4.0817537,-16.235722,23.80061,-37.810127,-5.442257,-58.720337,-28.446054,-11.37477,44.76973,-14.945158,3.907396,-15.74008,0.049831484,17.28956,-28.274874,30.398388,-30.827286,29.839323,2.023982,2.211165,-7.118532,-29.947075,-28.601593,26.665775,19.918976,1.3465117,-4.2798376,-29.474297
103,6.054068565368652,-26.6843204498291,69.60321807861328,0.9655574891374904,9.058528530787786,-67.58697778801273,7.0307083,5.398595,-16.652737,22.692575,-37.952015,-5.7872276,-59.33471,-28.841288,-11.636418,44.471184,-14.584005,3.8503814,-16.524958,0.7436993,16.985518,-30.220242,31.609806,-30.672554,26.70126,3.206164,2.7027707,-7.261798,-31.414036,-31.250542,28.589796,18.187992,0.9823423,-3.5992556,-28.66214
104,5.984195232391357,-27.626705169677734,69.43891906738281,0.5064397436068433,9.403264744943977,-66.78188118541692,7.720709,6.7380495,-16.990871,21.459782,-37.810184,-6.1770887,-59.88519,-29.228035,-12.010145,44.070084,-14.264947,3.7951183,-17.250845,1.4784966,16.616604,-32.088432,32.85456,-30.554945,23.520359,4.2341413,3.1570513,-7.3651776,-32.710533,-33.942165,30.586914,16.345966,0.580098,-3.010487,-27.71893
105,5.916313648223877,-28.60816764831543,69.29572296142578,0.05894293911930056,9.868391205256964,-66.02076171676364,8.415449,8.133481,-17.259941,19.973923,-37.359684,-6.629728,-60.380493,-29.611252,-12.513961,43.54318,-14.006207,3.742072,-17.935812,2.2684975,16.131903,-33.92412,34.134113,-30.478601,20.332125,5.0151467,3.596088,-7.4278817,-34.033287,-36.662743,32.73424,14.597545,0.08397162,-2.5629973,-26.513111
106,5.859609127044678,-29.629791259765625,69.17308807373047,-0.37857673014915705,10.442405246339016,-65.30130350705126,9.128723,9.588361,-17.46021,18.229519,-36.649708,-7.127204,-60.82975,-29.978659,-13.108679,42.911144,-13.781258,3.6959987,-18.592558,3.1033237,15.522735,-35.82931,35.45825,-30.494713,17.187735,5.6273746,4.0266776,-7.489875,-35.342716,-39.41402,35.078842,12.867942,-0.5535088,-2.2352123,-25.11122
107,5.797738552093506,-30.684751510620117,69.06962585449219,-0.7779710834456189,11.072405867758244,-64.63245287910361,9.7708845,11.007515,-17.586432,16.552614,-35.724915,-7.631881,-61.203033,-30.321005,-13.783627,42.213356,-13.569579,3.6572976,-19.173876,3.9281435,14.892123,-37.555576,36.80091,-30.504732,13.922551,6.2751446,4.403598,-7.4990544,-36.44744,-42.15181,37.41028,11.003055,-1.1588503,-1.9631385,-23.777946
108,5.723304271697998,-31.766265869140625,68.98764038085938,-1.1136512237859748,11.705697005879884,-64.02093220499678,10.259722,12.299987,-17.637192,15.251475,-34.61697,-8.108184,-61.468044,-30.626587,-14.531319,41.48514,-13.348213,3.6254923,-19.64584,4.6856585,14.32998,-39.101463,38.131012,-30.515524,10.597281,7.03383,4.6775217,-7.401953,-37.14065,-44.815002,39.48986,8.889671,-1.582025,-1.6700859,-22.783161
109,5.656997203826904,-32.871192932128906,68.92932891845703,-1.3865696186320629,12.362446834652173,-63.43677881184679,10.5648985,13.484448,-17.605873,14.329227,-33.298763,-8.616171,-61.630215,-30.941898,-15.400737,40.730896,-13.108316,3.5950687,-20.02292,5.3801203,13.780585,-40.55196,39.436558,-30.559143,7.312849,7.99395,4.8494177,-7.1270866,-37.381123,-47.389362,41.327065,6.5976925,-1.914965,-1.2732314,-22.324923
110,5.580903053283691,-33.99311065673828,68.8991928100586,-1.6089749076116364,13.057782323804101,-62.88491193678985,10.735584,14.59421,-17.510464,13.651322,-31.76751,-9.1524105,-61.698215,-31.25227,-16.384438,39.931736,-12.861717,3.569819,-20.324331,6.031692,13.19671,-41.91532,40.716396,-30.630459,4.055137,9.078109,4.9452996,-6.7155,-37.26657,-49.886517,42.980152,4.2499185,-2.2121513,-0.8269498,-22.223919
111,5.504025459289551,-35.14448165893555,68.89563751220703,-1.7755793868782794,13.731398005720207,-62.423313870290194,10.810853,15.565723,-17.383118,13.310575,-30.085316,-9.591769,-61.649517,-31.45976,-17.388119,39.09002,-12.61695,3.5616155,-20.552092,6.6020284,12.687564,-43.034718,41.9306,-30.61879,0.7272012,10.16109,4.9524593,-6.273566,-36.78188,-52.27957,44.2641,1.8006862,-2.275117,-0.45438647,-22.184898
112,5.420472621917725,-36.32133483886719,68.91764831542969,-1.8845422979871533,14.322880085190357,-62.109521987493,10.818162,16.335232,-17.249483,13.4165125,-28.319141,-9.8145685,-61.461494,-31.468151,-18.31659,38.203156,-12.381065,3.5808723,-20.670408,7.0664153,12.33755,-43.671673,43.027134,-30.397114,-2.8225064,11.138609,4.8513527,-5.902843,-35.899426,-54.519657,44.98454,-0.75794446,-1.9089323,-0.28230175,-21.910963
113,5.334730625152588,-37.53670883178711,68.96286010742188,-1.9307920761074766,14.83091149334704,-61.95726530245686,10.728053,16.871164,-17.107237,14.048253,-26.443903,-9.747987,-61.14617,-31.250467,-19.127354,37.246193,-12.157899,3.5853577,-20.650045,7.420892,12.131644,-43.81185,43.971165,-29.889145,-6.626789,12.207944,4.6483555,-5.6574717,-34.526318,-56.554695,45.048126,-3.3941884,-0.7880269,-0.40727124,-21.316954
114,5.234325885772705,-38.78325271606445,69.03760528564453,-1.928361000430255,15.287036024848923,-61.92841345441105,10.533213,17.231083,-16.932362,15.109568,-24.42023,-9.490379,-60.7127,-30.862646,-19.883999,36.224453,-11.942229,3.5828173,-20.505693,7.7050147,12.00191,-43.534645,44.759773,-29.156265,-10.595279,13.354489,4.346565,-5.4643483,-32.673565,-58.36143,44.55986,-6.025717,0.89877707,-0.725658,-20.558302
115,5.127440929412842,-40.059913635253906,69.13182830810547,-1.903859933626485,15.679934368540284,-62.00459105818384,10.302139,17.482307,-16.712616,16.434074,-22.286257,-9.177808,-60.140633,-30.334244,-20.642384,35.18536,-11.729506,3.656685,-20.311146,7.9495816,11.995794,-42.83877,45.36514,-28.289099,-14.570828,14.16451,3.9159756,-5.2240376,-30.552004,-59.92288,43.67745,-8.614912,2.5831234,-1.0710711,-19.700241
116,5.00889253616333,-41.362510681152344,69.23735809326172,-1.8787777638364807,15.994047559102718,-62.172593520124146,10.111388,17.679396,-16.442268,17.858837,-20.082289,-8.939101,-59.41166,-29.689875,-21.448997,34.175224,-11.513886,3.8902545,-20.100622,8.186924,12.139428,-41.701935,45.75774,-27.403,-18.435905,14.223117,3.3266482,-4.847645,-28.389275,-61.225792,42.57258,-11.096564,3.6953938,-1.2963841,-18.814999
117,4.8865275382995605,-42.68275451660156,69.34780883789062,-1.8511259870262173,16.2171574976575,-62.45280451167568,9.973989,17.794842,-16.148169,19.376783,-17.697477,-8.751114,-58.48591,-28.882202,-22.332666,33.11282,-11.274729,4.3703456,-19.8666,8.416162,12.44893,-39.965458,45.898464,-26.462646,-22.317667,13.162895,2.4405792,-4.24778,-26.216228,-62.222687,41.225426,-13.500164,4.0720034,-1.3715746,-17.805277
118,4.75056266784668,-44.03110885620117,69.44986724853516,-1.8057889531562168,16.357024897555508,-62.844423375287505,9.878206,17.801851,-15.809381,21.007484,-15.115481,-8.583263,-57.398846,-27.910698,-23.240522,31.99685,-11.019357,5.028213,-19.627134,8.606912,12.9174595,-37.91269,45.750416,-25.562244,-26.023983,11.292636,1.2935438,-3.5114808,-24.061401,-62.86564,39.704453,-15.7917,4.032405,-1.3890102,-16.672329
119,4.603808403015137,-45.39393997192383,69.54290008544922,-1.7415332099900345,16.426038412922043,-63.30747808075164,9.846882,17.743525,-15.372578,22.681,-12.5545225,-8.521598,-56.24103,-26.867683,-24.096298,30.995792,-10.785049,5.714397,-19.32687,8.76793,13.437993,-35.662746,45.344616,-24.88487,-29.44231,9.305639,0.12442586,-2.834608,-22.018263,-63.16168,38.237236,-17.760595,3.7088838,-1.3956962,-15.633559
120,4.452803134918213,-46.774898529052734,69.62345123291016,-1.6599154869536525,16.438865246688717,-63.8052143562824,9.877274,17.667015,-14.802111,24.384598,-10.266404,-8.615503,-55.09956,-25.84678,-24.833057,30.2873,-10.61233,6.2806196,-18.975029,8.902504,13.953467,-33.492844,44.736618,-24.60988,-32.302464,7.844012,-0.7990107,-2.3747857,-20.231632,-63.158497,37.078033,-19.26097,3.2335913,-1.4279107,-14.909937
121,4.30234956741333,-48.17017364501953,69.67848205566406,-1.5486840455988418,16.387447623670468,-64.33275659607818,10.014655,17.59239,-14.115707,26.100174,-8.315494,-8.939479,-53.81202,-24.83235,-25.587545,29.753788,-10.558925,6.8179827,-18.593082,9.004454,14.470271,-31.407953,43.956,-24.802353,-34.58435,6.8757806,-1.3599496,-2.1815805,-18.7015,-62.87804,36.284252,-20.339567,2.472716,-1.4630996,-14.614873
122,4.147229194641113,-49.56502151489258,69.70634460449219,-1.4076544112088447,16.268518127883155,-64.91182937904316,10.197584,17.491444,-13.352945,27.945765,-6.618249,-9.394521,-52.400684,-23.77657,-26.336555,29.356077,-10.590943,7.3605237,-18.16743,9.069742,15.014678,-29.291136,43.011845,-25.403652,-36.436428,6.126681,-1.7043378,-2.1621544,-17.445356,-62.312687,35.798004,-21.03488,1.4248438,-1.4865992,-14.6143055
123,3.9866690635681152,-50.961334228515625,69.70934295654297,-1.264036934646815,16.10523546859956,-65.54890473005521,10.273013,17.365253,-12.500851,30.102425,-5.2108793,-9.752253,-51.209255,-22.738659,-26.796103,29.39706,-10.609593,7.6793237,-17.676275,9.117508,15.554696,-27.386723,41.949356,-26.359121,-37.688747,5.7450585,-1.9451838,-2.2467518,-16.50991,-61.49299,35.633717,-21.272894,0.37556309,-1.5386026,-14.761368
124,3.8269121646881104,-52.33046340942383,69.70608520507812,-1.1477036102807163,15.918839072077263,-66.2496589584411,10.101932,17.22801,-11.535719,32.72714,-4.1232214,-9.789841,-50.562412,-21.7917,-26.701754,30.180983,-10.5100975,7.5532036,-17.102386,9.170588,16.081541,-25.86999,40.823883,-27.55111,-38.23052,5.882614,-2.1959496,-2.3565695,-15.983914,-60.469505,35.80361,-20.967405,-0.35729325,-1.6656815,-14.914433
125,3.644101619720459,-53.6668701171875,69.7071533203125,-1.0109396957115273,15.70510901336959,-67.00299890689844,9.620343,17.10451,-10.344651,35.96531,-3.3152518,-9.384637,-50.692196,-21.020504,-25.773735,32.00358,-10.104116,6.7614827,-16.45072,9.201728,16.618736,-24.737762,39.678802,-28.946047,-38.01743,6.712463,-2.4547572,-2.515686,-15.805316,-59.270966,36.23902,-20.158157,-0.6918802,-1.8827932,-15.107667
126,3.4617490768432617,-54.99304962158203,69.6912612915039,-0.846475984621695,15.442711616389705,-67.7988577761206,8.916524,17.051258,-8.990897,39.729233,-2.821886,-8.609653,-51.31442,-20.349796,-24.287157,34.565144,-9.439374,5.505533,-15.752447,9.197763,17.203512,-23.835571,38.526146,-30.535967,-37.192184,8.100718,-2.6746242,-2.7279348,-15.859817,-57.911682,36.869648,-18.959946,-0.8034011,-2.164258,-15.39754
127,3.285508632659912,-56.330013275146484,69.6280517578125,-0.7494460761627093,15.131409026592337,-68.65067551228816,8.09645,17.094776,-7.7018957,43.787853,-2.7702308,-7.590177,-51.998882,-19.638054,-22.786875,37.319084,-8.802854,4.178054,-15.011753,9.223964,17.854132,-23.160387,37.3695,-32.19069,-35.90428,9.669643,-2.8986094,-2.8889651,-16.29045,-56.42579,37.73533,-17.303806,-0.6807494,-2.5003743,-15.681097
128,3.1130893230438232,-57.65245056152344,69.51049041748047,-0.8227664471809012,14.7805631633284,-69.58316161245583,7.2586713,17.194296,-6.692332,47.903767,-3.2599523,-6.5252337,-52.363617,-18.784878,-21.755617,39.801888,-8.555633,3.135072,-14.273384,9.359901,18.56942,-22.60599,36.210285,-33.71026,-34.34215,11.058051,-3.163226,-2.905735,-17.072948,-54.860184,38.831017,-15.240349,-0.40190676,-2.8804667,-15.865755
129,2.9724009037017822,-58.92430114746094,69.35354614257812,-1.1129088689276962,14.360083024287919,-70.62228088012017,6.455682,17.276764,-6.0021405,52.141766,-4.444302,-5.397481,-52.33261,-17.814198,-21.29811,42.042904,-8.926086,2.4871051,-13.538964,9.6681595,19.420237,-22.153397,35.053574,-35.029156,-32.47039,12.288,-3.4900787,-2.7037032,-18.321539,-53.257828,40.173813,-12.658771,0.29673454,-3.3084006,-15.897643
130,2.8470282554626465,-60.167388916015625,69.16728210449219,-1.5534247716818008,13.874539324290486,-71.74959358252231,5.6292415,17.309605,-5.5323844,56.59415,-6.2261357,-4.1974044,-52.11956,-16.809055,-21.111244,44.287014,-9.725121,2.008914,-12.824375,10.115567,20.390759,-21.752241,33.908665,-36.165356,-30.295979,13.51897,-3.8500032,-2.3490329,-19.830357,-51.635857,41.648758,-9.713831,1.3248855,-3.7855966,-15.846291
131,2.7194037437438965,-61.34114074707031,68.9649429321289,-2.0841890346295644,13.390859823463463,-72.92773315416157,4.7062745,17.272997,-5.2585325,61.060062,-8.296696,-3.1691794,-51.81233,-15.755883,-21.035608,46.436275,-10.712496,1.5538769,-12.103307,10.650562,21.369781,-21.358147,32.790012,-37.11934,-28.064138,14.570203,-4.201654,-1.9622262,-21.512197,-49.996902,43.163677,-6.5613456,2.3071914,-4.2958503,-15.798915
132,2.5918796062469482,-62.505767822265625,68.75284576416016,-2.6492604637153314,12.976996560870155,-74.12125636723012,3.6134968,17.17496,-5.13556,65.335266,-10.348383,-2.5361013,-51.497807,-14.606736,-20.94274,48.366795,-11.628438,0.985735,-11.358308,11.210893,22.2426,-20.913912,31.717115,-37.88691,-26.021206,15.262397,-4.5097485,-1.669051,-23.258343,-48.33427,44.64154,-3.3697872,2.8370588,-4.8270736,-15.847126
133,2.477285385131836,-63.662742614746094,68.5394515991211,-3.305858469200331,12.625817615827065,-75.38525043454331,2.4066145,17.02518,-5.112114,69.41387,-12.387638,-2.4584064,-51.19085,-13.232785,-20.837986,50.021397,-12.346622,0.2204862,-10.574084,11.822874,23.041199,-20.38423,30.700964,-38.403873,-24.169937,15.545764,-4.771176,-1.4911146,-25.056772,-46.646557,46.129707,-0.030376632,2.6778238,-5.408606,-16.113148
134,2.3694779872894287,-64.8189468383789,68.31249237060547,-4.0613162335416435,12.303433333128737,-76.71696701059959,1.1030557,16.797062,-5.1755385,73.40559,-14.556579,-2.7963169,-50.867252,-11.670056,-20.783577,51.466663,-13.009622,-0.6418331,-9.767722,12.504817,23.808067,-19.786774,29.75266,-38.678493,-22.433882,15.517125,-5.006309,-1.3706701,-26.949295,-44.93385,47.640823,3.4851787,2.0914884,-6.0319653,-16.523722
135,2.264284610748291,-65.96929168701172,68.0897445678711,-4.790693646182588,12.045704866631521,-77.99780879865673,-0.43561414,16.47446,-5.3460226,77.27651,-16.742817,-3.3044624,-50.559875,-10.1078825,-20.749763,52.774193,-13.755863,-1.4595662,-8.961556,13.170345,24.443289,-19.168196,28.896564,-38.822166,-20.920748,15.197747,-5.215851,-1.3140562,-28.881927,-43.19343,49.03835,6.8687882,1.4004575,-6.634309,-16.87156
136,2.1372528076171875,-67.13542175292969,67.87591552734375,-5.372409609335894,11.897170054942787,-79.11151752948199,-2.3499396,16.042097,-5.667365,80.97732,-18.817223,-3.7372053,-50.286694,-8.748093,-20.70488,54.020084,-14.741752,-2.0983891,-8.192819,13.7199955,24.843327,-18.55003,28.163338,-38.932995,-19.736313,14.608881,-5.3987107,-1.3227214,-30.669542,-41.438416,50.13016,9.718829,0.8353746,-7.1646204,-16.938557
137,1.9958045482635498,-68.31254577636719,67.6860122680664,-5.785566448358228,11.928522966843591,-80.01429834785947,-4.751619,15.437763,-6.238605,84.53909,-20.766813,-4.0916214,-50.090427,-7.656722,-20.665726,55.234577,-16.096416,-2.5123289,-7.4583025,14.134561,24.941704,-17.906607,27.581331,-39.014774,-18.977083,13.66829,-5.547745,-1.4582374,-32.28898,-39.681297,50.821068,11.961199,0.49183336,-7.6371374,-16.582321
138,1.8318463563919067,-69.48489379882812,67.52336120605469,-6.099616765952016,12.104577616140276,-80.77732598365056,-7.5308414,14.674304,-6.991137,87.96735,-22.640772,-4.4795995,-49.94669,-6.7255244,-20.642431,56.381153,-17.71724,-2.7807019,-6.736649,14.449357,24.817003,-17.220495,27.163937,-39.014484,-18.602995,12.385262,-5.6578546,-1.6966015,-33.825935,-37.938663,51.220566,13.772563,0.21882334,-8.075439,-15.940344
139,1.6533637046813965,-70.6354751586914,67.38898468017578,-6.327601643669994,12.316136114567929,-81.45629718131664,-10.506436,13.857792,-7.745878,91.157936,-24.382612,-4.8229527,-49.765926,-5.898608,-20.58744,57.44124,-19.416292,-2.9561126,-6.011279,14.659399,24.598822,-16.54344,26.911892,-38.966053,-18.521872,10.922204,-5.7301235,-1.9113841,-35.40872,-36.23522,51.489445,15.21812,-0.028572688,-8.443784,-15.213423
140,1.4668611288070679,-71.76813507080078,67.2759780883789,-6.480727696200567,12.452716585646655,-82.10512044583209,-13.513985,13.112018,-8.34504,93.99853,-25.927229,-5.0373316,-49.456127,-5.118668,-20.452806,58.39024,-21.001915,-3.0904062,-5.262551,14.767262,24.414831,-15.944067,26.813541,-38.912743,-18.62044,9.438231,-5.776231,-1.9746695,-37.143986,-34.600437,51.777443,16.347332,-0.29687548,-8.704877,-14.603699
141,1.2909241914749146,-72.90462493896484,67.19873046875,-6.529982270668702,12.512635216948011,-82.71319638728411,-16.60846,12.438646,-8.7867,96.48119,-27.221874,-5.084287,-49.024296,-4.4074397,-20.217957,59.238186,-22.445902,-3.1825829,-4.4777923,14.753797,24.262238,-15.469614,26.863518,-38.897926,-18.904985,7.8748074,-5.810233,-1.8165269,-39.04456,-33.058205,52.093525,17.054201,-0.65627825,-8.820614,-14.111229
142,1.1400851011276245,-74.04414367675781,67.14266204833984,-6.484206754590911,12.547221785946421,-83.26173582788105,-19.85202,11.792057,-9.153651,98.64838,-28.293165,-5.0068784,-48.502487,-3.7838955,-19.916245,59.992138,-23.84409,-3.2107682,-3.6687834,14.635641,24.09353,-15.07499,27.058458,-38.88937,-19.42225,6.180117,-5.832655,-1.5179117,-41.0564,-31.62181,52.37808,17.321835,-1.0619906,-8.818418,-13.64651
143,0.9925393462181091,-75.19039916992188,67.11302185058594,-6.4052933722807355,12.525220258675507,-83.78797348898125,-23.109198,11.233937,-9.433555,100.45932,-29.192484,-4.838175,-47.836864,-3.1894865,-19.579418,60.619095,-25.189005,-3.1968653,-2.8541298,14.471657,23.96421,-14.691255,27.380928,-38.81848,-20.115938,4.5272975,-5.835141,-1.1785601,-43.173073,-30.299885,52.67642,17.327791,-1.3865579,-8.756381,-13.2775135
144,0.8425479531288147,-76.33221435546875,67.09844207763672,-6.353377122563139,12.41459985504921,-84.32873053672601,-26.247816,10.82967,-9.625942,101.8726,-29.972637,-4.616371,-46.975353,-2.5625231,-19.236328,61.085983,-26.471916,-3.1637418,-2.0523026,14.322774,23.92636,-14.247889,27.802744,-38.614586,-20.921906,3.096636,-5.802514,-0.8995727,-45.385777,-29.091164,53.033054,17.25326,-1.4992572,-8.69083,-13.074769
145,0.7176183462142944,-77.48736572265625,67.11425018310547,-6.359944655556135,12.17283766068043,-84.88580829002687,-29.260555,10.638896,-9.763449,102.86785,-30.641378,-4.336865,-45.8618,-1.8750322,-18.919771,61.386047,-27.697721,-3.1188645,-1.2599286,14.229465,24.015472,-13.771535,28.303858,-38.276558,-21.811184,1.9027476,-5.718377,-0.6873968,-47.750244,-27.994986,53.49673,17.116232,-1.2513033,-8.63319,-13.100099
146,0.5940006375312805,-78.63944244384766,67.1654281616211,-6.386049123038604,11.826871406914385,-85.44264606910758,-32.216858,10.616755,-9.8534775,103.465,-31.168474,-3.9848201,-44.535553,-1.1610938,-18.604458,61.53283,-28.867407,-3.0537727,-0.46660098,14.162725,24.190899,-13.295276,28.874968,-37.838177,-22.794807,0.86379373,-5.592754,-0.49653354,-50.24498,-27.00857,54.042492,16.823809,-0.7470754,-8.554181,-13.302189
147,0.4807327389717102,-79.80648040771484,67.2325210571289,-6.387046322698298,11.448472458749265,-86.01138992616491,-35.09827,10.681126,-9.85875,103.68921,-31.559334,-3.5872114,-43.092163,-0.45186353,-18.233171,61.531586,-29.969185,-2.9690297,0.32727867,14.0753765,24.386868,-12.763259,29.500875,-37.285557,-23.867151,0.015408497,-5.4444323,-0.3500292,-52.751553,-26.12084,54.60376,16.403765,-0.23617046,-8.448858,-13.581199
148,0.39543089270591736,-81.02456665039062,67.35066986083984,-6.3168606889787995,11.11098698117686,-86.60080295370479,-37.874187,10.751779,-9.735038,103.55661,-31.817574,-3.1722713,-41.61735,0.21427839,-17.749792,61.38238,-30.993412,-2.862912,1.1175139,13.911792,24.537775,-12.1271925,30.163675,-36.60452,-25.011175,-0.61052585,-5.291942,-0.27244228,-55.15913,-25.314985,55.116035,15.896502,0.030283533,-8.309053,-13.837405
149,0.2998793423175812,-82.25060272216797,67.4913330078125,-6.182473760691144,10.805539161034698,-87.22461296433313,-40.54548,10.862938,-9.469509,103.044205,-31.951088,-2.7333941,-40.09612,0.84934944,-17.139956,61.089146,-31.947811,-2.7280438,1.914281,13.673122,24.651638,-11.391132,30.850002,-35.780945,-26.197721,-0.94761026,-5.134493,-0.29044315,-57.52137,-24.578478,55.599823,15.351307,-0.03486673,-8.119528,-14.078326
150,0.20403799414634705,-83.49359130859375,67.6668930053711,-5.999888484073214,10.504328946686385,-87.87463571639843,-43.1117,11.0466585,-9.07872,102.14637,-31.964508,-2.2648082,-38.489304,1.4563779,-16.431284,60.653526,-32.838696,-2.5701714,2.713166,13.377852,24.74995,-10.574983,31.55074,-34.823616,-27.421568,-1.0320613,-4.9630284,-0.3867161,-59.834476,-23.903597,56.076126,14.726099,-0.3257752,-7.8877187,-14.345515
151,0.1254524141550064,-84.74981689453125,67.8824462890625,-5.740352556740739,10.253419959091055,-88.53000044501015,-45.5392,11.227202,-8.557714,100.910576,-31.858463,-1.7977802,-36.84973,1.9800079,-15.6345005,60.0761,-33.653553,-2.4044795,3.5051048,12.99079,24.791555,-9.664325,32.252747,-33.76907,-28.703663,-0.9780479,-4.7836285,-0.5183663,-62.023434,-23.279858,56.50515,14.004197,-0.7096382,-7.6379867,-14.588816
152,0.050953373312950134,-86.03003692626953,68.12859344482422,-5.376945292997102,10.099693800360265,-89.16977865687474,-47.79664,11.332482,-7.9021974,99.38419,-31.630283,-1.3617077,-35.232838,2.366913,-14.760715,59.35707,-34.37982,-2.244562,4.284191,12.475892,24.734945,-8.657585,32.939915,-32.661774,-30.057161,-0.9000478,-4.6021023,-0.6408401,-64.04856,-22.697195,56.85071,13.197771,-1.0297302,-7.396147,-14.757994
153,-0.015978418290615082,-87.33330535888672,68.40715789794922,-4.890486780425445,10.085119586539584,-89.8051495067654,-49.92587,11.350576,-7.096991,97.526665,-31.274632,-0.95403415,-33.70398,2.5925934,-13.785195,58.52771,-35.027546,-2.0934386,5.057967,11.80696,24.53941,-7.564121,33.598225,-31.492723,-31.474138,-0.718484,-4.3984404,-0.7665723,-65.889114,-22.153393,57.109367,12.295768,-1.3360275,-7.1694903,-14.837321
154,-0.08187127858400345,-88.66349029541016,68.71867370605469,-4.301477964886827,10.1792157643779,-90.44049613311212,-51.91585,11.328651,-6.1449366,95.32627,-30.801949,-0.5679496,-32.21918,2.6800601,-12.714913,57.58021,-35.603138,-1.942826,5.825081,11.00295,24.236137,-6.3934636,34.217228,-30.257433,-32.93161,-0.40419412,-4.1779437,-0.91186213,-67.58856,-21.647581,57.305748,11.321322,-1.6740668,-6.944954,-14.853742
155,-0.15312620997428894,-90.01904296875,69.07147216796875,-3.6431069863034162,10.318978463897576,-91.04424865548646,-53.66396,11.281436,-5.0771446,92.875725,-30.228968,-0.228126,-30.672455,2.6443803,-11.611174,56.45839,-36.0807,-1.7856874,6.5530753,10.099439,23.884933,-5.151643,34.784725,-28.99967,-34.397667,-0.15732108,-3.9832568,-1.0354142,-69.09417,-21.17408,57.42661,10.278635,-1.976675,-6.7191133,-14.8217745
156,-0.22179996967315674,-91.40536499023438,69.45406341552734,-2.9478417923739486,10.43982098101292,-91.58575358111315,-55.073666,11.216101,-3.926811,90.26875,-29.567553,0.041911103,-28.95817,2.4999278,-10.53586,55.1018,-36.43316,-1.6115739,7.213838,9.13676,23.540533,-3.8472269,35.285645,-27.769787,-35.83964,-0.17236774,-3.8556504,-1.0931064,-70.3454,-20.725542,57.452522,9.173458,-2.1826274,-6.4883304,-14.755781
157,-0.28861895203590393,-92.82621002197266,69.87743377685547,-2.194591362706616,10.543037781645388,-92.07971052797939,-56.119633,11.155717,-2.644996,87.475876,-28.80748,0.21992348,-27.083986,2.220685,-9.4649515,53.508644,-36.708805,-1.4028939,7.8180323,8.090786,23.200548,-2.4894187,35.70494,-26.56778,-37.24366,-0.54020035,-3.8207047,-1.0627655,-71.32426,-20.298128,57.356304,7.9985523,-2.3042953,-6.2447953,-14.621038
158,-0.36048227548599243,-94.27471160888672,70.31986236572266,-1.3776834115986427,10.657745756759171,-92.53331984694435,-56.857704,11.077563,-1.2374763,84.46545,-27.944386,0.3206722,-25.104366,1.8001206,-8.3910265,51.704796,-36.90137,-1.158555,8.3765335,6.95895,22.8341,-1.1079361,36.034527,-25.396646,-38.595654,-1.1393305,-3.85151,-0.9714971,-72.09135,-19.891287,57.16353,6.788235,-2.3523064,-5.9928846,-14.42184
159,-0.4245079457759857,-95.75415802001953,70.78874969482422,-0.5510885341605836,10.75713966765152,-92.90635680281525,-57.32358,10.914996,0.1794258,81.32788,-26.994492,0.38107336,-22.980448,1.2821224,-7.4005694,49.668755,-36.903717,-0.89017105,8.854245,5.817711,22.445972,0.26799428,36.270237,-24.302015,-39.869774,-1.8482132,-3.910652,-0.848674,-72.611046,-19.50634,56.929333,5.550303,-2.333934,-5.7466726,-14.2317505
160,-0.47267594933509827,-97.26866149902344,71.27703094482422,0.2314050272350521,10.812590008342571,-93.16034562257154,-57.55747,10.605864,1.486095,78.151695,-25.972757,0.44157812,-20.668514,0.71658415,-6.5754232,47.38198,-36.606335,-0.6149357,9.225706,4.744286,22.038929,1.5970857,36.411163,-23.337433,-41.03357,-2.5453222,-3.9594758,-0.7232923,-72.883965,-19.145302,56.71144,4.3152413,-2.2264326,-5.5201287,-14.124181
161,-0.5290148854255676,-98.8193359375,71.78327178955078,0.9660549696253996,10.82786807846093,-93.27100353126283,-57.579845,10.125813,2.661886,74.94129,-24.815481,0.5620069,-18.087208,0.10433397,-5.9374557,44.690876,-36.031235,-0.32781067,9.481935,3.7482476,21.59398,2.8726964,36.452297,-22.520258,-42.082573,-3.2729552,-3.9856534,-0.5994635,-72.89805,-18.80969,56.505344,3.0839942,-1.9954518,-5.328391,-14.128903
162,-0.5732873678207397,-100.40597534179688,72.30316925048828,1.6762480921224023,10.809314274672905,-93.26475809798082,-57.377808,9.505489,3.7554712,71.65222,-23.53294,0.7100459,-15.2812,-0.5665776,-5.4560905,41.654106,-35.218014,-0.016531883,9.637544,2.8023849,21.105627,4.091659,36.391296,-21.836332,-43.014603,-4.068145,-4.0109587,-0.46587437,-72.634766,-18.502829,56.29164,1.8292155,-1.6788259,-5.160284,-14.203886
163,-0.6122824549674988,-102.0330810546875,72.82977294921875,2.3458386164311076,10.731586622670617,-93.1802511269378,-56.944633,8.7690735,4.7438097,68.29612,-22.249153,0.79013085,-12.390409,-1.254537,-5.123246,38.57812,-34.093468,0.3008189,9.735998,1.9284804,20.607061,5.196341,36.242817,-21.316658,-43.801674,-4.7941294,-4.044608,-0.33051294,-72.251015,-18.216454,56.091316,0.6585332,-1.242612,-4.990387,-14.315292
164,-0.641514778137207,-103.68709564208984,73.35289764404297,2.9566599012023915,10.56964224514124,-93.05779515809837,-56.274563,7.942101,5.598081,64.887764,-21.088833,0.70579785,-9.556441,-1.9136492,-4.916062,35.782394,-32.59004,0.59498614,9.741964,1.1528076,20.1117,6.234607,36.016415,-20.907993,-44.451977,-5.328295,-4.0990043,-0.19181052,-71.503456,-17.96885,55.955303,-0.619803,-0.929853,-4.793299,-14.4278755
165,-0.6657523512840271,-105.36693572998047,73.87137603759766,3.529620518329973,10.279494882556946,-92.86328797626817,-55.293343,6.959489,6.30255,61.382874,-20.075794,0.39225763,-6.673236,-2.5552378,-4.8428273,33.205013,-30.635866,0.898236,9.707466,0.46001744,19.668686,7.1344543,35.73517,-20.690207,-44.945072,-5.62734,-4.1718307,-0.04826244,-70.70092,-17.74072,55.84246,-1.7538316,-0.48974508,-4.5489583,-14.551725
166,-0.6933045387268066,-107.06605529785156,74.38017272949219,4.058512492543474,9.880203570708412,-92.59076544193786,-54.025368,5.832465,6.8463535,57.77111,-19.134298,-0.07956964,-3.7110534,-3.1715543,-4.8997946,30.747648,-28.30056,1.2023535,9.576896,-0.14975093,19.24299,7.9747696,35.400112,-20.600475,-45.318077,-5.771559,-4.260032,0.10867548,-69.60611,-17.541586,55.76296,-2.9281423,-0.06513343,-4.2766776,-14.698096
167,-0.6959660053253174,-108.77791595458984,74.86500549316406,4.479770905338778,9.443823678582639,-92.320152363672,-52.612633,4.707138,7.2113748,54.128426,-18.242502,-0.6043953,-0.9237145,-3.6867306,-5.0348825,28.667784,-25.719387,1.4112878,9.422066,-0.6358254,18.804298,8.721901,35.021187,-20.619398,-45.57926,-5.7825327,-4.3600273,0.2563287,-68.40754,-17.368916,55.72509,-4.05838,0.37746397,-4.0070596,-14.843332
168,-0.6798645853996277,-110.50131225585938,75.33218383789062,4.737814706699301,9.04656911845124,-92.12878331489439,-51.197742,3.7286966,7.40067,50.539368,-17.381977,-1.0800599,1.4312984,-4.040977,-5.1965046,27.219118,-23.016079,1.4343615,9.283308,-0.9640315,18.313953,9.382576,34.60595,-20.698975,-45.75394,-5.6852875,-4.4704227,0.37753412,-67.16642,-17.223265,55.752716,-5.154103,0.78434783,-3.770306,-14.960827
169,-0.6503416299819946,-112.2191162109375,75.7851333618164,4.828254712898842,8.698573098835952,-92.0271879229531,-49.777176,2.895978,7.393073,46.97625,-16.540575,-1.5166477,3.2937386,-4.2316117,-5.406436,26.486204,-20.085209,1.1930696,9.173374,-1.1290855,17.759314,9.960452,34.15931,-20.840456,-45.84271,-5.4793196,-4.596169,0.4788251,-65.87466,-17.104588,55.861835,-6.215032,1.1749408,-3.5727205,-15.068446
170,-0.6276423335075378,-113.9197006225586,76.2188949584961,4.7822909752553375,8.363597745067759,-91.97721700139371,-48.27945,2.1592736,7.205724,43.408314,-15.727757,-1.9537377,4.8102384,-4.2949824,-5.684802,26.299421,-16.879099,0.762878,9.0707445,-1.1544521,17.16588,10.472793,33.683983,-21.053446,-45.85322,-5.153464,-4.7358913,0.5678401,-64.49657,-17.011513,56.033474,-7.2457,1.5599345,-3.3979087,-15.171533
171,-0.6113605499267578,-115.60018157958984,76.62322998046875,4.607567237010422,8.054151167876963,-91.98419821040743,-46.74971,1.5807824,6.9263196,39.91413,-14.962294,-2.3394372,6.026666,-4.2464128,-5.97504,26.527203,-13.613241,0.28864285,8.9663925,-1.058624,16.551003,10.923651,33.18561,-21.29691,-45.796364,-4.7320538,-4.8788533,0.6270621,-63.06631,-16.943573,56.24427,-8.251143,1.8817004,-3.2431955,-15.222846
172,-0.599513828754425,-117.26461791992188,76.99960327148438,4.311857697164006,7.784228457135374,-92.05330198300811,-45.241642,1.213534,6.6479993,36.579018,-14.263488,-2.6273358,6.9912577,-4.094143,-6.205369,27.029202,-10.500341,-0.0903416,8.850078,-0.86191094,15.931826,11.326374,32.672897,-21.52658,-45.69473,-4.2379518,-5.01496,0.63858175,-61.62169,-16.89922,56.47077,-9.23978,2.084405,-3.1033907,-15.175829
173,-0.593115508556366,-118.9158935546875,77.34636688232422,3.8658832980511852,7.582374288688526,-92.21901352668048,-43.79368,1.1115448,6.387483,33.4102,-13.654351,-2.7826552,7.6378016,-3.8161478,-6.348044,27.840714,-7.4768214,-0.37732127,8.736382,-0.5459714,15.287551,11.715486,32.147694,-21.715036,-45.578075,-3.6356971,-5.1479464,0.5934842,-60.169838,-16.8759,56.725372,-10.223532,2.109856,-2.9784346,-15.001642
174,-0.5646144151687622,-120.55543518066406,77.66233825683594,3.281823447067087,7.436043655878425,-92.47057569400747,-42.383522,1.2268945,6.1258984,30.373106,-13.121088,-2.8499339,7.9807563,-3.4185724,-6.4413414,28.963324,-4.4329214,-0.6235214,8.630293,-0.1164155,14.616751,12.084775,31.61216,-21.881744,-45.438004,-2.929188,-5.282612,0.50403124,-58.6965,-16.87112,57.017006,-11.190382,2.002632,-2.8705013,-14.729156
175,-0.5477431416511536,-122.19062042236328,77.94690704345703,2.625624947027638,7.297059157131173,-92.74238176454844,-40.98189,1.4569997,5.893999,27.506002,-12.632675,-2.8999624,8.1786785,-2.9420934,-6.494567,30.2377,-1.5377748,-0.7708005,8.502007,0.3734835,13.964881,12.387732,31.07858,-22.052902,-45.243824,-2.2012804,-5.4108543,0.38565025,-57.200855,-16.88546,57.31463,-12.119551,1.8583719,-2.778218,-14.397591
176,-0.5468377470970154,-123.80975341796875,78.19010925292969,1.962611830441064,7.118932642271598,-92.96661714899088,-39.556934,1.7032132,5.7121625,24.84992,-12.158297,-2.9952636,8.383024,-2.4264233,-6.5117707,31.526455,1.0200377,-0.7696271,8.32017,0.8686245,13.377959,12.582349,30.567032,-22.254507,-44.96535,-1.5346913,-5.523901,0.25552154,-55.68228,-16.922607,57.586414,-12.993889,1.7740068,-2.6990921,-14.045819
177,-0.5582791566848755,-125.41934204101562,78.39493560791016,1.2657099707373636,6.895954649502659,-93.13256427909596,-38.10571,1.9998078,5.5863004,22.419456,-11.691982,-3.1411011,8.589701,-1.8500649,-6.508377,32.880127,3.3016067,-0.5843192,8.0781555,1.3891785,12.861419,12.671394,30.090858,-22.488613,-44.60768,-0.9224051,-5.6247625,0.10872866,-54.126278,-16.987026,57.81472,-13.832128,1.7712014,-2.633857,-13.645964
178,-0.5853388905525208,-127.02403259277344,78.55982971191406,0.5156020236778757,6.653869723420737,-93.26703441286517,-36.658047,2.3759615,5.5040474,20.210327,-11.258557,-3.304449,8.714083,-1.2040434,-6.4713197,34.386166,5.344646,-0.25511047,7.790784,1.9461144,12.393138,12.682522,29.654074,-22.74153,-44.194077,-0.33135927,-5.7173643,-0.055332832,-52.53005,-17.082134,58.011055,-14.64964,1.7996137,-2.582848,-13.189726
179,-0.6298365592956543,-128.62051391601562,78.6866455078125,-0.20851262035986276,6.398031319315563,-93.35791763599069,-35.24002,2.7287433,5.448491,18.25682,-10.882973,-3.4820623,8.779662,-0.54635537,-6.3622575,35.98186,6.913031,0.15536252,7.4574947,2.4687269,11.976492,12.600664,29.265423,-23.014597,-43.723816,0.18679848,-5.7927,-0.21418191,-50.9124,-17.209444,58.185642,-15.422537,1.8477851,-2.5423524,-12.747172
180,-0.6898578405380249,-130.2023162841797,78.75436401367188,-0.8268075179833553,6.134765464609982,-93.39465860092746,-33.873642,2.9560664,5.398699,16.5893,-10.586776,-3.668094,8.818172,0.07225883,-6.148739,37.584038,7.773815,0.59225255,7.0767236,2.884466,11.613719,12.415763,28.935852,-23.309362,-43.19654,0.5820859,-5.8412867,-0.34430662,-49.291145,-17.369852,58.345234,-16.12742,1.904405,-2.5090435,-12.388486
181,-0.7483417391777039,-131.77001953125,78.75275421142578,-1.31368954529649,5.865456352401388,-93.36699832144926,-32.548866,3.0314543,5.3749056,15.198341,-10.368865,-3.8739398,8.847304,0.6886723,-5.7647166,39.1754,7.717328,1.033083,6.644026,3.1594114,11.304177,12.117088,28.67734,-23.632812,-42.60863,0.8354551,-5.849888,-0.43998945,-47.65624,-17.56449,58.48652,-16.766123,1.9512291,-2.4838555,-12.130154
182,-0.8160549998283386,-133.31895446777344,78.69776153564453,-1.7077714677128348,5.592218241052509,-93.27912931875116,-31.269478,2.9998178,5.3719015,14.08807,-10.226819,-4.0905576,8.833731,1.3146131,-5.2671967,40.82799,6.895322,1.5077461,6.156465,3.325082,11.043695,11.72073,28.493704,-23.98174,-41.973206,0.9737205,-5.8264956,-0.5099194,-45.999134,-17.795414,58.60034,-17.356714,2.0001729,-2.468412,-11.935625
183,-0.8825828433036804,-134.8668670654297,78.59506225585938,-2.0256460579733364,5.3220747093452125,-93.14531757010376,-30.070238,2.8669875,5.3300743,13.295403,-10.183882,-4.2818007,8.741471,1.8622552,-4.8076143,42.572517,5.628524,2.0404801,5.620718,3.40825,10.831095,11.245225,28.380816,-24.345087,-41.30744,1.0115453,-5.7928944,-0.5538451,-44.341946,-18.061903,58.689415,-17.892694,2.077458,-2.4608064,-11.796793
184,-0.9405596256256104,-136.40829467773438,78.43955993652344,-2.284427450574414,5.0605866312529875,-92.9808600437982,-28.98685,2.6424782,5.191422,12.862548,-10.264976,-4.4135633,8.53867,2.238941,-4.528853,44.42994,4.243428,2.6604142,5.0371413,3.4374952,10.665109,10.71588,28.328203,-24.706373,-40.628975,0.9661661,-5.7712626,-0.5729101,-42.715195,-18.36378,58.75883,-18.36328,2.2181673,-2.4587107,-11.704784
185,-0.987093448638916,-137.9341278076172,78.2265396118164,-2.4929899262287973,4.79281234700753,-92.7650973560869,-28.01342,2.3372748,4.9626813,12.848478,-10.572542,-4.4833655,8.265878,2.4479165,-4.4702697,46.385983,2.7662485,3.45147,4.3819933,3.4219112,10.554603,10.134774,28.330849,-25.067825,-39.93326,0.79911304,-5.7631054,-0.57093567,-41.12484,-18.699791,58.81141,-18.767643,2.461315,-2.4631855,-11.666775
186,-1.0205514430999756,-139.4408416748047,77.9598159790039,-2.6396334589653256,4.518933401269609,-92.50111093582886,-27.134256,1.9407452,4.6676435,13.217571,-11.062711,-4.5076957,7.92591,2.5157917,-4.5654435,48.44174,1.0360987,4.360643,3.6699266,3.3438356,10.4992895,9.4778185,28.387867,-25.444765,-39.20749,0.51608515,-5.7581596,-0.54797256,-39.545784,-19.064968,58.844563,-19.106453,2.764167,-2.475819,-11.686226
187,-1.042845606803894,-140.9344482421875,77.63734436035156,-2.7086132951009048,4.26705785733338,-92.24062281166819,-26.36144,1.4306873,4.2765694,13.857726,-11.534593,-4.4829407,7.439761,2.3815832,-4.7800145,50.62549,-0.88903165,5.222679,2.9400988,3.1921072,10.479161,8.752066,28.490387,-25.822601,-38.45849,0.20181435,-5.7612267,-0.5002718,-38.003006,-19.46278,58.85411,-19.370975,3.0891201,-2.4943056,-11.743993
188,-1.065624713897705,-142.4168701171875,77.26215362548828,-2.6837881098584155,4.065458672170227,-92.03481004965315,-25.709524,0.78485066,3.7603536,14.658075,-11.786846,-4.407509,6.7345867,1.9879813,-5.0638404,52.954514,-2.9410822,5.8797865,2.2464144,2.959686,10.476554,7.9466147,28.626808,-26.199886,-37.690342,-0.057535775,-5.776737,-0.42717734,-36.487762,-19.892773,58.839725,-19.556097,3.3587825,-2.5166771,-11.824759
189,-1.08229398727417,-143.88632202148438,76.83541107177734,-2.6021797216033367,3.9118308139749156,-91.89566492755885,-25.008993,0.01004043,2.982875,15.294587,-11.646157,-4.484229,5.851225,1.3577062,-5.418602,55.399044,-5.1551714,6.29655,1.6016762,2.686225,10.480284,7.0641117,28.78956,-26.591055,-36.888485,-0.20167448,-5.8135242,-0.30766758,-34.966316,-20.352999,58.808834,-19.674263,3.5624719,-2.5415328,-11.937398
190,-1.09239661693573,-145.3485565185547,76.35647583007812,-2.4583229313785884,3.7932217446740504,-91.79796885919666,-24.299135,-0.8932975,2.0055974,15.910007,-11.254636,-4.6573305,4.8267527,0.50250465,-5.8387165,57.941433,-7.5370426,6.558786,0.987472,2.3654394,10.501334,6.091999,28.975536,-27.003492,-36.04529,-0.28698644,-5.866613,-0.15165393,-33.422096,-20.837519,58.762417,-19.727093,3.7029984,-2.5709965,-12.087888
191,-1.0600570440292358,-146.76625061035156,75.88343811035156,-2.1756221527863495,3.71749539249442,-91.74157158826392,-23.905235,-1.9531224,1.1079413,17.087368,-10.866551,-4.541898,3.58599,-0.64405185,-6.239278,60.61874,-9.967459,6.69589,0.37926373,1.9250573,10.546412,5.0387564,29.17739,-27.392248,-35.185757,-0.40067157,-5.9200673,-0.0045278743,-31.989687,-21.356762,58.680954,-19.658775,3.8521223,-2.6058311,-12.249019
192,-0.9715127944946289,-148.12669372558594,75.42475891113281,-1.6949501478700832,3.684636201666477,-91.7340137314677,-24.135302,-3.169723,0.58285433,19.379509,-10.710824,-3.7467928,2.064218,-2.1269715,-6.52192,63.450386,-12.318829,6.7344375,-0.20944959,1.3130854,10.636561,3.880541,29.388708,-27.737873,-34.323162,-0.6306781,-5.9573355,0.0860822,-30.698462,-21.913506,58.554493,-19.443804,3.9705987,-2.648022,-12.400768
193,-0.8566570281982422,-149.4510498046875,74.94955444335938,-0.9821699082016684,3.712394795040441,-91.8300355588507,-25.357035,-4.533177,0.54847443,23.41864,-10.717811,-1.7721931,0.1878981,-4.019022,-6.596966,66.516495,-14.560612,6.693783,-0.7487237,0.5056651,10.778747,2.6101296,29.593573,-28.008675,-33.47328,-1.0169735,-5.9879203,0.108039625,-29.594078,-22.512081,58.418167,-19.085741,4.0635114,-2.7222238,-12.52656
194,-0.7410693168640137,-150.73983764648438,74.41552734375,-0.16104629349272892,3.771681209894854,-92.03324236092608,-27.22146,-5.874262,0.86847204,28.601847,-10.764443,1.0976255,-1.9527702,-6.1653886,-6.4796085,69.71349,-16.717907,6.5388656,-1.23498,-0.37189722,10.978915,1.2448752,29.786,-28.215132,-32.62099,-1.5048513,-6.014149,0.0821132,-28.65865,-23.158905,58.273396,-18.588732,4.155915,-2.8175068,-12.640218
195,-0.6122833490371704,-151.9796905517578,73.80863189697266,0.6581622128746334,3.810897520119875,-92.25753460080925,-29.034784,-7.0503283,1.4152262,33.748966,-11.046012,4.067794,-4.213972,-8.348629,-6.238563,72.82344,-18.771904,6.227891,-1.6892651,-1.2211226,11.244681,-0.21746843,29.983463,-28.426863,-31.737255,-2.0381463,-6.009846,0.015230934,-27.741125,-23.845667,58.050888,-17.96422,4.1600237,-2.8845582,-12.770938
196,-0.5070208311080933,-153.22647094726562,73.18040466308594,1.4415938177513716,3.795658571824674,-92.39646878932426,-30.205954,-8.091509,2.0160291,37.86892,-11.797686,6.258904,-6.4864025,-10.444452,-5.9561043,75.67784,-20.733847,5.739773,-2.1498444,-2.0293114,11.5623665,-1.7865367,30.218296,-28.721815,-30.797882,-2.570424,-5.950246,-0.079192705,-26.710922,-24.556366,57.671192,-17.213959,4.0096307,-2.874508,-12.946281
197,-0.425251841545105,-154.4981231689453,72.59373474121094,2.2931732270376615,3.6967542554348385,-92.39266064211145,-30.631128,-9.170394,2.7031353,40.846092,-13.260517,7.287049,-8.786551,-12.580165,-5.608378,78.3605,-22.709679,4.9934807,-2.6337786,-2.9185607,11.966737,-3.535473,30.524881,-29.165627,-29.753843,-3.199914,-5.8193674,-0.17368272,-25.522285,-25.276339,57.07934,-16.307398,3.6224687,-2.7289424,-13.156803
198,-0.3517058789730072,-155.74615478515625,72.0398178100586,3.2389896662009483,3.5517516061683403,-92.29866955415413,-30.679384,-10.295895,3.5032308,43.29383,-15.295774,7.635994,-11.203964,-14.803898,-5.1411643,80.937904,-24.675785,4.0370655,-3.1224613,-3.919144,12.44017,-5.441923,30.90433,-29.726542,-28.661272,-3.9277356,-5.6350293,-0.26685166,-24.244734,-26.001358,56.309376,-15.260297,3.0553825,-2.4886267,-13.389124
199,-0.29319339990615845,-156.97592163085938,71.52092742919922,4.130803725165353,3.425705888293865,-92.16993442354367,-30.491951,-11.329492,4.241845,45.352604,-17.541832,7.668202,-13.732559,-16.895374,-4.628281,83.23249,-26.454046,3.0389,-3.6126041,-4.8762693,12.892818,-7.3664646,31.33021,-30.325325,-27.650328,-4.557894,-5.422814,-0.3923923,-22.908373,-26.72706,55.42866,-14.136502,2.4374006,-2.2533042,-13.668957
200,-0.24328897893428802,-158.2185516357422,71.0534896850586,4.81464038539673,3.3820013835618083,-92.06228806475873,-30.192984,-12.145665,4.755389,47.11745,-19.624508,7.7564335,-16.346777,-18.64229,-4.1799526,85.06784,-27.868671,2.1598709,-4.108086,-5.613283,13.238398,-9.140027,31.76452,-30.863861,-26.84477,-4.8731027,-5.2072687,-0.5948668,-21.543718,-27.446848,54.51424,-12.989355,1.8981812,-2.122211,-14.026193
201,-0.20850598812103271,-159.47921752929688,70.65936279296875,5.257145965715093,3.469726145602675,-91.96524581119606,-29.81891,-12.746299,5.0198526,48.55404,-21.493755,7.963568,-19.117838,-20.053963,-3.879162,86.44419,-28.839935,1.3925354,-4.6374054,-6.066984,13.427979,-10.743249,32.185066,-31.309725,-26.20581,-4.742423,-4.9717574,-0.9247958,-20.129215,-28.14613,53.5596,-11.725415,1.3829525,-2.113784,-14.514286
202,-0.1813102513551712,-160.7583770751953,70.34355163574219,5.535407689163173,3.6423035401053583,-91.8554691586432,-29.301144,-13.223713,5.146851,49.6181,-23.320847,8.1124,-22.016026,-21.227154,-3.7049084,87.44207,-29.479607,0.65615195,-5.2052593,-6.3162956,13.514966,-12.252113,32.58898,-31.70358,-25.665314,-4.292566,-4.7137227,-1.3592062,-18.669264,-28.812557,52.55147,-10.327321,0.85581064,-2.173781,-15.106052
203,-0.14911986887454987,-162.06021118164062,70.11231231689453,5.6573844036754375,3.820032481450069,-91.7708106418846,-28.591116,-13.570999,5.1595025,50.37253,-25.060984,8.217982,-24.85187,-22.084225,-3.6374226,88.02423,-29.885826,0.008281039,-5.776156,-6.390742,13.5685005,-13.657355,32.974415,-32.0483,-25.285173,-3.7025065,-4.477403,-1.8346968,-17.225697,-29.44604,51.56059,-8.950855,0.46456367,-2.2971137,-15.711789
204,-0.11359980702400208,-163.38519287109375,69.96472930908203,5.631711502486022,3.9237695354924886,-91.74991395599874,-27.633533,-13.765567,5.069329,50.877716,-26.675564,8.282257,-27.435293,-22.551971,-3.6514523,88.155045,-30.151627,-0.48480466,-6.316012,-6.3254576,13.658905,-14.966634,33.343853,-32.340065,-25.11602,-3.166709,-4.303059,-2.287195,-15.861633,-30.055666,50.661106,-7.7611384,0.35560825,-2.482132,-16.242447
205,-0.07547922432422638,-164.7153778076172,69.88350677490234,5.404375923203276,3.9138354914346,-91.84910318162136,-26.37268,-13.709115,4.8760104,51.170013,-28.208986,8.271885,-29.70504,-22.542793,-3.7795677,87.770004,-30.27236,-0.78816366,-6.7923956,-6.068775,13.83259,-16.147676,33.696976,-32.537373,-25.21832,-2.580923,-4.2057977,-2.7183454,-14.637576,-30.65091,49.88517,-6.7592416,0.6919603,-2.7878923,-16.668547
206,-0.03539423644542694,-166.0628204345703,69.86907958984375,4.98993690527228,3.8370811662472497,-92.0328171772618,-24.842249,-13.421086,4.5769815,51.209972,-29.669554,8.194902,-31.736073,-22.130434,-4.0638156,86.90133,-30.200977,-0.9298013,-7.23526,-5.6246853,14.046801,-17.210035,34.038673,-32.644363,-25.539793,-1.8978277,-4.164012,-3.1574194,-13.508598,-31.233238,49.198357,-5.8701897,1.3529893,-3.2013023,-17.036839
207,-0.018999561667442322,-167.4391326904297,69.91887664794922,4.500653395802492,3.7450407610120453,-92.20143437534253,-23.128147,-13.056177,4.1729374,50.952946,-30.961704,8.101124,-33.55895,-21.498003,-4.4638033,85.667366,-29.970058,-0.93630904,-7.6969414,-5.1175847,14.23947,-18.178349,34.381096,-32.734375,-26.006365,-1.3684622,-4.156797,-3.5766747,-12.377008,-31.802011,48.5622,-5.149657,2.0631814,-3.6149397,-17.37279
208,-0.03492524102330208,-168.85006713867188,70.03121185302734,4.048521313568437,3.692413289274208,-92.25624351040707,-21.316483,-12.7701845,3.6551883,50.35548,-31.990274,8.041938,-35.21553,-20.829603,-4.9216022,84.18912,-29.613329,-0.83804536,-8.223326,-4.67173,14.348353,-19.126198,34.739788,-32.890587,-26.512096,-1.2745852,-4.1589103,-3.9466555,-11.142008,-32.35611,47.930954,-4.6573615,2.5484037,-3.9186482,-17.707283
209,-0.06381731480360031,-170.2823486328125,70.18778991699219,3.663863762111335,3.6573649042450143,-92.17405993126708,-19.36976,-12.6078,3.0001638,49.387127,-32.74439,8.043582,-36.686806,-20.13415,-5.396946,82.45524,-29.093267,-0.57859164,-8.814851,-4.3300204,14.392851,-20.066189,35.12716,-33.15319,-27.079847,-1.8228284,-4.175218,-4.255753,-9.7856045,-32.896877,47.299862,-4.4274306,2.7110984,-4.0756645,-18.076832
210,-0.10050741583108902,-171.72596740722656,70.39063262939453,3.2889519738069453,3.6250316716190802,-92.0060104037894,-17.265862,-12.46661,2.2139862,48.081604,-33.27401,8.066869,-37.968113,-19.343662,-5.9059353,80.40964,-28.412987,-0.16634335,-9.443712,-4.02811,14.398304,-20.985498,35.545498,-33.482834,-27.745916,-2.8376875,-4.208845,-4.515747,-8.348706,-33.42636,46.67708,-4.43409,2.7046816,-4.1449323,-18.456305
211,-0.14196842908859253,-173.19561767578125,70.63924407958984,2.9037678275260816,3.6625455661760613,-91.76605519826012,-15.117218,-12.289126,1.3300372,46.501965,-33.56782,8.070101,-39.129837,-18.519188,-6.473662,78.118835,-27.66081,0.26921916,-10.113024,-3.7251055,14.31083,-21.811024,35.98868,-33.835903,-28.500946,-3.9598258,-4.2330155,-4.733366,-6.8229437,-33.943848,46.037167,-4.645564,2.6343803,-4.1590657,-18.787643
212,-0.1912957727909088,-174.68893432617188,70.92060852050781,2.4879985904774586,3.8368707731041622,-91.46890011612997,-13.036877,-12.025594,0.38511607,44.71048,-33.614174,8.017487,-40.23499,-17.714785,-7.1385117,75.641525,-26.923218,0.6020812,-10.823487,-3.3754983,14.076688,-22.545908,36.446236,-34.175777,-29.274626,-4.870635,-4.2240477,-4.9147377,-5.198876,-34.44794,45.353924,-5.027782,2.6047661,-4.1519165,-19.0123
213,-0.24668316543102264,-176.2119598388672,71.23060607910156,2.034124819918605,4.224229898163397,-91.08794217871146,-11.070732,-11.670198,-0.67735636,42.622215,-33.457134,7.9083357,-41.361115,-16.930431,-7.9265194,72.960144,-26.20286,0.7858273,-11.591784,-2.952859,13.624186,-23.158022,36.91228,-34.509686,-30.086702,-5.506457,-4.175201,-5.0550585,-3.4364111,-34.936726,44.60447,-5.6318955,2.6126812,-4.112123,-19.112566
214,-0.3263632655143738,-177.75865173339844,71.56980895996094,1.557971703514177,4.771561512862697,-90.62756529203945,-9.1605835,-11.241582,-1.8524928,40.24731,-33.092434,7.7635813,-42.449554,-16.144037,-8.811124,70.042015,-25.45833,0.8938866,-12.406012,-2.474157,13.006019,-23.716074,37.38608,-34.85766,-30.913147,-6.059306,-4.1015573,-5.15302,-1.5460074,-35.410248,43.80135,-6.4611573,2.6126385,-4.0285597,-19.120302
215,-0.3962773382663727,-179.32666015625,71.92650604248047,1.0742532773085498,5.350702827717957,-90.14870021768364,-7.261797,-10.730389,-3.0102594,37.789497,-32.43981,7.5802827,-43.356552,-15.366188,-9.760235,66.92361,-24.705479,0.9842455,-13.223118,-1.95963,12.351718,-24.092781,37.859516,-35.185024,-31.829191,-6.4214234,-4.013435,-5.2234473,0.4079367,-35.867966,42.97069,-7.408941,2.644898,-3.936012,-19.05148
216,-0.4798535704612732,-180.91749572753906,72.30810546875,0.5963895256373183,5.832315758947177,-89.71189412753701,-5.332269,-10.137398,-4.016708,35.454823,-31.417194,7.3505964,-43.946167,-14.600746,-10.737635,63.647175,-23.959656,1.1127664,-14.008444,-1.4409386,11.78813,-24.44181,38.32513,-35.46343,-32.684547,-6.65899,-3.9207487,-5.2812376,2.3504815,-36.30944,42.15056,-8.360565,2.7475436,-3.8688993,-18.924318
217,-0.5498464703559875,-182.530517578125,72.70966339111328,0.09636695644921679,6.195186978549167,-89.35098235137033,-3.3070707,-9.432302,-4.83707,33.193764,-29.988596,7.0673995,-44.168446,-13.793647,-11.75111,60.15154,-23.212124,1.2804643,-14.7467375,-0.89922327,11.3288145,-24.60715,38.776474,-35.67265,-33.57682,-6.590971,-3.8168385,-5.3263044,4.2654862,-36.736,41.363144,-9.297605,2.959269,-3.8439329,-18.719978
218,-0.6108214855194092,-184.17837524414062,73.1319580078125,-0.41672676024007743,6.500917686730383,-89.02910095954867,-1.2349602,-8.64488,-5.536728,30.949919,-28.214401,6.7348623,-44.100937,-12.945421,-12.804056,56.42797,-22.45189,1.4665838,-15.461126,-0.33747542,10.911732,-24.66554,39.21473,-35.82846,-34.4576,-6.305243,-3.6994796,-5.356018,6.183034,-37.14704,40.592648,-10.269755,3.2509327,-3.8390088,-18.438852
219,-0.6653723120689392,-185.8571014404297,73.55970764160156,-0.8742898642236798,6.743708731000667,-88.6969767116515,0.76811,-7.8750625,-6.1414824,28.90499,-26.145908,6.3609886,-43.80339,-12.1398945,-13.851197,52.596523,-21.685188,1.6966295,-16.168806,0.17460409,10.539918,-24.625181,39.6382,-35.946487,-35.345097,-5.9609075,-3.584998,-5.3834295,8.105805,-37.5369,39.81194,-11.258981,3.5578747,-3.83068,-18.123898
220,-0.7186594605445862,-187.55247497558594,73.98963165283203,-1.2164856844262666,6.918382700004683,-88.30550928343361,2.594288,-7.2123513,-6.6870227,27.230762,-23.823233,5.9523954,-43.331554,-11.459112,-14.858039,48.773006,-20.916143,1.9927276,-16.889225,0.57741594,10.215886,-24.502762,40.043606,-36.04276,-36.24797,-5.7215204,-3.4897075,-5.4205523,10.03043,-37.894825,38.9982,-12.242225,3.8167717,-3.7968981,-17.81843
221,-0.7763401865959167,-189.2562713623047,74.41523742675781,-1.444194774417394,7.000613892464665,-87.84394450070761,4.27696,-6.6584816,-7.145392,25.931732,-21.157484,5.5205755,-42.6517,-10.897717,-15.819579,44.933903,-20.14099,2.3645806,-17.636385,0.8616088,9.952976,-24.39176,40.429703,-36.12591,-37.094833,-5.6852164,-3.4140723,-5.4779058,11.9514885,-38.21322,38.150112,-13.209531,4.025456,-3.7197165,-17.507605
222,-0.8260599374771118,-190.95782470703125,74.83041381835938,-1.5834968848858235,6.996491675385115,-87.3352499300789,5.872728,-6.187514,-7.5301456,24.913797,-18.14961,5.0498877,-41.7422,-10.411846,-16.756727,41.017838,-19.346304,2.801035,-18.397636,1.0504117,9.740793,-24.220001,40.793716,-36.191586,-37.924683,-5.719621,-3.3504863,-5.5460396,13.865024,-38.48792,37.28247,-14.162746,4.212067,-3.6152387,-17.175943
223,-0.8781857490539551,-192.6654052734375,75.23703002929688,-1.6139481127802253,6.948348790606056,-86.7790500035979,7.3274035,-5.8393064,-7.9499197,24.160976,-14.960255,4.4996443,-40.68533,-10.033337,-17.679636,37.103474,-18.526747,3.2907076,-19.15902,1.1375287,9.543067,-24.018959,41.12995,-36.239666,-38.722378,-5.815692,-3.302707,-5.604402,15.760457,-38.712467,36.40584,-15.090548,4.357755,-3.513504,-16.867224
224,-0.9400076270103455,-194.37095642089844,75.62419891357422,-1.5166741278616296,6.899578099817206,-86.17327343768955,8.591327,-5.6489244,-8.519109,23.643145,-11.739326,3.8245394,-39.566658,-9.797576,-18.603434,33.275475,-17.67979,3.8209224,-19.906286,1.1212714,9.320533,-23.702242,41.42891,-36.273804,-39.551605,-5.8816133,-3.2747483,-5.633545,17.628887,-38.87829,35.530525,-15.979049,4.4427857,-3.444915,-16.623623
225,-0.9959068298339844,-196.0883026123047,75.99446105957031,-1.260347545581812,6.858751265061845,-85.48213168714283,9.642872,-5.650218,-9.281205,23.340254,-8.342926,2.974278,-38.3879,-9.765297,-19.57629,29.524359,-16.814266,4.3940806,-20.664618,0.9770588,9.052353,-23.331083,41.683315,-36.307903,-40.358967,-5.990635,-3.2809253,-5.630645,19.491604,-38.973434,34.65351,-16.819855,4.43407,-3.423812,-16.483898
226,-1.0453487634658813,-197.8013458251953,76.34368896484375,-0.8619327155308911,6.798989804248676,-84.70979628702628,10.557534,-5.8321357,-10.213579,23.194836,-4.720682,1.9334849,-37.109955,-9.90508,-20.594133,25.816303,-15.925616,5.018421,-21.43826,0.7115896,8.751048,-22.905582,41.888664,-36.35032,-41.138393,-6.135492,-3.3141594,-5.606425,21.333189,-38.992363,33.781734,-17.60372,4.3494406,-3.43227,-16.414778
227,-1.1003268957138062,-199.5227508544922,76.66278076171875,-0.37616150042647617,6.712753928785792,-83.91482645784998,11.409269,-6.1565275,-11.320745,23.16028,-1.1764386,0.73058623,-35.762573,-10.121271,-21.589193,22.212788,-14.999365,5.6856694,-22.184057,0.3738961,8.43063,-22.440226,42.041447,-36.391262,-41.887726,-6.236262,-3.3461344,-5.561007,23.085703,-38.940075,32.944893,-18.319408,4.2488723,-3.452085,-16.352913
228,-1.145275592803955,-201.24423217773438,76.94273376464844,0.14106372073590623,6.596028795662524,-83.15840811601761,12.250916,-6.5731487,-12.583763,23.225143,1.9752945,-0.56411946,-34.378376,-10.323221,-22.484413,18.779016,-14.024455,6.381912,-22.855566,0.012660772,8.10874,-21.95897,42.140114,-36.415897,-42.60369,-6.224301,-3.348631,-5.495094,24.683504,-38.830708,32.169323,-18.959833,4.193999,-3.4651346,-16.235094
229,-1.1829261779785156,-202.9640655517578,77.17674255371094,0.6998023776962378,6.460515912205111,-82.43283834715176,13.058208,-7.0801682,-14.053882,23.428658,4.6636333,-1.9414457,-32.937088,-10.533735,-23.336119,15.458385,-12.957082,7.146434,-23.452269,-0.37887076,7.767289,-21.40315,42.182484,-36.43736,-43.33607,-5.9816194,-3.3001738,-5.3995876,26.163761,-38.6752,31.432888,-19.54749,4.1947107,-3.4680607,-16.029737
230,-1.2122373580932617,-204.68673706054688,77.36456298828125,1.3196516308527488,6.306849665093497,-81.71995674028001,13.798564,-7.699228,-15.712793,23.80925,7.033271,-3.425628,-31.419033,-10.778985,-24.162455,12.200305,-11.7948885,7.966735,-23.987623,-0.81756806,7.402131,-20.804285,42.16697,-36.4626,-44.05651,-5.590246,-3.2197149,-5.278186,27.552994,-38.479355,30.725348,-20.091227,4.2216396,-3.4695463,-15.775892
231,-1.2206943035125732,-206.41148376464844,77.51578521728516,1.9441603441323834,6.12659615306347,-81.07587256481446,14.479848,-8.3908,-17.401735,24.385773,9.089685,-4.959249,-29.843082,-10.958579,-24.825113,9.036802,-10.576166,8.742686,-24.427216,-1.2564265,7.054737,-20.18942,42.09282,-36.46604,-44.739437,-5.1886487,-3.1400628,-5.150853,28.765371,-38.253967,30.092083,-20.55925,4.276206,-3.4700165,-15.516743
232,-1.2133365869522095,-208.132080078125,77.62924194335938,2.5062742944792085,5.918850391159062,-80.56176478017908,15.095065,-9.106111,-18.94911,25.184425,10.834145,-6.4786596,-28.977053,-11.319621,-25.033186,7.7169156,-10.242769,9.376288,-24.736578,-1.6388875,6.7688823,-19.530231,41.960693,-36.417774,-45.395535,-4.8773513,-3.0953104,-5.037908,29.704857,-38.014313,29.58495,-20.911734,4.3582897,-3.4698148,-15.296168
233,-1.1883037090301514,-209.84243774414062,77.69837188720703,2.9975020918232875,5.692576881928091,-80.20598931307234,15.625547,-9.886009,-20.412657,26.22821,12.395408,-8.071543,-28.547777,-11.718864,-24.766247,7.60561,-10.455581,9.822658,-24.896984,-1.9498107,6.546668,-18.801754,41.76916,-36.289635,-46.045692,-4.6962833,-3.093449,-4.9472065,30.370804,-37.77311,29.206038,-21.157215,4.490045,-3.4683456,-15.13545
234,-1.1618229150772095,-211.5488739013672,77.7288589477539,3.431557330704994,5.459969002619081,-79.98799846516503,16.043253,-10.722192,-21.8138,27.558016,13.710482,-9.71731,-28.048738,-11.949619,-24.205553,7.5253577,-10.592814,10.127486,-24.919209,-2.1989422,6.371538,-17.997784,41.51822,-36.098106,-46.700974,-4.5721173,-3.1178834,-4.867824,30.804056,-37.538162,28.932274,-21.31398,4.666377,-3.4655502,-15.010479
235,-1.1350071430206299,-213.24398803710938,77.71107482910156,3.777718013040825,5.224348479240392,-79.88744311006073,16.32991,-11.48076,-22.910284,29.180065,14.523102,-11.168899,-27.48217,-11.986892,-23.437532,7.469803,-10.675975,10.325315,-24.817455,-2.369815,6.260034,-17.171146,41.213722,-35.87397,-47.312542,-4.479514,-3.165872,-4.7908487,30.970829,-37.31806,28.773901,-21.353058,4.8475504,-3.462598,-14.896899
236,-1.098244547843933,-214.91064453125,77.62503814697266,4.004486619774229,4.988428203283079,-79.87958833436514,16.462965,-12.013947,-23.44714,31.069204,14.596542,-12.167112,-26.849384,-11.808494,-22.5522,7.434992,-10.727404,10.452232,-24.611528,-2.4445264,6.2281375,-16.360802,40.865913,-35.642338,-47.84569,-4.387413,-3.2342806,-4.7074385,30.834433,-37.120113,28.743904,-21.24415,4.9938164,-3.4605608,-14.770818
237,-1.0724709033966064,-216.55319213867188,77.47489929199219,4.1252348409217126,4.7368947477402825,-79.95046263254238,16.455505,-12.300725,-23.32539,33.221516,13.746702,-12.523966,-26.118097,-11.434948,-21.524662,7.4239807,-10.852735,10.572663,-24.311872,-2.4418018,6.282382,-15.537992,40.48064,-35.414227,-48.331177,-4.264065,-3.3277035,-4.6040344,30.411102,-36.954285,28.850885,-21.029182,5.1853623,-3.417325,-14.644825
