unveil-humanoid-operators/unveil-humanoid-operators.github.io/feature-analysis-animation/data/feature_matrix_instances/height_root_translate_rom_jogging_A061_jog_ff_stop_225_002__A061.csv
Frame,root_translateX,root_translateY,root_translateZ,root_rotateX,root_rotateY,root_rotateZ,left_hip_pitch_joint_dof,left_hip_roll_joint_dof,left_hip_yaw_joint_dof,left_knee_joint_dof,left_ankle_pitch_joint_dof,left_ankle_roll_joint_dof,right_hip_pitch_joint_dof,right_hip_roll_joint_dof,right_hip_yaw_joint_dof,right_knee_joint_dof,right_ankle_pitch_joint_dof,right_ankle_roll_joint_dof,waist_yaw_joint_dof,waist_roll_joint_dof,waist_pitch_joint_dof,left_shoulder_pitch_joint_dof,left_shoulder_roll_joint_dof,left_shoulder_yaw_joint_dof,left_elbow_joint_dof,left_wrist_roll_joint_dof,left_wrist_pitch_joint_dof,left_wrist_yaw_joint_dof,right_shoulder_pitch_joint_dof,right_shoulder_roll_joint_dof,right_shoulder_yaw_joint_dof,right_elbow_joint_dof,right_wrist_roll_joint_dof,right_wrist_pitch_joint_dof,right_wrist_yaw_joint_dof
0,-1.0818326473236084,-2.3914754390716553,73.57872009277344,1.5903052756912053,-5.208954702037149,66.13215757642284,5.88795,-1.5875344,6.9238524,41.40136,-34.844906,2.1163077,-44.90474,-24.731598,-0.34859747,120.54556,-8.543459,-13.100907,-11.01268,-1.6434114,15.856771,-21.875162,20.401785,-16.161375,-8.624481,10.46118,-2.449782,6.824283,30.38639,-15.468596,15.062503,0.5475468,-11.769283,-14.856135,-2.298444
1,0.11099362373352051,-1.250939130783081,74.1180191040039,1.4013045526286203,-4.752539697852295,65.75388607067832,7.6350303,-0.80363053,7.0286098,39.163803,-32.375755,1.364922,-45.918888,-25.1747,-1.5874724,116.48259,-8.033689,-13.794766,-11.105468,-1.3846542,15.170964,-21.21803,20.550875,-16.872625,-9.392358,10.59264,-2.412432,6.1879954,30.973082,-15.546879,15.14578,0.5925841,-11.9490795,-14.812279,-2.1371725
2,1.314814567565918,-0.09800705313682556,74.68604278564453,1.1870881755725806,-4.280400067276802,65.35650148614945,9.387598,-0.01161655,7.1180887,36.90166,-30.006659,0.60015017,-46.87469,-25.528055,-2.9192815,112.47591,-7.6441016,-14.457623,-11.192998,-1.1152158,14.484083,-20.582085,20.77415,-17.584473,-10.225717,10.712785,-2.3593302,5.553986,31.560602,-15.639186,15.24555,0.64004165,-12.144825,-14.775621,-1.9580307
3,2.5322513580322266,1.0633010864257812,75.2848892211914,0.9696986419185578,-3.8180914730616964,64.93586469247234,11.041964,0.7791443,7.2477765,34.801716,-27.501015,-0.1375963,-47.54239,-25.61259,-4.326843,108.28328,-7.2445397,-14.827324,-11.274255,-0.8576429,13.811419,-19.794573,21.041134,-18.246357,-11.077275,10.785057,-2.332585,4.944428,32.105217,-15.729942,15.363147,0.6784169,-12.28556,-14.730424,-1.8079855
4,3.7687931060791016,2.2254977226257324,75.90494537353516,0.7824515037406389,-3.3901507938332824,64.49055115778684,12.492892,1.5458121,7.458507,33.0583,-24.623901,-0.8065513,-47.711372,-25.276619,-5.73896,103.65641,-6.7077465,-14.658216,-11.340499,-0.6434076,13.165042,-18.707516,21.323154,-18.82656,-11.873616,10.767819,-2.3753746,4.3885245,32.57341,-15.795783,15.493281,0.69233406,-12.297928,-14.662057,-1.7311052
5,5.020888805389404,3.400991916656494,76.53681945800781,0.6304472882593875,-2.980446701663899,64.01157551654578,13.699675,2.2776773,7.762224,31.697954,-21.183039,-1.3838497,-47.391773,-24.459927,-7.0380383,98.47063,-6.0345488,-13.885802,-11.383072,-0.47323444,12.527164,-17.273441,21.605358,-19.32922,-12.603279,10.653807,-2.5244293,3.8619487,32.963585,-15.813513,15.619475,0.6895584,-12.141559,-14.572266,-1.7477639
6,6.292982578277588,4.590648651123047,77.17237854003906,0.5171485841531224,-2.589752882794455,63.51494294067983,14.732571,2.959912,8.101897,30.619299,-17.340012,-1.9144387,-46.729305,-23.339336,-8.176106,92.86711,-5.282843,-12.7046995,-11.403199,-0.3529606,11.893435,-15.613931,21.882446,-19.791174,-13.25836,10.470917,-2.7480893,3.357182,33.29688,-15.778404,15.73792,0.6847358,-11.870651,-14.467779,-1.8309183
7,7.5811052322387695,5.786434173583984,77.80174255371094,0.4657482270457877,-2.267311502210833,63.03676051604814,15.656434,3.5635502,8.413719,29.813488,-13.380713,-2.455769,-45.73052,-22.113638,-9.162235,86.98612,-4.4042296,-11.244652,-11.407254,-0.31728986,11.295757,-13.827439,22.141144,-20.231403,-13.776569,10.233144,-2.9846451,2.9292312,33.575485,-15.70127,15.858147,0.6686656,-11.551646,-14.341424,-1.9528043
8,8.872077941894531,6.997286319732666,78.41068267822266,0.4912737460844761,-2.0587497459116495,62.60873515794045,16.53998,4.0670943,8.647669,29.260393,-9.578448,-3.0561004,-44.397842,-20.937723,-10.038201,80.95186,-3.3317373,-9.603596,-11.400072,-0.38685498,10.765845,-12.007969,22.3639,-20.663136,-14.096753,9.9557085,-3.1735432,2.632624,33.807304,-15.604314,15.988371,0.62368804,-11.2484,-14.185427,-2.0867338
9,10.174971580505371,8.225786209106445,78.98707580566406,0.5920834766427209,-1.9666840248197608,62.25125592880262,17.429813,4.454345,8.777094,28.837002,-5.8335342,-3.8245857,-42.676147,-19.77298,-10.813622,74.59967,-1.9449372,-7.6902514,-11.408582,-0.5541657,10.302846,-10.127835,22.53257,-21.099276,-14.198936,9.5761385,-3.2983818,2.5066879,34.010296,-15.498783,16.129736,0.5378328,-10.948521,-13.972131,-2.26073
10,11.48063850402832,9.477333068847656,79.51924133300781,0.7592620570622478,-1.9665272376122809,61.94584926415737,18.29175,4.7287464,8.813531,28.556221,-2.0311372,-4.7334833,-40.599228,-18.584421,-11.439534,67.901886,-0.32084733,-5.5275307,-11.423112,-0.7982388,9.888271,-8.165248,22.639648,-21.536556,-14.099891,9.114887,-3.3941193,2.5111437,34.18989,-15.384486,16.272474,0.40942436,-10.621727,-13.714025,-2.4794378
11,12.78520393371582,10.75132942199707,80.00320434570312,0.9873665222722372,-2.060100247997301,61.66206478117031,19.074041,4.918499,8.803214,28.595953,1.5860028,-5.593067,-38.294384,-17.483469,-11.932345,61.18111,1.3390858,-3.3507588,-11.393447,-1.1102067,9.529413,-6.206009,22.686794,-21.95743,-13.808685,8.714966,-3.4772983,2.5824594,34.331444,-15.271609,16.409227,0.23685576,-10.304788,-13.461554,-2.679897
12,14.092077255249023,12.048855781555176,80.43311309814453,1.2650617391951533,-2.2483079937734045,61.36782946718174,19.71967,5.0784616,8.831642,29.145775,4.7779827,-6.1776614,-35.882153,-16.550514,-12.353908,54.755196,2.8581948,-1.3668209,-11.297119,-1.465233,9.242152,-4.293571,22.677435,-22.302319,-13.38021,8.516167,-3.5644488,2.6517768,34.423607,-15.213388,16.5487,-0.0071725855,-10.019532,-13.262924,-2.800294
13,15.415075302124023,13.356926918029785,80.79813385009766,1.6398580572103145,-2.614256137980604,61.056885928930996,20.30314,5.1895847,8.949519,30.232027,7.5562277,-6.31609,-33.206577,-15.744673,-12.649017,48.418533,4.3099165,0.6021758,-11.0862255,-1.944984,9.067852,-2.4399168,22.626322,-22.627668,-12.766909,8.577074,-3.6347117,2.732827,34.4949,-15.152143,16.67517,-0.31465614,-9.804903,-13.141062,-2.8054836
14,16.734960556030273,14.669715881347656,81.0936508178711,2.090431274089754,-3.127301267354753,60.73883136776639,20.830545,5.287905,9.160188,31.756588,10.043379,-6.1084847,-30.262423,-15.015704,-12.8401785,42.062675,5.7659216,2.5988104,-10.800768,-2.5108385,8.996432,-0.5827679,22.525105,-22.910227,-12.000372,8.815324,-3.6875749,2.8422694,34.541267,-15.112305,16.793781,-0.6924655,-9.630424,-13.06545,-2.7315876
15,18.05156707763672,15.96700668334961,81.30590057373047,2.5028939804811485,-3.6198024859521376,60.41059456818382,21.13909,5.526066,9.486814,33.730824,12.162317,-5.708993,-27.398275,-14.380981,-13.148873,36.154675,7.0943747,4.261051,-10.441581,-3.0108354,8.928628,1.1624618,22.342876,-23.153755,-11.063245,9.157077,-3.7627227,2.9661057,34.4899,-15.096257,16.912895,-1.0853835,-9.466561,-13.008266,-2.6315525
16,19.374731063842773,17.2257080078125,81.43998718261719,2.7665373329052256,-3.925911719122217,60.06849027636247,21.069416,6.0408444,9.935083,36.17759,13.815992,-5.289193,-24.981398,-13.824699,-13.803893,31.205288,8.16488,5.2592144,-10.029635,-3.3259425,8.789165,2.7977962,22.174976,-23.318161,-10.103538,9.487521,-3.8956604,3.1053574,34.25263,-15.112648,17.061546,-1.4580202,-9.272632,-12.944997,-2.5519402
17,20.662384033203125,18.436946868896484,81.48328399658203,2.867819467015823,-3.9863727274775718,59.708938013124026,20.53863,6.9310026,10.60997,39.233734,14.963981,-4.836895,-23.107796,-13.3544035,-14.954481,27.275135,8.967077,5.541961,-9.565959,-3.4244256,8.51207,4.2641683,21.947716,-23.386368,-9.034773,9.901999,-4.105109,3.2444515,33.81179,-15.174621,17.254356,-1.8085467,-9.052893,-12.863257,-2.4959073
18,21.929025650024414,19.607397079467773,81.44756317138672,2.856893515982978,-3.9019214228580013,59.325777503520754,19.659506,8.186035,11.476384,42.887955,15.607597,-4.205185,-21.57591,-12.887331,-16.47575,24.090174,9.574387,5.339746,-9.038865,-3.390442,8.171975,5.651327,21.723759,-23.365278,-7.9233537,10.391138,-4.365059,3.4035,33.206276,-15.272229,17.483555,-2.1673243,-8.816358,-12.780295,-2.4372435
19,23.193580627441406,20.761011123657227,81.35416412353516,2.721431705388843,-3.7455874521938877,58.91531511835789,18.551785,9.721082,12.296971,46.95021,15.725787,-3.4271514,-20.320812,-12.322476,-18.179892,21.717224,9.953287,4.7147827,-8.460353,-3.222997,7.8415956,6.969117,21.505827,-23.268597,-6.8043203,10.786437,-4.6576114,3.586565,32.427216,-15.406293,17.742863,-2.4891028,-8.551923,-12.706793,-2.4024863
20,24.446062088012695,21.89789390563965,81.19503021240234,2.456759838908897,-3.5859996305010733,58.478989243364595,17.319605,11.369045,12.819344,51.215332,15.335538,-2.6054933,-19.306295,-11.629023,-19.867178,20.281015,10.049886,3.6884792,-7.845091,-2.9228926,7.5881553,8.224781,21.29836,-23.11439,-5.7121525,10.918376,-4.965869,3.796826,31.470266,-15.579442,18.022469,-2.7332423,-8.246606,-12.653739,-2.4167607
21,25.644880294799805,23.0090274810791,80.95509338378906,2.0338571650087105,-3.3812093491570336,58.01166421191758,15.9221945,13.059023,12.972801,55.738754,14.225945,-1.8521734,-18.738796,-10.883086,-21.632383,20.17705,10.069514,1.9364299,-7.1881547,-2.4491496,7.3760386,9.415896,21.101217,-22.889986,-4.653506,10.713327,-5.306681,4.024323,30.320389,-15.788854,18.329216,-2.8754268,-7.883678,-12.631777,-2.4919856
22,26.831527709960938,24.124454498291016,80.63845825195312,1.4880386972279875,-3.119485501980173,57.51731464888925,14.314886,14.785074,12.837134,60.60648,12.465244,-1.1536869,-18.578476,-10.169437,-23.543264,21.247246,9.9569,-0.47741252,-6.489723,-1.8411669,7.177584,10.545284,20.914211,-22.59028,-3.6152616,10.270464,-5.684323,4.266623,28.98476,-16.030828,18.67005,-2.944723,-7.47352,-12.633365,-2.613522
23,28.004539489746094,25.164295196533203,80.27255249023438,0.9035339472579552,-2.909176364533469,57.015847954689164,12.582202,16.441788,12.405748,65.64913,10.51904,-0.45585108,-18.457447,-9.446218,-25.304718,22.833403,9.257576,-2.9454408,-5.778314,-1.2061305,7.0717854,11.629583,20.743647,-22.241581,-2.605337,9.678984,-6.0639687,4.5385065,27.490177,-16.308462,19.036932,-2.980134,-7.04258,-12.642481,-2.7658525
24,29.207441329956055,26.172346115112305,79.85613250732422,0.34681670001715,-2.8480684641165595,56.519236369078556,10.8069315,17.967201,11.698041,70.68935,8.86663,0.30668867,-18.047579,-8.613007,-26.546694,24.346565,7.4532113,-4.8530455,-5.0746846,-0.6263066,7.136945,12.686671,20.599192,-21.868496,-1.6348319,9.026293,-6.4105916,4.8584895,25.859121,-16.629288,19.422874,-3.0181494,-6.615541,-12.642747,-2.933076
25,30.402904510498047,27.17909812927246,79.35101318359375,-0.1698945205881742,-2.985171859318823,56.01210390738341,9.044687,19.335733,10.719954,75.767944,7.6518273,1.1489754,-17.261013,-7.6322007,-26.955679,25.856024,3.8759916,-5.966005,-4.370946,-0.108822055,7.4289985,13.733321,20.488682,-21.449364,-0.7416198,8.311683,-6.7052484,5.2287874,24.087118,-16.996298,19.834162,-3.055845,-6.2186437,-12.634756,-3.098389
26,31.5678653717041,28.202390670776367,78.746826171875,-0.6944867436626568,-3.248409420761414,55.48549654836332,7.2349157,20.539778,9.479071,80.949585,6.633614,1.9886658,-16.344868,-6.554975,-26.70951,27.720537,-1.0836024,-6.6249337,-3.6580644,0.41219512,7.886472,14.768289,20.411919,-20.971611,0.07640409,7.4921517,-6.9731193,5.6412134,22.158627,-17.405226,20.286137,-3.0781145,-5.8262467,-12.625829,-3.2749164
27,32.699607849121094,29.19124412536621,78.08841705322266,-1.2566361303797697,-3.553265069616813,54.95835888114952,5.2715087,21.588614,8.005612,86.1108,5.703723,2.7724645,-15.474291,-5.416234,-26.181887,29.805237,-6.3809724,-7.0794344,-2.9507694,0.9719631,8.414628,15.77812,20.363821,-20.47449,0.8738201,6.593585,-7.245139,6.0999804,20.081396,-17.851965,20.782862,-3.1049874,-5.3869233,-12.610587,-3.4919605
28,33.80364990234375,30.120853424072266,77.43057250976562,-1.8686614484495012,-3.821226317519422,54.47156934042033,3.0632741,22.487478,6.3175178,91.09012,4.7633023,3.4751444,-14.741635,-4.2482505,-25.777018,31.856543,-10.937181,-7.5585275,-2.2812672,1.5815601,8.92358,16.742699,20.337494,-20.00241,1.7126626,5.644244,-7.552104,6.608533,17.869663,-18.332865,21.320189,-3.164308,-4.8510785,-12.584184,-3.7783887
29,34.8795166015625,31.013675689697266,76.75994873046875,-2.5418201514823036,-3.9936286836013384,54.05948276149339,0.47532552,23.198753,4.3145895,95.97675,3.8255713,4.1165576,-14.206649,-3.069882,-25.608274,33.82914,-14.541082,-8.131023,-1.6765182,2.2458687,9.3561535,17.624344,20.3351,-19.54778,2.6297684,4.5964894,-7.930055,7.1270247,15.484104,-18.846483,21.931278,-3.2544265,-4.1499777,-12.550938,-4.189163
30,35.94358444213867,31.904151916503906,76.11285400390625,-3.2592947463848305,-4.124045986662806,53.70046871564334,-2.389819,23.667755,2.033665,100.820145,2.9368045,4.678331,-13.7700815,-1.9182926,-25.475079,35.84616,-17.769085,-8.664187,-1.1213852,2.9493766,9.7729,18.443718,20.358036,-19.093266,3.5879917,3.455953,-8.356913,7.663266,12.93795,-19.386482,22.606209,-3.3801134,-3.3282804,-12.515734,-4.694908
31,37.02467346191406,32.81370544433594,75.48936462402344,-3.98352054359743,-4.307718159655228,53.35043841761575,-5.282055,23.932512,-0.2774734,105.41785,2.032921,5.143196,-13.256787,-0.814676,-25.326323,37.813305,-20.685131,-9.090368,-0.5763206,3.6633995,10.262054,19.255419,20.395454,-18.675583,4.5511003,2.3342357,-8.776398,8.29513,10.320702,-19.94136,23.271315,-3.5683222,-2.5089045,-12.472161,-5.1967087
32,38.10936737060547,33.74064636230469,74.87877655029297,-4.6791528696275675,-4.64103715315383,52.966698256424465,-7.980172,24.07593,-2.417319,109.56014,1.0596187,5.486557,-12.503442,0.25212735,-25.120867,39.621223,-23.322908,-9.346382,0.0011205245,4.3672953,10.907196,20.098305,20.429482,-18.336838,5.499779,1.3442153,-9.132918,9.105654,7.7172246,-20.49995,23.853718,-3.8298278,-1.8173053,-12.40878,-5.5931745
33,39.16312026977539,34.64118194580078,74.29503631591797,-5.414058807528378,-5.208227383415123,52.53632357473175,-10.411689,24.227636,-4.446053,113.24654,-0.030901572,5.678326,-11.425683,1.4072835,-24.919794,41.23355,-25.566702,-9.40044,0.62880975,5.137656,11.789959,20.935692,20.4451,-18.092615,6.538582,0.5396106,-9.416332,10.2146435,5.077531,-21.069464,24.36323,-4.1023555,-1.2200347,-12.3284645,-5.846828
34,40.1903076171875,35.535369873046875,73.7827377319336,-6.1782292708626985,-5.939943639392572,52.09019972970148,-12.717149,24.35435,-6.4396796,116.58593,-1.1954783,5.7690926,-10.113046,2.6109269,-24.741785,42.69046,-27.422081,-9.303189,1.2703841,5.9732213,12.840446,21.745934,20.439838,-17.920427,7.6607976,-0.14105505,-9.658376,11.549806,2.3686912,-21.651379,24.842838,-4.389167,-0.6722281,-12.231178,-6.0144773
35,41.19321823120117,36.43758773803711,73.33788299560547,-6.827095859265364,-6.704280864235616,51.64790145013032,-15.022896,24.348608,-8.233258,119.516365,-2.3409667,5.8889523,-8.67105,3.6682158,-24.505388,43.96873,-29.077011,-9.112965,1.8963251,6.7343354,13.91532,22.59103,20.418869,-17.808243,8.6828575,-0.757929,-9.862689,12.908745,-0.310831,-22.224472,25.26428,-4.7720428,-0.28701264,-12.099337,-6.132559
36,42.19124221801758,37.3647346496582,72.96276092529297,-7.219079983090206,-7.366427201222098,51.2222155619238,-17.46631,24.104027,-9.661766,121.96779,-3.3585036,6.1666,-7.2076397,4.40261,-24.150375,45.0328,-30.714197,-8.8856125,2.4949193,7.2713876,14.874049,23.532394,20.395876,-17.74941,9.424287,-1.374436,-10.030959,14.089882,-2.8565264,-22.757378,25.583439,-5.3228416,-0.18506931,-11.916541,-6.234249
37,43.181575775146484,38.296173095703125,72.63145446777344,-7.289258751868598,-7.929380075703213,50.81966493349134,-20.133455,23.617285,-10.659553,123.94607,-4.2091284,6.764932,-5.6989546,4.7610855,-23.698538,45.87436,-32.41477,-8.6389065,3.0628495,7.4976306,15.739004,24.626638,20.3851,-17.719496,9.787612,-1.9140466,-10.110396,15.118115,-5.2955384,-23.234982,25.77386,-6.0341177,-0.52475345,-11.653359,-6.3308177
38,44.15695571899414,39.24105453491211,72.33926391601562,-7.12996751610596,-8.452739426579136,50.423269671778485,-22.961697,22.980507,-11.308254,125.4715,-4.920343,7.6006074,-4.091605,4.8881035,-23.215496,46.47926,-34.05732,-8.353539,3.618559,7.5036693,16.57327,25.84005,20.393751,-17.72672,9.87942,-2.3821862,-10.111992,16.078136,-7.683078,-23.657497,25.867468,-6.840171,-1.2085093,-11.3272295,-6.396139
39,45.10678482055664,40.20937728881836,72.1096420288086,-6.835988820421121,-8.886584001181001,50.00805846643213,-25.852173,22.233322,-11.649413,126.49081,-5.482157,8.429521,-2.450031,4.8920083,-22.706408,46.806503,-35.522984,-8.025499,4.192439,7.398393,17.29859,27.095142,20.425928,-17.816631,9.830529,-2.961301,-10.135169,16.857574,-9.957572,-24.018795,25.895548,-7.7169976,-1.9739958,-10.994165,-6.408504
40,46.03626251220703,41.17946243286133,71.9366226196289,-6.499158898924827,-9.179837915507226,49.55113203585302,-28.70212,21.419487,-11.728317,126.94949,-5.8931003,9.010499,-0.84420085,4.8565416,-22.162,46.824345,-36.695034,-7.6408715,4.8136344,7.2881436,17.832268,28.306305,20.484722,-18.040586,9.778072,-3.8311121,-10.281445,17.341915,-12.05209,-24.309467,25.882498,-8.644228,-2.5626485,-10.710613,-6.3507614
41,46.95696258544922,42.16288375854492,71.8489990234375,-6.123957970941701,-9.312666063647658,49.02682578979667,-31.531816,20.553078,-11.509343,126.812904,-6.214887,9.259171,0.6974209,4.7617283,-21.559402,46.533966,-37.590195,-7.17947,5.5026755,7.181819,18.147617,29.461184,20.579025,-18.442825,9.711778,-5.2399673,-10.626532,17.381458,-13.990579,-24.52337,25.798805,-9.616856,-2.8931494,-10.508601,-6.1733384
42,47.89826583862305,43.18006896972656,71.85067749023438,-5.667360146848522,-9.31618448576415,48.452125387225024,-34.346867,19.637182,-10.960382,126.09808,-6.439657,9.305519,2.2208867,4.558797,-20.91027,45.95641,-38.262917,-6.6534414,6.2455034,7.018645,18.294762,30.594328,20.71313,-18.993954,9.578961,-7.0335093,-11.085152,17.065113,-15.802494,-24.662655,25.639679,-10.631505,-3.1137624,-10.353531,-5.9019976
43,48.86308670043945,44.234039306640625,71.9349136352539,-5.153813276584278,-9.215420389934827,47.872811224271636,-37.027687,18.680832,-10.166324,124.838875,-6.461804,9.211141,3.7589364,4.2759023,-20.248627,45.093567,-38.653698,-6.0858216,7.012501,6.7988024,18.302134,31.692701,20.875881,-19.630602,9.4515,-8.780704,-11.524343,16.642408,-17.428333,-24.730743,25.46423,-11.670562,-3.3084466,-10.203422,-5.6367435
44,49.838470458984375,45.3011360168457,72.09352111816406,-4.609711856886686,-9.035637028203235,47.33569555304491,-39.465145,17.686207,-9.225838,123.074005,-6.180621,9.038448,5.339677,3.9439163,-19.608046,43.94693,-38.701668,-5.4955573,7.765853,6.522995,18.196419,32.750828,21.045137,-20.279444,9.401827,-10.036428,-11.831338,16.378979,-18.812181,-24.732414,25.337336,-12.715995,-3.5594594,-10.013354,-5.476265
45,50.83156967163086,46.402626037597656,72.32452392578125,-4.022112838842697,-8.772780612261727,46.83973638851211,-41.642063,16.535912,-8.181185,120.774605,-5.6020093,8.713211,6.9969096,3.5589817,-18.969465,42.433308,-38.423977,-4.893301,8.496803,6.177891,17.97267,33.773754,21.20568,-20.954947,9.471601,-10.551827,-11.952794,16.374458,-19.93865,-24.661123,25.27418,-13.784557,-3.9037678,-9.757487,-5.4968123
46,51.825828552246094,47.52801513671875,72.62364196777344,-3.3889225801973337,-8.411783276103646,46.36923218017052,-43.59787,15.264606,-7.02737,117.92886,-4.808142,8.207014,8.695713,3.1078,-18.32699,40.58061,-37.83737,-4.26006,9.208377,5.762732,17.620478,34.76142,21.352613,-21.677334,9.62415,-10.597504,-11.96205,16.486244,-20.850641,-24.51491,25.250633,-14.868901,-4.2925677,-9.461349,-5.6287723
47,52.84104919433594,48.67536544799805,72.98626708984375,-2.7494220143726804,-7.96391957796237,45.95040976413177,-45.309254,14.093516,-5.7706943,114.60498,-3.8061671,7.6665916,10.362081,2.609821,-17.726828,38.551308,-36.879498,-3.5714312,9.879926,5.297406,17.15908,35.705227,21.476896,-22.378857,9.809824,-10.502852,-11.949659,16.621574,-21.551556,-24.308964,25.265003,-15.940823,-4.684947,-9.158071,-5.753372
48,53.8628044128418,49.85115051269531,73.40708923339844,-2.1330761052887177,-7.439265521265345,45.610940734198174,-46.745445,13.222203,-4.37564,110.86741,-2.5865417,7.2380714,11.920274,2.0798137,-17.204668,36.517864,-35.49438,-2.8098407,10.488192,4.7985086,16.607948,36.599464,21.565397,-22.989685,9.976481,-10.59492,-12.006688,16.685415,-22.041695,-24.069548,25.315964,-16.982075,-5.0387487,-8.882406,-5.754006
49,54.897796630859375,51.036460876464844,73.87625122070312,-1.5204489687625018,-6.80414602327426,45.380840359798036,-47.942852,12.701119,-2.7584448,106.68066,-1.0723981,7.009647,13.384271,1.5062412,-16.745546,34.397236,-33.655037,-1.9030641,11.017981,4.236002,15.941678,37.436253,21.606909,-23.512121,10.140976,-10.967768,-12.174435,16.663252,-22.289478,-23.81526,25.386013,-18.03681,-5.3248296,-8.636189,-5.589239
50,55.9441032409668,52.236263275146484,74.39080810546875,-0.8952543897616977,-6.062920032611536,45.24574448919271,-48.86957,12.362242,-0.92500764,102.027695,0.7006749,6.860715,14.771774,0.88941205,-16.313389,32.155018,-31.408422,-0.8893405,11.474622,3.6075943,15.162911,38.215103,21.598492,-23.977907,10.326903,-11.44057,-12.39913,16.599768,-22.28996,-23.553644,25.47555,-19.123404,-5.5671988,-8.403558,-5.3278995
51,57.003849029541016,53.44886016845703,74.9417724609375,-0.297458007346232,-5.288820623551821,45.166359846628076,-49.410507,12.071172,1.0370269,96.9959,2.5914788,6.637397,16.014832,0.2623104,-15.9075165,30.047178,-28.819162,0.08490923,11.868618,2.9775631,14.331455,38.93977,21.53995,-24.362381,10.491818,-11.929366,-12.629993,16.488716,-22.079082,-23.29516,25.608786,-20.19227,-5.804882,-8.19399,-5.019306
52,58.056034088134766,54.6783447265625,75.52212524414062,0.22564352315129757,-4.554251023465979,45.100341416439385,-49.489994,11.702802,2.9796731,91.65782,4.4773607,6.1767917,17.048557,-0.33717456,-15.534207,28.33257,-25.94622,0.8817477,12.214128,2.4188254,13.504961,39.61816,21.431211,-24.639961,10.589412,-12.349524,-12.816198,16.325094,-21.696178,-23.051392,25.810968,-21.185064,-6.0743537,-8.016877,-4.7121367
53,59.11457061767578,55.933387756347656,76.12370300292969,0.6774230232960015,-3.8252214253345214,45.023087292655866,-49.105644,11.39029,4.9891906,85.91115,6.390774,5.4975414,17.83428,-0.9097176,-15.189943,26.982979,-22.628532,1.4723626,12.535971,1.9365722,12.648081,40.246887,21.265148,-24.834566,10.622307,-12.760671,-12.949341,16.114037,-21.12021,-22.833057,26.097616,-22.113207,-6.4039016,-7.878444,-4.3961535
54,60.198055267333984,57.20513916015625,76.73990631103516,1.0699076932348734,-3.082386338325989,44.96152751399196,-48.32058,11.080575,7.06744,79.74149,8.408358,4.634275,18.410715,-1.4662347,-14.855118,25.91019,-18.897577,1.960541,12.821091,1.5093353,11.74488,40.818947,21.037401,-24.951998,10.61455,-13.178769,-13.054571,15.856705,-20.33185,-22.646288,26.446285,-23.009766,-6.764186,-7.7726974,-4.0539145
55,61.29514694213867,58.49306106567383,77.35135650634766,1.3692342837060658,-2.420997931579594,44.93450167090799,-47.19407,10.474696,8.883895,73.32157,10.4616785,3.5113971,18.85169,-1.9731476,-14.520779,25.230883,-15.067344,2.4124854,13.045917,1.1720076,10.8819275,41.33771,20.756731,-24.939802,10.547957,-13.4547415,-13.132447,15.543778,-19.368181,-22.490576,26.821852,-23.852177,-7.106507,-7.6896,-3.7237365
56,62.412559509277344,59.79296112060547,77.94441986083984,1.5443830771204703,-1.9364553975192065,44.952595470742416,-45.79389,9.381732,10.08132,66.807655,12.453816,2.1182156,19.239698,-2.3838782,-14.184156,25.03615,-11.424899,2.8810246,13.196131,0.9543526,10.145854,41.814472,20.440601,-24.741964,10.393998,-13.442426,-13.184563,15.166225,-18.272192,-22.359463,27.191013,-24.614964,-7.382452,-7.618511,-3.443255
57,63.54716491699219,61.101192474365234,78.50822448730469,1.5782422900295034,-1.661542409435261,45.01845645507261,-44.062664,7.678289,10.314162,59.965015,14.340167,0.46382263,19.632557,-2.643784,-13.856519,25.208927,-7.8118105,3.3740287,13.28125,0.8701796,9.550514,42.274624,20.104301,-24.333931,10.120119,-13.032638,-13.195603,14.733796,-17.007347,-22.247011,27.570185,-25.310305,-7.5755005,-7.561667,-3.2542274
58,64.71583557128906,62.41984939575195,79.03489685058594,1.4856212199554064,-1.5449710134280021,45.10414807826709,-41.95581,5.7399945,9.797633,52.75742,16.11231,-1.2857817,20.005552,-2.751887,-13.520688,25.661694,-4.0903172,3.9072013,13.332936,0.90451527,9.052735,42.713604,19.751228,-23.745522,9.730296,-12.332145,-13.174348,14.247843,-15.569984,-22.151445,27.96572,-25.944508,-7.7137704,-7.522408,-3.1246443
59,65.93605041503906,63.7324333190918,79.50604248046875,1.2943535915458448,-1.5531261346294698,45.182437568900816,-39.584816,4.057591,9.064692,45.6517,17.754633,-2.9476085,20.321327,-2.7436383,-13.157549,26.518225,-0.5790048,4.506928,13.361551,1.034001,8.653953,43.096767,19.380268,-23.003218,9.249988,-11.51821,-13.159452,13.686047,-14.054075,-22.070322,28.329088,-26.477297,-7.813712,-7.491958,-2.9817963
60,67.18992614746094,65.04448699951172,79.91039276123047,1.038766124358917,-1.6500509444967737,45.234713348077065,-37.110424,2.9233544,8.688896,39.093067,19.334251,-4.4726014,20.524542,-2.6788495,-12.77277,27.938274,2.3856943,5.1531453,13.369181,1.2297074,8.354348,43.387268,18.988163,-22.13564,8.708292,-10.767053,-13.18736,13.0275545,-12.548467,-21.99955,28.608973,-26.874172,-7.891464,-7.461611,-2.753466
61,68.44766998291016,66.35188293457031,80.242919921875,0.6584548015759385,-1.8916329076494178,45.246635716190454,-34.439594,2.292152,8.743978,32.96127,20.974539,-6.141614,20.650606,-2.5272353,-12.4120245,30.026497,4.7830896,5.8132644,13.365907,1.5587302,8.188846,43.618446,18.571804,-21.09761,8.06426,-10.051934,-13.294889,12.170636,-11.043464,-21.937265,28.802893,-27.142126,-7.9197454,-7.428498,-2.3845487
62,69.68003845214844,67.63945007324219,80.49180603027344,0.14167720443292264,-2.284023380498639,45.241788612555574,-31.527817,1.9417157,8.978748,27.028538,22.666084,-7.958056,20.704342,-2.2986631,-12.089579,32.729546,6.7548156,6.4263716,13.339456,2.0311394,8.148861,43.786995,18.128874,-19.895153,7.3224072,-9.306865,-13.459015,11.159634,-9.500815,-21.881699,28.93604,-27.296568,-7.900193,-7.397186,-1.9253273
63,70.87711334228516,68.910888671875,80.65634155273438,-0.39764582874163923,-2.712878136022263,45.26399456915006,-28.664766,1.7601641,9.493503,21.64032,24.296282,-9.5524645,20.57495,-2.1236036,-11.784566,36.004417,8.18989,6.923569,13.248367,2.5255845,8.1673975,43.806156,17.658478,-18.63083,6.581391,-8.644518,-13.618464,10.193477,-7.972578,-21.82959,29.002256,-27.304806,-7.892122,-7.370433,-1.4600208
64,72.04707336425781,70.15497589111328,80.7554931640625,-0.8261749038100319,-3.0531748178248104,45.358636544062854,-26.18402,1.6227988,10.403956,17.240782,25.715322,-10.549791,20.157911,-2.100161,-11.478512,39.77057,8.986839,7.294058,13.047932,2.8993917,8.17375,43.591118,17.165037,-17.404898,5.9424963,-8.173442,-13.703095,9.469792,-6.512991,-21.776316,28.995358,-27.135597,-7.954128,-7.352162,-1.0733792
65,73.19513702392578,71.38360595703125,80.79780578613281,-1.0961395804820635,-3.2694573055078013,45.53826470220552,-24.173857,1.4815916,11.901289,13.956913,27.010323,-11.048562,19.405947,-2.1952024,-11.1314335,44.156284,8.866361,7.6536508,12.716552,3.0956714,8.149832,43.14929,16.647932,-16.205284,5.3930335,-7.9616575,-13.686181,9.01763,-5.128293,-21.715834,28.912817,-26.773504,-8.118275,-7.3427157,-0.75975376
66,74.32251739501953,72.60301208496094,80.77761840820312,-1.2507339652480733,-3.4190333572600378,45.79720848111086,-22.512945,1.3103751,13.89401,11.64165,28.179714,-11.211788,18.366484,-2.387389,-10.795962,49.213238,7.9198923,7.993358,12.258915,3.1636233,8.129923,42.511574,16.109583,-14.985182,4.90208,-7.9351068,-13.600527,8.738165,-3.7988758,-21.642448,28.764952,-26.22816,-8.34781,-7.3418427,-0.48496598
67,75.4461441040039,73.82433319091797,80.69233703613281,-1.2553550677904404,-3.5045166589980354,46.1510754531194,-21.235395,1.040622,16.110302,10.372915,28.907524,-10.725064,17.089956,-2.7941968,-10.571726,54.695515,6.638797,8.161016,11.671753,3.0780208,8.117654,41.635517,15.569463,-13.786158,4.5389323,-7.989007,-13.462541,8.635894,-2.5435727,-21.552425,28.564692,-25.500252,-8.598165,-7.3527427,-0.29090318
68,76.56303405761719,75.04794311523438,80.53018951416016,-1.0786682726427512,-3.5305126385043146,46.60787180801229,-20.370708,0.64779115,18.281988,10.231269,28.870224,-9.267633,15.650665,-3.5493472,-10.52414,60.313606,5.5558805,7.9943705,10.967255,2.815839,8.115458,40.48913,15.059815,-12.652962,4.358675,-8.02229,-13.289905,8.715653,-1.3708625,-21.444992,28.316164,-24.59777,-8.825058,-7.3776593,-0.21889184
69,77.70806884765625,76.25796508789062,80.30586242675781,-0.5997732027789261,-3.4166314990828726,47.198389825649485,-20.173937,0.11235447,20.563534,11.618809,28.182049,-6.251625,13.941218,-4.8137655,-10.60654,66.149605,4.8240943,7.3854275,10.126093,2.2432249,8.064132,39.029716,14.601334,-11.590346,4.393423,-8.084103,-13.081846,9.024167,-0.275122,-21.319824,28.000256,-23.528612,-9.041788,-7.3934035,-0.30434984
70,78.76355743408203,77.42942810058594,80.06318664550781,0.08308619232233673,-3.2079354466258736,47.8861377803128,-20.514055,-0.42253432,23.007687,14.345925,26.956074,-2.0171375,12.036655,-6.416954,-10.726898,72.22644,4.2064953,6.4358854,9.185677,1.4656038,7.970877,37.319485,14.201988,-10.576857,4.5734496,-8.21082,-12.831092,9.546897,0.7640543,-21.177547,27.61085,-22.297468,-9.262773,-7.405126,-0.5155533
71,79.76148986816406,78.5847396850586,79.77687072753906,0.6972329032738948,-3.086340669567056,48.58639367113294,-20.847412,-0.84138316,25.099922,17.576982,24.87455,2.3222294,10.262644,-8.074672,-10.908267,78.21134,3.6278696,5.2664404,8.238165,0.78496003,7.9487996,35.472813,13.878338,-9.622628,4.8056054,-8.285656,-12.544385,10.195196,1.7676646,-21.021658,27.164408,-20.920668,-9.447312,-7.4576635,-0.7947885
72,80.78555297851562,79.75666809082031,79.38584899902344,1.0670130374491762,-3.2053945173807765,49.24616403847516,-20.674007,-1.2207476,26.276527,20.494144,21.584257,5.647677,8.893202,-9.656353,-11.215352,83.85526,2.955305,3.9907308,7.347296,0.38800442,8.121935,33.57723,13.65341,-8.743282,5.016769,-8.195484,-12.225251,10.877185,2.7587266,-20.854313,26.67067,-19.417452,-9.555067,-7.5983043,-1.0871358
73,81.89622497558594,80.92938995361328,78.85836029052734,1.1379233608213801,-3.662134787344611,49.88559207054388,-19.8253,-1.6135153,26.077894,23.119596,16.268667,7.59509,8.168032,-11.309192,-11.828112,89.1798,2.0612545,2.5430818,6.4963074,0.31069273,8.582478,31.6417,13.552949,-7.9365897,5.200549,-7.9513693,-11.8557205,11.596133,3.7794538,-20.677599,26.093782,-17.848549,-9.575765,-7.794335,-1.322414
74,83.01512908935547,82.09742736816406,78.2505874633789,1.0693845519614307,-4.3424697299236374,50.54118961176549,-18.619602,-2.0547204,24.82425,25.832098,9.329121,8.752046,7.905282,-13.200113,-12.628768,94.373726,0.9559103,0.8469037,5.660341,0.3704692,9.259642,29.604753,13.584489,-7.2212367,5.4023857,-7.614758,-11.435065,12.389366,4.8313804,-20.498856,25.419357,-16.210064,-9.529084,-8.03711,-1.5502746
75,84.07289123535156,83.22897338867188,77.62706756591797,1.0175971089643872,-5.069303002445498,51.200256190124975,-17.311129,-2.5867498,23.187878,28.419859,2.1921847,9.468262,7.701615,-15.215307,-13.268577,99.413506,-0.25528193,-0.9672733,4.8729386,0.40808192,10.017427,27.439964,13.7416935,-6.641864,5.640797,-7.14401,-10.989874,13.214572,5.855011,-20.304756,24.690062,-14.394847,-9.432129,-8.412616,-1.8882029
76,85.03832244873047,84.3271484375,77.04084777832031,1.1270080873655601,-5.667590713711156,51.82928427358502,-16.144,-3.251329,21.85483,30.672964,-3.7276025,10.07791,7.087024,-17.164577,-13.396988,104.268845,-1.4221307,-2.7143579,4.1705775,0.2967986,10.71322,25.133379,13.9966545,-6.224124,5.9220276,-6.4925485,-10.546621,14.028335,6.7894926,-20.105247,23.965954,-12.303032,-9.299591,-9.005796,-2.4601583
77,85.96285247802734,85.37824249267578,76.48284149169922,1.4508356430189984,-6.069042622593828,52.403784858160954,-15.146201,-4.0728207,21.007616,32.41757,-8.078787,10.562823,5.853213,-19.00351,-12.943723,109.005974,-2.4456935,-4.4409523,3.5809932,0.012928342,11.294586,22.607103,14.332209,-6.011155,6.330722,-5.590776,-10.076316,14.9077835,7.6012053,-19.901363,23.257626,-9.816752,-9.15258,-9.92679,-3.4196699
78,86.9027099609375,86.41382598876953,75.92141723632812,1.9038537929932202,-6.371270165108707,52.94088724322926,-14.189248,-4.9443674,20.343977,33.84167,-11.653983,10.783675,4.2271943,-20.764042,-12.090092,113.61997,-3.4030871,-6.180374,3.073295,-0.36305025,11.832845,19.897486,14.739754,-5.9713717,6.830354,-4.4816914,-9.567482,15.84223,8.33123,-19.69765,22.53861,-7.0257773,-8.997645,-11.102741,-4.661183
79,87.89647674560547,87.46318817138672,75.3509750366211,2.40313589404002,-6.648732695435233,53.4568181630301,-13.269915,-5.767563,19.799326,35.23455,-14.770837,10.889939,2.3570178,-22.324547,-10.9282,117.96287,-4.365125,-7.7425656,2.6016886,-0.7740491,12.365815,17.167734,15.196887,-6.009288,7.2431617,-3.277198,-9.079014,16.657225,9.017908,-19.500519,21.81985,-4.125536,-8.820583,-12.346903,-5.917405
80,88.8707046508789,88.58655548095703,74.82237243652344,2.858805533104883,-6.975116136680571,53.965408924396925,-12.401003,-6.4643545,19.29446,36.884243,-17.733263,11.043919,0.38115704,-23.547306,-9.51694,121.87946,-5.383884,-8.891578,2.1156456,-1.1587709,12.92904,14.575963,15.675746,-6.0263467,7.406008,-2.0755367,-8.680925,17.18032,9.684791,-19.314491,21.123962,-1.2963109,-8.586927,-13.470512,-6.9195595
81,89.81212615966797,89.63105010986328,74.26382446289062,3.2768887670606355,-7.384120982744634,54.44726907087051,-11.642581,-7.0597167,18.917007,38.989315,-20.5594,11.379557,-1.7164907,-24.39342,-7.854764,125.406815,-6.492514,-9.613356,1.6039251,-1.520982,13.549693,12.142542,16.157642,-5.988706,7.2874603,-0.76235086,-8.437546,17.310299,10.265714,-19.142138,20.47262,1.5851128,-8.19712,-14.473884,-7.5935326
82,90.75365447998047,90.68737030029297,73.71510314941406,3.6807473734388028,-7.828300516913662,54.893099998298034,-10.972767,-7.5733867,18.682373,41.36164,-23.124628,11.802598,-4.005276,-24.896349,-5.964036,128.6202,-7.6272626,-10.013559,1.0891955,-1.8687792,14.19713,9.786193,16.63894,-5.94144,6.9826813,0.6870635,-8.31194,17.158506,10.75858,-18.987255,19.862326,4.570296,-7.6885247,-15.439908,-8.079736
83,91.6578598022461,91.68199157714844,73.22107696533203,4.00949251593426,-8.265338086006176,55.33451913338226,-10.277285,-7.9632735,18.412447,43.67402,-25.480392,12.134637,-6.4071593,-25.15019,-4.0842366,131.42026,-8.709922,-10.209093,0.5741267,-2.1540272,14.82516,7.502293,17.120188,-5.917371,6.5312977,2.0391746,-8.225104,16.872574,11.280831,-18.852629,19.276524,7.377556,-7.216546,-16.300137,-8.433912
84,92.55677795410156,92.70691680908203,72.82074737548828,4.2157477867408994,-8.653799941107536,55.80946299416779,-9.442773,-8.212891,17.953335,45.59105,-27.65817,12.188913,-8.868503,-25.286642,-2.4253662,133.7036,-9.653707,-10.324451,0.05680628,-2.3413877,15.390461,5.2843914,17.602274,-5.956016,5.9730563,3.0554473,-8.088535,16.597754,11.94745,-18.739208,18.69738,9.728101,-6.9375424,-16.985357,-8.718447
85,93.46204376220703,93.71446228027344,72.47247314453125,4.30799184631204,-9.016404895185604,56.37691987362293,-8.406154,-8.379292,17.273037,47.016068,-29.617615,11.87169,-11.407248,-25.396643,-1.020335,135.42981,-10.3979845,-10.35538,-0.48239243,-2.4413154,15.936388,3.0791326,18.08568,-6.093211,5.318924,3.6295154,-7.891117,16.331112,12.792515,-18.637163,18.067413,11.5787115,-6.9911137,-17.442457,-8.936731
86,94.41372680664062,94.69564056396484,72.17411804199219,4.317996617874647,-9.36809610766364,57.0070896242101,-7.221557,-8.490396,16.500463,48.106075,-31.341858,11.304323,-14.084737,-25.449411,0.2320094,136.66034,-10.955726,-10.289106,-1.0323735,-2.483595,16.47326,0.888343,18.566004,-6.324364,4.5628033,3.8977416,-7.6741943,16.014034,13.754459,-18.538544,17.407543,13.078042,-7.254913,-17.718044,-9.063045
87,95.3701171875,95.66234588623047,71.89785766601562,4.240092638923293,-9.657118246462277,57.608336881184,-5.953246,-8.490464,15.725333,48.90961,-32.89412,10.61873,-16.921906,-25.41411,1.3380603,137.43016,-11.346263,-10.2340555,-1.5610915,-2.4639044,16.912207,-1.1960586,19.034105,-6.6184163,3.708166,3.990639,-7.4216228,15.704288,14.794944,-18.453972,16.822704,14.240036,-7.4966326,-17.893784,-9.118737
88,96.36929321289062,96.63107299804688,71.66841125488281,4.0661027841518145,-9.83281574137924,58.08854355076919,-4.671801,-8.309027,15.024356,49.483013,-34.337704,9.943097,-19.921005,-25.245651,2.292734,137.76956,-11.596387,-10.28834,-2.0422432,-2.3661058,17.169611,-3.0731328,19.481958,-6.9293675,2.7487032,4.042447,-7.118552,15.455877,15.877643,-18.41011,16.42031,15.067534,-7.482523,-18.05105,-9.126365
89,97.37922668457031,97.62700653076172,71.48654174804688,3.7472017398196296,-9.856862924689475,58.39822202925838,-3.4342048,-7.8462906,14.421743,49.894634,-35.747364,9.264322,-23.164831,-24.839233,3.0714645,137.66925,-11.71505,-10.4673,-2.4482105,-2.1201825,17.211823,-4.7211256,19.903868,-7.2288327,1.632943,4.055157,-6.718614,15.334635,17.018572,-18.44352,16.244043,15.461829,-7.0817947,-18.191603,-9.066346
90,98.37689208984375,98.64266204833984,71.3650894165039,3.298152143069441,-9.77513307310278,58.60056211470205,-2.1763563,-7.16347,13.880376,50.0994,-37.07824,8.532843,-26.558468,-24.23984,3.6232765,137.10089,-11.697916,-10.711976,-2.819094,-1.7371494,17.109407,-6.1759944,20.298588,-7.5262175,0.36222413,3.9706078,-6.2434964,15.293215,18.22997,-18.565363,16.238955,15.438074,-6.430196,-18.276724,-8.935295
91,99.3768081665039,99.66541290283203,71.3081283569336,2.807273971264503,-9.656003615450391,58.769366097504275,-0.7967219,-6.4160357,13.369249,49.981625,-38.20437,7.814304,-29.833794,-23.624968,3.9120884,136.0701,-11.570682,-11.004558,-3.2227786,-1.3194008,16.930117,-7.418905,20.670328,-7.8286166,-0.9944664,3.8376522,-5.781792,15.214637,19.466188,-18.757654,16.357569,15.174125,-5.7006264,-18.327991,-8.779387
92,100.40619659423828,100.72969055175781,71.341552734375,2.3625633893644493,-9.561951766609663,58.97671183866552,0.7929222,-5.7530174,12.852822,49.427624,-38.99205,7.1693544,-32.750492,-23.184916,3.9404807,134.5954,-11.368445,-11.330186,-3.7250705,-0.9770028,16.731737,-8.429993,21.028925,-8.139672,-2.3678215,3.7048123,-5.421756,14.980851,20.670616,-18.983276,16.55706,14.863443,-5.072576,-18.36988,-8.646359
93,101.45606994628906,101.81375885009766,71.45410919189453,1.979799734352817,-9.521518445014983,59.25683305333218,2.6618633,-5.201602,12.2973585,48.3362,-39.44894,6.6490555,-35.222675,-22.97612,3.6947517,132.64963,-11.1790285,-11.668626,-4.3525352,-0.747908,16.527412,-9.200713,21.390482,-8.4477825,-3.7850597,3.5623918,-5.1777864,14.525612,21.82571,-19.223122,16.878595,14.522183,-4.570528,-18.414629,-8.550539
94,102.53308868408203,102.91032409667969,71.6255874633789,1.6061121858003744,-9.48797120301894,59.558437342370745,4.726581,-4.6526585,11.733333,46.80191,-39.63115,6.1939907,-37.34663,-22.883898,3.1834586,130.24025,-11.01271,-12.003095,-5.055172,-0.56838197,16.27843,-9.736668,21.763248,-8.746948,-5.278383,3.389827,-5.0039644,13.925031,22.93912,-19.476336,17.330772,14.084443,-4.1174374,-18.44957,-8.466106
95,103.6422348022461,104.01774597167969,71.8582534790039,1.2290166495537436,-9.408453145617933,59.82547273619507,6.845843,-4.064132,11.216858,44.999123,-39.472294,5.6994195,-39.181923,-22.848013,2.4533386,127.43384,-10.78414,-12.343953,-5.78174,-0.39738175,15.960411,-10.041984,22.142408,-9.050043,-6.7805395,3.2223167,-4.898464,13.27361,23.997381,-19.72684,17.818874,13.620643,-3.742955,-18.461847,-8.381028
96,104.76739501953125,105.13439178466797,72.14710998535156,0.8338971574448879,-9.23393903357554,60.00311872104448,8.881019,-3.4012868,10.797374,43.103725,-38.90829,5.069576,-40.79016,-22.807014,1.5394164,124.29267,-10.397772,-12.704705,-6.472652,-0.19078955,15.55032,-10.136694,22.515692,-9.381546,-8.2071495,3.0994318,-4.8610806,12.665922,24.995703,-19.949001,18.236622,13.202452,-3.4825792,-18.439186,-8.283294
97,105.88983154296875,106.27664184570312,72.48805236816406,0.4070909028636132,-8.928646292246368,60.065569323516854,10.85075,-2.6693466,10.457062,41.01193,-37.920937,4.252556,-42.228966,-22.736788,0.42749834,120.81236,-9.785031,-13.135736,-7.100533,0.07822923,15.00984,-10.028525,22.88204,-9.768878,-9.538571,3.0530365,-4.923226,12.122974,25.935589,-20.128193,18.578382,12.857905,-3.4031997,-18.371744,-8.168491
98,107.03633880615234,107.4283218383789,72.87525177001953,-0.04594524084530843,-8.52404436716218,60.038697812086596,12.80117,-1.8932178,10.174963,38.684338,-36.543438,3.311614,-43.425472,-22.638351,-0.91179615,116.96713,-9.031079,-13.584859,-7.680489,0.3913157,14.357294,-9.7265,23.24613,-10.200966,-10.800214,3.0587375,-5.0754585,11.595067,26.820726,-20.261194,18.881649,12.555572,-3.4763587,-18.269617,-8.043135
99,108.18260955810547,108.57923126220703,73.30306243896484,-0.4973521726797189,-8.070380690996988,59.94405201119881,14.637792,-1.0885866,9.982368,36.402103,-34.80069,2.3371181,-44.271862,-22.496092,-2.4510777,112.77456,-8.253057,-13.91903,-8.217976,0.7184339,13.655667,-9.250649,23.599627,-10.645442,-11.97476,3.0759254,-5.256759,11.070563,27.654749,-20.336042,19.106367,12.27672,-3.5944014,-18.150856,-7.912323
100,109.33419799804688,109.73896789550781,73.760498046875,-0.9141985369573448,-7.61860955539078,59.805678075843865,16.26825,-0.27564824,9.90285,34.452778,-32.722183,1.4240682,-44.686413,-22.297039,-4.1337657,108.24775,-7.550728,-14.005138,-8.715846,1.0245361,12.965698,-8.630716,23.925394,-11.080043,-13.034047,3.0693038,-5.405101,10.537534,28.443829,-20.33638,19.206629,12.005371,-3.6522121,-18.032745,-7.781312
101,110.4935073852539,110.89303588867188,74.24641418457031,-1.2863795355702543,-7.142069187682447,59.622342728203975,17.662245,0.52798176,9.910553,32.854755,-30.235935,0.55077326,-44.683315,-22.174688,-6.0239015,103.33318,-6.9529505,-13.864471,-9.166883,1.3055283,12.263702,-7.887107,24.214746,-11.531719,-13.956951,3.0099325,-5.508895,9.989105,29.18231,-20.248495,19.178654,11.763872,-3.6168852,-17.932209,-7.659173
102,111.65473175048828,112.04681396484375,74.74771118164062,-1.6297545398362212,-6.629194403224884,59.383526728081705,18.871466,1.3151166,9.968831,31.484045,-27.364708,-0.31237274,-44.32138,-22.040743,-8.088583,98.032776,-6.3736167,-13.50464,-9.561987,1.5736413,11.524387,-7.0235395,24.46811,-12.017,-14.738702,2.9303272,-5.5986667,9.430693,29.869743,-20.06761,19.038706,11.563488,-3.551812,-17.836159,-7.54105
103,112.83737182617188,113.21981048583984,75.26905822753906,-1.9377956896127222,-6.154175111630275,59.10660147537927,19.939667,2.0797534,10.088427,30.40281,-24.270077,-1.0924346,-43.61775,-21.619883,-10.107004,92.41836,-5.7483487,-12.851472,-9.912755,1.8101829,10.807498,-6.0394297,24.677488,-12.494898,-15.374825,2.888753,-5.679759,8.869383,30.519705,-19.790037,18.776075,11.369141,-3.494246,-17.717009,-7.411992
104,114.04243469238281,114.3956298828125,75.80236053466797,-2.201699878783961,-5.794037578619973,58.81518974107419,20.918802,2.8155465,10.291097,29.66331,-21.098307,-1.7251637,-42.613056,-20.704252,-11.807823,86.54745,-5.02592,-11.8742695,-10.236968,1.993553,10.17418,-4.93355,24.830507,-12.922697,-15.861701,2.9447072,-5.759024,8.310925,31.146667,-19.415274,18.378048,11.1445055,-3.4815626,-17.54722,-7.257576
105,115.25406646728516,115.57457733154297,76.33782958984375,-2.4378679593986825,-5.558582419356594,58.51568674805991,21.835262,3.535923,10.623043,29.22474,-17.74505,-2.215577,-41.292717,-19.221317,-13.070457,80.24239,-4.27557,-10.64906,-10.548609,2.140153,9.640659,-3.6730506,24.91546,-13.284331,-16.200245,3.129916,-5.8484173,7.693619,31.75728,-18.93709,17.809921,10.886581,-3.5439885,-17.31605,-7.0461726
106,116.47566223144531,116.79550170898438,76.86927795410156,-2.6347963441582323,-5.413647113720376,58.210226932714676,22.682108,4.2218513,11.045938,29.041243,-14.149542,-2.6427639,-39.672474,-17.421183,-13.973729,73.511765,-3.5272171,-9.272571,-10.845627,2.2453995,9.172158,-2.2829394,24.929348,-13.614364,-16.376532,3.4114912,-5.9440017,7.032809,32.338856,-18.352615,17.085686,10.6176815,-3.655996,-17.039684,-6.7947345
107,117.7017593383789,118.02865600585938,77.37728881835938,-2.748503956826643,-5.368805603537913,57.91558037647044,23.464708,4.822207,11.473575,29.138016,-10.50874,-3.036134,-37.832233,-15.585227,-14.561251,66.6765,-2.6642485,-7.7492094,-11.122677,2.262518,8.754491,-0.8373796,24.87416,-13.941796,-16.368855,3.7526262,-6.0281873,6.4509587,32.87927,-17.672928,16.264755,10.332038,-3.7700438,-16.730608,-6.56182
108,118.94694519042969,119.29906463623047,77.84921264648438,-2.742825135812447,-5.430842588687087,57.64180781151664,24.168251,5.2999783,11.834476,29.568438,-7.0242205,-3.3851767,-35.852795,-13.926522,-14.912341,60.04706,-1.5427759,-6.0358496,-11.374477,2.154194,8.37443,0.6002656,24.75562,-14.285797,-16.165964,4.114222,-6.080982,6.070429,33.37238,-16.91876,15.410101,10.013511,-3.8353376,-16.40004,-6.4065733
109,120.20848083496094,120.57759857177734,78.2713623046875,-2.5771329908554548,-5.63533643157744,57.402744936039916,24.830004,5.601033,12.057623,30.305958,-3.6566858,-3.6559837,-33.632996,-12.36168,-14.9192705,53.388634,0.07214502,-3.87776,-11.636751,1.8736621,8.042524,2.0921793,24.568909,-14.652355,-15.771473,4.5094523,-6.0786896,5.9935517,33.858944,-16.09698,14.500506,9.615179,-3.8691397,-16.025602,-6.3708806
110,121.45956420898438,121.87495422363281,78.64585876464844,-2.2864116886117083,-5.964473347163867,57.18785167404064,25.440466,5.77132,12.215458,31.321604,-0.30220798,-3.8433366,-31.143888,-10.840992,-14.564097,46.579395,2.0328317,-1.4008515,-11.904677,1.46199,7.7589383,3.6537676,24.310936,-15.028763,-15.193936,4.9508233,-6.0351896,6.130817,34.329716,-15.207359,13.515406,9.1487665,-3.8824344,-15.608355,-6.414627
111,122.71571350097656,123.19418334960938,78.9566650390625,-1.9486218685105636,-6.342377060567414,56.963663821748014,25.910294,5.9480705,12.468318,32.68358,2.9209259,-3.9330285,-28.594463,-9.532825,-14.120874,40.11217,3.9612362,0.9453516,-12.109729,1.0156237,7.5001006,5.1660643,23.996212,-15.395738,-14.453002,5.3967915,-5.9860816,6.3180676,34.71123,-14.268722,12.520046,8.676407,-3.8146036,-15.194597,-6.4749985
112,123.97700500488281,124.53334045410156,79.2162857055664,-1.6447695369485777,-6.693903208374565,56.69365755633158,26.14923,6.2849193,12.98321,34.486984,5.873369,-3.8939614,-26.231054,-8.545009,-13.924465,34.534115,5.514735,2.753883,-12.186662,0.6300381,7.2495136,6.5219383,23.649206,-15.722825,-13.578596,5.799821,-5.9700685,6.394167,34.9351,-13.313744,11.584457,8.251264,-3.6022685,-14.830005,-6.4904766
113,125.22010803222656,125.8716812133789,79.41435241699219,-1.3636155159341754,-7.027396346676101,56.36812670105042,26.122303,6.8560033,13.873405,36.864788,8.63909,-3.5994177,-24.090368,-7.850911,-14.026293,29.91879,6.6572804,3.9929006,-12.133787,0.29277956,7.0070434,7.7405915,23.27962,-15.983211,-12.578232,6.1171703,-6.006162,6.3158135,35.025173,-12.357482,10.710369,7.8400016,-3.12968,-14.516941,-6.46554
114,126.45840454101562,127.16696166992188,79.533935546875,-1.0801353757234369,-7.377527864543097,55.995770446431756,25.906008,7.6707973,15.075334,39.763855,11.222813,-2.9883125,-22.066402,-7.321202,-14.317155,25.9899,7.5959845,4.916975,-11.983632,-0.030282175,6.7928977,8.888163,22.885378,-16.18488,-11.462276,6.3745112,-6.0721374,6.17247,35.009697,-11.403923,9.872508,7.416861,-2.455054,-14.2332,-6.42879
115,127.69633483886719,128.40440368652344,79.56636810302734,-0.8555038317286384,-7.708393982612343,55.56765300945556,25.586739,8.765799,16.47478,42.99665,13.352681,-2.158193,-20.221317,-6.8760686,-14.912365,22.822393,8.3538,5.568396,-11.723788,-0.2770715,6.6229777,9.93657,22.476236,-16.343483,-10.279702,6.6265736,-6.1425567,6.0037456,34.832905,-10.4776125,9.099535,7.039427,-1.7746092,-13.987536,-6.3528175
116,128.90093994140625,129.5910186767578,79.49871063232422,-0.745102800538197,-7.981318182772084,55.07895508336007,25.232502,10.110769,17.918337,46.378647,14.766625,-1.2862722,-18.635733,-6.4584117,-15.915535,20.539896,8.932,5.9760413,-11.352079,-0.39128616,6.5099297,10.871312,22.06883,-16.463448,-9.092121,6.925677,-6.1921444,5.850185,34.439503,-9.616614,8.422979,6.7611623,-1.2796286,-13.7892685,-6.2088
117,130.07911682128906,130.76223754882812,79.35713195800781,-0.7656216941157776,-8.174661071501905,54.49173752926875,24.895102,11.7492,19.526129,49.938763,15.368793,-0.4757836,-17.344131,-6.1081576,-17.630514,19.273466,9.48017,6.33047,-10.846736,-0.33975783,6.4478846,11.716624,21.667032,-16.505627,-7.96228,7.371096,-6.1914105,5.6903806,33.80979,-8.8437805,7.8579373,6.5863338,-1.0196108,-13.648466,-5.9926205
118,131.25633239746094,131.91139221191406,79.1510009765625,-0.8977469709038007,-8.315282453370386,53.81508925082669,24.56063,13.7141,21.30255,53.798943,15.255275,0.37939033,-16.318779,-5.8272486,-19.916523,19.004456,9.903705,6.5411506,-10.227007,-0.14540498,6.4340568,12.496536,21.26652,-16.46244,-6.8644743,7.90068,-6.1626315,5.5146756,32.97501,-8.1643505,7.3930545,6.4846334,-0.87994057,-13.557211,-5.718281
119,132.3990020751953,133.07339477539062,78.87106323242188,-1.1332204667160695,-8.432488407488455,53.122764568285575,24.150131,15.858396,22.88199,57.887264,14.500451,1.3214896,-15.553771,-5.5541945,-22.206697,19.633656,9.817061,6.216322,-9.564146,0.1545049,6.4761863,13.201173,20.875254,-16.378853,-5.729849,8.323818,-6.156492,5.382399,31.957607,-7.586491,7.0295005,6.451355,-0.8034111,-13.494961,-5.383886
120,133.54811096191406,134.2510986328125,78.53176879882812,-1.4469818065760516,-8.551385144849835,52.4932848791181,23.53312,17.969473,23.880632,62.10225,13.225363,2.3547266,-15.045989,-5.2355113,-23.919216,21.00789,8.8572035,5.0007877,-8.932777,0.5056032,6.579883,13.826849,20.510136,-16.296995,-4.4976373,8.447528,-6.221781,5.354358,30.78125,-7.1184587,6.7692757,6.479219,-0.7323093,-13.440872,-4.9874663
121,134.66978454589844,135.3674774169922,78.09659576416016,-1.832632296125007,-8.67097348482625,51.923856895381746,22.635918,19.86553,24.118647,66.44633,11.220581,3.4142294,-15.023931,-4.9094467,-24.740034,23.535158,6.812472,2.3115299,-8.342056,0.89647925,6.7475834,14.397386,20.181313,-16.191776,-3.1963828,8.165034,-6.3864717,5.433762,29.42333,-6.761127,6.632606,6.6120787,-0.6582437,-13.405362,-4.492214
122,135.77212524414062,136.4419708251953,77.64149475097656,-2.2509958779248826,-8.782854214775314,51.39686037501415,21.464668,21.516403,23.750183,70.94251,8.555564,4.429189,-15.425986,-4.571998,-24.946133,27.065235,4.034721,-1.4718266,-7.778349,1.2982384,6.968792,14.926536,19.892088,-16.038927,-1.86371,7.593633,-6.6200004,5.5901904,27.88074,-6.5093145,6.6260395,6.839079,-0.60427535,-13.393913,-3.9126742
123,136.89129638671875,137.50411987304688,77.11892700195312,-2.674670700795138,-8.896638685530236,50.958233468961716,19.988726,22.991184,22.920898,75.51869,5.775667,5.400498,-15.8499565,-4.0826535,-24.853294,30.665512,0.9181964,-5.2503214,-7.2696433,1.673127,7.2324142,15.390016,19.650656,-15.884721,-0.44746733,6.875035,-6.8839645,5.8364396,26.202324,-6.3584466,6.729103,7.0743155,-0.5599892,-13.378088,-3.3230996
124,138.00315856933594,138.5607452392578,76.51424407958984,-3.1250660594396944,-9.009603776618537,50.64017866332746,18.192278,24.480413,21.795654,80.12067,3.4002652,6.350097,-15.914188,-3.3927324,-24.819572,33.585903,-2.3932738,-7.9585257,-6.820662,2.0367765,7.528315,15.763301,19.483,-15.789769,1.0964189,6.1396203,-7.138919,6.1935124,24.439743,-6.3078012,6.9084477,7.2267213,-0.5105001,-13.330156,-2.7940786
125,139.07408142089844,139.58819580078125,75.83589172363281,-3.6345154297899285,-9.095313745629555,50.51779996187376,15.935077,26.051565,20.248451,84.8758,1.6006743,7.299721,-15.448572,-2.5845225,-24.91174,35.691628,-6.4141903,-9.188534,-6.477762,2.4078515,7.8337774,16.00808,19.397423,-15.78028,2.7558126,5.3743296,-7.3233166,6.658829,22.596664,-6.31948,7.1604943,7.2975464,-0.46968704,-13.241285,-2.3595273
126,140.18319702148438,140.648681640625,75.1213607788086,-4.20874006352659,-9.151374080107999,50.539231893287415,13.2371025,27.57987,18.227896,89.768196,0.09626941,8.207049,-14.69712,-1.7355716,-24.940409,37.479248,-11.161864,-9.525131,-6.2371993,2.8009822,8.157355,16.155615,19.352089,-15.788396,4.5233016,4.542984,-7.481928,7.216532,20.62451,-6.402282,7.5294046,7.3490314,-0.4479185,-13.126787,-1.9844893
127,141.247802734375,141.58502197265625,74.41576385498047,-4.8424849209091265,-9.215706165320224,50.543620411949945,10.332474,29.055565,16.023375,94.54099,-1.2965357,9.039648,-13.893061,-0.86446303,-24.91577,39.211338,-15.853907,-9.438341,-5.9360847,3.233359,8.5297165,16.2345,19.365742,-15.841672,6.459343,3.7058558,-7.7285533,7.8914227,18.550266,-6.580494,7.9612947,7.3375278,-0.42225033,-12.99768,-1.6099702
128,142.30618286132812,142.4724884033203,73.7104721069336,-5.525144518653348,-9.33358869569992,50.37558037955951,7.463513,30.508947,13.934107,98.944176,-2.7633126,9.784098,-13.2699795,0.07238941,-24.835493,41.1281,-19.7093,-9.45762,-5.4567137,3.7234237,8.977455,16.281233,19.396755,-15.919094,8.647632,2.9597502,-8.177728,8.689352,16.367836,-6.8763433,8.441107,7.248059,-0.38717636,-12.863758,-1.1885704
129,143.332763671875,143.37661743164062,73.01954650878906,-6.363385712596543,-9.497057851682252,49.943811481072906,4.648367,32.184326,12.014395,103.0139,-4.334884,10.454246,-12.990583,1.2600468,-24.758438,43.35505,-22.38411,-9.778617,-4.725082,4.4129467,9.48506,16.260597,19.40505,-16.000744,11.192234,2.411896,-8.972038,9.656209,14.032937,-7.3237042,9.006081,7.081269,-0.28938523,-12.71968,-0.6891075
130,144.35726928710938,144.30397033691406,72.4114990234375,-7.327890954811785,-9.69658976803105,49.35208723378206,1.7562819,34.0148,10.099389,106.857994,-5.9246206,11.083446,-12.877563,2.5837865,-24.682354,45.767014,-24.368536,-10.148065,-3.85133,5.276936,10.032061,16.179182,19.37545,-16.080761,14.022883,2.0107517,-10.012623,10.766468,11.546858,-7.9173617,9.683637,6.83273,-0.13568756,-12.559781,-0.15008509
131,145.33018493652344,145.1931610107422,71.86702728271484,-8.192890746215273,-9.971623506631811,48.744070207649465,-1.1907358,35.59158,8.164546,110.34149,-7.531906,11.674078,-12.665662,3.7204568,-24.519302,48.166775,-26.115995,-10.440789,-2.9942918,6.076908,10.646168,16.13109,19.30467,-16.164015,16.97398,1.6085536,-11.052518,11.917019,8.97507,-8.620213,10.446206,6.485853,-0.011517601,-12.394693,0.37254107
132,146.2559051513672,146.11376953125,71.38111877441406,-8.728098983822404,-10.35255781402945,48.26394935218872,-4.128322,36.51906,6.280405,113.33405,-9.164056,12.265215,-12.104092,4.3962817,-24.200264,50.313442,-28.034113,-10.490314,-2.2971382,6.555619,11.368492,16.199774,19.20314,-16.270487,19.898602,1.0442727,-11.849934,13.004361,6.387116,-9.388385,11.253319,6.0455427,-0.01546153,-12.237702,0.8276455
133,147.16575622558594,147.03042602539062,70.94475555419922,-8.812660494330661,-10.92285992393484,47.97731188838401,-6.9475055,36.6611,4.561457,115.828865,-10.876124,12.995565,-11.031923,4.510766,-23.75057,52.13493,-30.22543,-10.181871,-1.8088846,6.548933,12.314529,16.354229,19.076923,-16.407215,22.994303,0.24029274,-12.3012905,14.13768,3.7364342,-10.215034,12.167883,5.585432,-0.16268285,-12.116787,1.1733086
134,148.07000732421875,147.99159240722656,70.54922485351562,-8.5849394268418,-11.636138365419217,47.80012395825219,-9.673178,36.264175,3.037669,117.90384,-12.63396,13.831759,-9.596737,4.284941,-23.272322,53.70262,-32.442066,-9.625416,-1.4438527,6.2155094,13.436005,16.577477,18.928747,-16.570602,26.266937,-0.71327883,-12.556884,15.32998,0.9909066,-11.099084,13.211327,5.110979,-0.41127807,-12.018714,1.4489167
135,148.9586181640625,148.98178100585938,70.18910217285156,-8.208297403957964,-12.32841909373894,47.651855811532904,-12.407907,35.525402,1.7205843,119.550735,-14.312627,14.58664,-8.0230055,3.9320679,-22.804514,54.995396,-34.549145,-8.971571,-1.1260673,5.768354,14.531968,16.949152,18.77673,-16.774803,29.303795,-1.7372342,-12.752185,16.335901,-1.7420124,-12.005873,14.25886,4.5303364,-0.78649616,-11.898046,1.7310166
136,149.79983520507812,149.97337341308594,69.87308502197266,-7.852885185902401,-12.838937344946407,47.45552482781296,-15.293153,34.616123,0.5265808,120.74905,-15.759154,15.000033,-6.5549417,3.6303124,-22.343706,56.01177,-36.413124,-8.362578,-0.7709955,5.410401,15.3978,17.523132,18.654957,-17.037884,31.707506,-2.7562752,-13.012009,16.909807,-4.346106,-12.888085,15.154416,3.7498376,-1.3254938,-11.712567,2.1017487
137,150.6707763671875,150.99778747558594,69.63153839111328,-7.559136858472671,-13.128181930125487,47.22836183966866,-18.450209,33.50895,-0.6147046,121.49229,-16.962273,14.998666,-5.246697,3.380647,-21.904078,56.768734,-38.012253,-7.813823,-0.37859276,5.157176,15.992035,18.318443,18.605352,-17.339457,33.324318,-3.8374352,-13.338064,16.870321,-6.821724,-13.726408,15.819281,2.7103674,-2.2293713,-11.42851,2.644745
138,151.53004455566406,151.9810028076172,69.45442199707031,-7.246362531685844,-13.286654689367811,46.99758062278996,-21.74732,32.14009,-1.628517,121.77844,-17.97379,14.693166,-3.9654198,3.1005855,-21.4804,57.26148,-39.415848,-7.257675,0.02901721,4.8918214,16.419691,19.29255,18.643,-17.686478,34.38973,-5.015008,-13.653334,16.384012,-9.226667,-14.526404,16.337547,1.499242,-3.4300678,-11.089864,3.308948
139,152.36883544921875,152.9308624267578,69.3284683227539,-6.897111097659703,-13.344349781110038,46.700511737001484,-24.96537,30.700462,-2.3614419,121.5846,-18.7543,14.231218,-2.6892707,2.8121681,-21.003489,57.46975,-40.621006,-6.70115,0.503048,4.6222763,16.69544,20.38943,18.75221,-18.139908,35.105927,-6.1570067,-13.96465,15.725793,-11.520759,-15.282125,16.77745,0.23333432,-4.5671573,-10.763901,3.9688075
140,153.197509765625,153.90736389160156,69.27108764648438,-6.489770421739948,-13.327516484833092,46.27417162063477,-27.90526,29.38367,-2.689251,120.89114,-19.272175,13.745273,-1.4017494,2.5263572,-20.401037,57.37932,-41.626717,-6.1481853,1.0964063,4.3581166,16.83152,21.543062,18.901514,-18.763134,35.6885,-7.1208334,-14.293608,15.176466,-13.659657,-15.982038,17.19781,-0.9737224,-5.282931,-10.503987,4.49124
141,154.03761291503906,154.9441680908203,69.29253387451172,-6.0077037953844314,-13.219818781959264,45.635631951500805,-30.571499,28.235226,-2.5809245,119.67085,-19.49734,13.208891,-0.14538279,2.2547195,-19.568373,56.999653,-42.45622,-5.6089425,1.8553188,4.1086063,16.798985,22.76819,19.074432,-19.591316,36.095993,-7.8492284,-14.695249,14.79013,-15.676629,-16.622911,17.612213,-2.082709,-5.3682413,-10.331954,4.837018
142,154.87548828125,156.007568359375,69.38450622558594,-5.467011424497543,-13.009832385405433,44.84014383918368,-33.048817,27.183844,-2.1382422,117.930916,-19.481476,12.55959,1.0794963,1.9683872,-18.563566,56.339863,-43.10086,-5.0701137,2.735189,3.8654063,16.599699,24.056282,19.26787,-20.596344,36.281998,-8.416387,-15.146111,14.425975,-17.588976,-17.209745,17.992815,-3.1419528,-5.0584645,-10.2074175,5.07113
143,155.73594665527344,157.10720825195312,69.55787658691406,-4.8925354053177,-12.73071811425892,44.0343302766919,-35.26925,26.233866,-1.4399112,115.708046,-19.314754,11.869116,2.350908,1.6172848,-17.561638,55.3823,-43.511402,-4.5021887,3.6508508,3.6058843,16.29306,25.315775,19.468132,-21.73451,36.44685,-8.8709345,-15.560299,14.0785055,-19.330496,-17.744158,18.324715,-4.171063,-4.658415,-10.085533,5.214951
144,156.59619140625,158.20384216308594,69.80401611328125,-4.303879307295254,-12.41624215923983,43.36412745508704,-37.160114,25.371332,-0.5495503,113.0349,-19.078876,11.206256,3.749839,1.1568903,-16.741283,54.108986,-43.644226,-3.880316,4.5109906,3.308149,15.938411,26.473701,19.657248,-22.944454,36.782063,-9.255331,-15.852183,13.745757,-20.835978,-18.22684,18.59192,-5.1889367,-4.477102,-9.923439,5.2917185
145,157.47418212890625,159.30813598632812,70.11473083496094,-3.6898711655863954,-12.039414108157217,42.87427875470499,-38.739803,24.657423,0.5951245,109.878845,-18.79461,10.589868,5.3035784,0.5697113,-16.16125,52.422432,-43.5446,-3.204814,5.286871,2.947495,15.5187845,27.51225,19.82538,-24.211653,37.358505,-9.512265,-15.967544,13.424952,-22.104118,-18.660566,18.758646,-6.194883,-4.578919,-9.715781,5.2915688
146,158.3677520751953,160.4539337158203,70.48281860351562,-3.041731678640434,-11.591819901213778,42.49043581002671,-40.009373,24.03824,2.0181959,106.22958,-18.429085,9.955266,6.962358,-0.12069124,-15.729843,50.365837,-43.22403,-2.4892752,6.0136247,2.5310252,15.013726,28.478214,19.97269,-25.552696,38.06764,-9.634422,-15.965995,13.123061,-23.176859,-19.05138,18.839407,-7.1720977,-4.8063045,-9.482918,5.2091613
147,159.26461791992188,161.61428833007812,70.90731048583984,-2.3819637063400925,-11.136807817292075,42.17576188004264,-40.895172,23.32973,3.5616305,102.15937,-17.969639,9.240222,8.692321,-0.88348424,-15.395876,48.13606,-42.57924,-1.7379527,6.6958733,2.092651,14.477005,29.410707,20.097942,-26.943373,38.82217,-9.736868,-15.931701,12.852152,-24.049637,-19.403624,18.894274,-8.120436,-5.1380625,-9.220548,5.0756207
148,160.14002990722656,162.8105010986328,71.37312316894531,-1.7357723297849588,-10.737842124257119,41.88875691703203,-41.350784,22.3843,5.0378237,97.735344,-17.412846,8.417902,10.464001,-1.6771189,-15.098704,45.920918,-41.505013,-0.95486295,7.3393455,1.6737664,13.961331,30.348608,20.197905,-28.358625,39.537697,-9.935975,-15.947997,12.623475,-24.726643,-19.71969,18.98937,-9.032586,-5.5499053,-8.923703,4.921618
149,161.03807067871094,164.03695678710938,71.884033203125,-1.0762954881692575,-10.412554418274922,41.6262606236233,-41.353027,21.17895,6.4309196,92.90092,-16.774092,7.535841,12.34603,-2.520413,-14.832715,43.629185,-39.962215,-0.07550028,7.9487605,1.2563415,13.496384,31.28309,20.266882,-29.862627,40.24192,-10.342908,-16.050829,12.498644,-25.205814,-19.996706,19.10857,-9.920979,-6.1225038,-8.567882,4.768847
150,161.95864868164062,165.27732849121094,72.428466796875,-0.4086522476467664,-10.129566337243215,41.407524283869506,-40.967564,19.813683,7.7625437,87.644844,-16.0673,6.6208525,14.327718,-3.3993573,-14.613169,41.210636,-38.01646,0.87289387,8.515417,0.8393065,13.0486555,32.207703,20.304518,-31.43967,40.965282,-10.867281,-16.19273,12.452019,-25.490421,-20.23531,19.224524,-10.781809,-6.838359,-8.160868,4.5998116
151,162.89703369140625,166.5462646484375,72.99724578857422,0.19514189225191877,-9.884954396759266,41.216203093935576,-40.277126,18.352303,8.902888,82.07751,-15.284136,5.635286,16.2646,-4.2259517,-14.39167,38.91162,-35.71249,1.7501024,9.0328245,0.48602155,12.576479,33.16981,20.31504,-32.94238,41.619987,-11.318917,-16.330248,12.36369,-25.590801,-20.442429,19.39061,-11.582959,-7.5281725,-7.7496476,4.383607
152,163.86114501953125,167.84442138671875,73.57941436767578,0.6618866555053345,-9.67459613885765,41.04154554640245,-39.3609,16.854465,9.734246,76.30912,-14.418788,4.541878,18.01431,-4.9194984,-14.123316,36.988514,-33.101723,2.4251804,9.488721,0.25927937,12.037411,34.21662,20.302292,-34.223362,42.113766,-11.5076,-16.418482,12.11382,-25.51043,-20.622913,19.661543,-12.3000965,-8.02469,-7.381483,4.0835104
153,164.8354949951172,169.1734161376953,74.16548919677734,0.9921014678344817,-9.493204613870404,40.86669403730782,-38.192604,15.281149,10.202761,70.2295,-13.406465,3.3739655,19.566097,-5.4586444,-13.721404,35.42447,-30.059504,2.9255116,9.883738,0.16385904,11.411166,35.390736,20.260918,-35.279697,42.3998,-11.3144865,-16.420027,11.669563,-25.249033,-20.77776,20.075586,-12.908653,-8.251646,-7.0651507,3.6481524
154,165.8387451171875,170.51486206054688,74.75609588623047,1.2153311206405468,-9.347495433005482,40.69915140187771,-36.728638,13.662738,10.357185,63.80253,-12.278744,2.1772506,20.984894,-5.8814588,-13.21463,34.118687,-26.60516,3.3153672,10.223027,0.17449072,10.721297,36.66132,20.186771,-36.17638,42.53344,-10.861046,-16.37162,11.095887,-24.801964,-20.904886,20.595272,-13.431114,-8.310944,-6.777134,3.107184
155,166.88006591796875,171.913330078125,75.33411407470703,1.3076546008181145,-9.25002989650689,40.555570936390936,-35.010315,12.1489315,10.272574,57.20738,-11.137532,0.9141739,22.23753,-6.2069907,-12.740674,33.192837,-22.978886,3.5311296,10.509473,0.30090034,9.988943,37.970654,20.08847,-36.864616,42.567802,-10.319519,-16.339188,10.42007,-24.186996,-21.008911,21.162384,-13.886761,-8.2954035,-6.5174303,2.546784
156,167.93667602539062,173.31768798828125,75.88691711425781,1.2463746039393069,-9.213899075945065,40.45200941273195,-33.081646,10.866334,10.049999,50.598553,-10.064391,-0.47105432,23.298462,-6.455436,-12.454156,32.75014,-19.397552,3.516815,10.756441,0.5370504,9.237189,39.277126,20.006626,-37.288746,42.522766,-9.868006,-16.381205,9.668079,-23.417118,-21.076996,21.699045,-14.29934,-8.304351,-6.286997,2.0637624
157,169.02719116210938,174.7346649169922,76.41450500488281,0.9810176413462666,-9.263177879673286,40.41884171878731,-30.819302,9.783826,9.614167,43.688816,-8.963695,-2.1846032,24.229107,-6.5142264,-12.390249,32.64806,-15.648127,3.2424057,10.937199,0.94870627,8.439413,40.614212,19.905838,-37.431675,42.409275,-9.556054,-16.550455,8.790005,-22.451372,-21.157389,22.257196,-14.686215,-8.300731,-6.0835705,1.5999614
158,170.14617919921875,176.1621856689453,76.8927993774414,0.5249890031446368,-9.38493244946492,40.42944233685771,-28.194283,8.896285,8.96758,36.382027,-7.778523,-4.125894,25.0328,-6.3878336,-12.486193,32.830135,-11.635882,2.8058474,11.088659,1.5190674,7.598661,42.00421,19.811539,-37.31654,42.17457,-9.291935,-16.79992,7.788881,-21.27413,-21.230885,22.81164,-15.0542555,-8.257652,-5.911493,1.1485763
159,171.27505493164062,177.5829620361328,77.3110122680664,-0.04622188624237384,-9.53687309729919,40.412759045106505,-25.421282,8.318351,8.364587,29.143675,-6.6237726,-5.930529,25.61159,-6.2677965,-12.758218,33.505646,-7.7483573,2.3050137,11.266842,2.1916971,6.764882,43.353218,19.723494,-36.995174,41.829273,-9.046922,-17.045765,6.777433,-19.988354,-21.294128,23.316175,-15.388232,-8.250604,-5.763043,0.80194163
160,172.41860961914062,178.99929809570312,77.67308807373047,-0.6453692152746163,-9.673944188248502,40.30232855462437,-22.773882,8.1056385,8.078368,22.546972,-5.6443357,-7.261733,25.876228,-6.362836,-13.226297,34.905476,-4.4054937,1.771521,11.513732,2.9005196,5.9877005,44.552982,19.623405,-36.517384,41.41049,-8.782792,-17.206337,5.867746,-18.69384,-21.351583,23.731579,-15.682173,-8.352295,-5.6292777,0.65146714
161,173.55148315429688,180.41390991210938,77.9664306640625,-1.2999460068436104,-9.792588549996674,40.07654545087455,-20.339853,8.268522,8.134599,16.73611,-4.908689,-8.014541,25.773453,-6.745429,-13.975713,37.186905,-1.5969621,1.0905447,11.849087,3.6834376,5.2392726,45.6185,19.497988,-35.836464,40.87812,-8.369451,-17.253092,5.059301,-17.375908,-21.410004,24.047289,-15.955205,-8.632997,-5.52266,0.7832778
162,174.65914916992188,181.8074951171875,78.21033477783203,-2.042175506273131,-9.915021909032298,39.782637742199725,-18.020578,8.719457,8.447204,11.467559,-4.343498,-8.416912,25.38909,-7.337496,-14.997402,40.188034,0.85748994,0.18631512,12.241304,4.5600414,4.4998465,46.5856,19.346985,-34.956024,40.24052,-7.865208,-17.234446,4.302714,-15.990825,-21.468718,24.283497,-16.209837,-9.035545,-5.444683,1.12877
163,175.71807861328125,183.17823791503906,78.38871765136719,-2.75512710133127,-10.029267145917247,39.47449740528746,-15.92827,9.276189,9.105513,6.967168,-3.9981346,-8.647895,24.827612,-8.18595,-16.17282,43.737984,2.7293975,-0.8857032,12.626469,5.39188,3.8350506,47.360588,19.16178,-33.994442,39.63542,-7.5090694,-17.180168,3.6366394,-14.600046,-21.518793,24.455444,-16.406418,-9.44151,-5.369532,1.5454551
164,176.71893310546875,184.47982788085938,78.48193359375,-3.3137920627687154,-10.120463814314048,39.20192874011573,-15.7471895,10.015564,9.906894,6.807953,-5.683862,-8.886125,24.182224,-9.3272,-17.355701,47.690792,3.7733428,-2.0312202,12.93872,6.036139,3.3160875,47.841675,18.932905,-33.067707,39.212215,-7.540023,-17.115982,3.1019933,-13.272964,-21.545458,24.581259,-16.495522,-9.733684,-5.268872,1.8923149
165,177.69863891601562,185.75265502929688,78.50861358642578,-3.6610612637985525,-10.15867172392888,38.92297309114486,-15.457899,10.610822,11.425031,6.7295194,-7.1415887,-9.25055,23.43113,-10.9370775,-18.57634,52.255642,3.563511,-3.2571268,13.195586,6.4401755,2.9497852,48.00209,18.645472,-32.155148,39.010975,-8.106568,-17.065283,2.6702056,-12.039685,-21.539415,24.715267,-16.452656,-9.845559,-5.1486716,2.0807133
166,178.6707763671875,187.00717163085938,78.4690933227539,-3.8422016292424623,-10.158199351480574,38.64353485380845,-15.042203,11.092025,13.541401,6.700827,-8.3891325,-9.645526,22.56294,-13.052564,-19.824268,57.515293,2.240332,-4.647098,13.389303,6.6547747,2.7117846,47.881386,18.291777,-31.201662,38.981564,-9.04958,-17.003963,2.3344662,-10.882404,-21.49592,24.852144,-16.282223,-9.855064,-5.019435,2.2021947
167,179.63221740722656,188.24798583984375,78.36832427978516,-3.892628259005875,-10.162931256246035,38.4678992033831,-14.493644,11.391291,15.7674465,6.702426,-9.397301,-9.911433,21.667383,-15.407108,-20.885359,63.101627,0.4607417,-6.1555023,13.429402,6.7101655,2.6280797,47.479618,17.884247,-30.269695,39.12792,-10.145746,-16.88738,2.170549,-9.795164,-21.404799,24.917624,-15.98132,-9.8609,-4.8582106,2.3871005
168,180.56103515625,189.46694946289062,78.18376922607422,-3.83393611068519,-10.218317328855537,38.497487444435606,-13.828279,11.434524,17.610891,6.7369137,-10.169421,-9.868041,20.80971,-17.690071,-21.602873,68.62342,-1.0463891,-7.70942,13.237373,6.6191106,2.7246094,46.803654,17.45383,-29.423836,39.437283,-11.1742325,-16.675236,2.2542415,-8.760663,-21.253546,24.826796,-15.556249,-9.962632,-4.642742,2.7667477
169,181.4711151123047,190.6623992919922,77.93309783935547,-3.6765504513083656,-10.360657570026765,38.77693209092109,-12.992502,11.217735,18.957878,6.8249025,-10.8892355,-9.393023,20.023224,-19.776417,-21.957176,74.07743,-2.1204972,-9.326889,12.773133,6.3762136,3.03584,45.854282,17.03271,-28.695341,39.903908,-12.208082,-16.327217,2.6841264,-7.7577786,-21.03132,24.570173,-15.025885,-10.171422,-4.3614864,3.4064536
170,182.3616180419922,191.82769775390625,77.61680603027344,-3.3939966579464698,-10.563327622126106,39.23854584616432,-12.00666,10.74848,20.046003,6.9712143,-11.519382,-8.578346,19.253077,-21.792719,-22.00174,79.62775,-3.1047134,-10.9735,12.105952,5.9530516,3.537792,44.641468,16.636797,-28.046658,40.5054,-13.331156,-15.884986,3.395831,-6.7944164,-20.733286,24.17752,-14.384187,-10.443865,-4.0318346,4.228845
171,183.25787353515625,192.97637939453125,77.24385070800781,-2.9587311784165626,-10.772216159695308,39.8125138607259,-11.00552,9.996092,20.911436,7.1444545,-11.723659,-7.5643325,18.41107,-23.75866,-21.733479,85.13731,-3.9719367,-12.473596,11.325373,5.3370843,4.1610518,43.19164,16.274273,-27.43955,41.1993,-14.337855,-15.425459,4.2169905,-5.8992195,-20.35901,23.623781,-13.592499,-10.797656,-3.6764557,5.1528206
172,184.1651611328125,194.0901336669922,76.80661010742188,-2.3480293768513825,-10.931109269141352,40.430754698924176,-10.14183,8.957572,21.605318,7.3362956,-11.1650505,-6.4933553,17.394243,-25.691,-21.153915,90.489845,-4.706526,-13.656369,10.518893,4.5267572,4.832997,41.53286,15.94879,-26.834772,41.94216,-15.018411,-15.014417,4.97115,-5.0940514,-19.91077,22.883589,-12.62027,-11.247649,-3.3173578,6.097123
173,185.0675048828125,195.18577575683594,76.3201904296875,-1.5646927736993512,-11.017946113185353,41.09360512260819,-9.927694,7.8758693,22.191034,8.675325,-10.158152,-5.4351635,16.186285,-27.569715,-20.287048,95.69296,-5.202679,-14.450021,9.696346,3.5344934,5.54754,39.62439,15.653659,-26.240046,42.72791,-15.267342,-14.608313,5.6336737,-4.3545337,-19.383095,21.875557,-11.515155,-11.849317,-2.8998296,7.214295
174,185.88485717773438,196.22665405273438,75.83393096923828,-0.6934717390086725,-11.072181887232786,41.821998602962886,-11.216493,7.2754617,22.513208,13.292782,-10.057642,-4.314322,14.8248005,-29.218203,-19.12583,100.786545,-5.4783583,-14.898219,8.83063,2.4342165,6.3148975,37.48496,15.39043,-25.672424,43.55896,-15.212927,-14.183243,6.2888527,-3.6733036,-18.77381,20.64065,-10.283904,-12.580026,-2.4398215,8.495161
175,186.63136291503906,197.2335968017578,75.31736755371094,0.1500939525840075,-11.124181325231055,42.58327932828833,-12.684422,6.716441,22.546434,18.136717,-9.687065,-3.0569906,13.298858,-30.401598,-17.658733,105.67864,-5.695819,-15.000033,7.9477854,1.337881,7.0873933,35.23082,15.176723,-25.106312,44.404953,-14.99249,-13.828929,6.921858,-3.0886898,-18.096567,19.33185,-8.844722,-13.331168,-2.0564082,9.610594
176,187.353271484375,198.20018005371094,74.71963500976562,0.9001254168087006,-11.19771344522354,43.348486002534685,-14.33107,6.171753,22.061676,23.095926,-9.398604,-1.6415354,11.611895,-30.991014,-15.937349,110.29347,-6.030212,-14.84349,7.072883,0.30012193,7.826878,32.96652,15.039811,-24.518356,45.24304,-14.744803,-13.637455,7.5180793,-2.6355174,-17.379929,18.09435,-7.1177354,-13.987919,-1.85549,10.226166
177,188.13414001464844,199.09683227539062,74.02460479736328,1.6179270087299331,-11.227427837802102,44.14939690746386,-16.534903,5.439381,20.708626,28.489368,-8.956717,0.102230765,9.690812,-30.934212,-13.933497,114.731445,-6.553483,-14.316124,6.160207,-0.78217316,8.489991,30.657381,15.021254,-23.959383,46.090042,-14.592169,-13.704794,8.03349,-2.3417659,-16.637537,16.92909,-5.103285,-14.567163,-1.8799727,10.218994
178,188.95138549804688,199.9858856201172,73.35655975341797,2.301624377109975,-11.221489991532895,44.984019425657856,-19.189314,4.46141,18.769783,34.20451,-8.159786,1.9728574,7.6318746,-30.251244,-11.794928,119.03103,-7.2113075,-13.421076,5.2384515,-1.892825,9.104959,28.269207,15.130439,-23.444473,46.926838,-14.438983,-13.953543,8.485497,-2.1467242,-15.8775425,15.738046,-2.873912,-15.108498,-2.0563555,9.772629
179,189.76919555664062,200.95970153808594,72.78718566894531,2.862802676342143,-11.304251383692396,45.7803194288549,-21.575514,3.400042,16.87987,39.550255,-7.528813,3.5224898,5.652764,-29.002218,-9.738504,123.02189,-7.976987,-12.2673235,4.4258676,-2.867617,9.764109,25.886076,15.329451,-22.888594,47.7048,-14.090099,-14.216596,8.953422,-1.961118,-15.127659,14.528443,-0.45535663,-15.52515,-2.3128629,9.005715
180,190.56021118164062,201.93824768066406,72.2774887084961,3.2283924791161325,-11.59724805721449,46.46865533025022,-23.02114,2.556524,15.560087,44.005688,-7.772416,4.4669204,3.9171615,-27.330584,-7.915482,126.52402,-8.789047,-10.998167,3.8142383,-3.5536633,10.575088,23.584942,15.547808,-22.183832,48.398655,-13.342038,-14.326197,9.517842,-1.7150052,-14.424849,13.342331,2.1372423,-15.725044,-2.5816228,8.034955
181,191.32579040527344,202.89971923828125,71.79313659667969,3.4050368678775715,-12.194736169011678,47.042624288225575,-23.223036,2.0917885,14.948527,47.492134,-9.485265,4.739572,2.4831336,-25.22922,-6.247587,129.4872,-9.5662565,-9.564125,3.4141657,-3.904392,11.651347,21.277607,15.736752,-21.303137,49.180798,-11.969381,-14.250368,10.193177,-1.3739549,-13.787417,12.146239,4.9436917,-15.687407,-2.8513355,6.7953405
182,192.10301208496094,203.8636016845703,71.3468017578125,3.4491976521084626,-13.010862551259683,47.542393323093904,-22.611286,1.9011416,14.677734,50.420177,-12.294154,4.5794435,1.2545594,-22.771858,-4.7164874,132.03041,-10.3528805,-7.989013,3.1454241,-4.0126348,12.926275,18.92108,15.890306,-20.288301,50.06666,-10.126681,-14.065108,10.93525,-0.99471015,-13.22361,10.964639,7.9554725,-15.458485,-3.1604362,5.2539206
183,192.89537048339844,204.8147735595703,70.93695831298828,3.378419419661285,-13.890612111273708,47.96860301384349,-21.614872,1.9220369,14.504341,52.990982,-15.471619,4.2224946,0.06529249,-20.266403,-3.4362335,134.20985,-11.206274,-6.528509,2.9569294,-3.9444284,14.236593,16.66283,15.997159,-19.123486,50.798607,-8.182466,-13.767192,11.731604,-0.6375246,-12.753682,9.937814,11.08746,-15.04031,-3.5210469,3.5717084
184,193.68777465820312,205.73765563964844,70.5572280883789,3.215263332691236,-14.67318193957772,48.31815238358585,-20.669306,2.0415614,14.214507,55.37812,-18.275038,3.9103863,-1.3021047,-18.003254,-2.467033,136.06395,-12.142446,-5.4250865,2.796982,-3.7694817,15.407722,14.651945,16.037863,-17.785788,51.12119,-6.5028234,-13.3639765,12.573581,-0.35812303,-12.405218,9.21033,14.262674,-14.429952,-3.9443405,1.9055885
185,194.4481201171875,206.6365509033203,70.21177673339844,2.9527048383040797,-15.333600500518305,48.51875096423197,-19.81711,2.2641728,13.829056,57.58046,-20.580788,3.6886482,-3.0332706,-15.950506,-1.6995482,137.59796,-13.109896,-4.766367,2.7005653,-3.4535875,16.412935,12.924795,15.968008,-16.14125,51.000572,-4.958129,-12.785821,13.615281,-0.18490714,-12.20387,8.807818,17.55608,-13.483165,-4.5014544,0.1975119
186,195.18162536621094,207.55166625976562,69.91360473632812,2.6131378182196467,-15.947961245453497,48.59788589505872,-18.842615,2.5979526,13.482176,59.493637,-22.741735,3.439923,-5.0700297,-14.011008,-1.0370288,138.78328,-14.014706,-4.404974,2.654249,-2.988783,17.324528,11.368569,15.770978,-14.226095,50.6095,-3.4309404,-12.048839,14.799742,-0.07651727,-12.157887,8.679035,20.989498,-12.247199,-5.1852217,-1.6033995
187,195.9190673828125,208.460205078125,69.66812896728516,2.2580679771546515,-16.502458146310353,48.700348854223634,-17.80938,2.9128754,13.125942,61.137054,-24.743252,3.1720874,-7.279259,-12.36863,-0.544287,139.60504,-14.816634,-4.2236447,2.5551958,-2.483487,18.118439,9.931842,15.488225,-12.289877,49.962997,-2.2974029,-11.315941,15.824574,0.025835939,-12.259579,8.831754,24.405039,-10.995446,-5.8725824,-3.3327425
188,196.66259765625,209.36886596679688,69.46261596679688,1.9400576897702777,-16.98342311741203,48.97213665218832,-16.785727,3.0895112,12.698943,62.536217,-26.574247,2.892129,-9.521981,-11.218663,-0.28388542,140.04816,-15.502171,-4.115137,2.3183923,-2.0527751,18.781412,8.607992,15.199841,-10.593189,49.018856,-1.9260669,-10.7682,16.402956,0.17975992,-12.488717,9.254724,27.639969,-9.990897,-6.419747,-4.831376
189,197.4180450439453,210.24560546875,69.27536010742188,1.661254567322868,-17.38701709030812,49.4742882555321,-15.78433,3.09065,12.171587,63.68749,-28.21974,2.5987966,-11.773421,-10.752349,-0.33406126,140.09235,-16.131216,-4.116969,1.9300187,-1.7487113,19.31031,7.47581,14.954994,-9.149089,47.619312,-2.7438614,-10.491822,16.346037,0.36706012,-12.844774,10.047186,30.691294,-9.228,-6.758903,-6.154206
190,198.1813507080078,211.06068420410156,69.10540771484375,1.3864270628923772,-17.723541694434076,50.130609683962994,-14.7756,2.9893754,11.569774,64.59704,-29.695438,2.290332,-14.0996685,-10.832338,-0.62654734,139.73865,-16.697018,-4.2662635,1.4455787,-1.516971,19.721195,6.5445023,14.748009,-7.848271,45.780445,-4.45655,-10.371878,15.849511,0.55632436,-13.320315,11.160541,33.646473,-8.5743475,-6.9658823,-7.355875
191,198.96153259277344,211.8947296142578,68.98780059814453,1.1143490218635619,-17.994595608391425,50.878790330583236,-13.767895,2.837873,10.909024,65.307945,-31.037144,1.9734209,-16.474577,-11.169297,-1.0050839,139.01399,-17.11535,-4.4555893,0.89661306,-1.3105264,20.034534,5.728204,14.58441,-6.780589,43.70125,-6.345561,-10.298126,15.208297,0.7959634,-13.866791,12.344033,36.460316,-8.108439,-7.0892835,-8.276631
192,199.7539520263672,212.70574951171875,68.90658569335938,0.8488862533268532,-18.203308305337984,51.65324340922525,-12.76485,2.6810415,10.213224,65.85311,-32.276665,1.656214,-18.882408,-11.462768,-1.3038976,137.94325,-17.296421,-4.577301,0.33959866,-1.0927216,20.2711,4.9437733,14.484489,-6.0592623,41.57767,-7.6931705,-10.189531,14.720306,1.1612356,-14.415402,13.320739,39.06841,-7.926542,-7.1739316,-8.7502
193,200.5472869873047,213.5122833251953,68.8684310913086,0.5903309635889558,-18.34434890780062,52.46544985756001,-11.758321,2.506349,9.460985,66.20308,-33.41147,1.3306844,-21.329775,-11.699787,-1.5075661,136.497,-17.201925,-4.64239,-0.21767683,-0.87421846,20.422455,4.205629,14.481802,-5.79494,39.374615,-8.434661,-10.092521,14.401263,1.6833066,-14.9202795,13.9988365,41.437035,-8.293808,-7.2021856,-8.58273
194,201.34706115722656,214.31179809570312,68.86347961425781,0.3299394267375683,-18.418015608167245,53.34006904051464,-10.746726,2.3105998,8.642149,66.35784,-34.432384,0.99601525,-23.768211,-12.010263,-1.7079155,134.66922,-16.93288,-4.6988297,-0.7747789,-0.6772938,20.48031,3.557661,14.5817375,-5.927773,37.004536,-8.925147,-10.032222,14.110674,2.3165753,-15.3731365,14.499958,43.627533,-9.101444,-7.161939,-7.9110284
195,202.16696166992188,215.0989532470703,68.88874816894531,0.06462250241951292,-18.436734733397103,54.228327025314044,-9.743954,2.1427898,7.806812,66.3884,-35.358555,0.67198104,-26.112492,-12.306705,-1.8793839,132.52008,-16.602352,-4.68754,-1.2968161,-0.48750308,20.464394,2.9689817,14.753988,-6.3012056,34.579437,-9.067992,-9.921482,13.91539,3.0258164,-15.764675,14.883722,45.7117,-9.884393,-7.102538,-7.065281
196,202.98655700683594,215.88873291015625,68.93734741210938,-0.20433620007639428,-18.412600133599494,55.08054359524707,-8.765257,2.0453036,7.0090294,66.36058,-36.205345,0.37807882,-28.29784,-12.503141,-1.9862292,130.10603,-16.306335,-4.5473747,-1.7541333,-0.28961018,20.393562,2.4044092,14.954783,-6.7508807,32.21987,-8.754079,-9.674891,13.888805,3.765826,-16.091963,15.214406,47.767647,-10.180555,-7.0545573,-6.3804593
197,203.80496215820312,216.6637725830078,69.00224304199219,-0.4833467296488972,-18.344967518286207,55.88034371574961,-7.81644,2.0405724,6.263492,66.2881,-36.97406,0.12106079,-30.324242,-12.54087,-1.988475,127.40956,-16.100672,-4.206702,-2.1482704,-0.059598386,20.261591,1.856278,15.164149,-7.2856994,29.920263,-7.792583,-9.221916,14.134468,4.5220056,-16.357912,15.522036,49.829975,-9.799694,-7.0243783,-5.9477797
198,204.61244201660156,217.44088745117188,69.09246063232422,-0.764887490074558,-18.22422386083873,56.650555362959516,-6.8906035,2.1003428,5.545498,66.13265,-37.656834,-0.10908857,-32.206497,-12.4728,-1.8995011,124.409294,-15.943635,-3.7181926,-2.50229,0.19435559,20.05796,1.3458314,15.381761,-7.960509,27.628689,-6.28696,-8.618587,14.574778,5.304412,-16.566322,15.784831,51.87015,-9.012289,-6.988411,-5.59323
199,205.42135620117188,218.2140350341797,69.20295715332031,-1.0312030209636383,-18.055166980410654,57.401959219347894,-5.986119,2.1880422,4.8505797,65.88599,-38.25303,-0.3191392,-33.9143,-12.382184,-1.7586633,121.16027,-15.776717,-3.207037,-2.8206704,0.4374459,19.79542,0.87958443,15.594796,-8.676882,25.401417,-4.563209,-7.9741497,15.017987,6.1014166,-16.719784,15.991966,53.871086,-8.045674,-6.9215703,-5.255999
200,206.22528076171875,218.9724884033203,69.32852935791016,-1.264002744116971,-17.84111740599545,58.14524626921607,-5.103415,2.2688715,4.172211,65.54001,-38.762463,-0.517198,-35.42701,-12.353567,-1.6110952,117.71519,-15.533352,-2.799126,-3.1166894,0.6370103,19.48638,0.46859536,15.7849,-9.3251505,23.296743,-2.9347193,-7.4119596,15.285481,6.894226,-16.819427,16.141733,55.82065,-7.1263285,-6.799428,-4.877161
201,207.03485107421875,219.7244873046875,69.4759292602539,-1.4521807504175264,-17.584891793998203,58.89234232135495,-4.243056,2.3264933,3.5030046,65.08388,-39.174587,-0.6986623,-36.76064,-12.429161,-1.4479395,114.0819,-15.206804,-2.5772195,-3.4016633,0.78257835,19.135107,0.120316006,15.939361,-9.869481,21.316544,-1.3613527,-6.9664035,15.336737,7.6881022,-16.861412,16.209581,57.72123,-6.2335434,-6.6005273,-4.4555693
202,207.84259033203125,220.4842529296875,69.636474609375,-1.6049885233791517,-17.283797057570276,59.63283875746946,-3.4084623,2.3811982,2.8477755,64.5239,-39.490646,-0.8628783,-37.925785,-12.566189,-1.2435261,110.23937,-14.833618,-2.4661598,-3.6689777,0.89555335,18.732183,-0.18017687,16.05974,-10.3638935,19.446934,0.29515776,-6.5821686,15.267564,8.48474,-16.847271,16.21015,59.584797,-5.2757115,-6.3415127,-4.0226617
203,208.65609741210938,221.22799682617188,69.8039321899414,-1.7319479448170005,-16.931663731240324,60.34230635065661,-2.60398,2.456191,2.2175193,63.877277,-39.732197,-1.0264832,-38.902035,-12.720564,-1.0228992,106.189865,-14.402758,-2.3508916,-3.9052987,0.99106807,18.270128,-0.45113167,16.152332,-10.832,17.715538,1.8747566,-6.2514973,15.116821,9.260057,-16.789505,16.20117,61.41044,-4.3706403,-6.0566854,-3.5662067
204,209.46778869628906,221.957275390625,69.97731018066406,-1.846680549233775,-16.524359872857318,60.997643870976695,-1.8333038,2.5747292,1.6240238,63.15978,-39.9199,-1.206349,-39.67061,-12.845078,-0.8124285,101.92041,-13.897002,-2.1113305,-4.100336,1.0834816,17.743399,-0.70994043,16.225643,-11.293997,16.150316,3.2141392,-5.965301,14.923527,9.990291,-16.708103,16.24305,63.192566,-3.6327639,-5.7813625,-3.0703964
205,210.29010009765625,222.6772003173828,70.163330078125,-1.9516738636108593,-16.02729691051487,61.576839647164974,-1.1432395,2.753342,1.0831356,62.395775,-40.055603,-1.398054,-40.275894,-12.873339,-0.5785847,97.39441,-13.2904825,-1.6756334,-4.2347484,1.1876878,17.121317,-0.96056944,16.279966,-11.7425995,14.74068,4.2853456,-5.7122006,14.655241,10.675278,-16.614738,16.34844,64.93167,-3.0793753,-5.505951,-2.5169337
206,211.11386108398438,223.41561889648438,70.36866760253906,-2.0399779898155037,-15.455838150401382,62.0982039848756,-0.5187528,2.9725475,0.58477753,61.56922,-40.12768,-1.597192,-40.717815,-12.860878,-0.3142296,92.62038,-12.592523,-1.1289831,-4.322896,1.2923614,16.419783,-1.1942436,16.313456,-12.166732,13.474934,5.1698313,-5.5025806,14.309041,11.331148,-16.50945,16.489197,66.61884,-2.650354,-5.2189727,-1.9136986
207,211.94390869140625,224.1381378173828,70.56758880615234,-2.1024682018478504,-14.874781954856918,62.59523922735269,0.13112874,3.2020848,0.10485743,60.63541,-40.139668,-1.8178631,-40.91653,-12.92392,-0.08438571,87.63975,-11.830015,-0.55768687,-4.4031057,1.3732985,15.703495,-1.4099663,16.332754,-12.584008,12.378806,5.8658733,-5.3540454,13.968595,11.9564495,-16.395973,16.663282,68.23803,-2.3412464,-4.956598,-1.2823695
208,212.76986694335938,224.87261962890625,70.772216796875,-2.134195016403181,-14.349685115238085,63.101964165517906,0.89665693,3.4165304,-0.38057613,59.55241,-40.09561,-2.0754428,-40.798275,-13.156571,0.036634233,82.4847,-11.022993,-0.024677929,-4.5162582,1.4086318,15.039,-1.601982,16.34741,-13.009291,11.471956,6.3672676,-5.281771,13.716896,12.554769,-16.282095,16.869875,69.7603,-2.1457639,-4.7519293,-0.64202744
209,213.60231018066406,225.58575439453125,70.9749755859375,-2.124824309352948,-13.889712388528679,63.6009079734569,1.8094196,3.6088324,-0.847335,58.27116,-40.00365,-2.3818226,-40.35311,-13.545798,-0.005136392,77.07752,-10.094832,0.49700072,-4.6518617,1.3911018,14.445508,-1.7721788,16.362173,-13.443634,10.751491,6.6004505,-5.3034406,13.583602,13.102259,-16.158886,17.099443,71.229324,-2.1370413,-4.6466875,0.0060825567
210,214.4267120361328,226.3020477294922,71.17588806152344,-2.083328515856494,-13.463591713285394,64.08217594957166,2.8198783,3.7967768,-1.2889402,56.82559,-39.858097,-2.731024,-39.628414,-14.015818,-0.17996581,71.41504,-9.04788,1.0568223,-4.7983,1.3343656,13.88987,-1.9203268,16.375439,-13.876766,10.203909,6.588987,-5.4031897,13.522768,13.608383,-16.031801,17.357574,72.63559,-2.290724,-4.6160054,0.67482406
211,215.2723846435547,227.0560760498047,71.3696060180664,-2.030263114631075,-13.075027246846073,64.58722482178601,3.8964276,3.994552,-1.7580583,55.30666,-39.655647,-3.1069648,-38.644886,-14.549602,-0.45217073,65.63139,-8.017121,1.6341982,-4.9757,1.2430246,13.354015,-2.0513477,16.392473,-14.3254385,9.849593,6.4709315,-5.544729,13.507265,14.115264,-15.902356,17.655386,73.89895,-2.4600797,-4.5940366,1.3582722
212,216.14630126953125,227.8166046142578,71.56827545166016,-1.9899234018660017,-12.728221161178856,65.16555483199195,5.004546,4.21622,-2.314037,53.79428,-39.38036,-3.4873836,-37.41561,-15.131225,-0.79267174,59.824577,-7.11693,2.2188556,-5.2126794,1.1225399,12.820812,-2.1657693,16.421484,-14.80593,9.703201,6.382189,-5.6923633,13.510102,14.664876,-15.772266,18.005587,74.9376,-2.4987693,-4.5117316,2.0508482
213,217.0491943359375,228.57623291015625,71.75384521484375,-1.9737123766117004,-12.448671237252638,65.82834121479968,6.1981716,4.4656425,-2.9874592,52.257217,-39.030262,-3.8512187,-35.811443,-15.73409,-1.3122303,53.74624,-6.272397,2.9926305,-5.521117,0.975898,12.298781,-2.247654,16.465548,-15.321074,9.784368,6.2857323,-5.8651114,13.5403595,15.270223,-15.644291,18.512808,75.706696,-2.347881,-4.320459,2.7424889
214,217.9505157470703,229.3505859375,71.9179458618164,-1.9689844100841385,-12.227155140310908,66.55169055390257,7.474577,4.740738,-3.7445507,50.67343,-38.61428,-4.208251,-33.864346,-16.320591,-2.0093877,47.37191,-5.4137444,3.945569,-5.891847,0.8002041,11.794395,-2.2920663,16.52484,-15.856825,10.069718,6.1309004,-6.07266,13.605577,15.906065,-15.5188,19.142025,76.25532,-2.0932674,-4.061338,3.4384747
215,218.8841094970703,230.1281280517578,72.06938171386719,-1.960331074696189,-12.014713066957471,67.32795052265105,8.722743,5.050769,-4.542292,49.13043,-38.141964,-4.5877695,-31.839363,-16.87145,-2.6862822,41.156292,-4.687014,4.7797785,-6.3102555,0.5934909,11.2881365,-2.3265796,16.60355,-16.413677,10.517523,6.0314903,-6.264821,13.6796255,16.55246,-15.3918495,19.68841,76.658714,-1.8056462,-3.811364,4.1564264
216,219.84490966796875,230.90658569335938,72.1978988647461,-1.9304573318551774,-11.760486585586014,68.14810818815229,9.826446,5.399403,-5.3413277,47.72202,-37.62599,-5.0174613,-30.020388,-17.391857,-3.1412036,35.595966,-4.2692494,5.193448,-6.754063,0.35632065,10.758921,-2.385204,16.706306,-17.001175,11.090059,6.100176,-6.390771,13.739228,17.19646,-15.253396,19.938156,76.984146,-1.5577828,-3.6478136,4.915681
217,220.80870056152344,231.68504333496094,72.29924011230469,-1.8720849438655744,-11.444970247232845,69.0280046792443,10.759696,5.779608,-6.1476936,46.445385,-37.05672,-5.5283217,-28.510508,-17.906517,-3.2151093,30.793749,-4.332588,4.9379086,-7.2342286,0.08147752,10.185486,-2.4762235,16.83927,-17.627306,11.802568,6.365632,-6.4410477,13.777529,17.844318,-15.08769,19.753815,77.249535,-1.3755505,-3.6137466,5.7873106
218,221.79710388183594,232.4634552001953,72.3826675415039,-1.7987703295342417,-11.09406161767485,69.96207992641345,11.581598,6.198239,-6.977341,45.26184,-36.437336,-6.097196,-27.19032,-18.378319,-3.0481942,26.505909,-4.7879844,4.284428,-7.7423716,-0.21814325,9.579179,-2.59129,17.001177,-18.300707,12.672925,6.7659626,-6.440536,13.811002,18.49975,-14.885154,19.26547,77.42239,-1.2191926,-3.661172,6.7388926
219,222.77996826171875,233.21435546875,72.44020080566406,-1.7317224348234486,-10.731043671147363,70.91273586655657,12.307362,6.672512,-7.80455,44.20461,-35.796677,-6.675426,-25.998993,-18.767609,-2.879102,22.73162,-5.4180226,3.6670969,-8.235798,-0.5191547,8.969332,-2.7390149,17.184093,-19.023745,13.66895,7.2796817,-6.390213,13.8490715,19.140884,-14.651115,18.66297,77.49817,-1.0645812,-3.7321544,7.6343865
220,223.76234436035156,233.960693359375,72.46853637695312,-1.679596358572805,-10.38187702157123,71.84776900108835,12.95748,7.206112,-8.607469,43.30295,-35.158405,-7.2140017,-24.839241,-19.08957,-2.949669,19.455372,-5.951244,3.4668093,-8.678935,-0.81049246,8.391208,-2.925731,17.376291,-19.795654,14.75705,7.8868217,-6.290981,13.899602,19.752409,-14.402957,18.138533,77.4634,-0.8871849,-3.767889,8.338042
221,224.7679901123047,234.710693359375,72.4806900024414,-1.6265006145990353,-10.054864437791387,72.79651336968236,13.521825,7.7754154,-9.425729,42.57646,-34.516083,-7.7072754,-23.641562,-19.466278,-3.3661978,16.664248,-6.400044,3.666423,-9.092905,-1.1183574,7.8447733,-3.1606333,17.573774,-20.644344,15.956856,8.636288,-6.108707,13.995788,20.366232,-14.154173,17.724184,77.27197,-0.63788056,-3.7496417,8.827615
222,225.78024291992188,235.44297790527344,72.46314239501953,-1.5643966050316327,-9.741033584735824,73.77010094417506,14.002771,8.370155,-10.263157,42.000854,-33.858044,-8.18222,-22.45015,-19.905807,-3.9802647,14.335166,-6.8425317,4.0700035,-9.500016,-1.4491858,7.3188043,-3.4300773,17.77685,-21.552486,17.271557,9.52169,-5.8535337,14.117477,20.983732,-13.906959,17.33129,76.93413,-0.34034786,-3.708448,9.173499
223,226.79409790039062,236.18405151367188,72.4088363647461,-1.501051241596992,-9.439355859777674,74.71159015979482,14.436757,9.001571,-11.044568,41.53543,-33.193928,-8.638291,-21.335182,-20.309704,-4.6364994,12.465693,-7.1008677,4.705726,-9.869091,-1.7752923,6.8330684,-3.7063408,17.979149,-22.448343,18.643473,10.442902,-5.5943513,14.194089,21.548943,-13.665299,16.968065,76.519485,-0.083604045,-3.662759,9.378242
224,227.81057739257812,236.94395446777344,72.32392120361328,-1.4511530014604312,-9.144709342071122,75.56016001661179,14.850362,9.684515,-11.690911,41.14425,-32.532944,-9.074259,-20.399445,-20.586826,-5.1570587,11.121272,-7.049681,5.562185,-10.168658,-2.064949,6.404536,-3.962394,18.172653,-23.25405,20.01668,11.303384,-5.4026194,14.157053,22.003061,-13.4384165,16.64607,76.101265,0.04469924,-3.6318753,9.444143
225,228.82461547851562,237.71400451660156,72.20265197753906,-1.4124591951470271,-8.85582120710754,76.32250525773048,15.260451,10.430642,-12.209612,40.771416,-31.862236,-9.5311985,-19.60395,-20.72778,-5.472981,10.355284,-6.8306575,6.7341967,-10.408896,-2.3234022,6.03093,-4.200465,18.358446,-23.948076,21.391184,12.10126,-5.2959447,13.915789,22.35587,-13.230718,16.34643,75.68151,0.0066151284,-3.6265247,9.351226
226,229.83966064453125,238.4653778076172,72.05007934570312,-1.3931197729764773,-8.563408406668563,77.01221889010458,15.635019,11.242161,-12.624335,40.453117,-31.178865,-9.999889,-18.977531,-20.771736,-5.655366,10.224937,-6.5513344,8.147906,-10.592295,-2.54675,5.6996994,-4.432751,18.537264,-24.56733,22.792294,12.882626,-5.2410264,13.533966,22.631151,-13.046744,16.069994,75.22374,-0.14552832,-3.633214,9.106293
227,230.81507873535156,239.122802734375,71.96446990966797,-1.426725700438191,-8.250931261978396,77.57998414166327,15.928303,12.1243725,-12.8808155,40.295715,-30.507895,-10.403564,-18.727222,-20.684225,-5.7251515,10.81585,-6.046643,9.557314,-10.679218,-2.680503,5.416657,-4.651504,18.696854,-25.118048,24.205175,13.622775,-5.231209,13.175474,22.78974,-12.8983755,15.861546,74.74863,-0.3608745,-3.6398935,8.752437
228,231.77659606933594,239.76356506347656,71.85294342041016,-1.5355526024053077,-7.910041965959469,77.98483363875141,16.104544,13.069907,-12.932095,40.399773,-29.869856,-10.661983,-19.022682,-20.46381,-5.6993194,12.152237,-5.085985,10.73528,-10.64115,-2.6815207,5.191637,-4.850012,18.8178,-25.601437,25.621939,14.300084,-5.2575526,13.003147,22.798733,-12.802717,15.768818,74.2632,-0.587803,-3.6285298,8.333656
229,232.69810485839844,240.36874389648438,71.72903442382812,-1.7382013827107108,-7.490320972154348,78.23205442133656,16.059921,14.088104,-12.81862,40.854954,-29.314121,-10.7135315,-20.064388,-20.100332,-5.5887027,14.388061,-3.1179318,11.751954,-10.488656,-2.5130246,4.9926558,-5.077416,18.88169,-26.049267,27.05964,14.947627,-5.312864,13.082839,22.648386,-12.778193,15.815782,73.736916,-0.8000109,-3.5947983,7.853929
230,233.61981201171875,240.98062133789062,71.57113647460938,-2.0071899136319846,-7.023496638392669,78.34783001724244,15.85446,15.166907,-12.563701,41.58014,-28.80987,-10.604553,-21.62608,-19.57577,-5.3969903,17.295357,-0.3372732,12.817056,-10.24486,-2.2259085,4.834535,-5.322601,18.900091,-26.433163,28.518333,15.573838,-5.4007807,13.3147545,22.34544,-12.8031,15.971164,73.185005,-1.0353961,-3.5472364,7.2880907
231,234.49867248535156,241.59091186523438,71.39743041992188,-2.298047242155192,-6.622985250666567,78.32241703739413,15.697965,16.268974,-12.090518,42.430775,-28.264128,-10.414912,-23.262938,-18.910265,-5.1328926,20.385662,2.3616285,13.840838,-9.868443,-1.8848928,4.7778797,-5.5220456,18.871918,-26.749487,29.999668,16.086237,-5.514275,13.642301,21.973349,-12.898093,16.187757,72.59708,-1.3100598,-3.4840379,6.6618657
232,235.366943359375,242.21847534179688,71.2349624633789,-2.5766376057326084,-6.397643794366357,78.14272505309918,15.80296,17.365778,-11.308542,43.267487,-27.586954,-10.2274475,-24.592798,-18.144966,-4.816688,23.307095,4.0305862,14.6114435,-9.41643,-1.5348641,4.8914146,-5.531472,18.765242,-26.798365,31.468067,16.47072,-5.669549,13.954021,21.4798,-13.077839,16.487011,72.07631,-1.6568743,-3.4060779,5.9794154
233,236.22012329101562,242.8630828857422,71.0856704711914,-2.8720991420634228,-6.410013126006461,77.68210066862336,16.38249,18.49455,-10.0512,43.993214,-26.752998,-10.075845,-25.593739,-17.18631,-4.3918014,26.138203,4.342466,14.896406,-8.764719,-1.1235961,5.22429,-5.3282323,18.569832,-26.589779,32.955734,16.744825,-5.923085,14.259116,20.851818,-13.355825,16.904829,71.66847,-2.0897763,-3.3128977,5.1850777
234,237.04672241210938,243.5272979736328,70.95864868164062,-3.1499593578140157,-6.597030833344838,77.00935777013252,17.284927,19.599775,-8.421935,44.709877,-25.809813,-9.884872,-26.48636,-16.09542,-3.8610256,29.100832,3.81191,14.818185,-7.978293,-0.6673715,5.718289,-4.969943,18.279043,-26.166061,34.4685,16.926538,-6.2552752,14.593454,20.09645,-13.735199,17.447489,71.32381,-2.5852017,-3.1997726,4.300156
235,237.8441619873047,244.11607360839844,70.84806823730469,-3.41093873839576,-6.857632013427952,76.3368748450744,18.182636,20.698544,-6.673136,45.587547,-24.802197,-9.621145,-27.213923,-15.009473,-3.446385,31.965704,2.813722,14.544409,-7.234166,-0.20304675,6.2775803,-4.495257,17.903803,-25.545097,35.966816,16.943844,-6.5553546,14.925168,19.272074,-14.1780405,18.024563,70.95977,-3.1185048,-3.0624533,3.4457312
236,238.6274871826172,244.6755828857422,70.75509643554688,-3.5982318982795247,-7.093779062961699,75.90491650026834,18.719006,21.746555,-5.097753,46.793118,-23.765724,-9.227638,-27.739315,-14.175285,-3.3060691,34.564774,1.6667945,14.269323,-6.7213693,0.14443092,6.814057,-3.9417443,17.468378,-24.761818,37.409573,16.719835,-6.712589,15.222014,18.43908,-14.626156,18.534025,70.50079,-3.6700628,-2.9002414,2.734614
237,239.41326904296875,245.23451232910156,70.67423248291016,-3.6821804226167063,-7.302823373361175,75.76882619895362,18.857054,22.771559,-3.7091806,48.345062,-22.66342,-8.846106,-28.022058,-13.735966,-3.4872932,36.911575,0.26512268,13.958788,-6.4892488,0.28684744,7.34267,-3.2482412,16.981947,-23.731434,38.730934,16.226753,-6.6488967,15.460559,17.581861,-15.035288,18.952055,69.96392,-4.2936954,-2.6933417,2.207442
238,240.2039337158203,245.77513122558594,70.60830688476562,-3.6921717343468483,-7.528047443281643,75.80601514793337,18.756306,23.8017,-2.3899927,50.16956,-21.50116,-8.42511,-28.092207,-13.576726,-3.8736768,39.106926,-1.5138761,13.498308,-6.4220953,0.2732121,7.9014587,-2.4330883,16.445736,-22.488018,39.977287,15.503584,-6.440347,15.665016,16.662882,-15.402186,19.328304,69.41315,-4.9873652,-2.452197,1.7884282
239,240.95697021484375,246.3064422607422,70.5792465209961,-3.676810049259236,-7.7367028002842755,75.98140391852348,18.347582,24.832296,-1.2216784,52.279194,-20.38477,-7.6301694,-28.000708,-13.556185,-4.393864,41.075783,-3.3674457,12.966437,-6.447949,0.19775312,8.44138,-1.6431168,15.881212,-21.249239,41.267673,14.570968,-6.2069106,15.876558,15.718213,-15.7373,19.654615,68.83326,-5.6518793,-2.2231302,1.4139183
240,241.70616149902344,246.8273162841797,70.58201599121094,-3.68531688386737,-7.895145853479006,76.26111320950508,17.561064,25.860065,-0.27348837,54.674297,-19.422646,-6.138256,-27.806889,-13.535564,-4.9829836,42.74682,-4.9964705,12.446771,-6.4912767,0.15800606,8.914094,-1.0044094,15.323315,-20.238756,42.70504,13.445596,-6.0685897,16.13399,14.789753,-16.055664,19.909819,68.19654,-6.189754,-2.051542,1.0213609
