unveil-humanoid-operators/unveil-humanoid-operators.github.io/feature-analysis-animation/data/feature_matrix_instances/height_ankle_rom_climbing_box_A165.csv
Frame,root_translateX,root_translateY,root_translateZ,root_rotateX,root_rotateY,root_rotateZ,left_hip_pitch_joint_dof,left_hip_roll_joint_dof,left_hip_yaw_joint_dof,left_knee_joint_dof,left_ankle_pitch_joint_dof,left_ankle_roll_joint_dof,right_hip_pitch_joint_dof,right_hip_roll_joint_dof,right_hip_yaw_joint_dof,right_knee_joint_dof,right_ankle_pitch_joint_dof,right_ankle_roll_joint_dof,waist_yaw_joint_dof,waist_roll_joint_dof,waist_pitch_joint_dof,left_shoulder_pitch_joint_dof,left_shoulder_roll_joint_dof,left_shoulder_yaw_joint_dof,left_elbow_joint_dof,left_wrist_roll_joint_dof,left_wrist_pitch_joint_dof,left_wrist_yaw_joint_dof,right_shoulder_pitch_joint_dof,right_shoulder_roll_joint_dof,right_shoulder_yaw_joint_dof,right_elbow_joint_dof,right_wrist_roll_joint_dof,right_wrist_pitch_joint_dof,right_wrist_yaw_joint_dof
0,-0.515225887298584,1.9006987810134888,125.76287078857422,0.4810254237583433,-0.8162592139955852,-87.84690205114308,-1.1860245,2.3400676,5.6724825,13.523539,-9.961871,-2.2867396,-0.10467504,-0.92459446,-5.5450845,13.897598,-14.588604,0.3676324,-3.0364563,-1.0570205,4.210366,2.311112,12.360893,-17.827505,65.11225,9.463898,1.2435312,1.2297807,1.2931807,-13.026211,21.567184,63.725845,-14.307424,1.6010265,-8.57837
1,-0.5209702253341675,1.894099473953247,125.75756072998047,0.46526229368384014,-0.8147644393854955,-87.81896533122837,-1.2856474,2.3664408,5.663711,13.739313,-10.060992,-2.273988,-0.106732756,-0.9091593,-5.5683637,13.921762,-14.620772,0.37126258,-3.0153697,-1.0584702,4.2227244,2.3122892,12.36298,-17.805157,65.11936,9.454682,1.2361223,1.2162852,1.3309407,-13.028749,21.580877,63.76189,-14.25793,1.6012414,-8.559226
2,-0.5250624418258667,1.8924329280853271,125.75228118896484,0.44939953397793775,-0.8135675980834567,-87.79125602177447,-1.3839484,2.3925433,5.6564655,13.954228,-10.159395,-2.259634,-0.10635607,-0.8936821,-5.5910378,13.941566,-14.651426,0.37529865,-3.0024533,-1.0604937,4.2351804,2.3172104,12.363847,-17.770994,65.12509,9.450609,1.2268937,1.2004141,1.3624058,-13.0295105,21.606089,63.803684,-14.201421,1.6011882,-8.54095
3,-0.5291449427604675,1.8866631984710693,125.74615478515625,0.4341317956375123,-0.8116307623296793,-87.76251472827609,-1.4846547,2.4195619,5.6451974,14.17023,-10.259008,-2.2485287,-0.109290466,-0.8776715,-5.6156235,13.96651,-14.683072,0.37833297,-3.0038533,-1.0618917,4.246242,2.3335567,12.363686,-17.72033,65.12337,9.450331,1.2203283,1.1876884,1.3810861,-13.028666,21.644524,63.853836,-14.150897,1.6034979,-8.52448
4,-0.5301007628440857,1.8806699514389038,125.73686981201172,0.41458556195465623,-0.8079119230719125,-87.73342845254439,-1.5890366,2.44882,5.626315,14.385565,-10.359875,-2.2456417,-0.118999794,-0.86012733,-5.6428514,14.001017,-14.715545,0.37894347,-3.0104709,-1.06336,4.2554827,2.3514085,12.362052,-17.661777,65.12361,9.449691,1.2200778,1.1835266,1.4008842,-13.025648,21.680422,63.89593,-14.125854,1.6103736,-8.510014
5,-0.531543493270874,1.8749555349349976,125.72769927978516,0.3926253470842753,-0.8000994709055455,-87.70445797444965,-1.7004277,2.4814758,5.5971656,14.599286,-10.462803,-2.2553113,-0.14137869,-0.8402805,-5.673945,14.050696,-14.74877,0.37606484,-2.9973562,-1.062622,4.2599874,2.360529,12.360179,-17.628477,65.13066,9.437074,1.2342021,1.194071,1.4340379,-13.023196,21.688042,63.922844,-14.1445055,1.6237181,-8.495231
6,-0.5335038900375366,1.8693331480026245,125.71920013427734,0.3672852731663074,-0.7891186076602642,-87.67468954559116,-1.8183098,2.5177305,5.5596232,14.81389,-10.567991,-2.2741156,-0.17237633,-0.8176604,-5.7087336,14.109905,-14.7821045,0.3704499,-3.0082393,-1.0615659,4.2652926,2.3795128,12.353788,-17.551504,65.133316,9.445988,1.2555884,1.209431,1.4553598,-13.016361,21.705992,63.94672,-14.19881,1.6437314,-8.481599
7,-0.5379948616027832,1.8613251447677612,125.71148681640625,0.343305919098283,-0.7797955557623196,-87.6435288729144,-1.9353532,2.553206,5.518075,15.030231,-10.674469,-2.2945623,-0.20255694,-0.79574317,-5.7448277,14.172569,-14.817005,0.3641665,-3.0002563,-1.0592941,4.268075,2.3920074,12.350423,-17.51514,65.13979,9.42954,1.276902,1.2324761,1.4913108,-13.0128765,21.703377,63.96177,-14.249723,1.6619627,-8.469172
8,-0.5408002138137817,1.853875994682312,125.70372772216797,0.318337171302946,-0.7766215121436397,-87.60969087867888,-2.043767,2.586042,5.476049,15.246164,-10.779573,-2.3096766,-0.22238345,-0.77518773,-5.7806187,14.231826,-14.854559,0.35861334,-3.0054834,-1.058917,4.2792864,2.4085371,12.345126,-17.462708,65.14042,9.41415,1.28564,1.2536659,1.524875,-13.006549,21.696468,63.972984,-14.282118,1.6755207,-8.459317
9,-0.5441413521766663,1.8477903604507446,125.69573974609375,0.2993989698840624,-0.7821011648256584,-87.57051936369524,-2.1419084,2.613945,5.4323363,15.466035,-10.885077,-2.318393,-0.2299928,-0.7582911,-5.816688,14.292084,-14.899435,0.35534415,-3.019026,-1.0602077,4.2948833,2.4304557,12.341874,-17.422213,65.135895,9.374916,1.2757753,1.2774458,1.5597346,-12.999885,21.68268,63.986275,-14.273142,1.6802746,-8.450431
10,-0.5490840673446655,1.8418868780136108,125.68619537353516,0.27936411020261254,-0.793381943963146,-87.52743871358861,-2.2327359,2.63876,5.3858175,15.68662,-10.98978,-2.3243034,-0.22788343,-0.7434416,-5.8534756,14.3495655,-14.946598,0.3531323,-3.0370116,-1.0627543,4.314336,2.4574654,12.340969,-17.389782,65.12495,9.318979,1.2543644,1.3039666,1.5990391,-12.992935,21.66017,63.994434,-14.240896,1.6797273,-8.441963
11,-0.5547769069671631,1.8347760438919067,125.67356872558594,0.260429221551435,-0.806883836449703,-87.48466540752608,-2.3241796,2.6644073,5.338938,15.914651,-11.096825,-2.3266206,-0.2226798,-0.7277459,-5.890167,14.406538,-14.994691,0.34956577,-3.0529249,-1.0650861,4.338145,2.4844546,12.342333,-17.36213,65.10962,9.263963,1.2309467,1.32787,1.6415685,-12.984493,21.631712,63.996143,-14.207626,1.6771117,-8.438701
12,-0.5570191144943237,1.825481653213501,125.66352081298828,0.23937850265670674,-0.8199469765026792,-87.44701154840072,-2.4128463,2.6907775,5.295839,16.13568,-11.20302,-2.3242502,-0.21995758,-0.71160376,-5.9246917,14.465131,-15.042086,0.34280315,-3.0595038,-1.0657002,4.3627253,2.505791,12.343658,-17.347626,65.096985,9.215749,1.2153639,1.3466175,1.6801059,-12.980244,21.615181,63.999813,-14.178586,1.6749399,-8.447153
13,-0.5560466051101685,1.819748044013977,125.65322875976562,0.21163259180677255,-0.8292634307451525,-87.41470833382651,-2.519716,2.7281764,5.2528944,16.383606,-11.32188,-2.3150177,-0.22058381,-0.6853064,-5.9605365,14.516776,-15.082047,0.32646853,-3.052421,-1.0620596,4.396297,2.5277057,12.350406,-17.326332,65.06756,9.211083,1.2119783,1.3504498,1.7279654,-12.968456,21.581337,63.983616,-14.191342,1.6757014,-8.470912
14,-0.5544451475143433,1.8083982467651367,125.64244079589844,0.18239331125990585,-0.8395665116624854,-87.38689837331248,-2.627604,2.7666464,5.212635,16.635185,-11.442161,-2.299137,-0.22384831,-0.6585138,-5.994782,14.57382,-15.123498,0.3046528,-3.0391307,-1.0561738,4.430706,2.5440526,12.357939,-17.321245,65.041466,9.209873,1.2143333,1.3488274,1.7704241,-12.958973,21.56358,63.971863,-14.199315,1.676545,-8.509306
15,-0.5529396533966064,1.8000138998031616,125.63093566894531,0.15259231554162575,-0.8492550567536944,-87.36027585928909,-2.734256,2.8060896,5.1734285,16.884367,-11.563821,-2.2835577,-0.22473234,-0.6303671,-6.0280647,14.624825,-15.162792,0.28597727,-3.023898,-1.0497817,4.4655437,2.564734,12.366414,-17.314318,65.01003,9.211392,1.2184925,1.345719,1.815786,-12.950196,21.545773,63.953682,-14.215873,1.6762364,-8.548449
16,-0.5552575588226318,1.7940871715545654,125.62165069580078,0.12142482014923545,-0.8576288296276586,-87.33214386210241,-2.8354876,2.8440316,5.135022,17.123613,-11.686382,-2.274938,-0.2187696,-0.6026789,-6.0598254,14.662098,-15.198838,0.27957085,-3.0115788,-1.0455418,4.4991746,2.598423,12.376167,-17.293407,64.96674,9.20726,1.2210345,1.3461508,1.8646392,-12.940712,21.521458,63.929043,-14.244099,1.6724812,-8.575623
17,-0.5530833601951599,1.7797579765319824,125.61446380615234,0.09010878980525708,-0.8661414685567252,-87.30163379989355,-2.9259415,2.881112,5.09742,17.34608,-11.810792,-2.2774675,-0.20235617,-0.5741593,-6.087832,14.681875,-15.231689,0.2928609,-3.007679,-1.0431372,4.530856,2.647985,12.384996,-17.251749,64.91113,9.186492,1.2206692,1.3532557,1.9186237,-12.931085,21.492096,63.894176,-14.286368,1.6621442,-8.586968
18,-0.550790011882782,1.769681453704834,125.60549926757812,0.058623476231605416,-0.8746249404422456,-87.27036854751826,-3.010144,2.917968,5.060855,17.55921,-11.93774,-2.286872,-0.17727308,-0.5443966,-6.1129575,14.685779,-15.260045,0.31941643,-3.008583,-1.0412762,4.5614,2.707638,12.391795,-17.196497,64.84754,9.156826,1.2195729,1.3639878,1.974329,-12.922213,21.460835,63.853672,-14.340591,1.6468654,-8.589732
19,-0.5450730323791504,1.7571601867675781,125.59445190429688,0.025278952849295766,-0.8802165535704258,-87.23844606259594,-3.0952237,2.9528892,5.0249767,17.769459,-12.0630245,-2.296667,-0.15367533,-0.5168191,-6.1400523,14.688736,-15.289132,0.3472384,-3.0127258,-1.0397671,4.5917106,2.7776802,12.398268,-17.125084,64.7753,9.143082,1.2175798,1.3738649,2.0257628,-12.9123535,21.430016,63.814964,-14.40125,1.6332879,-8.587157
20,-0.5394250154495239,1.745266318321228,125.58050537109375,-0.0038517367487609505,-0.8795229199675174,-87.2064376852429,-3.193781,2.9843736,4.9892607,17.992962,-12.186785,-2.3005128,-0.1450581,-0.49454322,-6.1737995,14.711704,-15.327029,0.36434877,-3.0177357,-1.0402722,4.6160674,2.8490684,12.405026,-17.043232,64.711876,9.16044,1.2127327,1.3806597,2.0672886,-12.900101,21.41075,63.79158,-14.453497,1.628614,-8.585458
21,-0.533700704574585,1.7300106287002563,125.56690216064453,-0.028808900434341193,-0.8723779125304184,-87.17334830421937,-3.3060634,3.0095139,4.953176,18.228895,-12.304562,-2.2959435,-0.1518379,-0.48094848,-6.219148,14.756155,-15.374232,0.36424884,-3.0115523,-1.0400503,4.631773,2.9139183,12.407451,-16.966251,64.6655,9.223058,1.2059287,1.3857388,2.1137376,-12.890642,21.398363,63.77042,-14.49677,1.6389879,-8.584391
22,-0.5254774689674377,1.7113877534866333,125.55355072021484,-0.05279913955500649,-0.8600893251775247,-87.1394655333848,-3.4281652,3.0299885,4.9170356,18.473436,-12.419391,-2.2865665,-0.17322683,-0.47383833,-6.272357,14.823569,-15.430998,0.35444117,-2.9965823,-1.0387566,4.6418943,2.9760368,12.405455,-16.890306,64.62871,9.318407,1.1976645,1.3903869,2.1639605,-12.885637,21.386549,63.74969,-14.537765,1.6588696,-8.581011
23,-0.5163317322731018,1.6933808326721191,125.53804016113281,-0.07652100534826621,-0.8423560899788095,-87.10677760663079,-3.5582316,3.0511973,4.8822794,18.72359,-12.535215,-2.2753394,-0.1979938,-0.46610573,-6.3247867,14.88555,-15.486043,0.34381124,-2.981261,-1.0337616,4.6459403,3.0368273,12.399636,-16.812527,64.60278,9.411557,1.186955,1.3959031,2.21082,-12.88302,21.380795,63.738667,-14.56763,1.6796229,-8.577115
24,-0.5044642090797424,1.6796373128890991,125.52728271484375,-0.10546834965666355,-0.8186018385553179,-87.07676188697477,-3.694849,3.0781386,4.8495984,18.976883,-12.656411,-2.2651224,-0.22543798,-0.45184803,-6.368482,14.937319,-15.534829,0.34122854,-2.975328,-1.0199586,4.6426187,3.1022985,12.389431,-16.732561,64.584816,9.468324,1.1727254,1.4042461,2.2412646,-12.883002,21.386559,63.754375,-14.577016,1.6912322,-8.573684
25,-0.4944837987422943,1.666784644126892,125.5166015625,-0.1420003594313664,-0.7860730827371257,-87.05239869487025,-3.8402655,3.1137621,4.8218355,19.233206,-12.784377,-2.2580004,-0.25671256,-0.42794827,-6.3973813,14.971613,-15.573187,0.35114866,-2.9558675,-0.99769974,4.6265655,3.1611278,12.382523,-16.689737,64.58447,9.446055,1.1512849,1.4209719,2.273351,-12.884242,21.390507,63.790188,-14.556758,1.6880676,-8.575007
26,-0.4789317548274994,1.6469590663909912,125.5052719116211,-0.1828617969268457,-0.7460875094321938,-87.03150937414887,-3.9916844,3.1541033,4.797372,19.488201,-12.915793,-2.251966,-0.2924809,-0.3984302,-6.4175487,14.995346,-15.604933,0.36820722,-2.9518702,-0.9662762,4.602945,3.2288303,12.3693285,-16.632795,64.59012,9.392144,1.1228685,1.44159,2.2836685,-12.888821,21.416065,63.856617,-14.514752,1.6761909,-8.579011
27,-0.462616503238678,1.6246808767318726,125.49398040771484,-0.22523807465961376,-0.7034866181964494,-87.01057115155264,-4.150266,3.1967547,4.772236,19.753756,-13.052091,-2.244061,-0.3311893,-0.36655775,-6.436777,15.020809,-15.63732,0.38629434,-2.9494402,-0.9302869,4.5748134,3.2954764,12.351775,-16.576332,64.60452,9.335402,1.0987724,1.4603908,2.2924538,-12.896317,21.442034,63.9302,-14.462515,1.6638029,-8.578775
28,-0.4435274302959442,1.6034409999847412,125.48120880126953,-0.2689711824136195,-0.6634535299023806,-86.98562021153413,-4.31192,3.2387571,4.742485,20.031029,-13.191946,-2.2312343,-0.37033725,-0.33616677,-6.4629726,15.057947,-15.6758,0.399335,-2.9426699,-0.89684796,4.549232,3.3563552,12.335125,-16.519005,64.62376,9.314078,1.0893242,1.4690982,2.3114066,-12.904436,21.445635,63.98738,-14.420122,1.6627473,-8.565383
29,-0.42717474699020386,1.582000732421875,125.46762084960938,-0.3123657441491693,-0.6246179919291163,-86.95491872937833,-4.477316,3.280152,4.705212,20.316555,-13.335428,-2.211294,-0.41369712,-0.30723935,-6.5000563,15.113337,-15.722419,0.40319103,-2.9379208,-0.8674165,4.5270185,3.4175436,12.320928,-16.449368,64.641174,9.35134,1.1014507,1.4614899,2.338705,-12.910782,21.423624,64.02856,-14.384811,1.6745337,-8.529999
30,-0.41578471660614014,1.559435248374939,125.45346069335938,-0.3570105942756052,-0.5852654394689512,-86.92076213631645,-4.649914,3.3222907,4.662995,20.615305,-13.482938,-2.1861691,-0.46002746,-0.27793974,-6.5431366,15.177788,-15.772601,0.40192655,-2.938525,-0.83739334,4.506407,3.4759078,12.30247,-16.363144,64.66438,9.428553,1.1275512,1.4430653,2.3670666,-12.918238,21.386116,64.06306,-14.351917,1.6948841,-8.478368
31,-0.39885273575782776,1.5332295894622803,125.43836975097656,-0.4016826146829453,-0.5494432744285018,-86.88534680208714,-4.8220654,3.363745,4.6203046,20.923422,-13.635171,-2.1595333,-0.50366265,-0.24969393,-6.5873203,15.248203,-15.828187,0.40165082,-2.932701,-0.8089431,4.486645,3.533976,12.289215,-16.288012,64.68705,9.503479,1.1585553,1.421902,2.3983004,-12.92332,21.341194,64.09792,-14.32664,1.7164501,-8.428742
32,-0.3778138756752014,1.5077979564666748,125.42306518554688,-0.4473853722957453,-0.5215445314561626,-86.8508059179817,-4.9854903,3.402818,4.5815997,21.23629,-13.790675,-2.134865,-0.5351035,-0.22332378,-6.6276684,15.31368,-15.88636,0.4086162,-2.9257412,-0.7767957,4.4764595,3.592284,12.274324,-16.20808,64.70438,9.563568,1.1830432,1.4032886,2.4206576,-12.93004,21.299725,64.14011,-14.323882,1.7311327,-8.394231
33,-0.3554458022117615,1.4821852445602417,125.40652465820312,-0.49151955336276576,-0.5045695963202199,-86.81760260394923,-5.1349053,3.4375293,4.548555,21.551111,-13.947712,-2.1145196,-0.54774314,-0.200317,-6.6626678,15.367329,-15.946078,0.4267861,-2.9196584,-0.7393891,4.477453,3.6553974,12.256023,-16.123674,64.71236,9.596054,1.199919,1.3874284,2.4328938,-12.940002,21.26832,64.19436,-14.354583,1.7355413,-8.384803
34,-0.33101898431777954,1.4533262252807617,125.38977813720703,-0.5347479939661706,-0.49523103052751566,-86.78487161317419,-5.2759676,3.4691443,4.518968,21.870623,-14.107515,-2.096019,-0.54822993,-0.17996159,-6.694663,15.415876,-16.008518,0.45215136,-2.912692,-0.6983171,4.484613,3.7214494,12.234697,-16.0389,64.716,9.612189,1.214814,1.3727294,2.4407034,-12.954215,21.242834,64.25538,-14.406678,1.7344571,-8.391644
35,-0.30325764417648315,1.4241336584091187,125.3713607788086,-0.5789938303833662,-0.4895998459566059,-86.75190604958011,-5.416475,3.502106,4.4900837,22.200302,-14.273795,-2.0758643,-0.54615074,-0.15900016,-6.726018,15.470016,-16.075651,0.47869596,-2.9035084,-0.6539414,4.493977,3.7859108,12.214491,-15.961299,64.71881,9.620171,1.226117,1.3612766,2.4466395,-12.971095,21.221478,64.31453,-14.456033,1.7329831,-8.399202
36,-0.271391898393631,1.399079442024231,125.3499526977539,-0.6297997286620999,-0.4832480384975498,-86.71846026908163,-5.5642285,3.5399573,4.459492,22.545235,-14.450243,-2.0504456,-0.5504569,-0.13441601,-6.7588696,15.538227,-16.148123,0.50039876,-2.8906734,-0.60797256,4.5008817,3.845427,12.200433,-15.898441,64.724174,9.627333,1.2322003,1.355338,2.4517756,-12.986572,21.20316,64.367584,-14.478221,1.7346557,-8.393207
37,-0.2420579344034195,1.3716480731964111,125.32698822021484,-0.6862252947389729,-0.4763219907185632,-86.6842005205736,-5.7217817,3.5856707,4.4245234,22.909775,-14.640158,-2.0180273,-0.5643363,-0.10344684,-6.7932587,15.626164,-16.227392,0.51389724,-2.8784547,-0.55787885,4.5065145,3.8961797,12.189151,-15.847716,64.737305,9.635273,1.2304822,1.3564376,2.4514847,-13.006545,21.196575,64.41267,-14.453967,1.7454704,-8.3599825
38,-0.2087348997592926,1.343605637550354,125.30242156982422,-0.7474861843845344,-0.4706945114149923,-86.64934720281916,-5.8856435,3.636524,4.386967,23.291395,-14.8413,-1.9808649,-0.58168864,-0.068260126,-6.82834,15.725996,-16.311584,0.5229581,-2.8659897,-0.50404954,4.51376,3.9440105,12.182307,-15.807469,64.749916,9.639153,1.2227049,1.3622916,2.4500759,-13.0312605,21.198631,64.448044,-14.400898,1.7614957,-8.310077
39,-0.1791360080242157,1.3126275539398193,125.27796173095703,-0.8115867403833346,-0.4648984693936518,-86.61419272768293,-6.051415,3.6883066,4.351213,23.68024,-15.047035,-1.9414128,-0.602659,-0.033654418,-6.864409,15.836732,-16.401962,0.5322467,-2.849566,-0.44997716,4.5173965,3.9917881,12.180628,-15.776003,64.760506,9.643408,1.2129927,1.3716441,2.4502819,-13.052487,21.197876,64.47753,-14.348032,1.7764692,-8.264825
40,-0.1423722356557846,1.277891755104065,125.25499725341797,-0.8737943018094863,-0.45754989768841703,-86.57899517274109,-6.217263,3.7373657,4.32131,24.071476,-15.253432,-1.9023232,-0.62726814,-0.0038257225,-6.9021215,15.957575,-16.500216,0.546496,-2.8364842,-0.39209652,4.518484,4.0528326,12.180942,-15.7353325,64.752495,9.658087,1.2046914,1.3797364,2.462451,-13.083332,21.193977,64.48197,-14.319428,1.7849994,-8.239804
41,-0.10406900942325592,1.2394191026687622,125.23123931884766,-0.9377398098200052,-0.44970220112690673,-86.54467567122273,-6.3832827,3.777927,4.26651,24.465088,-15.460055,-1.8616796,-0.6502601,0.023221517,-6.941735,16.080252,-16.60234,0.5662241,-2.8213296,-0.33016995,4.512642,4.123304,12.181782,-15.695401,64.73411,9.682888,1.1995867,1.3921187,2.4844365,-13.111935,21.17957,64.4722,-14.327554,1.7830106,-8.25396
42,-0.05892665311694145,1.1980664730072021,125.20514678955078,-1.001610124893366,-0.44164363113409955,-86.51080038798698,-6.550664,3.813572,4.1952477,24.86402,-15.669126,-1.8190609,-0.6733204,0.049000587,-6.982911,16.20791,-16.708885,0.5892109,-2.8070426,-0.25987884,4.5055304,4.203114,12.182511,-15.653631,64.70107,9.715843,1.1951361,1.4064169,2.5222645,-13.152558,21.160273,64.432785,-14.355158,1.7743303,-8.288968
43,-0.012378198094666004,1.158465027809143,125.17840576171875,-1.062573521551275,-0.43077423306070967,-86.47563694552869,-6.7178326,3.854269,4.170579,25.264765,-15.879353,-1.7789543,-0.7076352,0.066950925,-7.025239,16.357344,-16.82869,0.6159603,-2.7872744,-0.19887753,4.4835663,4.2743125,12.183146,-15.618434,64.68525,9.750053,1.1904049,1.4246522,2.545672,-13.170546,21.136213,64.419846,-14.395262,1.7655673,-8.33298
44,0.03140813112258911,1.1210651397705078,125.14872741699219,-1.1178044484910463,-0.4149545034875015,-86.43688238078747,-6.8837166,3.9114118,4.2547493,25.665545,-16.0905,-1.7455798,-0.7625409,0.0719054,-7.0687346,16.543634,-16.969862,0.64698446,-2.7729065,-0.14479646,4.4679656,4.356558,12.187181,-15.557701,64.642784,9.797975,1.1846488,1.4312611,2.5785885,-13.205905,21.109869,64.374954,-14.438626,1.763501,-8.348586
45,0.07762560993432999,1.074733018875122,125.11615753173828,-1.164013087305438,-0.39221052719286603,-86.3950670720955,-7.0485344,3.989351,4.459381,26.06661,-16.302113,-1.7261579,-0.84039056,0.063529,-7.1135187,16.767382,-17.13503,0.68146783,-2.754819,-0.10592268,4.436163,4.4309964,12.193144,-15.489987,64.61584,9.850546,1.1760367,1.4252553,2.6024647,-13.235857,21.085957,64.34525,-14.485396,1.7693629,-8.328302
46,0.13169439136981964,1.0365698337554932,125.08142852783203,-1.2059207254231386,-0.364254447821544,-86.35092793111595,-7.212711,4.082839,4.7525163,26.469969,-16.515114,-1.7158071,-0.9354212,0.04444525,-7.1595993,17.020874,-17.318611,0.7194994,-2.7371657,-0.076826856,4.3958263,4.5063424,12.201943,-15.409908,64.58846,9.91169,1.165658,1.4091543,2.6238735,-13.265747,21.06355,64.31375,-14.539633,1.7803229,-8.285212
47,0.18411017954349518,0.9981395602226257,125.04527282714844,-1.2424533393988324,-0.33350276840172915,-86.30306753054643,-7.376329,4.188668,5.1315837,26.877115,-16.731754,-1.7005666,-1.0502629,0.012042513,-7.206223,17.312654,-17.522346,0.76280093,-2.7294755,-0.051292695,4.3653493,4.5979013,12.2196455,-15.3120365,64.526436,9.973673,1.1540537,1.390443,2.6533496,-13.318444,21.046085,64.250755,-14.583712,1.7924106,-8.237441
48,0.24243588745594025,0.9585094451904297,125.00540161132812,-1.2723389844750415,-0.3023925134109756,-86.25019415889713,-7.5368085,4.303102,5.5944285,27.284592,-16.951939,-1.666656,-1.1918144,-0.037152223,-7.252557,17.660585,-17.74761,0.81306034,-2.7174976,-0.030343337,4.343137,4.6800303,12.234078,-15.22877,64.45801,10.021121,1.1444141,1.394966,2.6745095,-13.3584385,21.012783,64.19643,-14.613832,1.8027784,-8.222035
49,0.3091552257537842,0.9134624004364014,124.96502685546875,-1.298015771329518,-0.2681598452137114,-86.19284960945377,-7.6996827,4.429717,6.139617,27.698174,-17.176138,-1.6127685,-1.357684,-0.09774982,-7.2962008,18.050127,-17.986797,0.8688533,-2.7057767,-0.008262113,4.3312774,4.761185,12.246562,-15.151343,64.36853,10.046745,1.1372112,1.4320034,2.6859174,-13.392325,20.972424,64.14561,-14.616278,1.8141767,-8.252999
50,0.3777444362640381,0.8741415739059448,124.92402648925781,-1.3217105359832075,-0.2305399011557229,-86.13154650679337,-7.8613067,4.569547,6.768489,28.114197,-17.404558,-1.5451263,-1.5479127,-0.17053129,-7.3382163,18.483202,-18.241383,0.92988354,-2.6948242,0.012664635,4.325731,4.841583,12.258131,-15.075475,64.26296,10.058026,1.1312927,1.4904786,2.6903038,-13.423529,20.926647,64.0954,-14.599923,1.8269256,-8.312554
51,0.44458726048469543,0.8349515199661255,124.87773895263672,-1.332691873975777,-0.19615186286934275,-86.06439373993535,-8.012685,4.7150736,7.4821916,28.529465,-17.638573,-1.4613944,-1.7616297,-0.26618025,-7.3830266,18.97812,-18.527386,0.99951434,-2.6908185,0.025811713,4.339183,4.929685,12.276557,-14.995812,64.12819,10.073202,1.1248533,1.5453943,2.7051227,-13.471058,20.870945,64.01369,-14.580298,1.8344455,-8.370233
52,0.5169159770011902,0.797394871711731,124.8266372680664,-1.3236461008672804,-0.17153151700290376,-85.9896966275854,-8.139634,4.857564,8.282599,28.930244,-17.878761,-1.3593224,-1.9952738,-0.3955958,-7.4347773,19.54786,-18.856806,1.081036,-2.6913073,0.019077044,4.368386,5.0097456,12.297286,-14.924987,63.99357,10.105792,1.1171944,1.5836796,2.7225242,-13.51568,20.795202,63.92321,-14.578819,1.830044,-8.408569
53,0.586744487285614,0.7628628015518188,124.7701644897461,-1.2933207966448605,-0.15694676525954798,-85.9074103825649,-8.239811,5.001441,9.192215,29.316212,-18.12079,-1.2392765,-2.2469978,-0.56056666,-7.4969587,20.19108,-19.233192,1.178724,-2.7005575,-0.010562897,4.414385,5.0848956,12.322054,-14.8549,63.85519,10.166564,1.1094826,1.5951703,2.7428179,-13.55486,20.690548,63.82216,-14.594582,1.805948,-8.417955
54,0.665407657623291,0.7171029448509216,124.70892333984375,-1.243184797312567,-0.14949020781256725,-85.81831258606253,-8.3189125,5.1484942,10.202566,29.695335,-18.368202,-1.1019545,-2.519286,-0.75670826,-7.5660334,20.90343,-19.650318,1.2895086,-2.722741,-0.058322728,4.4662848,5.1537333,12.340193,-14.785776,63.724747,10.2437935,1.1027015,1.5980132,2.747862,-13.576557,20.578138,63.739594,-14.6146965,1.7691649,-8.419459
55,0.754035472869873,0.6814273595809937,124.64227294921875,-1.1769500265574002,-0.15082713065248285,-85.72212808844375,-8.370249,5.2851686,11.2694,30.055382,-18.626436,-0.9461582,-2.8123765,-0.98487896,-7.635591,21.68754,-20.10333,1.4057217,-2.731111,-0.12555858,4.5587883,5.2305017,12.396252,-14.7317095,63.540794,10.324469,1.0910991,1.5780523,2.797158,-13.632272,20.42353,63.572575,-14.663589,1.7280953,-8.396424
56,0.8374391794204712,0.648641049861908,124.57010650634766,-1.0932249219858916,-0.16284731871369096,-85.61850807013268,-8.390167,5.3976364,12.34827,30.388168,-18.90304,-0.7711604,-3.128521,-1.2459793,-7.6992383,22.550999,-20.59022,1.5199689,-2.7472632,-0.21022663,4.6618037,5.3022556,12.449689,-14.6947365,63.36416,10.395729,1.0743535,1.5732617,2.832257,-13.67944,20.295338,63.420395,-14.7395,1.7013186,-8.387631
57,0.9285393357276917,0.6154989004135132,124.49314880371094,-0.9914542542785538,-0.18497798916152533,-85.50753298318995,-8.365067,5.499151,13.503902,30.67197,-19.19861,-0.5705645,-3.4687176,-1.5383592,-7.753308,23.494713,-21.109539,1.6257575,-2.7636826,-0.3122718,4.783983,5.369594,12.505415,-14.673948,63.183086,10.465905,1.0499678,1.5850838,2.8663728,-13.7238245,20.17299,63.26028,-14.8682165,1.6919502,-8.388062
58,1.028332233428955,0.5722529292106628,124.4065170288086,-0.8737006580977824,-0.2166197168813785,-85.38933497071754,-8.300751,5.5889673,14.734055,30.919575,-19.511362,-0.34803134,-3.8311882,-1.8618474,-7.801247,24.514658,-21.662737,1.728849,-2.780686,-0.43239757,4.9253554,5.4341974,12.566499,-14.666913,62.994045,10.537991,1.0197654,1.6045113,2.9023921,-13.769043,20.049046,63.08805,-15.038088,1.6922415,-8.3910265
59,1.1304123401641846,0.5298753380775452,124.31019592285156,-0.7355551751311038,-0.2598586815193414,-85.26393617957375,-8.220681,5.6310678,15.8951845,31.163342,-19.840382,-0.117253035,-4.208238,-2.2201734,-7.8468504,25.60028,-22.245989,1.8407116,-2.8025794,-0.56970054,5.08154,5.4884267,12.626623,-14.674387,62.811523,10.600079,0.9866593,1.6260947,2.9271793,-13.811587,19.945566,62.923687,-15.211883,1.6975545,-8.401769
60,1.2344774007797241,0.4940604865550995,124.20565032958984,-0.5786968366409827,-0.3162634976600042,-85.13132081335799,-8.153962,5.5935073,16.842693,31.439667,-20.18523,0.108870156,-4.5919433,-2.6156826,-7.8948264,26.739933,-22.856956,1.9727364,-2.8250573,-0.7266041,5.256767,5.537834,12.704186,-14.707017,62.62021,10.631579,0.95429474,1.6342283,2.9526327,-13.866365,19.873901,62.74597,-15.35054,1.7050266,-8.416089
61,1.3401216268539429,0.45809754729270935,124.09123229980469,-0.3996428923297967,-0.3877080755196088,-84.99109740299383,-8.100376,5.4604907,17.547482,31.740396,-20.542261,0.34694168,-4.977927,-3.0540178,-7.9480124,27.933731,-23.498259,2.1359193,-2.858391,-0.9027731,5.4447675,5.574097,12.779303,-14.758985,62.44483,10.62516,0.91862047,1.6286528,2.9563909,-13.922516,19.855314,62.589188,-15.440569,1.717354,-8.447208
62,1.458182692527771,0.422759085893631,123.9669189453125,-0.19825079618184943,-0.47289787859234234,-84.84361848547279,-8.052264,5.252408,18.082787,32.052322,-20.91182,0.5974303,-5.3685694,-3.5311742,-8.003667,29.183256,-24.169973,2.322309,-2.8938532,-1.1002177,5.657014,5.6170826,12.878153,-14.835983,62.24238,10.582264,0.88118184,1.603778,2.9704714,-13.99978,19.869864,62.40311,-15.498547,1.7340039,-8.481582
63,1.5705021619796753,0.38040533661842346,123.82901000976562,0.017287744870814224,-0.5694377223223674,-84.69000539400979,-8.025495,4.9916515,18.458963,32.400627,-21.296055,0.8240623,-5.771326,-4.0364375,-8.057056,30.49251,-24.86204,2.5148575,-2.9311018,-1.3122668,5.8839397,5.6468573,12.983162,-14.926145,62.047947,10.535431,0.84434205,1.5817121,2.9787252,-14.082774,19.904747,62.214653,-15.546405,1.7495883,-8.514362
64,1.6821976900100708,0.3430253267288208,123.67887878417969,0.2412315729437516,-0.6747496014322887,-84.53149118042523,-8.035334,4.7013097,18.686182,32.811737,-21.69805,0.99063563,-6.194456,-4.5588746,-8.10224,31.866102,-25.565042,2.6961708,-2.9637914,-1.5351197,6.1245303,5.6565843,13.096884,-15.025438,61.86833,10.509163,0.8106979,1.5762569,2.9859796,-14.168165,19.941423,62.017822,-15.601879,1.7577304,-8.533752
65,1.8020036220550537,0.3088078200817108,123.51571655273438,0.4826017008984412,-0.7914681194148336,-84.36519653915137,-8.087679,4.361715,18.709112,33.293972,-22.119076,1.0650392,-6.6168723,-5.1103735,-8.140633,33.27313,-26.316769,2.8677955,-2.991979,-1.7808285,6.381214,5.64163,13.222295,-15.148129,61.707764,10.511611,0.7809244,1.597993,2.9902968,-14.253745,19.984035,61.816044,-15.664664,1.7583103,-8.536769
66,1.9213041067123413,0.2730894982814789,123.337158203125,0.7419771868392208,-0.9199727092766808,-84.19154519192445,-8.172838,3.9686892,18.543215,33.833244,-22.55638,1.0743047,-7.0395627,-5.6908603,-8.173365,34.718052,-27.107317,3.0367699,-3.0165946,-2.049539,6.6537848,5.6072125,13.360609,-15.293332,61.560074,10.528107,0.7537351,1.6366398,2.9903085,-14.3397,20.03869,61.611137,-15.726802,1.7543174,-8.529891
67,2.0312488079071045,0.24393317103385925,123.14506530761719,0.9966335210263648,-1.0542089469209188,-84.01720812931028,-8.288553,3.5729423,18.306065,34.437294,-23.016195,1.0698564,-7.5077777,-6.2746596,-8.196735,36.267677,-27.859076,3.1978323,-3.0344062,-2.319042,6.9365783,5.5602775,13.509535,-15.43086,61.420666,10.550234,0.72680825,1.6753062,2.991377,-14.424399,20.08695,61.395954,-15.79855,1.7430567,-8.515765
68,2.135655403137207,0.21737639605998993,122.9437484741211,1.2269308622541162,-1.1880520485982362,-83.84874954670293,-8.432177,3.224904,18.114027,35.109833,-23.503288,1.1036024,-8.06606,-6.836787,-8.206072,37.986633,-28.493826,3.3452423,-3.0424027,-2.566923,7.2232313,5.5089407,13.665443,-15.530724,61.28161,10.570504,0.7013528,1.6971328,2.9955237,-14.506713,20.112337,61.167427,-15.888732,1.7221351,-8.497823
69,2.2562415599823,0.1921931654214859,122.73555755615234,1.4343455054747152,-1.3213760584697423,-83.68356448005449,-8.609496,2.925839,17.984802,35.866734,-24.026052,1.194496,-8.700551,-7.3851624,-8.211414,39.86753,-29.044842,3.4978719,-3.0411112,-2.7969012,7.5100374,5.4511585,13.828481,-15.58354,61.14212,10.595689,0.6790294,1.6824564,3.0105667,-14.584893,20.105982,60.919342,-16.012505,1.6829367,-8.472513
70,2.355314016342163,0.17355629801750183,122.52880096435547,1.6278831561947578,-1.4567602872120122,-83.51956910490598,-8.819548,2.6527522,17.86051,36.700188,-24.579603,1.3134863,-9.394903,-7.9288306,-8.209613,41.881958,-29.535471,3.651442,-3.0319088,-3.017774,7.800657,5.384122,13.999279,-15.60533,61.00629,10.627589,0.6592028,1.6455476,3.0311682,-14.658542,20.078987,60.65773,-16.160599,1.6293452,-8.440188
71,2.447721481323242,0.1516033411026001,122.31831359863281,1.7959050365038558,-1.5921729571045662,-83.36365971897897,-9.048299,2.4190578,17.742708,37.574883,-25.14625,1.440783,-10.190286,-8.444284,-8.1751995,44.06349,-29.871735,3.7645624,-3.0142522,-3.213282,8.100193,5.3113546,14.173663,-15.603085,60.879448,10.651075,0.63699627,1.6217102,3.0404544,-14.7300825,20.044184,60.396553,-16.306747,1.5780213,-8.409578
72,2.5430707931518555,0.13546957075595856,122.10820007324219,1.9210641302916618,-1.7250988547439703,-83.2223945637757,-9.281528,2.2376702,17.63303,38.455437,-25.708187,1.5568715,-11.128276,-8.907846,-8.082291,46.445107,-29.95857,3.795014,-2.9884622,-3.3658714,8.413533,5.235582,14.344357,-15.582382,60.76914,10.652419,0.60708123,1.6467465,3.0227087,-14.80334,20.015327,60.148685,-16.423841,1.5454589,-8.38905
73,2.6351873874664307,0.12685233354568481,121.90473937988281,1.9958629307782676,-1.8496104584101243,-83.09804505541733,-9.527278,2.1214974,17.53007,39.344124,-26.261745,1.6549352,-12.225618,-9.310015,-7.925394,49.064407,-29.768948,3.765818,-2.9560518,-3.4625275,8.736152,5.15002,14.5072,-15.548013,60.68808,10.612425,0.5609311,1.744767,2.9721007,-14.881515,19.997349,59.916355,-16.507652,1.5432534,-8.382377
74,2.7288308143615723,0.11669567227363586,121.70579528808594,2.0295425514448153,-1.9685524106369536,-82.98631718245916,-9.788031,2.0602517,17.433126,40.25308,-26.814833,1.7464292,-13.457772,-9.666126,-7.717958,51.891384,-29.353174,3.6827712,-2.9176748,-3.5125282,9.066856,5.0539556,14.661668,-15.494511,60.632404,10.5455,0.5035571,1.892906,2.89866,-14.966011,19.983252,59.691883,-16.570873,1.5603194,-8.384117
75,2.829159736633301,0.11661344766616821,121.51482391357422,2.037824495907674,-2.0922908906255695,-82.8849490166953,-10.044119,2.0334506,17.345922,41.166782,-27.369879,1.8381163,-14.802867,-9.990018,-7.467762,54.858,-28.728813,3.4832377,-2.8731296,-3.5310588,9.415455,4.957619,14.805693,-15.414332,60.58564,10.485703,0.45009828,2.0569882,2.8113165,-15.056915,19.967888,59.471676,-16.613504,1.5796083,-8.388825
76,2.930781841278076,0.11072573065757751,121.32538604736328,2.0343260315864393,-2.2313887105367236,-82.79181067974002,-10.27457,2.0192487,17.272,42.06651,-27.927204,1.9372799,-16.235859,-10.293295,-7.1856327,57.887802,-27.911022,3.1106513,-2.8220146,-3.5337641,9.791463,4.8713145,14.9363575,-15.297673,60.53155,10.469336,0.41614744,2.2027807,2.717372,-15.154222,19.947206,59.25442,-16.63486,1.5841801,-8.39144
77,3.03243350982666,0.11410403251647949,121.13673400878906,2.0225664387014657,-2.3902501288874114,-82.71103828862778,-10.470467,2.016842,17.224012,42.94369,-28.489412,2.0512507,-17.801361,-10.587771,-6.8750997,61.057625,-26.708462,2.5220842,-2.7614565,-3.5183866,10.205021,4.792484,15.04869,-15.129397,60.46941,10.52632,0.41046295,2.326815,2.615491,-15.258297,19.910112,59.034824,-16.625093,1.5679442,-8.39316
78,3.1274800300598145,0.11455292999744415,120.95068359375,1.9947118044143182,-2.5628204353097708,-82.64170100449105,-10.642458,2.0347018,17.195425,43.805443,-29.05325,2.1747124,-19.492426,-10.8719,-6.5457363,64.364784,-25.165428,1.7608807,-2.694111,-3.4775472,10.647611,4.7151036,15.141945,-14.918383,60.41062,10.631444,0.42345634,2.4463966,2.5024529,-15.370119,19.862337,58.816525,-16.588524,1.5405816,-8.396077
79,3.233956813812256,0.12279227375984192,120.75624084472656,1.9539992004891502,-2.7438231615087294,-82.57456288231063,-10.803586,2.0678596,17.16309,44.667557,-29.616709,2.2943804,-21.21098,-11.131179,-6.2144356,67.62716,-23.651703,0.90690434,-2.6270943,-3.4195347,11.101402,4.64449,15.221826,-14.692952,60.35512,10.73627,0.4428389,2.5578249,2.3817165,-15.489815,19.826488,58.61071,-16.542778,1.508773,-8.39584
80,3.3332865238189697,0.13074085116386414,120.56087493896484,1.9047889840367846,-2.9285445708230307,-82.5008657301061,-10.967578,2.112318,17.103691,45.54718,-30.178387,2.3966103,-22.860516,-11.337988,-5.88698,70.67125,-22.543571,0.044186782,-2.5651748,-3.3530123,11.546927,4.582941,15.29371,-14.4853325,60.307724,10.790695,0.45656237,2.6589563,2.2542067,-15.607521,19.822134,58.435844,-16.509184,1.4796597,-8.390303
81,3.4185235500335693,0.13443338871002197,120.36573028564453,1.8486614739130263,-3.1197925930666974,-82.42670008185112,-11.135263,2.1679928,17.014502,46.45228,-30.735737,2.4766388,-24.443195,-11.483614,-5.568836,73.53687,-21.957485,-0.92559165,-2.5058517,-3.2811782,11.996017,4.552565,15.371117,-14.278854,60.23489,10.775857,0.4642659,2.7456086,2.1298227,-15.74135,19.860882,58.270267,-16.485497,1.4533836,-8.371456
82,3.5075418949127197,0.13155294954776764,120.16240692138672,1.7817318752184381,-3.3186801265440615,-82.35461739978494,-11.300497,2.2365522,16.906786,47.372257,-31.28986,2.542164,-26.004066,-11.568258,-5.2505865,76.29647,-21.68399,-1.9962016,-2.4437773,-3.199714,12.450665,4.538454,15.445502,-14.070359,60.154434,10.719625,0.47176754,2.8226314,2.0006456,-15.876841,19.925892,58.123867,-16.466856,1.4270762,-8.345893
83,3.582041025161743,0.11930084973573685,119.95794677734375,1.7004786649801917,-3.516795173428658,-82.27049267537367,-11.468655,2.3219304,16.781738,48.303085,-31.848457,2.594042,-27.513287,-11.573146,-4.9148397,78.84041,-21.63152,-2.9354835,-2.3939564,-3.1083698,12.894995,4.5351963,15.524406,-13.886607,60.075996,10.637455,0.47376484,2.880886,1.867474,-16.013815,20.01351,57.99629,-16.450106,1.4006637,-8.316129
84,3.6501429080963135,0.09483161568641663,119.75009155273438,1.603500027515843,-3.7058707667806066,-82.16083410588143,-11.644712,2.4261408,16.638689,49.23885,-32.418335,2.635218,-28.94275,-11.47974,-4.5402513,81.06192,-21.711756,-3.508106,-2.3685663,-3.0072534,13.314413,4.5376496,15.618296,-13.758921,60.007042,10.54224,0.46517256,2.9105551,1.7366414,-16.14939,20.115524,57.881245,-16.433506,1.3737503,-8.283876
85,3.714799165725708,0.06099952757358551,119.5384750366211,1.4830941974259075,-3.892695600355466,-82.02387082457587,-11.817511,2.5624309,16.481884,50.182205,-33.007652,2.6591184,-30.258348,-11.256782,-4.11427,82.919556,-22.017855,-3.5906534,-2.3708348,-2.894419,13.708779,4.550606,15.738034,-13.711723,59.94745,10.401129,0.44010013,2.9039607,1.6059849,-16.282604,20.249256,57.784126,-16.417562,1.3457205,-8.249691
86,3.7617781162261963,0.024370374158024788,119.32919311523438,1.3415849484893339,-4.078580785496739,-81.86631852784558,-11.988753,2.7253234,16.310205,51.13515,-33.610855,2.6662402,-31.485504,-10.920921,-3.6528072,84.48829,-22.57284,-3.3315806,-2.3920672,-2.774672,14.086535,4.5791297,15.884893,-13.724941,59.88601,10.216192,0.4029183,2.865352,1.4757266,-16.412271,20.409578,57.702473,-16.403757,1.3165517,-8.212026
87,3.8029770851135254,-0.023985369130969048,119.11470794677734,1.1935711619080829,-4.247343779916287,-81.68627082195529,-12.181148,2.889141,16.114729,52.090057,-34.21218,2.67041,-32.68376,-10.5309,-3.1770337,85.83014,-23.18212,-2.904656,-2.4267154,-2.6577947,14.444958,4.615972,16.05238,-13.762781,59.817802,10.054872,0.36393955,2.8039255,1.3517616,-16.53442,20.556404,57.623463,-16.390457,1.2871792,-8.17048
88,3.836041212081909,-0.07331157475709915,118.9051513671875,1.0477597350602046,-4.382364709391403,-81.48211791784854,-12.417555,3.0298765,15.887244,53.03869,-34.801,2.6843512,-33.910538,-10.143552,-2.7052338,86.999146,-23.647919,-2.482378,-2.4682848,-2.5528495,14.780001,4.6506963,16.230556,-13.789823,59.743034,9.985863,0.3335544,2.7307606,1.2377323,-16.646032,20.648846,57.538727,-16.37769,1.258729,-8.12571
89,3.864388942718506,-0.12155032157897949,118.69084930419922,0.9085134205170232,-4.476243767612324,-81.25036315383348,-12.7095175,3.1416857,15.617905,53.978825,-35.370358,2.7123127,-35.186264,-9.753517,-2.229015,87.99604,-23.950274,-2.0680468,-2.5205297,-2.4601603,15.085669,4.6785674,16.41433,-13.807953,59.665447,10.054462,0.315976,2.6337123,1.1335897,-16.74597,20.673334,57.442932,-16.369217,1.2290386,-8.074049
90,3.896643877029419,-0.17426884174346924,118.4773941040039,0.7685861322177798,-4.538989921805286,-80.99262232141649,-13.043233,3.2363098,15.313068,54.915703,-35.928493,2.7475545,-36.47699,-9.341323,-1.7409136,88.795204,-24.184662,-1.5867894,-2.5850148,-2.37432,15.364817,4.7011404,16.604263,-13.833282,59.59072,10.216271,0.304848,2.5139937,1.0358571,-16.83459,20.652555,57.345875,-16.36404,1.1984309,-8.017543
91,3.9217305183410645,-0.2273034006357193,118.25926208496094,0.6300028091131631,-4.580393410783468,-80.71519975910343,-13.4042425,3.316809,14.9876795,55.852936,-36.482803,2.7872853,-37.762592,-8.934863,-1.2529488,89.40773,-24.317554,-1.0864357,-2.6529183,-2.295003,15.626562,4.7199197,16.79833,-13.849488,59.51959,10.406816,0.2948251,2.4029238,0.94360775,-16.912443,20.59901,57.26152,-16.356977,1.1720787,-7.9648814
92,3.9420318603515625,-0.28311678767204285,118.03771209716797,0.49482763307272815,-4.610366155357262,-80.42474525109417,-13.77963,3.3852816,14.655352,56.795425,-37.037712,2.8309083,-39.02374,-8.559647,-0.7737674,89.84466,-24.311998,-0.6115929,-2.7162585,-2.2218356,15.879243,4.735722,16.993658,-13.839877,59.45448,10.561848,0.28113857,2.3318925,0.85272396,-16.981556,20.528137,57.20687,-16.34149,1.1551627,-7.9253864
93,3.9582808017730713,-0.3460487127304077,117.8121566772461,0.36111233927259656,-4.625302894788416,-80.11306858715675,-14.177313,3.438067,14.313289,57.74788,-37.594894,2.8831482,-40.2686,-8.230387,-0.3051695,90.10485,-24.181908,-0.17171118,-2.7828746,-2.154927,16.120457,4.7507954,17.18736,-13.797629,59.39453,10.681516,0.2617998,2.3142488,0.763866,-17.041298,20.43696,57.19059,-16.325039,1.1492002,-7.9061
94,3.984084367752075,-0.401713103055954,117.57937622070312,0.23223214002814452,-4.6220544442813125,-79.78022373083792,-14.600241,3.4750671,13.955665,58.706135,-38.15129,2.9435716,-41.50271,-7.931188,0.16329929,90.18118,-23.936535,0.25532204,-2.8551548,-2.0937946,16.346878,4.7635727,17.379118,-13.730858,59.34059,10.795482,0.23988172,2.3321075,0.67686313,-17.091505,20.321718,57.204147,-16.307468,1.1515738,-7.900828
95,3.99696946144104,-0.4701767563819885,117.34307098388672,0.10390231332856892,-4.610694901075251,-79.44396997567767,-15.0296955,3.5059216,13.592565,59.666794,-38.71113,3.001932,-42.702187,-7.6406436,0.63928777,90.07677,-23.534126,0.67142826,-2.9168353,-2.0358138,16.566214,4.7707787,17.569614,-13.645178,59.296085,10.883079,0.21775232,2.3699536,0.58951974,-17.135303,20.19546,57.234634,-16.270947,1.1608565,-7.8980546
96,4.006683826446533,-0.5450093746185303,117.09814453125,-0.024013533560249652,-4.601122842382123,-79.12238265302003,-15.445606,3.5397418,13.234489,60.62454,-39.274643,3.0482032,-43.84375,-7.336621,1.130456,89.79605,-22.933496,1.0797765,-2.952265,-1.9784517,16.786413,4.7699485,17.759876,-13.545579,59.26324,10.923406,0.19750823,2.411797,0.499711,-17.178097,20.072155,57.267998,-16.196566,1.1759557,-7.885904
97,4.009880065917969,-0.6204758286476135,116.85054016113281,-0.15643626558682502,-4.598992226106755,-78.82249190716296,-15.840108,3.5833297,12.880506,61.57916,-39.843014,3.075107,-44.923294,-7.0263124,1.6226239,89.32929,-22.14016,1.4677883,-2.9546294,-1.9145015,17.016256,4.7619925,17.949177,-13.428286,59.238697,10.886516,0.17888132,2.4605422,0.4139022,-17.221699,19.938072,57.29188,-16.06314,1.2011682,-7.8591924
98,4.014057636260986,-0.709661602973938,116.60135650634766,-0.2904686894330568,-4.597866581464277,-78.53394438799559,-16.224745,3.6304302,12.526226,62.533405,-40.41552,3.0897365,-45.95112,-6.7153835,2.1197362,88.676834,-21.170464,1.8389717,-2.9328356,-1.8460809,17.249544,4.7476645,18.136877,-13.292794,59.222168,10.791448,0.1608556,2.522011,0.33320856,-17.266481,19.790781,57.31333,-15.885572,1.235493,-7.824142
99,4.0222039222717285,-0.8003400564193726,116.34700012207031,-0.4184346189229992,-4.590102190928269,-78.24926296246737,-16.608995,3.6728477,12.177406,63.485985,-40.992798,3.1014075,-46.921165,-6.377945,2.6553476,87.85485,-19.999323,2.2212427,-2.8954985,-1.7827377,17.472885,4.725602,18.323982,-13.147968,59.21776,10.691758,0.14445736,2.5842543,0.24983194,-17.3147,19.662407,57.34289,-15.698237,1.2700554,-7.7856565
100,4.021195411682129,-0.900824248790741,116.08785247802734,-0.532496189495478,-4.56821510603828,-77.96107574361976,-17.00161,3.7022753,11.840346,64.435196,-41.57614,3.1186774,-47.826244,-5.9875484,3.2649782,86.879684,-18.60292,2.6439998,-2.8520863,-1.7350483,17.672756,4.6964383,18.512207,-13.000335,59.228584,10.641664,0.13045958,2.6350114,0.15548243,-17.370457,19.585386,57.391304,-15.536555,1.2957171,-7.7485223
101,4.0213165283203125,-1.00190007686615,115.82263946533203,-0.628320395551385,-4.525702777550063,-77.67981722423494,-17.406408,3.7189178,11.527552,65.37763,-42.16843,3.1484373,-48.68124,-5.515439,3.9833636,85.739746,-16.93856,3.1160078,-2.7946756,-1.7086917,17.842285,4.6619353,18.700956,-12.844453,59.256073,10.669283,0.119454905,2.6739368,0.046698593,-17.436642,19.579735,57.45671,-15.396847,1.3088504,-7.7172184
102,4.010015487670898,-1.1153900623321533,115.55490112304688,-0.7109161214762317,-4.468405883290967,-77.4054484427768,-17.818207,3.7269204,11.2318325,66.316154,-42.767677,3.1847298,-49.477425,-4.978721,4.790839,84.43121,-15.034534,3.6269746,-2.7232387,-1.6960744,17.990221,4.6234446,18.889177,-12.676778,59.296543,10.741463,0.1108465,2.7062833,-0.07140325,-17.513344,19.625713,57.532646,-15.264633,1.3148319,-7.6876507
103,4.006543159484863,-1.227621078491211,115.27902221679688,-0.7887155380688531,-4.4067492800751165,-77.1155347956838,-18.23245,3.7249565,10.929666,67.25793,-43.371613,3.2159877,-50.172062,-4.4196796,5.6426363,82.979904,-12.971641,4.178984,-2.6570556,-1.6864272,18.127502,4.579362,19.078632,-12.5097885,59.344227,10.81966,0.104012586,2.7277656,-0.1930053,-17.598703,19.69755,57.62166,-15.153657,1.3175753,-7.6510477
104,3.9974915981292725,-1.343114972114563,114.9977798461914,-0.87168112112062,-4.350941504975626,-76.7877734643939,-18.646053,3.710088,10.597104,68.212494,-43.9774,3.2324097,-50.72899,-3.8833175,6.493818,81.41605,-10.828893,4.772323,-2.6144783,-1.6696165,18.26508,4.5276656,19.272842,-12.357171,59.393074,10.864401,0.09817754,2.7339828,-0.3100846,-17.688692,19.76659,57.725185,-15.079332,1.320856,-7.5986276
105,3.9834113121032715,-1.46533203125,114.71139526367188,-0.9640144956444465,-4.298384413229683,-76.41590285794403,-19.064533,3.6816435,10.230925,69.18125,-44.580708,3.2307875,-51.139385,-3.351257,7.3666267,79.703255,-8.504831,5.498127,-2.5979538,-1.6414766,18.403402,4.460846,19.476244,-12.232194,59.445038,10.852355,0.09402993,2.7104423,-0.4270915,-17.78146,19.829998,57.85618,-15.056589,1.3238627,-7.517352
106,3.9705424308776855,-1.5967590808868408,114.41849517822266,-1.0591717497182207,-4.245458806991244,-76.0124754433424,-19.487532,3.6415408,9.843009,70.16067,-45.18613,3.215855,-51.42193,-2.8066962,8.288604,77.84571,-5.9999447,6.3348107,-2.595653,-1.608823,18.537653,4.3818793,19.689758,-12.126749,59.501366,10.807577,0.09168527,2.6634188,-0.54510427,-17.876974,19.89839,58.010227,-15.074939,1.3247938,-7.4155283
107,3.9619650840759277,-1.7280038595199585,114.11609649658203,-1.1545438398398755,-4.200204614809526,-75.58201589426199,-19.900885,3.5889902,9.433096,71.148125,-45.7965,3.1906285,-51.57871,-2.3062577,9.208231,75.91209,-3.547943,7.10193,-2.6059642,-1.5784702,18.670174,4.3035946,19.910608,-12.024221,59.55496,10.760141,0.09002297,2.6192865,-0.6514459,-17.972216,19.96578,58.161278,-15.110557,1.326806,-7.316767
108,3.931684732437134,-1.8818963766098022,113.80590057373047,-1.247098253139068,-4.17038763033763,-75.12922420304055,-20.29047,3.5206096,9.001945,72.14031,-46.41358,3.1584828,-51.623875,-1.9202043,10.05589,73.98083,-1.3737559,7.602416,-2.627001,-1.5596406,18.80216,4.2383313,20.134604,-11.906685,59.6008,10.742458,0.08784265,2.6053436,-0.73763835,-18.065048,20.027514,58.28932,-15.139273,1.3330384,-7.2454004
109,3.9109303951263428,-2.0353305339813232,113.49073791503906,-1.3408760094998233,-4.159887041938673,-74.64881079052164,-20.65454,3.4350917,8.5395155,73.14136,-47.04283,3.1188333,-51.561584,-1.6648414,10.805419,72.05335,0.4894993,7.7088523,-2.6632824,-1.550854,18.937222,4.189957,20.357498,-11.752132,59.638107,10.779408,0.084620215,2.632652,-0.8012154,-18.153,20.085772,58.39037,-15.158924,1.3444104,-7.213142
110,3.8815982341766357,-2.2088050842285156,113.17469024658203,-1.435243313960148,-4.16292474278424,-74.14049644564489,-20.999102,3.3314536,8.051391,74.15004,-47.67813,3.0705948,-51.39876,-1.5224043,11.473271,70.100815,2.159682,7.5304008,-2.7162075,-1.5503573,19.071573,4.1507244,20.579788,-11.57448,59.67232,10.849294,0.08129639,2.6866372,-0.8519797,-18.236582,20.145197,58.481327,-15.180993,1.3594428,-7.2064586
111,3.848426103591919,-2.3881208896636963,112.85431671142578,-1.5159750160281777,-4.173584183246087,-73.61687585872954,-21.322756,3.2074053,7.562722,75.15622,-48.316303,3.0145805,-51.15445,-1.5112382,12.047779,68.1481,3.6393735,7.2232976,-2.7772748,-1.5659155,19.196701,4.115604,20.804655,-11.410196,59.70652,10.914907,0.078208,2.755301,-0.8916509,-18.316717,20.199839,58.56346,-15.202865,1.3776001,-7.2107387
112,3.8245937824249268,-2.5716845989227295,112.52757263183594,-1.571217161714712,-4.186103231562451,-73.09013812577807,-21.623854,3.0614004,7.0983953,76.14921,-48.951843,2.9521182,-50.845196,-1.6418172,12.522245,66.21734,4.9297814,6.949394,-2.8363552,-1.6043134,19.30487,4.0780134,21.037012,-11.299347,59.74365,10.93656,0.07580097,2.8262622,-0.91906434,-18.393627,20.242418,58.6346,-15.220893,1.3982438,-7.211083
113,3.796989917755127,-2.7664670944213867,112.19570922851562,-1.595092598056093,-4.203723647079264,-72.56395381410289,-21.89084,2.8904643,6.6717896,77.11744,-49.583267,2.8814843,-50.46205,-1.9319763,12.879498,64.30213,5.9713154,6.710734,-2.8875325,-1.6720588,19.397223,4.032764,21.281353,-11.27081,59.790768,10.884587,0.0765008,2.912394,-0.9330552,-18.469091,20.274094,58.69664,-15.226442,1.4225571,-7.203227
114,3.76326322555542,-2.9691035747528076,111.86023712158203,-1.5643614254887626,-4.215878873912489,-72.01894522393494,-22.133837,2.6567693,6.2793946,77.98201,-50.000305,2.8100455,-50.018917,-2.386708,13.148795,62.394726,6.783563,6.4488935,-2.9451766,-1.792574,19.465824,3.9815116,21.538649,-11.300299,59.84358,10.785333,0.07896039,3.0138254,-0.9285422,-18.541037,20.292053,58.742683,-15.224815,1.4503263,-7.194734
115,3.7299561500549316,-3.1730153560638428,111.53131866455078,-1.4038562019955276,-4.176628820614628,-71.4144860389231,-22.41182,2.2522378,5.9348216,78.662994,-50.000305,2.7655206,-49.591526,-3.0356293,13.439634,60.524822,7.480745,6.253453,-3.0508087,-2.0464532,19.468258,3.9256003,21.810976,-11.34818,59.892124,10.681118,0.07742772,3.0999875,-0.909334,-18.602089,20.28871,58.769295,-15.231663,1.4790515,-7.1904173
116,3.6988508701324463,-3.3859479427337646,111.19332122802734,-1.2389648751094489,-4.128078646708449,-70.7974543014286,-22.714586,1.8383982,5.5788817,79.38179,-50.000305,2.7197726,-49.139675,-3.720126,13.673679,58.68746,8.191255,6.157979,-3.1629694,-2.3083744,19.44738,3.8826118,22.093477,-11.373502,59.915318,10.614211,0.068122394,3.1395,-0.8790756,-18.651625,20.258514,58.77887,-15.264462,1.5056473,-7.192199
117,3.651895761489868,-3.60880708694458,110.8445053100586,-1.066003190222341,-4.070915887316762,-70.15931293873483,-23.040874,1.4036087,5.202346,80.13324,-50.000305,2.6704803,-48.660767,-4.466984,13.829836,56.883312,8.924694,6.2109747,-3.292103,-2.5825784,19.39933,3.855571,22.386236,-11.37427,59.918385,10.594826,0.04552494,3.1016102,-0.84239393,-18.688873,20.210596,58.78198,-15.321956,1.5274402,-7.1997156
118,3.5980536937713623,-3.833709716796875,110.48668670654297,-0.883241341366542,-4.0088851064301485,-69.50304060746225,-23.38303,0.94788677,4.816278,80.913025,-50.000305,2.6172051,-48.14168,-5.280616,13.898635,55.09972,9.629727,6.374423,-3.4354467,-2.8711936,19.327164,3.8419359,22.689613,-11.366518,59.90531,10.600872,0.013824919,3.0103247,-0.798945,-18.714516,20.146902,58.778698,-15.398166,1.5467534,-7.212054
119,3.553481340408325,-4.060764789581299,110.12120056152344,-0.6968785394709435,-3.937434508694649,-68.8440967536572,-23.745455,0.49491638,4.437852,81.728424,-50.000305,2.5612082,-47.59777,-6.0889354,13.939873,53.342884,10.32747,6.5805435,-3.577479,-3.163583,19.23488,3.838555,22.997967,-11.337733,59.86332,10.628949,-0.017874828,2.9184773,-0.7444877,-18.729832,20.051971,58.75084,-15.4985695,1.5680043,-7.231797
120,3.5170741081237793,-4.300981521606445,109.7448959350586,-0.5126110771786655,-3.8506397129101972,-68.19747762527791,-24.137077,0.06351424,4.081373,82.58981,-50.000305,2.5114489,-47.049725,-6.829019,14.013108,51.62687,11.036718,6.7529135,-3.7037344,-3.4483905,19.125887,3.8404474,23.30298,-11.275416,59.78286,10.675731,-0.04045525,2.879825,-0.67571884,-18.737417,19.91112,58.681164,-15.6291065,1.5955757,-7.26153
121,3.4670512676239014,-4.537429332733154,109.36783599853516,-0.3268360485368933,-3.740696094564812,-67.56121496976166,-24.55557,-0.3444058,3.7610695,83.47275,-50.000305,2.4777498,-46.503296,-7.4977064,14.133561,49.947666,11.783723,6.8729353,-3.81148,-3.7235794,18.992321,3.8395941,23.596643,-11.175701,59.67609,10.744558,-0.05026853,2.9128098,-0.584134,-18.73855,19.709082,58.56082,-15.806028,1.6349719,-7.3078394
122,3.4125332832336426,-4.780109405517578,108.98757934570312,-0.13823258564266214,-3.61294077827462,-66.92916831695031,-24.999054,-0.7385534,3.4653716,84.38099,-50.000305,2.453768,-45.949776,-8.130448,14.2708025,48.30376,12.549495,6.9762917,-3.9087412,-3.990699,18.834532,3.835774,23.878263,-11.047447,59.55001,10.837088,-0.052499235,2.9896855,-0.47388762,-18.734367,19.458502,58.40065,-16.019392,1.682671,-7.3672876
123,3.360105037689209,-5.031664848327637,108.59934997558594,0.044645998676275514,-3.479629340917011,-66.31041805935818,-25.474346,-1.1145363,3.1724746,85.363785,-50.000305,2.4184532,-45.38357,-8.715764,14.41692,46.707825,13.283135,7.0673614,-3.997532,-4.2457757,18.667622,3.8399577,24.152021,-10.893337,59.382153,10.949255,-0.050770644,3.0935733,-0.35837108,-18.728495,19.181833,58.210415,-16.242144,1.7298204,-7.427153
124,3.3012561798095703,-5.295664310455322,108.20545959472656,0.21274557780535272,-3.353824145512439,-65.7142897757598,-25.986927,-1.4693274,2.8603704,86.47075,-50.000305,2.351354,-44.798016,-9.24284,14.5640545,45.1708,13.934802,7.1505756,-4.079939,-4.4848757,18.508543,3.8653097,24.424383,-10.715671,59.14695,11.075203,-0.0489897,3.2065935,-0.24970628,-18.724615,18.902931,57.997093,-16.44556,1.7672795,-7.47424
125,3.2502059936523438,-5.5561299324035645,107.802734375,0.362751712756932,-3.2382894861019373,-65.14616420331507,-26.531652,-1.7944479,2.5297496,87.71128,-50.000305,2.238915,-44.18001,-9.701193,14.722356,43.679417,14.481539,7.2251186,-4.1552467,-4.7066803,18.36048,3.9219615,24.69875,-10.507084,58.83483,11.234404,-0.04445227,3.3354073,-0.158822,-18.725151,18.634216,57.77291,-16.5938,1.7877743,-7.50747
126,3.18369722366333,-5.819847583770752,107.39115142822266,0.4982624565842906,-3.125483170357046,-64.6000696046288,-27.106232,-2.099383,2.1899283,89.058395,-50.000305,2.097563,-43.53806,-10.103087,14.894673,42.23511,14.95171,7.286162,-4.223534,-4.915006,18.216454,4.005465,24.974339,-10.266496,58.45464,11.421652,-0.0360946,3.4840453,-0.07533843,-18.729357,18.36201,57.52665,-16.710897,1.7977291,-7.5322075
127,3.1156725883483887,-6.088407516479492,106.96851348876953,0.6271931317033982,-3.017545660878262,-64.07013283970511,-27.707094,-2.392729,1.8396988,90.49523,-50.000305,1.9291215,-42.893345,-10.468521,15.062879,40.865532,15.376017,7.3338766,-4.2858505,-5.114417,18.077301,4.1066337,25.251455,-10.004826,58.00982,11.596509,-0.030702855,3.6306996,0.018236777,-18.73645,18.0711,57.23274,-16.855337,1.8080522,-7.5453763
128,3.0420758724212646,-6.3566484451293945,106.53713989257812,0.7547606871736567,-2.9160094273963906,-63.55030006088974,-28.331743,-2.6859686,1.4765426,92.006744,-50.000305,1.7390969,-42.265568,-10.814519,15.208747,39.596703,15.785903,7.369448,-4.342228,-5.309959,17.943825,4.215209,25.53166,-9.734617,57.50377,11.718074,-0.035127178,3.7535682,0.13918898,-18.746927,17.745752,56.866165,-17.08592,1.8301091,-7.543953
129,2.9725801944732666,-6.631949424743652,106.09567260742188,0.8791889352275859,-2.817642535718819,-63.03888693003759,-28.982964,-2.976289,1.1036043,93.599014,-50.000305,1.5241498,-41.662872,-11.135426,15.346334,38.443222,16.162182,7.3825665,-4.392817,-5.4987254,17.816013,4.330792,25.814898,-9.453954,56.928947,11.760346,-0.04907452,3.8327467,0.29361355,-18.758835,17.363483,56.411053,-17.453402,1.8725713,-7.512144
130,2.892390012741089,-6.908802032470703,105.64625549316406,1.0009198069031953,-2.724280711831965,-62.539769557239154,-29.658066,-3.2674942,0.7211028,95.27618,-50.000305,1.2870517,-41.07458,-11.424491,15.482002,37.391212,16.49534,7.3748894,-4.434279,-5.68039,17.694517,4.4560223,26.101349,-9.160658,56.287525,11.749476,-0.06985215,3.884627,0.47304586,-18.77163,16.935608,55.88269,-17.915653,1.9269916,-7.4562407
131,2.8016254901885986,-7.19061279296875,105.18944549560547,1.1235276277676696,-2.6426813337477313,-62.055252831145005,-30.329266,-3.5586374,0.3269332,97.00014,-50.000305,1.0140288,-40.488537,-11.7019825,15.587691,36.415237,16.838625,7.3678775,-4.4638867,-5.8637433,17.58062,4.587524,26.392647,-8.865373,55.59417,11.722447,-0.100487426,3.9409647,0.676566,-18.786573,16.49702,55.297146,-18.391241,1.9797319,-7.4052367
132,2.723775625228882,-7.475797653198242,104.72537231445312,1.2540846685639444,-2.5796697080600004,-61.58708132340236,-30.978428,-3.8600667,-0.081735365,98.741516,-50.000305,0.70344675,-39.896862,-11.987243,15.635417,35.49749,17.240786,7.3834467,-4.4793444,-6.057956,17.475857,4.722671,26.690716,-8.577903,54.862667,11.716651,-0.14432852,4.0333056,0.9037852,-18.805923,16.082586,54.669914,-18.79811,2.0173407,-7.3883476
133,2.6338284015655518,-7.774628162384033,104.24803161621094,1.3914296455925812,-2.541729623567477,-61.13994996819912,-31.585505,-4.1704803,-0.4958667,100.49264,-50.000305,0.3469204,-39.290104,-12.274086,15.6255,34.637203,17.718435,7.4239655,-4.475499,-6.2642403,17.387419,4.8728724,26.99384,-8.286412,54.077446,11.735637,-0.20818551,4.16528,1.1598517,-18.829386,15.692929,53.984566,-19.113283,2.0399354,-7.417591
134,2.545551300048828,-8.080683708190918,103.761962890625,1.5352001064743497,-2.523948328370741,-60.711576745640116,-32.16387,-4.4926724,-0.9164136,102.26891,-50.000305,-0.05166158,-38.677467,-12.555033,15.572994,33.84729,18.241846,7.4794393,-4.456527,-6.479893,17.312462,5.038349,27.301458,-7.9875712,53.23525,11.762639,-0.2883208,4.3215747,1.4419255,-18.856739,15.313427,53.239994,-19.379793,2.0540633,-7.4763827
135,2.4483468532562256,-8.382528305053711,103.2697525024414,1.6863067838900492,-2.5158886699985468,-60.293917450119984,-32.728397,-4.8308935,-1.3496747,104.06536,-50.000305,-0.48151183,-38.06708,-12.844002,15.469205,33.115498,18.798407,7.5537047,-4.43206,-6.7059608,17.238811,5.1986704,27.61831,-7.70711,52.367645,11.801885,-0.3715345,4.5046678,1.7426615,-18.890106,14.953616,52.467777,-19.61745,2.0566173,-7.5500145
136,2.345632314682007,-8.700756072998047,102.76631164550781,1.8464553021463932,-2.507016250131241,-59.87884316646147,-33.29505,-5.19076,-1.8024796,105.87664,-50.000305,-0.9316496,-37.46697,-13.1528,15.304847,32.43037,19.375582,7.6509113,-4.41126,-6.9446726,17.15433,5.332672,27.951513,-7.4718294,51.506123,11.856802,-0.44481236,4.7162232,2.0554554,-18.932724,14.622624,51.699306,-19.84444,2.0440428,-7.6235247
137,2.2362287044525146,-9.029508590698242,102.24982452392578,2.013947354071495,-2.5017284000921745,-59.473306655904466,-33.85344,-5.5708747,-2.275177,107.708176,-50.000305,-1.4016167,-36.863575,-13.475343,15.08697,31.776165,19.979279,7.797345,-4.385713,-7.196299,17.061417,5.445971,28.305117,-7.2921195,50.64152,11.91941,-0.5129227,4.97222,2.377263,-18.987667,14.337082,50.942028,-20.074518,2.0087059,-7.704996
138,2.1326794624328613,-9.362998962402344,101.72258758544922,2.1894940390008077,-2.504278011871934,-59.07924929107512,-34.391846,-5.972229,-2.7632844,109.55845,-50.000305,-1.9007045,-36.255352,-13.804167,14.819185,31.163685,20.613417,7.9836164,-4.3520856,-7.460668,16.966501,5.546425,28.677876,-7.153757,49.7602,11.989239,-0.57997507,5.264993,2.7171597,-19.053228,14.084741,50.173504,-20.294277,1.9544493,-7.7973676
139,2.016106128692627,-9.701947212219238,101.18316650390625,2.3793567650807232,-2.5029547919437,-58.68006617160583,-34.928032,-6.406911,-3.2652168,111.41253,-50.000305,-2.4313457,-35.67118,-14.160815,14.489497,30.619473,21.261135,8.159936,-4.327145,-7.741038,16.861834,5.613522,29.069574,-7.049046,48.88889,12.080434,-0.6321349,5.5615315,3.083636,-19.125156,13.8326435,49.384235,-20.481567,1.8946645,-7.8783164
140,1.9076894521713257,-10.047652244567871,100.6322250366211,2.588500492491554,-2.487345811339381,-58.25997300269315,-35.478817,-6.884116,-3.7802129,113.26285,-50.000305,-2.9957128,-35.138657,-14.561568,14.082487,30.173275,21.906305,8.274881,-4.3253555,-8.038419,16.740685,5.6253443,29.479897,-6.97185,48.05507,12.207262,-0.6555622,5.828519,3.4888892,-19.195078,13.544518,48.56092,-20.615723,1.8423591,-7.9250765
141,1.7914211750030518,-10.399935722351074,100.05889129638672,2.8225726628670227,-2.4559203691600344,-57.824911227859815,-36.041306,-7.4036446,-4.295566,115.107216,-50.000305,-3.6034393,-34.672935,-15.002459,13.614714,29.84857,22.523258,8.29685,-4.3413906,-8.35856,16.60049,5.59002,29.906572,-6.908779,47.243458,12.406827,-0.63537073,6.0606427,3.926054,-19.258036,13.203009,47.707844,-20.680777,1.7966404,-7.91891
142,1.6624245643615723,-10.758951187133789,99.47206115722656,3.079400423845694,-2.414897615509277,-57.37951288574286,-36.603653,-7.965267,-4.813714,116.95141,-50.000305,-4.252198,-34.253937,-15.478891,13.086512,29.624483,23.127666,8.258653,-4.37021,-8.70116,16.444313,5.511699,30.350405,-6.8690596,46.449234,12.661061,-0.5820894,6.27489,4.3904014,-19.313375,12.828483,46.832,-20.692854,1.7520984,-7.877156
143,1.5230040550231934,-11.121990203857422,98.8636245727539,3.3522747646255278,-2.3655214200166133,-56.90626597543041,-37.170284,-8.578409,-5.356983,118.79171,-50.000305,-4.9266014,-33.856747,-16.012117,12.460369,29.465292,23.765137,8.206569,-4.4255805,-9.05978,16.27293,5.3591185,30.818516,-6.8852973,45.718643,12.898378,-0.52068317,6.471145,4.895299,-19.359732,12.4406395,45.92666,-20.678942,1.7154628,-7.831135
144,1.3817341327667236,-11.492267608642578,98.23694610595703,3.6345952105622694,-2.309373417006746,-56.38784504498352,-37.744205,-9.253728,-5.9470654,120.62761,-50.000305,-5.611459,-33.46183,-16.619461,11.701388,29.34914,24.473326,8.187939,-4.51799,-9.429767,16.087507,5.0968113,31.321846,-6.99494,45.100086,13.045687,-0.4766362,6.649032,5.4562726,-19.396364,12.055774,44.984135,-20.666718,1.6933703,-7.8122325
145,1.2341350317001343,-11.875032424926758,97.59119415283203,3.922907139327624,-2.2475759157267845,-55.82206488804117,-38.321514,-9.989836,-6.5869927,122.46505,-50.000305,-6.3064814,-33.056866,-17.32585,10.746326,29.252138,25.328524,8.233752,-4.6465487,-9.810583,15.884422,4.7251983,31.869326,-7.2148004,44.59839,13.0487175,-0.45826277,6.8026857,6.08482,-19.421808,11.6775465,43.992,-20.663467,1.6986055,-7.8314843
146,1.0835098028182983,-12.26383113861084,96.92770385742188,4.223626256711109,-2.180933247823125,-55.21699459437212,-38.8929,-10.787243,-7.2633758,124.30302,-50.000305,-7.022233,-32.65079,-18.115662,9.634659,29.200396,26.284607,8.313976,-4.8030176,-10.209241,15.665105,4.252871,32.460217,-7.5325813,44.191784,12.953494,-0.45279345,6.9321556,6.774708,-19.432844,11.292002,42.953312,-20.65441,1.7236136,-7.870715
147,0.9179356694221497,-12.666010856628418,96.244140625,4.54588299160455,-2.1103206242990575,-54.56935387693162,-39.45491,-11.658821,-7.9730287,126.124504,-50.000305,-7.760265,-32.248753,-18.949385,8.481296,29.227608,27.206007,8.382991,-4.9885573,-10.631987,15.437506,3.656256,33.088085,-7.9428964,43.8892,12.838456,-0.4540227,7.0466633,7.514016,-19.425997,10.891529,41.88531,-20.633844,1.7447368,-7.9174542
148,0.7519502639770508,-13.077397346496582,95.53994750976562,4.898055248311613,-2.036326629629299,-53.87586725970758,-40.009052,-12.61418,-8.711621,127.912796,-50.000305,-8.520754,-31.85343,-19.791119,7.3973155,29.350052,27.968052,8.394542,-5.205215,-11.08327,15.2085495,2.910176,33.743214,-8.441176,43.701763,12.782882,-0.45530376,7.1565747,8.289607,-19.397757,10.470072,40.806454,-20.596304,1.7380023,-7.9592404
149,0.592098593711853,-13.482548713684082,94.8141860961914,5.282492065012636,-1.9561950899621652,-53.13592967174397,-40.56182,-13.662917,-9.471616,129.66997,-50.000305,-9.299804,-31.47797,-20.65461,6.3672013,29.58238,28.537807,8.29524,-5.452721,-11.563196,14.97479,2.0049367,34.419205,-9.027143,43.634346,12.822919,-0.4571969,7.2677145,9.104286,-19.345875,10.020029,39.709766,-20.577423,1.7050354,-7.995198
150,0.41466066241264343,-13.896207809448242,94.07023620605469,5.7279926104592365,-1.8547186539785583,-52.32507772935688,-41.14878,-14.838803,-10.2273,131.40096,-50.000305,-10.089303,-31.140835,-21.601696,5.359981,29.91164,28.98436,8.13266,-5.7611537,-12.101066,14.708699,0.94842476,35.11416,-9.709467,43.684155,12.913209,-0.4626301,7.37443,9.959455,-19.266848,9.550329,38.592052,-20.567324,1.6559166,-8.032177
151,0.2396475076675415,-14.314629554748535,93.30068969726562,6.2282237861348255,-1.744504544428449,-51.446872165366266,-41.751286,-16.116379,-10.984276,133.10228,-50.000305,-10.893158,-30.805586,-22.585825,4.433577,30.294731,29.339848,7.9960885,-6.131844,-12.690776,14.420516,-0.25586766,35.82389,-10.496191,43.84738,13.010196,-0.4682019,7.4700246,10.839567,-19.158333,9.079453,37.48091,-20.495653,1.5791196,-8.068746
152,0.054586295038461685,-14.735529899597168,92.49820709228516,6.750947631512984,-1.6762356355210661,-50.522529709267005,-42.289642,-17.439756,-11.77128,134.77242,-49.976868,-11.718313,-30.40772,-23.525557,3.6389184,30.732073,29.605133,7.970552,-6.542167,-13.30335,14.164168,-1.6037326,36.543392,-11.39452,44.11863,13.069693,-0.47031745,7.5469675,11.73188,-19.022137,8.626056,36.40175,-20.291658,1.4635543,-8.102431
153,-0.13680092990398407,-15.177972793579102,91.66920471191406,7.290483504215913,-1.6458164575283196,-49.539004858499254,-42.753178,-18.802162,-12.588365,136.424,-50.000305,-12.55828,-29.934061,-24.407162,2.9788215,31.204937,29.78441,8.109949,-7.0011983,-13.933893,13.931846,-3.1130278,37.271057,-12.424331,44.502525,13.051232,-0.46545783,7.6074915,12.651863,-18.86193,8.191866,35.332535,-19.922127,1.3046904,-8.120956
154,-0.32117488980293274,-15.608585357666016,90.81068420410156,7.827227382009192,-1.617314577088954,-48.525307499965805,-43.198116,-20.17648,-13.433333,138.0503,-50.000305,-13.415598,-29.412647,-25.208738,2.4106853,31.667887,29.907734,8.347995,-7.4849095,-14.555645,13.695298,-4.7837286,37.998592,-13.5800495,44.994884,12.985131,-0.45660692,7.6544285,13.594052,-18.677217,7.7723784,34.273327,-19.428606,1.1078584,-8.127477
155,-0.516094446182251,-16.051298141479492,89.93417358398438,8.370033751870823,-1.6073358810036071,-47.5086435710104,-43.59328,-21.552118,-14.31235,139.65912,-50.000305,-14.288814,-28.84067,-25.93298,1.9389035,32.10967,29.996912,8.614007,-7.9816732,-15.180117,13.472374,-6.5735407,38.711487,-14.81937,45.57091,12.941864,-0.44951585,7.6809187,14.518412,-18.464718,7.3788705,33.281483,-18.855959,0.87792224,-8.143743
156,-0.7114919424057007,-16.49549102783203,89.03359985351562,9.016237993735311,-1.5914329673161316,-46.44690645212678,-44.049244,-23.00244,-15.08059,141.24304,-50.000305,-15.000033,-28.322226,-26.70845,1.6329674,32.608875,30.000067,8.870309,-8.564941,-15.903758,13.211403,-8.435785,39.397617,-16.093548,46.20829,12.995479,-0.45040137,7.681391,15.379524,-18.219322,7.028874,32.42046,-18.249166,0.6197118,-8.194775
157,-0.8916208744049072,-16.948890686035156,88.0951919555664,9.771783980618666,-1.6727413546199863,-45.31840562989071,-44.48087,-24.42038,-15.5047,142.81734,-50.000305,-15.000033,-28.016973,-27.470812,1.7590629,33.624046,30.000067,9.118534,-9.248994,-16.741596,12.990547,-10.377564,40.062397,-17.423187,46.925926,13.164722,-0.46993983,7.6408076,16.210133,-17.942951,6.7188735,31.647879,-17.613682,0.33312705,-8.274259
158,-1.0688016414642334,-17.408517837524414,87.12891387939453,10.675856073798863,-1.8664365067497393,-44.185138625953286,-44.849766,-25.885908,-15.753643,144.35013,-50.000305,-15.000033,-27.81454,-28.232328,2.316375,34.93854,30.000067,9.415883,-9.963653,-17.744574,12.831086,-12.412425,40.70459,-18.817728,47.71922,13.411627,-0.50184065,7.5666246,17.01653,-17.640955,6.4453607,30.953207,-16.930292,0.015086437,-8.372206
159,-1.241666316986084,-17.851478576660156,86.15995025634766,11.605871645530243,-2.0366612192967426,-43.189467077287276,-45.24309,-27.220663,-15.883471,145.8215,-50.000305,-15.000033,-27.239367,-28.998034,2.6873643,35.496403,30.000067,9.694534,-10.589483,-18.763937,12.667577,-14.495104,41.298904,-20.200312,48.5306,13.728151,-0.5251635,7.488221,17.71151,-17.318777,6.223734,30.44729,-16.209326,-0.33364147,-8.507275
160,-1.4173791408538818,-18.27129364013672,85.23838806152344,12.435096239645219,-2.0432117121297044,-42.4334120618623,-45.73751,-28.278772,-15.98724,147.21542,-50.000305,-15.000033,-25.8227,-29.82368,2.1884162,34.289726,30.000067,9.858468,-11.048423,-19.638739,12.435031,-16.572598,41.813847,-21.47921,49.30644,14.114866,-0.5183338,7.438314,18.200884,-16.98594,6.071985,30.245596,-15.461034,-0.71210545,-8.699624
161,-1.587770700454712,-18.711854934692383,84.25891876220703,13.449282287107177,-2.384208426401193,-41.565871733933086,-45.90961,-29.583244,-16.044287,148.6024,-50.000305,-15.000033,-24.312922,-31.327454,1.1427686,34.684616,25.366453,10.077377,-11.618174,-20.738134,12.451803,-18.688166,42.275974,-22.721977,50.094437,14.626262,-0.4965497,7.351897,18.645447,-16.6417,5.984182,30.219454,-14.646872,-1.1255548,-8.960408
162,-1.7549937963485718,-19.157421112060547,83.29322052001953,14.509388561080721,-2.8813055484387493,-40.74816296257125,-45.92223,-30.000067,-16.03861,149.86261,-50.000305,-15.000033,-22.30758,-33.16249,-0.5056634,35.129105,18.592594,10.407221,-12.220003,-21.945839,12.598218,-20.843521,42.694202,-23.935041,50.897152,15.243848,-0.46465677,7.237407,19.025335,-16.284235,5.9543195,30.367102,-13.776753,-1.5761185,-9.274611
163,-1.9165465831756592,-19.59645652770996,82.33131408691406,15.553415345149633,-3.420886400662102,-40.07277541985992,-45.828804,-30.000067,-15.985207,151.01427,-50.000305,-15.000033,-20.273869,-35.02105,-2.2167737,35.584328,11.411549,10.903559,-12.751626,-23.153658,12.840293,-22.95563,43.041397,-24.990442,51.649273,15.868362,-0.39083844,7.183393,19.24438,-15.923846,5.9967217,30.776428,-12.9176855,-2.0325594,-9.618332
164,-2.0648715496063232,-20.00958251953125,81.39092254638672,16.5690489456563,-3.964432637958776,-39.58344292669196,-45.64054,-30.000067,-15.86736,152.06192,-50.000305,-15.000033,-18.722195,-36.701553,-3.420615,36.229954,5.364565,11.453201,-13.165951,-24.313742,13.193938,-24.96118,43.287025,-25.775944,52.31509,16.391863,-0.24206768,7.2759886,19.229448,-15.583527,6.124747,31.515194,-12.131256,-2.4596145,-9.9697
165,-2.198110342025757,-20.373512268066406,80.52179718017578,17.57611772818601,-4.5475238857097855,-39.294524563969745,-45.33098,-30.000067,-15.6853285,152.99132,-50.000305,-15.000033,-17.817652,-38.19984,-3.9109187,37.193386,0.656893,11.973191,-13.442364,-25.437428,13.724923,-26.875887,43.413265,-26.265251,52.92061,16.84366,0.013766585,7.58201,18.937653,-15.285134,6.3565617,32.67647,-11.382744,-2.8647263,-10.373378
166,-2.328812837600708,-20.693105697631836,79.70906829833984,18.582609027953602,-5.17576040553329,-39.16758134466626,-44.903133,-30.000067,-15.469773,153.82872,-50.000305,-15.000033,-17.33696,-39.63334,-3.9777043,38.417076,-3.5468497,12.469006,-13.606124,-26.529448,14.410228,-28.724478,43.423176,-26.50019,53.503613,17.272007,0.35347125,8.044844,18.431,-15.037178,6.672549,34.185814,-10.646396,-3.2602131,-10.82515
167,-2.458317756652832,-20.965805053710938,78.9513931274414,19.55219092672096,-5.770670793538864,-39.18551385044677,-44.413586,-30.000067,-15.238785,154.58226,-50.000305,-15.000033,-17.18105,-40.953922,-3.790759,39.75444,-7.3231397,12.853928,-13.688422,-27.54115,15.138092,-30.433205,43.319542,-26.452185,54.029865,17.61602,0.72545433,8.565729,17.79404,-14.833973,7.03288,35.86207,-9.99282,-3.6149125,-11.231635
168,-2.588837146759033,-21.219066619873047,78.25032806396484,20.44593796320059,-6.247338750002937,-39.33905643762989,-43.919758,-30.000067,-15.007269,155.25923,-50.000305,-15.000033,-17.242235,-42.09848,-3.5120227,41.03804,-10.706947,13.054043,-13.714287,-28.422935,15.792351,-31.922247,43.10772,-26.091007,54.454685,17.821972,1.0760437,9.046763,17.105484,-14.666807,7.399402,37.532017,-9.495089,-3.895089,-11.501049
169,-2.711348056793213,-21.453609466552734,77.60845184326172,21.25607378069473,-6.558448275912401,-39.682273502022454,-43.428448,-30.000067,-14.799566,155.8631,-50.000305,-15.000033,-17.553234,-43.013565,-3.1503468,42.209824,-13.707218,12.972977,-13.640895,-29.149282,16.350777,-33.15752,42.77764,-25.310152,54.741592,17.904823,1.4304402,9.4841175,16.335512,-14.524097,7.76101,39.261654,-9.186005,-4.084103,-11.570542
170,-2.8345530033111572,-21.68799591064453,77.0377426147461,22.03545482342317,-6.810217137501819,-40.11074927705407,-42.920013,-30.000067,-14.619988,156.38321,-50.000305,-15.000033,-18.03656,-43.819016,-2.6974783,43.344315,-16.328794,12.68873,-13.58391,-29.793762,16.88568,-34.243687,42.342354,-24.210016,54.96099,17.845278,1.8014433,9.922504,15.475943,-14.424531,8.130441,41.08463,-9.018745,-4.1986322,-11.497011
171,-2.9564743041992188,-21.914710998535156,76.54053497314453,22.67671885320015,-6.991429954510464,-40.544502548031005,-42.39882,-30.000067,-14.5585985,156.84036,-50.000305,-15.000033,-18.61953,-44.3993,-2.194702,44.438072,-18.521215,12.319746,-13.456204,-29.793802,17.568672,-34.850914,41.635303,-22.612074,54.638206,17.6504,2.0842376,10.278687,14.744009,-14.532895,8.177209,42.63423,-9.088906,-4.231694,-11.517816
172,-3.088747262954712,-22.118423461914062,76.15531158447266,23.26614233048408,-7.13890686244258,-41.06165241786185,-41.83409,-30.000067,-14.450275,157.17014,-50.000305,-15.000033,-19.36178,-44.764286,-1.3751926,45.545357,-20.245462,12.013267,-13.291618,-29.793802,18.182121,-35.52886,40.823574,-21.197031,54.56522,17.276096,2.243284,10.628643,14.076838,-14.7311325,8.345362,43.954597,-9.132687,-4.2322164,-11.549883
173,-3.2265384197235107,-22.301868438720703,75.85726165771484,23.79442284998733,-7.238216254674432,-41.72269056030365,-41.195404,-30.000067,-14.2883005,157.33711,-50.000305,-15.000033,-20.393316,-44.822914,-0.05042955,46.758793,-21.356709,11.781621,-12.996907,-29.793802,18.796152,-36.14058,39.950302,-19.763323,54.56792,16.705038,2.2118988,10.9246235,13.424205,-14.944074,8.61776,45.04118,-9.225608,-4.1740236,-11.624922
174,-3.362417697906494,-22.47430419921875,75.63806915283203,24.273711994214157,-7.3001585369338295,-42.50087138021967,-40.47782,-30.000067,-14.121787,157.35558,-50.000305,-15.000033,-21.62849,-44.627934,1.630144,48.035084,-21.929878,11.558706,-12.625176,-29.793802,19.413137,-36.694603,39.048252,-18.30346,54.609943,15.909649,2.043861,11.176278,12.744302,-15.151343,8.97388,45.985065,-9.397514,-4.0562572,-11.707033
175,-3.4981722831726074,-22.638084411621094,75.496337890625,24.689642408977313,-7.335186994772367,-43.30789100779921,-39.71645,-30.000067,-13.997188,157.29532,-50.000305,-15.000033,-22.792105,-44.287247,3.294874,49.180008,-22.223644,11.347265,-12.262616,-29.793802,19.965809,-37.164547,38.177803,-17.02669,54.671757,15.05807,1.8450832,11.4280205,12.090005,-15.336657,9.396081,46.79181,-9.5903845,-3.938998,-11.803775
176,-3.6297733783721924,-22.801088333129883,75.42476654052734,25.02700979956422,-7.3535688299940505,-44.054002917120044,-38.948006,-30.000067,-13.960531,157.22546,-50.000305,-15.000033,-23.628954,-43.92496,4.588281,49.99631,-22.49389,11.152382,-11.992726,-29.793802,20.38732,-37.568695,37.421963,-16.218832,54.770668,14.246778,1.7216306,11.727984,11.520483,-15.486582,9.862726,47.4634,-9.749353,-3.8825521,-11.923853
177,-3.749523401260376,-22.977933883666992,75.40250396728516,25.27155305733661,-7.3535647395220884,-44.73432031989791,-38.164112,-30.000067,-14.029297,157.14377,-50.000305,-15.000033,-24.076319,-43.55885,5.4270663,50.403076,-22.75465,10.978543,-11.8346615,-29.793802,20.670692,-37.846184,36.82831,-15.957814,54.84333,13.348465,1.7106632,12.134935,11.031546,-15.597706,10.402987,48.000923,-9.8420315,-3.9310904,-12.105482
178,-3.8496599197387695,-23.162860870361328,75.42788696289062,25.429508542187328,-7.331518122766039,-45.38994980338572,-37.352146,-30.000067,-14.181801,157.02354,-50.000305,-15.000033,-24.26994,-43.13447,5.9896994,50.50985,-22.88261,10.820387,-11.758435,-29.793802,20.850288,-37.952927,36.38543,-16.063606,54.848167,12.3445015,1.7453427,12.593654,10.583669,-15.66916,11.025534,48.407326,-9.914683,-4.0430307,-12.3371105
179,-3.936044931411743,-23.356481552124023,75.4950180053711,25.512117456373684,-7.290281951250099,-45.9966954031641,-36.53694,-30.000067,-14.411053,156.89598,-50.000305,-15.000033,-24.26895,-42.676125,6.328845,50.40601,-22.929752,10.6683445,-11.770967,-29.793802,20.919693,-37.93993,36.07709,-16.438883,54.84809,11.49944,1.7823033,12.98488,10.190294,-15.694327,11.671839,48.6859,-10.030197,-4.1504445,-12.553628
180,-4.002859115600586,-23.569416046142578,75.5960693359375,25.532542583523057,-7.2345298641819635,-46.530508919593736,-35.7465,-30.000067,-14.706097,156.79468,-50.000305,-15.000033,-24.1315,-42.20597,6.4972596,50.180527,-22.947641,10.513333,-11.869324,-29.793802,20.878748,-37.829033,35.863277,-16.934765,54.87815,11.1346445,1.7862378,13.187558,9.867643,-15.6591,12.273705,48.838753,-10.254018,-4.185261,-12.690748
181,-4.074563980102539,-23.795942306518555,75.7267074584961,25.476676497776804,-7.167792625323165,-46.93939546710943,-35.010994,-30.000067,-15.09372,156.74057,-50.000305,-15.000033,-23.82146,-41.745815,6.432286,49.820213,-22.951616,10.366939,-12.090844,-29.793802,20.690895,-37.634377,35.729965,-17.63656,54.98615,11.4483795,1.7462084,13.152692,9.650127,-15.554809,12.825156,48.82846,-10.627118,-4.1083984,-12.737477
182,-4.138525009155273,-24.023269653320312,75.8794937133789,25.342865453259524,-7.088767113637811,-47.24970478408811,-34.3143,-30.000067,-15.565637,156.71637,-50.000305,-15.000033,-23.333447,-41.278877,6.139696,49.28974,-22.913588,10.228205,-12.406799,-29.793802,20.374468,-37.39982,35.68282,-18.635221,55.196262,12.2156105,1.6852343,12.957871,9.53228,-15.380555,13.344442,48.665524,-11.108243,-3.9644904,-12.725804
183,-4.203490734100342,-24.27288055419922,76.04991149902344,25.163062677523357,-6.994512057869774,-47.556345866291664,-33.611656,-30.000067,-16.061468,156.69417,-50.000305,-15.000033,-22.765898,-40.7656,5.7695,48.644142,-22.821321,10.070643,-12.719493,-29.793802,20.009787,-37.091637,35.68254,-19.664253,55.4248,13.227809,1.6202297,12.666643,9.461388,-15.139368,13.801173,48.431572,-11.641918,-3.811005,-12.658148
184,-4.267385959625244,-24.521224975585938,76.24209594726562,24.96885001433965,-6.880008058175702,-47.95510345280027,-32.857864,-30.000067,-16.514616,156.64622,-50.000305,-15.000033,-22.215965,-40.17317,5.471422,47.938366,-22.662268,9.870438,-12.939943,-29.793802,19.666718,-36.673523,35.679073,-20.447504,55.59387,14.284114,1.5704072,12.348139,9.384132,-14.847516,14.174846,48.206642,-12.165369,-3.7051272,-12.535377
185,-4.32229471206665,-24.766986846923828,76.4607925415039,24.715176748616127,-6.716043665090921,-48.447354117211034,-32.06054,-30.000067,-16.957258,156.58041,-50.000305,-15.000033,-21.69986,-39.442207,5.2097673,47.164143,-22.418709,9.605872,-13.032108,-29.531626,19.397179,-36.017258,35.597088,-20.850428,55.487488,15.458532,1.5225935,11.916476,9.31317,-14.584872,14.2883835,47.95446,-12.801444,-3.6427033,-12.392644
186,-4.376767158508301,-25.015592575073242,76.69666290283203,24.40503735420839,-6.515949644973438,-48.99186605091872,-31.241486,-30.000067,-17.394651,156.50755,-50.000305,-15.000033,-21.171013,-38.60588,4.9345174,46.30133,-22.103312,9.298894,-13.049722,-29.104162,19.135424,-35.1984,35.43263,-21.022192,55.26089,16.867458,1.4641525,11.386565,9.294594,-14.351276,14.234394,47.62633,-13.5074,-3.600941,-12.204669
187,-4.42643928527832,-25.267112731933594,76.94715881347656,24.05266743920703,-6.304888574540211,-49.627352999185625,-30.367935,-29.450193,-17.802914,156.35048,-50.000305,-15.000033,-20.621998,-37.662277,4.708046,45.3719,-21.73932,8.964471,-12.990692,-28.648424,18.886057,-34.34741,35.21412,-21.086052,55.070507,18.163458,1.4099454,10.90993,9.299544,-14.133166,14.146793,47.29875,-14.105523,-3.5890427,-11.9910555
188,-4.4644927978515625,-25.532320022583008,77.20787048339844,23.691405761795824,-6.114048341179312,-50.34803177439256,-29.432032,-28.546654,-18.164495,156.13055,-50.000305,-15.000033,-20.0405,-36.665413,4.57194,44.395447,-21.345947,8.628579,-12.856922,-28.21463,18.668522,-33.493027,34.956272,-21.068739,54.950775,19.022858,1.3812191,10.617197,9.287399,-13.935721,14.127857,47.05556,-14.437734,-3.6079836,-11.800592
189,-4.500149726867676,-25.805992126464844,77.47270965576172,23.34285197451794,-5.948482087983482,-51.14733592664333,-28.446304,-27.618832,-18.438553,155.87463,-50.000305,-15.000033,-19.422733,-35.641525,4.545954,43.357563,-20.911432,8.293247,-12.656174,-27.820692,18.474546,-32.60689,34.66482,-20.949352,54.880825,19.256313,1.4078076,10.572417,9.238872,-13.765361,14.220907,46.92331,-14.388438,-3.6818693,-11.6353035
190,-4.538761615753174,-26.076824188232422,77.7430648803711,23.150525441647428,-5.741577678297445,-51.87389126401693,-27.723288,-26.907042,-18.522293,155.61024,-50.000305,-15.000033,-18.895432,-34.82054,4.62603,42.26494,-20.42182,7.99929,-12.5820265,-27.598507,18.132675,-31.65903,34.347843,-20.704727,54.82485,19.077213,1.4757749,10.692619,9.1762495,-13.609867,14.378841,46.85363,-14.062181,-3.8001182,-11.474349
191,-4.563641548156738,-26.349502563476562,78.00961303710938,23.05054819510266,-5.522862626709325,-52.56248536708545,-27.119778,-26.38352,-18.540789,155.36978,-50.000305,-15.000033,-18.413498,-34.127922,4.768992,41.16393,-19.917048,7.743211,-12.5615425,-27.475258,17.72345,-30.692484,34.019653,-20.369186,54.80894,18.75109,1.5465473,10.886473,9.10864,-13.464269,14.560672,46.83223,-13.638819,-3.9114335,-11.329428
192,-4.592905044555664,-26.609006881713867,78.28095245361328,22.980884825581537,-5.32747745125076,-53.25163313149883,-27.19185,-26.143147,-18.29969,154.99652,-48.622818,-15.000033,-17.906727,-33.49117,4.9272084,40.042904,-19.399853,7.519386,-12.507743,-27.360676,17.343498,-29.7451,33.6937,-19.971235,54.85531,18.54628,1.5830095,11.061338,9.047421,-13.326346,14.726654,46.840355,-13.296396,-3.9660175,-11.211801
193,-4.623772621154785,-26.867189407348633,78.53984069824219,22.92344871488665,-5.160079654295266,-53.94567099094385,-27.25673,-26.06022,-18.137333,154.6588,-47.132008,-15.000033,-17.376255,-32.89429,5.096445,38.937622,-18.891703,7.331115,-12.425383,-27.254618,16.99739,-28.818256,33.377277,-19.511267,54.965374,18.475489,1.5600699,11.202679,8.988742,-13.19285,14.876822,46.890896,-13.03996,-3.9536846,-11.144686
194,-4.650229454040527,-27.136877059936523,78.78833770751953,22.880307437111597,-5.015246428684408,-54.657246691257505,-27.283697,-26.10563,-18.031467,154.3466,-45.593544,-15.000033,-16.82753,-32.327816,5.297563,37.839508,-18.38548,7.1688733,-12.314995,-27.169222,16.675854,-27.879625,33.068275,-18.964977,55.11288,18.420237,1.502744,11.353304,8.923037,-13.061688,15.032277,46.991688,-12.790595,-3.9007413,-11.115518
195,-4.6767754554748535,-27.413908004760742,79.02367401123047,22.856567385879444,-4.891680153566839,-55.38779343378151,-27.298704,-26.254038,-17.943586,154.05495,-44.00098,-15.000033,-16.273092,-31.789963,5.5412326,36.768997,-17.903423,7.024853,-12.170534,-27.105831,16.376999,-26.946363,32.772305,-18.364841,55.30288,18.418816,1.4509937,11.509466,8.856629,-12.935804,15.18206,47.11587,-12.600865,-3.811995,-11.084769
196,-4.698071479797363,-27.689844131469727,79.24396514892578,22.857322165860282,-4.7882849758410355,-56.13940134599149,-27.2978,-26.490942,-17.852486,153.78224,-42.382095,-15.000033,-15.728762,-31.28166,5.8405232,35.752182,-17.470736,6.890693,-11.985044,-27.066786,16.100346,-26.024021,32.49384,-17.727352,55.53023,18.523132,1.4447392,11.666225,8.798547,-12.815708,15.314443,47.232018,-12.522826,-3.69238,-11.011393
197,-4.721133708953857,-27.957101821899414,79.44672393798828,22.87498539701495,-4.694331553883561,-56.90619596356891,-27.264917,-26.843834,-17.820236,153.54146,-40.78015,-15.000033,-15.201869,-30.79654,6.1951118,34.78024,-17.086435,6.761668,-11.764394,-27.044899,15.836017,-25.120033,32.235703,-17.0469,55.805683,18.812948,1.5014318,11.825556,8.752219,-12.699135,15.416296,47.331867,-12.593955,-3.5363343,-10.870237
198,-4.741897106170654,-28.2322998046875,79.62933349609375,22.91104837017233,-4.614562656114301,-57.691038886852745,-27.203608,-27.312868,-17.835,153.32597,-39.170166,-15.000033,-14.682401,-30.34088,6.6023345,33.84588,-16.73918,6.6411433,-11.509384,-27.044445,15.589644,-24.21991,31.996044,-16.310003,56.11884,19.241867,1.5985454,11.987287,8.711449,-12.58406,15.498322,47.432007,-12.7789345,-3.3443162,-10.687059
199,-4.755370616912842,-28.502124786376953,79.79403686523438,22.98525735679765,-4.570965135970488,-58.50820332151841,-27.144175,-27.834446,-17.755861,153.11264,-37.473457,-15.000033,-14.156872,-29.936434,7.067839,32.972313,-16.442598,6.5332246,-11.202572,-27.085644,15.385363,-23.315344,31.781435,-15.54531,56.44645,19.651598,1.715754,12.144017,8.674159,-12.47804,15.580873,47.53458,-13.021682,-3.1300733,-10.495587
200,-4.761213302612305,-28.77909278869629,79.9455337524414,23.117037132409873,-4.585928262507068,-59.37226239101938,-27.117794,-28.338642,-17.447575,152.87541,-35.613453,-15.000033,-13.615974,-29.606642,7.59911,32.191734,-16.209888,6.442423,-10.831246,-27.183311,15.243507,-22.395573,31.584644,-14.769648,56.77136,19.894934,1.8321792,12.292449,8.629165,-12.385311,15.690119,47.654114,-13.2660675,-2.9057395,-10.334158
201,-4.750718593597412,-29.05419158935547,80.0770492553711,23.32220051921002,-4.664478383602082,-60.28558803236784,-27.146631,-28.787508,-16.852905,152.61261,-33.570797,-15.000033,-13.0545435,-29.371536,8.1988325,31.504076,-16.044664,6.3705726,-10.375073,-27.352833,15.177814,-21.478697,31.429762,-14.040882,57.100594,19.870878,1.9421836,12.442999,8.606295,-12.316454,15.810219,47.75393,-13.518222,-2.6621037,-10.198878
202,-4.725943088531494,-29.31894302368164,80.18816375732422,23.58700266561797,-4.794875541530562,-61.239859290133936,-27.213467,-29.204945,-16.056395,152.3358,-31.387726,-15.000033,-12.472557,-29.217144,8.855126,30.890585,-15.938442,6.3135614,-9.881559,-27.569706,15.15574,-20.523672,31.279482,-13.268002,57.431217,19.716896,2.0578456,12.602379,8.5564375,-12.259421,15.96569,47.88973,-13.805285,-2.3933084,-10.08966
203,-4.699455738067627,-29.596160888671875,80.28543090820312,23.887434630627922,-4.974567498903119,-62.23265637996165,-27.302427,-29.611156,-15.1276865,152.04054,-29.067036,-15.000033,-11.862661,-29.11469,9.548653,30.346962,-15.883522,6.2680683,-9.321256,-27.821308,15.204396,-19.558714,31.145836,-12.462785,57.75352,19.506392,2.1763802,12.733158,8.51343,-12.2214775,16.13645,48.026703,-14.0832815,-2.1285126,-9.991409
204,-4.667088985443115,-29.867618560791016,80.37283325195312,24.19839485368246,-5.201086161262406,-63.26460033059579,-27.390299,-30.000067,-14.136636,151.71904,-26.618277,-15.000033,-11.2184105,-29.031042,10.2628765,29.870253,-15.872713,6.23078,-8.705058,-28.088972,15.328651,-18.560398,31.017078,-11.562122,58.03565,19.352594,2.297417,12.802179,8.460743,-12.203612,16.339073,48.18307,-14.312244,-1.8933971,-9.9061365
205,-4.627748966217041,-30.146059036254883,80.44662475585938,24.4939990696414,-5.46700761685133,-64.36357699612554,-27.440298,-30.000067,-13.111055,151.35321,-24.095943,-15.000033,-10.543252,-28.920952,11.008544,29.458307,-15.902261,6.1887655,-8.039262,-28.362959,15.527891,-17.504211,30.877232,-10.489325,58.26039,19.3106,2.4292734,12.779575,8.378524,-12.211516,16.599407,48.372807,-14.483442,-1.6884768,-9.839567
206,-4.577889442443848,-30.430349349975586,80.51344299316406,24.81107762657541,-5.779814692738574,-65.50441643221279,-27.512142,-30.000067,-11.996966,150.97598,-21.412968,-15.000033,-9.830106,-28.840958,11.776348,29.103315,-15.972518,6.154192,-7.3071146,-28.651402,15.8069935,-16.422983,30.733677,-9.316537,58.456497,19.304573,2.5689557,12.688744,8.294643,-12.246428,16.891888,48.56971,-14.616297,-1.5027918,-9.785818
207,-4.513208389282227,-30.709346771240234,80.56954956054688,25.160397098845166,-6.1409547967583675,-66.6591828788243,-27.674421,-30.000067,-10.759513,150.5719,-18.505886,-15.000033,-9.0733185,-28.822727,12.548815,28.79445,-16.077654,6.1416497,-6.552526,-28.950558,16.147856,-15.293997,30.581402,-8.097342,58.60987,19.293015,2.7012422,12.581146,8.20762,-12.310439,17.21232,48.775852,-14.708724,-1.3401058,-9.743894
208,-4.44580078125,-30.984729766845703,80.61383819580078,25.552908753478807,-6.5509332641774565,-67.7962307325675,-27.993093,-30.000067,-9.369262,150.12769,-15.3091545,-15.000033,-8.262721,-28.8971,13.30034,28.513018,-16.212315,6.1640186,-5.7879972,-29.262547,16.542513,-14.146083,30.426306,-6.9460077,58.743027,19.213276,2.810854,12.509194,8.141779,-12.395731,17.524834,48.9778,-14.76286,-1.2065214,-9.706966
209,-4.361513137817383,-31.2586727142334,80.65513610839844,26.002695033914133,-7.017196508869809,-68.9112411819437,-28.459373,-30.000067,-7.8166056,149.63283,-11.78596,-15.000033,-7.383021,-29.083672,14.020123,28.252024,-16.375114,6.229725,-4.9881063,-29.598108,17.005196,-13.018081,30.282444,-5.9271464,58.886868,19.019405,2.891265,12.484208,8.114229,-12.485206,17.796028,49.17035,-14.766826,-1.112564,-9.674828
210,-4.27608060836792,-31.537527084350586,80.69061279296875,26.47444281103674,-7.530894655191237,-70.00043013791739,-29.021866,-30.000067,-6.1787667,149.11185,-8.002785,-15.000033,-6.4248743,-29.344301,14.681052,27.983944,-16.552252,6.3242893,-4.1824384,-29.793802,17.535353,-11.838189,30.047377,-4.9281774,58.95617,18.764437,2.9395297,12.45153,8.085363,-12.654732,18.014448,49.385838,-14.742372,-1.0407265,-9.689037
211,-4.169726371765137,-31.807512283325195,80.72037506103516,26.943208451590596,-8.07117478407565,-71.02878663977597,-29.721516,-30.000067,-4.5111723,148.57576,-3.9887462,-15.000033,-5.4031715,-29.65181,15.247224,27.691584,-16.72424,6.4281645,-3.3283265,-29.793802,18.121284,-10.745125,29.696705,-4.0807543,59.059483,18.467945,2.9610395,12.4069195,8.1155815,-12.912494,18.112291,49.59936,-14.732673,-0.97394973,-9.748042
212,-4.052309513092041,-31.637388229370117,81.01827239990234,29.038394872717536,-7.878733524196946,-68.14857165813771,-45.25076,-4.857447,4.4660606,146.71597,22.175386,12.41508,-4.9861727,-33.808067,13.091751,25.919138,-15.945085,7.4205914,-6.287671,-29.793802,16.240925,-9.748914,28.82338,-3.7327003,58.75014,17.681162,2.6398497,11.512633,7.7506833,-13.496987,17.341766,50.599503,-15.154818,-0.7157027,-10.612071
213,-4.131951332092285,-31.772306442260742,81.03064727783203,28.96888455037535,-7.426336001149388,-67.10407838295785,-49.89769,-0.04791137,4.3031297,146.26233,30.000067,15.000033,-5.4025316,-34.025,12.237189,25.957474,-16.005844,7.408168,-7.7194366,-29.793802,14.720256,-9.174332,28.15795,-3.199689,59.502235,17.715412,2.8380373,12.07411,8.215821,-13.92951,17.435865,50.329266,-15.123988,-0.73761415,-10.290042
214,-4.026073455810547,-32.134273529052734,80.95814514160156,28.677876270509365,-8.282291498440227,-69.17991089405463,-46.848286,1.4729751,4.1529346,146.22612,30.000067,15.000033,-4.0723786,-32.9475,13.346916,26.18969,-16.493631,7.1885858,-6.054725,-29.793802,15.999077,-7.814717,27.878668,-1.9847158,59.66332,17.837812,3.0031812,12.493851,8.326111,-14.260749,18.26131,50.324608,-14.899711,-0.7429147,-10.0734005
215,-3.9165024757385254,-32.4930534362793,80.87736511230469,28.346441966784766,-9.098831368855901,-71.14465448340424,-44.09368,3.0591798,4.0234537,146.22945,30.000067,15.000033,-2.7842236,-31.852282,14.374235,26.419601,-16.956783,6.9501615,-4.4353304,-29.793802,17.221346,-6.381605,27.93102,-0.85815054,59.697113,17.806873,3.1125643,12.750964,8.33559,-14.370181,19.035524,50.466843,-14.773507,-0.7458498,-9.891347
216,-3.820466995239258,-32.8531494140625,80.80390930175781,28.043104653934005,-9.826075367147318,-72.90588056423202,-41.85177,4.6040974,3.976047,146.25049,30.000067,15.000033,-1.6053936,-30.857718,15.275905,26.611769,-17.368155,6.7107077,-3.0220742,-29.793802,18.240177,-4.8958893,28.069069,0.2751964,59.6663,17.755789,3.1964602,12.911205,8.258407,-14.369778,19.798532,50.72426,-14.680547,-0.7226633,-9.73032
217,-3.738039016723633,-33.19475555419922,80.7383804321289,27.722964354656703,-10.460952269531651,-74.47925997275847,-40.149235,6.1243753,3.9144251,146.27388,30.000067,15.000033,-0.5358435,-29.90381,16.045567,26.768211,-17.726637,6.451214,-1.7303137,-29.632334,19.088884,-3.4880202,28.124538,1.3154852,59.678024,17.755245,3.2685373,13.00563,8.180051,-14.364993,20.45289,51.04296,-14.610035,-0.65607697,-9.5938015
218,-3.6624650955200195,-33.51620864868164,80.68175506591797,27.331699486446205,-11.046423592745679,-75.92063189174795,-38.829025,7.696493,3.7829406,146.31348,30.000067,15.000033,0.49697173,-28.912035,16.694727,26.86795,-18.027098,6.162955,-0.39831266,-29.037981,19.867025,-2.3299987,28.0015,2.0744152,59.85422,17.762522,3.302039,12.990876,8.144809,-14.43455,20.85197,51.468616,-14.594428,-0.541677,-9.548994
219,-3.594650983810425,-33.82671356201172,80.63690948486328,27.05451696378397,-11.588049226162234,-77.22239579768629,-37.773666,9.224709,3.8416307,146.35905,30.000067,15.000033,1.4704559,-28.123661,17.282768,26.921663,-18.290348,5.9102073,0.75149214,-28.494898,20.506613,-1.1625446,27.75561,2.8545907,59.99983,17.803116,3.3432431,12.999541,8.126158,-14.574948,21.25653,51.859486,-14.562917,-0.41673067,-9.490781
220,-3.51564359664917,-34.116249084472656,80.60595703125,26.98069131276776,-12.082239982439727,-78.34538943123705,-36.909344,10.646654,4.2494736,146.42738,30.000067,15.000033,2.384408,-27.676445,17.797447,26.90801,-18.51652,5.7354116,1.729734,-28.125244,21.02416,-0.047868602,27.447605,3.5925648,60.144936,17.77478,3.3809538,13.024329,8.1482,-14.755337,21.625734,52.189472,-14.531604,-0.30131793,-9.412453
221,-3.426161050796509,-34.37236785888672,80.58854675292969,27.11451745746972,-12.535379102379911,-79.29666236442071,-36.159576,11.932991,5.0139985,146.54083,30.000067,15.000033,3.2552776,-27.58406,18.230928,26.821213,-18.710651,5.6421757,2.5455246,-27.954838,21.439106,1.0352522,27.09867,4.3033137,60.274075,17.653025,3.413021,13.050027,8.190303,-14.965113,21.981136,52.47981,-14.488719,-0.20320947,-9.304667
222,-3.3201818466186523,-34.61046600341797,80.59077453613281,27.399943564491725,-12.941822862381576,-80.08388368474425,-35.561947,13.124133,6.0464745,146.68639,30.000067,15.000033,4.0788093,-27.767344,18.566631,26.672739,-18.874043,5.6081204,3.2092502,-27.945698,21.754251,2.0899873,26.720818,4.992675,60.393383,17.475903,3.4411104,13.072816,8.24557,-15.194404,22.328966,52.74179,-14.433995,-0.11255347,-9.171488
223,-3.2149109840393066,-34.82841110229492,80.60551452636719,27.82843853832293,-13.280556727096274,-80.66301859593449,-35.218216,14.26406,7.3564897,146.8296,30.000067,15.000033,4.8212414,-28.223768,18.772108,26.465635,-18.999315,5.636004,3.666535,-28.118958,21.936165,3.1099622,26.321293,5.6762395,60.500233,17.266548,3.462743,13.106368,8.303503,-15.429881,22.660608,52.972343,-14.393231,-0.019778077,-9.036899
224,-3.1107735633850098,-35.02525329589844,80.63677215576172,28.38390474249531,-13.531728440490003,-80.98798800755496,-35.22569,15.405586,8.956308,146.93843,30.000067,15.000033,5.4510155,-28.941303,18.812801,26.20345,-19.077759,5.727514,3.8599505,-28.491869,21.946997,4.088215,25.904495,6.3692803,60.592632,17.048454,3.475611,13.165553,8.35164,-15.656693,22.967297,53.171448,-14.393231,0.08458433,-8.925348
225,-3.015876531600952,-35.17496109008789,80.6883544921875,29.106612950207502,-13.685006999264722,-80.97478267443178,-35.66828,16.598,10.9369335,147.02502,30.000067,15.000033,5.967702,-30.010317,18.628136,25.845661,-19.090359,5.915232,3.7046945,-29.138271,21.735422,5.0138216,25.471031,7.097188,60.67607,16.844648,3.487656,13.264003,8.380807,-15.861918,23.249485,53.344646,-14.460657,0.21676846,-8.844021
226,-2.931471347808838,-35.257816314697266,80.7425765991211,29.839801332265694,-13.739635644399034,-80.63190111093745,-36.494408,17.915808,13.264726,147.1199,30.000067,15.000033,6.351812,-31.216528,18.206099,25.445543,-19.04674,6.149293,3.2664843,-29.793802,21.292427,5.7877254,24.978838,7.7276587,60.832188,16.624687,3.4933171,13.381078,8.422982,-16.076483,23.417196,53.523384,-14.59632,0.37248465,-8.8042755
227,-2.8513760566711426,-35.304744720458984,80.78782653808594,30.351357628346342,-13.72499267496853,-80.0691812709816,-37.591156,19.377275,15.636452,147.2288,30.000067,15.000033,6.6249003,-32.205566,17.586018,25.074194,-18.96088,6.334698,2.8301902,-29.793802,20.717567,6.101067,24.288752,7.863465,61.323162,16.32095,3.447326,13.415466,8.56222,-16.423145,23.18124,53.816326,-14.810194,0.54856837,-8.903799
228,-2.787280797958374,-35.35194778442383,80.8185043334961,30.7108406502948,-13.64156761427745,-79.46155362833612,-38.731926,20.831194,18.001749,147.27611,30.000067,15.000033,6.7132697,-32.973145,16.959259,24.882544,-18.91382,6.448187,2.1989245,-29.793802,20.01716,6.5961704,23.583244,8.126599,61.624817,15.965749,3.3840137,13.477151,8.678074,-16.810806,23.063284,53.99522,-14.954236,0.67516917,-8.957662
229,-2.7320353984832764,-35.391571044921875,80.85061645507812,30.99796944926447,-13.48392711989454,-78.71317248520413,-39.976128,22.04436,20.436464,147.222,30.000067,15.000033,6.6411853,-33.668434,16.23126,24.797384,-18.870361,6.5166793,1.3475386,-29.793802,19.152395,7.137705,22.881237,8.367574,61.85775,15.486649,3.2754016,13.5275755,8.756863,-17.216455,22.98438,54.153637,-15.037191,0.7431274,-9.009038
230,-2.702916145324707,-35.414974212646484,80.87670135498047,31.18469716875399,-13.231636686217392,-77.80338296823184,-41.375446,23.248827,22.966875,147.10135,30.000067,15.000033,6.357766,-34.260666,15.423543,24.851103,-18.84369,6.5451903,0.25268334,-29.793802,18.085451,7.733622,22.201784,8.626039,62.021065,14.912428,3.133262,13.578403,8.793082,-17.617208,22.95932,54.29124,-15.083012,0.76789623,-9.051433
231,-2.687988519668579,-35.44260025024414,80.89157104492188,31.25252170223796,-12.950895129821106,-76.9475825815292,-42.75686,24.265648,25.366957,146.88582,30.000067,15.000033,5.9557753,-34.652763,14.695206,25.055552,-18.86107,6.5075855,-0.8816597,-29.793802,16.991585,8.439303,21.575,8.986028,62.077087,14.336857,2.9782412,13.623648,8.788575,-17.972677,23.016071,54.382446,-15.092954,0.7666289,-9.064532
232,-2.675328254699707,-35.4926872253418,80.89175415039062,31.220496698360975,-12.726851192559089,-76.370347621128,-43.956104,24.856173,27.405321,146.53558,30.000067,15.000033,5.5813055,-34.799503,14.186453,25.37157,-18.931786,6.3903985,-1.7939638,-29.793802,16.094027,9.250591,21.017113,9.467693,62.03045,13.848988,2.8282642,13.6495075,8.762388,-18.247213,23.126078,54.41596,-15.077874,0.76003027,-9.045636
233,-2.6600637435913086,-35.57392501831055,80.87744903564453,31.111958556483664,-12.591216059982811,-76.16343321100081,-44.948048,24.942755,28.981325,146.04228,30.000067,15.000033,5.2918496,-34.699833,13.947919,25.777294,-19.05415,6.174443,-2.3453887,-29.793802,15.494498,10.142048,20.52899,10.052397,61.892773,13.475497,2.6737037,13.631309,8.730876,-18.420776,23.240128,54.39994,-15.04208,0.7487533,-8.995472
234,-2.638552188873291,-35.680049896240234,80.86864471435547,30.949386479005902,-12.510010968038012,-76.21090887849002,-45.832546,24.641886,30.222397,145.41049,30.000067,15.000033,5.0581894,-34.433247,13.887235,26.22996,-19.196423,5.8850236,-2.6294763,-29.793802,15.106356,11.062643,20.095953,10.671077,61.70342,13.160377,2.5064595,13.573125,8.686541,-18.497854,23.329273,54.372345,-14.993151,0.72655314,-8.936684
235,-2.6189286708831787,-35.801429748535156,80.85606384277344,30.763980360717795,-12.47465046692412,-76.42426047381979,-46.652756,24.00569,31.22627,144.62624,30.000067,15.000033,4.866826,-34.07681,13.947872,26.721428,-19.360542,5.5773506,-2.7315376,-29.793802,14.874123,11.963284,19.69954,11.2610855,61.512222,12.869209,2.3467166,13.50304,8.622218,-18.497011,23.382442,54.358776,-14.951321,0.70539486,-8.90091
236,-2.59101939201355,-35.93037796020508,80.85099792480469,30.580676077643886,-12.47555826074642,-76.71382571997418,-47.447014,23.089905,32.10211,143.69803,30.000067,15.000033,4.7477317,-33.709774,14.045463,27.164003,-19.501217,5.3065696,-2.7463164,-29.793802,14.737852,12.806004,19.32346,11.772004,61.360523,12.569676,2.2150826,13.45233,8.532158,-18.442451,23.400057,54.37306,-14.931351,0.69663143,-8.914847
237,-2.553070306777954,-36.05672836303711,80.84210968017578,30.414238911113443,-12.537428033272308,-77.12363113510906,-48.215065,21.715803,32.827938,142.56267,30.000067,15.000033,4.7560663,-33.35006,14.188492,27.519741,-19.594908,5.077931,-2.6325452,-29.793802,14.747802,13.595332,18.959574,12.19758,61.24353,12.230618,2.118091,13.433056,8.424425,-18.349651,23.37134,54.406116,-14.945739,0.7041933,-9.002824
238,-2.511868715286255,-36.190940856933594,80.82489776611328,30.25555402023171,-12.652328947573046,-77.67297025808345,-48.983078,19.90627,33.347336,141.2329,30.000067,15.000033,4.8145638,-32.95186,14.4336405,27.912321,-19.70945,4.863835,-2.380114,-29.793802,14.902864,14.355056,18.60764,12.572539,61.136475,11.878319,2.0442085,13.4282465,8.304488,-18.222017,23.304796,54.43931,-14.980231,0.7225113,-9.141642
