unveil-humanoid-operators/unveil-humanoid-operators.github.io/feature-analysis-animation/data/feature_matrix_instances/height_root_translate_peak_vel_walking_A033_walk_forward_loop_002__A033.csv
Frame,root_translateX,root_translateY,root_translateZ,root_rotateX,root_rotateY,root_rotateZ,left_hip_pitch_joint_dof,left_hip_roll_joint_dof,left_hip_yaw_joint_dof,left_knee_joint_dof,left_ankle_pitch_joint_dof,left_ankle_roll_joint_dof,right_hip_pitch_joint_dof,right_hip_roll_joint_dof,right_hip_yaw_joint_dof,right_knee_joint_dof,right_ankle_pitch_joint_dof,right_ankle_roll_joint_dof,waist_yaw_joint_dof,waist_roll_joint_dof,waist_pitch_joint_dof,left_shoulder_pitch_joint_dof,left_shoulder_roll_joint_dof,left_shoulder_yaw_joint_dof,left_elbow_joint_dof,left_wrist_roll_joint_dof,left_wrist_pitch_joint_dof,left_wrist_yaw_joint_dof,right_shoulder_pitch_joint_dof,right_shoulder_roll_joint_dof,right_shoulder_yaw_joint_dof,right_elbow_joint_dof,right_wrist_roll_joint_dof,right_wrist_pitch_joint_dof,right_wrist_yaw_joint_dof
0,-0.29500964283943176,1.3969788551330566,77.97959899902344,-0.9408965712000184,1.3278553192630083,-88.8549107924145,0.41588673,10.392461,18.203846,10.834709,-10.56776,-7.44313,-0.5115595,-5.3302126,-11.976416,10.616551,-11.807434,4.86276,-2.504097,1.4903333,9.367577,-7.62895,18.727444,-45.11522,55.340546,-10.917856,3.7735422,-2.1341832,-9.385747,-15.07212,40.275784,57.89824,10.804053,12.066353,-8.433251
1,-0.3017597496509552,1.3965777158737183,77.9861068725586,-0.9326341524691325,1.3351795041089238,-88.8622214949896,0.46279278,10.376184,18.219707,10.729565,-10.516492,-7.456742,-0.5146261,-5.329224,-11.96894,10.612169,-11.805902,4.8625083,-2.4825644,1.4866462,9.380377,-7.6327114,18.736147,-45.101246,55.335526,-10.926303,3.7908099,-2.1526866,-9.381469,-15.072967,40.27986,57.881252,10.809428,12.0588875,-8.4480295
2,-0.3104778230190277,1.3926955461502075,77.99002838134766,-0.923471390376915,1.3412673559424038,-88.87015334606792,0.5156053,10.357175,18.236935,10.615051,-10.460578,-7.470598,-0.51733315,-5.3298316,-11.960798,10.609123,-11.804064,4.8632064,-2.4683626,1.4827273,9.397285,-7.6287103,18.748316,-45.072186,55.319324,-10.931512,3.8104885,-2.1745715,-9.382138,-15.074396,40.29205,57.86243,10.815568,12.051944,-8.464053
3,-0.321880966424942,1.3796077966690063,77.99181365966797,-0.9157171162722737,1.349472825499435,-88.87683237684728,0.55981505,10.34202,18.251879,10.513606,-10.411102,-7.4840665,-0.52113473,-5.3281603,-11.953804,10.605036,-11.803769,4.8621798,-2.4573586,1.4798514,9.410895,-7.624281,18.761145,-45.044865,55.30827,-10.932626,3.826209,-2.1931942,-9.382249,-15.075762,40.304497,57.846603,10.82072,12.044852,-8.477488
4,-0.33446773886680603,1.3657317161560059,77.99067687988281,-0.9110889158645136,1.362368214300308,-88.87999002690101,0.5846073,10.335013,18.261066,10.440998,-10.375748,-7.4962244,-0.5290451,-5.3228135,-11.9500065,10.601807,-11.808437,4.8572426,-2.449926,1.4819326,9.417923,-7.6212707,18.766912,-45.03307,55.306557,-10.926141,3.83468,-2.200893,-9.3797245,-15.076092,40.30931,57.835777,10.821246,12.038685,-8.484585
5,-0.34915176033973694,1.349281907081604,77.98826599121094,-0.9122230965796477,1.3818117704680632,-88.87868266274835,0.58189267,10.34144,18.26309,10.410411,-10.361366,-7.5036573,-0.53470653,-5.3088284,-11.951736,10.582987,-11.812006,4.8470507,-2.454884,1.4911518,9.417961,-7.6163564,18.769897,-45.030876,55.31615,-10.902026,3.8314657,-2.193976,-9.376678,-15.075948,40.310055,57.83231,10.812769,12.032446,-8.4823675
6,-0.3600374460220337,1.3424482345581055,77.98567962646484,-0.9168779788793828,1.4057919365390195,-88.87425158508029,0.5598528,10.356744,18.259995,10.408906,-10.361332,-7.5076504,-0.5395548,-5.289519,-11.957165,10.554757,-11.8155775,4.833184,-2.467827,1.5033091,9.414104,-7.607417,18.778294,-45.03616,55.32709,-10.865175,3.820323,-2.1770556,-9.373783,-15.0744095,40.306538,57.83306,10.797833,12.026289,-8.473029
7,-0.36829477548599243,1.3401877880096436,77.984130859375,-0.9208861006950873,1.4317848156702382,-88.86821216149727,0.5314833,10.373165,18.254269,10.416395,-10.3655405,-7.5152054,-0.5557182,-5.2726936,-11.961909,10.547975,-11.831852,4.817302,-2.4814193,1.5157181,9.407254,-7.5981035,18.782757,-45.04498,55.33833,-10.830622,3.8075514,-2.1585288,-9.3695,-15.073021,40.300854,57.835163,10.784392,12.021843,-8.461558
8,-0.37823909521102905,1.338600754737854,77.98152923583984,-0.9197990715987263,1.4576977381271146,-88.86177602593781,0.5090258,10.383091,18.247852,10.412669,-10.363341,-7.533233,-0.5940539,-5.2657795,-11.961924,10.58947,-11.871417,4.8010936,-2.484744,1.5215387,9.398129,-7.590244,18.792025,-45.056293,55.34423,-10.811468,3.7980964,-2.1481187,-9.358387,-15.069102,40.28654,57.832085,10.776739,12.021244,-8.451394
9,-0.389863520860672,1.3282670974731445,77.98046112060547,-0.9107202365961807,1.4826929936916462,-88.85743203392188,0.49969175,10.381386,18.24339,10.385553,-10.347694,-7.565215,-0.65867877,-5.2733817,-11.953509,10.688214,-11.937675,4.7885547,-2.4803433,1.5208211,9.389613,-7.5826483,18.798649,-45.055412,55.341656,-10.8108,3.795702,-2.1493452,-9.344643,-15.065981,40.27141,57.822487,10.779932,12.029065,-8.442669
10,-0.4027360677719116,1.3181616067886353,77.97830200195312,-0.8969355656231782,1.5081276635847394,-88.85343637393164,0.49389154,10.374152,18.238232,10.350834,-10.326915,-7.606988,-0.74207497,-5.289895,-11.940378,10.826063,-12.023225,4.777482,-2.474605,1.5166807,9.380157,-7.574108,18.803732,-45.04499,55.3357,-10.8191595,3.7956254,-2.1574438,-9.329755,-15.063365,40.258335,57.80822,10.793151,12.0435,-8.433771
11,-0.41580697894096375,1.3097723722457886,77.9748764038086,-0.8811648491602194,1.5338131395864483,-88.8465600300352,0.48754182,10.365546,18.230658,10.316953,-10.3076515,-7.65358,-0.84340197,-5.3118114,-11.926107,11.005166,-12.130621,4.76086,-2.4719758,1.5102736,9.369336,-7.5637436,18.808699,-45.029118,55.328537,-10.828804,3.795271,-2.1699922,-9.313958,-15.060719,40.24667,57.794147,10.807162,12.055486,-8.425936
12,-0.4299951195716858,1.2981489896774292,77.9682846069336,-0.866074414434558,1.55941647027231,-88.83376763197315,0.47651932,10.359972,18.218935,10.2920265,-10.296132,-7.700033,-0.9581962,-5.3345494,-11.914836,11.219591,-12.258233,4.731612,-2.47966,1.5023829,9.357973,-7.546668,18.819853,-45.006794,55.315884,-10.829196,3.7922614,-2.1859896,-9.299275,-15.054713,40.237606,57.784798,10.812502,12.055559,-8.420016
13,-0.4535088837146759,1.2815580368041992,77.95599365234375,-0.8537367036430429,1.5837819525464893,-88.81215249561764,0.4579775,10.359858,18.200733,10.283021,-10.297112,-7.7457604,-1.0887048,-5.357291,-11.907694,11.477409,-12.40768,4.686124,-2.4948652,1.4983925,9.341482,-7.5298023,18.82673,-45.000736,55.310734,-10.834816,3.7797036,-2.1963406,-9.280966,-15.050528,40.2393,57.784107,10.81594,12.036034,-8.420517
14,-0.47146809101104736,1.2609336376190186,77.94599151611328,-0.8419997608665738,1.6074493421468123,-88.7842652564358,0.43370107,10.362669,18.177763,10.286614,-10.307629,-7.793092,-1.2362692,-5.382391,-11.902102,11.778339,-12.579162,4.628669,-2.516585,1.4924477,9.321974,-7.509845,18.837358,-44.999126,55.30555,-10.843325,3.7607625,-2.2063675,-9.2608,-15.043393,40.246807,57.790043,10.816237,12.003359,-8.425493
15,-0.4921890199184418,1.2414257526397705,77.93880462646484,-0.8279265421456511,1.6327413416875483,-88.75435149194462,0.4115086,10.363648,18.153936,10.283198,-10.316,-7.841583,-1.3960081,-5.410867,-11.897359,12.107629,-12.770803,4.564286,-2.5392368,1.4853184,9.298426,-7.4926643,18.843927,-44.997955,55.306496,-10.844714,3.7472925,-2.222871,-9.234043,-15.038332,40.24895,57.789032,10.813505,11.970252,-8.430134
16,-0.5130347609519958,1.2287956476211548,77.93278503417969,-0.8080218393438064,1.6620627051558643,-88.72710431231177,0.3909597,10.360613,18.13196,10.270114,-10.319041,-7.8907866,-1.5657355,-5.4440556,-11.892231,12.4551735,-12.98341,4.4979916,-2.5596309,1.4705964,9.268881,-7.474783,18.852154,-44.98833,55.30919,-10.827765,3.7509496,-2.253827,-9.202076,-15.031328,40.241787,57.77572,10.81283,11.948603,-8.431379
17,-0.5400514006614685,1.208810567855835,77.92294311523438,-0.7828218656644544,1.6957375378622634,-88.69975431645679,0.37502065,10.352452,18.108843,10.239123,-10.311812,-7.938024,-1.7358049,-5.4813194,-11.893199,12.804297,-13.213552,4.4355116,-2.5830998,1.447358,9.236174,-7.4515285,18.871254,-44.9587,55.30021,-10.775722,3.7846124,-2.3112514,-9.16799,-15.01427,40.2135,57.750954,10.800852,11.945245,-8.426476
18,-0.574275553226471,1.1861220598220825,77.9133529663086,-0.7538274623162334,1.732583883058964,-88.67128978812785,0.36019254,10.341453,18.083841,10.199186,-10.299643,-7.984431,-1.9106399,-5.5220776,-11.898592,13.165261,-13.462366,4.372699,-2.6089718,1.4190506,9.198707,-7.428223,18.892883,-44.920597,55.290684,-10.702314,3.8380377,-2.3866081,-9.129895,-14.994281,40.174683,57.716442,10.785347,11.95266,-8.418618
19,-0.6126824617385864,1.166610836982727,77.89739227294922,-0.7188822477530729,1.7725664920423159,-88.64819246857172,0.35441744,10.325155,18.066282,10.139002,-10.278153,-8.035012,-2.105906,-5.5673275,-11.895105,13.563282,-13.733658,4.300041,-2.6289368,1.3830955,9.156806,-7.405096,18.915976,-44.879814,55.286602,-10.628533,3.8917246,-2.4629354,-9.087911,-14.972573,40.130066,57.675426,10.772796,11.960822,-8.408655
20,-0.6551809906959534,1.1485923528671265,77.87950134277344,-0.675631283602775,1.8156426969300583,-88.63703377278694,0.36241978,10.302149,18.064615,10.053522,-10.246234,-8.094921,-2.340332,-5.61868,-11.869143,14.028816,-14.033072,4.207892,-2.6342938,1.3375742,9.109649,-7.384671,18.934145,-44.842842,55.300125,-10.575215,3.9256232,-2.522227,-9.038682,-14.955195,40.086506,57.626827,10.772073,11.960071,-8.3980875
21,-0.7016868591308594,1.1227754354476929,77.8626480102539,-0.618955486374012,1.8620473294089175,-88.64183526933931,0.39461213,10.262376,18.084738,9.92274,-10.194844,-8.162907,-2.6255233,-5.6830635,-11.810753,14.581739,-14.370707,4.092485,-2.6199071,1.2712218,9.058692,-7.3523765,18.973764,-44.807774,55.302433,-10.549905,3.9353426,-2.5626953,-8.996122,-14.919019,40.035194,57.595272,10.775952,11.942933,-8.382023
22,-0.7520627975463867,1.0926984548568726,77.84526824951172,-0.5517210671258062,1.9119860907965782,-88.65832934943442,0.44000798,10.211643,18.119839,9.766223,-10.133057,-8.237163,-2.9528522,-5.7574205,-11.72856,15.208384,-14.742678,3.9592018,-2.5904536,1.1960555,9.000376,-7.3259087,19.001131,-44.77574,55.327427,-10.539972,3.9278576,-2.590879,-8.941005,-14.894192,39.985584,57.54927,10.793716,11.918701,-8.362961
23,-0.8079943060874939,1.0627036094665527,77.82865142822266,-0.48240825118968805,1.9645275999511513,-88.68044440430772,0.4949555,10.1628,18.164085,9.590894,-10.061979,-8.321579,-3.2904985,-5.8270097,-11.638247,15.848924,-15.121338,3.8123376,-2.55867,1.1083935,8.941587,-7.287904,19.053545,-44.742645,55.339252,-10.543397,3.916326,-2.610325,-8.896093,-14.848899,39.930885,57.5159,10.808767,11.891287,-8.347208
24,-0.8770875930786133,1.0285375118255615,77.80950164794922,-0.4203251293277775,2.018791834884922,-88.70232870328441,0.54642165,10.132861,18.210007,9.422743,-9.992803,-8.420132,-3.6076853,-5.8761773,-11.556401,16.445812,-15.4803705,3.6563554,-2.5392768,1.0238706,8.884999,-7.247819,19.109911,-44.70407,55.35875,-10.552661,3.9081614,-2.6215127,-8.853414,-14.80077,39.881805,57.474255,10.822101,11.869386,-8.342289
25,-0.9561671614646912,0.9930739998817444,77.791015625,-0.364349191485713,2.0791557352795653,-88.72825793860014,0.59862226,10.119437,18.26576,9.244821,-9.918046,-8.537002,-3.9186544,-5.9071393,-11.479319,17.012941,-15.817281,3.4850528,-2.5301437,0.93969494,8.828722,-7.2035856,19.172646,-44.655605,55.382637,-10.567511,3.905552,-2.6201324,-8.819206,-14.74704,39.841022,57.429485,10.831084,11.853208,-8.35387
26,-1.0399810075759888,0.9663439393043518,77.772705078125,-0.31097594962937514,2.144609835558533,-88.75944517006722,0.65450734,10.116591,18.331703,9.054463,-9.837152,-8.668931,-4.2322235,-5.925683,-11.40134,17.571333,-16.144632,3.2985456,-2.5275645,0.85192734,8.7716875,-7.1528344,19.246052,-44.599586,55.40641,-10.59172,3.9041305,-2.6071744,-8.792039,-14.683642,39.80526,57.385143,10.836323,11.839154,-8.377049
27,-1.1279709339141846,0.9282782673835754,77.75499725341797,-0.2654789074664252,2.206005805061601,-88.78519758343478,0.7034406,10.13377,18.389196,8.889894,-9.766902,-8.808942,-4.5114675,-5.9233394,-11.334316,18.077501,-16.460829,3.1101754,-2.536453,0.76607686,8.719253,-7.0994344,19.328665,-44.54417,55.43503,-10.621854,3.9026093,-2.5922053,-8.7654,-14.612552,39.765503,57.337563,10.839696,11.828633,-8.402212
28,-1.2285596132278442,0.8896433711051941,77.73640441894531,-0.23370866971020532,2.254109716659973,-88.79500807171111,0.7371047,10.179882,18.420149,8.78543,-9.722298,-8.949944,-4.7195296,-5.892084,-11.290101,18.488762,-16.763233,2.9332604,-2.5618505,0.68734723,8.677036,-7.046057,19.421938,-44.498028,55.46988,-10.655039,3.8999763,-2.5848784,-8.731401,-14.533733,39.71065,57.282726,10.840172,11.823424,-8.419863
29,-1.3359744548797607,0.8468897938728333,77.71749877929688,-0.21603952618094605,2.2841007830670037,-88.77810723297311,0.7578278,10.253925,18.413132,8.741179,-9.701752,-9.089571,-4.835544,-5.8316903,-11.281467,18.78416,-17.05019,2.7746441,-2.6130676,0.61419517,8.648762,-6.9949822,19.52733,-44.469093,55.515755,-10.690413,3.900574,-2.5910373,-8.68584,-14.447335,39.62971,57.214653,10.83797,11.827476,-8.429431
30,-1.4497236013412476,0.7989295721054077,77.6971664428711,-0.20957869451799768,2.3015581987447833,-88.74289553225219,0.76849467,10.351938,18.380014,8.742183,-9.6992,-9.23174,-4.8833594,-5.746462,-11.298833,18.99092,-17.324127,2.6263826,-2.6835341,0.54474366,8.631214,-6.944315,19.645388,-44.452152,55.568317,-10.730006,3.903557,-2.6044507,-8.631693,-14.352827,39.529297,57.134464,10.8329935,11.838843,-8.435319
31,-1.5700695514678955,0.7462065815925598,77.67781829833984,-0.21536725237909418,2.3133217431449706,-88.70733523046613,0.7629705,10.479091,18.337952,8.797021,-9.721873,-9.379048,-4.8948736,-5.6340475,-11.320238,19.142502,-17.589554,2.479344,-2.7561743,0.48274574,8.618354,-6.889726,19.77595,-44.43497,55.617527,-10.775992,3.900142,-2.6166844,-8.577583,-14.251566,39.42789,57.056328,10.823852,11.849661,-8.435004
32,-1.7024433612823486,0.6857144236564636,77.65863800048828,-0.23353927607080135,2.3262917220122588,-88.68924656198465,0.7264825,10.642737,18.302477,8.932378,-9.785944,-9.533838,-4.905927,-5.493411,-11.323313,19.28045,-17.855925,2.324536,-2.8140523,0.4321971,8.604599,-6.82804,19.91844,-44.40645,55.6537,-10.832148,3.8815289,-2.6193602,-8.533182,-14.145777,39.34663,56.993515,10.812302,11.852591,-8.4261465
33,-1.8487834930419922,0.6228429079055786,77.63613891601562,-0.2631095153639575,2.3416590656222622,-88.68910017225674,0.6705508,10.838837,18.27656,9.119778,-9.879832,-9.702018,-4.9216666,-5.325215,-11.307294,19.413277,-18.13471,2.1509893,-2.8571315,0.39176694,8.58938,-6.760708,20.073748,-44.37089,55.672142,-10.903513,3.838775,-2.604858,-8.49755,-14.035036,39.287964,56.950634,10.79959,11.841482,-8.405601
34,-1.9935039281845093,0.5631250739097595,77.61498260498047,-0.30452832424334303,2.3558711662039458,-88.69891247695357,0.59743756,11.066015,18.252106,9.357762,-10.000599,-9.880602,-4.925797,-5.129594,-11.282056,19.522697,-18.419533,1.9663349,-2.8938181,0.36047396,8.575579,-6.6878233,20.24247,-44.33122,55.677658,-10.986867,3.7788153,-2.57965,-8.467047,-13.9189,39.242786,56.92,10.785079,11.822031,-8.375676
35,-2.1458077430725098,0.4995183050632477,77.59262084960938,-0.36055679084282294,2.368926724411768,-88.72353614838318,0.48504144,11.333077,18.228817,9.698362,-10.169106,-10.058643,-4.914863,-4.903519,-11.241894,19.595783,-18.685085,1.7894411,-2.9196095,0.34352022,8.563318,-6.603449,20.422577,-44.27072,55.6745,-11.070865,3.7164931,-2.556368,-8.442361,-13.80038,39.211536,56.890884,10.7638645,11.8035755,-8.341598
36,-2.298429489135742,0.4395996630191803,77.56958770751953,-0.4339626414911851,2.3806597319310003,-88.76802136532656,0.31240156,11.64961,18.206244,10.191311,-10.405021,-10.22522,-4.8835607,-4.64314,-11.181698,19.616251,-18.904613,1.6391779,-2.9305325,0.3471316,8.552811,-6.501373,20.610138,-44.171303,55.667572,-11.1427145,3.6665866,-2.5476766,-8.426395,-13.685505,39.198345,56.853107,10.735748,11.796118,-8.308838
37,-2.455030679702759,0.3681219816207886,77.54378509521484,-0.5252160679045952,2.395560996415116,-88.84057442047053,0.08024315,12.020489,18.19707,10.828606,-10.708606,-10.372245,-4.836016,-4.342337,-11.08779,19.576582,-19.065224,1.5221028,-2.9197788,0.37305927,8.538784,-6.3800073,20.802624,-44.026104,55.655052,-11.197692,3.6333163,-2.558018,-8.412382,-13.57848,39.20327,56.790554,10.6965685,11.810058,-8.27532
38,-2.6215882301330566,0.305807888507843,77.51322174072266,-0.6341937596695709,2.4120454841484076,-88.93622270018695,-0.20234837,12.442007,18.194977,11.589486,-11.070036,-10.508491,-4.770534,-4.003385,-10.96778,19.483332,-19.181595,1.4277556,-2.891392,0.4208522,8.523,-6.2440863,20.99918,-43.845406,55.638184,-11.243065,3.6084592,-2.580169,-8.398554,-13.481369,39.224354,56.708336,10.648166,11.837984,-8.238985
39,-2.7917492389678955,0.23811952769756317,77.47748565673828,-0.7641326885046842,2.4212744262211983,-89.03979598392343,-0.5403812,12.910669,18.172897,12.495776,-11.48924,-10.643223,-4.6765685,-3.634779,-10.847841,19.34733,-19.270802,1.3491675,-2.8564932,0.49498057,8.516932,-6.0978093,21.197237,-43.636707,55.625835,-11.28196,3.5881214,-2.6094115,-8.388468,-13.395777,39.259754,56.62064,10.597148,11.86356,-8.205108
40,-2.9643759727478027,0.17057321965694427,77.4362564086914,-0.917700469726575,2.4143520651967756,-89.13618325197429,-0.94497883,13.424287,18.101402,13.57936,-11.971295,-10.784077,-4.54737,-3.2462542,-10.753623,19.18624,-19.353352,1.279132,-2.826579,0.5995193,8.53145,-5.9462237,21.393074,-43.407932,55.629044,-11.318385,3.5684135,-2.6409326,-8.386697,-13.323586,39.30737,56.543846,10.549009,11.870238,-8.179075
41,-3.1311967372894287,0.10442261397838593,77.38874053955078,-1.102069801007979,2.3977922802893206,-89.23145814338964,-1.3969547,13.992475,17.984354,14.79233,-12.535454,-10.943753,-4.387848,-2.82767,-10.683155,18.988462,-19.427383,1.2167132,-2.7961733,0.74283355,8.557185,-5.7892203,21.583406,-43.15849,55.657913,-11.356636,3.5466225,-2.6801772,-8.392205,-13.264879,39.376442,56.48236,10.503163,11.847961,-8.170341
42,-3.293951988220215,0.033294472843408585,77.33802032470703,-1.312998198449607,2.3731482861686874,-89.33039430149846,-1.8984345,14.61594,17.83038,16.130116,-13.170679,-11.11044,-4.1997914,-2.3787494,-10.624462,18.749681,-19.483843,1.1653718,-2.761597,0.9202322,8.591394,-5.62742,21.76653,-42.885983,55.70975,-11.393533,3.5251472,-2.7271404,-8.402426,-13.220275,39.463787,56.428074,10.455877,11.807546,-8.173389
43,-3.462102174758911,-0.04097876697778702,77.27920532226562,-1.537774125901769,2.324408457126693,-89.41586813666869,-2.4902697,15.280372,17.615751,17.68969,-13.832118,-11.254853,-3.9687243,-1.9207966,-10.588758,18.488958,-19.528164,1.1238736,-2.7348766,1.1191679,8.656825,-5.466582,21.940557,-42.595566,55.773888,-11.419927,3.5071619,-2.7694778,-8.415632,-13.191377,39.54912,56.37024,10.4135,11.764027,-8.170936
44,-3.6283366680145264,-0.11584864556789398,77.20661926269531,-1.7661004158104936,2.2354651288417458,-89.47081569717993,-3.2064228,15.969725,17.316853,19.555225,-14.471116,-11.347411,-3.6791794,-1.471802,-10.587953,18.22208,-19.56399,1.090396,-2.7275376,1.329085,8.776381,-5.314084,22.10338,-42.294186,55.84118,-11.427349,3.4958968,-2.7944818,-8.430951,-13.1816635,39.610973,56.29932,10.381189,11.732884,-8.145621
45,-3.792505979537964,-0.19043006002902985,77.13402557373047,-2.0115310615335553,2.102002010348723,-89.48609569156801,-4.0791144,16.704594,16.88892,21.800575,-15.113193,-11.392013,-3.314031,-1.0163697,-10.63757,17.925354,-19.579203,1.0755278,-2.747693,1.5664238,8.957621,-5.17428,22.253128,-41.97897,55.917995,-11.409104,3.4934437,-2.8030083,-8.44578,-13.195048,39.63842,56.20418,10.348154,11.712912,-8.087694
46,-3.953737497329712,-0.26040586829185486,77.05938720703125,-2.275816716570541,1.932921596417199,-89.47226149359578,-5.0775466,17.48253,16.350845,24.344515,-15.763777,-11.395093,-2.8861973,-0.5478544,-10.726008,17.59496,-19.573967,1.0755043,-2.7856874,1.8325136,9.188853,-5.045762,22.388433,-41.65014,56.009262,-11.371237,3.4974003,-2.8003645,-8.457229,-13.233167,39.642147,56.086662,10.315275,11.698022,-8.007662
47,-4.101299285888672,-0.3361062705516815,76.9908218383789,-2.5313816587292517,1.7317208221923808,-89.44187745132287,-6.1371117,18.252546,15.776841,27.038486,-16.343586,-11.331386,-2.422707,-0.096389085,-10.825842,17.273705,-19.56816,1.0672795,-2.8266773,2.0950782,9.463364,-4.9256186,22.508003,-41.31872,56.103924,-11.323472,3.504561,-2.7804513,-8.466355,-13.2962265,39.63399,55.959057,10.306603,11.696288,-7.9182377
48,-4.242131233215332,-0.4165411591529846,76.92411804199219,-2.7516848389082353,1.50214487530118,-89.40729830024077,-7.1924963,18.969496,15.243948,29.74259,-16.779919,-11.175343,-1.9498031,0.30767065,-10.910655,17.006573,-19.583162,1.027964,-2.8553045,2.3227713,9.774169,-4.810286,22.610374,-40.9952,56.190674,-11.275318,3.5117836,-2.736873,-8.475855,-13.38347,39.627018,55.835552,10.34739,11.715866,-7.8323593
49,-4.384400844573975,-0.49825263023376465,76.8570556640625,-2.941982009110128,1.219935733279526,-89.36438371445911,-8.232697,19.666334,14.7840185,32.54186,-16.980642,-10.994522,-1.4425132,0.6695694,-10.983599,16.801523,-19.620855,0.94698495,-2.871871,2.518708,10.149252,-4.7071238,22.695099,-40.68224,56.269997,-11.217176,3.5179863,-2.654973,-8.487788,-13.494984,39.61793,55.698917,10.454254,11.777011,-7.7428308
50,-4.511415958404541,-0.5825836062431335,76.7962417602539,-3.114626841338613,0.8913462625480459,-89.30918053065986,-9.287484,20.362663,14.35051,35.472782,-17.013235,-10.766104,-0.8942845,1.0027955,-11.054967,16.63254,-19.669842,0.8376329,-2.8828464,2.6971018,10.58227,-4.6163425,22.761724,-40.375137,56.348835,-11.148443,3.5249066,-2.5423024,-8.500991,-13.631458,39.602604,55.55005,10.61006,11.869736,-7.6464562
51,-4.641337871551514,-0.6871835589408875,76.74730682373047,-3.2509778621112955,0.5652207032652266,-89.25396299089508,-10.358846,20.988644,13.910631,38.34164,-17.044218,-10.342973,-0.36131635,1.2852752,-11.114265,16.50253,-19.734371,0.71611613,-2.8815084,2.8451025,11.015023,-4.524166,22.808443,-40.07277,56.42466,-11.090327,3.5334544,-2.4263365,-8.50901,-13.790087,39.590652,55.424694,10.790021,11.955675,-7.5618453
52,-4.756133079528809,-0.7954471707344055,76.71343231201172,-3.3339196894980954,0.2908216081744928,-89.21134196453463,-11.449122,21.45958,13.438167,40.954697,-17.238409,-9.596211,0.09734885,1.4942251,-11.152626,16.419428,-19.82154,0.59855926,-2.8618925,2.9496536,11.3882,-4.4145207,22.831959,-39.77062,56.494232,-11.06104,3.5445387,-2.3344195,-8.506867,-13.965391,39.591427,55.362457,10.968391,11.996234,-7.507694
53,-4.854564189910889,-0.906766414642334,76.6905288696289,-3.3527622689260386,0.07887635980443745,-89.17953784247703,-12.604427,21.730875,12.907812,43.380283,-17.687538,-8.272424,0.46026835,1.6115984,-11.171294,16.405535,-19.9448,0.4815167,-2.8248878,2.9986491,11.686853,-4.283906,22.828182,-39.456768,56.565132,-11.073275,3.5576768,-2.2704542,-8.496948,-14.153833,39.616528,55.382545,11.15669,11.961658,-7.4898596
54,-4.948583602905273,-1.0332658290863037,76.67357635498047,-3.316694451712214,-0.09602509565237172,-89.15357841646663,-13.805929,21.832329,12.347696,45.68069,-18.275429,-6.5314636,0.76023406,1.6528566,-11.176189,16.45179,-20.09783,0.3587763,-2.774482,3.002462,11.9405775,-4.1415286,22.795628,-39.135715,56.64129,-11.113339,3.572308,-2.2206583,-8.484791,-14.353924,39.659843,55.46892,11.362364,11.878549,-7.4983573
55,-5.028791427612305,-1.1672919988632202,76.66548919677734,-3.2453819046821333,-0.2390009848274863,-89.1407641279452,-14.962004,21.791311,11.816201,47.66568,-18.862885,-4.8702226,1.0164416,1.6422654,-11.166243,16.523067,-20.25928,0.2442523,-2.708021,2.9801683,12.156883,-3.993385,22.736305,-38.832535,56.715416,-11.1638155,3.5885568,-2.186253,-8.469188,-14.561346,39.70245,55.606457,11.554459,11.791883,-7.5279865
56,-5.108069896697998,-1.312825083732605,76.66552734375,-3.156337066235224,-0.3550098511506945,-89.14836589228159,-15.982425,21.650627,11.371228,49.152653,-19.325762,-3.7825367,1.2521662,1.6060934,-11.138469,16.575605,-20.403357,0.14983766,-2.6224627,2.9493196,12.342885,-3.8455124,22.655,-38.57398,56.779522,-11.209314,3.6067708,-2.1682978,-8.449881,-14.7706175,39.72391,55.782887,11.700069,11.746596,-7.5739355
57,-5.178285121917725,-1.4636834859848022,76.67186737060547,-3.039378328601816,-0.4384320733013344,-89.18517899784639,-16.828306,21.389856,11.024981,50.045113,-19.660423,-3.514729,1.4520559,1.5347921,-11.085342,16.622143,-20.531464,0.0821011,-2.5101898,2.9022245,12.493589,-3.6954541,22.554745,-38.361835,56.831062,-11.258261,3.6291692,-2.1694567,-8.431595,-14.976429,39.719383,56.015217,11.787309,11.754971,-7.644992
58,-5.245687961578369,-1.6274722814559937,76.68122863769531,-2.8924307350478795,-0.4890001607411219,-89.24522041474586,-17.555777,21.008413,10.752906,50.472874,-19.935884,-3.7652142,1.6118948,1.4198453,-11.010478,16.67576,-20.65374,0.03330636,-2.3747878,2.8309662,12.607225,-3.539923,22.436506,-38.185223,56.87209,-11.31655,3.6552234,-2.1883073,-8.417369,-15.177075,39.699562,56.31117,11.833875,11.792356,-7.740839
59,-5.301229000091553,-1.7930583953857422,76.69275665283203,-2.7325339136339357,-0.5194533003654324,-89.31360620838704,-18.216694,20.588024,10.555956,50.591583,-20.144526,-4.202606,1.7630228,1.2868066,-10.929054,16.712055,-20.76606,-0.004729287,-2.2295148,2.7549467,12.697072,-3.3822927,22.302774,-38.04856,56.89813,-11.360868,3.681286,-2.2202268,-8.396986,-15.3717785,39.663258,56.63563,11.849893,11.848798,-7.8427763
60,-5.339909076690674,-1.962311029434204,76.70664978027344,-2.582541592109573,-0.5426209248886689,-89.37530240848588,-18.860605,20.205404,10.432127,50.550186,-20.270958,-4.496833,1.9371036,1.1615129,-10.856489,16.706255,-20.86476,-0.040119134,-2.0869699,2.6933553,12.776014,-3.2259467,22.15683,-37.958008,56.904064,-11.36938,3.7037442,-2.2605205,-8.358045,-15.561122,39.60607,56.951267,11.841845,11.914543,-7.931988
61,-5.381882190704346,-2.1425163745880127,76.72270965576172,-2.442578221257167,-0.5555324723398073,-89.42623260985708,-19.492435,19.865957,10.389525,50.33718,-20.301456,-4.5946083,2.135063,1.0451165,-10.796913,16.654118,-20.948248,-0.07924467,-1.9508448,2.6479585,12.839552,-3.0666387,22.001404,-37.92224,56.884945,-11.32651,3.7235167,-2.311686,-8.294563,-15.74429,39.515965,57.262333,11.788421,12.003176,-8.004791
62,-5.417089939117432,-2.3363232612609863,76.7388916015625,-2.3029593081340383,-0.553647859438275,-89.47439990486903,-20.084934,19.53417,10.425865,49.882713,-20.243423,-4.66013,2.3426337,0.92640287,-10.742263,16.568384,-21.018862,-0.116496325,-1.8138872,2.6093879,12.883785,-2.9025755,21.83769,-37.936985,56.840973,-11.248762,3.7422028,-2.3750935,-8.211826,-15.920687,39.395382,57.58194,11.690151,12.114694,-8.070458
63,-5.44642448425293,-2.5396692752838135,76.75115203857422,-2.1694087900328864,-0.5469599583391164,-89.52268836721134,-20.642433,19.222351,10.520475,49.254887,-20.113909,-4.691527,2.5696752,0.81203276,-10.68948,16.44682,-21.07629,-0.14213516,-1.6721942,2.579493,12.922603,-2.7398677,21.666487,-37.984425,56.774986,-11.158015,3.7570598,-2.4446645,-8.122522,-16.093714,39.272423,57.891594,11.600579,12.218107,-8.129511
64,-5.457727432250977,-2.777151346206665,76.76779174804688,-2.0483944508500933,-0.5455104497341449,-89.57401699343832,-21.169474,18.942081,10.654489,48.523643,-19.9318,-4.6868944,2.8198252,0.70626885,-10.637051,16.300932,-21.130087,-0.14443406,-1.5232886,2.5610337,12.970455,-2.5835788,21.488453,-38.04511,56.68755,-11.075519,3.7656236,-2.5144207,-8.033231,-16.2686,39.17116,58.165436,11.567549,12.282879,-8.182943
65,-5.4631428718566895,-3.007936954498291,76.77828979492188,-1.9365804366695363,-0.5546890194837171,-89.62613049243488,-21.6571,18.703428,10.856774,47.67831,-19.717203,-4.625433,3.110818,0.60939646,-10.584578,16.105625,-21.165298,-0.1177498,-1.3662637,2.5524592,13.033661,-2.4357708,21.305355,-38.123962,56.570858,-10.995021,3.7665071,-2.5898314,-7.939439,-16.450375,39.094044,58.39545,11.616672,12.288037,-8.239423
66,-5.471220016479492,-3.2388734817504883,76.78218841552734,-1.8336784067615282,-0.5678817580273813,-89.67850383789487,-22.103489,18.492462,11.129738,46.68779,-19.454779,-4.517296,3.431621,0.51798385,-10.534138,15.871659,-21.185823,-0.068223454,-1.2030717,2.553723,13.104862,-2.2911153,21.118052,-38.225857,56.422924,-10.908153,3.7613828,-2.6721077,-7.8360043,-16.640953,39.02916,58.588192,11.717802,12.254723,-8.295459
67,-5.479533672332764,-3.475984573364258,76.7802734375,-1.7427795079046815,-0.5782840290399253,-89.7364544747178,-22.526058,18.285208,11.410381,45.592525,-19.107576,-4.40747,3.7645128,0.43804598,-10.481937,15.617892,-21.206335,-0.0077143055,-1.0358237,2.570064,13.1773815,-2.146769,20.925255,-38.334724,56.25687,-10.837038,3.7524114,-2.7485638,-7.7338066,-16.84049,38.984715,58.744644,11.841914,12.214558,-8.333812
68,-5.472841739654541,-3.7193105220794678,76.77207946777344,-1.6705943200344786,-0.5784542655262498,-89.80532145132648,-22.944605,18.062359,11.632702,44.43627,-18.639912,-4.33684,4.0842733,0.37464792,-10.424343,15.379594,-21.2428,0.051921673,-0.86874956,2.6068351,13.243829,-1.9984376,20.724161,-38.430973,56.087143,-10.80162,3.7415142,-2.8066556,-7.644086,-17.047928,38.968285,58.86885,11.955749,12.199345,-8.337534
69,-5.45719051361084,-3.9657979011535645,76.76123046875,-1.6236699319563352,-0.5653835345057923,-89.88286893610422,-23.368216,17.8319,11.7892885,43.21759,-18.03332,-4.295367,4.3884006,0.3342762,-10.36559,15.156768,-21.298212,0.104984924,-0.70519364,2.6703305,13.299192,-1.846606,20.513033,-38.525494,55.908577,-10.777206,3.729394,-2.8463078,-7.5751762,-17.263668,38.9869,58.96077,12.067196,12.224336,-8.288125
70,-5.437984943389893,-4.225939750671387,76.74529266357422,-1.5947382512450072,-0.5432904652165003,-89.96763075394844,-23.78482,17.600294,11.910599,41.91636,-17.309202,-4.2671514,4.689863,0.31236258,-10.305462,14.931853,-21.361996,0.15860377,-0.54254603,2.756745,13.348056,-1.694072,20.29117,-38.622852,55.71885,-10.762207,3.7147806,-2.8730228,-7.5183063,-17.48726,39.034607,59.017433,12.187816,12.270662,-8.199442
71,-5.416585445404053,-4.492345333099365,76.72107696533203,-1.577046639640591,-0.5161605564370493,-90.06610213164412,-24.183594,17.351233,11.984656,40.549774,-16.49226,-4.279558,4.9836516,0.29749197,-10.233815,14.720228,-21.439888,0.22004041,-0.37686044,2.854506,13.395957,-1.5416387,20.057781,-38.69565,55.538662,-10.814342,3.696741,-2.8826602,-7.470979,-17.717611,39.108265,59.05252,12.295882,12.317789,-8.103349
72,-5.40291166305542,-4.7725911140441895,76.68668365478516,-1.56183640528905,-0.4881175102121699,-90.18498842696849,-24.552496,17.070724,11.997975,39.131947,-15.60586,-4.359663,5.2691946,0.27881172,-10.140423,14.527491,-21.532068,0.29650158,-0.205059,2.9522946,13.449142,-1.3890035,19.812372,-38.71458,55.38783,-10.990163,3.6743598,-2.8711486,-7.431892,-17.95192,39.206776,59.078167,12.372349,12.344646,-8.031748
73,-5.357572555541992,-5.057529926300049,76.65438079833984,-1.5455111957251746,-0.4576701787655134,-90.3273444931831,-24.892563,16.755255,11.941963,37.65141,-14.601598,-4.5255356,5.5298853,0.2477527,-10.022419,14.381487,-21.65365,0.38602462,-0.027277432,3.0460289,13.510411,-1.2361695,19.553747,-38.67469,55.261013,-11.324274,3.6395853,-2.8481421,-7.4112372,-18.18936,39.347244,59.098236,12.407942,12.346657,-7.9836745
74,-5.322444915771484,-5.33699893951416,76.60903930664062,-1.5343030756772131,-0.4237896424780321,-90.48950311527153,-25.206852,16.418425,11.8189535,36.102337,-13.485172,-4.7577443,5.7728133,0.21244065,-9.885134,14.2685585,-21.798845,0.48571742,0.15365507,3.141985,13.575782,-1.081976,19.281525,-38.58805,55.151535,-11.778353,3.5952535,-2.8125684,-7.4087973,-18.429516,39.526375,59.109062,12.413954,12.334154,-7.9454203
75,-5.2837748527526855,-5.633970737457275,76.55613708496094,-1.53192360394791,-0.39117926670926156,-90.6678675300475,-25.488827,16.07499,11.630743,34.51217,-12.363203,-5.026401,6.0284977,0.1871274,-9.730872,14.141618,-21.941238,0.60088074,0.33772296,3.2452104,13.641406,-0.92613155,18.997717,-38.454067,55.07706,-12.303833,3.5562313,-2.7438116,-7.409116,-18.668743,39.7149,59.11441,12.405599,12.309312,-7.9299603
76,-5.239498138427734,-5.943413257598877,76.50885009765625,-1.5466546265477399,-0.3648815939479543,-90.85924294634472,-25.730373,15.739644,11.382374,32.90612,-11.341371,-5.301088,6.325852,0.18477973,-9.561517,13.958163,-22.05766,0.7372112,0.5251657,3.35937,13.703342,-0.7660598,18.706007,-38.270615,55.05273,-12.85128,3.5375268,-2.6208723,-7.3965864,-18.901516,39.88177,59.11971,12.395707,12.273866,-7.950331
77,-5.195826530456543,-6.2752580642700195,76.45709228515625,-1.5840956216481397,-0.3437965782497018,-91.06970211922948,-25.93913,15.418577,11.052413,31.289217,-10.430869,-5.570112,6.6703973,0.21696304,-9.367751,13.697787,-22.135511,0.9028147,0.7246573,3.4878623,13.76074,-0.5962587,18.407467,-38.02335,55.080986,-13.430984,3.5429773,-2.4071872,-7.3709416,-19.123705,40.03371,59.130493,12.387762,12.212923,-8.034799
78,-5.148487567901611,-6.614597797393799,76.39397430419922,-1.6380554531112215,-0.32659795319274443,-91.29954319041589,-26.112747,15.1117,10.64457,29.646202,-9.581909,-5.847266,7.04821,0.27354327,-9.150664,13.385853,-22.189236,1.0925604,0.933071,3.6263773,13.815254,-0.41699144,18.102463,-37.715866,55.151485,-14.060725,3.5629494,-2.1238914,-7.343292,-19.334087,40.182804,59.14949,12.373469,12.130007,-8.168492
79,-5.092748165130615,-6.9585041999816895,76.32858276367188,-1.7025061941512551,-0.318034867846321,-91.53699827504809,-26.229033,14.82118,10.204852,27.972971,-8.807445,-6.13995,7.4617805,0.33619827,-8.927871,13.040587,-22.23094,1.2923536,1.1348091,3.7682745,13.867657,-0.2382342,17.795677,-37.378876,55.259724,-14.707056,3.593306,-1.8365082,-7.3120537,-19.530268,40.306705,59.173546,12.35236,12.055218,-8.29945
80,-5.035614013671875,-7.312385559082031,76.25799560546875,-1.7659081008434947,-0.3229638975376756,-91.7703321917145,-26.265162,14.546219,9.780777,26.262436,-8.11841,-6.456529,7.912633,0.38783702,-8.717084,12.682583,-22.273848,1.4876441,1.3163646,3.9070451,13.919399,-0.068012066,17.49435,-37.044403,55.39826,-15.336495,3.6316285,-1.6106107,-7.2740245,-19.709743,40.380367,59.19913,12.323087,12.018223,-8.375546
81,-4.979594707489014,-7.68225622177124,76.18009185791016,-1.8307843047593784,-0.3499516913765224,-91.99633648753012,-26.19703,14.273777,9.348712,24.472841,-7.544482,-6.824465,8.4245825,0.42890713,-8.525309,12.289494,-22.309643,1.6761017,1.4740839,4.0421124,13.977192,0.10360803,17.203054,-36.701523,55.56799,-15.953345,3.681513,-1.4530417,-7.226075,-19.870289,40.383728,59.22748,12.279785,12.037724,-8.372836
82,-4.901087760925293,-8.089106559753418,76.10069274902344,-1.9022924642753574,-0.3955918849014518,-92.22334775060558,-26.034409,14.014366,8.898347,22.608114,-7.067907,-7.227894,8.992363,0.47068897,-8.339577,11.855394,-22.333065,1.8636187,1.6182992,4.178053,14.040413,0.280461,16.923573,-36.3408,55.764507,-16.57264,3.7445903,-1.332273,-7.170379,-20.01106,40.33249,59.260242,12.223556,12.093986,-8.322182
83,-4.81843376159668,-8.511037826538086,76.01407623291016,-1.9807237043969177,-0.44631749181080066,-92.4566561934774,-25.818216,13.796426,8.496798,20.746893,-6.625092,-7.614243,9.572797,0.51109827,-8.150045,11.427132,-22.362738,2.0498857,1.7559719,4.3151984,14.099012,0.44577903,16.659857,-35.994713,55.972694,-17.175962,3.8170547,-1.2559357,-7.115878,-20.13343,40.25865,59.297718,12.168338,12.15889,-8.25398
84,-4.7560601234436035,-8.921919822692871,75.9245834350586,-2.0629504142859014,-0.4872954312836843,-92.6993743508546,-25.593893,13.640519,8.209778,18.97133,-6.1539598,-7.9350657,10.12648,0.5474724,-7.947546,11.041239,-22.413872,2.233574,1.893165,4.451967,14.142212,0.5828039,16.417072,-35.69681,56.17643,-17.745108,3.8953633,-1.2320675,-7.067829,-20.24012,40.18992,59.335815,12.123712,12.204465,-8.198248
85,-4.683272361755371,-9.354267120361328,75.83434295654297,-2.1554185074851624,-0.5195041493112197,-92.9488688374741,-25.371532,13.545692,8.034275,17.28544,-5.646366,-8.191304,10.652041,0.58678174,-7.7309227,10.701116,-22.486353,2.415158,2.0289598,4.5921283,14.171848,0.6899773,16.199211,-35.44242,56.373676,-18.32709,3.9880235,-1.2909147,-7.0243278,-20.332262,40.125256,59.373993,12.092703,12.221311,-8.159786
86,-4.594604969024658,-9.801575660705566,75.73856353759766,-2.2547470528858224,-0.5487099953969662,-93.20403392261169,-25.131218,13.496093,7.9442286,15.653415,-5.131479,-8.408306,11.168556,0.6276432,-7.5049953,10.386595,-22.573195,2.5952277,2.1604965,4.7339506,14.192997,0.7792799,16.007755,-35.21719,56.565594,-18.91462,4.096095,-1.4189377,-6.981074,-20.409645,40.050484,59.409527,12.068043,12.225146,-8.123395
87,-4.513228893280029,-10.249491691589355,75.63804626464844,-2.3519933099654526,-0.5667960540810631,-93.46830494608275,-24.893372,13.484751,7.964872,14.13196,-4.619198,-8.577539,11.645829,0.6514338,-7.2726474,10.141215,-22.692627,2.772085,2.2894213,4.8668947,14.199289,0.8524496,15.843564,-35.042,56.74309,-19.408316,4.2038975,-1.5589472,-6.945461,-20.474546,39.980476,59.43887,12.0538645,12.225951,-8.089924
88,-4.429706573486328,-10.694108963012695,75.53074645996094,-2.434720040101395,-0.5645051620900662,-93.74351963137134,-24.683886,13.501598,8.120488,12.788193,-4.1250525,-8.690634,12.046654,0.6374152,-7.0386815,10.021563,-22.869635,2.944533,2.416438,4.9788847,14.183707,0.91078466,15.706566,-34.93766,56.897453,-19.708582,4.2940874,-1.6543568,-6.9234023,-20.530941,39.92823,59.456795,12.05257,12.233963,-8.060159
89,-4.32279109954834,-11.165215492248535,75.42731475830078,-2.5041939099611974,-0.5389745884202298,-94.0312100692974,-24.50389,13.545756,8.443449,11.612051,-3.6277716,-8.749546,12.352962,0.58337605,-6.8065896,10.060238,-23.122698,3.106349,2.5432084,5.071554,14.143259,0.95239,15.59695,-34.923065,57.025066,-19.74423,4.3683577,-1.6846133,-6.9128366,-20.581606,39.895412,59.45396,12.0724945,12.260361,-8.035454
90,-4.222168922424316,-11.633877754211426,75.31583404541016,-2.5611096989994797,-0.4925219374537361,-94.32606501436649,-24.352104,13.608375,8.912107,10.591276,-3.1329195,-8.75956,12.580155,0.49480247,-6.5779147,10.230973,-23.439426,3.261545,2.6647854,5.142828,14.0816965,0.9834677,15.523566,-34.981873,57.12074,-19.585026,4.434171,-1.6831068,-6.914832,-20.622793,39.877304,59.436882,12.1108885,12.296584,-8.015227
91,-4.119543552398682,-12.106598854064941,75.20751953125,-2.5959738132451893,-0.42315972846799443,-94.61927193679135,-24.245964,13.6679945,9.46998,9.777041,-2.6930425,-8.716282,12.743051,0.36361864,-6.3556876,10.498908,-23.796553,3.423959,2.7766905,5.184986,13.999201,0.9944886,15.46914,-35.088017,57.207886,-19.337101,4.4791718,-1.6726032,-6.9193244,-20.662857,39.867134,59.402336,12.15229,12.325309,-7.996227
92,-4.004405498504639,-12.595558166503906,75.09529876708984,-2.5976010359678012,-0.328964483383848,-94.90249013381873,-24.206352,13.706161,10.060063,9.228252,-2.364965,-8.614227,12.864624,0.18151054,-6.142287,10.811222,-24.166311,3.607559,2.8603275,5.1779633,13.9000845,1.0084274,15.449253,-35.194984,57.266632,-19.105816,4.495178,-1.6785395,-6.943199,-20.685112,39.876553,59.37466,12.182957,12.326541,-7.9764695
93,-3.8943800926208496,-13.086363792419434,74.98178100585938,-2.571499679423906,-0.2157894046335528,-95.18250072441693,-24.19244,13.737991,10.736523,8.890408,-2.200694,-8.499202,12.960798,-0.044692915,-5.9301505,11.148994,-24.544647,3.8164325,2.9374056,5.1366315,13.783969,1.0004749,15.440921,-35.332787,57.33193,-18.903303,4.4610796,-1.7046728,-6.9630527,-20.707872,39.8963,59.331425,12.196395,12.288756,-7.951103
94,-3.7728519439697266,-13.602506637573242,74.87059020996094,-2.5176962387792727,-0.08115471508688586,-95.45936025443552,-24.214968,13.766139,11.505465,8.768981,-2.166064,-8.357233,13.017373,-0.3154634,-5.722381,11.537281,-24.943954,4.0437684,2.9905353,5.0588923,13.652207,0.979903,15.4463625,-35.4845,57.392456,-18.667383,4.388517,-1.7413677,-6.999522,-20.723427,39.93979,59.28541,12.198893,12.22418,-7.921869
95,-3.6375436782836914,-14.114703178405762,74.77571868896484,-2.4203197351183507,0.0900774611213658,-95.7151069286989,-24.372875,13.7610855,12.237038,9.015893,-2.1919036,-8.09028,13.00127,-0.6503566,-5.536601,12.01355,-25.367634,4.2870946,3.0378134,4.9282866,13.4881315,0.9290107,15.472867,-35.68539,57.451553,-18.447748,4.3081055,-1.775129,-7.016579,-20.745367,39.965393,59.214302,12.207222,12.153083,-7.8991613
96,-3.492290496826172,-14.614402770996094,74.69776153564453,-2.263117162304223,0.31153418582504266,-95.9316907528722,-24.751396,13.69553,12.807033,9.75628,-2.1960053,-7.5978165,12.882406,-1.0685706,-5.389118,12.611676,-25.816425,4.543987,3.0257676,4.721848,13.293053,0.85757434,15.507293,-35.847015,57.508503,-18.23258,4.252167,-1.8080285,-7.062233,-20.756378,39.99402,59.159187,12.229863,12.094944,-7.88743
97,-3.3561019897460938,-15.123157501220703,74.62903594970703,-2.017795529535311,0.612740085399173,-96.10118711822555,-25.413548,13.545333,13.186504,11.109486,-2.1776154,-6.708128,12.618787,-1.6045514,-5.2903347,13.351501,-26.306688,4.8179865,2.9725094,4.4029627,13.043179,0.76369095,15.584626,-36.00865,57.534485,-18.068459,4.2349343,-1.8308427,-7.12201,-20.760311,40.01159,59.099,12.280451,12.052481,-7.890426
98,-3.215221643447876,-15.641283988952637,74.56121063232422,-1.7112599851233274,0.9709395960369281,-96.24313647165539,-26.252975,13.349872,13.465442,12.900763,-2.1356833,-5.519731,12.255136,-2.224903,-5.215069,14.188172,-26.819986,5.1071587,2.871533,4.0037813,12.753784,0.65786517,15.68641,-36.145706,57.54056,-17.922514,4.2375145,-1.8502593,-7.214391,-20.746662,40.048115,59.052925,12.352778,12.015624,-7.9042506
99,-3.0676543712615967,-16.169143676757812,74.48993682861328,-1.4079073395997201,1.3233248606049515,-96.38123675926859,-27.11782,13.175241,13.691336,14.839852,-1.9962937,-4.3370023,11.888013,-2.85021,-5.128494,15.062611,-27.306595,5.4011774,2.7571862,3.5990455,12.467611,0.54454976,15.802473,-36.276016,57.540367,-17.761919,4.246071,-1.8741344,-7.314556,-20.716036,40.064445,59.031307,12.419839,11.983717,-7.9261594
100,-2.908501148223877,-16.726037979125977,74.41094207763672,-1.1601621218194575,1.6136704390274423,-96.53066012119857,-27.879494,13.068825,13.894426,16.670063,-1.7055566,-3.4624221,11.605655,-3.4143152,-5.0090513,15.918587,-27.723953,5.692217,2.6535077,3.2496722,12.226581,0.43121305,15.928424,-36.411983,57.539715,-17.552006,4.2472143,-1.911764,-7.400724,-20.671284,40.02613,59.039894,12.458627,11.95656,-7.953176
101,-2.741288661956787,-17.280641555786133,74.32567596435547,-0.9786487842505123,1.8457959150351377,-96.7029581257037,-28.556995,13.05322,14.061207,18.384052,-1.0991547,-3.0324533,11.396071,-3.906816,-4.8502364,16.765224,-28.08021,5.975263,2.5711303,2.9671068,12.025722,0.3154978,16.060223,-36.55426,57.54412,-17.276066,4.2368326,-1.9773731,-7.474525,-20.615166,39.931152,59.08047,12.46242,11.939983,-7.9756737
102,-2.579468250274658,-17.844314575195312,74.23814392089844,-0.8326106363166815,2.045447545181625,-96.88550424771638,-29.213879,13.095685,14.171994,20.1189,-0.26366508,-2.858895,11.221084,-4.3643255,-4.668088,17.624945,-28.3932,6.256124,2.4969902,2.718197,11.846547,0.18869829,16.196459,-36.701176,57.55619,-16.955498,4.2211094,-2.0616808,-7.5413837,-20.549107,39.792633,59.145706,12.444266,11.9325075,-7.998077
103,-2.401827573776245,-18.425304412841797,74.15742492675781,-0.7046257254501093,2.1940504999013286,-97.05045711212536,-29.814768,13.147367,14.23478,21.879448,0.46550313,-2.764499,11.102902,-4.804535,-4.482708,18.51049,-28.650143,6.5451856,2.4120615,2.4878783,11.706646,0.049798544,16.337193,-36.8593,57.57595,-16.612465,4.202784,-2.1389186,-7.583037,-20.47343,39.59783,59.225742,12.408967,11.922813,-8.038471
104,-2.2251338958740234,-19.004886627197266,74.07807159423828,-0.5762294282345343,2.2725252588222764,-97.17072469699406,-30.319231,13.156513,14.2633505,23.661854,0.75484705,-2.5830498,11.065677,-5.245133,-4.3137403,19.432163,-28.836967,6.852546,2.2986138,2.2618992,11.624345,-0.102586,16.483305,-37.038116,57.6019,-16.271225,4.184937,-2.1836262,-7.5734124,-20.386225,39.326862,59.30379,12.35555,11.900096,-8.114813
105,-2.042463541030884,-19.603187561035156,74.00286865234375,-0.441115646052649,2.251432290755305,-97.22964154460692,-30.731953,13.098741,14.227311,25.551512,0.4316924,-2.2807975,11.172378,-5.693787,-4.176816,20.345173,-28.960096,7.196905,2.1417296,2.0334284,11.630588,-0.2694645,16.636854,-37.243954,57.63849,-15.943556,4.1645875,-2.1749623,-7.5078998,-20.284426,38.95606,59.37734,12.258464,11.863218,-8.255399
106,-1.854501485824585,-20.21735191345215,73.93318176269531,-0.30557609093260574,2.15021479202749,-97.24298407550354,-31.07242,12.988128,14.1260395,27.521284,-0.2979262,-1.9553977,11.389006,-6.146016,-4.060789,21.262918,-29.02503,7.567187,1.9541736,1.8066065,11.705286,-0.44960016,16.798107,-37.47346,57.6831,-15.615755,4.141983,-2.1316128,-7.397599,-20.166601,38.497654,59.45257,12.1236515,11.817643,-8.442718
107,-1.666454792022705,-20.833906173706055,73.87052154541016,-0.16975730216629029,2.0232511544537086,-97.23202503494177,-31.324297,12.833013,14.021526,29.403088,-1.1985499,-1.6398693,11.5942335,-6.6026325,-3.943176,22.28264,-29.016739,7.929619,1.7591965,1.5812364,11.788818,-0.6404816,16.964743,-37.718693,57.7265,-15.271703,4.1250987,-2.086613,-7.2600927,-20.0376,38.00326,59.543518,12.011974,11.761391,-8.626375
108,-1.467525839805603,-21.472797393798828,73.82067108154297,-0.03290489452557689,1.9252788171869368,-97.21847890273077,-31.466284,12.64852,13.980555,31.021687,-2.0359352,-1.3625839,11.667481,-7.0638094,-3.7989583,23.498886,-28.918777,8.251044,1.5788411,1.3588202,11.822357,-0.83980286,17.132706,-37.97032,57.760113,-14.894676,4.1211567,-2.0734265,-7.1053605,-19.905584,37.521618,59.65588,11.981394,11.692487,-8.755725
109,-1.2807320356369019,-22.1191463470459,73.78546905517578,0.11380476692065854,1.8701616739794586,-97.18825769644195,-31.494295,12.422174,14.015477,32.333042,-2.7734656,-1.1307964,11.603717,-7.5416913,-3.6458118,24.91696,-28.744217,8.525918,1.402249,1.1311133,11.788281,-1.0486349,17.29919,-38.22587,57.791866,-14.446269,4.136336,-2.1139188,-6.914718,-19.77669,37.027275,59.77855,12.065311,11.601878,-8.817099
110,-1.0620203018188477,-22.776350021362305,73.76731872558594,0.2695962542636251,1.8301248716849983,-97.1357711167941,-31.423967,12.148648,14.093873,33.43633,-3.5312667,-0.92796963,11.461817,-8.034138,-3.4867377,26.48212,-28.492039,8.7705345,1.2227824,0.9007971,11.718671,-1.2698134,17.463089,-38.491524,57.82521,-13.946435,4.164148,-2.1863804,-6.6813793,-19.651884,36.503513,59.899593,12.226061,11.494232,-8.836856
111,-0.8382688164710999,-23.42216682434082,73.76448059082031,0.42053642389049933,1.7978603914430793,-97.09666454012323,-31.264172,11.862748,14.21393,34.37614,-4.3127465,-0.747042,11.21308,-8.517419,-3.2733357,28.207705,-28.124825,8.986898,1.0678097,0.6838591,11.627476,-1.5035213,17.622778,-38.76579,57.84764,-13.463032,4.193591,-2.257895,-6.448612,-19.53577,36.027042,60.043438,12.42358,11.386914,-8.824786
112,-0.6164957880973816,-24.080219268798828,73.77125549316406,0.5519355471314293,1.7660602735677624,-97.10634598897103,-31.01986,11.601011,14.374592,35.192047,-5.1202517,-0.5776732,10.83198,-8.964157,-2.9588945,30.100826,-27.604717,9.180033,0.96127874,0.4974173,11.529861,-1.7487031,17.776562,-39.04312,57.84556,-13.06434,4.2140718,-2.2957182,-6.2570157,-19.432459,35.675896,60.230217,12.61653,11.2983265,-8.791187
113,-0.3963671028614044,-24.741912841796875,73.79467010498047,0.6546034346463004,1.7351305824642904,-97.19764039274774,-30.682096,11.394339,14.592633,35.90244,-5.9956956,-0.4275064,10.309834,-9.350165,-2.4969828,32.170216,-26.909445,9.361943,0.92915106,0.3539227,11.419555,-1.998851,17.921848,-39.336075,57.8106,-12.763088,4.223398,-2.281364,-6.119335,-19.347258,35.495087,60.481937,12.84685,11.230344,-8.716649
114,-0.16162653267383575,-25.40108871459961,73.83003997802734,0.7372950080067752,1.7087236681227198,-97.34379044478305,-30.25063,11.219345,14.86016,36.48352,-6.924889,-0.2991652,9.665274,-9.685841,-1.9261276,34.39968,-26.058535,9.5350275,0.9490076,0.24343827,11.292445,-2.2570703,18.05753,-39.63859,57.75331,-12.523707,4.227089,-2.2354755,-6.0107794,-19.281342,35.43717,60.778763,13.118511,11.175144,-8.603033
115,0.0839315801858902,-26.062511444091797,73.88780975341797,0.8123275285137798,1.6843637655337338,-97.49105953870205,-29.745533,11.032325,15.137956,36.915497,-7.82871,-0.17747717,8.917086,-9.9943695,-1.3283298,36.75631,-25.074013,9.692556,0.9746044,0.14890578,11.167189,-2.5343528,18.185522,-39.916767,57.685623,-12.341087,4.227027,-2.183631,-5.922804,-19.230547,35.447216,61.083996,13.341877,11.134952,-8.492723
116,0.3125828802585602,-26.698488235473633,73.97560119628906,0.8921293423909012,1.6593038581892137,-97.58530558672868,-29.187244,10.787656,15.387914,37.1777,-8.626893,-0.045654092,8.084949,-10.301351,-0.7849783,39.207436,-23.976562,9.827109,0.9578242,0.053123005,11.061898,-2.8393047,18.310324,-40.135857,57.61701,-12.21048,4.225009,-2.1519234,-5.8432884,-19.185385,35.46512,61.359833,13.41918,11.11126,-8.428616
117,0.5442890524864197,-27.33638572692871,74.08631134033203,0.9810975269540216,1.6350778078795771,-97.59983821752795,-28.573568,10.4575815,15.600084,37.240734,-9.296266,0.11300154,7.174731,-10.606012,-0.30284834,41.75273,-22.702387,9.983712,0.8763567,-0.047113653,10.974766,-3.183997,18.422476,-40.291096,57.56516,-12.148181,4.2184887,-2.1499374,-5.778421,-19.1442,35.50861,61.613377,13.286637,11.114078,-8.423534
118,0.7671714425086975,-27.968687057495117,74.21197509765625,1.070850924557119,1.612119973103805,-97.56760344527095,-27.896612,10.070833,15.79345,37.12222,-9.879464,0.28516933,6.1806054,-10.886959,0.1545311,44.401752,-21.260096,10.167031,0.7604855,-0.15053669,10.899704,-3.5439212,18.553448,-40.401775,57.489468,-12.155947,4.2103505,-2.1640513,-5.7401605,-19.093672,35.594097,61.87239,13.003206,11.137232,-8.455195
119,0.9847663640975952,-28.58104133605957,74.34274291992188,1.1548439208718562,1.585891028860788,-97.52450331003077,-27.1699,9.666467,15.974134,36.87511,-10.395518,0.44436187,5.09905,-11.148139,0.57222265,47.147358,-19.78185,10.2974,0.6339741,-0.24716428,10.840506,-3.9152157,18.688326,-40.458656,57.398796,-12.191981,4.2025166,-2.1822941,-5.720041,-19.038765,35.68102,62.1208,12.673862,11.161275,-8.512551
120,1.1933374404907227,-29.18014907836914,74.4835433959961,1.2258813591164777,1.5519358929197073,-97.50591274118517,-26.40478,9.281832,16.149551,36.547886,-10.861067,0.56474555,3.9252527,-11.404759,0.93396366,49.981316,-18.395962,10.278015,0.52798706,-0.332525,10.802703,-4.288958,18.830126,-40.46392,57.285828,-12.220414,4.198595,-2.1929653,-5.707292,-18.97928,35.71804,62.34377,12.399339,11.165106,-8.584652
121,1.392797589302063,-29.771602630615234,74.6319351196289,1.2787273080162966,1.5159779805189189,-97.5248801829935,-25.610527,8.930778,16.322836,36.15012,-11.277961,0.63893306,2.6046474,-11.676598,1.2414662,52.997578,-17.048716,10.051832,0.45871404,-0.40011913,10.78509,-4.665863,18.9797,-40.403748,57.14727,-12.271842,4.204044,-2.182884,-5.7003903,-18.916166,35.6904,62.540615,12.173795,11.137702,-8.692572
122,1.5843315124511719,-30.348665237426758,74.78254699707031,1.3177850899363683,1.478108677100535,-97.56106818085078,-24.778772,8.590723,16.490227,35.655556,-11.636756,0.68241704,1.1552954,-11.965402,1.4990115,56.16912,-15.696945,9.661793,0.40909263,-0.4537002,10.786357,-5.0498605,19.137684,-40.284836,56.985447,-12.352446,4.2158327,-2.161814,-5.6988287,-18.848783,35.619556,62.712765,11.950832,11.092772,-8.834232
123,1.780828833580017,-30.913814544677734,74.94357299804688,1.3552912320708683,1.425534762633707,-97.60018151849472,-23.895872,8.245151,16.655605,35.065754,-11.943587,0.7049635,-0.32917252,-12.273464,1.6980982,59.32978,-14.498655,9.146318,0.35942,-0.5095018,10.811436,-5.437458,19.307945,-40.140972,56.80292,-12.391771,4.224486,-2.1525095,-5.7090793,-18.778353,35.52252,62.86176,11.781691,11.044246,-8.963521
124,1.968243956565857,-31.471595764160156,75.10686492919922,1.4024779974055046,1.3452557020487796,-97.62786355102558,-22.949411,7.878346,16.820429,34.385498,-12.205828,0.7154674,-1.75487,-12.597718,1.8323423,62.316254,-13.618674,8.545562,0.29087725,-0.58181787,10.866723,-5.8237267,19.49617,-40.005756,56.597363,-12.318899,4.221072,-2.1777701,-5.7284565,-18.705149,35.40811,62.9788,11.712044,11.006407,-9.034411
125,2.1449944972991943,-32.028709411621094,75.26728057861328,1.4794411797223825,1.2230543413474233,-97.66242763316478,-21.902079,7.4728565,17.015503,33.58288,-12.417909,0.71512747,-3.1397774,-12.990515,1.9068038,65.19179,-13.105964,7.759126,0.21652362,-0.6910026,10.97028,-6.202923,19.707289,-39.876465,56.352207,-12.044377,4.206598,-2.2625666,-5.7649775,-18.63027,35.268005,63.063168,11.789226,10.988343,-9.020328
126,2.3050172328948975,-32.57738494873047,75.43423461914062,1.5760709077966315,1.0692898688423103,-97.70438943693804,-20.770164,7.038618,17.229979,32.662758,-12.577208,0.6999508,-4.523878,-13.450863,1.931122,68.01944,-12.884138,6.783344,0.14037268,-0.8262559,11.114713,-6.575191,19.943308,-39.738846,56.06552,-11.629651,4.18466,-2.388817,-5.814925,-18.554068,35.098225,63.114628,11.974611,10.980896,-8.950284
127,2.452390670776367,-33.119544982910156,75.6056900024414,1.6571693533837468,0.9076567691084135,-97.71167591327263,-19.624838,6.6033154,17.39889,31.689102,-12.694576,0.67048246,-5.847634,-13.887279,1.9067006,70.64477,-12.927339,5.8205576,0.03042132,-0.9547054,11.267491,-6.946452,20.20506,-39.612385,55.760117,-11.234398,4.150328,-2.5143287,-5.86562,-18.476284,34.92324,63.13445,12.195969,10.969804,-8.861588
128,2.6000213623046875,-33.663917541503906,75.7744369506836,1.6866436724236713,0.7618559859655623,-97.64245783029757,-18.537262,6.2007766,17.4605,30.730846,-12.7847805,0.6278221,-7.0504375,-14.1960535,1.8273576,72.915115,-13.204456,5.0864816,-0.14542985,-1.0428734,11.395475,-7.3238716,20.492018,-39.51631,55.46126,-11.01751,4.0996466,-2.5969362,-5.9033737,-18.396168,34.764675,63.124126,12.376926,10.940388,-8.791494
129,2.7239880561828613,-34.20406723022461,75.93524932861328,1.6461283468631136,0.6399193323416508,-97.4791001233346,-17.532549,5.8481455,17.389605,29.810574,-12.84978,0.5717745,-8.090301,-14.338711,1.6593198,74.76159,-13.85814,4.678795,-0.4054694,-1.0732778,11.486116,-7.712423,20.805325,-39.459103,55.16773,-11.077897,4.023621,-2.619827,-5.9276733,-18.312113,34.636196,63.081745,12.51079,10.882427,-8.742361
130,2.835658073425293,-34.73862838745117,76.09788513183594,1.556759988845857,0.5289352316709721,-97.2458478205795,-16.570494,5.531024,17.223873,28.89487,-12.884885,0.503182,-9.008907,-14.364357,1.4131372,76.28547,-14.85499,4.484989,-0.7298049,-1.0665915,11.558283,-8.106312,21.145325,-39.42902,54.867588,-11.311506,3.9275079,-2.6077821,-5.9471145,-18.223625,34.52576,63.01029,12.6351385,10.8055105,-8.696989
131,2.9321486949920654,-35.268272399902344,76.26127624511719,1.4407434614686874,0.42109302879000754,-96.96424328305555,-15.629664,5.2374454,16.99569,27.980288,-12.901464,0.4249509,-9.871132,-14.29878,1.1388441,77.58487,-15.892532,4.401809,-1.0930887,-1.0454144,11.626352,-8.498085,21.508026,-39.416115,54.57108,-11.573746,3.828891,-2.5807776,-5.9553595,-18.131004,34.41088,62.91278,12.736119,10.724663,-8.662983
132,3.026859998703003,-35.80065155029297,76.42115020751953,1.320678349697239,0.308292480135716,-96.65559187204015,-14.68919,4.9536552,16.73708,27.062538,-12.91029,0.33995014,-10.741195,-14.1672325,0.8872873,78.75276,-16.667105,4.3234906,-1.4689554,-1.0324272,11.703932,-8.884812,21.886421,-39.414158,54.294464,-11.722281,3.745196,-2.5581915,-5.9477477,-18.036007,34.271477,62.793793,12.80304,10.6552305,-8.648126
133,3.1092889308929443,-36.32258987426758,76.57054138183594,1.1972727795597,0.18267511246597196,-96.30807383692787,-13.731437,4.6709332,16.43666,26.11975,-12.904488,0.2517244,-11.6160555,-13.968645,0.65027994,79.79586,-17.095913,4.231762,-1.8643465,-1.0304668,11.795308,-9.273344,22.27588,-39.43518,54.054955,-11.707672,3.6731975,-2.5380518,-5.9147162,-17.939737,34.09756,62.635612,12.8215275,10.602373,-8.664853
134,3.1885366439819336,-36.842018127441406,76.7092514038086,1.06086276884331,0.050793225402236304,-95.91542304577396,-12.771075,4.39865,16.08441,25.160267,-12.883606,0.15893988,-12.470597,-13.691064,0.40230548,80.66921,-17.337645,4.1807594,-2.2870982,-1.0289421,11.892446,-9.669711,22.674183,-39.482933,53.84841,-11.610892,3.6055815,-2.51172,-5.8590546,-17.842686,33.90039,62.440273,12.80239,10.557848,-8.705524
135,3.251788854598999,-37.36368942260742,76.83972930908203,0.9185354574669237,-0.07414755540029683,-95.50858027471499,-11.836832,4.1514354,15.714837,24.232168,-12.863966,0.05680441,-13.335389,-13.351137,0.17365558,81.38604,-17.452408,4.1746397,-2.7120476,-1.0286171,11.989836,-10.065132,23.07644,-39.52957,53.657856,-11.477924,3.553909,-2.48821,-5.792465,-17.746143,33.68884,62.241127,12.7676735,10.516287,-8.747607
136,3.3201894760131836,-37.89564514160156,76.96735382080078,0.7779907282781374,-0.1790994891907227,-95.11868347079252,-10.959072,3.9424746,15.362867,23.383623,-12.8632555,-0.05870894,-14.239557,-12.96217,-0.0061545838,81.95911,-17.501883,4.216587,-3.1151826,-1.0291722,12.08175,-10.450637,23.476463,-39.54561,53.468,-11.354294,3.5295627,-2.4767604,-5.7273436,-17.651882,33.473007,62.072086,12.74042,10.472132,-8.768684
137,3.375748634338379,-38.408668518066406,77.08219146728516,0.6355136516118572,-0.25924612119458307,-94.75091466700712,-10.149151,3.782343,15.034878,22.62716,-12.879027,-0.19255702,-15.200703,-12.510415,-0.13283566,82.39418,-17.46442,4.298853,-3.4920502,-1.0264252,12.165452,-10.831001,23.86982,-39.52355,53.289223,-11.225437,3.54603,-2.4824882,-5.667621,-17.56073,33.2541,61.941235,12.71779,10.424312,-8.757705
138,3.431814193725586,-38.91767501831055,77.17866516113281,0.4887023063223026,-0.3222527536564048,-94.38977429416587,-9.39034,3.6604621,14.714848,21.939493,-12.906607,-0.3396144,-16.199463,-11.993947,-0.22240539,82.68116,-17.318897,4.4242845,-3.8552694,-1.0199602,12.243874,-11.210672,24.254745,-39.477333,53.130978,-11.073629,3.5930622,-2.4997995,-5.6043534,-17.472208,33.027412,61.8293,12.690874,10.375782,-8.728376
139,3.4866106510162354,-39.425750732421875,77.26526641845703,0.3474213731355603,-0.3738946864013253,-94.03488964161234,-8.667848,3.5552464,14.403999,21.306952,-12.95572,-0.48937657,-17.208584,-11.442454,-0.2748551,82.809235,-17.125149,4.610766,-4.206414,-1.0162466,12.319101,-11.582276,24.629541,-39.412914,52.97949,-10.942852,3.6467543,-2.520902,-5.5390053,-17.388502,32.799965,61.736473,12.677887,10.327287,-8.695573
140,3.5269577503204346,-39.926673889160156,77.3363265991211,0.22264919400443028,-0.41996989510076,-93.68597258957244,-7.9641895,3.4446626,14.1032295,20.71025,-13.032321,-0.6321845,-18.200794,-10.886176,-0.28879508,82.7671,-16.943386,4.875126,-4.5473886,-1.021799,12.393514,-11.936795,24.992826,-39.333305,52.818817,-10.875288,3.6832433,-2.5378656,-5.473612,-17.3136,32.58127,61.662487,12.700112,10.279868,-8.673729
141,3.58085298538208,-40.43851089477539,77.39132690429688,0.11304809520580486,-0.46156733603418665,-93.34630975405368,-7.2798166,3.3283198,13.816453,20.152565,-13.143285,-0.77543354,-19.173452,-10.306204,-0.24180478,82.54564,-16.786676,5.251843,-4.877501,-1.0347426,12.466981,-12.269428,25.343681,-39.229218,52.644653,-10.895211,3.696469,-2.5501006,-5.4065914,-17.251158,32.367527,61.608078,12.783908,10.227357,-8.667373
142,3.632326126098633,-40.93606185913086,77.4300537109375,0.014194223554934646,-0.4961962441048784,-93.01482955891142,-6.6216545,3.2147222,13.542158,19.639013,-13.282062,-0.9214444,-20.13746,-9.697277,-0.13924558,82.15168,-16.626583,5.7201586,-5.1960154,-1.0516888,12.539131,-12.587655,25.681879,-39.102962,52.467335,-10.976956,3.6989105,-2.5609918,-5.334539,-17.202503,32.154877,61.5684,12.9109335,10.171753,-8.667952
143,3.6848504543304443,-41.444175720214844,77.47173309326172,-0.0706534613020673,-0.524346741114356,-92.68408989520195,-5.983727,3.0965886,13.272025,19.157375,-13.437603,-1.0540414,-21.08541,-9.109632,-0.021125598,81.59697,-16.460165,6.2127166,-5.504548,-1.0766054,12.612512,-12.895661,26.00618,-38.96816,52.28812,-11.080691,3.69499,-2.5689654,-5.2557316,-17.166658,31.953262,61.533485,13.037208,10.126406,-8.670802
144,3.73534893989563,-41.947078704833984,77.50247955322266,-0.13917356712247617,-0.5464465345633027,-92.34695767882246,-5.358738,2.9668748,12.99742,18.691208,-13.595554,-1.157579,-22.011265,-8.592849,0.0724654,80.89493,-16.28346,6.6624713,-5.8048983,-1.1135685,12.688573,-13.203218,26.315662,-38.845325,52.11405,-11.173878,3.6884897,-2.5719216,-5.1706862,-17.141464,31.77377,61.497387,13.11936,10.104799,-8.672017
145,3.794163942337036,-42.459171295166016,77.51795959472656,-0.186355329408938,-0.5563640458791986,-91.9989682405013,-4.7640443,2.8185446,12.713178,18.255978,-13.758772,-1.216349,-22.92932,-8.139529,0.16104022,80.04501,-16.0949,7.0855365,-6.100547,-1.1668833,12.761895,-13.515421,26.608932,-38.7364,51.944374,-11.245691,3.6794696,-2.5726902,-5.0845037,-17.126242,31.620071,61.46109,13.138315,10.118322,-8.670708
146,3.831512451171875,-42.963340759277344,77.53015899658203,-0.2161452247171333,-0.5561438159438048,-91.64449935319307,-4.196559,2.6569514,12.423881,17.851639,-13.929611,-1.2458704,-23.835276,-7.7318063,0.25847986,79.03988,-15.896648,7.5038495,-6.3894997,-1.2328142,12.832715,-13.829849,26.885403,-38.634953,51.78087,-11.317529,3.6658041,-2.570962,-4.994107,-17.120352,31.48423,61.42776,13.117543,10.157278,-8.669352
147,3.8750834465026855,-43.481163024902344,77.53289031982422,-0.23465762162056134,-0.5584620985647059,-91.2904336246204,-3.6212645,2.494804,12.136348,17.446476,-14.102088,-1.2715821,-24.694996,-7.4019184,0.3154988,77.880394,-15.689011,7.8618674,-6.664281,-1.3058088,12.91074,-14.13359,27.143919,-38.53458,51.62556,-11.388633,3.648985,-2.560007,-4.894874,-17.121824,31.365788,61.400745,13.083752,10.202196,-8.668565
148,3.9081592559814453,-43.997684478759766,77.5334701538086,-0.2524476533627012,-0.5756125467165667,-90.94352776800285,-3.005494,2.3450205,11.8569145,17.012886,-14.268404,-1.3213543,-25.476673,-7.1792326,0.2807342,76.571014,-15.466134,8.10521,-6.918032,-1.3794845,13.005339,-14.417248,27.38364,-38.43302,51.482998,-11.463222,3.63017,-2.5333352,-4.778933,-17.12674,31.260954,61.381317,13.059218,10.233761,-8.669281
149,3.9412178993225098,-44.52678298950195,77.53431701660156,-0.2707773504202031,-0.6206995457199439,-90.60733670995526,-2.3296514,2.2148733,11.591756,16.546722,-14.431388,-1.4003404,-26.16535,-7.073358,0.13554521,75.10998,-15.236223,8.20287,-7.144015,-1.4547914,13.130501,-14.684143,27.60408,-38.328865,51.35783,-11.539338,3.6069822,-2.4862077,-4.6479063,-17.133205,31.1718,61.37126,13.037613,10.2452965,-8.665392
150,3.9568614959716797,-45.0574951171875,77.52750396728516,-0.2881249633775774,-0.6836486659028798,-90.27781415315197,-1.6153544,2.0971599,11.335926,16.06244,-14.593514,-1.4950119,-26.77762,-7.0619335,-0.0952515,73.495056,-14.997605,8.193187,-7.3476114,-1.5337965,13.276555,-14.939937,27.805357,-38.225998,51.24972,-11.618607,3.5794373,-2.423068,-4.506952,-17.14042,31.100998,61.372646,13.011944,10.247308,-8.658821
151,3.9756336212158203,-45.58648681640625,77.52015686035156,-0.2995575677717427,-0.7419464762315666,-89.95057391714172,-0.89053273,1.9838963,11.079727,15.557954,-14.748983,-1.603586,-27.328932,-7.124495,-0.39906442,71.72777,-14.734785,8.127495,-7.540132,-1.6135223,13.417153,-15.168659,27.986313,-38.118702,51.149837,-11.697484,3.5529568,-2.350813,-4.3550777,-17.146797,31.041637,61.39156,12.998718,10.246024,-8.662944
152,3.9897165298461914,-46.121185302734375,77.511474609375,-0.3038268277598594,-0.7727710236363868,-89.62097484136709,-0.18377443,1.8669126,10.813244,15.032903,-14.892745,-1.724426,-27.833868,-7.2417827,-0.7622584,69.80638,-14.430821,8.05702,-7.732822,-1.6903021,13.526189,-15.354391,28.144949,-38.000595,51.049885,-11.771807,3.5328496,-2.2765558,-4.1912665,-17.149508,30.988447,61.432816,13.01685,10.247421,-8.690783
153,3.9978880882263184,-46.6624755859375,77.4979248046875,-0.2963543908994178,-0.7696377952556819,-89.2848031521899,0.4961891,1.7414638,10.527852,14.485748,-15.021163,-1.8599566,-28.303135,-7.4375443,-1.2104923,67.7379,-14.091844,7.9659605,-7.9314065,-1.7659295,13.596764,-15.497422,28.27932,-37.865402,50.954792,-11.842738,3.5201824,-2.1975043,-4.018623,-17.147074,30.943811,61.5096,13.09666,10.248897,-8.763389
154,4.003949165344238,-47.211395263671875,77.4773178100586,-0.2811921766262342,-0.7446012973802896,-88.94530257696309,1.1641874,1.6145422,10.2304535,13.917876,-15.137947,-2.0102587,-28.721725,-7.704264,-1.747048,65.5173,-13.7236595,7.8432226,-8.129411,-1.840207,13.641937,-15.6035795,28.388468,-37.71506,50.867878,-11.907973,3.5122862,-2.1114924,-3.8382566,-17.13902,30.910078,61.617912,13.220086,10.248232,-8.868138
155,4.002617359161377,-47.75750732421875,77.44793701171875,-0.2643389441619628,-0.7034811684943301,-88.60893234625975,1.8273563,1.4966884,9.934025,13.335305,-15.250843,-2.1701548,-29.06834,-7.980739,-2.323402,63.1246,-13.308094,7.7396326,-8.320045,-1.9065211,13.664775,-15.675365,28.473879,-37.568317,50.786472,-11.971687,3.5080004,-2.025812,-3.6470792,-17.12524,30.879492,61.740192,13.330489,10.251974,-8.968149
156,4.024683475494385,-48.324710845947266,77.41272735595703,-0.25347417367078495,-0.6520935359501973,-88.28197147287126,2.4957037,1.396712,9.652011,12.736604,-15.365838,-2.3346019,-29.32196,-8.208775,-2.8881576,60.534508,-12.823752,7.703077,-8.489752,-1.955438,13.666811,-15.729281,28.520645,-37.45234,50.726456,-12.035071,3.5050879,-1.9464792,-3.4350708,-17.110212,30.83906,61.85383,13.372634,10.267481,-9.026295
157,4.028528213500977,-48.901302337646484,77.37245178222656,-0.25213432416484316,-0.5869993717456664,-87.96914227873651,3.1638443,1.3214141,9.39232,12.12487,-15.483352,-2.5040023,-29.482664,-8.375202,-3.4303997,57.71623,-12.253013,7.741459,-8.641963,-1.9856179,13.649757,-15.742086,28.551445,-37.354282,50.655003,-12.098728,3.5074058,-1.8688629,-3.2079613,-17.091284,30.792715,61.95712,13.313375,10.304252,-9.029687
158,4.02866792678833,-49.48268127441406,77.32904052734375,-0.2550483235838723,-0.5070413644548485,-87.66548105286063,3.8319447,1.2637677,9.1464405,11.494348,-15.599164,-2.6806629,-29.554798,-8.507757,-3.976734,54.67956,-11.605799,7.831247,-8.783162,-2.0043068,13.614064,-15.707782,28.574875,-37.263367,50.565464,-12.162473,3.5155075,-1.7925248,-2.9715009,-17.062477,30.742485,62.063828,13.183786,10.355383,-8.999126
159,4.018102645874023,-50.073768615722656,77.2820053100586,-0.25466612597493843,-0.42101137640431063,-87.36281066218763,4.50333,1.2131281,8.902906,10.860228,-15.717343,-2.8624444,-29.525425,-8.615039,-4.5278106,51.457336,-10.902706,7.971235,-8.91439,-2.0181136,13.565476,-15.6402445,28.58166,-37.191624,50.47235,-12.227391,3.5247858,-1.7312392,-2.7180128,-17.034456,30.692337,62.161488,13.041015,10.405266,-8.946828
160,4.008075714111328,-50.66946792602539,77.22347259521484,-0.24182874368968654,-0.3379523519548737,-87.05311286025966,5.1814938,1.1580735,8.650017,10.239145,-15.843113,-3.0473485,-29.384684,-8.706286,-5.0835924,48.08501,-10.161731,8.1599245,-9.044306,-2.0400786,13.510523,-15.540093,28.578196,-37.1388,50.375114,-12.293256,3.5320191,-1.7012182,-2.4576664,-16.998234,30.645718,62.259945,12.931301,10.436327,-8.886761
161,3.994800567626953,-51.27885437011719,77.1572494506836,-0.21344323605092835,-0.2633325634722618,-86.73292388357417,5.8861036,1.0945023,8.383307,9.601198,-15.963556,-3.2412846,-29.095549,-8.782267,-5.6567116,44.484173,-9.358799,8.431427,-9.172032,-2.071925,13.454538,-15.4076185,28.561573,-37.104355,50.274445,-12.356636,3.5381336,-1.7142646,-2.1866314,-16.955591,30.607199,62.35811,12.874101,10.437732,-8.822801
162,3.9851016998291016,-51.891780853271484,77.08840942382812,-0.1730762301877874,-0.19289574096402579,-86.40459687508172,6.6140814,1.0258756,8.107339,8.941577,-16.077047,-3.4436333,-28.66319,-8.837673,-6.242301,40.636726,-8.478473,8.775816,-9.296883,-2.1103933,13.392785,-15.244911,28.528315,-37.08998,50.174427,-12.419621,3.5440867,-1.7594266,-1.9051565,-16.905834,30.575146,62.45735,12.842631,10.420645,-8.748149
163,3.964033603668213,-52.51582336425781,77.0046615600586,-0.1152278505086286,-0.12129917240396564,-86.06863283411539,7.333696,0.9508866,7.824408,8.3141365,-16.20341,-3.6425636,-28.142023,-8.875347,-6.8140607,36.667717,-7.5568466,9.124568,-9.420908,-2.1608474,13.315169,-15.056371,28.478058,-37.102253,50.082367,-12.485502,3.5464156,-1.8169041,-1.6147478,-16.850975,30.539253,62.555897,12.816977,10.401301,-8.659654
164,3.9386980533599854,-53.15291213989258,76.9062271118164,-0.032491161988328514,-0.04398356960343494,-85.72447387396963,8.017846,0.8665778,7.5358567,7.762594,-16.356825,-3.825156,-27.586397,-8.902356,-7.3475184,32.702045,-6.6307073,9.408501,-9.547766,-2.228464,13.215468,-14.841628,28.419783,-37.14757,49.993526,-12.561724,3.5421484,-1.8672277,-1.3157401,-16.797125,30.494068,62.64423,12.783295,10.397006,-8.553609
165,3.914029598236084,-53.80465316772461,76.78951263427734,0.08861073653863039,0.03845808620816569,-85.36764015744401,8.595608,0.7636072,7.2360864,7.4398456,-16.616745,-3.9840302,-26.982912,-8.927593,-7.8291006,28.674082,-5.678109,9.609739,-9.683528,-2.3290527,13.086079,-14.594789,28.356981,-37.228214,49.901405,-12.659663,3.5272264,-1.911144,-1.0033314,-16.742168,30.433693,62.721733,12.729245,10.415919,-8.414965
166,3.8787505626678467,-54.46633529663086,76.66291809082031,0.25218968111064666,0.1176931809853219,-84.99156269025701,9.037302,0.63972545,6.9172287,7.4269185,-17.030235,-4.124852,-26.29167,-8.963981,-8.275564,24.514341,-4.674429,9.764432,-9.832377,-2.4683442,12.9367485,-14.315312,28.291845,-37.342113,49.803623,-12.775664,3.5049427,-1.9579133,-0.6782676,-16.685032,30.364855,62.790745,12.668087,10.447994,-8.250421
167,3.843681812286377,-55.142330169677734,76.51861572265625,0.45045100069239363,0.18679580216348482,-84.59376470491019,9.490472,0.487264,6.5794125,7.4197016,-17.43662,-4.2535834,-25.54021,-9.026525,-8.707479,20.37044,-3.6639416,9.886522,-9.996116,-2.639663,12.784977,-14.004967,28.227873,-37.47991,49.70238,-12.884981,3.4832296,-2.0010207,-0.34899986,-16.626945,30.293232,62.848602,12.611464,10.481946,-8.088134
168,3.802643299102783,-55.83319854736328,76.3625717163086,0.6726975254367162,0.24031424226013282,-84.17320764375143,9.959915,0.32050768,6.221942,7.416749,-17.834778,-4.3772135,-24.761587,-9.122981,-9.1470175,16.39965,-2.6978862,9.994356,-10.171137,-2.834667,12.644271,-13.682226,28.16115,-37.648388,49.618584,-12.971843,3.4689622,-2.033009,-0.027377423,-16.564016,30.223274,62.90373,12.571823,10.505878,-7.9580092
169,3.7690467834472656,-56.53107833862305,76.19828796386719,0.9211411501581037,0.28040652587250153,-83.72346076509956,10.440608,0.13908142,5.8407707,7.4178495,-18.226402,-4.494799,-23.953737,-9.252252,-9.612681,12.563303,-1.774615,10.076175,-10.374331,-3.0531867,12.522629,-13.31864,28.113497,-37.83106,49.50643,-13.015558,3.4699516,-2.0487242,0.28850627,-16.515278,30.170036,62.93427,12.563484,10.516784,-7.8718977
170,3.7136423587799072,-57.230960845947266,76.0234146118164,1.2028735995540103,0.30662293600908364,-83.24524788294197,10.9345045,-0.06658539,5.434445,7.4229383,-18.610918,-4.6030107,-23.044483,-9.399436,-10.105243,8.675343,-0.8042878,10.133618,-10.582459,-3.305948,12.404065,-12.955275,28.058079,-38.07132,49.4179,-13.039381,3.478548,-2.0502076,0.6049759,-16.453041,30.104607,62.96502,12.568657,10.518561,-7.814949
171,3.6597893238067627,-57.942684173583984,75.85263061523438,1.4947134007185485,0.32127013146171585,-82.7642491002985,11.444084,-0.26965088,5.02222,7.4350944,-18.986794,-4.710657,-22.977383,-9.698651,-10.450047,6.8070445,-0.82208,10.199789,-10.801758,-3.5653667,12.2943325,-12.550485,28.012587,-38.300972,49.32498,-13.056165,3.4867592,-2.0527859,0.9098291,-16.39923,30.054794,62.986244,12.583496,10.519731,-7.7667203
172,3.592259168624878,-58.646522521972656,75.6807632446289,1.7678570502257713,0.33073427150586865,-82.31152231987869,11.969511,-0.4381396,4.6301775,7.4559245,-19.352596,-4.8275375,-23.592268,-10.090904,-10.643019,6.679643,-1.6235577,10.304743,-11.00045,-3.8013403,12.190357,-12.111233,27.97116,-38.505737,49.249012,-13.090285,3.484777,-2.0671527,1.1990775,-16.35107,30.012587,63.004654,12.593477,10.525839,-7.708254
173,3.526662588119507,-59.36637496948242,75.50135040283203,2.0276693862828776,0.3325864683100251,-81.89188941633248,12.51657,-0.5767711,4.264445,7.4849153,-19.718977,-4.9517875,-24.089481,-10.4382,-10.809711,6.5912056,-2.3461754,10.5210085,-11.150331,-4.025595,12.081236,-11.6803255,27.907255,-38.722927,49.24587,-13.165212,3.4603615,-2.1005359,1.4785239,-16.281696,29.956467,63.047657,12.591125,10.532965,-7.6401567
174,3.4606521129608154,-60.09239959716797,75.31874084472656,2.268520520325883,0.33566282079270776,-81.50554125860658,13.073405,-0.67886126,3.9292865,7.5228486,-20.084808,-5.083914,-24.49088,-10.729604,-10.9584875,6.53288,-2.9963024,10.806849,-11.284983,-4.223591,11.973293,-11.203367,27.847221,-38.90188,49.247215,-13.251536,3.4237776,-2.1484654,1.739002,-16.222593,29.921534,63.08965,12.591676,10.542424,-7.5689735
175,3.383467674255371,-60.82441329956055,75.1378402709961,2.441031167372021,0.3628010908260794,-81.17688724714135,13.613422,-0.6907495,3.6507719,7.573043,-20.429712,-5.238856,-24.790434,-10.895296,-11.100532,6.485686,-3.4641297,11.012406,-11.364105,-4.341738,11.858355,-10.711875,27.773214,-39.07923,49.287636,-13.3326,3.3887215,-2.1902316,1.9662148,-16.160563,29.890411,63.146538,12.5900345,10.554204,-7.4938927
176,3.3220760822296143,-61.5765495300293,74.96224212646484,2.522040197657017,0.43659101116822957,-80.92312172960138,14.109404,-0.59121525,3.4477952,7.637974,-20.731894,-5.4254627,-25.009214,-10.907474,-11.22926,6.482548,-3.6681871,10.988227,-11.37192,-4.347289,11.723127,-10.222151,27.665674,-39.265667,49.394028,-13.385203,3.368909,-2.2076511,2.1401353,-16.092873,29.864683,63.23063,12.586672,10.570081,-7.41407
177,3.274169445037842,-62.32492446899414,74.79881286621094,2.485120801122339,0.5578856669634227,-80.76078429635741,14.560055,-0.3517815,3.3455904,7.724244,-21.007864,-5.649304,-25.100645,-10.731569,-11.364534,6.509007,-3.604158,10.69657,-11.335514,-4.210306,11.612021,-9.628997,27.62286,-39.384235,49.40268,-13.4034395,3.3741493,-2.1957662,2.2515516,-16.075035,29.87113,63.278297,12.588054,10.600357,-7.308166
178,3.218109130859375,-63.069679260253906,74.6396713256836,2.346741029048262,0.7188612288052806,-80.67628952405886,14.795793,0.021062648,3.3319967,8.212111,-21.464424,-5.9053545,-25.07611,-10.397021,-11.499869,6.5628986,-3.3173816,10.2067175,-11.17814,-3.9493496,11.455934,-9.15035,27.442429,-39.62893,49.642666,-13.427978,3.3769212,-2.1412814,2.336688,-16.026588,29.85596,63.386166,12.595644,10.632144,-7.198696
179,3.138683319091797,-63.809173583984375,74.52214050292969,2.110667955409785,0.9304824108428872,-80.64966163049831,14.566884,0.5384702,3.3729236,9.604165,-22.333418,-6.1947684,-25.01258,-9.924,-11.611938,6.636506,-2.7735238,9.522,-10.975079,-3.5624614,11.276789,-8.658876,27.223076,-39.83046,49.932312,-13.403175,3.394459,-2.092261,2.387426,-15.998971,29.848953,63.491844,12.595664,10.66674,-7.0944314
180,3.053687572479248,-64.54405212402344,74.42903900146484,1.7861313174338642,1.202021072811869,-80.65680058179034,14.233452,1.1718563,3.429023,11.109203,-23.167353,-6.5190444,-24.985247,-9.33777,-11.683437,6.7241073,-1.9381831,8.650157,-10.738317,-3.0644183,11.048875,-8.148579,26.980146,-39.98178,50.260998,-13.323266,3.432859,-2.0730999,2.4301963,-15.991864,29.853554,63.581142,12.590999,10.698042,-7.0172706
181,2.9696238040924072,-65.29719543457031,74.33518981933594,1.3324123846637084,1.5960958232519433,-80.69330125348596,13.707466,1.9795855,3.492405,12.76243,-24.004625,-6.8890195,-25.064909,-8.590899,-11.706245,6.833422,-0.6490485,7.4209967,-10.46497,-2.4021919,10.719639,-7.631989,26.7098,-40.08959,50.634457,-13.166099,3.5037038,-2.1083164,2.4647257,-16.00159,29.867428,63.653973,12.5613785,10.727372,-6.9766927
182,2.896150827407837,-66.06059265136719,74.24674987792969,0.785016768826821,2.0733458089927277,-80.7451009386081,13.049015,2.9155912,3.5414374,14.523184,-24.828363,-7.2954717,-26.520823,-8.002408,-11.526086,9.82703,-0.473155,5.915628,-10.171665,-1.6199042,10.3164215,-7.1078844,26.410913,-40.16932,51.05712,-12.948114,3.6007679,-2.1789882,2.4898844,-16.025785,29.890198,63.71377,12.515216,10.7571535,-6.9608083
183,2.815932035446167,-66.84620666503906,74.1627197265625,0.27033102587127494,2.4902764770606787,-80.77969981257228,12.468905,3.8110468,3.532925,16.273458,-25.522358,-7.7060275,-28.281359,-7.5406256,-11.332924,13.683722,-0.6474401,4.5034246,-9.897465,-0.87510306,9.939658,-6.558138,26.087473,-40.213783,51.53008,-12.7112465,3.7029116,-2.2465813,2.510815,-16.061747,29.927357,63.769608,12.493071,10.782306,-6.9594045
184,2.7117767333984375,-67.6481704711914,74.06358337402344,-0.12576975256565961,2.721109908336232,-80.7906356511454,12.12058,4.5492167,3.4617364,17.985788,-26.01307,-8.095004,-29.59821,-7.187751,-11.209829,17.045666,-0.7835401,3.519652,-9.659245,-0.28109077,9.686804,-5.960075,25.745676,-40.207752,52.04629,-12.496096,3.7893443,-2.2710059,2.5274253,-16.107624,29.982214,63.831913,12.53118,10.796738,-6.9621005
185,2.609140157699585,-68.4588394165039,73.94694519042969,-0.40093828588721175,2.7222049795037297,-80.77656673642026,12.075175,5.133928,3.3316019,19.63508,-26.333752,-8.453747,-30.489506,-6.9800806,-11.12494,20.063978,-0.9644569,3.1816845,-9.4631,0.15689798,9.5987,-5.298681,25.388731,-40.152874,52.606255,-12.307438,3.8460486,-2.2188509,2.535788,-16.163843,30.058353,63.904865,12.68162,10.791706,-6.96625
186,2.5067503452301025,-69.27323913574219,73.83866882324219,-0.6133877217932561,2.5727781787950574,-80.75523283160484,12.2076435,5.6506147,3.161012,21.29237,-26.530704,-8.792364,-31.14153,-6.866269,-11.043816,22.986341,-1.1844629,3.2429273,-9.287727,0.5129088,9.618449,-4.584642,25.017126,-40.050823,53.20284,-12.125992,3.887608,-2.1181195,2.5308304,-16.23061,30.155256,63.985497,12.911624,10.772007,-6.977256
187,2.404330015182495,-70.12017059326172,73.7532730102539,-0.8011414353875134,2.345995307571428,-80.76573405264338,12.359832,6.141956,2.985909,23.088116,-26.562162,-9.120139,-31.59299,-6.7595143,-10.964567,25.7144,-1.5184925,3.3333206,-9.094206,0.8288704,9.690591,-3.8358676,24.632854,-39.885216,53.81693,-11.957693,3.9357047,-2.0198808,2.5076997,-16.30497,30.270151,64.07396,13.131135,10.752513,-6.996703
188,2.3008689880371094,-71.00286865234375,73.69295501708984,-0.9980342573572739,2.112518974310171,-80.84281520652921,12.384329,6.636605,2.838115,25.139332,-26.380165,-9.44817,-31.872128,-6.563471,-10.894784,28.123358,-2.0217571,3.098774,-8.847624,1.1418841,9.760344,-3.069294,24.239717,-39.640915,54.427925,-11.809979,4.012044,-1.9755749,2.4577384,-16.381193,30.406727,64.173996,13.25584,10.748073,-7.0263166
189,2.2057971954345703,-71.86306762695312,73.64529418945312,-1.224167693367792,1.8638800693877415,-81.04732273030352,12.322826,7.14017,2.7940903,27.45686,-25.9852,-9.779317,-31.985252,-6.2012167,-10.809589,30.219767,-2.7589865,2.3473334,-8.500168,1.4681404,9.836575,-2.244098,23.834322,-39.246605,55.0256,-11.671091,4.1148424,-1.9723246,2.3681386,-16.455372,30.588133,64.31507,13.247458,10.762653,-7.0637794
190,2.096014976501465,-72.71675109863281,73.61955261230469,-1.4635679405152726,1.57368191386069,-81.3464243601708,12.228994,7.6420746,2.8144135,29.98304,-25.39654,-10.107497,-31.927872,-5.7147665,-10.7105,32.06055,-3.6771948,1.3081849,-8.085682,1.7933173,9.937232,-1.3637465,23.41569,-38.727074,55.618065,-11.541014,4.234973,-1.9915719,2.240328,-16.526672,30.812212,64.493515,13.157269,10.787966,-7.1097674
191,1.9674618244171143,-73.54763793945312,73.62052154541016,-1.695736988181641,1.2866720593685055,-81.63280939203959,11.983648,8.131513,2.758666,32.71305,-24.595652,-10.439795,-31.70616,-5.1882005,-10.648793,33.58704,-4.6631,0.26056403,-7.6857014,2.1043813,10.021722,-0.511558,22.995049,-38.213505,56.212826,-11.44206,4.382902,-2.0757148,2.090109,-16.593943,31.036497,64.66125,13.032665,10.819414,-7.1706038
192,1.8273518085479736,-74.37762451171875,73.64640045166016,-1.901123714929079,1.0492804687894364,-81.80139662766595,11.470924,8.591039,2.4893968,35.631523,-23.554832,-10.790761,-31.325636,-4.7209306,-10.674306,34.74741,-5.6171207,-0.51777726,-7.375593,2.3855855,10.050793,0.22954877,22.592623,-37.844517,56.816444,-11.4017515,4.56923,-2.266767,1.9407731,-16.655554,31.204437,64.76357,12.911912,10.852917,-7.2524424
193,1.6823686361312866,-75.21888732910156,73.69677734375,-2.063596740956688,0.8811934809346692,-81.81145276792863,10.606599,8.974101,1.8967537,38.84016,-22.195213,-11.102128,-30.772514,-4.3611913,-10.810087,35.522274,-6.5983396,-0.93526286,-7.1824474,2.6127741,9.997057,0.85631967,22.226019,-37.62606,57.440174,-11.473955,4.827191,-2.6278963,1.8094145,-16.705936,31.297186,64.780266,12.767927,10.899414,-7.365135
194,1.5354522466659546,-76.04374694824219,73.77288055419922,-2.1972129963732905,0.758551376278218,-81.72623069149292,9.481171,9.267985,1.0878432,42.287907,-20.544403,-11.424798,-30.056522,-4.0614014,-11.017508,35.961452,-7.647383,-1.1429663,-7.055698,2.7945278,9.889272,1.4148782,21.901525,-37.4981,58.06092,-11.632285,5.1437817,-3.1192331,1.6829755,-16.74266,31.335987,64.73822,12.587265,10.957217,-7.5022793
195,1.3989074230194092,-76.86317443847656,73.87826538085938,-2.32618684212773,0.6619545013683156,-81.5975082814869,8.218737,9.512661,0.23592292,45.780678,-18.761974,-11.918708,-29.21645,-3.7815194,-11.261998,36.11439,-8.639457,-1.2305311,-6.951958,2.9616275,9.773067,1.8994792,21.621334,-37.498043,58.634903,-11.779649,5.459073,-3.628846,1.532115,-16.77353,31.332932,64.65933,12.440033,11.001829,-7.6455374
196,1.2656277418136597,-77.64167785644531,74.01972198486328,-2.4769616467157882,0.5708493376734739,-81.47573583101257,6.923905,9.773029,-0.5036541,49.166084,-17.028517,-12.707339,-28.294233,-3.4725025,-11.513842,36.033794,-9.45136,-1.2960012,-6.824215,3.1496186,9.694771,2.2980726,21.382635,-37.670723,59.123596,-11.82234,5.7107787,-4.045593,1.341053,-16.812151,31.289005,64.55164,12.389951,11.010021,-7.775759
197,1.1389294862747192,-78.38558197021484,74.19233703613281,-2.67385027284284,0.4987626132125811,-81.34990700972187,5.5559387,10.072637,-1.1877452,52.501637,-15.270347,-14.014872,-27.280617,-3.1109152,-11.807409,35.660664,-10.026723,-1.3434328,-6.67784,3.389108,9.655011,2.5801709,21.185402,-38.094475,59.542896,-11.775632,5.8756375,-4.3425827,1.1104254,-16.868088,31.188131,64.39658,12.479736,10.962441,-7.8992686
198,1.0321826934814453,-79.10809326171875,74.39176177978516,-2.7693320031365403,0.4568783079245675,-81.18635221556214,4.0640717,10.236331,-1.7211316,55.83856,-13.413702,-15.000033,-26.242216,-2.8743448,-12.063152,35.133076,-10.503589,-1.300657,-6.538078,3.5373182,9.614966,2.7544434,21.029213,-38.730095,59.910393,-11.678203,5.987755,-4.579411,0.8625845,-16.942713,31.024818,64.17722,12.663849,10.876897,-8.020853
199,0.9566507339477539,-79.82865905761719,74.6032943725586,-2.655841491097482,0.4149565737900448,-81.01202168935183,2.5226736,10.28666,-1.8115417,59.06886,-11.670285,-15.000033,-25.26275,-2.8738492,-12.176817,34.67648,-10.996273,-1.1891209,-6.3850794,3.4848623,9.580982,2.868236,20.907007,-39.441917,60.189487,-11.473901,6.0693545,-4.7745275,0.6017244,-17.03753,30.835123,63.913074,12.888684,10.785246,-8.118641
200,0.8741277456283569,-80.5285415649414,74.81900024414062,-2.6116493503388964,0.3222049186276298,-80.90479825877631,1.0197177,10.563641,-1.7178199,62.199776,-10.368744,-15.000033,-24.173538,-2.739184,-12.289528,34.05016,-11.399606,-1.1290582,-6.1631436,3.4882224,9.616423,2.9788096,20.806658,-40.084404,60.337685,-11.103279,6.1429853,-4.945631,0.32622603,-17.158148,30.659225,63.630505,13.095452,10.719626,-8.170001
201,0.7766744494438171,-81.2026596069336,75.03804016113281,-2.6769437960728286,0.1517761269892083,-80.87495576849405,-0.41655234,11.115223,-1.4828209,65.2621,-9.565931,-15.000033,-22.913286,-2.4072678,-12.411449,33.186043,-11.68818,-1.133891,-5.8681173,3.5865915,9.749572,3.0872278,20.720757,-40.645344,60.341652,-10.450293,6.231466,-5.094692,0.032658633,-17.308353,30.49864,63.32386,13.288254,10.693846,-8.146766
202,0.6816413998603821,-81.88646697998047,75.25308227539062,-2.819858172332784,-0.07206317329517857,-80.90101544908566,-1.8204551,11.860388,-1.1679292,68.265976,-9.128057,-15.000033,-21.505877,-1.9301695,-12.53131,32.08224,-11.854188,-1.1697515,-5.518422,3.7559323,9.957145,3.1687763,20.647507,-41.18656,60.230553,-9.577617,6.315904,-5.2129984,-0.27894887,-17.48989,30.341091,62.983704,13.490769,10.690196,-8.067829
203,0.6001586318016052,-82.57806396484375,75.46829986572266,-2.9873680342634077,-0.3128721598450487,-80.98831592841731,-3.1789112,12.63934,-0.86185384,71.066376,-9.015875,-15.000033,-20.045113,-1.3786391,-12.598208,30.843657,-11.9292555,-1.2213706,-5.1106954,3.9529176,10.19239,3.2399783,20.582926,-41.673862,60.025658,-8.689469,6.355899,-5.301785,-0.6071712,-17.703129,30.217972,62.628876,13.690961,10.693918,-7.982036
204,0.5286562442779541,-83.24029541015625,75.67457580566406,-3.1214874192126523,-0.5320973616196675,-81.13974343772544,-4.489179,13.289885,-0.61902034,73.5236,-9.186052,-15.000033,-18.636282,-0.8367165,-12.567967,29.59744,-11.957663,-1.2755146,-4.649386,4.127649,10.407671,3.3215804,20.522478,-42.06469,59.745792,-7.987906,6.311452,-5.3610525,-0.9551276,-17.946775,30.167482,62.281857,13.878206,10.689402,-7.938672
205,0.4640679359436035,-83.88905334472656,75.87482452392578,-3.209863670544362,-0.7239773705737986,-81.37897038291636,-5.7424264,13.755837,-0.45125237,75.60206,-9.790786,-15.000033,-17.29321,-0.30626556,-12.406163,28.34168,-11.925144,-1.3381221,-4.1111374,4.2690945,10.593047,3.4182234,20.463976,-42.34877,59.3826,-7.4922314,6.1363125,-5.3808274,-1.32893,-18.22063,30.218063,61.95919,14.079227,10.6656,-7.963703
206,0.4245140254497528,-84.52882385253906,76.07244873046875,-3.156845826775686,-0.8949056621677844,-81.6728777265313,-6.9585533,14.138061,-0.016304033,77.346924,-10.761398,-14.241327,-16.056564,0.07108511,-12.090812,27.200283,-11.903826,-1.3770581,-3.5252757,4.2891,10.754571,3.5183885,20.407026,-42.544273,58.9344,-7.10396,5.8640614,-5.362541,-1.7284391,-18.522732,30.350513,61.647667,14.292895,10.632637,-8.027233
207,0.39171314239501953,-85.15386962890625,76.27066040039062,-2.9231887190372654,-1.034527280439645,-81.96254519981106,-8.166368,14.435985,0.7417404,78.7771,-11.7667885,-12.774033,-14.984236,0.19259964,-11.676086,26.32072,-11.988454,-1.3681593,-2.9564817,4.145663,10.88875,3.617689,20.349463,-42.655224,58.429535,-6.8511047,5.5747743,-5.3241196,-2.1441975,-18.848118,30.52561,61.32672,14.459959,10.606563,-8.094553
208,0.36224910616874695,-85.79196166992188,76.46515655517578,-2.707064930342107,-1.1639661647450095,-82.24730590736218,-9.365718,14.715223,1.4767851,79.9709,-12.532427,-11.537577,-13.931944,0.30231214,-11.291157,25.463993,-12.079093,-1.3562735,-2.4169695,4.025167,11.028427,3.7138822,20.287794,-42.685097,57.89593,-6.762578,5.3487296,-5.2843313,-2.5711958,-19.193058,30.706234,60.982433,14.520987,10.603812,-8.130311
209,0.3478580713272095,-86.43306732177734,76.64987182617188,-2.5109426116777245,-1.2862002355423847,-82.52509358610266,-10.556051,15.014316,2.235178,80.91691,-12.971005,-10.556036,-12.881118,0.4019725,-10.94581,24.604153,-12.166679,-1.3435564,-1.9075375,3.9320052,11.173148,3.808411,20.21822,-42.62445,57.33113,-6.891613,5.2159834,-5.2492175,-3.0135128,-19.557352,30.896584,60.620705,14.42464,10.637484,-8.114941
210,0.3341527283191681,-87.05255126953125,76.81048583984375,-2.314458889310394,-1.3986909424673322,-82.81195327193076,-11.729604,15.30444,3.0399938,81.60415,-13.247669,-9.704052,-11.850685,0.47760558,-10.606072,23.759392,-12.249744,-1.3309276,-1.4089415,3.8451345,11.317717,3.899969,20.139212,-42.475945,56.72839,-7.207678,5.130231,-5.209367,-3.4709575,-19.941198,31.10972,60.247524,14.210152,10.695744,-8.070515
211,0.32896295189857483,-87.66742706298828,76.9566879272461,-2.125748289459223,-1.4977111898218678,-83.1003614620588,-12.892739,15.540916,3.8052604,82.05569,-13.417751,-9.008563,-10.860132,0.54327065,-10.276539,22.960323,-12.349959,-1.3186153,-0.9299811,3.7721024,11.463109,3.9807925,20.051115,-42.26488,56.1107,-7.614355,5.056858,-5.1602755,-3.9394915,-20.341146,31.329086,59.853962,13.967999,10.757251,-8.024988
212,0.3202957212924957,-88.27210235595703,77.0785903930664,-1.958690343178158,-1.579470903639649,-83.3824126232458,-14.055823,15.674357,4.4421062,82.295006,-13.534201,-8.498642,-9.927603,0.61315364,-9.961663,22.23338,-12.486805,-1.306034,-0.47773904,3.719871,11.609996,4.0408397,19.955444,-42.018726,55.500984,-8.01639,4.961558,-5.097533,-4.4137993,-20.751207,31.534811,59.43097,13.787788,10.800936,-8.00699
213,0.31420519948005676,-88.87361145019531,77.1888427734375,-1.8111038072404069,-1.6448389349174282,-83.66724599483626,-15.215134,15.699939,4.960859,82.31058,-13.562985,-8.225882,-9.062021,0.6895326,-9.652442,21.589987,-12.664351,-1.2982233,-0.045841638,3.6863844,11.761521,4.0805006,19.852797,-41.7246,54.89319,-8.431306,4.8352647,-5.0189133,-4.899461,-21.169415,31.728823,58.97727,13.6778965,10.82121,-8.040148
214,0.3142335116863251,-89.47721862792969,77.27749633789062,-1.6792575905078808,-1.6954329454693173,-83.95535371954192,-16.371464,15.637075,5.4009604,82.0934,-13.485052,-8.162666,-8.252089,0.7673097,-9.350005,21.013512,-12.871807,-1.2944906,0.3672361,3.6684244,11.915461,4.1045437,19.743273,-41.375088,54.278885,-8.895921,4.6958447,-4.9276404,-5.398215,-21.595133,31.919043,58.500313,13.596019,10.828952,-8.1043825
215,0.30739015340805054,-90.06830596923828,77.3445053100586,-1.5680600898829191,-1.7287442506103963,-84.22527891240264,-17.543612,15.469623,5.714146,81.66875,-13.375225,-8.219845,-7.4883704,0.84711295,-9.073474,20.494057,-13.109595,-1.2838366,0.74687076,3.6670747,12.062975,4.108444,19.628319,-41.007122,53.67997,-9.343939,4.54993,-4.8267198,-5.902744,-22.025166,32.08975,58.00971,13.548888,10.827885,-8.16328
216,0.30111292004585266,-90.64488220214844,77.39315795898438,-1.4800386934169312,-1.7427170271610328,-84.45558398156584,-18.74902,15.18075,5.8511505,81.06025,-13.309096,-8.307589,-6.757229,0.92953414,-8.842081,20.013208,-13.374008,-1.2540271,1.0806739,3.6822205,12.195087,4.0866294,19.509817,-40.65977,53.118786,-9.709416,4.404513,-4.7185745,-6.401517,-22.454945,32.219254,57.51349,13.539815,10.821314,-8.180508
217,0.3011549711227417,-91.2427749633789,77.43280792236328,-1.4256223797605043,-1.7262105377304466,-84.63010174811399,-20.031517,14.698718,5.7129474,80.270065,-13.337816,-8.413429,-6.072406,1.018068,-8.674108,19.573856,-13.670699,-1.1835635,1.3596215,3.7169447,12.299552,4.033575,19.389605,-40.34321,52.588684,-9.962286,4.2626314,-4.60634,-6.8925223,-22.881582,32.2925,57.00668,13.57244,10.804064,-8.133838
218,0.2852155566215515,-91.82788848876953,77.45248413085938,-1.4000723822352008,-1.6848311649303886,-84.76439989012518,-21.360994,14.056641,5.3527937,79.28329,-13.411437,-8.57657,-5.4297123,1.1141766,-8.554635,19.172066,-13.993969,-1.0835183,1.5950286,3.7680943,12.384542,3.9523332,19.268362,-40.039173,52.08215,-10.143002,4.1205807,-4.4871583,-7.3838644,-23.305313,32.321938,56.492237,13.643952,10.775971,-8.047126
219,0.26882922649383545,-92.39907836914062,77.45503234863281,-1.3883249726671225,-1.6412881170088447,-84.88487953549905,-22.64489,13.395693,4.9510536,78.09638,-13.45684,-8.785246,-4.8051796,1.2122846,-8.453109,18.810696,-14.3388815,-0.9898503,1.8040689,3.8283184,12.471967,3.8496268,19.145634,-39.743153,51.61933,-10.2912655,3.9755614,-4.354775,-7.8739166,-23.724691,32.323452,55.983578,13.74459,10.748147,-7.9531307
220,0.27326253056526184,-92.98777770996094,77.44305419921875,-1.3767730211363103,-1.6170305017356055,-85.01692752015775,-23.80058,12.852671,4.686591,76.71142,-13.395307,-9.034193,-4.1615796,1.3080597,-8.338533,18.465282,-14.685651,-0.9390758,2.0040448,3.889557,12.582984,3.7321825,19.019697,-39.450455,51.22137,-10.444799,3.8243153,-4.202741,-8.368092,-24.137924,32.318417,55.501083,13.870919,10.731486,-7.88512
221,0.28037214279174805,-93.57258605957031,77.4266128540039,-1.359163050662047,-1.6199928322303194,-85.16544910822114,-24.810139,12.433747,4.584955,75.09509,-13.203272,-9.379068,-3.5089273,1.3948056,-8.204351,18.1759,-15.053735,-0.961984,2.194045,3.9481497,12.728118,3.5987198,18.88842,-39.159405,50.885315,-10.617901,3.6557257,-4.019477,-8.87598,-24.544899,32.312157,55.044384,14.050811,10.733187,-7.8521705
222,0.2810986638069153,-94.1593246459961,77.41654968261719,-1.3447098373614241,-1.6378171595351663,-85.31702580874696,-25.71436,12.069537,4.559367,73.253204,-12.92113,-9.807804,-2.8581486,1.4762937,-8.065772,17.936005,-15.443344,-1.0309876,2.3655245,4.008411,12.894155,3.446244,18.751173,-38.871387,50.605274,-10.787654,3.474476,-3.8115242,-9.398874,-24.945646,32.299168,54.611572,14.281289,10.745629,-7.83697
223,0.30354225635528564,-94.77322387695312,77.40425109863281,-1.335432141487964,-1.6610966079862393,-85.46932059371098,-26.523672,11.77872,4.6199164,71.241745,-12.567265,-10.221098,-2.189132,1.5599924,-7.9255214,17.680954,-15.82057,-1.0954865,2.5223432,4.0747957,13.065487,3.278712,18.608816,-38.586132,50.398468,-10.939498,3.3011315,-3.600063,-9.912005,-25.335707,32.2677,54.20635,14.494912,10.757363,-7.833124
224,0.32830291986465454,-95.37602996826172,77.3779296875,-1.3378136491870074,-1.680061033369842,-85.62015797001233,-27.249897,11.582065,4.7764993,69.11766,-12.160992,-10.518678,-1.4803599,1.653153,-7.786576,17.3418,-16.150928,-1.1053252,2.6688066,4.1502233,13.226279,3.1003408,18.46342,-38.30339,50.280872,-11.058388,3.15679,-3.405973,-10.395643,-25.707808,32.20908,53.838207,14.627353,10.756717,-7.834244
225,0.3503328859806061,-95.97807312011719,77.34896087646484,-1.3479398054596257,-1.6929849730811142,-85.76843551419574,-27.900328,11.503304,5.0501347,66.88832,-11.678623,-10.662974,-0.7276167,1.7546924,-7.649219,16.905142,-16.421005,-1.0372058,2.804589,4.231704,13.374512,2.911058,18.315159,-38.01226,50.265755,-11.146003,3.03866,-3.2301376,-10.856995,-26.058617,32.125668,53.52198,14.645761,10.731862,-7.8350043
226,0.3765241801738739,-96.59910583496094,77.32664489746094,-1.3645672636012647,-1.7041330970694373,-85.91569884732873,-28.466537,11.517621,5.4339623,64.52501,-11.119945,-10.716083,0.061596956,1.8599606,-7.511883,16.396658,-16.648462,-0.9208752,2.9274292,4.3161244,13.5173435,2.7092915,18.164211,-37.71547,50.341003,-11.208434,2.938638,-3.0628014,-11.309437,-26.386784,32.023846,53.25738,14.59256,10.691017,-7.8403406
227,0.406047523021698,-97.22825622558594,77.29651641845703,-1.3887032646337407,-1.713503174648346,-86.06286950277523,-28.939398,11.577714,5.8929286,62.032505,-10.542756,-10.725138,0.8766348,1.9696578,-7.375398,15.842237,-16.853031,-0.7860187,3.0374818,4.4050374,13.650366,2.49814,18.014345,-37.434586,50.485905,-11.24075,2.8704367,-2.9080658,-11.740384,-26.688349,31.897268,53.033394,14.507449,10.65264,-7.85982
228,0.4399789571762085,-97.86846160888672,77.26090240478516,-1.4220651995539337,-1.7212615443781734,-86.21120429150461,-29.309381,11.639505,6.389722,59.410484,-10.001104,-10.734947,1.7144461,2.0857856,-7.239896,15.250717,-17.04876,-0.663151,3.1370986,4.4988003,13.770103,2.2801292,17.872076,-37.192986,50.677418,-11.238786,2.8478498,-2.7701607,-12.146731,-26.958895,31.746216,52.8471,14.438546,10.634666,-7.9026294
229,0.47596535086631775,-98.50079345703125,77.21221160888672,-1.4642827320403482,-1.7240943247949743,-86.36079583163969,-29.570541,11.718377,6.9417343,56.636223,-9.516283,-10.744348,2.5690565,2.2056842,-7.107084,14.626618,-17.241358,-0.5596637,3.225637,4.5956225,13.875758,2.053469,17.74146,-36.989227,50.92274,-11.188743,2.8875356,-2.6459167,-12.529708,-27.19364,31.557375,52.703888,14.391752,10.641704,-7.985539
230,0.5055939555168152,-99.15070343017578,77.15940856933594,-1.5127785555084992,-1.723120595256066,-86.51134063665326,-29.72616,11.824759,7.561899,53.709602,-9.053539,-10.736557,3.4454854,2.3291745,-6.9754157,13.96055,-17.421036,-0.46110466,3.3028286,4.693007,13.9691,1.820977,17.62393,-36.813435,51.22374,-11.098265,2.9787343,-2.5347886,-12.892511,-27.390846,31.333424,52.60768,14.341223,10.663574,-8.098902
231,0.5446662306785583,-99.80803680419922,77.102294921875,-1.5724324582410896,-1.7250892889649985,-86.6643588367992,-29.780758,11.915064,8.201479,50.660503,-8.583882,-10.727888,4.355806,2.462701,-6.8395567,13.245352,-17.580658,-0.36474302,3.3714297,4.7914224,14.051418,1.592537,17.523308,-36.677578,51.549675,-10.996869,3.0936944,-2.4447145,-13.235303,-27.551447,31.100742,52.55185,14.290355,10.696839,-8.21274
232,0.5719960927963257,-100.47824096679688,77.0349349975586,-1.6433874903466832,-1.7367545811806406,-86.82138270928766,-29.743744,11.953617,8.807576,47.525715,-8.077915,-10.728897,5.318786,2.6131375,-6.693477,12.460477,-17.707815,-0.26625603,3.4342644,4.892049,14.124395,1.3804849,17.44458,-36.59238,51.866173,-10.913573,3.2048254,-2.3837614,-13.550306,-27.676998,30.880075,52.520874,14.237887,10.738122,-8.296899
233,0.6106732487678528,-101.16259765625,76.95703125,-1.7299916702870173,-1.7590069378598083,-86.97220883879096,-29.609835,11.953091,9.384004,44.28054,-7.5342464,-10.687381,6.3645725,2.7863238,-6.5420547,11.54574,-17.772533,-0.15019357,3.483917,4.9936914,14.190081,1.1809351,17.393461,-36.568974,52.175667,-10.848986,3.3171606,-2.3558338,-13.834611,-27.765533,30.66293,52.514164,14.176359,10.796856,-8.339267
234,0.6495876908302307,-101.85993957519531,76.87300109863281,-1.8277843226052304,-1.7886674516548833,-87.12183885933875,-29.374252,11.934245,9.951718,40.907646,-6.962267,-10.607527,7.4804296,2.9755301,-6.383093,10.518879,-17.784613,-0.021419488,3.5195444,5.091962,14.247305,0.9995024,17.374727,-36.593414,52.481075,-10.790034,3.4420705,-2.3569257,-14.102697,-27.810724,30.450262,52.547672,14.110003,10.870669,-8.357967
235,0.6861041784286499,-102.55479431152344,76.7736587524414,-1.935335779419913,-1.8269452185710837,-87.29496107171688,-29.043653,11.884136,10.477732,37.44482,-6.348457,-10.5789585,8.607552,3.1687167,-6.1990805,9.504501,-17.79871,0.09383889,3.565367,5.1920605,14.295549,0.84511405,17.380116,-36.653107,52.76388,-10.747155,3.5601282,-2.3819535,-14.340419,-27.826916,30.25272,52.596775,14.04884,10.940608,-8.365698
236,0.7227422595024109,-103.2652359008789,76.66429901123047,-2.0553590253593006,-1.876807494164186,-87.51609594218638,-28.621864,11.796366,10.924901,33.923603,-5.6758466,-10.688909,9.689763,3.3586218,-5.974937,8.627977,-17.871628,0.16901813,3.629442,5.3042245,14.335129,0.7363662,17.398918,-36.718803,53.002037,-10.728398,3.6516128,-2.4267118,-14.564872,-27.823753,30.115194,52.662117,14.0179405,10.987391,-8.377162
237,0.7783747911453247,-103.99683380126953,76.54313659667969,-2.198008261310335,-1.9527983515396616,-87.79194073026223,-28.056986,11.672703,11.294013,30.2398,-4.889094,-11.003886,10.753386,3.5599616,-5.704815,7.8695846,-17.993748,0.1851019,3.7490902,5.436555,14.373869,0.66471124,17.451025,-36.836544,53.190575,-10.757345,3.7079277,-2.4979334,-14.731513,-27.800283,29.982183,52.722847,14.012684,10.999731,-8.393966
238,0.8363005518913269,-104.74397277832031,76.41022491455078,-2.371139183127317,-2.0550185969893446,-88.11613813741285,-27.343382,11.548035,11.59354,26.378149,-4.0006638,-11.448567,11.668364,3.7667377,-5.3989234,7.5051966,-18.314936,0.16010676,3.883265,5.601294,14.414938,0.6439273,17.521074,-36.96743,53.334194,-10.812354,3.7398844,-2.5978975,-14.876344,-27.760485,29.901674,52.79617,14.041792,10.991353,-8.4108715
239,0.9046956896781921,-105.49530792236328,76.25836181640625,-2.5678568252704768,-2.166050167567724,-88.49270332730254,-26.557207,11.463441,11.799152,22.513248,-3.0970707,-11.904151,12.4353,3.9755468,-5.0484843,7.4814353,-18.8002,0.117128626,4.047672,5.791312,14.449667,0.6595401,17.605368,-37.099842,53.434532,-10.874445,3.7618694,-2.7056355,-15.0035925,-27.708466,29.868357,52.871265,14.075296,10.977408,-8.422152
