unveil-humanoid-operators/unveil-humanoid-operators.github.io/feature-analysis-animation/data/feature_matrix_instances/height_root_translate_peak_vel_climbing_box_A415.csv
Frame,root_translateX,root_translateY,root_translateZ,root_rotateX,root_rotateY,root_rotateZ,left_hip_pitch_joint_dof,left_hip_roll_joint_dof,left_hip_yaw_joint_dof,left_knee_joint_dof,left_ankle_pitch_joint_dof,left_ankle_roll_joint_dof,right_hip_pitch_joint_dof,right_hip_roll_joint_dof,right_hip_yaw_joint_dof,right_knee_joint_dof,right_ankle_pitch_joint_dof,right_ankle_roll_joint_dof,waist_yaw_joint_dof,waist_roll_joint_dof,waist_pitch_joint_dof,left_shoulder_pitch_joint_dof,left_shoulder_roll_joint_dof,left_shoulder_yaw_joint_dof,left_elbow_joint_dof,left_wrist_roll_joint_dof,left_wrist_pitch_joint_dof,left_wrist_yaw_joint_dof,right_shoulder_pitch_joint_dof,right_shoulder_roll_joint_dof,right_shoulder_yaw_joint_dof,right_elbow_joint_dof,right_wrist_roll_joint_dof,right_wrist_pitch_joint_dof,right_wrist_yaw_joint_dof
0,0.01307949610054493,2.380401849746704,124.64933776855469,0.4477432324212513,-1.9438807440274035,-92.0090262402177,6.4591346,4.4911575,6.5913177,7.269917,-12.579857,-5.378868,5.6439815,-4.443866,-1.0345308,8.807882,-13.117522,5.267844,-2.5837688,-0.30549017,7.6436815,-6.7369146,18.79849,-50.202663,60.696404,1.5611606,-1.3970984,10.249145,-5.4720516,-15.930141,39.125233,60.33442,-4.8557644,-0.3220747,-7.7704606
1,0.022896897047758102,2.3860926628112793,124.65133666992188,0.44881500038298977,-1.9506446252329384,-92.04270759238194,6.477306,4.483117,6.6270285,7.2605352,-12.587661,-5.3728848,5.643763,-4.4512744,-1.007434,8.80165,-13.103669,5.288739,-2.564301,-0.3045937,7.673301,-6.731386,18.806108,-50.1974,60.666317,1.5482538,-1.4088328,10.265332,-5.499838,-15.9359045,39.13166,60.34995,-4.851279,-0.33216268,-7.765911
2,0.03333817422389984,2.3872432708740234,124.65086364746094,0.44961635354398855,-1.9590314217238065,-92.0752222944396,6.4965363,4.475653,6.6620855,7.250359,-12.595145,-5.368621,5.6442947,-4.458443,-0.9817206,8.797251,-13.090273,5.309697,-2.546974,-0.30336785,7.7051206,-6.7284822,18.811834,-50.190136,60.640507,1.535789,-1.4234889,10.281913,-5.529896,-15.941791,39.140938,60.36714,-4.8446045,-0.34503928,-7.761007
3,0.04490853101015091,2.3918709754943848,124.65139770507812,0.45017302884342714,-1.9641843182386018,-92.11026083430703,6.5129457,4.466536,6.6986084,7.241921,-12.602884,-5.361112,5.639981,-4.4665995,-0.9528399,8.795572,-13.078986,5.33056,-2.5339682,-0.30163336,7.733396,-6.718041,18.818483,-50.175903,60.6085,1.524336,-1.4357889,10.295971,-5.5617566,-15.9509535,39.15773,60.382584,-4.8352613,-0.35408896,-7.7553697
4,0.061788201332092285,2.3876211643218994,124.64913177490234,0.4522755774503488,-1.9609317161411188,-92.15159519372533,6.5222964,4.455651,6.7387357,7.2352214,-12.608885,-5.3458686,5.6266503,-4.4759045,-0.91608936,8.792954,-13.068522,5.350716,-2.513668,-0.30357668,7.748271,-6.7061486,18.821302,-50.168617,60.583626,1.5093337,-1.444151,10.30237,-5.585406,-15.956532,39.169888,60.39466,-4.829459,-0.3545914,-7.7491293
5,0.07731354236602783,2.3850257396698,124.64741516113281,0.4550793252217455,-1.9452514639069975,-92.20542546393729,6.5220175,4.4430604,6.7869835,7.2318697,-12.613043,-5.31886,5.597747,-4.4858966,-0.8659287,8.791303,-13.060341,5.3686786,-2.4948525,-0.3052966,7.7456093,-6.6755805,18.82586,-50.154495,60.54754,1.4892633,-1.4451746,10.300535,-5.6109123,-15.968185,39.202133,60.40733,-4.817137,-0.3427316,-7.7391787
6,0.09368540346622467,2.385305166244507,124.64759063720703,0.458117566519446,-1.920710272208272,-92.2679511023,6.513377,4.4294043,6.8407764,7.2332606,-12.616854,-5.283501,5.556212,-4.49641,-0.80618006,8.794121,-13.056114,5.385098,-2.4608984,-0.31226626,7.730344,-6.6475916,18.8274,-50.152435,60.518982,1.4640473,-1.4418683,10.291122,-5.628739,-15.974476,39.222828,60.419582,-4.8127456,-0.32231352,-7.7268476
7,0.11384478211402893,2.374441146850586,124.64781188964844,0.46192254099375907,-1.894059301470482,-92.3284983360615,6.5035014,4.412807,6.8921847,7.232747,-12.61931,-5.2458177,5.5136356,-4.509517,-0.746198,8.796248,-13.051937,5.403236,-2.4358308,-0.3192664,7.709689,-6.6122193,18.828812,-50.14569,60.48915,1.4401867,-1.4374353,10.278443,-5.644104,-15.983625,39.250156,60.426655,-4.802762,-0.29922026,-7.717205
8,0.13281090557575226,2.3659508228302,124.64620208740234,0.46701540442297224,-1.8723216004475447,-92.37599389025216,6.4966207,4.391698,6.9325385,7.2300587,-12.622558,-5.211796,5.4811845,-4.527296,-0.6959434,8.795914,-13.046648,5.4262223,-2.4272366,-0.32591215,7.695051,-6.5759344,18.829863,-50.12915,60.460625,1.4278202,-1.4348096,10.264653,-5.6559663,-15.995527,39.266544,60.423347,-4.794599,-0.2789272,-7.7130504
9,0.15307007730007172,2.360581159591675,124.64482879638672,0.47473881414026137,-1.8621776771304037,-92.40441623781648,6.499965,4.3649716,6.9569864,7.22247,-12.625029,-5.184188,5.466661,-4.5505533,-0.6580662,8.7944145,-13.039545,5.457506,-2.4281669,-0.3376173,7.690109,-6.5516973,18.829664,-50.118908,60.44689,1.4190042,-1.4361082,10.250089,-5.662446,-15.9990635,39.25788,60.41802,-4.7905693,-0.2622159,-7.716918
10,0.17479249835014343,2.3522491455078125,124.64391326904297,0.48407507334941957,-1.8575471394245828,-92.4214479448882,6.508726,4.332378,6.9719205,7.210008,-12.625477,-5.159159,5.4591813,-4.57937,-0.6262857,8.797077,-13.033755,5.4947724,-2.4402106,-0.34566686,7.698993,-6.5223336,18.828884,-50.081837,60.42134,1.4385933,-1.4376236,10.230087,-5.663658,-16.011576,39.212067,60.393635,-4.810149,-0.24416658,-7.7154016
11,0.19564002752304077,2.3500821590423584,124.64388275146484,0.4930640192718762,-1.8489432590182213,-92.43441583417408,6.5127673,4.2976093,6.983153,7.196796,-12.62779,-5.133839,5.451144,-4.610678,-0.59963053,8.79536,-13.027817,5.5318346,-2.4520037,-0.35662058,7.701709,-6.5009866,18.827452,-50.060352,60.407482,1.4553914,-1.4394219,10.209031,-5.6566114,-16.023586,39.160973,60.363495,-4.824841,-0.23157771,-7.7231226
12,0.2168455421924591,2.3429887294769287,124.64578247070312,0.503205768660262,-1.825476155911325,-92.45171744476393,6.504547,4.262354,6.9981904,7.179279,-12.632193,-5.104971,5.4256887,-4.642793,-0.5751785,8.795031,-13.026746,5.5629263,-2.4613142,-0.3669737,7.6870794,-6.478253,18.825531,-50.05013,60.39927,1.4757626,-1.4394017,10.187243,-5.647927,-16.03406,39.11451,60.337746,-4.8327894,-0.23016743,-7.7411413
13,0.24194496870040894,2.33251953125,124.64677429199219,0.5111819757549162,-1.7781810022899733,-92.48092579287149,6.476538,4.227861,7.023504,7.157503,-12.641415,-5.071625,5.374442,-4.6747313,-0.5501246,8.792057,-13.030091,5.5837326,-2.462694,-0.37402973,7.6464596,-6.452881,18.823185,-50.054028,60.39499,1.503951,-1.4387003,10.156676,-5.632777,-16.04493,39.068306,60.309025,-4.835469,-0.24593477,-7.772672
14,0.26996639370918274,2.3156893253326416,124.64737701416016,0.5182425972533629,-1.7147486105439875,-92.51587675811665,6.4358907,4.19234,7.0538497,7.1305695,-12.653489,-5.0355473,5.3067365,-4.7078176,-0.52653813,8.786023,-13.035817,5.598275,-2.463254,-0.379862,7.586125,-6.4231806,18.820522,-50.066006,60.395023,1.5395209,-1.4375763,10.120129,-5.614683,-16.05601,39.02427,60.280678,-4.8319464,-0.27398404,-7.8163013
15,0.30247846245765686,2.3007235527038574,124.646484375,0.5267473395167683,-1.649687113944385,-92.54445575784035,6.391351,4.1546035,7.078863,7.103667,-12.665515,-4.9974704,5.238949,-4.7433925,-0.5090103,8.778847,-13.0433655,5.6132374,-2.4594026,-0.38825747,7.528126,-6.406761,18.81699,-50.092556,60.40399,1.5718142,-1.4332376,10.091654,-5.585818,-16.070583,38.968437,60.242847,-4.833014,-0.30359396,-7.8616924
16,0.3338598608970642,2.2938709259033203,124.6445541381836,0.536643436338465,-1.5974136789872326,-92.55347424651255,6.348457,4.11303,7.0870037,7.0896535,-12.679301,-4.957853,5.1877003,-4.7836976,-0.5030164,8.772247,-13.052299,5.6353316,-2.4780774,-0.40145308,7.487002,-6.3962326,18.814863,-50.112556,60.418053,1.5931516,-1.4232426,10.086536,-5.5734878,-16.079842,38.929134,60.227158,-4.8335004,-0.3254825,-7.9028373
17,0.3650100529193878,2.286677598953247,124.64046478271484,0.5491117600624766,-1.567157647919302,-92.53505847144173,6.3132133,4.066881,7.0713496,7.0902605,-12.693527,-4.918297,5.164974,-4.829496,-0.51307553,8.764729,-13.063053,5.666341,-2.5151153,-0.42392406,7.476885,-6.4088464,18.813446,-50.140774,60.446667,1.5968864,-1.3999717,10.118858,-5.5633755,-16.088442,38.88713,60.213413,-4.849468,-0.3350774,-7.941983
18,0.3930712938308716,2.281445264816284,124.63764190673828,0.564837109338171,-1.5493988346317238,-92.49778309663178,6.2855163,4.016381,7.0395913,7.090178,-12.703227,-4.877957,5.158695,-4.879889,-0.5352771,8.756989,-13.076097,5.7027874,-2.5388968,-0.45381573,7.4878917,-6.4552207,18.811314,-50.208366,60.492607,1.5806205,-1.366502,10.177857,-5.531843,-16.105364,38.80943,60.181217,-4.8843393,-0.33875534,-7.9788713
19,0.4208044707775116,2.2805750370025635,124.63186645507812,0.5797150501875701,-1.5307134533477165,-92.45351540379335,6.2546,3.9629076,7.002477,7.0906415,-12.711224,-4.834077,5.1542225,-4.9332976,-0.56197345,8.746351,-13.087354,5.7430205,-2.606079,-0.48319188,7.494597,-6.4743,18.811369,-50.223206,60.529057,1.5752659,-1.3383043,10.237721,-5.5369368,-16.109188,38.79142,60.191216,-4.896823,-0.3387337,-8.011461
20,0.4541383683681488,2.2800469398498535,124.6266098022461,0.5966096647242196,-1.4977980450110482,-92.4155984812982,6.2110295,3.9068706,6.971756,7.090598,-12.719263,-4.7839146,5.134028,-4.989442,-0.58428997,8.734334,-13.094673,5.785641,-2.6284578,-0.5174777,7.495127,-6.5183916,18.811872,-50.265,60.572647,1.5625774,-1.3286232,10.273718,-5.520591,-16.117407,38.73685,60.190334,-4.900454,-0.3378177,-8.023956
21,0.4858664572238922,2.279151439666748,124.62600708007812,0.6153292793848562,-1.444116825577637,-92.39081640604678,6.150258,3.8481925,6.9550614,7.0905614,-12.7274,-4.727393,5.0897503,-5.04797,-0.5954545,8.722241,-13.096534,5.828237,-2.6381683,-0.548562,7.471855,-6.5441775,18.812574,-50.28147,60.606354,1.5574675,-1.350523,10.276826,-5.5105743,-16.124437,38.703953,60.214016,-4.8618846,-0.33444893,-8.014031
22,0.5233852863311768,2.2643630504608154,124.62594604492188,0.6347415557239612,-1.377744398561784,-92.37319462234058,6.0783534,3.786041,6.9466715,7.090448,-12.734655,-4.665903,5.0298486,-5.109632,-0.5993656,8.710871,-13.094555,5.872242,-2.61785,-0.58612496,7.4431067,-6.5857105,18.814053,-50.301426,60.647125,1.550921,-1.3932993,10.257954,-5.4799395,-16.137747,38.654903,60.22342,-4.8087716,-0.32555622,-7.9863963
23,0.5590062141418457,2.2538928985595703,124.62872314453125,0.6552019441734994,-1.3071434850315184,-92.34902625076313,6.0003505,3.7210865,6.9311466,7.090015,-12.742238,-4.598659,4.970386,-5.174256,-0.6109275,8.69286,-13.090032,5.9218187,-2.6189065,-0.62157655,7.4065933,-6.6123056,18.81523,-50.29892,60.679096,1.5523787,-1.4367733,10.232908,-5.469233,-16.14441,38.635223,60.25874,-4.746093,-0.31832626,-7.9514375
24,0.5968534350395203,2.247713327407837,124.62887573242188,0.6747980209886193,-1.2406437833851567,-92.30772855458952,5.9213133,3.6538312,6.896124,7.090409,-12.752767,-4.5250416,4.92351,-5.2415133,-0.6418538,8.665609,-13.085704,5.981129,-2.635931,-0.65692896,7.3769555,-6.644577,18.81768,-50.29931,60.703495,1.5631026,-1.4597812,10.210936,-5.455048,-16.153028,38.606358,60.281025,-4.7150044,-0.31520805,-7.9140596
25,0.6388348340988159,2.24100399017334,124.62889862060547,0.6936036027373814,-1.1859987888269152,-92.24512747327034,5.84842,3.583292,6.8355803,7.091018,-12.767263,-4.447806,4.898786,-5.3124685,-0.69747514,8.630338,-13.081732,6.0483303,-2.6680753,-0.69414514,7.362321,-6.687471,18.82325,-50.316185,60.71706,1.5856016,-1.4503214,10.188684,-5.4292507,-16.165192,38.557545,60.277905,-4.7363157,-0.31930545,-7.870942
26,0.6814035773277283,2.231232166290283,124.63209533691406,0.7129929481256587,-1.1366926673639612,-92.16753117602956,5.7765636,3.507842,6.7572246,7.0922256,-12.784646,-4.3664794,4.883226,-5.3881583,-0.7702401,8.595653,-13.080847,6.122262,-2.7187426,-0.7330234,7.351762,-6.730376,18.82889,-50.333138,60.723835,1.6185484,-1.42265,10.162992,-5.409114,-16.173313,38.511784,60.27772,-4.7830195,-0.32958513,-7.8211246
27,0.7190253734588623,2.227872371673584,124.63139343261719,0.7345947181164781,-1.0805174704191691,-92.08051004295328,5.6947227,3.4276674,6.6695447,7.0927105,-12.801413,-4.275702,4.8693404,-5.468466,-0.85309,8.545771,-13.077345,6.207726,-2.77208,-0.77441585,7.3348536,-6.778072,18.835333,-50.35527,60.72826,1.646968,-1.3913703,10.145454,-5.3851414,-16.17996,38.460365,60.276382,-4.8328996,-0.3391566,-7.7737966
28,0.7616167068481445,2.217907428741455,124.6358642578125,0.7589938954954414,-1.004885393105889,-91.9895182677256,5.5902596,3.34106,6.581139,7.0949364,-12.816481,-4.1698117,4.8408465,-5.5553946,-0.93792003,8.482167,-13.074431,6.3095264,-2.8076406,-0.8203394,7.3002295,-6.83538,18.846151,-50.39619,60.73149,1.6517457,-1.3714004,10.1481085,-5.3472247,-16.189835,38.388504,60.272614,-4.8637047,-0.34314993,-7.73681
29,0.7985581755638123,2.2097361087799072,124.63208770751953,0.7841051850541113,-0.9005974190878632,-91.89596525790344,5.4554043,3.252467,6.4960938,7.095525,-12.828924,-4.045103,4.7902346,-5.6457615,-1.0232135,8.396074,-13.067741,6.4328027,-2.8367722,-0.86789286,7.2356024,-6.895684,18.85848,-50.447144,60.73977,1.6306763,-1.3666223,10.18418,-5.3030787,-16.200436,38.320656,60.276943,-4.854346,-0.34158605,-7.7103534
30,0.838914692401886,2.2122600078582764,124.62346649169922,0.801306873515947,-0.7762300469664685,-91.79529835611831,5.294937,3.1697385,6.406493,7.1005197,-12.84237,-3.9056287,4.731161,-5.731529,-1.1158422,8.281916,-13.053395,6.5732894,-2.863789,-0.90889174,7.150752,-6.961156,18.872103,-50.509647,60.750683,1.5905528,-1.3693067,10.243949,-5.254148,-16.211962,38.251972,60.286648,-4.821774,-0.33723977,-7.6900125
31,0.9064813256263733,2.1986608505249023,124.61117553710938,0.787226316837093,-0.6421786274043432,-91.67952102471416,4.7590504,3.1563578,6.277129,7.878684,-13.260462,-3.760515,4.680966,-5.78881,-1.2273005,8.134334,-13.028474,6.720605,-2.9239612,-0.9131411,7.054011,-7.0126967,18.878069,-50.535255,60.75788,1.5506102,-1.3786625,10.306299,-5.2248917,-16.216862,38.210632,60.31994,-4.7763033,-0.32623985,-7.6852484
32,0.9751215577125549,2.1934123039245605,124.5963363647461,0.7696206641797656,-0.5171602061057167,-91.55474665499075,4.2084208,3.1386108,6.1301703,8.705074,-13.697711,-3.6114593,4.6454473,-5.848108,-1.348249,7.987063,-13.011208,6.868296,-2.9425776,-0.9138578,6.9754744,-7.0827036,18.893604,-50.58975,60.742085,1.4978846,-1.3896654,10.349394,-5.158694,-16.234451,38.091743,60.317444,-4.768494,-0.30594543,-7.695614
33,1.0377616882324219,2.1906142234802246,124.57582092285156,0.749305777338185,-0.39204110173704415,-91.42271216192539,3.6525638,3.112268,5.967012,9.539243,-14.133691,-3.4577942,4.619565,-5.9118013,-1.4775987,7.8286004,-13.000066,7.023847,-2.9861944,-0.9014024,6.8961916,-7.1304073,18.90299,-50.578953,60.701534,1.4482503,-1.4098063,10.366447,-5.111748,-16.24978,37.990356,60.32787,-4.772978,-0.2621315,-7.7399683
34,1.1087822914123535,2.178795099258423,124.55511474609375,0.726034660248736,-0.26332269400759334,-91.28343727499555,3.0746748,3.0809133,5.7897105,10.4094715,-14.583023,-3.2971117,4.598455,-5.978353,-1.6148623,7.6591105,-12.993192,7.1886387,-3.0283706,-0.88025355,6.817195,-7.1744523,18.911366,-50.54331,60.642242,1.3927585,-1.4372964,10.368713,-5.0598807,-16.270132,37.871826,60.33068,-4.792193,-0.20070516,-7.808201
35,1.1866257190704346,2.168769598007202,124.53192138671875,0.6972882679668106,-0.15306813251858414,-91.13207152853226,2.515697,3.0455868,5.595647,11.278964,-15.030009,-3.132161,4.598843,-6.0434036,-1.7642365,7.4991436,-12.992398,7.345205,-3.0934598,-0.8525243,6.7504244,-7.2076507,18.914654,-50.491516,60.58202,1.3436718,-1.463848,10.366417,-5.024867,-16.28407,37.77127,60.35742,-4.805508,-0.14768834,-7.883486
36,1.2742112874984741,2.15555739402771,124.50927734375,0.660444561726614,-0.08403769408911858,-90.96436499907207,2.0171053,3.0078096,5.3828487,12.112864,-15.46093,-2.9656718,4.6374454,-6.1023164,-1.9292178,7.369561,-12.999237,7.4759398,-3.1589866,-0.8198101,6.7392964,-7.252911,18.91954,-50.449825,60.5175,1.3322427,-1.4781812,10.361111,-4.9695606,-16.324299,37.63084,60.347546,-4.8373985,-0.12630281,-7.932642
37,1.361016035079956,2.1504948139190674,124.48361206054688,0.6054001632562989,-0.07436699183854274,-90.76205353914986,1.5819438,2.973636,5.1289268,12.937705,-15.887224,-2.793284,4.7394896,-6.147288,-2.1271002,7.2713556,-13.026976,7.5800323,-3.2742455,-0.7795706,6.781109,-7.2915816,18.919838,-50.403694,60.465775,1.361786,-1.4746811,10.353819,-4.935109,-16.358494,37.518116,60.366417,-4.861448,-0.15755121,-7.96432
38,1.461722493171692,2.1359341144561768,124.45689392089844,0.5372000838614643,-0.10779739028476806,-90.53301376951357,1.1923356,2.9415643,4.8418903,13.756892,-16.309868,-2.6149378,4.8904457,-6.1805334,-2.3510683,7.191441,-13.068582,7.665476,-3.410073,-0.72869676,6.871591,-7.3352284,18.916224,-50.356575,60.415016,1.4252362,-1.4591368,10.339984,-4.891448,-16.412094,37.39273,60.368145,-4.893915,-0.22269209,-7.9822087
39,1.5536671876907349,2.1222305297851562,124.433837890625,0.4653334836168277,-0.15327999429736308,-90.31025597726057,0.85530114,2.9034822,4.5632215,14.501273,-16.698347,-2.4397476,5.0414257,-6.2121997,-2.5703895,7.140537,-13.101803,7.7275705,-3.54219,-0.67072684,6.97599,-7.375601,18.906483,-50.319767,60.364048,1.48996,-1.4442,10.334325,-4.83704,-16.491854,37.26487,60.348816,-4.913535,-0.29082412,-7.986626
40,1.6703771352767944,2.1022415161132812,124.4132308959961,0.4002374520619783,-0.1801472244361058,-90.1264238221941,0.57755065,2.8528202,4.33412,15.102849,-17.021362,-2.2766094,5.1423187,-6.25158,-2.7546363,7.133328,-13.106426,7.7616353,-3.6489098,-0.6137452,7.056656,-7.40053,18.892948,-50.30064,60.31188,1.5256788,-1.4417568,10.350688,-4.790649,-16.57617,37.145214,60.33943,-4.9041333,-0.33344787,-7.980336
41,1.7883549928665161,2.0739617347717285,124.3987808227539,0.3389562345015317,-0.17695304051739305,-89.97169494273135,0.36420512,2.7884204,4.1451187,15.52302,-17.260897,-2.1236296,5.18864,-6.2985406,-2.9131453,7.165037,-13.116485,7.752779,-3.7372506,-0.54963475,7.097713,-7.406987,18.876432,-50.314545,60.258842,1.5137209,-1.4595006,10.409123,-4.7512608,-16.662739,37.03509,60.344696,-4.847581,-0.34189597,-7.957573
42,1.9158101081848145,2.0499539375305176,124.39042663574219,0.2839946647245604,-0.16139246343565639,-89.8358233215472,0.20423901,2.7086868,3.9828982,15.820671,-17.444307,-1.9773642,5.2001696,-6.3561087,-3.0543432,7.239243,-13.134093,7.7082267,-3.8122408,-0.48460963,7.120883,-7.4022694,18.855345,-50.35461,60.20625,1.4733732,-1.48969,10.49671,-4.7108207,-16.759476,36.927498,60.350594,-4.7577376,-0.33197585,-7.918955
43,2.035259246826172,2.020592451095581,124.37492370605469,0.2680494304744865,-0.14176606015261164,-89.75547097525332,0.09398178,2.5924404,3.8911226,16.030855,-17.5925,-1.8416948,4.737964,-6.475846,-3.093875,8.2666235,-13.556926,7.659712,-3.8438692,-0.4600844,7.1383195,-7.3869586,18.832615,-50.391956,60.15102,1.4350666,-1.5204971,10.577568,-4.6794147,-16.85982,36.81938,60.362717,-4.6686845,-0.3114514,-7.877751
44,2.1588926315307617,1.997475504875183,124.34480285644531,0.3043065785710485,-0.13080503293129211,-89.76061088140493,0.042683832,2.4397085,3.9033437,16.17002,-17.716011,-1.7222869,3.784191,-6.663332,-2.9992726,10.282942,-14.3200245,7.635656,-3.8083646,-0.49557722,7.1695333,-7.3616486,18.81241,-50.399036,60.087936,1.4278218,-1.54,10.61602,-4.665911,-16.959663,36.70633,60.384243,-4.6149554,-0.28839126,-7.846457
45,2.2911245822906494,1.9890950918197632,124.31470489501953,0.3686698712365838,-0.10544670058538642,-89.85402344973299,0.03834122,2.2764175,4.0221252,16.206087,-17.7929,-1.6229751,2.6144893,-6.8606257,-2.7484205,12.654379,-15.123079,7.596111,-3.7023568,-0.5667245,7.195907,-7.326973,18.797512,-50.373283,60.01303,1.4596362,-1.5450584,10.595606,-4.681007,-17.056126,36.607952,60.42961,-4.6056213,-0.25154734,-7.82707
46,2.4174306392669678,1.9627283811569214,124.286376953125,0.45892177843131715,-0.0691299305070082,-90.01925279641425,0.08515816,2.0973241,4.2289243,16.134453,-17.821102,-1.5404505,1.2499691,-7.0695844,-2.3716724,15.357466,-15.978329,7.5391707,-3.5421162,-0.6694028,7.2170763,-7.2786283,18.789606,-50.324654,59.92473,1.5153095,-1.5416852,10.537419,-4.720494,-17.147497,36.520927,60.49717,-4.6238084,-0.20139092,-7.8136463
47,2.5445525646209717,1.9473323822021484,124.2507553100586,0.5793851900520861,-0.0792451474048163,-90.24829671434274,0.23186459,1.8950737,4.508942,15.992028,-17.831224,-1.4734815,-0.21146744,-7.3170147,-1.9854181,18.314922,-16.753279,7.5449286,-3.34489,-0.8169276,7.286193,-7.2094674,18.79091,-50.24521,59.825718,1.5872899,-1.5315398,10.462537,-4.788646,-17.213507,36.414646,60.592457,-4.661648,-0.1648727,-7.810022
48,2.6483588218688965,1.9473720788955688,124.2110595703125,0.7366033299338363,-0.19265806477157835,-90.53395055252373,0.52571034,1.6625204,4.8471828,15.816533,-17.853437,-1.4207041,-1.6819124,-7.635711,-1.7050782,21.473097,-17.324736,7.6937575,-3.1179216,-1.0094427,7.468882,-7.1146708,18.807367,-50.12735,59.698254,1.6716498,-1.5162324,10.391081,-4.84201,-17.293362,36.24093,60.63871,-4.7099385,-0.16545087,-7.811483
49,2.7615091800689697,1.9454147815704346,124.15216064453125,0.9455017883086021,-0.44314991244575247,-90.90657208736536,1.0272477,1.3805598,5.274808,15.571387,-17.882954,-1.3901768,-3.182642,-8.063506,-1.5583946,24.969086,-17.64618,8.0750885,-2.8390057,-1.27002,7.798099,-6.9849844,18.840418,-49.942944,59.534584,1.7886084,-1.488137,10.318414,-4.9098353,-17.362057,35.992897,60.681057,-4.787052,-0.23217028,-7.81313
50,2.889263868331909,1.9302186965942383,124.08377075195312,1.197671919509036,-0.7922913531774578,-91.36015239703352,1.6927644,1.0577974,5.7844963,15.25022,-17.906406,-1.379995,-4.7466717,-8.57188,-1.4778533,28.7903,-17.795033,8.618922,-2.5089061,-1.5806901,8.238134,-6.8232574,18.89168,-49.70213,59.33507,1.9343863,-1.4487904,10.236636,-4.9950113,-17.419733,35.691486,60.724667,-4.8911023,-0.34438738,-7.817193
51,3.0097224712371826,1.911401391029358,124.01410675048828,1.4582758404127307,-1.188859549717295,-91.83375628302073,2.4186833,0.7250674,6.3059473,14.926546,-17.93789,-1.3734149,-6.312621,-9.101957,-1.4365005,32.678005,-17.830877,9.168899,-2.1803093,-1.9023143,8.7316885,-6.6411076,18.963888,-49.45924,59.122074,2.0601807,-1.4131725,10.16298,-5.0776772,-17.464567,35.35178,60.745228,-4.9855843,-0.45597112,-7.8414035
52,3.1270532608032227,1.9058336019515991,123.94589233398438,1.69586524667692,-1.5831085199124781,-92.2658913988423,3.1028016,0.41417938,6.771716,14.677154,-17.993076,-1.3535103,-7.8142295,-9.598699,-1.4126878,36.361206,-17.80698,9.572823,-1.9053382,-2.203121,9.220078,-6.4518576,19.060442,-49.27341,58.91957,2.1151965,-1.3964096,10.114531,-5.134822,-17.492453,34.985626,60.71544,-5.0347886,-0.5205417,-7.9030895
53,3.240159034729004,1.8944246768951416,123.8722915649414,1.9242091888513724,-1.9919778401744304,-92.67457713233819,3.7709422,0.11454782,7.2006087,14.49645,-18.070452,-1.3172687,-9.259771,-10.085658,-1.3975468,39.900555,-17.644958,9.811727,-1.673196,-2.5030553,9.719169,-6.245866,19.185255,-49.128525,58.70959,2.07659,-1.4016458,10.091649,-5.1707697,-17.500008,34.579407,60.632584,-5.019854,-0.51371056,-8.021697
54,3.343357801437378,1.8536792993545532,123.80239868164062,2.1549082292699646,-2.431884955839779,-93.08188978440295,4.463527,-0.18684289,7.6170616,14.346371,-18.16044,-1.272854,-10.67202,-10.584405,-1.402774,43.392918,-17.342485,9.959342,-1.4628297,-2.8141344,10.2490835,-6.019114,19.340649,-49.00478,58.483585,1.9737278,-1.4208575,10.086303,-5.196825,-17.485653,34.1314,60.5125,-4.96366,-0.46432814,-8.183145
55,3.4396510124206543,1.8027722835540771,123.73724365234375,2.3552540879601027,-2.8542447885579256,-93.43144709336818,5.092009,-0.4569433,7.96535,14.276882,-18.278389,-1.2203399,-12.009895,-11.036397,-1.4471612,46.625175,-17.066662,10.011704,-1.3131526,-3.1001525,10.754981,-5.792454,19.52561,-48.956028,58.282753,1.8361584,-1.4522952,10.103146,-5.203748,-17.449957,33.67155,60.362553,-4.893408,-0.40662384,-8.355288
56,3.5341684818267822,1.7549922466278076,123.67532348632812,2.4898490030680764,-3.211596862705373,-93.66630999688944,5.5619154,-0.65817475,8.191326,14.354589,-18.448858,-1.1599703,-13.236642,-11.379736,-1.5549877,49.38954,-16.98889,9.972129,-1.262039,-3.3247883,11.181743,-5.5912356,19.735395,-49.04221,58.15283,1.6899105,-1.4944007,10.147089,-5.17594,-17.393826,33.22599,60.183567,-4.8369517,-0.3743283,-8.505189
57,3.623716115951538,1.6876879930496216,123.62228393554688,2.549913817834695,-3.5019518192445935,-93.7463707613458,5.8394713,-0.78306276,8.257036,14.628612,-18.6887,-1.0858043,-14.341551,-11.609794,-1.7449373,51.669865,-17.242657,9.768187,-1.3478028,-3.4856856,11.522601,-5.4345603,19.96771,-49.308575,58.11386,1.5164719,-1.5643152,10.239879,-5.1028466,-17.315702,32.783733,59.957165,-4.8025384,-0.37637383,-8.63395
58,3.698326349258423,1.6150832176208496,123.57486724853516,2.5525302638036447,-3.748616779859076,-93.70957964642226,5.976179,-0.84604484,8.201266,15.060785,-18.985662,-0.9995595,-15.350136,-11.751922,-2.0071852,53.57328,-17.707392,9.431515,-1.5390613,-3.603618,11.803031,-5.311409,20.220034,-49.719894,58.14588,1.3089951,-1.6573943,10.372081,-4.992484,-17.215704,32.332893,59.688473,-4.775756,-0.3947909,-8.755565
59,3.768286943435669,1.5358155965805054,123.53702545166016,2.5032248022484223,-3.941353949156945,-93.61486149386397,6.0092387,-0.8438499,8.08576,15.579092,-19.316992,-0.9132126,-16.285152,-11.799057,-2.3227985,55.08445,-18.178165,9.121636,-1.7724631,-3.6753697,12.016336,-5.2008142,20.484148,-50.20932,58.237617,1.1146884,-1.740106,10.502425,-4.8546495,-17.098406,31.898697,59.410397,-4.752567,-0.42301992,-8.856676
60,3.822737216949463,1.4539518356323242,123.51250457763672,2.4045939448149727,-4.070474284837366,-93.52116034171134,5.976263,-0.77458256,7.971966,16.10929,-19.658188,-0.83893144,-17.164368,-11.746895,-2.6752872,56.176296,-18.452822,8.996111,-1.9863845,-3.6945481,12.155942,-5.0802484,20.748268,-50.706078,58.38047,0.98297834,-1.7783208,10.590221,-4.698191,-16.970835,31.509909,59.153614,-4.72653,-0.45404336,-8.9238205
61,3.867750644683838,1.3443689346313477,123.50467681884766,2.2354127608585452,-4.1109199898059,-93.41810098259653,5.838472,-0.61062986,7.848582,16.672335,-20.015371,-0.77768725,-17.988697,-11.57855,-3.1103106,56.787025,-18.524395,9.132066,-2.1939065,-3.631237,12.194489,-4.965467,21.003752,-51.257008,58.60976,0.9069347,-1.767411,10.632698,-4.515829,-16.83723,31.165953,58.903164,-4.678166,-0.4798492,-8.939695
62,3.908236265182495,1.228623628616333,123.49742889404297,1.9991373756432274,-4.074964545517351,-93.2823888049288,5.594627,-0.36315894,7.690538,17.287258,-20.395664,-0.72407645,-18.752752,-11.309405,-3.6218677,56.947838,-18.486998,9.429903,-2.4179025,-3.4925563,12.144622,-4.8697276,21.245872,-51.879562,58.930897,0.8675099,-1.7243148,10.649868,-4.2985344,-16.698284,30.85405,58.64249,-4.615503,-0.50555074,-8.915262
63,3.9399943351745605,1.1016069650650024,123.49495697021484,1.7438260451645329,-4.009526221104363,-93.15424224629075,5.333388,-0.08711218,7.539811,17.891705,-20.775858,-0.6809965,-19.465593,-10.978714,-4.1144166,56.77913,-18.290565,9.782271,-2.6147695,-3.3302493,12.056902,-4.7601743,21.47006,-52.45201,59.291298,0.8989427,-1.6481358,10.635288,-4.059956,-16.55793,30.588263,58.409164,-4.574609,-0.54445297,-8.880405
64,3.9649100303649902,0.9682262539863586,123.48747253417969,1.5218933882190566,-3.962155778226585,-93.0741634429912,5.1508727,0.161853,7.4403276,18.40819,-21.1334,-0.65102565,-20.133047,-10.622663,-4.491786,56.401043,-17.882713,10.083781,-2.7471232,-3.1969848,11.981193,-4.5969243,21.674881,-52.84592,59.634277,1.0360405,-1.5384275,10.581891,-3.8172026,-16.420687,30.39095,58.2405,-4.588109,-0.6095646,-8.865395
65,3.977206230163574,0.8272845149040222,123.47691345214844,1.3439711093507474,-3.9433299506123176,-93.0636357530251,5.0822744,0.37335324,7.4172044,18.796957,-21.451124,-0.63806814,-20.744312,-10.242518,-4.744259,55.79625,-17.291872,10.305858,-2.8001845,-3.1057682,11.924431,-4.356281,21.859293,-53.01426,59.964264,1.3671541,-1.3768691,10.469178,-3.570549,-16.290909,30.28656,58.144955,-4.6860867,-0.7227131,-8.886856
66,3.9844610691070557,0.6718949675559998,123.46503448486328,1.186170167810045,-3.9290273716821313,-93.09764806987648,5.075755,0.5746691,7.44359,19.101603,-21.74467,-0.6394872,-21.295166,-9.821406,-4.916652,54.913555,-16.53008,10.504406,-2.8017426,-3.028942,11.861538,-4.056567,22.024067,-53.020134,60.30227,1.8509152,-1.1714437,10.305376,-3.3144698,-16.16951,30.265034,58.1018,-4.8408117,-0.8703927,-8.92625
67,3.994166374206543,0.5163611173629761,123.44293212890625,1.0407541662682318,-3.915456510926423,-93.14665146913626,5.0788274,0.769441,7.486548,19.409273,-22.048717,-0.6482277,-21.798231,-9.365961,-4.995046,53.82171,-15.519041,10.70275,-2.775788,-2.9603202,11.794695,-3.7191355,22.173004,-52.90294,60.613575,2.3266325,-0.9598196,10.127687,-3.0561984,-16.055336,30.290894,58.105175,-5.0017786,-1.0125622,-8.960641
68,4.00065803527832,0.3574482202529907,123.41162872314453,0.9005101887747191,-3.8984366916789903,-93.18118705617698,5.0385423,0.9619326,7.512613,19.805643,-22.39658,-0.6572519,-22.26861,-8.882458,-4.963788,52.592606,-14.183878,10.925822,-2.746744,-2.8939,11.725991,-3.3648102,22.3129,-52.700127,60.861237,2.6339974,-0.7776899,9.9750805,-2.8050635,-15.946064,30.329174,58.15079,-5.1189795,-1.1094115,-8.966823
69,3.999098062515259,0.18294116854667664,123.37577056884766,0.768225277979984,-3.8812420038374413,-93.20764595946933,4.961679,1.1514378,7.526126,20.286154,-22.785692,-0.6639017,-22.710894,-8.357498,-4.8005166,51.22074,-12.437576,11.18206,-2.7056854,-2.831327,11.659829,-2.9803267,22.446901,-52.376106,61.032696,2.7176752,-0.61618114,9.852457,-2.569012,-15.841187,30.39045,58.25337,-5.168453,-1.1400839,-8.932057
70,3.9871699810028076,0.0057309456169605255,123.32670593261719,0.6432632664013199,-3.8646456817014876,-93.23698190281019,4.8685837,1.3369607,7.540349,20.815575,-23.202833,-0.6720946,-23.113138,-7.7907095,-4.51642,49.6757,-10.344382,11.461199,-2.6451628,-2.7753088,11.595154,-2.557473,22.575924,-51.9233,61.13944,2.66759,-0.46076107,9.741552,-2.3407047,-15.740098,30.48555,58.40849,-5.181389,-1.1293722,-8.870633
71,3.9738097190856934,-0.15889105200767517,123.26318359375,0.5246906192204682,-3.8404102795665667,-93.24745927731004,4.7298994,1.522216,7.53458,21.428135,-23.663086,-0.68450814,-23.46803,-7.2092266,-4.145474,47.994488,-8.047797,11.760098,-2.5887756,-2.7232747,11.52483,-2.1269178,22.705116,-51.42613,61.1838,2.5388718,-0.33778435,9.647792,-2.111277,-15.642278,30.581203,58.589607,-5.188731,-1.1063044,-8.800382
72,3.951883316040039,-0.32979893684387207,123.18927001953125,0.4046431965784194,-3.8003129989324496,-93.217020207024,4.5159125,1.7108023,7.487894,22.158802,-24.181913,-0.70388985,-23.769577,-6.6422544,-3.7208495,46.21444,-5.6911106,12.0746,-2.5547125,-2.671751,11.442792,-1.7227054,22.842112,-50.976902,61.16866,2.3842134,-0.27399537,9.576151,-1.8648413,-15.546351,30.634869,58.763153,-5.2244153,-1.1000321,-8.738063
73,3.930004596710205,-0.5199540257453918,123.1058578491211,0.2850596092688479,-3.7408843236127045,-93.14384272411546,4.220407,1.9025708,7.400399,23.011738,-24.76161,-0.7310325,-24.021133,-6.07641,-3.2077801,44.311142,-3.213619,12.409909,-2.5408158,-2.6232722,11.349264,-1.3454334,22.993671,-50.581875,61.08166,2.1655107,-0.29450282,9.534065,-1.5944793,-15.450155,30.625715,58.9274,-5.324546,-1.1220802,-8.689197
74,3.9005768299102783,-0.711452841758728,123.00355529785156,0.1677921585397089,-3.6670863747065843,-93.03855833382484,3.8593009,2.0955758,7.280783,23.969479,-25.39441,-0.7643489,-24.221268,-5.5082927,-2.5960906,42.276268,-0.57219285,12.769966,-2.5354443,-2.5793724,11.248202,-0.9790619,23.16259,-50.203506,60.918575,1.8689721,-0.37831268,9.515946,-1.3070781,-15.353194,30.573875,59.09499,-5.463852,-1.1558666,-8.6442
75,3.8678433895111084,-0.9021081924438477,122.88386535644531,0.05172509921377589,-3.583028665158072,-92.89774085060768,3.4348998,2.2885685,7.1213546,25.034962,-26.081217,-0.80306965,-24.36063,-4.981509,-1.957702,40.169273,2.0665379,13.145222,-2.5426562,-2.5360367,11.138794,-0.6309817,23.349714,-49.86571,60.696342,1.58763,-0.4838999,9.507429,-1.0086768,-15.258297,30.499819,59.25691,-5.5828314,-1.188572,-8.5973015
76,3.8320560455322266,-1.0892152786254883,122.7426528930664,-0.06263565290781008,-3.4924646361081595,-92.71819855832902,2.9493194,2.4790847,6.914849,26.212553,-26.823938,-0.8467661,-24.432592,-4.536926,-1.368067,38.050823,4.536373,13.522104,-2.5635736,-2.488661,11.020431,-0.3119642,23.5534,-49.596718,60.434322,1.4135499,-0.56944793,9.4949045,-0.6995737,-15.170115,30.418673,59.397556,-5.6241164,-1.206959,-8.5418415
77,3.799561023712158,-1.2891626358032227,122.58211517333984,-0.1773703566401221,-3.3977787743967314,-92.49934402564622,2.4013696,2.6652362,6.660229,27.509483,-27.629692,-0.8965503,-24.416739,-4.165663,-0.81486917,35.87117,6.885128,13.9428835,-2.6013732,-2.4328527,10.895428,-0.028600765,23.77289,-49.42093,60.127014,1.3829901,-0.62734276,9.467889,-0.38010976,-15.092462,30.323692,59.513817,-5.53578,-1.206397,-8.468054
78,3.767242908477783,-1.4944149255752563,122.39850616455078,-0.2894920668052127,-3.2965647149107684,-92.24263179397269,1.787959,2.8444195,6.361381,28.928442,-28.496634,-0.9528993,-24.323732,-3.8531802,-0.2668525,33.61783,9.173414,14.397831,-2.6525974,-2.3721004,10.764512,0.22333848,24.007998,-49.32107,59.76922,1.4428542,-0.6790562,9.436255,-0.04429354,-15.026146,30.206131,59.60593,-5.3615417,-1.1937842,-8.381241
79,3.7251088619232178,-1.6931872367858887,122.18645477294922,-0.3949154533594977,-3.1858323497329533,-91.94772968704821,1.1219165,3.0095434,6.019882,30.436308,-29.40624,-1.0145113,-24.194508,-3.6290047,0.21619487,31.402782,11.257454,14.788139,-2.7096148,-2.3143778,10.624117,0.4473832,24.256601,-49.26451,59.385143,1.5482963,-0.7262447,9.417672,0.3111474,-14.97244,30.084957,59.67023,-5.1825128,-1.1734079,-8.298301
80,3.6754448413848877,-1.912964105606079,121.94758605957031,-0.4872814853659461,-3.0618269815700323,-91.61439626629334,0.41392753,3.1547205,5.6379066,32.004395,-30.340477,-1.0807033,-24.073708,-3.5200117,0.56134295,29.342041,12.992856,15.000033,-2.7660522,-2.2667158,10.469679,0.6486808,24.514942,-49.214783,58.99872,1.6568553,-0.7707365,9.429651,0.68946105,-14.932299,29.980963,59.70296,-5.0791426,-1.1497803,-8.236035
81,3.620656967163086,-2.1301639080047607,121.69026184082031,-0.5736316800853898,-2.9055920370331547,-91.23041172351736,-0.36399674,3.2750268,5.2030063,33.643887,-31.303152,-1.1463076,-23.981888,-3.5306365,0.75378776,27.444637,14.303502,15.000033,-2.8328607,-2.2249947,10.279992,0.8238751,24.781618,-49.18576,58.609734,1.7758446,-0.81198865,9.486616,1.1016275,-14.904532,29.882734,59.696808,-5.0920663,-1.1146218,-8.205518
82,3.569826126098633,-2.356175661087036,121.40736389160156,-0.6490796805920823,-2.724514623116839,-90.80048405973832,-1.2068985,3.3698397,4.7212534,35.364147,-32.301365,-1.2156736,-23.897434,-3.6387904,0.81962544,25.659779,15.278969,14.849985,-2.9091957,-2.187248,10.063103,0.9701458,25.05608,-49.189316,58.210987,1.9221057,-0.8495751,9.576169,1.5416708,-14.8891115,29.785433,59.657097,-5.171503,-1.0688497,-8.195629
83,3.502237319946289,-2.58742356300354,121.0993423461914,-0.7113562394163931,-2.5545540177237034,-90.34974727845668,-2.0564477,3.4417331,4.2231464,37.13815,-33.324833,-1.3022318,-23.805275,-3.8268232,0.75196224,24.019703,16.019707,14.598839,-2.9731498,-2.1615098,9.858855,1.0950009,25.33472,-49.184525,57.815773,2.0665746,-0.8849501,9.675645,1.9901954,-14.888269,29.721226,59.59606,-5.2626133,-1.0308028,-8.189673
84,3.4372904300689697,-2.834580659866333,120.76676940917969,-0.7521224873801824,-2.43159144271481,-89.90335250598265,-2.8545394,3.4953027,3.7391868,38.939137,-34.3634,-1.4183904,-23.6862,-4.0759697,0.55937386,22.54967,16.626827,14.333401,-3.0060613,-2.1558468,9.70613,1.2077256,25.61264,-49.125885,57.43889,2.1811094,-0.9204671,9.762366,2.4245274,-14.906713,29.726427,59.52973,-5.309907,-1.0192869,-8.171453
85,3.3683385848999023,-3.0724213123321533,120.39847564697266,-0.7703549137402091,-2.3697012750704434,-89.46825491808927,-3.5833788,3.5336518,3.2839184,40.767124,-35.429607,-1.5776591,-23.534084,-4.3941717,0.2182791,21.27481,17.045982,14.042838,-3.0053387,-2.1710951,9.618493,1.3082999,25.886621,-49.008175,57.083885,2.25214,-0.95859605,9.83439,2.8374288,-14.949444,29.81833,59.46107,-5.2828994,-1.0491415,-8.133157
86,3.294569730758667,-3.3131766319274902,120.00677490234375,-0.7742847572047313,-2.3478112633051094,-89.03155705659867,-4.2755423,3.555224,2.8430068,42.636974,-36.524315,-1.7715255,-23.36154,-4.7775493,-0.26486716,20.179632,17.245617,13.702604,-2.9820259,-2.1996934,9.573153,1.3930354,26.155401,-48.849556,56.74617,2.2980506,-0.9979499,9.9026785,3.2427788,-15.017817,29.977798,59.378895,-5.214842,-1.1067394,-8.084187
87,3.220036268234253,-3.5595993995666504,119.59011840820312,-0.7674422307638818,-2.348909922856648,-88.58872126053689,-4.9476967,3.5612612,2.4038093,44.542477,-37.627563,-1.9838599,-23.182655,-5.19303,-0.83736694,19.239754,17.359375,13.364972,-2.9371293,-2.23656,9.554943,1.4646785,26.41663,-48.64285,56.42901,2.3368762,-1.0351002,9.963773,3.6494603,-15.110151,30.186989,59.278355,-5.145168,-1.1681478,-8.033999
88,3.1386613845825195,-3.8050265312194824,119.15161895751953,-0.7557436914348686,-2.3555685580428225,-88.13514767134944,-5.6155057,3.553234,1.9514353,46.474724,-38.71354,-2.197009,-23.012207,-5.61348,-1.4536324,18.430552,17.527262,13.07094,-2.873377,-2.2760968,9.54803,1.5256664,26.667618,-48.38153,56.13611,2.383695,-1.0666815,10.014258,4.066478,-15.22048,30.429115,59.153786,-5.113874,-1.2090758,-7.9923573
89,3.0604822635650635,-4.067435264587402,118.69623565673828,-0.7365382326587824,-2.36091538812161,-87.67000790609008,-6.2816896,3.52963,1.4899126,48.428215,-39.791245,-2.4079747,-22.86169,-6.0546227,-2.145264,17.764046,17.782644,12.821447,-2.7878864,-2.321571,9.5421715,1.5798134,26.904165,-48.059017,55.874367,2.4529686,-1.0867772,10.054915,4.4858394,-15.347529,30.724678,59.01262,-5.124074,-1.2194487,-7.9627256
90,2.977508783340454,-4.339258193969727,118.22598266601562,-0.7105261532545885,-2.3746807228266595,-87.19590003431559,-6.93796,3.4922101,1.0248867,50.4092,-40.867798,-2.6263256,-22.720207,-6.526509,-2.9236505,17.249117,18.053616,12.592585,-2.6809187,-2.373394,9.545888,1.6230067,27.12414,-47.681248,55.646626,2.5323536,-1.0992588,10.08729,4.9023647,-15.491679,31.07591,58.860683,-5.157519,-1.2136097,-7.940191
91,2.884464740753174,-4.595110893249512,117.73260498046875,-0.6832983872640286,-2.404752224048032,-86.71352970870538,-7.5824084,3.44659,0.5425354,52.424793,-41.91987,-2.852356,-22.580511,-6.994135,-3.7059293,16.8781,18.307411,12.392667,-2.5578601,-2.423115,9.571156,1.6478786,27.329416,-47.257935,55.448288,2.6022751,-1.114854,10.108992,5.3269277,-15.64714,31.437956,58.693607,-5.2215667,-1.204291,-7.9223256
92,2.7895233631134033,-4.866443634033203,117.22325134277344,-0.6607634185726866,-2.458928949036943,-86.22327083659547,-8.21269,3.3971877,0.029477537,54.482975,-42.922523,-3.0873992,-22.423548,-7.423794,-4.4139023,16.615732,18.526178,12.226518,-2.422611,-2.4646797,9.630201,1.6467872,27.525229,-46.80122,55.27372,2.642167,-1.1440581,10.117418,5.7694225,-15.804707,31.76425,58.510704,-5.324213,-1.2045661,-7.907275
93,2.6901252269744873,-5.148190498352051,116.70683288574219,-0.6451405094649619,-2.54689661040447,-85.73081391392661,-8.812799,3.3488786,-0.50927365,56.58243,-43.8813,-3.334405,-22.249035,-7.820499,-5.0748396,16.487324,18.69562,12.101413,-2.2653491,-2.4975169,9.735636,1.6186154,27.7153,-46.300743,55.121323,2.6351612,-1.2023387,10.095846,6.221597,-15.959986,32.060646,58.32064,-5.500277,-1.2263776,-7.8895297
94,2.5763962268829346,-5.426482200622559,116.16651916503906,-0.6325174046321091,-2.662400072993767,-85.23360692637897,-9.386049,3.29603,-1.0687958,58.71939,-44.80398,-3.5930362,-22.058504,-8.202048,-5.714819,16.485235,18.836828,12.009894,-2.0873806,-2.527547,9.877548,1.570231,27.901342,-45.754368,54.9908,2.5963318,-1.2795476,10.0505705,6.6774483,-16.111662,32.345577,58.12807,-5.7357087,-1.2603283,-7.8727736
95,2.443147659301758,-5.703834056854248,115.61357116699219,-0.6205508300066321,-2.7892951834315864,-84.71887962366027,-9.955096,3.2261755,-1.6628542,60.889915,-45.674225,-3.8596697,-21.871136,-8.556026,-6.2450776,16.590887,18.95555,11.939371,-1.9085373,-2.5588646,10.034137,1.503925,28.087177,-45.189167,54.87903,2.5507305,-1.3475436,10.014002,7.149857,-16.254486,32.589367,57.929333,-5.966777,-1.2878036,-7.869144
96,2.313347816467285,-6.003688812255859,115.0501937866211,-0.6042350613242466,-2.9114877609383303,-84.17444524488324,-10.5413475,3.1270826,-2.3046393,63.087837,-46.47223,-4.1320524,-21.692177,-8.867074,-6.5805187,16.753939,19.075697,11.875899,-1.7452267,-2.596098,10.183467,1.4192361,28.277557,-44.636665,54.78253,2.5227516,-1.3780874,10.018734,7.6538415,-16.380322,32.758156,57.720108,-6.1314344,-1.2898942,-7.8907633
97,2.175363540649414,-6.295450687408447,114.47566986083984,-0.5826257584725426,-3.0229390872160975,-83.5944485012108,-11.153653,2.9923308,-2.997056,65.32285,-47.205276,-4.407835,-21.53853,-9.134858,-6.6898584,16.995481,19.188751,11.834166,-1.595073,-2.641156,10.319771,1.3056233,28.4748,-44.09965,54.7087,2.5170197,-1.3566036,10.069663,8.192016,-16.482794,32.836697,57.504787,-6.2078185,-1.2533008,-7.9573064
98,2.017896890640259,-6.593719005584717,113.88957214355469,-0.5561173794882437,-3.1333584623727977,-82.98585860990374,-11.775655,2.8254685,-3.731893,67.594574,-47.88011,-4.690983,-21.39924,-9.368713,-6.6205206,17.319857,19.293474,11.815121,-1.4498209,-2.6947913,10.454571,1.1661267,28.68,-43.56666,54.65532,2.520068,-1.3002241,10.150525,8.754801,-16.559214,32.842415,57.29003,-6.2331014,-1.1913252,-8.057553
99,1.8523097038269043,-6.910390377044678,113.30257415771484,-0.5249153053123788,-3.2497598023817247,-82.35534583840735,-12.390819,2.6288862,-4.5053854,69.88172,-48.477375,-4.989464,-21.254353,-9.566797,-6.40329,17.68617,19.404652,11.785962,-1.3169509,-2.7599134,10.591568,1.022608,28.896906,-43.04407,54.60152,2.5311754,-1.227923,10.261644,9.335897,-16.607996,32.792305,57.077557,-6.230739,-1.124906,-8.157303
100,1.6821208000183105,-7.231492042541504,112.70606231689453,-0.48967749670221483,-3.3789174025327293,-81.70955437634092,-12.98388,2.4057193,-5.313913,72.165634,-48.97951,-5.311667,-21.08257,-9.726537,-6.069531,18.052132,19.537888,11.714256,-1.2032185,-2.8395913,10.734591,0.8955289,29.131346,-42.541653,54.525898,2.5468013,-1.1585997,10.40347,9.928785,-16.629145,32.70292,56.869373,-6.22418,-1.0752435,-8.222335
101,1.4983960390090942,-7.5628886222839355,112.10848999023438,-0.45556640719609415,-3.524108149149714,-81.03880647685415,-13.549099,2.1548047,-6.168429,74.446556,-49.37522,-5.6780667,-20.881702,-9.831788,-5.5746026,18.423452,19.685421,11.564954,-1.1173898,-2.9296453,10.890084,0.787635,29.388256,-42.056374,54.419254,2.5724242,-1.0822358,10.58794,10.542691,-16.61766,32.545547,56.664253,-6.204976,-1.0472658,-8.241775
102,1.312408447265625,-7.909037113189697,111.50127410888672,-0.41923993882040533,-3.682032125377727,-80.34283249569175,-14.089819,1.8720762,-7.065707,76.73421,-49.679108,-6.0818133,-20.660503,-9.887504,-4.9202566,18.81733,19.84376,11.365449,-1.053238,-3.032977,11.055264,0.6922452,29.670012,-41.584427,54.2866,2.6072228,-0.993133,10.81024,11.173116,-16.57151,32.322636,56.46575,-6.165626,-1.030335,-8.234894
103,1.1048387289047241,-8.254100799560547,110.8846435546875,-0.37274846554525354,-3.848962582057302,-79.64307070790139,-14.60524,1.5570782,-7.980874,79.02019,-49.90923,-6.4909554,-20.414957,-9.923026,-4.207649,19.209917,20.032314,11.1767235,-0.9967607,-3.1595752,11.221513,0.6184747,29.978271,-41.12925,54.12395,2.6401298,-0.91676897,11.045582,11.802132,-16.496017,32.09629,56.26946,-6.1328015,-1.0212045,-8.212081
104,0.8942909240722656,-8.596632957458496,110.2666015625,-0.3022022079770101,-4.021364904712319,-78.96119010759863,-15.094587,1.2093481,-8.888205,81.26938,-50.000305,-6.8733797,-20.13834,-9.969196,-3.5372894,19.570032,20.273924,11.059774,-0.935005,-3.3192296,11.380072,0.5800218,30.313799,-40.688168,53.924732,2.6647277,-0.8786693,11.269046,12.412253,-16.403439,31.929346,56.069996,-6.133166,-1.0166721,-8.18361
105,0.6806375980377197,-8.955119132995605,109.63909912109375,-0.19531299391465523,-4.198188398734694,-78.2904900442053,-15.56649,0.80269444,-9.785016,83.50838,-50.000305,-7.209032,-19.838228,-10.03077,-2.8694608,19.91172,20.567354,11.040924,-0.8781393,-3.528843,11.53053,0.58018184,30.67853,-40.255184,53.676846,2.6821592,-0.8640255,11.457444,13.009988,-16.300219,31.825357,55.854053,-6.1635838,-1.013331,-8.14319
106,0.46515268087387085,-9.327096939086914,108.99580383300781,-0.08254271690261852,-4.389048856108627,-77.63002698741165,-16.00669,0.3707884,-10.689643,85.774796,-50.000305,-7.5298963,-19.49602,-10.0657835,-2.1829681,20.226557,20.909992,11.081247,-0.82441217,-3.7553928,11.685521,0.6190885,31.073154,-39.826424,53.377846,2.696954,-0.8660754,11.629187,13.6053295,-16.189445,31.75598,55.61932,-6.2121434,-1.0135132,-8.087406
107,0.2403920739889145,-9.703073501586914,108.3372802734375,0.040889556287386296,-4.585003587530476,-76.99169685157635,-16.409193,-0.07452273,-11.585255,88.03703,-50.000305,-7.8634725,-19.129393,-10.11187,-1.5713153,20.522863,21.28679,11.157936,-0.76152855,-3.9976718,11.836488,0.69942373,31.496378,-39.405853,53.04195,2.7033527,-0.92334986,11.822407,14.191746,-16.0777,31.739908,55.367638,-6.289137,-1.0213884,-8.030424
108,0.00960624311119318,-10.08755874633789,107.67172241210938,0.18589413876712935,-4.77502774659244,-76.38573429077263,-16.773405,-0.5295488,-12.452992,90.2625,-50.000305,-8.233726,-18.761005,-10.215235,-1.1252017,20.810839,21.68242,11.24841,-0.6806465,-4.2617593,11.972175,0.8254585,31.945107,-38.99411,52.68427,2.6989505,-1.0749216,12.075268,14.761479,-15.974313,31.796885,55.10199,-6.4040394,-1.0413729,-7.986515
109,-0.22440645098686218,-10.491555213928223,106.98989868164062,0.3616661759442078,-4.962485118109734,-75.80836239676644,-17.096207,-1.0029494,-13.28513,92.44553,-50.000305,-8.656523,-18.387758,-10.381834,-0.8340096,21.096724,22.105341,11.3711,-0.58592045,-4.5541964,12.094825,0.9859417,32.42083,-38.63915,52.31528,2.6786273,-1.3505777,12.403098,15.319443,-15.885103,31.943205,54.81235,-6.569659,-1.064212,-7.9733095
110,-0.475364089012146,-10.896265029907227,106.29301452636719,0.5731707317769504,-5.147401768226051,-75.2528198683818,-17.381882,-1.5088873,-14.086522,94.59861,-50.000305,-9.114762,-18.010199,-10.603535,-0.6539644,21.383274,22.555134,11.533202,-0.48275402,-4.881496,12.206011,1.18308,32.92288,-38.32316,51.924244,2.6480024,-1.7235817,12.783679,15.874836,-15.811197,32.162743,54.491486,-6.7769613,-1.0904473,-7.977824
111,-0.7176337242126465,-11.306868553161621,105.586181640625,0.8110589560263147,-5.319003779573661,-74.72931541031342,-17.64006,-2.0346632,-14.864176,96.69991,-49.915306,-9.588417,-17.645197,-10.890984,-0.6335663,21.662737,23.009888,11.690401,-0.363124,-5.2334194,12.2980995,1.4381983,33.443,-37.950684,51.499245,2.6150653,-2.1479936,13.199754,16.424273,-15.7559395,32.430912,54.147266,-7.000546,-1.139349,-7.968054
112,-0.9589311480522156,-11.730304718017578,104.85918426513672,1.072100056338055,-5.463268159003689,-74.24578594745219,-17.880594,-2.5833185,-15.610043,98.766655,-49.80979,-10.039798,-17.318857,-11.26458,-0.8180166,21.942657,23.44017,11.79924,-0.22510722,-5.608998,12.360331,1.7807366,33.968258,-37.414806,51.02669,2.5943544,-2.5777535,13.634229,16.964296,-15.724119,32.7264,53.786114,-7.214275,-1.2298627,-7.912177
113,-1.2045824527740479,-12.159564971923828,104.1158676147461,1.3576776092109928,-5.575897443684675,-73.80250520588469,-18.114597,-3.1647856,-16.326912,100.810104,-49.68562,-10.4590025,-17.040983,-11.736016,-1.236436,22.239134,23.858334,11.845085,-0.07492224,-6.0120225,12.389384,2.212944,34.49228,-36.729027,50.520706,2.6366458,-3.0137253,14.1054735,17.488407,-15.721058,33.070408,53.41051,-7.400408,-1.3872834,-7.7883167
114,-1.4448268413543701,-12.605669975280762,103.35201263427734,1.6725498150406102,-5.665206874711394,-73.39605588980454,-18.33216,-3.775835,-17.01478,102.82738,-49.544228,-10.867958,-16.796785,-12.296065,-1.8588401,22.552067,24.27163,11.850623,0.085163094,-6.44175,12.391076,2.7252002,35.012142,-35.928223,49.98679,2.722782,-3.4757392,14.616176,18.003231,-15.749582,33.468063,53.012512,-7.574298,-1.5945404,-7.6177154
115,-1.6924481391906738,-13.055628776550293,102.5619125366211,2.0104818127625648,-5.7339008235180735,-73.02831005252209,-18.51085,-4.389207,-17.674866,104.81129,-49.437347,-11.290744,-16.572035,-12.932051,-2.6429272,22.85697,24.642096,11.82786,0.2621386,-6.889012,12.367756,3.3229842,35.517807,-34.94508,49.404858,2.7527947,-3.9476194,15.125058,18.523546,-15.810565,33.87437,52.58364,-7.7593436,-1.8078238,-7.432674
116,-1.9305696487426758,-13.517326354980469,101.75141143798828,2.3672002861238592,-5.785926280139446,-72.7017803828035,-18.628647,-4.9746823,-18.309353,106.755135,-49.42096,-11.746926,-16.352287,-13.6301,-3.5475469,23.127989,24.933405,11.78893,0.46013942,-7.344164,12.321074,4.0106454,35.99658,-33.712444,48.759026,2.6228552,-4.4153123,15.589098,19.062016,-15.905049,34.24759,52.116993,-7.978448,-1.982915,-7.2658114
117,-2.1698691844940186,-13.991758346557617,100.91580200195312,2.7439757324510063,-5.822074605757187,-72.41100377707464,-18.689787,-5.530718,-18.913708,108.65356,-49.50409,-12.238977,-16.122755,-14.42527,-4.6506276,23.364365,25.107271,11.737694,0.67665315,-7.812143,12.24948,4.7988763,36.436893,-32.20495,48.077538,2.413582,-4.927166,15.991062,19.628998,-16.03374,34.58821,51.599483,-8.267479,-2.103842,-7.1263857
118,-2.4150984287261963,-14.464094161987305,100.04753112792969,3.1420332968406024,-5.840181279929214,-72.15632083931908,-18.70354,-6.067236,-19.487804,110.51432,-49.66344,-12.751456,-15.887591,-15.312983,-5.94666,23.58106,25.191175,11.668338,0.90923923,-8.295548,12.152552,5.6804347,36.83055,-30.459743,47.367767,2.1446817,-5.4748435,16.354197,20.219057,-16.197453,34.914852,51.034855,-8.603847,-2.1954045,-6.9965544
119,-2.650874614715576,-14.954842567443848,99.15583801269531,3.556623437966254,-5.8387927997497115,-71.94814709067461,-18.658401,-6.5693526,-20.040777,112.3481,-49.897636,-13.276556,-15.67232,-16.21911,-7.2670245,23.786264,25.241674,11.577862,1.1650437,-8.780815,12.033489,6.6252956,37.168472,-28.512634,46.587883,1.6155653,-5.962191,16.69321,20.820549,-16.397484,35.210075,50.442715,-8.92201,-2.2746227,-6.8675585
120,-2.8888232707977295,-15.446824073791504,98.24260711669922,3.981903941534278,-5.814055733984146,-71.79640362301015,-18.569849,-7.032572,-20.5732,114.118126,-50.000305,-13.805345,-15.504724,-17.073544,-8.44184,23.97253,25.323965,11.461636,1.4530276,-9.252965,11.894625,7.6051273,37.440395,-26.396059,45.694736,0.6296492,-6.2954016,17.02201,21.425238,-16.63388,35.4555,49.83845,-9.1564045,-2.358147,-6.730138
121,-3.1231462955474854,-15.947741508483887,97.30741119384766,4.471935688765993,-5.736488144953645,-71.67767697644405,-18.50118,-7.5248504,-21.043846,115.82884,-50.000305,-14.300313,-15.457911,-17.9601,-9.46241,24.193335,25.400055,11.2869425,1.758679,-9.773348,11.706868,8.602406,37.63222,-24.082077,44.709026,-0.86047584,-6.4204164,17.321392,22.042986,-16.90264,35.640102,49.220287,-9.274601,-2.4477057,-6.591628
122,-3.364302158355713,-16.441024780273438,96.34061431884766,5.038738484325098,-5.608725623373875,-71.58532485272515,-18.450468,-8.059431,-21.442572,117.501816,-50.000305,-14.764083,-15.52206,-18.921783,-10.388913,24.453566,25.44597,11.07373,2.074967,-10.359646,11.468451,9.608897,37.733948,-21.581484,43.669384,-2.7531958,-6.401272,17.596018,22.676992,-17.200031,35.77449,48.583855,-9.315775,-2.5346322,-6.4532075
123,-3.6021416187286377,-16.946510314941406,95.34894561767578,5.643706905669704,-5.467568036180812,-71.54691002559603,-18.345663,-8.57813,-21.736586,119.14545,-50.000305,-15.000033,-15.630066,-19.862219,-11.135848,24.697239,25.536354,10.90573,2.415657,-10.9585285,11.213616,10.60644,37.74751,-18.989628,42.563572,-5.0254197,-6.3250813,17.897636,23.306332,-17.528854,35.869225,47.946262,-9.324109,-2.619934,-6.297026
124,-3.8330652713775635,-17.45981216430664,94.32560729980469,6.289095813127537,-5.338599852869115,-71.57755492686091,-18.139845,-9.072873,-21.913036,120.76353,-50.000305,-15.000033,-15.75648,-20.734243,-11.5935545,24.90951,25.728561,10.876242,2.7844083,-11.563589,10.967647,11.586764,37.684147,-16.397255,41.36886,-7.655894,-6.28316,18.273907,23.915434,-17.891743,35.932713,47.315968,-9.343664,-2.7045329,-6.104505
125,-4.040549278259277,-17.989774703979492,93.27546691894531,7.079232003240065,-5.241057377208301,-71.71256945664491,-17.82895,-9.59912,-21.88882,122.33551,-50.000305,-15.000033,-15.953291,-21.62536,-11.620652,25.130552,26.030098,11.070367,3.2288857,-12.278026,10.758507,12.561716,37.55261,-13.79927,40.042274,-10.87579,-6.2657557,18.754839,24.521772,-18.290424,35.94749,46.681385,-9.378494,-2.7936819,-5.86562
126,-4.256312370300293,-18.518863677978516,92.19384765625,7.912321426471076,-5.133680146579484,-71.9229219782642,-17.461756,-10.085903,-21.765427,123.88177,-50.000305,-15.000033,-16.19686,-22.447546,-11.374207,25.276749,26.450356,11.397748,3.7241797,-13.007718,10.543646,13.532261,37.355335,-11.163549,38.600845,-14.624026,-6.2537794,19.313131,25.133009,-18.72477,35.9106,46.03696,-9.407977,-2.8849928,-5.5909243
127,-4.471467971801758,-19.047927856445312,91.07606506347656,8.790010892096438,-5.0579613640375936,-72.18864647075283,-16.968422,-10.590466,-21.600695,125.38653,-50.000305,-15.000033,-16.451927,-23.224684,-10.868894,25.454279,26.897867,11.788055,4.2385883,-13.748955,10.375586,14.484421,37.09949,-8.5347,37.104233,-18.441515,-6.3199096,19.897028,25.714743,-19.193789,35.856007,45.402794,-9.439377,-2.9686272,-5.293761
128,-4.680788516998291,-19.566390991210938,89.92525482177734,9.710930240359906,-5.05729453030746,-72.49327489207423,-16.272528,-11.165167,-21.449371,126.8344,-50.000305,-15.000033,-16.676414,-23.977676,-10.122321,25.764065,27.283775,12.1703205,4.7476487,-14.496327,10.309672,15.397858,36.793926,-5.9638753,35.61652,-21.872948,-6.5222316,20.447266,26.231167,-19.695322,35.81519,44.80159,-9.480765,-3.0348575,-4.9878726
129,-4.87553071975708,-20.09662628173828,88.74142456054688,10.629412146839528,-5.144816130054619,-72.85872390963989,-15.345069,-11.758761,-21.331934,128.21817,-50.000305,-15.000033,-16.947475,-24.587124,-8.933196,26.15902,28.496983,12.743402,5.2740836,-15.197525,10.361457,16.2778,36.43928,-3.4383073,34.093952,-24.954485,-6.894506,20.948015,26.679413,-20.223816,35.78023,44.223846,-9.556937,-3.0711515,-4.658116
130,-5.074438095092773,-20.628965377807617,87.49050903320312,11.70921871697462,-5.400538504267452,-73.2247212176761,-14.148081,-12.5469475,-21.18185,129.54985,-50.000305,-15.000033,-17.344105,-25.279669,-7.205716,27.022947,30.000067,13.568172,5.7725754,-16.0257,10.617232,17.173483,36.05158,-0.9126617,32.481464,-27.88116,-7.3902683,21.409813,27.089882,-20.779137,35.745605,43.63964,-9.661955,-3.083089,-4.3092194
131,-5.272475719451904,-21.16200065612793,86.2073745727539,12.816356383070005,-5.677613831228047,-73.66565733051723,-12.805546,-13.327434,-20.997509,130.82996,-50.000305,-15.000033,-17.682814,-25.94748,-5.49456,28.192389,30.000067,14.112928,6.301026,-16.829739,10.924486,18.03849,35.630062,1.539101,30.918335,-30.4436,-7.942912,21.835247,27.41916,-21.364765,35.733963,43.12554,-9.743618,-3.0988696,-3.9692922
132,-5.448737144470215,-21.680904388427734,85.10255432128906,13.838086745962332,-5.796967668629271,-74.25450177182108,-11.5054655,-13.933637,-20.720081,132.05936,-50.000305,-15.000033,-17.084242,-26.525642,-4.7230353,27.920921,28.398203,13.772113,6.9138775,-17.491652,11.105975,18.796219,35.166958,3.8300514,29.565725,-32.418633,-8.488038,22.239468,27.625486,-21.985464,35.762573,42.763977,-9.751768,-3.145647,-3.667833
133,-5.6266913414001465,-22.205066680908203,83.79974365234375,15.435399207134253,-6.18763635080335,-74.68550735797234,-9.919373,-15.172583,-20.343462,133.29684,-50.000305,-15.000033,-16.092026,-28.094961,-4.457107,28.914402,20.995415,12.437844,7.36674,-18.687094,11.602896,19.624346,34.753986,6.066485,28.243164,-33.641068,-8.973245,22.568792,27.87546,-22.669876,35.816036,42.320404,-9.687512,-3.1883454,-3.374468
134,-5.827704906463623,-22.74431610107422,82.22239685058594,17.248871314138167,-6.645230602314693,-75.14422982907085,-8.193814,-16.580679,-19.892168,134.51659,-50.000305,-15.000033,-14.702589,-29.972391,-4.459585,30.222616,9.807582,10.529348,7.8309746,-20.060207,12.217987,20.445724,34.392097,8.226001,26.972937,-34.290337,-9.43003,22.848167,28.145422,-23.421694,35.883,41.824677,-9.560743,-3.229708,-3.0743148
135,-6.020333290100098,-23.274288177490234,80.73432159423828,18.932562273040276,-7.009370905440102,-75.78555350749208,-6.423691,-17.772028,-19.359747,135.65736,-50.000305,-15.000033,-13.844547,-31.567062,-4.0702024,32.204823,-1.9405755,8.671505,8.420128,-21.263157,12.840714,21.069384,34.005993,10.250198,25.933678,-34.630436,-9.886325,23.174309,28.254562,-24.212534,36.023598,41.51619,-9.38364,-3.3227792,-2.8659391
136,-6.1543145179748535,-23.745744705200195,79.49828338623047,20.17313453158267,-7.156434847027164,-76.71399909763758,-4.69007,-18.447151,-18.76342,136.64842,-50.000305,-15.000033,-14.184619,-32.43956,-2.9642408,34.882553,-10.86457,7.205318,9.1806135,-21.97735,13.376333,21.343185,33.489353,12.092703,25.29273,-34.896053,-10.380869,23.643385,27.971062,-24.997072,36.312492,41.68791,-9.1763735,-3.5220933,-2.854943
137,-6.233366966247559,-24.150808334350586,78.43160247802734,20.877458652960105,-7.002617347812536,-78.0210507835234,-2.9980593,-18.468199,-18.084438,137.50189,-50.000305,-15.000033,-16.117756,-32.432056,-1.0820096,38.4412,-16.126156,5.9461546,10.166789,-22.060848,13.786965,21.215431,32.776073,13.793822,25.004772,-34.9427,-10.895729,24.311443,27.076557,-25.76047,36.9112,42.547527,-8.742459,-3.9605098,-3.04503
138,-6.284932613372803,-24.450420379638672,77.48357391357422,21.21808968481245,-6.6677892084501345,-79.60697997111915,-1.2800492,-18.059116,-17.340477,138.24255,-50.000305,-15.000033,-19.069275,-31.762163,1.2838076,42.766525,-19.575066,4.676199,11.267661,-21.702023,14.127584,20.92019,31.863684,15.458567,24.910212,-34.672165,-11.420607,25.125616,25.66428,-26.500038,37.751846,43.935677,-8.152834,-4.569841,-3.3968754
139,-6.384880065917969,-24.71096420288086,76.53577423095703,21.31114474292501,-6.344311511156088,-81.28763767204782,0.53123766,-17.487486,-16.636925,138.80994,-50.000305,-15.000033,-22.064083,-30.657812,3.6667573,47.136234,-21.99964,3.572024,12.293047,-21.103897,14.454231,20.67277,30.757183,17.102436,25.042135,-34.388393,-12.013612,26.008322,23.98297,-27.179531,38.554295,45.605743,-7.834553,-5.101376,-3.9603543
140,-6.5428853034973145,-24.9339599609375,75.68634033203125,21.284993125822893,-6.205320819109685,-82.8756110972372,2.4952466,-17.015348,-16.097778,139.14798,-50.000305,-15.000033,-24.219137,-29.429022,5.6630955,50.81304,-24.111792,2.873728,13.073796,-20.472181,14.826694,20.575165,29.48081,18.672861,25.494251,-34.392395,-12.7422,26.879492,22.288042,-27.747566,39.03404,47.36908,-8.21794,-5.3021913,-4.7920127
141,-6.692460060119629,-25.167972564697266,74.98651123046875,21.07218625752378,-6.29482705100277,-84.4776852636259,4.797063,-16.579483,-15.72603,139.13504,-50.000305,-15.000033,-25.336166,-27.98984,7.2325397,53.544327,-25.755226,2.7903802,13.71968,-19.729174,15.288737,20.474102,27.996784,20.243595,26.5277,-34.786892,-13.915577,27.655807,20.507975,-28.167105,39.238163,49.61621,-9.563497,-5.2911553,-5.9241557
142,-6.80694580078125,-25.499481201171875,74.4742431640625,20.639279569306293,-6.524150245133185,-86.12717974347804,7.3518376,-16.090004,-15.51347,138.8424,-50.000305,-15.000033,-25.855911,-26.304209,8.480247,55.672886,-26.617243,3.1434987,14.254736,-18.80693,15.790188,20.319881,26.304329,21.82158,28.0088,-35.383705,-15.40385,28.390438,18.52698,-28.430517,39.266598,52.36427,-11.601932,-5.103177,-7.316832
143,-6.903318881988525,-25.87030601501465,74.09889221191406,20.168374454458167,-6.8362989945030135,-87.51573305846058,9.799729,-15.737456,-15.590612,138.51692,-50.000305,-15.000033,-25.970514,-24.790903,9.32682,57.358387,-27.15231,3.6264153,14.4247265,-17.95237,16.253305,20.297474,24.527262,23.134136,29.494795,-36.081707,-16.622585,29.221296,16.57404,-28.532227,38.916626,54.89028,-13.942562,-4.3640256,-8.887739
144,-6.998919486999512,-26.259103775024414,73.82980346679688,19.855363745714463,-7.162247890023145,-88.34681989417595,11.787804,-15.695589,-16.083313,138.40848,-50.000305,-15.000033,-25.887238,-23.862812,9.718226,58.76635,-27.816376,3.9290085,14.049856,-17.428808,16.60874,20.547318,22.864464,23.78676,30.635122,-36.825638,-16.997559,30.307436,14.941263,-28.460571,37.952522,56.456295,-16.17591,-2.7244332,-10.528812
145,-7.1383280754089355,-26.66527557373047,73.62596893310547,19.811254595692937,-7.54427119574666,-88.37031391760475,13.2008,-16.147038,-17.231886,138.64877,-50.000305,-15.000033,-25.551157,-23.854902,9.509041,59.88149,-28.740501,3.9857247,12.940829,-17.41874,16.848707,21.096777,21.50157,23.44339,31.5046,-37.98524,-16.161558,31.902672,13.831988,-28.13952,35.927837,56.712624,-18.747976,0.5525446,-12.278385
146,-7.324656009674072,-27.049245834350586,73.4500961303711,19.909747503944903,-7.9938615305813014,-87.81363475004477,14.275373,-16.929106,-18.91924,139.07867,-50.000305,-15.000033,-24.892487,-24.461843,8.783755,60.624893,-29.670921,3.9486525,11.356098,-17.73755,16.962208,21.764225,20.531004,22.234795,32.491833,-39.55438,-14.544436,33.89973,13.075125,-27.513546,33.053406,56.17233,-21.612661,5.100861,-14.007437
147,-7.532444000244141,-27.373111724853516,73.29833221435547,19.98488985212,-8.394005496669093,-87.09987419927093,15.159097,-17.712458,-20.71061,139.52597,-50.000305,-15.000033,-24.094778,-25.145199,7.8453727,61.060467,-30.491701,3.834129,9.759511,-18.119167,16.89438,22.395847,19.983452,20.522806,33.69643,-40.905884,-12.723967,35.880238,12.391704,-26.644321,30.117283,55.3632,-23.66887,9.522803,-15.569793
148,-7.73770809173584,-27.66933822631836,73.20087432861328,19.890540057943074,-8.614966060073622,-86.6347653031622,15.9477825,-18.184195,-22.165035,139.82463,-50.000305,-15.000033,-23.390442,-25.403978,7.0278215,61.252075,-31.087008,3.6660132,8.581237,-18.33509,16.646395,22.800085,19.807356,18.69489,35.14857,-41.37626,-11.193256,37.357662,11.614821,-25.709166,27.878176,54.666973,-23.867308,12.375261,-17.07525
149,-7.912148475646973,-27.968961715698242,73.18158721923828,19.556564068920004,-8.566102127968659,-86.47459713673248,16.568096,-18.27004,-23.232231,139.97385,-50.000305,-15.000033,-22.881908,-25.090555,6.374663,61.15661,-31.416382,3.4114,7.8188567,-18.317663,16.174986,22.937727,19.95328,16.709011,36.77138,-40.90566,-9.745481,38.128746,10.824049,-24.885405,26.568937,53.840725,-21.263836,13.165237,-18.88931
150,-8.065499305725098,-28.28179931640625,73.24945068359375,19.078613018076844,-8.335114026691834,-86.41582752729371,16.980225,-18.160028,-24.115084,140.04929,-50.000305,-15.000033,-22.440016,-24.48889,5.734928,60.75591,-31.545076,3.0811772,7.2176814,-18.17349,15.51293,22.852604,20.389624,14.464962,38.584496,-39.79596,-8.186019,38.422123,10.230256,-24.225754,25.782616,52.55078,-16.696756,12.542145,-20.865833
151,-8.212018966674805,-28.613969802856445,73.39607238769531,18.57385481866996,-8.049521766600606,-86.46607442562355,17.299026,-17.946234,-24.739393,140.01479,-50.000305,-15.000033,-21.988125,-23.766752,5.171309,60.15298,-31.514053,2.7647383,6.8440313,-17.977268,14.81915,22.502806,21.014906,12.229322,40.64859,-37.897106,-6.9742074,38.370094,9.921036,-23.727558,25.270748,50.997948,-11.832591,10.89251,-22.377583
152,-8.347291946411133,-28.949913024902344,73.60444641113281,18.15279352433304,-7.835828081738233,-86.62995939983645,17.640709,-17.717463,-25.033915,139.8345,-50.000305,-15.000033,-21.45801,-23.096102,4.7527394,59.455353,-31.360987,2.5432782,6.7287107,-17.82641,14.256619,22.002527,21.666395,10.3265705,42.874065,-35.031082,-6.5697927,38.129185,9.852557,-23.342405,24.832376,49.47836,-8.241106,8.785046,-22.9414
153,-8.462339401245117,-29.273527145385742,73.83822631835938,17.826202072581594,-7.727301881913011,-86.97092717071104,18.059855,-17.445208,-24.867767,139.44928,-50.000305,-15.000033,-20.812618,-22.465982,4.530725,58.644096,-31.072783,2.4324548,6.8865123,-17.740482,13.873426,21.529257,22.201153,8.961587,45.219967,-30.488194,-7.532467,37.707596,9.9380455,-23.051285,24.533989,48.126152,-6.045561,5.894061,-22.242126
154,-8.54245376586914,-29.574935913085938,74.0911865234375,17.547346406225085,-7.651028308112317,-87.45842977563885,18.474209,-17.119333,-24.31985,138.91019,-50.000305,-15.000033,-20.111618,-21.814577,4.4631896,57.68858,-30.636084,2.3895617,7.2035875,-17.681969,13.572641,21.180431,22.578499,8.029097,47.52416,-24.482944,-9.53652,37.229298,10.085517,-22.86154,24.524353,46.861034,-4.4004903,2.1825154,-20.585423
155,-8.608033180236816,-29.84829330444336,74.36212158203125,17.336652578911018,-7.577156997078334,-87.95794747586541,18.804832,-16.851812,-23.641834,138.32605,-50.000305,-15.000033,-19.427193,-21.238684,4.4791617,56.676914,-30.095163,2.4008944,7.5324655,-17.663698,13.312363,20.954659,22.820608,7.384721,49.523197,-18.246353,-11.660075,36.93291,10.211504,-22.747913,24.712543,45.680424,-3.3979564,-1.327029,-18.65697
156,-8.664254188537598,-30.11368751525879,74.66232299804688,17.245621833682268,-7.481735191776158,-88.34772216789456,18.966684,-16.768452,-23.068182,137.80034,-50.000305,-15.000033,-18.82849,-20.85508,4.5290976,55.698624,-29.494312,2.4581654,7.771982,-17.729006,13.072374,20.7731,22.99206,6.842226,51.01587,-13.052647,-12.943107,36.786854,10.262124,-22.665497,24.978683,44.570114,-3.2801163,-3.6585214,-17.2032
157,-8.730670928955078,-30.36022186279297,74.99079132080078,17.492837433026523,-7.362777854833828,-88.61251219881427,18.842466,-17.15657,-22.604534,137.3468,-50.000305,-15.000033,-18.400946,-20.906832,4.762205,54.828278,-28.82172,2.6260884,7.974931,-18.116165,12.906594,20.536964,23.155634,6.364134,51.97077,-9.10219,-12.9848795,36.665485,10.258068,-22.565676,25.277807,43.500683,-4.6561427,-4.4397807,-16.52799
158,-8.792901992797852,-30.607563018798828,75.33348846435547,17.80733368866097,-7.2300413954964835,-88.78978787117227,18.60497,-17.663572,-22.213278,136.89995,-50.000305,-15.000033,-18.029081,-21.095633,5.0098534,53.97221,-28.052597,2.8459113,8.180232,-18.559542,12.7698765,20.257032,23.314156,5.9899883,52.550236,-5.7884173,-12.336263,36.473995,10.239908,-22.448317,25.639292,42.508217,-7.292555,-4.2728357,-16.245577
159,-8.850204467773438,-30.8253116607666,75.69197082519531,18.179408160230448,-7.0984930240379445,-88.9412299281821,18.058863,-18.17293,-21.717962,136.36699,-49.36433,-15.000033,-17.642324,-21.375093,5.276222,53.04606,-27.239588,3.0730474,8.409663,-19.039118,12.660547,19.978765,23.480255,5.674123,52.871998,-3.1757617,-11.487675,36.098717,10.16939,-22.308384,26.079477,41.66797,-10.22533,-3.6448,-16.07421
160,-8.903175354003906,-31.034698486328125,76.05870819091797,18.580325351604802,-6.979577056035806,-89.12091593888317,17.370958,-18.557592,-21.083702,135.82707,-48.544193,-15.000033,-17.201502,-21.68235,5.558151,52.019306,-26.461603,3.2607276,8.670877,-19.522535,12.580218,19.762457,23.639536,5.382713,53.03263,-1.3237511,-10.933632,35.49075,10.013221,-22.16985,26.614586,41.032238,-12.481053,-3.0512896,-15.77407
161,-8.950209617614746,-31.23394775390625,76.42888641357422,19.035881000750322,-6.882696334284544,-89.36345537510995,16.652073,-18.812874,-20.268486,135.30971,-47.75003,-15.000033,-16.711113,-22.026861,5.905412,50.905373,-25.738758,3.4133637,9.009006,-20.036545,12.550867,19.634888,23.801302,5.1147943,52.967884,-0.53046167,-10.757278,34.486362,9.754176,-22.029243,27.29096,40.63802,-13.872359,-2.4692988,-15.326208
162,-8.9842529296875,-31.42154312133789,76.79998016357422,19.549105910382497,-6.797134017902198,-89.62706934458402,15.879791,-18.987316,-19.337381,134.81844,-46.989494,-15.000033,-16.197742,-22.433104,6.2940626,49.729042,-25.037104,3.5511703,9.396421,-20.58157,12.566345,19.564774,23.956467,4.8904643,52.648182,-0.6606217,-10.694265,33.18371,9.422891,-21.893423,28.087343,40.43216,-14.895313,-1.6801383,-14.833277
163,-9.02993392944336,-31.597572326660156,77.16475677490234,20.04992988158686,-6.704878235379434,-89.85398545945654,15.032783,-19.062351,-18.423843,134.39374,-46.41833,-15.000033,-15.656097,-22.858786,6.611906,48.47666,-24.354162,3.652095,9.750149,-21.104069,12.582149,19.510544,24.105051,4.693819,52.240383,-1.1517842,-10.723288,31.93865,9.044764,-21.768011,28.914997,40.36018,-15.604242,-0.89496964,-14.297212
164,-9.082080841064453,-31.7590274810791,77.51810455322266,20.4707252580417,-6.590113269394011,-89.99252881813369,14.092124,-19.02279,-17.655678,134.06949,-46.187897,-15.000033,-15.080305,-23.253016,6.753583,47.139496,-23.689478,3.6938784,9.996687,-21.557846,12.551683,19.429897,24.26613,4.507571,51.91659,-1.4483272,-10.849199,31.101032,8.638624,-21.642946,29.687534,40.37992,-16.048237,-0.3263065,-13.726801
165,-9.156440734863281,-31.90974235534668,77.86027526855469,20.775462795766952,-6.444982066621665,-90.05093397702882,13.127081,-18.855825,-17.106089,133.86812,-46.49079,-15.000033,-14.455615,-23.566845,6.692223,45.68271,-23.04554,3.6525216,10.134249,-21.906239,12.462128,19.309769,24.445694,4.298241,51.73621,-1.5204104,-11.182795,30.803185,8.20338,-21.527319,30.38949,40.5039,-16.14303,-0.056403205,-13.08507
166,-9.234102249145508,-32.032291412353516,78.18876647949219,21.003661287033918,-6.281014645078083,-90.05555604523713,12.124817,-18.573872,-16.6918,133.76303,-47.19369,-15.000033,-13.792118,-23.822062,6.488098,44.131607,-22.42774,3.5504904,10.206626,-22.168447,12.344486,19.162537,24.623192,4.0750127,51.60664,-1.621921,-11.686484,30.848969,7.746441,-21.439495,31.050312,40.72455,-15.893247,0.045412783,-12.385045
167,-9.31963062286377,-32.1432991027832,78.50238800048828,21.197927628390485,-6.112749078472776,-89.98248762089256,10.952344,-18.205463,-16.303085,133.71785,-47.965004,-15.000033,-13.1243515,-24.074474,6.1714315,42.574417,-21.841904,3.4321756,10.224936,-22.41416,12.209482,18.977062,24.847692,3.8760421,51.49019,-1.6492121,-12.159097,31.077785,7.2865496,-21.339403,31.66093,41.00388,-15.471335,0.08035051,-11.715321
168,-9.38895320892334,-32.2409782409668,78.7908935546875,21.40077719493524,-5.954742403643949,-89.80719107627984,9.488405,-17.779114,-15.83254,133.69707,-48.488373,-15.000033,-12.481328,-24.384382,5.7688804,41.092106,-21.288937,3.3368204,10.195322,-22.655443,12.084692,18.735298,25.064407,3.7250266,51.331573,-1.4590155,-12.399872,31.36961,6.8703275,-21.252365,32.165794,41.256077,-15.07491,0.1453663,-11.15324
169,-9.449974060058594,-32.31098175048828,79.05525207519531,21.6420438273393,-5.811251127044565,-89.49776928210214,7.661494,-17.315083,-15.229717,133.70908,-48.6706,-15.000033,-11.85901,-24.813982,5.273282,39.679836,-20.767252,3.2749314,10.090717,-22.926456,11.972393,18.432226,25.267324,3.6517694,51.11513,-0.90437764,-12.315907,31.77615,6.497005,-21.18094,32.547592,41.477554,-14.693278,0.2643324,-10.712696
170,-9.513103485107422,-32.387577056884766,79.30632019042969,21.885989797829495,-5.67453505637702,-89.07586555215703,5.5706396,-16.787468,-14.569913,133.76845,-48.709293,-15.000033,-11.24272,-25.306824,4.6715,38.30629,-20.277653,3.220041,9.909055,-23.187397,11.857716,18.082811,25.451563,3.6389594,50.861828,-0.088324256,-12.021862,32.339985,6.144805,-21.130098,32.832848,41.700603,-14.2460785,0.38697302,-10.353042
171,-9.579442024230957,-32.45294952392578,79.53203582763672,22.068102175383153,-5.541428488699093,-88.59638054878221,3.3164656,-16.134073,-13.920464,133.84085,-48.662594,-15.000033,-10.643844,-25.747974,3.9830785,37.00272,-19.816507,3.1527228,9.682495,-23.365358,11.729146,17.716127,25.606293,3.659137,50.570385,0.73513436,-11.630302,32.90858,5.8043675,-21.107512,33.07388,41.918747,-13.808197,0.4947406,-10.078422
172,-9.646525382995605,-32.5164680480957,79.73284912109375,22.118959676545796,-5.407561477545242,-88.11776311279344,1.0168397,-15.302318,-13.357557,133.89726,-48.62113,-15.000033,-10.07391,-26.020382,3.233136,35.794483,-19.382345,3.0544271,9.454402,-23.403881,11.578088,17.36198,25.757977,3.6864622,50.24168,1.3017322,-11.262589,33.321136,5.477199,-21.112165,33.325764,42.11489,-13.44822,0.5676868,-9.891979
173,-9.7140474319458,-32.56490707397461,79.90000915527344,21.998575516750336,-5.27415290002336,-87.63835308982702,-1.3161645,-14.233651,-12.939391,133.98138,-48.679672,-15.000033,-9.522007,-26.074217,2.3886046,34.67548,-18.958143,2.906219,9.2292795,-23.238695,11.402026,17.018652,25.856628,3.7301672,49.85092,1.5925205,-10.907133,33.560783,5.160926,-21.148026,33.571938,42.297295,-13.22359,0.5976662,-9.82006
174,-9.788728713989258,-32.61134338378906,80.03873443603516,21.737132731512055,-5.140549912979907,-87.14432913252304,-3.7184095,-12.956177,-12.633183,134.10031,-48.798656,-15.000033,-8.983786,-25.955519,1.4595296,33.62487,-18.546076,2.717225,8.991,-22.92558,11.206987,16.695065,25.955,3.8237946,49.391663,1.7100507,-10.518271,33.680363,4.876883,-21.235027,33.821415,42.42251,-13.059456,0.59544706,-9.850933
175,-9.866395950317383,-32.64046096801758,80.14066314697266,21.376831991646068,-5.000736435341403,-86.67793614894853,-6.1475296,-11.545181,-12.3629,134.17412,-48.85752,-15.000033,-8.483001,-25.695679,0.5395036,32.643997,-18.166832,2.5143006,8.772131,-22.485353,11.007238,16.377068,26.021156,3.8971784,48.924377,1.6731219,-10.169862,33.736298,4.59164,-21.359888,34.07094,42.543026,-12.912414,0.5676155,-9.930869
176,-9.930922508239746,-32.67130661010742,80.2264404296875,20.969840963191793,-4.849472083236823,-86.27860586393446,-8.566748,-10.081523,-12.04005,134.11198,-48.720387,-15.000033,-8.04348,-25.339746,-0.27980712,31.733818,-17.838846,2.3274806,8.581632,-21.97407,10.815304,16.08173,26.073708,3.921095,48.485886,1.4743408,-9.935653,33.75175,4.3049307,-21.553686,34.360325,42.631004,-12.701832,0.5236377,-10.0047655
177,-9.986834526062012,-32.693687438964844,80.2853775024414,20.51905874725858,-4.682798007143548,-85.9563165763859,-10.994706,-8.537341,-11.60556,133.92102,-48.377724,-15.000033,-7.6776633,-24.885841,-0.9741338,30.894156,-17.558764,2.1712449,8.441075,-21.38889,10.631458,15.795135,26.110432,3.8723931,48.085255,0.9992759,-9.861022,33.706776,3.990214,-21.79304,34.697098,42.72801,-12.409341,0.4535289,-10.075381
178,-10.0336332321167,-32.70259094238281,80.31758117675781,19.99999230391127,-4.50687039740503,-85.70178722198139,-13.420828,-6.871933,-11.109162,133.63753,-47.901035,-15.000033,-7.3600636,-24.31024,-1.5866121,30.099918,-17.304705,2.0275908,8.35006,-20.709063,10.456523,15.517853,26.134634,3.778098,47.69981,0.28416106,-9.897312,33.59087,3.6631238,-22.079361,35.067528,42.8158,-12.070723,0.356419,-10.1652975
179,-10.070464134216309,-32.708919525146484,80.32990264892578,19.43258480618375,-4.331509641962697,-85.51566723547569,-15.776584,-5.1602526,-10.602283,133.21428,-47.262238,-15.000033,-7.063323,-23.645926,-2.1292067,29.325676,-17.078388,1.8806223,8.299231,-19.961996,10.297345,15.251275,26.147293,3.6390703,47.353935,-0.43661326,-9.976499,33.468197,3.3367984,-22.404257,35.444397,42.89089,-11.722536,0.2520331,-10.254792
180,-10.103111267089844,-32.70701217651367,80.32421875,18.84111749014081,-4.165643690160461,-85.391208080777,-18.012638,-3.4865942,-10.130264,132.59773,-46.421482,-15.000033,-6.7643642,-22.931063,-2.6176455,28.55339,-16.88501,1.7149813,8.272372,-19.181025,10.157722,14.995565,26.149643,3.4540539,47.073956,-0.92808104,-10.033066,33.40594,3.0206769,-22.75242,35.79948,42.957336,-11.402468,0.1604778,-10.325468
181,-10.124932289123535,-32.70693588256836,80.30218505859375,18.239003066414853,-3.990855205896327,-85.32193834462316,-20.180908,-1.8488288,-9.6458435,131.7861,-45.323345,-15.000033,-6.484272,-22.182302,-3.0525372,27.776846,-16.737555,1.5215757,8.25752,-18.383982,10.015719,14.754004,26.147575,3.2135227,46.870293,-1.1036799,-10.070527,33.438454,2.6956904,-23.115173,36.14746,43.0398,-11.114776,0.08511524,-10.382503
182,-10.145498275756836,-32.70253372192383,80.2665023803711,17.62037939002778,-3.8108987598644037,-85.31104943477445,-22.288683,-0.21093023,-9.117066,130.7991,-43.997276,-15.000033,-6.2260146,-21.392523,-3.4242861,27.00571,-16.62619,1.3120962,8.265614,-17.563227,9.877247,14.522546,26.143414,2.9194996,46.731133,-1.0979521,-10.117579,33.52459,2.3565006,-23.488237,36.49666,43.14067,-10.842584,0.015702026,-10.433715
183,-10.161130905151367,-32.7016716003418,80.23172760009766,16.987267198004204,-3.665923200157089,-85.35535890346371,-24.230452,1.375361,-8.601562,129.62238,-42.539978,-15.000033,-5.93285,-20.570047,-3.7434442,26.228628,-16.521748,1.102883,8.301841,-16.721594,9.781807,14.292765,26.131912,2.5905356,46.649277,-1.0049156,-10.146335,33.620285,2.0275817,-23.86287,36.80849,43.243443,-10.596579,-0.0482676,-10.465952
184,-10.170767784118652,-32.710548400878906,80.18856811523438,16.342889358078175,-3.594129033833605,-85.44590359837616,-25.92319,2.8574114,-8.154671,128.23488,-41.022026,-15.000033,-5.5547595,-19.723114,-4.022716,25.4397,-16.395826,0.9103026,8.364073,-15.8620205,9.765438,14.0573015,26.104738,2.245024,46.617287,-0.9181001,-10.129635,33.682896,1.730457,-24.227983,37.044617,43.33534,-10.387323,-0.10712981,-10.466471
185,-10.174983024597168,-32.71717834472656,80.13813018798828,15.678441862832226,-3.611752678006511,-85.57221412739035,-27.373356,4.240475,-7.78578,126.64319,-39.368374,-15.000033,-5.0684934,-18.843431,-4.270871,24.632612,-16.250765,0.7288419,8.441999,-14.975945,9.841086,13.8154125,26.058352,1.8971874,46.625046,-0.8017436,-10.037618,33.717636,1.4629452,-24.577017,37.189316,43.415905,-10.247067,-0.16125998,-10.405664
186,-10.176650047302246,-32.71584701538086,80.07878875732422,15.003600680233964,-3.6941830881580042,-85.72791242437967,-28.631287,5.534159,-7.44529,124.85054,-37.56822,-15.000033,-4.509251,-17.94314,-4.4838247,23.813148,-16.097857,0.55368024,8.522385,-14.073636,9.98088,13.573094,25.994623,1.5366191,46.679123,-0.6242864,-9.892349,33.742832,1.2069068,-24.908014,37.267445,43.50612,-10.161535,-0.2104492,-10.300594
187,-10.170980453491211,-32.718448638916016,80.02031707763672,14.351391930468418,-3.816680349003798,-85.90409689495368,-29.673048,6.681075,-7.0972285,122.84014,-35.806656,-15.000033,-3.9224925,-17.074245,-4.6570706,23.009096,-15.930941,0.40468317,8.592099,-13.191474,10.156578,13.334475,25.913403,1.1462815,46.79528,-0.4842613,-9.744434,33.735455,0.96233284,-25.216208,37.300938,43.625557,-10.073772,-0.2541896,-10.208235
188,-10.154248237609863,-32.714073181152344,79.96175384521484,13.757762762483122,-3.952673588653962,-86.09010101103874,-30.475344,7.623172,-6.7118597,120.58641,-34.26546,-15.000033,-3.3575945,-16.289804,-4.7906218,22.256325,-15.748409,0.30286857,8.637046,-12.367305,10.338782,13.10366,25.813702,0.70870143,46.989635,-0.4798597,-9.64449,33.67328,0.7270668,-25.49487,37.312695,43.795677,-9.926151,-0.29208618,-10.18574
189,-10.125994682312012,-32.72566604614258,79.90879821777344,13.236494987465383,-4.107335717283267,-86.27538120524778,-31.013634,8.304714,-6.276268,118.061806,-33.026283,-15.000033,-2.8115585,-15.613805,-4.898893,21.566387,-15.546389,0.26555076,8.6452265,-11.611865,10.531878,12.886958,25.694468,0.22670808,47.255978,-0.64984363,-9.60845,33.54861,0.49614263,-25.737772,37.30183,44.028957,-9.70713,-0.32710984,-10.246582
190,-10.090617179870605,-32.729469299316406,79.86168670654297,12.76775598209161,-4.284477758764581,-86.45396492476398,-31.308813,8.753564,-5.8239555,115.279724,-31.985641,-15.000033,-2.2733257,-15.020859,-4.9919596,20.932293,-15.331626,0.27790332,8.61181,-10.907683,10.7384815,12.682149,25.555695,-0.29153803,47.589226,-0.9370699,-9.607454,33.374424,0.26658726,-25.941586,37.259872,44.321896,-9.447584,-0.35903051,-10.361659
191,-10.04615306854248,-32.729942321777344,79.81492614746094,12.374875854242855,-4.451422983946869,-86.62991754187213,-31.40334,9.013026,-5.3556123,112.27448,-31.039072,-15.000033,-1.8606975,-14.535291,-5.0315,20.516153,-15.208109,0.321138,8.541969,-10.291992,10.93082,12.481168,25.401278,-0.85435265,48.006878,-1.2967268,-9.625603,33.158752,0.03831482,-26.104868,37.20176,44.672035,-9.1523695,-0.38292944,-10.524005
192,-10.00100326538086,-32.735843658447266,79.77400207519531,12.030765217663797,-4.580968942347304,-86.80415415800384,-31.34306,9.165349,-4.9078135,109.07723,-30.08482,-15.000033,-1.5651782,-14.116624,-5.0273576,20.239807,-15.152296,0.36781254,8.436355,-9.75355,11.077632,12.277911,25.238832,-1.4698933,48.525734,-1.6856928,-9.646742,32.908817,-0.19224416,-26.223341,37.14405,45.082355,-8.82629,-0.39464727,-10.727166
193,-9.948066711425781,-32.74222183227539,79.73383331298828,11.71645148638284,-4.6581224862362856,-86.97702118348951,-31.136955,9.190587,-4.5117536,105.65558,-29.149364,-15.000033,-1.3404794,-13.734569,-5.0032406,19.972916,-15.094557,0.4108477,8.298173,-9.267177,11.162109,12.060438,25.057285,-2.162309,49.174755,-2.1279345,-9.690383,32.644028,-0.41595635,-26.30491,37.079456,45.5649,-8.434994,-0.40411857,-11.006752
194,-9.889915466308594,-32.74951934814453,79.69808959960938,11.43381652114339,-4.699416858761627,-87.14533223189369,-30.762638,9.058545,-4.172125,101.99538,-28.272556,-15.000033,-1.1711439,-13.396232,-4.9661636,19.727743,-15.034053,0.46210074,8.12045,-8.835195,11.200271,11.846444,24.864178,-2.9126294,49.92929,-2.6370277,-9.755219,32.350735,-0.64086956,-26.342997,37.009327,46.1212,-7.9870954,-0.41208357,-11.354067
195,-9.821528434753418,-32.76308059692383,79.66304779052734,11.160550237197434,-4.729419107020924,-87.30269068063348,-30.228142,8.862537,-3.8912888,98.17584,-27.365568,-15.000033,-1.0161054,-13.076182,-4.927789,19.486933,-14.969397,0.51708657,7.904757,-8.430516,11.211224,11.625732,24.657497,-3.710384,50.767555,-3.1465225,-9.797691,32.005928,-0.8622027,-26.342062,36.930977,46.712055,-7.557138,-0.3977463,-11.695089
196,-9.747088432312012,-32.7718505859375,79.62637329101562,10.873947418758071,-4.772993972723565,-87.44294709972756,-29.549921,8.695359,-3.6487846,94.27363,-26.330486,-15.000033,-0.8324447,-12.746383,-4.8992033,19.229202,-14.897214,0.5701573,7.6505466,-8.024248,11.215344,11.393001,24.434679,-4.5403,51.663612,-3.5872056,-9.774807,31.586426,-1.0753806,-26.311388,36.843517,47.294876,-7.218358,-0.33841276,-11.955631
197,-9.667688369750977,-32.77724075317383,79.58708190917969,10.571193153418228,-4.842725163483529,-87.55361249906086,-28.717106,8.5731,-3.4392674,90.26223,-25.133823,-15.000033,-0.60230875,-12.408247,-4.887936,18.954985,-14.820046,0.6224221,7.3433743,-7.613333,11.221877,11.1461735,24.195229,-5.4239497,52.646854,-3.9209936,-9.679858,31.100851,-1.2687354,-26.254827,36.730423,47.862915,-7.004557,-0.20804177,-12.133799
198,-9.590540885925293,-32.8012809753418,79.54711151123047,10.26704067323405,-4.923385549211274,-87.63963679188106,-27.728947,8.443865,-3.2689636,86.10832,-23.82844,-15.000033,-0.34878632,-12.07843,-4.887459,18.6695,-14.73602,0.6770516,6.988151,-7.212216,11.220647,10.891265,23.939362,-6.364331,53.719196,-4.1906157,-9.534648,30.557611,-1.442295,-26.174118,36.59459,48.429047,-6.8710895,-0.023650598,-12.262722
199,-9.505107879638672,-32.82063293457031,79.5059814453125,9.965577470598651,-4.9974711264877785,-87.72195286787233,-26.62177,8.292408,-3.1269677,81.87527,-22.44047,-15.000033,-0.10914359,-11.758736,-4.88049,18.397133,-14.656453,0.7325871,6.6115875,-6.8228407,11.2040825,10.638993,23.663866,-7.310925,54.809143,-4.4444656,-9.337943,29.933268,-1.6098297,-26.078705,36.468376,48.977596,-6.7721553,0.17364095,-12.3205805
200,-9.407045364379883,-32.847137451171875,79.4658432006836,9.667231755181795,-5.048076744629838,-87.82363052744847,-25.43096,8.107298,-3.0193021,77.62269,-20.992342,-15.000033,0.08263011,-11.446769,-4.85011,18.15696,-14.589648,0.78658843,6.2373347,-6.442988,11.165536,10.400947,23.36226,-8.208285,55.842167,-4.730815,-9.087355,29.204876,-1.7849091,-25.982939,36.38657,49.48805,-6.6616592,0.3430648,-12.285643
201,-9.294496536254883,-32.871280670166016,79.42025756835938,9.381019006860742,-5.079524481629744,-87.945146423456,-24.128206,7.8550286,-2.973094,73.282486,-19.474476,-15.000033,0.2210631,-11.157844,-4.7963414,17.968954,-14.549238,0.83697486,5.8616285,-6.076242,11.1085615,10.175594,23.026085,-9.054781,56.825718,-5.0523868,-8.77228,28.35045,-1.9635448,-25.89802,36.351162,49.939396,-6.5219913,0.49605042,-12.128251
202,-9.171555519104004,-32.8979606628418,79.37384033203125,9.09823882894825,-5.099248338513424,-88.07955675355349,-22.708212,7.552926,-3.0040529,68.8338,-17.869152,-15.000033,0.32696506,-10.880197,-4.726142,17.813377,-14.524736,0.8834412,5.474396,-5.711615,11.037548,9.960938,22.653015,-9.870066,57.78813,-5.379569,-8.396002,27.38983,-2.1362016,-25.828756,36.348873,50.33468,-6.376439,0.64829224,-11.867124
203,-9.045132637023926,-32.922706604003906,79.3177490234375,8.793195106314785,-5.095893694034048,-88.23845935238133,-21.245523,7.270964,-3.0979793,64.41216,-16.18622,-15.000033,0.4032603,-10.572384,-4.632079,17.655258,-14.491738,0.9265802,5.0896783,-5.325997,10.947676,9.76503,22.247303,-10.631246,58.686054,-5.7142153,-7.9761076,26.36175,-2.306642,-25.77904,36.39026,50.68561,-6.242027,0.7660128,-11.552697
204,-8.915084838867188,-32.945526123046875,79.26016235351562,8.437916651193815,-5.058171088708683,-88.43088485250836,-19.820602,7.0862293,-3.224013,60.163136,-14.43752,-15.000033,0.46527,-10.190838,-4.511653,17.433546,-14.41202,0.9671858,4.717309,-4.897261,10.834278,9.598976,21.815863,-11.310636,59.471798,-6.058194,-7.5298767,25.303171,-2.4819593,-25.751266,36.48909,51.006184,-6.1343336,0.8143296,-11.235281
205,-8.787455558776855,-32.9687385559082,79.19264221191406,8.016362677441126,-4.979344750171285,-88.66451608318134,-18.452377,7.0130534,-3.4112473,56.104023,-12.632539,-15.000033,0.50079787,-9.715477,-4.3527746,17.147171,-14.2791605,1.0051209,4.363132,-4.4152594,10.693775,9.465285,21.357868,-11.879955,60.130394,-6.4254417,-7.0427485,24.198654,-2.6667492,-25.74864,36.65926,51.282883,-6.055587,0.7741567,-10.904464
206,-8.649931907653809,-33.00014877319336,79.12571716308594,7.548948288013725,-4.867775579782304,-88.93253757299547,-17.110996,7.023922,-3.6503956,52.16694,-10.759646,-15.000033,0.5167854,-9.17239,-4.1622767,16.802834,-14.101218,1.0411748,4.0186505,-3.8927722,10.531571,9.357942,20.87171,-12.357466,60.685482,-6.806965,-6.5100245,23.03724,-2.8567617,-25.771822,36.892815,51.509464,-5.995393,0.6674711,-10.5405855
207,-8.516595840454102,-33.03443908691406,79.06289672851562,7.058930815065697,-4.7332205935465606,-89.22180854068326,-15.804322,7.1196046,-3.8356876,48.37603,-8.811216,-15.000033,0.51767224,-8.599679,-3.9578426,16.427479,-13.902344,1.0790968,3.6754296,-3.352108,10.354966,9.272027,20.366955,-12.789081,61.150394,-7.174209,-5.9658628,21.860615,-3.0444033,-25.816593,37.1669,51.711685,-5.951681,0.52080667,-10.180416
208,-8.389748573303223,-33.064552307128906,78.99447631835938,6.571892752379737,-4.585719014438053,-89.51856376295477,-14.542175,7.2973933,-3.8625302,44.7665,-6.777525,-15.000033,0.5217205,-8.031162,-3.7606409,16.020977,-13.692162,1.1216303,3.327496,-2.8159106,10.170933,9.202835,19.859486,-13.224427,61.538326,-7.504263,-5.446196,20.707897,-3.2228436,-25.8761,37.45752,51.918472,-5.9217978,0.36007348,-9.861103
209,-8.261216163635254,-33.10614013671875,78.9292221069336,6.1083573451921644,-4.418217607826928,-89.82410436159421,-13.32151,7.501897,-3.7320101,41.278786,-4.373846,-15.000033,0.4974426,-7.501026,-3.5670502,15.633356,-13.502544,1.1792101,2.9811397,-2.3132803,9.97421,9.160196,19.355354,-13.64513,61.83096,-7.8067617,-4.9397264,19.5607,-3.3889391,-25.945501,37.76561,52.122063,-5.928171,0.17446752,-9.580972
210,-8.127490997314453,-33.13858413696289,78.86144256591797,5.69847060609313,-4.222521028331591,-90.15238892802647,-12.147642,7.7045975,-3.4551737,37.921165,-1.6971042,-15.000033,0.3107525,-7.0411468,-3.3362455,15.515777,-13.458648,1.2557765,2.648825,-1.8749887,9.758821,9.144957,18.85694,-14.036148,62.023598,-8.091022,-4.4342594,18.404058,-3.5475812,-26.021399,38.099854,52.313503,-5.964324,-0.044206798,-9.324462
211,-7.989201068878174,-33.19411087036133,78.79925537109375,5.250797684132561,-4.025130836657869,-90.48794548445119,-11.044045,8.038438,-3.0151849,34.871563,0.64851755,-15.000033,0.19174378,-6.530759,-3.121913,15.251804,-13.335821,1.3218777,2.314714,-1.4070601,9.543517,9.13609,18.372005,-14.458521,62.15215,-8.341262,-3.9653463,17.281849,-3.699007,-26.098839,38.437862,52.52113,-5.99204,-0.2673846,-9.107679
212,-7.86262321472168,-33.251197814941406,78.73416137695312,4.741080675310153,-3.8441071993524303,-90.82599178115392,-10.02101,8.570758,-2.339042,32.286854,2.0662053,-15.000033,0.1885248,-5.934197,-2.9269898,14.785424,-13.096772,1.3603665,1.9795582,-0.88310516,9.343317,9.112213,17.914572,-14.97801,62.253605,-8.5454855,-3.5691092,16.236073,-3.8357556,-26.1715,38.750847,52.76768,-5.9741096,-0.4655607,-8.945917
213,-7.752072811126709,-33.300846099853516,78.67504119873047,4.150178919978966,-3.689085029550185,-91.18969436211951,-9.088906,9.37239,-1.339968,30.323683,2.206236,-15.000033,0.35201675,-5.215412,-2.7387073,14.033111,-12.690097,1.3621142,1.66313,-0.29084232,9.171567,9.089476,17.49206,-15.603532,62.314026,-8.7260475,-3.2680402,15.272432,-3.9606361,-26.236921,39.050995,53.058434,-5.890613,-0.64930016,-8.844616
214,-7.653420448303223,-33.3575325012207,78.63909912109375,3.519248162923787,-3.5569058695105054,-91.5832942079922,-8.215268,10.377942,-0.0004280196,28.876566,1.4085544,-15.000033,0.645027,-4.4326563,-2.5372937,13.062746,-12.157329,1.3432505,1.3715093,0.3252472,9.026708,9.07518,17.104673,-16.307064,62.317337,-8.888913,-3.0391552,14.366474,-4.071929,-26.292652,39.34082,53.380047,-5.767081,-0.82827437,-8.794995
215,-7.552886009216309,-33.425392150878906,78.58613586425781,2.912210841110435,-3.4449165845882286,-91.97085944217557,-7.339749,11.446958,1.6306051,27.694551,0.12575161,-15.000033,0.987885,-3.6830068,-2.3243673,12.038301,-11.598174,1.3246373,1.0845463,0.9114046,8.899244,9.03538,16.756752,-17.098866,62.298378,-8.996049,-2.851951,13.514799,-4.15656,-26.333033,39.578644,53.733326,-5.6336923,-0.97277695,-8.791134
216,-7.4322404861450195,-33.502342224121094,78.52784729003906,2.450485556256219,-3.3319256927167564,-92.2712397946133,-6.3880606,12.314336,3.5120387,26.394133,-1.0871475,-14.674773,1.1847631,-3.1559813,-2.1324823,11.3405905,-11.230058,1.3502278,0.7441015,1.3554739,8.761142,8.932539,16.453428,-17.996542,62.293644,-9.012252,-2.6764925,12.713775,-4.1976156,-26.35118,39.71711,54.11903,-5.5220327,-1.0537068,-8.827676
217,-7.286069393157959,-33.57040786743164,78.47062683105469,2.086677634898738,-3.202435405110343,-92.47993562991071,-5.3447514,13.012283,5.7830586,24.950813,-2.257078,-13.640471,1.2389323,-2.7945726,-1.9762374,10.925176,-11.033798,1.4152048,0.3478313,1.7135408,8.587759,8.772963,16.194912,-19.021759,62.308678,-8.939111,-2.5250547,11.964653,-4.194648,-26.345324,39.7559,54.557915,-5.444275,-1.056583,-8.910338
218,-7.130533218383789,-33.631629943847656,78.4110336303711,1.6994019073656494,-3.0742813793362265,-92.66005390710943,-4.2337465,13.734567,8.224155,23.545797,-3.620679,-12.967837,1.3157313,-2.4122121,-1.837445,10.474211,-10.829714,1.471014,-0.05154927,2.090481,8.401576,8.576133,15.9797325,-20.164392,62.32252,-8.795765,-2.4088898,11.266858,-4.1503153,-26.31459,39.711475,55.042362,-5.3842244,-0.9996865,-9.039473
219,-6.978311538696289,-33.69043731689453,78.36329650878906,1.3383848148756559,-2.955340392829917,-92.79296026734171,-3.107602,14.317597,10.476494,22.086887,-4.8820705,-12.5330105,1.4016058,-2.0728128,-1.7323272,10.042721,-10.639261,1.5240343,-0.46058077,2.4306836,8.222951,8.321431,15.810582,-21.393066,62.334805,-8.570195,-2.2969573,10.615201,-4.0611563,-26.256012,39.566162,55.544537,-5.3310027,-0.9041089,-9.202778
220,-6.8319783210754395,-33.7501106262207,78.3282470703125,1.056271383210325,-2.8530489590343624,-92.86031612685991,-2.0549679,14.623953,12.166594,20.523674,-5.77349,-12.171709,1.484561,-1.8384435,-1.6776896,9.678849,-10.480074,1.5796871,-0.8850377,2.678949,8.072097,7.9856853,15.69302,-22.678276,62.343014,-8.251536,-2.1579468,10.003525,-3.918735,-26.163195,39.297348,56.031055,-5.276951,-0.7905063,-9.387926
221,-6.697535514831543,-33.799339294433594,78.31431579589844,0.8890144280504062,-2.7698976645160305,-92.84896302667093,-1.1246768,14.595374,13.102029,18.814257,-6.1666737,-11.791434,1.5095572,-1.7576501,-1.6787301,9.508399,-10.410968,1.6414065,-1.3354203,2.7914279,7.9571323,7.5439854,15.632967,-24.044567,62.360786,-7.8320656,-1.9840153,9.419839,-3.7183475,-26.02599,38.881313,56.50224,-5.2297173,-0.6601921,-9.603736
222,-6.558610439300537,-33.859161376953125,78.30747985839844,0.8015788804051688,-2.7011079892523733,-92.77205386930494,-0.2936013,14.3611,13.504516,17.027573,-6.227736,-11.437262,1.4948912,-1.784952,-1.726292,9.476713,-10.408807,1.7050538,-1.8038411,2.8028977,7.8631935,7.014715,15.63012,-25.501183,62.379272,-7.3219485,-1.7926788,8.868152,-3.4680982,-25.84016,38.33683,56.979137,-5.190255,-0.50424045,-9.853365
223,-6.429348945617676,-33.90150451660156,78.30204010009766,0.7431066307263807,-2.641712839718943,-92.652660669061,0.4530142,14.059886,13.620421,15.2881155,-6.1435156,-11.141649,1.4805382,-1.8540517,-1.8099059,9.481426,-10.43158,1.7663218,-2.269604,2.767556,7.775934,6.440849,15.678284,-26.988155,62.3595,-6.731715,-1.5907158,8.365768,-3.1757383,-25.608866,37.704346,57.45331,-5.14378,-0.32767743,-10.115746
224,-6.300135135650635,-33.94273376464844,78.28594970703125,0.6606419825082317,-2.585684799030905,-92.51379358845593,1.1401534,13.813901,13.701002,13.6948805,-6.090153,-10.955392,1.4889566,-1.8968414,-1.919461,9.45505,-10.456021,1.8207383,-2.7160726,2.7435005,7.6818175,5.8670616,15.7686,-28.440855,62.26426,-6.0698733,-1.384643,7.9309497,-2.852712,-25.342066,37.02905,57.916523,-5.0747733,-0.13551831,-10.369898
225,-6.168821811676025,-33.992645263671875,78.26045989990234,0.5289747064802955,-2.5348278673830724,-92.35140598786249,1.7634507,13.665106,13.749508,12.27778,-6.0935774,-10.928981,1.5320928,-1.882431,-2.066171,9.379073,-10.4808235,1.8587279,-3.1535113,2.7581074,7.58239,5.29115,15.896713,-29.855742,62.087624,-5.2958903,-1.1588554,7.5502453,-2.4980567,-25.045492,36.31304,58.362766,-4.977609,0.09710501,-10.632234
226,-6.040682792663574,-34.02659606933594,78.23193359375,0.37173697531285316,-2.48987543635667,-92.15553608597946,2.317654,13.560366,13.6534605,10.971788,-6.0596375,-11.019008,1.6031507,-1.8434377,-2.253255,9.271996,-10.507796,1.8843819,-3.5904722,2.7861516,7.483834,4.6922364,16.060806,-31.260859,61.849407,-4.4171467,-0.91655874,7.2189546,-2.1083086,-24.71984,35.541943,58.791527,-4.85718,0.3642912,-10.906108
227,-5.909932613372803,-34.06621551513672,78.20536041259766,0.21347839914681294,-2.4421995535309575,-91.94024834078245,2.8321738,13.46448,13.493744,9.714719,-5.9727254,-11.147231,1.6807654,-1.8063824,-2.4584026,9.15322,-10.533099,1.9134866,-4.0088205,2.8091097,7.3803153,4.0847187,16.256027,-32.638218,61.55114,-3.5155785,-0.6881171,6.9709606,-1.6898137,-24.371216,34.733948,59.201427,-4.717297,0.61557746,-11.15104
228,-5.790768146514893,-34.111968994140625,78.16692352294922,0.026074089098025475,-2.369387280624473,-91.70494255535121,2.910488,13.494736,13.231762,9.298559,-6.2647157,-11.248028,1.7597839,-1.7404677,-2.6834512,8.97764,-10.518443,1.9548901,-4.408927,2.8645184,7.255685,3.483695,16.474527,-33.964775,61.196312,-2.6721034,-0.5053147,6.8415413,-1.2506301,-24.01122,33.912624,59.590107,-4.5587745,0.8004965,-11.324789
229,-5.6644134521484375,-34.154396057128906,78.12545013427734,-0.15472471803685284,-2.258217390480741,-91.46126099321958,2.8267193,13.536755,12.958187,9.121677,-6.620991,-11.311964,1.8012732,-1.6906246,-2.9052167,8.791998,-10.482552,2.0207245,-4.7766476,2.9193165,7.095414,2.875399,16.713533,-35.245625,60.77552,-1.877779,-0.35257313,6.841928,-0.77361745,-23.646847,33.04655,59.94085,-4.3872313,0.9031933,-11.41335
230,-5.534478664398193,-34.195838928222656,78.08751678466797,-0.3151145992823063,-2.124472190952851,-91.20769870179896,2.7064505,13.555138,12.672736,8.952715,-6.9135637,-11.3660755,1.8153466,-1.6688632,-3.1267061,8.614557,-10.443551,2.103764,-5.113692,2.9583662,6.914439,2.2477274,16.97232,-36.490314,60.29597,-1.099094,-0.21830836,6.9541445,-0.25444457,-23.280628,32.135,60.24786,-4.1988306,0.95235807,-11.438689
231,-5.405264854431152,-34.22650909423828,78.06491088867188,-0.44086856132880103,-2.0116384173866115,-90.94532397920139,2.5915167,13.535966,12.385818,8.809731,-7.160089,-11.38627,1.8428026,-1.6851342,-3.3521705,8.464982,-10.420409,2.1964989,-5.4254646,2.9644513,6.758591,1.6139752,17.24711,-37.679173,59.784477,-0.38127476,-0.13326225,7.172376,0.28234217,-22.91441,31.24713,60.52231,-3.9823792,0.9659575,-11.414691
232,-5.268758773803711,-34.26741409301758,78.04476928710938,-0.5360319785551562,-1.9627656478374476,-90.67325097719892,2.5186648,13.474707,12.104861,8.717765,-7.381619,-11.3540325,1.9268097,-1.7379438,-3.5890594,8.3561735,-10.427656,2.291828,-5.723385,2.93039,6.672861,0.9892966,17.53302,-38.787018,59.271988,0.23296979,-0.12943025,7.4920273,0.8024591,-22.550869,30.461157,60.786808,-3.7234995,0.9616157,-11.35624
233,-5.138254642486572,-34.30427551269531,78.02860260009766,-0.5983527957010671,-2.017416013277391,-90.37813604165105,2.5204074,13.36311,11.822298,8.693941,-7.5817027,-11.253694,2.114443,-1.8334496,-3.856618,8.293157,-10.481501,2.3986764,-6.027553,2.8505468,6.69341,0.36576444,17.830137,-39.825798,58.763638,0.7333184,-0.21965995,7.9584703,1.2992182,-22.192339,29.79091,61.0457,-3.3728912,0.9372003,-11.2616
234,-5.01253604888916,-34.34037399291992,78.01829528808594,-0.634814128072338,-2.1431455237103116,-90.06371500203194,2.568958,13.214324,11.535001,8.72598,-7.754876,-11.101649,2.369475,-1.9658475,-4.146649,8.271032,-10.570658,2.5181477,-6.330565,2.7343946,6.7877107,-0.26347956,18.139112,-40.799446,58.24796,1.1446286,-0.38429788,8.560921,1.7872198,-21.839289,29.201075,61.290325,-2.9523003,0.88660043,-11.124424
235,-4.889720916748047,-34.369407653808594,78.00566101074219,-0.6533837419751676,-2.276257124405508,-89.75510183839904,2.613852,13.052211,11.258275,8.7837715,-7.8996506,-10.92823,2.6142266,-2.1161144,-4.4252696,8.282224,-10.667006,2.6314514,-6.602998,2.597083,6.8964257,-0.8790604,18.454855,-41.66481,57.73353,1.4816028,-0.608326,9.211176,2.2612255,-21.491974,28.698183,61.528934,-2.5520315,0.82056344,-10.953281
236,-4.76810359954834,-34.390968322753906,77.99933624267578,-0.6660778093995584,-2.3524994466078675,-89.47743399419699,2.607754,12.893414,11.010105,8.828248,-8.008267,-10.764802,2.7766314,-2.2635968,-4.6586585,8.307,-10.736399,2.7187986,-6.8190722,2.4566078,6.9601164,-1.4601836,18.76927,-42.37343,57.233757,1.7602798,-0.87816525,9.821183,2.711404,-21.150322,28.293783,61.774837,-2.2618124,0.7494325,-10.757351
237,-4.64596700668335,-34.421142578125,78.00182342529297,-0.6724701187062125,-2.3562018762458394,-89.23451576381267,2.528511,12.737344,10.79339,8.865569,-8.071865,-10.609054,2.8287668,-2.4038532,-4.830986,8.362297,-10.775727,2.7621424,-6.968757,2.3175645,6.9637365,-2.0100672,19.07901,-42.908005,56.76028,1.9981638,-1.2298499,10.392394,3.1367142,-20.816198,28.007706,62.03355,-2.100581,0.65941584,-10.530665
238,-4.532808303833008,-34.45396423339844,78.01556396484375,-0.6676301052783019,-2.321124658339222,-89.01400008976447,2.4062088,12.57534,10.599883,8.9079895,-8.094715,-10.445477,2.8136406,-2.5471585,-4.9622498,8.446549,-10.79893,2.7760973,-7.069264,2.172511,6.9378676,-2.5393062,19.384865,-43.292286,56.314644,2.1855795,-1.6598718,10.96458,3.5376282,-20.490965,27.831848,62.305904,-2.0207417,0.54814273,-10.27147
