unveil-humanoid-operators/unveil-humanoid-operators.github.io/feature-analysis-animation/data/feature_matrix_instances/height_root_translate_rom_sitting_A184.csv
Frame,root_translateX,root_translateY,root_translateZ,root_rotateX,root_rotateY,root_rotateZ,left_hip_pitch_joint_dof,left_hip_roll_joint_dof,left_hip_yaw_joint_dof,left_knee_joint_dof,left_ankle_pitch_joint_dof,left_ankle_roll_joint_dof,right_hip_pitch_joint_dof,right_hip_roll_joint_dof,right_hip_yaw_joint_dof,right_knee_joint_dof,right_ankle_pitch_joint_dof,right_ankle_roll_joint_dof,waist_yaw_joint_dof,waist_roll_joint_dof,waist_pitch_joint_dof,left_shoulder_pitch_joint_dof,left_shoulder_roll_joint_dof,left_shoulder_yaw_joint_dof,left_elbow_joint_dof,left_wrist_roll_joint_dof,left_wrist_pitch_joint_dof,left_wrist_yaw_joint_dof,right_shoulder_pitch_joint_dof,right_shoulder_roll_joint_dof,right_shoulder_yaw_joint_dof,right_elbow_joint_dof,right_wrist_roll_joint_dof,right_wrist_pitch_joint_dof,right_wrist_yaw_joint_dof
0,0.09015011787414551,2.334911584854126,42.847015380859375,0.7345468069606497,-30.666235577168948,-89.72015551088005,-57.30968,-1.2455125,-13.77636,87.89719,-2.6378515,-15.000033,-59.06,-6.192549,7.531867,89.95209,-3.4816468,15.000033,-1.5020459,-1.4217951,26.480568,15.675539,27.370022,-34.16246,-4.101892,36.36344,1.1559885,25.714787,12.788469,-24.412035,33.693188,-2.492132,-46.727413,-10.548817,-26.075853
1,0.09120267629623413,2.334822654724121,42.847110748291016,0.7329857496361812,-30.66495192299501,-89.72421739185383,-57.310497,-1.2362214,-13.777341,87.8983,-2.640543,-15.000033,-59.05989,-6.1872034,7.526741,89.94991,-3.4800098,15.000033,-1.4975097,-1.4174534,26.480936,15.686164,27.387386,-34.16198,-4.122848,36.352222,1.162865,25.712288,12.796457,-24.421371,33.692036,-2.5050728,-46.726852,-10.547869,-26.067263
2,0.09008266776800156,2.3344435691833496,42.84814453125,0.7295271323256598,-30.66380553097711,-89.72818548670568,-57.31106,-1.2263908,-13.778762,87.89907,-2.6434608,-15.000033,-59.05939,-6.181619,7.520907,89.94725,-3.4780521,15.000033,-1.4936612,-1.4120244,26.47851,15.68802,27.394548,-34.163353,-4.1291337,36.342457,1.1700171,25.708435,12.798802,-24.425169,33.692425,-2.5071616,-46.728493,-10.54721,-26.057772
3,0.09094537049531937,2.3331220149993896,42.84803771972656,0.7266085448986547,-30.662394500323213,-89.73168924075863,-57.311867,-1.2179108,-13.7796335,87.89977,-2.6461842,-15.000033,-59.05972,-6.176865,7.5162196,89.94541,-3.4765222,15.000033,-1.4884901,-1.4081438,26.4775,15.693327,27.4108,-34.16611,-4.143055,36.330334,1.1757177,25.708164,12.805695,-24.433647,33.692066,-2.5170057,-46.727406,-10.546346,-26.05059
4,0.08738941699266434,2.332763433456421,42.84917068481445,0.7275208567375563,-30.660526761616918,-89.73500858729265,-57.31322,-1.2131711,-13.779291,87.90038,-2.6482158,-15.000033,-59.061497,-6.17425,7.51415,89.94514,-3.4757986,15.000033,-1.4850912,-1.4068431,26.476088,15.697596,27.419348,-34.167076,-4.1503267,36.3259,1.1748657,25.710262,12.809595,-24.438097,33.69218,-2.5230224,-46.72545,-10.547275,-26.044529
5,0.08748773485422134,2.3305163383483887,42.84733200073242,0.7310214963573731,-30.658643547992313,-89.73639808527072,-57.313957,-1.214075,-13.776652,87.90028,-2.65034,-15.000033,-59.06498,-6.1757817,7.5153103,89.94728,-3.4772234,15.000033,-1.482042,-1.4117426,26.476149,15.703207,27.43253,-34.166508,-4.156034,36.324913,1.1602937,25.720768,12.81154,-24.444996,33.693115,-2.5298746,-46.71522,-10.552783,-26.044128
6,0.09095174074172974,2.3291878700256348,42.84866714477539,0.7370602105154838,-30.656707952704885,-89.73703048702546,-57.314423,-1.2190076,-13.772332,87.90004,-2.6525598,-15.000033,-59.069324,-6.18039,7.5188475,89.95092,-3.480057,15.000033,-1.4807402,-1.419679,26.47616,15.708758,27.437534,-34.164753,-4.1555,36.33272,1.1377616,25.735,12.812,-24.44769,33.694546,-2.5347104,-46.704365,-10.560668,-26.045296
7,0.086860291659832,2.3270764350891113,42.8455924987793,0.7439238561251655,-30.653882612074895,-89.73763815056566,-57.31637,-1.224891,-13.768647,87.89957,-2.6533647,-15.000033,-59.075165,-6.184168,7.52369,89.954865,-3.4820125,15.000033,-1.4800165,-1.4272177,26.474209,15.709523,27.440968,-34.163704,-4.14869,36.34072,1.1164275,25.748186,12.80982,-24.44961,33.69635,-2.5346298,-46.69463,-10.567648,-26.04645
8,0.08579909801483154,2.326735734939575,42.84749221801758,0.7461004273757473,-30.649087951185887,-89.73743525301389,-57.321213,-1.2283585,-13.767345,87.89923,-2.6519446,-15.000033,-59.08278,-6.1836243,7.529357,89.95836,-3.4811788,15.000033,-1.4811988,-1.431561,26.470364,15.714229,27.446472,-34.162083,-4.1501646,36.345547,1.1076611,25.75647,12.807341,-24.45278,33.70069,-2.5352657,-46.68949,-10.567355,-26.045227
9,0.08563140034675598,2.327639579772949,42.850563049316406,0.7445889597777974,-30.640423360966643,-89.73728071322866,-57.331875,-1.2278457,-13.7702875,87.89871,-2.6455119,-15.000033,-59.09401,-6.174707,7.5371227,89.9607,-3.4747252,15.000033,-1.4830672,-1.4280287,26.461248,15.7145195,27.449615,-34.16293,-4.1534414,36.348286,1.1214765,25.75295,12.805749,-24.45469,33.703053,-2.5328262,-46.69771,-10.555809,-26.035475
10,0.08646181970834732,2.328341245651245,42.852657318115234,0.738242447077544,-30.62855425655205,-89.73631451294062,-57.347023,-1.22573,-13.776461,87.89793,-2.636294,-15.000033,-59.109035,-6.1606197,7.5465937,89.96299,-3.463999,15.000033,-1.4854895,-1.4200488,26.447758,15.715278,27.455282,-34.167225,-4.1626587,36.34745,1.1509167,25.744442,12.804339,-24.458359,33.707268,-2.5301123,-46.7115,-10.534779,-26.022745
11,0.08581267297267914,2.328813314437866,42.853118896484375,0.732683263616023,-30.617910132743308,-89.73536188887994,-57.360405,-1.2234215,-13.782339,87.897385,-2.627629,-15.000033,-59.121944,-6.1474714,7.554829,89.96461,-3.4545758,15.000033,-1.4877757,-1.4112834,26.436176,15.715967,27.457918,-34.171047,-4.171918,36.34685,1.1802623,25.735506,12.80487,-24.460135,33.70942,-2.5285957,-46.725983,-10.515653,-26.011047
12,0.08822545409202576,2.331705093383789,42.85625457763672,0.7306217207957356,-30.612758895469835,-89.73528379233436,-57.366825,-1.2231928,-13.785098,87.89777,-2.6241925,-15.000033,-59.128307,-6.142082,7.5585318,89.96561,-3.4512386,15.000033,-1.4882228,-1.4070446,26.429806,15.715613,27.460348,-34.175037,-4.174649,36.345806,1.1932161,25.733904,12.805241,-24.461832,33.711136,-2.5257971,-46.73312,-10.508958,-26.007927
13,0.08533047884702682,2.331458330154419,42.85622787475586,0.7347269567028809,-30.615969240699958,-89.7356346553223,-57.362125,-1.2267404,-13.783794,87.899796,-2.6291904,-15.000033,-59.12358,-6.1483593,7.554596,89.965385,-3.4576378,15.000033,-1.4859906,-1.4086797,26.43323,15.718814,27.465467,-34.179214,-4.1755457,36.34312,1.1807687,25.745926,12.808032,-24.465162,33.71155,-2.5273361,-46.725727,-10.520781,-26.019585
14,0.08485222607851028,2.3280134201049805,42.850921630859375,0.7427989600484013,-30.62407222692325,-89.73688494291946,-57.35093,-1.2322183,-13.780458,87.90303,-2.6392665,-15.000033,-59.112278,-6.162279,7.544981,89.96375,-3.469987,15.000033,-1.4837589,-1.4137795,26.44212,15.721693,27.466833,-34.179585,-4.171347,36.340958,1.1529562,25.761873,12.808569,-24.465944,33.711308,-2.52708,-46.71167,-10.544212,-26.037868
15,0.08611458539962769,2.3257551193237305,42.84793472290039,0.7514986542369607,-30.634351560079924,-89.73806581804224,-57.337093,-1.237849,-13.774795,87.90564,-2.6498206,-15.000033,-59.098938,-6.17723,7.536268,89.96286,-3.4839385,15.000033,-1.481121,-1.4213277,26.453331,15.724664,27.468224,-34.179195,-4.164595,36.33892,1.1212001,25.780062,12.808452,-24.466661,33.710896,-2.524505,-46.696213,-10.571955,-26.05895
16,0.0827929750084877,2.3236827850341797,42.84682083129883,0.7578654833091791,-30.639371640643095,-89.73907846907225,-57.329647,-1.2402819,-13.769963,87.90647,-2.6568785,-15.000033,-59.092506,-6.187086,7.530686,89.962204,-3.4923596,15.000033,-1.478983,-1.4254745,26.45919,15.725722,27.468874,-34.178665,-4.1636577,36.33749,1.1084702,25.786911,12.808637,-24.466963,33.710762,-2.5255861,-46.686745,-10.586719,-26.069752
17,0.08179954439401627,2.3194456100463867,42.84185791015625,0.7621254625019712,-30.641359822110125,-89.739446123234,-57.326225,-1.23893,-13.762384,87.90443,-2.6588254,-15.000033,-59.09185,-6.1906734,7.5326953,89.96446,-3.4969473,15.000033,-1.4764576,-1.430615,26.463503,15.726167,27.472912,-34.175167,-4.1714644,36.33843,1.119628,25.780209,12.808056,-24.469074,33.71045,-2.5280344,-46.68213,-10.592497,-26.071861
18,0.08155643939971924,2.3210349082946777,42.84270477294922,0.7650041135301984,-30.64023523096009,-89.74027294931636,-57.326702,-1.2344096,-13.753897,87.90055,-2.6582868,-15.000033,-59.09542,-6.190897,7.5370884,89.96696,-3.4986036,15.000033,-1.4732339,-1.4335076,26.46411,15.725711,27.473988,-34.17311,-4.1854253,36.341484,1.1497936,25.76367,12.807487,-24.46978,33.710308,-2.5331519,-46.680527,-10.58862,-26.066431
19,0.08255846053361893,2.322442054748535,42.842952728271484,0.7666759810094824,-30.636575192344882,-89.74101419223548,-57.330406,-1.2293792,-13.746477,87.896164,-2.6550066,-15.000033,-59.1023,-6.1880975,7.543749,89.969505,-3.4969926,15.000033,-1.4723254,-1.4359723,26.4636,15.728318,27.477629,-34.16668,-4.2027297,36.34376,1.1787155,25.744577,12.807279,-24.47261,33.710995,-2.540985,-46.682526,-10.579786,-26.05706
20,0.08266504108905792,2.3249967098236084,42.846229553222656,0.7675229300395955,-30.63005097077573,-89.74116645006542,-57.337425,-1.2263238,-13.742856,87.89202,-2.6486995,-15.000033,-59.111774,-6.1827717,7.5514083,89.97082,-3.4906871,15.000033,-1.4722625,-1.43563,26.458668,15.728516,27.478874,-34.16469,-4.2075987,36.342888,1.1894662,25.734001,12.806996,-24.473698,33.71204,-2.544632,-46.68878,-10.56734,-26.046707
21,0.08027955144643784,2.327486991882324,42.848995208740234,0.7630855528669349,-30.617256346526297,-89.7395385835707,-57.352016,-1.2262388,-13.745339,87.88736,-2.635056,-15.000033,-59.12714,-6.171625,7.562509,89.969154,-3.4749868,15.000033,-1.4758655,-1.431788,26.447605,15.728161,27.479826,-34.16397,-4.198673,36.334915,1.1717565,25.732769,12.8053875,-24.474548,33.713966,-2.5441694,-46.703796,-10.546338,-26.031511
22,0.08331334590911865,2.3289573192596436,42.85588073730469,0.7574757347657253,-30.599005078320104,-89.73733300461369,-57.372997,-1.2279807,-13.7524,87.88257,-2.6165657,-15.000033,-59.14843,-6.155858,7.576415,89.966415,-3.4515862,15.000033,-1.4822437,-1.4255061,26.430548,15.728448,27.481178,-34.164093,-4.180755,36.32194,1.1361513,25.73747,12.80399,-24.475739,33.718567,-2.542289,-46.725914,-10.51653,-26.012419
23,0.08656082302331924,2.3317039012908936,42.862709045410156,0.751482036398693,-30.583142450492225,-89.73518886771895,-57.39139,-1.2296371,-13.759113,87.87889,-2.59993,-15.000033,-59.166824,-6.1411242,7.5887804,89.963974,-3.4308317,15.000033,-1.4880477,-1.4192895,26.415764,15.729299,27.482088,-34.164715,-4.163434,36.3111,1.0989282,25.74487,12.802512,-24.476505,33.722256,-2.5393972,-46.745766,-10.491076,-25.996248
24,0.08943428844213486,2.333399772644043,42.86602783203125,0.750059372460283,-30.576816533709632,-89.73545851202707,-57.39878,-1.2303393,-13.761947,87.87849,-2.5942395,-15.000033,-59.174667,-6.134461,7.594065,89.96378,-3.4223406,15.000033,-1.4903349,-1.4163494,26.409838,15.730079,27.4826,-34.16515,-4.154043,36.307583,1.0757366,25.751762,12.80216,-24.476913,33.724304,-2.5375528,-46.753887,-10.481045,-25.99003
25,0.08786061406135559,2.333099842071533,42.86514663696289,0.7540823753870846,-30.58315285059462,-89.73921954835613,-57.391747,-1.2277977,-13.758203,87.88281,-2.6038654,-15.000033,-59.168518,-6.139239,7.588191,89.96663,-3.4320097,15.000033,-1.4878978,-1.4175857,26.412233,15.732967,27.48387,-34.165276,-4.1497965,36.31362,1.062465,25.76369,12.803442,-24.477968,33.728973,-2.5353308,-46.743618,-10.4929695,-26.000856
26,0.08513912558555603,2.33007550239563,42.85917663574219,0.7616796744962697,-30.59981358487289,-89.74487713617411,-57.372963,-1.2241116,-13.750157,87.89084,-2.6242037,-15.000033,-59.151253,-6.1513677,7.5754128,89.97265,-3.4546576,15.000033,-1.4825401,-1.4221667,26.425348,15.738294,27.485891,-34.163414,-4.1568727,36.32863,1.06135,25.775246,12.806794,-24.479582,33.731705,-2.5349395,-46.720303,-10.52399,-26.02374
27,0.08438418805599213,2.3243401050567627,42.85128402709961,0.7708971564712617,-30.6178393695955,-89.75116949932145,-57.352615,-1.2203959,-13.742046,87.89914,-2.6462867,-15.000033,-59.13183,-6.1653385,7.5611563,89.97787,-3.4791641,15.000033,-1.4762249,-1.4269947,26.440203,15.742646,27.48689,-34.161755,-4.1655507,36.34397,1.0640112,25.786741,12.809217,-24.480371,33.73182,-2.5348234,-46.697617,-10.554453,-26.044823
28,0.08280220627784729,2.3201723098754883,42.84291076660156,0.7759666275171786,-30.62839124519993,-89.7545352527545,-57.341095,-1.2179528,-13.738176,87.904686,-2.661351,-15.000033,-59.119766,-6.174913,7.5502877,89.9797,-3.4950502,15.000033,-1.4731854,-1.4286866,26.448706,15.745023,27.487211,-34.16117,-4.1703787,36.350945,1.0657121,25.796312,12.811152,-24.480585,33.731567,-2.5379508,-46.689606,-10.565098,-26.052084
29,0.08366899192333221,2.3191819190979004,42.837547302246094,0.7768546833471658,-30.632964957344573,-89.7551222323653,-57.336246,-1.2182204,-13.739724,87.90675,-2.668563,-15.000033,-59.112675,-6.1787553,7.54568,89.977104,-3.5014105,15.000033,-1.4733909,-1.429789,26.45423,15.749773,27.488134,-34.16063,-4.1750455,36.349213,1.0674725,25.807026,12.811782,-24.481144,33.72986,-2.5454586,-46.70422,-10.547009,-26.03903
30,0.08371616899967194,2.320565700531006,42.83629608154297,0.7740553734047276,-30.63200226333669,-89.75349836905968,-57.338245,-1.2200404,-13.745399,87.90741,-2.672056,-15.000033,-59.11073,-6.1804204,7.5424547,89.971146,-3.5016677,15.000033,-1.4759319,-1.4285761,26.455402,15.752326,27.48908,-34.161102,-4.1781983,36.33854,1.0708196,25.816938,12.811325,-24.481571,33.727608,-2.5570717,-46.733994,-10.507744,-26.01078
31,0.08119828253984451,2.3203375339508057,42.83759689331055,0.7698508291822096,-30.628653746969228,-89.75106446696334,-57.342747,-1.2217853,-13.751641,87.906555,-2.6717696,-15.000033,-59.11129,-6.1799335,7.5414524,89.96466,-3.4983807,15.000033,-1.4790636,-1.4261192,26.455597,15.75389,27.490446,-34.16315,-4.180713,36.327477,1.074223,25.826311,12.812868,-24.48209,33.723606,-2.5730536,-46.76396,-10.466638,-25.980824
32,0.08238916844129562,2.3236451148986816,42.84243392944336,0.7666164742907452,-30.625497642640028,-89.74824172460674,-57.346695,-1.2224483,-13.754636,87.90433,-2.6681292,-15.000033,-59.113228,-6.177833,7.54348,89.96111,-3.4938214,15.000033,-1.483782,-1.4245629,26.454603,15.754558,27.491158,-34.164383,-4.179441,36.323334,1.0746375,25.83261,12.812422,-24.482294,33.7215,-2.5788527,-46.776836,-10.449701,-25.96931
33,0.0830700695514679,2.3248379230499268,42.845741271972656,0.7617893597338358,-30.62243881780128,-89.74328111666756,-57.3494,-1.222034,-13.75296,87.900085,-2.660359,-15.000033,-59.116573,-6.174377,7.5493326,89.96089,-3.485788,15.000033,-1.4913868,-1.4230831,26.45411,15.754838,27.49191,-34.16558,-4.1753187,36.331497,1.0694274,25.838387,12.811928,-24.482513,33.719563,-2.5783682,-46.765175,-10.465006,-25.980278
34,0.08474206924438477,2.32719087600708,42.849815368652344,0.7548399666179614,-30.618480379504074,-89.73600695766957,-57.35252,-1.2207925,-13.748079,87.8938,-2.6478832,-15.000033,-59.121834,-6.1689982,7.559158,89.962845,-3.4745605,15.000033,-1.5011524,-1.42155,26.453186,15.755248,27.493656,-34.166885,-4.169411,36.347015,1.0603751,25.842905,12.809416,-24.483055,33.717106,-2.5704606,-46.736946,-10.502921,-26.00723
35,0.08704504370689392,2.327676296234131,42.853294372558594,0.750351672293765,-30.61424072136311,-89.73053205356207,-57.356113,-1.2192656,-13.74372,87.888145,-2.635013,-15.000033,-59.12816,-6.1625376,7.5691886,89.96549,-3.4631844,15.000033,-1.5104822,-1.4204816,26.451302,15.755036,27.494902,-34.16704,-4.163332,36.361134,1.0530779,25.843645,12.807491,-24.483496,33.716286,-2.5628102,-46.70706,-10.542113,-26.035591
36,0.08744394034147263,2.3286490440368652,42.85712432861328,0.74767336205602,-30.60969291209181,-89.72980234085342,-57.360287,-1.2178043,-13.743494,87.88497,-2.6257386,-15.000033,-59.134422,-6.15537,7.5759063,89.967125,-3.4549363,15.000033,-1.5158441,-1.4189997,26.447126,15.755287,27.495745,-34.166782,-4.1601214,36.3653,1.052425,25.83863,12.80622,-24.483772,33.715996,-2.5567453,-46.687714,-10.566709,-26.053293
37,0.08801256120204926,2.331500768661499,42.86164855957031,0.7487477420442513,-30.60310030311271,-89.73708777066591,-57.367355,-1.2157964,-13.750724,87.88614,-2.6202896,-15.000033,-59.14341,-6.1448956,7.5785136,89.96805,-3.4495735,15.000033,-1.5136311,-1.4164938,26.438826,15.7537,27.497076,-34.166,-4.159854,36.352882,1.0617032,25.823435,12.807109,-24.484194,33.715797,-2.5560532,-46.68513,-10.566587,-26.053106
38,0.08890216052532196,2.329381227493286,42.861209869384766,0.7513054604888798,-30.59505187529206,-89.74964196951584,-57.376026,-1.2134305,-13.762697,87.88979,-2.6168396,-15.000033,-59.15399,-6.132003,7.5788407,89.96826,-3.4459648,15.000033,-1.5061383,-1.4130965,26.42784,15.752082,27.499262,-34.164776,-4.163018,36.330788,1.0775186,25.800673,12.813098,-24.48472,33.715218,-2.5624082,-46.691784,-10.552514,-26.043196
39,0.08871589601039886,2.326638698577881,42.86096954345703,0.7546732832261893,-30.58903401459491,-89.76179812937652,-57.382656,-1.2117664,-13.773864,87.89421,-2.6165392,-15.000033,-59.16202,-6.1220016,7.577237,89.96812,-3.4448965,15.000033,-1.4983242,-1.4104007,26.418291,15.750178,27.500666,-34.16428,-4.167482,36.307076,1.0960217,25.77794,12.817439,-24.485012,33.714676,-2.5674698,-46.699562,-10.536663,-26.031374
40,0.0883789137005806,2.324737071990967,42.85804748535156,0.7574917976667724,-30.588369183207067,-89.76848828019182,-57.38351,-1.2118223,-13.778598,87.897095,-2.620078,-15.000033,-59.16311,-6.120502,7.573946,89.9675,-3.447373,15.000033,-1.4952724,-1.4100156,26.415045,15.749299,27.501549,-34.16444,-4.17367,36.28966,1.1124979,25.762875,12.820669,-24.485136,33.714153,-2.5714915,-46.702156,-10.530828,-26.026573
41,0.08586958050727844,2.3244521617889404,42.85292434692383,0.7613359100387297,-30.596062859705285,-89.76683237204814,-57.375313,-1.2147223,-13.7734995,87.897705,-2.6307523,-15.000033,-59.153122,-6.1324944,7.56757,89.96587,-3.4562423,15.000033,-1.4976833,-1.413458,26.42171,15.748081,27.50325,-34.166817,-4.1847835,36.278645,1.1305902,25.755974,12.820618,-24.485357,33.71302,-2.5730922,-46.69266,-10.541321,-26.032808
42,0.08489791303873062,2.323819398880005,42.84734344482422,0.7671236194849947,-30.609810289287115,-89.76051807388264,-57.36051,-1.2198017,-13.761967,87.89738,-2.6470122,-15.000033,-59.135147,-6.1539755,7.55856,89.96345,-3.4703808,15.000033,-1.5042703,-1.4191486,26.435863,15.748175,27.504522,-34.17049,-4.2019334,36.27129,1.1521755,25.754436,12.817911,-24.485422,33.71188,-2.5727515,-46.676968,-10.561628,-26.04547
43,0.08262384682893753,2.323774814605713,42.84475326538086,0.7720314925545901,-30.62444849338208,-89.75278752860248,-57.34462,-1.2249972,-13.749392,87.896515,-2.6630623,-15.000033,-59.116226,-6.1766343,7.549656,89.961365,-3.4839106,15.000033,-1.5113097,-1.4245795,26.450691,15.748621,27.50609,-34.175697,-4.216551,36.267467,1.1684029,25.758268,12.816429,-24.485321,33.710102,-2.5733361,-46.66315,-10.581033,-26.057878
44,0.08326002955436707,2.326050281524658,42.84402084350586,0.774307743726802,-30.63497202944067,-89.74656999513506,-57.332912,-1.2283459,-13.740658,87.89606,-2.6725626,-15.000033,-59.102455,-6.1919374,7.543782,89.96011,-3.4919276,15.000033,-1.5174501,-1.4279125,26.459953,15.749068,27.507061,-34.17853,-4.221471,36.267662,1.1713753,25.764791,12.814983,-24.485178,33.70892,-2.5744784,-46.65773,-10.589536,-26.06284
45,0.08232530951499939,2.3251359462738037,42.84369659423828,0.7730298961806387,-30.642009414024145,-89.74153086387989,-57.324436,-1.229755,-13.735825,87.896225,-2.6740391,-15.000033,-59.094364,-6.198512,7.5427814,89.96161,-3.4929662,15.000033,-1.5221094,-1.4289445,26.464098,15.750294,27.508223,-34.180843,-4.2154694,36.273617,1.1568135,25.778282,12.814204,-24.485003,33.707428,-2.5753655,-46.666344,-10.584428,-26.060612
46,0.08408806473016739,2.324193000793457,42.84614181518555,0.7695166580136965,-30.647773962710037,-89.73651714761294,-57.31674,-1.2301137,-13.732866,87.89651,-2.6704648,-15.000033,-59.08834,-6.200445,7.544414,89.96473,-3.4900289,15.000033,-1.5262527,-1.4281158,26.466438,15.751758,27.510132,-34.183304,-4.199233,36.284657,1.1253418,25.801153,12.817988,-24.484592,33.704643,-2.581468,-46.685333,-10.569687,-26.05356
47,0.08595134317874908,2.3256585597991943,42.848026275634766,0.7642461641894998,-30.649984616550043,-89.73264751006653,-57.31359,-1.2293667,-13.732717,87.89658,-2.6635718,-15.000033,-59.086674,-6.1982327,7.5470104,89.96757,-3.484024,15.000033,-1.5279785,-1.4261328,26.4647,15.753105,27.512878,-34.18507,-4.1819167,36.296776,1.0931284,25.821157,12.82119,-24.48409,33.70092,-2.5863671,-46.70601,-10.551367,-26.040312
48,0.08711369335651398,2.326594829559326,42.85002899169922,0.7587763969389476,-30.64735389307952,-89.73204437738053,-57.31639,-1.2270684,-13.736193,87.8956,-2.655004,-15.000033,-59.08988,-6.1921587,7.548822,89.96783,-3.4766672,15.000033,-1.5275301,-1.4220959,26.459333,15.752978,27.515345,-34.185616,-4.169064,36.305763,1.0716493,25.832027,12.825202,-24.483707,33.696907,-2.5930634,-46.722645,-10.533419,-26.019365
49,0.08946274220943451,2.3273327350616455,42.85237121582031,0.752431377390896,-30.635607134706948,-89.73602521857013,-57.330322,-1.2221078,-13.74709,87.89253,-2.6425643,-15.000033,-59.1028,-6.1786666,7.5492206,89.96428,-3.4645271,15.000033,-1.5248729,-1.4143212,26.445738,15.750146,27.517181,-34.184753,-4.159379,36.31209,1.0650138,25.829176,12.823715,-24.483604,33.694977,-2.594571,-46.73495,-10.512362,-25.9824
50,0.09086278825998306,2.3286945819854736,42.85584259033203,0.7437233848922354,-30.616792862522836,-89.74292407288947,-57.35289,-1.2146069,-13.763544,87.88796,-2.6255407,-15.000033,-59.123554,-6.158436,7.549244,89.95815,-3.4483833,15.000033,-1.5202234,-1.4029968,26.425493,15.744746,27.518415,-34.182915,-4.149137,36.316216,1.0652024,25.818087,12.822614,-24.483662,33.693577,-2.598189,-46.74642,-10.486268,-25.93156
51,0.09186140447854996,2.3298676013946533,42.860443115234375,0.7353195767576137,-30.598174199067113,-89.75030008482739,-57.375546,-1.2078402,-13.779692,87.884186,-2.6106362,-15.000033,-59.143894,-6.1395054,7.548442,89.95191,-3.4343393,15.000033,-1.5142851,-1.3928536,26.405552,15.738683,27.520035,-34.179436,-4.1412745,36.316925,1.0689374,25.80396,12.823098,-24.483934,33.690804,-2.6048784,-46.75251,-10.463306,-25.882664
52,0.0931100994348526,2.33172607421875,42.862552642822266,0.7330920622691973,-30.590883224443395,-89.7538294431845,-57.384644,-1.2068603,-13.787739,87.88248,-2.6046646,-15.000033,-59.152065,-6.1313143,7.5487504,89.94914,-3.4301167,15.000033,-1.510884,-1.3888735,26.396488,15.73836,27.520897,-34.17715,-4.1412935,36.31606,1.0756348,25.797459,12.824968,-24.48408,33.68906,-2.6077745,-46.751553,-10.456558,-25.86383
53,0.09245463460683823,2.3308191299438477,42.85999298095703,0.7412016320308781,-30.5989109232253,-89.75369596727161,-57.37519,-1.2144712,-13.7844925,87.884384,-2.6125743,-15.000033,-59.144257,-6.138495,7.55032,89.9516,-3.4407947,15.000033,-1.5100828,-1.394809,26.401823,15.744968,27.521288,-34.175274,-4.1526346,36.308414,1.0880829,25.799324,12.829494,-24.48405,33.687084,-2.6086936,-46.737415,-10.472519,-25.883478
54,0.08895042538642883,2.329653024673462,42.85567855834961,0.753531952958293,-30.617168410125657,-89.7500326529369,-57.353977,-1.2281657,-13.773954,87.88911,-2.629852,-15.000033,-59.12554,-6.155909,7.552697,89.957504,-3.4618742,15.000033,-1.5108312,-1.4071748,26.416855,15.7568,27.521452,-34.173702,-4.172616,36.296204,1.1062653,25.806257,12.8348255,-24.483826,33.685005,-2.606327,-46.713505,-10.505169,-25.930405
55,0.08559753000736237,2.3280489444732666,42.84941101074219,0.7689794654179125,-30.637735297132753,-89.74619418970467,-57.329697,-1.2419374,-13.761511,87.89344,-2.648414,-15.000033,-59.103756,-6.1758733,7.554597,89.96348,-3.483914,15.000033,-1.5120082,-1.420036,26.433939,15.773253,27.521572,-34.17072,-4.1963544,36.287693,1.1219277,25.814531,12.840357,-24.482952,33.681793,-2.602576,-46.68895,-10.541307,-25.983192
56,0.08230487257242203,2.328277826309204,42.84482192993164,0.7760692034710617,-30.652029306382854,-89.74227493370107,-57.31379,-1.2495373,-13.752677,87.897194,-2.660654,-15.000033,-59.088497,-6.1901093,7.554024,89.96728,-3.4976513,15.000033,-1.5124102,-1.4270018,26.445324,15.784833,27.521357,-34.1666,-4.2115593,36.287224,1.1260893,25.82096,12.845854,-24.482016,33.678307,-2.6014903,-46.67252,-10.565604,-26.020947
57,0.08139089494943619,2.3274314403533936,42.84354019165039,0.7756834386732016,-30.658257815380768,-89.7390174532092,-57.30776,-1.2482529,-13.74795,87.8984,-2.6640205,-15.000033,-59.080067,-6.1982794,7.549617,89.9672,-3.499601,15.000033,-1.5108178,-1.4261191,26.448902,15.789635,27.520918,-34.161427,-4.2125707,36.301258,1.1109759,25.827724,12.851239,-24.48093,33.67358,-2.6037138,-46.66515,-10.573765,-26.040712
58,0.08216935396194458,2.327690362930298,42.8448600769043,0.7714249999225741,-30.66101826988404,-89.73571360581073,-57.30668,-1.242244,-13.74506,87.89922,-2.6637259,-15.000033,-59.074905,-6.204061,7.542306,89.96507,-3.4945934,15.000033,-1.5080452,-1.4206668,26.44989,15.792768,27.520082,-34.153507,-4.2078733,36.32709,1.0814317,25.834135,12.860511,-24.47934,33.665726,-2.6113684,-46.664673,-10.57539,-26.052319
59,0.08404068648815155,2.3280704021453857,42.84659194946289,0.7635776300904834,-30.66097837128788,-89.73279599858223,-57.308807,-1.2341614,-13.744196,87.89916,-2.6604297,-15.000033,-59.07261,-6.2062902,7.535054,89.962265,-3.487156,15.000033,-1.5041935,-1.4133822,26.449274,15.793867,27.518946,-34.143646,-4.2016306,36.352444,1.0515225,25.835262,12.869843,-24.477688,33.655037,-2.6200233,-46.669918,-10.573622,-26.053755
60,0.08580540120601654,2.3284554481506348,42.84659194946289,0.7555078560324492,-30.65908436120737,-89.73127370675296,-57.311745,-1.2274361,-13.746182,87.89794,-2.6558816,-15.000033,-59.073017,-6.204357,7.530262,89.95995,-3.4810805,15.000033,-1.5006245,-1.4060231,26.446712,15.795491,27.517986,-34.137577,-4.200284,36.36398,1.0385745,25.831013,12.876489,-24.47665,33.64849,-2.6271558,-46.676075,-10.567167,-26.048893
61,0.08587394654750824,2.329573631286621,42.8487663269043,0.7481857166569537,-30.653378973039118,-89.73286380296807,-57.31824,-1.22199,-13.753007,87.89581,-2.6491153,-15.000033,-59.078865,-6.1949983,7.5285463,89.9588,-3.4768362,15.000033,-1.496836,-1.3982044,26.441679,15.797535,27.516863,-34.132896,-4.2058663,36.35491,1.0486768,25.815258,12.879585,-24.475878,33.643917,-2.6321511,-46.68589,-10.556328,-26.031586
62,0.08460959047079086,2.3305513858795166,42.85051345825195,0.7398311456264905,-30.644196792823458,-89.73618967328505,-57.32764,-1.2161269,-13.76372,87.892136,-2.6395807,-15.000033,-59.089287,-6.1796455,7.528567,89.957695,-3.4723165,15.000033,-1.4924507,-1.3891416,26.434214,15.800548,27.515606,-34.128605,-4.216258,36.33432,1.07241,25.790281,12.880441,-24.47541,33.64033,-2.6364956,-46.69965,-10.540958,-26.002594
63,0.08809075504541397,2.3297483921051025,42.85096740722656,0.7336457144069407,-30.635574793611237,-89.74042950810285,-57.33604,-1.2116809,-13.774576,87.88842,-2.6306098,-15.000033,-59.09916,-6.1639185,7.529824,89.9568,-3.4684365,15.000033,-1.489739,-1.3809469,26.42797,15.805337,27.512205,-34.120895,-4.229235,36.31363,1.0987685,25.76245,12.880862,-24.474693,33.635735,-2.6413865,-46.715702,-10.52582,-25.970179
64,0.08927489817142487,2.3316030502319336,42.85260009765625,0.730468269902734,-30.63228103123258,-89.74258997157494,-57.339394,-1.2107629,-13.78156,87.88699,-2.6259675,-15.000033,-59.10322,-6.153781,7.532417,89.9561,-3.4659495,15.000033,-1.4875417,-1.376926,26.424524,15.808812,27.510899,-34.117565,-4.2396345,36.301147,1.1195459,25.743937,12.881263,-24.474497,33.634396,-2.6439254,-46.72963,-10.512189,-25.946815
65,0.08958432823419571,2.332683563232422,42.85348892211914,0.733660818968225,-30.636846532692832,-89.74264438912587,-57.33432,-1.2160461,-13.78342,87.88793,-2.627363,-15.000033,-59.098972,-6.151045,7.5383053,89.95589,-3.465373,15.000033,-1.4878025,-1.3793861,26.427526,15.814688,27.508112,-34.11138,-4.250898,36.304012,1.131499,25.733398,12.880296,-24.473967,33.632435,-2.6437063,-46.742237,-10.503061,-25.93151
66,0.08362691104412079,2.335177421569824,42.852874755859375,0.7399084038430338,-30.64563865451904,-89.74085646832113,-57.325085,-1.2254391,-13.782796,87.890465,-2.6320703,-15.000033,-59.090054,-6.1522703,7.5460277,89.95544,-3.4659822,15.000033,-1.4882025,-1.3854632,26.432228,15.817174,27.507412,-34.109135,-4.25739,36.312225,1.1389296,25.729872,12.879963,-24.47376,33.631824,-2.641244,-46.753372,-10.496181,-25.922821
67,0.08526905626058578,2.3359365463256836,42.84906005859375,0.7501807673099272,-30.65724076320849,-89.7395380822597,-57.312504,-1.2348024,-13.779545,87.89336,-2.6389492,-15.000033,-59.078148,-6.1562014,7.553845,89.95578,-3.467694,15.000033,-1.4900467,-1.3932815,26.44113,15.823871,27.505817,-34.10352,-4.269846,36.325542,1.1453584,25.727123,12.879841,-24.473059,33.63069,-2.640973,-46.766106,-10.489792,-25.914982
68,0.08165526390075684,2.335876226425171,42.848365783691406,0.7545312377850877,-30.66402560406579,-89.73897810195838,-57.305573,-1.2376435,-13.776672,87.89616,-2.6445575,-15.000033,-59.0707,-6.159534,7.55581,89.955795,-3.4689734,15.000033,-1.4925038,-1.3980943,26.445227,15.833798,27.502504,-34.091976,-4.2801347,36.337395,1.1450033,25.723381,12.877382,-24.471424,33.63048,-2.6385224,-46.77586,-10.486297,-25.90918
69,0.0774494931101799,2.334825277328491,42.84547424316406,0.7537420702294123,-30.66507732271834,-89.74058593609458,-57.305344,-1.230943,-13.773166,87.89886,-2.6494544,-15.000033,-59.068928,-6.1629496,7.549579,89.95611,-3.4702666,15.000033,-1.4881927,-1.3974116,26.442038,15.835263,27.50184,-34.08985,-4.2815347,36.34086,1.1411433,25.724073,12.877716,-24.47116,33.630398,-2.6368513,-46.781425,-10.480831,-25.90795
70,0.07788743823766708,2.3353028297424316,42.848148345947266,0.7519052881301685,-30.663180636293518,-89.74390725957973,-57.30865,-1.2175478,-13.768853,87.901794,-2.6545956,-15.000033,-59.06987,-6.1668854,7.5376616,89.95667,-3.4715753,15.000033,-1.4835099,-1.3939157,26.435493,15.840811,27.497448,-34.081146,-4.281102,36.347202,1.1280919,25.72332,12.880891,-24.469965,33.630367,-2.637778,-46.788506,-10.475462,-25.908014
71,0.08014050126075745,2.3330845832824707,42.84969711303711,0.7484022788665204,-30.660719828353425,-89.7465481398051,-57.31262,-1.2039547,-13.764459,87.904274,-2.658819,-15.000033,-59.071865,-6.1709127,7.5254893,89.95768,-3.4731853,15.000033,-1.477952,-1.3895407,26.428852,15.84145,27.496582,-34.07964,-4.279573,36.347466,1.1202438,25.727062,12.882417,-24.469856,33.63015,-2.6374533,-46.79031,-10.47296,-25.911873
72,0.08154986798763275,2.3288683891296387,42.84868240356445,0.7434581974068909,-30.658103336744325,-89.7484626946287,-57.31659,-1.19389,-13.762494,87.906136,-2.6606104,-15.000033,-59.074226,-6.172095,7.516604,89.958374,-3.474265,15.000033,-1.4747593,-1.3848433,26.42298,15.843378,27.495249,-34.07756,-4.2781186,36.345276,1.1168323,25.732395,12.886109,-24.469774,33.629448,-2.6389341,-46.789883,-10.475691,-25.919043
73,0.08063014596700668,2.3263466358184814,42.848358154296875,0.739786562029964,-30.656307561371417,-89.74995976410713,-57.31977,-1.1883694,-13.762767,87.90712,-2.65906,-15.000033,-59.07662,-6.169735,7.512841,89.95931,-3.4757032,15.000033,-1.4760082,-1.3804896,26.419477,15.846241,27.493011,-34.076443,-4.2778187,36.338726,1.1254176,25.74342,12.889106,-24.469753,33.6282,-2.640225,-46.784416,-10.489579,-25.93177
74,0.08268270641565323,2.325063467025757,42.84679412841797,0.7346066671468455,-30.6549866055019,-89.75002473349551,-57.322174,-1.18543,-13.764087,87.90714,-2.6552813,-15.000033,-59.07927,-6.1655006,7.5122743,89.96087,-3.4776118,15.000033,-1.4793646,-1.3760973,26.418365,15.847975,27.491964,-34.076622,-4.2779636,36.328087,1.1406293,25.75795,12.890089,-24.46972,33.627506,-2.6423013,-46.774418,-10.507467,-25.947466
75,0.08573343604803085,2.326512575149536,42.848175048828125,0.7299063700449195,-30.653653305578274,-89.7497654540117,-57.324383,-1.1851877,-13.76692,87.906746,-2.6503394,-15.000033,-59.08209,-6.1606646,7.5131674,89.96221,-3.4787323,15.000033,-1.4846083,-1.3724806,26.417383,15.849554,27.490458,-34.077568,-4.2786493,36.316063,1.1580293,25.770664,12.890796,-24.469658,33.626637,-2.6431088,-46.763073,-10.527959,-25.964167
76,0.08761961758136749,2.3270933628082275,42.845699310302734,0.7282180781045644,-30.652901111463706,-89.74833187952039,-57.3257,-1.1894413,-13.771163,87.90626,-2.6467896,-15.000033,-59.084133,-6.1581583,7.5147905,89.96296,-3.4780724,15.000033,-1.4897408,-1.3708549,26.41522,15.8491745,27.488731,-34.079796,-4.279093,36.306522,1.1718233,25.772514,12.889831,-24.469566,33.625244,-2.6397564,-46.752583,-10.544603,-25.976473
77,0.08913657069206238,2.3312828540802,42.84897994995117,0.728996629151754,-30.65271467805549,-89.74507370180196,-57.32535,-1.2009795,-13.777935,87.904335,-2.643533,-15.000033,-59.084854,-6.157887,7.518886,89.96212,-3.4738033,15.000033,-1.4941758,-1.3731585,26.413448,15.8466625,27.487553,-34.080677,-4.280309,36.300232,1.1734171,25.752996,12.888342,-24.469418,33.624676,-2.6391225,-46.745876,-10.546684,-25.977694
78,0.08563736081123352,2.3365626335144043,42.852508544921875,0.7326682358239651,-30.652661735444,-89.74022035566784,-57.324574,-1.218681,-13.787145,87.902084,-2.6402273,-15.000033,-59.085415,-6.159179,7.5251083,89.96086,-3.4672012,15.000033,-1.49922,-1.3783551,26.410992,15.842449,27.48628,-34.080864,-4.2825346,36.294384,1.1704835,25.717407,12.885516,-24.469086,33.62437,-2.6373594,-46.73964,-10.542974,-25.973255
79,0.08455224335193634,2.336592674255371,42.851783752441406,0.7374442053099062,-30.65434631699723,-89.73502369862184,-57.321568,-1.2364827,-13.793994,87.89953,-2.637854,-15.000033,-59.08386,-6.1624017,7.5320454,89.95957,-3.4618235,15.000033,-1.5038856,-1.3852193,26.409931,15.8335285,27.48286,-34.077545,-4.280978,36.292233,1.1646075,25.676287,12.878971,-24.46742,33.624348,-2.6324525,-46.731945,-10.5369215,-25.966803
80,0.08095064759254456,2.336745023727417,42.84980773925781,0.7425538237584189,-30.658211002594136,-89.73277582042972,-57.3162,-1.2466995,-13.795386,87.89841,-2.6386702,-15.000033,-59.079727,-6.166178,7.5365925,89.95934,-3.461075,15.000033,-1.5068393,-1.3911937,26.410864,15.830958,27.481224,-34.075417,-4.2799244,36.29934,1.1602587,25.660542,12.877562,-24.466246,33.62413,-2.6312604,-46.72527,-10.535263,-25.966242
81,0.08175624907016754,2.3342158794403076,42.84660720825195,0.7501559364433742,-30.666267946776333,-89.73515261823083,-57.3062,-1.2461641,-13.787135,87.898735,-2.6444054,-15.000033,-59.070293,-6.172438,7.538002,89.96032,-3.4684894,15.000033,-1.5057817,-1.3958411,26.414753,15.831165,27.480423,-34.074654,-4.276936,36.320187,1.1601751,25.67725,12.878898,-24.465548,33.62313,-2.630605,-46.71484,-10.540431,-25.975977
82,0.08258619904518127,2.331404685974121,42.8453369140625,0.7578323942451018,-30.67817375994156,-89.73976758502323,-57.29147,-1.2395194,-13.771542,87.899956,-2.6539338,-15.000033,-59.056202,-6.181229,7.5384007,89.96239,-3.4817638,15.000033,-1.5017232,-1.4015583,26.422102,15.832449,27.480059,-34.074184,-4.2715983,36.35358,1.1613113,25.714334,12.882086,-24.4652,33.62147,-2.630396,-46.70105,-10.550024,-25.99207
83,0.08316667377948761,2.329071044921875,42.84370422363281,0.7657412423291845,-30.691119757814388,-89.74465980107661,-57.27584,-1.2311409,-13.755404,87.90158,-2.6634192,-15.000033,-59.04108,-6.1889963,7.53891,89.96503,-3.4949694,15.000033,-1.4954479,-1.4077863,26.432417,15.835546,27.478628,-34.075085,-4.263651,36.391514,1.1591545,25.758568,12.889653,-24.463974,33.614082,-2.6335235,-46.691486,-10.5626545,-26.006397
84,0.08313798904418945,2.3287572860717773,42.8448371887207,0.7663984916512782,-30.696694938020833,-89.74624134677026,-57.26994,-1.2244346,-13.747909,87.902466,-2.6670816,-15.000033,-59.03436,-6.191744,7.5375977,89.96609,-3.5005183,15.000033,-1.4936008,-1.4075189,26.435053,15.836464,27.477583,-34.07533,-4.2583165,36.40554,1.1534436,25.777578,12.896041,-24.463072,33.608368,-2.638593,-46.692993,-10.565241,-26.007278
85,0.08133742213249207,2.3293263912200928,42.846553802490234,0.756973724582613,-30.693051830029102,-89.74391325357783,-57.27674,-1.2196064,-13.753338,87.90286,-2.6626687,-15.000033,-59.03813,-6.186636,7.5338483,89.96507,-3.494786,15.000033,-1.4971611,-1.3993864,26.429235,15.835596,27.476824,-34.074146,-4.2537656,36.39019,1.138456,25.763079,12.899547,-24.46242,33.602688,-2.6446636,-46.71376,-10.554869,-25.987139
86,0.0846978947520256,2.3315038681030273,42.847557067871094,0.7391753775559744,-30.68355707192614,-89.73804703920935,-57.29234,-1.2151842,-13.766301,87.90368,-2.6531482,-15.000033,-59.04884,-6.1764646,7.528527,89.96319,-3.4821482,15.000033,-1.5045607,-1.3863094,26.41894,15.834312,27.475653,-34.070625,-4.2504478,36.356274,1.1176494,25.729055,12.901205,-24.461378,33.59552,-2.6513624,-46.747616,-10.5369215,-25.954138
87,0.08503545820713043,2.3334169387817383,42.84575653076172,0.7230040228786917,-30.672754634587896,-89.73213704440516,-57.30896,-1.2119519,-13.780552,87.90357,-2.642319,-15.000033,-59.061134,-6.1657624,7.5232644,89.96095,-3.468126,15.000033,-1.5121145,-1.3725911,26.407606,15.833281,27.473993,-34.06445,-4.248369,36.31901,1.0947957,25.68818,12.905303,-24.459974,33.58587,-2.661782,-46.781635,-10.520079,-25.916075
88,0.09061908721923828,2.3376998901367188,42.84614181518555,0.7151576014820848,-30.66747746954988,-89.72835816128416,-57.31708,-1.2120377,-13.786643,87.90234,-2.6347568,-15.000033,-59.067833,-6.1601014,7.5230885,89.960075,-3.4595833,15.000033,-1.5186915,-1.3674151,26.401392,15.834367,27.472797,-34.060616,-4.249738,36.29583,1.0830021,25.66512,12.90765,-24.458904,33.580227,-2.6687376,-46.79443,-10.514589,-25.89394
89,0.09029917418956757,2.3393750190734863,42.8446044921875,0.7212212142246253,-30.669432010561025,-89.72716211646015,-57.313168,-1.217489,-13.780532,87.89893,-2.6306806,-15.000033,-59.067924,-6.162014,7.530896,89.96152,-3.4577625,15.000033,-1.5228574,-1.3740867,26.40247,15.837239,27.47086,-34.056286,-4.2558427,36.29135,1.0837119,25.66208,12.91073,-24.45705,33.572403,-2.6743662,-46.77989,-10.526734,-25.886217
90,0.09063095599412918,2.3411591053009033,42.8450927734375,0.734892135255942,-30.67562620630769,-89.7268247666596,-57.30229,-1.226805,-13.767013,87.894135,-2.628332,-15.000033,-59.064297,-6.1678433,7.544355,89.964325,-3.4595118,15.000033,-1.5260195,-1.388444,26.407196,15.841752,27.468504,-34.05478,-4.2657313,36.29693,1.0943359,25.672266,12.91285,-24.454588,33.566425,-2.6772108,-46.74699,-10.548812,-25.889238
91,0.09017699211835861,2.3409814834594727,42.84499740600586,0.7502703281895582,-30.682880795933798,-89.72775980227759,-57.290157,-1.2361408,-13.753121,87.889786,-2.6277132,-15.000033,-59.059097,-6.1749682,7.5569797,89.96716,-3.4637675,15.000033,-1.5280496,-1.4033853,26.411833,15.84583,27.466845,-34.05492,-4.2740493,36.306805,1.1074767,25.687346,12.914646,-24.452719,33.563244,-2.6780589,-46.70859,-10.573448,-25.898914
92,0.08701431006193161,2.3388960361480713,42.84600830078125,0.7580928152073252,-30.687802590449007,-89.72881327515171,-57.282375,-1.241675,-13.746418,87.888176,-2.630115,-15.000033,-59.05448,-6.180547,7.562145,89.96847,-3.4686234,15.000033,-1.5279766,-1.4113693,26.413261,15.848842,27.46481,-34.054996,-4.277412,36.318092,1.115432,25.697994,12.916212,-24.450323,33.559944,-2.675922,-46.67818,-10.59576,-25.909214
93,0.08703359961509705,2.335118055343628,42.845394134521484,0.7571971653313152,-30.689291236205886,-89.73120576750652,-57.281326,-1.2418839,-13.750874,87.891975,-2.638736,-15.000033,-59.050392,-6.1838627,7.555217,89.96744,-3.475806,15.000033,-1.524381,-1.4093541,26.41005,15.8508005,27.462183,-34.053745,-4.273017,36.33436,1.1144537,25.703575,12.919769,-24.447094,33.557728,-2.6712778,-46.655674,-10.618071,-25.923967
94,0.08754201233386993,2.331873655319214,42.84537124633789,0.753508365892653,-30.689219088307148,-89.73557215203999,-57.28337,-1.2387625,-13.761862,87.89867,-2.6518264,-15.000033,-59.045506,-6.1863546,7.540772,89.96468,-3.4855783,15.000033,-1.5181036,-1.402092,26.404465,15.853225,27.460722,-34.051857,-4.265652,36.35563,1.1093843,25.708351,12.923704,-24.445301,33.557636,-2.6649075,-46.63429,-10.641383,-25.94424
95,0.09092335402965546,2.3310153484344482,42.84628677368164,0.7461965521220297,-30.688655245566032,-89.73799989834784,-57.28664,-1.234475,-13.773382,87.90508,-2.663089,-15.000033,-59.04151,-6.1880064,7.5259767,89.962,-3.4940042,15.000033,-1.5130843,-1.3931651,26.398657,15.8550415,27.459623,-34.04907,-4.257574,36.373672,1.103833,25.70997,12.92598,-24.443975,33.557686,-2.6578577,-46.619633,-10.65997,-25.961958
96,0.08848978579044342,2.3294901847839355,42.8421516418457,0.7378870558698992,-30.68866819387426,-89.73629091237608,-57.289467,-1.2310796,-13.779728,87.90774,-2.666675,-15.000033,-59.03873,-6.1887712,7.5179634,89.96027,-3.4972956,15.000033,-1.5129358,-1.3863807,26.395958,15.856114,27.458763,-34.045902,-4.2533793,36.380215,1.1029817,25.706942,12.927643,-24.442926,33.55651,-2.6560638,-46.61781,-10.66526,-25.968725
97,0.0904320552945137,2.3342180252075195,42.84346008300781,0.7284264468200239,-30.68937110691313,-89.7269979140795,-57.29198,-1.2276654,-13.7776985,87.903915,-2.65743,-15.000033,-59.038227,-6.187918,7.5201087,89.95953,-3.4926736,15.000033,-1.5200889,-1.3819888,26.397394,15.854789,27.457785,-34.042046,-4.2530484,36.369312,1.1095454,25.695496,12.927837,-24.441748,33.55198,-2.6607318,-46.636368,-10.651905,-25.956766
98,0.09225489944219589,2.3400328159332275,42.84650421142578,0.7163304729826576,-30.690439444804266,-89.71280666999655,-57.294792,-1.223779,-13.771323,87.89621,-2.6403465,-15.000033,-59.0388,-6.1857343,7.5277934,89.95905,-3.4822762,15.000033,-1.5312545,-1.3774968,26.402107,15.850684,27.456806,-34.037964,-4.254819,36.34687,1.1204228,25.677158,12.92758,-24.440536,33.54343,-2.671445,-46.66894,-10.6253395,-25.931692
99,0.09464003145694733,2.3455684185028076,42.84528732299805,0.7048505568899593,-30.691666450751246,-89.69812894126801,-57.296486,-1.2214837,-13.763938,87.88758,-2.6216402,-15.000033,-59.039715,-6.183599,7.5374293,89.959,-3.4712937,15.000033,-1.5422425,-1.3748243,26.406586,15.846956,27.45609,-34.035496,-4.2575912,36.32217,1.1312673,25.659466,12.926426,-24.439674,33.53586,-2.6802568,-46.705288,-10.595633,-25.906939
100,0.09591763466596603,2.3492162227630615,42.84398651123047,0.7005794327309846,-30.693300889499643,-89.68968850116421,-57.295956,-1.2235984,-13.760147,87.88242,-2.6099024,-15.000033,-59.039627,-6.1836944,7.5441494,89.959175,-3.463247,15.000033,-1.5461062,-1.3734329,26.412167,15.84118,27.4543,-34.033443,-4.2603207,36.305508,1.1349587,25.644453,12.932317,-24.43737,33.521725,-2.6905053,-46.737617,-10.576793,-25.890291
101,0.09434695541858673,2.349581241607666,42.84440231323242,0.7053512684246253,-30.6947813423482,-89.68852189297161,-57.293114,-1.232774,-13.761145,87.88176,-2.6052172,-15.000033,-59.039204,-6.1864834,7.5482883,89.96018,-3.458994,15.000033,-1.5452435,-1.3773298,26.411621,15.839356,27.45261,-34.03568,-4.262839,36.29664,1.1309243,25.638712,12.935037,-24.435205,33.517475,-2.686816,-46.76318,-10.5649185,-25.892899
102,0.09109876304864883,2.3475260734558105,42.84688186645508,0.7164327520478102,-30.696124647779452,-89.69239693557844,-57.28847,-1.2469531,-13.76481,87.88328,-2.6042695,-15.000033,-59.03885,-6.1910625,7.551641,89.96169,-3.456293,15.000033,-1.5424817,-1.3857359,26.409187,15.842341,27.451672,-34.0378,-4.2686925,36.29177,1.1212586,25.637323,12.936393,-24.434074,33.519085,-2.6773787,-46.786587,-10.555734,-25.905838
103,0.08913752436637878,2.3445539474487305,42.84935760498047,0.7281708351109678,-30.69865899206827,-89.69825218108308,-57.282097,-1.2609684,-13.76889,87.88596,-2.6068602,-15.000033,-59.036354,-6.1965365,7.553219,89.962456,-3.4561744,15.000033,-1.5395832,-1.3947045,26.405155,15.847269,27.449896,-34.041195,-4.2737246,36.29063,1.1128,25.640343,12.937867,-24.43178,33.526707,-2.6655202,-46.80321,-10.549334,-25.925055
104,0.08981410413980484,2.341510772705078,42.85026550292969,0.7378235475419128,-30.703181799588656,-89.70300607601754,-57.274216,-1.2692958,-13.771292,87.88856,-2.6129787,-15.000033,-59.031094,-6.2013855,7.5520716,89.96298,-3.459667,15.000033,-1.5363636,-1.4013442,26.405127,15.850172,27.447796,-34.04223,-4.2769866,36.293903,1.1100898,25.645168,12.936087,-24.429098,33.533607,-2.6558208,-46.804466,-10.548942,-25.941896
105,0.08889450877904892,2.338092803955078,42.849395751953125,0.7436811169852084,-30.71222098528303,-89.70781178610349,-57.262497,-1.2694939,-13.770545,87.891594,-2.6262436,-15.000033,-59.020153,-6.206737,7.54633,89.96277,-3.4705763,15.000033,-1.5308691,-1.4042566,26.411644,15.852513,27.445812,-34.04106,-4.2794824,36.306705,1.1154139,25.65559,12.934386,-24.42671,33.53771,-2.651883,-46.779026,-10.561074,-25.959759
106,0.08901584148406982,2.3362011909484863,42.84614944458008,0.7466075231919299,-30.72301794348117,-89.7127603215225,-57.24912,-1.2646502,-13.768337,87.895065,-2.6452327,-15.000033,-59.006096,-6.2128763,7.5367413,89.96128,-3.4864311,15.000033,-1.5227343,-1.4030765,26.421307,15.853334,27.445124,-34.039955,-4.2822537,36.32388,1.1245569,25.66991,12.934993,-24.425932,33.53855,-2.6542416,-46.736576,-10.581633,-25.978529
107,0.08510732650756836,2.3338210582733154,42.839725494384766,0.7476485972384685,-30.734101882100447,-89.71648201860042,-57.236187,-1.2582985,-13.766179,87.898315,-2.662719,-15.000033,-58.991734,-6.217588,7.5275526,89.95978,-3.5016375,15.000033,-1.5149288,-1.401756,26.43221,15.853868,27.444048,-34.03825,-4.2847033,36.341957,1.1365052,25.68301,12.9353,-24.424862,33.538754,-2.6574187,-46.693836,-10.6019535,-25.993563
108,0.08818541467189789,2.3352789878845215,42.83787155151367,0.7449267233794264,-30.74106310425235,-89.71700672159128,-57.228493,-1.25375,-13.76619,87.89886,-2.6702986,-15.000033,-58.982265,-6.218866,7.5218673,89.95832,-3.5092967,15.000033,-1.5108448,-1.4005215,26.439804,15.853835,27.44306,-34.035973,-4.286524,36.352493,1.1479572,25.686447,12.932688,-24.424088,33.538258,-2.658147,-46.670887,-10.610165,-25.994936
109,0.08754366636276245,2.3370537757873535,42.8368034362793,0.7377462962810072,-30.73996264901203,-89.71165060950587,-57.231297,-1.2528791,-13.77055,87.89577,-2.663641,-15.000033,-58.982315,-6.216898,7.5201163,89.95598,-3.5046003,15.000033,-1.5152733,-1.3962729,26.440779,15.853268,27.441683,-34.032562,-4.291243,36.344723,1.1610528,25.671799,12.929057,-24.423086,33.5364,-2.660159,-46.686108,-10.595617,-25.971449
110,0.08744601160287857,2.3400464057922363,42.83625030517578,0.7260384300810104,-30.73343059036223,-89.7022748553681,-57.241104,-1.2531011,-13.777149,87.889595,-2.6466162,-15.000033,-58.988426,-6.212121,7.521043,89.952995,-3.4926054,15.000033,-1.5237589,-1.389961,26.435852,15.851168,27.44094,-34.031055,-4.2948413,36.324265,1.1759508,25.64709,12.926422,-24.4226,33.53445,-2.6632843,-46.72429,-10.566102,-25.933086
111,0.08954954147338867,2.3442468643188477,42.84014892578125,0.7136846633875576,-30.72529775191416,-89.69348577446172,-57.252853,-1.2530376,-13.783961,87.88348,-2.6277277,-15.000033,-58.996986,-6.205159,7.5233564,89.950424,-3.478155,15.000033,-1.5319858,-1.3825032,26.429934,15.845714,27.439129,-34.02845,-4.295347,36.304108,1.1862903,25.621199,12.926215,-24.421415,33.5297,-2.6687546,-46.767254,-10.534592,-25.891201
112,0.0907999649643898,2.3503429889678955,42.845611572265625,0.7060192384835656,-30.71902927782032,-89.68971808718578,-57.26205,-1.2511395,-13.788188,87.88019,-2.6142137,-15.000033,-59.004158,-6.196817,7.5266266,89.94981,-3.467086,15.000033,-1.5352058,-1.3765004,26.423647,15.844011,27.437649,-34.02717,-4.2939706,36.29765,1.1870733,25.608856,12.9258795,-24.420668,33.52757,-2.6699066,-46.7937,-10.511588,-25.86411
113,0.0864284411072731,2.352689027786255,42.84904479980469,0.7037271811519449,-30.71397669643758,-89.694575742344,-57.268402,-1.245484,-13.78962,87.88054,-2.6082528,-15.000033,-59.01121,-6.18399,7.531838,89.951225,-3.4580579,15.000033,-1.5317872,-1.3705983,26.416033,15.844407,27.436525,-34.02581,-4.2863793,36.312046,1.168397,25.615093,12.927114,-24.420273,33.52823,-2.6686614,-46.79684,-10.4983015,-25.854994
114,0.08912938833236694,2.3539249897003174,42.85402297973633,0.7071387552627972,-30.708445056238205,-89.70559486744125,-57.27503,-1.2368906,-13.78929,87.88332,-2.6049962,-15.000033,-59.01971,-6.167173,7.5391293,89.954285,-3.4493852,15.000033,-1.5255159,-1.3653038,26.405197,15.847223,27.434788,-34.022514,-4.2731767,36.340084,1.1350871,25.632235,12.928609,-24.420017,33.532864,-2.6640728,-46.788734,-10.488935,-25.85578
115,0.09258225560188293,2.352952241897583,42.855167388916016,0.7110833409567611,-30.705810493057292,-89.71620972006946,-57.277767,-1.22964,-13.787755,87.88669,-2.605271,-15.000033,-59.025017,-6.1536217,7.5451875,89.95776,-3.4439113,15.000033,-1.5191393,-1.3621355,26.398071,15.850999,27.432966,-34.01898,-4.2635336,36.367744,1.1061426,25.652405,12.929748,-24.41998,33.538616,-2.6598158,-46.77515,-10.485049,-25.863478
116,0.0908723995089531,2.3475260734558105,42.851318359375,0.7172566585431996,-30.70884897816038,-89.72300023969564,-57.273685,-1.2274661,-13.785502,87.889946,-2.6099715,-15.000033,-59.02272,-6.150214,7.546662,89.95998,-3.4444757,15.000033,-1.5145607,-1.3635362,26.399063,15.854994,27.431038,-34.0161,-4.262696,36.383114,1.0971678,25.667528,12.92845,-24.420084,33.543564,-2.656306,-46.76164,-10.487957,-25.874397
117,0.09064314514398575,2.345100164413452,42.849178314208984,0.723233769837724,-30.721233322259984,-89.7227780278382,-57.258266,-1.2331243,-13.781871,87.89295,-2.6227908,-15.000033,-59.009216,-6.1635256,7.5404925,89.96122,-3.4549494,15.000033,-1.5120667,-1.3718272,26.41309,15.857315,27.429407,-34.01459,-4.2751417,36.379063,1.1195354,25.676025,12.926415,-24.42009,33.546494,-2.656819,-46.74479,-10.50525,-25.894674
118,0.08981788158416748,2.3429765701293945,42.845489501953125,0.734190339823161,-30.74163572828267,-89.71932825085796,-57.23306,-1.2445261,-13.776322,87.896225,-2.6422682,-15.000033,-58.986206,-6.188446,7.5298734,89.962265,-3.4731605,15.000033,-1.5108395,-1.3855796,26.439007,15.860882,27.426405,-34.0146,-4.3013344,36.365917,1.1664119,25.681917,12.917116,-24.41995,33.548515,-2.652763,-46.721386,-10.536353,-25.925463
119,0.08612068742513657,2.3420369625091553,42.83976745605469,0.7426864864756941,-30.761878171301205,-89.71412225505497,-57.20817,-1.2561234,-13.771378,87.89919,-2.6605628,-15.000033,-58.96234,-6.214134,7.5186357,89.96209,-3.4916594,15.000033,-1.5089402,-1.3984814,26.465406,15.860779,27.424295,-34.01634,-4.324829,36.347668,1.2148011,25.685446,12.9124365,-24.419645,33.54707,-2.6540682,-46.704628,-10.563427,-25.949825
120,0.0832798108458519,2.340932846069336,42.834800720214844,0.7463001557992407,-30.776093986917292,-89.70953353630073,-57.191273,-1.2638088,-13.769227,87.90055,-2.67053,-15.000033,-58.945778,-6.230555,7.5115247,89.96147,-3.503341,15.000033,-1.5081139,-1.4059131,26.484608,15.859403,27.422451,-34.01815,-4.338971,36.332874,1.2480826,25.687119,12.91052,-24.419273,33.5441,-2.6575792,-46.704063,-10.571621,-25.955196
121,0.0831495001912117,2.342031240463257,42.83257293701172,0.7430355697378445,-30.78118235229438,-89.70515793149231,-57.18619,-1.2660712,-13.771561,87.90022,-2.667719,-15.000033,-58.938717,-6.23427,7.509896,89.95919,-3.5063176,15.000033,-1.5101367,-1.4066745,26.491621,15.858821,27.421694,-34.01838,-4.339418,36.322533,1.2606803,25.686481,12.909232,-24.419092,33.5422,-2.6604588,-46.7259,-10.550697,-25.932653
122,0.0830938071012497,2.344543933868408,42.83277130126953,0.7366869617308374,-30.783049737466197,-89.7002801586197,-57.186176,-1.266143,-13.777352,87.89894,-2.657548,-15.000033,-58.93475,-6.231796,7.5107822,89.95566,-3.5049853,15.000033,-1.5161036,-1.4009199,26.497889,15.854992,27.419882,-34.018177,-4.3347487,36.3106,1.2669095,25.68255,12.908405,-24.41846,33.535286,-2.671221,-46.769066,-10.505404,-25.88164
123,0.08553162962198257,2.3468761444091797,42.83516311645508,0.7292045238968011,-30.781664097367116,-89.69651945942901,-57.189804,-1.2635133,-13.78255,87.896385,-2.6441672,-15.000033,-58.935036,-6.224635,7.514392,89.95248,-3.500041,15.000033,-1.520097,-1.3940787,26.499947,15.849151,27.417784,-34.017284,-4.3238425,36.302788,1.2626929,25.676718,12.911386,-24.417728,33.52717,-2.6821437,-46.813194,-10.461251,-25.831541
124,0.08624222129583359,2.3517050743103027,42.84040451049805,0.7241180192907808,-30.779705619047615,-89.69561439039002,-57.19285,-1.258555,-13.783529,87.892265,-2.6326394,-15.000033,-58.937363,-6.215368,7.520539,89.95116,-3.492725,15.000033,-1.521421,-1.3894418,26.500162,15.845824,27.41685,-34.015987,-4.315171,36.300655,1.2518866,25.672104,12.914614,-24.417448,33.5235,-2.6883285,-46.841797,-10.4346895,-25.803877
125,0.08486378192901611,2.3561418056488037,42.84577178955078,0.7245072530062897,-30.776139814280427,-89.69942855544262,-57.19551,-1.2481178,-13.776689,87.88434,-2.6217105,-15.000033,-58.943886,-6.2010546,7.5323606,89.95269,-3.479835,15.000033,-1.5189856,-1.3860991,26.498363,15.843199,27.416115,-34.01392,-4.3092036,36.30638,1.2301147,25.668262,12.91687,-24.417313,33.521816,-2.6875184,-46.846283,-10.435171,-25.806421
126,0.08604492992162704,2.3583531379699707,42.85097885131836,0.7255406423938331,-30.768543856447536,-89.70717928356693,-57.20112,-1.2317134,-13.765337,87.8733,-2.6093998,-15.000033,-58.956333,-6.180557,7.5479145,89.95542,-3.4609416,15.000033,-1.5120511,-1.3825448,26.492933,15.837053,27.414675,-34.006645,-4.2951307,36.31867,1.1873083,25.661444,12.922361,-24.417316,33.520508,-2.684239,-46.839943,-10.452779,-25.828163
127,0.08873169124126434,2.357835054397583,42.85405731201172,0.7284487010384942,-30.763049293635795,-89.71477088865397,-57.204517,-1.2183012,-13.75469,87.86351,-2.599936,-15.000033,-58.966583,-6.1626635,7.562556,89.95863,-3.444775,15.000033,-1.5077623,-1.3808486,26.489477,15.835658,27.413082,-33.998676,-4.2887273,36.332783,1.1524878,25.655973,12.925662,-24.417597,33.521893,-2.6809776,-46.829197,-10.472153,-25.853464
128,0.08810313045978546,2.358003616333008,42.854148864746094,0.7306688292719894,-30.761866439632445,-89.71829525524225,-57.204727,-1.2145606,-13.750777,87.86016,-2.597004,-15.000033,-58.970177,-6.1548057,7.569965,89.960754,-3.4382133,15.000033,-1.5082381,-1.3825933,26.489922,15.840031,27.410954,-33.98839,-4.2889977,36.344788,1.1337506,25.650837,12.924295,-24.418211,33.525833,-2.677071,-46.823956,-10.482837,-25.870554
129,0.08657311648130417,2.3574578762054443,42.852699279785156,0.7331429720059124,-30.76722812414364,-89.7168324671928,-57.19956,-1.2265728,-13.757841,87.86561,-2.6038353,-15.000033,-58.963833,-6.16149,7.5673933,89.96108,-3.4460404,15.000033,-1.5097765,-1.3868208,26.49616,15.845031,27.41014,-33.98674,-4.298476,36.349693,1.1477339,25.648623,12.922195,-24.418423,33.52689,-2.6786327,-46.82874,-10.474828,-25.870697
130,0.0852629691362381,2.353484630584717,42.84885787963867,0.737049261956186,-30.77762262056224,-89.71239151005672,-57.189762,-1.2494539,-13.77174,87.87731,-2.6183255,-15.000033,-58.95034,-6.1782002,7.558677,89.96084,-3.4637966,15.000033,-1.514441,-1.3935379,26.508108,15.85549,27.409048,-33.98683,-4.3205833,36.353954,1.1842082,25.646408,12.916357,-24.418707,33.52769,-2.6817172,-46.83905,-10.456777,-25.862268
131,0.08297524601221085,2.351036548614502,42.84352493286133,0.7400185875742975,-30.78937308128309,-89.70691440262632,-57.178825,-1.2727319,-13.78622,87.889755,-2.6341953,-15.000033,-58.9344,-6.197681,7.5468345,89.959694,-3.483848,15.000033,-1.5195299,-1.3993876,26.52099,15.866882,27.407667,-33.98939,-4.3428607,36.357487,1.2234863,25.648232,12.911621,-24.419018,33.527756,-2.6851246,-46.847603,-10.441734,-25.85503
132,0.08240686357021332,2.348635196685791,42.838993072509766,0.7399207253298654,-30.799878686028272,-89.70212358486074,-57.16895,-1.28606,-13.794892,87.89826,-2.6461444,-15.000033,-58.91989,-6.212828,7.535287,89.95813,-3.499701,15.000033,-1.5229071,-1.4022745,26.53381,15.873231,27.406712,-33.992107,-4.3554616,36.36024,1.2476742,25.655704,12.9096575,-24.419153,33.52626,-2.6899009,-46.845028,-10.441622,-25.858648
133,0.08194319903850555,2.347673177719116,42.83428955078125,0.7359029988475967,-30.81039320098512,-89.69760514532858,-57.158894,-1.2858434,-13.795136,87.90195,-2.6540518,-15.000033,-58.904827,-6.2242565,7.52208,89.95546,-3.5117755,15.000033,-1.5258911,-1.4011241,26.548706,15.8756695,27.40602,-33.993595,-4.3574233,36.362347,1.2504753,25.673912,12.909632,-24.419245,33.52412,-2.694663,-46.823215,-10.46788,-25.88236
134,0.0839700996875763,2.347646713256836,42.8316650390625,0.7283247067697071,-30.821922507323606,-89.6922904008994,-57.147556,-1.2783107,-13.790979,87.90351,-2.6612153,-15.000033,-58.887947,-6.2353635,7.506041,89.952095,-3.5229583,15.000033,-1.5290242,-1.3975338,26.566505,15.876322,27.405447,-33.994694,-4.3539286,36.36408,1.2420176,25.700521,12.911712,-24.41934,33.520824,-2.700359,-46.790073,-10.512359,-25.918715
135,0.08404628187417984,2.3484010696411133,42.83087158203125,0.7210296111698571,-30.831048587599092,-89.6888673201753,-57.13865,-1.2665737,-13.78472,87.90225,-2.664581,-15.000033,-58.8745,-6.241817,7.4931335,89.94887,-3.529858,15.000033,-1.5305679,-1.392328,26.582174,15.872613,27.404512,-33.99602,-4.345656,36.3656,1.2289752,25.72438,12.915061,-24.419706,33.514683,-2.706691,-46.758183,-10.55576,-25.951538
136,0.08573607355356216,2.350368022918701,42.8326416015625,0.7166149885324775,-30.834091497468812,-89.68898451350344,-57.135063,-1.2555869,-13.779673,87.89862,-2.663701,-15.000033,-58.86936,-6.2403364,7.48838,89.945625,-3.527881,15.000033,-1.5322685,-1.3882779,26.58919,15.870755,27.404234,-33.995693,-4.340717,36.3688,1.2203543,25.735102,12.916784,-24.419853,33.512573,-2.711295,-46.742054,-10.57605,-25.966185
137,0.08768622577190399,2.353469133377075,42.83769607543945,0.7150050321596133,-30.827526283947535,-89.69591934254649,-57.139984,-1.2419393,-13.775494,87.88973,-2.654533,-15.000033,-58.87724,-6.2242475,7.496608,89.94274,-3.5119576,15.000033,-1.5311005,-1.3844382,26.584848,15.86618,27.404015,-33.9937,-4.334667,36.375492,1.2147423,25.726559,12.918671,-24.420017,33.510136,-2.714827,-46.74895,-10.566078,-25.953127
138,0.09011299163103104,2.3573367595672607,42.84451675415039,0.7169085053306753,-30.813872325784978,-89.70782113797438,-57.1514,-1.2252907,-13.771054,87.87691,-2.63958,-15.000033,-58.894848,-6.197537,7.513827,89.93957,-3.4850607,15.000033,-1.5284147,-1.3802876,26.57238,15.8599205,27.403702,-33.988407,-4.329167,36.384296,1.209869,25.7029,12.922479,-24.42028,33.507107,-2.7206767,-46.771603,-10.535153,-25.920004
139,0.09020114690065384,2.3601033687591553,42.85013198852539,0.7189593863505639,-30.80059425994853,-89.71849194653979,-57.16227,-1.2119997,-13.76721,87.864426,-2.6239345,-15.000033,-58.9122,-6.1717496,7.5328026,89.93732,-3.4585254,15.000033,-1.5272167,-1.3777509,26.559238,15.855728,27.403532,-33.98409,-4.324729,36.393345,1.2063979,25.679699,12.922683,-24.42051,33.505783,-2.7205198,-46.797283,-10.502651,-25.886812
140,0.09133616089820862,2.3629276752471924,42.85524368286133,0.7208250058949912,-30.792859467375578,-89.72457814997122,-57.1687,-1.2075368,-13.765967,87.85778,-2.6140842,-15.000033,-58.923084,-6.1579084,7.5449414,89.93666,-3.4423869,15.000033,-1.5289192,-1.378442,26.552513,15.853944,27.403315,-33.97604,-4.322045,36.400993,1.1997896,25.662003,12.925687,-24.420954,33.503994,-2.7270098,-46.818565,-10.480651,-25.863333
141,0.0912022590637207,2.3646557331085205,42.85625457763672,0.7244118834391683,-30.794868994802957,-89.72224081445208,-57.166172,-1.2183921,-13.767429,87.85825,-2.6110194,-15.000033,-58.922333,-6.1626716,7.549161,89.93879,-3.441467,15.000033,-1.5347719,-1.3841347,26.554344,15.855602,27.40357,-33.974525,-4.320164,36.40583,1.1950842,25.663044,12.925587,-24.421267,33.50318,-2.7257094,-46.831085,-10.480672,-25.863218
142,0.08895369619131088,2.364090919494629,42.85396194458008,0.7298502156598996,-30.801166483245026,-89.71616465018354,-57.16012,-1.2384474,-13.771725,87.86387,-2.6119647,-15.000033,-58.91646,-6.1776686,7.5483036,89.94176,-3.4483957,15.000033,-1.5422795,-1.3921885,26.55947,15.857033,27.403734,-33.975597,-4.3174458,36.407986,1.1913387,25.671179,12.925582,-24.421274,33.50281,-2.723763,-46.83983,-10.489312,-25.87308
143,0.08813122659921646,2.361856460571289,42.850990295410156,0.7336297401899358,-30.81189591843597,-89.70649596443116,-57.14926,-1.2619613,-13.775509,87.870804,-2.6157718,-15.000033,-58.905304,-6.1973653,7.546458,89.94648,-3.4609566,15.000033,-1.5508331,-1.4017308,26.569265,15.859657,27.404469,-33.9802,-4.315137,36.409805,1.1867442,25.685926,12.9264345,-24.421114,33.501663,-2.720013,-46.848587,-10.503729,-25.889652
144,0.08818059414625168,2.358635663986206,42.845664978027344,0.7359043626664798,-30.82177864295545,-89.7007314497779,-57.139503,-1.2766503,-13.779993,87.877014,-2.6216688,-15.000033,-58.89391,-6.2106194,7.5422726,89.94907,-3.4724207,15.000033,-1.5554373,-1.4057683,26.578451,15.859895,27.405138,-33.984657,-4.31324,36.40942,1.1819376,25.695675,12.927364,-24.420946,33.500626,-2.7196352,-46.85248,-10.510409,-25.900087
145,0.08855227380990982,2.3563992977142334,42.840850830078125,0.7339402287645374,-30.831162817455535,-89.69846983428448,-57.13052,-1.2805628,-13.785037,87.88308,-2.6317642,-15.000033,-58.882008,-6.2160363,7.5356865,89.9504,-3.4850163,15.000033,-1.5569849,-1.4036722,26.58766,15.8594,27.405535,-33.987076,-4.3129787,36.40795,1.1739031,25.697777,12.927539,-24.420835,33.50038,-2.7226665,-46.849667,-10.5080185,-25.90397
146,0.08789575845003128,2.356532096862793,42.83796310424805,0.7277396601073146,-30.844845793161408,-89.69667678269099,-57.116947,-1.2801012,-13.791644,87.89038,-2.6473377,-15.000033,-58.863667,-6.218862,7.5258856,89.95132,-3.5009367,15.000033,-1.5555849,-1.397402,26.602274,15.855436,27.406456,-33.99172,-4.311339,36.40418,1.1619349,25.698738,12.926177,-24.420723,33.500427,-2.7269359,-46.84223,-10.499317,-25.90677
147,0.08888056874275208,2.356865167617798,42.83591079711914,0.7212922502160437,-30.856495998387956,-89.6960051662019,-57.105743,-1.2754036,-13.796805,87.89621,-2.6608613,-15.000033,-58.847874,-6.21909,7.516382,89.95139,-3.5145736,15.000033,-1.5539736,-1.3899518,26.614944,15.850881,27.40742,-33.99561,-4.3107414,36.398777,1.1534432,25.699787,12.926092,-24.420647,33.500755,-2.733486,-46.83396,-10.490669,-25.907473
148,0.08900810778141022,2.3555831909179688,42.83389663696289,0.7158498040785336,-30.864658442646647,-89.69585600456536,-57.097637,-1.2694271,-13.798903,87.899055,-2.6686807,-15.000033,-58.836655,-6.2185616,7.5093937,89.9503,-3.5207129,15.000033,-1.5526496,-1.3841083,26.624426,15.84667,27.408785,-33.99981,-4.3113656,36.392918,1.152494,25.704557,12.924588,-24.42068,33.50049,-2.7383795,-46.82727,-10.486235,-25.90669
149,0.09017892181873322,2.3560333251953125,42.83550262451172,0.7125365925273274,-30.868287196272508,-89.69759684909948,-57.094715,-1.2594385,-13.795606,87.89773,-2.6670847,-15.000033,-58.831764,-6.2155805,7.5060506,89.94778,-3.5165675,15.000033,-1.5517181,-1.3793128,26.630419,15.84221,27.410902,-34.00406,-4.3155594,36.384266,1.1652708,25.717056,12.925062,-24.420866,33.4975,-2.7456799,-46.823677,-10.488029,-25.902994
150,0.09335601329803467,2.357658863067627,42.83780288696289,0.7102814445238113,-30.869072190918693,-89.7000750083847,-57.094154,-1.2458868,-13.788187,87.89275,-2.659755,-15.000033,-58.83099,-6.2107844,7.505406,89.944244,-3.5053434,15.000033,-1.552098,-1.3762294,26.632683,15.840689,27.411098,-34.004234,-4.3209767,36.37634,1.1835859,25.73121,12.92425,-24.42094,33.496296,-2.7509634,-46.82157,-10.492829,-25.897856
151,0.09347987174987793,2.3601913452148438,42.84029769897461,0.7068021277930154,-30.868091541225407,-89.70235592862876,-57.09546,-1.2328897,-13.780904,87.88709,-2.650134,-15.000033,-58.832127,-6.205493,7.505585,89.94017,-3.491954,15.000033,-1.5535355,-1.3733252,26.634409,15.838944,27.411306,-34.00441,-4.327091,36.368916,1.2044399,25.74621,12.922453,-24.42126,33.49354,-2.7561493,-46.820786,-10.500021,-25.89095
152,0.09356818348169327,2.363361120223999,42.842979431152344,0.7046119829377867,-30.86649961771878,-89.70239399468721,-57.097595,-1.2265663,-13.777259,87.88244,-2.6417315,-15.000033,-58.83379,-6.2021728,7.5064135,89.93717,-3.4813943,15.000033,-1.5547837,-1.370023,26.636755,15.836628,27.411657,-34.006367,-4.330658,36.3661,1.2161708,25.75449,12.922072,-24.422205,33.487034,-2.760773,-46.820946,-10.509065,-25.884329
153,0.0930713340640068,2.365769147872925,42.847137451171875,0.702271297929432,-30.864348737699334,-89.69821387336091,-57.09913,-1.230128,-13.777477,87.87773,-2.6339548,-15.000033,-58.835575,-6.2018247,7.5099435,89.93594,-3.4742923,15.000033,-1.5592762,-1.3699458,26.635405,15.836052,27.411835,-34.007236,-4.3253284,36.37025,1.2119758,25.751486,12.92042,-24.42245,33.486168,-2.7585423,-46.82282,-10.516718,-25.88459
154,0.0918944925069809,2.3672561645507812,42.85032653808594,0.699818973368342,-30.86002703811188,-89.69063443028902,-57.10266,-1.2404189,-13.780475,87.872345,-2.6249425,-15.000033,-58.839405,-6.20366,7.51484,89.935425,-3.4680188,15.000033,-1.5651664,-1.3704534,26.631216,15.834967,27.412704,-34.010468,-4.313626,36.378807,1.1980109,25.743088,12.916507,-24.42322,33.484573,-2.7486618,-46.825203,-10.529217,-25.888666
155,0.09155403077602386,2.366978168487549,42.850189208984375,0.6980532689793626,-30.85677942542148,-89.68298496327691,-57.105175,-1.2523901,-13.784582,87.86815,-2.6177309,-15.000033,-58.842316,-6.2061415,7.5197887,89.93555,-3.464297,15.000033,-1.5695465,-1.371456,26.627544,15.834611,27.414385,-34.01404,-4.302599,36.387566,1.1808611,25.73335,12.91564,-24.424183,33.483646,-2.7419646,-46.829117,-10.536645,-25.891602
156,0.09150636941194534,2.367027521133423,42.84962844848633,0.6983802324019677,-30.856226242294976,-89.67903388893828,-57.10566,-1.261573,-13.788541,87.86714,-2.6140873,-15.000033,-58.842793,-6.2083898,7.522556,89.93611,-3.4649367,15.000033,-1.570557,-1.3723781,26.626675,15.8349695,27.415667,-34.01538,-4.2957053,36.392746,1.1639291,25.726187,12.916476,-24.424717,33.483162,-2.7400486,-46.83313,-10.534836,-25.88952
157,0.09158289432525635,2.3666937351226807,42.8465461730957,0.7005887583997502,-30.859156867976463,-89.6796139338139,-57.10358,-1.2681957,-13.793964,87.87078,-2.6162875,-15.000033,-58.839638,-6.210799,7.5220504,89.93654,-3.47215,15.000033,-1.5660967,-1.3733963,26.62847,15.834602,27.416674,-34.015232,-4.292137,36.391838,1.1450733,25.722208,12.91825,-24.425077,33.48297,-2.7409024,-46.83943,-10.520061,-25.877974
158,0.09151369333267212,2.36662220954895,42.8442497253418,0.7051873641354293,-30.8654654152646,-89.6828711602255,-57.099,-1.2746594,-13.799967,87.878006,-2.6220517,-15.000033,-58.83375,-6.2133036,7.52087,89.9384,-3.485416,15.000033,-1.5563024,-1.3753108,26.633684,15.8330965,27.41851,-34.01181,-4.2874813,36.386593,1.1149035,25.717896,12.927694,-24.425642,33.481747,-2.7544312,-46.84889,-10.489733,-25.85642
159,0.08783170580863953,2.3655786514282227,42.839874267578125,0.7114716196549462,-30.87240340617641,-89.6877151629673,-57.093826,-1.2782587,-13.804769,87.885666,-2.6291833,-15.000033,-58.826942,-6.215872,7.5178914,89.93996,-3.4990687,15.000033,-1.546776,-1.376606,26.640154,15.833686,27.420198,-34.007313,-4.2888236,36.381916,1.0935092,25.715593,12.935399,-24.426134,33.480553,-2.7661586,-46.85628,-10.462459,-25.83829
160,0.08811179548501968,2.3645615577697754,42.837623596191406,0.7134598896689992,-30.878953274247344,-89.69124622532246,-57.087597,-1.277353,-13.805633,87.890144,-2.6360688,-15.000033,-58.820034,-6.2185135,7.513382,89.94021,-3.5072963,15.000033,-1.5399052,-1.3769546,26.648048,15.836557,27.421928,-34.001923,-4.296273,36.38059,1.0888797,25.716488,12.941889,-24.426716,33.47912,-2.7770355,-46.858818,-10.446835,-25.831032
161,0.08755101263523102,2.3623242378234863,42.83576965332031,0.7139522667195636,-30.8858670753525,-89.69476731191281,-57.07966,-1.2687889,-13.799985,87.890976,-2.6437545,-15.000033,-58.812523,-6.221572,7.505744,89.93926,-3.5087485,15.000033,-1.5352564,-1.374871,26.657475,15.841653,27.422298,-33.999275,-4.311729,36.38643,1.1126175,25.72485,12.945423,-24.426949,33.477844,-2.7835565,-46.85114,-10.44995,-25.84313
162,0.0886569544672966,2.36038875579834,42.83465576171875,0.7134402826750627,-30.893659596793444,-89.69871239460605,-57.06965,-1.253963,-13.789565,87.889404,-2.6522748,-15.000033,-58.803856,-6.224654,7.49566,89.93765,-3.5063925,15.000033,-1.5321912,-1.3711369,26.66956,15.850884,27.422125,-33.99514,-4.3366895,36.397297,1.1554823,25.737337,12.948651,-24.427305,33.475094,-2.7905672,-46.837025,-10.465811,-25.86698
163,0.09134969115257263,2.361494541168213,42.8353385925293,0.712516095871784,-30.900208711231343,-89.70188536450095,-57.06092,-1.239465,-13.779093,87.886665,-2.6589847,-15.000033,-58.79617,-6.2272077,7.4864583,89.935394,-3.501982,15.000033,-1.5315287,-1.3670831,26.681131,15.861981,27.42084,-33.989254,-4.3632317,36.408115,1.1996622,25.748196,12.951189,-24.428041,33.471504,-2.7971523,-46.825558,-10.482377,-25.889763
164,0.09074912965297699,2.363011598587036,42.836692810058594,0.710815339020989,-30.902894462247342,-89.70241217406556,-57.056606,-1.2315463,-13.772891,87.88345,-2.6611726,-15.000033,-58.792305,-6.2284956,7.4819202,89.93324,-3.4971302,15.000033,-1.5307872,-1.3651826,26.686039,15.864348,27.42046,-33.98838,-4.3734546,36.408802,1.2257376,25.754946,12.951942,-24.428143,33.470875,-2.8002386,-46.82324,-10.484335,-25.900507
165,0.09107373654842377,2.3636012077331543,42.84082794189453,0.7104545848764576,-30.900759540341646,-89.70031144772355,-57.05741,-1.2323681,-13.773425,87.879105,-2.6569333,-15.000033,-58.793133,-6.2275577,7.4834237,89.930435,-3.4907708,15.000033,-1.5350808,-1.3647529,26.687885,15.87022,27.418373,-33.986687,-4.384945,36.402912,1.2379421,25.75258,12.950716,-24.428936,33.47018,-2.8027859,-46.84225,-10.466464,-25.89255
166,0.09075374901294708,2.3653929233551025,42.84397506713867,0.7069370117245877,-30.894581615049617,-89.69475580061487,-57.062428,-1.2390618,-13.77719,87.87313,-2.6476724,-15.000033,-58.797634,-6.2256474,7.4893804,89.927185,-3.4825552,15.000033,-1.5405751,-1.3666117,26.684036,15.871129,27.417692,-33.98747,-4.384929,36.388126,1.2340218,25.745892,12.946873,-24.42929,33.470768,-2.8021238,-46.871872,-10.434636,-25.872013
167,0.0899309515953064,2.3669536113739014,42.84641647338867,0.7058706635928491,-30.888414280231498,-89.69024875210111,-57.067844,-1.2474269,-13.782751,87.86829,-2.6378953,-15.000033,-58.802345,-6.2222967,7.4967546,89.92435,-3.4750688,15.000033,-1.5451005,-1.3695376,26.6798,15.87175,27.41746,-33.98829,-4.3832526,36.374565,1.2274475,25.737139,12.944361,-24.429453,33.471306,-2.8002884,-46.899364,-10.407429,-25.852962
168,0.08974988013505936,2.3686556816101074,42.84808349609375,0.7038795193903891,-30.883522485910675,-89.68736234365653,-57.072933,-1.2537013,-13.788464,87.86585,-2.6303196,-15.000033,-58.806908,-6.2185545,7.50209,89.92316,-3.4705648,15.000033,-1.5477875,-1.3689867,26.674677,15.870723,27.416586,-33.989635,-4.381552,36.362644,1.2247689,25.72721,12.941534,-24.429955,33.473732,-2.7984648,-46.91615,-10.38828,-25.839285
169,0.08925206959247589,2.3697128295898438,42.846466064453125,0.7053380151611457,-30.882993888737193,-89.68980168465544,-57.07477,-1.2566621,-13.7948265,87.86784,-2.6265244,-15.000033,-58.808903,-6.2123656,7.505594,89.92506,-3.4707842,15.000033,-1.5437343,-1.3680402,26.672424,15.870596,27.415976,-33.98846,-4.382757,36.362656,1.2311686,25.714468,12.942336,-24.43038,33.474342,-2.79347,-46.91162,-10.396857,-25.841696
170,0.08849206566810608,2.3702552318573,42.84486389160156,0.7068999986084,-30.884310989778687,-89.6950304868477,-57.075825,-1.2584786,-13.8025465,87.87286,-2.624317,-15.000033,-58.809975,-6.20429,7.508541,89.928566,-3.4737997,15.000033,-1.5374813,-1.3661672,26.671093,15.872356,27.41466,-33.98271,-4.38632,36.369507,1.2401913,25.697124,12.943187,-24.431599,33.47467,-2.7866457,-46.89358,-10.420671,-25.851303
171,0.08604902774095535,2.3692052364349365,42.843048095703125,0.708303498917158,-30.886566899523363,-89.7001054729263,-57.075634,-1.2598761,-13.80945,87.87832,-2.623707,-15.000033,-58.80999,-6.197267,7.510402,89.93235,-3.478141,15.000033,-1.5297688,-1.3642173,26.670843,15.872875,27.414074,-33.979195,-4.388808,36.377075,1.2480658,25.683084,12.945034,-24.432335,33.474415,-2.7812214,-46.87223,-10.448042,-25.86379
172,0.08539541810750961,2.3685615062713623,42.84199523925781,0.7108069629529352,-30.88937356225748,-89.70374870553196,-57.073776,-1.2608013,-13.813272,87.88164,-2.6241407,-15.000033,-58.808628,-6.1938424,7.510886,89.93495,-3.481867,15.000033,-1.5258844,-1.3636518,26.673296,15.875018,27.413412,-33.973537,-4.3927965,36.381947,1.2491032,25.672853,12.945606,-24.433239,33.47347,-2.7779014,-46.854656,-10.4742565,-25.876774
173,0.08415376394987106,2.367746591567993,42.840782165527344,0.7113727987322574,-30.892285207125674,-89.7044321425743,-57.06944,-1.261835,-13.813657,87.881714,-2.6265714,-15.000033,-58.805664,-6.1962557,7.508538,89.93578,-3.4851177,15.000033,-1.5246079,-1.3647473,26.67814,15.875893,27.413054,-33.971226,-4.3942814,36.381836,1.2419696,25.673605,12.944803,-24.433746,33.47252,-2.779355,-46.84263,-10.494067,-25.887419
174,0.08377896994352341,2.3668649196624756,42.840606689453125,0.7127946399305648,-30.896346608309788,-89.70419092921553,-57.062904,-1.2625521,-13.81164,87.88018,-2.6307116,-15.000033,-58.80034,-6.202468,7.5041814,89.93502,-3.4885242,15.000033,-1.5259134,-1.3668914,26.68727,15.876305,27.412266,-33.966976,-4.395047,36.379932,1.227167,25.67952,12.943005,-24.434774,33.46913,-2.783562,-46.831123,-10.517541,-25.898844
175,0.08470167219638824,2.3657894134521484,42.83934020996094,0.7155605718231294,-30.900507800036895,-89.70317939697034,-57.05601,-1.2625321,-13.807604,87.8781,-2.635307,-15.000033,-58.794846,-6.2095537,7.5000176,89.934425,-3.4914987,15.000033,-1.52782,-1.3689778,26.696243,15.875279,27.41152,-33.965164,-4.394166,36.37645,1.2106098,25.68822,12.942933,-24.435637,33.46592,-2.7900794,-46.823067,-10.535438,-25.911507
176,0.08565329760313034,2.3669159412384033,42.83958435058594,0.7161320857767904,-30.903806336087555,-89.70106061081725,-57.05102,-1.2612787,-13.8019285,87.87662,-2.638859,-15.000033,-58.790657,-6.2145534,7.4984818,89.934135,-3.4927857,15.000033,-1.5307633,-1.3704723,26.702091,15.875711,27.411364,-33.965115,-4.3946066,36.373066,1.1971701,25.694748,12.943089,-24.435738,33.465324,-2.7950852,-46.81875,-10.543231,-25.92583
177,0.08529782295227051,2.367288112640381,42.840396881103516,0.7159148999310717,-30.908202249035014,-89.69660015649386,-57.04591,-1.2580843,-13.791421,87.87554,-2.6416905,-15.000033,-58.786354,-6.2178516,7.502001,89.93568,-3.4925153,15.000033,-1.535835,-1.3718803,26.709589,15.874499,27.410973,-33.96515,-4.3917093,36.368084,1.1780916,25.701618,12.94533,-24.43593,33.464966,-2.7991383,-46.821926,-10.540215,-25.950638
178,0.0844959020614624,2.3661203384399414,42.84099197387695,0.7147750652827941,-30.912451217840015,-89.69028518971477,-57.041477,-1.2527479,-13.777247,87.874275,-2.6442199,-15.000033,-58.782734,-6.220029,7.5084376,89.93761,-3.4903703,15.000033,-1.5431837,-1.3732821,26.715422,15.873518,27.410532,-33.96617,-4.388786,36.361507,1.1589853,25.707563,12.947402,-24.435944,33.467182,-2.8023634,-46.829792,-10.5255995,-25.979479
179,0.08595786988735199,2.367074966430664,42.84086990356445,0.7134702729833123,-30.915720708121896,-89.6847308157969,-57.038235,-1.2481055,-13.765162,87.87354,-2.645885,-15.000033,-58.7799,-6.220854,7.5146704,89.939514,-3.48798,15.000033,-1.5503844,-1.3741503,26.719675,15.873248,27.410288,-33.967075,-4.3865767,36.356956,1.1428326,25.712055,12.949037,-24.435741,33.469833,-2.8046658,-46.838116,-10.510217,-26.004074
180,0.08655690401792526,2.367525339126587,42.84048843383789,0.7138845861464153,-30.917145089660366,-89.68328972085888,-57.03709,-1.246193,-13.761059,87.87365,-2.6457489,-15.000033,-58.778973,-6.220206,7.517823,89.94024,-3.4861202,15.000033,-1.5544254,-1.374802,26.720642,15.872397,27.410202,-33.967873,-4.3833103,36.357,1.134863,25.713314,12.948137,-24.435543,33.472366,-2.8034427,-46.842487,-10.502758,-26.015184
181,0.08701986819505692,2.368239164352417,42.84138107299805,0.7158857937596526,-30.91545916452898,-89.68864950809618,-57.03935,-1.2491972,-13.769843,87.875984,-2.6440418,-15.000033,-58.780876,-6.2164555,7.515892,89.940025,-3.4851923,15.000033,-1.5530235,-1.3744376,26.71702,15.869916,27.410303,-33.968796,-4.3775353,36.365498,1.137496,25.710108,12.943202,-24.435493,33.47548,-2.795309,-46.84128,-10.508242,-26.009216
182,0.08751534670591354,2.3683717250823975,42.84181213378906,0.7173658835647956,-30.911442309495094,-89.6976405557358,-57.04423,-1.2550929,-13.787157,87.87949,-2.640506,-15.000033,-58.78482,-6.210429,7.511034,89.93847,-3.4845717,15.000033,-1.5484308,-1.372928,26.710114,15.867747,27.41066,-33.96917,-4.372715,36.380234,1.1486717,25.702648,12.936892,-24.43577,33.476734,-2.7847545,-46.83671,-10.522619,-25.98948
183,0.08592087775468826,2.368196964263916,42.841224670410156,0.7187677585396367,-30.907371055697666,-89.7066544985255,-57.049282,-1.2613366,-13.805461,87.88284,-2.6362696,-15.000033,-58.788864,-6.2044554,7.5057626,89.937,-3.4844222,15.000033,-1.5432649,-1.3713984,26.703186,15.86484,27.411026,-33.969437,-4.3673015,36.394245,1.1615876,25.694574,12.931377,-24.436142,33.476784,-2.7754507,-46.83215,-10.536763,-25.964066
184,0.08572206646203995,2.368680000305176,42.84092330932617,0.7182960965280775,-30.905069361020708,-89.71161245661133,-57.05229,-1.2655367,-13.817363,87.884735,-2.6328034,-15.000033,-58.79106,-6.2011933,7.502276,89.93552,-3.4842138,15.000033,-1.5416621,-1.3700753,26.699703,15.86325,27.411793,-33.970123,-4.363668,36.40068,1.1711371,25.690536,12.9270315,-24.436913,33.475986,-2.7712262,-46.829445,-10.541946,-25.940872
185,0.08553518354892731,2.3691794872283936,42.84054183959961,0.7169664295818347,-30.905149421366158,-89.71056385808282,-57.05303,-1.2671437,-13.820874,87.88533,-2.62965,-15.000033,-58.79108,-6.201616,7.5016227,89.93487,-3.484419,15.000033,-1.544867,-1.3690917,26.700811,15.862601,27.412504,-33.97158,-4.3617225,36.394688,1.1772058,25.692621,12.92545,-24.437523,33.474293,-2.7751884,-46.827698,-10.53453,-25.918951
186,0.08509689569473267,2.3696281909942627,42.84099578857422,0.7125275383651745,-30.906551210706684,-89.70558137768191,-57.05252,-1.2675486,-13.820044,87.884636,-2.6259654,-15.000033,-58.78971,-6.2041316,7.502328,89.93449,-3.4851353,15.000033,-1.5510637,-1.3681487,26.704325,15.8609295,27.413296,-33.973923,-4.359084,36.380314,1.1822103,25.698225,12.926781,-24.43802,33.471798,-2.7854567,-46.826912,-10.519245,-25.89541
187,0.08613971620798111,2.3701179027557373,42.84116744995117,0.708355606342271,-30.90882975202671,-89.69975531043794,-57.05105,-1.2664852,-13.81589,87.88331,-2.6233656,-15.000033,-58.78757,-6.207761,7.503719,89.93414,-3.48575,15.000033,-1.5554861,-1.3664933,26.709154,15.858655,27.415117,-33.979317,-4.357552,36.364986,1.1847919,25.704798,12.932482,-24.438889,33.465282,-2.7999208,-46.82947,-10.501143,-25.87416
188,0.08756986260414124,2.370459794998169,42.84084701538086,0.7066925330045978,-30.91121259737918,-89.69565547948427,-57.04868,-1.2638489,-13.80926,87.881325,-2.6225655,-15.000033,-58.785084,-6.2109547,7.5051036,89.9339,-3.486107,15.000033,-1.5606375,-1.3661287,26.713348,15.857166,27.416317,-33.98155,-4.3564863,36.355034,1.182059,25.70837,12.936254,-24.439234,33.460915,-2.8107874,-46.838432,-10.483748,-25.86
189,0.08823682367801666,2.371122360229492,42.840049743652344,0.7066674847647398,-30.91366926055061,-89.69246989277168,-57.045044,-1.2580236,-13.797324,87.87786,-2.6248631,-15.000033,-58.782402,-6.2138333,7.5069118,89.93398,-3.4853694,15.000033,-1.56593,-1.3665812,26.716793,15.857827,27.417137,-33.981483,-4.35789,36.352036,1.170002,25.70737,12.939588,-24.439137,33.4569,-2.81982,-46.860165,-10.463139,-25.852888
190,0.08742877095937729,2.3711299896240234,42.84049606323242,0.7082611952647293,-30.916331559408814,-89.690409447919,-57.040535,-1.2490785,-13.780548,87.872505,-2.6284876,-15.000033,-58.778957,-6.216707,7.5093374,89.933815,-3.484173,15.000033,-1.5720042,-1.3687189,26.718819,15.858717,27.417446,-33.980587,-4.359483,36.352043,1.1532457,25.704048,12.940257,-24.438883,33.45446,-2.8245041,-46.888042,-10.440931,-25.85115
191,0.08912662416696548,2.372324228286743,42.842735290527344,0.7108123036213527,-30.91971472359255,-89.68873803031659,-57.035088,-1.2415888,-13.765277,87.86817,-2.6338093,-15.000033,-58.77486,-6.21999,7.511104,89.93379,-3.4833963,15.000033,-1.5769838,-1.3692582,26.723927,15.86067,27.417847,-33.97719,-4.363421,36.355972,1.1330436,25.70025,12.945384,-24.43804,33.450005,-2.8346927,-46.918438,-10.420358,-25.854744
192,0.09055346250534058,2.371581554412842,42.84182357788086,0.7113292084509467,-30.923465051459043,-89.68902174798389,-57.030033,-1.2372774,-13.757897,87.86668,-2.6385248,-15.000033,-58.769867,-6.221865,7.510537,89.93322,-3.4843783,15.000033,-1.5782353,-1.3700681,26.729471,15.864155,27.418324,-33.972225,-4.3680267,36.365723,1.1223992,25.697807,12.951103,-24.436892,33.44463,-2.8420358,-46.929638,-10.418422,-25.865143
193,0.09242742508649826,2.371025323867798,42.84078598022461,0.7133275685531247,-30.9287220730216,-89.69307600789767,-57.024147,-1.2382379,-13.762808,87.870674,-2.6455684,-15.000033,-58.763004,-6.2226343,7.505194,89.93222,-3.488053,15.000033,-1.5748953,-1.3690789,26.736216,15.867406,27.418943,-33.969112,-4.3713336,36.382874,1.1265445,25.70244,12.953531,-24.435638,33.442726,-2.841544,-46.909016,-10.440748,-25.892075
194,0.09147342294454575,2.369690179824829,42.838375091552734,0.7156242573384368,-30.93535165940926,-89.70073364170662,-57.01763,-1.2422435,-13.775392,87.877785,-2.653696,-15.000033,-58.754177,-6.2223125,7.496805,89.93094,-3.4942198,15.000033,-1.5680244,-1.3669504,26.743359,15.869386,27.419292,-33.967926,-4.372666,36.40572,1.1403196,25.712048,12.956089,-24.435055,33.443645,-2.8373756,-46.86901,-10.479305,-25.932291
195,0.09062182158231735,2.3687517642974854,42.837013244628906,0.7152864197005365,-30.940315950393167,-89.70663609264388,-57.013023,-1.2481213,-13.790115,87.88484,-2.659854,-15.000033,-58.746883,-6.2218146,7.488911,89.92928,-3.4996748,15.000033,-1.5614372,-1.3645871,26.749008,15.871339,27.419502,-33.967384,-4.373701,36.426163,1.1560687,25.721064,12.958162,-24.434786,33.444866,-2.8341293,-46.826782,-10.51806,-25.969086
196,0.08993187546730042,2.3680741786956787,42.836143493652344,0.7165600384663515,-30.94187213022629,-89.70993887758053,-57.01208,-1.2543317,-13.801283,87.88863,-2.6608145,-15.000033,-58.744343,-6.221193,7.48521,89.92798,-3.5022612,15.000033,-1.559417,-1.3633941,26.751045,15.873415,27.419743,-33.96697,-4.3748894,36.436142,1.1686536,25.72495,12.958168,-24.434557,33.445827,-2.830445,-46.799126,-10.545144,-25.991095
197,0.09012950211763382,2.3695249557495117,42.837066650390625,0.7146650993063047,-30.93728347560505,-89.70634216160735,-57.018295,-1.26276,-13.808272,87.88758,-2.6529398,-15.000033,-58.749397,-6.2213063,7.487608,89.92697,-3.500952,15.000033,-1.5639436,-1.364275,26.747093,15.874962,27.420185,-33.966755,-4.3762283,36.42828,1.1770242,25.719585,12.956342,-24.434256,33.44548,-2.8297102,-46.793648,-10.553511,-25.986813
198,0.08861146122217178,2.3704025745391846,42.836997985839844,0.7107716175297942,-30.929047169301697,-89.69932128539257,-57.02837,-1.2732465,-13.813893,87.88388,-2.6397266,-15.000033,-58.759117,-6.22132,7.493827,89.92613,-3.4971642,15.000033,-1.571675,-1.3664191,26.740097,15.876257,27.420542,-33.96691,-4.377412,36.410393,1.1838472,25.708818,12.953632,-24.434044,33.444237,-2.8303432,-46.79931,-10.552707,-25.968235
199,0.089653380215168,2.3721444606781006,42.839752197265625,0.7082430866730598,-30.91862111842919,-89.69125374889633,-57.04137,-1.282759,-13.817366,87.87882,-2.6246834,-15.000033,-58.77135,-6.2215614,7.501089,89.92512,-3.4914768,15.000033,-1.5805336,-1.3669416,26.730335,15.876508,27.422218,-33.9678,-4.3802743,36.387005,1.1887574,25.69576,12.951774,-24.433105,33.43731,-2.8328652,-46.81318,-10.547123,-25.938393
200,0.0895618125796318,2.3740179538726807,42.84136962890625,0.705301498216132,-30.913452850626076,-89.6866089323375,-57.04769,-1.285962,-13.817769,87.87546,-2.615332,-15.000033,-58.77758,-6.219264,7.507308,89.9247,-3.4859068,15.000033,-1.5860348,-1.367465,26.726208,15.876925,27.422556,-33.96802,-4.3788266,36.377785,1.186157,25.69154,12.950531,-24.43292,33.435944,-2.8340833,-46.826946,-10.538084,-25.924818
201,0.09007994830608368,2.374929904937744,42.84318923950195,0.7021298150538758,-30.911015745711723,-89.68508751359626,-57.050884,-1.2806213,-13.814133,87.87325,-2.6109996,-15.000033,-58.78006,-6.21342,7.5121603,89.92387,-3.477572,15.000033,-1.58935,-1.3638856,26.724854,15.876154,27.4231,-33.967617,-4.373113,36.380627,1.1698391,25.696619,12.951572,-24.432543,33.43354,-2.8369145,-46.849537,-10.522485,-25.91998
202,0.09118715673685074,2.3753466606140137,42.84691619873047,0.6974703693084054,-30.911594904600605,-89.68521049310823,-57.050632,-1.2689357,-13.806941,87.872055,-2.6100662,-15.000033,-58.77936,-6.2043166,7.5173306,89.92353,-3.4672854,15.000033,-1.589732,-1.3590813,26.727037,15.876161,27.42367,-33.96605,-4.365117,36.394684,1.1435813,25.707932,12.955608,-24.43192,33.431156,-2.840909,-46.878685,-10.502213,-25.92346
203,0.09194853156805038,2.3756582736968994,42.848392486572266,0.6948807838835818,-30.91431960167959,-89.68654345619358,-57.047535,-1.2565018,-13.798625,87.871376,-2.611895,-15.000033,-58.77605,-6.1967816,7.5207343,89.92339,-3.458966,15.000033,-1.5895687,-1.3552303,26.731464,15.876164,27.424189,-33.96335,-4.358022,36.40983,1.1188222,25.720615,12.959915,-24.430874,33.429905,-2.8452985,-46.905937,-10.4817505,-25.929201
204,0.09311271458864212,2.3744876384735107,42.84933090209961,0.6946857554967165,-30.91915241800168,-89.68767773759137,-57.041878,-1.2484025,-13.791638,87.8714,-2.6163406,-15.000033,-58.770477,-6.195147,7.5207014,89.92366,-3.4568942,15.000033,-1.5891701,-1.3537948,26.737867,15.8774605,27.424347,-33.96155,-4.3565288,36.41908,1.107648,25.731297,12.961601,-24.429976,33.430027,-2.848948,-46.91968,-10.465992,-25.933607
205,0.09320954233407974,2.374281644821167,42.84789276123047,0.6991851078642218,-30.927995207157522,-89.68876389490457,-57.030937,-1.2465098,-13.785237,87.872345,-2.625595,-15.000033,-58.760353,-6.203178,7.51522,89.9249,-3.4646487,15.000033,-1.5876329,-1.356668,26.74843,15.880196,27.42431,-33.960667,-4.3636084,36.42053,1.1170267,25.740456,12.9616585,-24.428999,33.43102,-2.8533635,-46.91487,-10.456977,-25.93741
206,0.09244003146886826,2.3726859092712402,42.84403991699219,0.7053208363113898,-30.940434115077373,-89.69019272214297,-57.015755,-1.2478173,-13.778615,87.874275,-2.639076,-15.000033,-58.746304,-6.2175922,7.5057826,89.92687,-3.4790664,15.000033,-1.5853152,-1.3619838,26.762703,15.88427,27.424149,-33.960583,-4.376941,36.418022,1.139944,25.750063,12.96134,-24.427816,33.433075,-2.859124,-46.897648,-10.451548,-25.941927
207,0.09161459654569626,2.3706040382385254,42.84065246582031,0.7118136650617063,-30.95198085521986,-89.69119076388606,-57.00208,-1.250723,-13.773857,87.87696,-2.6519587,-15.000033,-58.733414,-6.2325907,7.495637,89.92902,-3.4950154,15.000033,-1.5826514,-1.3672605,26.775917,15.887292,27.423994,-33.960896,-4.3898635,36.41231,1.1644452,25.756851,12.961406,-24.42711,33.434376,-2.8645284,-46.878254,-10.448669,-25.944086
208,0.09038123488426208,2.3703830242156982,42.836997985839844,0.7143505458541985,-30.958079032108902,-89.69117990216508,-56.994457,-1.2539115,-13.773653,87.879,-2.6600976,-15.000033,-58.72591,-6.242892,7.487312,89.9292,-3.5057976,15.000033,-1.5809999,-1.3695536,26.78286,15.888378,27.423918,-33.961174,-4.3966303,36.40508,1.1779172,25.757778,12.961158,-24.426727,33.43502,-2.8671942,-46.86638,-10.447005,-25.940895
209,0.0910227969288826,2.3700966835021973,42.833499908447266,0.7142622961142481,-30.959281506960306,-89.68941298892437,-56.994003,-1.2589939,-13.779906,87.88218,-2.6618533,-15.000033,-58.723198,-6.24781,7.4819226,89.92777,-3.5130994,15.000033,-1.5813037,-1.3700163,26.784834,15.888661,27.423927,-33.961674,-4.4000316,36.39524,1.1828052,25.749422,12.958297,-24.426441,33.43523,-2.8660653,-46.8613,-10.447342,-25.92861
210,0.08964914828538895,2.370206594467163,42.8317756652832,0.7094666463634106,-30.95631704950499,-89.68588380015598,-56.998997,-1.2659923,-13.791445,87.8858,-2.6594718,-15.000033,-58.724667,-6.2499933,7.477153,89.92498,-3.5185254,15.000033,-1.5836844,-1.367692,26.782145,15.887356,27.424133,-33.962387,-4.400766,36.380478,1.181381,25.73316,12.953718,-24.425995,33.434483,-2.8623538,-46.85945,-10.450461,-25.908407
211,0.08847638964653015,2.3706321716308594,42.83124542236328,0.7041933471713374,-30.95068561985953,-89.68274955645745,-57.007042,-1.2715975,-13.803205,87.88862,-2.6545334,-15.000033,-58.729427,-6.2488284,7.4746394,89.922104,-3.520016,15.000033,-1.5853084,-1.3635935,26.776035,15.883241,27.424957,-33.96346,-4.3974414,36.36465,1.1752449,25.715439,12.948007,-24.425138,33.43142,-2.8554978,-46.861847,-10.45338,-25.885023
212,0.08795969933271408,2.371961832046509,42.83266830444336,0.7014405755425728,-30.94499672336516,-89.68233285270477,-57.014427,-1.2729192,-13.809291,87.8891,-2.648459,-15.000033,-58.73582,-6.2433443,7.4770665,89.92114,-3.5164673,15.000033,-1.5847238,-1.3608433,26.77013,15.880336,27.425615,-33.96432,-4.393556,36.356716,1.1677686,25.704803,12.945724,-24.424803,33.42989,-2.8511777,-46.870884,-10.449923,-25.866514
213,0.08885020017623901,2.373199701309204,42.83591079711914,0.7002130628115184,-30.937699580401596,-89.6853567905562,-57.02256,-1.2673271,-13.807163,87.88534,-2.6388712,-15.000033,-58.746346,-6.2299476,7.48792,89.92324,-3.503655,15.000033,-1.5815707,-1.3587662,26.761868,15.87731,27.426361,-33.96539,-4.3864875,36.356514,1.1567973,25.703226,12.945647,-24.424664,33.429962,-2.8478117,-46.890377,-10.435343,-25.849741
214,0.08883384615182877,2.3733606338500977,42.83885192871094,0.7026987503313926,-30.928621629949912,-89.69137289547707,-57.03212,-1.2573552,-13.800241,87.879585,-2.626983,-15.000033,-58.76043,-6.210341,7.5049963,89.92684,-3.483385,15.000033,-1.5771328,-1.3569571,26.75112,15.875417,27.42675,-33.96594,-4.377532,36.362617,1.1422964,25.706806,12.945437,-24.424822,33.431637,-2.843513,-46.917366,-10.413585,-25.833344
215,0.08867628872394562,2.3743088245391846,42.84290313720703,0.7052136274444305,-30.920656676603272,-89.69740244192377,-57.040565,-1.2467304,-13.79205,87.87343,-2.615901,-15.000033,-58.77374,-6.191416,7.5216312,89.93115,-3.463728,15.000033,-1.5731746,-1.3558619,26.741098,15.8735075,27.426966,-33.966248,-4.368161,36.370007,1.129003,25.71257,12.947153,-24.4252,33.435394,-2.84134,-46.944603,-10.390834,-25.822021
216,0.08958029747009277,2.3746190071105957,42.847537994384766,0.7062514921319059,-30.918008127772598,-89.70052140183931,-57.04222,-1.2404587,-13.786215,87.86904,-2.6104949,-15.000033,-58.779285,-6.181135,7.5312734,89.93421,-3.4526513,15.000033,-1.5705485,-1.3556823,26.73729,15.87289,27.42699,-33.965942,-4.3653865,36.37729,1.1239868,25.71551,12.947243,-24.425499,33.43733,-2.8390243,-46.960255,-10.37901,-25.819263
217,0.08857396245002747,2.376405954360962,42.85050582885742,0.7072407127799846,-30.92106410622996,-89.7011323599254,-57.037445,-1.2386382,-13.783525,87.86758,-2.613119,-15.000033,-58.776672,-6.181853,7.53077,89.93518,-3.4523928,15.000033,-1.5699445,-1.356302,26.740105,15.873892,27.426853,-33.964108,-4.3683944,36.38455,1.1260811,25.71619,12.947711,-24.42585,33.440693,-2.8411372,-46.964687,-10.375021,-25.83167
218,0.08902556449174881,2.3776400089263916,42.8508186340332,0.7085573762215673,-30.929204742300847,-89.69992233400683,-57.026302,-1.2400825,-13.781955,87.86735,-2.621017,-15.000033,-58.767662,-6.1900735,7.524499,89.93603,-3.4594154,15.000033,-1.5715123,-1.3586847,26.748644,15.877504,27.426456,-33.959286,-4.3781886,36.392956,1.1345093,25.714434,12.946813,-24.42625,33.44408,-2.8433323,-46.96104,-10.379749,-25.853807
219,0.08976931869983673,2.375966787338257,42.84796142578125,0.7085557937609613,-30.93786865900199,-89.69798470352151,-57.014935,-1.2427632,-13.781783,87.86811,-2.630437,-15.000033,-58.757053,-6.2009854,7.515109,89.93578,-3.469488,15.000033,-1.5713822,-1.3600869,26.757097,15.878595,27.426228,-33.957535,-4.385647,36.39924,1.1455781,25.713894,12.94641,-24.42632,33.4446,-2.8461142,-46.951168,-10.38797,-25.875067
220,0.08842296898365021,2.3743999004364014,42.843013763427734,0.7102299890806343,-30.947500399021358,-89.69637082645039,-57.003483,-1.2460885,-13.782553,87.87032,-2.6387732,-15.000033,-58.74504,-6.2105474,7.506877,89.93551,-3.4804344,15.000033,-1.5725635,-1.362706,26.769863,15.882887,27.4257,-33.953037,-4.398531,36.407066,1.1613995,25.712868,12.944432,-24.42646,33.44617,-2.84759,-46.9387,-10.399835,-25.894419
221,0.08857660740613937,2.373122453689575,42.83792495727539,0.7113950290234786,-30.955427963694984,-89.69528838666282,-56.99503,-1.2504798,-13.786079,87.874344,-2.6465313,-15.000033,-58.73424,-6.219737,7.49692,89.93436,-3.4929352,15.000033,-1.5729637,-1.3641579,26.780745,15.886386,27.425333,-33.95157,-4.408187,36.41128,1.183387,25.716766,12.940656,-24.426569,33.4473,-2.8473287,-46.918297,-10.413533,-25.902855
222,0.08555492013692856,2.3721041679382324,42.83284378051758,0.710958885276783,-30.963838781506436,-89.69338936578555,-56.987293,-1.255934,-13.791409,87.88072,-2.6546304,-15.000033,-58.72187,-6.2298446,7.48497,89.93245,-3.508528,15.000033,-1.57231,-1.3650997,26.792892,15.88862,27.425003,-33.952847,-4.416962,36.413765,1.2121845,25.723602,12.938855,-24.426607,33.447548,-2.8490012,-46.891262,-10.430569,-25.907547
223,0.08385012298822403,2.3713815212249756,42.82963180541992,0.711250907349295,-30.97029893949195,-89.69263850977927,-56.98179,-1.260931,-13.796786,87.886345,-2.6606855,-15.000033,-58.711796,-6.237744,7.4754076,89.930244,-3.5215774,15.000033,-1.5703586,-1.3660244,26.80242,15.890178,27.424738,-33.955208,-4.4236364,36.41503,1.2363842,25.72947,12.9376135,-24.426699,33.447037,-2.849145,-46.86668,-10.447003,-25.909258
224,0.08395755290985107,2.3712644577026367,42.82908248901367,0.7119072557965582,-30.972537701836526,-89.69323352835325,-56.98005,-1.2636216,-13.800306,87.88901,-2.662809,-15.000033,-58.708347,-6.239672,7.4724135,89.92927,-3.5266001,15.000033,-1.5682704,-1.3665397,26.806116,15.889722,27.42458,-33.95671,-4.425954,36.413616,1.244324,25.7303,12.937888,-24.426758,33.446663,-2.8489773,-46.85307,-10.458268,-25.909897
225,0.08246594667434692,2.3712844848632812,42.83100509643555,0.7166240548297187,-30.96804828198248,-89.6979836680661,-56.984165,-1.2635357,-13.801404,87.88707,-2.6585002,-15.000033,-58.715218,-6.2324157,7.480263,89.92991,-3.5194523,15.000033,-1.5642762,-1.3673301,26.800184,15.888445,27.424404,-33.95705,-4.4227223,36.41022,1.2244278,25.72187,12.938821,-24.426897,33.446587,-2.8452852,-46.854885,-10.462835,-25.906836
226,0.08251123130321503,2.371455430984497,42.83444595336914,0.721386221530452,-30.959738988158154,-89.70416793574245,-56.991737,-1.2623053,-13.801352,87.882675,-2.6500878,-15.000033,-58.72776,-6.218915,7.495433,89.93191,-3.5045326,15.000033,-1.559943,-1.3691978,26.789974,15.887465,27.424307,-33.95651,-4.41856,36.406292,1.1899011,25.708218,12.938986,-24.427053,33.44693,-2.8395064,-46.86625,-10.463188,-25.9004
227,0.08467252552509308,2.371849298477173,42.838924407958984,0.7254541054620415,-30.94843123195536,-89.71080869459989,-57.00241,-1.2587011,-13.799866,87.87678,-2.6400304,-15.000033,-58.744213,-6.203843,7.5115924,89.93321,-3.4866302,15.000033,-1.5558194,-1.3695188,26.774105,15.88469,27.424034,-33.953506,-4.4072876,36.39856,1.1463859,25.692669,12.940781,-24.427399,33.447983,-2.8329053,-46.882545,-10.461008,-25.895388
228,0.08450542390346527,2.3732450008392334,42.84358215332031,0.7260300120849829,-30.941694420477308,-89.71325539378512,-57.009014,-1.2552599,-13.797784,87.87223,-2.6324158,-15.000033,-58.754063,-6.1939926,7.5219245,89.93417,-3.4743044,15.000033,-1.5582936,-1.3705275,26.766268,15.88646,27.423132,-33.94722,-4.40442,36.394596,1.1280277,25.685709,12.9422455,-24.42815,33.45062,-2.8320906,-46.895992,-10.458183,-25.897017
229,0.08554139733314514,2.37636661529541,42.84762191772461,0.7215488184051224,-30.93976584277658,-89.7100549667455,-57.01133,-1.2502124,-13.793893,87.86845,-2.6270053,-15.000033,-58.75661,-6.190543,7.5245867,89.93402,-3.4675612,15.000033,-1.5655413,-1.3684757,26.766174,15.888838,27.42253,-33.94596,-4.4083996,36.391808,1.1464171,25.693726,12.941045,-24.428507,33.45149,-2.8331287,-46.90467,-10.45475,-25.910288
230,0.08774907141923904,2.3774797916412354,42.85017395019531,0.7136932220667196,-30.940198707361333,-89.70360866252307,-57.011574,-1.2434019,-13.788593,87.864494,-2.6223288,-15.000033,-58.754868,-6.1902623,7.5228543,89.93223,-3.4630826,15.000033,-1.5775509,-1.364547,26.76947,15.892784,27.421518,-33.946503,-4.4163523,36.38998,1.1874541,25.711233,12.937785,-24.428864,33.453197,-2.8345199,-46.913006,-10.449462,-25.93192
231,0.08774930983781815,2.377810478210449,42.8504524230957,0.7058750175518401,-30.942472355401758,-89.69614530807587,-57.010185,-1.2381268,-13.783669,87.86182,-2.6195204,-15.000033,-58.75078,-6.1928124,7.51902,89.93076,-3.4620712,15.000033,-1.5884035,-1.3606422,26.774849,15.895352,27.420185,-33.949127,-4.4232993,36.38884,1.2307892,25.730165,12.936947,-24.428898,33.453083,-2.8386898,-46.92012,-10.443753,-25.952036
232,0.08766729384660721,2.3780171871185303,42.84925079345703,0.7012624781654152,-30.945842197737505,-89.69039656908711,-57.007034,-1.2370126,-13.781166,87.86103,-2.6196263,-15.000033,-58.74538,-6.1972933,7.514972,89.92969,-3.465369,15.000033,-1.5948151,-1.3592565,26.780535,15.897243,27.419485,-33.950577,-4.4273925,36.389427,1.2564647,25.742346,12.937729,-24.428673,33.451332,-2.8437395,-46.92445,-10.43862,-25.961393
233,0.08753973245620728,2.376765727996826,42.845314025878906,0.7016758288396199,-30.95155782105628,-89.68734439321582,-57.00109,-1.242817,-13.78267,87.86332,-2.6244462,-15.000033,-58.73754,-6.206021,7.5104322,89.929054,-3.4761553,15.000033,-1.59472,-1.3611119,26.786919,15.896979,27.418867,-33.951336,-4.425918,36.392075,1.256475,25.744263,12.93952,-24.428133,33.44655,-2.8488557,-46.92482,-10.433481,-25.954853
234,0.08758509159088135,2.3764095306396484,42.841575622558594,0.7059149304242331,-30.959269786127237,-89.68554271728723,-56.992878,-1.2534399,-13.786761,87.86825,-2.6328416,-15.000033,-58.7272,-6.218343,7.504557,89.929184,-3.4930856,15.000033,-1.5914396,-1.3656229,26.794472,15.897109,27.418629,-33.95078,-4.422282,36.39715,1.241941,25.740461,12.94316,-24.42754,33.44118,-2.855789,-46.922596,-10.4275,-25.938774
235,0.08540446311235428,2.3739445209503174,42.83627700805664,0.7100637637919645,-30.96674039265723,-89.68499321930967,-56.984756,-1.2638528,-13.791309,87.87337,-2.6419086,-15.000033,-58.71742,-6.2301326,7.4984083,89.92922,-3.509648,15.000033,-1.5868422,-1.3700808,26.801878,15.896964,27.418585,-33.949764,-4.419055,36.40149,1.2241743,25.735537,12.946553,-24.426994,33.43551,-2.8612423,-46.91883,-10.42419,-25.920298
236,0.08507376909255981,2.373619556427002,42.83517074584961,0.7151761900709618,-30.973090054941768,-89.68629382693614,-56.977833,-1.2696254,-13.793297,87.87686,-2.6486547,-15.000033,-58.70936,-6.237151,7.494119,89.92865,-3.5196908,15.000033,-1.5780946,-1.3725752,26.81121,15.893608,27.418804,-33.94931,-4.417286,36.405434,1.2098988,25.731857,12.956106,-24.425125,33.419746,-2.8733008,-46.91558,-10.428004,-25.900051
237,0.08389460295438766,2.3717894554138184,42.8337287902832,0.7177299854099048,-30.976601379496458,-89.6911955095549,-56.973183,-1.2676284,-13.792107,87.87765,-2.6527932,-15.000033,-58.704933,-6.237697,7.490515,89.927025,-3.5205095,15.000033,-1.5734559,-1.3733655,26.81629,15.892212,27.418941,-33.950844,-4.420364,36.402294,1.2108485,25.738287,12.958326,-24.423916,33.415943,-2.87603,-46.905247,-10.437455,-25.890478
