unveil-humanoid-operators/unveil-humanoid-operators.github.io/feature-analysis-animation/data/feature_matrix_instances/height_ankle_rom_walking_A064_walk_hands_on_back_loop_003__A064.csv
Frame,root_translateX,root_translateY,root_translateZ,root_rotateX,root_rotateY,root_rotateZ,left_hip_pitch_joint_dof,left_hip_roll_joint_dof,left_hip_yaw_joint_dof,left_knee_joint_dof,left_ankle_pitch_joint_dof,left_ankle_roll_joint_dof,right_hip_pitch_joint_dof,right_hip_roll_joint_dof,right_hip_yaw_joint_dof,right_knee_joint_dof,right_ankle_pitch_joint_dof,right_ankle_roll_joint_dof,waist_yaw_joint_dof,waist_roll_joint_dof,waist_pitch_joint_dof,left_shoulder_pitch_joint_dof,left_shoulder_roll_joint_dof,left_shoulder_yaw_joint_dof,left_elbow_joint_dof,left_wrist_roll_joint_dof,left_wrist_pitch_joint_dof,left_wrist_yaw_joint_dof,right_shoulder_pitch_joint_dof,right_shoulder_roll_joint_dof,right_shoulder_yaw_joint_dof,right_elbow_joint_dof,right_wrist_roll_joint_dof,right_wrist_pitch_joint_dof,right_wrist_yaw_joint_dof
0,0.070201575756073,-2.174359083175659,76.2370834350586,-1.0437092627142703,-2.0629501934315875,93.40037002190957,-26.329657,3.9440114,11.538599,27.417547,-2.6925213,-6.4694624,18.42914,4.84674,-15.4184,7.0112133,-18.893124,-2.0414896,3.276773,0.97624505,10.668155,28.593233,0.29991668,-75.65652,48.725674,35.90291,6.0770836,7.093597,22.545706,-4.0278726,86.53705,30.16543,-25.391531,7.9596066,0.42716202
1,0.027246709913015366,-1.08979070186615,75.96162414550781,-1.410475326206781,-2.2442208381706035,92.8998073716415,-25.175823,3.690243,11.415064,21.599022,-1.6176783,-7.4934735,19.581902,5.2707186,-14.9712515,6.995545,-19.088442,-1.9303249,3.5714672,1.3979317,10.73305,28.579927,0.2714672,-75.6524,48.752815,36.160122,6.1868997,7.0388675,22.523813,-4.041747,86.58598,30.23292,-25.58134,7.9445586,0.41511524
2,-0.0018097899155691266,0.010373991914093494,75.65621948242188,-1.8926267568307074,-2.479748457129287,92.29433660749933,-23.801651,3.7081048,11.250914,15.370003,-0.4152834,-8.445332,20.78873,5.8096085,-14.39332,6.97729,-19.302515,-1.852529,3.982074,1.952523,10.833843,28.581684,0.25434306,-75.659485,48.764515,36.426025,6.309678,6.9777603,22.509491,-4.0516863,86.633415,30.3104,-25.774313,7.9276633,0.4071239
3,-0.03579442575573921,1.117059588432312,75.32428741455078,-2.490579747837204,-2.754651447290693,91.5651874549221,-22.146494,4.0012736,11.192809,8.83886,0.9848803,-9.335486,22.033495,6.4327097,-13.638708,6.95809,-19.449032,-1.7934291,4.503918,2.6422124,10.943273,28.590387,0.24553579,-75.671005,48.744396,36.68829,6.4167366,6.923937,22.504065,-4.0582156,86.668686,30.392618,-25.9747,7.921115,0.38702345
4,-0.08692757040262222,2.248969793319702,74.98907470703125,-3.1149039083111085,-3.0202983125945813,90.77393884081138,-22.314552,4.8144846,11.208022,6.673794,0.26060402,-10.180446,23.263016,7.012976,-12.765492,6.9449434,-19.448439,-1.7144965,5.0470023,3.3706758,11.006315,28.60043,0.22124587,-75.701256,48.699234,36.910732,6.489785,6.9073534,22.512587,-4.0797114,86.70814,30.4584,-26.169497,7.9456944,0.32214332
5,-0.14860817790031433,3.400444269180298,74.67906188964844,-3.713171822189789,-3.239130874199229,89.96076358783311,-23.300444,5.7769074,11.385612,6.516676,-1.3692262,-11.078602,24.441492,7.4935255,-11.839589,6.936163,-19.302347,-1.5873601,5.565181,4.080129,11.004271,28.58955,0.18171671,-75.72778,48.61442,37.076702,6.4966226,6.923273,22.521288,-4.1206317,86.72228,30.507505,-26.40934,7.9889107,0.20462897
6,-0.2163369506597519,4.546488285064697,74.3931655883789,-4.239192733688549,-3.4094405888155954,89.18428852842246,-24.277227,6.6651883,11.7093,6.4675593,-2.9435928,-11.984886,25.569561,7.8429403,-10.940345,6.9295807,-19.05467,-1.410512,6.0108957,4.7078624,10.950727,28.560993,0.14372252,-75.746864,48.49333,37.200237,6.456323,6.9627976,22.524586,-4.164648,86.72414,30.553886,-26.675468,8.045491,0.048705127
7,-0.30794763565063477,5.717748165130615,74.14381408691406,-4.5911717876971325,-3.5261866078893576,88.52011558853042,-25.02164,7.3437505,12.153692,6.2998915,-4.233388,-12.726921,26.65014,7.9671283,-10.148137,6.924579,-18.696674,-1.1791359,6.3240695,5.1395187,10.857593,28.511564,0.10243172,-75.757545,48.38553,37.33247,6.3971367,7.0159984,22.524315,-4.215179,86.71695,30.571098,-26.890125,8.120912,-0.09770356
8,-0.41948962211608887,6.901744842529297,73.93865966796875,-4.769890295302727,-3.572152272302074,88.03180598622905,-25.588997,7.802969,12.6258135,6.3124394,-5.2443404,-13.195298,27.664097,7.8973074,-9.509255,6.912677,-18.202007,-0.9192588,6.4609427,5.354974,10.717474,28.441898,0.07051897,-75.76302,48.321518,37.525818,6.352298,7.073642,22.52163,-4.2550926,86.697136,30.553104,-26.980913,8.219638,-0.18547253
9,-0.5137091279029846,8.093931198120117,73.76329040527344,-4.849912365798761,-3.582710597339297,87.64944859025451,-25.802164,8.107557,13.172156,6.3286915,-5.9257903,-13.453972,28.631485,7.717999,-8.914699,6.898321,-17.588942,-0.6845212,6.4846783,5.4386916,10.5505495,28.365559,0.020370152,-75.76814,48.337772,37.823647,6.328107,7.160955,22.524681,-4.316852,86.69013,30.447432,-26.837498,8.402836,-0.18712518
10,-0.6151409149169922,9.299033164978027,73.61715698242188,-4.861319957926764,-3.55054178155803,87.34879275256323,-25.732283,8.269454,13.81521,6.3461533,-6.317566,-13.577746,29.555555,7.4614067,-8.35744,6.875788,-16.859085,-0.4537733,6.407439,5.4329715,10.348298,28.291885,-0.010222239,-75.77117,48.354942,38.191936,6.3132634,7.2682385,22.527328,-4.3537254,86.69345,30.336088,-26.52668,8.645341,-0.14257348
11,-0.7174755930900574,10.511032104492188,73.49888610839844,-4.767621839043802,-3.4666147687405204,87.16356853772629,-25.45973,8.245068,14.507521,6.3602157,-6.2835803,-13.466099,30.424072,7.1000195,-7.925705,6.842285,-15.936892,-0.16725272,6.215675,5.297444,10.101097,28.20445,-0.036957793,-75.776596,48.389637,38.562756,6.308898,7.357026,22.543804,-4.384955,86.66399,30.210573,-26.24996,8.843709,-0.089951344
12,-0.8249973654747009,11.766169548034668,73.41039276123047,-4.537626745564942,-3.356389931793356,87.1583589877475,-25.037006,7.964708,15.177006,6.351896,-5.6811156,-13.014186,31.231493,6.615565,-7.7310534,6.8745704,-14.799908,0.22683102,5.880384,5.0192013,9.834169,28.082922,-0.075486064,-75.809,48.450977,38.870872,6.3161583,7.3787775,22.590384,-4.428257,86.5122,30.077982,-26.228413,8.8741,-0.048325855
13,-0.9321494102478027,13.02833366394043,73.36456298828125,-4.068740887204895,-3.1763271161710054,87.34285455775826,-24.457705,7.339661,15.994931,6.378472,-4.3302236,-12.155312,31.979956,5.8936706,-7.8471084,6.912083,-13.456907,0.8183499,5.3973126,4.496463,9.505117,27.926483,-0.11217284,-75.88169,48.51022,39.057274,6.3435473,7.284005,22.686878,-4.467575,86.15703,29.988388,-26.73181,8.567985,-0.051998917
14,-1.0732320547103882,14.309159278869629,73.36042785644531,-3.3733081434008247,-2.9394483110270664,87.70260152499041,-23.736588,6.3863826,16.9428,6.507127,-2.4066174,-10.926207,32.678394,4.9417777,-8.224051,6.9778705,-11.947379,1.5548732,4.7808156,3.7502906,9.120917,27.739462,-0.14820968,-76.00883,48.575294,39.164993,6.3919125,7.1106186,22.822725,-4.5030828,85.62457,29.923464,-27.580658,8.024964,-0.076655015
15,-1.2110310792922974,15.601685523986816,73.39122772216797,-2.4761940576028603,-2.7153154466570952,88.14628029962205,-22.884018,5.1144714,17.839962,6.5142593,-0.18987271,-9.403848,33.093246,3.7473638,-8.723814,7.6243553,-10.437155,2.2871187,4.133832,2.8088074,8.735182,27.521801,-0.18150902,-76.18881,48.677467,39.273827,6.4436474,6.9492035,22.978231,-4.530723,85.06072,29.826382,-28.302412,7.552699,-0.07619427
16,-1.3974909782409668,16.899173736572266,73.48677062988281,-1.5312854599353038,-2.5133502239665932,88.52547973304229,-22.170927,3.7797902,18.451557,6.610736,1.8356707,-7.7013783,32.156906,2.2877326,-9.125016,11.051142,-9.957693,2.8586047,3.5496886,1.7985462,8.345199,27.292053,-0.19659811,-76.332726,48.80287,39.491974,6.4797606,6.879903,23.11109,-4.5381675,84.70271,29.664326,-28.402689,7.466833,-0.010376376
17,-1.5841307640075684,18.203371047973633,73.6030044555664,-0.4566950164200407,-2.282083204915266,88.76869636538869,-21.656431,2.3043742,18.712036,6.6798596,3.9004345,-5.6649666,30.85316,0.61349654,-9.278599,15.027969,-9.240263,3.2432752,3.1352406,0.6442782,7.891643,27.039465,-0.20059438,-76.445435,48.972214,39.83671,6.4642763,6.8939157,23.229305,-4.5338693,84.542564,29.35288,-27.535217,7.999397,0.21726674
18,-1.7385337352752686,19.525598526000977,73.70345306396484,0.7620893066493316,-2.003185025509373,88.89269717736708,-22.526442,1.1315701,18.789766,9.539195,4.669501,-3.3533409,29.337034,-1.2521828,-9.192644,19.217653,-8.185701,3.542774,2.873049,-0.6652022,7.366321,26.764166,-0.19732808,-76.54492,49.179848,40.26239,6.418057,6.9575624,23.344797,-4.5213757,84.49653,28.932032,-26.035305,8.944169,0.53963524
19,-1.881129264831543,20.839611053466797,73.79988098144531,1.9550229433983348,-1.755537981089435,88.94988994552604,-23.372835,0.008870847,18.905476,12.3988905,5.1634703,-1.1098568,27.869867,-3.034214,-8.843733,23.196846,-6.7072573,3.7955048,2.7090108,-1.9485124,6.8710012,26.47708,-0.18356355,-76.72118,49.420002,40.732845,6.421269,7.1296024,23.443651,-4.4933257,84.525894,28.537157,-24.464638,9.931154,0.79654366
20,-2.042452096939087,22.13109016418457,73.90791320800781,2.974447202098851,-1.6154919155284753,89.0010272584835,-23.810457,-0.99131685,19.127464,14.789857,5.13322,0.74426824,26.576292,-4.5175266,-8.262604,26.82332,-4.864485,4.019621,2.5725465,-3.0538733,6.505568,26.18262,-0.16010045,-77.034035,49.69325,41.22741,6.544209,7.457715,23.509724,-4.4563146,84.59178,28.285442,-23.389355,10.574634,0.87292635
21,-2.202507495880127,23.412559509277344,74.03147888183594,3.8119337439852767,-1.61274462155715,89.11950683916359,-23.842287,-1.8765378,19.36491,16.898928,4.1744995,2.1623573,25.466682,-5.6902604,-7.5166063,30.193632,-2.7086678,4.179924,2.451965,-3.967044,6.2965183,25.855534,-0.10652187,-77.627,50.050533,41.7599,6.8573523,8.066921,23.540218,-4.3853893,84.66508,28.25102,-23.063284,10.72158,0.7099386
22,-2.358597993850708,24.686662673950195,74.16859436035156,4.536502963474878,-1.708838364835556,89.29630200841282,-23.593977,-2.7052708,19.49262,18.827538,2.526254,3.3074229,24.415554,-6.6556854,-6.6465645,33.47819,-0.26856506,4.266272,2.3174362,-4.7704506,6.1967645,25.50366,-0.0413618,-78.388435,50.481476,42.343166,7.303462,8.884771,23.535292,-4.3098736,84.79658,28.336956,-23.146309,10.591249,0.391527
23,-2.4927613735198975,25.951021194458008,74.3211669921875,5.140072555719837,-1.8675433770898737,89.45344862743762,-23.104902,-3.4202936,19.536419,20.49584,0.62815446,4.180115,23.277504,-7.412365,-5.6432915,36.772484,2.3737853,4.3187985,2.2114542,-5.4362803,6.1824355,25.18027,0.032642376,-79.189766,50.865555,42.890877,7.784969,9.686522,23.519163,-4.2345076,84.92537,28.473103,-23.339315,10.343116,0.040988177
24,-2.6121702194213867,27.194503784179688,74.4947509765625,5.61275966095799,-2.053804475049724,89.50802521887512,-22.417465,-3.9765184,19.563168,21.80511,-1.0536997,4.7934127,21.920248,-7.943219,-4.4836173,40.159794,5.142189,4.382981,2.1686912,-5.935608,6.2347765,24.932465,0.10852447,-79.87924,51.085876,43.3293,8.195845,10.248414,23.514223,-4.1702557,85.00652,28.58291,-23.338501,10.134637,-0.21825282
25,-2.750527858734131,28.401256561279297,74.66118621826172,5.894956489553311,-2.2912137577045697,89.45185433482604,-21.502775,-4.3296194,19.581676,22.730808,-2.459632,5.069701,20.228312,-8.149224,-3.1042397,43.85793,8.46878,4.407719,2.2004626,-6.198472,6.3892093,24.752977,0.18953805,-80.47243,51.100216,43.645813,8.542877,10.5082655,23.5394,-4.1233635,84.99674,28.650654,-23.05524,9.975317,-0.35545838
26,-2.8566741943359375,29.567462921142578,74.84756469726562,6.010545730221234,-2.5878763276592447,89.33060650822078,-20.360806,-4.527631,19.581938,23.335186,-3.8122365,5.032274,18.29619,-8.057707,-1.573696,47.794464,12.23822,4.3720236,2.2772794,-6.2597117,6.644647,24.619448,0.2701734,-81.02201,50.982418,43.88221,8.865833,10.588373,23.57891,-4.103968,84.937065,28.698872,-22.6528,9.792508,-0.43463194
27,-2.9693102836608887,30.685794830322266,75.03289794921875,6.070138965898035,-2.8867720680725166,89.14780328997264,-19.075672,-4.6880627,19.611193,23.617052,-5.0376935,4.857643,16.292738,-7.8390846,-0.057044756,51.65417,15.526375,4.3653035,2.384431,-6.2436814,6.930362,24.553486,0.34863523,-81.45491,50.77584,44.044872,9.108398,10.544454,23.606462,-4.111041,84.888306,28.725233,-22.207684,9.615516,-0.47224116
28,-3.063216209411621,31.789243698120117,75.22893524169922,6.185810036870917,-3.127577801998079,88.88986127731852,-17.709076,-4.919648,19.713827,23.557962,-6.0699816,4.713896,14.39408,-7.6693425,1.3399689,55.105156,17.393177,4.5081196,2.5188339,-6.2777424,7.1750937,24.577108,0.4194333,-81.691475,50.52559,44.140354,9.213907,10.431897,23.59442,-4.136907,84.91777,28.735903,-21.79422,9.474463,-0.4867841
29,-3.171844720840454,32.865135192871094,75.41495513916016,6.4292085975144015,-3.2800033359133525,88.50735968884204,-16.232801,-5.2915587,19.950607,23.0331,-6.849,4.631304,12.626467,-7.593522,2.7236383,58.145924,17.260405,5.0008006,2.7271707,-6.4274583,7.3605766,24.711716,0.45907027,-81.68946,50.224533,44.169502,9.142483,10.223013,23.519794,-4.1623936,85.05849,28.749775,-21.424545,9.373669,-0.49949127
30,-3.2793807983398438,33.91755676269531,75.61104583740234,6.72913274977067,-3.3761499446795047,88.01933654609701,-14.62044,-5.740448,20.281836,22.07056,-7.415363,4.522855,10.883169,-7.539313,4.110158,60.981987,15.702739,5.7266994,2.9741209,-6.6258454,7.5216866,24.949455,0.5177132,-81.4652,49.80699,44.138847,8.930918,9.897612,23.398537,-4.222736,85.306404,28.733604,-21.051653,9.30334,-0.50264317
31,-3.3675479888916016,34.96524429321289,75.81965637207031,6.986281438646834,-3.449591492290363,87.51709175666971,-12.94524,-6.1776,20.59556,20.886858,-7.8500743,4.3797307,9.124995,-7.509119,5.2964525,63.589863,13.514463,6.356041,3.2054818,-6.7745543,7.668831,25.242207,0.5632641,-81.12935,49.394665,44.031185,8.64296,9.539448,23.274302,-4.2940564,85.56138,28.71185,-20.690796,9.25722,-0.45119572
32,-3.449674606323242,35.99850845336914,76.04218292236328,7.106210489270545,-3.5369432376627197,87.091725807964,-11.2844925,-6.503922,20.78788,19.715565,-8.243532,4.194695,7.3192525,-7.4843416,6.1157255,65.926956,11.50017,6.5877113,3.3391986,-6.7916875,7.809329,25.548122,0.59703493,-80.754105,49.068054,43.842052,8.340409,9.226698,23.183846,-4.3687944,85.76423,28.694744,-20.345709,9.234642,-0.3088376
33,-3.529193162918091,37.0167121887207,76.26774597167969,7.064504633824846,-3.6573558787877936,86.75390403135103,-9.628678,-6.688827,20.844835,18.580118,-8.602483,3.9508348,5.4621463,-7.43136,6.554261,67.9595,9.708419,6.2937093,3.358294,-6.649146,7.9510074,25.882212,0.62004423,-80.31893,48.846462,43.506596,7.9912524,8.97853,23.119019,-4.437894,85.92231,28.709217,-19.985924,9.234374,-0.025117898
34,-3.5985190868377686,38.025020599365234,76.49146270751953,6.9103900711798145,-3.78918700415758,86.4598951984299,-7.9503083,-6.7786903,20.825718,17.376808,-8.888139,3.656675,3.5739067,-7.3670588,6.7096105,69.69774,7.7742667,5.6713605,3.3057063,-6.394764,8.086601,26.258314,0.6320602,-79.80034,48.686047,43.048088,7.579951,8.751224,23.064486,-4.4935546,86.05831,28.756454,-19.619558,9.258623,0.36578014
35,-3.647235870361328,39.022666931152344,76.71328735351562,6.672110104673469,-3.909888407264621,86.21782013571296,-6.301731,-6.790613,20.744717,16.157297,-9.127823,3.3458998,1.6684775,-7.334788,6.602834,71.155174,5.8762345,4.928302,3.1945434,-6.0635805,8.202714,26.630754,0.6350562,-79.271965,48.569775,42.592686,7.192521,8.531204,23.049356,-4.533449,86.12712,28.804037,-19.31189,9.309832,0.77539307
36,-3.686816692352295,40.01075744628906,76.93173217773438,6.379851045521327,-3.996170432978159,86.03624442777625,-4.7329774,-6.745326,20.611172,14.96854,-9.3471775,3.054693,-0.24107976,-7.4006743,6.233818,72.34158,4.203573,4.2419343,3.0396717,-5.692031,8.286498,26.952135,0.63311756,-78.808334,48.48094,42.266754,6.9146323,8.308055,23.103224,-4.559323,86.08236,28.81695,-19.128477,9.388755,1.1157172
37,-3.7226333618164062,40.97934341430664,77.14231872558594,6.01988948289255,-4.0449062989027915,85.9195667214779,-3.252635,-6.630345,20.412132,13.817447,-9.544409,2.7954957,-2.1520276,-7.6155076,5.526746,73.23942,2.8323295,3.679275,2.8358977,-5.2661147,8.334336,27.219376,0.6300039,-78.412544,48.418495,42.10609,6.782599,8.083409,23.245197,-4.5713677,85.89949,28.7744,-19.13102,9.528388,1.3769307
38,-3.746915340423584,41.93628692626953,77.3458023071289,5.585400895033112,-4.0691630854052585,85.86365537952595,-1.8314673,-6.442027,20.149212,12.677618,-9.712642,2.551515,-4.0476956,-7.947266,4.4921994,73.841255,1.650172,3.14071,2.564253,-4.783863,8.3587675,27.453394,0.6253511,-78.022125,48.385323,42.054367,6.7399316,7.8576884,23.451101,-4.576905,85.61922,28.692356,-19.270033,9.714991,1.6040167
39,-3.8013126850128174,42.895347595214844,77.53434753417969,5.1185362856728664,-4.068273711138445,85.86313809568645,-0.48122585,-6.210474,19.856525,11.585601,-9.876877,2.314173,-5.901271,-8.339289,3.2641,74.17852,0.5568886,2.5579958,2.2572207,-4.2823744,8.364489,27.643238,0.6225173,-77.69796,48.37286,42.06256,6.752047,7.6384187,23.700119,-4.574772,85.26555,28.594322,-19.44048,9.882547,1.7802272
40,-3.8092308044433594,43.83910369873047,77.7009506225586,4.659660855262369,-4.041138871729709,85.91154606993257,0.795622,-5.9690785,19.566647,10.554935,-10.055377,2.0736392,-7.695751,-8.722508,1.9825678,74.28188,-0.54654235,1.8679992,1.932619,-3.8050146,8.359946,27.773834,0.6229274,-77.45068,48.3734,42.107635,6.769663,7.4183135,23.962917,-4.567909,84.862015,28.502363,-19.546776,9.960004,1.9025941
41,-3.8199994564056396,44.777565002441406,77.8470458984375,4.201262119027395,-3.974382931790623,86.01107567426054,1.9845344,-5.713833,19.292002,9.58727,-10.253583,1.8151914,-9.449193,-9.072533,0.6455744,74.15029,-1.7202835,1.0195498,1.6012881,-3.3374047,8.332504,27.836922,0.6325985,-77.31499,48.39453,42.202263,6.790408,7.2338777,24.253502,-4.555882,84.375244,28.42391,-19.583435,9.890168,1.9236842
42,-3.839991569519043,45.702178955078125,77.97225189208984,3.728873514884648,-3.871883548024575,86.16238309119527,3.0974808,-5.430927,19.013803,8.6632185,-10.4579935,1.5467314,-11.149937,-9.410575,-0.8121977,73.763245,-2.9067123,0.07976916,1.2287083,-2.8742142,8.281826,27.847979,0.64933854,-77.24323,48.43179,42.360462,6.834295,7.0742044,24.576115,-4.5456514,83.84385,28.339745,-19.584743,9.727455,1.8522106
43,-3.846694231033325,46.615753173828125,78.07664489746094,3.2678407588204594,-3.7572780128967755,86.3565332648554,4.152259,-5.1419473,18.720438,7.8055267,-10.671384,1.2939897,-12.754418,-9.735535,-2.3391995,73.12708,-4.02375,-0.84261817,0.8734432,-2.4271958,8.235766,27.814875,0.68868315,-77.27982,48.45568,42.515594,6.904131,6.8746467,24.912527,-4.529963,83.24728,28.242334,-19.548586,9.558015,1.7936394
44,-3.8532474040985107,47.530296325683594,78.16294860839844,2.8430527587331085,-3.654349733850435,86.58477973449028,5.0418606,-4.824424,18.408955,7.3167176,-11.048882,1.0833384,-14.226142,-10.05406,-3.8852038,72.25028,-4.9832706,-1.6500627,0.5036387,-2.0454714,8.21401,27.76129,0.7506649,-77.35768,48.42915,42.625507,6.9978004,6.567467,25.224455,-4.510208,82.70818,28.127737,-19.430832,9.482875,1.8177389
45,-3.8423566818237305,48.431705474853516,78.22355651855469,2.46514240289015,-3.5670638405251314,86.8568051425541,5.7312837,-4.4822702,18.053326,7.2815847,-11.618045,0.9552051,-15.562406,-10.42631,-5.511644,71.13281,-5.773497,-2.3841302,0.11403566,-1.7448001,8.221647,27.682213,0.8329745,-77.476006,48.328075,42.678707,7.143165,6.085832,25.511688,-4.4884353,82.23452,27.981455,-19.17631,9.574332,1.9730409
46,-3.841224193572998,49.340362548828125,78.26811981201172,2.1195979217797114,-3.4833701401511723,87.17137591973427,6.410483,-4.1741257,17.651247,7.2518206,-12.152274,0.89135766,-16.780342,-10.824173,-7.225111,69.77151,-6.43595,-3.0729065,-0.29214638,-1.5058767,8.246632,27.570631,0.9336124,-77.647095,48.176487,42.703213,7.3310404,5.4811964,25.788761,-4.46651,81.79188,27.809189,-18.8173,9.766702,2.206444
47,-3.8257904052734375,50.23518371582031,78.30040740966797,1.8026499175257085,-3.402221705856654,87.50396973822917,7.08863,-3.8872068,17.25169,7.22421,-12.684838,0.8286206,-17.88945,-11.136646,-8.889208,68.173965,-6.9520288,-3.6136894,-0.6941266,-1.3102229,8.286009,27.442005,1.0490168,-77.87073,48.021847,42.70639,7.5044446,4.864992,26.047726,-4.444829,81.37144,27.63709,-18.459072,9.946082,2.4535913
48,-3.810119152069092,51.139007568359375,78.30814361572266,1.5097679757792684,-3.322417211411062,87.83142489726228,7.7738504,-3.60822,16.90339,7.196222,-13.250764,0.7042002,-18.910397,-11.264181,-10.36317,66.3444,-7.2950397,-3.9152007,-1.0746002,-1.139566,8.336049,27.307793,1.1717002,-78.14345,47.917316,42.694046,7.605907,4.3492384,26.279123,-4.4244347,80.96609,27.494806,-18.205832,9.997257,2.6511598
49,-3.800926685333252,52.04547119140625,78.30220794677734,1.23349747501229,-3.239732018576944,88.15097234436281,8.460257,-3.3287213,16.629326,7.1693077,-13.866334,0.49183336,-19.865215,-11.206381,-11.620275,64.270096,-7.4584465,-3.9551463,-1.4339163,-0.99026734,8.393608,27.159933,1.2943811,-78.48786,47.896175,42.660854,7.6081676,3.9728272,26.47689,-4.406614,80.57291,27.38933,-18.102741,9.851261,2.785097
50,-3.7924747467041016,52.94365310668945,78.26298522949219,0.9802589890220446,-3.1556731095582484,88.47543824145521,9.147052,-3.0607328,16.40013,7.143584,-14.512448,0.23387106,-20.75423,-11.026437,-12.72485,61.947983,-7.4454327,-3.802541,-1.7818884,-0.8713863,8.45912,26.995453,1.4131905,-78.89805,47.93304,42.603985,7.546086,3.6741066,26.650135,-4.3917227,80.19625,27.304354,-18.087852,9.581493,2.8890858
51,-3.7705886363983154,53.84581756591797,78.20604705810547,0.7582604819892397,-3.077691380341343,88.80648190181068,9.84837,-2.8219473,16.185568,7.115018,-15.173975,-0.031321693,-21.568108,-10.732935,-13.665854,59.392323,-7.243534,-3.5117502,-2.116584,-0.7844367,8.534253,26.830359,1.5247753,-79.32531,47.993336,42.53432,7.4549847,3.4142687,26.80001,-4.3799114,79.8396,27.23639,-18.104958,9.285808,2.9718485
52,-3.754500389099121,54.74713897705078,78.12529754638672,0.575560124068314,-3.0140277442024925,89.1453985099438,10.575751,-2.6283276,15.955019,7.082193,-15.829137,-0.26838553,-22.29827,-10.337686,-14.428772,56.622158,-6.846191,-3.1381502,-2.4366853,-0.7314229,8.621166,26.681654,1.6260321,-79.71911,48.04196,42.463135,7.3698573,3.1545367,26.931124,-4.37068,79.50858,27.179453,-18.097595,9.062336,3.0424461
53,-3.761178970336914,55.656646728515625,78.0152359008789,0.42094773482902137,-2.969798916031779,89.49243568836721,11.330697,-2.467193,15.703294,7.0475326,-16.479923,-0.47036046,-22.959219,-9.829401,-14.963407,53.64236,-6.2252383,-2.7252846,-2.7428873,-0.69859457,8.726576,26.553293,1.7131847,-80.07317,48.0698,42.408596,7.2872624,2.868785,27.04287,-4.364066,79.20438,27.141172,-18.054464,8.94383,3.0896306
54,-3.7513532638549805,56.568424224853516,77.87760162353516,0.31748402938085063,-2.9447538188007227,89.84215174393509,12.08607,-2.3560095,15.450892,7.064563,-17.162886,-0.65234494,-23.552586,-9.258228,-15.250234,50.45128,-5.4041386,-2.2534542,-3.0318792,-0.71500057,8.8500185,26.435106,1.7837411,-80.40896,48.101437,42.35976,7.191995,2.5834897,27.132677,-4.3601193,78.92563,27.121962,-18.00434,8.875895,3.1131928
55,-3.7413392066955566,57.49003982543945,77.72933197021484,0.25916717292583996,-2.9302043044830883,90.20512104181758,12.856398,-2.2909882,15.185163,7.0860987,-17.844406,-0.82472914,-24.0442,-8.668309,-15.387041,47.045418,-4.4605126,-1.6941969,-3.3225672,-0.7781288,8.9765415,26.323605,1.8262751,-80.707306,48.15981,42.288548,7.1015644,2.3372068,27.198055,-4.3598604,78.68498,27.107958,-17.947475,8.826443,3.1364956
56,-3.7245333194732666,58.422447204589844,77.55813598632812,0.24713163945676667,-2.92106325932411,90.58984940266188,13.640375,-2.2712328,14.897262,7.107959,-18.513855,-0.99981797,-24.40297,-8.106653,-15.464162,43.42311,-3.4704804,-1.010957,-3.6099238,-0.8856538,9.09444,26.217674,1.8539498,-80.98093,48.246952,42.158184,7.036977,2.169781,27.246284,-4.362362,78.46522,27.082987,-17.891302,8.761842,3.1881526
57,-3.726745128631592,59.344078063964844,77.36024475097656,0.2839005645802454,-2.904869895470948,90.99663981253657,14.421645,-2.2933495,14.5872345,7.128831,-19.182026,-1.1971172,-24.616428,-7.5946784,-15.491448,39.50683,-2.3728962,-0.17976284,-3.899116,-1.0399534,9.188555,26.119997,1.8689753,-81.21826,48.364227,41.983574,7.0033946,2.0983543,27.27151,-4.3679137,78.27213,27.051039,-17.975573,8.610877,3.1879752
58,-3.671584367752075,60.29845428466797,77.158447265625,0.37099506615927047,-2.8897559065306226,91.42697684999078,15.206474,-2.3580267,14.253668,7.1491127,-19.846624,-1.4110112,-24.679184,-7.1310687,-15.4142065,35.289013,-1.149557,0.757732,-4.179937,-1.237701,9.268824,26.029331,1.8747451,-81.441475,48.503628,41.76898,6.992132,2.1014965,27.27729,-4.3782096,78.0896,27.01317,-18.15594,8.411127,3.153349
59,-3.67816424369812,61.245174407958984,76.93196105957031,0.5115678328399036,-2.903251681140838,91.89300763495906,16.02934,-2.4715104,13.88257,7.1658616,-20.477428,-1.6207272,-24.570272,-6.7290187,-15.2364025,30.8637,0.065345794,1.7383792,-4.4846597,-1.4963412,9.361493,25.94489,1.8707902,-81.625015,48.655502,41.489876,6.9946027,2.152378,27.267645,-4.389435,77.94999,26.962687,-18.143217,8.296694,3.245646
60,-3.646878957748413,62.22730255126953,76.6784896850586,0.7106511806180881,-2.9742019257641927,92.40852169084246,16.922943,-2.6387181,13.45702,7.1817718,-21.04587,-1.8024662,-24.272757,-6.407775,-14.971448,26.333673,1.1359801,2.6949677,-4.7978983,-1.8128476,9.493899,25.857698,1.8580645,-81.81875,48.820267,41.097485,7.010321,2.232742,27.261806,-4.4039474,77.81762,26.87535,-17.664972,8.399185,3.63937
61,-3.606718063354492,63.229591369628906,76.40691375732422,0.9963820884118461,-3.1490759564931854,93.00973038918913,17.93973,-2.8892038,12.929106,7.1975837,-21.563465,-1.929406,-23.701853,-6.206351,-14.554656,21.583435,2.0147007,3.632612,-5.1862774,-2.2411206,9.710144,25.778202,1.8472673,-81.965416,48.980164,40.49205,7.0515037,2.338377,27.2549,-4.4107313,77.741264,26.748379,-16.363926,8.874462,4.484101
62,-3.585160970687866,64.24230194091797,76.1048812866211,1.3826705414810516,-3.412360374021447,93.70329098061102,19.059029,-3.2279649,12.285838,7.2103143,-22.033482,-2.0183923,-22.852709,-6.193493,-14.019075,16.576822,2.7818055,4.5399795,-5.6272855,-2.7851148,9.988173,25.70289,1.835889,-82.10983,49.148293,39.713585,7.1189036,2.4866033,27.250101,-4.413217,77.67967,26.580675,-14.497351,9.640067,5.641955
63,-3.536166191101074,65.2497329711914,75.79552459716797,1.8578608044624512,-3.6997202616499196,94.45579688385574,20.208868,-3.6301963,11.565154,7.220838,-22.42567,-2.1074986,-21.85782,-6.4035907,-13.531456,11.571955,3.4914641,5.3520737,-6.089846,-3.4220722,10.254806,25.626465,1.8208278,-82.26972,49.32868,38.9817,7.176137,2.6672964,27.240728,-4.410225,77.62919,26.405699,-12.672897,10.463121,6.8344746
64,-3.472970724105835,66.28355407714844,75.47753143310547,2.3748851343827946,-3.9367613355888875,95.2154782243797,21.307144,-4.0446877,10.83385,7.22343,-22.703226,-2.239116,-20.75922,-6.7535553,-13.275981,6.572379,4.3431416,6.0378613,-6.5583825,-4.1052113,10.434288,25.54822,1.8118032,-82.40617,49.500835,38.537624,7.179686,2.8572402,27.20873,-4.4034967,77.62483,26.26568,-11.479768,11.072137,7.809729
65,-3.4192535877227783,67.34663391113281,75.15763854980469,2.920336119643487,-4.078307866281036,95.94098712582681,22.308329,-4.4661565,10.150981,7.221101,-22.870745,-2.4335275,-21.910345,-7.654591,-12.998292,6.3872185,2.7833285,6.5994344,-6.992102,-4.8041463,10.476077,25.47187,1.8094562,-82.50637,49.660706,38.529106,7.1072426,3.0580451,27.161795,-4.398887,77.64603,26.167938,-11.304022,11.317128,8.48042
66,-3.3524527549743652,68.42498016357422,74.84862518310547,3.4667356143699912,-4.157261063296478,96.62903799562962,23.252045,-4.861175,9.518602,7.217492,-22.947601,-2.676227,-23.074528,-8.56028,-12.856108,6.238086,1.2609954,7.0402455,-7.354972,-5.4770336,10.422531,25.39379,1.8097693,-82.64084,49.81858,38.773445,6.998474,3.290742,27.108345,-4.390183,77.67728,26.096869,-11.7388735,11.346181,8.988323
67,-3.2884764671325684,69.50537872314453,74.57303619384766,3.8873731238101965,-4.1912708193244885,97.22427777016001,24.1661,-5.0701447,9.0031395,7.210474,-22.931908,-2.982784,-24.14115,-9.345848,-12.835883,6.2309647,-0.16710995,7.4185224,-7.604664,-5.9987464,10.341827,25.28524,1.8129904,-82.78899,49.971107,39.07834,6.866047,3.5208428,27.01389,-4.3804803,77.72493,26.05584,-12.212589,11.30821,9.492565
68,-3.206158399581909,70.57368469238281,74.32814025878906,4.190830992676935,-4.241613155417176,97.78719295745252,25.087954,-5.095803,8.521905,7.1988006,-22.79555,-3.3135881,-24.878275,-10.031405,-12.962677,6.2623935,-1.3237994,7.8832817,-7.805062,-6.402358,10.31229,25.135782,1.8170452,-82.96463,50.130764,39.23834,6.736112,3.7307823,26.867592,-4.3722587,77.81566,26.024458,-12.153978,11.371172,10.1372595
69,-3.102553367614746,71.6646957397461,74.11407470703125,4.448650473829478,-4.352888320747353,98.39745676288388,26.052713,-5.016178,7.997591,7.1816688,-22.543169,-3.6401098,-25.190962,-10.688062,-13.27349,6.288943,-2.2869017,8.78339,-8.000087,-6.774736,10.374857,24.920841,1.8249054,-83.27006,50.322525,39.107788,6.607609,3.9607031,26.675798,-4.3581753,77.96715,25.988949,-11.296773,11.5694,10.8300705
70,-2.9532830715179443,72.7635269165039,73.93231201171875,4.679354282496337,-4.4903563761606105,99.03084527284045,27.038525,-4.8699474,7.461453,7.1588106,-22.186867,-3.9805064,-25.189337,-11.2863035,-13.77971,6.296594,-3.034498,10.011582,-8.186179,-7.128842,10.4857025,24.654284,1.8344756,-83.63005,50.5356,38.847614,6.459732,4.1958494,26.43946,-4.3430543,78.16065,25.955263,-9.994142,11.829152,11.545977
71,-2.880997657775879,73.87669372558594,73.76139831542969,4.7908420936970835,-4.577827857551728,99.5703899187388,27.977282,-4.5836053,7.023344,7.1307592,-21.705488,-4.3743486,-24.99079,-11.669797,-14.439106,6.290674,-3.304963,11.000976,-8.256433,-7.3361564,10.566956,24.394753,1.8500994,-84.01247,50.72886,38.58941,6.3475275,4.3987207,26.175463,-4.316964,78.37166,25.951294,-8.564741,12.179441,12.456939
72,-2.7552285194396973,74.98585510253906,73.64086151123047,4.684078168578209,-4.545137973090163,99.90127062349063,28.807524,-4.0730143,6.7911124,7.097699,-21.076515,-4.856094,-24.698236,-11.676281,-15.194166,6.2779274,-2.9079483,11.157395,-8.162519,-7.2861886,10.56001,24.18973,1.8601737,-84.227875,50.867054,38.549496,6.286928,4.4894795,25.875042,-4.2972035,78.57866,25.98747,-7.3595376,12.64262,13.790479
73,-2.6427605152130127,76.1297607421875,73.54977416992188,4.277887913864812,-4.372124762070059,99.93526073540981,29.503025,-3.2541966,6.846505,7.1044426,-20.374268,-5.4623494,-24.253752,-11.169377,-16.102245,6.266078,-1.6795576,10.078603,-7.814584,-6.890849,10.453329,24.066444,1.8678308,-84.29965,50.93309,38.783463,6.34151,4.42338,25.53821,-4.2720776,78.798485,26.09305,-6.345158,13.339316,15.740204
74,-2.5221822261810303,77.25570678710938,73.5378189086914,3.594095441712828,-4.119040332553702,99.75302666052606,30.124063,-2.1455941,7.1351,7.1520047,-19.591705,-6.1738906,-23.602493,-10.227345,-17.202906,6.2440405,0.1956406,8.103562,-7.298329,-6.199109,10.302666,23.991037,1.8701055,-84.22178,50.95073,39.220806,6.462067,4.2290316,25.151104,-4.234105,79.05218,26.261662,-5.4103813,14.233634,18.162634
75,-2.3361830711364746,78.40458679199219,73.57793426513672,2.6954364612020862,-3.8256786612584754,99.42704927840855,30.728466,-0.824798,7.6178737,7.2337384,-18.645367,-6.947069,-22.975063,-8.9836445,-18.338991,6.3923893,2.2639139,5.771749,-6.666429,-5.2605405,10.112421,23.94454,1.8569003,-84.055305,50.94344,39.70952,6.5800905,4.027564,24.735994,-4.190508,79.32971,26.468687,-4.703436,15.098389,20.674507
76,-2.1641530990600586,79.59884643554688,73.62249755859375,1.8165687469971135,-3.562254670271762,99.13506044498061,31.33828,0.45282605,8.08621,7.355275,-17.406954,-7.6684957,-22.404034,-7.7722692,-19.354856,6.518579,4.311714,3.6987214,-6.076226,-4.3163733,9.889518,23.923271,1.8284129,-83.86363,50.9372,40.097725,6.6364455,3.9483247,24.336918,-4.15645,79.6378,26.662146,-4.348807,15.691668,22.888414
77,-1.994110107421875,80.81734466552734,73.67768096923828,0.9627187415295058,-3.2821781377259676,98.92231370126184,31.34957,1.7798982,8.492889,8.701288,-16.49668,-8.375142,-22.990961,-7.0253015,-20.15245,8.894214,5.3791018,2.0407307,-5.589625,-3.369982,9.569179,23.945538,1.7616622,-83.59351,50.928295,40.402332,6.6083174,3.9912865,23.961197,-4.1285405,79.99288,26.837946,-4.4294925,15.808629,24.829676
78,-1.8794760704040527,82.02883911132812,73.73487091064453,0.06703171761708887,-2.9632181088106515,98.75582728415378,30.664433,3.2696993,8.810683,11.421229,-16.0329,-9.06848,-23.862295,-6.379737,-20.978304,11.744079,6.494442,0.5089192,-5.149439,-2.3436012,9.153106,24.010529,1.6648146,-83.28089,50.9111,40.671337,6.537717,4.1064816,23.60441,-4.1289577,80.352745,26.984129,-4.844895,15.595947,26.66715
79,-1.7493164539337158,83.26725006103516,73.79206085205078,-0.8276834491311879,-2.6628944873630402,98.62639286732296,29.87103,4.7855105,9.001378,14.30951,-15.336592,-9.620435,-24.52713,-5.6755643,-21.79145,14.168843,7.5906954,-0.9460611,-4.7802076,-1.3104869,8.727312,24.08934,1.5417478,-82.94715,50.924843,40.851105,6.4423904,4.3294473,23.23976,-4.1570888,80.78657,27.125677,-5.3935294,15.338468,28.204378
80,-1.640760898590088,84.5094223022461,73.84642028808594,-1.6838961556812644,-2.439333093799491,98.51629610990601,28.988592,6.2686386,9.047679,17.399105,-14.388583,-9.926152,-24.940075,-4.9016857,-22.456942,16.293098,8.042001,-2.3847537,-4.4892125,-0.33261034,8.381008,24.148247,1.394973,-82.62378,51.012882,40.884407,6.340467,4.6961975,22.843893,-4.204108,81.35386,27.29163,-5.8968244,15.336111,29.256235
81,-1.48056960105896,85.77277374267578,73.9276351928711,-2.523379406464912,-2.290714426374254,98.37925120489174,28.062906,7.718715,9.025459,20.628532,-13.100102,-9.974329,-25.174055,-3.9798105,-22.803179,18.289509,7.490039,-3.9124072,-4.2446656,0.61728835,8.117787,24.165405,1.2237442,-82.302635,51.20058,40.815807,6.2087455,5.23858,22.380661,-4.2610645,82.10661,27.508976,-6.0484023,15.79283,29.805403
82,-1.34233558177948,87.00377655029297,74.02574920654297,-3.370989817398519,-2.18400981179973,98.21109961032315,27.106966,9.1541815,8.966504,23.917667,-11.463587,-9.848753,-25.267256,-2.9043746,-22.865746,20.142525,6.26532,-5.456289,-4.0272484,1.5756185,7.891127,24.157406,1.0263346,-81.966805,51.460625,40.657997,6.0437965,5.927843,21.875025,-4.323438,83.00677,27.765615,-6.0320706,16.514587,29.941908
83,-1.1982687711715698,88.22451782226562,74.1390151977539,-4.189238500013662,-2.1340952004279115,98.05790785138029,26.097801,10.53204,8.797665,27.267504,-9.576165,-9.588472,-25.113726,-1.7789947,-22.813807,21.683344,4.788917,-6.8138843,-3.860456,2.4892185,7.7230372,24.14547,0.807489,-81.63844,51.755276,40.30362,5.8904643,6.7094975,21.39543,-4.387224,83.97334,28.03442,-6.4117584,17.208292,29.656708
84,-1.0230923891067505,89.45804595947266,74.2809066772461,-4.933955467733301,-2.1580355809624683,97.97041459920645,24.995993,11.812616,8.436954,30.705482,-7.5483465,-9.206495,-24.606829,-0.70958924,-22.849863,22.719027,3.50687,-7.794174,-3.7707608,3.3023267,7.642553,24.154406,0.578308,-81.3443,52.0419,39.644047,5.7908325,7.52922,21.005384,-4.4492793,84.918785,28.288492,-7.7577906,17.592518,28.948044
85,-0.9085457921028137,90.67634582519531,74.42935943603516,-5.587724744949839,-2.2955782239039557,97.95704445663979,23.803234,12.994192,7.8192368,34.312584,-5.3555613,-8.634828,-23.638227,0.30943817,-23.032524,23.109236,2.5069268,-8.272772,-3.7742078,3.9817717,7.711384,24.191317,0.35188603,-81.06289,52.310307,38.401714,5.7723737,8.46847,20.680012,-4.4987917,85.90529,28.500229,-10.183581,17.78922,27.484118
86,-0.65376216173172,91.86331939697266,74.61317443847656,-6.1665293777837284,-2.5290220617761894,97.98562745302253,22.517998,14.091864,7.030668,38.069206,-2.9608347,-7.8613653,-22.300705,1.3315835,-23.238663,22.99009,1.572368,-8.373815,-3.844983,4.551722,7.9073567,24.241512,0.13587421,-80.790436,52.568745,36.715603,5.7861614,9.524499,20.392925,-4.5283866,86.94471,28.700958,-13.39175,17.969744,25.380432
87,-0.471729040145874,93.042724609375,74.82170104980469,-6.674147188364486,-2.7914709451152486,98.04991510564419,21.08589,15.1052885,6.2028956,41.88273,-0.48596483,-6.957989,-20.778608,2.322222,-23.427212,22.55319,0.711774,-8.289699,-3.947403,5.046361,8.137169,24.299053,-0.06609495,-80.58816,52.80039,35.100677,5.777797,10.516553,20.200758,-4.546651,87.864914,28.951054,-17.369886,17.912374,23.276073
88,-0.35310330986976624,94.21292114257812,75.03478240966797,-7.118526784975158,-3.016458911031727,98.14221591633647,19.449873,16.043547,5.457276,45.68534,1.9350209,-5.9957466,-19.254393,3.2439992,-23.559471,21.996988,-0.071328305,-8.209746,-4.0397024,5.5113277,8.306573,24.359802,-0.25273848,-80.52625,52.98837,34.0715,5.7201905,11.262675,20.158195,-4.5758696,88.48483,29.303213,-22.139301,17.320225,21.754625
89,-0.3483400344848633,95.38121032714844,75.23626708984375,-7.486667738399197,-3.1954199508669046,98.2439149457982,17.49272,16.944735,4.8558116,49.67505,4.6216946,-4.841411,-17.737223,4.081991,-23.60362,21.329739,-0.77928764,-8.146752,-4.105302,5.978727,8.381621,24.444357,-0.4243213,-80.666534,53.094044,33.833748,5.6133184,11.749853,20.30227,-4.6517015,88.70696,29.883568,-29.331087,15.453389,20.752811
90,-0.25004124641418457,96.51885986328125,75.4439926147461,-7.782764185509885,-3.363788147833083,98.36067994165553,15.2687645,17.858568,4.3589063,53.85,7.5041814,-3.4186175,-16.12496,4.8654675,-23.590416,20.43278,-1.3982418,-8.012018,-4.1477795,6.427272,8.434562,24.532284,-0.5773374,-80.97364,53.134968,34.08814,5.489228,12.068507,20.555902,-4.7862377,88.59637,30.589058,-38.397934,12.695069,19.682613
91,-0.11390956491231918,97.62409973144531,75.65663146972656,-8.029277140612017,-3.521837064996158,98.5159595863175,12.985588,18.750216,3.8947048,57.855858,9.8502865,-1.9540397,-14.440981,5.608656,-23.564468,19.336288,-1.9128546,-7.8380632,-4.17092,6.807535,8.50634,24.581253,-0.7053853,-81.35589,53.175484,34.59078,5.3773346,12.188843,20.855644,-4.9573593,88.27466,31.134747,-46.08031,10.2980795,18.71765
92,0.005236323922872543,98.70037078857422,75.86058044433594,-8.239520090877436,-3.667739867812899,98.73483828559704,10.843497,19.482794,3.3325593,61.36849,10.918421,-0.79263604,-12.730615,6.3074183,-23.5673,18.114548,-2.3289592,-7.65511,-4.199999,7.063497,8.608453,24.578524,-0.80131894,-81.71228,53.268726,35.096832,5.3001328,12.073068,21.198566,-5.127984,87.92127,31.282562,-49.224506,9.325943,18.554832
93,0.11559490859508514,99.7378921508789,76.05357360839844,-8.422950424161847,-3.7892415450036876,99.07453190950075,8.884012,19.906746,2.5105143,64.35407,10.151403,-0.203514,-11.000648,6.9587226,-23.65071,16.752413,-2.637919,-7.464294,-4.278583,7.159015,8.735609,24.498182,-0.8570279,-82.06,53.450626,35.58054,5.262551,11.620978,21.642042,-5.263173,87.570625,30.88125,-45.455246,10.456681,20.024899
94,0.22635741531848907,100.75408172607422,76.2423095703125,-8.55517647850454,-3.888187607772048,99.50663655901673,6.995357,20.033213,1.5097996,67.02612,8.045478,-0.042745527,-9.2473,7.5440288,-23.780853,15.256474,-2.854983,-7.243539,-4.3784204,7.1033916,8.889676,24.349325,-0.86787385,-82.43189,53.68512,36.16228,5.2470117,10.882142,22.15611,-5.334264,87.13392,30.120214,-36.928417,13.2300205,22.453163
95,0.3015387952327728,101.7542495727539,76.42703247070312,-8.5954699620069,-3.983496848306503,99.9320575861081,5.147881,19.933487,0.5492129,69.41877,5.4642806,-0.078810066,-7.505891,8.027732,-23.877016,13.741975,-3.028895,-6.994614,-4.4210815,6.9320936,9.078595,24.18403,-0.836069,-82.7696,53.90402,36.810974,5.240658,10.039313,22.62467,-5.3340507,86.60485,29.310642,-27.49878,16.58164,24.505293
96,0.36801597476005554,102.75719451904297,76.61370086669922,-8.510614103552872,-4.0967099898797095,100.25169402213778,3.317101,19.704731,-0.15912467,71.54458,3.2773247,-0.066972315,-5.8119645,8.377656,-23.863934,12.327865,-3.2138739,-6.729984,-4.4039493,6.683971,9.273303,24.09693,-0.79521644,-82.93905,54.04054,37.510162,5.2258196,9.265441,23.008581,-5.299881,86.10709,28.78251,-21.066868,18.905916,25.511934
97,0.4400956928730011,103.75293731689453,76.80402374267578,-8.284964021786244,-4.252801628521316,100.44954237012453,1.5248154,19.34989,-0.5631143,73.37413,1.6317998,0.004508992,-4.1434126,8.58197,-23.733229,11.0325,-3.4215245,-6.4639387,-4.2552543,6.3934393,9.441105,24.138895,-0.7028673,-83.005486,54.035213,38.3308,5.2003508,8.539724,23.40063,-5.224552,85.57022,28.644194,-18.746943,19.5238,25.679966
98,0.5114232301712036,104.72911834716797,76.97731018066406,-7.949807912368892,-4.43597735801784,100.57554051580387,-0.2127263,18.849823,-0.7606343,74.90226,0.10259872,0.020287853,-2.496646,8.666526,-23.538197,9.813888,-3.6374798,-6.202825,-4.081406,6.0187793,9.603057,24.26778,-0.59263515,-82.90178,53.95375,39.28295,5.1599784,7.7849226,23.799416,-5.146633,85.08089,28.684948,-18.407032,19.23705,25.446487
99,0.5537607073783875,105.6681900024414,77.14399719238281,-7.543640576710546,-4.607135603579524,100.63157324243275,-1.9269489,18.272547,-0.77890575,76.16204,-1.2991143,0.034662474,-0.9224769,8.660305,-23.294464,8.6799135,-3.868502,-5.948374,-3.8692126,5.5960665,9.742903,24.446451,-0.47129875,-82.704895,53.82967,40.140522,5.127373,7.108413,24.163364,-5.0729966,84.6478,28.805256,-19.10772,18.522976,25.057667
100,0.6079649329185486,106.62691497802734,77.30868530273438,-7.100032163125627,-4.727311584384101,100.61866293323205,-3.6527896,17.680758,-0.6476162,77.18813,-2.564218,0.10091729,0.5119062,8.584303,-23.016256,7.6668425,-4.127076,-5.6952972,-3.623863,5.1524014,9.847838,24.639051,-0.3463637,-82.46239,53.692123,40.686768,5.130951,6.614126,24.441732,-5.002286,84.30596,28.920424,-19.899576,17.86163,24.741066
101,0.6464574337005615,107.54413604736328,77.46453094482422,-6.601117109785686,-4.779878478200744,100.52984751141746,-5.4045143,17.068678,-0.32814145,77.97112,-3.6592672,0.2046026,1.6903421,8.375065,-22.711546,6.9899426,-4.5224257,-5.431192,-3.3392437,4.66775,9.91018,24.847307,-0.22619884,-82.1747,53.559296,40.814404,5.2150683,6.3545947,24.6098,-4.932155,84.06743,29.000149,-20.544907,17.355457,24.615114
102,0.6916929483413696,108.44880676269531,77.60734558105469,-6.041432386898899,-4.787697177846158,100.36901873043983,-7.154127,16.417458,0.18418401,78.48871,-4.5946784,0.3208455,2.5166826,7.977226,-22.396494,6.9441667,-5.2140965,-5.1595764,-3.0170217,4.14188,9.942939,25.084633,-0.116770945,-81.820274,53.423374,40.6556,5.3591633,6.2671976,24.697332,-4.8643875,83.91045,29.09395,-21.542643,16.759888,24.526834
103,0.7442539930343628,109.37627410888672,77.74158477783203,-5.471578270904072,-4.769642806890011,100.15314859714024,-8.872483,15.75751,0.8075757,78.75024,-5.4256806,0.4869067,3.2944274,7.56615,-22.048521,6.904076,-5.882632,-4.9018617,-2.6742828,3.624779,9.9611025,25.335455,-0.020289922,-81.41542,53.273235,40.352886,5.495983,6.282688,24.734713,-4.8007455,83.82291,29.238241,-23.040724,16.030235,24.315334
104,0.7791694402694702,110.2601547241211,77.84935760498047,-4.938775861077207,-4.7447121556416425,99.89807577012623,-10.535881,15.11397,1.4548042,78.768776,-6.2092485,0.73918104,4.053094,7.194126,-21.683569,6.865182,-6.533729,-4.6711845,-2.3260856,3.165093,9.978147,25.583862,0.06453176,-80.97782,53.09503,40.049114,5.557932,6.3305073,24.75173,-4.7432327,83.7897,29.471523,-25.195272,15.130873,23.811403
105,0.830254077911377,111.16497802734375,77.94547271728516,-4.449064264083152,-4.708865208295203,99.59806462647146,-12.163846,14.46378,2.1016939,78.54792,-6.955498,1.1392846,4.777498,6.866467,-21.298515,6.8439474,-7.1670475,-4.4696593,-1.959543,2.7834327,9.986124,25.835905,0.11654516,-80.50209,52.894737,39.74008,5.4981575,6.420463,24.751251,-4.7094746,83.799065,29.833612,-28.71197,13.909089,22.729229
106,0.8410038352012634,112.05738830566406,78.02481842041016,-3.977477146188527,-4.654309754201096,99.24895164052457,-13.760155,13.796076,2.7910628,78.074196,-7.6351976,1.6438504,5.464276,6.5591674,-20.887388,6.8276896,-7.7751675,-4.2889037,-1.6047466,2.4304469,9.990647,26.102505,0.18314715,-79.92476,52.626934,39.386143,5.355715,6.569187,24.696438,-4.66854,83.90384,30.32054,-33.29319,12.519936,21.155834
107,0.8755732178688049,112.94661712646484,78.08390045166016,-3.5299083149062884,-4.5934529779670985,98.86784677253296,-15.2818575,13.154536,3.5328329,77.33996,-8.248244,2.1335597,6.136834,6.2731147,-20.463171,6.813429,-8.378019,-4.12595,-1.2175828,2.116225,10.004367,26.348097,0.23119701,-79.38909,52.374718,38.99893,5.213853,6.754324,24.616697,-4.63743,84.0149,30.791735,-37.618267,11.312345,19.585888
108,0.9111137986183167,113.8250961303711,78.12139892578125,-3.112466516674686,-4.539805835482495,98.47203054998052,-16.68208,12.58275,4.3372107,76.333435,-8.79084,2.4890487,6.821841,6.010971,-20.038515,6.7934384,-8.9890375,-3.9790785,-0.8371982,1.8153496,10.041263,26.560146,0.27808368,-78.90698,52.146038,38.633663,5.142834,6.9334435,24.525846,-4.599941,84.16481,31.161484,-40.324074,10.507375,18.584463
109,0.9489988088607788,114.70929718017578,78.14888000488281,-2.7163149264457216,-4.493925640580684,98.05274932812425,-17.95582,12.090195,5.236808,75.044716,-9.282503,2.696503,7.514691,5.760145,-19.604366,6.774054,-9.616513,-3.843631,-0.42641595,1.5279789,10.099795,26.72514,0.31102934,-78.53563,51.96625,38.250275,5.1787996,7.1317086,24.443357,-4.563117,84.32357,31.381289,-40.700912,10.1155205,18.506327
110,0.968329131603241,115.59113311767578,78.13330841064453,-2.3412869921034276,-4.449314392288636,97.60500901689294,-19.121565,11.648387,6.2150784,73.47321,-9.712954,2.8086472,8.208626,5.5259714,-19.157312,6.746711,-10.244989,-3.7224414,-0.003462702,1.2575452,10.171113,26.863337,0.3365006,-78.21661,51.80661,37.84822,5.2743664,7.355255,24.356825,-4.520547,84.52258,31.523186,-39.579758,9.978404,19.029816
111,0.9977272748947144,116.49093627929688,78.1147689819336,-2.00614905502804,-4.411439056313472,97.15015796617455,-20.174711,11.242418,7.2085204,71.65135,-10.051704,2.8065789,8.894327,5.3203554,-18.719038,6.762682,-10.901224,-3.6264222,0.40311545,1.0246947,10.251636,26.981705,0.35751978,-77.93392,51.662506,37.49227,5.3893986,7.5541854,24.262028,-4.466475,84.75257,31.651365,-37.951916,9.980077,19.739328
112,1.017484188079834,117.36250305175781,78.07737731933594,-1.7105754225806618,-4.383644898124829,96.70631639578265,-21.110441,10.845044,8.168297,69.605064,-10.264881,2.6810668,9.5957365,5.147178,-18.30315,6.7946754,-11.570047,-3.5624847,0.7796295,0.83762485,10.333596,27.090837,0.37192783,-77.69243,51.536324,37.241287,5.4867444,7.680554,24.16104,-4.412018,84.98723,31.806683,-36.817234,9.973751,20.22105
113,1.0492886304855347,118.2591781616211,78.02400207519531,-1.4511616852177558,-4.36987954637679,96.27192846462454,-21.924412,10.473129,9.099496,67.32721,-10.348772,2.390815,10.321583,5.0015836,-17.914291,6.8271794,-12.242779,-3.5343266,1.1196092,0.6960148,10.414408,27.196941,0.38323703,-77.48276,51.417233,37.134907,5.566648,7.703644,24.05184,-4.3592052,85.24667,32.007748,-36.388885,9.929567,20.376947
114,1.0696314573287964,119.17144012451172,77.95381164550781,-1.2241658332729675,-4.367372181809791,95.83821243549733,-22.619877,10.125237,10.023331,64.80093,-10.312793,1.9568267,11.066349,4.8828416,-17.542402,6.8577566,-12.9179325,-3.5358768,1.4316812,0.59122336,10.496268,27.294521,0.39392173,-77.30532,51.30511,37.134655,5.646542,7.654436,23.93482,-4.3039923,85.53682,32.22782,-36.152096,9.919261,20.421656
115,1.079201102256775,120.07229614257812,77.86658477783203,-1.0300502227747075,-4.369537397915669,95.41198846141812,-23.20594,9.755823,10.909197,62.036697,-10.1468725,1.4694924,11.824302,4.797109,-17.179848,6.8883944,-13.593017,-3.5577364,1.7109162,0.5137517,10.57925,27.373957,0.40450975,-77.156334,51.210316,37.188023,5.713293,7.5742874,23.809536,-4.2423735,85.83124,32.451046,-36.009148,9.923836,20.410606
116,1.090341329574585,120.97747039794922,77.75379943847656,-0.8692951954165447,-4.3698983896963925,94.9999778737581,-23.694107,9.329869,11.720986,59.045494,-9.847162,1.0238997,12.5908575,4.7505984,-16.818514,6.917478,-14.265004,-3.5883532,1.9574234,0.4581458,10.663301,27.423222,0.4123383,-77.03994,51.14813,37.240143,5.7544775,7.506084,23.677835,-4.1841683,86.09464,32.646893,-35.86496,9.924612,20.402103
117,1.113908290863037,121.88417053222656,77.62992095947266,-0.7444030691317327,-4.36444657242382,94.6035027458202,-24.112576,8.878707,12.4370775,55.83892,-9.413061,0.7311813,13.353832,4.7459097,-16.444326,6.947769,-14.936817,-3.6369922,2.1676776,0.42432788,10.7511,27.428013,0.41590726,-76.96106,51.131092,37.265648,5.7633367,7.4429154,23.526094,-4.1368623,86.32918,32.807056,-35.70753,9.9216795,20.390522
118,1.1447768211364746,122.82369995117188,77.49388885498047,-0.6580548801591967,-4.357290895151739,94.21871514259813,-24.449368,8.423224,13.067248,52.40821,-8.856858,0.5238291,14.118335,4.7774277,-16.063616,6.9772644,-15.608839,-3.6996686,2.3388042,0.4144409,10.84045,27.398968,0.41629788,-76.9095,51.147987,37.299477,5.7469835,7.3675156,23.356253,-4.0919557,86.555786,32.95,-35.58154,9.923878,20.350794
119,1.1669992208480835,123.74113464355469,77.32789611816406,-0.6040610169946096,-4.3545843104083515,93.84193375772924,-24.657507,7.924384,13.617995,48.72389,-8.187074,0.23698941,14.899953,4.836145,-15.697522,7.0040407,-16.274223,-3.7448568,2.4750066,0.42621037,10.923747,27.358995,0.41340047,-76.86738,51.179676,37.375942,5.7143807,7.307626,23.194067,-4.0394154,86.76712,33.08054,-35.477066,9.926163,20.31204
120,1.1831462383270264,124.6526870727539,77.14556121826172,-0.5817063962017143,-4.36275271464205,93.46870795252833,-24.685085,7.351001,14.091942,44.73522,-7.409248,-0.288245,15.715491,4.916036,-15.366747,7.0266523,-16.926764,-3.7434459,2.5934522,0.46510747,10.994099,27.329796,0.40790346,-76.83454,51.20836,37.524612,5.67599,7.2925353,23.068712,-3.985155,86.93608,33.188572,-35.390423,9.921422,20.307713
121,1.198049783706665,125.59378051757812,76.94692993164062,-0.587629882446782,-4.393056422191934,93.09345077063651,-24.477747,6.7251363,14.457751,40.312767,-6.4863825,-1.0668069,16.582443,5.011378,-15.088698,7.0440288,-17.586384,-3.6766765,2.6974728,0.52799964,11.059395,27.321459,0.40224707,-76.806114,51.232864,37.81843,5.6183715,7.3528705,22.990553,-3.939787,87.05647,33.252396,-35.306293,9.899201,20.374886
122,1.2153154611587524,126.5697021484375,76.73602294921875,-0.6301924967056546,-4.440920919994286,92.71159819457101,-24.050594,6.0936637,14.707779,35.464756,-5.4170985,-1.9933792,17.488554,5.129745,-14.839905,7.0587206,-18.248652,-3.5619237,2.7851393,0.619479,11.120992,27.32187,0.39510876,-76.78162,51.26034,38.220833,5.541938,7.465433,22.942474,-3.8923595,87.14479,33.2908,-35.230698,9.866827,20.485428
123,1.2248326539993286,127.56150817871094,76.4963150024414,-0.7245617730206353,-4.491367556901791,92.31553707584712,-23.4477,5.476045,14.88014,30.323256,-4.252483,-3.0419464,18.413103,5.2926054,-14.573704,7.06818,-18.867563,-3.4293947,2.875847,0.7662236,11.163384,27.319592,0.38867366,-76.77897,51.279427,38.594357,5.4792,7.57961,22.91781,-3.858318,87.197845,33.302917,-35.196396,9.842948,20.579409
124,1.2329069375991821,128.56134033203125,76.23417663574219,-0.8975160431479084,-4.532265675208602,91.89291946222563,-22.712051,4.9026623,15.017526,25.016886,-3.042648,-4.188551,19.335938,5.530576,-14.235529,7.0722494,-19.398155,-3.3142278,2.9853868,0.9982796,11.172783,27.304935,0.38177028,-76.80247,51.280083,38.805744,5.460314,7.643175,22.907162,-3.8345828,87.226746,33.31053,-35.231285,9.847583,20.59287
125,1.2351261377334595,129.56173706054688,75.94731903076172,-1.2141137980276113,-4.56778065574386,91.41324094583982,-21.783855,4.442646,15.131406,19.352047,-1.7573425,-5.4957895,20.262499,5.9292917,-13.772901,7.0668626,-19.833622,-3.254785,3.140972,1.3852862,11.141359,27.285425,0.37588146,-76.85391,51.24993,38.772232,5.509933,7.6221976,22.921215,-3.8239486,87.22783,33.31685,-35.368,9.894125,20.48003
126,1.2332780361175537,130.6023406982422,75.63619995117188,-1.7173909482585166,-4.626859073030576,90.82736269113448,-20.579073,4.226617,15.21061,13.219068,-0.3606895,-6.919325,21.22304,6.5249224,-13.141572,7.056575,-20.192684,-3.2439342,3.3976736,1.9796113,11.089455,27.269133,0.36674675,-76.94701,51.198086,38.57718,5.610152,7.5545626,22.967768,-3.8200805,87.19142,33.323433,-35.584774,9.9719925,20.281738
127,1.230222225189209,131.64801025390625,75.29850006103516,-2.3595301747250996,-4.727202856997333,90.12296261231474,-19.111092,4.279147,15.287865,6.8521914,1.1489382,-8.304891,22.232765,7.236851,-12.332327,7.042614,-20.463404,-3.2416146,3.7573164,2.7347841,11.045593,27.250029,0.3557289,-77.05556,51.124245,38.35795,5.7203784,7.484129,23.022064,-3.8254697,87.14713,33.322945,-35.825405,10.065475,20.068144
128,1.2125256061553955,132.70310974121094,74.95738983154297,-2.986703614461062,-4.853687447819175,89.37704094427339,-20.243965,5.1760325,15.141386,6.6221776,-0.43194827,-9.537767,23.268854,7.86903,-11.454031,7.0364323,-20.647085,-3.1787972,4.1759844,3.4999523,11.014824,27.202751,0.33396617,-77.212296,51.069233,38.21812,5.802832,7.4675617,23.068823,-3.8451684,87.078,33.291767,-36.043655,10.152362,19.91461
129,1.1851423978805542,133.77565002441406,74.64488983154297,-3.510965486863621,-4.991723594454411,88.6396353290102,-21.26878,5.908973,14.924622,6.426176,-1.9129007,-10.6776285,24.320845,8.317808,-10.591764,7.0363255,-20.77437,-3.0192173,4.5621624,4.168781,11.008141,27.11481,0.30093575,-77.35859,51.016136,38.208054,5.8293004,7.506537,23.080685,-3.879978,87.01926,33.23446,-36.218952,10.231176,19.839485
130,1.152034044265747,134.8473358154297,74.34748077392578,-3.9716262660559427,-5.118942905241753,87.92539277233564,-22.25665,6.527289,14.639302,6.311551,-3.3634226,-11.766543,25.367245,8.649401,-9.751222,7.037226,-20.841116,-2.791163,4.9052935,4.7746277,10.996691,26.989872,0.25391102,-77.49991,50.971317,38.25807,5.8242188,7.577788,23.070475,-3.9313684,86.96346,33.148052,-36.37918,10.3097725,19.805264
131,1.0935651063919067,135.9333953857422,74.09773254394531,-4.257782521336191,-5.205669088704811,87.3418664584643,-23.106833,6.907479,14.413001,6.280683,-4.6431193,-12.644193,26.391037,8.753056,-9.052942,7.0381837,-20.823847,-2.4769402,5.11054,5.1735635,10.965358,26.832424,0.20187019,-77.62864,50.95897,38.345325,5.807846,7.6711054,23.038904,-3.9876244,86.9222,33.044827,-36.51953,10.376789,19.796772
132,1.0262178182601929,137.04046630859375,73.88427734375,-4.401090089622984,-5.24638730147752,86.87893640239386,-23.682547,7.133917,14.387905,6.2795224,-5.541932,-13.232174,27.362217,8.688348,-8.465358,7.036286,-20.653093,-2.1167443,5.2129335,5.3955326,10.892675,26.665783,0.13958156,-77.77129,51.00299,38.445602,5.8109674,7.782532,23.008793,-4.0536847,86.89267,32.92286,-36.64463,10.427941,19.796864
133,0.9778339266777039,138.14871215820312,73.70130157470703,-4.47078355302558,-5.23699235826967,86.5202926494516,-23.929625,7.2678742,14.621353,6.3050623,-6.011847,-13.634822,28.27268,8.537858,-7.945399,7.030648,-20.335415,-1.7465494,5.223855,5.5084324,10.768325,26.495628,0.07452354,-77.920876,51.107143,38.55414,5.8144646,7.9292355,22.976183,-4.1214347,86.91457,32.800087,-36.801605,10.485081,19.908733
134,0.9161958694458008,139.2744903564453,73.54680633544922,-4.4740927079822095,-5.186493756848579,86.24596974630529,-23.882887,7.2719893,15.044553,6.304098,-6.0991597,-13.90151,29.140078,8.307334,-7.487848,7.0164585,-19.88874,-1.3487872,5.1568594,5.529638,10.604291,26.31573,0.0034023887,-78.07793,51.25834,38.682625,5.8143253,8.109377,22.938229,-4.1937566,86.972855,32.67087,-36.97479,10.545055,20.104313
135,0.8550227880477905,140.39100646972656,73.42288970947266,-4.372663705208109,-5.087618925340488,86.06771480954787,-23.636402,7.1103764,15.557616,6.302356,-5.8241725,-13.86098,29.957935,7.961541,-7.1385407,6.9956713,-19.275867,-0.8777362,5.00152,5.4213233,10.395076,26.138065,-0.04941091,-78.239204,51.40059,38.847202,5.8581204,8.278032,22.906157,-4.245701,87.00987,32.545918,-37.06633,10.565232,20.164494
136,0.788711667060852,141.5459442138672,73.33726501464844,-4.1222757999309385,-4.939224303551524,85.99218673362964,-23.26999,6.7296853,16.070312,6.2970543,-5.2090297,-13.3504505,30.72721,7.459139,-6.9363546,6.96274,-18.451944,-0.29016167,4.7547607,5.149117,10.136917,25.972948,-0.0933826,-78.41763,51.51207,39.055386,5.9969726,8.397474,22.896666,-4.2865763,86.96407,32.402523,-36.9789,10.505182,19.87108
137,0.7416549921035767,142.70663452148438,73.27861785888672,-3.663574423426162,-4.740364603428001,86.08144785990238,-22.740713,6.04115,16.61504,6.3389597,-4.208787,-12.202807,31.444489,6.7429466,-6.9812555,6.9809933,-17.510172,0.49651983,4.380652,4.6551504,9.82908,25.810785,-0.15123844,-78.69031,51.63161,39.295334,6.2947416,8.458455,22.936024,-4.335717,86.75211,32.200893,-36.65421,10.338016,19.215023
138,0.6442028284072876,143.89833068847656,73.27403259277344,-2.9783478524745512,-4.500937576245229,86.32019419131055,-22.031666,5.033235,17.241545,6.4329014,-2.857439,-10.521441,32.139088,5.7891593,-7.2459364,7.019792,-16.440802,1.4442368,3.8902097,3.9156654,9.479044,25.645975,-0.20571588,-79.025635,51.76231,39.56776,6.70189,8.478314,23.009626,-4.3761883,86.41784,31.96388,-36.164024,10.080811,18.30457
139,0.5474342107772827,145.1275177001953,73.301025390625,-2.1595466375606374,-4.281920254982827,86.63455821695506,-21.256372,3.8204696,17.82899,6.5378423,-1.2859391,-8.590529,32.830956,4.6980534,-7.5901403,7.0826416,-15.127536,2.3935776,3.391431,3.0643015,9.127464,25.480831,-0.2822563,-79.41491,51.914513,39.84827,7.1231813,8.485971,23.099997,-4.421993,85.98884,31.69714,-35.625114,9.752273,17.106394
140,0.42283114790916443,146.35853576660156,73.37179565429688,-1.3015719456450612,-4.128589997999413,86.94115940606342,-20.533773,2.5416057,18.268875,6.629511,0.36036566,-6.686387,33.519775,3.5676596,-7.8696804,7.190272,-13.465807,3.1998968,2.8858452,2.1709974,8.818082,25.332382,-0.3457536,-79.659584,52.021217,40.168884,7.441343,8.488292,23.153885,-4.447885,85.66934,31.457172,-35.108517,9.397124,15.556059
141,0.27955296635627747,147.57479858398438,73.4834213256836,-0.3412643735109476,-4.008692080228409,87.17451496092619,-19.919018,1.1844629,18.608099,6.6731834,2.3021564,-4.7840085,32.983967,2.1392329,-8.101067,9.907567,-12.794683,3.8606915,2.4481883,1.1879247,8.509165,25.210423,-0.38010597,-79.72025,52.042088,40.56208,7.634686,8.443995,23.167076,-4.452447,85.42753,31.233538,-34.74176,8.925811,13.365684
142,0.16148719191551208,148.8325653076172,73.59142303466797,0.7797944208433387,-3.864723910233072,87.29899324722776,-19.678486,-0.16862369,19.013521,7.371557,4.1647654,-2.7586355,31.938103,0.44297928,-8.185205,13.606897,-12.300375,4.4670453,2.14453,0.05777724,8.149304,25.105972,-0.40721464,-79.69108,52.02294,41.00614,7.762956,8.365367,23.166393,-4.444578,85.19119,31.003973,-34.466446,8.348856,10.66009
143,0.04849032685160637,150.09510803222656,73.70650482177734,1.9439224452283117,-3.703994940232944,87.32737792688121,-20.202583,-1.2388815,19.501337,9.751236,4.922358,-0.74148786,30.772911,-1.3043102,-8.032883,17.39737,-11.507634,5.038163,1.9483097,-1.1223063,7.766674,25.011702,-0.4149004,-79.652954,51.992203,41.417656,7.8475575,8.352143,23.156448,-4.4365935,85.06193,30.773483,-34.06086,7.856073,7.9892464
144,-0.06398102641105652,151.34674072265625,73.82300567626953,2.9916625564843238,-3.5614830226139285,87.31377323293675,-20.5105,-2.2337117,19.961075,11.816336,5.143264,1.1389169,29.592548,-2.8750443,-7.621374,21.044777,-10.283995,5.578277,1.8662157,-2.1896434,7.4279866,24.878384,-0.4218427,-79.724075,52.04017,41.735386,7.8844705,8.482775,23.142387,-4.4099383,84.97862,30.574848,-33.347477,7.5750413,5.9594216
145,-0.19574402272701263,152.58938598632812,73.9538345336914,3.872813524417328,-3.4527200506901603,87.3322229039856,-20.739815,-3.13669,20.195568,13.914249,4.4346924,2.911544,28.452925,-4.1917763,-6.988172,24.46198,-8.51608,6.146918,1.8146683,-3.1131299,7.1279006,24.713154,-0.41426682,-79.9562,52.17767,41.86927,7.8616457,8.851416,23.118412,-4.36645,85.07026,30.416538,-32.050568,7.6442933,4.733246
146,-0.30804580450057983,153.8134002685547,74.09346008300781,4.638877653107137,-3.373959863488154,87.38166499884488,-20.903214,-3.9879885,20.192518,16.019238,3.085775,4.6028385,27.303373,-5.3008103,-6.172999,27.76746,-6.2966633,6.7434473,1.7837479,-3.9367075,6.8608465,24.524426,-0.3872274,-80.27697,52.365158,41.889034,7.7743692,9.381732,23.07808,-4.3107204,85.28161,30.28596,-30.339134,7.941515,3.9905255
147,-0.41821497678756714,155.02040100097656,74.250244140625,5.273530585198033,-3.34933288995869,87.42487846507156,-20.877216,-4.7267275,20.0576,17.928541,1.4710433,6.0507865,26.094648,-6.1647625,-5.20244,31.064085,-3.8132124,7.2536707,1.7828958,-4.621225,6.6715503,24.338903,-0.32497722,-80.65458,52.51803,41.883026,7.6975107,9.954403,23.036636,-4.223719,85.523964,30.20247,-28.571384,8.302922,3.4947069
148,-0.5068498253822327,156.21542358398438,74.42684936523438,5.767231957525034,-3.400369340745902,87.41898959564594,-20.54325,-5.307122,19.941786,19.42595,-0.0065965266,7.1058,24.764343,-6.767262,-4.11198,34.478977,-1.2511969,7.533262,1.8163154,-5.1378107,6.6047645,24.178972,-0.24301113,-81.037674,52.582676,41.943512,7.7050743,10.451336,23.01155,-4.135982,85.71884,30.139126,-27.11162,8.562191,3.0275145
149,-0.5995633006095886,157.4013671875,74.61203002929688,6.078632413824478,-3.569961442238997,87.3695818841479,-19.826208,-5.706759,19.88044,20.453197,-1.2900014,7.6459584,23.264378,-7.0612683,-2.878521,38.205578,1.5549597,7.3723164,1.8877114,-5.43745,6.713751,24.022984,-0.14970015,-81.47488,52.564537,42.128326,7.8553104,10.910829,23.030323,-4.0598683,85.826294,30.078585,-26.096909,8.694948,2.585016
150,-0.7390434145927429,158.5645751953125,74.81389617919922,6.234373051442783,-3.8348893213722492,87.29851353091713,-18.814724,-5.985796,19.814604,21.127403,-2.5541105,7.7778683,21.614706,-7.1099634,-1.5605376,42.180363,4.627246,6.84181,1.9903324,-5.5573554,6.962286,23.867422,-0.047147147,-81.971375,52.499043,42.37541,8.096811,11.373129,23.07887,-3.9990163,85.894394,30.01621,-25.322882,8.795749,2.271491
151,-0.7937151789665222,159.6469268798828,74.98928833007812,6.324444772166164,-4.117778696339628,87.18637848942141,-17.625076,-6.2257676,19.773754,21.470383,-3.7262766,7.7057524,19.862936,-7.075682,-0.29874012,46.141586,7.556926,6.2054334,2.118981,-5.59718,7.2606153,23.760206,0.062716655,-82.421135,52.37353,42.5925,8.34096,11.726041,23.111752,-3.9539595,85.976906,29.959606,-24.641209,8.868431,2.036766
152,-0.8248297572135925,160.732421875,75.17900848388672,6.439698715212612,-4.341186685485898,87.01276701468888,-16.380505,-6.496722,19.776154,21.51941,-4.7421484,7.63003,18.04051,-7.0923247,0.8221406,49.865917,9.901816,5.773269,2.2659109,-5.657311,7.519237,23.748827,0.17778122,-82.713715,52.175465,42.690075,8.496712,11.857941,23.08351,-3.922903,86.13153,29.917667,-23.902763,8.913772,1.8298503
153,-0.8968338370323181,161.7837371826172,75.3685302734375,6.6107227976794,-4.482438627925751,86.74200942137594,-15.082476,-6.8213687,19.85771,21.216803,-5.574354,7.5650735,16.057566,-7.160465,1.8881257,53.487846,11.648188,5.682093,2.4521673,-5.7672744,7.7234445,23.858517,0.2963192,-82.80662,51.871563,42.538406,8.521154,11.694665,22.964535,-3.906248,86.401596,29.900606,-23.10063,8.921229,1.6403884
154,-0.9593997001647949,162.80580139160156,75.55256652832031,6.786416823368064,-4.582752342051735,86.39348342797328,-13.669242,-7.161866,20.002811,20.555729,-6.2593284,7.4188504,13.916045,-7.214169,2.9242098,57.110977,12.969287,5.7427115,2.670863,-5.87138,7.917647,24.05927,0.41619605,-82.756645,51.481583,42.222897,8.469233,11.310398,22.783989,-3.9055421,86.753235,29.899654,-22.302599,8.895971,1.4950204
155,-1.0454256534576416,163.7970428466797,75.73001098632812,6.934470741177906,-4.660304152017114,86.04065410888197,-12.19172,-7.504857,20.140715,19.66564,-6.8207574,7.231983,11.749171,-7.2900033,3.7890563,60.530773,13.667526,5.822149,2.8650613,-5.949034,8.100747,24.315027,0.5345017,-82.605255,51.07259,41.97673,8.394885,10.81767,22.5846,-3.9189825,87.124176,29.898792,-21.471514,8.859799,1.3975164
156,-1.1016634702682495,164.80035400390625,75.92337799072266,7.028720728662403,-4.733106330388173,85.75568896364823,-10.7027855,-7.833926,20.201628,18.680647,-7.283735,7.044156,9.68946,-7.445453,4.3452153,63.528248,13.547413,5.789829,2.9794548,-5.9841847,8.270567,24.58894,0.6476834,-82.39452,50.713013,42.032894,8.347835,10.329839,22.408232,-3.94265,87.450905,29.888578,-20.569736,8.83415,1.3506267
157,-1.2001193761825562,165.779541015625,76.11293029785156,7.086196068989833,-4.805245668701936,85.54276220018238,-9.174583,-8.18233,20.183369,17.543636,-7.6104174,6.871227,7.7971606,-7.7473464,4.552338,66.03453,12.174113,5.670952,3.0073657,-5.9945083,8.430044,24.900143,0.7528753,-82.09612,50.41237,42.633873,8.360947,9.839357,22.242083,-3.9716856,87.75281,29.875986,-19.48416,8.8377695,1.3749439
158,-1.2542072534561157,166.75674438476562,76.3114013671875,7.107979236885259,-4.865781520941206,85.3687742792316,-7.5952187,-8.535567,20.114435,16.217012,-7.8026156,6.68826,5.988932,-8.15501,4.4976983,68.1753,9.773899,5.5431957,2.9757702,-5.9776697,8.576531,25.258657,0.8481208,-81.70187,50.14158,43.5954,8.393291,9.297888,22.070763,-4.0037894,88.050354,29.87069,-18.268885,8.857325,1.4615908
159,-1.2705206871032715,167.68394470214844,76.48755645751953,7.05093716678761,-4.911309677234667,85.24937073245889,-6.043142,-8.810865,19.978416,14.873718,-7.9498444,6.475192,4.187988,-8.579494,4.2398615,70.0112,7.1512766,5.35557,2.8810813,-5.894117,8.699556,25.613474,0.93151975,-81.28563,49.909924,44.510162,8.386188,8.759777,21.935236,-4.0378685,88.280334,29.86195,-17.138777,8.864919,1.5700797
160,-1.3021918535232544,168.63095092773438,76.68141174316406,6.880017348599628,-4.939310719084628,85.19935247229911,-4.5879064,-8.937054,19.767073,13.666732,-8.138131,6.2171693,2.318944,-8.935598,3.8347852,71.60456,5.1057663,5.04059,2.724191,-5.711893,8.790796,25.911037,1.0020921,-80.925575,49.72845,44.96823,8.290622,8.281903,21.876915,-4.0735874,88.37428,29.840654,-16.310085,8.830329,1.6619127
161,-1.3090227842330933,169.55126953125,76.86566162109375,6.566829993116321,-4.9498491013198755,85.22747997250642,-3.2517674,-8.873311,19.477507,12.6478405,-8.391389,5.8929214,0.3576704,-9.221292,3.2166975,72.94608,3.892116,4.576532,2.4960918,-5.4005203,8.846974,26.137716,1.0540524,-80.63567,49.616886,44.744686,8.048002,7.876105,21.911484,-4.1061716,88.30723,29.81751,-15.910433,8.710836,1.7120057
162,-1.324216604232788,170.50816345214844,77.062255859375,6.144724865015536,-4.944964070373024,85.32402890084106,-1.9965364,-8.669811,19.12518,11.740721,-8.671856,5.522753,-1.6342375,-9.4861145,2.3677678,74.002365,3.0662398,4.00061,2.2022533,-4.9910383,8.876524,26.317358,1.0796186,-80.38255,49.57657,44.092155,7.70899,7.512919,22.016027,-4.126125,88.11549,29.8055,-15.800728,8.532908,1.7450745
163,-1.337380051612854,171.39141845703125,77.224365234375,5.6728521617978025,-4.925195427269972,85.4746796188751,-0.79834414,-8.401072,18.731005,10.894704,-8.962145,5.1534176,-3.606289,-9.726621,1.4166731,74.799164,2.372381,3.3234615,1.8588082,-4.5518517,8.889693,26.468163,1.0973759,-80.15526,49.562096,43.32733,7.387541,7.182863,22.173927,-4.1447506,87.83111,29.773764,-15.798015,8.369351,1.8002
164,-1.3620139360427856,172.30825805664062,77.38209533691406,5.210304451452168,-4.889937977115817,85.66431554054454,0.3551236,-8.13417,18.314367,10.078346,-9.251294,4.8266525,-5.518821,-9.916955,0.5038171,75.36144,1.559403,2.5716994,1.5058695,-4.1384735,8.8955965,26.6,1.1138036,-79.977516,49.547,42.756947,7.1967454,6.8866997,22.37365,-4.168735,87.45289,29.692999,-15.727522,8.291273,1.923553
165,-1.3512424230575562,173.2163543701172,77.53455352783203,4.752069311566371,-4.831269280265628,85.90384260715682,1.4520032,-7.8661003,17.856464,9.28327,-9.529333,4.546794,-7.3815293,-10.0198,-0.3569485,75.6846,0.56115615,1.6836423,1.1383969,-3.7497215,8.887136,26.717104,1.1304866,-79.8712,49.531284,42.426823,7.2211027,6.643369,22.627872,-4.200353,86.95547,29.545914,-15.525243,8.329981,2.1376755
166,-1.3558577299118042,174.11032104492188,77.67696380615234,4.2762874494371985,-4.750927494310968,86.19404402419327,2.4788563,-7.5626736,17.357466,8.548269,-9.811695,4.2887735,-9.207317,-10.037676,-1.2315285,75.75242,-0.48910913,0.69127613,0.7407236,-3.3644657,8.863907,26.81496,1.1448826,-79.815895,49.526638,42.18754,7.379698,6.448613,22.937916,-4.233514,86.351715,29.35203,-15.289893,8.444257,2.4132247
167,-1.3551371097564697,175.00332641601562,77.79302978515625,3.809967428970406,-4.662519119979709,86.50489379487486,3.4741695,-7.2531714,16.857872,7.84288,-10.097606,4.0491295,-10.969518,-10.005222,-2.0932698,75.57087,-1.5339956,-0.23905002,0.33763126,-3.0009732,8.839265,26.889294,1.1568242,-79.782906,49.522453,42.04494,7.541525,6.2737837,23.277927,-4.265434,85.7031,29.135904,-15.085495,8.598599,2.7123616
168,-1.3504657745361328,175.8858184814453,77.8910903930664,3.3766248431433192,-4.580600317110145,86.80760187931752,4.426155,-6.949031,16.403694,7.253103,-10.447634,3.8258922,-12.644535,-9.964298,-2.9189444,75.14667,-2.510082,-0.9499544,-0.027597655,-2.6689548,8.8259945,26.935467,1.1717024,-79.77312,49.506367,41.995396,7.5781755,6.0922985,23.62764,-4.306839,85.041695,28.906837,-14.9838,8.755402,3.0043151
169,-1.3291149139404297,176.78199768066406,77.97526550292969,2.9817370189019763,-4.504966102612358,87.09367528881312,5.13797,-6.5980277,16.028807,7.216652,-11.099139,3.623591,-14.241336,-9.928828,-3.7098043,74.47092,-3.4429119,-1.3756901,-0.3719016,-2.3838787,8.820189,26.948082,1.1867081,-79.732735,49.468918,42.159424,7.4124427,5.892305,23.991505,-4.3523464,84.39832,28.674467,-15.021556,8.924038,3.290816
170,-1.3449186086654663,177.6649169921875,78.0241470336914,2.613497852597478,-4.429446464477979,87.37864981013591,5.8484993,-6.2682414,15.679377,7.1817956,-11.752791,3.4452705,-15.769538,-9.872719,-4.4809933,73.53837,-4.3409247,-1.6069744,-0.70346487,-2.134455,8.816695,26.930532,1.2012671,-79.686745,49.41932,42.495064,7.126084,5.6912193,24.379286,-4.401374,83.74036,28.427261,-15.157649,9.116621,3.5878782
171,-1.3409013748168945,178.56422424316406,78.06180572509766,2.2697858341401087,-4.359848757472703,87.67033286855568,6.562577,-5.959075,15.343898,7.1494937,-12.401217,3.2772894,-17.206673,-9.786998,-5.2317476,72.359665,-5.1143413,-1.7331998,-1.0222001,-1.9146582,8.822584,26.895075,1.2180357,-79.67486,49.366253,42.777615,6.8244314,5.498336,24.764101,-4.4620767,83.088394,28.164185,-15.323206,9.304204,3.8672674
172,-1.3250782489776611,179.45826721191406,78.0822982788086,1.9545231441514934,-4.301408237882559,87.9761641909477,7.286163,-5.6705203,15.010913,7.1189933,-13.03632,3.1076396,-18.532003,-9.665649,-5.955593,70.94914,-5.678661,-1.8445563,-1.3493947,-1.7281901,8.843979,26.86135,1.231759,-79.70612,49.321224,42.792534,6.610951,5.317026,25.110992,-4.522179,82.49516,27.911371,-15.439506,9.459949,4.0925965
173,-1.2981212139129639,180.3513946533203,78.08193969726562,1.6643907705735708,-4.258238985227556,88.29519240546018,8.023486,-5.4029164,14.685662,7.08852,-13.654354,2.9400246,-19.755499,-9.526533,-6.655184,69.31143,-6.002993,-2.0245543,-1.6829672,-1.570233,8.8863325,26.830938,1.2408152,-79.81149,49.27543,42.335354,6.5320525,5.1370473,25.41452,-4.583187,81.964645,27.675207,-15.552005,9.591715,4.266576
174,-1.2910209894180298,181.2393798828125,78.06077575683594,1.397348430408523,-4.226787365777729,88.62486089622999,8.771158,-5.156105,14.371026,7.063417,-14.261429,2.7824898,-20.887377,-9.370962,-7.3292313,67.44317,-6.139786,-2.2125702,-2.0171704,-1.4397738,8.944302,26.794638,1.2443416,-79.97271,49.22944,41.571434,6.5283184,4.9594,25.690847,-4.646579,81.4766,27.446135,-15.678748,9.709184,4.4035854
175,-1.307653784751892,182.13406372070312,78.029541015625,1.1472530255972901,-4.201535214003667,88.97180746573922,9.525336,-4.921953,14.050878,7.0478234,-14.869963,2.62938,-21.912872,-9.170128,-7.967195,65.35536,-6.1326437,-2.29034,-2.3581648,-1.3337424,9.009041,26.753279,1.2418371,-80.13973,49.20771,40.837055,6.544301,4.803987,25.938055,-4.696417,81.028305,27.238186,-15.704462,9.787709,4.4862447
176,-1.3013267517089844,183.0479736328125,77.97200775146484,0.9346888927708402,-4.176404556247106,89.33747474348013,10.276156,-4.7193747,13.715416,7.0545654,-15.494997,2.4750528,-22.81242,-8.921581,-8.534606,63.035225,-6.0106735,-2.1395414,-2.6673903,-1.2582529,9.07077,26.69799,1.2354126,-80.322685,49.24124,40.44989,6.5289884,4.696518,26.171114,-4.754563,80.55965,27.014091,-15.52966,9.800481,4.510918
177,-1.2986408472061157,183.96261596679688,77.88679504394531,0.7615806861193235,-4.151403543063564,89.7341034605845,11.023019,-4.549094,13.35008,7.081137,-16.136406,2.308602,-23.58639,-8.634367,-8.998805,60.46788,-5.771285,-1.7265242,-2.9825711,-1.2328323,9.125474,26.62924,1.2276318,-80.47057,49.34132,40.622734,6.4553714,4.654375,26.37872,-4.797931,80.10378,26.792006,-15.11349,9.727906,4.492448
178,-1.2927145957946777,184.86802673339844,77.79130554199219,0.620916125573765,-4.128095523634268,90.15798990920212,11.775738,-4.4087224,12.9627075,7.1067863,-16.778767,2.1369002,-24.242788,-8.329193,-9.371848,57.651035,-5.3987546,-1.1323919,-3.2985206,-1.2469504,9.176433,26.551096,1.2195271,-80.61219,49.488804,41.13899,6.355638,4.662386,26.560905,-4.8265386,79.66118,26.579006,-14.517909,9.587085,4.4313197
179,-1.2822527885437012,185.7992401123047,77.67228698730469,0.5126683333619347,-4.10403776998488,90.58862162956392,12.533204,-4.2990675,12.574699,7.1336193,-17.423607,1.9778353,-24.77559,-8.015002,-9.692257,54.59422,-4.907981,-0.41346934,-3.5793753,-1.2807846,9.225918,26.464901,1.2085879,-80.77691,49.65808,41.701996,6.2558866,4.6856604,26.724667,-4.8519497,79.21688,26.379213,-13.772823,9.409538,4.282432
180,-1.2626945972442627,186.731689453125,77.54342651367188,0.4395770166861362,-4.076781627861984,91.00549793176123,13.29553,-4.220674,12.206921,7.1587696,-18.068222,1.8470726,-25.18056,-7.7002635,-9.999176,51.308594,-4.3120584,0.37602365,-3.8432415,-1.3400122,9.2748785,26.384783,1.1966634,-80.915115,49.80694,42.03896,6.1741834,4.680113,26.859215,-4.8684516,78.83503,26.22613,-12.888177,9.229172,3.9821844
181,-1.2593334913253784,187.67453002929688,77.40122985839844,0.4025745900029698,-4.041693650069175,91.4004276042368,14.0519495,-4.176014,11.870279,7.183499,-18.71999,1.7576041,-25.447205,-7.4072423,-10.271015,47.735878,-3.5773094,1.2564359,-4.0529656,-1.4108568,9.329021,26.299313,1.1775882,-81.07544,49.94436,42.050114,6.12594,4.6319284,26.96042,-4.883464,78.47068,26.119009,-11.440155,9.048716,3.2738042
182,-1.261421799659729,188.6182403564453,77.23645782470703,0.40516108039500864,-4.002537577187178,91.78739357942646,14.805641,-4.1639347,11.548629,7.2082114,-19.37576,1.6947149,-25.571789,-7.1453524,-10.485136,43.87296,-2.7089689,2.229879,-4.249799,-1.5116873,9.384577,26.213442,1.1571274,-81.213455,50.072887,41.905155,6.093474,4.5595527,27.023552,-4.8925147,78.159904,26.056065,-9.556297,8.829491,2.2648952
183,-1.2598180770874023,189.57789611816406,77.05488586425781,0.4383443526442951,-3.969558079332502,92.18036821561931,15.574755,-4.176685,11.22223,7.2313223,-20.017237,1.6313357,-25.559393,-6.904119,-10.683912,39.80493,-1.7780608,3.2148545,-4.4359612,-1.6358044,9.431556,26.139194,1.1349846,-81.3363,50.194153,41.67655,6.0631557,4.487393,27.079052,-4.8998747,77.89252,26.0161,-8.120865,8.571218,1.4756672
184,-1.2531324625015259,190.54005432128906,76.85452270507812,0.4970192276174018,-3.9528098854648928,92.59361218327163,16.377542,-4.2077475,10.871049,7.25164,-20.626154,1.5412664,-25.414389,-6.6760206,-10.913865,35.610687,-0.85213506,4.1285987,-4.6167445,-1.7794884,9.46084,26.08743,1.0980641,-81.447586,50.323467,41.437504,6.020645,4.441059,27.157091,-4.9127383,77.66372,25.97042,-8.00815,8.319293,1.4157082
185,-1.2174800634384155,191.51980590820312,76.64627075195312,0.5877921771516909,-3.961518730221863,93.05637339954428,17.219366,-4.2602596,10.454947,7.2705894,-21.216232,1.421837,-25.106745,-6.4906,-11.190373,31.214926,0.08823899,4.9195,-4.8539586,-1.9746311,9.473573,26.074331,1.0714732,-81.478966,50.43075,41.211414,5.9474616,4.4176426,27.263664,-4.9275618,77.54008,25.929585,-9.860089,8.077568,2.419023
186,-1.217065453529358,192.50875854492188,76.40912628173828,0.7192332306783298,-3.9920976426583907,93.56170130713305,18.093483,-4.342674,9.985303,7.2881427,-21.789883,1.2855424,-24.622087,-6.3859024,-11.486643,26.574532,1.0775902,5.616571,-5.118259,-2.2129967,9.475068,26.087011,1.0470468,-81.47675,50.527344,40.950497,5.858132,4.409583,27.388168,-4.951416,77.475945,25.894623,-13.073427,7.759903,4.1391354
187,-1.2015976905822754,193.5216827392578,76.1471176147461,0.8973794693707007,-4.03758639097275,94.07366797562948,19.001902,-4.462847,9.514543,7.301605,-22.312971,1.1298071,-23.995983,-6.362646,-11.793263,21.82864,2.0692024,6.2683167,-5.3851805,-2.488825,9.463857,26.11724,1.0295055,-81.45656,50.59772,40.671562,5.7746954,4.414498,27.498762,-4.9791503,77.45192,25.867718,-16.606768,7.3261714,6.021801
188,-1.1826289892196655,194.5480499267578,75.8712158203125,1.133939341991721,-4.093714785845882,94.56366767893692,19.946745,-4.635797,9.0857725,7.307793,-22.748135,0.9543002,-23.259363,-6.4113464,-12.109265,17.102158,3.0236216,6.9402056,-5.6309395,-2.8037198,9.441884,26.153252,1.0112574,-81.441185,50.644474,40.38891,5.720022,4.432612,27.572023,-5.0176067,77.44332,25.825232,-19.43246,6.8532467,7.5319924
189,-1.1740946769714355,195.60598754882812,75.57501220703125,1.4745602494932182,-4.165848117036018,95.02898011880245,20.944962,-4.924516,8.704879,7.30597,-23.110989,0.7783526,-22.374405,-6.530873,-12.404452,12.234766,3.9829874,7.715804,-5.857831,-3.191768,9.400207,26.213667,1.001367,-81.43619,50.636044,40.074436,5.711689,4.4615297,27.612724,-5.040178,77.45296,25.792385,-21.342146,6.4026656,8.548068
190,-1.1526533365249634,196.682373046875,75.2572021484375,1.9322246353294839,-4.268942667835281,95.51606860097439,22.002459,-5.328173,8.304226,7.2987294,-23.408298,0.60203403,-21.185625,-6.7557135,-12.731781,6.9213734,5.106196,8.53642,-6.1006036,-3.6792848,9.350861,26.29479,0.9918168,-81.42897,50.600197,39.736122,5.730183,4.501488,27.639809,-5.063327,77.47644,25.740414,-22.878716,5.958715,9.368697
191,-1.158897042274475,197.77987670898438,74.93653869628906,2.41510585333044,-4.393604464340839,96.02879120168463,23.08767,-5.716056,7.8709764,7.290267,-23.596548,0.38498363,-22.044802,-7.5693307,-12.89957,6.389061,3.7377086,9.290419,-6.3720593,-4.208615,9.309362,26.365541,0.9752511,-81.41078,50.5787,39.42752,5.7566576,4.5625825,27.630087,-5.108882,77.54543,25.657417,-24.127329,5.5654426,10.068983
192,-1.1364343166351318,198.88717651367188,74.63807678222656,2.8161443913374047,-4.518545374020733,96.54666761406254,24.158962,-5.949211,7.4281306,7.2791276,-23.633776,0.08572527,-22.873209,-8.375411,-13.238048,6.262898,2.3059433,9.878333,-6.6410317,-4.69296,9.286267,26.389431,0.95865107,-81.38819,50.606277,39.200634,5.769457,4.6513853,27.556618,-5.1650953,77.66453,25.555965,-25.177975,5.2553015,10.730359
193,-1.0856788158416748,199.98948669433594,74.38093566894531,3.127909907917791,-4.645446055786356,97.08116377699598,25.215605,-6.0106535,6.9892335,7.2638693,-23.514185,-0.3248723,-23.520336,-9.077461,-13.871291,6.1765237,0.95254856,10.347609,-6.8967423,-5.1405125,9.299386,26.342844,0.9524207,-81.363266,50.703327,39.09368,5.758679,4.789763,27.399582,-5.207761,77.81018,25.437847,-25.846273,5.073697,11.314331
194,-1.018022894859314,201.1061248779297,74.13803100585938,3.332941066161488,-4.7573293591368815,97.57636031765401,26.263226,-5.901608,6.6278133,7.244783,-23.276329,-0.84297585,-24.05972,-9.598688,-14.725166,6.1777587,-0.3788127,10.755024,-7.0906425,-5.506224,9.328832,26.24304,0.95640165,-81.33592,50.83857,39.069305,5.7343783,4.9630675,27.167524,-5.234542,77.977875,25.318485,-26.156132,5.0005717,11.804994
195,-0.9417747259140015,202.2229461669922,73.92848205566406,3.463366269844229,-4.839675343410307,98.02232993636001,27.277124,-5.691218,6.306911,7.2207646,-22.912472,-1.4024202,-24.430588,-9.971753,-15.64901,6.196696,-1.4897532,11.079406,-7.2247133,-5.7862644,9.336215,26.127527,0.96544015,-81.33593,50.97955,39.065937,5.711194,5.129473,26.89986,-5.2445245,78.17062,25.229816,-26.529081,4.9558187,12.324551
196,-0.7801564335823059,203.35745239257812,73.76718139648438,3.5283361619093365,-4.863561246505404,98.37917264786603,28.228008,-5.4190145,6.0233765,7.1921954,-22.423834,-1.9494483,-24.606043,-10.191134,-16.473019,6.20869,-2.2097585,11.272897,-7.309482,-5.9686637,9.269446,26.03909,0.9811178,-81.34771,51.07839,39.028347,5.7010984,5.2452207,26.624346,-5.2514806,78.45911,25.203344,-27.364506,4.859458,12.974006
197,-0.6494608521461487,204.5022430419922,73.62862396240234,3.572101706504595,-4.82691758434404,98.64082147343318,29.115852,-5.1392035,5.7434106,7.1608663,-21.835833,-2.4545522,-24.540073,-10.284996,-17.149014,6.215766,-2.5567095,11.381101,-7.3368163,-6.0739927,9.118411,25.982334,0.9984764,-81.41607,51.13256,38.909317,5.704296,5.303537,26.338175,-5.25897,78.879715,25.277157,-28.977295,4.683602,13.881527
198,-0.5627029538154602,205.67398071289062,73.49564361572266,3.587772456030322,-4.740324126849229,98.82687773027597,29.951788,-4.8331356,5.478363,7.12356,-21.136229,-2.9488728,-24.259037,-10.24682,-17.761374,6.2181897,-2.5960815,11.403831,-7.3204527,-6.1223936,8.902182,25.941725,1.0187656,-81.516365,51.164295,38.749557,5.7160354,5.328744,26.030664,-5.2725673,79.423355,25.414818,-31.075033,4.4529333,14.945024
199,-0.49156254529953003,206.83377075195312,73.3819580078125,3.496833058013503,-4.613871007697064,98.91125786671181,30.731287,-4.415482,5.320444,7.1136656,-20.299324,-3.473989,-23.833448,-9.9954405,-18.320679,6.214286,-2.2520416,11.207173,-7.190885,-6.028669,8.660202,25.899557,1.0317122,-81.62469,51.17888,38.622818,5.7392354,5.3138638,25.717436,-5.285525,79.89656,25.545057,-33.18912,4.1397,15.975569
200,-0.43470823764801025,208.04808044433594,73.28511810302734,3.2086427684872536,-4.443920924788213,98.88753804331141,31.449371,-3.7853622,5.348604,7.140978,-19.285425,-4.0742993,-23.358027,-9.443195,-18.859158,6.216679,-1.4581721,10.661123,-7.011913,-5.7416725,8.383656,25.885626,1.0471946,-81.62782,51.134586,38.594814,5.796732,5.270096,25.402647,-5.306437,80.334885,25.60964,-34.78095,3.8063388,16.70961
201,-0.3661792576313019,209.29278564453125,73.22525787353516,2.605295631180961,-4.199486467063293,98.74975080768415,32.11089,-2.8059537,5.6340647,7.189196,-18.142475,-4.826258,-22.819157,-8.469005,-19.507683,6.2840223,-0.07436244,9.694313,-6.754682,-5.133394,8.067793,25.899958,1.0633085,-81.49061,51.013622,38.75608,5.907492,5.13337,25.076023,-5.3371086,80.60951,25.565582,-35.643692,3.4413276,17.098495
202,-0.24360036849975586,210.52296447753906,73.24192810058594,1.7661855568865972,-3.9042268125278485,98.53738129570343,32.72151,-1.571502,6.086439,7.2767296,-16.871378,-5.6792727,-22.175741,-7.1802754,-20.239258,6.3801317,1.827477,8.383403,-6.415251,-4.2701592,7.717538,25.932995,1.0734386,-81.31173,50.85296,39.031708,6.060215,4.928759,24.753658,-5.367984,80.73447,25.450056,-36.093258,3.0452323,17.276154
203,-0.1299443393945694,211.77957153320312,73.27444458007812,0.7775890944046497,-3.6040851037624795,98.27546301058753,33.10444,-0.16405717,6.621442,7.8383203,-15.603112,-6.5422087,-21.514235,-5.6762853,-20.898497,6.454883,3.927391,6.8016977,-6.0299296,-3.23347,7.358855,25.96145,1.0758862,-81.133316,50.677082,39.303562,6.198462,4.7518835,24.447445,-5.3916407,80.81086,25.337936,-36.42893,2.6554744,17.333784
204,0.022796735167503357,213.0432586669922,73.3190689086914,-0.23954601464296493,-3.3232288239359344,98.00072425622164,32.381325,1.3883374,7.0923133,10.739661,-15.219662,-7.3187494,-20.968477,-4.117638,-21.313334,6.525084,5.8779035,5.0327263,-5.6834435,-2.1544402,6.9983034,25.962255,1.0688869,-80.932335,50.50658,39.476788,6.2569723,4.6904535,24.161568,-5.4383793,80.97925,25.266472,-36.944733,2.3068123,17.361153
205,0.14743508398532867,214.32130432128906,73.37004852294922,-1.3228833778437077,-3.0148510001136852,97.71420862934224,31.543728,3.0160162,7.4957438,13.777625,-14.517401,-8.032461,-21.498919,-2.8167849,-21.335354,8.534089,6.7927184,2.9099827,-5.3321157,-0.9676324,6.5768213,25.923908,1.0449574,-80.762314,50.33892,39.51814,6.223012,4.7575917,23.923098,-5.5035753,81.17482,25.236734,-37.697468,1.9734099,17.397661
206,0.227850541472435,215.6178436279297,73.41787719726562,-2.505889437513133,-2.6648341583089716,97.43226573028484,30.598133,4.756541,7.8183036,16.920544,-13.534426,-8.7320385,-22.405062,-1.5007962,-21.220358,11.057641,7.5429173,0.45755258,-5.001483,0.34566954,6.0854626,25.8629,1.002334,-80.59225,50.16736,39.488995,6.1286926,4.9086137,23.71873,-5.5860353,81.37702,25.223207,-38.53574,1.652619,17.387999
207,0.30489665269851685,216.90365600585938,73.46724700927734,-3.66407126040839,-2.3433855549437608,97.17431299101185,29.62908,6.4476204,7.9518237,20.056469,-12.248734,-9.362281,-23.139826,-0.15496725,-21.14788,13.213721,8.214393,-1.9415002,-4.729559,1.6412311,5.61171,25.78108,0.93878,-80.445496,50.040634,39.376747,5.995118,5.165745,23.517275,-5.6866546,81.65287,25.23511,-39.463665,1.3973396,17.29387
208,0.44738030433654785,218.17694091796875,73.53789520263672,-4.681488266973796,-2.1203569527573967,96.94903148280889,28.681313,7.938415,7.822238,23.145927,-10.675099,-9.866311,-23.545876,1.0905117,-21.193089,15.043776,8.372712,-3.9086792,-4.5394115,2.7902358,5.249373,25.675432,0.85556173,-80.350105,50.006397,39.167316,5.8425083,5.55066,23.287285,-5.7993083,82.06254,25.291693,-40.486885,1.2605246,17.079145
209,0.5648484230041504,219.43724060058594,73.6141586303711,-5.542294439256355,-2.009899534155518,96.70363087073073,27.779102,9.181744,7.426155,26.161896,-8.776761,-10.255542,-23.630793,2.2393165,-21.255207,16.690393,7.69436,-5.3380346,-4.408196,3.7914872,5.018939,25.523624,0.7481403,-80.300064,50.087563,38.843586,5.6523123,6.1182375,22.990961,-5.923077,82.69844,25.444582,-41.759533,1.3012342,16.67383
210,0.658856213092804,220.693115234375,73.71292114257812,-6.3087336431808945,-1.9770315354434236,96.41826384348003,26.87403,10.239813,6.8523746,29.157133,-6.572233,-10.577967,-23.488613,3.333578,-21.215555,18.228205,6.378959,-6.4216895,-4.301452,4.710187,4.874717,25.32825,0.61302847,-80.27884,50.26095,38.42011,5.4162507,6.83835,22.655571,-6.058351,83.5067,25.67229,-43.22416,1.4851747,16.124523
211,0.7760294079780579,221.94683837890625,73.8342056274414,-6.988623647445388,-2.0158546689611883,96.15844486114814,25.883213,11.147384,6.169213,32.245483,-4.1703773,-10.808681,-23.07753,4.327236,-21.119154,19.531477,4.818064,-7.2230477,-4.233667,5.525897,4.8160386,25.128431,0.45469657,-80.3014,50.500942,37.929222,5.170808,7.6057115,22.350042,-6.2016997,84.327614,25.878012,-44.57231,1.7188011,15.568246
212,0.7948534488677979,223.1729278564453,73.97817993164062,-7.585315335267215,-2.122114373773731,95.99816695399441,24.72111,11.949053,5.4330716,35.551468,-1.6746296,-10.88855,-22.36311,5.204139,-21.050209,20.426535,3.4430468,-7.820754,-4.22497,6.211748,4.847926,24.9684,0.2854855,-80.388916,50.77362,37.400253,4.9553447,8.315873,22.137144,-6.346465,84.99497,25.969097,-45.497707,1.8968341,15.134705
213,0.8289231657981873,224.38951110839844,74.14320373535156,-8.070925299409174,-2.3240688114175376,95.92812261135995,23.341694,12.647693,4.661577,39.260044,1.1038566,-10.667526,-21.287395,5.9874573,-21.022116,20.799082,2.3528838,-8.154111,-4.2706,6.7361674,5.0014915,24.883696,0.116255336,-80.56181,51.07502,36.655827,4.7500153,9.022518,22.015429,-6.486466,85.500046,25.91564,-45.83477,1.9688237,14.813622
214,0.8780555725097656,225.59332275390625,74.32574462890625,-8.452310501708006,-2.6155004334072736,95.91904353213941,21.778553,13.265833,3.8573837,43.28343,4.148411,-10.142593,-19.891382,6.710855,-21.008772,20.729353,1.362926,-8.208422,-4.360823,7.1206803,5.270358,24.846449,-0.046267744,-80.81062,51.406075,35.740704,4.539449,9.7520275,21.956285,-6.6176715,85.91354,25.777554,-45.777477,1.9895668,14.547455
215,0.956895649433136,226.7611541748047,74.51148986816406,-8.778496432421848,-2.9422375160344614,96.0185604650639,20.069155,13.874072,3.034865,47.345814,7.0299582,-9.468883,-18.290913,7.3905606,-21.051767,20.320818,0.48507237,-8.146753,-4.5107536,7.4131393,5.606471,24.812717,-0.19275981,-81.11467,51.735767,35.014416,4.3816366,10.362809,21.97831,-6.7360883,86.18615,25.601889,-45.56003,2.0079875,14.390337
216,1.0460565090179443,227.9140167236328,74.70927429199219,-9.097962475857011,-3.2495300399569147,96.27506903019632,18.242786,14.504913,2.168788,51.2028,9.296721,-8.858919,-16.606976,8.030514,-21.185354,19.695618,-0.27928188,-8.124431,-4.7344155,7.6622005,5.9615993,24.737051,-0.31134623,-81.456406,52.030464,34.832703,4.3452406,10.716919,22.101517,-6.8373165,86.26626,25.435316,-45.417274,2.0752275,14.396919
217,1.1238391399383545,229.0251007080078,74.90677642822266,-9.45365882346849,-3.5368297795341967,96.7810831459374,16.20321,15.200046,1.1386542,54.99267,10.968262,-8.389605,-14.794751,8.650156,-21.492418,18.781847,-0.9050504,-8.174677,-5.1018887,7.8834925,6.3595667,24.582748,-0.38617074,-81.876335,52.285873,35.36399,4.484496,10.754177,22.355757,-6.914453,86.10567,25.27922,-45.39269,2.2428892,14.655095
218,1.237978458404541,230.07705688476562,75.09991455078125,-9.805748026797502,-3.827051395479746,97.48353673479157,13.948384,15.913284,-0.022881743,58.822994,12.212011,-7.9337597,-12.807903,9.254487,-21.92604,17.52544,-1.3878176,-8.214814,-5.580133,8.037529,6.815166,24.387634,-0.4066475,-82.37308,52.496567,36.39299,4.753993,10.552263,22.7239,-6.9605894,85.74357,25.121489,-45.3685,2.4712634,15.1102
219,1.3265067338943481,231.12924194335938,75.28900909423828,-10.083872504519737,-4.101064518649574,98.211781602128,11.65287,16.515635,-1.1332595,62.428,12.782448,-7.4656763,-10.785502,9.803817,-22.329884,16.12758,-1.7838913,-8.220638,-6.0545225,8.0893545,7.26746,24.213585,-0.3872456,-82.82656,52.643383,37.712555,5.069573,10.179189,23.149668,-6.975472,85.293625,24.990377,-45.3292,2.6810746,15.598867
220,1.3866726160049438,232.14991760253906,75.4842300415039,-10.219181874758252,-4.342370108220235,98.79624288206381,9.503246,16.888884,-2.0011842,65.53838,12.43539,-6.979824,-8.866284,10.246665,-22.55574,14.792825,-2.1504345,-8.171622,-6.3002486,8.057346,7.635685,24.11018,-0.31651747,-83.27618,52.70032,39.06714,5.3639317,9.720899,23.609964,-6.9756784,84.71442,24.87844,-45.292927,2.7683213,15.980755
221,1.4367233514785767,233.16607666015625,75.68267822265625,-10.192402620016983,-4.549379009143824,99.20528529843175,7.5866704,16.951706,-2.613319,68.08324,10.689833,-6.504407,-7.0817323,10.562483,-22.577827,13.567617,-2.499252,-8.062213,-6.368901,7.9078074,7.914997,24.084589,-0.21889433,-83.600876,52.66589,40.623608,5.6252136,9.105318,24.097332,-6.963538,84.09116,24.80255,-45.26665,2.7083285,16.20445
222,1.4869804382324219,234.165771484375,75.87388610839844,-10.038005483088101,-4.73176652732464,99.52709051718034,5.806819,16.761255,-3.0635629,70.21836,7.8107615,-6.0871325,-5.3617964,10.766027,-22.485376,12.357271,-2.8108017,-7.9045177,-6.311756,7.6622434,8.135821,24.10486,-0.09965652,-83.87058,52.568344,42.428085,5.8753576,8.3200865,24.634523,-6.94384,83.36617,24.739212,-45.24975,2.5475173,16.357645
223,1.5027154684066772,235.15086364746094,76.06864929199219,-9.778942281597882,-4.8930665887168034,99.7673460491044,4.069793,16.438574,-3.3114462,72.02815,4.669935,-5.744582,-3.7279875,10.851611,-22.312342,11.223485,-3.1203458,-7.711693,-6.162413,7.336177,8.315522,24.184639,0.036180586,-84.02715,52.421696,44.152927,6.081241,7.515956,25.157516,-6.9165864,82.64471,24.68912,-45.165432,2.347499,16.455496
224,1.50978684425354,236.11392211914062,76.26033782958984,-9.438576887759366,-5.036732540307842,99.93173009181356,2.282712,16.127457,-3.3053908,73.587494,2.136279,-5.4678,-2.1933699,10.82189,-22.090952,10.211177,-3.4577706,-7.5004864,-5.959385,6.9434924,8.472872,24.33859,0.1817282,-84.00611,52.24103,45.470474,6.2264886,6.847615,25.599699,-6.880224,82.03767,24.662167,-44.93537,2.1715271,16.512018
225,1.522568941116333,237.0713653564453,76.4471206665039,-8.990370319055982,-5.1686791938263505,100.01009021969296,0.43844792,15.888402,-2.9279394,74.87442,0.456791,-5.3156033,-0.7624369,10.648561,-21.81499,9.346554,-3.839533,-7.273835,-5.6990943,6.4571004,8.613747,24.591152,0.32906413,-83.76043,52.035637,46.28755,6.3181925,6.3475046,25.948988,-6.8331275,81.56261,24.66021,-44.46479,2.0062606,16.512714
226,1.5306588411331177,238.01358032226562,76.6313247680664,-8.440398799807323,-5.286575654700422,100.00421457031743,-1.4030104,15.667608,-2.2217243,75.85185,-0.83135545,-5.2635574,0.5708076,10.3458395,-21.48221,8.616274,-4.256504,-7.032392,-5.370904,5.887642,8.735025,24.926977,0.47177815,-83.32934,51.805927,46.780243,6.373262,5.9409084,26.235876,-6.776713,81.16722,24.685276,-43.81928,1.8282127,16.456707
227,1.5240439176559448,238.94586181640625,76.80497741699219,-7.851766989164191,-5.381479626646195,99.93787781196744,-3.2335417,15.4346895,-1.3728178,76.564156,-1.9326357,-5.169166,1.824178,9.985095,-21.123688,7.968194,-4.6882944,-6.7889137,-5.00362,5.3014355,8.837915,25.30323,0.6056506,-82.778885,51.55132,47.024223,6.400232,5.6228776,26.462004,-6.7119436,80.86034,24.736595,-43.162395,1.6852303,16.377684
228,1.5131381750106812,239.8629608154297,76.96880340576172,-7.28756726347476,-5.443015602925518,99.83566985711944,-5.0569534,15.141221,-0.57763886,77.055824,-3.0522316,-4.9000807,3.00736,9.633224,-20.769985,7.358387,-5.115897,-6.5524707,-4.626138,4.76226,8.920346,25.677017,0.7280442,-82.17494,51.270576,47.095165,6.4048142,5.3883915,26.628004,-6.6403675,80.65013,24.81657,-42.65661,1.6264766,16.307566
229,1.4959499835968018,240.77847290039062,77.11512756347656,-6.745073580977442,-5.456968802351341,99.69309950532075,-6.9010386,14.713605,0.11278128,77.33025,-4.238205,-4.3952794,4.015337,9.252183,-20.43732,6.9818745,-5.635788,-6.315985,-4.238046,4.272403,8.966699,26.062263,0.83619034,-81.47506,50.946133,46.951496,6.378509,5.2324996,26.726835,-6.5620413,80.55795,24.928236,-42.39266,1.6964412,16.247501
230,1.4894075393676758,241.70016479492188,77.24547576904297,-6.198613452704513,-5.4311488509999,99.50283265352797,-8.753452,14.181897,0.8040609,77.35653,-5.3812547,-3.748224,4.809032,8.800165,-20.11581,6.950764,-6.30747,-6.076271,-3.829494,3.802312,8.983694,26.474634,0.92701477,-80.664314,50.587303,46.57328,6.3232346,5.159403,26.76144,-6.477486,80.57441,25.070135,-42.26758,1.8589988,16.181665
231,1.477830171585083,242.61843872070312,77.35282897949219,-5.670719659389183,-5.389049039110659,99.28448563422707,-10.564065,13.644462,1.5265983,77.127686,-6.4515405,-3.0620198,5.573809,8.3651905,-19.784672,6.9204803,-6.964013,-5.8472333,-3.4128368,3.3665574,8.998248,26.877209,0.99910283,-79.85391,50.232822,46.067238,6.2594666,5.1774592,26.750214,-6.3887215,80.65996,25.232424,-42.15505,2.0419428,16.116243
232,1.443408489227295,243.51612854003906,77.43856048583984,-5.185537283109029,-5.354035985219723,99.05663162737564,-12.280974,13.20108,2.3123784,76.63807,-7.4198074,-2.437021,6.3409686,7.972992,-19.447254,6.8899617,-7.6182284,-5.6388135,-2.9969537,2.9805877,9.036447,27.226398,1.0537397,-79.157616,49.922626,45.53923,6.207133,5.2961235,26.711767,-6.2979903,80.77182,25.402956,-41.92938,2.1722794,16.057491
233,1.4145798683166504,244.41563415527344,77.5010757446289,-4.747366800793775,-5.328851984503411,98.81634505641931,-13.905246,12.889226,3.1964104,75.88451,-8.292604,-1.8518842,7.109017,7.633271,-19.091503,6.8577867,-8.260887,-5.4612722,-2.5699744,2.6570528,9.100714,27.517458,1.0888071,-78.60854,49.659893,44.950134,6.1721478,5.5779886,26.649607,-6.2164683,80.88945,25.564754,-41.52655,2.2194943,16.013748
234,1.399824619293213,245.32537841796875,77.54652404785156,-4.342672545258281,-5.301633019853183,98.55579182604302,-15.453247,12.638688,4.1582375,74.86582,-9.083211,-1.2772945,7.866009,7.329135,-18.718197,6.8232174,-8.891007,-5.3071604,-2.1397667,2.3771079,9.177528,27.77302,1.114117,-78.13071,49.416218,44.27101,6.137748,5.995273,26.550512,-6.1252112,81.05257,25.743143,-41.02093,2.227903,15.976903
235,1.3815243244171143,246.22027587890625,77.56390380859375,-3.956033058492916,-5.276085139173585,98.28382302769847,-16.900558,12.38959,5.1485167,73.589714,-9.77271,-0.7964723,8.618874,7.039899,-18.350204,6.799424,-9.53158,-5.159282,-1.7049387,2.1251726,9.265428,27.985872,1.1270602,-77.7368,49.217,43.60306,6.1003056,6.4320073,26.427637,-6.0376062,81.24969,25.929861,-40.506443,2.2284524,15.940685
236,1.3674360513687134,247.12457275390625,77.56014251708984,-3.5846156260858892,-5.254247186949089,98.01176292306491,-18.224094,12.098221,6.1085806,72.04539,-10.325927,-0.48623297,9.384668,6.760322,-18.012405,6.7729044,-10.197155,-4.998678,-1.2862529,1.888528,9.363359,28.153711,1.1300819,-77.40837,49.077187,43.057262,6.0570836,6.768379,26.285082,-5.948016,81.49864,26.136179,-40.07117,2.2560823,15.892828
237,1.3495588302612305,248.0214385986328,77.53299713134766,-3.234385927023793,-5.234443799949543,97.73863474407634,-19.426792,11.792478,7.046494,70.21978,-10.75132,-0.3804199,10.13895,6.487001,-17.720264,6.789076,-10.928357,-4.8001714,-0.8767168,1.6741763,9.472382,28.265648,1.1232997,-77.1604,49.01329,42.65705,5.97318,7.018533,26.12644,-5.8601327,81.8046,26.360617,-39.732273,2.3235865,15.82678
238,1.3380749225616455,248.92068481445312,77.49005889892578,-2.9048244256626035,-5.215161192289816,97.45896651537335,-20.517803,11.48059,7.9872484,68.10828,-11.048854,-0.4312794,10.888147,6.2261963,-17.456982,6.8189893,-11.694639,-4.5771756,-0.4708245,1.4860181,9.590336,28.32655,1.1076146,-76.99289,49.011166,42.345936,5.8638506,7.230645,25.949133,-5.779269,82.16076,26.591774,-39.444256,2.4115853,15.75014
239,1.3060296773910522,249.82546997070312,77.42726135253906,-2.604681741027666,-5.20077086127193,97.17860871690557,-21.493423,11.117623,8.873863,65.72795,-11.178435,-0.5893661,11.645965,5.9912853,-17.207758,6.8495555,-12.462356,-4.3716784,-0.08277082,1.3287399,9.714287,28.354454,1.0834395,-76.879875,49.04361,42.111076,5.805394,7.338261,25.74972,-5.705799,82.5501,26.828756,-39.203842,2.5047145,15.673314
240,1.2793526649475098,250.7345733642578,77.34578704833984,-2.344579060721365,-5.196850084721638,96.90435702685892,-22.354086,10.670861,9.639274,63.101177,-11.107985,-0.7985954,12.423432,5.7988925,-16.95767,6.8779826,-13.203276,-4.227198,0.27445602,1.2112665,9.841416,28.368511,1.0519772,-76.79953,49.082577,41.93714,5.8749676,7.275746,25.525854,-5.641775,82.952774,27.06753,-39.008457,2.587289,15.6075
241,1.251821517944336,251.64405822753906,77.24989318847656,-2.1249098631613883,-5.207716023270499,96.64116189368409,-23.128397,10.143348,10.226384,60.240143,-10.8262415,-0.9863342,13.221589,5.6507807,-16.701843,6.9073715,-13.911234,-4.1739554,0.59340876,1.1368486,9.974459,28.364698,1.0092638,-76.75988,49.12933,41.856613,6.149579,6.946721,25.26167,-5.5821257,83.384995,27.327274,-38.874756,2.661862,15.55313
242,1.2282330989837646,252.5611572265625,77.13712310791016,-1.9411904049736457,-5.229931232061119,96.38359975453089,-23.809977,9.566962,10.667669,57.131924,-10.358387,-1.1839399,14.03586,5.540436,-16.446043,6.93552,-14.598249,-4.182018,0.89551896,1.1068566,10.112885,28.335983,0.97167057,-76.786705,49.18219,41.862682,6.571991,6.413023,24.96875,-5.543761,83.830986,27.580334,-38.803574,2.7318804,15.509666
243,1.202994465827942,253.4800262451172,77.0107421875,-1.796164800641933,-5.258498330231312,96.12342676099176,-24.348497,8.960529,11.024996,53.752007,-9.726142,-1.4858117,14.867191,5.471339,-16.190912,6.961192,-15.270992,-4.2045703,1.1540655,1.1009444,10.249534,28.29587,0.9111041,-76.799995,49.26066,41.9046,7.0079894,5.8430467,24.661547,-5.497387,84.30837,27.844002,-38.745857,2.7959063,15.468203
