unveil-humanoid-operators/unveil-humanoid-operators.github.io/feature-analysis-animation/data/feature_matrix_instances/height_root_translate_rom_walking_A068_walk_ff_start_315_001__A068.csv
Frame,root_translateX,root_translateY,root_translateZ,root_rotateX,root_rotateY,root_rotateZ,left_hip_pitch_joint_dof,left_hip_roll_joint_dof,left_hip_yaw_joint_dof,left_knee_joint_dof,left_ankle_pitch_joint_dof,left_ankle_roll_joint_dof,right_hip_pitch_joint_dof,right_hip_roll_joint_dof,right_hip_yaw_joint_dof,right_knee_joint_dof,right_ankle_pitch_joint_dof,right_ankle_roll_joint_dof,waist_yaw_joint_dof,waist_roll_joint_dof,waist_pitch_joint_dof,left_shoulder_pitch_joint_dof,left_shoulder_roll_joint_dof,left_shoulder_yaw_joint_dof,left_elbow_joint_dof,left_wrist_roll_joint_dof,left_wrist_pitch_joint_dof,left_wrist_yaw_joint_dof,right_shoulder_pitch_joint_dof,right_shoulder_roll_joint_dof,right_shoulder_yaw_joint_dof,right_elbow_joint_dof,right_wrist_roll_joint_dof,right_wrist_pitch_joint_dof,right_wrist_yaw_joint_dof
0,-1.6058948040008545,2.581946849822998,78.0899658203125,0.7300449327507614,0.5342213334835918,-5.811865585080305,1.1463575,0.70229894,17.723608,10.6424885,-15.470396,-0.31532678,-4.663826,-10.100118,-9.67315,16.827944,-11.476148,8.109533,-0.81536,-2.1841145,7.880654,-8.110226,16.968445,-42.863457,61.697395,-0.3784849,1.7238773,6.698071,-10.77253,-13.202722,44.2619,65.597374,-9.291682,-1.803199,-1.7850318
1,-1.5723086595535278,2.6206119060516357,78.08631134033203,0.7108598802589516,0.5175125946226385,-5.786540728665745,1.1927108,0.6835988,17.692953,10.637748,-15.50443,-0.30354473,-4.6383696,-10.513734,-10.876303,17.30058,-11.930125,7.6488357,-0.8065996,-2.194614,7.827334,-8.077599,17.038687,-42.911766,61.824684,-0.3122797,1.7538611,6.6909766,-10.586946,-13.150383,44.212772,65.413536,-9.395343,-1.8135831,-1.7224456
2,-1.540759563446045,2.6531825065612793,78.07970428466797,0.6912049616196015,0.5017403479028154,-5.761723529132229,1.2399395,0.66450703,17.662851,10.628248,-15.536002,-0.29282427,-4.610445,-10.936976,-12.096036,17.797207,-12.425354,7.1537533,-0.80066806,-2.2108617,7.773314,-8.069631,17.120728,-43.001835,61.96664,-0.29092374,1.784222,6.681349,-10.417349,-13.075794,44.16504,65.25388,-9.498385,-1.8248041,-1.6628275
3,-1.4977174997329712,2.6837048530578613,78.07223510742188,0.6771366654068381,0.4839186036918904,-5.736067737578759,1.2906041,0.63952917,17.632418,10.617897,-15.567505,-0.27926603,-4.5536203,-11.356428,-13.278349,18.241405,-12.856196,6.733431,-0.79357654,-2.2360206,7.718549,-8.04961,17.207924,-43.075047,62.099728,-0.2589081,1.8138516,6.6766024,-10.258487,-12.987007,44.127563,65.11284,-9.593891,-1.8385447,-1.6035204
4,-1.4511585235595703,2.714003324508667,78.07234191894531,0.6741166985163968,0.46150383732013917,-5.708153430863124,1.3481312,0.60373443,17.600441,10.609209,-15.600824,-0.25911778,-4.447083,-11.756673,-14.371093,18.563852,-13.115986,6.495671,-0.7877712,-2.2732396,7.6655593,-8.033616,17.299004,-43.140537,62.237896,-0.24431057,1.8395209,6.684884,-10.105176,-12.88907,44.099392,64.987465,-9.693794,-1.8577638,-1.5425656
5,-1.4056551456451416,2.7381200790405273,78.06843566894531,0.685688860479799,0.4323702182783188,-5.673296216920559,1.4108632,0.5531836,17.562576,10.609172,-15.637598,-0.2286939,-4.272543,-12.154516,-15.4228945,18.73785,-13.137725,6.4956264,-0.7764033,-2.325034,7.613958,-7.9862885,17.387127,-43.150867,62.360363,-0.18295573,1.8596576,6.7075114,-9.96581,-12.790378,44.107742,64.87798,-9.757311,-1.8816332,-1.4737899
6,-1.36650812625885,2.76134991645813,78.05730438232422,0.7073547994613767,0.3985685284715385,-5.633636955014733,1.477722,0.4924883,17.520493,10.614594,-15.67654,-0.19101933,-4.0489807,-12.546052,-16.442963,18.806046,-12.987294,6.6652117,-0.77572304,-2.3871224,7.565566,-7.9655395,17.48117,-43.18533,62.50508,-0.17564695,1.8737483,6.74063,-9.826135,-12.68385,44.122192,64.773476,-9.833463,-1.9087393,-1.400392
7,-1.321852445602417,2.785978078842163,78.0471420288086,0.7314290056108522,0.36278570543810756,-5.597919517580345,1.5497094,0.4313832,17.481678,10.619349,-15.71849,-0.15248612,-3.8153968,-12.884489,-17.31868,18.803316,-12.756693,6.927496,-0.7565262,-2.441548,7.519232,-7.946389,17.546677,-43.19232,62.660427,-0.14454235,1.8869579,6.7861633,-9.681572,-12.609648,44.150066,64.65509,-9.889056,-1.9370552,-1.3284457
8,-1.2661893367767334,2.8051517009735107,78.0384750366211,0.7517053993365923,0.32816754575978335,-5.574841287520703,1.6261914,0.37856966,17.453852,10.619668,-15.764885,-0.11961907,-3.613435,-13.12709,-17.936735,18.765741,-12.540949,7.206065,-0.73311317,-2.5021458,7.475809,-7.93399,17.645079,-43.21115,62.794838,-0.16375941,1.9069064,6.8403425,-9.577546,-12.502189,44.201283,64.58636,-9.932936,-1.9684994,-1.2743787
9,-1.21188485622406,2.8221595287323,78.02923583984375,0.7695088005191664,0.29777767773618663,-5.564885803820633,1.7109413,0.33064243,17.436935,10.600056,-15.811545,-0.09246004,-3.4583285,-13.243959,-18.199001,18.669033,-12.33418,7.5279717,-0.69061697,-2.5619764,7.429825,-7.901852,17.74776,-43.18925,62.90128,-0.15597995,1.9405568,6.9167113,-9.475358,-12.394145,44.249287,64.52102,-9.975415,-2.00678,-1.2340946
10,-1.166774034500122,2.8383402824401855,78.02024841308594,0.7876990198676278,0.26944196977654067,-5.564098990649998,1.803132,0.28429472,17.427557,10.567201,-15.859411,-0.0681175,-3.3296046,-13.2656555,-18.186922,18.503431,-12.098686,7.9189677,-0.6312131,-2.6218166,7.3839974,-7.8596187,17.850527,-43.137665,62.990734,-0.13130292,1.9827201,7.0117016,-9.384758,-12.290958,44.31561,64.46257,-9.992571,-2.0507784,-1.203176
11,-1.1190156936645508,2.845444440841675,78.01085662841797,0.800140862609956,0.23786880454609224,-5.574496950376663,1.8943856,0.25115153,17.428307,10.550501,-15.916906,-0.048872013,-3.211841,-13.240161,-18.058277,18.3199,-11.875929,8.300515,-0.5639101,-2.6722944,7.3450236,-7.820605,17.953558,-43.078,63.07313,-0.13092309,2.0200663,7.10068,-9.315913,-12.195188,44.39842,64.426994,-10.008715,-2.0881739,-1.1851342
12,-1.0675947666168213,2.8519797325134277,77.99971008300781,0.8011350722390331,0.19737293165600645,-5.598098504356594,1.9809979,0.24080738,17.441488,10.570982,-15.988527,-0.036736276,-3.0891023,-13.214546,-17.971579,18.168222,-11.7026,8.593369,-0.48302642,-2.7049534,7.3137765,-7.7091284,18.05277,-42.919437,63.094048,-0.055656075,2.043351,7.1581154,-9.266771,-12.111017,44.485126,64.4254,-10.045573,-2.1067977,-1.1822692
13,-1.0206090211868286,2.857158899307251,77.99147033691406,0.7877422791631062,0.1449863287904501,-5.644236455958185,2.059426,0.26021883,17.476978,10.646658,-16.08239,-0.034669943,-2.9691248,-13.195243,-17.941692,18.075886,-11.597223,8.765227,-0.41623104,-2.7080953,7.316547,-7.786561,18.155567,-42.98635,63.235676,-0.3229898,2.0311432,7.171522,-9.29761,-12.044062,44.65099,64.48381,-10.085251,-2.0921788,-1.2081923
14,-0.968816339969635,2.864330530166626,77.98603057861328,0.7637360303642269,0.08390433016065867,-5.708898726839873,2.132893,0.3026268,17.530481,10.761235,-16.193108,-0.040766545,-2.856586,-13.159995,-17.893381,18.012506,-11.535784,8.861773,-0.31049782,-2.6924615,7.324767,-7.7351527,18.250357,-42.879692,63.26995,-0.4218542,2.0070193,7.153204,-9.339546,-11.996767,44.817078,64.56738,-10.145926,-2.0548987,-1.2530828
15,-0.9242427349090576,2.877173662185669,77.9757080078125,0.7319951626376692,0.018684066951730662,-5.773899089855532,2.2058578,0.3588957,17.583164,10.889388,-16.30843,-0.049716372,-2.7322338,-13.111199,-17.850409,17.940392,-11.490068,8.9204,-0.2134529,-2.6657,7.3388186,-7.672167,18.34129,-42.752113,63.293808,-0.51701576,1.9798626,7.128091,-9.3989,-11.966672,44.993126,64.667786,-10.183865,-2.018849,-1.2989048
16,-0.8729121685028076,2.8732407093048096,77.97504425048828,0.695777910838337,-0.046246525363984506,-5.82104755557511,2.2829032,0.4195917,17.616142,11.004063,-16.41503,-0.05627095,-2.5789406,-13.05174,-17.836214,17.826523,-11.434363,8.978626,-0.13753137,-2.641076,7.3506594,-7.599105,18.430204,-42.619755,63.31766,-0.58351773,1.9647313,7.1203003,-9.463217,-11.949275,45.156277,64.774536,-10.155816,-2.009558,-1.3260787
17,-0.8196445107460022,2.866856813430786,77.97904205322266,0.650919142873502,-0.1142277450448221,-5.843516980214613,2.3638704,0.4917023,17.621128,11.114777,-16.517633,-0.057375025,-2.3777382,-12.973141,-17.864326,17.647865,-11.360402,9.037489,-0.08762877,-2.6196003,7.3607264,-7.5159063,18.516037,-42.480076,63.35052,-0.60206664,1.967368,7.1436357,-9.521855,-11.940446,45.28461,64.89372,-10.031887,-2.0513678,-1.3286806
18,-0.7618013024330139,2.8594818115234375,77.97431945800781,0.5973095643857519,-0.18627665721870867,-5.851482434336192,2.449986,0.57596034,17.609253,11.222741,-16.616514,-0.05636343,-2.141594,-12.876286,-17.920109,17.424685,-11.281349,9.080073,-0.050844457,-2.5950692,7.371201,-7.428044,18.59324,-42.335552,63.39261,-0.5923056,1.9789083,7.1837697,-9.585849,-11.938641,45.392197,65.03459,-9.838965,-2.1252334,-1.3177364
19,-0.7128581404685974,2.8346524238586426,77.98107147216797,0.5442199334881186,-0.2537790165450708,-5.852970072000865,2.5352325,0.6581091,17.591124,11.318274,-16.70762,-0.05768887,-1.9039919,-12.779004,-17.983206,17.194214,-11.206696,9.116881,-0.018104874,-2.5713143,7.3739767,-7.345246,18.654436,-42.202717,63.446415,-0.58598983,1.9924887,7.2219687,-9.656558,-11.942802,45.484352,65.181015,-9.655771,-2.1910052,-1.2989168
20,-0.6602369546890259,2.825686454772949,77.98216247558594,0.5013357857084052,-0.30793938388398007,-5.856033573301477,2.6171255,0.72236085,17.57746,11.383668,-16.782745,-0.06575696,-1.6968759,-12.698824,-18.033606,16.99025,-11.144435,9.158112,-0.0014767732,-2.553105,7.3649116,-7.24804,18.718197,-42.069126,63.475143,-0.6088699,2.0024636,7.2363367,-9.736037,-11.953639,45.578255,65.306786,-9.569224,-2.2075043,-1.2780824
21,-0.6078202128410339,2.830869674682617,77.98002624511719,0.4726865196173579,-0.3433237929190517,-5.863624107161207,2.6966436,0.759743,17.572142,11.403231,-16.835629,-0.083960526,-1.531997,-12.643347,-18.063538,16.82037,-11.097804,9.207359,-0.007334698,-2.543257,7.343807,-7.111795,18.810812,-41.916805,63.43486,-0.6812054,2.0095298,7.213721,-9.841622,-11.9822445,45.711266,65.40156,-9.59907,-2.1466691,-1.2427217
22,-0.5505260825157166,2.824232578277588,77.98684692382812,0.45262138551642545,-0.3654649260683847,-5.87122315879692,2.774284,0.7802549,17.569046,11.390448,-16.872261,-0.10917552,-1.3906013,-12.601937,-18.084925,16.665606,-11.061687,9.258724,-0.0012514078,-2.5362196,7.3038044,-6.992203,18.87577,-41.79733,63.41345,-0.7927852,2.013823,7.173281,-9.954693,-12.017286,45.82775,65.49297,-9.7144575,-2.0371547,-1.1949495
23,-0.5049822330474854,2.8151774406433105,77.98213195800781,0.4370075461146339,-0.38251304432058636,-5.875690169166918,2.847103,0.7959862,17.564615,11.371514,-16.902874,-0.13602787,-1.2626839,-12.56785,-18.10625,16.527975,-11.034735,9.308657,-0.014171884,-2.5332894,7.2685256,-6.8591576,18.95435,-41.67759,63.36155,-0.90057117,2.0174477,7.123227,-10.060574,-12.074551,45.93419,65.54387,-9.854027,-1.9195411,-1.1579657
24,-0.4605461359024048,2.8024611473083496,77.97892761230469,0.42173372346781374,-0.40247088060405123,-5.873790873021817,2.911775,0.81897974,17.555138,11.374002,-16.939034,-0.15902103,-1.1395953,-12.534612,-18.135847,16.413122,-11.018177,9.353595,-0.02132764,-2.538466,7.2439327,-6.755001,19.024319,-41.60774,63.33305,-0.9801119,2.0192425,7.080951,-10.139203,-12.132262,45.971714,65.56891,-9.975231,-1.838026,-1.1586921
25,-0.4125000536441803,2.7826359272003174,77.97813415527344,0.40595907953670873,-0.42489942462135893,-5.862320036911611,2.9657984,0.85318893,17.538126,11.401866,-16.980518,-0.17596135,-1.017874,-12.499653,-18.180542,16.317713,-11.011697,9.391762,-0.028781211,-2.5568745,7.232837,-6.6758084,19.098053,-41.592495,63.32044,-1.0139832,2.0216627,7.0521955,-10.194731,-12.188471,45.945667,65.5684,-10.059822,-1.8045005,-1.2177691
26,-0.37073665857315063,2.7631614208221436,77.98089599609375,0.39162601240443173,-0.44634713203143356,-5.843723284385705,3.0108807,0.8922143,17.515875,11.443942,-17.023804,-0.18998013,-0.9020869,-12.466245,-18.234594,16.239481,-11.014584,9.425354,-0.042478357,-2.5839276,7.2201653,-6.624122,19.148758,-41.617245,63.348293,-1.0188997,2.0221484,7.031393,-10.250327,-12.221151,45.880924,65.580826,-10.132019,-1.7967386,-1.3202863
27,-0.33023715019226074,2.740206003189087,77.97378540039062,0.3796102488129221,-0.4703305062948447,-5.8235342409409485,3.052192,0.93149495,17.492693,11.496048,-17.069368,-0.20370848,-0.7961159,-12.43812,-18.28714,16.186195,-11.026715,9.456761,-0.048473556,-2.621172,7.2258754,-6.5724564,19.230747,-41.67147,63.340042,-1.0239351,2.0213103,7.003349,-10.285758,-12.267989,45.76575,65.552315,-10.1917925,-1.8046774,-1.4291987
28,-0.2876417338848114,2.7086610794067383,77.96916961669922,0.37017900415881394,-0.5004702996148364,-5.807178003023717,3.094959,0.96674323,17.472342,11.555186,-17.1184,-0.21967307,-0.702842,-12.41792,-18.327597,16.16303,-11.046767,9.488389,-0.058305614,-2.6557803,7.2442956,-6.5224905,19.308779,-41.71957,63.321896,-1.0427028,2.012872,6.9620566,-10.338228,-12.314265,45.657406,65.53137,-10.197753,-1.8198195,-1.5158798
29,-0.249441996216774,2.685047149658203,77.96334838867188,0.36139264104630386,-0.5406537552264025,-5.795378669394989,3.1371129,1.0006552,17.455147,11.633552,-17.177801,-0.24001235,-0.6227418,-12.405716,-18.35252,16.17585,-11.073691,9.522005,-0.07125838,-2.682678,7.2825823,-6.4765596,19.382698,-41.76525,63.28921,-1.092668,1.9892291,6.8945694,-10.397898,-12.366379,45.533005,65.50374,-10.140153,-1.8502841,-1.5718621
30,-0.216408371925354,2.6716041564941406,77.9625015258789,0.3537472262578691,-0.5878885431504184,-5.785426232992301,3.1762712,1.0342648,17.439516,11.73043,-17.245884,-0.26288223,-0.5539935,-12.400052,-18.367823,16.219854,-11.108137,9.55595,-0.07971582,-2.705545,7.3329625,-6.3992,19.444664,-41.765198,63.224804,-1.0927811,1.9558849,6.8094435,-10.467221,-12.422346,45.399044,65.477455,-10.012778,-1.8978591,-1.6137224
31,-0.18659481406211853,2.6558709144592285,77.95825958251953,0.3506024074952589,-0.6359948827836995,-5.777837430923895,3.219219,1.0614718,17.425714,11.818509,-17.308363,-0.28496876,-0.49669433,-12.4018755,-18.377262,16.285538,-11.151898,9.587501,-0.089517534,-2.7295048,7.3838754,-6.3200617,19.492416,-41.750484,63.16409,-1.0688474,1.9250354,6.730092,-10.538414,-12.476647,45.26719,65.454865,-9.879976,-1.9421844,-1.6467865
32,-0.15584900975227356,2.638049602508545,77.95272827148438,0.35575898914054155,-0.6783674948672375,-5.773186804134313,3.2709343,1.0763757,17.414574,11.875424,-17.354124,-0.30285168,-0.45383206,-12.413573,-18.383865,16.370047,-11.210008,9.613925,-0.09512605,-2.7620783,7.4221716,-6.2368827,19.524635,-41.714943,63.116783,-0.9945412,1.9106933,6.679623,-10.616461,-12.521836,45.165096,65.45027,-9.775361,-1.9637693,-1.6764946
33,-0.12418968975543976,2.6157026290893555,77.94647979736328,0.37090526513965866,-0.7126980097407929,-5.773386673121956,3.3318605,1.0773966,17.406885,11.895622,-17.379677,-0.3143925,-0.4251845,-12.43522,-18.387821,16.46848,-11.285279,9.632874,-0.13010822,-2.8048458,7.4793434,-6.3968387,19.577213,-41.978947,63.238197,-1.2373533,1.9141854,6.667224,-10.703277,-12.593514,45.108322,65.40688,-9.73679,-1.9445935,-1.7028598
34,-0.08732423931360245,2.5889980792999268,77.93936920166016,0.3945579723814703,-0.7429077628777173,-5.7776492484449715,3.4006572,1.0670416,17.402206,11.889597,-17.390629,-0.32180014,-0.41106552,-12.466855,-18.387234,16.587322,-11.37638,9.646351,-0.10498598,-2.8614156,7.4987626,-6.2204823,19.606604,-41.813366,63.129173,-0.9167856,1.9487468,6.675816,-10.744161,-12.657878,45.0117,65.36737,-9.739144,-1.9019887,-1.7216425
35,-0.053591288626194,2.567627191543579,77.93231964111328,0.4227972842199513,-0.7710877133162813,-5.782143993169469,3.4749424,1.0486277,17.398458,11.865382,-17.39155,-0.32828778,-0.40863547,-12.506861,-18.383757,16.726036,-11.474401,9.658168,-0.14738917,-2.9141078,7.5351777,-6.3190727,19.630833,-41.96659,63.22948,-1.0233223,1.9723376,6.7003007,-10.837646,-12.70585,44.992577,65.35583,-9.741409,-1.8576256,-1.73736
36,-0.02296495996415615,2.548811197280884,77.92706298828125,0.4528276607980544,-0.800118251106583,-5.783132737248202,3.5532136,1.024175,17.393703,11.830283,-17.387022,-0.33710712,-0.41777518,-12.555398,-18.378216,16.890047,-11.573496,9.672157,-0.11783959,-2.9718418,7.5469427,-6.178727,19.639381,-41.82905,63.1433,-0.7886111,1.9940339,6.7239485,-10.890222,-12.748028,44.91665,65.35605,-9.72213,-1.8395863,-1.7398424
37,0.005278376396745443,2.5300285816192627,77.91878509521484,0.48418754421970517,-0.831002998397098,-5.7808324119795165,3.6367416,0.9927911,17.389343,11.783772,-17.376766,-0.34874636,-0.442284,-12.614414,-18.370026,17.089289,-11.67367,9.687989,-0.17259827,-3.0136733,7.579503,-6.2522416,19.647476,-41.92818,63.203964,-0.9773968,1.9801631,6.752532,-10.974684,-12.785546,44.89004,65.36519,-9.704498,-1.8568066,-1.7223433
38,0.03753754869103432,2.5095813274383545,77.91615295410156,0.5185000764973325,-0.8621485235726369,-5.776813004953283,3.7255273,0.95369756,17.385763,11.723036,-17.35912,-0.36163378,-0.4810942,-12.683293,-18.359087,17.318417,-11.777612,9.704177,-0.16063128,-3.0565283,7.6070647,-6.244484,19.646908,-41.943718,63.1818,-1.055044,1.9582834,6.789593,-11.015009,-12.855687,44.814384,65.34298,-9.662254,-1.8976004,-1.6829828
39,0.06282491981983185,2.494784355163574,77.91099548339844,0.5548806366604514,-0.8921091647741201,-5.769480536452332,3.8171458,0.9098677,17.379429,11.650622,-17.334988,-0.37568444,-0.5247962,-12.756435,-18.347063,17.55521,-11.881642,9.722804,-0.1659086,-3.097773,7.628414,-6.2288938,19.636572,-41.924664,63.155006,-1.128846,1.9384807,6.823478,-11.062,-12.91198,44.764603,65.33865,-9.619455,-1.9396304,-1.6488863
40,0.09506480395793915,2.472031593322754,77.90798950195312,0.5928567722165335,-0.9189616158030385,-5.7572066994413955,3.908071,0.86454964,17.366928,11.570423,-17.30633,-0.3908551,-0.56416273,-12.829034,-18.336031,17.778595,-11.982528,9.745826,-0.17502621,-3.143632,7.641126,-6.213564,19.622597,-41.88569,63.12767,-1.1676189,1.9381856,6.8433137,-11.10633,-12.953091,44.734093,65.34511,-9.58726,-1.9625078,-1.6410474
41,0.126253142952919,2.4460651874542236,77.90005493164062,0.6317323084632146,-0.9430954903169981,-5.74015609564905,3.9972358,0.8199839,17.348175,11.486137,-17.27551,-0.4083401,-0.5970554,-12.898989,-18.325357,17.984371,-12.080707,9.772091,-0.18758693,-3.18478,7.649452,-6.2054667,19.590048,-41.813583,63.10854,-1.1552138,1.9652327,6.8394012,-11.117833,-13.021153,44.71986,65.309,-9.574512,-1.95325,-1.6672022
42,0.15518887341022491,2.428776741027832,77.89620208740234,0.6725691143572312,-0.9653018571153893,-5.718966318747518,4.089158,0.7726698,17.324438,11.389456,-17.238066,-0.4277558,-0.62773925,-12.9697485,-18.314785,18.182657,-12.177058,9.801034,-0.19530086,-3.2378597,7.6491556,-6.1974583,19.566193,-41.732708,63.082714,-1.1243836,2.0117412,6.819786,-11.147033,-13.057791,44.73799,65.31027,-9.544653,-1.9295521,-1.7205479
43,0.1876244992017746,2.4035122394561768,77.89347839355469,0.7143222567881905,-0.9839447187061754,-5.692854847287292,4.1785135,0.7228704,17.295282,11.28695,-17.196404,-0.4467195,-0.6586529,-13.042018,-18.304947,18.375782,-12.27013,9.835504,-0.22160769,-3.2803426,7.6451397,-6.187906,19.521368,-41.6177,63.056973,-1.065582,2.0618095,6.800035,-11.157341,-13.112538,44.768238,65.287766,-9.537597,-1.8995146,-1.7780131
44,0.21695278584957123,2.3804078102111816,77.8878173828125,0.7572218932096975,-0.9977547322452507,-5.660900294910737,4.263014,0.66876334,17.26,11.177752,-17.148235,-0.46283814,-0.6926347,-13.11763,-18.296951,18.566515,-12.358545,9.878429,-0.24126075,-3.318178,7.6388283,-6.192443,19.465576,-41.51903,63.030396,-1.0001022,2.1040869,6.796957,-11.171938,-13.168494,44.803585,65.27313,-9.524889,-1.879287,-1.823656
45,0.24600517749786377,2.359147071838379,77.88422393798828,0.8027465046720197,-1.0065201287337076,-5.6238414564736985,4.344733,0.6069188,17.217646,11.056872,-17.09159,-0.47591624,-0.7289911,-13.199509,-18.293024,18.75498,-12.444698,9.932175,-0.26279846,-3.353769,7.626849,-6.1955204,19.410604,-41.42484,62.98779,-0.9134525,2.1395197,6.8143187,-11.15403,-13.212877,44.786213,65.247765,-9.596393,-1.8714235,-1.8578224
46,0.2724778950214386,2.3374569416046143,77.88160705566406,0.8504696650012393,-1.0109238275995123,-5.581845901725216,4.4265947,0.5383203,17.169008,10.920777,-17.02489,-0.4870174,-0.7665259,-13.285779,-18.291973,18.939573,-12.52743,9.994662,-0.28050965,-3.387126,7.612694,-6.207302,19.348383,-41.333946,62.94023,-0.8054384,2.173017,6.844512,-11.149867,-13.256138,44.795036,65.237656,-9.654774,-1.8707187,-1.8886065
47,0.29952386021614075,2.3196258544921875,77.88076782226562,0.8970116514735395,-1.0108999634081735,-5.533065270083704,4.497975,0.4715873,17.114923,10.791613,-16.958893,-0.4960773,-0.80844754,-13.371048,-18.289698,19.123022,-12.605079,10.0624275,-0.30371496,-3.413814,7.5945435,-6.227863,19.272142,-41.246223,62.89427,-0.7040069,2.1997976,6.8817725,-11.124185,-13.301785,44.777615,65.213295,-9.738103,-1.8708862,-1.9084344
48,0.3250330090522766,2.304191827774048,77.87554931640625,0.9392785785299995,-1.0065530887389738,-5.475685659389372,4.547084,0.41511407,17.056612,10.693442,-16.905088,-0.5029462,-0.86370814,-13.452176,-18.280445,19.320839,-12.678291,10.131661,-0.33045945,-3.441669,7.576659,-6.2533774,19.202675,-41.175484,62.83347,-0.6434233,2.2170477,6.919058,-11.096793,-13.337747,44.74242,65.19012,-9.801224,-1.8696116,-1.9120023
49,0.3439966142177582,2.28147554397583,77.8711166381836,0.9770176373661265,-0.9946431787304457,-5.407680361556379,4.566048,0.37113318,16.994722,10.635564,-16.866556,-0.50556505,-0.9410803,-13.52991,-18.258188,19.54228,-12.747445,10.204275,-0.36297998,-3.4726098,7.5591083,-6.2827435,19.143654,-41.1195,62.751415,-0.6344382,2.2274723,6.957467,-11.083845,-13.363827,44.703598,65.17562,-9.809224,-1.8656701,-1.890617
50,0.3651387393474579,2.2575159072875977,77.87100219726562,1.011662336409274,-0.9763164513992594,-5.330548920225056,4.5618143,0.3354065,16.92879,10.60625,-16.838158,-0.50461465,-1.0354275,-13.606025,-18.226978,19.781246,-12.813047,10.281215,-0.4000843,-3.4960608,7.5367255,-6.3306923,19.060604,-41.074615,62.68265,-0.65556777,2.2295678,7.0016494,-11.050738,-13.39427,44.630238,65.14549,-9.81907,-1.8591981,-1.8484246
51,0.3826128840446472,2.2328579425811768,77.87442779541016,1.0427436974005135,-0.957905014303224,-5.247725370437389,4.5491285,0.30519795,16.857199,10.588405,-16.814392,-0.50411004,-1.1257628,-13.676475,-18.198227,20.010376,-12.871762,10.357359,-0.41989192,-3.5207639,7.50782,-6.2612343,18.978458,-40.8958,62.513515,-0.5151837,2.2242637,7.0428095,-11.002054,-13.417887,44.539776,65.117805,-9.819271,-1.8547952,-1.8013802
52,0.39181825518608093,2.211883783340454,77.86651611328125,1.069700032567443,-0.9451627395182843,-5.16268586290929,4.5424604,0.27809745,16.778563,10.565915,-16.790508,-0.50799197,-1.2018383,-13.740915,-18.180809,20.22565,-12.924939,10.427522,-0.47256124,-3.539449,7.5002885,-6.3577952,18.919298,-40.936836,62.449127,-0.6434387,2.1935472,7.0800834,-10.9948845,-13.432255,44.52133,65.11271,-9.787389,-1.8544543,-1.7688762
53,0.4061490297317505,2.185469150543213,77.86447143554688,1.092958007205337,-0.939320534792981,-5.073851136406301,4.5442977,0.25231802,16.688232,10.533372,-16.764914,-0.51755434,-1.2592143,-13.799363,-18.1763,20.42224,-12.970947,10.4940605,-0.5106377,-3.5555615,7.4936204,-6.4075823,18.861227,-40.941536,62.343845,-0.7114718,2.1317797,7.111433,-10.968675,-13.443313,44.502644,65.10706,-9.761808,-1.8610294,-1.7550466
54,0.4156976342201233,2.1686301231384277,77.86122131347656,1.1125882999552177,-0.9373063274216944,-4.980194314482233,4.5480337,0.22921927,16.588516,10.498954,-16.740232,-0.5305797,-1.3057661,-13.852784,-18.17972,20.60776,-13.010696,10.558441,-0.5582197,-3.5678592,7.4910345,-6.453408,18.81223,-40.955933,62.22337,-0.8008205,2.0443847,7.1383815,-10.928048,-13.449569,44.484592,65.093895,-9.751565,-1.8713193,-1.7508842
55,0.4259726405143738,2.1477108001708984,77.86126708984375,1.1274365852487271,-0.9390356645853163,-4.886095903030829,4.550795,0.21251394,16.487774,10.472315,-16.719131,-0.5458446,-1.3393345,-13.897985,-18.192778,20.773685,-13.043477,10.614395,-0.60017353,-3.569436,7.4949217,-6.5574327,18.741026,-41.03216,62.151897,-0.93402886,1.9547657,7.1632876,-10.904235,-13.4562645,44.49668,65.101425,-9.713646,-1.882129,-1.7473254
56,0.4368591904640198,2.1242308616638184,77.86141967773438,1.136890226009375,-0.9446706739923453,-4.795920629619435,4.5513816,0.20482795,16.394709,10.458917,-16.702206,-0.56207603,-1.3587351,-13.932256,-18.217,20.91331,-13.069514,10.655725,-0.6368751,-3.5632775,7.5089703,-6.6839542,18.668003,-41.12888,62.087032,-1.0555089,1.8923546,7.1815114,-10.884796,-13.460097,44.51079,65.11657,-9.684903,-1.888182,-1.7335987
57,0.43883901834487915,2.1046788692474365,77.86076354980469,1.1387879729245547,-0.9572685589070706,-4.710450808143013,4.5531607,0.20807041,16.31149,10.459202,-16.68976,-0.58027714,-1.3591464,-13.953322,-18.253149,21.022625,-13.084237,10.683513,-0.6585118,-3.548959,7.5360003,-6.758599,18.59806,-41.15757,61.96344,-1.0466042,1.8751372,7.183318,-10.871119,-13.461939,44.52762,65.14528,-9.655786,-1.891574,-1.7015127
58,0.4415380358695984,2.0767862796783447,77.8646469116211,1.1344332517092195,-0.9758187151664149,-4.627405051732735,4.5548706,0.22029698,16.23382,10.471729,-16.682085,-0.600714,-1.3434886,-13.963709,-18.300196,21.107775,-13.090113,10.700261,-0.6954276,-3.532712,7.590505,-6.8437996,18.57619,-41.20789,61.796734,-1.0568908,1.8852527,7.1675463,-10.875239,-13.461771,44.5607,65.172226,-9.634366,-1.8925552,-1.6565856
59,0.4438067674636841,2.0574758052825928,77.86852264404297,1.1272768155460895,-0.9938835821421773,-4.546905295302246,4.5494895,0.23876865,16.15953,10.497939,-16.679037,-0.6208788,-1.3195349,-13.966033,-18.357016,21.17072,-13.094297,10.701601,-0.70231193,-3.505387,7.623771,-6.941904,18.490824,-41.261257,61.68751,-1.0130218,1.8981253,7.164776,-10.856812,-13.457955,44.581047,65.21489,-9.619721,-1.8877409,-1.6164277
60,0.4478319585323334,2.0402920246124268,77.87281036376953,1.1216129222009121,-1.0058666024997407,-4.46883789841298,4.5315046,0.2599595,16.08678,10.535556,-16.677725,-0.63844925,-1.2947026,-13.964219,-18.422354,21.213997,-13.104625,10.683193,-0.71461993,-3.4855306,7.6563897,-7.055715,18.419304,-41.325443,61.58239,-0.997538,1.8967115,7.177352,-10.835211,-13.450052,44.590736,65.2438,-9.635163,-1.8718925,-1.5873955
61,0.4502367377281189,2.015282154083252,77.87873840332031,1.1165190066968131,-1.0088184074701054,-4.393425592993133,4.500936,0.28497893,16.016184,10.579973,-16.678406,-0.65296847,-1.269925,-13.956507,-18.499874,21.235058,-13.124328,10.639941,-0.7178386,-3.47357,7.6760435,-7.184853,18.349384,-41.41143,61.49526,-1.0012537,1.8749015,7.221072,-10.81728,-13.43513,44.60879,65.27847,-9.655509,-1.8373364,-1.5744464
62,0.44961437582969666,1.9879838228225708,77.88294219970703,1.1107163303651406,-1.0063761688124273,-4.320606078201812,4.460859,0.31469128,15.948431,10.632794,-16.68181,-0.6656694,-1.2407293,-13.941544,-18.589058,21.231972,-13.148157,10.57552,-0.716224,-3.467667,7.688483,-7.297404,18.291716,-41.484444,61.390694,-0.9840044,1.8451958,7.283219,-10.781868,-13.413661,44.60659,65.30128,-9.714665,-1.7878448,-1.5702323
63,0.44400081038475037,1.963639259338379,77.88580322265625,1.107064010909244,-1.0021544881006,-4.249900950108808,4.407355,0.34607643,15.881427,10.706645,-16.689169,-0.6767012,-1.2120292,-13.925572,-18.681116,21.219582,-13.176776,10.498704,-0.7190101,-3.4706266,7.711284,-7.385097,18.269588,-41.530895,61.23579,-0.9552782,1.8149914,7.3410444,-10.755326,-13.401361,44.62126,65.3018,-9.759353,-1.7387508,-1.5721182
64,0.4380371868610382,1.9354389905929565,77.88389587402344,1.107961359540083,-0.9993832226941102,-4.181391233620246,4.3346534,0.37667394,15.813541,10.817415,-16.703188,-0.6863099,-1.18712,-13.913286,-18.767668,21.20765,-13.208251,10.418082,-0.7045985,-3.481787,7.7250056,-7.4921236,18.218885,-41.57609,61.12546,-0.9175603,1.7831079,7.3825197,-10.726596,-13.366189,44.609444,65.31878,-9.807296,-1.7089118,-1.5839473
65,0.4176166355609894,1.900478482246399,77.8831787109375,1.1155262387865699,-1.0001818325389575,-4.116198616008825,4.241551,0.40534964,15.743973,10.973711,-16.724556,-0.6946335,-1.1641582,-13.906399,-18.845863,21.19581,-13.243708,10.332144,-0.707443,-3.5017238,7.7567177,-7.6011286,18.19407,-41.602154,60.987206,-0.89845145,1.7546035,7.391539,-10.69027,-13.342936,44.585762,65.28861,-9.882525,-1.6966248,-1.608522
66,0.3984126150608063,1.8679661750793457,77.88523864746094,1.1278514526541528,-1.0022322223854367,-4.0541362977399045,4.129936,0.43365142,15.67402,11.166974,-16.752262,-0.7017137,-1.1426796,-13.901714,-18.920322,21.179409,-13.28365,10.237631,-0.6910405,-3.53332,7.7897415,-7.689813,18.164526,-41.586975,60.834045,-0.823759,1.7264982,7.383225,-10.662562,-13.308976,44.5541,65.26313,-9.949148,-1.6984928,-1.6464133
67,0.38932833075523376,1.849737524986267,77.88317108154297,1.1416225041090124,-1.0030826474324257,-3.9919357676835125,4.003931,0.46242583,15.603599,11.380423,-16.784058,-0.7075051,-1.1260923,-13.8983755,-18.99452,21.163713,-13.32586,10.140694,-0.69330513,-3.5641115,7.826416,-7.7762833,18.153639,-41.571045,60.66797,-0.7874418,1.6995032,7.3681993,-10.617804,-13.291775,44.525036,65.194405,-10.004809,-1.7074907,-1.679322
68,0.37578102946281433,1.8289456367492676,77.88475036621094,1.1535373617223184,-1.000446216288465,-3.926384765432897,3.866674,0.49298948,15.53278,11.599999,-16.818832,-0.71194184,-1.1171995,-13.895211,-19.0722,21.153484,-13.367909,10.047315,-0.6932264,-3.5927489,7.8673778,-7.881235,18.147236,-41.56741,60.520348,-0.7855268,1.673105,7.356997,-10.593543,-13.279127,44.510754,65.13057,-9.981811,-1.7272305,-1.6895894
69,0.34586963057518005,1.8000136613845825,77.88580322265625,1.1637170118895015,-0.9949070387703666,-3.8539525088352646,3.7135904,0.52620256,15.459816,11.833307,-16.85901,-0.71432924,-1.1157066,-13.893157,-19.156384,21.151196,-13.411953,9.96047,-0.6882347,-3.6242082,7.8988547,-8.011284,18.12339,-41.577484,60.421955,-0.82516026,1.6474087,7.3518806,-10.569051,-13.224774,44.453945,65.09571,-9.899309,-1.766215,-1.6660179
70,0.3178078234195709,1.7736703157424927,77.88117218017578,1.1737304922115377,-0.9866750367694737,-3.777248687401095,3.5442107,0.56095624,15.385201,12.084534,-16.904432,-0.71493745,-1.1205074,-13.892666,-19.244102,21.153555,-13.457834,9.876529,-0.6922411,-3.653226,7.9285564,-8.131546,18.107073,-41.58025,60.316044,-0.89494056,1.6245054,7.348445,-10.551662,-13.180519,44.427155,65.04859,-9.717758,-1.8187875,-1.6188991
71,0.2899283468723297,1.7501543760299683,77.88025665283203,1.1823465822261605,-0.9750207868153171,-3.702357714497587,3.3708456,0.59563196,15.312803,12.330403,-16.948103,-0.71500003,-1.1344627,-13.891863,-19.330719,21.160189,-13.502433,9.791288,-0.69816566,-3.6782691,7.9598064,-8.239421,18.098001,-41.56833,60.204315,-0.9545708,1.6017076,7.3465543,-10.528534,-13.15229,44.40336,64.97929,-9.542191,-1.8700254,-1.5709397
72,0.2554023563861847,1.728559970855713,77.88313293457031,1.1886429836623047,-0.9587926742966486,-3.6353473748294904,3.205164,0.62818825,15.246177,12.548104,-16.983149,-0.7156781,-1.159455,-13.888751,-19.411154,21.168056,-13.540467,9.700658,-0.7059319,-3.6989806,7.988619,-8.350654,18.090446,-41.560543,60.11325,-0.99696773,1.5751611,7.3492575,-10.511143,-13.127501,44.38702,64.9097,-9.452553,-1.902701,-1.548281
73,0.2217998057603836,1.7080883979797363,77.87983703613281,1.193632314045832,-0.9372326111828571,-3.5813933575138464,3.0552237,0.6554958,15.189032,12.722114,-17.005201,-0.7164218,-1.197056,-13.884341,-19.482317,21.176264,-13.574777,9.600407,-0.6921793,-3.7160206,8.012899,-8.437524,18.086943,-41.542446,60.0179,-0.9670731,1.5419089,7.3614674,-10.498118,-13.118849,44.391674,64.8369,-9.4649315,-1.9083256,-1.5674757
74,0.1893964409828186,1.6932504177093506,77.8853988647461,1.1975691495567924,-0.9114693330329305,-3.5359893326487097,2.9110737,0.6801507,15.138517,12.872553,-17.019468,-0.71681577,-1.2449965,-13.878864,-19.547491,21.184761,-13.605588,9.493761,-0.69136894,-3.7278666,8.035744,-8.521977,18.0785,-41.4993,59.943302,-0.9031456,1.5020177,7.3784513,-10.497481,-13.103194,44.406487,64.77339,-9.571541,-1.8965129,-1.6131539
75,0.1476079374551773,1.6802778244018555,77.88846588134766,1.1981974089084462,-0.8819308293811141,-3.491154033656552,2.7655773,0.7062563,15.0887985,13.012025,-17.030697,-0.71816486,-1.3034582,-13.8713455,-19.61101,21.200333,-13.629829,9.38781,-0.7018791,-3.7354784,8.056524,-8.6164255,18.069468,-41.466343,59.893803,-0.8592204,1.465326,7.3951726,-10.503935,-13.089091,44.427822,64.709694,-9.691458,-1.8822299,-1.6592233
76,0.10066906362771988,1.6601883172988892,77.88584899902344,1.193641799467268,-0.8497699114419377,-3.4387159439208985,2.605537,0.7390346,15.033881,13.166332,-17.04492,-0.7217762,-1.3710799,-13.860303,-19.677238,21.226564,-13.642634,9.289579,-0.72164494,-3.742605,8.0773535,-8.704469,18.062246,-41.4311,59.851982,-0.83670646,1.4427184,7.404407,-10.507462,-13.079168,44.42964,64.635124,-9.767306,-1.8807327,-1.6794934
77,0.05507270619273186,1.6417906284332275,77.88469696044922,1.1800878878153116,-0.8166256759054011,-3.372629324578139,2.4289246,0.78344655,14.967372,13.342626,-17.06519,-0.7320311,-1.4443293,-13.842117,-19.752235,21.266855,-13.640942,9.19933,-0.76881814,-3.744812,8.101996,-8.7967005,18.05158,-41.382816,59.830868,-0.8602845,1.4389422,7.4012218,-10.515083,-13.064721,44.40361,64.558685,-9.801882,-1.89783,-1.6553923
78,0.0005041303811594844,1.6264100074768066,77.89044952392578,1.1595371333296287,-0.7814030576771357,-3.298481806791156,2.2408235,0.83580554,14.893761,13.52964,-17.088512,-0.74693,-1.524831,-13.818721,-19.832233,21.318048,-13.627375,9.113732,-0.82364655,-3.7452307,8.125299,-8.878443,18.03942,-41.325226,59.817795,-0.8972992,1.4500357,7.392522,-10.513949,-13.048151,44.34578,64.47324,-9.825453,-1.923826,-1.6056923
79,-0.05512040853500366,1.6146706342697144,77.89401245117188,1.139766208422077,-0.740967403462673,-3.225922367707843,2.0420141,0.88740486,14.824607,13.71969,-17.109604,-0.7581335,-1.6216389,-13.798396,-19.905626,21.379932,-13.609478,9.034636,-0.8849616,-3.7467914,8.140049,-8.9620905,18.036366,-41.29921,59.8189,-0.96493685,1.4640944,7.3826795,-10.520622,-13.043522,44.31541,64.38476,-9.795316,-1.9551454,-1.5579048
80,-0.11288225650787354,1.5909669399261475,77.89881896972656,1.1263285688849818,-0.6937226700751308,-3.164093519704414,1.8313305,0.93253934,14.770457,13.911639,-17.126787,-0.75756156,-1.7406411,-13.786516,-19.96218,21.449003,-13.593202,8.963342,-0.93606585,-3.7578223,8.1813,-9.101432,18.026825,-41.279533,59.86161,-1.0084134,1.4709882,7.3630605,-10.554978,-13.028538,44.234604,64.29588,-9.784485,-1.9874977,-1.5304306
81,-0.180624321103096,1.5791597366333008,77.8990249633789,1.1263545488005011,-0.638527969100051,-3.119165187831931,1.6153071,0.9610495,14.741004,14.092286,-17.133837,-0.7387241,-1.8897552,-13.793373,-19.990889,21.532528,-13.581377,8.908902,-0.99479,-3.7723508,8.191042,-9.188154,18.025867,-41.275974,59.882664,-1.0396227,1.4743867,7.3640122,-10.586062,-13.026596,44.217022,64.202385,-9.70916,-2.015677,-1.5483534
82,-0.2546904683113098,1.5724678039550781,77.90044403076172,1.1306858910697313,-0.5738010260339284,-3.0837279060764393,1.3807845,0.98623484,14.726158,14.283664,-17.141186,-0.7079095,-2.0647695,-13.807313,-20.002695,21.625597,-13.567827,8.866394,-1.0244555,-3.8011742,8.23956,-9.359549,18.021086,-41.300167,59.957924,-1.0675577,1.4719892,7.362569,-10.63593,-13.021004,44.1192,64.08771,-9.652887,-2.0484433,-1.5854368
83,-0.3364541530609131,1.568877100944519,77.9036865234375,1.1370312241115519,-0.5045044371840518,-3.0512634021267173,1.1339421,1.0108978,14.715029,14.480361,-17.147057,-0.67355376,-2.2546873,-13.823538,-20.009188,21.72566,-13.556193,8.821054,-1.0694355,-3.831791,8.268503,-9.507673,18.020836,-41.332726,60.03941,-1.0780225,1.4674951,7.345903,-10.691623,-13.021157,44.065365,63.978966,-9.5568905,-2.0790153,-1.6297383
84,-0.4233189523220062,1.5476479530334473,77.90912628173828,1.1378085558248234,-0.4304683291833938,-3.0134959114335147,0.86417115,1.0480504,14.693531,14.70053,-17.1602,-0.6451828,-2.4509323,-13.829838,-20.025747,21.824524,-13.546663,8.756464,-1.1096109,-3.8701835,8.298993,-9.698946,18.02787,-41.414436,60.168507,-1.0831537,1.4573803,7.284347,-10.73769,-13.025402,43.98762,63.85469,-9.475861,-2.1064382,-1.6583725
85,-0.5241411924362183,1.5299850702285767,77.90858459472656,1.1291651669300504,-0.35004611217205167,-2.9640976916595463,0.56269026,1.1036894,14.651943,14.953688,-17.184761,-0.6279213,-2.6505425,-13.820546,-20.061922,21.917984,-13.541835,8.664748,-1.160853,-3.9152653,8.323355,-9.907975,18.048098,-41.519592,60.332172,-1.0512859,1.4391872,7.1549935,-10.782934,-13.032666,43.91637,63.722725,-9.388697,-2.1251674,-1.6662991
86,-0.6158125996589661,1.509169101715088,77.90599060058594,1.1151840160486417,-0.26315532332132535,-2.908637455407614,0.23612776,1.1711466,14.599502,15.230097,-17.216429,-0.61614144,-2.857801,-13.801818,-20.108288,22.009285,-13.540144,8.555614,-1.2266804,-3.9664695,8.344282,-10.129475,18.080647,-41.638042,60.522392,-0.99064463,1.4142879,6.9760094,-10.8354435,-13.040045,43.856087,63.587185,-9.291183,-2.1378798,-1.6641917
87,-0.7183369994163513,1.4768915176391602,77.90147399902344,1.1013438254389056,-0.17374718694409505,-2.8571303095943974,-0.10291065,1.2413384,14.549873,15.518114,-17.249825,-0.6029182,-3.0792701,-13.78265,-20.150368,22.11145,-13.539975,8.439153,-1.2879963,-4.0305643,8.374216,-10.371661,18.138233,-41.788868,60.72242,-0.93593705,1.3896351,6.7829757,-10.88555,-13.0494175,43.775215,63.43824,-9.210781,-2.1547217,-1.6580734
88,-0.8223445415496826,1.4547582864761353,77.90288543701172,1.0927338119886747,-0.08545910898570398,-2.819575160591871,-0.44178873,1.3059791,14.517476,15.806162,-17.28007,-0.58115906,-3.3214264,-13.771554,-20.173372,22.237463,-13.539556,8.325482,-1.3501872,-4.105717,8.420045,-10.626244,18.209312,-41.94052,60.925037,-0.8895264,1.3702499,6.6117992,-10.960754,-13.060037,43.702972,63.29995,-9.134736,-2.1856062,-1.6561539
89,-0.9393008351325989,1.4298235177993774,77.90381622314453,1.0947455010734615,-0.0002601428592165023,-2.796055772791069,-0.7747688,1.3564711,14.50555,16.089,-17.30587,-0.54428756,-3.583847,-13.776663,-20.175417,22.392168,-13.541909,8.218037,-1.4112871,-4.1984835,8.485344,-10.903653,18.304455,-42.12069,61.131413,-0.87859505,1.3544998,6.4603963,-11.029694,-13.073826,43.5904,63.147438,-9.112419,-2.2453084,-1.650952
90,-1.0512641668319702,1.4207720756530762,77.90286254882812,1.102751198812027,0.08399574918857648,-2.7821220673365894,-1.1083237,1.3997638,14.506792,16.3716,-17.328974,-0.49734697,-3.8639104,-13.79118,-20.163477,22.568213,-13.546409,8.111294,-1.488278,-4.293398,8.549969,-11.165174,18.363989,-42.237377,61.365448,-0.79848504,1.3378586,6.316615,-11.127829,-13.082852,43.50476,63.02745,-9.086407,-2.3243716,-1.6449593
91,-1.1859935522079468,1.4091119766235352,77.90071105957031,1.1093138411000008,0.17006239291043881,-2.780884773437037,-1.453198,1.4498277,14.51926,16.668552,-17.354446,-0.4507662,-4.1649547,-13.802553,-20.136232,22.760633,-13.547433,8.00173,-1.517625,-4.4128785,8.643485,-11.434425,18.50266,-42.41178,61.5377,-0.74386823,1.3349334,6.1891747,-11.192931,-13.104826,43.336136,62.850105,-9.112962,-2.3963387,-1.6444503
92,-1.30958890914917,1.377476692199707,77.8935546875,1.1050357088524019,0.26046115132486325,-2.7957500043038523,-1.8167273,1.5218312,14.541141,16.986845,-17.38447,-0.41520584,-4.4889526,-13.795971,-20.093185,22.961802,-13.537228,7.8859105,-1.5675641,-4.521711,8.745736,-11.718231,18.645775,-42.558075,61.71669,-0.7004609,1.3436596,6.0966167,-11.296059,-13.127106,43.222023,62.683983,-9.129579,-2.4302976,-1.671285
93,-1.441804051399231,1.3526875972747803,77.88864135742188,1.0873434185862407,0.35670587161148404,-2.8263664181988895,-2.2100577,1.6211301,14.568816,17.345013,-17.424917,-0.39521718,-4.8412457,-13.76876,-20.033009,23.176905,-13.517083,7.761812,-1.6135362,-4.619935,8.85403,-11.999708,18.789988,-42.665787,61.887024,-0.60214174,1.3744137,6.050121,-11.402438,-13.146985,43.105946,62.50738,-9.191773,-2.4009504,-1.7385464
94,-1.5848838090896606,1.3308051824569702,77.88207244873047,1.0607552329376195,0.4572256904472945,-2.871461864277957,-2.6216044,1.7389536,14.603948,17.72379,-17.470135,-0.38509387,-5.218125,-13.727322,-19.957209,23.405928,-13.488858,7.631551,-1.656598,-4.7151833,8.97453,-12.308152,18.949514,-42.78481,62.06245,-0.5090118,1.4212806,6.0388083,-11.522926,-13.16586,42.995518,62.32424,-9.278442,-2.3299499,-1.8347616
95,-1.7452346086502075,1.3089945316314697,77.87708282470703,1.0277431772230416,0.5593587660401665,-2.9325754989159925,-3.0420752,1.8718166,14.6519575,18.11261,-17.515957,-0.38000107,-5.6105723,-13.672792,-19.867916,23.638437,-13.449689,7.497947,-1.6990026,-4.8122683,9.107146,-12.657906,19.118805,-42.930176,62.262608,-0.49658135,1.4684458,6.0478563,-11.670989,-13.183936,42.908245,62.15232,-9.342683,-2.2592516,-1.9360611
96,-1.9211047887802124,1.2850528955459595,77.86882781982422,0.9909515190217212,0.660448832037812,-3.0113343238077164,-3.457233,2.0149884,14.718493,18.490639,-17.556677,-0.37489042,-6.008656,-13.606305,-19.767551,23.862146,-13.395546,7.3640695,-1.7306232,-4.91796,9.245996,-12.955748,19.294823,-42.98772,62.424114,-0.4862987,1.5048738,6.060596,-11.818722,-13.201261,42.813133,61.981335,-9.381299,-2.2302542,-2.0164487
97,-2.0759172439575195,1.2602851390838623,77.86024475097656,0.956720976345171,0.7533079348817108,-3.1064194084162127,-3.8603365,2.1615276,14.806086,18.861227,-17.594679,-0.36531267,-6.4090075,-13.538137,-19.655317,24.08819,-13.337352,7.2323685,-1.7539883,-5.0398626,9.397642,-13.200723,19.477757,-42.946712,62.547947,-0.51243204,1.5254705,6.0744524,-11.969549,-13.219016,42.715378,61.812634,-9.375336,-2.2650483,-2.065701
98,-2.246075391769409,1.2348754405975342,77.85233306884766,0.9217576118399099,0.8414765921526507,-3.2176195238095184,-4.260086,2.3162286,14.91127,19.23294,-17.632244,-0.35491636,-6.8177586,-13.464522,-19.530296,24.31938,-13.273812,7.101041,-1.7805773,-5.1715,9.566294,-13.491381,19.671799,-42.93335,62.702526,-0.6852244,1.5343283,6.098134,-12.147663,-13.238201,42.643585,61.65548,-9.321287,-2.338012,-2.0994527
99,-2.4367239475250244,1.2121350765228271,77.8477783203125,0.8740426565254207,0.9384831657550516,-3.3479742620808697,-4.6644726,2.4921246,15.030372,19.59132,-17.66198,-0.3504834,-7.2368755,-13.364422,-19.396107,24.525642,-13.178829,6.966792,-1.8016218,-5.298997,9.735906,-13.775656,19.875439,-42.89696,62.8476,-0.87399226,1.538538,6.131176,-12.335406,-13.257152,42.57708,61.50296,-9.256206,-2.4187596,-2.1293716
100,-2.629011631011963,1.1768476963043213,77.84945678710938,0.8018262790220166,1.0575363239214925,-3.5006179493049236,-5.0818367,2.7017767,15.159056,19.922857,-17.676758,-0.35891846,-7.6685433,-13.217785,-19.256521,24.678223,-13.027327,6.8265047,-1.8228344,-5.407413,9.894058,-14.072715,20.089281,-42.87327,62.99641,-1.0569332,1.5419793,6.1736503,-12.537928,-13.273217,42.523098,61.362743,-9.199165,-2.4770103,-2.1688838
101,-2.8084826469421387,1.1394394636154175,77.85604858398438,0.6987382400740221,1.2003634157852872,-3.674379321174532,-5.5197086,2.953637,15.292723,20.238487,-17.681538,-0.3835403,-8.1135025,-13.018585,-19.11905,24.775333,-12.815529,6.6717696,-1.840207,-5.4910808,10.037081,-14.335538,20.311611,-42.79836,63.11343,-1.1378198,1.5496958,6.231543,-12.746817,-13.283937,42.471935,61.233326,-9.163095,-2.5011954,-2.2251663
102,-3.0093154907226562,1.1177891492843628,77.86615753173828,0.5720943086002284,1.3601322212636369,-3.868484464480797,-5.970571,3.239436,15.434075,20.539108,-17.677166,-0.42052174,-8.569765,-12.77851,-18.980469,24.829065,-12.554923,6.5074673,-1.8431205,-5.560212,10.166393,-14.486619,20.539852,-42.56667,63.14347,-1.0294644,1.5619061,6.30239,-12.966801,-13.289344,42.4293,61.122486,-9.118791,-2.5094206,-2.2899108
103,-3.2274298667907715,1.0885065793991089,77.87458801269531,0.4300973029219212,1.537617943062997,-4.086608415791759,-6.4236917,3.5487576,15.589298,20.80322,-17.653835,-0.4656835,-9.037319,-12.503877,-18.828354,24.834982,-12.244679,6.350248,-1.8551913,-5.619405,10.286445,-14.682196,20.780218,-42.391937,63.206444,-1.0100104,1.5669888,6.3745794,-13.19431,-13.286845,42.38794,61.018394,-9.096104,-2.5132527,-2.3534117
104,-3.4257264137268066,1.0520163774490356,77.89913940429688,0.28125279567093575,1.7335963699928976,-4.332352890827157,-6.8701425,3.8709488,15.764889,21.0122,-17.603529,-0.51439697,-9.515321,-12.200683,-18.649748,24.78776,-11.8840275,6.2167587,-1.8742265,-5.6780357,10.401367,-15.020543,21.034971,-42.417496,63.377583,-1.2526392,1.5571395,6.4366274,-13.444563,-13.275574,42.35732,60.926445,-9.076607,-2.5264177,-2.4054651
105,-3.661463737487793,1.013729214668274,77.91764831542969,0.11842252892105219,1.9489629283189127,-4.6024311937281155,-7.3071513,4.210879,15.956846,21.155787,-17.524874,-0.5667458,-9.990092,-11.860777,-18.463648,24.664125,-11.4616375,6.1103754,-1.863319,-5.7340636,10.490773,-15.223751,21.293058,-42.289738,63.4571,-1.3522106,1.5367153,6.4928885,-13.666421,-13.256584,42.27985,60.831882,-9.096175,-2.5575244,-2.438158
106,-3.8802175521850586,0.9725221395492554,77.9429702758789,-0.059875991360781124,2.1825779935577936,-4.896558670591548,-7.7402663,4.571381,16.163275,21.247662,-17.422789,-0.624145,-10.465189,-11.485334,-18.269808,24.47223,-10.980873,6.0232534,-1.8505069,-5.782051,10.564301,-15.409146,21.558378,-42.14795,63.53025,-1.4731843,1.5044059,6.547327,-13.886767,-13.229096,42.19307,60.743225,-9.139915,-2.59733,-2.4599862
107,-4.062459468841553,0.9290334582328796,77.9806900024414,-0.23638339217943316,2.431874064110015,-5.222554403752992,-8.169748,4.9369307,16.395437,21.297293,-17.294643,-0.6837232,-10.966308,-11.093206,-18.026176,24.25726,-10.464133,5.954668,-1.8216052,-5.8392315,10.625877,-15.584174,21.831297,-41.99873,63.594406,-1.591554,1.4739089,6.584624,-14.114758,-13.192402,42.09644,60.665848,-9.180875,-2.634485,-2.4759176
108,-4.283072471618652,0.898608922958374,78.02149963378906,-0.39436329009535304,2.6945503097260275,-5.588120344090573,-8.593508,5.291759,16.664854,21.309832,-17.135834,-0.7425783,-11.516883,-10.701607,-17.691595,24.061596,-9.933119,5.9037824,-1.7682307,-5.9207225,10.678036,-15.750853,22.112555,-41.840622,63.644554,-1.681222,1.4586194,6.589182,-14.3355875,-13.143255,41.962566,60.58642,-9.230256,-2.6564176,-2.4902558
109,-4.510376453399658,0.8727947473526001,78.06047058105469,-0.5359214278983743,2.985528288172026,-6.022485129483705,-9.030341,5.6478615,16.99734,21.290243,-16.940166,-0.80261195,-12.159603,-10.308677,-17.28082,23.91266,-9.369347,5.8326354,-1.6673155,-6.029117,10.719107,-15.920195,22.403728,-41.66352,63.68673,-1.7305548,1.463497,6.5481243,-14.5586195,-13.077471,41.77154,60.508354,-9.301855,-2.6588628,-2.506131
110,-4.77579927444458,0.81136155128479,78.10470581054688,-0.6687966159713737,3.300513373837083,-6.512472013346372,-9.473211,6.0066714,17.37989,21.231953,-16.710238,-0.86385685,-12.865159,-9.903505,-16.809736,23.778597,-8.767595,5.753802,-1.5296819,-6.1580176,10.749328,-16.0876,22.7054,-41.47241,63.72075,-1.7556716,1.481168,6.4726214,-14.795268,-12.9941,41.54901,60.44417,-9.376924,-2.6493366,-2.5210755
111,-5.025382041931152,0.7461545467376709,78.14537048339844,-0.7835913207778266,3.607972447046846,-7.001678232311236,-9.88895,6.339056,17.765392,21.138037,-16.462545,-0.9209029,-13.557404,-9.4918165,-16.235043,23.63054,-8.177818,5.7434874,-1.3994304,-6.308602,10.772899,-16.229593,23.015812,-41.286526,63.73166,-1.7714381,1.506502,6.383179,-15.02325,-12.895893,41.32301,60.388336,-9.4367695,-2.632301,-2.5303206
112,-5.250921249389648,0.6980342268943787,78.18183898925781,-0.8703255334808686,3.877148164950037,-7.433494838970125,-10.243038,6.6152916,18.10707,21.007736,-16.211712,-0.968861,-14.1579685,-9.081076,-15.510642,23.433601,-7.647734,5.879824,-1.3203279,-6.4807606,10.793593,-16.324366,23.331226,-41.125286,63.705532,-1.7927679,1.5341214,6.300571,-15.209438,-12.787465,41.110935,60.324986,-9.474578,-2.6118329,-2.528681
113,-5.4545512199401855,0.649098813533783,78.21329498291016,-0.9175234762010238,4.104719468055689,-7.781278658015221,-10.520846,6.809636,18.385092,20.816109,-15.949807,-1.0031252,-14.659406,-8.671091,-14.590216,23.174036,-7.196646,6.1475177,-1.313139,-6.682585,10.802911,-16.358994,23.647694,-40.99454,63.633747,-1.8107464,1.5726607,6.2230377,-15.34323,-12.673174,40.92388,60.25116,-9.459391,-2.5752623,-2.5143712
114,-5.66044807434082,0.5972081422805786,78.23694610595703,-0.9328834992506058,4.306019892310044,-8.078585271178866,-10.742749,6.942331,18.6281,20.570808,-15.672758,-1.0279008,-15.09506,-8.260793,-13.506624,22.871529,-6.80188,6.518347,-1.3501291,-6.909338,10.802085,-16.351261,23.963562,-40.88445,63.52905,-1.8215132,1.6211371,6.142608,-15.438622,-12.554343,40.748997,60.16855,-9.404551,-2.5247953,-2.4898698
115,-5.865936756134033,0.5392428040504456,78.26542663574219,-0.9329430937203759,4.478263966323518,-8.359254836578952,-10.926141,7.053132,18.862648,20.318024,-15.399631,-1.0510106,-15.451095,-7.8586316,-12.330291,22.548546,-6.455011,7.05135,-1.3998092,-7.143559,10.8097105,-16.32647,24.278755,-40.793335,63.41124,-1.8477155,1.6605439,6.0701714,-15.519801,-12.433435,40.590755,60.084152,-9.34099,-2.4869974,-2.4572546
116,-6.05681037902832,0.49242302775382996,78.28245544433594,-0.935160492489656,4.618724519216453,-8.65735121299278,-11.089913,7.18323,19.114666,20.107178,-15.150935,-1.0804456,-15.718164,-7.472376,-11.131889,22.231466,-6.150047,7.80593,-1.4298146,-7.368318,10.845626,-16.30997,24.594093,-40.721104,63.29889,-1.9125508,1.6718686,6.0167027,-15.62278,-12.314528,40.46892,60.01303,-9.279647,-2.4891317,-2.4188228
117,-6.252070426940918,0.4503931403160095,78.2995376586914,-0.933322450773361,4.718961021590394,-9.000395174065982,-11.22127,7.339225,19.414295,19.938736,-14.930426,-1.1197535,-15.8591175,-7.055224,-9.795942,21.799639,-5.83594,9.00464,-1.4168042,-7.5940914,10.9288,-16.312773,24.913252,-40.663612,63.1918,-2.0391126,1.639932,5.991093,-15.765826,-12.200743,40.395382,59.954197,-9.201172,-2.5559323,-2.3671582
118,-6.452406883239746,0.3804905414581299,78.31275177001953,-0.9206247245653314,4.783009269654752,-9.364169273870369,-11.315636,7.500322,19.740273,19.790369,-14.727624,-1.1641988,-15.888841,-6.6261497,-8.331642,21.29151,-5.5558414,10.545317,-1.3844796,-7.82495,11.046131,-16.32402,25.237732,-40.629097,63.08196,-2.2188845,1.5782216,5.9851065,-15.923445,-12.092534,40.355946,59.89501,-9.109716,-2.666706,-2.3031182
119,-6.690503120422363,0.29306018352508545,78.32149505615234,-0.9167115208324775,4.827822362905952,-9.706059944503027,-11.406846,7.672533,20.040812,19.680937,-14.5437565,-1.2084584,-15.889922,-6.279486,-6.999206,20.976654,-5.4258604,12.000658,-1.3545848,-8.032544,11.161684,-16.254124,25.560995,-40.53215,62.916004,-2.3073745,1.5129783,5.9842286,-16.069145,-11.991959,40.33638,59.84254,-9.031145,-2.781558,-2.241097
120,-6.909161567687988,0.232029527425766,78.33429718017578,-0.944182713622685,4.871145496761345,-9.983706368041677,-11.531594,7.8652825,20.26188,19.630234,-14.379858,-1.2505068,-15.953034,-6.095656,-6.0572767,21.114359,-5.5306535,12.944884,-1.390757,-8.182986,11.255859,-16.26655,25.877539,-40.595795,62.834663,-2.5118093,1.4629709,5.9748735,-16.214228,-11.90073,40.367485,59.810043,-8.979575,-2.8599155,-2.1989987
121,-7.10670280456543,0.18517310917377472,78.3469009399414,-1.0072085558501367,4.914711571734628,-10.183162601364826,-11.696188,8.077788,20.385664,19.644646,-14.236385,-1.2818365,-16.120333,-6.0777607,-5.515335,21.791084,-5.888747,13.217182,-1.4711791,-8.26992,11.309064,-16.19731,26.17372,-40.636395,62.72455,-2.584131,1.4355527,5.9515176,-16.323647,-11.822184,40.41875,59.79188,-8.980103,-2.8877435,-2.1790223
122,-7.277211666107178,0.12672612071037292,78.36507415771484,-1.0908317869547064,4.949570739336743,-10.327083598903078,-11.879405,8.30172,20.442272,19.707357,-14.109799,-1.3061856,-16.33677,-6.189003,-5.249738,22.841291,-6.4298162,13.060349,-1.5979117,-8.310392,11.344989,-16.163977,26.448992,-40.77487,62.66952,-2.6945186,1.4155991,5.922935,-16.431004,-11.758,40.52271,59.791977,-8.998354,-2.8873396,-2.1746147
123,-7.457307815551758,0.05698757618665695,78.38253021240234,-1.1879109222307276,4.976866770914836,-10.42752492589166,-12.079467,8.535097,20.449152,19.811544,-14.000014,-1.3367028,-16.553587,-6.451664,-5.3134065,24.152044,-7.097003,12.653915,-1.7392231,-8.314312,11.36254,-16.101704,26.69772,-40.89897,62.614437,-2.7482972,1.4068475,5.8980956,-16.501827,-11.706762,40.618122,59.79126,-9.046242,-2.8741634,-2.1793149
124,-7.61431360244751,-0.014962056651711464,78.39728546142578,-1.2931111062858722,4.9979423842188035,-10.496426461920514,-12.292613,8.7772455,20.423624,19.944426,-13.903176,-1.3872343,-16.713924,-6.8897276,-5.761542,25.601013,-7.83507,12.176561,-1.8848426,-8.288712,11.367529,-16.039906,26.91754,-41.010357,62.575573,-2.7864647,1.4103256,5.8858356,-16.536558,-11.665579,40.687748,59.786713,-9.105038,-2.863783,-2.1890829
125,-7.77502965927124,-0.08819103986024857,78.40634155273438,-1.4059621409621437,5.010374442982271,-10.521604893108915,-12.515667,9.023709,20.357716,20.100468,-13.816735,-1.466055,-16.786337,-7.57916,-6.7495723,27.214094,-8.688635,11.614452,-2.0443769,-8.232748,11.355609,-15.97861,27.106482,-41.119137,62.562584,-2.799953,1.4312336,5.885513,-16.52467,-11.631931,40.72832,59.77739,-9.192656,-2.8569353,-2.209437
126,-7.936187744140625,-0.15991449356079102,78.40801239013672,-1.5230226280427561,5.012162708822162,-10.499786157415498,-12.7440605,9.266862,20.247553,20.275461,-13.737737,-1.5636092,-16.777348,-8.514892,-8.188547,29.020496,-9.673362,10.886674,-2.2183642,-8.149256,11.325758,-15.892649,27.263174,-41.20597,62.55918,-2.7549217,1.467344,5.8935814,-16.469315,-11.605215,40.74789,59.768784,-9.310085,-2.8466048,-2.2404768
127,-8.091721534729004,-0.2350671887397766,78.40454864501953,-1.640453535439844,5.006978169673525,-10.458688904636604,-12.979894,9.510342,20.11492,20.475561,-13.670793,-1.665557,-16.695383,-9.584455,-9.776074,30.911434,-10.688155,10.071584,-2.3858712,-8.045658,11.290331,-15.811785,27.38719,-41.274323,62.571156,-2.7068133,1.5081718,5.914201,-16.393284,-11.585428,40.74485,59.766182,-9.4207735,-2.8364074,-2.2703972
128,-8.231508255004883,-0.3058454692363739,78.40609741210938,-1.7568929056195732,4.999147026263118,-10.426996592313436,-13.226486,9.760952,19.981323,20.705956,-13.61971,-1.7578989,-16.568968,-10.658632,-11.217791,32.783062,-11.623895,9.249153,-2.515598,-7.926902,11.2557535,-15.70703,27.477219,-41.256744,62.56054,-2.6317291,1.5444385,5.95138,-16.293493,-11.572172,40.685467,59.76196,-9.516695,-2.8295496,-2.2859209
129,-8.378398895263672,-0.3966670036315918,78.40394592285156,-1.873367426863877,4.992981437115144,-10.41087911374603,-13.493466,10.022909,19.84946,20.977003,-13.589075,-1.8372234,-16.409693,-11.754322,-12.554243,34.65742,-12.506268,8.370098,-2.6104553,-7.7842226,11.218579,-15.63694,27.503681,-41.19621,62.594666,-2.5824547,1.5702012,6.0141273,-16.173952,-11.56767,40.569115,59.756474,-9.586783,-2.8228824,-2.2854795
130,-8.542545318603516,-0.4807646870613098,78.40089416503906,-1.9899975386871411,4.984665195477457,-10.39578888556869,-13.774601,10.290942,19.709126,21.280357,-13.574563,-1.9109946,-16.193798,-12.920726,-13.905574,36.569313,-13.376401,7.4123,-2.665804,-7.6304736,11.186059,-15.539426,27.518078,-41.05838,62.59205,-2.4952185,1.596311,6.0927887,-16.032032,-11.566254,40.37883,59.7481,-9.650668,-2.8185537,-2.2708812
131,-8.70562744140625,-0.5626434683799744,78.39079284667969,-2.1085850446486996,4.969292618660272,-10.37900636057652,-14.056374,10.564942,19.559908,21.601442,-13.56952,-1.9820352,-15.927154,-14.059898,-15.10564,38.442856,-14.138989,6.498316,-2.70589,-7.4621043,11.151637,-15.432405,27.512413,-40.890125,62.57286,-2.4323206,1.6228161,6.1795583,-15.877325,-11.567822,40.186108,59.747833,-9.687098,-2.819495,-2.2520103
132,-8.864399909973145,-0.6446943283081055,78.38082122802734,-2.2316890521256347,4.941351859902114,-10.35842137624275,-14.324741,10.846041,19.401838,21.926046,-13.567315,-2.0533473,-15.629695,-15.069813,-15.990773,40.20746,-14.692614,5.7516546,-2.7362013,-7.279959,11.123899,-15.333096,27.49479,-40.732174,62.532112,-2.4374688,1.6524117,6.2628136,-15.735266,-11.571975,40.033623,59.774563,-9.681612,-2.832278,-2.230998
133,-9.020485877990723,-0.7354620099067688,78.37310791015625,-2.3732808344127903,4.899620984150383,-10.326020326769001,-14.590207,11.1497135,19.218649,22.272757,-13.575531,-2.1259813,-15.310697,-15.907244,-16.515362,41.851063,-14.997392,5.2088103,-2.7505612,-7.060158,11.098581,-15.146548,27.432114,-40.421524,62.408028,-2.3516273,1.6920316,6.348604,-15.590119,-11.59101,39.902683,59.822483,-9.620571,-2.870337,-2.2005363
134,-9.175956726074219,-0.8328285813331604,78.36062622070312,-2.5301716677199555,4.847964171923172,-10.285942458257315,-14.857011,11.473056,19.014877,22.642653,-13.595009,-2.1988888,-14.9794855,-16.621738,-16.773985,43.417408,-15.104552,4.804682,-2.7568054,-6.810949,11.065449,-14.933515,27.33724,-40.064034,62.2554,-2.2816436,1.7377455,6.4423933,-15.441461,-11.619981,39.816547,59.890415,-9.488205,-2.9250774,-2.1683478
135,-9.329720497131348,-0.9379743337631226,78.35299682617188,-2.6799630064199196,4.788480148891423,-10.254211959232958,-15.105792,11.792361,18.82081,23.000217,-13.610883,-2.271599,-14.656487,-17.248358,-16.81405,44.913666,-15.044054,4.512249,-2.7443209,-6.5564876,11.035143,-14.734857,27.220186,-39.72496,62.10148,-2.267237,1.7753831,6.526945,-15.298983,-11.654676,39.75606,59.97849,-9.355513,-2.972229,-2.1373959
136,-9.456510543823242,-1.0554695129394531,78.34362030029297,-2.7992379645653456,4.723412405555764,-10.246766878550883,-15.3175535,12.083721,18.667246,23.31289,-13.610462,-2.3434315,-14.361768,-17.824041,-16.681616,46.349083,-14.848245,4.3043647,-2.7031512,-6.323882,11.011091,-14.571301,27.09574,-39.457767,61.96115,-2.3346477,1.7916349,6.5863743,-15.180807,-11.689483,39.73086,60.096516,-9.261871,-2.9872124,-2.1146
137,-9.624368667602539,-1.1798715591430664,78.32815551757812,-2.8828453744287055,4.648758772002988,-10.273702832008826,-15.477777,12.344793,18.570885,23.568861,-13.590292,-2.413735,-14.114292,-18.325083,-16.316313,47.73826,-14.440356,4.2298913,-2.6106017,-6.1192317,10.9908,-14.360928,26.954802,-39.14596,61.77223,-2.3714015,1.7832693,6.607278,-15.079516,-11.72579,39.73628,60.24777,-9.224979,-2.9545677,-2.1035373
138,-9.773411750793457,-1.3012363910675049,78.31429290771484,-2.9434618960657186,4.565216660350692,-10.325155299337098,-15.601363,12.589455,18.513021,23.790443,-13.5591345,-2.4830422,-13.906449,-18.73429,-15.717195,49.07663,-13.831265,4.292177,-2.4843886,-5.930053,10.975011,-14.131929,26.806463,-38.824154,61.54973,-2.4305723,1.757739,6.6005263,-14.996871,-11.760792,39.77493,60.43122,-9.220458,-2.890545,-2.100506
139,-9.917332649230957,-1.4121612310409546,78.29669189453125,-2.9859547038173417,4.4821479246716756,-10.386660257508703,-15.712293,12.817783,18.471043,23.991463,-13.519251,-2.5522282,-13.711926,-19.09979,-15.020492,50.33819,-13.183673,4.3943157,-2.3459527,-5.7500424,10.954654,-13.893351,26.65354,-38.52545,61.312057,-2.508093,1.7197902,6.586395,-14.926034,-11.792584,39.832275,60.636887,-9.241489,-2.8180282,-2.0991664
140,-10.067474365234375,-1.5377521514892578,78.27837371826172,-3.0143061798897213,4.408660126505379,-10.443817029587624,-15.832386,13.028997,18.42325,24.181791,-13.470714,-2.6220284,-13.503749,-19.474623,-14.36408,51.499424,-12.661248,4.4359126,-2.214033,-5.5747223,10.921336,-13.6568575,26.49856,-38.28747,61.08013,-2.6004672,1.6742876,6.585619,-14.874656,-11.820506,39.91071,60.86642,-9.257398,-2.7606568,-2.0938332
141,-10.225556373596191,-1.686769962310791,78.25578308105469,-3.024539422115736,4.348787023029082,-10.498318733753708,-15.967694,13.216932,18.369982,24.36381,-13.41272,-2.6896,-13.300421,-19.853807,-13.7241535,52.582684,-12.263682,4.380675,-2.0900097,-5.406728,10.87219,-13.418084,26.342289,-38.1116,60.844627,-2.7283547,1.6157478,6.611935,-14.839463,-11.8442335,40.00413,61.124603,-9.291079,-2.7247517,-2.0840292
142,-10.37781047821045,-1.832943081855774,78.23188018798828,-3.016242259122326,4.2971625872277945,-10.55643509457334,-16.107216,13.384689,18.320992,24.533262,-13.345835,-2.7553904,-13.106315,-20.210827,-13.050237,53.590965,-11.9175005,4.288945,-1.9629512,-5.24767,10.812317,-13.173703,26.184715,-37.98285,60.598454,-2.8870585,1.5439385,6.6513395,-14.819751,-11.863018,40.11536,61.409584,-9.343681,-2.6979144,-2.0723672
143,-10.54166030883789,-1.9632946252822876,78.20332336425781,-2.9994097024132453,4.249078146323805,-10.609653151659206,-16.248196,13.544306,18.267485,24.693403,-13.274148,-2.8249002,-12.875243,-20.575026,-12.439812,54.477283,-11.6793995,4.1987257,-1.8375676,-5.091428,10.743422,-12.934737,26.027905,-37.910656,60.36759,-3.0349894,1.4712988,6.6831884,-14.8079605,-11.876291,40.232613,61.70426,-9.391804,-2.674763,-2.0573597
144,-10.711356163024902,-2.0967934131622314,78.17284393310547,-2.982977994058904,4.199646211487007,-10.64953209209172,-16.388828,13.70725,18.200663,24.849106,-13.20296,-2.9036508,-12.563073,-20.977507,-11.989617,55.19579,-11.607324,4.1439023,-1.7171522,-4.9323206,10.667729,-12.7125845,25.874546,-37.905457,60.176567,-3.1313462,1.4106336,6.6867833,-14.786617,-11.882129,40.332645,61.98212,-9.423255,-2.6498325,-2.0368788
145,-10.872454643249512,-2.259660243988037,78.137451171875,-2.967769401905531,4.146314006006123,-10.670259971918679,-16.52226,13.873189,18.119516,24.992188,-13.1326065,-2.9938607,-12.142894,-21.450323,-11.75093,55.74831,-11.773097,4.14513,-1.6032482,-4.7715445,10.582791,-12.510252,25.728115,-37.98731,60.031895,-3.1669092,1.3636723,6.648107,-14.747919,-11.877692,40.407753,62.242683,-9.428116,-2.6227746,-2.0066292
146,-11.033129692077637,-2.436342716217041,78.1002197265625,-2.94891025202662,4.09194965639417,-10.677698412713891,-16.652243,14.036788,18.028284,25.124466,-13.060913,-3.0921924,-11.644149,-21.97135,-11.665055,56.159084,-12.129143,4.1769657,-1.4925183,-4.613013,10.488404,-12.320611,25.58951,-38.146297,59.91854,-3.1644301,1.3243946,6.581025,-14.703096,-11.862333,40.46986,62.49954,-9.414666,-2.596553,-1.9691263
147,-11.19249439239502,-2.611355781555176,78.06475067138672,-2.928053428743184,4.040016983396417,-10.680254561897094,-16.790356,14.201211,17.926579,25.259447,-12.98721,-3.1958728,-11.106142,-22.497866,-11.662513,56.41561,-12.554428,4.2044992,-1.369356,-4.4571133,10.38444,-12.040655,25.451387,-38.2293,59.75532,-2.995673,1.2970102,6.5051866,-14.646365,-11.838566,40.5057,62.740776,-9.409681,-2.5697932,-1.9311501
148,-11.363359451293945,-2.784712553024292,78.02725219726562,-2.9073409322301926,3.9941057472583115,-10.686616923734913,-16.948795,14.370862,17.813791,25.4119,-12.910961,-3.3022306,-10.569352,-22.98616,-11.672082,56.506218,-12.928436,4.1928816,-1.2803018,-4.2903633,10.296735,-11.982025,25.325417,-38.568317,59.773224,-3.0925782,1.2734699,6.4471903,-14.630698,-11.8095455,40.573837,62.97064,-9.419557,-2.5393836,-1.904935
149,-11.5365571975708,-2.947463274002075,77.99359893798828,-2.884207088510127,3.9591191028804333,-10.697396996075286,-17.130684,14.539028,17.685356,25.57515,-12.828194,-3.411344,-10.045217,-23.445337,-11.693411,56.437145,-13.23863,4.105508,-1.15526,-4.1270895,10.199058,-11.749167,25.189816,-38.7061,59.6724,-2.8934703,1.2662404,6.403558,-14.596158,-11.780344,40.592934,63.170887,-9.472482,-2.503352,-1.8890443
150,-11.71607494354248,-3.1378955841064453,77.95853424072266,-2.8592044956980316,3.9320408194443397,-10.708646222982788,-17.32988,14.706434,17.542997,25.744917,-12.740351,-3.5244627,-9.513029,-23.891256,-11.757892,56.21441,-13.54386,3.970247,-1.0428685,-3.956842,10.102689,-11.562053,25.053614,-38.905426,59.624844,-2.704292,1.2672201,6.3674126,-14.574337,-11.750861,40.615463,63.353786,-9.544691,-2.4618049,-1.8816489
151,-11.898749351501465,-3.3421754837036133,77.9131088256836,-2.836939809441614,3.9035154847274414,-10.721609482631377,-17.543083,14.886053,17.39465,25.938856,-12.655653,-3.6406682,-8.966567,-24.287567,-11.840666,55.82502,-13.831682,3.847861,-0.94095606,-3.7769938,10.016561,-11.472695,24.919458,-39.215286,59.667313,-2.6322353,1.2744421,6.341532,-14.566539,-11.722391,40.650826,63.51021,-9.618858,-2.4226944,-1.8765905
152,-12.086814880371094,-3.54805064201355,77.86445617675781,-2.8219115354454973,3.864371794725766,-10.737354930624472,-17.768465,15.090923,17.24823,26.17664,-12.583048,-3.7589927,-8.400584,-24.602686,-11.915438,55.25928,-14.0915,3.7988687,-0.8256019,-3.5901632,9.936984,-11.322221,24.779196,-39.42919,59.68087,-2.4984837,1.2924403,6.324969,-14.561957,-11.698735,40.70164,63.632397,-9.664601,-2.3947906,-1.8659544
153,-12.275886535644531,-3.7405025959014893,77.81539916992188,-2.8154834237971436,3.811788937265892,-10.752013763351384,-18.004875,15.323381,17.106686,26.463581,-12.526558,-3.8758996,-7.7966957,-24.834494,-11.9974985,54.487473,-14.332042,3.8471923,-0.71928966,-3.3897104,9.867535,-11.170223,24.634754,-39.62002,59.71544,-2.4009197,1.3255326,6.323594,-14.565415,-11.6808405,40.792313,63.716187,-9.680536,-2.3794653,-1.8500749
154,-12.469245910644531,-3.9483964443206787,77.75860595703125,-2.8154686767225057,3.7506596351148564,-10.766569901742175,-18.252821,15.576778,16.96523,26.787071,-12.480005,-3.9930987,-7.1635447,-25.00083,-12.092295,53.526196,-14.556959,3.9564164,-0.6167987,-3.1776655,9.805936,-11.014254,24.485725,-39.791336,59.766838,-2.3119402,1.3719721,6.3350744,-14.576825,-11.669249,40.912243,63.765884,-9.673352,-2.3727255,-1.8316822
155,-12.668864250183105,-4.18882942199707,77.69540405273438,-2.8209583399126097,3.6836795249474132,-10.788629533689273,-18.515484,15.851765,16.818632,27.145508,-12.439489,-4.1171827,-6.538809,-25.090067,-12.159486,52.432014,-14.745505,4.0947685,-0.5087209,-2.9566483,9.754525,-10.851737,24.333023,-39.92222,59.825657,-2.2207348,1.4185305,6.3493595,-14.590438,-11.663553,41.029415,63.777584,-9.66284,-2.371978,-1.8093789
156,-12.883716583251953,-4.411287307739258,77.62234497070312,-2.8309954632691605,3.6130964828365277,-10.825942425792558,-18.794224,16.14856,16.66228,27.53367,-12.3997345,-4.254868,-5.9594984,-25.089176,-12.158432,51.259064,-14.876127,4.230896,-0.38630754,-2.729529,9.717286,-10.6942215,24.179792,-40.008778,59.89114,-2.13526,1.4516819,6.356897,-14.615409,-11.663267,41.133213,63.756615,-9.643758,-2.3753083,-1.7824997
157,-13.111281394958496,-4.646719455718994,77.54248046875,-2.8493146306017043,3.536595747092568,-10.88991270599261,-19.092825,16.476328,16.496073,27.970417,-12.369289,-4.4082556,-5.4212604,-25.00973,-12.110323,49.99014,-14.9614315,4.345132,-0.24398032,-2.4883907,9.69904,-10.555213,24.027908,-40.062347,59.97149,-2.0870464,1.4618764,6.353884,-14.653178,-11.66899,41.212997,63.698826,-9.615223,-2.3788466,-1.7431847
158,-13.329172134399414,-4.882918834686279,77.4659423828125,-2.8754425535712906,3.453823493699276,-10.973313057024754,-19.407341,16.831362,16.32205,28.446478,-12.346867,-4.5738025,-4.9095554,-24.853657,-12.023506,48.60715,-15.007947,4.4575977,-0.08461326,-2.2349944,9.696032,-10.408055,23.876486,-40.06015,60.049263,-2.0374944,1.4591869,6.34535,-14.693853,-11.6806135,41.27034,63.59846,-9.583833,-2.3847284,-1.6939306
159,-13.55145263671875,-5.1407694816589355,77.37983703613281,-2.9016148446916716,3.370446539813513,-11.05579822326305,-19.735775,17.196104,16.135826,28.932093,-12.315464,-4.74972,-4.4475126,-24.597918,-11.835899,47.166897,-14.985951,4.5962844,0.07424774,-1.9851649,9.702107,-10.276984,23.730042,-40.040558,60.140385,-2.0020788,1.4563744,6.3364596,-14.748143,-11.696857,41.333313,63.47134,-9.547602,-2.3999221,-1.6508795
160,-13.807053565979004,-5.401305675506592,77.28250885009766,-2.919575206815536,3.2922052854859167,-11.11691557371234,-20.072506,17.551615,15.934812,29.388527,-12.258235,-4.9342585,-4.0573635,-24.220037,-11.485509,45.72623,-14.866403,4.786893,0.2154855,-1.7552109,9.712142,-10.180898,23.595713,-40.036404,60.25458,-1.9902011,1.4667225,6.3317847,-14.808337,-11.712957,41.40394,63.318768,-9.533684,-2.4306302,-1.6295967
161,-14.063213348388672,-5.677164554595947,77.19340515136719,-2.9327837486274966,3.2204203022848503,-11.155825347490023,-20.42045,17.90243,15.717649,29.817749,-12.173531,-5.1313577,-3.754156,-23.697035,-10.921288,44.2787,-14.621336,4.979496,0.3390895,-1.5508354,9.729798,-10.110654,23.496498,-40.046116,60.369553,-2.0056655,1.5021707,6.334458,-14.882333,-11.723712,41.490482,63.13967,-9.547773,-2.4869053,-1.6405686
162,-14.321083068847656,-5.983705997467041,77.09403991699219,-2.943845755725474,3.152078317783867,-11.181766703984351,-20.780672,18.254887,15.485802,30.234852,-12.069558,-5.340803,-3.5174963,-23.052397,-10.185538,42.803333,-14.275533,5.1756945,0.452131,-1.3571687,9.750463,-10.056647,23.395008,-40.034653,60.504818,-2.0162861,1.5514594,6.3433867,-14.964674,-11.73157,41.58423,62.937225,-9.58485,-2.5618956,-1.6739391
163,-14.595548629760742,-6.275571823120117,76.99020385742188,-2.9419112291673835,3.086474588495692,-11.190270475142631,-21.145271,18.59067,15.241961,30.624435,-11.944591,-5.554285,-3.3132849,-22.331617,-9.357886,41.32714,-13.875154,5.478243,0.5527149,-1.1912178,9.778255,-10.003753,23.326103,-40.014057,60.624756,-2.027733,1.6010476,6.347313,-15.061079,-11.733129,41.683155,62.72133,-9.6165,-2.6407847,-1.7139885
164,-14.871133804321289,-6.585656642913818,76.87970733642578,-2.916093397253484,3.0227005906061217,-11.176729553736692,-21.505844,18.891367,14.989543,30.97162,-11.797278,-5.7631326,-3.1081161,-21.579638,-8.517318,39.871788,-13.465362,5.991093,0.6412255,-1.0612499,9.812052,-9.946131,23.291267,-39.98992,60.72251,-2.029911,1.6352347,6.33773,-15.159461,-11.729531,41.77009,62.492382,-9.630871,-2.707252,-1.7442459
165,-15.15509033203125,-6.906136989593506,76.76260375976562,-2.8661287586207287,2.960478976927447,-11.12586835244263,-21.863672,19.147501,14.7174225,31.27455,-11.631715,-5.970134,-2.891181,-20.71551,-7.5339475,38.36443,-12.9220495,6.830034,0.6815504,-0.9586962,9.842782,-9.913617,23.261248,-39.98153,60.85529,-2.0635362,1.6364491,6.300547,-15.276288,-11.7201605,41.88714,62.271706,-9.598534,-2.7603154,-1.7570235
166,-15.451171875,-7.232292175292969,76.64116668701172,-2.7953956898410093,2.9000693461840172,-11.044843504005394,-22.221085,19.368357,14.429569,31.539698,-11.447053,-6.1778727,-2.6678648,-19.753466,-6.41159,36.807255,-12.271946,7.909136,0.6990956,-0.88574487,9.871833,-9.880615,23.23943,-39.958565,60.994602,-2.0822062,1.6185985,6.244461,-15.395464,-11.703996,42.003277,62.042786,-9.547828,-2.8075473,-1.7611307
167,-15.753240585327148,-7.583707809448242,76.51828002929688,-2.6993920433827667,2.8418770158983393,-10.963065111046616,-22.572105,19.56567,14.151561,31.767956,-11.235636,-6.377502,-2.4431264,-18.872091,-5.4366503,35.33145,-11.773272,9.032363,0.71772426,-0.844642,9.910203,-9.877306,23.229439,-39.94958,61.145237,-2.107413,1.6024343,6.200847,-15.52971,-11.682034,42.117275,61.811775,-9.491879,-2.8435664,-1.772518
168,-16.06463050842285,-7.940525531768799,76.38389587402344,-2.5745005224194992,2.7867658944528637,-10.90946511407529,-22.910576,19.751772,13.908237,31.95792,-10.988402,-6.560369,-2.2370253,-18.239689,-4.9066625,34.070248,-11.667698,10.0071535,0.7642443,-0.83739537,9.963082,-9.891086,23.230988,-39.932587,61.28413,-2.102703,1.6096034,6.201434,-15.681362,-11.649175,42.215233,61.585007,-9.4556265,-2.8636296,-1.8075117
169,-16.397117614746094,-8.304461479187012,76.24365234375,-2.4001944822499106,2.7379569787655056,-10.918540858630823,-23.229845,19.929634,13.740745,32.114883,-10.699882,-6.7344565,-2.1089907,-17.934776,-4.942304,33.097813,-12.1000595,10.801568,0.8735992,-0.8912521,10.04135,-9.955462,23.251207,-39.934414,61.417732,-2.0802593,1.66207,6.2784357,-15.862444,-11.601318,42.287632,61.356667,-9.44328,-2.8523676,-1.8843403
170,-16.744739532470703,-8.667155265808105,76.10043334960938,-2.1855666544389134,2.6944248195053424,-10.96614622126909,-23.533895,20.094374,13.62463,32.23632,-10.375001,-6.901383,-2.0384386,-17.83886,-5.3885016,32.327255,-12.894127,11.530373,1.0162616,-1.0079194,10.136307,-10.041424,23.317053,-39.947514,61.527195,-2.0521955,1.7451215,6.405199,-16.089342,-11.501528,42.343018,61.165462,-9.449199,-2.8195293,-1.9934151
171,-17.144887924194336,-9.093415260314941,75.96804809570312,-1.972961350353963,2.650340334220977,-10.994339340575177,-23.838047,20.249723,13.48354,32.319458,-10.025783,-7.043373,-1.9352503,-17.834475,-6.1228228,31.66644,-13.81607,12.2177925,1.1464467,-1.123398,10.238065,-10.1324005,23.403093,-39.967155,61.626053,-2.028395,1.8209367,6.5279408,-16.320246,-11.396945,42.391617,60.97901,-9.46103,-2.7914646,-2.0988438
172,-17.53444480895996,-9.499509811401367,75.8407974243164,-1.8027729544468725,2.5996573864356214,-10.945103439303633,-24.155844,20.395674,13.243402,32.35661,-9.661791,-7.1419024,-1.7140063,-17.806528,-7.0143056,31.026901,-14.644548,12.8703785,1.2012671,-1.1868112,10.33174,-10.192742,23.503855,-39.975685,61.713406,-2.022697,1.8527564,6.592277,-16.551294,-11.287958,42.469944,60.819668,-9.453785,-2.7966948,-2.1707375
173,-17.911380767822266,-9.89560604095459,75.71849060058594,-1.6717652780424326,2.54118482701669,-10.78531504776951,-24.499525,20.509264,12.878215,32.3533,-9.280292,-7.1990905,-1.339607,-17.78408,-8.144508,30.444387,-15.369277,13.493217,1.1458488,-1.190706,10.410573,-10.256348,23.607346,-40.01991,61.833473,-2.0947032,1.8103795,6.558962,-16.766241,-11.186876,42.580513,60.675312,-9.420343,-2.8543644,-2.1963599
174,-18.264360427856445,-10.31995964050293,75.60066223144531,-1.5636569811839118,2.4777962388861807,-10.551842909979946,-24.858892,20.597034,12.430322,32.30969,-8.877018,-7.2222443,-0.8676493,-17.802588,-9.540751,29.956778,-16.103434,14.074158,1.0302701,-1.1586651,10.4788885,-10.272347,23.706066,-40.01291,61.936207,-2.1246066,1.7219785,6.465373,-16.968016,-11.097762,42.707317,60.537773,-9.362695,-2.9455657,-2.1923413
175,-18.64883041381836,-10.71983528137207,75.48313903808594,-1.4973570213594727,2.4102255228027234,-10.291499706260803,-25.21619,20.701344,11.927265,32.215252,-8.4626665,-7.2002435,-0.35140023,-17.75935,-10.984337,29.46622,-16.81302,14.581239,0.88672,-1.0757011,10.55157,-10.309479,23.799313,-40.029213,62.058247,-2.1897025,1.6279953,6.3758364,-17.171501,-11.021296,42.854836,60.408005,-9.309039,-3.0386188,-2.1725442
176,-19.02082633972168,-11.145817756652832,75.3832015991211,-1.4903436092419087,2.339239376587624,-10.05038667369876,-25.55217,20.864178,11.396913,32.056545,-8.046396,-7.1221137,0.15326641,-17.558878,-12.252299,28.868664,-17.461607,14.981044,0.7597276,-0.9304493,10.6391535,-10.381936,23.884459,-40.07498,62.194756,-2.283255,1.5710897,6.353991,-17.37884,-10.956894,43.006477,60.28321,-9.29911,-3.102372,-2.1499984
177,-19.417451858520508,-11.588172912597656,75.31668090820312,-1.605087518236866,2.2685545998160683,-9.859313484749189,-25.898567,21.180044,10.817616,31.872663,-7.605152,-6.984438,0.65138155,-17.071646,-13.287734,28.05813,-18.015541,15.000033,0.68612,-0.6635443,10.733807,-10.428031,23.956108,-40.08027,62.302658,-2.2941372,1.5667514,6.425916,-17.59478,-10.906071,43.164555,60.165684,-9.344114,-3.1231835,-2.1224632
178,-19.827322006225586,-12.04644775390625,75.25475311279297,-1.7616189357003809,2.187471407582336,-9.669576420136078,-26.21938,21.531633,10.214663,31.627026,-7.1328816,-6.777658,1.1575376,-16.48867,-14.19999,27.154104,-18.52837,15.000033,0.6328913,-0.34284446,10.841514,-10.479384,23.9941,-40.07427,62.422256,-2.2519972,1.5894567,6.556379,-17.801857,-10.882446,43.31859,60.042263,-9.426602,-3.1189904,-2.0829098
179,-20.220062255859375,-12.494303703308105,75.19976043701172,-1.932681273402958,2.1089717479739307,-9.468192480062736,-26.515314,21.87057,9.581102,31.3017,-6.700399,-6.532655,1.6210726,-15.863183,-14.994229,26.241634,-19.003864,15.000033,0.5510487,-0.0065561435,10.956657,-10.5200205,24.037018,-40.026978,62.518917,-2.2256737,1.6283937,6.7108455,-18.02258,-10.858487,43.501816,59.94259,-9.50954,-3.1080356,-2.0445943
180,-20.607967376708984,-12.939366340637207,75.15714263916016,-2.1023471570319403,2.04831362565636,-9.246219831313988,-26.79312,22.162628,8.903537,30.883104,-6.3803806,-6.282884,2.001431,-15.223574,-15.680295,25.396172,-19.43738,15.000033,0.48487794,0.32416773,11.061916,-10.561865,24.053078,-39.918015,62.600613,-2.1891985,1.6724641,6.8605313,-18.21723,-10.851569,43.646095,59.848396,-9.573133,-3.1101718,-2.0107503
181,-21.0140438079834,-13.419302940368652,75.12052154541016,-2.2822529805897713,2.010389689802046,-8.993192432576262,-27.08064,22.393042,8.110243,30.381943,-6.167199,-6.0342674,2.3268495,-14.537379,-16.230051,24.575375,-19.825575,15.000033,0.38051897,0.6645105,11.15042,-10.553433,24.055723,-39.667194,62.638126,-2.1081324,1.7271618,7.0014386,-18.403742,-10.852957,43.812965,59.770176,-9.604074,-3.1272125,-1.986482
182,-21.429996490478516,-13.907469749450684,75.10101318359375,-2.4786129566443367,1.9880763699312602,-8.717712165368061,-27.366982,22.588009,7.2281675,29.80569,-6.0317883,-5.767658,2.622678,-13.795507,-16.657566,23.75265,-20.166618,15.000033,0.26965573,1.0197269,11.230497,-10.549104,24.040487,-39.366226,62.67167,-2.0257652,1.7953643,7.1494904,-18.580547,-10.864597,43.97745,59.704605,-9.617182,-3.1513371,-1.9658697
183,-21.842266082763672,-14.376385688781738,75.09291076660156,-2.7026863307328908,1.986070715667179,-8.4535022938027,-27.630499,22.820908,6.3688793,29.159042,-6.0187855,-5.4901237,2.8502717,-12.979714,-17.013824,22.97283,-20.439833,14.794039,0.15466428,1.4037882,11.30608,-10.4844475,23.99851,-38.92392,62.64079,-1.8982911,1.862921,7.2956944,-18.759245,-10.891354,44.152447,59.658966,-9.60782,-3.1789207,-1.950415
184,-22.257177352905273,-14.840761184692383,75.08856201171875,-2.946612530048157,2.0037168198437576,-8.226137591272266,-27.83452,23.13598,5.6574526,28.427338,-6.170447,-5.205065,2.968193,-12.13022,-17.368061,22.308626,-20.639267,14.383785,0.07483645,1.8020949,11.3848,-10.382616,23.932415,-38.39026,62.53861,-1.7802767,1.9156389,7.4329515,-18.943361,-10.932142,44.302605,59.64305,-9.574122,-3.2097557,-1.9398571
185,-22.686336517333984,-15.302687644958496,75.10440063476562,-3.1954636202008975,2.0304895447124056,-8.040114397004405,-27.943808,23.53149,5.1437697,27.576881,-6.509506,-4.9462476,2.9520388,-11.286556,-17.756117,21.834032,-20.785458,13.793249,0.030285727,2.1959012,11.493113,-10.289802,23.850697,-37.79091,62.376637,-1.7378837,1.9605359,7.57036,-19.14836,-10.983746,44.42656,59.654125,-9.5009365,-3.2477758,-1.9340047
186,-23.127779006958008,-15.780634880065918,75.15164947509766,-3.4553536329112924,2.0685420045983665,-7.880842116250839,-27.984793,23.980022,4.758248,26.615896,-7.007216,-4.7068186,2.831173,-10.428048,-18.143167,21.500101,-20.882473,13.052084,0.010764782,2.5925255,11.618398,-10.161292,23.752148,-37.075653,62.134727,-1.6957306,2.0029557,7.7072363,-19.374693,-11.047328,44.54303,59.695385,-9.37909,-3.2930093,-1.932907
187,-23.575586318969727,-16.265174865722656,75.2055435180664,-3.702477728222691,2.1234665797027157,-7.723320554777486,-27.979805,24.421745,4.472941,25.575417,-7.6216497,-4.4164643,2.631236,-9.601577,-18.516573,21.277245,-20.942007,12.277565,-0.028162057,2.979092,11.73695,-10.0234165,23.638569,-36.36289,61.86703,-1.7334106,2.018929,7.824016,-19.599213,-11.120751,44.655834,59.770653,-9.25918,-3.3355687,-1.9384104
188,-24.006752014160156,-16.734371185302734,75.27119445800781,-3.911776257449224,2.2014504274625275,-7.542147704551343,-27.952316,24.798101,4.257579,24.493462,-8.315158,-4.000685,2.3761735,-8.855516,-18.862547,21.1343,-20.971151,11.587307,-0.10930495,3.3365858,11.81675,-9.806631,23.503672,-35.64664,61.55475,-1.7794987,1.9884799,7.8996077,-19.798656,-11.204683,44.762848,59.89249,-9.175727,-3.367298,-1.95135
189,-24.426124572753906,-17.17912483215332,75.33846282958984,-4.085428518455133,2.3143388385480375,-7.314502151662466,-27.918753,25.070236,4.0239253,23.34208,-9.147377,-3.3585951,2.0520244,-8.198312,-19.185795,21.08297,-20.947742,11.012514,-0.25883174,3.6770685,11.846779,-9.5306,23.341978,-34.955986,61.212875,-1.9354198,1.8814715,7.919769,-19.963758,-11.299854,44.865944,60.06808,-9.1549,-3.394408,-1.9860669
190,-24.852497100830078,-17.650178909301758,75.41468048095703,-4.232852233555758,2.45687702740631,-7.057879995060148,-27.87166,25.27102,3.8057244,22.130335,-10.126902,-2.559633,1.6474029,-7.610485,-19.495178,21.139112,-20.875866,10.488976,-0.45671904,4.005896,11.844492,-9.24742,23.15305,-34.31387,60.8694,-2.2257574,1.7160636,7.8996506,-20.118183,-11.407441,44.97688,60.29807,-9.157017,-3.419038,-2.0378985
191,-25.2686710357666,-18.04897117614746,75.4903564453125,-4.340160599091419,2.6092734180324424,-6.807719054622148,-27.79122,25.45326,3.76167,20.941973,-11.133143,-1.7825255,1.1879532,-7.098439,-19.779549,21.27995,-20.801058,9.992216,-0.6643202,4.2963696,11.821493,-8.935433,22.938747,-33.70859,60.523388,-2.4767072,1.5436213,7.861725,-20.251352,-11.525215,45.070934,60.556126,-9.172827,-3.424381,-2.0783637
192,-25.654788970947266,-18.451087951660156,75.54962921142578,-4.3956262731470845,2.7494000426790883,-6.600939046636141,-27.649023,25.676304,4.060201,19.848038,-12.037192,-1.208975,0.70210695,-6.6644006,-20.02492,21.481392,-20.769144,9.497714,-0.85366625,4.5264325,11.795854,-8.65227,22.7104,-33.227673,60.234924,-2.630583,1.4125342,7.831684,-20.365044,-11.647664,45.13732,60.82305,-9.18865,-3.3936183,-2.0802467
193,-26.02817726135254,-18.83706283569336,75.60371398925781,-4.390141221142314,2.875961115708447,-6.441252187007033,-27.403017,25.936764,4.7394185,18.720564,-12.84232,-0.8454045,0.18195115,-6.3257685,-20.228745,21.76895,-20.802816,9.007386,-1.0205938,4.679607,11.756684,-8.378476,22.475193,-32.876328,59.997826,-2.660282,1.3384026,7.8150625,-20.455223,-11.76931,45.177055,61.103134,-9.195196,-3.3096485,-2.019269
194,-26.413524627685547,-19.234477996826172,75.65028381347656,-4.3331180656663495,2.9968943590082264,-6.312128384303001,-27.06313,26.206873,5.725995,17.550503,-13.59026,-0.6172716,-0.38125503,-6.074737,-20.395773,22.144041,-20.872435,8.531887,-1.1799704,4.7705307,11.701279,-8.106215,22.235905,-32.63143,59.793434,-2.6243017,1.2945322,7.799337,-20.530466,-11.88878,45.200317,61.41227,-9.197638,-3.1862993,-1.9162637
195,-26.81940460205078,-19.62775421142578,75.71385192871094,-4.242954511499085,3.102769363941387,-6.221351026727679,-26.652765,26.515398,7.036938,16.545706,-14.194735,-0.58138806,-0.9613785,-5.8748636,-20.521843,22.556925,-20.950966,8.059838,-1.3223836,4.8224583,11.658866,-7.8712716,21.996271,-32.494694,59.629,-2.537492,1.2672069,7.782324,-20.614992,-12.009234,45.21178,61.74929,-9.190165,-3.0535784,-1.8104286
196,-27.234060287475586,-20.004404067993164,75.79115295410156,-4.139433553401366,3.1841291147208866,-6.176825088583225,-26.208046,26.897797,8.681637,15.942841,-14.581345,-0.78614235,-1.5290194,-5.686555,-20.603884,22.951006,-21.008495,7.579126,-1.4364083,4.859948,11.658253,-7.7022786,21.75907,-32.46098,59.506092,-2.4053695,1.243087,7.761088,-20.704248,-12.135139,45.179867,62.08964,-9.206767,-2.9399233,-1.739797
197,-27.662765502929688,-20.371240615844727,75.85409545898438,-4.022233865742775,3.229924570406333,-6.192089746673722,-25.688723,27.422216,10.910058,15.809582,-14.627409,-1.4276756,-2.0831115,-5.506828,-20.629747,23.332264,-21.047298,7.0754743,-1.5099882,4.8791475,11.725884,-7.620071,21.528084,-32.55635,59.428715,-2.2201223,1.2288806,7.7318053,-20.835379,-12.2731495,45.12628,62.45037,-9.2157,-2.8557122,-1.708591
198,-28.081623077392578,-20.727336883544922,75.9185791015625,-3.8810619958368475,3.2527937701066385,-6.25620104536226,-25.107885,28.044296,13.626379,16.081831,-14.421575,-2.392309,-2.6427782,-5.3558025,-20.608025,23.728437,-21.079433,6.5586233,-1.5535324,4.868366,11.83705,-7.600477,21.304556,-32.773582,59.389133,-1.9814054,1.2283268,7.696166,-20.973656,-12.423793,45.029247,62.811905,-9.243294,-2.7832909,-1.6972839
199,-28.484996795654297,-21.087671279907227,75.97582244873047,-3.7207537121653376,3.277369576869597,-6.341648297474906,-24.587492,28.653288,16.313368,16.794899,-14.22295,-3.2663445,-3.1981146,-5.2254834,-20.566904,24.09632,-21.089209,6.052606,-1.5839459,4.838207,11.946273,-7.620032,21.0874,-33.074562,59.383873,-1.7168165,1.2231778,7.660956,-21.101131,-12.589334,44.91358,63.1679,-9.265226,-2.7150168,-1.7110142
200,-28.880887985229492,-21.42031478881836,76.04280090332031,-3.552465806414532,3.32077239260301,-6.426171242382031,-24.219227,29.15801,18.469778,17.89801,-14.269166,-3.665566,-3.7355042,-5.1026025,-20.529528,24.398928,-21.063164,5.5813713,-1.6168836,4.80678,12.015199,-7.653776,20.873667,-33.418373,59.408253,-1.4539142,1.195306,7.6330194,-21.19403,-12.771858,44.798122,63.50718,-9.267728,-2.642568,-1.7543999
201,-29.270437240600586,-21.745906829833984,76.11468505859375,-3.3709337751172384,3.3863529822103047,-6.514756326519393,-24.058859,29.560732,19.96699,19.492697,-14.654431,-3.353253,-4.258546,-4.9943714,-20.489477,24.634296,-20.998291,5.1559544,-1.651327,4.775099,12.035396,-7.7096543,20.663347,-33.834747,59.476227,-1.2038809,1.1257687,7.604988,-21.230667,-12.971527,44.667336,63.818417,-9.290439,-2.55301,-1.8469373
202,-29.653453826904297,-22.05805778503418,76.185791015625,-3.1810372754253393,3.456676739655764,-6.6227371729768265,-24.00294,29.910677,21.087095,21.474012,-15.2003765,-2.5958085,-4.7625628,-4.893661,-20.432663,24.817163,-20.901295,4.761156,-1.6726338,4.743117,12.034991,-7.7929277,20.45532,-34.328247,59.582058,-0.9458217,1.0293998,7.576267,-21.238245,-13.19015,44.533184,64.11596,-9.306452,-2.454936,-1.9796222
203,-30.019811630249023,-22.382570266723633,76.25859069824219,-3.0074802599428714,3.5187447551828304,-6.741859019145548,-23.912666,30.17973,21.950333,23.458818,-15.742098,-1.768876,-5.2243423,-4.76858,-20.3721,24.93776,-20.77333,4.38208,-1.6885406,4.72953,12.02899,-7.888321,20.245224,-34.832066,59.70508,-0.6819869,0.93768406,7.56368,-21.213295,-13.428453,44.37935,64.3912,-9.304548,-2.3686554,-2.1137846
204,-30.376768112182617,-22.71209144592285,76.32630157470703,-2.8683150521924374,3.5657223747384226,-6.858408255921508,-23.68798,30.347311,22.6599,25.135674,-16.15774,-1.2417669,-5.6270013,-4.596268,-20.324886,24.987705,-20.615917,4.0048385,-1.7114096,4.7468467,12.026967,-7.976297,20.02774,-35.272346,59.822353,-0.40649566,0.8817209,7.5840197,-21.155758,-13.685509,44.19586,64.637085,-9.264719,-2.3148305,-2.2112741
205,-30.723482131958008,-23.04629135131836,76.38270568847656,-2.7701820397657095,3.5967172821154554,-6.975117844429404,-23.31866,30.410927,23.187351,26.436617,-16.403446,-1.1615493,-5.9621544,-4.3668942,-20.29352,24.953497,-20.423332,3.6283307,-1.744827,4.8023963,12.027443,-8.055861,19.79991,-35.646122,59.939503,-0.092542484,0.8758966,7.65213,-21.066202,-13.960493,43.980354,64.854706,-9.166816,-2.3112125,-2.260515
206,-31.066089630126953,-23.347246170043945,76.444580078125,-2.6999363180369818,3.618293565431375,-7.0943008441311965,-22.882374,30.378485,23.485472,27.557293,-16.567375,-1.3159345,-6.243915,-4.0991106,-20.272139,24.844393,-20.196615,3.2596383,-1.7868402,4.886448,12.022834,-8.134825,19.561228,-35.981384,60.066803,0.25343373,0.901621,7.7554283,-20.935774,-14.252233,43.72503,65.04181,-9.042952,-2.3421469,-2.2824671
207,-31.409412384033203,-23.63609504699707,76.50031280517578,-2.644701636835326,3.6366421440868693,-7.199998153200257,-22.425615,30.25755,23.61842,28.616657,-16.749842,-1.5275642,-6.4931283,-3.8145175,-20.266376,24.690903,-19.94952,2.8970513,-1.8419265,4.9845047,12.012479,-8.218188,19.312405,-36.26764,60.1961,0.5706392,0.94067514,7.8704777,-20.782486,-14.559977,43.46026,65.2121,-8.895816,-2.3798037,-2.2887995
208,-31.73929786682129,-23.933815002441406,76.55351257324219,-2.5929860188728084,3.6571065835567698,-7.27713707649522,-21.989056,30.059391,23.650301,29.727564,-17.045904,-1.6174381,-6.727973,-3.5322592,-20.282045,24.519835,-19.69444,2.5386584,-1.9190474,5.083838,11.996683,-8.305992,19.055374,-36.48848,60.31612,0.7988599,0.9741046,7.973186,-20.600163,-14.880135,43.181396,65.36019,-8.773727,-2.3940406,-2.2909095
209,-32.05515670776367,-24.22809600830078,76.60588073730469,-2.548041011368492,3.6807389856255175,-7.319908072230904,-21.605812,29.768887,23.487984,30.911695,-17.499693,-1.5269327,-6.943855,-3.244405,-20.321634,24.317596,-19.424799,2.1809897,-2.02422,5.1859984,11.977317,-8.393358,18.790787,-36.619152,60.422775,0.9210584,0.9990722,8.065063,-20.397776,-15.21052,42.89127,65.49795,-8.671639,-2.3770714,-2.286222
210,-32.3754768371582,-24.52169418334961,76.66505432128906,-2.513683657117201,3.7046444618849756,-7.337207614782799,-21.247023,29.395002,23.130978,32.117786,-18.059593,-1.3532987,-7.1358957,-2.945624,-20.381104,24.079987,-19.139565,1.82593,-2.1549823,5.2959504,11.953883,-8.480109,18.519405,-36.67336,60.520744,0.96790916,1.0244725,8.156135,-20.166044,-15.548717,42.577618,65.617325,-8.587479,-2.343258,-2.270573
211,-32.708251953125,-24.80361557006836,76.7146224975586,-2.4792070550572265,3.727864009831284,-7.335931184606887,-20.85594,28.980843,22.778399,33.33566,-18.661016,-1.1486737,-7.315788,-2.6564727,-20.457554,23.837748,-18.852623,1.4796797,-2.3005753,5.4033365,11.923016,-8.570573,18.244564,-36.689583,60.60936,0.9612321,1.0493914,8.235705,-19.913242,-15.893685,42.265915,65.724915,-8.510815,-2.3046508,-2.2548034
212,-33.032657623291016,-25.080188751220703,76.76417541503906,-2.433512092794777,3.749263684008342,-7.323177440880058,-20.375547,28.567497,22.63217,34.55153,-19.243883,-0.96570003,-7.4945965,-2.3967385,-20.54703,23.619896,-18.582415,1.1483626,-2.4520602,5.497646,11.881372,-8.665946,17.970833,-36.703625,60.684658,0.92340267,1.0730029,8.292869,-19.629236,-16.243464,41.954487,65.81249,-8.462432,-2.2723413,-2.249169
213,-33.34337615966797,-25.345542907714844,76.80831909179688,-2.371267055352542,3.7661324471262754,-7.301637320519165,-19.792044,28.152805,22.727041,35.775944,-19.807245,-0.8097914,-7.67269,-2.1770086,-20.652555,23.440825,-18.33479,0.8346103,-2.6031942,5.5692673,11.829352,-8.750804,17.698915,-36.688133,60.735657,0.84800005,1.1004349,8.327298,-19.331911,-16.59836,41.675003,65.89448,-8.410351,-2.2518992,-2.2558463
214,-33.640560150146484,-25.616317749023438,76.84815216064453,-2.2991494957610334,3.7797048796257995,-7.26741392993227,-19.134495,27.72156,22.956882,37.010216,-20.379692,-0.65342695,-7.8441997,-1.9836463,-20.774244,23.281826,-18.100805,0.53461736,-2.7651615,5.6263404,11.768173,-8.829569,17.429728,-36.638145,60.767063,0.71968466,1.1301012,8.343659,-18.994616,-16.955696,41.379253,65.95061,-8.402577,-2.2351944,-2.2691581
215,-33.93579864501953,-25.903310775756836,76.88013458251953,-2.2246829285409992,3.794715470375945,-7.217790251218843,-18.41325,27.292017,23.312757,38.228268,-20.944136,-0.49997675,-8.01534,-1.8022486,-20.904581,23.13281,-17.87641,0.24465197,-2.9366581,5.680633,11.697373,-8.923889,17.167782,-36.61113,60.78717,0.578459,1.1528451,8.338586,-18.637653,-17.31521,41.087074,65.9942,-8.405515,-2.2184024,-2.289191
216,-34.23747634887695,-26.167715072631836,76.91630554199219,-2.1553682132125793,3.8161177301515736,-7.150145793918148,-17.637478,26.878654,23.788713,39.400677,-21.481504,-0.35331103,-8.192027,-1.6188029,-21.035986,22.983103,-17.657108,-0.03883442,-3.1177988,5.744349,11.617318,-9.062677,16.9203,-36.676273,60.808254,0.44924954,1.1589766,8.30893,-18.27427,-17.676834,40.808167,66.03148,-8.398086,-2.197105,-2.31574
217,-34.54694747924805,-26.426311492919922,76.94486999511719,-2.088085825882197,3.8448315411553193,-7.06305200402664,-16.800798,26.48795,24.432308,40.539932,-21.990488,-0.18333669,-8.372244,-1.4346896,-21.160303,22.824152,-17.442183,-0.31074163,-3.3130577,5.8163753,11.526475,-9.244258,16.691452,-36.84732,60.82563,0.32216722,1.1429503,8.240046,-17.876429,-18.040367,40.501644,66.040146,-8.443396,-2.1636732,-2.3527532
218,-34.8380012512207,-26.683595657348633,76.96762084960938,-2.0203915466353437,3.878059639626413,-6.9582887478249935,-15.898874,26.104208,25.229658,41.64993,-22.478855,0.0041253697,-8.553656,-1.2553749,-21.282743,22.663935,-17.234346,-0.5713126,-3.5158606,5.8893723,11.4268875,-9.455433,16.481667,-37.092995,60.83008,0.1886642,1.111685,8.137778,-17.460546,-18.407682,40.194805,66.03286,-8.504299,-2.1234405,-2.3988953
219,-35.124141693115234,-26.931507110595703,76.99197387695312,-1.9607984644148346,3.9150344560600465,-6.838155693904317,-14.9488735,25.70867,26.083002,42.693787,-22.939867,0.14215216,-8.742218,-1.0733509,-21.417358,22.515993,-17.03332,-0.83196497,-3.7222176,5.9686146,11.321627,-9.6966095,16.292469,-37.4032,60.8229,0.076597616,1.0735306,8.028485,-17.029028,-18.776878,39.88774,66.009995,-8.543403,-2.087616,-2.4451187
220,-35.409751892089844,-27.197959899902344,77.00914001464844,-1.9180372422485903,3.954800104248157,-6.704785300351806,-13.969943,25.282543,26.896929,43.63458,-23.365852,0.16356084,-8.943314,-0.88055,-21.578104,22.392336,-16.83842,-1.1043543,-3.9291704,6.0579977,11.211736,-9.963092,16.125513,-37.761993,60.80359,0.019214911,1.0370578,7.938184,-16.568785,-19.14424,39.55523,65.962875,-8.553788,-2.0667865,-2.4822285
221,-35.698509216308594,-27.45804214477539,77.01543426513672,-1.8949016747115752,3.9998863878642164,-6.559894677025493,-12.959347,24.829708,27.689003,44.474686,-23.747778,0.042997394,-9.164503,-0.6758187,-21.767553,22.30356,-16.647034,-1.3934168,-4.1419945,6.161814,11.093331,-10.252764,15.983012,-38.17659,60.77008,0.036253907,0.99953,7.8709936,-16.048248,-19.505943,39.14754,65.86554,-8.58396,-2.063968,-2.5113666
222,-35.994781494140625,-27.713193893432617,77.02001190185547,-1.8864033605591544,4.050085573942983,-6.401829368766391,-11.912899,24.34957,28.497524,45.227417,-24.089329,-0.1828279,-9.400614,-0.46306118,-21.97898,22.239588,-16.460203,-1.6926131,-4.3505144,6.27478,10.970604,-10.57389,15.8654375,-38.66073,60.721252,0.10534115,0.9582804,7.814451,-15.546647,-19.863941,38.7774,65.78068,-8.520226,-2.076303,-2.5372016
223,-36.29095458984375,-27.98234748840332,77.0191879272461,-1.8900141905101933,4.100545151101885,-6.227451066524864,-10.854836,23.822554,29.25724,45.88291,-24.406666,-0.4891551,-9.639726,-0.24317689,-22.212378,22.186699,-16.28474,-1.9962783,-4.569322,6.3909545,10.843426,-10.907452,15.771011,-39.17314,60.653927,0.19865306,0.92106706,7.7670064,-14.97418,-20.212563,38.331768,65.64418,-8.506283,-2.0951912,-2.5530453
224,-36.58992004394531,-28.24895668029785,77.00921630859375,-1.902702742886429,4.146637351463385,-6.033430746806056,-9.806573,23.229628,29.903746,46.425087,-24.713066,-0.8511928,-9.86745,-0.016308798,-22.467754,22.125185,-16.124382,-2.2984216,-4.777314,6.501425,10.722715,-11.264611,15.696827,-39.707497,60.572716,0.2846338,0.89605314,7.7304273,-14.449845,-20.552824,37.97746,65.555855,-8.351636,-2.1209922,-2.5546963
225,-36.8966178894043,-28.497373580932617,76.9890365600586,-1.9286350001570127,4.189142164619555,-5.831318071618789,-8.755383,22.5814,30.45857,46.849064,-25.042835,-1.2600483,-10.080119,0.22823527,-22.73793,22.044123,-15.97923,-2.5993376,-4.9890766,6.6108317,10.595906,-11.624743,15.641947,-40.246548,60.47559,0.36914915,0.88634354,7.710981,-13.842869,-20.87694,37.55448,65.417435,-8.226375,-2.1551533,-2.5370362
226,-37.19353103637695,-28.767433166503906,76.96090698242188,-1.9697974958531879,4.230063108202494,-5.618343255235919,-7.7011847,21.885431,30.94375,47.167618,-25.381737,-1.7306346,-10.286494,0.48899946,-23.026323,21.957926,-15.848982,-2.9017,-5.182018,6.7209625,10.471131,-12.011775,15.605616,-40.824436,60.366642,0.4635898,0.88785785,7.708164,-13.311708,-21.189018,37.25552,65.35328,-7.90726,-2.2035391,-2.5056486
227,-37.4931755065918,-29.051971435546875,76.92990112304688,-2.01655981421664,4.266789917225841,-5.3703986451337,-6.679809,21.117323,31.297075,47.384018,-25.667107,-2.2728753,-10.49163,0.74308914,-23.34589,21.885798,-15.736706,-3.2028801,-5.4115214,6.82808,10.346286,-12.401493,15.586549,-41.390408,60.243206,0.55124307,0.8951549,7.703267,-12.677856,-21.48004,36.839153,65.21844,-7.7350025,-2.2441094,-2.4651442
228,-37.78227996826172,-29.33423614501953,76.8856430053711,-2.0600840327977874,4.296853535326498,-5.063192505632321,-5.72629,20.258047,31.457968,47.50543,-25.839577,-2.897936,-10.704025,0.9667917,-23.709997,21.853209,-15.649052,-3.5002377,-5.6716967,6.923573,10.239617,-12.815819,15.581472,-41.9468,60.109062,0.61591166,0.9040812,7.682162,-12.085125,-21.75218,36.464863,65.12564,-7.5682735,-2.2673526,-2.423433
229,-38.125247955322266,-29.5996036529541,76.83341217041016,-2.1025385733847344,4.319545099503494,-4.676269777727062,-4.8484898,19.308037,31.405611,47.533936,-25.884905,-3.6143682,-10.925569,1.1533972,-24.132374,21.867767,-15.589797,-3.7909076,-5.993737,7.0138083,10.155525,-13.260605,15.589882,-42.48924,59.96296,0.65345055,0.9204468,7.63803,-11.507471,-22.001966,36.09085,65.05302,-7.4788747,-2.2680113,-2.372775
230,-38.450740814208984,-29.8641357421875,76.7765121459961,-2.1472275360729136,4.3365301298613135,-4.227082300190375,-4.023351,18.281208,31.176691,47.466892,-25.838842,-4.41572,-11.1530075,1.3146653,-24.602114,21.916483,-15.554931,-4.076853,-6.360731,7.099263,10.086173,-13.7300625,15.611336,-43.024525,59.80524,0.6756518,0.9443373,7.580084,-10.938991,-22.22856,35.71974,64.999886,-7.435416,-2.254125,-2.3131254
231,-38.75717544555664,-30.136367797851562,76.728515625,-2.187950479065491,4.348804607194695,-3.7481541365923596,-3.239184,17.180124,30.795555,47.306847,-25.71874,-5.286911,-11.386028,1.4560102,-25.096268,21.992384,-15.537959,-4.3630643,-6.7420845,7.1709385,10.0201025,-14.205584,15.643625,-43.53908,59.643017,0.6777602,0.9615113,7.515804,-10.364782,-22.429466,35.350937,64.95658,-7.4273562,-2.2284617,-2.2625003
232,-39.06869125366211,-30.42060089111328,76.66646575927734,-2.2189963279704874,4.35713125096168,-3.2720339462919865,-2.4836404,16.006306,30.286604,47.054047,-25.54156,-6.2148438,-11.623162,1.5834693,-25.59205,22.087082,-15.53182,-4.654542,-7.107971,7.220575,9.94538,-14.669772,15.683688,-44.01897,59.485302,0.6546653,0.9574869,7.452875,-9.771951,-22.600803,34.984997,64.9153,-7.4439898,-2.1938832,-2.2389195
233,-39.380802154541016,-30.710369110107422,76.6100082397461,-2.23840542477151,4.359116971603948,-2.804982008550216,-1.7242349,14.7701845,29.684626,46.690872,-25.307774,-7.234412,-11.862197,1.698717,-26.086046,22.20766,-15.54593,-4.951099,-7.45153,7.241934,9.855222,-15.119359,15.730673,-44.455944,59.33883,0.59434164,0.91869926,7.3866177,-9.154334,-22.737616,34.62404,64.880684,-7.4975023,-2.1479945,-2.248198
234,-39.701904296875,-30.990589141845703,76.54656982421875,-2.249826552581518,4.355186011961615,-2.3302096084831456,-0.9697482,13.468922,28.96764,46.221485,-25.01703,-8.339167,-12.103609,1.7987306,-26.589705,22.353794,-15.579384,-5.25071,-7.790264,7.241273,9.75503,-15.5671425,15.784948,-44.862427,59.202736,0.4980419,0.85593015,7.315526,-8.525273,-22.83794,34.271248,64.86236,-7.5885696,-2.0906184,-2.2809563
235,-40.010433197021484,-31.283334732055664,76.4856185913086,-2.2558346468404338,4.350139581999358,-1.8455064133576853,-0.26847598,12.085465,28.075191,45.6833,-24.684011,-9.454125,-12.3524065,1.8825697,-27.102604,22.513725,-15.615198,-5.5559726,-8.147789,7.22861,9.641931,-15.9933,15.844504,-45.222134,59.06982,0.40245393,0.7914918,7.2505016,-7.779914,-22.901472,33.790325,64.76207,-7.8468204,-2.024281,-2.3308363
236,-40.33497619628906,-31.575531005859375,76.42049407958984,-2.259012074227226,4.348890246391143,-1.348885104872736,0.33448496,10.603811,26.948666,45.115894,-24.321236,-10.505551,-12.613163,1.9492514,-27.6239,22.673828,-15.63482,-5.8695407,-8.492671,7.214415,9.541804,-16.43239,15.89863,-45.57058,58.940166,0.33657402,0.74786633,7.2066755,-7.165475,-22.935741,33.451023,64.76358,-7.9303718,-1.9607749,-2.3959506
237,-40.65413284301758,-31.854724884033203,76.36052703857422,-2.2485854075885374,4.353784624555851,-0.8332018438012684,0.8527804,9.01518,25.593649,44.521572,-23.915956,-11.468959,-12.906952,1.9717093,-28.154009,22.878819,-15.654771,-6.1951704,-8.837685,7.191523,9.447511,-16.880644,15.9514265,-45.914394,58.808548,0.31130978,0.7350467,7.1950345,-6.558986,-22.94898,33.110355,64.76512,-7.9887466,-1.8917433,-2.488563
