unveil-humanoid-operators/unveil-humanoid-operators.github.io/feature-analysis-animation/data/feature_matrix_instances/height_root_translate_peak_vel_jogging_turning_A032.csv
Frame,root_translateX,root_translateY,root_translateZ,root_rotateX,root_rotateY,root_rotateZ,left_hip_pitch_joint_dof,left_hip_roll_joint_dof,left_hip_yaw_joint_dof,left_knee_joint_dof,left_ankle_pitch_joint_dof,left_ankle_roll_joint_dof,right_hip_pitch_joint_dof,right_hip_roll_joint_dof,right_hip_yaw_joint_dof,right_knee_joint_dof,right_ankle_pitch_joint_dof,right_ankle_roll_joint_dof,waist_yaw_joint_dof,waist_roll_joint_dof,waist_pitch_joint_dof,left_shoulder_pitch_joint_dof,left_shoulder_roll_joint_dof,left_shoulder_yaw_joint_dof,left_elbow_joint_dof,left_wrist_roll_joint_dof,left_wrist_pitch_joint_dof,left_wrist_yaw_joint_dof,right_shoulder_pitch_joint_dof,right_shoulder_roll_joint_dof,right_shoulder_yaw_joint_dof,right_elbow_joint_dof,right_wrist_roll_joint_dof,right_wrist_pitch_joint_dof,right_wrist_yaw_joint_dof
0,2.1826093196868896,-0.013051586225628853,78.19612884521484,1.389843411460998,-4.328575940701805,177.44843287944994,8.990634,3.0334349,16.723164,11.860283,-14.04293,3.6622567,10.062426,-6.8780837,-11.09316,7.767377,-12.940403,8.765261,-1.409809,0.035230212,10.14457,1.0243969,10.429233,-36.25172,56.602226,-13.19492,2.1807709,5.0380015,0.4340889,-11.164213,30.538498,58.814037,10.435669,4.9895153,-1.6670306
1,2.171501874923706,-0.014712397009134293,78.19102478027344,1.3980632199443908,-4.324909991707554,177.4204855500251,9.030836,3.0239096,16.755423,11.819698,-14.061926,3.6468902,10.082323,-6.881093,-11.060547,7.738374,-12.964148,8.80155,-1.3604476,0.025070244,10.128802,1.0082028,10.417178,-36.270603,56.628574,-13.19067,2.1922982,5.044155,0.44791305,-11.19104,30.627117,58.781124,10.543404,5.010182,-1.6798086
2,2.152331590652466,-0.011391752399504185,78.18766021728516,1.4070589672509233,-4.320351333113308,177.39308928955973,9.07011,3.0131571,16.787342,11.7777405,-14.080025,3.6317356,10.102423,-6.8848853,-11.028266,7.7067084,-12.987644,8.841202,-1.33543,0.019192388,10.107978,1.0108547,10.400551,-36.271717,56.642437,-13.183411,2.204582,5.0524955,0.44670445,-11.235017,30.76234,58.758617,10.675884,5.0292387,-1.6936057
3,2.1325316429138184,-0.00812072679400444,78.18343353271484,1.4149480554353624,-4.317180494829227,177.36460024404414,9.111421,3.003827,16.819862,11.736989,-14.098975,3.616316,10.121533,-6.8880095,-10.995385,7.681314,-13.012082,8.874319,-1.2982529,0.010623315,10.092452,1.0085007,10.391604,-36.275543,56.654385,-13.179058,2.217387,5.056612,0.44531262,-11.262029,30.856867,58.745777,10.779262,5.045774,-1.7065926
4,2.1122753620147705,-0.006806239485740662,78.17766571044922,1.4196454306577362,-4.3166025654188696,177.33401976835862,9.155624,2.9983194,16.853579,11.702631,-14.12246,3.6004848,10.139964,-6.8891273,-10.962128,7.667092,-13.037208,8.891371,-1.3007087,0.018683057,10.076998,1.0334026,10.372032,-36.237255,56.64971,-13.18722,2.2256722,5.056713,0.45814344,-11.321894,30.979345,58.712208,10.883768,5.061113,-1.7307749
5,2.090942144393921,-0.0071693481877446175,78.171630859375,1.4196975914811498,-4.321969841737369,177.3005664801674,9.207057,2.998413,16.889095,11.674021,-14.1509495,3.5829961,10.157277,-6.887285,-10.927651,7.6730494,-13.064771,8.88188,-1.2843025,0.03169338,10.069494,1.0536352,10.358637,-36.203484,56.64474,-13.224525,2.230647,5.049581,0.47836396,-11.358178,31.020191,58.700363,10.925403,5.067553,-1.7647841
6,2.065951108932495,-0.010380097664892673,78.16416931152344,1.4161851139575996,-4.331135761590684,177.26518513151413,9.261325,3.0035446,16.925821,11.653566,-14.185074,3.564283,10.173537,-6.882908,-10.89244,7.692934,-13.094339,8.853457,-1.2636482,0.048043367,10.061238,1.078595,10.35052,-36.172016,56.63751,-13.289421,2.2326202,5.0399833,0.49738064,-11.376074,31.023144,58.715336,10.934491,5.065828,-1.8099097
7,2.0376601219177246,-0.00975781213492155,78.1556625366211,1.4115193801565642,-4.339000597942003,177.22884618982653,9.313573,3.0099192,16.962217,11.637764,-14.2209425,3.5465846,10.188507,-6.8777843,-10.857446,7.7144876,-13.122527,8.823761,-1.2442951,0.061854236,10.050075,1.1044756,10.346292,-36.146454,56.630905,-13.356443,2.234345,5.0306063,0.51861006,-11.38387,31.015614,58.73445,10.93612,5.0632133,-1.854866
8,2.00930118560791,-0.010124492458999157,78.14937591552734,1.4115390864430162,-4.342924000523399,177.18840591768566,9.3704,3.0082016,17.001669,11.605298,-14.245834,3.5323966,10.203645,-6.8768897,-10.8194,7.72734,-13.147902,8.810697,-1.2388347,0.07311643,10.037363,1.1371422,10.336111,-36.087082,56.61882,-13.370309,2.2427387,5.0091047,0.54068935,-11.401393,31.004108,58.74241,10.926315,5.0637474,-1.8746415
9,1.9810516834259033,-0.008418557234108448,78.1435317993164,1.4143837057323663,-4.337134831007211,177.14494515709646,9.416042,3.002366,17.04124,11.575886,-14.268259,3.5234513,10.217158,-6.877565,-10.780398,7.7219534,-13.165548,8.822543,-1.2335452,0.07882827,10.012205,1.1621621,10.323594,-36.035725,56.61693,-13.345501,2.257519,4.9831095,0.5589528,-11.421614,31.005913,58.74907,10.937689,5.0657473,-1.8709556
10,1.9503341913223267,-0.00604292331263423,78.13737487792969,1.419647223692817,-4.325637518520751,177.09839878062058,9.456573,2.9928176,17.081615,11.546476,-14.287903,3.518226,10.229636,-6.8799205,-10.740085,7.7063074,-13.177985,8.848773,-1.2269677,0.07947947,9.976305,1.1868359,10.31061,-35.991234,56.620056,-13.296493,2.2764592,4.953269,0.57738614,-11.44164,31.008234,58.759163,10.954979,5.067711,-1.8523508
11,1.913038969039917,-0.005808982532471418,78.13162231445312,1.4233568530900824,-4.311906106930239,177.05277844989766,9.491914,2.9864302,17.12101,11.524858,-14.3108015,3.512807,10.241861,-6.8802767,-10.700867,7.687812,-13.1894655,8.877152,-1.2210064,0.0769031,9.935924,1.208384,10.30602,-35.96685,56.624916,-13.25706,2.2944508,4.9296165,0.596187,-11.448061,30.99899,58.776344,10.966466,5.0677104,-1.8294742
12,1.8760052919387817,-0.00928843580186367,78.12638092041016,1.425932818852793,-4.302035848307639,177.00919623072045,9.538316,2.9808662,17.161564,11.490484,-14.328256,3.5041199,10.25601,-6.8798633,-10.662119,7.676858,-13.205559,8.896481,-1.2336315,0.07959692,9.908137,1.2326816,10.293521,-35.915203,56.6225,-13.216279,2.3097239,4.9095254,0.61981726,-11.463626,30.95977,58.782368,10.938069,5.068206,-1.8005726
13,1.8390363454818726,-0.012051539495587349,78.1197738647461,1.4228114216826813,-4.2943904406942774,176.9731399102779,9.581893,2.9858363,17.199154,11.467696,-14.352682,3.4895604,10.273135,-6.8723125,-10.62707,7.6675377,-13.2253065,8.904731,-1.2561308,0.0906359,9.886189,1.2487962,10.280228,-35.88427,56.623222,-13.220331,2.3186438,4.90974,0.6518941,-11.474689,30.875483,58.78962,10.871887,5.0647483,-1.7711204
14,1.802459955215454,-0.010371416807174683,78.11388397216797,1.416857818524872,-4.287449457741896,176.9415928771337,9.6241455,2.9964652,17.235224,11.450152,-14.379787,3.4715946,10.292794,-6.860628,-10.594347,7.6580224,-13.247459,8.907786,-1.2938379,0.10158493,9.862542,1.269482,10.2717085,-35.863613,56.620274,-13.252646,2.3237784,4.924688,0.68495536,-11.477029,30.772995,58.806606,10.784605,5.0581164,-1.7418746
15,1.7696101665496826,-0.0077238669618964195,78.11141967773438,1.4099796231671038,-4.28227990655591,176.90790164994306,9.671826,3.0074646,17.273106,11.428315,-14.405737,3.453052,10.311994,-6.849266,-10.561402,7.653626,-13.269463,8.904453,-1.3070956,0.114027336,9.850458,1.2647597,10.261093,-35.861385,56.63001,-13.280647,2.3267932,4.936882,0.727988,-11.474306,30.622158,58.810875,10.668043,5.0516224,-1.705356
16,1.7302371263504028,-0.007360031362622976,78.10851287841797,1.403224365685943,-4.277796450220391,176.866843575465,9.720874,3.016836,17.314444,11.409342,-14.434271,3.4367416,10.326313,-6.8414154,-10.527466,7.661013,-13.290651,8.893187,-1.3173836,0.12414741,9.835984,1.2622514,10.253879,-35.86471,56.63884,-13.302111,2.3259716,4.943306,0.7579139,-11.469895,30.5216,58.82169,10.589883,5.0439405,-1.6805279
17,1.6913007497787476,-0.006111800204962492,78.10427856445312,1.3963038489670794,-4.273759248182516,176.81616545846333,9.769711,3.023871,17.359753,11.396626,-14.466984,3.4245198,10.334417,-6.838827,-10.495399,7.6813927,-13.306131,8.868283,-1.3163285,0.13609329,9.825073,1.260006,10.248412,-35.868347,56.640022,-13.3057,2.3227806,4.935452,0.77031195,-11.465805,30.46035,58.83798,10.544422,5.0360413,-1.6636643
18,1.6546170711517334,-0.0019234269857406616,78.10153198242188,1.3902268825512343,-4.271797414262065,176.75691255615666,9.826041,3.0274334,17.410429,11.376699,-14.496799,3.4146352,10.337231,-6.8411083,-10.462214,7.7155504,-13.319564,8.832564,-1.3004305,0.14610139,9.821498,1.2435479,10.243416,-35.87469,56.64872,-13.297227,2.3163018,4.9154396,0.7790028,-11.462155,30.41109,58.84789,10.507939,5.0280437,-1.6484574
19,1.6152358055114746,-0.008940904401242733,78.09585571289062,1.3835469153243298,-4.270068591996328,176.6973534201707,9.881865,3.0315163,17.460012,11.3611145,-14.530286,3.4045668,10.340299,-6.8428555,-10.4282875,7.753002,-13.336285,8.796649,-1.2881806,0.15710974,9.8179,1.2301587,10.237812,-35.887188,56.654175,-13.282628,2.307138,4.8999977,0.77951324,-11.458629,30.381998,58.85995,10.4911175,5.0204983,-1.6413715
20,1.5754868984222412,-0.016710352152585983,78.09196472167969,1.3767904284090315,-4.269468633803174,176.6422411925411,9.940812,3.0358393,17.505905,11.342088,-14.564203,3.3918839,10.35438,-6.8399577,-10.390496,7.773047,-13.355008,8.771557,-1.2899853,0.16552171,9.813377,1.2218804,10.234314,-35.903343,56.660168,-13.261464,2.294726,4.897406,0.7797129,-11.456558,30.374083,58.864494,10.494455,5.0144157,-1.6434407
21,1.5295963287353516,-0.022106153890490532,78.08659362792969,1.3700983231707384,-4.271406912674543,176.59414161482732,10.006973,3.0398057,17.545021,11.3133135,-14.5948515,3.3738456,10.380687,-6.830935,-10.34726,7.777601,-13.381008,8.759921,-1.2997736,0.17125109,9.806296,1.2112715,10.229497,-35.948334,56.6781,-13.241572,2.273432,4.918845,0.7814719,-11.453975,30.381691,58.862957,10.529463,5.007562,-1.6626195
22,1.4874417781829834,-0.0234842412173748,78.08180236816406,1.3622332385138203,-4.274473666096014,176.55060578334357,10.07254,3.0463548,17.578747,11.289373,-14.629463,3.3522193,10.414972,-6.8166165,-10.301185,7.7720804,-13.411603,8.755718,-1.3196398,0.17638604,9.800449,1.2033979,10.226225,-36.00384,56.695774,-13.213437,2.2465794,4.953889,0.77926016,-11.452593,30.407984,58.855476,10.589315,5.000902,-1.693852
23,1.4450820684432983,-0.02619202993810177,78.07685852050781,1.3556329466481558,-4.2772288210189275,176.50672069255265,10.142656,3.0500798,17.61455,11.258168,-14.66324,3.332005,10.450902,-6.803605,-10.252021,7.7647686,-13.445729,8.758165,-1.331824,0.1805363,9.78397,1.1957645,10.22025,-36.086094,56.721638,-13.195838,2.2212481,4.9995966,0.7865979,-11.450966,30.444149,58.847553,10.660182,4.9965825,-1.7299483
24,1.3968240022659302,-0.024896813556551933,78.07135009765625,1.3493929097294048,-4.276277035623739,176.460294191467,10.206376,3.0541534,17.656511,11.238245,-14.707265,3.317522,10.485806,-6.793276,-10.203026,7.7521353,-13.475854,8.7656,-1.3523138,0.18318325,9.779401,1.1907793,10.219407,-36.107174,56.727776,-13.142726,2.212454,5.022117,0.78551954,-11.450694,30.455368,58.835266,10.682023,5.001589,-1.7411197
25,1.3426508903503418,-0.029409723356366158,78.06502532958984,1.3485769345838416,-4.27501982192833,176.4074262330662,10.284305,3.0475814,17.711678,11.197004,-14.746886,3.3139093,10.517498,-6.79316,-10.150593,7.7474003,-13.5074215,8.78023,-1.352495,0.18167894,9.760179,1.1875948,10.215714,-36.15039,56.737106,-13.101845,2.224304,5.0483356,0.8033044,-11.449016,30.46403,58.82584,10.678144,5.0171514,-1.7364101
26,1.2879502773284912,-0.03526625409722328,78.05635070800781,1.3480382081739146,-4.270285543224067,176.353189438212,10.355749,3.041602,17.772215,11.167901,-14.797482,3.3169327,10.547253,-6.795131,-10.097542,7.740244,-13.537528,8.801156,-1.3556916,0.17890996,9.744116,1.1860554,10.214172,-36.157417,56.735134,-13.034396,2.2538807,5.063433,0.81813914,-11.447741,30.454315,58.815495,10.633073,5.04232,-1.70996
27,1.2361183166503906,-0.04358362779021263,78.04911804199219,1.3482745052285028,-4.264186692565975,176.29660493215533,10.429482,3.0335338,17.83576,11.134606,-14.8485985,3.3194354,10.578147,-6.7989755,-10.043112,7.72936,-13.568777,8.825582,-1.3558205,0.17638937,9.729131,1.1850219,10.212864,-36.15773,56.73073,-12.968416,2.2818103,5.070339,0.83292717,-11.445989,30.441383,58.804447,10.588098,5.068378,-1.6849827
28,1.1849627494812012,-0.04832540825009346,78.04228973388672,1.3467358306344195,-4.256349545790873,176.238353294178,10.501095,3.0275464,17.897516,11.103521,-14.901251,3.313782,10.610003,-6.80105,-9.988094,7.716101,-13.60497,8.850127,-1.3541216,0.17665239,9.71751,1.1818105,10.212114,-36.156845,56.730206,-12.917874,2.2899938,5.065159,0.8453331,-11.444416,30.432705,58.791866,10.570579,5.08734,-1.6796846
29,1.1334244012832642,-0.04770192876458168,78.03539276123047,1.3456260146493548,-4.249796543841007,176.17556105806912,10.584674,3.0186555,17.959139,11.05102,-14.941955,3.2972364,10.647158,-6.8032217,-9.930652,7.6972823,-13.643132,8.874418,-1.3418865,0.17757753,9.712017,1.1713742,10.211429,-36.15949,56.740868,-12.884155,2.2671947,5.03685,0.8559442,-11.441909,30.432173,58.781723,10.588074,5.09272,-1.7011342
30,1.076196551322937,-0.05642063915729523,78.0254898071289,1.3415899353513028,-4.2396181295807915,176.1120305634179,10.659814,3.014621,18.018438,11.009988,-14.98845,3.2737968,10.683403,-6.8027687,-9.874231,7.6752725,-13.683266,8.899606,-1.3280486,0.18393667,9.705974,1.1605958,10.211383,-36.163216,56.75288,-12.865065,2.2254586,4.9936624,0.86096364,-11.440118,30.4418,58.777893,10.629766,5.0892954,-1.7388124
31,1.015610694885254,-0.06623931974172592,78.01124572753906,1.3413307626038835,-4.2325410058712665,176.0436319984524,10.753354,3.0011058,18.082758,10.940376,-15.024323,3.2475019,10.72451,-6.8073225,-9.81262,7.652197,-13.731193,8.92757,-1.3170847,0.18342741,9.703208,1.1495038,10.211536,-36.16219,56.77164,-12.86172,2.1783757,4.952583,0.87201667,-11.435071,30.461325,58.76133,10.695533,5.0891037,-1.7919803
32,0.9569587111473083,-0.07690342515707016,77.99751281738281,1.3426437218940186,-4.224678122239406,175.97597779997477,10.845193,2.984064,18.148102,10.876231,-15.070212,3.221701,10.765868,-6.8150487,-9.749342,7.629193,-13.791397,8.958805,-1.317908,0.18255892,9.703901,1.1533788,10.211659,-36.143948,56.771217,-12.860758,2.148612,4.933127,0.892249,-11.430921,30.44864,58.718136,10.755016,5.1051025,-1.841951
33,0.8942945003509521,-0.08850682526826859,77.9856948852539,1.3481499202396836,-4.2190873545104335,175.90567164371092,10.9490185,2.957071,18.21983,10.79489,-15.115148,3.197448,10.81132,-6.8276496,-9.680368,7.6029983,-13.8639765,8.991611,-1.3063991,0.17473415,9.721025,1.1516874,10.211098,-36.105873,56.762356,-12.86956,2.144306,4.9351068,0.915515,-11.423824,30.40702,58.649246,10.804912,5.1470957,-1.8814291
34,0.835548996925354,-0.09803622961044312,77.97428131103516,1.3548658926949388,-4.213465473073837,175.83401858629253,11.055286,2.9262717,18.294704,10.711576,-15.165283,3.172523,10.856208,-6.8422036,-9.607644,7.5790753,-13.949283,9.025624,-1.287292,0.16635017,9.744138,1.1506399,10.209025,-36.063686,56.747314,-12.896928,2.1534996,4.9539895,0.944355,-11.417481,30.352747,58.56145,10.86233,5.2059054,-1.9205183
35,0.7761858701705933,-0.113626629114151,77.96142578125,1.364105514386798,-4.208658526047108,175.76254135017504,11.167037,2.8896108,18.369295,10.621964,-15.217949,3.1464355,10.909004,-6.861195,-9.535076,7.5456367,-14.040052,9.065188,-1.2908567,0.1571932,9.769177,1.1633954,10.205955,-36.006695,56.720154,-12.907959,2.1651957,4.983898,1.0013179,-11.410388,30.234436,58.428986,10.902962,5.2683554,-1.9646188
36,0.7138163447380066,-0.1317569613456726,77.94657897949219,1.3771438053329628,-4.206682805335722,175.69121872550664,11.290981,2.8444815,18.441114,10.518196,-15.269099,3.118446,10.9692335,-6.8887343,-9.463538,7.5122256,-14.140306,9.114851,-1.3043809,0.14578697,9.809075,1.1668401,10.201908,-35.94178,56.690697,-12.850867,2.1711624,5.0091743,1.127938,-11.39534,29.920082,58.20176,10.855141,5.323842,-2.0031161
37,0.646751880645752,-0.14799807965755463,77.93018341064453,1.3909809737705139,-4.210792731573155,175.6234462969925,11.423823,2.7968383,18.503084,10.414995,-15.322459,3.0868003,11.043981,-6.9206142,-9.396571,7.474809,-14.2476015,9.164772,-1.3118981,0.13639122,9.85582,1.1694739,10.196856,-35.889977,56.667404,-12.772782,2.1601222,5.0375986,1.3520526,-11.358151,29.3323,57.87107,10.710341,5.3643384,-2.0156412
38,0.5720067024230957,-0.1691720187664032,77.91180419921875,1.4064450286453887,-4.219616994480419,175.5574426431547,11.565705,2.745409,18.559196,10.308525,-15.377075,3.0520706,11.130371,-6.95728,-9.331826,7.432865,-14.362077,9.216529,-1.2944605,0.12290324,9.906236,1.1583202,10.1910305,-35.871414,56.661034,-12.683611,2.140021,5.075069,1.6436676,-11.280761,28.514206,57.476593,10.483347,5.395592,-2.0107813
39,0.4981488883495331,-0.18775902688503265,77.89530944824219,1.4267645260961768,-4.221817783113655,175.4913442456105,11.708546,2.6837134,18.618128,10.188774,-15.435421,3.016941,11.217922,-7.0028453,-9.268815,7.3776917,-14.47891,9.291115,-1.3149029,0.10490111,9.949731,1.1576114,10.191096,-35.864265,56.63119,-12.517682,2.1267004,5.1215763,1.9537672,-11.186377,27.654356,57.04017,10.235679,5.4267755,-2.0490746
40,0.4287603199481964,-0.20783977210521698,77.87901306152344,1.4549587432680324,-4.206385859029473,175.423468139741,11.84437,2.60519,18.688173,10.045923,-15.499436,2.9841712,11.2998905,-7.0608397,-9.207552,7.2935514,-14.590185,9.409259,-1.3177816,0.07784175,9.974543,1.1227005,10.2055435,-35.985794,56.58845,-12.241419,2.1362016,5.1878686,2.2780519,-11.061116,26.780775,56.577797,9.974078,5.464608,-2.1804714
41,0.3527803421020508,-0.23393116891384125,77.85887145996094,1.4929586904865904,-4.180318391428427,175.35419543325742,11.9921055,2.505779,18.77492,9.863487,-15.570702,2.9446223,11.392532,-7.1314883,-9.148052,7.167019,-14.688734,9.582941,-1.34906,0.0389468,9.989006,1.0891664,10.23506,-36.167576,56.507217,-11.793127,2.1886826,5.257403,2.6351285,-10.938422,25.928226,56.026337,9.603352,5.54811,-2.440671
42,0.28058284521102905,-0.2641379237174988,77.84209442138672,1.5378777873167915,-4.145506842409537,175.28450190769834,12.144538,2.3918734,18.872246,9.66028,-15.652322,2.8997285,11.432728,-7.2219,-9.083248,7.1374288,-14.848037,9.798667,-1.3797258,-0.00820346,9.997852,1.045706,10.282127,-36.42581,56.39832,-11.21956,2.271404,5.332621,3.039637,-10.806518,25.019499,55.38366,9.136903,5.6635776,-2.7898526
43,0.2078666090965271,-0.3014044463634491,77.83160400390625,1.5863236084752166,-4.083792490832735,175.21297257767577,12.26703,2.2669694,18.972254,9.450211,-15.73395,2.8684263,11.429048,-7.3241806,-9.018792,7.132648,-15.029717,10.039437,-1.448816,-0.043055948,9.993209,0.9944757,10.342599,-36.756382,56.23732,-10.589032,2.3510413,5.4331136,3.4244444,-10.692962,24.190832,54.73452,8.8406315,5.7451973,-3.1822715
44,0.1359776109457016,-0.34037694334983826,77.82332611083984,1.635996804204009,-3.9772572040070497,175.13819682550073,12.322092,2.1345677,19.067322,9.255008,-15.809256,2.8695576,11.3681965,-7.435368,-8.958194,7.1273313,-15.2198305,10.288452,-1.4745256,-0.06717984,9.965566,0.89126474,10.457546,-37.306744,56.01252,-10.014804,2.398847,5.589528,3.756422,-10.552921,23.420921,54.175743,8.922094,5.717136,-3.5647657
45,0.070291668176651,-0.3897131085395813,77.8178939819336,1.6933441997634393,-3.8296800235114974,175.06192437202066,12.317327,1.9830202,19.150871,9.067713,-15.887257,2.911752,11.255772,-7.565919,-8.904601,7.123499,-15.4290905,10.556872,-1.5579904,-0.080234796,9.914893,0.77158207,10.625829,-38.040855,55.638237,-9.364843,2.4724553,5.7767353,4.0140996,-10.423668,22.814892,53.706173,9.5284395,5.5481567,-3.9468277
46,0.015354743227362633,-0.4431254267692566,77.81387329101562,1.7579351056912391,-3.6477533792635612,174.984137275651,12.267825,1.8120582,19.229744,8.879108,-15.967319,2.982286,11.101742,-7.7125716,-8.855904,7.1180015,-15.652008,10.848782,-1.6672987,-0.08777086,9.850094,0.63620937,10.85181,-38.950397,55.132374,-8.648152,2.5697815,5.989463,4.2386446,-10.303555,22.301558,53.26929,10.502369,5.275601,-4.3412256
47,-0.026303140446543694,-0.5028012990951538,77.81856536865234,1.8147129288437391,-3.4191231936060213,174.90090719769765,12.152745,1.6444144,19.31558,8.700143,-16.025084,3.0705152,10.885399,-7.8534884,-8.805232,7.1124253,-15.871017,11.136688,-1.7696092,-0.079045765,9.773639,0.49940413,11.12633,-39.91493,54.59583,-8.0995245,2.5659027,6.2698083,4.394757,-10.1942005,21.917088,52.90539,11.700285,4.933035,-4.7240977
48,-0.061910126358270645,-0.5691535472869873,77.82608795166016,1.8477444910725513,-3.13194504883929,174.8087122690586,11.946977,1.50789,19.416475,8.551647,-16.041162,3.1690302,10.588507,-7.9662223,-8.747364,7.1071215,-16.068693,11.392589,-1.8397367,-0.040291302,9.686038,0.3759637,11.433178,-40.801437,54.139385,-7.947086,2.332678,6.6621604,4.442053,-10.100905,21.708376,52.662357,12.982767,4.5562577,-5.07472
49,-0.09347277879714966,-0.6407245397567749,77.84064483642578,1.8731363446453062,-2.758901271763283,174.70715523817137,11.617418,1.3868965,19.53327,8.4252205,-15.996655,3.2907383,10.175046,-8.067247,-8.673795,7.100324,-16.232727,11.617425,-1.8806801,0.017870735,9.565303,0.2527102,11.763855,-41.602737,53.80695,-8.239977,1.7715179,7.2060847,4.3938966,-10.025447,21.68587,52.54286,14.550483,4.0870695,-5.406932
50,-0.11180811375379562,-0.7105398178100586,77.86605834960938,1.913054276386663,-2.31544319024328,174.59336826418055,11.19247,1.2518567,19.662027,8.302678,-15.900505,3.4395773,9.665071,-8.1835785,-8.585295,7.094086,-16.375725,11.824479,-1.9031166,0.0752545,9.415395,0.12405753,12.117244,-42.373306,53.549553,-8.850835,0.9630989,7.8628664,4.2674346,-9.968371,21.834158,52.529655,16.400093,3.525655,-5.7171683
51,-0.12252966314554214,-0.7699843645095825,77.89561462402344,1.9510643260059408,-1.8494045280708615,174.46576329573077,10.640885,1.1557666,19.797424,8.4000635,-15.885882,3.5939403,9.12389,-8.29673,-8.49652,7.0891037,-16.516706,12.002505,-1.8996161,0.14258043,9.269054,0.019695532,12.486938,-43.07088,53.341003,-9.740574,0.04437337,8.558862,4.0296297,-9.937325,22.160568,52.640873,18.08703,3.0030217,-5.9707327
52,-0.12442813813686371,-0.8521747589111328,77.87964630126953,1.7962838077409564,-1.3778054628758687,174.37796758453473,9.155116,1.6180702,19.862507,10.594132,-16.94718,3.7114084,8.591711,-8.199314,-8.481193,7.079347,-16.66864,12.122139,-1.9226366,0.41052356,9.131159,-0.02670879,12.861747,-43.6486,53.1518,-10.87643,-0.84540904,9.224376,3.6454601,-9.94521,22.678974,52.89511,19.171562,2.6563525,-6.145797
53,-0.13017146289348602,-0.943291187286377,77.8505630493164,1.570275744912328,-0.9325397619668025,174.27210984183466,7.7086253,2.1624134,19.919853,12.7857685,-17.98786,3.807561,8.094316,-8.023251,-8.479485,7.0697265,-16.842861,12.187618,-1.9139465,0.7588515,9.032778,-0.0096538095,13.232818,-44.062855,53.00954,-12.588968,-1.7682457,9.863455,3.10089,-9.998613,23.454144,53.311966,19.457628,2.5474293,-6.297874
54,-0.14834721386432648,-1.0442219972610474,77.81199645996094,1.2934618698964295,-0.49453402981094147,174.14991892357043,6.2374864,2.7797635,19.965736,15.059477,-19.04526,3.8975089,7.6057525,-7.7949905,-8.484174,7.0643277,-17.03161,12.206905,-1.8827691,1.1726577,8.957436,0.05789126,13.597149,-44.342045,52.924652,-14.780838,-2.7799408,10.486928,2.424001,-10.095967,24.471476,53.875683,19.213118,2.6014328,-6.4248805
55,-0.17986124753952026,-1.1500974893569946,77.75171661376953,0.9632885537612638,-0.12716896430357255,174.00137336017468,4.8391047,3.47095,20.010853,17.38593,-20.13092,3.9820828,7.117506,-7.529764,-8.484442,7.2453437,-17.326267,12.194275,-1.8285359,1.6616099,8.961653,0.16967782,13.950928,-44.550888,52.846153,-16.781815,-3.7171373,11.061706,1.6428369,-10.233671,25.617556,54.54112,18.694054,2.751385,-6.4218297
56,-0.214076966047287,-1.2580894231796265,77.67679595947266,0.6162132491640938,0.1403950649671941,173.79495320001308,3.6589777,4.1549535,20.102383,19.549025,-21.159655,4.07621,6.7666035,-7.2538023,-8.4704685,7.3802614,-17.592041,12.169894,-1.7208389,2.19046,9.065087,0.31243706,14.294224,-44.759632,52.72971,-17.923384,-4.4013844,11.583163,0.7859257,-10.40565,26.771955,55.257454,18.154243,2.9280138,-6.1855574
57,-0.25908514857292175,-1.376564383506775,77.59056091308594,0.23379596505431258,0.28821996916269504,173.52118212842944,2.733477,4.8590274,20.256475,21.533491,-22.14583,4.17155,6.566867,-6.9452195,-8.45527,7.4840155,-17.831966,12.09729,-1.5416398,2.7830763,9.288849,0.47603536,14.6254835,-44.980312,52.581722,-17.924875,-4.7562943,12.124265,-0.17043681,-10.609519,27.926802,56.058075,17.571674,3.134364,-5.6198573
58,-0.33081185817718506,-1.5015263557434082,77.49188995361328,-0.1876940893293053,0.34624650616281727,173.19604488204735,1.9856396,5.600888,20.453812,23.414322,-23.10752,4.2670445,6.4761133,-6.598967,-8.439617,7.572056,-18.059591,11.981279,-1.3046271,3.443158,9.603388,0.6615712,14.942486,-45.184185,52.425747,-17.183697,-4.8684387,12.682798,-1.2293415,-10.841574,29.135609,56.94833,16.837013,3.3926084,-4.7982535
59,-0.41518890857696533,-1.6351256370544434,77.3818359375,-0.6072784497890563,0.3437917148433482,172.83768635197396,1.3575125,6.328439,20.67561,25.223928,-24.024343,4.381127,6.4587398,-6.263726,-8.396154,7.647455,-18.275753,11.906024,-1.0367904,4.122743,9.9711685,0.8712632,15.246248,-45.379646,52.239864,-16.04924,-4.801545,13.150548,-2.3430514,-11.093522,30.363434,57.83879,16.070986,3.6639736,-3.8761978
60,-0.5121652483940125,-1.7704429626464844,77.26388549804688,-0.9846607781432049,0.30952689673453276,172.4639027521548,0.7917189,6.9896173,20.902428,26.995596,-24.8773,4.533753,6.4772997,-5.9894104,-8.299172,7.7206817,-18.485529,11.955517,-0.7590479,4.7712936,10.357133,1.1055214,15.54037,-45.58099,52.00252,-14.87028,-4.629848,13.418056,-3.4662023,-11.356627,31.565905,58.64191,15.394204,3.9164107,-3.0118203
61,-0.6310598254203796,-1.9130874872207642,77.13998413085938,-1.3195051104760034,0.22807884544411103,172.0608266352998,0.30551356,7.588665,21.139551,28.746748,-25.676897,4.735182,6.411628,-5.7948422,-8.116117,8.078244,-18.840984,12.1653385,-0.46130776,5.388115,10.775502,1.3530113,15.830269,-45.794388,51.693207,-13.501795,-4.2834063,13.419782,-4.624865,-11.629937,32.741257,59.372387,14.845646,4.1839905,-2.1496584
62,-0.7455378770828247,-2.06412410736084,77.00907135009766,-1.6293539508885877,0.0917918835814637,171.62621018239747,-0.081956096,8.152136,21.394598,30.45981,-26.434238,4.9766088,6.4272413,-5.6354494,-7.8843694,8.38599,-19.165726,12.487624,-0.135359,5.9961042,11.237604,1.6160779,16.118113,-46.015945,51.324295,-11.837667,-3.7616365,13.213806,-5.836576,-11.91185,33.90238,60.059475,14.356549,4.470902,-1.2390981
63,-0.8844597339630127,-2.232196092605591,76.88162994384766,-1.9018546064948696,-0.05701555325311018,171.1944428909151,-0.43465272,8.665285,21.649729,32.138264,-27.135628,5.2483764,6.448369,-5.5301304,-7.634702,8.721824,-19.497952,12.878481,0.1983777,6.576085,11.704482,1.9139813,16.402153,-46.24462,50.92816,-10.28218,-3.2463593,12.891565,-7.053483,-12.194554,35.022785,60.6525,13.88843,4.7061877,-0.44957963
64,-1.0289862155914307,-2.4143917560577393,76.75155639648438,-2.1243427140780247,-0.17587647797680325,170.79915793075062,-0.81133944,9.106817,21.889288,33.77327,-27.76573,5.5401683,6.3862443,-5.501051,-7.3959966,9.191316,-19.893929,13.294398,0.5217036,7.1059246,12.137189,2.2615855,16.67794,-46.48043,50.543213,-9.242086,-2.9107196,12.559758,-8.227595,-12.467061,36.072098,61.1061,13.404267,4.819643,0.047606334
65,-1.1928688287734985,-2.5789809226989746,76.6165771484375,-2.280365518320319,-0.2575947330949026,170.43161992362516,-1.2079452,9.448286,22.12468,35.350323,-28.311104,5.8585305,6.224809,-5.5770636,-7.167582,9.812388,-20.377476,13.769588,0.84448224,7.5681806,12.5273285,2.6628141,16.941479,-46.727634,50.177406,-8.882984,-2.818906,12.225404,-9.373227,-12.725897,37.072258,61.45174,12.855099,4.7864637,0.1795908
66,-1.3776456117630005,-2.7712535858154297,76.48567199707031,-2.381485298337198,-0.32204122526261697,170.079314425556,-1.5983453,9.706977,22.361845,36.878082,-28.784079,6.2064514,6.008828,-5.739017,-6.9381084,10.529953,-20.91424,14.312037,1.173094,7.9753346,12.894414,3.1034586,17.19139,-46.985916,49.821648,-8.968714,-2.8679383,11.846736,-10.518474,-12.971534,38.021297,61.711895,12.2734585,4.6510897,0.041218482
67,-1.5556013584136963,-2.970095157623291,76.3548583984375,-2.458953305230983,-0.36818924759814586,169.77017060896975,-2.014116,9.932203,22.575676,38.397125,-29.212444,6.5665755,5.737465,-5.9367003,-6.7187696,11.348853,-21.470886,14.837865,1.4857318,8.348957,13.241295,3.5703845,17.427145,-47.25058,49.49196,-9.307721,-2.973532,11.463094,-11.636161,-13.199065,38.855373,61.836952,11.746532,4.4464126,-0.28709197
68,-1.7325427532196045,-3.1651628017425537,76.22023010253906,-2.5525561030077073,-0.39308681497476206,169.5273865065554,-2.4935684,10.1891775,22.74074,39.95598,-29.625902,6.9163904,5.413069,-6.0636153,-6.4619355,12.250413,-22.004982,15.000033,1.7645477,8.714901,13.566466,4.0529976,17.64932,-47.51647,49.20378,-9.707604,-3.0541215,11.114376,-12.700151,-13.402467,39.511627,61.7864,11.359285,4.201966,-0.7233653
69,-1.9101638793945312,-3.360173225402832,76.08346557617188,-2.678929041212356,-0.39104864770224906,169.3562738894542,-3.0539079,10.4859705,22.828953,41.573715,-30.023355,7.240999,5.0284405,-6.126885,-6.200584,13.239621,-22.499926,15.000033,2.0070038,9.093232,13.86044,4.5628004,17.856243,-47.773914,48.96296,-10.243633,-3.1375515,10.807213,-13.707915,-13.583107,39.98157,61.566372,11.185516,3.90021,-1.348987
70,-2.110471725463867,-3.5395350456237793,75.94683837890625,-2.7841532414771275,-0.3688081256898052,169.25481070142249,-3.6560698,10.741333,22.86426,43.1883,-30.37541,7.566081,4.565742,-6.228634,-5.9698863,14.384786,-23.012856,15.000033,2.2110302,9.433225,14.130743,5.1011963,18.047018,-48.0286,48.76453,-10.977422,-3.2487493,10.520517,-14.673431,-13.744992,40.294067,61.206203,11.156265,3.531431,-2.173028
71,-2.3200490474700928,-3.7243385314941406,75.79875946044922,-2.8731764956093486,-0.33018669292199376,169.2053566223162,-4.2947154,10.994308,22.898912,44.80707,-30.710186,7.9087276,4.0712295,-6.3558764,-5.769207,15.594543,-23.523216,15.000033,2.3920598,9.730033,14.38553,5.646871,18.226309,-48.29735,48.602028,-11.694272,-3.3054404,10.256011,-15.590541,-13.882102,40.44703,60.69749,11.151087,3.1353621,-3.0044844
72,-2.5511045455932617,-3.904475688934326,75.6466064453125,-2.953937752625305,-0.2799446522279802,169.19119506917264,-4.9631057,11.286693,22.982803,46.435154,-31.053934,8.283925,3.5881526,-6.4922295,-5.5999618,16.787302,-24.014473,15.000033,2.5646932,9.980964,14.632481,6.181444,18.403038,-48.59592,48.4657,-12.178771,-3.2272625,10.018068,-16.45666,-13.981991,40.43603,60.038597,11.048768,2.7543333,-3.6540391
73,-2.7726809978485107,-4.083708763122559,75.48049926757812,-3.0153738781839734,-0.2095748801745856,169.20741295784444,-5.6782084,11.603796,23.11941,48.087074,-31.416904,8.722484,3.084043,-6.646307,-5.4467196,18.004034,-24.494879,15.000033,2.727301,10.166235,14.866847,6.7101254,18.584553,-48.938152,48.349876,-12.378022,-2.9655464,9.84495,-17.277832,-14.034165,40.22388,59.22458,10.85881,2.3786411,-4.079429
74,-3.008160352706909,-4.242541790008545,75.31761932373047,-3.056527095735213,-0.11962569864482522,169.26271081268922,-6.435838,11.928783,23.287466,49.752598,-31.781694,9.205056,2.5517576,-6.822752,-5.3139434,19.264925,-24.967892,15.000033,2.872124,10.289402,15.085783,7.2499933,18.774406,-49.30762,48.25084,-12.405926,-2.5738301,9.723013,-18.05903,-14.037447,39.825825,58.277252,10.630811,1.9909657,-4.3802915
75,-3.246128559112549,-4.395476341247559,75.14137268066406,-3.105060291942382,-0.028835364611330627,169.36216619341585,-7.201449,12.305298,23.494658,51.407124,-32.13451,9.669787,2.0645642,-6.996218,-5.234349,20.479023,-25.42254,15.000033,3.0000906,10.386686,15.3014,7.8025107,18.976446,-49.66955,48.15729,-12.296347,-2.1255295,9.578589,-18.804083,-13.9942465,39.325176,57.237297,10.313262,1.6244301,-4.5813885
76,-3.461876392364502,-4.560309410095215,74.95470428466797,-3.1903831540445484,0.04366477001770242,169.51088984218356,-7.937627,12.781812,23.751661,53.025974,-32.459446,10.049451,1.7081673,-7.138044,-5.2433724,21.531233,-25.835485,15.000033,3.109946,10.496743,15.52713,8.368184,19.194403,-49.98862,48.056526,-12.082376,-1.6939154,9.337357,-19.513575,-13.906561,38.80406,56.13648,9.853104,1.3133562,-4.7076273
77,-3.7068684101104736,-4.712412357330322,74.77271270751953,-3.3275644823393566,0.09129170137865104,169.7183196381114,-8.633293,13.376793,24.0533,54.6152,-32.74952,10.317069,1.5020907,-7.230402,-5.358974,22.408478,-26.207195,15.000033,3.1858819,10.634344,15.766038,8.95969,19.431307,-50.25777,47.93542,-11.729467,-1.2600806,8.970302,-20.195177,-13.774591,38.279697,54.964424,9.187902,1.0815895,-4.7352333
78,-3.991248369216919,-4.869774341583252,74.59026336669922,-3.5003148138718636,0.1246221271333214,169.97925395636585,-9.305783,14.06419,24.397823,56.18383,-33.010246,10.505079,1.4078275,-7.2871385,-5.561498,23.15496,-26.54273,15.000033,3.2282734,10.778711,16.012827,9.580317,19.6888,-50.48764,47.794167,-11.231134,-0.80011517,8.516652,-20.848446,-13.597222,37.71463,53.708958,8.364747,0.9041044,-4.6616635
79,-4.282057762145996,-5.0239691734313965,74.40306091308594,-3.6911963241175885,0.15178633515050868,170.2774936294409,-9.965875,14.820784,24.7916,57.71583,-33.248302,10.64638,1.3862745,-7.329661,-5.823886,23.820913,-26.862211,15.000033,3.2598162,10.914572,16.267391,10.213045,19.967571,-50.672165,47.642727,-10.666194,-0.37961364,8.006249,-21.472055,-13.376821,37.11384,52.40802,7.4960203,0.742637,-4.5434866
80,-4.561136245727539,-5.165228843688965,74.22308349609375,-3.881719632427705,0.18063779358481796,170.5967490038382,-10.624035,15.623197,25.241076,59.193962,-33.47558,10.776609,1.3976791,-7.382079,-6.118862,24.45733,-27.186195,15.000033,3.3029118,11.027041,16.530386,10.840922,20.267216,-50.80464,47.49088,-10.112494,-0.06244974,7.470815,-22.059792,-13.1161175,36.479916,51.09321,6.6902647,0.5610749,-4.437196
81,-4.847522258758545,-5.317249298095703,74.04198455810547,-4.070894034481334,0.2087005808644208,170.93324045778047,-11.264716,16.48726,25.775703,60.61074,-33.681465,10.88668,1.4325114,-7.44999,-6.4434986,25.08548,-27.519293,15.000033,3.3651223,11.116678,16.807423,11.465558,20.584305,-50.847885,47.340034,-9.51977,0.17498209,6.8213916,-22.615318,-12.814418,35.801285,49.76303,5.9590735,0.34292495,-4.34211
82,-5.146353244781494,-5.474874973297119,73.86058807373047,-4.26730081573065,0.23366726653380995,171.2955627273866,-11.88524,17.419325,26.383049,61.978634,-33.865376,10.964144,1.5091511,-7.518706,-6.810933,25.68008,-27.853313,15.000033,3.4328687,11.191419,17.096443,12.0948105,20.917608,-50.816162,47.184906,-8.869833,0.34984872,6.0738955,-23.146133,-12.471269,35.08281,48.40602,5.252231,0.10949412,-4.2333946
83,-5.467112064361572,-5.6427435874938965,73.68524932861328,-4.468238388408135,0.26301484111522266,171.6859031972662,-12.517587,18.384798,27.005829,63.310448,-34.04856,11.038561,1.6416382,-7.582185,-7.2190356,26.199724,-28.176472,15.000033,3.4999316,11.248947,17.38746,12.717309,21.27161,-50.78475,47.025757,-8.295411,0.39506945,5.4213495,-23.6466,-12.090794,34.34909,47.031246,4.5850606,-0.11606034,-4.1309094
84,-5.795327663421631,-5.8078131675720215,73.50996398925781,-4.670441978678611,0.3044066429456416,172.10615516769332,-13.196604,19.350077,27.587515,64.61948,-34.252922,11.137159,1.8426733,-7.636817,-7.664318,26.606207,-28.47875,15.000033,3.5622883,11.28631,17.670992,13.321477,21.654682,-50.830353,46.86045,-7.931824,0.25039825,5.058155,-24.108414,-11.681763,33.624817,45.642765,3.9746077,-0.3098342,-4.0534973
85,-6.12339973449707,-5.970287799835205,73.33604431152344,-4.882605532741825,0.35537682346532806,172.55777062617753,-13.936665,20.322037,28.097765,65.91657,-34.492977,11.27506,2.1302016,-7.672143,-8.153096,26.871973,-28.760126,15.000033,3.625076,11.311275,17.952625,13.906155,22.071089,-50.967297,46.720856,-7.791958,-0.14227436,5.012029,-24.515574,-11.246804,32.892628,44.20762,3.4122307,-0.4634136,-3.998809
86,-6.468827247619629,-6.128362655639648,73.16321563720703,-5.103728595343041,0.4137559713689819,173.0394188055916,-14.720524,21.31484,28.56962,67.193565,-34.75419,11.433159,2.492031,-7.6933727,-8.683334,27.02403,-29.025059,15.000033,3.6926408,11.324103,18.235645,14.476556,22.521976,-51.160786,46.59174,-7.811728,-0.7323463,5.187386,-24.876112,-10.787969,32.145664,42.726437,2.8963523,-0.58875924,-3.9575148
87,-6.834557056427002,-6.307537078857422,72.99530792236328,-5.316093288672101,0.4881867210306499,173.54877610679364,-15.541702,22.301962,29.035934,68.431496,-35.01121,11.593399,2.887,-7.7230344,-9.238334,27.124096,-29.280293,15.000033,3.7609286,11.31175,18.509544,15.029684,23.0129,-51.414585,46.395493,-8.008532,-1.4157494,5.5912986,-25.202566,-10.314191,31.419422,41.23475,2.4489925,-0.69089764,-3.9371552
88,-7.202519416809082,-6.473351955413818,72.82400512695312,-5.501490053374799,0.5867442983104723,174.0836286493864,-16.391214,23.25825,29.53236,69.61189,-35.239918,11.737687,3.2772045,-7.7835927,-9.802341,27.228632,-29.530352,15.000033,3.8254802,11.260451,18.764883,15.564915,23.552443,-51.73151,46.05008,-8.399705,-2.0908158,6.2300973,-25.512857,-9.842518,30.757061,39.769493,2.102818,-0.77494156,-3.9448357
89,-7.594790935516357,-6.626161098480225,72.65725708007812,-5.653115954717779,0.7107019580167889,174.64836106238312,-17.27298,24.18237,30.075083,70.73395,-35.43846,11.856728,3.6457806,-7.885326,-10.370465,27.369637,-29.785053,15.000033,3.8885903,11.163322,19.003332,16.06537,24.145548,-52.127037,45.583656,-8.910123,-2.7225735,7.0635414,-25.802603,-9.387992,30.18952,38.287052,1.8933207,-0.8128216,-4.005951
90,-7.982972145080566,-6.815692901611328,72.4872817993164,-5.780834501918817,0.855850200047106,175.24258844762448,-18.191301,25.087236,30.64198,71.806305,-35.61813,11.963123,4.015858,-8.015219,-10.9515915,27.512232,-30.03929,15.000033,3.9563262,11.03135,19.231916,16.537464,24.7941,-52.597996,45.01318,-9.550416,-3.3761623,8.096257,-26.051495,-8.955595,29.68749,36.76153,1.7993029,-0.8094507,-4.1067142
91,-8.384302139282227,-7.0185370445251465,72.31779479980469,-5.891514929995674,1.0203640440929729,175.85657836815756,-19.137999,25.973413,31.214916,72.83227,-35.779854,12.0713215,4.4095173,-8.160297,-11.5515175,27.612741,-30.275543,15.000033,4.0321364,10.8791895,19.450672,17.018145,25.504528,-53.12034,44.233906,-10.465533,-4.109424,9.400228,-26.243324,-8.542845,29.19583,35.247444,1.7610848,-0.8195003,-4.1960077
92,-8.808869361877441,-7.227287292480469,72.14618682861328,-5.992196116144891,1.2039835228899074,176.48133250805014,-20.114264,26.83537,31.765692,73.816,-35.922836,12.201017,4.843296,-8.308049,-12.176321,27.636621,-30.48116,15.000033,4.1169343,10.718676,19.65935,17.549284,26.287912,-53.66586,43.134674,-11.798203,-4.9935064,11.043299,-26.375748,-8.143069,28.663034,33.81274,1.7205476,-0.89851934,-4.223823
93,-9.253111839294434,-7.4385576248168945,71.97222137451172,-6.075481547596796,1.4062720298990645,177.11450742292067,-21.133049,27.671938,32.29292,74.77542,-36.04156,12.360182,5.2950554,-8.478946,-12.828563,27.632402,-30.6753,15.000033,4.2132688,10.545275,19.862965,18.128954,27.16128,-54.310432,41.677296,-13.741462,-6.2040515,13.198399,-26.442715,-7.7381063,28.03578,32.461403,1.6636635,-1.0782295,-4.1464915
94,-9.708518028259277,-7.644595146179199,71.79711151123047,-6.139842340362834,1.627086056982059,177.7610336067089,-22.193308,28.485392,32.80795,75.70292,-36.138287,12.539664,5.764332,-8.671379,-13.504919,27.60149,-30.857649,15.000033,4.321445,10.350711,20.058912,18.754147,28.133986,-55.03881,39.90031,-16.137535,-7.723395,15.743766,-26.465002,-7.3232036,27.350327,31.18026,1.6198623,-1.3248235,-4.002243
95,-10.18298625946045,-7.870845317840576,71.62681579589844,-6.202187451820239,1.8665174179034782,178.42199087465303,-23.268229,29.278366,33.309902,76.56221,-36.22484,12.728683,6.3019576,-8.838153,-14.200511,27.432325,-30.98327,15.000033,4.43586,10.144705,20.238386,19.465353,29.20249,-55.680798,37.805225,-18.620226,-9.305369,18.321749,-26.46272,-6.914732,26.691267,29.99289,1.5907301,-1.5941079,-3.8635936
96,-10.678756713867188,-8.089370727539062,71.45964813232422,-6.278575548913312,2.125506558687201,179.098105859227,-24.330835,30.052616,33.798805,77.31738,-36.31339,12.916247,6.9576416,-8.930718,-14.908888,27.011547,-31.004835,15.000033,4.5462737,9.938342,20.395191,20.30424,30.35505,-56.05466,35.394176,-20.854988,-10.644732,20.612972,-26.449652,-6.5427675,26.154146,28.913824,1.5838232,-1.8419476,-3.8023913
97,-11.198390007019043,-8.30130386352539,71.30204772949219,-6.371975607713706,2.3993610062974433,179.79580075346,-25.385735,30.820724,34.277325,77.96996,-36.41302,13.106052,7.764784,-8.927569,-15.638318,26.282564,-30.934536,15.000033,4.641615,9.73984,20.544975,21.290617,31.590883,-56.084877,32.588993,-22.848337,-11.61004,22.688753,-26.42139,-6.225575,25.772566,27.90977,1.6187103,-2.0603352,-3.8546972
98,-11.755216598510742,-8.553619384765625,71.14944458007812,-6.472035457037042,2.6909582356052315,-179.48865347395662,-26.446392,31.573814,34.74628,78.53598,-36.515285,13.302718,8.6877,-8.8526945,-16.384144,25.30932,-30.785181,15.000033,4.7278395,9.543871,20.689997,22.41682,32.914284,-55.856182,29.396307,-24.770123,-12.359083,24.692324,-26.353642,-5.961423,25.502474,26.958914,1.6886054,-2.2715204,-3.9761748
99,-12.326281547546387,-8.8043212890625,71.00847625732422,-6.573304664130577,3.0121166492979223,-178.77043131132172,-27.487844,32.28384,35.217438,78.99297,-36.605854,13.493452,9.687252,-8.722969,-17.123377,24.129597,-30.496181,15.000033,4.8232803,9.340397,20.802387,23.673967,34.31294,-55.429348,25.957048,-26.562689,-12.970195,26.43742,-26.229504,-5.756691,25.322735,26.088324,1.7718441,-2.4712865,-4.1163483
100,-12.924383163452148,-9.071322441101074,70.8792953491211,-6.671553372275453,3.375397406922238,-178.06357377336062,-28.500525,32.918777,35.68586,79.327995,-36.6683,13.66851,10.706131,-8.561312,-17.831675,22.819777,-30.030537,15.000033,4.9502783,9.122557,20.85403,25.037205,35.75959,-54.87251,22.433884,-28.16434,-13.509513,27.729362,-26.01837,-5.6196914,25.20584,25.313948,1.8388431,-2.656149,-4.2248473
101,-13.56020450592041,-9.358107566833496,70.7588882446289,-6.76858939133955,3.7854971961596156,-177.3625767321448,-29.469025,33.505726,36.208073,79.52673,-36.72432,13.861813,11.778884,-8.351455,-18.531807,21.300234,-29.364313,15.000033,5.107675,8.896853,20.836311,26.51707,37.234,-54.179012,18.824747,-29.654303,-13.942619,28.471151,-25.726477,-5.5640364,25.153486,24.618113,1.9155674,-2.8094296,-4.29144
102,-14.22260856628418,-9.668235778808594,70.65487670898438,-6.858893758671937,4.238511182873148,-176.66626959914717,-30.402756,34.042564,36.776268,79.59904,-36.772987,14.066431,12.91101,-8.092735,-19.221716,19.568548,-28.523117,15.000033,5.2965646,8.662152,20.762447,28.121273,38.725147,-53.31324,15.078026,-31.05132,-14.216613,28.793406,-25.349714,-5.5957856,25.170994,23.982489,2.0067894,-2.937548,-4.340369
103,-14.917072296142578,-9.996164321899414,70.56041717529297,-6.929041114887654,4.730545767812123,-175.99377520665635,-31.315763,34.46313,37.30169,79.560585,-36.76552,14.207038,14.042787,-7.825506,-19.85069,17.73994,-27.506466,15.000033,5.540579,8.400592,20.635675,29.798246,40.211834,-52.31318,11.3064,-32.200916,-14.368931,28.838997,-24.85842,-5.7110286,25.237034,23.438692,2.0618982,-3.0720162,-4.37339
104,-15.63387393951416,-10.35069465637207,70.48343658447266,-6.969864328786884,5.255305738071633,-175.36153226340616,-32.22749,34.705704,37.685364,79.4286,-36.65124,14.208314,15.110879,-7.593015,-20.370848,15.947083,-26.324333,15.000033,5.865967,8.100956,20.457327,31.506096,41.66153,-51.218456,7.6325207,-32.920883,-14.449464,28.749975,-24.216885,-5.899974,25.320936,23.019718,2.0228634,-3.2445617,-4.392265
105,-16.37322998046875,-10.724655151367188,70.41620635986328,-6.985219530186022,5.814300165728349,-174.78330389889808,-33.16497,34.772106,37.89929,79.18574,-36.413696,14.023218,16.106295,-7.39816,-20.761189,14.18954,-24.971624,15.000033,6.2818327,7.766002,20.222076,33.140717,43.053226,-50.110153,4.1584816,-33.173206,-14.448443,28.498678,-23.43562,-6.15863,25.42655,22.744299,1.8308454,-3.4665256,-4.4129558
106,-17.140899658203125,-11.151864051818848,70.36007690429688,-6.978142280931314,6.4092294838148725,-174.24667994843043,-34.113144,34.690567,37.994938,78.829,-36.08039,13.699603,17.069496,-7.226828,-21.053633,12.392122,-23.4395,15.000033,6.7892857,7.402881,19.923534,34.89974,44.362015,-48.88472,0.7534314,-32.92068,-14.353505,28.037094,-22.516077,-6.493225,25.541533,22.591906,1.5272149,-3.7205882,-4.4290156
107,-17.9492244720459,-11.617433547973633,70.31364440917969,-6.948599798729868,7.031292256348269,-173.7237419936899,-35.033443,34.44576,37.98037,78.40021,-35.667774,13.304218,17.99731,-7.095064,-21.28553,10.620357,-21.748892,15.000033,7.344181,7.013554,19.582762,36.560303,45.568207,-47.599815,-2.4710145,-32.461617,-14.227201,27.46721,-21.449953,-6.894274,25.662497,22.563814,1.2090563,-3.9962027,-4.4148407
108,-18.78064727783203,-12.10213565826416,70.28099060058594,-6.898035875061258,7.670547343860816,-173.18499055895708,-35.88635,34.022755,37.86238,77.94185,-35.191944,12.902654,18.895569,-7.011822,-21.496561,8.92215,-19.912758,15.000033,7.934094,6.605222,19.208803,38.236904,46.630585,-46.17234,-5.5736833,-31.823195,-14.128672,26.899462,-20.206837,-7.3524747,25.75446,22.654661,0.9696391,-4.283773,-4.340422
109,-19.642562866210938,-12.630256652832031,70.2577896118164,-6.823283529070297,8.330709300958926,-172.63740673909797,-36.73387,33.371742,37.53497,77.42095,-34.55435,12.369675,19.703972,-6.999536,-21.655794,7.4176736,-17.993782,15.000033,8.562757,6.1644,18.791916,39.975304,47.51092,-44.577812,-8.535812,-30.861822,-14.0673485,26.330477,-18.765757,-7.863105,25.821848,22.877003,0.76416874,-4.6262374,-4.1999545
110,-20.541685104370117,-13.202071189880371,70.24510192871094,-6.733295197621554,9.012202022663848,-172.08654565578863,-37.571014,32.517635,37.02395,76.83142,-33.785698,11.713853,19.951893,-7.23708,-21.697025,7.1587667,-16.553513,15.000033,9.204783,5.7031717,18.338284,41.524796,48.195843,-42.95007,-11.211336,-29.70532,-14.029343,25.713987,-17.16274,-8.41864,25.89389,23.2476,0.5657486,-5.0150166,-4.011531
111,-21.487178802490234,-13.82575511932373,70.23666381835938,-6.645710079449482,9.696390051387759,-171.49586202981126,-38.26067,31.558681,36.5302,76.261116,-33.090984,11.20439,20.220129,-7.491049,-21.77146,6.912766,-14.934988,15.000033,9.877413,5.2709603,17.854156,43.2439,48.632843,-41.23232,-13.837106,-28.273314,-14.031165,25.108898,-15.398432,-9.0136795,25.90876,23.7455,0.48811913,-5.363747,-3.7751887
112,-22.450851440429688,-14.478647232055664,70.23384094238281,-6.577174718448239,10.364051340993049,-170.82988768606998,-38.674053,30.60063,36.25207,75.79966,-32.66488,11.114969,20.525686,-7.7477903,-21.953691,6.714301,-13.150612,15.000033,10.426119,4.910417,17.395931,44.208176,48.844017,-39.752792,-15.940728,-27.442638,-14.074312,24.552383,-13.610812,-9.615918,25.969976,24.430763,0.65265197,-5.5831137,-3.4981384
113,-23.45336151123047,-15.16843032836914,70.23394775390625,-6.490681779505276,11.041544845696258,-170.08724036126935,-38.78751,29.647968,36.320995,75.53091,-32.508923,11.69863,20.86579,-8.053192,-22.269371,6.541878,-11.179132,15.000033,10.957981,4.5868535,16.893942,45.159565,48.771965,-38.329628,-17.901295,-26.76042,-14.182817,24.089746,-11.706368,-10.223572,25.99027,25.28678,1.116676,-5.642743,-3.1618757
114,-24.484636306762695,-15.92715835571289,70.23065185546875,-6.387383711506486,11.722353413913558,-169.27660288043415,-38.670723,28.650373,36.5941,75.388214,-32.53325,12.752374,21.233994,-8.398265,-22.679358,6.399028,-9.026438,15.000033,11.422165,4.294629,16.362375,45.865124,48.400955,-37.01766,-19.560652,-26.242756,-14.337557,23.68275,-9.724162,-10.825967,26.028894,26.349869,1.8079926,-5.588551,-2.7736855
115,-25.538366317749023,-16.745304107666016,70.23304748535156,-6.329210684134634,12.340372358886542,-168.38113096319375,-38.33204,27.616302,36.863163,75.231766,-32.791298,13.868262,21.662415,-8.687469,-23.158096,6.310235,-6.7241583,15.000033,11.769185,4.1287627,15.877754,46.23637,47.721054,-35.8646,-20.923931,-25.743542,-14.493013,23.301422,-7.7654543,-11.409321,26.090874,27.649063,2.6265435,-5.4486017,-2.3604655
116,-26.590240478515625,-17.600269317626953,70.23357391357422,-6.372187623649479,12.834806286708162,-167.39185049298678,-37.77061,26.551672,36.932663,74.91782,-33.33153,14.636863,22.172508,-8.8449,-23.668814,6.3136997,-4.3120484,15.000033,11.956431,4.173886,15.512792,46.20688,46.730217,-34.895435,-22.006243,-25.118225,-14.606226,22.914167,-5.933309,-11.957879,26.181753,29.21883,3.471444,-5.254565,-1.9478577
117,-27.650388717651367,-18.4915771484375,70.22534942626953,-6.5338274444827515,13.220308595632348,-166.32901348399807,-36.90095,25.463158,36.85229,74.3803,-34.28238,14.943224,21.889011,-9.309665,-24.132519,8.4507885,-2.8970306,15.000033,11.990994,4.443303,15.23019,45.83798,45.41557,-34.081432,-22.79408,-24.361128,-14.652105,22.566032,-4.2363753,-12.463919,26.291702,31.113771,4.4336324,-4.9424443,-1.4546783
118,-28.71640968322754,-19.430973052978516,70.22074890136719,-6.737082351086816,13.536131132372985,-165.23238652947,-35.72021,24.33042,36.76045,73.68396,-35.57616,15.000033,21.245834,-9.997491,-24.546854,11.641988,-1.9011717,15.000033,11.909699,4.8317156,14.998581,45.187225,43.772034,-33.375492,-23.283909,-23.532043,-14.654362,22.248241,-2.6573207,-12.922275,26.447819,33.331497,5.5227566,-4.513066,-0.9013668
119,-29.782873153686523,-20.398052215576172,70.21429443359375,-6.848231396358087,13.802110215261967,-164.11274416382435,-34.371685,23.063969,36.647022,72.84475,-36.940094,14.939267,20.229195,-10.940449,-24.668737,15.682189,-1.1730434,15.000033,11.704435,5.180426,14.869029,44.21718,41.827652,-32.73067,-23.528446,-22.585735,-14.647188,21.848398,-1.2574933,-13.32538,26.710619,35.815968,6.5158987,-4.0985622,-0.46016467
120,-30.82723617553711,-21.376798629760742,70.19273376464844,-6.752741905531066,14.019793858471111,-162.99698285790447,-32.98935,21.596384,36.489708,71.89293,-38.1103,14.8534,18.698338,-12.168189,-24.187986,20.626637,-0.6930701,15.000033,11.392837,5.343966,14.902662,42.893158,39.636093,-32.079735,-23.596663,-21.481855,-14.670194,21.25725,-0.08457295,-13.66505,27.129885,38.502773,7.193571,-3.8400064,-0.2965293
121,-31.850587844848633,-22.365272521972656,70.15206146240234,-6.503037648891551,14.163885516716288,-161.88824283094655,-31.600903,19.939411,36.16464,70.80863,-39.067482,14.72935,16.629917,-13.612249,-23.068735,26.448902,-0.1120514,15.000033,11.010589,5.367123,15.109708,41.26259,37.22893,-31.3056,-23.519508,-20.201174,-14.759358,20.325706,0.8498857,-13.940071,27.782122,41.45009,7.1787505,-3.6719663,-0.45865634
122,-32.85075378417969,-23.349445343017578,70.08204650878906,-6.124982739112773,14.240312942493825,-160.7679992693796,-30.134174,18.096,35.710407,69.55925,-39.918846,14.538714,14.198104,-15.139061,-21.301603,32.761314,0.5929129,15.000033,10.539294,5.277667,15.457409,39.388645,34.624302,-30.374775,-23.297318,-18.773235,-14.901353,19.15159,1.581115,-14.152953,28.61886,44.659054,6.696149,-3.552758,-0.85279644
123,-33.79267883300781,-24.242982864379883,69.98754119873047,-5.5347163171755955,14.28155689098388,-159.62351930078688,-28.606382,16.051851,35.275757,68.19353,-40.602036,14.365852,11.534377,-16.511614,-18.68965,39.095284,1.020066,15.000033,9.930918,4.9809713,15.932401,37.231167,31.87663,-29.3547,-22.958479,-17.235744,-15.057185,18.000751,2.152468,-14.3074875,29.47977,47.97546,6.423357,-3.6666677,-1.4305732
124,-34.71070861816406,-25.08833122253418,69.88162994384766,-4.927152033146669,14.384829379729128,-158.51667868235208,-27.246716,14.159213,34.835167,66.959114,-41.098797,14.226395,8.717339,-17.34316,-15.851374,45.034096,0.81886554,12.833908,9.226303,4.6070366,16.405556,34.741,29.066292,-28.334343,-22.557463,-15.631276,-15.173813,17.14377,2.628307,-14.41374,30.182516,51.242107,7.0301023,-4.215636,-2.1413217
125,-35.62584686279297,-25.90387535095215,69.754638671875,-4.268461868417185,14.536141918204846,-157.443933299037,-26.056229,12.407945,34.460052,65.94766,-41.418156,14.150131,5.6090446,-17.265375,-12.017762,50.881077,-0.3495609,10.202632,8.4893,4.153116,16.892702,31.89399,26.252064,-27.344503,-22.198393,-13.963025,-15.215929,16.700193,3.0661252,-14.468911,30.67642,54.539566,9.320574,-5.652809,-2.8762445
126,-36.52259826660156,-26.69915008544922,69.60981750488281,-3.362078561155127,14.643756540409786,-156.3100514932438,-24.841038,10.471121,34.178726,64.941124,-41.547703,14.138303,2.267762,-16.395203,-7.256833,57.0214,-2.2260885,7.8354235,7.6655636,3.4560587,17.489311,28.73583,23.469522,-26.297033,-21.892687,-12.22637,-15.205298,16.517925,3.480069,-14.470836,31.023083,57.872955,12.716788,-7.7756653,-3.6055465
127,-37.45499038696289,-27.48095703125,69.46424865722656,-2.3697275503036237,14.703955136657765,-155.11299424380204,-23.606634,8.502987,33.852802,63.927505,-41.558624,14.132658,-0.9966366,-15.028992,-2.659927,63.17844,-4.303058,5.9531765,6.721046,2.6593559,18.127531,25.300459,20.770311,-25.134853,-21.572056,-10.455431,-15.16546,16.45875,3.8713732,-14.436546,31.19313,60.96841,15.809735,-9.801828,-4.4819407
128,-38.3588981628418,-28.250303268432617,69.31477355957031,-1.4652588582703148,14.728562382687699,-153.8485769521844,-22.36029,6.6661286,33.345585,62.888184,-41.522503,14.079398,-3.986303,-13.794627,0.76045793,68.99201,-6.1472526,4.6101665,5.6280913,1.9310721,18.743574,21.60286,18.221365,-23.8329,-21.174326,-8.685191,-15.129281,16.387009,4.2402234,-14.399522,31.131882,63.536846,17.185545,-10.929601,-5.8158507
129,-39.27013397216797,-28.998125076293945,69.17400360107422,-0.6091684034517766,14.705277747311579,-152.50394823568908,-21.103294,4.9001975,32.65327,61.837578,-41.446354,14.012962,-6.7469153,-13.1228075,2.8792977,74.53463,-7.828111,3.8130383,4.414197,1.245008,19.394993,17.561855,15.854356,-22.42914,-20.74373,-6.8621397,-15.127559,16.30607,4.6058455,-14.358245,30.598139,65.4948,15.995472,-10.504566,-8.048542
130,-40.183380126953125,-29.727523803710938,69.05264282226562,0.26287044872024595,14.635299014768885,-151.09140757134895,-19.821844,3.1502526,31.848467,60.76982,-41.29538,13.950402,-9.417238,-12.826502,4.249301,79.98647,-9.624625,3.419791,3.1323066,0.5365607,20.088886,13.170206,13.689018,-20.967804,-20.332548,-5.0012417,-15.133357,16.284422,4.974863,-14.299688,29.642561,66.969345,13.2301235,-8.961707,-10.874622
131,-41.09977340698242,-30.441078186035156,68.9547348022461,1.0448620009590008,14.567464940387511,-149.64037764177053,-18.523966,1.5600129,30.938765,59.647614,-41.075886,13.827135,-12.10462,-12.822143,5.0036325,85.17087,-11.450829,3.1549473,1.7939694,-0.10389882,20.698792,8.549695,11.786126,-19.476736,-19.880505,-3.243635,-15.102115,16.280512,5.3421907,-14.26163,28.638418,67.97939,10.197731,-7.210884,-13.598426
132,-42.042991638183594,-31.159475326538086,68.8834457397461,1.6352327224658216,14.554964371583461,-148.17679783949,-17.221037,0.2709629,29.936464,58.437523,-40.797787,13.580881,-14.899638,-12.987303,5.259716,89.875946,-13.185056,2.7719674,0.41441774,-0.5877884,21.114841,3.8453486,10.226981,-18.021423,-19.359808,-1.7377083,-14.993567,16.255472,5.761703,-14.327942,27.95393,68.48034,8.072241,-6.3292356,-15.694763
133,-43.013671875,-31.8754940032959,68.85698699951172,2.0037100254785236,14.631984897222976,-146.65912660057688,-15.952142,-0.6615338,28.815304,57.19241,-40.527565,13.204754,-17.863894,-13.493939,4.8748655,94.116875,-14.762663,2.220457,-1.0251037,-0.90124524,21.338463,-1.0161253,9.035088,-16.705389,-18.809395,-0.5658919,-14.791578,16.221949,6.3698754,-14.570751,27.68082,68.24362,7.251339,-6.8636823,-17.12981
134,-44.02044677734375,-32.59929656982422,68.87248992919922,2.221873161905707,14.772492280036712,-145.08308837470165,-14.69435,-1.3335531,27.59077,55.90723,-40.24761,12.739293,-20.92575,-14.459491,3.8983405,97.99738,-16.27732,1.5719298,-2.5098486,-1.1024523,21.458115,-6.066232,8.186423,-15.584419,-18.26145,0.3329852,-14.522887,16.21277,7.1967635,-14.998711,27.60015,67.225235,7.026767,-8.22054,-18.177927
135,-45.059757232666016,-33.34690475463867,68.94140625,2.3366613342049356,14.941396867289463,-143.532260713015,-13.367028,-1.8226041,26.33379,54.462845,-39.843433,12.192879,-23.985283,-15.590696,2.694112,101.40983,-17.796288,0.81846666,-3.9647546,-1.2090265,21.502697,-11.08031,7.691234,-14.701901,-17.692505,1.0276543,-14.212858,16.225359,8.162715,-15.599941,27.607952,65.62191,6.8443594,-9.812998,-18.883947
136,-46.1354866027832,-34.105743408203125,69.05217742919922,2.387104648277846,15.10332084717869,-142.09517954256935,-11.893924,-2.1971924,25.110786,52.741577,-39.20664,11.569366,-26.985851,-16.526354,1.5949092,104.22389,-19.353682,-0.011173225,-5.318051,-1.2460741,21.500618,-15.798587,7.5863266,-14.106708,-17.126759,1.5825193,-13.885623,16.259571,9.165125,-16.346981,27.621439,63.64878,6.1713057,-11.0375805,-19.310581
137,-47.270782470703125,-34.903175354003906,69.21307373046875,2.394113197171104,15.243702946320752,-140.74234116815936,-10.260321,-2.4539757,23.877846,50.742474,-38.387974,10.8502445,-29.992868,-17.240734,0.586174,106.42827,-21.011202,-1.0302478,-6.60842,-1.2654355,21.462255,-20.302038,7.9007535,-13.88942,-16.55653,1.9102768,-13.483672,16.321732,10.190196,-17.226717,27.682512,61.19751,4.7761807,-11.773735,-19.371944
138,-48.4550666809082,-35.73110580444336,69.42852783203125,2.3332769054690434,15.386420050910314,-139.44506054786675,-8.50095,-2.5521553,22.611328,48.53046,-37.438313,10.051246,-33.027275,-17.8751,-0.49446598,108.07276,-22.70077,-2.1826217,-7.8799486,-1.285754,21.386816,-24.680258,8.597822,-14.098074,-15.9930525,1.9805392,-13.014507,16.435162,11.26309,-18.223436,27.869144,58.211636,2.9878216,-12.338923,-19.063904
139,-49.680213928222656,-36.604881286621094,69.69366455078125,2.173933655217072,15.553841995202122,-138.29631828093443,-6.6225023,-2.5001438,21.405102,46.08233,-36.243443,9.218056,-36.008636,-18.29646,-1.5721681,109.10459,-24.238419,-3.1889274,-9.077595,-1.2652819,21.276136,-28.686073,9.615261,-14.672652,-15.484579,1.955371,-12.596906,16.609383,12.304541,-19.298777,28.157595,55.034267,1.1145225,-12.779317,-18.591494
140,-50.95180130004883,-37.538536071777344,70.00118255615234,1.886220775611718,15.767740292055967,-137.38866043787957,-4.6399827,-2.312346,20.351854,43.367214,-34.67122,8.382445,-38.852573,-18.383575,-2.585423,109.46436,-25.438814,-3.7804348,-10.139611,-1.1389616,21.127556,-32.078117,10.8990755,-15.510022,-15.070031,2.0089648,-12.348138,16.839283,13.222181,-20.41004,28.496876,52.045258,-0.5425629,-13.131867,-18.167068
141,-52.26115036010742,-38.53702926635742,70.3525390625,1.464672287895488,16.032802340092164,-136.7427341669923,-2.5007334,-2.0209699,19.397326,40.22323,-32.703224,7.490342,-41.574295,-18.09204,-3.5240169,109.07914,-26.27509,-3.811314,-11.051163,-0.8681772,20.905525,-34.887596,12.457433,-16.574198,-14.668228,2.2109258,-12.3324585,17.087704,13.970918,-21.553425,28.880276,49.340584,-2.047016,-13.423062,-17.818172
142,-53.612911224365234,-39.59949493408203,70.74839782714844,0.9294055327279037,16.335724829919666,-136.31108981166273,-0.22912437,-1.6149036,18.50952,36.728676,-30.406437,6.539357,-44.206314,-17.504246,-4.4392633,107.98135,-26.831114,-3.4498675,-11.852012,-0.48865578,20.615301,-37.299145,14.299064,-17.91503,-14.242308,2.454775,-12.474122,17.359228,14.574016,-22.733538,29.34227,46.774197,-3.5148127,-13.632552,-17.44339
143,-55.01261901855469,-40.70379638671875,71.1792221069336,0.28927887786948003,16.669952887763465,-136.0862418106228,2.0329213,-1.0686772,17.821325,33.20372,-27.758274,5.6162276,-46.675285,-16.690306,-5.381081,106.27766,-27.100853,-2.9175947,-12.566519,-0.031422634,20.313704,-39.21028,16.363117,-19.506025,-13.944379,2.7224412,-12.675955,17.703665,15.021094,-23.918484,29.879278,44.391502,-4.729171,-13.714689,-17.067875
144,-56.43992614746094,-41.86256790161133,71.62733459472656,-0.4475313062961744,17.028027842744226,-136.0635280684226,4.1366043,-0.37238944,17.472979,29.974123,-24.730518,4.8020062,-48.907845,-15.710327,-6.3955407,104.074524,-27.079027,-2.4333105,-13.18952,0.49062106,20.047108,-40.520607,18.563417,-21.291721,-13.89028,3.0056622,-12.840996,18.15741,15.305891,-25.057598,30.457607,42.26411,-5.4812512,-13.621948,-16.724957
145,-57.902305603027344,-43.07089614868164,72.09461212158203,-1.4005875329653648,17.448039829819567,-136.27912234172877,5.981494,0.60793686,17.505987,27.135351,-21.18493,4.0896115,-50.918873,-14.495569,-7.6152678,101.281105,-26.685936,-2.1047735,-13.622244,1.2283751,19.780407,-41.308907,20.889349,-23.345884,-13.970235,3.3873875,-12.978058,18.874397,15.464911,-26.119808,31.048262,40.470142,-5.650292,-13.316236,-16.535662
146,-59.39531326293945,-44.30903244018555,72.56175994873047,-2.523803705008298,17.90456572203744,-136.7384080438307,7.630582,1.7755452,17.847273,24.579721,-17.203941,3.4373136,-52.712883,-13.026248,-8.95914,97.86299,-25.967777,-1.7808058,-13.849984,2.1373086,19.483465,-41.653023,23.355404,-25.638884,-14.106061,3.883154,-13.122061,19.77947,15.485966,-27.099411,31.644066,39.002583,-5.3856063,-12.827727,-16.457047
147,-60.90850067138672,-45.55014419555664,73.0175552368164,-3.5615574277672324,18.29631052474755,-137.38441895434923,9.197255,2.7957792,18.470161,22.306664,-13.059392,2.8676124,-54.213215,-11.433057,-10.136108,94.02363,-25.102175,-1.3069199,-13.970787,2.9338493,19.210382,-41.451267,25.916714,-27.918411,-14.418349,4.372882,-13.222644,20.552996,15.310261,-27.98566,32.216663,37.797802,-4.8868127,-12.209653,-16.282946
148,-62.44324493408203,-46.78543472290039,73.46170806884766,-4.256740034007394,18.529699776518786,-138.15075456191286,10.844896,3.3314676,19.35841,20.216103,-8.971915,2.4016426,-55.35766,-9.859045,-10.839301,89.978455,-24.263037,-0.5529228,-14.073057,3.3465736,19.019197,-40.589153,28.49868,-29.920649,-14.997897,4.7578516,-13.239778,20.866148,14.893034,-28.768116,32.723385,36.785698,-4.3561583,-11.513424,-15.805069
149,-64.00347900390625,-48.02592468261719,73.89129638671875,-4.503079027794498,18.579124905935657,-139.09704119424705,12.79085,3.2037816,20.717287,17.831944,-4.398098,1.9950632,-56.177452,-8.205403,-10.751629,85.66978,-23.478252,0.51891506,-14.066654,3.2625113,18.903381,-39.011414,31.070333,-31.624334,-15.837413,4.9469495,-13.174404,20.495916,14.240107,-29.430092,33.132965,36.006447,-3.6866577,-10.6186695,-14.926907
150,-65.5655288696289,-49.3371467590332,74.30740356445312,-4.388533352082271,18.458690432997795,-140.26519859733824,15.101588,2.4369726,22.505056,14.95331,0.7973278,1.6582501,-56.649517,-6.4665055,-9.985906,81.0535,-22.692072,1.7973918,-13.871635,2.7607985,18.851343,-36.82802,33.639565,-33.12204,-16.790302,5.048949,-13.054303,19.6561,13.389148,-29.960651,33.45405,35.47831,-2.8408508,-9.5321455,-13.786612
151,-67.0908203125,-50.73630142211914,74.68177032470703,-4.152551404292551,18.208827628778632,-141.48504162001163,17.358767,1.4058267,24.29358,12.531109,5.4540634,1.4684694,-56.68063,-4.884935,-9.157604,76.31923,-21.906471,3.1611233,-13.665598,2.1047797,18.916529,-34.16234,36.1731,-34.319126,-17.720682,5.255493,-12.883127,18.671705,12.361588,-30.36715,33.69128,35.072876,-2.1138275,-8.504191,-12.506364
152,-68.59513854980469,-52.177154541015625,74.9733657836914,-4.059906341629382,17.99376789191889,-142.47123098834263,18.632687,0.84265757,25.621521,12.446951,7.9565153,1.516762,-56.268593,-3.7375138,-9.010069,71.53492,-21.069916,4.5159593,-13.7286825,1.6647003,19.031311,-30.968008,38.6189,-35.091537,-18.629019,5.8170195,-12.666742,17.855606,11.21081,-30.67756,33.827705,34.64921,-1.7835965,-7.7985635,-11.188514
153,-70.10694122314453,-53.59843444824219,75.1945571899414,-3.716824400246112,17.633750054538286,-143.39427110455685,20.569544,-0.4169102,26.768532,11.552614,9.3633375,2.0827723,-55.34777,-3.1279497,-9.127068,66.73513,-20.132229,6.032384,-13.91224,0.92860216,19.258236,-27.382227,40.923416,-35.445568,-19.28906,6.817253,-12.436498,17.228416,9.947779,-30.899044,33.813854,34.17593,-2.0301092,-7.5134134,-9.656588
154,-71.62367248535156,-55.001564025878906,75.34486389160156,-3.1669791425229907,17.16409237451068,-144.29571896515498,23.020502,-2.186197,27.762789,10.082716,10.001905,3.046934,-53.97033,-2.8730633,-9.383146,61.81107,-19.088596,7.7131715,-14.122399,-0.039013702,19.5521,-23.157242,43.06181,-35.410507,-19.907177,8.210086,-12.18613,16.63131,8.619873,-31.02603,33.61703,33.68946,-2.649049,-7.524441,-7.9070816
155,-73.08378601074219,-56.310455322265625,75.3900375366211,-2.9174698587287993,16.919425959167565,-144.81021421767545,23.132448,-2.302896,28.166456,13.767183,7.7834234,4.0186806,-52.37957,-2.8544827,-10.426974,56.785275,-17.98517,9.308373,-14.6662035,-0.5544471,19.789345,-18.633827,44.99744,-35.11039,-20.344912,9.650462,-11.873677,16.135801,7.268531,-31.07124,33.317375,33.086674,-3.3142922,-7.754398,-6.3069053
156,-74.51786041259766,-57.61066818237305,75.36530303955078,-2.786580511817982,16.602204534348452,-145.32461268403017,23.188128,-2.3374076,28.07768,17.610077,6.112585,4.8085284,-50.521385,-2.7869093,-11.658482,52.09053,-17.026957,10.675478,-15.069692,-0.96409714,20.189367,-14.140917,46.695187,-34.719578,-20.480616,10.837653,-11.456795,15.803843,5.9677863,-31.03591,32.98736,32.247055,-3.7023315,-8.094282,-5.2348495
157,-75.96218872070312,-58.937137603759766,75.31852722167969,-2.731779165623881,16.20839043586384,-145.79689556146826,22.903736,-2.420108,27.226694,22.095633,5.026584,5.2643886,-48.26919,-2.7392042,-13.259909,47.547714,-16.205538,12.00337,-15.333408,-1.2898868,20.770372,-9.719849,48.094757,-34.32905,-20.267216,11.727372,-10.886865,15.73956,4.78802,-30.910723,32.561905,31.100367,-3.7699082,-8.582338,-4.8502235
158,-77.43511199951172,-60.300933837890625,75.24813842773438,-2.645055454562333,15.722731865695,-146.24074536962178,22.294275,-2.6802533,25.799257,27.334301,4.0105886,5.505804,-45.63625,-2.7361503,-15.134571,43.122387,-15.455065,13.345815,-15.422867,-1.6369088,21.467754,-5.372471,49.149162,-34.058655,-19.669382,12.481106,-10.189172,15.869469,3.7530346,-30.686102,31.966656,29.71984,-3.675337,-9.243029,-4.936618
159,-78.92743682861328,-61.684303283691406,75.14776611328125,-2.572683797675103,15.204473723637127,-146.71827204908814,21.373854,-2.9376976,24.345373,33.161266,2.9697404,5.692177,-42.98124,-2.6339462,-16.877901,39.32259,-14.880182,14.283409,-15.264357,-1.9430827,22.144976,-1.527093,49.866863,-34.156647,-18.479622,13.025236,-9.427536,15.994575,2.8125484,-30.365404,31.29352,28.243174,-3.414613,-9.936782,-5.301873
160,-80.43804168701172,-63.07643127441406,74.99183654785156,-2.6181352003718095,14.731475061980657,-147.28266353826393,20.210358,-2.8805485,23.384167,39.339077,1.8568829,6.0434074,-40.683693,-2.3313653,-18.12513,36.692062,-14.623099,14.368921,-14.819258,-2.0820773,22.671041,1.6228012,50.29402,-34.73821,-16.65441,13.372629,-8.667677,15.929723,1.8906298,-29.958864,30.650288,26.809597,-2.9832447,-10.524897,-5.7503667
161,-81.97154998779297,-64.47122192382812,74.77206420898438,-2.8982548606898666,14.363042915716669,-147.97999064942687,18.73846,-2.4349384,22.884735,45.98524,0.68670064,6.651144,-38.887135,-1.7628635,-18.761694,35.51349,-14.628752,13.202843,-14.081772,-1.9204646,23.004906,4.0510545,50.449627,-35.813904,-14.119778,13.663646,-7.7941093,15.644855,0.97800344,-29.479805,30.096466,25.447155,-2.2245653,-10.971741,-6.347946
162,-83.5190200805664,-65.8685302734375,74.47808074951172,-3.3865929556690033,14.06089073253749,-148.76106050917193,16.955593,-1.760625,22.605774,53.148235,-0.49969372,7.3215985,-37.419487,-1.0132571,-19.0431,35.516563,-14.874643,11.094002,-13.110445,-1.4815471,23.203554,5.8995056,50.331158,-37.309635,-10.967667,13.852293,-6.812024,15.240275,0.08441426,-28.93536,29.581472,24.094019,-1.1992233,-11.359652,-7.1559496
163,-85.06499481201172,-67.19115447998047,74.1416244506836,-3.9866119285254493,13.758649696015931,-149.53196477115625,15.089938,-0.7162155,22.6918,60.502106,-1.7290889,7.982383,-36.170372,-0.21018876,-19.155327,36.394966,-15.558002,8.65377,-12.005883,-0.8773019,23.309055,7.2889924,49.982838,-39.10151,-7.419109,13.650392,-5.963752,14.746099,-0.8795319,-28.329428,29.081266,22.74841,-0.21906112,-11.717729,-7.974939
164,-86.61189270019531,-68.47364044189453,73.73568725585938,-4.5985844867182655,13.391425683087263,-150.20190761815704,13.395203,0.9552958,23.260702,67.78134,-3.0814278,8.668068,-35.00643,0.52625984,-19.247763,37.811783,-16.899307,6.494535,-10.875435,-0.23256811,23.383821,8.3856945,49.486458,-41.025066,-3.7247949,12.75924,-5.4868994,14.202919,-2.0115523,-27.661348,28.574934,21.405426,0.40350524,-12.062899,-8.6086445
165,-88.18168640136719,-69.754150390625,73.23200988769531,-5.260899417204015,12.937494075070159,-150.75420477910382,12.154113,3.7165797,24.526186,75.1817,-4.716134,9.439867,-34.01314,1.1735114,-19.316704,40.09639,-19.276625,4.527399,-9.74792,0.4650677,23.45595,9.238585,48.904305,-42.99949,0.23516814,10.888759,-5.5228806,13.372178,-3.3415983,-26.926981,28.076136,20.032951,0.6042084,-12.40155,-8.99585
166,-89.73646545410156,-70.9906005859375,72.6791000366211,-6.016261235456419,12.416806198872294,-151.22994506453318,11.377878,7.479884,26.246927,82.825,-6.66238,10.423302,-33.162224,1.8230642,-19.24012,43.204872,-22.45353,2.5092683,-8.598546,1.2577677,23.521585,9.9213295,48.27244,-44.992363,4.4092727,8.243201,-5.880525,12.307007,-4.8508034,-26.127083,27.605692,18.639767,0.54433036,-12.719738,-9.248591
167,-91.23705291748047,-72.15135192871094,72.11018371582031,-6.783650579894432,11.840625559442703,-151.6441449394912,10.815129,11.68698,27.895248,90.36639,-8.808168,11.735283,-32.180477,2.511652,-19.007317,46.28568,-25.75738,0.8152684,-7.4423037,2.067851,23.607323,10.637871,47.647648,-46.899445,8.287662,5.2633443,-6.337158,11.492243,-6.570452,-25.272282,27.154766,17.269268,0.2533765,-12.99114,-9.430891
168,-92.71031951904297,-73.27587890625,71.54956817626953,-7.48665004512229,11.241210573905471,-151.98892718873861,10.006543,15.71012,28.955816,97.42722,-10.961393,13.3935375,-30.822893,3.2290754,-18.69329,48.543583,-28.534027,-0.17058969,-6.323909,2.822952,23.742746,11.592995,47.10194,-48.599823,11.338813,2.3967886,-6.7392783,11.432863,-8.531831,-24.376858,26.715784,15.951571,-0.23418917,-13.1930275,-9.6057
169,-94.17291259765625,-74.39087677001953,71.04080200195312,-8.132482325342865,10.583950363207741,-152.29686494999964,8.717422,19.412493,29.197195,104.082146,-13.015267,15.000033,-29.025051,3.979376,-18.320866,49.898567,-30.70092,-0.17572021,-5.2578998,3.4867945,24.035786,12.930896,46.71147,-50.036987,13.3056345,-0.3995936,-7.1102934,12.545006,-10.85334,-23.430859,26.326578,14.650386,-0.9705295,-13.336382,-9.811052
170,-95.6593017578125,-75.50312805175781,70.60904693603516,-8.788851616701358,9.868194750458295,-152.56966710666435,6.810182,22.537802,28.19182,110.45814,-15.012594,15.000033,-26.909275,4.746784,-17.907429,50.75288,-32.581947,0.53017634,-4.2454042,4.0992317,24.46382,14.596331,46.522285,-51.198658,14.400578,-3.3115978,-7.6189494,14.451831,-13.499757,-22.425234,25.971382,13.347702,-1.9488305,-13.428351,-10.00696
171,-97.18482208251953,-76.59306335449219,70.2818374633789,-9.849901904066805,9.010980697691863,-152.93840807615348,4.5870004,25.561909,26.464994,116.31253,-17.03486,15.000033,-24.214191,6.0278816,-17.58781,50.605396,-33.899055,1.4621164,-3.097649,5.0969057,25.032402,16.496887,46.54253,-52.03496,14.78038,-6.0969844,-8.3082905,16.48341,-16.25957,-21.39269,25.577843,12.085371,-3.0442286,-13.438383,-10.129957
172,-98.71975708007812,-77.68742370605469,70.06288146972656,-10.696920921577684,8.36707450905103,-153.12277083240303,1.6319584,27.862015,24.215708,121.252365,-18.938477,15.000033,-21.46277,7.00675,-17.261518,49.957188,-34.896347,2.3241107,-2.052637,5.9621625,25.309252,18.48912,46.7513,-52.519897,14.643291,-8.527047,-9.139989,17.97539,-18.89442,-20.386192,25.088522,10.865224,-4.1252837,-13.338336,-10.123619
173,-100.24950408935547,-78.83190155029297,69.94164276123047,-11.311993054656295,8.024919450301578,-153.02058696403392,-2.539249,29.234604,21.215284,125.29141,-20.664288,15.000033,-18.671164,7.6679506,-17.065195,48.762558,-35.67077,3.0133662,-1.1797636,6.7107744,25.229435,20.562637,47.13551,-52.63803,13.92905,-10.540864,-10.111448,18.70296,-21.364717,-19.42744,24.451538,9.611854,-5.2868314,-13.077645,-9.910927
174,-101.810791015625,-80.05203247070312,69.88980865478516,-11.74247290690761,7.910316551295562,-152.70021430376548,-7.780045,29.784138,17.605204,128.60428,-22.143333,15.000033,-15.787426,8.1022215,-16.9806,47.028763,-36.202923,3.720715,-0.43544927,7.3490295,24.916462,22.784851,47.693188,-52.397076,12.54727,-12.27135,-11.183063,19.032862,-23.773823,-18.519108,23.728958,8.307594,-6.5447536,-12.691094,-9.5382595
175,-103.40084075927734,-81.32975769042969,69.91629791259766,-11.912508485109145,7.929588840901842,-152.32049363387108,-13.341648,29.75737,14.164021,131.07906,-23.277584,15.000033,-12.85156,8.248758,-16.830883,44.905815,-36.384007,4.5011573,0.30880448,7.7482095,24.436224,25.13711,48.39581,-51.813538,10.655461,-13.778668,-12.223973,19.207178,-26.07564,-17.70172,23.044693,7.0192285,-7.650579,-12.271171,-9.1330805
176,-105.0135269165039,-82.6689453125,70.0309829711914,-11.762276240222484,7.973030155912492,-152.04595061778477,-18.479357,29.580427,11.635263,132.59149,-24.024939,15.000033,-9.879965,8.037385,-16.435823,42.538517,-36.100323,5.4276123,1.1884035,7.806199,23.868797,27.56899,49.191853,-50.9334,8.443328,-15.110348,-13.122709,19.475145,-28.18549,-17.044546,22.514318,5.7721148,-8.347651,-11.900151,-8.828063
177,-106.63371276855469,-84.07672119140625,70.2388687133789,-11.219734015336513,7.994547920258576,-151.93678337696588,-23.085423,29.494959,10.303725,133.00128,-24.309439,15.000033,-6.828007,7.3630853,-15.68117,39.94561,-35.431232,6.5969234,2.2960598,7.475525,23.24367,29.977194,50.04184,-49.825703,5.939358,-16.20429,-13.863281,19.938314,-30.079401,-16.616888,22.144588,4.502511,-8.563132,-11.570518,-8.652384
178,-108.26966857910156,-85.54891204833984,70.53475189208984,-10.364054779743071,8.03933126381477,-151.89345300750853,-27.488882,29.376984,9.799432,132.39268,-24.184427,15.000033,-3.67074,6.293305,-14.741282,37.05087,-34.42116,7.9360433,3.5597749,6.8700004,22.564522,32.361088,50.919155,-48.50474,3.1052923,-17.054405,-14.501947,20.468847,-31.730473,-16.44067,21.879751,3.1249034,-8.413055,-11.237803,-8.541436
179,-109.92208862304688,-87.07091522216797,70.90607452392578,-9.358722860256863,8.135297033275988,-151.85139805659867,-31.623692,29.161488,9.820288,130.98071,-23.83347,15.000033,-0.4678423,5.010089,-13.829183,33.86867,-32.888428,9.290762,4.8721476,6.1216044,21.860392,34.772614,51.78201,-46.969814,0.07240652,-17.809746,-15.046937,20.97521,-33.062325,-16.503716,21.73882,1.6549075,-7.9136624,-10.926173,-8.490479
180,-111.62084197998047,-88.64940643310547,71.34872436523438,-8.34221128114329,8.313389131997239,-151.75218534729234,-35.422737,28.74689,10.078808,128.98169,-23.436615,15.000033,2.7065794,3.6860993,-13.113603,30.420832,-30.63379,10.525571,6.127199,5.3308825,21.137602,37.250633,52.574497,-45.223537,-3.010092,-18.620663,-15.507631,21.363104,-34.010178,-16.768198,21.738274,0.13604838,-7.0918612,-10.6619835,-8.496084
181,-113.3569107055664,-90.2729721069336,71.8490219116211,-7.282794928845853,8.59165152118924,-151.62959693102323,-38.781803,28.146841,10.689659,126.34822,-23.106789,15.000033,5.911858,2.2906199,-12.511434,26.51154,-27.466103,11.718019,7.388293,4.447313,20.343458,40.23764,53.20737,-43.038918,-6.3317504,-19.32781,-15.91768,21.609247,-34.551712,-17.233877,21.888275,-1.3845117,-5.824751,-10.467897,-8.642998
182,-115.10162353515625,-91.93429565429688,72.38042449951172,-6.120633175456785,8.963660292761658,-151.4903649213911,-41.682262,27.398548,11.775922,122.99065,-22.79804,15.000033,9.116801,0.75512093,-11.951079,22.236944,-23.544481,12.915356,8.52502,3.4218812,19.530699,42.429333,53.726547,-41.02685,-9.276569,-20.69125,-16.265884,21.747606,-34.864044,-17.859701,22.31408,-2.862155,-4.1367636,-10.329302,-8.919469
183,-116.8381118774414,-93.64684295654297,72.9216537475586,-4.939385028095286,9.412222563580785,-151.23744258971567,-44.21868,26.414316,13.04788,119.07124,-22.42418,15.000033,12.107141,-0.79943377,-11.594477,18.106192,-19.213976,13.95025,9.624237,2.3643284,18.679983,44.872845,54.04337,-38.8325,-12.288598,-21.599756,-16.496307,21.868763,-34.784668,-18.649488,22.739725,-4.373123,-2.3233683,-10.217495,-9.135202
184,-118.56356811523438,-95.39690399169922,73.46577453613281,-3.845895340066005,9.900529975735298,-150.77254779864228,-46.509583,25.116468,14.167396,114.75596,-21.884495,15.000033,14.71208,-2.214345,-11.609158,14.609188,-14.803608,14.660536,10.518483,1.3954741,17.858635,47.060955,54.154404,-36.74034,-15.026784,-22.084692,-16.544483,22.000065,-34.35549,-19.55201,23.125732,-5.934475,-0.6535045,-10.090864,-9.122799
185,-120.27872467041016,-97.17103576660156,74.00359344482422,-2.8261092750085415,10.490786828452716,-150.0681724949475,-48.70318,23.350067,15.005446,110.00626,-21.137909,15.000033,16.816921,-3.524472,-12.176072,11.783459,-9.962141,14.943726,11.174078,0.49097797,16.983324,49.038353,54.031292,-34.7311,-17.44511,-21.956146,-16.346445,22.157465,-33.556973,-20.549988,23.458998,-7.5426354,0.8844034,-9.902909,-8.804316
186,-122.0022201538086,-98.97006225585938,74.52601623535156,-1.8969575843457418,11.127964633935536,-149.14171576699,-50.670227,21.210367,15.640705,104.771675,-20.274578,15.000033,18.56595,-4.71875,-13.168086,9.52414,-4.7022233,14.93245,11.573558,-0.3138322,16.076412,50.673046,53.66436,-32.834663,-19.513653,-21.446379,-15.948835,22.312048,-32.437744,-21.642176,23.799847,-9.15321,2.3970706,-9.676205,-8.284339
187,-123.75520324707031,-100.77116394042969,75.04476165771484,-1.2310888222356622,11.577243189984666,-148.05979704180947,-52.112083,19.025343,16.02837,99.20256,-19.392765,15.000033,20.27377,-5.510289,-14.23109,7.821017,0.25374645,14.7689295,11.8033085,-0.7877315,15.32871,51.877216,53.06823,-31.187319,-21.277048,-20.707409,-15.46227,22.462582,-31.038284,-22.80746,24.094908,-10.744395,3.7316988,-9.4704275,-7.654474
188,-125.54302215576172,-102.54548645019531,75.55984497070312,-0.8059345006244638,11.687447640035797,-146.8395790783908,-52.807983,16.91888,16.23468,93.38591,-18.515335,14.678914,22.061172,-5.8136287,-15.081393,6.8332314,4.076569,14.577501,11.874953,-0.91009545,14.904165,52.45959,52.297794,-29.945013,-22.721067,-20.00322,-14.997698,22.609081,-29.443567,-24.00766,24.319424,-12.257243,4.745844,-9.352663,-7.00124
189,-127.34891510009766,-104.29814147949219,76.03046417236328,-0.6251325468425112,11.414988660123965,-145.47760862086,-52.758953,14.733477,15.910474,87.1968,-17.589767,13.17163,23.735683,-5.7412987,-15.760982,7.0700574,6.35665,14.488492,11.79927,-0.67720085,14.847521,52.414623,51.411114,-29.12089,-23.875328,-19.402422,-14.522629,22.789953,-27.6619,-25.22307,24.482346,-13.706018,5.2711363,-9.359653,-6.303131
190,-129.12452697753906,-106.04816436767578,76.44532012939453,-0.6709856982868728,10.899264699180343,-143.95603244145047,-52.047382,12.58188,15.294732,80.56695,-16.592453,11.393319,25.71447,-5.261509,-16.446827,7.277718,8.145371,14.351745,11.564377,-0.13893442,15.028007,51.89788,50.43304,-28.58761,-24.784117,-18.784166,-13.99684,22.991549,-25.676016,-26.448257,24.5819,-15.069995,5.4258313,-9.458119,-5.519431
191,-130.8915557861328,-107.80329895019531,76.8052978515625,-0.8633468723238334,10.285711891017607,-142.43589122219322,-50.793816,10.677536,14.703686,73.70323,-15.550817,9.574346,27.882555,-4.458603,-16.80067,7.3513117,9.532756,13.851851,11.297307,0.5602584,15.335666,51.012802,49.37112,-28.255663,-25.48096,-18.11529,-13.522115,23.142717,-23.529675,-27.650438,24.587202,-16.23971,5.4918337,-9.611956,-4.7092805
192,-132.63648986816406,-109.52540588378906,77.10086059570312,-1.1196797222382167,9.716028017898902,-141.092878094066,-49.144176,9.202904,14.492635,66.755875,-14.441089,7.902381,29.911634,-3.4546006,-16.447905,7.5571837,10.411099,12.693951,11.126566,1.2773763,15.645895,49.86236,48.21531,-28.04373,-25.991076,-17.354862,-13.202623,23.177803,-21.288446,-28.779018,24.486115,-17.080082,5.7445445,-9.778086,-3.9303007
193,-134.3544464111328,-111.21702575683594,77.32661437988281,-1.4814342788311687,9.286292969482304,-140.07881559991492,-47.06268,8.353272,14.985074,59.395615,-13.173902,6.335633,30.746685,-2.3910105,-14.807144,9.939744,9.316153,10.404396,11.174496,2.0151258,15.855382,48.481884,46.94611,-27.913982,-26.332277,-16.570475,-13.108284,23.084967,-18.995016,-29.785128,24.312887,-17.475452,6.288557,-10.067356,-3.12829
194,-136.02603149414062,-112.8557357788086,77.44441986083984,-1.6198754025485218,9.078132131877336,-139.56304196723437,-44.628952,7.844366,16.487627,51.470062,-11.638771,4.769624,29.144272,-1.9434406,-11.890777,16.99723,5.1411176,7.4190826,11.603944,2.3872035,15.937822,46.923004,45.563972,-27.82202,-26.524855,-15.7545595,-13.172538,22.89642,-16.68967,-30.631914,24.130587,-17.444996,6.964777,-10.454335,-2.292225
195,-137.7279815673828,-114.51882934570312,77.52383422851562,-1.73759005927178,8.827322278645337,-139.0871496716226,-41.95308,7.233339,18.075455,43.58423,-9.926774,3.2117326,27.733358,-1.1174724,-8.76111,23.647388,1.409535,4.651806,11.951957,2.7143655,16.076937,45.232708,44.072563,-27.756414,-26.554668,-14.764871,-13.295875,22.62658,-14.424481,-31.305077,23.970676,-17.048063,7.6348953,-10.69812,-1.5340147
196,-139.47036743164062,-116.1854476928711,77.56158447265625,-1.8135219423353703,8.509228347155476,-138.52476739299675,-39.3213,6.3280497,19.226717,36.38458,-8.173385,1.766422,26.726282,-0.23793912,-6.333431,29.515291,-0.8524415,3.027427,12.0944,2.9895475,16.271559,43.460224,42.485317,-27.691654,-26.410181,-13.455508,-13.37994,22.281778,-12.234608,-31.804543,23.849188,-16.363194,8.161255,-10.561282,-0.9789523
197,-141.2238006591797,-117.85356903076172,77.54365539550781,-1.8389295395067293,8.134828429491211,-137.8994741797756,-36.69739,5.1403666,19.875015,29.762531,-6.3498163,0.38712406,26.041449,0.6238701,-4.680611,34.77378,-1.3731256,3.0258636,12.058741,3.18297,16.50668,41.646492,40.808895,-27.598055,-26.048563,-11.695887,-13.454736,21.89375,-10.059342,-32.110462,23.742659,-15.399364,8.571653,-9.896487,-0.63561505
198,-142.9481964111328,-119.5039291381836,77.43736267089844,-1.896195081033843,7.708944278351626,-137.29274890099754,-33.97916,3.9117084,20.220085,23.484432,-4.45023,-0.9166118,25.381912,1.6420032,-3.4185214,40.06431,-1.0234668,4.130915,11.920463,3.3675542,16.765259,39.789913,39.044315,-27.459059,-25.50295,-9.597238,-13.5622635,21.453226,-7.930753,-32.213764,23.688608,-14.090748,8.912476,-8.861745,-0.4440537
199,-144.67735290527344,-121.16463470458984,77.25679016113281,-1.9588702746068802,7.256522558576819,-136.69636719435155,-31.424698,2.7868798,20.298704,18.145878,-2.705813,-1.930134,24.657845,2.4779787,-2.8053083,45.52128,-0.45255497,5.6642632,11.673159,3.5306194,17.021112,37.864113,37.20866,-27.266771,-24.879494,-7.373479,-13.62513,20.892744,-5.988981,-32.147675,23.762846,-12.441242,9.078306,-7.681524,-0.433226
200,-146.39939880371094,-122.84571838378906,77.02137756347656,-1.8976974811009164,6.836890732001174,-136.06625804607276,-29.353542,1.7748417,20.212715,14.425232,-1.3670466,-2.458333,23.774084,2.583571,-3.119464,51.23335,-0.22760145,6.844168,11.29183,3.557393,17.24253,35.820103,35.33051,-27.024584,-24.282677,-5.237682,-13.570672,20.13716,-4.3349824,-31.971062,24.005667,-10.491888,8.972199,-6.579826,-0.6365188
201,-148.0941925048828,-124.51927947998047,76.7192611694336,-1.554482124078812,6.512164749875634,-135.34877361501927,-27.882898,0.7015375,19.920069,12.4434,-0.17769924,-2.7451267,22.723972,1.4453125,-4.6703525,57.310627,-0.26275855,7.4531455,10.767535,3.2958431,17.391542,33.63244,33.426598,-26.714567,-23.741999,-3.169081,-13.309157,19.036629,-2.9276378,-31.726364,24.397583,-8.2565775,8.6118355,-5.4956865,-1.1678914
202,-149.77850341796875,-126.18663024902344,76.344970703125,-0.9044154860742202,6.267844287558926,-134.54552733932204,-26.900177,-0.5099195,19.475573,11.965547,0.83500236,-2.7972596,21.639496,-0.858568,-7.1628523,63.70313,-0.35212162,7.762281,10.10284,2.718566,17.483908,31.314726,31.505175,-26.329966,-23.210499,-1.0761919,-12.929422,17.662693,-1.6749295,-31.421406,24.886623,-5.775997,8.064815,-4.3456464,-1.9769292
203,-151.4617156982422,-127.84921264648438,75.90375518798828,0.02807609734498382,6.05233218092611,-133.69186770578767,-26.355442,-1.7993885,19.179274,13.037674,1.0675948,-2.0642672,20.646008,-4.0740976,-9.967101,70.234566,-0.84352237,7.7094364,9.299686,1.8472412,17.572117,28.860416,29.591486,-25.901482,-22.67652,0.92748284,-12.608618,16.27983,-0.58658046,-31.06627,25.444172,-3.1351054,7.295205,-3.319627,-2.8519764
204,-153.0137481689453,-129.59739685058594,75.51899719238281,1.1622093713422126,5.800691525321662,-132.8477201436345,-26.172277,-3.0632236,19.308332,15.637406,-0.044353288,-0.0073667606,19.8011,-7.7907352,-12.470721,76.698906,-2.069621,7.3245196,8.390865,0.7547382,17.71565,26.268467,27.72173,-25.470558,-22.144966,2.7179432,-12.49936,15.165795,0.34371543,-30.67403,26.031546,-0.43219188,6.252364,-2.6092355,-3.5860407
205,-154.5910186767578,-131.31729125976562,75.04405975341797,2.517747400057362,5.476688160811158,-132.0691594364807,-26.64355,-4.222715,20.04091,20.650145,-3.1307747,4.4023595,19.262552,-12.1676855,-14.704924,83.160416,-4.390823,6.6567044,7.441664,-0.59282464,17.935816,23.544277,25.919699,-25.066715,-21.708084,4.184262,-12.635431,14.37139,1.0799506,-30.2573,26.667881,2.4235547,4.9822116,-2.2919288,-4.1643934
206,-156.16232299804688,-132.9622344970703,74.4672622680664,3.8892804492080093,5.032367618536337,-131.42047216735972,-27.529037,-5.244716,20.972164,27.470013,-7.496096,10.562903,19.150263,-17.07359,-16.810917,89.618225,-7.537536,5.668068,6.539568,-1.9811589,18.245684,20.721441,24.194681,-24.670073,-21.400785,5.4124756,-12.911843,13.772969,1.6865185,-29.832376,27.32728,5.3944855,3.484092,-2.2489328,-4.6912837
207,-157.76504516601562,-134.543701171875,73.84335327148438,4.91767988740358,4.4506314102286595,-131.0033222034575,-28.167028,-5.9304175,21.479362,34.331997,-12.016832,15.000033,19.15264,-21.635649,-18.416216,95.79821,-10.89542,4.300774,5.787311,-3.0539672,18.672583,17.781958,22.566957,-24.25903,-21.104053,6.5609174,-13.263814,13.388539,2.326692,-29.412067,27.894741,8.181521,1.6323575,-2.3839161,-5.148864
208,-159.33714294433594,-136.11549377441406,73.28634643554688,5.482761560565388,3.786264154659399,-130.80687375522453,-28.025227,-6.1315746,21.315893,39.79485,-15.890229,15.000033,18.745916,-25.215376,-19.185358,101.493774,-13.862721,2.5765152,5.1974006,-3.6898997,19.20573,14.678571,21.068401,-23.824835,-20.673735,7.785212,-13.630661,13.235961,3.1665401,-29.000185,28.246948,10.487986,-0.6978595,-2.602983,-5.517724
209,-160.836669921875,-137.7001495361328,72.76702880859375,6.255048043716067,3.1163817183001585,-130.28988477896186,-26.89211,-7.053563,21.048233,42.83884,-18.757404,15.000033,17.724787,-28.228848,-19.079159,106.93225,-16.315145,0.88154405,4.309187,-4.475166,19.839737,11.224464,19.721296,-23.504509,-20.015219,9.037097,-14.052138,13.521168,4.320122,-28.596966,28.21705,12.208977,-3.9519932,-2.9222972,-5.8182654
210,-162.31735229492188,-139.2572479248047,72.3313980102539,7.157956042891303,2.433028070142416,-129.5808084785849,-25.204802,-8.296586,20.679228,44.767864,-21.319109,15.000033,16.194742,-30.816235,-18.288462,112.17143,-18.530985,-0.83701086,3.2610343,-5.3791304,20.547123,7.459468,18.525352,-23.30862,-19.216894,10.253057,-14.522967,14.1842375,5.7301297,-28.205164,27.861301,13.466403,-7.9345665,-3.3786137,-6.0720353
211,-163.80966186523438,-140.7649688720703,71.98626708984375,7.981976334543516,1.847816955578522,-128.86890954266778,-23.266256,-9.466576,20.187849,46.01104,-23.594517,15.000033,14.026838,-32.81403,-16.956345,116.983925,-20.551392,-2.439772,2.189419,-6.256985,21.118021,3.7155018,17.469576,-23.06178,-18.430893,11.56787,-14.920103,14.837564,7.2936616,-27.846857,27.410023,14.3246565,-11.80397,-3.9199798,-6.23965
212,-165.33807373046875,-142.25807189941406,71.75142669677734,8.511376392687312,1.4840325680487314,-128.3478485590274,-21.306894,-10.248959,19.609495,46.83539,-25.580763,15.000033,11.118929,-34.100365,-15.289833,121.077034,-22.386852,-3.8575933,1.2076054,-6.9312353,21.35389,0.33048022,16.546618,-22.583277,-17.806559,13.1178,-15.137667,15.076877,8.885852,-27.553617,27.124249,14.856593,-14.707583,-4.5039773,-6.2664466
213,-166.90414428710938,-143.7664794921875,71.64165496826172,8.681321577373204,1.4274093938821022,-128.11122035301503,-19.376503,-10.569156,19.042171,47.216095,-27.351345,15.000033,7.0663376,-34.538967,-13.154518,124.4987,-23.962536,-5.317318,0.3688042,-7.3487387,21.199888,-2.6835072,15.735901,-21.785973,-17.374908,15.121413,-15.136011,14.641611,10.511974,-27.350386,27.09267,14.992008,-16.433828,-5.144823,-6.133439
214,-168.46995544433594,-145.30477905273438,71.64483642578125,8.612712869927057,1.6112766881366267,-128.0504697918949,-17.357939,-10.61982,18.490108,47.003193,-28.874968,15.000033,1.9782833,-34.196888,-10.6043625,127.37541,-25.175884,-6.8437095,-0.4191922,-7.581365,20.76508,-5.5136023,15.028726,-20.80932,-17.027979,17.445824,-15.013339,13.774178,12.210817,-27.241407,27.19949,14.717567,-17.41603,-5.8680468,-5.8615007
215,-170.02369689941406,-146.89385986328125,71.74771118164062,8.386544678960664,1.9253341898803153,-128.04215336836444,-15.218253,-10.531312,17.885288,46.233265,-29.989645,15.000033,-3.4739466,-33.359352,-8.115665,129.55481,-26.029346,-8.063075,-1.2635813,-7.647135,20.11617,-8.101777,14.459933,-19.819983,-16.730505,19.700567,-14.8617,12.829288,13.917586,-27.221622,27.38617,14.187653,-17.776258,-6.6491466,-5.437094
216,-171.59291076660156,-148.52101135253906,71.9482192993164,8.085421552475545,2.2498826945556427,-127.95447082214858,-12.909695,-10.424586,17.133507,44.94391,-30.532526,15.000033,-8.629097,-32.395077,-6.0926976,130.87814,-26.587547,-8.590417,-2.2799726,-7.577319,19.333868,-10.327143,14.098233,-18.96556,-16.514477,21.486938,-14.732063,12.174394,15.555487,-27.277693,27.60368,13.557158,-17.635605,-7.4596267,-4.8492374
217,-173.1844482421875,-150.170654296875,72.24406433105469,7.721108184563054,2.5606806505144193,-127.72886113310992,-10.3501,-10.347284,16.106594,43.024883,-30.523096,15.000033,-13.350203,-31.47339,-4.7837796,131.22333,-26.946518,-8.239827,-3.5685232,-7.3782244,18.417414,-12.094876,14.009935,-18.223186,-16.494555,22.913088,-14.568204,11.908818,17.048168,-27.405592,27.90192,12.815367,-16.74694,-8.353052,-3.8589013
218,-174.8243408203125,-151.8266143798828,72.63777923583984,7.257945920911909,2.8975944392497417,-127.44390609886557,-7.5516644,-10.160187,14.8870125,40.51942,-30.0496,14.741183,-17.914452,-30.45293,-3.9698145,130.68048,-27.06878,-7.2723145,-5.0583053,-7.050422,17.378965,-13.410829,14.214373,-17.532572,-16.725485,24.098911,-14.340825,11.846334,18.425873,-27.598923,28.312498,11.899424,-15.121565,-9.2913065,-2.517908
219,-176.51641845703125,-153.49380493164062,73.13190460205078,6.608218345155255,3.219606474827118,-127.20982756378795,-4.6238675,-9.52537,13.750051,37.81446,-29.121521,13.642786,-22.176464,-29.281723,-3.6494143,129.39714,-26.93979,-6.265768,-6.569106,-6.5300527,16.348892,-14.284024,14.70085,-16.97428,-17.160683,24.666065,-14.117806,11.933726,19.769289,-27.830046,28.758957,10.891488,-13.292116,-10.13347,-1.2753695
220,-178.26217651367188,-155.19357299804688,73.71831512451172,5.900094993090075,3.526163888140153,-127.02400851818183,-1.700246,-8.684884,12.804689,35.001286,-27.564678,12.450579,-26.082472,-28.060062,-3.6062388,127.575386,-26.556423,-5.5773473,-8.016748,-5.9479866,15.376548,-14.756529,15.432293,-16.639917,-17.7119,24.241325,-13.970852,12.123415,21.173922,-28.06035,29.143158,9.879381,-11.81941,-10.791742,-0.6051741
221,-180.0543975830078,-156.9227752685547,74.3594741821289,5.075116771817879,3.827572085401006,-126.88168653434417,1.267043,-7.5813336,12.018657,31.985228,-25.280191,11.119737,-29.52982,-26.803381,-4.03863,125.15135,-25.94685,-5.360467,-9.390486,-5.2403755,14.4403305,-14.815251,16.397228,-16.588175,-18.315277,22.420403,-13.92896,12.466325,22.639273,-28.262697,29.476707,8.927936,-11.001606,-11.2992735,-0.71435976
222,-181.90133666992188,-158.67396545410156,75.03573608398438,4.141195349843181,4.131218621588477,-126.77213870977926,4.2674856,-6.268392,11.307073,28.753801,-22.367727,9.655278,-32.50596,-25.476044,-4.95184,122.05278,-25.179071,-5.2935095,-10.737897,-4.412055,13.510955,-14.467762,17.59409,-16.744177,-18.994114,19.505499,-13.96711,12.964889,24.094374,-28.42763,29.80687,8.028392,-10.5198555,-11.712943,-1.339104
223,-183.7926788330078,-160.42074584960938,75.7262954711914,3.2271832850061424,4.4133589207916115,-126.74429811641262,7.1239285,-4.9091516,10.75848,25.64187,-19.02482,8.140944,-35.071995,-24.055647,-6.0152807,118.47677,-24.31748,-5.2518067,-12.001375,-3.6096003,12.640372,-13.7956,18.983175,-17.000353,-19.779535,16.198246,-14.072889,13.495934,25.542437,-28.549059,30.076565,7.1545596,-10.016126,-12.007993,-2.2581246
224,-185.7276611328125,-162.14041137695312,76.41178131103516,2.4637511023963645,4.644805597626908,-126.8388055371922,9.720538,-3.6736076,10.444849,22.92794,-15.425805,6.6537848,-37.33142,-22.536509,-6.8651023,114.62282,-23.401617,-5.1452575,-13.119124,-2.9758966,11.87081,-12.900598,20.498413,-17.263802,-20.673933,13.207568,-14.2140465,13.938325,27.013662,-28.626219,30.20292,6.2620625,-9.128199,-12.163448,-3.2450478
225,-187.65994262695312,-163.85122680664062,77.06814575195312,1.8499754761652456,4.823694388959885,-127.09513800074434,12.125048,-2.5871394,10.366512,20.34079,-11.050841,5.004661,-39.344006,-20.891027,-7.397969,110.49818,-22.4199,-5.1077614,-14.051911,-2.505627,11.19287,-11.7662325,22.096453,-17.517307,-21.64044,10.332906,-14.502058,14.258597,28.563179,-28.656666,30.129902,5.3284097,-7.538243,-12.168598,-4.399634
226,-189.59019470214844,-165.588134765625,77.70356750488281,1.3614805867458566,4.946322856886121,-127.49603722566741,14.475223,-1.6378294,10.393411,17.77054,-5.9945846,3.162343,-41.05224,-19.137543,-7.7199636,106.02782,-21.381245,-5.1398625,-14.811775,-2.1645231,10.577745,-10.382597,23.770248,-17.793571,-22.643505,7.3419166,-14.912476,14.500146,30.183558,-28.643854,29.884016,4.3736296,-5.5129924,-12.067518,-5.7969704
227,-191.5086212158203,-167.3559112548828,78.32331848144531,1.051903716550921,4.989077361053842,-127.97656412406126,16.764002,-0.900686,10.49881,15.652348,-1.2641104,1.4678562,-42.406994,-17.356464,-7.811294,101.27599,-20.33224,-5.0056357,-15.432255,-2.0061681,10.037312,-8.860114,25.504826,-18.084476,-23.703907,4.8983006,-15.189898,14.687606,31.819162,-28.601143,29.500628,3.403184,-3.559885,-11.900027,-7.1705413
228,-193.39352416992188,-169.1466522216797,78.91558074951172,0.9101013976066106,4.959847133467997,-128.43794417993197,18.841726,-0.36441243,10.769667,14.528165,2.1669178,0.3476581,-43.375847,-15.630077,-7.7280416,96.27506,-19.298088,-4.4948597,-15.978154,-2.005746,9.576086,-7.3285723,27.278574,-18.394846,-24.828625,3.6706574,-15.077647,14.867083,33.42803,-28.550543,29.006569,2.4069011,-2.185497,-11.663393,-8.24884
229,-195.26144409179688,-170.92465209960938,79.45242309570312,0.919570266973252,4.899104790208512,-128.82851699372534,20.453678,0.09144403,11.373876,14.828486,3.9381037,0.13882336,-44.023804,-14.02146,-7.450703,91.00224,-18.251469,-3.5865753,-16.492264,-2.1157632,9.173315,-5.828345,29.080233,-18.721062,-26.044838,4.0091276,-14.368889,15.059661,35.04314,-28.508722,28.36414,1.341388,-1.5035731,-11.327483,-9.0014925
230,-197.09429931640625,-172.68270874023438,79.9066162109375,1.0199036838853468,4.839428746515503,-129.15217182852206,21.596333,0.6067496,12.269613,16.330486,4.574215,0.61190325,-44.378853,-12.523778,-7.0124364,85.42097,-17.180216,-2.4509296,-16.989063,-2.265664,8.810408,-4.3018956,30.904255,-19.057169,-27.33345,5.4983816,-13.237679,15.214345,36.704964,-28.480234,27.548634,0.18072528,-1.2417375,-10.874264,-9.557817
231,-198.86460876464844,-174.40008544921875,80.24729919433594,1.143739682774705,4.779988122899914,-129.39238937201452,22.49875,1.2108444,13.260824,18.539454,4.4835224,1.3865852,-44.377655,-11.130504,-6.5394573,79.51949,-16.122025,-1.1655866,-17.49096,-2.4047153,8.491241,-2.7381191,32.734596,-19.417675,-28.621277,7.66548,-12.003333,15.275664,38.38044,-28.46656,26.609398,-1.0512545,-1.3268831,-10.302054,-9.882974
232,-200.59152221679688,-176.0843505859375,80.48786163330078,1.2456456986753142,4.708571660923803,-129.5441198246983,23.361631,1.853335,14.145021,21.024738,4.0757155,2.051175,-43.960434,-9.830486,-6.1410866,73.269035,-15.105796,0.20477344,-18.007933,-2.5089033,8.219604,-1.1338292,34.55058,-19.820425,-29.823286,10.049343,-10.989884,15.221247,40.030506,-28.463211,25.60412,-2.31931,-1.6889952,-9.6143,-9.942813
233,-202.30894470214844,-177.7589874267578,80.65106201171875,1.3338359535151463,4.629075301903045,-129.55770363089067,24.150904,2.5096571,14.821883,23.940783,3.1584706,2.4719396,-43.093746,-8.643358,-5.785998,66.48788,-14.062554,1.7659212,-18.570532,-2.5831404,7.989956,0.42931214,36.3558,-20.305866,-30.881842,12.863398,-10.239983,15.030394,41.68889,-28.454142,24.479082,-3.6454775,-2.5208042,-8.751105,-9.663543
234,-204.02841186523438,-179.45907592773438,80.75877380371094,1.505232371754538,4.515119121174857,-129.47920848940961,24.818258,3.1892607,15.388497,27.483591,1.5640715,2.9117534,-41.810028,-7.6441407,-5.315887,59.197586,-12.985037,3.4813442,-19.137365,-2.7291312,7.7955875,1.9539375,38.152145,-20.873684,-31.82523,16.253328,-9.611159,14.711072,43.353592,-28.421642,23.237377,-5.0235233,-3.795028,-7.7415843,-9.06968
235,-205.75604248046875,-181.19297790527344,80.82413482666016,1.7995612058877593,4.328923056647105,-129.4348685788921,25.464205,3.8611348,15.949999,31.38244,-0.27666506,3.5068967,-40.170265,-6.86042,-4.737445,51.680782,-11.988847,5.0932484,-19.615988,-3.0152187,7.6332397,3.5617611,39.909935,-21.482237,-32.680138,19.66256,-9.144645,14.3279295,44.93362,-28.368317,22.012331,-6.3667917,-5.1163635,-6.722259,-8.28608
236,-207.4984588623047,-182.95401000976562,80.84326171875,2.2151169504574226,4.049357637614084,-129.53367436728217,26.222528,4.4719377,16.62832,35.24729,-1.8606292,4.3748527,-38.240204,-6.278548,-4.136426,44.199085,-11.170872,6.3605614,-19.927446,-3.456054,7.501547,5.374704,41.583355,-22.083494,-33.470165,22.539284,-8.868518,13.952329,46.3583,-28.321,20.92348,-7.6052556,-6.086534,-5.8129053,-7.456718
237,-209.24440002441406,-184.73333740234375,80.79828643798828,2.8076150648836085,3.641619053766849,-129.82201413031007,27.19855,4.8132277,17.397425,38.914433,-2.9973469,5.594101,-35.901222,-5.896235,-3.4780424,36.46121,-10.536178,7.157442,-20.0372,-4.098536,7.407123,7.447375,43.14421,-22.69496,-34.188267,24.824337,-8.884344,13.61781,47.697968,-28.311476,19.931519,-8.757696,-6.6514783,-5.009463,-6.566845
238,-211.0028533935547,-186.53240966796875,80.6632080078125,3.5844948330548414,3.114760436022091,-130.21003630295846,28.324465,4.8991857,18.17992,42.56392,-3.9420938,7.080172,-33.09514,-5.7776957,-2.7928042,28.282393,-9.95186,7.6301875,-20.018967,-4.937326,7.3453355,9.671272,44.590504,-23.355997,-34.780815,26.794794,-9.144148,13.296985,49.00771,-28.352797,18.976408,-9.885839,-7.0043106,-4.2521405,-5.5705247
239,-212.77503967285156,-188.35768127441406,80.42707824707031,4.479094595898032,2.509974066048501,-130.59044741361,29.512383,4.988377,19.038029,46.26951,-4.8245354,8.718316,-30.01336,-5.9602976,-2.2908702,20.154247,-9.313387,8.007274,-19.959578,-5.9162188,7.300198,11.949088,45.917877,-24.049747,-35.227837,28.414692,-9.440875,12.95831,50.207695,-28.451324,18.142168,-10.988246,-7.1129622,-3.5594525,-4.576077
