unveil-humanoid-operators/unveil-humanoid-operators.github.io/feature-analysis-animation/data/feature_matrix_instances/height_root_translate_rom_walking_A094_walk_ff_start_225_002__A094.csv
Frame,root_translateX,root_translateY,root_translateZ,root_rotateX,root_rotateY,root_rotateZ,left_hip_pitch_joint_dof,left_hip_roll_joint_dof,left_hip_yaw_joint_dof,left_knee_joint_dof,left_ankle_pitch_joint_dof,left_ankle_roll_joint_dof,right_hip_pitch_joint_dof,right_hip_roll_joint_dof,right_hip_yaw_joint_dof,right_knee_joint_dof,right_ankle_pitch_joint_dof,right_ankle_roll_joint_dof,waist_yaw_joint_dof,waist_roll_joint_dof,waist_pitch_joint_dof,left_shoulder_pitch_joint_dof,left_shoulder_roll_joint_dof,left_shoulder_yaw_joint_dof,left_elbow_joint_dof,left_wrist_roll_joint_dof,left_wrist_pitch_joint_dof,left_wrist_yaw_joint_dof,right_shoulder_pitch_joint_dof,right_shoulder_roll_joint_dof,right_shoulder_yaw_joint_dof,right_elbow_joint_dof,right_wrist_roll_joint_dof,right_wrist_pitch_joint_dof,right_wrist_yaw_joint_dof
0,-0.014698058366775513,-2.128995418548584,78.06245422363281,0.09119095715662717,-0.059480415694083445,90.81949275483191,1.5257756,1.6740495,-3.0529232,7.8558636,-11.788847,-3.424458,3.6403458,-1.2368076,-3.3168793,8.160202,-12.689893,1.5765123,-1.7091736,-0.055588324,6.9036093,2.6873317,13.717414,-32.47042,58.905228,30.967192,3.4546046,-1.9165956,1.2694166,-15.153783,33.635433,56.79976,-29.822523,0.25794324,4.182252
1,-0.020475342869758606,-2.140458106994629,78.06098175048828,0.08997272824571322,-0.053497518827074125,90.83150490200097,1.5129936,1.6748501,-3.0643983,7.8522906,-11.7835045,-3.4287531,3.6335464,-1.2353487,-3.3271663,8.153638,-12.684082,1.5790653,-1.6827298,-0.046156235,6.9053693,2.6794212,13.717763,-32.51193,58.898308,30.965801,3.4561226,-1.9072315,1.3115313,-15.174759,33.98341,56.895912,-29.688366,0.28906327,3.3080633
2,-0.018678702414035797,-2.146406412124634,78.06035614013672,0.08870014232078319,-0.04754183154931063,90.84328996836592,1.4996753,1.6752372,-3.0755923,7.850098,-11.778834,-3.4329882,3.6276968,-1.2341336,-3.3370855,8.145365,-12.677251,1.5827842,-1.686961,-0.03627403,6.9026837,2.688249,13.711601,-32.516994,58.889294,30.973772,3.456375,-1.8984433,1.3226156,-15.189126,34.40094,57.032124,-29.525543,0.32171175,2.365542
3,-0.017681414261460304,-2.1508755683898926,78.06037139892578,0.08676523222084838,-0.0415109020410966,90.85554370026523,1.4857371,1.6760921,-3.0873911,7.848587,-11.774421,-3.4373386,3.6205478,-1.2325591,-3.347787,8.139478,-12.672062,1.5841986,-1.6828367,-0.028432818,6.899315,2.6876755,13.703394,-32.532448,58.89065,30.980206,3.4564776,-1.8869579,1.3354712,-15.194455,34.75063,57.154213,-29.401005,0.34727982,1.5511436
4,-0.010220445692539215,-2.1532299518585205,78.06111907958984,0.08375790361549866,-0.035024917040314914,90.86890875858515,1.471235,1.6782634,-3.1008952,7.846066,-11.768483,-3.4420068,3.612022,-1.2297248,-3.3604538,8.135979,-12.66927,1.5797645,-1.6976663,-0.022841144,6.894748,2.6953783,13.693213,-32.5298,58.892178,30.990868,3.454516,-1.870111,1.3363918,-15.195065,34.98729,57.23927,-29.352186,0.36351013,1.0561255
5,-0.012155182659626007,-2.1634974479675293,78.06207275390625,0.07867931876232796,-0.027184353293337953,90.88615329507876,1.4526925,1.6821524,-3.119296,7.8455553,-11.761783,-3.4476707,3.6006749,-1.2250916,-3.3782082,8.135964,-12.670613,1.564535,-1.7073725,-0.020887073,6.8945136,2.695522,13.689021,-32.536156,58.895603,31.005762,3.4510512,-1.8477101,1.346967,-15.194434,35.038986,57.25708,-29.436785,0.36561635,0.96899706
6,-0.009334717877209187,-2.1659927368164062,78.06416320800781,0.07107055786336523,-0.01785525856206369,90.90638807539325,1.4306225,1.6871219,-3.1414678,7.8466644,-11.754503,-3.453951,3.5860546,-1.2191646,-3.3998575,8.139863,-12.675415,1.5417413,-1.7449667,-0.019271407,6.8870363,2.7125525,13.682771,-32.527695,58.896206,31.01944,3.4484303,-1.8167248,1.3432745,-15.192755,35.015217,57.247837,-29.588846,0.362459,1.1683682
7,-0.006554790306836367,-2.1711740493774414,78.06543731689453,0.06396293263238362,-0.009656692243922956,90.92383906404017,1.4104912,1.6922756,-3.160704,7.8480644,-11.747819,-3.4596643,3.57256,-1.2133913,-3.418958,8.143811,-12.679827,1.5201781,-1.7833128,-0.01949142,6.8821745,2.7305396,13.676514,-32.513664,58.896137,31.030228,3.4427564,-1.7847891,1.339383,-15.190369,34.904377,57.204826,-29.763292,0.35335666,1.5559937
8,-0.00751127814874053,-2.17995285987854,78.06484985351562,0.059303956029001924,-0.004760019604575007,90.9325743016979,1.3967764,1.6972412,-3.1705077,7.8501163,-11.744064,-3.463705,3.563169,-1.2083005,-3.4290493,8.144591,-12.679132,1.5083706,-1.7946328,-0.02221962,6.8839035,2.7322853,13.668504,-32.5126,58.905106,31.029745,3.4323642,-1.7561275,1.3472644,-15.187057,34.704563,57.130375,-29.90788,0.33985212,2.0304484
9,-0.006882822141051292,-2.186840534210205,78.06383514404297,0.05785283901236271,0.0032339853837878227,90.93033255608073,1.3866187,1.7024794,-3.1679251,7.843496,-11.738451,-3.4659967,3.5522861,-1.2038392,-3.428274,8.136692,-12.66764,1.5114591,-1.7878746,-0.02706381,6.881416,2.7272234,13.658478,-32.51983,58.919434,31.00123,3.4148016,-1.7282907,1.3607078,-15.182916,34.38178,57.00845,-29.988756,0.3230753,2.6881704
10,-0.0020558517426252365,-2.192140579223633,78.06351470947266,0.05758067135669296,0.013328155960474276,90.92076489563709,1.3750459,1.7079542,-3.1573,7.8383665,-11.734966,-3.4671073,3.5393507,-1.1994667,-3.42041,8.125468,-12.650283,1.5238307,-1.7857534,-0.03344666,6.876078,2.7322402,13.649624,-32.51542,58.925144,30.955997,3.391959,-1.7004,1.3665794,-15.179235,33.966988,56.84974,-30.033512,0.3028813,3.5411572
11,0.0022427919320762157,-2.1907572746276855,78.06330871582031,0.05951644530685648,0.012397841841514547,90.90630892169274,1.3768444,1.7117839,-3.1416957,7.8375144,-11.735814,-3.4665933,3.5385911,-1.1969469,-3.4069266,8.116062,-12.635049,1.5384549,-1.7821051,-0.043170918,6.8805594,2.742538,13.643491,-32.508827,58.92692,30.91216,3.369823,-1.6746898,1.3743283,-15.176202,33.57439,56.693466,-30.064224,0.28515446,4.355734
12,0.005731392651796341,-2.19222354888916,78.06256866455078,0.06460182294920737,-0.012595812827254802,90.88959876647895,1.4052168,1.7119898,-3.1244462,7.8452096,-11.743245,-3.4641008,3.5613446,-1.197365,-3.389497,8.120611,-12.633978,1.5481783,-1.7663025,-0.05747626,6.906076,2.749973,13.639788,-32.516724,58.93319,30.885565,3.3554132,-1.6520808,1.3944167,-15.1736555,33.312927,56.58155,-30.104536,0.27552906,4.897682
13,0.006642404478043318,-2.19586181640625,78.06172180175781,0.07414947338512227,-0.07312379042678382,90.87171257745077,1.472304,1.7066771,-3.1068876,7.864168,-11.758499,-3.4589827,3.6177132,-1.202357,-3.368032,8.14675,-12.653382,1.5515008,-1.7357962,-0.07913249,6.964047,2.751142,13.6385355,-32.545692,58.948784,30.882446,3.349154,-1.6270945,1.4308752,-15.1711235,33.242527,56.534702,-30.1606,0.27933753,5.044834
14,0.006675694137811661,-2.208641529083252,78.05994415283203,0.08563756348232844,-0.15977774014192983,90.85089234590966,1.5661827,1.6979687,-3.0870316,7.8965945,-11.7831,-3.4517639,3.7013865,-1.2103094,-3.3416824,8.183008,-12.684106,1.5520067,-1.6895915,-0.10691481,7.048376,2.7423236,13.638839,-32.58758,58.97441,30.896349,3.3465672,-1.6023798,1.4824135,-15.16859,33.28141,56.522587,-30.227797,0.29144225,4.9437118
15,0.01191361527889967,-2.186149835586548,78.06159973144531,0.09923714734301704,-0.2536006923985819,90.82611790848487,1.6695421,1.6880153,-3.0634515,7.9317837,-11.811095,-3.4433525,3.789793,-1.2198535,-3.3113604,8.228677,-12.722306,1.5506229,-1.6427952,-0.13517877,7.133164,2.7422426,13.639933,-32.632084,58.996384,30.914476,3.3518796,-1.5860875,1.5320544,-15.16411,33.37416,56.533653,-30.2865,0.30655485,4.7562366
16,0.016226863488554955,-2.171182632446289,78.06161499023438,0.11001272981693692,-0.3364534237725251,90.79594568360763,1.76443,1.6797917,-3.0342414,7.9617786,-11.837954,-3.4347732,3.8670297,-1.2282698,-3.2776027,8.270748,-12.75776,1.5479219,-1.6018777,-0.15821874,7.208116,2.7538471,13.640508,-32.650826,59.002373,30.94499,3.363533,-1.5939809,1.5711232,-15.160574,33.428547,56.535606,-30.344105,0.3129686,4.653702
17,0.016914434731006622,-2.173609733581543,78.05957794189453,0.1197477204152884,-0.4065152354769315,90.75668057667737,1.8499876,1.6730998,-2.9959733,7.9881415,-11.865865,-3.4248161,3.931431,-1.2362964,-3.2377996,8.309859,-12.7916975,1.5434399,-1.5690851,-0.17450859,7.2609835,2.7846804,13.640073,-32.65278,58.993927,30.976122,3.3889053,-1.6338031,1.5931433,-15.158339,33.443947,56.535664,-30.387402,0.3094666,4.678736
18,0.01798994280397892,-2.188063859939575,78.05747985839844,0.13049699130341988,-0.4740823607192425,90.70947658647736,1.938884,1.6661013,-2.9496274,8.0092125,-11.894129,-3.4133317,3.9919171,-1.2452815,-3.1917286,8.352287,-12.82859,1.5371155,-1.5351081,-0.18811522,7.30175,2.8325746,13.638764,-32.646687,58.972572,31.016502,3.4277544,-1.6975819,1.6156902,-15.156312,33.449196,56.53525,-30.428825,0.3022608,4.742479
19,0.017666297033429146,-2.200220823287964,78.05562591552734,0.13840819009751082,-0.5327169705272481,90.66298429050123,2.0191352,1.6613766,-2.903838,8.025163,-11.919089,-3.4032516,4.0429173,-1.2524263,-3.1468344,8.391876,-12.862231,1.5301551,-1.5039623,-0.19758624,7.336662,2.8844037,13.635617,-32.628777,58.943375,31.06111,3.466864,-1.7660263,1.6330383,-15.153668,33.444542,56.53574,-30.463642,0.29197422,4.8084393
20,0.007439177483320236,-2.1308000087738037,78.05803680419922,0.1437498370975717,-0.5773315901487743,90.62585047095378,2.0783741,1.6595886,-2.8669865,8.040564,-11.9396105,-3.3972967,4.081242,-1.2557775,-3.1104136,8.420359,-12.885432,1.5238642,-1.4728761,-0.20531723,7.3661427,2.9161522,13.633234,-32.61908,58.92663,31.085268,3.492548,-1.817389,1.6504844,-15.152236,33.441147,56.53214,-30.47117,0.28244457,4.835178
21,0.01446081604808569,-2.1100494861602783,78.0583267211914,0.1445947967232368,-0.6031721007772861,90.6005302499614,2.1144335,1.6626236,-2.8411424,8.04519,-11.948899,-3.3977885,4.100399,-1.2537165,-3.0841384,8.438687,-12.896526,1.5176756,-1.4467083,-0.2101956,7.384939,2.9375844,13.63044,-32.609188,58.914314,31.08973,3.5024996,-1.8430912,1.6698304,-15.150627,33.442234,56.525394,-30.439293,0.27625948,4.797747
22,0.015251328237354755,-2.117675542831421,78.05803680419922,0.1437674887338295,-0.6139574231817547,90.58262693236604,2.1301875,1.6693434,-2.822289,8.047295,-11.953321,-3.402745,4.105721,-1.2475406,-3.0645013,8.446702,-12.897555,1.5111351,-1.422809,-0.21228294,7.3944206,2.9481018,13.628152,-32.6024,58.90805,31.074778,3.501722,-1.8545358,1.6882751,-15.149132,33.44697,56.516296,-30.372002,0.27079517,4.721563
23,0.014694123528897762,-2.1272940635681152,78.05735778808594,0.14119713912956489,-0.6176987179919823,90.57062925334613,2.1357923,1.6765468,-2.809368,8.04773,-11.954729,-3.4081736,4.1036935,-1.2407047,-3.0510664,8.451392,-12.895278,1.5061713,-1.4049299,-0.21370964,7.39938,2.953865,13.627244,-32.599045,58.903393,31.053514,3.4983888,-1.8612235,1.6991367,-15.148482,33.448906,56.509586,-30.311752,0.2655469,4.6530037
24,0.013214198872447014,-2.129300594329834,78.05839538574219,0.13908538756632452,-0.6230649814871305,90.55711080473594,2.1431038,1.6824158,-2.7953594,8.04837,-11.956878,-3.4104161,4.104686,-1.2354417,-3.037499,8.453627,-12.893197,1.5041463,-1.3850915,-0.21574862,7.405591,2.96148,13.624868,-32.592598,58.89445,31.045944,3.500541,-1.8773494,1.7161839,-15.146748,33.455467,56.502953,-30.274836,0.26076233,4.5995436
25,0.011910653673112392,-2.1330208778381348,78.05824279785156,0.13974984869004237,-0.6306396362301628,90.54634701163279,2.1507359,1.6849035,-2.7849162,8.051165,-11.960304,-3.407352,4.108515,-1.2337964,-3.0288584,8.456329,-12.8944845,1.5070043,-1.3889071,-0.21946906,7.4103637,2.9758136,13.61514,-32.56694,58.88685,31.063791,3.511665,-1.9045309,1.712734,-15.139727,33.474506,56.513966,-30.299732,0.25715807,4.6046305
26,0.013905176892876625,-2.1347057819366455,78.05834197998047,0.14116770789353664,-0.636697470296475,90.5385559347819,2.1540334,1.6862609,-2.7780998,8.056106,-11.964501,-3.401444,4.112671,-1.2335277,-3.024665,8.453691,-12.893648,1.5133168,-1.3857478,-0.22252533,7.4180937,2.9843047,13.611246,-32.558277,58.87267,31.082666,3.5271208,-1.937801,1.7123779,-15.136815,33.47548,56.518074,-30.362488,0.25080746,4.6433244
27,0.014558369293808937,-2.136706829071045,78.05780792236328,0.14181745320553182,-0.6416601450928181,90.5324366360409,2.1556282,1.6870122,-2.772843,8.060752,-11.968015,-3.3951395,4.1167326,-1.2337134,-3.0223134,8.44916,-12.891944,1.5204182,-1.3872516,-0.22510657,7.4255557,2.993476,13.604195,-32.54007,58.85887,31.108372,3.541611,-1.970772,1.7050858,-15.13137,33.47532,56.529457,-30.431852,0.24543592,4.6885605
28,0.015439620241522789,-2.1422927379608154,78.05775451660156,0.1415589830392449,-0.6457212580889331,90.52684503516649,2.1571367,1.6878644,-2.7675362,8.064949,-11.9711895,-3.3909087,4.119238,-1.2334815,-3.0194418,8.447407,-12.890662,1.5257032,-1.3818282,-0.22807722,7.4314885,2.998932,13.600705,-32.529755,58.84847,31.11925,3.5499282,-1.9956032,1.704949,-15.128718,33.475353,56.534748,-30.467382,0.24441065,4.7142034
29,0.016853369772434235,-2.1419358253479004,78.05753326416016,0.14070965932949014,-0.6487236730154712,90.52199226095043,2.1604142,1.6892381,-2.762071,8.064609,-11.971565,-3.3901892,4.119724,-1.2324833,-3.015581,8.44834,-12.888751,1.5284299,-1.3679243,-0.23085737,7.436702,3.0021005,13.597862,-32.524338,58.83969,31.109526,3.5491297,-2.0072196,1.7112638,-15.126585,33.47502,56.53405,-30.453718,0.2499181,4.7127857
30,0.01356349978595972,-2.1430952548980713,78.0564956665039,0.14055766378983336,-0.651461866859541,90.51720350372885,2.1653783,1.690558,-2.7560167,8.062072,-11.971214,-3.3913987,4.1213694,-1.2310419,-3.01081,8.447371,-12.884728,1.5299394,-1.3550533,-0.23438871,7.4399633,3.0044937,13.590086,-32.50304,58.836594,31.102634,3.5434666,-2.0155363,1.7197237,-15.121075,33.48003,56.532852,-30.414291,0.2645568,4.695687
31,0.012860882095992565,-2.1434478759765625,78.0561294555664,0.1391123507298322,-0.652856313120398,90.51352974843867,2.167609,1.6914777,-2.75107,8.061804,-11.971491,-3.3924959,4.1202016,-1.2300558,-3.007142,8.449962,-12.882504,1.5309508,-1.3401748,-0.23670828,7.442748,3.006595,13.585277,-32.49262,58.83128,31.086136,3.5360317,-2.0195541,1.7297406,-15.117769,33.483246,56.52942,-30.36747,0.27606723,4.6750154
32,0.014285613782703876,-2.1447837352752686,78.05667877197266,0.1388229454962022,-0.653691049085131,90.5102847799678,2.1688113,1.69184,-2.7467415,8.06104,-11.971048,-3.3914444,4.1190405,-1.2299888,-3.0047863,8.451138,-12.880709,1.5321181,-1.3296852,-0.23828787,7.4454513,3.0099866,13.581808,-32.485703,58.823616,31.074917,3.5318289,-2.0261855,1.7363212,-15.115599,33.484802,56.528458,-30.3385,0.27942553,4.659447
33,0.012547576799988747,-2.1472270488739014,78.0568618774414,0.13944112404147457,-0.6529998467569723,90.50730210084001,2.1670456,1.6909424,-2.7427459,8.062707,-11.971724,-3.386493,4.1166887,-1.2315813,-3.0040367,8.451428,-12.879855,1.5336723,-1.3324808,-0.2386969,7.4462113,3.0180323,13.576261,-32.4728,58.81477,31.078835,3.5316925,-2.037253,1.7357464,-15.112698,33.488735,56.53422,-30.34065,0.27062103,4.652278
34,0.010502753779292107,-2.148301601409912,78.05717468261719,0.14054040040757496,-0.6511271476737911,90.50504255319454,2.163387,1.6894917,-2.739494,8.0648155,-11.972254,-3.3791358,4.112811,-1.2341777,-3.0047429,8.452218,-12.880133,1.5352328,-1.3401581,-0.23710822,7.4468703,3.0285192,13.572755,-32.464115,58.801765,31.085838,3.532732,-2.049873,1.732455,-15.111134,33.49112,56.54098,-30.357344,0.25233722,4.6495347
35,0.01144823245704174,-2.1481540203094482,78.05763244628906,0.14088853049386643,-0.6493965871586006,90.50325566849732,2.1595218,1.687686,-2.7371137,8.067611,-11.973092,-3.3721478,4.109675,-1.2369508,-3.0060904,8.452229,-12.880416,1.5364847,-1.350642,-0.23532681,7.447767,3.0409918,13.567972,-32.45176,58.78764,31.096832,3.5350132,-2.0631866,1.7243179,-15.109384,33.49478,56.55289,-30.374706,0.23295978,4.6454
36,0.009710671380162239,-2.1492936611175537,78.0575180053711,0.14175794336098366,-0.6494045865307526,90.50164722617234,2.1579392,1.6862501,-2.7359054,8.070193,-11.974278,-3.3683827,4.1083884,-1.2391068,-3.0071955,8.4531975,-12.881229,1.5369893,-1.3568243,-0.23522434,7.451452,3.0472782,13.560962,-32.43779,58.78029,31.104336,3.5368783,-2.0759559,1.7178401,-15.106928,33.501064,56.560707,-30.374296,0.22134574,4.6349254
37,0.007880627177655697,-2.1505229473114014,78.0561294555664,0.14123055221194428,-0.6520931529631582,90.50089836003244,2.1606314,1.6853741,-2.737113,8.069348,-11.973637,-3.3701327,4.1099706,-1.2402207,-3.0088725,8.455329,-12.882837,1.5361532,-1.352584,-0.23811479,7.457605,3.0432298,13.552197,-32.42731,58.783848,31.104376,3.5378184,-2.0894597,1.7142397,-15.104042,33.506954,56.566135,-30.33995,0.21947281,4.610427
38,0.008651978336274624,-2.1511223316192627,78.05610656738281,0.1397171579520369,-0.6563463888268826,90.50101778386535,2.1650329,1.6847249,-2.7402735,8.067888,-11.972446,-3.3753607,4.113351,-1.2408093,-3.011309,8.458435,-12.885363,1.5342906,-1.3391287,-0.24270508,7.4665804,3.036896,13.549123,-32.424347,58.78548,31.097788,3.5383132,-2.1042993,1.7166222,-15.102946,33.50782,56.563564,-30.28567,0.22205275,4.5782194
39,-0.0012858019908890128,-2.153719663619995,78.05719757080078,0.1376680701317465,-0.6602674860883799,90.50089451325908,2.1697853,1.6841961,-2.7432735,8.065888,-11.971743,-3.3804748,4.1167564,-1.241181,-3.0128942,8.460803,-12.88743,1.5326788,-1.3258368,-0.24821207,7.4745965,3.0318992,13.547522,-32.422802,58.78726,31.090353,3.5399554,-2.1153445,1.7188356,-15.102364,33.508007,56.561478,-30.242737,0.2272678,4.552493
40,0.003365099197253585,-2.1537282466888428,78.0567855834961,0.13668573172259602,-0.6641707713837282,90.49937903044801,2.1749885,1.6835368,-2.7438033,8.064381,-11.972185,-3.3817778,4.120201,-1.2415403,-3.0121377,8.462071,-12.888491,1.5326791,-1.310828,-0.2540107,7.4852815,3.022048,13.543303,-32.421776,58.79095,31.08878,3.5445976,-2.1236293,1.7225593,-15.100861,33.50978,56.558395,-30.224518,0.23515278,4.536322
41,0.002622362691909075,-2.154796838760376,78.05644989013672,0.13610732906460693,-0.6666163735649129,90.49580064043033,2.1772819,1.6832181,-2.7410464,8.067525,-11.976507,-3.3776362,4.1220784,-1.2414577,-3.0080063,8.462377,-12.888827,1.5343522,-1.2981728,-0.26116368,7.4921074,3.0119956,13.538752,-32.42467,58.800568,31.094267,3.5539095,-2.1216352,1.726403,-15.099456,33.51243,56.559563,-30.267565,0.2464917,4.547677
42,-0.001424209214746952,-2.1552226543426514,78.05615997314453,0.13577581045256035,-0.6680542135352904,90.49113051172205,2.1788337,1.6831044,-2.7364717,8.071212,-11.981891,-3.3701985,4.123004,-1.2412821,-3.001655,8.461806,-12.888305,1.5371146,-1.2858269,-0.26875243,7.498335,3.0056667,13.535454,-32.429733,58.80639,31.104324,3.5657887,-2.1137955,1.7309302,-15.098571,33.514874,56.561375,-30.348267,0.25972837,4.57703
43,-0.00398604292422533,-2.1548829078674316,78.05615997314453,0.1365275554255046,-0.6688995409678304,90.48609728605311,2.1797037,1.6828038,-2.7309093,8.0750475,-11.987658,-3.3618152,4.1228485,-1.2412227,-2.994482,8.461967,-12.888069,1.5411844,-1.2744448,-0.2763405,7.502748,2.9979763,13.531882,-32.438343,58.815514,31.109028,3.5777514,-2.1021068,1.7387762,-15.097801,33.515278,56.559166,-30.431093,0.27452222,4.608967
44,-0.0026302391197532415,-2.1516401767730713,78.05653381347656,0.13677696061826536,-0.6688101183488453,90.48249292845755,2.1794736,1.6815052,-2.7261915,8.078676,-11.993004,-3.3546789,4.1232424,-1.2419306,-2.9886568,8.459354,-12.885912,1.5466461,-1.2665471,-0.27998653,7.5081697,2.9945092,13.528009,-32.444614,58.81638,31.104984,3.583178,-2.093697,1.7407199,-15.097212,33.51288,56.56083,-30.47109,0.28197467,4.6249146
45,-0.004650590009987354,-2.1515707969665527,78.05622100830078,0.1373365070943228,-0.6677809913247327,90.48040922760704,2.179864,1.6789978,-2.721669,8.077814,-11.995564,-3.34942,4.123089,-1.2437032,-2.9840665,8.456754,-12.883579,1.5545186,-1.2602525,-0.28326264,7.515302,2.9927893,13.5251045,-32.44504,58.812305,31.089537,3.5781782,-2.0868924,1.7394986,-15.0968685,33.507763,56.558083,-30.445915,0.2819064,4.6208324
46,-0.010207608342170715,-2.1503655910491943,78.05545806884766,0.1376892221227772,-0.6660977034207693,90.47910028105586,2.1799662,1.675834,-2.7168882,8.075426,-11.997211,-3.3448193,4.1235113,-1.2461658,-2.9798899,8.452035,-12.8798275,1.564413,-1.2537782,-0.28571078,7.5250273,2.9890747,13.520287,-32.440712,58.80759,31.068752,3.5658252,-2.080141,1.7350227,-15.09649,33.496338,56.55327,-30.383293,0.27608362,4.6062193
47,-0.013519888743758202,-2.150533437728882,78.0538558959961,0.1382028339615959,-0.6636757635688528,90.47857852644744,2.179164,1.6718025,-2.7131472,8.073559,-11.999014,-3.340481,4.1240106,-1.249178,-2.9766684,8.445804,-12.875279,1.5744942,-1.2586089,-0.28042012,7.535683,2.988448,13.510058,-32.42949,58.7988,31.046667,3.552757,-2.0771961,1.7219918,-15.096434,33.482765,56.557545,-30.319101,0.2669365,4.586504
48,-0.014428184367716312,-2.1493489742279053,78.05423736572266,0.13845716771296074,-0.6606160393716567,90.47869177331926,2.1775014,1.66702,-2.7114813,8.071256,-11.9998865,-3.336086,4.1223106,-1.2531122,-2.974634,8.443794,-12.873755,1.5828627,-1.2840858,-0.2680623,7.5413737,3.001905,13.506208,-32.421215,58.77682,31.01592,3.5434344,-2.0817325,1.7002801,-15.096913,33.48254,56.579044,-30.278852,0.2586913,4.5637317
49,-0.02313855290412903,-2.1504440307617188,78.0536117553711,0.13832843218702243,-0.6575122965579784,90.47978288720354,2.1748757,1.6617438,-2.713393,8.070505,-12.000756,-3.3320959,4.1220665,-1.2574487,-2.9748583,8.438921,-12.871289,1.5887392,-1.3749167,-0.228914,7.5437,3.0596383,13.489993,-32.37499,58.716373,30.989017,3.5438783,-2.098652,1.6266656,-15.100128,33.529373,56.659737,-30.27947,0.24662466,4.540676
50,-0.027557628229260445,-2.1482057571411133,78.05392456054688,0.1377045615132619,-0.6537511151719894,90.48163585596396,2.1734605,1.6553115,-2.7175798,8.065134,-11.998384,-3.3285098,4.1200213,-1.2630326,-2.9765782,8.437771,-12.871556,1.593309,-1.5130445,-0.17508352,7.540112,3.142355,13.464966,-32.30318,58.64069,30.96002,3.5481002,-2.1238348,1.526818,-15.106686,33.61717,56.77074,-30.296686,0.23469767,4.5124874
51,-0.03389876335859299,-2.1456334590911865,78.05355072021484,0.1372572090159879,-0.6490067019975627,90.48400094954357,2.1683464,1.6483976,-2.722356,8.065922,-11.99946,-3.324207,4.116688,-1.2689674,-2.9786508,8.437364,-12.872621,1.5974371,-1.6340374,-0.12334358,7.536754,3.21937,13.449082,-32.25483,58.563328,30.923351,3.5533903,-2.1488614,1.4401903,-15.1119995,33.682457,56.87196,-30.314714,0.22442587,4.4814
52,-0.04254956543445587,-2.1444714069366455,78.0537109375,0.13633073725802913,-0.642659579267863,90.48691145107883,2.1641042,1.6406897,-2.7257571,8.061995,-11.99862,-3.3178532,4.1129184,-1.2757463,-2.9800808,8.435189,-12.873372,1.6021668,-1.7323291,-0.08637871,7.5333185,3.278843,13.431135,-32.20772,58.510853,30.89539,3.5530689,-2.162622,1.3701941,-15.118037,33.740902,56.94678,-30.2926,0.22263467,4.4461303
53,-0.05087631940841675,-2.142772912979126,78.05447387695312,0.1371663310466921,-0.6324918326287349,90.49174366854406,2.1550355,1.6315948,-2.7282672,8.059889,-11.999163,-3.3085153,4.105582,-1.2839345,-2.9810798,8.433066,-12.875356,1.6076757,-1.7654241,-0.076004915,7.5309663,3.2973664,13.426469,-32.20248,58.494064,30.864971,3.5445328,-2.161711,1.3509349,-15.119532,33.745598,56.9639,-30.228148,0.23291066,4.404126
54,-0.05876395106315613,-2.137489080429077,78.05449676513672,0.13916271726801616,-0.6193703739505128,90.49844719495107,2.1431477,1.6210679,-2.7308254,8.057642,-12.000078,-3.2969754,4.09571,-1.2934525,-2.982399,8.4308815,-12.878362,1.6135063,-1.7819142,-0.07547658,7.5266027,3.30786,13.4205265,-32.20085,58.49082,30.839136,3.5322855,-2.149901,1.3386797,-15.121046,33.74464,56.968475,-30.126877,0.2504196,4.3558583
55,-0.06991815567016602,-2.133220911026001,78.05422973632812,0.14083216754530908,-0.6077935514542535,90.50324329224625,2.1336718,1.6113021,-2.7314022,8.0555105,-12.001872,-3.284994,4.08702,-1.3025362,-2.982336,8.429877,-12.881909,1.6195917,-1.779679,-0.07815865,7.523162,3.2998955,13.408171,-32.21033,58.510178,30.816746,3.5202427,-2.1331046,1.3391228,-15.123469,33.729584,56.959896,-30.01506,0.26937026,4.3087525
56,-0.07310660183429718,-2.12731671333313,78.05427551269531,0.1414115012088271,-0.6018809574256252,90.50253744443432,2.1303966,1.6038785,-2.7281754,8.0572,-12.007293,-3.274366,4.0849223,-1.3097289,-2.97948,8.428015,-12.884,1.6258218,-1.7794983,-0.08138022,7.5265503,3.301272,13.404496,-32.21397,58.514965,30.799374,3.5122433,-2.1219683,1.3365227,-15.124056,33.719345,56.952076,-29.911411,0.2837073,4.268616
57,-0.08426836878061295,-2.1243979930877686,78.05335998535156,0.14038728510285547,-0.6063334751040745,90.49240938699774,2.1415784,1.6006709,-2.7178593,8.059125,-12.015857,-3.2656975,4.0914774,-1.3137736,-2.971505,8.430581,-12.885922,1.6326461,-1.7750874,-0.07883457,7.541219,3.3055613,13.398871,-32.21784,58.51201,30.789066,3.5132303,-2.1168141,1.3281977,-15.125012,33.703228,56.948303,-29.80831,0.2915448,4.2363772
58,-0.09787917137145996,-2.1206486225128174,78.05297088623047,0.13860250921391398,-0.6164180244717182,90.47614977398231,2.1580083,1.6003144,-2.7029464,8.067282,-12.029458,-3.2580054,4.103036,-1.3153373,-2.9603772,8.435325,-12.887665,1.6398274,-1.7711558,-0.07795151,7.558632,3.3129675,13.396075,-32.21683,58.509304,30.782349,3.5176172,-2.1143334,1.3213419,-15.125457,33.692577,56.940937,-29.699785,0.29744065,4.208877
59,-0.10733744502067566,-2.1184606552124023,78.0526123046875,0.136719905915222,-0.6273474082058655,90.45939254755778,2.1778681,1.5997304,-2.6878483,8.070874,-12.041011,-3.250559,4.1172442,-1.3174087,-2.9488025,8.436941,-12.888175,1.6468239,-1.7623932,-0.07515455,7.581365,3.3200681,13.393615,-32.215168,58.5008,30.783506,3.5239012,-2.111265,1.3109965,-15.1259,33.681473,56.936897,-29.60471,0.29941365,4.187142
60,-0.10063408315181732,-2.1061434745788574,78.0535659790039,0.1359970230203103,-0.6297274259399093,90.45037651455526,2.1867464,1.59471,-2.679762,8.073524,-12.050184,-3.2423856,4.122112,-1.3229737,-2.942231,8.440475,-12.892507,1.6531312,-1.7585545,-0.07132784,7.595022,3.3270924,13.3894,-32.21418,58.49261,30.785246,3.5276322,-2.1045806,1.3004667,-15.126976,33.672493,56.94219,-29.560114,0.2951563,4.1767526
61,-0.09964866191148758,-2.09582781791687,78.05316162109375,0.1358403065728567,-0.6206374219431463,90.4506342577074,2.1838872,1.5860134,-2.6800537,8.068565,-12.052532,-3.2350254,4.117511,-1.3307977,-2.940626,8.439436,-12.8983555,1.6552607,-1.7586529,-0.068212666,7.59448,3.3304327,13.388032,-32.21485,58.490677,30.785345,3.5260677,-2.0941744,1.2986692,-15.127442,33.674232,56.95074,-29.577585,0.28554842,4.175504
62,-0.11033689230680466,-2.089392900466919,78.05368041992188,0.13652975375523357,-0.6027174304807418,90.45630236408849,2.1710048,1.5744704,-2.6854625,8.0615835,-12.052443,-3.2281551,4.1025424,-1.3408602,-2.9417818,8.440928,-12.907813,1.6548958,-1.7734635,-0.05902703,7.5777016,3.3439136,13.376618,-32.21367,58.489933,30.78153,3.524463,-2.074239,1.2913338,-15.13162,33.705074,56.97787,-29.632433,0.2681914,4.179113
63,-0.12588515877723694,-2.0843288898468018,78.05370330810547,0.1384601825439754,-0.5815657849829119,90.46702015347,2.1541572,1.5590614,-2.6954958,8.052772,-12.049864,-3.2188334,4.0867414,-1.3544917,-2.9478571,8.438842,-12.915943,1.6581895,-1.8000847,-0.05077287,7.556557,3.355881,13.361658,-32.20393,58.496468,30.781984,3.5206704,-2.0529666,1.282246,-15.137625,33.748127,57.006783,-29.70456,0.2519115,4.1944985
64,-0.14553461968898773,-2.082193374633789,78.05193328857422,0.14192844386379108,-0.5603879408029037,90.48171085464666,2.1356645,1.537896,-2.7089968,8.045591,-12.047091,-3.2038975,4.073454,-1.3745162,-2.9599748,8.433093,-12.919945,1.6716318,-1.8242196,-0.046695028,7.5405293,3.3654785,13.351379,-32.20054,58.497185,30.785057,3.5166817,-2.0333948,1.2768812,-15.142291,33.768738,57.028183,-29.788527,0.23639433,4.228274
65,-0.16068989038467407,-2.0765185356140137,78.05024719238281,0.14994659732537577,-0.5371531146517005,90.50460927518418,2.1130996,1.50645,-2.729827,8.038226,-12.041735,-3.1792812,4.062977,-1.4057885,-2.9837513,8.420545,-12.917752,1.7018232,-1.8580289,-0.044247866,7.5249753,3.371742,13.335696,-32.198776,58.50198,30.796726,3.513399,-2.0143528,1.2718154,-15.150559,33.771263,57.04432,-29.895412,0.22047053,4.3002434
66,-0.18650159239768982,-2.06974720954895,78.04932403564453,0.1615978153309123,-0.5109593023933044,90.53459369105518,2.085979,1.4667629,-2.7569895,8.030206,-12.033904,-3.147712,4.051686,-1.4458784,-3.0165222,8.405518,-12.912516,1.7436936,-1.8901858,-0.04399804,7.5097857,3.3698437,13.317522,-32.207138,58.510998,30.81299,3.509733,-1.9957191,1.2739115,-15.161745,33.748676,57.05263,-30.033026,0.20195627,4.4023657
67,-0.2108454406261444,-2.0630030632019043,78.05095672607422,0.17291593584484638,-0.4866854527454619,90.56336976084286,2.0612347,1.4280382,-2.782919,8.022985,-12.027165,-3.1162033,4.0434265,-1.4849651,-3.048299,8.3885975,-12.905814,1.786289,-1.9110616,-0.04217583,7.497657,3.3543375,13.294644,-32.227173,58.532818,30.823788,3.5051374,-1.9732622,1.2861875,-15.177957,33.71529,57.050922,-30.157845,0.18710664,4.495369
68,-0.2261054515838623,-2.057837963104248,78.05046844482422,0.18038228542378934,-0.46908591078011863,90.5827231774967,2.0462332,1.3981705,-2.8000143,8.016979,-12.024337,-3.0915885,4.038717,-1.5149547,-3.0688438,8.377494,-12.9027195,1.8185943,-1.9226652,-0.038357265,7.4924235,3.3395238,13.274728,-32.24718,58.551888,30.821316,3.4997976,-1.9456333,1.2967573,-15.193103,33.698395,57.05139,-30.223654,0.18246618,4.5381904
69,-0.2363174706697464,-2.0493006706237793,78.0512924194336,0.18210979935403235,-0.4604118686736606,90.58904227519803,2.042434,1.3816128,-2.8050916,8.015458,-12.027468,-3.0775697,4.0387106,-1.5309566,-3.073712,8.372096,-12.90268,1.8364892,-1.9231045,-0.031104103,7.495829,3.322989,13.2573,-32.267067,58.57283,30.796413,3.4913917,-1.9057661,1.302555,-15.206282,33.70762,57.056824,-30.18361,0.1945224,4.5000806
70,-0.24509656429290771,-2.038543224334717,78.05158996582031,0.18096692025443156,-0.45783629461810305,90.58720105307415,2.0479832,1.3731297,-2.802535,8.013504,-12.0330305,-3.069887,4.0426297,-1.5385913,-3.0689418,8.369626,-12.904002,1.8462286,-1.9176289,-0.024857152,7.50655,3.3091924,13.248219,-32.284283,58.588226,30.757212,3.480207,-1.8586923,1.3008993,-15.212801,33.731873,57.07054,-30.075087,0.21803592,4.4086013
71,-0.25950494408607483,-2.030292272567749,78.05016326904297,0.17795846692286274,-0.4586231366466388,90.58182661382172,2.0569477,1.3675144,-2.7964833,8.015004,-12.04217,-3.063496,4.0480876,-1.543431,-3.0601704,8.372136,-12.908974,1.8524411,-1.9067628,-0.019701209,7.521947,3.296935,13.243024,-32.297535,58.598,30.720663,3.4697115,-1.8170089,1.2991128,-15.216141,33.75857,57.084927,-29.97567,0.2424023,4.312239
72,-0.27402418851852417,-2.024397134780884,78.04898071289062,0.1753338004242006,-0.4599270453753078,90.57746901707668,2.0666428,1.3598616,-2.790948,8.01728,-12.052865,-3.0534813,4.055878,-1.5505289,-3.0525398,8.37328,-12.914725,1.8591189,-1.8993126,-0.014915685,7.5343547,3.2892718,13.2349205,-32.30676,58.604904,30.69708,3.4649615,-1.7903143,1.2997268,-15.220539,33.795536,57.09914,-29.951597,0.26024866,4.2561393
73,-0.2875315546989441,-2.0146918296813965,78.04827880859375,0.17546433356649077,-0.46203820442745697,90.57566862834747,2.0763202,1.3486351,-2.7870297,8.022446,-12.066746,-3.0372546,4.066079,-1.5612909,-3.049057,8.374952,-12.923505,1.8686888,-1.8802091,-0.015408407,7.552051,3.283085,13.233282,-32.308765,58.598995,30.706306,3.463451,-1.787071,1.3050765,-15.221549,33.80605,57.110542,-30.058226,0.2604626,4.2698216
74,-0.3027428984642029,-2.0059187412261963,78.04745483398438,0.17472962050139626,-0.46935013808058423,90.57253572553154,2.0930815,1.336717,-2.7812543,8.027452,-12.082921,-3.0178127,4.081515,-1.5732104,-3.0437548,8.37976,-12.936159,1.8774574,-1.8660631,-0.0174759,7.5735345,3.276594,13.228957,-32.307404,58.59375,30.720762,3.4668412,-1.7943696,1.3177164,-15.223908,33.830578,57.114315,-30.250107,0.2555926,4.317826
75,-0.3179789185523987,-1.9921845197677612,78.04598236083984,0.17410043043290532,-0.4745354349845428,90.56937187532111,2.1068554,1.324592,-2.7753532,8.034519,-12.100485,-2.998665,4.094713,-1.5853888,-3.0389817,8.385761,-12.949981,1.8854815,-1.8526379,-0.01857979,7.590758,3.2743397,13.223316,-32.29726,58.585472,30.745543,3.4728801,-1.8138167,1.3296688,-15.22701,33.858547,57.119778,-30.449877,0.2514307,4.3714094
76,-0.3319803476333618,-1.9805642366409302,78.04458618164062,0.17382392702860583,-0.475449755890832,90.56530496329691,2.1191525,1.3129317,-2.7688596,8.036603,-12.115572,-2.9832172,4.1031737,-1.5977172,-3.0344453,8.392062,-12.962891,1.8925018,-1.8452773,-0.015783263,7.602321,3.2744515,13.215251,-32.277428,58.575924,30.769457,3.4810908,-1.843816,1.3382337,-15.231335,33.89283,57.12724,-30.603863,0.25691497,4.3991246
77,-0.3444252908229828,-1.9711520671844482,78.04341125488281,0.17096684325544248,-0.47045454549700727,90.56109324975088,2.1280985,1.3016348,-2.7625391,8.031892,-12.126327,-2.9740727,4.1067367,-1.6100509,-3.0314937,8.394833,-12.972143,1.8970809,-1.8402083,-0.007583187,7.604623,3.2745256,13.204777,-32.25332,58.56674,30.788872,3.4925618,-1.8910154,1.3463342,-15.236854,33.937458,57.14142,-30.70277,0.27980635,4.3745728
78,-0.3606320023536682,-1.95615816116333,78.04327392578125,0.16797655313596574,-0.4614729372359333,90.55657852861034,2.1348324,1.2907592,-2.7562132,8.024336,-12.135947,-2.9688978,4.1056104,-1.622629,-3.0295599,8.399063,-12.981266,1.8997957,-1.8318609,0.003314521,7.6006274,3.2739089,13.195756,-32.230587,58.555626,30.806208,3.5075421,-1.9538763,1.3569397,-15.241585,33.984097,57.15907,-30.778292,0.3135398,4.320339
79,-0.3772643506526947,-1.9409328699111938,78.04210662841797,0.16540540446842983,-0.451086904311621,90.55018485981623,2.1414516,1.2799306,-2.7479925,8.015473,-12.145211,-2.9635317,4.1031117,-1.6352875,-3.0253844,8.403256,-12.990626,1.9030042,-1.8202085,0.013382235,7.594883,3.2739847,13.189708,-32.2105,58.54213,30.820557,3.524919,-2.0182788,1.3698786,-15.244392,34.016384,57.16959,-30.83111,0.34573755,4.277982
80,-0.3971366584300995,-1.9264414310455322,78.04157257080078,0.16451607561757012,-0.4417753115132009,90.53996728914984,2.1496727,1.2688113,-2.7357621,8.008018,-12.155526,-2.953846,4.1032453,-1.6479477,-3.0176985,8.4040785,-12.999421,1.9109709,-1.8113756,0.018977508,7.590284,3.2792351,13.18429,-32.187237,58.52668,30.83263,3.5437396,-2.0693374,1.3786572,-15.246197,34.03014,57.16761,-30.856457,0.36480668,4.2879944
81,-0.42120903730392456,-1.914862036705017,78.04015350341797,0.16491482377267574,-0.4358311323643954,90.52016730573145,2.160298,1.2620355,-2.7138026,8.009364,-12.172088,-2.939975,4.105795,-1.6562899,-2.9989598,8.405521,-13.010081,1.9203992,-1.80335,0.019452415,7.5867057,3.2928908,13.182088,-32.163094,58.507637,30.833197,3.5678883,-2.1035075,1.3825904,-15.245994,34.01801,57.14501,-30.833279,0.36749333,4.3794007
82,-0.4059925675392151,-1.9031215906143188,78.03888702392578,0.16611517156097352,-0.4317957434552773,90.49298182804466,2.174646,1.2578201,-2.6842616,8.011617,-12.190226,-2.9236465,4.1104484,-1.6621608,-2.972407,8.405759,-13.021344,1.9311684,-1.7993876,0.015691992,7.5945354,3.3092663,13.177237,-32.103245,58.4824,30.852236,3.591562,-2.1355753,1.3779538,-15.242161,33.963963,57.104004,-30.793499,0.35531554,4.5314374
83,-0.4144446849822998,-1.882080316543579,78.03719329833984,0.1691787330343161,-0.4251746542076945,90.47113984820017,2.1855683,1.2482259,-2.6600995,8.012972,-12.206776,-2.9034414,4.115388,-1.6729131,-2.950189,8.401635,-13.030583,1.947382,-1.7935711,0.01073283,7.594621,3.3253682,13.175242,-32.070053,58.461876,30.86073,3.6151757,-2.1550317,1.375876,-15.237245,33.9102,57.066654,-30.740057,0.33871916,4.687831
84,-0.4490988254547119,-1.8620126247406006,78.03612518310547,0.17562347227324646,-0.4122235489046928,90.46687092898075,2.1881328,1.2241797,-2.6535275,8.008818,-12.217332,-2.877739,4.1173844,-1.6972796,-2.945321,8.39573,-13.039004,1.9746923,-1.7946236,0.006711158,7.5889845,3.3367703,13.173923,-32.056618,58.44837,30.87833,3.6295652,-2.164125,1.3747839,-15.233192,33.86827,57.046715,-30.714231,0.3198716,4.805262
85,-0.5024471282958984,-1.846289038658142,78.035400390625,0.18741362195206157,-0.386899318302843,90.49260740570338,2.1736245,1.1755321,-2.676834,7.996214,-12.2177,-2.84221,4.1132555,-1.745059,-2.969599,8.382245,-13.042216,2.0216606,-1.809171,0.0056048464,7.5723767,3.3416471,13.17041,-32.071545,58.442005,30.921822,3.6331627,-2.1625097,1.3719789,-15.22987,33.83178,57.057316,-30.753328,0.29332927,4.8913207
86,-0.5501577258110046,-1.8337498903274536,78.03443908691406,0.20375580259798784,-0.3528647307516029,90.53846121683247,2.1470451,1.1094416,-2.7202015,7.978732,-12.211429,-2.799021,4.1051974,-1.8094404,-3.0133004,8.363797,-13.042664,2.083258,-1.8374555,0.0056911074,7.546107,3.343526,13.164678,-32.105133,58.443684,30.98023,3.6288972,-2.1500115,1.3679442,-15.23057,33.806652,57.08514,-30.824127,0.2600428,4.962845
87,-0.5768522620201111,-1.8173998594284058,78.03263092041016,0.21900296972299038,-0.3211101404648264,90.58389853779384,2.1237557,1.0446061,-2.763454,7.9619436,-12.206735,-2.75641,4.1003165,-1.8721044,-3.0562396,8.346033,-13.0445175,2.142777,-1.8417977,0.0085747,7.5197253,3.3223307,13.150972,-32.171597,58.473396,31.019709,3.6206665,-2.124075,1.3841845,-15.236707,33.771484,57.103184,-30.877071,0.22955272,4.992061
88,-0.5919883251190186,-1.7973909378051758,78.03028869628906,0.22911445171361608,-0.3031565192931246,90.60991906501896,2.11914,0.99869996,-2.787761,7.952135,-12.212564,-2.7225554,4.106057,-1.9164543,-3.0792985,8.33626,-13.05348,2.183731,-1.845526,0.0090268,7.5109196,3.314021,13.143286,-32.206,58.494434,31.03165,3.6068943,-2.0915105,1.3934822,-15.240684,33.77173,57.109997,-30.848072,0.21412714,4.949551
89,-0.6010356545448303,-1.7741035223007202,78.02845001220703,0.22872952974593425,-0.305483438354779,90.60729772716333,2.139837,0.9823547,-2.7841558,7.956899,-12.235563,-2.7024593,4.1269436,-1.9315907,-3.072434,8.3386135,-13.07282,2.1958494,-1.8184421,0.008277473,7.521018,3.2983625,13.136026,-32.237453,58.534794,30.98342,3.5851657,-2.035239,1.4143242,-15.243243,33.80179,57.09528,-30.685345,0.22121176,4.7831154
90,-0.6066337823867798,-1.7444459199905396,78.02527618408203,0.2239741498926979,-0.32095315658587753,90.58799510896856,2.176338,0.9839713,-2.7644184,7.9719667,-12.270249,-2.6908047,4.1582594,-1.9290999,-3.0477684,8.348907,-13.099344,2.1899922,-1.7821501,0.0051284735,7.5439744,3.2845976,13.131428,-32.25709,58.5839,30.897823,3.5544746,-1.9612228,1.4344115,-15.241913,33.867725,57.074413,-30.429506,0.24290708,4.5221295
91,-0.6208064556121826,-1.723430871963501,78.022705078125,0.2173832340622297,-0.33986730269829984,90.56255397297397,2.2184455,0.988855,-2.7388215,7.98763,-12.307342,-2.6804266,4.190789,-1.9238008,-3.0177703,8.36316,-13.128289,2.1810412,-1.7547188,0.00011953289,7.5699177,3.2826319,13.130003,-32.25695,58.622795,30.810558,3.5262883,-1.8954133,1.4407684,-15.234572,33.951622,57.062225,-30.167961,0.2671075,4.25866
92,-0.6417299509048462,-1.703826665878296,78.01968383789062,0.21413868793378799,-0.3523770512809107,90.54140054995175,2.2535973,0.98261285,-2.7179155,7.9970045,-12.3379,-2.6643212,4.218008,-1.930303,-2.9950793,8.371884,-13.151905,2.1836958,-1.7330124,-0.0044463505,7.5931873,3.2833645,13.131077,-32.2499,58.643284,30.754162,3.511528,-1.8642411,1.4418619,-15.226379,34.001522,57.051445,-29.999928,0.28053945,4.0893235
93,-0.6814563870429993,-1.689483642578125,78.01837158203125,0.21643558794261805,-0.3592852763431935,90.52058844749676,2.2831545,0.9639536,-2.6982598,7.998143,-12.36022,-2.642021,4.236291,-1.9507997,-2.9773335,8.379437,-13.169279,2.2015345,-1.7231122,-0.007183476,7.61248,3.2935858,13.132757,-32.22606,58.638332,30.730822,3.5146594,-1.8783164,1.4251035,-15.215253,34.023525,57.054043,-29.946417,0.28022578,4.044066
94,-0.7208780646324158,-1.670730710029602,78.01689147949219,0.21953879847923669,-0.3645056798783886,90.49634276542456,2.312397,0.9400056,-2.6760192,7.993972,-12.378361,-2.616905,4.2508616,-1.9772451,-2.9595768,8.386661,-13.183302,2.2267547,-1.7064186,-0.007946645,7.6328077,3.3000398,13.133502,-32.201855,58.623837,30.721256,3.5300477,-1.9215341,1.4126651,-15.207668,34.0152,57.046146,-29.9626,0.2732658,4.0726957
95,-0.7503763437271118,-1.6471000909805298,78.01380920410156,0.2256363612394438,-0.36349584836357957,90.48135800760956,2.3328583,0.90849984,-2.6626353,7.990828,-12.395768,-2.587318,4.2627373,-2.0110686,-2.951614,8.390089,-13.1978035,2.2573833,-1.701129,-0.007793387,7.6466875,3.3093832,13.133481,-32.17742,58.603096,30.733465,3.5524516,-1.9797202,1.3956858,-15.201678,33.995255,57.044167,-30.021296,0.26414388,4.141454
96,-0.7468041777610779,-1.6279218196868896,78.01363372802734,0.23410505101386675,-0.3512339404285519,90.48749471654898,2.3408506,0.8672852,-2.6685905,7.983072,-12.409429,-2.5516791,4.2706347,-2.0536,-2.962385,8.388994,-13.217668,2.291227,-1.7141383,-0.009760355,7.645752,3.3214478,13.132936,-32.164295,58.585358,30.769123,3.5786793,-2.0362427,1.3836006,-15.19687,33.973557,57.044647,-30.093628,0.26076648,4.216185
97,-0.7580801248550415,-1.5963795185089111,78.01263427734375,0.24845739815961077,-0.31893382741374104,90.52922057316057,2.3242378,0.8098653,-2.707184,7.972356,-12.418827,-2.50689,4.271561,-2.1108549,-3.0047095,8.37842,-13.246387,2.3300931,-1.7604821,-0.01429581,7.6164923,3.3387985,13.131117,-32.17007,58.572823,30.854046,3.6148121,-2.0997567,1.3773237,-15.192459,33.94874,57.05163,-30.210474,0.27003834,4.325501
98,-0.8044787645339966,-1.5636401176452637,78.00863647460938,0.26544340059819505,-0.271338398107339,90.5958516816705,2.289898,0.73953664,-2.768704,7.9578633,-12.424181,-2.454694,4.265453,-2.180055,-3.069784,8.362525,-13.281444,2.3742366,-1.8113893,-0.017030848,7.5650682,3.3502855,13.124811,-32.21148,58.56729,30.97477,3.6640458,-2.1737132,1.3843821,-15.187275,33.88964,57.062923,-30.385462,0.2832151,4.47669
99,-0.857050895690918,-1.5394196510314941,78.00547790527344,0.28379167435095964,-0.2249966113602498,90.66358294841842,2.2567074,0.66826713,-2.831462,7.9449105,-12.431185,-2.4008467,4.2620273,-2.250139,-3.1361187,8.345987,-13.315886,2.419186,-1.868573,-0.021300226,7.516096,3.3627238,13.118436,-32.249916,58.56402,31.080538,3.7072024,-2.2352626,1.3911988,-15.186129,33.84662,57.072033,-30.525541,0.2940901,4.5973597
100,-0.8984019160270691,-1.5153882503509521,78.00257873535156,0.29855606836034554,-0.1959586668958277,90.70806353037068,2.2430558,0.6091552,-2.8733864,7.9395504,-12.446141,-2.3512352,4.2688375,-2.308946,-3.1818647,8.336343,-13.344019,2.460492,-1.8952354,-0.026792374,7.494427,3.3587313,13.11167,-32.284378,58.57288,31.120188,3.7292156,-2.2622302,1.4005883,-15.186048,33.808865,57.074173,-30.567915,0.2901518,4.6197686
101,-0.9394849538803101,-1.49720299243927,77.99836730957031,0.3066816415530047,-0.19341864316885898,90.71146157313484,2.2623954,0.57395095,-2.8763652,7.9419456,-12.4726925,-2.313431,4.290406,-2.3452618,-3.1910422,8.337065,-13.362137,2.4940643,-1.8798276,-0.036574464,7.514997,3.3426254,13.110375,-32.292027,58.587727,31.064548,3.7190204,-2.239763,1.4054114,-15.185246,33.80627,57.069252,-30.43229,0.26290143,4.4641147
102,-0.9662845134735107,-1.4700530767440796,77.99531555175781,0.3124207647786552,-0.20737764421124621,90.69047691807286,2.302482,0.5522355,-2.856119,7.9491735,-12.50683,-2.28228,4.32373,-2.368725,-3.1787746,8.340578,-13.372753,2.5234108,-1.8306248,-0.05193687,7.5608177,3.305434,13.111145,-32.29807,58.621864,30.938671,3.6866255,-2.1814024,1.412646,-15.181495,33.822502,57.059746,-30.174822,0.21975008,4.18571
103,-1.00103759765625,-1.4475693702697754,77.98980712890625,0.3235430970997847,-0.2242484349355244,90.67168928212095,2.3453515,0.5213487,-2.8401763,7.9557595,-12.539699,-2.244391,4.356759,-2.40102,-3.168454,8.351983,-13.385498,2.5557692,-1.7979397,-0.07119849,7.6113763,3.2806623,13.114913,-32.293545,58.643925,30.80201,3.6488187,-2.1143985,1.4070228,-15.174727,33.839367,57.061905,-29.926544,0.17403054,3.9222312
104,-0.9937534928321838,-1.4162688255310059,77.98761749267578,0.3434730094461422,-0.2311631815100361,90.682047811907,2.3683233,0.4632146,-2.8571148,7.967476,-12.568151,-2.1864884,4.384971,-2.4587088,-3.1852252,8.364081,-13.40477,2.5984817,-1.8158783,-0.08999462,7.6497774,3.276867,13.120005,-32.28768,58.644466,30.707972,3.620321,-2.0651863,1.393094,-15.165959,33.820362,57.069866,-29.821451,0.14182436,3.811859
105,-1.020554780960083,-1.3870069980621338,77.98358154296875,0.3766570712310303,-0.22495284611611713,90.74051009818498,2.3680272,0.3667981,-2.9278133,7.976853,-12.581936,-2.1011796,4.4053473,-2.551248,-3.2463753,8.383805,-13.440329,2.6544147,-1.8988484,-0.104341045,7.6687217,3.2940629,13.123881,-32.30148,58.622902,30.671276,3.6056967,-2.0366776,1.3663919,-15.15744,33.753853,57.098644,-29.97007,0.13143897,3.9496083
106,-1.0828852653503418,-1.3642536401748657,77.976806640625,0.42228506444437497,-0.21118635898878169,90.82728341457188,2.3541393,0.23949772,-3.0305805,7.9852905,-12.586886,-1.996076,4.3646913,-2.6755116,-3.331277,8.529801,-13.54944,2.7207243,-2.0133514,-0.120644666,7.676911,3.3144286,13.123491,-32.3379,58.59684,30.659977,3.597057,-2.0146477,1.3422642,-15.152702,33.64546,57.129826,-30.279203,0.13270406,4.24377
107,-1.1502792835235596,-1.3431038856506348,77.96724700927734,0.4945858629107005,-0.18941245974558293,90.90981245177333,2.3443449,0.08172999,-3.1274612,7.9663363,-12.580208,-1.8795854,4.1292624,-2.8430836,-3.3998291,9.068712,-13.861256,2.7947664,-2.1205432,-0.15792009,7.679966,3.3280818,13.118289,-32.378235,58.57393,30.659037,3.591476,-2.002017,1.3334253,-15.151668,33.479153,57.137817,-30.580715,0.13017495,4.551629
108,-1.1956532001495361,-1.3182995319366455,77.95413208007812,0.5743764933093903,-0.16492690999483806,90.9630797699939,2.3432097,-0.07470381,-3.192364,7.9347243,-12.581431,-1.7638708,3.8425574,-3.0162628,-3.4355896,9.696057,-14.203484,2.8696136,-2.1709828,-0.20665385,7.691284,3.3098433,13.108982,-32.424103,58.571785,30.648798,3.5864134,-2.0014665,1.3618313,-15.150687,33.212826,57.095196,-30.716667,0.10967437,4.7308016
109,-1.2129911184310913,-1.289351463317871,77.94173431396484,0.6586279558434989,-0.13770670594041318,90.98705558459747,2.3474898,-0.22693668,-3.2268336,7.8957605,-12.595296,-1.6439295,3.5143895,-3.1903172,-3.440649,10.391929,-14.583116,2.9468443,-2.179036,-0.26824158,7.7133827,3.2711089,13.101144,-32.450706,58.581005,30.632137,3.5785496,-2.0205166,1.418771,-15.144181,32.857597,56.99813,-30.598078,0.07033824,4.7225733
110,-1.2496180534362793,-1.2643630504608154,77.92533111572266,0.7502137806031606,-0.10706862261691413,90.9948640966003,2.3542306,-0.38227877,-3.2452688,7.8491974,-12.616035,-1.5170504,3.1420946,-3.3715608,-3.4270797,11.166116,-15.002993,3.028249,-2.128414,-0.340254,7.7416162,3.193507,13.093111,-32.507675,58.614822,30.606813,3.5718513,-2.054124,1.5165557,-15.127439,32.379665,56.85465,-30.341612,0.016331349,4.611497
111,-1.3051997423171997,-1.2497035264968872,77.90270233154297,0.8525865283062333,-0.07387019214573595,90.97762392045662,2.3729913,-0.54186076,-3.234413,7.7828526,-12.637315,-1.3967009,2.6976182,-3.5641618,-3.3805578,12.0724325,-15.460976,3.10958,-2.0573158,-0.42620105,7.772153,3.1176918,13.087553,-32.546413,58.642353,30.581757,3.5685027,-2.0934432,1.6159644,-15.099891,31.859211,56.706394,-30.035797,-0.04711706,4.4603133
112,-1.3554632663726807,-1.234826922416687,77.87476348876953,0.9718448645361136,-0.03905420458691269,90.92642026521325,2.413742,-0.70707285,-3.1811898,7.6817393,-12.650353,-1.296313,2.154765,-3.7719343,-3.2868025,13.161624,-15.953419,3.1873798,-1.9798129,-0.528851,7.802876,3.0653465,13.085826,-32.546616,58.64467,30.559402,3.5715346,-2.128845,1.6963867,-15.064784,31.340902,56.580692,-29.781178,-0.11605394,4.3342805
113,-1.396625280380249,-1.2175921201705933,77.84274291992188,1.1157762039379007,0.012845461037942039,90.83537707447054,2.4683962,-0.8861098,-3.0760574,7.526605,-12.647002,-1.22042,1.4887692,-4.00076,-3.1368542,14.448503,-16.507328,3.2601252,-1.8942935,-0.6525367,7.8143406,3.0449033,13.086468,-32.50278,58.61707,30.541056,3.590591,-2.160191,1.7640742,-15.026073,30.825874,56.484478,-29.70278,-0.1891218,4.29281
114,-1.4238837957382202,-1.1988937854766846,77.8102035522461,1.2780596768684023,0.07689835415477042,90.7110133966224,2.534263,-1.0748324,-2.9287398,7.331525,-12.634263,-1.1616067,0.7209464,-4.2429585,-2.9400713,15.90387,-17.11373,3.3312469,-1.77489,-0.79520196,7.814278,3.029312,13.089794,-32.449665,58.580658,30.520119,3.622085,-2.1911647,1.8342605,-14.972831,30.26552,56.404728,-29.7248,-0.26979175,4.2872105
115,-1.443827748298645,-1.1765104532241821,77.77243041992188,1.4425876175802994,0.1222004546637415,90.56266788477825,2.6300154,-1.2571416,-2.7551842,7.128824,-12.624155,-1.115022,-0.09609762,-4.480637,-2.7111533,17.491505,-17.7091,3.4058213,-1.6476005,-0.94565266,7.8420267,3.021973,13.09883,-32.371323,58.527943,30.498125,3.6472363,-2.2190704,1.8800359,-14.906189,29.698053,56.33454,-29.620098,-0.3567004,4.2198076
116,-1.458725094795227,-1.153786301612854,77.73651885986328,1.596673419204666,0.11828329892267325,90.39891870919318,2.7005231,-1.4220661,-2.568389,7.1085935,-12.712387,-1.0755635,-0.91729486,-4.6976995,-2.4642558,19.189959,-18.230865,3.4901035,-1.5228533,-1.0938781,7.937832,3.0173233,13.118135,-32.26773,58.45551,30.474247,3.6472905,-2.2415686,1.8875707,-14.828989,29.140488,56.256348,-29.168304,-0.45098087,3.9954982
117,-1.4638333320617676,-1.132804036140442,77.70024108886719,1.7442222526497486,0.0464278993105418,90.2113291626575,2.8482249,-1.5663047,-2.3616092,7.104817,-12.814201,-1.0449245,-1.7309494,-4.893058,-2.2021418,21.025282,-18.68631,3.5899467,-1.388115,-1.2477425,8.126098,3.018463,13.15331,-32.1256,58.34633,30.448797,3.6078303,-2.2549126,1.8503633,-14.737522,28.584812,56.147087,-28.197823,-0.5819196,3.5429225
118,-1.4633760452270508,-1.110002040863037,77.6658706665039,1.8901945162638836,-0.07300088532281546,89.99841414056596,3.0549693,-1.6980425,-2.1306047,7.1046796,-12.923858,-1.0242503,-2.5571802,-5.0706363,-1.9195042,22.990776,-19.096237,3.7053995,-1.2433594,-1.411044,8.381274,3.0315514,13.2065935,-31.948372,58.20067,30.421412,3.541742,-2.2626052,1.7752284,-14.631699,28.026863,56.023975,-26.86491,-0.7500483,2.9303935
119,-1.444693922996521,-1.0812599658966064,77.63082885742188,2.0259614605809166,-0.21243342168458243,89.77898032941886,3.2865732,-1.8136234,-1.8964342,7.1027336,-13.031518,-1.0085932,-3.4004633,-5.223303,-1.618329,25.021128,-19.42493,3.8352551,-1.1077299,-1.5678971,8.6682,3.0486617,13.276352,-31.773296,58.045834,30.387745,3.4721887,-2.2724934,1.6767687,-14.514472,27.474998,55.924297,-25.445776,-0.9113477,2.2717366
120,-1.4472132921218872,-1.0485146045684814,77.60000610351562,2.14132550894683,-0.34426750008767715,89.57204269551347,3.5053592,-1.9087257,-1.680114,7.1020136,-13.131996,-0.99341065,-4.26521,-5.344222,-1.3002491,27.050467,-19.636065,3.978167,-0.999199,-1.702389,8.950964,3.0582042,13.357968,-31.640331,57.91339,30.342339,3.422809,-2.2917645,1.5690978,-14.391205,26.936401,55.88522,-24.214417,-1.0109513,1.6772364
121,-1.466567873954773,-1.0271368026733398,77.57322692871094,2.233066029008185,-0.4623669531113266,89.3803748031591,3.7031307,-1.9835485,-1.4854215,7.1021485,-13.221814,-0.9753849,-5.1732697,-5.4336166,-0.97385514,29.109087,-19.724504,4.1049633,-0.92128927,-1.8069856,9.223477,3.0555787,13.4464245,-31.559444,57.80658,30.283342,3.4026535,-2.3229678,1.451257,-14.26581,26.409391,55.929764,-23.170073,-1.0067137,1.1346701
122,-1.4707841873168945,-1.008218765258789,77.54828643798828,2.3080461143057946,-0.5811485943784325,89.19442639211364,3.8997898,-2.040026,-1.3013818,7.10247,-13.304599,-0.9579666,-6.114753,-5.4904613,-0.63693815,31.215872,-19.705404,4.2334127,-0.8625378,-1.8901,9.503183,3.0425293,13.539838,-31.51182,57.716305,30.214231,3.3982646,-2.3611095,1.3209965,-14.139257,25.888306,56.02856,-22.18969,-0.9347186,0.5965042
123,-1.4488484859466553,-0.9826409816741943,77.5329360961914,2.3663189752942957,-0.7046125700604459,89.01488583570973,4.101834,-2.0755858,-1.1269612,7.1036286,-13.385586,-0.9471684,-7.044483,-5.50683,-0.27435073,33.28415,-19.58159,4.4302793,-0.81873983,-1.9595422,9.789528,3.0156848,13.638923,-31.49537,57.657017,30.13598,3.399803,-2.4016812,1.1884124,-14.012531,25.377346,56.14071,-21.35988,-0.84658635,0.119037755
124,-1.4143446683883667,-0.94661545753479,77.51708984375,2.4113360249135574,-0.8366354501040081,88.84239861792314,4.316965,-2.086487,-0.9613005,7.1039805,-13.469233,-0.9490116,-7.9205604,-5.476096,0.1301841,35.235962,-19.360943,4.7583942,-0.78530264,-2.0215197,10.082865,2.9733508,13.745649,-31.507565,57.640167,30.050207,3.3969193,-2.4407032,1.0663202,-13.885059,24.879992,56.221912,-20.769186,-0.7913871,-0.2391005
125,-1.3553770780563354,-0.9010238647460938,77.50147247314453,2.4391915876169,-0.987197670995489,88.67119795479748,4.554683,-2.0662153,-0.79889035,7.108302,-13.559906,-0.9672451,-8.730716,-5.385239,0.5882371,37.07631,-19.004555,5.269369,-0.752557,-2.0774465,10.398139,2.905881,13.863018,-31.558323,57.679085,29.941225,3.3858795,-2.475304,0.95911026,-13.754796,24.384,56.255898,-20.511114,-0.7763018,-0.43376464
126,-1.2959721088409424,-0.8731414675712585,77.49274444580078,2.4482132570045256,-1.1516066857839553,88.50271645300823,4.8110657,-2.0175235,-0.6416804,7.111918,-13.652819,-0.9982038,-9.500179,-5.2382116,1.0908945,38.848763,-18.53157,5.919185,-0.7248178,-2.1234806,10.731046,2.8185267,13.991592,-31.646393,57.760952,29.813309,3.3724232,-2.508778,0.8603163,-13.620335,23.891315,56.26627,-20.515238,-0.7718383,-0.5050703
127,-1.2645843029022217,-0.8308501839637756,77.48388671875,2.4460560055586713,-1.3112263788859126,88.3486372642191,5.062639,-1.9509777,-0.49962473,7.1167707,-13.745425,-1.0364587,-10.246592,-5.0573964,1.6241133,40.539497,-18.039513,6.623026,-0.72053576,-2.160358,11.051615,2.731453,14.129454,-31.751223,57.861,29.697002,3.3608606,-2.5456452,0.7616154,-13.485305,23.427158,56.27529,-20.625643,-0.7721213,-0.5208434
128,-1.2489701509475708,-0.7914763689041138,77.4729232788086,2.43793264066622,-1.447242542866624,88.22080506935804,5.2904444,-1.8781333,-0.38286218,7.115603,-13.830488,-1.0764955,-10.985461,-4.868432,2.1722975,42.127644,-17.619637,7.2941475,-0.75971866,-2.1888144,11.330208,2.6647472,14.273046,-31.850723,57.954662,29.62314,3.3553612,-2.5904448,0.6560204,-13.356344,23.020063,56.30228,-20.684155,-0.77171826,-0.5485557
129,-1.2149341106414795,-0.7447939515113831,77.46316528320312,2.4270128462142244,-1.5520729577385668,88.12381790877619,5.476021,-1.8042512,-0.29596123,7.125478,-13.915541,-1.1168407,-11.72451,-4.6594925,2.765833,43.60902,-17.261864,7.9477997,-0.86242133,-2.2072496,11.556037,2.6292636,14.420077,-31.936604,58.03509,29.61705,3.3542728,-2.6513155,0.5343178,-13.238612,22.690168,56.359535,-20.65629,-0.76090014,-0.60733014
130,-1.1582618951797485,-0.6996455788612366,77.45785522460938,2.410005749558622,-1.636637403140341,88.05091323214903,5.64022,-1.7224184,-0.23297694,7.1307864,-13.993988,-1.1604011,-12.452373,-4.424195,3.4014463,44.99449,-16.929417,8.616809,-1.0156937,-2.2143419,11.746764,2.6122262,14.5699215,-32.01873,58.115746,29.657486,3.355977,-2.723353,0.4059602,-13.132188,22.421747,56.42882,-20.621536,-0.7452399,-0.65989804
131,-1.0814213752746582,-0.6352347135543823,77.45745849609375,2.3829761004051915,-1.7100105057033312,87.9970046654229,5.7938385,-1.6267353,-0.18793383,7.1357884,-14.071032,-1.2080128,-13.16009,-4.2029834,4.012415,46.28619,-16.669312,9.234416,-1.1883781,-2.2131848,11.9147,2.597536,14.721161,-32.101685,58.20441,29.706442,3.3647268,-2.791443,0.29176393,-13.037634,22.186415,56.485165,-20.594694,-0.7421406,-0.6892322
132,-1.0037914514541626,-0.5504223108291626,77.45318603515625,2.3449195781553698,-1.7811672771625549,87.9568173784436,5.949447,-1.511972,-0.15461592,7.141695,-14.150389,-1.2604122,-13.842495,-4.0413666,4.533615,47.488815,-16.525581,9.728566,-1.3488432,-2.2071729,12.071807,2.5689678,14.8719425,-32.190292,58.309418,29.726053,3.3851209,-2.8401783,0.21315953,-12.955921,21.954828,56.50219,-20.589977,-0.7688558,-0.6781907
133,-0.9151889681816101,-0.46193328499794006,77.45089721679688,2.296468723306034,-1.8582007423012539,87.92710241854478,6.1185956,-1.3754762,-0.12923531,7.1482525,-14.232604,-1.3156089,-14.492899,-3.9516978,4.9514003,48.602592,-16.545547,10.064549,-1.4884053,-2.197404,12.222776,2.5194104,15.021586,-32.302025,58.449047,29.69337,3.4215055,-2.8477774,0.18215087,-12.887668,21.71096,56.463448,-20.626863,-0.84795725,-0.5848413
134,-0.8232859969139099,-0.36923789978027344,77.44912719726562,2.2367919900028044,-1.9343971164695477,87.91136509577781,6.2930093,-1.2209324,-0.11571327,7.1509724,-14.312938,-1.3737355,-15.119586,-3.9191778,5.3017054,49.625874,-16.687212,10.27572,-1.6215326,-2.1815848,12.360565,2.455595,15.169521,-32.43236,58.616474,29.632437,3.470567,-2.8279083,0.18881097,-12.833424,21.470137,56.383255,-20.692524,-0.9645005,-0.43046835
135,-0.7277224659919739,-0.2759478688240051,77.44959259033203,2.1696968246420414,-1.996131640244013,87.91426607973452,6.4482803,-1.0535297,-0.119264595,7.1637917,-14.400205,-1.4387118,-15.738695,-3.9495177,5.594604,50.554382,-16.856756,10.39073,-1.7535704,-2.158116,12.479204,2.383142,15.31379,-32.55148,58.781143,29.575336,3.5251896,-2.8185284,0.22137088,-12.793879,21.250677,56.281666,-20.754002,-1.0793737,-0.29261756
136,-0.631402850151062,-0.18045835196971893,77.45002746582031,2.097353120550211,-2.030015446624439,87.94031201649216,6.5729,-0.8788928,-0.14528795,7.1721582,-14.4865675,-1.5144025,-16.365803,-4.0474424,5.8411407,51.383293,-16.961151,10.440243,-1.8908242,-2.1247852,12.573015,2.3069549,15.451732,-32.629593,58.913486,29.552588,3.5782766,-2.8576272,0.2682517,-12.7681265,21.07301,56.177547,-20.777802,-1.1531302,-0.24857146
137,-0.5253293514251709,-0.07016345113515854,77.44926452636719,2.0168539002255463,-2.0245360710063527,87.9976517307262,6.6495986,-0.69497347,-0.20219627,7.179458,-14.573736,-1.6030146,-17.017956,-4.231501,6.014838,52.11607,-16.988688,10.416958,-2.0412188,-2.078417,12.632613,2.2269874,15.581109,-32.649807,59.010994,29.568304,3.621233,-2.9572515,0.32376283,-12.757301,20.952124,56.071724,-20.73634,-1.1660602,-0.34145254
138,-0.41487184166908264,0.04852568358182907,77.44982147216797,1.9277337218436272,-1.989477763459617,88.08151055811823,6.6908937,-0.5003145,-0.28489196,7.187717,-14.662815,-1.7018864,-17.683918,-4.496378,6.122344,52.75233,-16.98297,10.306545,-2.202147,-2.020445,12.663248,2.1413572,15.701359,-32.62819,59.089283,29.607683,3.6599417,-3.0963416,0.39304924,-12.761602,20.87818,55.95733,-20.65205,-1.1422917,-0.5227231
139,-0.301390677690506,0.17604292929172516,77.44935607910156,1.8374991882717602,-1.9426203538437539,88.17710734123057,6.721412,-0.30063704,-0.37885603,7.1955876,-14.75345,-1.8078967,-18.338675,-4.8083286,6.223008,53.28432,-16.9359,10.130906,-2.3622057,-1.9573178,12.679885,2.0520875,15.813004,-32.583107,59.14804,29.678715,3.708868,-3.2630193,0.47914803,-12.7789755,20.829594,55.84518,-20.570822,-1.1079414,-0.7326664
140,-0.18246445059776306,0.2645431458950043,77.44664001464844,1.7533757804904397,-1.9020706704927712,88.26964537372642,6.765437,-0.101719126,-0.4692409,7.2034826,-14.846693,-1.9178447,-18.956568,-5.132118,6.3751874,53.70384,-16.839476,9.912954,-2.5096734,-1.8962628,12.697104,1.9608877,15.917423,-32.534554,59.186604,29.787783,3.7826848,-3.4456613,0.5827575,-12.806782,20.784807,55.74919,-20.5386,-1.088501,-0.911921
141,-0.05047865957021713,0.36065319180488586,77.44449615478516,1.6760907136622811,-1.8694721534147007,88.3639122275324,6.819832,0.09572303,-0.5608678,7.218639,-14.944749,-2.033358,-19.538593,-5.469344,6.5811286,54.012436,-16.68858,9.642561,-2.6451807,-1.8388262,12.714736,1.8642987,16.015028,-32.485893,59.20582,29.968546,3.9038951,-3.6709225,0.70602864,-12.843583,20.748028,55.67152,-20.59569,-1.0898936,-1.0534985
142,0.0821218267083168,0.5016036033630371,77.43949890136719,1.602196647159276,-1.8361784824533545,88.46482948792938,6.8522706,0.29368675,-0.6585832,7.2846217,-15.070139,-2.1554568,-20.098293,-5.83452,6.8134284,54.215096,-16.490404,9.31253,-2.7724128,-1.7823467,12.726011,1.7621635,16.105732,-32.42891,59.20587,30.206888,4.0578055,-3.9356396,0.847088,-12.88894,20.726103,55.606983,-20.709032,-1.0985425,-1.1864593
143,0.2187023162841797,0.661004364490509,77.43231964111328,1.53350558862594,-1.8053083706921838,88.55763660792705,6.8966794,0.49196768,-0.74764633,7.3485394,-15.199791,-2.2798994,-20.625849,-6.211138,7.0841746,54.3033,-16.251867,8.951409,-2.8838882,-1.7280715,12.735281,1.6612448,16.191074,-32.365185,59.186214,30.437698,4.204104,-4.182799,1.0004976,-12.942841,20.700113,55.55955,-20.815332,-1.1104,-1.305409
144,0.36631128191947937,0.8155783414840698,77.4148941040039,1.4743415965430802,-1.7799275286166052,88.62745242374731,6.963836,0.68875784,-0.8129371,7.4068685,-15.336458,-2.4024336,-21.111193,-6.582068,7.405809,54.27016,-15.9801235,8.588042,-2.970593,-1.6775632,12.747711,1.5686884,16.273369,-32.29734,59.144024,30.5953,4.3033533,-4.3550014,1.1640308,-13.004129,20.649086,55.52919,-20.851791,-1.1219543,-1.4045109
145,0.5215599536895752,0.9516169428825378,77.39737701416016,1.4254112421301672,-1.767163881278035,88.65465662599689,7.068607,0.88640827,-0.8347988,7.462391,-15.486065,-2.517791,-21.554094,-6.933329,7.8038774,54.122654,-15.651568,8.218079,-3.0172646,-1.6323323,12.764576,1.49273,16.352154,-32.22266,59.077023,30.644835,4.3433604,-4.424937,1.3410884,-13.071095,20.565802,55.520203,-20.77654,-1.1413864,-1.4894423
146,0.6808003783226013,1.087947130203247,77.37615966796875,1.3838130318829018,-1.7634501270437282,88.6523399560153,7.200368,1.0846716,-0.82618874,7.5180407,-15.646509,-2.6296604,-21.960424,-7.276638,8.262322,53.862362,-15.271899,7.830564,-3.0321145,-1.5909456,12.7857,1.4338256,16.434658,-32.14067,58.97417,30.625944,4.345963,-4.4285636,1.5369607,-13.149422,20.460102,55.521732,-20.630764,-1.1681622,-1.5592021
147,0.8485277891159058,1.3141368627548218,77.35443878173828,1.3513450737073627,-1.7554876839233724,88.65473664544653,7.337309,1.279688,-0.82102066,7.5584235,-15.802248,-2.7472537,-22.329557,-7.6323175,8.731969,53.47553,-14.892259,7.445385,-3.0419111,-1.5535555,12.8052435,1.3678493,16.514158,-32.060917,58.859035,30.585087,4.324647,-4.398283,1.7325433,-13.231666,20.340324,55.545204,-20.479605,-1.1846228,-1.6037722
148,1.0285155773162842,1.5083949565887451,77.3258056640625,1.3255380593229265,-1.7298936793972204,88.69629076962829,7.4455323,1.4672823,-0.8536699,7.593279,-15.951384,-2.879713,-22.661646,-8.024463,9.165127,52.95051,-14.565014,7.0830207,-3.0719893,-1.5184609,12.822913,1.2819978,16.596312,-31.992296,58.73165,30.567797,4.292628,-4.369199,1.9211872,-13.322633,20.210892,55.580853,-20.386868,-1.1735402,-1.6097151
149,1.209913730621338,1.671987771987915,77.2968521118164,1.3077314560113455,-1.679467365427313,88.79060723209551,7.5203,1.6446891,-0.9372098,7.5997453,-16.0779,-3.0337472,-22.963787,-8.465572,9.552878,52.28014,-14.312206,6.742929,-3.1314838,-1.4878095,12.837229,1.1581433,16.676775,-31.942938,58.60897,30.58411,4.2433724,-4.3310905,2.0887153,-13.417015,20.069153,55.6386,-20.390074,-1.1196495,-1.5529186
150,1.3969930410385132,1.8460493087768555,77.26521301269531,1.2988465218154772,-1.6123485346336837,88.91784662933406,7.5740476,1.8146881,-1.0519354,7.5891004,-16.192211,-3.2031481,-23.234179,-8.942467,9.920148,51.474297,-14.104811,6.4175777,-3.2051854,-1.4618715,12.849116,1.0081669,16.755564,-31.907217,58.484325,30.609686,4.173269,-4.2718,2.2439873,-13.515099,19.912523,55.718414,-20.448969,-1.0357757,-1.4473919
151,1.5920735597610474,2.025132894515991,77.23062896728516,1.2959593946398118,-1.5387093151968267,89.06224228127351,7.6222825,1.9829998,-1.1825325,7.573549,-16.306108,-3.3776743,-23.455555,-9.437062,10.268684,50.540794,-13.913474,6.116672,-3.2845926,-1.4369303,12.855424,0.85429823,16.831776,-31.871265,58.34527,30.64273,4.1001277,-4.221041,2.4000301,-13.616479,19.751183,55.819244,-20.511702,-0.9458518,-1.3400406
152,1.7899706363677979,2.204495906829834,77.19347381591797,1.297300675427331,-1.4688063332823829,89.20773551203655,7.684285,2.1544883,-1.3133479,7.5590777,-16.428478,-3.547031,-23.612072,-9.933312,10.600862,49.490437,-13.711143,5.8498325,-3.3620262,-1.409705,12.852947,0.7184627,16.90418,-31.820658,58.1802,30.681065,4.041316,-4.2084107,2.5690851,-13.719616,19.596684,55.94071,-20.525684,-0.873815,-1.2783507
153,2.0003561973571777,2.40362811088562,77.14981842041016,1.3049449310925771,-1.4073170283043062,89.35791711423607,7.7563443,2.3255398,-1.4478923,7.565975,-16.569876,-3.7035546,-23.684893,-10.443726,10.912787,48.30048,-13.501123,5.640829,-3.4436545,-1.3807601,12.841674,0.60683626,16.972013,-31.748842,57.97939,30.72211,4.0007887,-4.2558746,2.752296,-13.824495,19.457535,56.09163,-20.461771,-0.8291553,-1.2916148
154,2.221869945526123,2.602813959121704,77.10335540771484,1.318691824990475,-1.34827672827707,89.51857245883647,7.837208,2.4954202,-1.5915135,7.572096,-16.7161,-3.8544412,-23.686996,-10.972601,11.203984,46.975395,-13.294923,5.477445,-3.5321622,-1.3510122,12.822843,0.50809085,17.035414,-31.662487,57.751427,30.7682,3.9693134,-4.342857,2.9425914,-13.930929,19.327852,56.269764,-20.352188,-0.7980471,-1.3493185
155,2.4393742084503174,2.8236687183380127,77.0579833984375,1.3316807713957997,-1.2852215811096348,89.67736750663592,7.921905,2.6743343,-1.7327967,7.57635,-16.8685,-4.0116167,-23.649977,-11.493206,11.48141,45.56495,-13.076906,5.3150907,-3.6137655,-1.3183907,12.794398,0.41775793,17.094746,-31.56821,57.514008,30.82393,3.9450402,-4.4350233,3.1381037,-14.038743,19.19486,56.463207,-20.238522,-0.7690827,-1.4095707
156,2.6701831817626953,3.0511016845703125,77.0102767944336,1.339453283683054,-1.2116216059264022,89.82186776282111,8.006701,2.8727853,-1.8601774,7.5744495,-17.02673,-4.1871214,-23.605871,-11.978018,11.7522335,44.11908,-12.83206,5.108997,-3.674403,-1.2805892,12.754478,0.3322002,17.150234,-31.472055,57.28356,30.895102,3.925946,-4.498263,3.3380585,-14.146912,19.045523,56.658356,-20.16251,-0.73048884,-1.4302685
157,2.9120492935180664,3.2752604484558105,76.95784759521484,1.3372097431751753,-1.1237059391683593,89.94822969468957,8.089139,3.0956016,-1.9700333,7.564176,-17.191671,-4.383326,-23.560513,-12.410986,12.037399,42.626404,-12.536424,4.8424406,-3.7035222,-1.2338631,12.701501,0.24731807,17.20152,-31.373901,57.057487,30.990456,3.9144163,-4.526294,3.5443232,-14.25454,18.871439,56.85767,-20.149204,-0.6756311,-1.3900249
158,3.1574037075042725,3.5016720294952393,76.89722442626953,1.3256373194032791,-1.0255407654538515,90.06357805484838,8.170443,3.3396277,-2.0688088,7.5509357,-17.364813,-4.5943527,-23.50026,-12.809125,12.325423,41.076046,-12.208696,4.5392723,-3.710116,-1.177768,12.636581,0.16524918,17.248302,-31.272198,56.830288,31.104424,3.910765,-4.536286,3.757161,-14.361383,18.680046,57.06652,-20.17216,-0.6120066,-1.3146207
159,3.4167182445526123,3.7451705932617188,76.8370132446289,1.312340744909606,-0.9216841275816902,90.17074347226804,8.255689,3.5972095,-2.1580572,7.532298,-17.540947,-4.819647,-23.427687,-13.195018,12.577654,39.51503,-11.896304,4.2172194,-3.7091694,-1.120273,12.561533,0.09102247,17.291409,-31.17107,56.614258,31.220102,3.909607,-4.529155,3.9725626,-14.467581,18.48246,57.27654,-20.195532,-0.54873437,-1.2329246
160,3.6962356567382812,4.0209641456604,76.77275848388672,1.3025019422819304,-0.8172413990928782,90.27329118871054,8.349701,3.8638844,-2.2401922,7.5069017,-17.715456,-5.058862,-23.343952,-13.584068,12.752012,37.98873,-11.646296,3.8967824,-3.716447,-1.0658524,12.479138,0.029859558,17.332314,-31.074675,56.42055,31.31951,3.9058187,-4.5059886,4.187803,-14.572112,18.289736,57.477043,-20.183174,-0.4949818,-1.1734896
161,3.9790830612182617,4.281049728393555,76.70142364501953,1.2991010946238712,-0.7092670392695035,90.37590701057186,8.45085,4.1339355,-2.318414,7.4700146,-17.886274,-5.313751,-23.24383,-13.98151,12.859551,36.475643,-11.4684,3.5759873,-3.7370903,-1.019159,12.385737,-0.018786537,17.371243,-30.984837,56.25688,31.40213,3.886199,-4.4470887,4.402862,-14.675685,18.099432,57.67059,-20.11079,-0.45240486,-1.1489683
162,4.270226955413818,4.554228782653809,76.6245346069336,1.299373399325749,-0.5967403226642303,90.47537001690135,8.56083,4.4115486,-2.3895543,7.4173265,-18.053116,-5.58397,-23.12771,-14.372886,12.913464,34.96133,-11.33928,3.2510366,-3.7623472,-0.97601104,12.281547,-0.05641371,17.408058,-30.898785,56.1142,31.476204,3.857422,-4.358764,4.6194196,-14.778058,17.907759,57.859917,-20.001991,-0.41653666,-1.1423004
163,4.572929859161377,4.833168983459473,76.54369354248047,1.2954023586246213,-0.4865377274140168,90.56355139543668,8.678489,4.7065206,-2.447612,7.3722234,-18.22602,-5.865799,-23.001364,-14.743299,12.873741,33.49664,-11.254101,2.9414341,-3.7875228,-0.9308936,12.174695,-0.07859363,17.444849,-30.812878,55.980217,31.537844,3.8443642,-4.280668,4.832343,-14.878976,17.723677,58.0414,-19.894287,-0.38660473,-1.1388171
164,4.887212753295898,5.111313343048096,76.4608154296875,1.2808250691722571,-0.3861419704153715,90.6323923904223,8.799381,5.0276017,-2.4868958,7.366391,-18.419533,-6.155626,-22.868858,-15.08118,12.701238,32.130302,-11.206179,2.6658742,-3.8084369,-0.8796281,12.073482,-0.07944184,17.485569,-30.72259,55.84043,31.58347,3.8717399,-4.2528386,5.035049,-14.978655,17.557476,58.212463,-19.824265,-0.36198363,-1.1243093
165,5.216005325317383,5.403531551361084,76.37303161621094,1.2596073026821641,-0.321061224401837,90.67570075565013,8.965866,5.370757,-2.5007253,7.3805532,-18.634504,-6.4531727,-22.698189,-15.403508,12.3780575,30.847794,-11.23778,2.3883429,-3.8215854,-0.8338989,11.991093,-0.047853414,17.525543,-30.617126,55.68656,31.621523,3.9711742,-4.3091335,5.2218537,-15.061043,17.415756,58.39413,-19.816319,-0.34628692,-1.1005242
166,5.563806533813477,5.712739944458008,76.27989959716797,1.226347506871904,-0.2787396642579765,90.70165022732266,9.038274,5.7369423,-2.508221,7.674226,-19.00502,-6.7610116,-22.492796,-15.70069,11.919217,29.627853,-11.338505,2.1174357,-3.834296,-0.7755079,11.931575,0.032938223,17.58578,-30.497377,55.480755,31.647598,4.1189017,-4.4268436,5.4233327,-15.166465,17.28852,58.53379,-19.838991,-0.3408499,-1.0617715
167,5.910148620605469,5.99104118347168,76.18058013916016,1.1730413875099965,-0.212241440147134,90.71898949708202,9.068395,6.1387625,-2.5074222,8.004972,-19.378674,-7.079253,-22.304953,-15.938525,11.349331,28.501183,-11.409151,1.9325142,-3.8527024,-0.70160353,11.85412,0.11743169,17.653698,-30.384205,55.294853,31.64956,4.2630024,-4.543569,5.6018353,-15.266425,17.177057,58.666267,-19.866066,-0.33454788,-1.0186292
168,6.268562316894531,6.294672966003418,76.07953643798828,1.0839378274650688,-0.07313640912849263,90.73953745567418,8.968973,6.591958,-2.513453,8.419157,-19.755499,-7.408652,-22.191221,-16.084827,10.688947,27.503805,-11.352327,1.9057337,-3.8827147,-0.5929425,11.726421,0.17147295,17.728853,-30.300835,55.171074,31.611742,4.350008,-4.6009808,5.74411,-15.359146,17.073915,58.78783,-19.867876,-0.31793028,-0.97222435
169,6.643686294555664,6.606834411621094,75.98191833496094,0.9499263294732824,0.17865668303073864,90.76338502433931,8.682431,7.1073594,-2.5254586,8.927793,-20.140436,-7.7525263,-22.184168,-16.155174,9.85387,26.582043,-11.150695,2.0608342,-3.9233506,-0.44019666,11.520092,0.17742594,17.81086,-30.254816,55.122635,31.505981,4.353676,-4.5677056,5.836751,-15.442867,16.973944,58.898617,-19.830385,-0.28188288,-0.9121878
170,7.028137683868408,6.904454708099365,75.8966064453125,0.7828359041148969,0.5073046649169987,90.78585646396364,8.268954,7.6727233,-2.5408494,9.49956,-20.529749,-8.108894,-22.242634,-16.16603,8.86459,25.727161,-10.84538,2.3516774,-3.9708898,-0.25622118,11.259772,0.15402669,17.899563,-30.235863,55.128666,31.348299,4.306366,-4.4799895,5.8913527,-15.517166,16.879925,59.00059,-19.772419,-0.2335947,-0.8416701
171,7.437008857727051,7.194981575012207,75.8294906616211,0.5973662852182312,0.8480964711943301,90.81126752873709,7.811301,8.269105,-2.5736017,10.132797,-20.912094,-8.469414,-22.316399,-16.085907,7.9006953,25.041302,-10.425955,2.7402995,-4.0283766,-0.056662045,10.991098,0.1227937,17.994064,-30.239367,55.18093,31.189358,4.243109,-4.380777,5.9293084,-15.5836525,16.79724,59.095127,-19.714132,-0.18796244,-0.78273296
172,7.836957931518555,7.426174640655518,75.7543716430664,0.4049999238672664,1.137134516409472,90.84412241533424,7.399047,8.880162,-2.6351213,10.80914,-21.269152,-8.826243,-22.36387,-15.883546,7.1448407,24.635159,-9.888214,3.1895592,-4.098603,0.14516607,10.759008,0.104735024,18.092781,-30.26076,55.271385,31.07946,4.1990595,-4.312719,5.973107,-15.644571,16.731848,59.18242,-19.674698,-0.16012175,-0.75681067
173,8.263745307922363,7.715221405029297,75.67866516113281,0.20539579382362247,1.3683022575451935,90.89460598105804,7.045305,9.50961,-2.7344663,11.515975,-21.616358,-9.180913,-22.377283,-15.518006,6.69142,24.573458,-9.073061,3.7852454,-4.18996,0.3530901,10.558387,0.10272672,18.196003,-30.314423,55.40379,31.046442,4.1841884,-4.303241,6.0383754,-15.701984,16.675608,59.255062,-19.666245,-0.1602836,-0.7785869
174,8.709321975708008,8.048883438110352,75.58589172363281,-0.00848876730383016,1.5731101889858352,90.95702796967359,6.703899,10.168095,-2.8650393,12.260598,-21.953402,-9.535593,-22.38933,-15.005788,6.4350963,24.791456,-8.04782,4.528247,-4.2973332,0.57569826,10.370808,0.105821356,18.303665,-30.397896,55.58029,31.059044,4.179614,-4.324129,6.112095,-15.756382,16.62745,59.312683,-19.676271,-0.1784743,-0.83286273
175,9.157774925231934,8.380894660949707,75.51118469238281,-0.23738825081361906,1.7446250659894604,91.01186079558173,6.368306,10.85056,-3.0154378,13.070757,-22.247648,-9.883119,-22.415283,-14.406004,6.250038,25.201265,-7.1414747,5.2463164,-4.4050627,0.80782545,10.219842,0.115719646,18.41242,-30.480541,55.79078,31.077406,4.1775827,-4.3343663,6.170451,-15.807992,16.60684,59.368492,-19.685467,-0.19950013,-0.8970367
176,9.603464126586914,8.670028686523438,75.45246887207031,-0.48055171753935605,1.8759461306843082,91.04052395301132,6.0341563,11.550796,-3.1749969,13.973184,-22.466515,-10.216018,-22.474283,-13.787315,6.0021296,25.72598,-6.675335,5.7461476,-4.500186,1.0434945,10.128459,0.1350755,18.517027,-30.527672,56.02634,31.064976,4.170287,-4.2927604,6.1879764,-15.85759,16.63441,59.437225,-19.674755,-0.20810929,-0.94861996
177,10.060979843139648,8.952709197998047,75.40864562988281,-0.7490054733378713,1.9631162200459868,91.02969184169244,5.7201395,12.281879,-3.3325417,14.9507065,-22.60312,-10.528902,-22.620018,-13.1516485,5.6554637,26.46537,-6.8375144,5.889959,-4.578725,1.2962906,10.113116,0.16320604,18.611412,-30.522095,56.2978,31.005495,4.149369,-4.162619,6.1455226,-15.908644,16.718506,59.52631,-19.622063,-0.19636077,-0.9870801
178,10.547104835510254,9.249667167663574,75.37496185302734,-1.0444040940332475,2.011159355499774,90.99271932659633,5.4223523,13.046951,-3.4996603,15.993635,-22.672281,-10.825917,-22.830687,-12.468626,5.2749076,27.431208,-7.420575,5.800096,-4.6512933,1.5696787,10.156767,0.1980376,18.693724,-30.48166,56.610573,30.922935,4.1208215,-3.9736915,6.0594535,-15.962549,16.849953,59.62746,-19.542124,-0.17370461,-1.0223567
179,11.012453079223633,9.55947208404541,75.34627532958984,-1.3442372377932583,2.026046715648113,90.95156689874865,5.1131625,13.821991,-3.6977866,17.123491,-22.669426,-11.114755,-23.005136,-11.770078,4.8758616,28.40708,-8.142891,5.660939,-4.7245173,1.8399364,10.231141,0.23497291,18.764719,-30.43025,56.95162,30.837772,4.0988874,-3.7842162,5.957668,-16.013968,17.020975,59.734093,-19.472145,-0.15049534,-1.0487065
180,11.518743515014648,9.886249542236328,75.33191680908203,-1.6262112444968009,2.01416019246595,90.92849258940639,4.7650137,14.579687,-3.947885,18.364676,-22.587667,-11.403738,-23.037945,-11.089852,4.472307,29.16808,-8.721919,5.6582117,-4.809668,2.0804899,10.311112,0.28286558,18.837135,-30.384956,57.289284,30.76962,4.097506,-3.6546056,5.8675494,-16.059227,17.228626,59.8349,-19.447832,-0.1370894,-1.0592064
181,12.020699501037598,10.203795433044434,75.32540893554688,-1.8731891360880468,1.9708079284447395,90.91926541313482,4.4094567,15.306875,-4.231359,19.678532,-22.427141,-11.757065,-22.912373,-10.440848,4.0888915,29.682423,-9.091708,5.8824253,-4.90564,2.2694767,10.401377,0.34809992,18.912354,-30.330126,57.625435,30.732403,4.1269217,-3.6099055,5.7825975,-16.089966,17.472712,59.941525,-19.494291,-0.13769086,-1.0476965
182,12.565669059753418,10.522452354431152,75.32955169677734,-2.099814130673012,1.8946257725260867,90.91558659694614,4.0597444,16.014204,-4.541295,21.05232,-22.183672,-12.152887,-22.673538,-9.809933,3.7141047,30.053745,-9.396332,6.2192,-5.008892,2.42076,10.512126,0.43040237,18.992317,-30.261396,57.965065,30.711838,4.1776614,-3.6160538,5.6898694,-16.105366,17.756626,60.058342,-19.58805,-0.14616537,-1.0203451
183,13.101426124572754,10.84814453125,75.33560943603516,-2.3301478161294447,1.7973160905254437,90.93393194698587,3.6404424,16.70968,-4.9225407,22.585697,-21.866121,-12.472201,-22.326597,-9.182389,3.3084166,30.290462,-9.675554,6.5475445,-5.1162825,2.5616806,10.623239,0.51183426,19.080246,-30.225822,58.3033,30.685278,4.2347584,-3.6422,5.609663,-16.105621,18.069443,60.16953,-19.6973,-0.15730922,-0.9907805
184,13.657611846923828,11.178088188171387,75.36027526855469,-2.5882744923970757,1.6906263830168509,90.9915075106937,3.0824728,17.404543,-5.42126,24.357393,-21.470467,-12.594294,-21.874428,-8.538694,2.8298604,30.390696,-9.965834,6.7472386,-5.222531,2.7226079,10.714891,0.57255554,19.179384,-30.274286,58.635704,30.629183,4.283399,-3.6575491,5.5648932,-16.09138,18.396088,60.256535,-19.790981,-0.16607879,-0.9719972
185,14.223959922790527,11.544737815856934,75.40559387207031,-2.8867910575708198,1.5781252289892445,91.1075741087083,2.376167,18.107336,-6.0925064,26.368248,-21.012121,-12.510364,-21.296484,-7.8750653,2.2491245,30.330498,-10.289021,6.796522,-5.336328,2.9146247,10.774734,0.60170627,19.29456,-30.455832,58.98237,30.50617,4.3170304,-3.6607776,5.576105,-16.060862,18.725626,60.30862,-19.863966,-0.17383826,-0.9822251
186,14.819511413574219,11.900083541870117,75.45864868164062,-3.210991349315948,1.453951908706671,91.26925197378466,1.5687294,18.80596,-6.895065,28.545471,-20.466125,-12.280459,-20.59278,-7.1939826,1.5964955,30.098982,-10.612087,6.7560825,-5.453343,3.1207378,10.816453,0.610995,19.426306,-30.736834,59.3359,30.337328,4.344414,-3.66643,5.629059,-16.013382,19.062704,60.335197,-19.93314,-0.18269767,-1.0092871
187,15.407161712646484,12.257601737976074,75.52668762207031,-3.5530880468194743,1.3165964398252255,91.44582168565614,0.65373266,19.489079,-7.7342644,30.894098,-19.788553,-11.886905,-19.80979,-6.481803,0.923314,29.737808,-10.903655,6.6303844,-5.5531087,3.3334591,10.859336,0.61466527,19.56955,-31.041876,59.65174,30.18618,4.3741856,-3.667639,5.6931105,-15.952478,19.419546,60.3481,-20.000315,-0.18807134,-1.0203749
188,15.991462707519531,12.616305351257324,75.60498809814453,-3.903831542040047,1.1641955381119669,91.60650191918094,-0.37687626,20.151237,-8.515239,33.42318,-18.932041,-11.305513,-18.987646,-5.727737,0.2788147,29.282942,-11.129804,6.424562,-5.6170597,3.546023,10.921724,0.6269875,19.71586,-31.29168,59.88808,30.119043,4.414867,-3.6569855,5.735895,-15.886451,19.810728,60.360966,-20.066158,-0.18559834,-0.9827043
189,16.598846435546875,12.972615242004395,75.69540405273438,-4.276334495855824,0.999770056781293,91.74193950130778,-1.5381403,20.81985,-9.235019,36.17025,-17.862919,-10.514664,-18.119732,-4.908933,-0.33497414,28.715313,-11.27828,6.1175146,-5.645574,3.7717447,10.999662,0.64362586,19.862587,-31.485182,60.053226,30.153261,4.4678335,-3.6268694,5.753226,-15.818898,20.268372,60.373753,-20.127632,-0.16539364,-0.87899804
190,17.198972702026367,13.34343147277832,75.79373168945312,-4.6703899082270075,0.8231283413286956,91.8692098833967,-2.8248274,21.499697,-9.928737,39.10771,-16.606743,-9.519806,-17.185186,-4.035632,-0.9361587,28.018936,-11.366612,5.715416,-5.651371,4.0115457,11.086016,0.6602919,20.00968,-31.65267,60.165188,30.255606,4.5288286,-3.582645,5.7597747,-15.750276,20.780437,60.379402,-20.18344,-0.13272966,-0.7286338
191,17.80951690673828,13.697524070739746,75.90180969238281,-5.058162648433907,0.6271008173545092,91.99652452438409,-4.219634,22.160585,-10.557316,42.160255,-15.217215,-8.328177,-16.200857,-3.150241,-1.507836,27.237665,-11.4081955,5.2653227,-5.6329618,4.2425575,11.194315,0.68958277,20.150017,-31.764175,60.198265,30.414995,4.5976334,-3.536307,5.755279,-15.685365,21.29373,60.37682,-20.235085,-0.106161594,-0.55324644
192,18.395177841186523,14.049360275268555,76.00990295410156,-5.412428025906689,0.4045764749147413,92.13173539201918,-5.707573,22.7766,-11.081193,45.26269,-13.753641,-6.941364,-15.183054,-2.295668,-2.035569,26.41731,-11.416465,4.8143425,-5.5895057,4.4439993,11.33785,0.74178,20.27249,-31.790264,60.131214,30.62015,4.673772,-3.4989517,5.7410555,-15.632349,21.755323,60.3632,-20.28443,-0.10420897,-0.37416583
193,18.987184524536133,14.393684387207031,76.11805725097656,-5.7275524578846255,0.14505365835822628,92.28826175558828,-7.3366013,23.394993,-11.446335,48.49956,-12.109093,-5.2948346,-14.108938,-1.4854813,-2.5280585,25.554184,-11.393985,4.3758082,-5.52185,4.611243,11.52218,0.81169784,20.367012,-31.719505,59.96832,30.918785,4.7726088,-3.472431,5.7369723,-15.596842,22.152466,60.3231,-20.33699,-0.1414894,-0.17372294
194,19.54007911682129,14.766189575195312,76.22850036621094,-6.02085465672172,-0.1454052013217345,92.45690837088569,-9.11341,24.062164,-11.670799,51.875587,-10.311099,-3.3534086,-12.969404,-0.69092745,-2.9890108,24.619421,-11.329344,3.925588,-5.422598,4.7652345,11.737904,0.8801737,20.425287,-31.579222,59.738873,31.29918,4.8894,-3.4488316,5.7458587,-15.582406,22.504929,60.254593,-20.390377,-0.20526539,0.053270258
195,20.111103057861328,15.104561805725098,76.32958984375,-6.300164509369371,-0.449161826559536,92.61116741968895,-10.954553,24.728664,-11.827122,55.21995,-8.622739,-1.1882459,-11.805288,0.10285579,-3.3972833,23.629026,-11.224114,3.4555168,-5.2973676,4.9156227,11.979865,0.96511614,20.456059,-31.370504,59.427326,31.666336,4.992908,-3.4278038,5.7281566,-15.588545,22.831947,60.183723,-20.429203,-0.27172554,0.26547432
196,20.66851043701172,15.453889846801758,76.4354248046875,-6.567636200420607,-0.7483302064879495,92.72547456677876,-12.762425,25.301144,-11.99736,58.3672,-7.29224,1.0802088,-10.663489,0.9037326,-3.7320437,22.612886,-11.082331,2.958024,-5.133201,5.0719895,12.239369,1.0601145,20.457525,-31.120731,59.0407,31.920437,5.0526133,-3.4060738,5.6599956,-15.619925,23.127714,60.12644,-20.443825,-0.3176474,0.42311722
197,21.21723175048828,15.784147262573242,76.53026580810547,-6.832943066608236,-1.0400539062665688,92.80591236957302,-14.596372,25.788937,-12.163768,61.407433,-6.3251414,3.694452,-9.549971,1.7212839,-4.00129,21.5723,-10.90264,2.4242303,-4.935822,5.2469726,12.52346,1.168833,20.429108,-30.804691,58.55096,32.057297,5.0671997,-3.4001973,5.541757,-15.680046,23.38304,60.073322,-20.447905,-0.32853988,0.5272435
198,21.739023208618164,16.107406616210938,76.6147232055664,-7.088898310374337,-1.333898484926717,92.86124674457169,-16.469275,26.216608,-12.289485,64.39115,-5.6077113,6.6130986,-8.437949,2.5431798,-4.211126,20.497814,-10.688105,1.8639811,-4.702368,5.4321647,12.832965,1.2857469,20.369902,-30.427088,57.968708,32.12091,5.0507054,-3.4053802,5.3909574,-15.766978,23.595106,60.013954,-20.443178,-0.31984934,0.5961782
199,22.2531681060791,16.407777786254883,76.69209289550781,-7.308595160358473,-1.6297161844073997,92.87356648182256,-18.19861,26.442268,-12.452316,67.11502,-5.188421,9.213826,-7.3385425,3.3348029,-4.341379,19.423447,-10.460321,1.2978673,-4.4325213,5.5998797,13.151645,1.4108839,20.281267,-30.033758,57.342278,32.08724,4.9952564,-3.387255,5.1939673,-15.882105,23.79695,59.970432,-20.393934,-0.31222942,0.6156911
200,22.755407333374023,16.744380950927734,76.77733612060547,-7.465220447872529,-1.92624592252993,92.82674718481401,-19.598635,26.290915,-12.742121,69.39493,-5.1039715,10.836322,-6.2703185,4.058106,-4.376206,18.391172,-10.242121,0.74483186,-4.1251698,5.7225966,13.463045,1.5432786,20.165361,-29.673632,56.720123,31.931997,4.892665,-3.311601,4.940382,-16.025955,24.019032,59.96097,-20.264395,-0.3266572,0.5721631
201,23.239091873168945,17.06130599975586,76.85881042480469,-7.550288125251905,-2.2336477356931437,92.6964439739149,-20.523445,25.602072,-13.255801,71.14244,-5.4968815,10.9842005,-5.249659,4.7060566,-4.294377,17.4368,-10.044829,0.19847186,-3.7570248,5.793048,13.776619,1.6839722,20.02111,-29.335794,56.08412,31.58046,4.723758,-3.146479,4.614728,-16.202988,24.272455,59.999416,-19.968376,-0.38751748,0.4250752
202,23.690658569335938,17.361557006835938,76.93856048583984,-7.579143473750141,-2.548891813421515,92.4999496763263,-21.093235,24.46783,-13.919467,72.5046,-6.3166456,10.070754,-4.2727804,5.294145,-4.1205587,16.550617,-9.864544,-0.3488041,-3.3394217,5.830568,14.098069,1.8342211,19.847635,-29.0016,55.416615,31.069273,4.4968333,-2.919412,4.228094,-16.413563,24.541842,60.06892,-19.549635,-0.47896582,0.19539846
203,24.129819869995117,17.662818908691406,77.01193237304688,-7.5642954453046505,-2.849756801174221,92.28342892188086,-21.526907,23.096386,-14.576849,73.64448,-7.2997303,8.799947,-3.3364625,5.8204412,-3.9094288,15.716008,-9.704411,-0.8824987,-2.920372,5.8445363,14.4044895,1.99193,19.649105,-28.711002,54.769577,30.540342,4.2464385,-2.6842766,3.806306,-16.650234,24.814404,60.148617,-19.169975,-0.56026083,-0.040013313
204,24.57209587097168,17.975618362426758,77.09307861328125,-7.516778655279628,-3.1130706599968248,92.09405504379069,-22.04409,21.677765,-15.0946045,74.71428,-8.144892,7.8569183,-2.4360807,6.2808747,-3.7137222,14.905837,-9.564549,-1.3883797,-2.5457392,5.838361,14.670974,2.1540844,19.43262,-28.507277,54.19451,30.133604,4.0089545,-2.4935424,3.3750062,-16.899736,25.074179,60.22105,-18.992556,-0.5882836,-0.20619124
205,25.006221771240234,18.296653747558594,77.17669677734375,-7.428936658404933,-3.3398576576190075,91.95368534999844,-22.677923,20.18759,-15.478951,75.74236,-8.761677,7.3586698,-1.5766174,6.6594944,-3.5581172,14.140289,-9.455928,-1.8795894,-2.23011,5.7987013,14.897553,2.3239493,19.20318,-28.40893,53.68739,29.887753,3.7890217,-2.3625665,2.9304433,-17.153603,25.333408,60.305614,-19.05647,-0.54820263,-0.32280377
206,25.42461395263672,18.615699768066406,77.25702667236328,-7.302488142646167,-3.5405677029542995,91.83391672303637,-23.321842,18.556208,-15.795003,76.64122,-9.30183,6.9621153,-0.7625961,6.967538,-3.4145951,13.425437,-9.373294,-2.3631554,-1.9455963,5.725771,15.095531,2.503338,18.962431,-28.393793,53.224808,29.725317,3.5701494,-2.2625403,2.4571772,-17.409986,25.59406,60.413742,-19.27802,-0.46310338,-0.4186803
207,25.83517074584961,18.920591354370117,77.3239517211914,-7.152840191129832,-3.705030169920895,91.70739689971981,-23.97912,16.882694,-16.01089,77.37743,-9.796458,6.6418095,0.004272896,7.2357645,-3.257664,12.726693,-9.290894,-2.81271,-1.675084,5.637376,15.254783,2.6883316,18.712683,-28.441694,52.829037,29.614521,3.358174,-2.1785524,1.9617488,-17.666004,25.823408,60.518723,-19.63817,-0.34586486,-0.43320033
208,26.217418670654297,19.23693084716797,77.39295196533203,-6.995635242746513,-3.822261209347799,91.54673760805362,-24.655615,15.266899,-16.092924,77.91853,-10.278447,6.375907,0.7101493,7.4916906,-3.060871,12.035361,-9.192766,-3.20091,-1.3998717,5.550135,15.364302,2.8738823,18.45643,-28.5351,52.523003,29.522306,3.1587493,-2.0960736,1.4522523,-17.918205,25.986689,60.592976,-20.118174,-0.21119916,-0.3055382
209,26.603689193725586,19.549358367919922,77.46038818359375,-6.823749523476603,-3.8837294379731677,91.34391246676529,-25.36274,13.729782,-15.999554,78.259865,-10.767188,6.1901145,1.3566254,7.732683,-2.8109856,11.324673,-9.059858,-3.5031269,-1.1169993,5.4563384,15.411777,3.0612783,18.196022,-28.690994,52.338585,29.33912,2.925182,-1.8991033,0.9245733,-18.164745,26.06626,60.6441,-20.728312,-0.046008863,-0.0020114072
210,26.986873626708984,19.889415740966797,77.52361297607422,-6.633575236046783,-3.8965277312644244,91.11360058482143,-26.094446,12.223911,-15.759845,78.40853,-11.235262,6.0881205,1.943481,7.945644,-2.524586,10.617328,-8.908588,-3.7414954,-0.83351576,5.3481555,15.4056225,3.253609,17.93234,-28.913794,52.253696,29.1155,2.6700807,-1.6334534,0.37677917,-18.404936,26.082388,60.683434,-21.475088,0.14682998,0.4407137
211,27.356979370117188,20.198741912841797,77.57899475097656,-6.4357401558244645,-3.872939899677428,90.86172067173673,-26.829807,10.743022,-15.446692,78.351906,-11.647245,6.011351,2.4754763,8.141558,-2.2165878,9.935907,-8.757842,-3.956719,-0.54807484,5.2378516,15.364322,3.4488308,17.665628,-29.163895,52.21195,29.058105,2.4899552,-1.5254611,-0.18586907,-18.640282,26.058903,60.69551,-22.337215,0.32857057,0.9762858
212,27.739789962768555,20.506240844726562,77.6227798461914,-6.244345631119754,-3.825547234088523,90.5944391506277,-27.548471,9.281953,-15.134322,78.079666,-11.970194,5.905962,2.95636,8.333545,-1.9026338,9.306054,-8.628637,-4.188456,-0.26160654,5.140055,15.3071785,3.646179,17.395817,-29.399868,52.154472,29.371817,2.481459,-1.8008435,-0.7574184,-18.872797,26.021845,60.66209,-23.290615,0.46169958,1.5576414
213,28.105268478393555,20.83075523376465,77.66606903076172,-6.060684230833399,-3.7446463349155206,90.3133841166071,-28.264063,7.831616,-14.827583,77.58337,-12.199589,5.755802,3.3713129,8.523511,-1.5876482,8.731105,-8.520299,-4.443605,0.023551296,5.0595336,15.227652,3.8480554,17.120993,-29.605703,52.028606,30.37837,2.757626,-2.777113,-1.338738,-19.106312,25.970013,60.586555,-24.472116,0.53218144,2.2638428
214,28.467073440551758,21.133960723876953,77.6997299194336,-5.878537473281709,-3.627833176194673,90.01524046086371,-28.977291,6.3977337,-14.492868,76.865166,-12.35131,5.590164,3.724938,8.706034,-1.2631887,8.196463,-8.424901,-4.701406,0.3061502,4.9877615,15.1185465,4.0589185,16.842108,-29.801638,51.875095,31.891151,3.2077024,-4.259234,-1.9326888,-19.342693,25.89696,60.475494,-25.844227,0.5506908,3.0891175
215,28.811397552490234,21.46197509765625,77.72794342041016,-5.689424861768023,-3.498610724037038,89.69740745960326,-29.651127,4.9907117,-14.143751,75.93712,-12.4258795,5.4226627,4.0214496,8.875026,-0.927318,7.7604127,-8.378596,-4.9586515,0.588423,4.910955,14.999204,4.2784348,16.564837,-30.00096,51.775112,33.340466,3.6181257,-5.693649,-2.5362751,-19.57895,25.817175,60.315067,-27.123835,0.52980244,3.856976
216,29.163846969604492,21.768619537353516,77.74744415283203,-5.486132302292907,-3.3806725566121747,89.35775905437289,-30.249363,3.6207464,-13.796835,74.81322,-12.424341,5.2671885,4.285586,9.025917,-0.5756518,7.4374046,-8.397148,-5.2128024,0.8706412,4.8155203,14.890827,4.5038795,16.29619,-30.215929,51.80942,34.138153,3.8278615,-6.5096803,-3.151319,-19.807781,25.747305,60.095196,-28.026808,0.4972387,4.3908114
217,29.51616668701172,22.093490600585938,77.7569580078125,-5.274267776324804,-3.288734590877933,89.00530755417589,-30.743227,2.2767906,-13.472846,73.467316,-12.344971,5.1168523,4.4655695,9.162478,-0.22944419,7.3784704,-8.562703,-5.4594154,1.1385984,4.6995125,14.806425,4.7351117,16.042398,-30.4669,52.030987,33.941967,3.7798667,-6.3754215,-3.7795224,-20.022196,25.692575,59.811634,-28.60694,0.46169916,4.70719
218,29.860544204711914,22.448272705078125,77.76189422607422,-5.058128608433946,-3.2067367819108563,88.63815681340962,-31.152546,0.9580347,-13.164167,71.894264,-12.185881,4.9681544,4.568439,9.289573,0.11539259,7.5234118,-8.839453,-5.7006655,1.3971374,4.5677156,14.731994,4.9755697,15.805542,-30.742498,52.38136,33.121647,3.575328,-5.6526375,-4.4248033,-20.220272,25.642817,59.477467,-28.973736,0.41895512,4.877208
219,30.21729278564453,22.78801918029785,77.75959014892578,-4.8518132751841065,-3.110287067086015,88.24166382164495,-31.509789,-0.28923872,-12.866405,70.12665,-11.940999,4.8383446,4.6584578,9.429519,0.4874724,7.669211,-9.11851,-5.945279,1.6698427,4.4445963,14.648282,5.229891,15.583058,-31.003109,52.772644,32.156044,3.3182688,-4.8052235,-5.0922165,-20.40173,25.593878,59.106857,-28.926472,0.38591337,4.807922
220,30.565048217773438,23.128196716308594,77.75653839111328,-4.667673990696754,-2.9748373401397235,87.8004857060183,-31.847612,-1.423665,-12.567079,68.19701,-11.604595,4.745021,4.712663,9.596431,0.9038522,7.796926,-9.388049,-6.2017965,1.9791104,4.3478622,14.534958,5.49971,15.368834,-31.20845,53.121666,31.51671,3.1361804,-4.2904243,-5.788677,-20.568275,25.543077,58.71584,-28.265713,0.3752606,4.4067125
221,30.89558219909668,23.46372413635254,77.74656677246094,-4.507303691666572,-2.779977141609455,87.30294476685464,-32.196453,-2.4270582,-12.257197,66.09776,-11.161856,4.712475,4.696695,9.794637,1.3782953,7.9195375,-9.654218,-6.487389,2.3369162,4.282018,14.379241,5.7801733,15.154898,-31.345875,53.40304,31.398785,3.09287,-4.3000126,-6.5404506,-20.722351,25.507544,58.29694,-26.5401,0.40379155,3.430532
222,31.240642547607422,23.804519653320312,77.73270416259766,-4.363888364569262,-2.543174220556748,86.7597948633748,-32.52528,-3.3294113,-11.943766,63.815357,-10.621401,4.722658,4.633093,10.014709,1.8998605,8.040951,-9.920004,-6.7935915,2.725595,4.235264,14.192171,6.0696306,14.938938,-31.434488,53.669632,31.528004,3.115005,-4.5645714,-7.3352385,-20.866455,25.486818,57.8458,-23.984762,0.4111013,2.0004535
223,31.575927734375,24.157041549682617,77.71671295166016,-4.236774051937982,-2.297422992809209,86.18913038808482,-32.779236,-4.159067,-11.640921,61.375557,-10.013302,4.7308707,4.5711145,10.2515335,2.4457896,8.153926,-10.179938,-7.091649,3.1256652,4.2050276,13.990739,6.374063,14.724202,-31.484476,53.952923,31.66635,3.13989,-4.844897,-8.119301,-21.001324,25.448574,57.379025,-21.435503,0.3286359,0.57584715
224,31.911035537719727,24.52444839477539,77.68905639648438,-4.125575474255544,-2.075612734599917,85.60923086742227,-32.905704,-4.939735,-11.368111,58.8027,-9.366594,4.6945944,4.567187,10.49961,2.9949653,8.235635,-10.419583,-7.353476,3.5202732,4.1899257,13.792965,6.700157,14.518234,-31.507053,54.280277,31.57542,3.1071885,-4.901641,-8.845359,-21.124868,25.360153,56.91851,-19.728176,0.16361418,-0.38434818
225,32.24725341796875,24.90058135986328,77.65199279785156,-4.030091764304447,-1.8778571036950362,85.02220348391299,-32.916843,-5.672885,-11.138907,56.09044,-8.655503,4.6501923,4.624585,10.75506,3.5419912,8.277106,-10.629486,-7.560939,3.9066205,4.1922345,13.595747,7.052977,14.325793,-31.511509,54.67693,31.037146,2.9589314,-4.544472,-9.503633,-21.236162,25.193628,56.481777,-19.230856,-0.0789974,-0.6832583
226,32.56679916381836,25.293298721313477,77.60283660888672,-3.9495541024845973,-1.6898071914294155,84.41885227095179,-32.83009,-6.3451624,-10.945882,53.225277,-7.875868,4.6069965,4.718742,11.020213,4.0994015,8.287347,-10.815329,-7.7340164,4.297526,4.211352,13.392313,7.4301543,14.148576,-31.49339,55.115864,30.230545,2.7346077,-3.9463282,-10.120723,-21.336262,24.967937,56.05539,-19.449112,-0.37087083,-0.59446484
227,32.900352478027344,25.68083381652832,77.55286407470703,-3.8869181507312076,-1.5237478297515799,83.7995052280833,-32.609184,-6.953662,-10.781551,50.22249,-7.082834,4.4853373,4.854001,11.301462,4.6704755,8.294911,-11.000859,-7.90201,4.6985736,4.244627,13.197323,7.829709,13.990459,-31.44247,55.540997,29.51065,2.5281909,-3.4109375,-10.706014,-21.419867,24.724085,55.61342,-19.915745,-0.6362179,-0.36917388
228,33.250911712646484,26.06756591796875,77.49053955078125,-3.8409704756335907,-1.3917009543118393,83.1642416585696,-32.217598,-7.4921503,-10.640382,47.08967,-6.332694,4.2083564,5.0452557,11.6052265,5.261002,8.305441,-11.195411,-8.094292,5.113375,4.2872596,13.025302,8.250574,13.856612,-31.345816,55.895954,29.22785,2.4471245,-3.2374516,-11.274897,-21.478056,24.506395,55.13712,-20.16626,-0.7966162,-0.25450867
229,33.60379409790039,26.45482063293457,77.42444610595703,-3.821991953681842,-1.301772560260208,82.50671943682215,-31.62824,-7.963021,-10.579472,43.767696,-5.616902,3.7419353,5.301018,11.945166,5.875195,8.324386,-11.401534,-8.329482,5.554156,4.344983,12.881517,8.703371,13.750956,-31.169878,56.140335,29.67326,2.5742972,-3.6750877,-11.831098,-21.502047,24.321653,54.61003,-20.085365,-0.80034894,-0.31336272
230,33.970428466796875,26.852584838867188,77.3476333618164,-3.827594502422344,-1.247410682943509,81.82690724500088,-30.864346,-8.350981,-10.589643,40.252766,-4.90655,3.1439607,5.614871,12.318526,6.512245,8.34378,-11.610416,-8.589156,6.0131674,4.416719,12.758445,9.196496,13.680358,-30.926283,56.298325,30.594885,2.8277576,-4.5116262,-12.377771,-21.489716,24.154074,54.056892,-19.91715,-0.6996715,-0.4164915
231,34.34114456176758,27.2830810546875,77.26681518554688,-3.8479859346830763,-1.2195478023060153,81.13461900401052,-29.961391,-8.627713,-10.564364,36.630226,-4.222944,2.4719908,5.9871187,12.708329,7.171817,8.335118,-11.807173,-8.847037,6.462812,4.4940786,12.65052,9.714858,13.637387,-30.6658,56.430958,31.529709,3.0812094,-5.3460336,-12.923468,-21.440594,24.00915,53.51832,-19.742254,-0.56714123,-0.51952964
232,34.71785354614258,27.778493881225586,77.17850494384766,-3.8731237481958423,-1.2089292123392021,80.43947077117564,-28.953793,-8.777277,-10.391247,32.986095,-3.5839777,1.7747287,6.407863,13.0968275,7.851327,8.292533,-11.991435,-9.076775,6.8758473,4.564735,12.551912,10.246738,13.621914,-30.440704,56.5938,32.0061,3.2317116,-5.771008,-13.483584,-21.347748,23.894709,53.044067,-19.642067,-0.47539747,-0.57884747
233,35.10171890258789,28.253265380859375,77.0765380859375,-3.91290459365172,-1.2295976664040877,79.72190663303824,-27.790842,-8.788043,-10.073782,29.232016,-3.0035226,0.96963817,6.9062757,13.495729,8.577715,8.188529,-12.155119,-9.270323,7.261971,4.6435633,12.480282,10.791124,13.637661,-30.274166,56.806408,31.789513,3.2478988,-5.569908,-14.062477,-21.214186,23.805832,52.635983,-19.635725,-0.43976817,-0.5653201
234,35.50113296508789,28.685462951660156,76.9604263305664,-3.982166521384687,-1.2858248973733872,78.97646965925803,-26.455122,-8.66315,-9.653573,25.320261,-2.4488857,0.059739638,7.4950914,13.921025,9.35531,8.010547,-12.288266,-9.444272,7.638217,4.7460485,12.43262,11.35526,13.684702,-30.136053,57.037296,31.166052,3.186993,-4.994444,-14.653325,-21.03942,23.739552,52.276093,-19.68211,-0.423184,-0.50770384
235,35.906333923339844,29.12098503112793,76.83746337890625,-4.072384204808422,-1.351501626159005,78.23552025426557,-25.03656,-8.432696,-9.070838,21.41856,-1.8728079,-0.79172564,8.147585,14.353758,10.147987,7.754939,-12.377851,-9.608094,7.996469,4.8607655,12.376054,11.935281,13.7611475,-30.01167,57.259758,30.438402,3.0927954,-4.3375177,-15.228541,-20.828814,23.691347,51.95077,-19.769524,-0.41909838,-0.44552058
236,36.29468536376953,29.586828231811523,76.7083969116211,-4.16711095618638,-1.396060148132752,77.53668845358658,-23.640947,-8.1463785,-8.266869,17.730112,-1.2468824,-1.4286118,8.824339,14.768335,10.912073,7.4336443,-12.419876,-9.7696705,8.324555,4.968545,12.276577,12.522814,13.863274,-29.888332,57.451027,29.906637,3.0208108,-3.8901677,-15.757333,-20.59279,23.654955,51.641647,-19.886805,-0.4210491,-0.41783857
237,36.694374084472656,30.062952041625977,76.5815200805664,-4.251388685652434,-1.4126900701516898,76.89495116231923,-22.280865,-7.834581,-7.1585627,14.270979,-0.5504947,-1.8033724,9.478126,15.151693,11.630609,7.1320868,-12.469124,-9.913187,8.610295,5.053613,12.131682,13.121291,13.987969,-29.760593,57.59578,29.650146,2.9887059,-3.736878,-16.234093,-20.340235,23.632553,51.34046,-20.028992,-0.4326936,-0.4325186
238,37.091888427734375,30.544809341430664,76.44708251953125,-4.331954374860176,-1.4106596810605951,76.29355950502968,-20.900427,-7.5067396,-5.7932124,10.933991,0.20750304,-2.0179112,9.991585,15.541191,12.285119,7.1166096,-12.669163,-10.038104,8.859105,5.12632,11.954628,13.728373,14.1343,-29.638012,57.7133,29.50878,2.9691408,-3.7194383,-16.66689,-20.073973,23.624147,51.04697,-20.200743,-0.4555152,-0.46808067
